滤镜资源/Professional Luts Collection/Lutify.me Professional/Instant Films/Danburite.cube
# Created by: Lutify.me
# Copyright: (c) Copyright Lutify.me 2015
# Website: https://lutify.me
#LUT size
LUT_3D_SIZE 33
#LUT data points
0.054077 0.053345 0.046600
0.063293 0.053986 0.046417
0.075592 0.054718 0.046448
0.089844 0.055298 0.046600
0.104431 0.055725 0.046722
0.119781 0.056458 0.046936
0.135559 0.056854 0.047150
0.151672 0.057495 0.047455
0.168518 0.057739 0.047760
0.186127 0.057892 0.048004
0.204559 0.057617 0.048279
0.223480 0.057129 0.048645
0.243134 0.056000 0.048981
0.263489 0.054352 0.049316
0.284668 0.052124 0.049683
0.306458 0.049316 0.050079
0.329071 0.045837 0.050354
0.352478 0.041870 0.050720
0.376587 0.039246 0.051056
0.401611 0.037933 0.051239
0.428040 0.037842 0.051697
0.455688 0.037842 0.052063
0.484497 0.037842 0.052368
0.514435 0.037842 0.052673
0.545258 0.037842 0.052826
0.576813 0.037842 0.052917
0.608887 0.037842 0.053192
0.641510 0.037842 0.053192
0.674377 0.037842 0.053406
0.707336 0.037842 0.053101
0.740265 0.037842 0.052765
0.773132 0.037842 0.052399
0.805389 0.037842 0.052002
0.055145 0.062408 0.047363
0.063782 0.063873 0.047211
0.075653 0.064728 0.047089
0.089844 0.065521 0.047180
0.104584 0.066376 0.047058
0.119934 0.067261 0.047180
0.135864 0.068085 0.047455
0.152283 0.068481 0.047546
0.169159 0.069061 0.047699
0.186920 0.069336 0.047943
0.205414 0.069183 0.048370
0.224457 0.068848 0.048523
0.244202 0.067902 0.048798
0.264648 0.066620 0.049103
0.285919 0.064606 0.049408
0.307800 0.061951 0.049652
0.330444 0.058380 0.049988
0.353882 0.053833 0.050385
0.377991 0.048523 0.050659
0.403015 0.043610 0.050903
0.429413 0.039825 0.051208
0.457062 0.038025 0.051483
0.485870 0.037842 0.051758
0.515808 0.037842 0.052063
0.546631 0.037842 0.052246
0.578094 0.037842 0.052399
0.610138 0.037842 0.052460
0.642731 0.037842 0.052490
0.675507 0.037842 0.052399
0.708405 0.037842 0.052338
0.741272 0.037842 0.052002
0.774048 0.037842 0.051453
0.806244 0.037842 0.050873
0.057434 0.073486 0.048645
0.065521 0.075195 0.048309
0.076324 0.076935 0.047974
0.089966 0.078247 0.047943
0.104797 0.079468 0.047852
0.120148 0.080505 0.047852
0.136047 0.081512 0.047852
0.152588 0.082245 0.047913
0.169708 0.082977 0.047974
0.187592 0.083496 0.048126
0.206207 0.083679 0.048340
0.225342 0.083435 0.048676
0.245239 0.082886 0.048706
0.265839 0.081909 0.048920
0.287231 0.080322 0.049133
0.309265 0.078033 0.049286
0.332001 0.074890 0.049622
0.355560 0.070923 0.049866
0.379761 0.066040 0.050079
0.404755 0.059814 0.050323
0.431213 0.051910 0.050568
0.458862 0.044983 0.050812
0.487640 0.040436 0.050964
0.517609 0.038666 0.051208
0.548370 0.037842 0.051392
0.579742 0.037842 0.051514
0.611786 0.037842 0.051636
0.644257 0.037842 0.051605
0.677002 0.037842 0.051392
0.709808 0.037842 0.051300
0.742554 0.037842 0.050842
0.775269 0.037842 0.050323
0.807434 0.037842 0.049713
0.059753 0.087036 0.050018
0.067688 0.088715 0.049713
0.078278 0.090668 0.049194
0.091217 0.092468 0.048889
0.105469 0.093903 0.048889
0.120544 0.095123 0.048920
0.136353 0.096313 0.048767
0.152924 0.097290 0.048676
0.170166 0.098206 0.048523
0.188202 0.098938 0.048676
0.206848 0.099426 0.048767
0.226166 0.099579 0.048767
0.246124 0.099518 0.048889
0.266907 0.098938 0.049011
0.288452 0.097931 0.049133
0.310669 0.096436 0.049194
0.333649 0.094208 0.049316
0.357361 0.091156 0.049347
0.381714 0.087128 0.049377
0.406891 0.082123 0.049438
0.433350 0.075165 0.049744
0.461029 0.066467 0.049927
0.489807 0.056580 0.050049
0.519714 0.045807 0.050171
0.550446 0.040771 0.050385
0.581787 0.038239 0.050415
0.613739 0.037842 0.050323
0.646179 0.037842 0.050201
0.678802 0.037842 0.049988
0.711517 0.037842 0.049835
0.744171 0.037842 0.049286
0.776764 0.037842 0.048737
0.808777 0.037842 0.048035
0.062592 0.101440 0.051758
0.070404 0.102966 0.051453
0.080566 0.104919 0.050812
0.092987 0.106903 0.050201
0.106842 0.108765 0.049744
0.121490 0.110016 0.049988
0.137024 0.111450 0.049957
0.153595 0.112823 0.049805
0.170837 0.114014 0.049438
0.188873 0.114960 0.049438
0.207611 0.115784 0.049377
0.227051 0.116272 0.049286
0.247101 0.116547 0.049255
0.267975 0.116455 0.049194
0.289551 0.116089 0.049255
0.311890 0.115265 0.049194
0.335083 0.113770 0.049103
0.358978 0.111755 0.049011
0.383545 0.108856 0.048889
0.408997 0.105194 0.048706
0.435730 0.100372 0.048676
0.463562 0.094025 0.048645
0.492432 0.085846 0.048645
0.522278 0.075897 0.048798
0.552979 0.063507 0.048828
0.584259 0.051056 0.048828
0.616089 0.041840 0.048767
0.648407 0.037903 0.048584
0.680939 0.037842 0.048309
0.713562 0.037842 0.047852
0.746094 0.037842 0.047211
0.778534 0.037842 0.046539
0.810394 0.037842 0.045685
0.065460 0.116730 0.053528
0.073425 0.117981 0.053375
0.083405 0.119873 0.052734
0.095276 0.122070 0.051880
0.108582 0.124207 0.051025
0.123230 0.126007 0.050720
0.138519 0.127319 0.050995
0.154724 0.128815 0.051056
0.171814 0.130249 0.050690
0.189758 0.131592 0.050415
0.208618 0.132629 0.050201
0.228088 0.133453 0.050049
0.248199 0.134125 0.049866
0.269165 0.134521 0.049652
0.290924 0.134613 0.049438
0.313263 0.134277 0.049316
0.336548 0.133423 0.049164
0.360565 0.132202 0.049011
0.385254 0.130341 0.048706
0.410858 0.127655 0.048401
0.437836 0.124329 0.048096
0.465942 0.119965 0.047699
0.495026 0.114075 0.047302
0.525116 0.106842 0.047028
0.555786 0.098022 0.046844
0.587036 0.086731 0.046722
0.618774 0.073425 0.046570
0.651031 0.062103 0.046295
0.683411 0.047882 0.045807
0.715912 0.042084 0.045227
0.748291 0.039001 0.044556
0.780609 0.037842 0.043732
0.812286 0.037842 0.042816
0.068359 0.132721 0.055603
0.076660 0.133728 0.055603
0.086304 0.135468 0.055145
0.097656 0.137695 0.054047
0.110718 0.140015 0.052826
0.125061 0.142181 0.051910
0.140503 0.143921 0.051544
0.156342 0.145447 0.052002
0.173248 0.146973 0.051971
0.191071 0.148499 0.051727
0.209808 0.149902 0.051239
0.229309 0.151123 0.050903
0.249512 0.152039 0.050598
0.270477 0.152771 0.050232
0.292297 0.153320 0.049835
0.314758 0.153473 0.049530
0.338104 0.153198 0.049225
0.362213 0.152588 0.048920
0.387024 0.151550 0.048523
0.412720 0.149780 0.048157
0.439758 0.147430 0.047699
0.467987 0.144409 0.046967
0.497314 0.140350 0.046295
0.527649 0.135071 0.045593
0.558594 0.129028 0.044861
0.589966 0.121613 0.044220
0.621735 0.112366 0.043823
0.653900 0.100281 0.043335
0.686188 0.086975 0.042786
0.718475 0.073090 0.042114
0.750732 0.062653 0.041504
0.782867 0.056366 0.040802
0.814362 0.048492 0.039978
0.071167 0.149353 0.057526
0.079407 0.150269 0.057739
0.089264 0.151733 0.057617
0.100220 0.153870 0.056702
0.112946 0.156342 0.055267
0.127014 0.158813 0.053833
0.142212 0.161011 0.052795
0.158417 0.162781 0.052277
0.174988 0.164307 0.052734
0.192749 0.165924 0.052765
0.211395 0.167542 0.052399
0.230743 0.169037 0.051910
0.250977 0.170380 0.051483
0.271973 0.171387 0.050964
0.293854 0.172302 0.050385
0.316406 0.172913 0.049896
0.339783 0.173187 0.049377
0.363983 0.173035 0.048889
0.388885 0.172577 0.048309
0.414673 0.171692 0.047729
0.441772 0.170074 0.047150
0.470093 0.167999 0.046356
0.499420 0.165222 0.045441
0.529755 0.161713 0.044495
0.560883 0.157288 0.043427
0.592468 0.152100 0.042328
0.624512 0.145660 0.041595
0.656769 0.138458 0.040985
0.689087 0.130035 0.040314
0.721283 0.120575 0.039825
0.753387 0.110107 0.039581
0.785339 0.096405 0.039215
0.816589 0.082489 0.038696
0.073761 0.166931 0.059662
0.082367 0.167694 0.060028
0.092285 0.168884 0.060150
0.102997 0.170807 0.059479
0.115326 0.173340 0.058075
0.129150 0.176025 0.056244
0.144073 0.178528 0.054626
0.160248 0.180725 0.053406
0.177246 0.182678 0.052887
0.194763 0.184235 0.053406
0.213257 0.185852 0.053375
0.232452 0.187561 0.053040
0.252655 0.189178 0.052551
0.273651 0.190552 0.051880
0.295563 0.191772 0.051086
0.318237 0.192749 0.050262
0.341675 0.193481 0.049591
0.365967 0.193848 0.048950
0.390961 0.193878 0.048248
0.416809 0.193542 0.047424
0.443970 0.192749 0.046539
0.472260 0.191437 0.045685
0.501617 0.189667 0.044647
0.531921 0.187317 0.043427
0.562958 0.184326 0.042389
0.594543 0.180664 0.041382
0.626617 0.176361 0.040588
0.659088 0.171204 0.039612
0.691681 0.165558 0.038483
0.723999 0.159180 0.038086
0.756104 0.152527 0.037903
0.787903 0.145294 0.037872
0.819000 0.138336 0.037842
0.075897 0.185516 0.061890
0.084656 0.186157 0.062500
0.094940 0.187103 0.062988
0.106018 0.188690 0.062714
0.117737 0.191162 0.061279
0.131348 0.193909 0.058990
0.146027 0.196686 0.057007
0.162048 0.199249 0.055145
0.179108 0.201569 0.053802
0.197083 0.203583 0.053131
0.215546 0.205109 0.053802
0.234650 0.206879 0.053833
0.254669 0.208679 0.053345
0.275665 0.210419 0.052582
0.297607 0.211914 0.051819
0.320312 0.213196 0.050903
0.343811 0.214294 0.049957
0.368164 0.215088 0.048950
0.393158 0.215576 0.048065
0.419098 0.215759 0.047028
0.446259 0.215637 0.046021
0.474609 0.215057 0.044861
0.503876 0.213989 0.043671
0.534149 0.212616 0.042572
0.565094 0.210724 0.041229
0.596588 0.208313 0.040253
0.628540 0.205292 0.039429
0.660889 0.201996 0.038452
0.693359 0.198151 0.037964
0.725739 0.193939 0.037903
0.757935 0.189362 0.037842
0.789886 0.184631 0.037842
0.821106 0.180634 0.037842
0.077240 0.204895 0.064117
0.086426 0.205505 0.064789
0.097076 0.206299 0.065704
0.108582 0.207520 0.066071
0.120636 0.209747 0.064941
0.133728 0.212585 0.062469
0.148193 0.215485 0.059967
0.164032 0.218384 0.057526
0.181000 0.221069 0.055450
0.199066 0.223450 0.053802
0.217865 0.225586 0.052979
0.237061 0.227234 0.053680
0.257019 0.229004 0.053680
0.277924 0.230896 0.053192
0.299835 0.232697 0.052368
0.322510 0.234283 0.051422
0.346130 0.235687 0.050323
0.370483 0.236938 0.049072
0.395599 0.237823 0.047943
0.421509 0.238434 0.046692
0.448669 0.238861 0.045380
0.476990 0.238892 0.043915
0.506287 0.238525 0.042480
0.536499 0.237854 0.041321
0.567322 0.236877 0.039978
0.598694 0.235504 0.039001
0.630493 0.233612 0.038422
0.662689 0.231476 0.038025
0.694916 0.229218 0.037872
0.727112 0.226532 0.037842
0.759155 0.223724 0.037842
0.790985 0.220673 0.037842
0.822052 0.218292 0.037842
0.078003 0.225006 0.066528
0.087524 0.225647 0.067078
0.098419 0.226440 0.067932
0.110504 0.227417 0.068878
0.123230 0.229156 0.068695
0.136414 0.231842 0.066620
0.150635 0.234894 0.063568
0.166077 0.237976 0.060608
0.182922 0.240997 0.057709
0.200958 0.243774 0.055267
0.219910 0.246246 0.053406
0.239563 0.248413 0.052490
0.259552 0.250183 0.053223
0.280426 0.252075 0.053223
0.302246 0.253998 0.052765
0.324921 0.255890 0.051697
0.348511 0.257599 0.050476
0.372955 0.259125 0.049072
0.398071 0.260468 0.047668
0.424072 0.261536 0.046173
0.451233 0.262360 0.044647
0.479553 0.262939 0.042908
0.508789 0.263245 0.041473
0.538879 0.263214 0.040405
0.569641 0.262909 0.039124
0.600861 0.262360 0.038544
0.632477 0.261444 0.038086
0.664459 0.260254 0.037903
0.696503 0.258972 0.037842
0.728424 0.257629 0.037842
0.760223 0.256165 0.037842
0.791779 0.254608 0.037842
0.822571 0.253540 0.037842
0.077637 0.246063 0.068848
0.087646 0.246704 0.069489
0.099121 0.247467 0.070282
0.111664 0.248383 0.071228
0.125244 0.249634 0.072174
0.138824 0.251984 0.070923
0.153015 0.255005 0.067932
0.168213 0.258301 0.064331
0.184814 0.261566 0.060699
0.202789 0.264679 0.057404
0.221832 0.267548 0.054535
0.241669 0.270111 0.052490
0.262238 0.272400 0.051453
0.283112 0.274200 0.052124
0.304962 0.276215 0.052246
0.327606 0.278198 0.051575
0.351135 0.280212 0.050507
0.375641 0.282013 0.049011
0.400757 0.283661 0.047363
0.426758 0.285126 0.045441
0.453918 0.286407 0.043793
0.482178 0.287415 0.041962
0.511322 0.288239 0.040710
0.541290 0.288879 0.039551
0.571960 0.289154 0.038300
0.603027 0.289246 0.038055
0.634460 0.289154 0.037903
0.666229 0.288879 0.037842
0.697998 0.288452 0.037842
0.729736 0.287994 0.037842
0.761230 0.287537 0.037842
0.792480 0.287079 0.037842
0.822937 0.287079 0.037842
0.075989 0.268188 0.071106
0.086639 0.268738 0.071838
0.098785 0.269470 0.072632
0.112152 0.270355 0.073669
0.126343 0.271454 0.074890
0.140869 0.273132 0.075256
0.155273 0.275970 0.072815
0.170349 0.279358 0.068878
0.186737 0.282867 0.064484
0.204620 0.286316 0.060333
0.223694 0.289459 0.056427
0.243561 0.292450 0.053253
0.264343 0.295197 0.050781
0.285889 0.297546 0.049408
0.307831 0.299469 0.050323
0.330475 0.301483 0.050385
0.354065 0.303589 0.049774
0.378418 0.305695 0.048553
0.403564 0.307587 0.046814
0.429504 0.309387 0.044769
0.456635 0.311066 0.042816
0.484802 0.312561 0.040894
0.513916 0.313812 0.039734
0.543762 0.314911 0.038544
0.574249 0.315826 0.037903
0.605133 0.316528 0.037872
0.636414 0.317047 0.037842
0.667938 0.317505 0.037842
0.699493 0.317810 0.037842
0.730927 0.318115 0.037842
0.762177 0.318390 0.037842
0.793091 0.318726 0.037842
0.823212 0.319550 0.037842
0.072449 0.291260 0.073029
0.084045 0.291809 0.073853
0.097168 0.292511 0.074585
0.111389 0.293396 0.075714
0.126373 0.294464 0.077057
0.142059 0.295776 0.078308
0.157349 0.297943 0.077728
0.172577 0.301270 0.074066
0.188812 0.304932 0.069244
0.206512 0.308594 0.064087
0.225494 0.312225 0.058960
0.245422 0.315582 0.054779
0.266357 0.318634 0.051025
0.288147 0.321411 0.048248
0.310760 0.323944 0.046570
0.333435 0.325928 0.047516
0.357056 0.328033 0.047546
0.381470 0.330200 0.047058
0.406494 0.332428 0.045563
0.432404 0.334442 0.043610
0.459442 0.336426 0.041687
0.487457 0.338318 0.039703
0.516479 0.339996 0.038849
0.546234 0.341553 0.038055
0.576538 0.342926 0.037842
0.607208 0.344208 0.037842
0.638275 0.345215 0.037842
0.669617 0.346191 0.037842
0.700897 0.347168 0.037842
0.731995 0.348083 0.037842
0.762939 0.349030 0.037842
0.793640 0.350006 0.037842
0.823395 0.351410 0.037842
0.066772 0.315186 0.074890
0.079498 0.315704 0.075623
0.094025 0.316437 0.076599
0.109406 0.317261 0.077576
0.125366 0.318329 0.078979
0.141907 0.319580 0.080475
0.158447 0.321198 0.081512
0.174561 0.323914 0.079712
0.190796 0.327667 0.074615
0.208344 0.331543 0.068756
0.227203 0.335419 0.062775
0.247162 0.339142 0.056885
0.268219 0.342560 0.052032
0.290222 0.345764 0.047943
0.313049 0.348633 0.044830
0.336487 0.351227 0.043121
0.360199 0.353363 0.043793
0.384613 0.355530 0.043976
0.409607 0.357758 0.043396
0.435394 0.360046 0.042084
0.462341 0.362244 0.040436
0.490295 0.364410 0.039062
0.519104 0.366516 0.038422
0.548676 0.368439 0.037872
0.578857 0.370209 0.037842
0.609344 0.371918 0.037842
0.640167 0.373505 0.037842
0.671265 0.374939 0.037842
0.702271 0.376343 0.037842
0.733124 0.377838 0.037842
0.763702 0.379303 0.037842
0.794037 0.380859 0.037842
0.823517 0.382721 0.037842
0.058563 0.340149 0.076630
0.072296 0.340637 0.077271
0.088776 0.341309 0.078186
0.106079 0.342194 0.079193
0.123291 0.343201 0.080627
0.140808 0.344482 0.082123
0.158478 0.345795 0.083923
0.175934 0.347809 0.084351
0.192841 0.351166 0.080780
0.210266 0.355286 0.074371
0.229034 0.359344 0.067474
0.248901 0.363373 0.060608
0.269958 0.367218 0.054016
0.292084 0.370758 0.048431
0.315186 0.373993 0.043762
0.338867 0.377014 0.041107
0.363342 0.379700 0.040131
0.387817 0.381836 0.040802
0.412842 0.384094 0.040710
0.438538 0.386414 0.040314
0.465363 0.388824 0.039062
0.493195 0.391174 0.038239
0.521881 0.393524 0.037903
0.551208 0.395782 0.037842
0.581146 0.397919 0.037842
0.611450 0.399963 0.037842
0.642059 0.401917 0.037842
0.672852 0.403839 0.037842
0.703583 0.405701 0.037842
0.734131 0.407532 0.037842
0.764404 0.409424 0.037842
0.794403 0.411407 0.037842
0.823456 0.413696 0.037842
0.048645 0.365875 0.077942
0.062683 0.366394 0.078613
0.080902 0.367065 0.079498
0.100494 0.367889 0.080597
0.119904 0.368896 0.082001
0.138733 0.370117 0.083588
0.157623 0.371460 0.085358
0.176392 0.372986 0.087128
0.194611 0.375488 0.086517
0.212311 0.379486 0.080750
0.231018 0.383820 0.072968
0.250793 0.388092 0.065033
0.271820 0.392273 0.057343
0.294067 0.396210 0.049927
0.317291 0.399811 0.043610
0.341217 0.403168 0.039978
0.365875 0.406250 0.038208
0.391083 0.408936 0.038055
0.416138 0.411194 0.038116
0.441833 0.413483 0.038116
0.468475 0.415894 0.037994
0.496155 0.418427 0.037964
0.524689 0.420868 0.037872
0.553802 0.423370 0.037842
0.583496 0.425842 0.037842
0.613525 0.428192 0.037842
0.643890 0.430389 0.037842
0.674438 0.432648 0.037842
0.704834 0.434875 0.037842
0.735016 0.437103 0.037842
0.764984 0.439331 0.037842
0.794647 0.441650 0.037842
0.823303 0.444244 0.037842
0.040527 0.392273 0.079041
0.051178 0.392761 0.079681
0.070892 0.393402 0.080597
0.093231 0.394226 0.081726
0.114929 0.395264 0.083160
0.135681 0.396393 0.084778
0.155914 0.397705 0.086517
0.175964 0.399170 0.088593
0.195587 0.401001 0.090393
0.214386 0.404236 0.087341
0.233154 0.408722 0.079559
0.252899 0.413239 0.070465
0.273895 0.417633 0.061523
0.296112 0.421814 0.052826
0.319458 0.425873 0.044708
0.343567 0.429565 0.040039
0.368408 0.432953 0.037903
0.393768 0.436005 0.037872
0.419434 0.438812 0.037842
0.445221 0.441040 0.037872
0.471832 0.443420 0.037872
0.499298 0.445892 0.037842
0.527588 0.448547 0.037842
0.556519 0.451141 0.037842
0.585968 0.453796 0.037842
0.615723 0.456390 0.037842
0.645782 0.458923 0.037842
0.676025 0.461365 0.037842
0.706085 0.463867 0.037842
0.735992 0.466370 0.037842
0.765533 0.468903 0.037842
0.794861 0.471527 0.037842
0.823151 0.474396 0.037842
0.037842 0.419281 0.079681
0.042969 0.419800 0.080475
0.058167 0.420441 0.081482
0.083771 0.421265 0.082642
0.108765 0.422241 0.084076
0.131561 0.423370 0.085693
0.153473 0.424683 0.087585
0.174866 0.426117 0.089783
0.195801 0.427734 0.091980
0.216125 0.430084 0.092346
0.235596 0.434052 0.086670
0.255280 0.438782 0.077087
0.276215 0.443420 0.066650
0.298462 0.447906 0.056488
0.321808 0.452179 0.047089
0.345917 0.456268 0.040314
0.370911 0.459991 0.037842
0.396454 0.463348 0.037842
0.422302 0.466461 0.037842
0.448639 0.469269 0.037842
0.475250 0.471588 0.037842
0.502686 0.473999 0.037842
0.530731 0.476532 0.037842
0.559418 0.479309 0.037842
0.588593 0.482025 0.037842
0.618073 0.484711 0.037842
0.647797 0.487457 0.037842
0.677643 0.490204 0.037842
0.707458 0.492889 0.037842
0.737000 0.495575 0.037842
0.766144 0.498383 0.037842
0.795044 0.501190 0.037842
0.822937 0.504272 0.037842
0.037842 0.447388 0.080444
0.038086 0.447845 0.081146
0.047546 0.448456 0.082153
0.071350 0.449249 0.083466
0.101166 0.450195 0.084930
0.126892 0.451294 0.086609
0.150635 0.452576 0.088623
0.173279 0.454010 0.090820
0.195648 0.455536 0.093170
0.217590 0.457336 0.095551
0.238129 0.460571 0.092834
0.258270 0.465027 0.084534
0.279114 0.469940 0.073181
0.301239 0.474701 0.061340
0.324524 0.479218 0.050323
0.348663 0.483521 0.041779
0.373627 0.487549 0.037842
0.399261 0.491302 0.037842
0.425262 0.494659 0.037842
0.451691 0.497711 0.037842
0.478882 0.500580 0.037842
0.506317 0.502899 0.037842
0.534241 0.505402 0.037842
0.562622 0.507996 0.037842
0.591431 0.510742 0.037842
0.620605 0.513550 0.037842
0.649994 0.516418 0.037842
0.679504 0.519257 0.037842
0.708832 0.522095 0.037842
0.738007 0.524933 0.037842
0.766785 0.527863 0.037842
0.795258 0.530823 0.037842
0.822693 0.533936 0.037842
0.037842 0.476166 0.081055
0.037872 0.476685 0.081848
0.040466 0.477264 0.082825
0.058716 0.478027 0.084259
0.092407 0.478912 0.085785
0.121979 0.480011 0.087555
0.147858 0.481232 0.089539
0.172119 0.482605 0.091797
0.195648 0.484100 0.094299
0.218750 0.485779 0.097015
0.241150 0.487946 0.098297
0.261902 0.491943 0.092194
0.282715 0.497009 0.080688
0.304688 0.501953 0.067719
0.327820 0.506744 0.054749
0.351898 0.511230 0.043732
0.376831 0.515442 0.038269
0.402435 0.519440 0.037842
0.428467 0.523071 0.037842
0.454987 0.526398 0.037842
0.482269 0.529449 0.037842
0.510071 0.532288 0.037842
0.537933 0.534698 0.037842
0.566162 0.537201 0.037842
0.594635 0.539734 0.037842
0.623352 0.542542 0.037842
0.652405 0.545410 0.037842
0.681519 0.548248 0.037842
0.710449 0.551147 0.037842
0.739105 0.554108 0.037842
0.767456 0.557098 0.037842
0.795532 0.560150 0.037842
0.822479 0.563324 0.037842
0.037842 0.505646 0.081848
0.037842 0.506073 0.082611
0.039154 0.506653 0.083649
0.047760 0.507385 0.084930
0.083282 0.508270 0.086639
0.116272 0.509338 0.088470
0.145203 0.510468 0.090637
0.171173 0.511810 0.092957
0.195984 0.513245 0.095459
0.219971 0.514801 0.098297
0.243561 0.516724 0.100800
0.266144 0.519531 0.099579
0.286926 0.524475 0.088837
0.308777 0.529541 0.075287
0.331787 0.534485 0.060699
0.355652 0.539154 0.046936
0.380524 0.543549 0.039337
0.406006 0.547699 0.037903
0.431946 0.551575 0.037842
0.458527 0.555145 0.037842
0.485840 0.558411 0.037842
0.513641 0.561432 0.037842
0.541840 0.564209 0.037842
0.569916 0.566620 0.037842
0.598206 0.569092 0.037842
0.626556 0.571655 0.037842
0.655121 0.574402 0.037842
0.683838 0.577271 0.037842
0.712372 0.580231 0.037842
0.740509 0.583160 0.037842
0.768372 0.586151 0.037842
0.795898 0.589233 0.037842
0.822418 0.592438 0.037842
0.037842 0.535400 0.082825
0.037842 0.535797 0.083679
0.038269 0.536346 0.084778
0.042908 0.537048 0.086182
0.076996 0.537903 0.087860
0.112396 0.538879 0.089844
0.143738 0.539978 0.092041
0.171448 0.541260 0.094421
0.197418 0.542664 0.097076
0.222382 0.544189 0.099915
0.246796 0.545837 0.102997
0.270294 0.548187 0.103668
0.292206 0.552094 0.097260
0.313812 0.557281 0.083557
0.336609 0.562317 0.067871
0.360260 0.567139 0.052307
0.384918 0.571686 0.040985
0.410309 0.575958 0.038055
0.436127 0.579926 0.037842
0.462524 0.583710 0.037842
0.489777 0.587158 0.037842
0.517517 0.590363 0.037842
0.545654 0.593384 0.037842
0.573944 0.596039 0.037842
0.602081 0.598389 0.037842
0.630157 0.600830 0.037842
0.658295 0.603394 0.037842
0.686432 0.606110 0.037842
0.714478 0.608978 0.037842
0.742188 0.611847 0.037842
0.769531 0.614807 0.037842
0.796509 0.617859 0.037842
0.822418 0.621002 0.037842
0.037842 0.565094 0.084442
0.037842 0.565521 0.085419
0.038239 0.566040 0.086517
0.042145 0.566742 0.087921
0.074982 0.567505 0.089752
0.111664 0.568420 0.091766
0.144836 0.569489 0.093964
0.173553 0.570679 0.096405
0.200439 0.571960 0.099182
0.226105 0.573425 0.102020
0.251129 0.575012 0.105103
0.275452 0.576874 0.107605
0.298401 0.579956 0.104889
0.319885 0.584991 0.092163
0.342438 0.590118 0.075958
0.365906 0.595001 0.059082
0.390289 0.599640 0.045135
0.415375 0.603973 0.038452
0.441040 0.608032 0.037842
0.467255 0.611908 0.037842
0.494293 0.615540 0.037842
0.521942 0.618896 0.037842
0.549927 0.621979 0.037842
0.578094 0.624847 0.037842
0.606201 0.627472 0.037842
0.634064 0.629700 0.037842
0.661896 0.632111 0.037842
0.689545 0.634583 0.037842
0.716949 0.637238 0.037842
0.744171 0.640015 0.037842
0.770966 0.642914 0.037842
0.797424 0.645844 0.037842
0.822754 0.648895 0.037842
0.037842 0.594513 0.086884
0.037842 0.594910 0.087891
0.038635 0.595398 0.088928
0.043274 0.596039 0.090363
0.078827 0.596771 0.092224
0.114838 0.597626 0.094330
0.148987 0.598663 0.096527
0.178223 0.599792 0.099060
0.205536 0.601013 0.101807
0.231537 0.602386 0.104828
0.256897 0.603851 0.107971
0.281708 0.605499 0.111023
0.305450 0.607910 0.111115
0.327271 0.612457 0.100616
0.349426 0.617584 0.084900
0.372559 0.622498 0.066803
0.396667 0.627167 0.049957
0.421509 0.631531 0.038910
0.446869 0.635681 0.037872
0.472839 0.639587 0.037842
0.499634 0.643250 0.037842
0.526917 0.646729 0.037842
0.554718 0.649963 0.037842
0.582733 0.652924 0.037842
0.610626 0.655640 0.037842
0.638336 0.658081 0.037842
0.665894 0.660248 0.037842
0.693176 0.662537 0.037842
0.720001 0.664917 0.037842
0.746521 0.667542 0.037842
0.772766 0.670258 0.037842
0.798645 0.673065 0.037842
0.823425 0.675934 0.037842
0.037842 0.623627 0.090149
0.037933 0.623962 0.091156
0.041626 0.624451 0.092285
0.048340 0.625000 0.093750
0.087494 0.625702 0.095612
0.123596 0.626526 0.097687
0.156647 0.627441 0.100037
0.185730 0.628510 0.102570
0.213013 0.629669 0.105316
0.239044 0.630981 0.108337
0.264435 0.632355 0.111542
0.289429 0.633850 0.114807
0.313599 0.635834 0.116425
0.335693 0.639923 0.108032
0.357758 0.644775 0.093628
0.380432 0.649689 0.075470
0.404205 0.654327 0.056305
0.428711 0.658691 0.041962
0.453705 0.662811 0.037933
0.479340 0.666779 0.037842
0.505859 0.670502 0.037842
0.532776 0.673950 0.037842
0.560120 0.677246 0.037842
0.587860 0.680298 0.037842
0.615540 0.683075 0.037842
