滤镜资源/Professional Luts Collection/Lutify.me Professional/Instant Films/Danburite.cube
# Created by: Lutify.me
# Copyright: (c) Copyright Lutify.me 2015
# Website: https://lutify.me
#LUT size
LUT_3D_SIZE 9
#LUT data points
0.054077 0.053345 0.046600
0.104431 0.055725 0.046722
0.168518 0.057739 0.047760
0.243134 0.056000 0.048981
0.329071 0.045837 0.050354
0.428040 0.037842 0.051697
0.545258 0.037842 0.052826
0.674377 0.037842 0.053406
0.805389 0.037842 0.052002
0.062592 0.101440 0.051758
0.106842 0.108765 0.049744
0.170837 0.114014 0.049438
0.247101 0.116547 0.049255
0.335083 0.113770 0.049103
0.435730 0.100372 0.048676
0.552979 0.063507 0.048828
0.680939 0.037842 0.048309
0.810394 0.037842 0.045685
0.073761 0.166931 0.059662
0.115326 0.173340 0.058075
0.177246 0.182678 0.052887
0.252655 0.189178 0.052551
0.341675 0.193481 0.049591
0.443970 0.192749 0.046539
0.562958 0.184326 0.042389
0.691681 0.165558 0.038483
0.819000 0.138336 0.037842
0.077637 0.246063 0.068848
0.125244 0.249634 0.072174
0.184814 0.261566 0.060699
0.262238 0.272400 0.051453
0.351135 0.280212 0.050507
0.453918 0.286407 0.043793
0.571960 0.289154 0.038300
0.697998 0.288452 0.037842
0.822937 0.287079 0.037842
0.058563 0.340149 0.076630
0.123291 0.343201 0.080627
0.192841 0.351166 0.080780
0.269958 0.367218 0.054016
0.363342 0.379700 0.040131
0.465363 0.388824 0.039062
0.581146 0.397919 0.037842
0.703583 0.405701 0.037842
0.823456 0.413696 0.037842
0.037842 0.447388 0.080444
0.101166 0.450195 0.084930
0.195648 0.455536 0.093170
0.279114 0.469940 0.073181
0.373627 0.487549 0.037842
0.478882 0.500580 0.037842
0.591431 0.510742 0.037842
0.708832 0.522095 0.037842
0.822693 0.533936 0.037842
0.037842 0.565094 0.084442
0.074982 0.567505 0.089752
0.200439 0.571960 0.099182
0.298401 0.579956 0.104889
0.390289 0.599640 0.045135
0.494293 0.615540 0.037842
0.606201 0.627472 0.037842
0.716949 0.637238 0.037842
0.822754 0.648895 0.037842
0.039215 0.679230 0.101196
0.129456 0.681061 0.106384
0.238312 0.684479 0.115997
0.335663 0.689667 0.127625
0.423828 0.706573 0.073578
0.521881 0.722107 0.037842
0.627594 0.734467 0.037842
0.732300 0.743378 0.037842
0.827850 0.751312 0.037842
0.213654 0.774963 0.141296
0.259583 0.776154 0.145569
0.328522 0.778442 0.153412
0.405975 0.783752 0.155182
0.483765 0.798401 0.106903
0.571381 0.810699 0.041718
0.665192 0.820557 0.037842
0.758270 0.827667 0.037842
0.842224 0.832336 0.037842
0.062469 0.055878 0.079224
0.112061 0.057861 0.080750
0.174805 0.059662 0.083466
0.248810 0.057556 0.086365
0.334595 0.046875 0.089752
0.433319 0.037842 0.093292
0.550232 0.037842 0.096954
0.678619 0.037842 0.100128
0.808838 0.037842 0.102295
0.071930 0.107391 0.082916
0.114532 0.112488 0.084137
0.178558 0.116669 0.084869
0.254303 0.118011 0.086792
0.341431 0.114777 0.089020
0.441193 0.101532 0.091827
0.557800 0.064941 0.094757
0.685089 0.037842 0.097229
0.813782 0.037842 0.098633
0.083771 0.171936 0.093262
0.123718 0.176941 0.094513
0.183594 0.185669 0.091583
0.258972 0.191742 0.092316
0.347687 0.195404 0.092041
0.449371 0.194122 0.092438
0.567780 0.185486 0.091675
0.695740 0.166718 0.089417
0.822205 0.140320 0.087860
0.090149 0.249969 0.104614
0.133667 0.253601 0.107056
0.191559 0.264984 0.100250
0.268158 0.274902 0.095856
0.356781 0.282440 0.097107
0.459198 0.288208 0.094086
0.576660 0.290710 0.090088
0.701996 0.289825 0.084412
0.826080 0.288483 0.076569
0.076050 0.343506 0.114532
0.133484 0.346588 0.117676
0.199646 0.354889 0.117340
0.276093 0.370117 0.101898
0.368958 0.381958 0.092957
0.470551 0.390839 0.093964
0.585754 0.399658 0.086700
0.707397 0.407257 0.076080
0.826477 0.415222 0.063324
0.037964 0.450439 0.122467
0.116333 0.453217 0.125732
0.204132 0.458527 0.131897
0.285461 0.473206 0.118927
0.379456 0.490082 0.092590
0.483948 0.502563 0.076904
0.595825 0.512634 0.078949
0.712463 0.523804 0.066101
0.825500 0.535553 0.051208
0.037842 0.567841 0.131104
0.097107 0.570221 0.134644
0.210510 0.574646 0.141357
0.304901 0.583130 0.144379
0.395966 0.602234 0.108276
0.499298 0.617584 0.067596
0.610352 0.629181 0.049377
0.720306 0.638855 0.055084
0.825317 0.650452 0.045288
0.056488 0.681641 0.147858
0.147858 0.683411 0.151520
0.248016 0.686829 0.158417
0.342438 0.692108 0.166809
0.429199 0.709045 0.132812
0.526611 0.724121 0.087219
0.631470 0.736176 0.045105
0.735291 0.744873 0.040680
0.830139 0.752747 0.049866
0.225311 0.777039 0.181000
0.269165 0.778259 0.184418
0.336029 0.780548 0.190826
0.411407 0.786346 0.190674
0.488586 0.800629 0.157867
0.575531 0.812531 0.122284
0.668549 0.822083 0.084503
0.760895 0.829010 0.066010
0.844116 0.833649 0.079102
0.076233 0.058960 0.133209
0.122925 0.060638 0.134705
0.184723 0.062012 0.137146
0.258514 0.059753 0.140472
0.344238 0.048035 0.144348
0.442932 0.037842 0.148773
0.559296 0.037842 0.153656
0.686554 0.037842 0.158813
0.815216 0.037842 0.163605
0.083435 0.115540 0.133728
0.126923 0.117157 0.136597
0.190247 0.119507 0.138855
0.264862 0.120331 0.141693
0.351257 0.116730 0.145325
0.450653 0.103119 0.149292
0.566711 0.066010 0.153717
0.692841 0.037903 0.158447
0.820038 0.037842 0.162659
0.094208 0.181946 0.139771
0.138184 0.182800 0.143921
0.194611 0.190674 0.144440
0.271545 0.195740 0.145142
0.361023 0.197418 0.146973
0.462402 0.194916 0.149689
0.578949 0.185669 0.152802
0.703735 0.168152 0.156250
0.828217 0.143524 0.159515
0.102814 0.259247 0.151123
0.147705 0.260590 0.155426
0.204041 0.268860 0.156372
0.278595 0.279388 0.153687
0.368042 0.286621 0.154846
0.470886 0.291321 0.154846
0.587341 0.292786 0.155762
0.710480 0.291748 0.157166
0.832031 0.291016 0.158112
0.101593 0.350159 0.165619
0.150269 0.353119 0.168274
0.212921 0.360626 0.170197
0.287384 0.375031 0.162476
0.379211 0.386078 0.160248
0.480164 0.394653 0.162994
0.594299 0.402985 0.162140
0.714447 0.410217 0.160522
0.831940 0.418152 0.158539
0.067291 0.456177 0.178284
0.140717 0.458954 0.180939
0.219330 0.464233 0.185791
0.297089 0.479126 0.177551
0.390045 0.494720 0.165833
0.493378 0.506317 0.162018
0.604004 0.516174 0.165497
0.719177 0.527008 0.163208
0.830658 0.538605 0.159637
0.039795 0.573090 0.191620
0.132324 0.575378 0.194366
0.227936 0.579773 0.199585
0.316681 0.589203 0.200256
0.406525 0.607086 0.181030
0.508606 0.621552 0.165527
0.618073 0.632446 0.160980
0.726532 0.642029 0.166229
0.830078 0.653442 0.164459
0.096191 0.686279 0.210358
0.176788 0.688019 0.213196
0.265106 0.691345 0.218506
0.354675 0.697083 0.224030
0.439270 0.713745 0.202332
0.535339 0.727997 0.181915
0.638641 0.739349 0.167114
0.740814 0.747681 0.166565
0.834290 0.755554 0.174377
0.245972 0.781219 0.240417
0.286285 0.782379 0.243134
0.349731 0.784576 0.248199
0.421448 0.791290 0.246277
0.497589 0.804749 0.225525
0.583221 0.816010 0.206818
0.674774 0.825073 0.192047
0.765656 0.831665 0.186371
0.847534 0.836182 0.193817
0.086761 0.064026 0.200470
0.132751 0.065399 0.201843
0.195648 0.066010 0.204254
0.270508 0.062256 0.207458
0.356964 0.049500 0.211456
0.456146 0.037842 0.216309
0.571899 0.037842 0.221954
0.697601 0.037842 0.228210
0.824310 0.037842 0.234497
0.093292 0.121246 0.201904
0.137787 0.121918 0.204498
0.201599 0.123383 0.206635
0.277008 0.123627 0.209625
0.364044 0.119324 0.213409
0.463745 0.104980 0.217926
0.579102 0.067261 0.223267
0.703766 0.037964 0.229126
0.828888 0.037842 0.235046
0.106750 0.191437 0.203766
0.147980 0.193787 0.205811
0.208954 0.196777 0.209869
0.286713 0.199371 0.212494
0.375610 0.200165 0.216034
0.476288 0.197113 0.220154
0.591125 0.187988 0.224976
0.714203 0.170898 0.230072
0.836670 0.147888 0.235199
0.111511 0.271881 0.212036
0.158508 0.273254 0.214508
0.221680 0.275299 0.221069
0.292664 0.285889 0.221008
0.384674 0.291992 0.221527
0.488525 0.294678 0.223602
0.604004 0.294647 0.226776
0.725403 0.292603 0.230438
0.844604 0.291626 0.234131
0.110321 0.364227 0.224579
0.160217 0.366852 0.226685
0.232605 0.367645 0.235443
0.303436 0.379791 0.235352
0.393280 0.392059 0.232788
0.495300 0.400635 0.234070
0.609863 0.407776 0.234344
0.728912 0.413757 0.235718
0.844055 0.421021 0.237854
0.096954 0.468018 0.240845
0.159271 0.470581 0.243134
0.235657 0.474915 0.248138
0.316437 0.483673 0.252197
0.404816 0.500122 0.244568
0.506470 0.511963 0.242676
0.615936 0.521729 0.245941
0.729797 0.532013 0.246460
0.838928 0.543152 0.247833
0.094849 0.581329 0.260773
0.167603 0.583557 0.263214
0.250549 0.587799 0.267792
0.333771 0.597229 0.269073
0.421387 0.613800 0.258575
0.521576 0.627228 0.251495
0.628784 0.637421 0.251984
0.735260 0.646820 0.257294
0.836670 0.657990 0.259003
0.151123 0.693268 0.282623
0.210236 0.695007 0.284973
0.288055 0.698273 0.289490
0.371033 0.704926 0.292511
0.453430 0.720581 0.279266
0.547516 0.733643 0.268707
0.648590 0.744141 0.262726
0.748566 0.752045 0.265350
0.839996 0.759796 0.271973
0.272583 0.787445 0.311768
0.309204 0.788605 0.314087
0.368652 0.790710 0.318390
0.435730 0.798462 0.315308
0.510284 0.810791 0.302521
0.593933 0.821167 0.292023
0.683411 0.829529 0.284912
0.772217 0.835602 0.283722
0.852142 0.839966 0.290222
0.086731 0.070709 0.282288
0.137695 0.071503 0.283569
0.204376 0.071045 0.285858
0.282104 0.065796 0.289093
0.370758 0.050812 0.293091
0.471313 0.037842 0.297882
0.586761 0.037842 0.303741
0.710876 0.037842 0.310425
0.835144 0.037842 0.317505
0.096344 0.127960 0.283722
0.143677 0.127625 0.286591
0.210602 0.128571 0.288696
0.288879 0.127655 0.291718
0.378021 0.122345 0.295471
0.478821 0.107147 0.300171
0.593750 0.068634 0.305756
0.716766 0.038025 0.312134
0.839447 0.037842 0.318909
0.112946 0.200317 0.284576
0.154022 0.201080 0.288513
0.219238 0.201996 0.293060
0.299408 0.203705 0.295807
0.389954 0.203949 0.299316
0.491272 0.200500 0.303680
0.605438 0.191040 0.308899
0.726776 0.174225 0.314728
0.846832 0.153534 0.320862
0.123199 0.283081 0.290466
0.168060 0.285248 0.292114
0.232056 0.289185 0.295380
0.309357 0.293732 0.300110
0.403442 0.296692 0.303406
0.506348 0.298187 0.307434
0.619690 0.297821 0.312103
0.738342 0.296051 0.317322
0.854584 0.295959 0.322662
0.115753 0.379211 0.300507
0.168579 0.381531 0.302185
0.244568 0.383392 0.306732
0.323883 0.387177 0.315155
0.409943 0.400208 0.314453
0.514221 0.407715 0.315094
0.628479 0.412872 0.317322
0.745667 0.417511 0.320801
0.858215 0.424194 0.324768
0.101929 0.485077 0.314178
0.167206 0.487366 0.316040
0.248810 0.490509 0.320709
0.339722 0.491241 0.332520
0.422852 0.506500 0.330933
0.522095 0.519379 0.328888
0.631348 0.529175 0.330658
0.744965 0.538513 0.331390
0.853027 0.548615 0.333435
0.106720 0.598297 0.332886
0.178345 0.600311 0.334930
0.262329 0.604126 0.338806
0.359100 0.604065 0.351624
0.443024 0.617035 0.351257
0.537048 0.632721 0.344330
0.641602 0.644012 0.343445
0.746613 0.653625 0.347076
0.846863 0.664581 0.348358
0.176575 0.706970 0.357147
0.230103 0.708557 0.359253
0.304993 0.711487 0.363159
0.394562 0.712250 0.374023
0.475525 0.723602 0.372284
0.563232 0.737732 0.364471
0.660309 0.749573 0.358612
0.757690 0.757751 0.360626
0.846985 0.765656 0.365967
0.295013 0.798218 0.387360
0.329529 0.799255 0.389343
0.386780 0.801178 0.393280
0.458618 0.803314 0.399933
0.529266 0.814240 0.393707
0.608032 0.825043 0.386322
0.693726 0.834045 0.380585
0.779785 0.840576 0.379456
0.857422 0.845001 0.384918
0.066071 0.078613 0.376678
0.132629 0.078827 0.377869
0.208099 0.077423 0.380005
0.291290 0.070679 0.383118
0.383850 0.052612 0.387146
0.486908 0.037842 0.391815
0.602509 0.037842 0.397491
0.725128 0.037842 0.404083
0.846802 0.037842 0.411316
0.083496 0.135437 0.377716
0.140839 0.134277 0.380859
0.215271 0.134521 0.382935
0.298492 0.132812 0.385895
0.391327 0.125977 0.389709
0.494354 0.109192 0.394257
0.609253 0.070221 0.399719
0.730743 0.038116 0.406067
0.850861 0.037842 0.412994
0.108093 0.208710 0.378723
0.155365 0.208282 0.382935
0.225555 0.208221 0.387726
0.309906 0.209229 0.390503
0.403961 0.208282 0.394012
0.507019 0.203918 0.398254
0.620728 0.194305 0.403442
0.740326 0.178345 0.409393
0.857666 0.160339 0.415833
0.127563 0.294067 0.382019
0.173798 0.295746 0.384338
0.238525 0.297974 0.389984
0.321777 0.299561 0.395935
0.418488 0.301697 0.399139
0.522034 0.302856 0.403015
0.634399 0.302460 0.407837
0.751099 0.300995 0.413361
0.864563 0.301819 0.419159
0.127502 0.392029 0.390381
0.181000 0.394135 0.391846
0.253662 0.398010 0.394745
0.337097 0.403290 0.399109
0.429413 0.409485 0.404083
0.534973 0.413605 0.407562
0.646881 0.417419 0.411865
0.760864 0.421844 0.416656
0.869995 0.428772 0.421692
0.107605 0.501465 0.401520
0.175842 0.503510 0.403046
0.261047 0.506531 0.406342
0.355591 0.508453 0.413208
0.444580 0.514587 0.421936
0.539337 0.528564 0.420868
0.649261 0.537476 0.421631
0.761505 0.545105 0.423889
0.866882 0.554230 0.427460
0.115173 0.616028 0.417023
0.187805 0.617828 0.418671
0.274109 0.621216 0.421936
0.376434 0.619965 0.432251
0.467285 0.624146 0.442352
0.554535 0.639893 0.439270
0.655731 0.652069 0.438080
0.759338 0.661713 0.440338
0.857971 0.672028 0.441711
0.186188 0.724609 0.438141
0.240082 0.726013 0.439850
0.316223 0.728638 0.443176
0.412811 0.726318 0.454803
0.500519 0.729187 0.464600
0.581604 0.742462 0.461823
0.673218 0.755859 0.455963
0.767578 0.764709 0.456940
0.854645 0.772827 0.460907
0.304565 0.814911 0.464966
0.339478 0.815826 0.466675
0.398254 0.817108 0.470367
0.480896 0.812317 0.484406
0.553162 0.817261 0.488739
0.625275 0.827881 0.484863
0.705261 0.838470 0.479065
0.787781 0.846313 0.476257
0.862823 0.851074 0.480316
0.037842 0.087280 0.484436
0.113129 0.087006 0.485504
0.206482 0.084351 0.487518
0.298492 0.075836 0.490448
0.396790 0.054962 0.494263
0.502960 0.037842 0.498840
0.619171 0.037842 0.504242
0.740356 0.037842 0.510437
0.859039 0.037842 0.517242
0.041992 0.142944 0.485779
0.128510 0.143005 0.487061
0.215240 0.141174 0.490326
0.306427 0.138397 0.493103
0.404541 0.130219 0.496796
0.510406 0.111847 0.501251
0.625732 0.071503 0.506439
0.745636 0.038177 0.512421
0.862793 0.037842 0.519043
0.084534 0.217041 0.486572
0.152191 0.217621 0.488373
0.228333 0.215210 0.494995
0.319397 0.215485 0.497650
0.417786 0.213593 0.501129
0.523193 0.208069 0.505341
0.636993 0.198029 0.510254
0.754669 0.183136 0.515930
0.868988 0.168488 0.522095
0.120483 0.304749 0.488220
0.176270 0.306122 0.489899
0.244446 0.305817 0.497803
0.333588 0.306305 0.503387
0.433289 0.307831 0.506592
0.538544 0.308075 0.510468
0.650299 0.307556 0.514893
0.764832 0.306610 0.520142
0.875122 0.308655 0.525818
0.138855 0.405090 0.492950
0.193756 0.406952 0.494293
0.264893 0.410248 0.498505
0.348328 0.413849 0.505249
0.445923 0.416260 0.511963
0.552032 0.419708 0.515350
0.662262 0.423553 0.519470
0.773590 0.428162 0.524323
0.879333 0.435791 0.529419
0.130981 0.515900 0.502594
0.194763 0.517761 0.503967
0.276855 0.521240 0.506622
0.367065 0.526093 0.510529
0.462311 0.531860 0.515747
0.559814 0.539398 0.520660
0.670013 0.544739 0.523804
0.778717 0.550995 0.527985
0.879913 0.559875 0.532501
0.133820 0.632782 0.515045
0.203430 0.634369 0.516418
0.289886 0.637360 0.519165
0.389740 0.638885 0.524261
0.488037 0.640472 0.532837
0.575928 0.648224 0.540344
0.671417 0.661652 0.539062
0.773956 0.670898 0.540161
0.870209 0.679993 0.542297
0.202026 0.741913 0.532013
0.254974 0.743134 0.533417
0.331207 0.745361 0.536163
0.428619 0.743774 0.543884
0.522522 0.742767 0.554718
0.604004 0.749146 0.561554
0.687836 0.763397 0.557831
0.778290 0.772980 0.557892
0.862732 0.781219 0.560486
0.318420 0.831451 0.554260
0.353333 0.832214 0.555664
0.414642 0.832245 0.559509
0.498016 0.827698 0.569885
0.576202 0.826508 0.580017
0.645752 0.833008 0.583405
0.718689 0.843964 0.579834
0.796417 0.853027 0.576233
0.868195 0.858276 0.579041
0.037842 0.095795 0.598663
0.079651 0.094574 0.599640
0.203857 0.090576 0.601379
0.306915 0.080109 0.604034
0.411560 0.055573 0.607483
0.520752 0.037842 0.611603
0.637177 0.037842 0.616577
0.756531 0.037842 0.622131
0.871735 0.037842 0.628082
0.037842 0.150604 0.600067
0.104980 0.150208 0.601135
0.214752 0.147858 0.603790
0.315918 0.143677 0.606354
0.419800 0.133972 0.609680
0.528229 0.114288 0.613739
0.643494 0.072906 0.618530
0.761505 0.038269 0.623901
0.875122 0.037842 0.629669
0.048737 0.225464 0.600586
0.144257 0.226074 0.601562
0.232025 0.222626 0.607849
0.330902 0.221924 0.610413
0.433807 0.219116 0.613556
0.540985 0.212891 0.617401
0.654419 0.202271 0.621948
0.769897 0.188629 0.626984
0.880585 0.177948 0.632416
0.111725 0.314941 0.601135
0.179413 0.316132 0.602142
0.253479 0.314087 0.610413
0.347687 0.313690 0.615570
0.450256 0.314606 0.618500
0.556366 0.314331 0.622040
0.667419 0.313202 0.626221
0.779419 0.312805 0.630768
0.885925 0.316406 0.635773
0.148773 0.417877 0.602936
0.206390 0.419525 0.604034
0.277313 0.421112 0.610046
0.363434 0.422028 0.618286
0.464264 0.423706 0.623627
0.570038 0.426666 0.626831
0.678955 0.429993 0.630524
0.787262 0.435089 0.634613
0.889008 0.443573 0.639099
0.168579 0.529877 0.608337
0.224426 0.531525 0.609528
0.300476 0.534790 0.612396
0.386108 0.539215 0.617279
0.478333 0.543671 0.624237
0.579407 0.546661 0.630829
0.686768 0.551514 0.634125
0.791504 0.558014 0.637909
0.888336 0.567383 0.642029
0.177826 0.647156 0.618652
0.236023 0.648621 0.619873
0.316528 0.651306 0.622162
0.407288 0.654999 0.625458
0.501984 0.659485 0.629791
0.596893 0.664093 0.635529
0.689819 0.672607 0.640106
0.791199 0.679138 0.642242
0.882935 0.686951 0.645630
0.232422 0.757294 0.631409
0.281097 0.758331 0.632599
0.354279 0.760254 0.634888
0.445404 0.760956 0.638824
0.538208 0.761841 0.644684
0.626648 0.762512 0.653625
0.705658 0.771332 0.658478
0.789948 0.782288 0.657562
0.871552 0.790344 0.658936
0.341034 0.846375 0.648315
0.374573 0.846985 0.649506
0.436340 0.846436 0.652527
0.514130 0.844513 0.658051
0.593536 0.842834 0.665619
0.667999 0.842377 0.674683
0.735474 0.849976 0.677460
0.805786 0.860260 0.674164
0.873444 0.866119 0.675507
0.037842 0.102417 0.706940
0.080872 0.100311 0.707733
0.215820 0.094543 0.709351
0.325531 0.080933 0.711670
0.433777 0.052429 0.714722
0.544037 0.037842 0.718353
0.658966 0.037842 0.722687
0.775085 0.037842 0.727570
0.885559 0.037842 0.732635
0.037842 0.157043 0.708313
0.108246 0.156067 0.709290
0.228882 0.153076 0.711212
0.335419 0.147491 0.713531
0.442383 0.135956 0.716492
0.551422 0.114777 0.720062
0.665009 0.073303 0.724243
0.779633 0.038635 0.728973
0.888489 0.037842 0.733887
0.058350 0.233215 0.708344
0.156952 0.233398 0.709290
0.250092 0.229462 0.714508
0.352142 0.227692 0.716797
0.456940 0.223969 0.719635
0.564117 0.217163 0.722992
0.675415 0.206787 0.726990
0.787384 0.194611 0.731445
0.893158 0.188324 0.736053
0.135010 0.324310 0.707794
0.200592 0.325256 0.708710
0.275391 0.321594 0.716888
0.371368 0.320984 0.720978
0.474365 0.321259 0.723602
0.579346 0.320648 0.726776
0.687744 0.319580 0.730408
0.796082 0.319641 0.734497
0.897614 0.325073 0.738647
0.181946 0.429535 0.707458
0.235352 0.430908 0.708435
0.301788 0.430298 0.716125
0.388519 0.429626 0.723969
0.489502 0.431366 0.727722
0.592896 0.434021 0.730530
0.698517 0.437256 0.733856
0.802887 0.442352 0.737427
0.899536 0.451904 0.741058
0.213623 0.543304 0.709259
0.262177 0.544800 0.710266
0.329071 0.547119 0.714630
0.410248 0.549652 0.721100
0.501831 0.551392 0.729095
0.602234 0.554077 0.733734
0.705566 0.558655 0.736633
0.806000 0.565186 0.739746
0.897522 0.575287 0.742950
0.242798 0.659973 0.715240
0.288239 0.661285 0.716309
0.357513 0.663849 0.718506
0.439148 0.667450 0.721985
0.526947 0.671906 0.726562
0.615143 0.676514 0.732574
0.709900 0.679993 0.738770
0.805756 0.685699 0.741547
0.891479 0.693848 0.744568
0.286377 0.769806 0.725189
0.326904 0.770691 0.726227
0.392426 0.772369 0.728088
0.472137 0.774628 0.730804
0.557312 0.777405 0.734344
0.642120 0.780334 0.738708
0.726562 0.783081 0.745239
0.803650 0.791931 0.747955
0.882050 0.798523 0.749084
0.378693 0.858429 0.737213
0.409851 0.858765 0.738159
0.465942 0.858765 0.740082
0.535461 0.858856 0.743073
0.610229 0.858856 0.747253
0.684509 0.858490 0.753113
0.755554 0.858612 0.761200
0.817474 0.867004 0.762451
0.879211 0.874054 0.762268
