滤镜资源/Professional Luts Collection/Lutify.me Professional/Instant Films/Danburite.cube
# Created by: Lutify.me
# Copyright: (c) Copyright Lutify.me 2015
# Website: https://lutify.me
#LUT size
LUT_3D_SIZE 5
#LUT data points
0.054077 0.053345 0.046600
0.168518 0.057739 0.047760
0.329071 0.045837 0.050354
0.545258 0.037842 0.052826
0.805389 0.037842 0.052002
0.073761 0.166931 0.059662
0.177246 0.182678 0.052887
0.341675 0.193481 0.049591
0.562958 0.184326 0.042389
0.819000 0.138336 0.037842
0.058563 0.340149 0.076630
0.192841 0.351166 0.080780
0.363342 0.379700 0.040131
0.581146 0.397919 0.037842
0.823456 0.413696 0.037842
0.037842 0.565094 0.084442
0.200439 0.571960 0.099182
0.390289 0.599640 0.045135
0.606201 0.627472 0.037842
0.822754 0.648895 0.037842
0.213654 0.774963 0.141296
0.328522 0.778442 0.153412
0.483765 0.798401 0.106903
0.665192 0.820557 0.037842
0.842224 0.832336 0.037842
0.076233 0.058960 0.133209
0.184723 0.062012 0.137146
0.344238 0.048035 0.144348
0.559296 0.037842 0.153656
0.815216 0.037842 0.163605
0.094208 0.181946 0.139771
0.194611 0.190674 0.144440
0.361023 0.197418 0.146973
0.578949 0.185669 0.152802
0.828217 0.143524 0.159515
0.101593 0.350159 0.165619
0.212921 0.360626 0.170197
0.379211 0.386078 0.160248
0.594299 0.402985 0.162140
0.831940 0.418152 0.158539
0.039795 0.573090 0.191620
0.227936 0.579773 0.199585
0.406525 0.607086 0.181030
0.618073 0.632446 0.160980
0.830078 0.653442 0.164459
0.245972 0.781219 0.240417
0.349731 0.784576 0.248199
0.497589 0.804749 0.225525
0.674774 0.825073 0.192047
0.847534 0.836182 0.193817
0.086731 0.070709 0.282288
0.204376 0.071045 0.285858
0.370758 0.050812 0.293091
0.586761 0.037842 0.303741
0.835144 0.037842 0.317505
0.112946 0.200317 0.284576
0.219238 0.201996 0.293060
0.389954 0.203949 0.299316
0.605438 0.191040 0.308899
0.846832 0.153534 0.320862
0.115753 0.379211 0.300507
0.244568 0.383392 0.306732
0.409943 0.400208 0.314453
0.628479 0.412872 0.317322
0.858215 0.424194 0.324768
0.106720 0.598297 0.332886
0.262329 0.604126 0.338806
0.443024 0.617035 0.351257
0.641602 0.644012 0.343445
0.846863 0.664581 0.348358
0.295013 0.798218 0.387360
0.386780 0.801178 0.393280
0.529266 0.814240 0.393707
0.693726 0.834045 0.380585
0.857422 0.845001 0.384918
0.037842 0.087280 0.484436
0.206482 0.084351 0.487518
0.396790 0.054962 0.494263
0.619171 0.037842 0.504242
0.859039 0.037842 0.517242
0.084534 0.217041 0.486572
0.228333 0.215210 0.494995
0.417786 0.213593 0.501129
0.636993 0.198029 0.510254
0.868988 0.168488 0.522095
0.138855 0.405090 0.492950
0.264893 0.410248 0.498505
0.445923 0.416260 0.511963
0.662262 0.423553 0.519470
0.879333 0.435791 0.529419
0.133820 0.632782 0.515045
0.289886 0.637360 0.519165
0.488037 0.640472 0.532837
0.671417 0.661652 0.539062
0.870209 0.679993 0.542297
0.318420 0.831451 0.554260
0.414642 0.832245 0.559509
0.576202 0.826508 0.580017
0.718689 0.843964 0.579834
0.868195 0.858276 0.579041
0.037842 0.102417 0.706940
0.215820 0.094543 0.709351
0.433777 0.052429 0.714722
0.658966 0.037842 0.722687
0.885559 0.037842 0.732635
0.058350 0.233215 0.708344
0.250092 0.229462 0.714508
0.456940 0.223969 0.719635
0.675415 0.206787 0.726990
0.893158 0.188324 0.736053
0.181946 0.429535 0.707458
0.301788 0.430298 0.716125
0.489502 0.431366 0.727722
0.698517 0.437256 0.733856
0.899536 0.451904 0.741058
0.242798 0.659973 0.715240
0.357513 0.663849 0.718506
0.526947 0.671906 0.726562
0.709900 0.679993 0.738770
0.891479 0.693848 0.744568
0.378693 0.858429 0.737213
0.465942 0.858765 0.740082
0.610229 0.858856 0.747253
0.755554 0.858612 0.761200
0.879211 0.874054 0.762268
