滤镜资源/Professional Luts Collection/Lutify.me Professional/Instant Films/Datolite.cube
# Created by: Lutify.me
# Copyright: (c) Copyright Lutify.me 2015
# Website: https://lutify.me
#LUT size
LUT_3D_SIZE 9
#LUT data points
0.017426 0.016632 0.009399
0.071228 0.019196 0.009521
0.139069 0.021362 0.010681
0.217163 0.019501 0.011963
0.306091 0.008575 0.013428
0.407074 0.000000 0.014893
0.525146 0.000000 0.016113
0.656647 0.000000 0.016693
0.792725 0.000000 0.015198
0.026550 0.068054 0.014923
0.073792 0.075836 0.012817
0.141510 0.081390 0.012451
0.221344 0.084076 0.012268
0.312225 0.081146 0.012115
0.414856 0.066895 0.011627
0.532898 0.027527 0.011810
0.663391 0.000000 0.011230
0.797943 0.000000 0.008423
0.038544 0.137390 0.023407
0.082794 0.144135 0.021729
0.148224 0.153961 0.016174
0.227081 0.160767 0.015778
0.319031 0.165314 0.012634
0.423157 0.164490 0.009338
0.543030 0.155670 0.004883
0.674438 0.135925 0.000702
0.806976 0.107208 0.000000
0.042664 0.220276 0.033234
0.093323 0.223938 0.036835
0.156189 0.236328 0.024536
0.237061 0.247589 0.014618
0.328735 0.255676 0.013611
0.433228 0.262085 0.006378
0.552094 0.264923 0.000488
0.681000 0.264191 0.000000
0.811127 0.262756 0.000000
0.022247 0.317413 0.041595
0.091248 0.320587 0.045837
0.164612 0.328735 0.045990
0.245056 0.345184 0.017365
0.341187 0.357910 0.002472
0.444763 0.367218 0.001343
0.561432 0.376465 0.000000
0.686737 0.384369 0.000000
0.811676 0.392517 0.000000
0.000000 0.426636 0.045654
0.067749 0.429474 0.050446
0.167542 0.434875 0.059235
0.254547 0.449371 0.037903
0.351746 0.467102 0.000000
0.458405 0.480133 0.000000
0.571869 0.490387 0.000000
0.692169 0.501801 0.000000
0.810883 0.513733 0.000000
0.000000 0.545166 0.049896
0.039795 0.547607 0.055573
0.172577 0.552124 0.065613
0.274506 0.560242 0.071686
0.368713 0.580200 0.007843
0.473846 0.596405 0.000000
0.586884 0.608582 0.000000
0.700592 0.618561 0.000000
0.810944 0.630493 0.000000
0.001465 0.661652 0.067749
0.097778 0.663513 0.073303
0.212158 0.667023 0.083496
0.312866 0.672363 0.095825
0.402832 0.689819 0.038300
0.501556 0.705872 0.000000
0.608704 0.718719 0.000000
0.716461 0.727966 0.000000
0.816315 0.736206 0.000000
0.186401 0.760864 0.110321
0.234283 0.762115 0.114868
0.305542 0.764526 0.123108
0.384674 0.770050 0.125000
0.463318 0.785370 0.073822
0.551544 0.798279 0.004150
0.647186 0.808624 0.000000
0.743439 0.816101 0.000000
0.831482 0.821045 0.000000
0.026428 0.019379 0.044342
0.079315 0.021515 0.045990
0.145660 0.023407 0.048859
0.223114 0.021149 0.051971
0.311737 0.009705 0.055573
0.412415 0.000000 0.059357
0.530151 0.000000 0.063232
0.661011 0.000000 0.066650
0.796295 0.000000 0.068939
0.036560 0.074371 0.048279
0.081970 0.079803 0.049591
0.149597 0.084229 0.050415
0.228790 0.085632 0.052399
0.318756 0.082214 0.054810
0.420349 0.068146 0.057770
0.537781 0.029053 0.060883
0.667694 0.000000 0.063568
0.801514 0.000000 0.065033
0.049194 0.142639 0.059296
0.091705 0.147888 0.060669
0.154907 0.157074 0.057526
0.233673 0.163452 0.058319
0.325195 0.167297 0.058044
0.428650 0.165985 0.058441
0.547882 0.156921 0.057617
0.678650 0.137146 0.055206
0.810364 0.109253 0.053589
0.056000 0.224304 0.071381
0.102234 0.228088 0.074036
0.163239 0.239899 0.066742
0.243164 0.250183 0.062103
0.334503 0.257965 0.063416
0.438568 0.263947 0.060181
0.556885 0.266510 0.055939
0.685120 0.265625 0.049896
0.814453 0.264252 0.041504
0.040985 0.320892 0.081940
0.102051 0.324036 0.085297
0.171753 0.332581 0.084930
0.251404 0.348145 0.068542
0.346954 0.360199 0.059021
0.450012 0.369293 0.060089
0.566101 0.378265 0.052338
0.690704 0.385986 0.040985
0.814850 0.394073 0.027344
0.000122 0.429718 0.090363
0.083862 0.432526 0.093842
0.176453 0.437866 0.100372
0.261139 0.452667 0.086609
0.357666 0.469635 0.058594
0.463501 0.482178 0.041840
0.576324 0.492279 0.044067
0.695923 0.503510 0.030304
0.813843 0.515320 0.014374
0.000000 0.547943 0.099548
0.063446 0.550354 0.103302
0.183105 0.554840 0.110413
0.281219 0.563446 0.113586
0.374481 0.582855 0.075287
0.478882 0.598511 0.031921
0.591125 0.610321 0.012390
0.704041 0.620239 0.018524
0.813660 0.632080 0.007996
0.020020 0.664124 0.117249
0.117279 0.665924 0.121124
0.222260 0.669434 0.128418
0.319824 0.674896 0.137268
0.408234 0.692413 0.101349
0.506348 0.708008 0.052887
0.612671 0.720459 0.007812
0.719543 0.729523 0.003052
0.818726 0.737701 0.012909
0.198639 0.763062 0.152191
0.244232 0.764313 0.155762
0.313232 0.766663 0.162506
0.390198 0.772766 0.162354
0.468140 0.787689 0.127838
0.555756 0.800201 0.090179
0.650665 0.810242 0.049957
0.746185 0.817505 0.030212
0.833466 0.822418 0.044220
0.041138 0.022675 0.101746
0.090820 0.024475 0.103363
0.156067 0.025940 0.105927
0.233185 0.023499 0.109467
0.321655 0.010986 0.113556
0.422150 0.000000 0.118225
0.539307 0.000000 0.123383
0.669159 0.000000 0.128845
0.803040 0.000000 0.133881
0.048859 0.083038 0.102295
0.095123 0.084747 0.105347
0.161896 0.087219 0.107727
0.239746 0.088135 0.110748
0.328857 0.084290 0.114563
0.429932 0.069824 0.118744
0.546783 0.030212 0.123444
0.675659 0.000061 0.128448
0.808075 0.000000 0.132874
0.060333 0.153168 0.108704
0.107025 0.154053 0.113098
0.166504 0.162354 0.113647
0.246704 0.167633 0.114380
0.338837 0.169434 0.116333
0.441772 0.166809 0.119202
0.559204 0.157074 0.122467
0.686890 0.138641 0.126129
0.816681 0.112671 0.129547
0.069489 0.233948 0.120697
0.117096 0.235352 0.125244
0.176392 0.243896 0.126251
0.254028 0.254852 0.123413
0.346039 0.262299 0.124634
0.450317 0.267151 0.124664
0.567719 0.268677 0.125610
0.693878 0.267609 0.127106
0.820740 0.266846 0.128113
0.068207 0.327728 0.135986
0.119812 0.330750 0.138794
0.185699 0.338409 0.140808
0.263092 0.353149 0.132690
0.357422 0.364410 0.130310
0.459656 0.373138 0.133240
0.574768 0.381622 0.132324
0.697998 0.388977 0.130615
0.820618 0.397003 0.128540
0.031555 0.435516 0.149323
0.109711 0.438324 0.152130
0.192383 0.443634 0.157227
0.273163 0.458618 0.148560
0.368439 0.474304 0.136230
0.472961 0.485931 0.132202
0.584656 0.495819 0.135895
0.702881 0.506744 0.133453
0.819275 0.518402 0.129700
0.002075 0.553253 0.163330
0.100800 0.555573 0.166199
0.201324 0.560028 0.171692
0.293335 0.569611 0.172424
0.385223 0.587799 0.152222
0.488220 0.602539 0.135925
0.598969 0.613678 0.131134
0.710510 0.623474 0.136627
0.818665 0.635162 0.134766
0.062469 0.668884 0.182983
0.147766 0.670685 0.185944
0.240021 0.674133 0.191498
0.332336 0.680023 0.197266
0.418427 0.697266 0.174591
0.515106 0.711975 0.153168
0.619995 0.723816 0.137573
0.725311 0.732452 0.136963
0.823090 0.740601 0.145203
0.220154 0.767365 0.214355
0.261963 0.768616 0.217194
0.327271 0.770935 0.222473
0.400391 0.777924 0.220459
0.477173 0.792023 0.198822
0.563538 0.803864 0.179260
0.657074 0.813385 0.163788
0.751160 0.820312 0.157806
0.837036 0.825073 0.165619
0.052399 0.028076 0.172638
0.101257 0.029541 0.174072
0.167572 0.030212 0.176575
0.245636 0.026184 0.179932
0.334686 0.012512 0.184143
0.435486 0.000000 0.189178
0.552063 0.000000 0.195099
0.680603 0.000000 0.201599
0.812561 0.000000 0.208191
0.059357 0.089081 0.174133
0.106628 0.089783 0.176849
0.173798 0.091339 0.179077
0.252350 0.091614 0.182190
0.341919 0.087067 0.186188
0.443146 0.071777 0.190887
0.559357 0.031555 0.196472
0.686951 0.000122 0.202545
0.817383 0.000000 0.208771
0.073700 0.163116 0.176056
0.117371 0.165588 0.178192
0.181519 0.168762 0.182434
0.262390 0.171448 0.185211
0.353760 0.172302 0.188904
0.455780 0.169098 0.193237
0.571594 0.159515 0.198242
0.697723 0.141541 0.203552
0.825592 0.117279 0.208954
0.078735 0.247040 0.184723
0.128510 0.248505 0.187317
0.194824 0.250580 0.194183
0.268555 0.261566 0.194092
0.363007 0.267853 0.194641
0.468048 0.270630 0.196838
0.584656 0.270599 0.200104
0.709320 0.268494 0.203918
0.833984 0.267487 0.207825
0.077454 0.342133 0.197845
0.130310 0.344788 0.200043
0.206207 0.345612 0.209167
0.279694 0.358002 0.209106
0.371765 0.370514 0.206390
0.474884 0.379242 0.207764
0.590607 0.386505 0.208038
0.712952 0.392578 0.209473
0.833374 0.399933 0.211700
0.063293 0.447449 0.214813
0.129303 0.450012 0.217194
0.209412 0.454407 0.222443
0.293060 0.463196 0.226624
0.383484 0.479706 0.218689
0.486084 0.491577 0.216705
0.596832 0.501404 0.220123
0.713867 0.511780 0.220673
0.827972 0.523010 0.222076
0.061005 0.561615 0.235535
0.138092 0.563873 0.238037
0.224884 0.568176 0.242828
0.310913 0.577759 0.244110
0.400330 0.594635 0.233246
0.501282 0.608337 0.225891
0.609924 0.618744 0.226379
0.719543 0.628387 0.231903
0.825592 0.639801 0.233673
0.120728 0.676117 0.258179
0.182831 0.677887 0.260590
0.263794 0.681274 0.265259
0.349060 0.688141 0.268402
0.432739 0.704346 0.254700
0.527405 0.717865 0.243744
0.630188 0.728760 0.237549
0.733368 0.736969 0.240265
0.829102 0.745056 0.247131
0.247772 0.773895 0.288269
0.285645 0.775085 0.290649
0.346649 0.777344 0.295105
0.414825 0.785431 0.291931
0.489929 0.798370 0.278748
0.574402 0.809265 0.267914
0.665955 0.818085 0.260559
0.757996 0.824463 0.259308
0.841919 0.829102 0.266052
0.052368 0.035248 0.257843
0.106506 0.036102 0.259155
0.176697 0.035583 0.261505
0.257629 0.029968 0.264862
0.348785 0.013947 0.268982
0.450775 0.000000 0.273956
0.567139 0.000000 0.279999
0.694275 0.000000 0.286896
0.823975 0.000000 0.294189
0.062622 0.096191 0.259308
0.112854 0.095856 0.262268
0.183228 0.096832 0.264465
0.264648 0.095886 0.267578
0.356232 0.090240 0.271484
0.458313 0.074097 0.276306
0.574219 0.033020 0.282074
0.700378 0.000183 0.288666
0.828522 0.000000 0.295593
0.080292 0.172455 0.260193
0.123749 0.173248 0.264252
0.192261 0.174225 0.268951
0.275513 0.175995 0.271790
0.368378 0.176239 0.275421
0.470825 0.172638 0.279938
0.586121 0.162720 0.285339
0.710724 0.145081 0.291321
0.836304 0.123230 0.297638
0.091125 0.258636 0.266296
0.138580 0.260895 0.268005
0.205627 0.264954 0.271362
0.285797 0.269653 0.276245
0.382111 0.272736 0.279633
0.485962 0.274261 0.283783
0.600647 0.273865 0.288635
0.722748 0.272064 0.294006
0.844513 0.271942 0.299469
0.083252 0.357422 0.276642
0.139130 0.359802 0.278412
0.218658 0.361694 0.283081
0.300751 0.365540 0.291748
0.388702 0.378815 0.291016
0.493866 0.386444 0.291687
0.609619 0.391663 0.294006
0.730347 0.396393 0.297546
0.848358 0.403168 0.301666
0.068573 0.464600 0.290771
0.137665 0.466919 0.292664
0.223114 0.470062 0.297485
0.317017 0.470795 0.309631
0.401825 0.486145 0.308014
0.501801 0.499054 0.305908
0.612549 0.508911 0.307709
0.729614 0.518311 0.308441
0.842834 0.528503 0.310577
0.073669 0.578857 0.310028
0.149384 0.580902 0.312103
0.237152 0.584747 0.316071
0.336884 0.584717 0.329193
0.422241 0.597931 0.328827
0.516846 0.613953 0.321747
0.623016 0.625488 0.320831
0.731354 0.635376 0.324585
0.836365 0.646576 0.325867
0.147522 0.690247 0.334869
0.203613 0.691864 0.337006
0.281311 0.694916 0.341034
0.373077 0.695709 0.352112
0.454987 0.707458 0.350342
0.543304 0.722107 0.342377
0.642181 0.734406 0.336395
0.742859 0.742920 0.338440
0.836487 0.751190 0.343933
0.270966 0.785187 0.365723
0.306549 0.786285 0.367767
0.365143 0.788300 0.371765
0.437988 0.790527 0.378540
0.509003 0.802002 0.372223
0.588776 0.813354 0.364685
0.676575 0.822845 0.358826
0.765930 0.829712 0.357666
0.847504 0.834412 0.363251
0.030273 0.043701 0.354828
0.101135 0.043915 0.356049
0.180634 0.042419 0.358246
0.267120 0.035217 0.361420
0.362152 0.015869 0.365509
0.466431 0.000000 0.370270
0.583130 0.000000 0.376068
0.709045 0.000000 0.382751
0.836273 0.000000 0.390076
0.048889 0.104126 0.355896
0.109833 0.102905 0.359100
0.188110 0.103149 0.361237
0.274567 0.101349 0.364227
0.369781 0.094086 0.368103
0.473938 0.076263 0.372742
0.589996 0.034698 0.378326
0.714874 0.000275 0.384766
0.840546 0.000000 0.391815
0.075134 0.181244 0.356934
0.125183 0.180817 0.361237
0.198853 0.180725 0.366089
0.286377 0.181793 0.368927
0.382629 0.180817 0.372528
0.486633 0.176239 0.376801
0.601715 0.166138 0.382111
0.724792 0.149384 0.388153
0.847748 0.130432 0.394684
0.095795 0.269989 0.360291
0.144592 0.271729 0.362671
0.212402 0.274048 0.368408
0.298584 0.275665 0.374451
0.397369 0.277893 0.377716
0.501740 0.279083 0.381653
0.615662 0.278656 0.386566
0.735962 0.277161 0.392181
0.855072 0.278015 0.398041
0.095703 0.370483 0.368805
0.152191 0.372620 0.370300
0.228119 0.376587 0.373260
0.314331 0.381958 0.377716
0.408447 0.388245 0.382751
0.514771 0.392426 0.386292
0.628418 0.396301 0.390656
0.746155 0.400757 0.395538
0.860840 0.407776 0.400635
0.074615 0.481049 0.380157
0.146759 0.483124 0.381683
0.235809 0.486145 0.385040
0.333282 0.488068 0.392029
0.423798 0.494232 0.400879
0.519165 0.508301 0.399811
0.630859 0.517273 0.400574
0.746826 0.524963 0.402893
0.857544 0.534210 0.406464
0.082642 0.596893 0.395874
0.159332 0.598724 0.397552
0.249329 0.602203 0.400879
0.354614 0.600922 0.411346
0.446686 0.605194 0.421539
0.534485 0.621277 0.418427
0.637512 0.633728 0.417206
0.744537 0.643646 0.419525
0.848053 0.654236 0.420898
0.157623 0.708496 0.417297
0.214020 0.709930 0.419037
0.292847 0.712677 0.422363
0.391632 0.710266 0.434113
0.480103 0.713257 0.444000
0.561920 0.727051 0.441223
0.655457 0.740936 0.435303
0.753174 0.750183 0.436279
0.844574 0.758636 0.440247
0.280853 0.802704 0.444366
0.316772 0.803680 0.446075
0.376831 0.805023 0.449799
0.460388 0.799988 0.463928
0.533112 0.805176 0.468292
0.606323 0.816345 0.464417
0.688477 0.827515 0.458557
0.774261 0.835754 0.455719
0.853241 0.840820 0.459839
0.000000 0.052948 0.463959
0.080475 0.052643 0.465027
0.178925 0.049805 0.467072
0.274597 0.040710 0.470001
0.375336 0.018372 0.473846
0.482544 0.000000 0.478424
0.600098 0.000000 0.483856
0.724823 0.000000 0.490082
0.849243 0.000000 0.496918
0.004486 0.112061 0.465302
0.096741 0.112152 0.466614
0.188080 0.110229 0.469879
0.282776 0.107269 0.472687
0.383240 0.098602 0.476379
0.490051 0.079071 0.480835
0.606812 0.036102 0.486053
0.730347 0.000366 0.492096
0.853210 0.000000 0.498688
0.050018 0.189972 0.466125
0.121826 0.190582 0.467926
0.201752 0.188049 0.474548
0.296143 0.188354 0.477264
0.396667 0.186371 0.480743
0.502899 0.180573 0.484955
0.618286 0.170044 0.489868
0.739685 0.154419 0.495575
0.859741 0.139038 0.501801
0.088257 0.281036 0.467773
0.147217 0.282440 0.469482
0.218567 0.282135 0.477417
0.310730 0.282623 0.483002
0.412384 0.284210 0.486206
0.518341 0.284485 0.490082
0.631958 0.283905 0.494537
0.750305 0.282959 0.499817
0.866241 0.285065 0.505524
0.107758 0.383759 0.472534
0.165558 0.385681 0.473877
0.239777 0.389008 0.478088
0.325836 0.392700 0.484863
0.425171 0.395142 0.491608
0.531982 0.398621 0.495026
0.644226 0.402527 0.499146
0.759430 0.407196 0.503998
0.870697 0.414917 0.509155
0.099426 0.495575 0.482239
0.166626 0.497467 0.483582
0.252197 0.500946 0.486237
0.345001 0.505829 0.490143
0.441681 0.511597 0.495392
0.539856 0.519226 0.500366
0.652191 0.524597 0.503510
0.764801 0.530914 0.507721
0.871307 0.539917 0.512238
0.102417 0.614014 0.494690
0.175720 0.615631 0.496094
0.265686 0.618683 0.498840
0.368134 0.620270 0.503967
0.467590 0.621857 0.512604
0.556122 0.629791 0.520172
0.653595 0.643616 0.518890
0.759796 0.653076 0.519989
0.861023 0.662415 0.522125
0.174225 0.726440 0.511780
0.229462 0.727722 0.513214
0.308289 0.730042 0.515961
0.407623 0.728394 0.523743
0.502228 0.727325 0.534668
0.584625 0.733948 0.541595
0.670502 0.748779 0.537842
0.764343 0.758820 0.537872
0.853119 0.767426 0.540497
0.295135 0.820099 0.534210
0.330963 0.820892 0.535645
0.393463 0.820923 0.539520
0.477631 0.816162 0.550018
0.556427 0.814880 0.560303
0.627289 0.821716 0.563690
0.702362 0.833282 0.560089
0.783295 0.842896 0.556427
0.858887 0.848389 0.559296
0.000000 0.062012 0.579224
0.044800 0.060730 0.580200
0.176178 0.056458 0.582001
0.283264 0.045288 0.584686
0.390350 0.019043 0.588196
0.500458 0.000000 0.592407
0.618500 0.000000 0.597473
0.741638 0.000000 0.603119
0.862640 0.000000 0.609222
0.000000 0.120148 0.580658
0.071808 0.119720 0.581726
0.187561 0.117249 0.584442
0.292542 0.112823 0.587036
0.398712 0.102570 0.590454
0.507965 0.081696 0.594574
0.624969 0.037598 0.599457
0.746826 0.000488 0.604919
0.866272 0.000000 0.610840
0.011688 0.198792 0.581177
0.113464 0.199371 0.582184
0.205597 0.195801 0.588593
0.307922 0.195068 0.591156
0.412872 0.192108 0.594391
0.520813 0.185638 0.598297
0.636169 0.174500 0.602936
0.755585 0.160217 0.608063
0.872040 0.148987 0.613647
0.078979 0.291565 0.581726
0.150513 0.292755 0.582764
0.227936 0.290649 0.591187
0.325195 0.290222 0.596436
0.429535 0.291168 0.599426
0.536346 0.290924 0.603058
0.649475 0.289734 0.607300
0.765533 0.289307 0.611969
0.877716 0.293060 0.617065
0.118225 0.396790 0.583557
0.178833 0.398438 0.584686
0.252686 0.400024 0.590790
0.341309 0.400970 0.599213
0.443634 0.402679 0.604675
0.550171 0.405640 0.607910
0.661377 0.409058 0.611694
0.773743 0.414185 0.615875
0.881012 0.422791 0.620453
0.139130 0.509613 0.589050
0.197693 0.511292 0.590271
0.276611 0.514557 0.593201
0.364471 0.519043 0.598175
0.457825 0.523529 0.605286
0.559662 0.526550 0.612000
0.669403 0.531433 0.615356
0.778137 0.538025 0.619263
0.880310 0.547485 0.623474
0.148834 0.628723 0.599609
0.209778 0.630219 0.600830
0.293182 0.632965 0.603149
0.385986 0.636749 0.606537
0.481598 0.641388 0.610962
0.577423 0.646088 0.616821
0.672546 0.654846 0.621490
0.777802 0.661560 0.623657
0.874512 0.669617 0.627136
0.206024 0.742432 0.612610
0.256622 0.743530 0.613800
0.331909 0.745514 0.616150
0.424652 0.746277 0.620178
0.518005 0.747162 0.626190
0.607758 0.747833 0.635345
0.688904 0.757080 0.640320
0.776489 0.768524 0.639374
0.862457 0.776917 0.640778
0.318329 0.835815 0.629913
0.352722 0.836456 0.631104
0.415466 0.835876 0.634216
0.493774 0.833893 0.639893
0.574036 0.832092 0.647675
0.650085 0.831635 0.656982
0.719757 0.839630 0.659821
0.793121 0.850525 0.656433
0.864471 0.856720 0.657806
0.000000 0.069092 0.690216
0.046112 0.066833 0.691040
0.188690 0.060638 0.692688
0.302429 0.046173 0.695099
0.412872 0.015686 0.698242
0.523895 0.000000 0.702026
0.640808 0.000000 0.706512
0.760986 0.000000 0.711548
0.877319 0.000000 0.716827
0.000000 0.126953 0.691650
0.075287 0.125946 0.692627
0.202332 0.122803 0.694641
0.312592 0.116882 0.697021
0.421570 0.104675 0.700104
0.531342 0.082245 0.703766
0.647034 0.038025 0.708130
0.765778 0.000854 0.713013
0.880432 0.000000 0.718109
0.022034 0.206848 0.691681
0.126862 0.207031 0.692627
0.224396 0.202911 0.698029
0.329773 0.201080 0.700409
0.436279 0.197205 0.703339
0.544189 0.190094 0.706818
0.657745 0.179260 0.710968
0.773865 0.166473 0.715576
0.885406 0.159851 0.720367
0.103668 0.301178 0.691101
0.172729 0.302124 0.692047
0.250671 0.298370 0.700500
0.349396 0.297760 0.704742
0.453827 0.298035 0.707458
0.559601 0.297424 0.710724
0.670410 0.296295 0.714508
0.782959 0.296356 0.718719
0.890137 0.301971 0.723053
0.153168 0.408569 0.690765
0.209076 0.409973 0.691772
0.278015 0.409363 0.699707
0.366913 0.408661 0.707855
0.469055 0.410431 0.711700
0.573364 0.413116 0.714661
0.681519 0.416382 0.718079
0.790100 0.421539 0.721771
0.892212 0.431183 0.725555
0.186401 0.523132 0.692596
0.236969 0.524689 0.693665
0.306091 0.526978 0.698120
0.389038 0.529572 0.704865
0.481415 0.531342 0.713135
0.582855 0.534058 0.717957
0.688782 0.538666 0.720978
0.793365 0.545258 0.724182
0.890045 0.555481 0.727539
0.216858 0.641876 0.698792
0.263977 0.643219 0.699890
0.335266 0.645813 0.702179
0.418304 0.649536 0.705780
0.506653 0.654114 0.710510
0.595978 0.658844 0.716766
0.693298 0.662445 0.723175
0.793091 0.668304 0.726074
0.883636 0.676727 0.729218
0.262054 0.755463 0.709106
0.303833 0.756439 0.710144
0.370880 0.758148 0.712097
0.451599 0.760498 0.714905
0.537262 0.763397 0.718597
0.623566 0.766510 0.723114
0.710541 0.769348 0.729919
0.790863 0.778625 0.732697
0.873627 0.785522 0.733887
0.356903 0.848572 0.721558
0.388611 0.848938 0.722565
0.445343 0.848938 0.724548
0.515228 0.849030 0.727661
0.591003 0.849030 0.731995
0.667084 0.848633 0.738068
0.740601 0.848755 0.746490
0.805359 0.857666 0.747803
0.870605 0.865112 0.747620
