滤镜资源/Professional Luts Collection/Lutify.me Professional/Instant Films/Datolite.cube
# Created by: Lutify.me
# Copyright: (c) Copyright Lutify.me 2015
# Website: https://lutify.me
#LUT size
LUT_3D_SIZE 5
#LUT data points
0.017426 0.016632 0.009399
0.139069 0.021362 0.010681
0.306091 0.008575 0.013428
0.525146 0.000000 0.016113
0.792725 0.000000 0.015198
0.038544 0.137390 0.023407
0.148224 0.153961 0.016174
0.319031 0.165314 0.012634
0.543030 0.155670 0.004883
0.806976 0.107208 0.000000
0.022247 0.317413 0.041595
0.164612 0.328735 0.045990
0.341187 0.357910 0.002472
0.561432 0.376465 0.000000
0.811676 0.392517 0.000000
0.000000 0.545166 0.049896
0.172577 0.552124 0.065613
0.368713 0.580200 0.007843
0.586884 0.608582 0.000000
0.810944 0.630493 0.000000
0.186401 0.760864 0.110321
0.305542 0.764526 0.123108
0.463318 0.785370 0.073822
0.647186 0.808624 0.000000
0.831482 0.821045 0.000000
0.041138 0.022675 0.101746
0.156067 0.025940 0.105927
0.321655 0.010986 0.113556
0.539307 0.000000 0.123383
0.803040 0.000000 0.133881
0.060333 0.153168 0.108704
0.166504 0.162354 0.113647
0.338837 0.169434 0.116333
0.559204 0.157074 0.122467
0.816681 0.112671 0.129547
0.068207 0.327728 0.135986
0.185699 0.338409 0.140808
0.357422 0.364410 0.130310
0.574768 0.381622 0.132324
0.820618 0.397003 0.128540
0.002075 0.553253 0.163330
0.201324 0.560028 0.171692
0.385223 0.587799 0.152222
0.598969 0.613678 0.131134
0.818665 0.635162 0.134766
0.220154 0.767365 0.214355
0.327271 0.770935 0.222473
0.477173 0.792023 0.198822
0.657074 0.813385 0.163788
0.837036 0.825073 0.165619
0.052368 0.035248 0.257843
0.176697 0.035583 0.261505
0.348785 0.013947 0.268982
0.567139 0.000000 0.279999
0.823975 0.000000 0.294189
0.080292 0.172455 0.260193
0.192261 0.174225 0.268951
0.368378 0.176239 0.275421
0.586121 0.162720 0.285339
0.836304 0.123230 0.297638
0.083252 0.357422 0.276642
0.218658 0.361694 0.283081
0.388702 0.378815 0.291016
0.609619 0.391663 0.294006
0.848358 0.403168 0.301666
0.073669 0.578857 0.310028
0.237152 0.584747 0.316071
0.422241 0.597931 0.328827
0.623016 0.625488 0.320831
0.836365 0.646576 0.325867
0.270966 0.785187 0.365723
0.365143 0.788300 0.371765
0.509003 0.802002 0.372223
0.676575 0.822845 0.358826
0.847504 0.834412 0.363251
0.000000 0.052948 0.463959
0.178925 0.049805 0.467072
0.375336 0.018372 0.473846
0.600098 0.000000 0.483856
0.849243 0.000000 0.496918
0.050018 0.189972 0.466125
0.201752 0.188049 0.474548
0.396667 0.186371 0.480743
0.618286 0.170044 0.489868
0.859741 0.139038 0.501801
0.107758 0.383759 0.472534
0.239777 0.389008 0.478088
0.425171 0.395142 0.491608
0.644226 0.402527 0.499146
0.870697 0.414917 0.509155
0.102417 0.614014 0.494690
0.265686 0.618683 0.498840
0.467590 0.621857 0.512604
0.653595 0.643616 0.518890
0.861023 0.662415 0.522125
0.295135 0.820099 0.534210
0.393463 0.820923 0.539520
0.556427 0.814880 0.560303
0.702362 0.833282 0.560089
0.858887 0.848389 0.559296
0.000000 0.069092 0.690216
0.188690 0.060638 0.692688
0.412872 0.015686 0.698242
0.640808 0.000000 0.706512
0.877319 0.000000 0.716827
0.022034 0.206848 0.691681
0.224396 0.202911 0.698029
0.436279 0.197205 0.703339
0.657745 0.179260 0.710968
0.885406 0.159851 0.720367
0.153168 0.408569 0.690765
0.278015 0.409363 0.699707
0.469055 0.410431 0.711700
0.681519 0.416382 0.718079
0.892212 0.431183 0.725555
0.216858 0.641876 0.698792
0.335266 0.645813 0.702179
0.506653 0.654114 0.710510
0.693298 0.662445 0.723175
0.883636 0.676727 0.729218
0.356903 0.848572 0.721558
0.445343 0.848938 0.724548
0.591003 0.849030 0.731995
0.740601 0.848755 0.746490
0.870605 0.865112 0.747620
