滤镜资源/Professional Luts Collection/Lutify.me Professional/Instant Films/Datolite.cube
# Created by: Lutify.me
# Copyright: (c) Copyright Lutify.me 2015
# Website: https://lutify.me
#LUT size
LUT_3D_SIZE 33
#LUT data points
0.017426 0.016632 0.009399
0.027313 0.017334 0.009216
0.040436 0.018127 0.009247
0.055664 0.018738 0.009399
0.071228 0.019196 0.009521
0.087494 0.019989 0.009796
0.104248 0.020416 0.010010
0.121277 0.021088 0.010315
0.139069 0.021362 0.010681
0.157593 0.021545 0.010925
0.176910 0.021210 0.011200
0.196686 0.020691 0.011597
0.217163 0.019501 0.011963
0.238312 0.017731 0.012329
0.260284 0.015320 0.012756
0.282806 0.012329 0.013153
0.306091 0.008575 0.013428
0.330109 0.004364 0.013824
0.354736 0.001495 0.014191
0.380249 0.000092 0.014404
0.407074 0.000000 0.014893
0.434998 0.000000 0.015289
0.464020 0.000000 0.015594
0.494080 0.000000 0.015900
0.525146 0.000000 0.016113
0.557037 0.000000 0.016205
0.589630 0.000000 0.016479
0.622925 0.000000 0.016479
0.656647 0.000000 0.016693
0.690613 0.000000 0.016388
0.724762 0.000000 0.016052
0.758911 0.000000 0.015625
0.792725 0.000000 0.015198
0.018585 0.026367 0.010223
0.027802 0.027893 0.010040
0.040527 0.028809 0.009949
0.055634 0.029663 0.010040
0.071381 0.030609 0.009918
0.087708 0.031555 0.010040
0.104523 0.032410 0.010315
0.121918 0.032867 0.010406
0.139740 0.033508 0.010559
0.158417 0.033783 0.010864
0.177765 0.033630 0.011292
0.197723 0.033234 0.011475
0.218292 0.032257 0.011780
0.239532 0.030884 0.012115
0.261627 0.028717 0.012421
0.284149 0.025879 0.012695
0.307495 0.022034 0.013062
0.331543 0.017181 0.013458
0.356171 0.011505 0.013763
0.381653 0.006195 0.014038
0.408478 0.002136 0.014374
0.436401 0.000183 0.014648
0.465393 0.000000 0.014923
0.495453 0.000000 0.015259
0.526489 0.000000 0.015472
0.558350 0.000000 0.015625
0.590912 0.000000 0.015686
0.624176 0.000000 0.015717
0.657837 0.000000 0.015625
0.691742 0.000000 0.015564
0.725800 0.000000 0.015198
0.759918 0.000000 0.014618
0.793610 0.000000 0.013977
0.020996 0.038239 0.011566
0.029663 0.040039 0.011230
0.041260 0.041931 0.010895
0.055786 0.043304 0.010864
0.071594 0.044617 0.010773
0.087921 0.045746 0.010773
0.104767 0.046814 0.010773
0.122284 0.047577 0.010803
0.140289 0.048370 0.010895
0.159119 0.048920 0.011047
0.178619 0.049103 0.011261
0.198639 0.048828 0.011627
0.219391 0.048248 0.011658
0.240753 0.047241 0.011902
0.262939 0.045532 0.012115
0.285675 0.043060 0.012299
0.309113 0.039734 0.012665
0.333252 0.035492 0.012939
0.357971 0.030212 0.013153
0.383453 0.023590 0.013397
0.410278 0.015106 0.013672
0.438202 0.007690 0.013916
0.467163 0.002808 0.014099
0.497253 0.000885 0.014374
0.528290 0.000000 0.014587
0.560028 0.000000 0.014679
0.592590 0.000000 0.014801
0.625763 0.000000 0.014801
0.659363 0.000000 0.014557
0.693176 0.000000 0.014465
0.727142 0.000000 0.013947
0.761200 0.000000 0.013397
0.794830 0.000000 0.012787
0.023529 0.052673 0.013092
0.032013 0.054474 0.012756
0.043335 0.056580 0.012207
0.057129 0.058502 0.011871
0.072327 0.059998 0.011871
0.088318 0.061340 0.011871
0.105103 0.062592 0.011749
0.122620 0.063599 0.011658
0.140778 0.064606 0.011475
0.159729 0.065369 0.011627
0.179321 0.065887 0.011749
0.199493 0.066071 0.011749
0.220306 0.065979 0.011871
0.241882 0.065369 0.011993
0.264191 0.064301 0.012146
0.287140 0.062714 0.012207
0.310791 0.060333 0.012329
0.335083 0.057068 0.012360
0.359985 0.052795 0.012390
0.385590 0.047424 0.012482
0.412445 0.040039 0.012787
0.440399 0.030670 0.013000
0.469360 0.020111 0.013123
0.499359 0.008545 0.013275
0.530396 0.003174 0.013489
0.562103 0.000427 0.013489
0.594604 0.000000 0.013397
0.627686 0.000000 0.013275
0.661194 0.000000 0.013062
0.694946 0.000000 0.012878
0.728821 0.000000 0.012299
0.762756 0.000000 0.011688
0.796265 0.000000 0.010956
0.026550 0.068054 0.014923
0.034912 0.069672 0.014618
0.045807 0.071747 0.013947
0.059021 0.073853 0.013275
0.073792 0.075836 0.012817
0.089294 0.077148 0.013031
0.105804 0.078705 0.013031
0.123291 0.080109 0.012878
0.141510 0.081390 0.012451
0.160461 0.082397 0.012421
0.180115 0.083313 0.012390
0.200409 0.083801 0.012299
0.221344 0.084076 0.012268
0.243011 0.083984 0.012207
0.265350 0.083618 0.012268
0.288391 0.082733 0.012207
0.312225 0.081146 0.012115
0.336731 0.079010 0.011993
0.361847 0.075928 0.011871
0.387756 0.072021 0.011658
0.414856 0.066895 0.011627
0.442963 0.060150 0.011597
0.471985 0.051422 0.011627
0.501984 0.040802 0.011780
0.532898 0.027527 0.011810
0.564606 0.014191 0.011841
0.596985 0.004303 0.011719
0.630005 0.000061 0.011536
0.663391 0.000000 0.011230
0.697083 0.000000 0.010712
0.730835 0.000000 0.010071
0.764587 0.000000 0.009369
0.797943 0.000000 0.008423
0.029602 0.084259 0.016846
0.038147 0.085632 0.016693
0.048798 0.087616 0.015991
0.061462 0.089935 0.015045
0.075653 0.092224 0.014160
0.091187 0.094116 0.013824
0.107391 0.095520 0.014130
0.124512 0.097107 0.014160
0.142517 0.098633 0.013794
0.161407 0.100067 0.013489
0.181152 0.101135 0.013275
0.201477 0.102020 0.013092
0.222473 0.102722 0.012939
0.244232 0.103149 0.012695
0.266724 0.103241 0.012451
0.289795 0.102905 0.012329
0.313751 0.101990 0.012177
0.338379 0.100708 0.011993
0.363586 0.098724 0.011688
0.389648 0.095856 0.011353
0.416992 0.092346 0.011017
0.445374 0.087708 0.010559
0.474579 0.081482 0.010162
0.504822 0.073761 0.009918
0.535767 0.064392 0.009644
0.567413 0.052338 0.009552
0.599731 0.038116 0.009399
0.632690 0.026001 0.009094
0.665955 0.010773 0.008545
0.699493 0.004547 0.007935
0.733124 0.001251 0.007202
0.766754 0.000000 0.006317
0.799957 0.000000 0.005371
0.032745 0.101257 0.019043
0.041626 0.102325 0.019104
0.051880 0.104156 0.018585
0.064026 0.106476 0.017395
0.077911 0.108978 0.016083
0.093109 0.111267 0.015106
0.109497 0.113098 0.014709
0.126221 0.114716 0.015198
0.144012 0.116302 0.015167
0.162781 0.117950 0.014923
0.182434 0.119446 0.014404
0.202759 0.120728 0.014038
0.223816 0.121674 0.013702
0.245605 0.122467 0.013306
0.268188 0.123016 0.012909
0.291382 0.123169 0.012573
0.315369 0.122894 0.012238
0.340057 0.122253 0.011902
0.365356 0.121155 0.011444
0.391510 0.119293 0.011078
0.418945 0.116791 0.010590
0.447418 0.113586 0.009827
0.476898 0.109283 0.009094
0.507355 0.103729 0.008331
0.538574 0.097321 0.007507
0.570404 0.089447 0.006836
0.602722 0.079620 0.006439
0.635620 0.066772 0.005890
0.668793 0.052612 0.005341
0.702179 0.037781 0.004578
0.735626 0.026581 0.003937
0.769104 0.019897 0.003174
0.802124 0.011444 0.002319
0.035706 0.118835 0.021149
0.044556 0.119812 0.021362
0.055054 0.121338 0.021240
0.066742 0.123627 0.020233
0.080261 0.126221 0.018677
0.095184 0.128815 0.017181
0.111298 0.131134 0.016052
0.128387 0.133026 0.015503
0.145874 0.134644 0.015991
0.164520 0.136322 0.016052
0.184052 0.138031 0.015625
0.204254 0.139618 0.015106
0.225342 0.140991 0.014648
0.247162 0.142090 0.014099
0.269806 0.143036 0.013458
0.293060 0.143677 0.012970
0.317078 0.143951 0.012390
0.341858 0.143799 0.011871
0.367279 0.143311 0.011230
0.393494 0.142395 0.010620
0.420959 0.140656 0.010010
0.449524 0.138489 0.009125
0.479004 0.135590 0.008179
0.509491 0.131897 0.007141
0.540894 0.127197 0.006012
0.572937 0.121735 0.004822
0.605591 0.114929 0.004028
0.638580 0.107300 0.003357
0.671783 0.098389 0.002655
0.705048 0.088379 0.002136
0.738373 0.077209 0.001862
0.771698 0.062683 0.001465
0.804474 0.047821 0.000946
0.038544 0.137390 0.023407
0.047699 0.138184 0.023804
0.058289 0.139435 0.023926
0.069702 0.141479 0.023193
0.082794 0.144135 0.021729
0.097473 0.146942 0.019745
0.113281 0.149597 0.018036
0.130310 0.151917 0.016724
0.148224 0.153961 0.016174
0.166626 0.155579 0.016724
0.186005 0.157288 0.016663
0.206055 0.159088 0.016327
0.227081 0.160767 0.015778
0.248901 0.162231 0.015076
0.271576 0.163513 0.014252
0.294922 0.164520 0.013367
0.319031 0.165314 0.012634
0.343903 0.165649 0.011932
0.369354 0.165710 0.011169
0.395660 0.165344 0.010315
0.423157 0.164490 0.009338
0.451721 0.163147 0.008423
0.481201 0.161285 0.007294
0.511658 0.158813 0.006012
0.543030 0.155670 0.004883
0.575043 0.151825 0.003815
0.607727 0.147308 0.002930
0.640961 0.141876 0.001923
0.674438 0.135925 0.000702
0.707886 0.129211 0.000244
0.741241 0.122162 0.000061
0.774384 0.114532 0.000031
0.806976 0.107208 0.000000
0.040771 0.156921 0.025818
0.050140 0.157593 0.026459
0.061127 0.158600 0.026978
0.072906 0.160278 0.026703
0.085358 0.162872 0.025177
0.099792 0.165741 0.022705
0.115326 0.168640 0.020569
0.132263 0.171326 0.018555
0.150177 0.173798 0.017151
0.169067 0.175873 0.016418
0.188385 0.177460 0.017151
0.208374 0.179352 0.017181
0.229187 0.181213 0.016632
0.250977 0.183044 0.015839
0.273682 0.184601 0.014984
0.297058 0.185944 0.014008
0.321228 0.187103 0.013031
0.346130 0.187927 0.011963
0.371643 0.188446 0.010956
0.397980 0.188629 0.009857
0.425507 0.188477 0.008789
0.454071 0.187897 0.007538
0.483490 0.186798 0.006287
0.513885 0.185333 0.005066
0.545197 0.183350 0.003662
0.577118 0.180817 0.002594
0.609711 0.177643 0.001709
0.642792 0.174194 0.000671
0.676178 0.170166 0.000122
0.709686 0.165771 0.000061
0.743134 0.160950 0.000000
0.776459 0.156006 0.000000
0.809204 0.151794 0.000000
0.042267 0.177246 0.028198
0.052032 0.177887 0.028931
0.063385 0.178711 0.029877
0.075653 0.179993 0.030273
0.088440 0.182312 0.029083
0.102295 0.185303 0.026428
0.117645 0.188324 0.023743
0.134338 0.191345 0.021088
0.152191 0.194183 0.018890
0.171173 0.196655 0.017151
0.190826 0.198883 0.016266
0.210846 0.200592 0.017029
0.231628 0.202454 0.016998
0.253296 0.204407 0.016479
0.275940 0.206299 0.015594
0.299347 0.207947 0.014618
0.323578 0.209442 0.013428
0.348511 0.210724 0.012054
0.374115 0.211670 0.010834
0.400452 0.212311 0.009521
0.427948 0.212708 0.008118
0.456482 0.212769 0.006531
0.485901 0.212402 0.004974
0.516266 0.211670 0.003723
0.547424 0.210663 0.002289
0.579254 0.209229 0.001251
0.611694 0.207245 0.000641
0.644623 0.204987 0.000183
0.677795 0.202667 0.000031
0.711090 0.199860 0.000000
0.744415 0.196899 0.000000
0.777618 0.193726 0.000000
0.810211 0.191223 0.000000
0.043030 0.198273 0.030762
0.053223 0.198975 0.031372
0.064819 0.199799 0.032257
0.077698 0.200806 0.033295
0.091187 0.202606 0.033112
0.105164 0.205414 0.030823
0.120178 0.208618 0.027588
0.136505 0.211823 0.024445
0.154205 0.214935 0.021362
0.173157 0.217834 0.018707
0.192963 0.220459 0.016693
0.213470 0.222687 0.015717
0.234283 0.224518 0.016510
0.255890 0.226501 0.016510
0.278473 0.228485 0.016022
0.301819 0.230469 0.014862
0.326050 0.232208 0.013550
0.351044 0.233826 0.012085
0.376617 0.235229 0.010559
0.403046 0.236328 0.008942
0.430542 0.237152 0.007294
0.459045 0.237732 0.005463
0.488403 0.238068 0.003906
0.518677 0.238037 0.002747
0.549744 0.237732 0.001373
0.581451 0.237152 0.000732
0.613708 0.236237 0.000244
0.646454 0.235016 0.000061
0.679413 0.233673 0.000000
0.712463 0.232269 0.000000
0.745514 0.230713 0.000000
0.778442 0.229126 0.000000
0.810760 0.228027 0.000000
0.042664 0.220276 0.033234
0.053345 0.220886 0.033936
0.065552 0.221710 0.034790
0.078918 0.222656 0.035828
0.093323 0.223938 0.036835
0.107727 0.226379 0.035431
0.122681 0.229553 0.032257
0.138733 0.232971 0.028412
0.156189 0.236328 0.024536
0.175049 0.239563 0.020996
0.194977 0.242554 0.017914
0.215668 0.245209 0.015747
0.237061 0.247589 0.014618
0.258667 0.249451 0.015350
0.281281 0.251495 0.015442
0.304565 0.253571 0.014740
0.328735 0.255676 0.013611
0.353760 0.257568 0.011993
0.379395 0.259247 0.010223
0.405731 0.260773 0.008148
0.433228 0.262085 0.006378
0.461670 0.263123 0.004425
0.490967 0.263977 0.003082
0.521149 0.264648 0.001831
0.552094 0.264923 0.000488
0.583649 0.265045 0.000214
0.615753 0.264954 0.000061
0.648285 0.264648 0.000000
0.681000 0.264191 0.000000
0.713806 0.263733 0.000000
0.746552 0.263245 0.000000
0.779175 0.262787 0.000000
0.811127 0.262756 0.000000
0.040894 0.243225 0.035675
0.052246 0.243774 0.036438
0.065216 0.244537 0.037292
0.079407 0.245453 0.038422
0.094482 0.246582 0.039703
0.109863 0.248352 0.040100
0.125092 0.251282 0.037476
0.140991 0.254791 0.033264
0.158234 0.258423 0.028595
0.176971 0.261963 0.024139
0.196899 0.265289 0.019928
0.217651 0.268341 0.016541
0.239227 0.271149 0.013885
0.261566 0.273590 0.012421
0.284210 0.275574 0.013397
0.307495 0.277649 0.013489
0.331696 0.279816 0.012787
0.356628 0.282013 0.011505
0.382202 0.283966 0.009613
0.408569 0.285828 0.007446
0.435974 0.287537 0.005341
0.464325 0.289093 0.003296
0.493561 0.290375 0.002014
0.523590 0.291504 0.000763
0.554443 0.292450 0.000061
0.585815 0.293182 0.000031
0.617737 0.293701 0.000000
0.650024 0.294189 0.000000
0.682526 0.294495 0.000000
0.715057 0.294800 0.000000
0.747528 0.295074 0.000000
0.779846 0.295441 0.000000
0.811432 0.296265 0.000000
0.037079 0.267090 0.037750
0.049500 0.267700 0.038605
0.063477 0.268402 0.039398
0.078613 0.269318 0.040588
0.094513 0.270447 0.042023
0.111115 0.271790 0.043365
0.127289 0.273987 0.042755
0.143311 0.277435 0.038818
0.160400 0.281250 0.033691
0.178955 0.285004 0.028168
0.198792 0.288727 0.022644
0.219574 0.292145 0.018188
0.241302 0.295319 0.014160
0.263885 0.298218 0.011169
0.287201 0.300781 0.009399
0.310547 0.302826 0.010406
0.334778 0.304993 0.010437
0.359711 0.307220 0.009888
0.385162 0.309509 0.008270
0.411469 0.311554 0.006195
0.438782 0.313629 0.004120
0.467010 0.315552 0.002014
0.496155 0.317261 0.001099
0.526093 0.318848 0.000214
0.556763 0.320282 0.000000
0.587921 0.321594 0.000000
0.619659 0.322632 0.000000
0.651764 0.323639 0.000000
0.683960 0.324646 0.000000
0.716187 0.325592 0.000000
0.748322 0.326538 0.000000
0.780365 0.327545 0.000000
0.811615 0.328949 0.000000
0.031036 0.291779 0.039734
0.044647 0.292328 0.040497
0.060150 0.293091 0.041504
0.076508 0.293945 0.042572
0.093445 0.295013 0.044067
0.110962 0.296295 0.045685
0.128448 0.297974 0.046783
0.145416 0.300751 0.044861
0.162476 0.304626 0.039429
0.180847 0.308624 0.033142
0.200592 0.312592 0.026764
0.221405 0.316406 0.020447
0.243256 0.319946 0.015259
0.266022 0.323212 0.010864
0.289581 0.326172 0.007507
0.313660 0.328827 0.005676
0.337982 0.330994 0.006409
0.362915 0.333191 0.006592
0.388336 0.335510 0.005951
0.414520 0.337830 0.004578
0.441742 0.340088 0.002808
0.469849 0.342316 0.001343
0.498779 0.344482 0.000610
0.528564 0.346405 0.000031
0.559082 0.348236 0.000000
0.590088 0.349976 0.000000
0.621582 0.351562 0.000000
0.653473 0.353058 0.000000
0.685394 0.354523 0.000000
0.717316 0.356018 0.000000
0.749176 0.357544 0.000000
0.780823 0.359100 0.000000
0.811737 0.360992 0.000000
0.022247 0.317413 0.041595
0.036926 0.317963 0.042267
0.054565 0.318665 0.043213
0.072937 0.319519 0.044312
0.091248 0.320587 0.045837
0.109802 0.321869 0.047455
0.128448 0.323273 0.049377
0.146881 0.325317 0.049805
0.164612 0.328735 0.045990
0.182892 0.332947 0.039154
0.202484 0.337128 0.031769
0.223175 0.341248 0.024414
0.245056 0.345184 0.017365
0.267975 0.348816 0.011383
0.291779 0.352142 0.006378
0.316132 0.355194 0.003510
0.341187 0.357910 0.002472
0.366211 0.360107 0.003204
0.391632 0.362396 0.003082
0.417694 0.364746 0.002655
0.444763 0.367218 0.001343
0.472748 0.369629 0.000427
0.501556 0.372009 0.000061
0.531128 0.374329 0.000000
0.561432 0.376465 0.000000
0.592255 0.378571 0.000000
0.623505 0.380554 0.000000
0.655090 0.382507 0.000000
0.686737 0.384369 0.000000
0.718384 0.386261 0.000000
0.749878 0.388184 0.000000
0.781189 0.390198 0.000000
0.811676 0.392517 0.000000
0.011597 0.343811 0.042969
0.026672 0.344360 0.043671
0.046112 0.345032 0.044647
0.067017 0.345886 0.045807
0.087677 0.346924 0.047302
0.107605 0.348175 0.049011
0.127563 0.349487 0.050903
0.147308 0.351074 0.052795
0.166473 0.353638 0.052124
0.184998 0.357697 0.045959
0.204559 0.362122 0.037659
0.225159 0.366486 0.029175
0.246979 0.370728 0.020905
0.269989 0.374725 0.013000
0.293945 0.378418 0.006226
0.318542 0.381836 0.002289
0.343811 0.384949 0.000397
0.369507 0.387695 0.000214
0.394989 0.389954 0.000336
0.421021 0.392303 0.000305
0.447906 0.394745 0.000153
0.475708 0.397278 0.000122
0.504364 0.399841 0.000031
0.533752 0.402344 0.000000
0.563812 0.404816 0.000000
0.594360 0.407196 0.000000
0.625397 0.409454 0.000000
0.656677 0.411743 0.000000
0.688019 0.414001 0.000000
0.719299 0.416260 0.000000
0.750519 0.418488 0.000000
0.781433 0.420837 0.000000
0.811523 0.423492 0.000000
0.002869 0.370697 0.044128
0.014313 0.371216 0.044830
0.035431 0.371887 0.045807
0.059265 0.372711 0.047028
0.082367 0.373749 0.048553
0.104401 0.374908 0.050262
0.125763 0.376251 0.052155
0.146881 0.377747 0.054352
0.167511 0.379578 0.056274
0.187195 0.382904 0.053040
0.206787 0.387421 0.044708
0.227325 0.392029 0.035004
0.249146 0.396484 0.025421
0.272125 0.400757 0.016083
0.296204 0.404846 0.007385
0.320953 0.408600 0.002380
0.346375 0.412018 0.000061
0.372253 0.415100 0.000031
0.398346 0.417938 0.000000
0.424438 0.420227 0.000031
0.451294 0.422607 0.000031
0.478882 0.425110 0.000000
0.507294 0.427765 0.000000
0.536499 0.430420 0.000000
0.566315 0.433075 0.000000
0.596619 0.435699 0.000000
0.627350 0.438263 0.000000
0.658356 0.440735 0.000000
0.689362 0.443268 0.000000
0.720276 0.445770 0.000000
0.751068 0.448334 0.000000
0.781647 0.450958 0.000000
0.811371 0.453827 0.000000
0.000000 0.398193 0.044830
0.005493 0.398712 0.045654
0.021820 0.399353 0.046783
0.049194 0.400177 0.047974
0.075836 0.401154 0.049530
0.100006 0.402313 0.051270
0.123199 0.403656 0.053284
0.145721 0.405090 0.055634
0.167694 0.406738 0.057983
0.188995 0.409119 0.058350
0.209320 0.413116 0.052277
0.229797 0.417938 0.042053
0.251526 0.422638 0.030914
0.274536 0.427155 0.020020
0.298584 0.431488 0.009918
0.323364 0.435577 0.002655
0.348938 0.439362 0.000000
0.375000 0.442749 0.000000
0.401215 0.445892 0.000000
0.427887 0.448700 0.000000
0.454742 0.451019 0.000000
0.482300 0.453461 0.000000
0.510498 0.456024 0.000000
0.539429 0.458801 0.000000
0.569000 0.461517 0.000000
0.598969 0.464264 0.000000
0.629395 0.467010 0.000000
0.660034 0.469757 0.000000
0.690735 0.472443 0.000000
0.721313 0.475189 0.000000
0.751678 0.477966 0.000000
0.781860 0.480804 0.000000
0.811127 0.483856 0.000000
0.000000 0.426636 0.045654
0.000244 0.427094 0.046417
0.010406 0.427734 0.047455
0.035950 0.428528 0.048889
0.067749 0.429474 0.050446
0.095062 0.430603 0.052216
0.120178 0.431854 0.054352
0.144073 0.433319 0.056702
0.167542 0.434875 0.059235
0.190521 0.436676 0.061737
0.211975 0.439911 0.058868
0.232910 0.444458 0.049988
0.254547 0.449371 0.037903
0.277405 0.454163 0.025208
0.301422 0.458710 0.013397
0.326172 0.463043 0.004242
0.351746 0.467102 0.000000
0.377869 0.470856 0.000000
0.404236 0.474243 0.000000
0.431000 0.477295 0.000000
0.458405 0.480133 0.000000
0.485962 0.482544 0.000000
0.514038 0.485016 0.000000
0.542664 0.487640 0.000000
0.571869 0.490387 0.000000
0.601562 0.493195 0.000000
0.631683 0.496063 0.000000
0.661926 0.498932 0.000000
0.692169 0.501801 0.000000
0.722382 0.504639 0.000000
0.752380 0.507599 0.000000
0.782074 0.510559 0.000000
0.810883 0.513733 0.000000
0.000000 0.455658 0.046326
0.000031 0.456146 0.047150
0.002838 0.456757 0.048187
0.022400 0.457520 0.049713
0.058411 0.458435 0.051392
0.089844 0.459503 0.053223
0.117249 0.460754 0.055359
0.142822 0.462128 0.057770
0.167542 0.463654 0.060425
0.191711 0.465302 0.063354
0.215118 0.467499 0.064697
0.236694 0.471527 0.058228
0.258270 0.476593 0.045898
0.280975 0.481567 0.032043
0.304779 0.486359 0.018158
0.329498 0.490875 0.006348
0.355011 0.495117 0.000458
0.381073 0.499146 0.000000
0.407471 0.502808 0.000000
0.434326 0.506134 0.000000
0.461792 0.509216 0.000000
0.489685 0.512054 0.000000
0.517731 0.514496 0.000000
0.546234 0.516998 0.000000
0.575134 0.519562 0.000000
0.604370 0.522369 0.000000
0.634155 0.525269 0.000000
0.664032 0.528168 0.000000
0.693848 0.531097 0.000000
0.723541 0.534088 0.000000
0.753082 0.537109 0.000000
0.782349 0.540192 0.000000
0.810669 0.543396 0.000000
0.000000 0.485260 0.047119
0.000000 0.485687 0.047974
0.001434 0.486298 0.049103
0.010651 0.487030 0.050446
0.048676 0.487885 0.052246
0.083771 0.488953 0.054260
0.114441 0.490112 0.056519
0.141846 0.491455 0.058990
0.167908 0.492889 0.061676
0.193024 0.494507 0.064667
0.217621 0.496399 0.067352
0.241089 0.499237 0.066071
0.262665 0.504181 0.054626
0.285187 0.509308 0.040131
0.308868 0.514282 0.024506
0.333374 0.518982 0.009766
0.358765 0.523407 0.001617
0.384735 0.527588 0.000061
0.411041 0.531494 0.000000
0.437897 0.535126 0.000000
0.465363 0.538422 0.000000
0.493286 0.541504 0.000000
0.521698 0.544312 0.000000
0.550049 0.546722 0.000000
0.578766 0.549225 0.000000
0.607635 0.551819 0.000000
0.636902 0.554626 0.000000
0.666382 0.557526 0.000000
0.695801 0.560516 0.000000
0.725006 0.563507 0.000000
0.754028 0.566559 0.000000
0.782745 0.569672 0.000000
0.810608 0.572906 0.000000
0.000000 0.515167 0.048218
0.000000 0.515594 0.049103
0.000488 0.516144 0.050262
0.005463 0.516876 0.051758
0.041962 0.517700 0.053558
0.079681 0.518677 0.055664
0.112885 0.519806 0.058044
0.142120 0.521088 0.060577
0.169434 0.522491 0.063385
0.195526 0.524017 0.066437
0.220978 0.525696 0.069672
0.245392 0.528076 0.070404
0.268066 0.532043 0.063599
0.290375 0.537262 0.048950
0.313812 0.542358 0.032196
0.338074 0.547211 0.015533
0.363220 0.551849 0.003387
0.389069 0.556152 0.000214
0.415222 0.560181 0.000000
0.441895 0.564026 0.000000
0.469330 0.567535 0.000000
0.497223 0.570801 0.000000
0.525574 0.573853 0.000000
0.554108 0.576569 0.000000
0.582672 0.578949 0.000000
0.611328 0.581421 0.000000
0.640167 0.584015 0.000000
0.669067 0.586792 0.000000
0.697998 0.589691 0.000000
0.726746 0.592651 0.000000
0.755249 0.595673 0.000000
0.783417 0.598755 0.000000
0.810608 0.601990 0.000000
0.000000 0.545166 0.049896
0.000000 0.545593 0.050964
0.000427 0.546112 0.052124
0.004608 0.546814 0.053650
0.039795 0.547607 0.055573
0.078888 0.548553 0.057709
0.114044 0.549622 0.060059
0.144348 0.550812 0.062683
0.172577 0.552124 0.065613
0.199432 0.553589 0.068634
0.225494 0.555206 0.071960
0.250732 0.557098 0.074585
0.274506 0.560242 0.071686
0.296631 0.565338 0.058167
0.319794 0.570526 0.040833
0.343811 0.575500 0.022797
0.368713 0.580200 0.007843
0.394257 0.584625 0.000641
0.420197 0.588776 0.000000
0.446686 0.592682 0.000000
0.473846 0.596405 0.000000
0.501648 0.599823 0.000000
0.529877 0.602997 0.000000
0.558350 0.605896 0.000000
0.586884 0.608582 0.000000
0.615326 0.610870 0.000000
0.643860 0.613312 0.000000
0.672302 0.615845 0.000000
0.700592 0.618561 0.000000
0.728790 0.621399 0.000000
0.756744 0.624359 0.000000
0.784363 0.627380 0.000000
0.810944 0.630493 0.000000
0.000000 0.575012 0.052521
0.000000 0.575409 0.053589
0.000854 0.575928 0.054688
0.005859 0.576569 0.056213
0.043945 0.577301 0.058228
0.082275 0.578186 0.060425
0.118408 0.579224 0.062775
0.149261 0.580383 0.065491
0.177917 0.581635 0.068451
0.205109 0.583008 0.071625
0.231506 0.584503 0.074982
0.257233 0.586182 0.078217
0.281769 0.588654 0.078308
0.304230 0.593292 0.067139
0.326965 0.598511 0.050415
0.350616 0.603516 0.031067
0.375214 0.608276 0.013000
0.400421 0.612732 0.001160
0.426056 0.616974 0.000031
0.452301 0.620972 0.000000
0.479218 0.624725 0.000000
0.506653 0.628265 0.000000
0.534668 0.631592 0.000000
0.563019 0.634644 0.000000
0.591400 0.637390 0.000000
0.619720 0.639923 0.000000
0.647949 0.642151 0.000000
0.675995 0.644501 0.000000
0.703735 0.646942 0.000000
0.731262 0.649597 0.000000
0.758575 0.652405 0.000000
0.785645 0.655304 0.000000
0.811646 0.658264 0.000000
0.000000 0.604645 0.056030
0.000092 0.605042 0.057098
0.004089 0.605499 0.058289
0.011261 0.606079 0.059875
0.053192 0.606812 0.061829
0.091553 0.607635 0.064026
0.126556 0.608612 0.066528
0.157166 0.609680 0.069244
0.185760 0.610840 0.072174
0.212921 0.612152 0.075409
0.239319 0.613586 0.078766
0.265198 0.615112 0.082245
0.290161 0.617157 0.083984
0.312897 0.621338 0.075043
0.335480 0.626282 0.059753
0.358673 0.631317 0.040375
0.382874 0.636078 0.019836
0.407745 0.640564 0.004425
0.433014 0.644806 0.000092
0.458862 0.648865 0.000000
0.485474 0.652679 0.000000
0.512573 0.656250 0.000000
0.540161 0.659637 0.000000
0.568237 0.662750 0.000000
0.596405 0.665619 0.000000
