滤镜资源/Professional Luts Collection/Lutify.me Professional/Instant Films/Desert Rose.cube
# Created by: Lutify.me
# Copyright: (c) Copyright Lutify.me 2015
# Website: https://lutify.me
#LUT size
LUT_3D_SIZE 33
#LUT data points
0.000000 0.000000 0.000000
0.006561 0.000031 0.000366
0.014923 0.000427 0.000427
0.029175 0.001129 0.001129
0.051727 0.001465 0.001862
0.078369 0.001495 0.003021
0.107788 0.000854 0.004211
0.138092 0.000153 0.005768
0.169067 0.000000 0.007935
0.200775 0.000000 0.010376
0.233063 0.000000 0.013458
0.265839 0.000000 0.016968
0.299194 0.000183 0.020721
0.333008 0.001434 0.025146
0.367218 0.004120 0.030090
0.401764 0.007935 0.035919
0.436493 0.012939 0.042389
0.471436 0.018768 0.048859
0.506409 0.025574 0.055481
0.541321 0.034119 0.062378
0.576141 0.044220 0.069519
0.610657 0.055145 0.076599
0.644806 0.066528 0.083618
0.678497 0.078430 0.090942
0.711456 0.090881 0.098419
0.743683 0.103882 0.105591
0.775024 0.117523 0.113129
0.805328 0.131805 0.120483
0.834381 0.146637 0.127686
0.862091 0.162018 0.135010
0.888245 0.178192 0.142090
0.912720 0.194855 0.149109
0.935547 0.212067 0.155823
0.001892 0.005798 0.001526
0.007385 0.007355 0.001556
0.016174 0.008850 0.001556
0.032288 0.009644 0.001923
0.055969 0.010162 0.002716
0.082825 0.011200 0.003815
0.111420 0.011688 0.005280
0.141510 0.012085 0.006897
0.172119 0.012543 0.009094
0.203461 0.013550 0.011597
0.235474 0.014740 0.014557
0.268127 0.016541 0.017975
0.301208 0.019043 0.021820
0.334808 0.021820 0.026215
0.368896 0.025696 0.031281
0.403320 0.030609 0.037140
0.437897 0.036224 0.043549
0.472656 0.042847 0.049957
0.507568 0.050049 0.056671
0.542419 0.057648 0.063660
0.577118 0.066101 0.070526
0.611603 0.075104 0.077637
0.645660 0.084747 0.084961
0.679260 0.095062 0.092163
0.712250 0.106049 0.099487
0.744385 0.118042 0.106842
0.775604 0.130554 0.114166
0.805847 0.143677 0.121460
0.834839 0.157593 0.128723
0.862488 0.172180 0.135986
0.888550 0.187622 0.142944
0.912994 0.203552 0.149811
0.935699 0.220215 0.156708
0.003845 0.013794 0.003479
0.009369 0.016449 0.003876
0.018402 0.018829 0.003845
0.035339 0.021088 0.003540
0.058990 0.022980 0.004211
0.086304 0.024567 0.005066
0.114960 0.026154 0.006226
0.144653 0.027954 0.007996
0.175232 0.029877 0.009766
0.206390 0.032074 0.012421
0.238068 0.034760 0.015472
0.270386 0.038055 0.019073
0.303345 0.041504 0.022980
0.336761 0.045624 0.027405
0.370697 0.049988 0.032501
0.404999 0.054718 0.038422
0.439514 0.060028 0.044830
0.474182 0.065735 0.051300
0.508972 0.071838 0.057983
0.543732 0.078400 0.064941
0.578308 0.085693 0.071869
0.612671 0.093719 0.078918
0.646667 0.102264 0.086182
0.680176 0.111603 0.093445
0.713043 0.121521 0.100708
0.745148 0.132355 0.108093
0.776306 0.143982 0.115295
0.806458 0.156281 0.122620
0.835388 0.169342 0.129791
0.862915 0.183197 0.136932
0.888947 0.197815 0.144012
0.913239 0.213165 0.150818
0.935944 0.229065 0.157593
0.006531 0.028809 0.006531
0.013977 0.031128 0.007660
0.021912 0.034668 0.007690
0.038788 0.039612 0.006958
0.061829 0.043457 0.007324
0.088715 0.046875 0.007782
0.117523 0.050018 0.008850
0.147186 0.052887 0.010376
0.177612 0.055664 0.012390
0.208862 0.058594 0.014832
0.240753 0.061707 0.017487
0.273163 0.065125 0.020538
0.306122 0.068665 0.024506
0.339417 0.072540 0.029083
0.373169 0.076752 0.034485
0.407288 0.081055 0.040283
0.441620 0.085663 0.046570
0.476135 0.090729 0.053284
0.510773 0.096191 0.059845
0.545410 0.102142 0.066589
0.579895 0.108582 0.073639
0.614166 0.115631 0.080658
0.648010 0.123291 0.087830
0.681427 0.131622 0.095123
0.714172 0.140656 0.102295
0.746155 0.150513 0.109650
0.777191 0.161194 0.117004
0.807251 0.172577 0.124176
0.836060 0.184692 0.131317
0.863525 0.197632 0.138458
0.889435 0.211365 0.145416
0.913666 0.225891 0.152344
0.936249 0.241058 0.159027
0.010498 0.052521 0.011261
0.018738 0.054688 0.012512
0.028778 0.057495 0.013580
0.044586 0.062836 0.012817
0.066528 0.068054 0.012085
0.091858 0.072113 0.013184
0.119995 0.076141 0.013672
0.149170 0.080109 0.014801
0.179474 0.083679 0.016846
0.210480 0.087128 0.018860
0.242310 0.090637 0.021576
0.274780 0.093994 0.024841
0.307770 0.097595 0.028625
0.341339 0.101257 0.032990
0.375366 0.105042 0.037933
0.409668 0.108978 0.043396
0.444092 0.113190 0.049255
0.478607 0.117767 0.055634
0.513153 0.122742 0.062347
0.547668 0.128143 0.069122
0.581970 0.133972 0.076080
0.616058 0.140320 0.083130
0.649750 0.147369 0.090240
0.683014 0.154999 0.097443
0.715637 0.163239 0.104645
0.747467 0.172119 0.111877
0.778381 0.181793 0.119141
0.808319 0.192261 0.126312
0.836975 0.203430 0.133331
0.864319 0.215485 0.140503
0.890076 0.228271 0.147278
0.914185 0.241913 0.154266
0.936646 0.256165 0.160889
0.016327 0.079437 0.018188
0.025696 0.081421 0.019684
0.037659 0.083527 0.021179
0.053406 0.087921 0.021149
0.073761 0.093964 0.019073
0.097717 0.099060 0.019226
0.123932 0.103210 0.020813
0.152161 0.107513 0.021942
0.181793 0.111786 0.023468
0.212555 0.115692 0.025452
0.244019 0.119598 0.028107
0.276245 0.123383 0.031372
0.309143 0.127106 0.035248
0.342590 0.130920 0.039551
0.376556 0.134766 0.044373
0.410858 0.138702 0.049591
0.445343 0.142822 0.055176
0.480011 0.147003 0.060913
0.514771 0.151459 0.066956
0.549469 0.156342 0.073273
0.583954 0.161652 0.079742
0.618134 0.167328 0.086395
0.651825 0.173584 0.093353
0.684937 0.180511 0.100403
0.717407 0.188080 0.107544
0.749115 0.196167 0.114655
0.779846 0.205078 0.121796
0.809601 0.214661 0.128967
0.838104 0.225037 0.135986
0.865234 0.236298 0.142975
0.890808 0.248138 0.149902
0.914642 0.260864 0.156708
0.936493 0.274689 0.163757
0.025482 0.107758 0.027588
0.037231 0.109406 0.029205
0.049805 0.111267 0.031189
0.064911 0.114563 0.032227
0.082703 0.120575 0.030273
0.105194 0.126495 0.028107
0.130463 0.131195 0.028809
0.156830 0.135376 0.031372
0.185333 0.139923 0.033508
0.215332 0.144379 0.035248
0.246368 0.148621 0.037628
0.278229 0.152740 0.040771
0.310822 0.156830 0.044403
0.344086 0.160889 0.048492
0.377808 0.164948 0.053040
0.411896 0.168976 0.057983
0.446259 0.173157 0.063232
0.480804 0.177460 0.068695
0.515442 0.181946 0.074371
0.550049 0.186646 0.080383
0.584534 0.191620 0.086426
0.618683 0.196960 0.092682
0.652405 0.202759 0.099243
0.685577 0.209015 0.105896
0.718079 0.215942 0.112640
0.749756 0.223297 0.119537
0.780426 0.231415 0.126465
0.809998 0.240295 0.133514
0.838257 0.249878 0.140381
0.865051 0.260315 0.147491
0.890137 0.271606 0.154663
0.913361 0.283752 0.161865
0.934784 0.296753 0.169220
0.039581 0.136810 0.040131
0.051239 0.138245 0.041840
0.063141 0.139832 0.043945
0.077637 0.142365 0.046204
0.093872 0.147766 0.044647
0.114075 0.153992 0.041687
0.137756 0.159698 0.039886
0.163757 0.164276 0.041473
0.190613 0.168427 0.045074
0.219330 0.173065 0.047607
0.249603 0.177734 0.049713
0.280975 0.182220 0.052307
0.313171 0.186584 0.055603
0.345978 0.190918 0.059326
0.379395 0.195221 0.063477
0.413269 0.199493 0.067932
0.447418 0.203796 0.072754
0.481750 0.208221 0.077972
0.516174 0.212708 0.083344
0.550598 0.217407 0.088989
0.584839 0.222382 0.094910
0.618835 0.227570 0.100952
0.652405 0.233124 0.107178
0.685425 0.239105 0.113617
0.717773 0.245544 0.120087
0.749268 0.252472 0.126740
0.779816 0.260040 0.133362
0.809204 0.268250 0.140198
0.837280 0.277100 0.147095
0.863831 0.286804 0.154083
0.888519 0.297394 0.161316
0.911407 0.308716 0.168457
0.932526 0.320801 0.175720
0.056305 0.166687 0.054474
0.066986 0.167969 0.056274
0.077728 0.169281 0.058289
0.091583 0.171326 0.060791
0.106720 0.175873 0.060547
0.124786 0.182037 0.057739
0.146545 0.188110 0.055084
0.171234 0.193634 0.053894
0.197784 0.198059 0.056183
0.225159 0.202332 0.060242
0.254242 0.207062 0.063080
0.284729 0.211853 0.065674
0.316284 0.216553 0.068359
0.348633 0.221130 0.071655
0.381653 0.225677 0.075317
0.415161 0.230164 0.079437
0.449005 0.234680 0.083832
0.483032 0.239227 0.088623
0.517181 0.243835 0.093781
0.551361 0.248596 0.099060
0.585358 0.253540 0.104675
0.619110 0.258667 0.110474
0.652466 0.264069 0.116394
0.685272 0.269806 0.122589
0.717377 0.276001 0.128815
0.748657 0.282623 0.135223
0.778961 0.289734 0.141663
0.808136 0.297424 0.148254
0.835999 0.305725 0.154907
0.862274 0.314758 0.161713
0.886658 0.324585 0.168854
0.909210 0.335175 0.175934
0.930084 0.346436 0.183167
0.074066 0.197327 0.070160
0.083557 0.198456 0.071747
0.093506 0.199738 0.073334
0.106049 0.201508 0.075745
0.120758 0.204834 0.077057
0.137024 0.210754 0.074585
0.156860 0.216980 0.071777
0.179901 0.222961 0.069580
0.205597 0.228271 0.069214
0.232544 0.232788 0.071930
0.260437 0.237122 0.076324
0.289795 0.241852 0.079529
0.320465 0.246704 0.082336
0.352142 0.251556 0.085327
0.384613 0.256317 0.088562
0.417633 0.261078 0.092163
0.451080 0.265747 0.096252
0.484741 0.270447 0.100616
0.518555 0.275208 0.105347
0.552429 0.279999 0.110321
0.586151 0.284943 0.115601
0.619598 0.290070 0.121063
0.652679 0.295410 0.126648
0.685242 0.301025 0.132568
0.717072 0.306946 0.138580
0.748077 0.313324 0.144653
0.778137 0.320038 0.150879
0.807068 0.327301 0.157257
0.834686 0.335114 0.163635
0.860718 0.343567 0.170197
0.884674 0.352814 0.177246
0.906921 0.362701 0.184357
0.927521 0.373199 0.191559
0.092041 0.228607 0.086548
0.100647 0.229645 0.087921
0.109741 0.230804 0.089355
0.121399 0.232391 0.091492
0.135559 0.234833 0.093781
0.150604 0.240112 0.092255
0.168701 0.246429 0.089294
0.190063 0.252594 0.086731
0.214294 0.258484 0.085175
0.240601 0.263672 0.085419
0.268097 0.268158 0.088654
0.296295 0.272430 0.093201
0.325928 0.277252 0.096710
0.356750 0.282227 0.099792
0.388489 0.287140 0.102875
0.420898 0.292084 0.106232
0.453766 0.296967 0.109802
0.487030 0.301788 0.113770
0.520447 0.306641 0.118073
0.553894 0.311554 0.122711
0.587280 0.316528 0.127594
0.620422 0.321655 0.132751
0.653168 0.326965 0.138062
0.685394 0.332489 0.143585
0.716919 0.338257 0.149292
0.747620 0.344360 0.155090
0.777405 0.350830 0.161011
0.806030 0.357727 0.167114
0.833344 0.365082 0.173279
0.859131 0.373016 0.179535
0.882690 0.381714 0.186523
0.904572 0.390961 0.193604
0.924866 0.400726 0.200623
0.110504 0.260437 0.103394
0.118347 0.261322 0.104645
0.126465 0.262360 0.106079
0.137421 0.263855 0.107971
0.150879 0.265839 0.110474
0.165344 0.270172 0.110229
0.181824 0.276276 0.107483
0.201508 0.282593 0.104736
0.224182 0.288696 0.102631
0.249329 0.294403 0.101562
0.276215 0.299561 0.102356
0.304230 0.304016 0.105835
0.332733 0.308289 0.110718
0.362457 0.313141 0.114380
0.393372 0.318146 0.117676
0.425018 0.323151 0.120880
0.457245 0.328186 0.124329
0.489929 0.333160 0.127960
0.522858 0.338104 0.131866
0.555878 0.343109 0.136108
0.588837 0.348175 0.140594
0.621552 0.353302 0.145355
0.653900 0.358551 0.150360
0.685791 0.364014 0.155548
0.716980 0.369659 0.160889
0.747345 0.375580 0.166443
0.776764 0.381805 0.172089
0.805084 0.388428 0.177795
0.832062 0.395386 0.183685
0.857513 0.402863 0.189697
0.880676 0.411041 0.196594
0.902191 0.419708 0.203552
0.922150 0.428864 0.210510
0.129456 0.292694 0.120697
0.136505 0.293488 0.121857
0.143982 0.294464 0.123199
0.154114 0.295837 0.124969
0.166870 0.297577 0.127380
0.181030 0.300812 0.128448
0.196228 0.306641 0.126099
0.214325 0.312958 0.123291
0.235352 0.319214 0.120789
0.259186 0.325165 0.119110
0.285095 0.330780 0.118561
0.312531 0.335815 0.119812
0.340759 0.340271 0.123474
0.369507 0.344543 0.128632
0.399353 0.349396 0.132446
0.430176 0.354431 0.135895
0.461609 0.359467 0.139282
0.493622 0.364563 0.142761
0.525940 0.369629 0.146423
0.558411 0.374695 0.150391
0.590851 0.379791 0.154480
0.623138 0.384918 0.158844
0.655060 0.390167 0.163483
0.686493 0.395569 0.168335
0.717285 0.401123 0.173340
0.747284 0.406860 0.178528
0.776306 0.412872 0.183868
0.804230 0.419220 0.189301
0.830841 0.425873 0.194855
0.855896 0.432983 0.200623
0.878662 0.440674 0.207367
0.899780 0.448822 0.214203
0.919403 0.457367 0.221069
0.148743 0.325226 0.138397
0.155090 0.326019 0.139465
0.162109 0.326904 0.140747
0.171539 0.328125 0.142426
0.183502 0.329742 0.144562
0.197357 0.332153 0.146698
0.211670 0.337372 0.144989
0.228271 0.343628 0.142242
0.247925 0.349945 0.139526
0.270203 0.356110 0.137451
0.294922 0.361969 0.136078
0.321442 0.367401 0.136078
0.349213 0.372375 0.137665
0.377686 0.376770 0.141602
0.406525 0.381073 0.146881
0.436371 0.385864 0.150848
0.466949 0.390869 0.154419
0.498138 0.395935 0.157928
0.529816 0.401062 0.161469
0.561584 0.406189 0.165161
0.593445 0.411316 0.169037
0.625183 0.416473 0.173035
0.656616 0.421661 0.177338
0.687561 0.427032 0.181824
0.717896 0.432465 0.186554
0.747437 0.438080 0.191376
0.776031 0.443909 0.196381
0.803528 0.450012 0.201569
0.829712 0.456390 0.206818
0.854370 0.463104 0.212341
0.876740 0.470367 0.218842
0.897430 0.477997 0.225525
0.916718 0.485992 0.232269
0.168396 0.358032 0.156464
0.174347 0.358734 0.157379
0.180725 0.359589 0.158661
0.189575 0.360687 0.160156
0.200806 0.362183 0.162170
0.214233 0.364136 0.164581
0.228027 0.368530 0.164032
0.243317 0.374573 0.161316
0.261566 0.380859 0.158600
0.282501 0.387054 0.156189
0.305878 0.393127 0.154449
0.331238 0.398865 0.153503
0.358185 0.404175 0.153870
0.386261 0.409027 0.155853
0.414795 0.413391 0.160034
0.443665 0.417694 0.165283
0.473297 0.422424 0.169434
0.503632 0.427399 0.173157
0.534454 0.432465 0.176697
0.565552 0.437561 0.180298
0.596710 0.442688 0.183960
0.627838 0.447845 0.187775
0.658661 0.453033 0.191772
0.689087 0.458282 0.195953
0.718872 0.463654 0.200378
0.747925 0.469116 0.204895
0.776001 0.474762 0.209564
0.803040 0.480652 0.214508
0.828766 0.486755 0.219513
0.852966 0.493164 0.224701
0.874908 0.499969 0.230896
0.895233 0.507141 0.237488
0.914124 0.514618 0.244080
0.188599 0.390839 0.174744
0.194122 0.391510 0.175598
0.200043 0.392273 0.176666
0.208282 0.393341 0.178101
0.218811 0.394684 0.179993
0.231567 0.396454 0.182343
0.245117 0.399933 0.182983
0.259430 0.405670 0.180511
0.276337 0.411896 0.177673
0.295929 0.418121 0.175140
0.317963 0.424225 0.173096
0.342163 0.430084 0.171661
0.368011 0.435669 0.171143
0.395355 0.440857 0.171936
0.423523 0.445618 0.174225
0.451996 0.449921 0.178558
0.480713 0.454132 0.183838
0.510071 0.458801 0.188110
0.540009 0.463745 0.191925
0.570312 0.468750 0.195557
0.600708 0.473816 0.199158
0.631134 0.478912 0.202850
0.661316 0.484039 0.206635
0.691132 0.489227 0.210602
0.720306 0.494476 0.214691
0.748749 0.499847 0.218964
0.776306 0.505341 0.223389
0.802795 0.510986 0.227997
0.827972 0.516846 0.232758
0.851685 0.522949 0.237610
0.873260 0.529358 0.243530
0.893158 0.536041 0.250000
0.911682 0.543091 0.256439
0.209290 0.423553 0.193146
0.214386 0.424194 0.193970
0.219940 0.424866 0.194885
0.227631 0.425842 0.196259
0.237488 0.427124 0.198029
0.249512 0.428741 0.200256
0.262909 0.431458 0.201782
0.276398 0.436798 0.199677
0.292053 0.442902 0.196808
0.310364 0.449066 0.194153
0.331146 0.455170 0.191925
0.354065 0.461121 0.190155
0.378876 0.466827 0.189087
0.405182 0.472229 0.188995
0.432678 0.477264 0.190155
0.460785 0.481873 0.192719
0.489044 0.486084 0.197235
0.517517 0.490265 0.202545
0.546509 0.494843 0.206879
0.575928 0.499664 0.210785
0.605530 0.504608 0.214478
0.635101 0.509583 0.218079
0.664581 0.514648 0.221771
0.693695 0.519714 0.225555
0.722229 0.524841 0.229462
0.750061 0.530090 0.233521
0.776978 0.535400 0.237701
0.802856 0.540863 0.242035
0.827484 0.546478 0.246490
0.850616 0.552277 0.251099
0.871857 0.558319 0.256653
0.891296 0.564575 0.262939
0.909454 0.571136 0.269257
0.230530 0.456055 0.211639
0.235229 0.456604 0.212433
0.240417 0.457245 0.213287
0.247650 0.458130 0.214569
0.256897 0.459351 0.216217
0.268250 0.460876 0.218292
0.281250 0.463043 0.220337
0.294128 0.467926 0.218658
0.308655 0.473846 0.215820
0.325806 0.479889 0.213165
0.345367 0.485931 0.210754
0.367065 0.491882 0.208832
0.390717 0.497620 0.207397
0.415985 0.503143 0.206757
0.442535 0.508331 0.207031
0.470001 0.513184 0.208496
0.497894 0.517670 0.211395
0.525848 0.521759 0.216064
0.553925 0.525848 0.221344
0.582428 0.530334 0.225739
0.611145 0.535065 0.229675
0.639923 0.539886 0.233429
0.668518 0.544800 0.237030
0.696899 0.549744 0.240723
0.724701 0.554718 0.244507
0.751862 0.559784 0.248383
0.778107 0.564911 0.252380
0.803314 0.570190 0.256470
0.827271 0.575562 0.260681
0.849854 0.581085 0.265076
0.870697 0.586761 0.270172
0.889709 0.592590 0.276306
0.907501 0.598694 0.282410
0.252411 0.488190 0.230286
0.256683 0.488708 0.231049
0.261597 0.489288 0.231842
0.268280 0.490112 0.233032
0.277039 0.491241 0.234558
0.287689 0.492645 0.236511
0.300201 0.494507 0.238678
0.312469 0.498962 0.237427
0.326141 0.504608 0.234711
0.342163 0.510529 0.231995
0.360596 0.516449 0.229523
0.381104 0.522308 0.227478
0.403595 0.528046 0.225861
0.427734 0.533600 0.224823
0.453278 0.538879 0.224579
0.479858 0.543884 0.225220
0.507111 0.548523 0.226990
0.534698 0.552826 0.230194
0.562225 0.556793 0.234894
0.589813 0.560791 0.240173
0.617615 0.565155 0.244629
0.645508 0.569733 0.248566
0.673279 0.574402 0.252289
0.700745 0.579193 0.256012
0.727814 0.583984 0.259674
0.754181 0.588867 0.263458
0.779694 0.593811 0.267242
0.804199 0.598846 0.271210
0.827454 0.603973 0.275208
0.849426 0.609192 0.279388
0.869843 0.614532 0.284058
0.888428 0.619965 0.289978
0.905884 0.625610 0.295868
0.274841 0.519775 0.248993
0.278839 0.520233 0.249664
0.283386 0.520813 0.250488
0.289642 0.521576 0.251556
0.297852 0.522614 0.253021
0.307892 0.523926 0.254883
0.319733 0.525604 0.256927
0.331421 0.529724 0.255920
0.344269 0.535126 0.253357
0.359344 0.540802 0.250671
0.376709 0.546570 0.248169
0.396118 0.552338 0.246033
0.417450 0.557983 0.244293
0.440491 0.563477 0.243011
0.464966 0.568787 0.242401
0.490601 0.573822 0.242493
0.517029 0.578583 0.243500
0.543945 0.583008 0.245636
0.571075 0.587128 0.249054
0.598022 0.590942 0.253815
0.624908 0.594818 0.259003
0.651855 0.598999 0.263458
0.678772 0.603394 0.267426
0.705383 0.607941 0.271179
0.731537 0.612518 0.274902
0.757080 0.617188 0.278595
0.781799 0.621887 0.282349
0.805542 0.626678 0.286072
0.828064 0.631531 0.289948
0.849396 0.636475 0.293915
0.869415 0.641479 0.298187
0.887543 0.646545 0.303864
0.904633 0.651703 0.309601
0.297791 0.550629 0.267792
0.301575 0.551086 0.268372
0.305786 0.551636 0.269135
0.311676 0.552307 0.270172
0.319336 0.553284 0.271545
0.328827 0.554504 0.273285
0.339966 0.556122 0.275177
0.350922 0.560059 0.274078
0.363037 0.565186 0.271637
0.377228 0.570648 0.269043
0.393585 0.576172 0.266602
0.412018 0.581757 0.264435
0.432281 0.587280 0.262604
0.454224 0.592682 0.261169
0.477600 0.597931 0.260345
0.502228 0.602966 0.260040
0.527740 0.607727 0.260529
0.553864 0.612213 0.261932
0.580292 0.616394 0.264404
0.606781 0.620300 0.267975
0.632996 0.623932 0.272858
0.659027 0.627686 0.277893
0.684967 0.631683 0.282257
0.710693 0.635895 0.286255
0.735962 0.640198 0.290070
0.760620 0.644592 0.293732
0.784485 0.649048 0.297424
0.807434 0.653534 0.301086
0.829193 0.658112 0.304810
0.849854 0.662781 0.308563
0.869385 0.667450 0.312561
0.887115 0.672119 0.317963
0.903809 0.676880 0.323456
0.321411 0.580627 0.286591
0.324921 0.581085 0.287170
0.328857 0.581543 0.287842
0.334351 0.582214 0.288849
0.341522 0.583099 0.290131
0.350433 0.584229 0.291748
0.360779 0.585907 0.293274
0.370941 0.589783 0.291901
0.382385 0.594696 0.289459
0.395844 0.599884 0.286987
0.411316 0.605194 0.284668
0.428741 0.610535 0.282532
0.447998 0.615845 0.280701
0.468903 0.621094 0.279236
0.491211 0.626221 0.278168
0.514801 0.631165 0.277679
0.539307 0.635895 0.277802
0.564514 0.640350 0.278687
0.590210 0.644531 0.280426
0.615997 0.648468 0.283173
0.641663 0.652130 0.286926
0.666962 0.655548 0.291870
0.691986 0.659119 0.296722
0.716736 0.662964 0.300995
0.741058 0.666962 0.304962
0.764801 0.671021 0.308746
0.787811 0.675171 0.312408
0.809845 0.679382 0.316040
0.830841 0.683624 0.319672
0.850830 0.687927 0.323303
0.869751 0.692291 0.327118
0.887177 0.696594 0.332092
0.903473 0.700928 0.337402
0.345642 0.609589 0.305328
0.348907 0.609985 0.305878
0.352570 0.610413 0.306488
0.357666 0.611023 0.307495
0.364410 0.611877 0.308685
0.372772 0.612915 0.310181
0.382019 0.614960 0.310822
0.391449 0.618866 0.309204
0.402283 0.623535 0.306793
0.415039 0.628418 0.304443
0.429749 0.633423 0.302246
0.446289 0.638489 0.300232
0.464600 0.643555 0.298462
0.484497 0.648590 0.296997
0.505798 0.653564 0.295868
0.528320 0.658356 0.295197
0.551819 0.662964 0.295105
0.576080 0.667328 0.295624
0.600830 0.671448 0.296875
0.625793 0.675354 0.298950
0.650787 0.678986 0.301971
0.675507 0.682373 0.305878
0.699677 0.685577 0.310791
0.723511 0.688934 0.315460
0.746887 0.692535 0.319641
0.769653 0.696289 0.323547
0.791718 0.700073 0.327209
0.812897 0.703949 0.330841
0.833099 0.707886 0.334442
0.852356 0.711823 0.338043
0.870697 0.715851 0.341705
0.887756 0.719788 0.346222
0.903717 0.723694 0.351318
0.370483 0.637299 0.324036
0.373505 0.637665 0.324585
0.376953 0.638062 0.325165
0.381714 0.638611 0.326080
0.387970 0.639404 0.327240
0.395569 0.640625 0.328217
0.403564 0.643311 0.327606
0.412354 0.647156 0.325775
0.422699 0.651459 0.323578
0.434906 0.656006 0.321411
0.448914 0.660706 0.319397
0.464630 0.665466 0.317505
0.482025 0.670258 0.315796
0.500977 0.675018 0.314392
0.521271 0.679749 0.313293
0.542755 0.684326 0.312531
0.565277 0.688751 0.312286
0.588531 0.692993 0.312592
0.612335 0.696991 0.313507
0.636414 0.700775 0.315125
0.660553 0.704315 0.317535
0.684509 0.707642 0.320740
0.708069 0.710785 0.324799
0.730927 0.713715 0.329620
0.753326 0.716888 0.334076
0.775177 0.720215 0.338135
0.796265 0.723663 0.341949
0.816559 0.727142 0.345551
0.835968 0.730713 0.349121
0.854553 0.734344 0.352661
0.872284 0.738007 0.356201
0.888977 0.741577 0.360382
0.904510 0.745087 0.365234
0.395874 0.663544 0.342651
0.398712 0.663849 0.343170
0.401886 0.664246 0.343750
0.406311 0.664764 0.344543
0.411926 0.665771 0.345184
0.418335 0.667633 0.345062
0.425354 0.670685 0.343597
0.433685 0.674347 0.341675
0.443634 0.678284 0.339722
0.455353 0.682465 0.337769
0.468750 0.686768 0.335938
0.483734 0.691193 0.334229
0.500275 0.695709 0.332672
0.518280 0.700195 0.331329
0.537659 0.704620 0.330292
0.558167 0.708954 0.329559
0.579620 0.713165 0.329193
0.601868 0.717194 0.329376
0.624695 0.721039 0.330109
0.647797 0.724640 0.331421
0.671051 0.728058 0.333374
0.694122 0.731232 0.336060
0.716858 0.734253 0.339447
0.739014 0.737061 0.343628
0.760437 0.739777 0.348236
0.781281 0.742706 0.352509
0.801392 0.745789 0.356354
0.820831 0.748932 0.360077
0.839478 0.752136 0.363617
0.857361 0.755432 0.367126
0.874451 0.758759 0.370636
0.890717 0.762024 0.374542
0.905884 0.765228 0.379272
0.421661 0.688202 0.361023
0.424225 0.688629 0.361359
0.427032 0.689117 0.361664
0.430878 0.689911 0.361969
0.435425 0.691589 0.361359
0.440765 0.694061 0.360138
0.447449 0.696991 0.358582
0.455536 0.700256 0.356934
0.465149 0.703827 0.355225
0.476379 0.707611 0.353516
0.489197 0.711578 0.351929
0.503479 0.715637 0.350403
0.519257 0.719788 0.348999
0.536407 0.723938 0.347809
0.554840 0.728088 0.346832
0.574402 0.732147 0.346161
0.594849 0.736084 0.345856
0.616058 0.739899 0.345947
0.637848 0.743500 0.346558
0.660004 0.746948 0.347656
0.682220 0.750183 0.349335
0.704376 0.753235 0.351654
0.726196 0.756073 0.354553
0.747559 0.758759 0.358093
0.768127 0.761292 0.362274
0.787933 0.763824 0.366699
0.807159 0.766510 0.370697
0.825684 0.769348 0.374451
0.843536 0.772247 0.378021
0.860718 0.775238 0.381470
0.877167 0.778229 0.384979
0.892975 0.781250 0.388641
0.907745 0.784149 0.393188
0.447174 0.712128 0.378021
0.449097 0.712921 0.377716
0.451263 0.713837 0.377228
0.454224 0.715240 0.376465
0.458221 0.717102 0.375488
0.463440 0.719330 0.374359
0.470032 0.721924 0.373016
0.477875 0.724823 0.371643
0.487152 0.728027 0.370209
0.497955 0.731445 0.368805
0.510193 0.735016 0.367371
0.523834 0.738739 0.366058
0.538849 0.742554 0.364838
0.555206 0.746368 0.363831
0.572754 0.750183 0.363007
0.591339 0.753937 0.362427
0.610840 0.757629 0.362152
0.631012 0.761169 0.362274
0.651764 0.764587 0.362823
0.672852 0.767822 0.363831
0.694031 0.770874 0.365295
0.715210 0.773743 0.367310
0.736053 0.776459 0.369873
0.756439 0.778992 0.373016
0.776154 0.781403 0.376648
