滤镜资源/Professional Luts Collection/Lutify.me Professional/Instant Films/Desert Rose.cube
# Created by: Lutify.me
# Copyright: (c) Copyright Lutify.me 2015
# Website: https://lutify.me
#LUT size
LUT_3D_SIZE 9
#LUT data points
0.000000 0.000000 0.000000
0.051727 0.001465 0.001862
0.169067 0.000000 0.007935
0.299194 0.000183 0.020721
0.436493 0.012939 0.042389
0.576141 0.044220 0.069519
0.711456 0.090881 0.098419
0.834381 0.146637 0.127686
0.935547 0.212067 0.155823
0.010498 0.052521 0.011261
0.066528 0.068054 0.012085
0.179474 0.083679 0.016846
0.307770 0.097595 0.028625
0.444092 0.113190 0.049255
0.581970 0.133972 0.076080
0.715637 0.163239 0.104645
0.836975 0.203430 0.133331
0.936646 0.256165 0.160889
0.056305 0.166687 0.054474
0.106720 0.175873 0.060547
0.197784 0.198059 0.056183
0.316284 0.216553 0.068359
0.449005 0.234680 0.083832
0.585358 0.253540 0.104675
0.717377 0.276001 0.128815
0.835999 0.305725 0.154907
0.930084 0.346436 0.183167
0.129456 0.292694 0.120697
0.166870 0.297577 0.127380
0.235352 0.319214 0.120789
0.340759 0.340271 0.123474
0.461609 0.359467 0.139282
0.590851 0.379791 0.154480
0.717285 0.401123 0.173340
0.830841 0.425873 0.194855
0.919403 0.457367 0.221069
0.209290 0.423553 0.193146
0.237488 0.427124 0.198029
0.292053 0.442902 0.196808
0.378876 0.466827 0.189087
0.489044 0.486084 0.197235
0.605530 0.504608 0.214478
0.722229 0.524841 0.229462
0.827484 0.546478 0.246490
0.909454 0.571136 0.269257
0.297791 0.550629 0.267792
0.319336 0.553284 0.271545
0.363037 0.565186 0.271637
0.432281 0.587280 0.262604
0.527740 0.607727 0.260529
0.632996 0.623932 0.272858
0.735962 0.640198 0.290070
0.829193 0.658112 0.304810
0.903809 0.676880 0.323456
0.395874 0.663544 0.342651
0.411926 0.665771 0.345184
0.443634 0.678284 0.339722
0.500275 0.695709 0.332672
0.579620 0.713165 0.329193
0.671051 0.728058 0.333374
0.760437 0.739777 0.348236
0.839478 0.752136 0.363617
0.905884 0.765228 0.379272
0.494568 0.760254 0.404572
0.505219 0.764099 0.402771
0.532379 0.772614 0.399292
0.579498 0.784393 0.395660
0.644257 0.797089 0.394073
0.718994 0.808502 0.397034
0.792877 0.817871 0.406219
0.858368 0.825958 0.420624
0.915985 0.834930 0.434814
0.592377 0.841705 0.458466
0.601471 0.843903 0.457916
0.623871 0.849060 0.456757
0.661621 0.856567 0.455811
0.712219 0.865173 0.456329
0.769623 0.873444 0.459686
0.827393 0.880829 0.466553
0.881500 0.887512 0.477081
0.931152 0.894257 0.490204
0.006561 0.006470 0.046417
0.062836 0.009277 0.061188
0.177460 0.008911 0.078278
0.306061 0.012909 0.096466
0.442322 0.029724 0.117035
0.581116 0.061615 0.139557
0.715790 0.103455 0.163269
0.838013 0.155853 0.187103
0.938354 0.219330 0.209869
0.022064 0.070679 0.068085
0.081390 0.080505 0.077148
0.193115 0.091370 0.088135
0.317535 0.104858 0.103912
0.450317 0.121674 0.123596
0.586792 0.142792 0.145477
0.719788 0.171143 0.168304
0.840485 0.210480 0.191467
0.939423 0.262177 0.213806
0.073517 0.179962 0.109924
0.122253 0.186096 0.118073
0.207397 0.206970 0.120483
0.326050 0.224030 0.130951
0.457825 0.240540 0.145477
0.592499 0.258667 0.164154
0.722626 0.281097 0.185272
0.839508 0.310883 0.207855
0.932739 0.351410 0.231720
0.142456 0.302338 0.165283
0.178314 0.307037 0.171021
0.244263 0.326538 0.170380
0.347595 0.346832 0.175049
0.467560 0.365417 0.189362
0.595734 0.385040 0.203918
0.721191 0.405884 0.221130
0.833923 0.430389 0.240204
0.921844 0.461639 0.263153
0.219177 0.430939 0.228333
0.246613 0.434418 0.232849
0.299469 0.449860 0.232849
0.384857 0.472565 0.228912
0.494019 0.491089 0.237885
0.609772 0.509277 0.253937
0.725677 0.529144 0.268280
0.830231 0.550446 0.284210
0.911713 0.574921 0.304871
0.305450 0.556549 0.296326
0.326630 0.559174 0.299896
0.369202 0.571014 0.300323
0.437469 0.592285 0.293854
0.532013 0.612091 0.293579
0.636597 0.627960 0.305664
0.738983 0.644043 0.321899
0.831573 0.661682 0.336029
0.905792 0.680298 0.353394
0.401794 0.668427 0.366302
0.417572 0.670685 0.368652
0.448700 0.683014 0.363983
0.504608 0.699921 0.358429
0.583252 0.716949 0.356262
0.674042 0.731506 0.360901
0.762939 0.743103 0.375153
0.841492 0.755310 0.389862
0.907593 0.768280 0.404663
0.498962 0.764343 0.425079
0.509460 0.768127 0.423523
0.536285 0.776367 0.420685
0.582977 0.787903 0.417755
0.647217 0.800293 0.416901
0.721405 0.811523 0.420166
0.794830 0.820740 0.429169
0.859985 0.828766 0.442963
0.917419 0.837677 0.456543
0.598358 0.841003 0.482941
0.607025 0.843323 0.482330
0.628693 0.848724 0.481171
0.665192 0.856750 0.479797
0.714600 0.866089 0.479431
0.771271 0.875092 0.481415
0.828705 0.883026 0.486908
0.882751 0.889954 0.496338
0.932343 0.896698 0.508820
0.028564 0.031067 0.152924
0.090851 0.038544 0.163452
0.191711 0.042480 0.185242
0.314301 0.055389 0.205200
0.448578 0.073853 0.225159
0.586029 0.099579 0.245422
0.719421 0.134613 0.265930
0.840302 0.181183 0.286163
0.938599 0.240326 0.305756
0.054321 0.100189 0.168793
0.110321 0.107880 0.176636
0.204071 0.116089 0.196198
0.325043 0.128265 0.213593
0.456146 0.145081 0.231598
0.591309 0.165710 0.250763
0.723145 0.192871 0.270447
0.842590 0.230286 0.290039
0.939545 0.280182 0.309113
0.102356 0.205078 0.199249
0.146912 0.210815 0.205048
0.226044 0.224274 0.217255
0.347656 0.235931 0.227844
0.476929 0.249908 0.242401
0.608856 0.267029 0.259277
0.736694 0.288940 0.277527
0.852234 0.318085 0.296021
0.946014 0.356934 0.313965
0.164429 0.323822 0.242523
0.198853 0.328156 0.247253
0.267761 0.336914 0.259766
0.361938 0.360443 0.262634
0.484528 0.378052 0.271820
0.614197 0.394775 0.284180
0.739044 0.413513 0.299561
0.850128 0.436768 0.316467
0.937378 0.467346 0.335022
0.237427 0.448730 0.295502
0.264069 0.451996 0.299408
0.322540 0.458435 0.310486
0.399139 0.481049 0.311340
0.505066 0.502167 0.315460
0.621460 0.520233 0.327026
0.738373 0.538910 0.338379
0.842743 0.558960 0.352020
0.923645 0.582703 0.369507
0.320770 0.571259 0.354828
0.341431 0.573730 0.358002
0.389130 0.578705 0.367126
0.452637 0.597809 0.367249
0.541656 0.620209 0.364838
0.644806 0.637115 0.373383
0.746887 0.653229 0.386322
0.839600 0.670471 0.397583
0.913635 0.688599 0.412354
0.414307 0.680817 0.416992
0.430573 0.682343 0.419952
0.466736 0.687622 0.425415
0.518677 0.703674 0.423553
0.592316 0.722534 0.420471
0.680756 0.738831 0.421997
0.768646 0.750793 0.433594
0.846741 0.763062 0.445740
0.912872 0.775909 0.458038
0.516266 0.767365 0.479645
0.526978 0.769928 0.480194
0.552277 0.777222 0.479828
0.594971 0.789429 0.477631
0.655029 0.803772 0.475128
0.726776 0.816956 0.475220
0.799225 0.827209 0.481049
0.863800 0.835358 0.492950
0.921173 0.844360 0.504517
0.611420 0.842377 0.533295
0.619537 0.844696 0.532990
0.639587 0.850250 0.532166
0.673676 0.859039 0.530609
0.720581 0.869537 0.529022
0.775452 0.879730 0.529175
0.832031 0.888489 0.532623
0.885712 0.895752 0.540405
0.935059 0.902466 0.551758
0.082733 0.076355 0.270630
0.134277 0.084167 0.277008
0.219788 0.087585 0.299652
0.332977 0.101807 0.321075
0.459656 0.123047 0.342255
0.593292 0.145721 0.363312
0.723938 0.176117 0.383453
0.842438 0.217224 0.402496
0.937347 0.272339 0.420532
0.104095 0.137482 0.283173
0.150116 0.143921 0.289032
0.230804 0.151276 0.308075
0.341339 0.162384 0.328949
0.466370 0.179626 0.348663
0.598206 0.199310 0.368500
0.727417 0.225006 0.387756
0.844452 0.260040 0.406128
0.938171 0.308044 0.423706
0.144562 0.236298 0.307037
0.182892 0.241241 0.311920
0.255585 0.252197 0.324036
0.358795 0.260956 0.345520
0.485382 0.272247 0.362640
0.616211 0.288055 0.378845
0.742615 0.309296 0.395386
0.856750 0.337372 0.411682
0.949585 0.374512 0.426849
0.198151 0.351440 0.342255
0.229797 0.355377 0.346222
0.294495 0.364594 0.355591
0.382935 0.380157 0.369263
0.508392 0.392395 0.379395
0.635101 0.406647 0.392822
0.756683 0.424408 0.407501
0.865112 0.447235 0.422485
0.951813 0.476837 0.437073
0.264343 0.473846 0.386047
0.289795 0.476868 0.389404
0.346954 0.483032 0.398102
0.424622 0.494690 0.412262
0.521606 0.518646 0.415253
0.639404 0.535706 0.423431
0.756439 0.551910 0.433899
0.859283 0.570343 0.446442
0.939331 0.593262 0.460815
0.343018 0.593597 0.436279
0.363068 0.595917 0.439117
0.411041 0.599915 0.447388
0.478241 0.608887 0.459747
0.557465 0.632172 0.460510
0.657349 0.651123 0.465088
0.759186 0.667084 0.474579
0.851654 0.683380 0.483521
0.925354 0.700653 0.495758
0.432770 0.700500 0.489899
0.449127 0.701691 0.492706
0.487701 0.704010 0.500336
0.542053 0.712036 0.509186
0.608093 0.731049 0.509247
0.691284 0.750031 0.507935
0.777344 0.762726 0.516327
0.854614 0.775024 0.525726
0.920654 0.787567 0.535400
0.533875 0.782745 0.546234
0.545868 0.783630 0.548553
0.573547 0.786591 0.553528
0.614227 0.795837 0.556549
0.668549 0.810791 0.555420
0.735626 0.825928 0.553772
0.805969 0.837494 0.556641
0.869507 0.845764 0.566467
0.926575 0.854767 0.575775
0.629913 0.850128 0.599915
0.637848 0.851746 0.600708
0.656860 0.856262 0.601776
0.688019 0.864685 0.601807
0.731018 0.875916 0.600555
0.782532 0.887360 0.599518
0.837250 0.897156 0.600952
0.890167 0.904938 0.606567
0.939117 0.911621 0.616364
0.146667 0.125336 0.392792
0.186279 0.132324 0.397552
0.259033 0.138580 0.416260
0.361633 0.147095 0.440796
0.480835 0.168030 0.461670
0.606354 0.193573 0.482788
0.731598 0.222076 0.503571
0.845825 0.259338 0.522583
0.936371 0.310760 0.539642
0.161774 0.179657 0.403076
0.199127 0.185394 0.407501
0.269440 0.193115 0.423248
0.369049 0.199463 0.447571
0.486816 0.216522 0.467529
0.610931 0.238464 0.487701
0.734802 0.263580 0.507660
0.847595 0.296600 0.526031
0.937103 0.342560 0.542603
0.194916 0.272034 0.422760
0.227875 0.276428 0.426666
0.293549 0.285797 0.437500
0.385162 0.293854 0.459656
0.499847 0.305237 0.480560
0.623901 0.320526 0.499542
0.746826 0.339966 0.517181
0.858093 0.366241 0.533264
0.947296 0.402313 0.547760
0.243073 0.382996 0.451752
0.271057 0.386536 0.455109
0.329376 0.394836 0.463959
0.412628 0.407837 0.478180
0.519348 0.416901 0.500092
0.643097 0.428162 0.516022
0.763214 0.444305 0.530060
0.869904 0.465942 0.543427
0.955170 0.494446 0.555847
0.301666 0.502167 0.488983
0.325134 0.504944 0.491882
0.377106 0.511658 0.498901
0.452515 0.522827 0.510468
0.542969 0.539124 0.524170
0.662720 0.551270 0.533295
0.776184 0.565125 0.544891
0.875183 0.582642 0.556763
0.953888 0.604858 0.568329
0.373413 0.619507 0.531403
0.392426 0.621674 0.533875
0.437439 0.626312 0.540100
0.504303 0.634033 0.550934
0.582001 0.646790 0.564789
0.673309 0.668579 0.567566
0.774933 0.683624 0.574432
0.866180 0.698059 0.582672
0.938995 0.714233 0.592987
0.457916 0.723755 0.576813
0.473724 0.724945 0.579102
0.510864 0.727631 0.585022
0.566498 0.732788 0.594910
0.631958 0.743134 0.605927
0.705536 0.763641 0.605927
0.788177 0.777740 0.610992
0.864136 0.789795 0.618042
0.930084 0.801758 0.625458
0.554688 0.803864 0.623962
0.566528 0.804626 0.626007
0.594421 0.806641 0.631012
0.637604 0.810608 0.639099
0.688904 0.820709 0.645294
0.748352 0.836853 0.644775
0.814453 0.850220 0.645050
0.876434 0.858826 0.652527
0.933105 0.867859 0.659546
0.648804 0.867157 0.671143
0.657257 0.867859 0.672729
0.677368 0.869720 0.676483
0.708313 0.874420 0.681213
0.746826 0.884277 0.683105
0.792908 0.896545 0.682465
0.844086 0.907745 0.682220
0.895599 0.916443 0.685425
0.944092 0.923248 0.693298
0.214966 0.175720 0.511353
0.246216 0.181793 0.515228
0.308197 0.188934 0.530518
0.398712 0.196228 0.554474
0.510010 0.209656 0.577850
0.628082 0.236084 0.597412
0.745056 0.266724 0.617371
0.852600 0.302338 0.636200
0.937897 0.350769 0.652252
0.226318 0.223877 0.519958
0.256622 0.228821 0.523621
0.317322 0.235992 0.536865
0.405487 0.241272 0.560547
0.515350 0.252655 0.583130
0.632172 0.275787 0.601868
0.747894 0.303040 0.621094
0.854126 0.335358 0.639343
0.938538 0.379211 0.654968
0.253632 0.309753 0.536499
0.281342 0.313660 0.539764
0.339478 0.321869 0.549225
0.422058 0.330475 0.568665
0.526733 0.337555 0.593231
0.641418 0.354645 0.612030
0.756012 0.375183 0.630463
0.861176 0.400391 0.647308
0.944977 0.435608 0.661560
0.295380 0.416412 0.560822
0.319733 0.419586 0.563721
0.371643 0.426636 0.572266
0.449371 0.438446 0.584900
0.544434 0.446564 0.608429
0.655151 0.458649 0.627563
0.767853 0.473541 0.644409
0.870026 0.493195 0.658783
0.951050 0.520874 0.670959
0.348969 0.531891 0.592163
0.369904 0.534424 0.594696
0.416412 0.540710 0.601196
0.485901 0.551025 0.612030
0.570862 0.564606 0.626923
0.672729 0.573273 0.647217
0.782501 0.584381 0.660614
0.878906 0.600433 0.671539
0.955994 0.621521 0.681335
0.412872 0.646179 0.628479
0.430328 0.648163 0.630646
0.470917 0.653015 0.635986
0.532867 0.661194 0.644867
0.609009 0.672485 0.656982
0.692505 0.687775 0.669098
0.794312 0.698883 0.676300
0.881439 0.711334 0.685150
0.952209 0.726624 0.693939
0.490082 0.747742 0.666626
0.504639 0.749054 0.668488
0.538666 0.752319 0.673065
0.591492 0.757812 0.680878
0.657288 0.765259 0.691986
0.725647 0.777435 0.703186
0.800598 0.794067 0.705597
0.875275 0.805389 0.710632
0.940948 0.816040 0.716644
0.579742 0.826141 0.704956
0.590942 0.826996 0.706604
0.617584 0.829102 0.710602
0.659637 0.832703 0.717499
0.712311 0.837769 0.727142
0.766663 0.848145 0.734833
0.824615 0.863434 0.734528
0.884125 0.872955 0.739197
0.940247 0.881775 0.744232
0.668976 0.887329 0.743225
0.677185 0.887939 0.744598
0.696869 0.889435 0.748016
0.728149 0.892059 0.753693
0.767212 0.896393 0.761078
0.808044 0.906097 0.764954
0.853088 0.918427 0.764740
0.901764 0.928589 0.765533
0.949493 0.935669 0.771362
0.288971 0.223999 0.616425
0.313873 0.229248 0.619629
0.365479 0.234283 0.633881
0.445007 0.240723 0.655579
0.545868 0.252045 0.678467
0.656830 0.272003 0.699127
0.765289 0.304474 0.716553
0.864258 0.341034 0.733826
0.943481 0.387268 0.748505
0.298004 0.266418 0.623657
0.322388 0.270782 0.626740
0.373108 0.275513 0.639771
0.450989 0.280182 0.661255
0.550629 0.290344 0.683197
0.660400 0.308319 0.703003
0.767761 0.337585 0.719849
0.865540 0.370941 0.736633
0.944122 0.413025 0.751007
0.320496 0.346313 0.637634
0.343170 0.349609 0.640656
0.393524 0.357117 0.648773
0.467041 0.364624 0.666626
0.561188 0.371429 0.690186
0.668213 0.383545 0.711273
0.773407 0.406921 0.727631
0.869598 0.433350 0.743774
0.946899 0.468201 0.757263
0.356079 0.448608 0.658234
0.376343 0.451324 0.661133
0.421936 0.457397 0.668945
0.492493 0.468262 0.680115
0.578583 0.476501 0.701599
0.679901 0.484711 0.723846
0.781494 0.502411 0.739563
0.874634 0.522400 0.754456
0.949615 0.549561 0.766510
0.403198 0.560577 0.684540
0.421173 0.562866 0.686920
0.461975 0.568420 0.693207
0.525299 0.577576 0.703400
0.604645 0.590027 0.716766
0.694855 0.597443 0.739075
0.791077 0.609802 0.754486
0.879761 0.624298 0.767365
0.952209 0.644257 0.777466
0.460938 0.671356 0.714996
0.476501 0.673187 0.716949
0.512665 0.677765 0.721802
0.568909 0.685455 0.729889
0.639038 0.696014 0.741089
0.716187 0.708435 0.754944
0.802734 0.715912 0.770996
0.885681 0.726318 0.780334
0.954620 0.740387 0.787781
0.529663 0.769806 0.746979
0.542542 0.771149 0.748596
0.573120 0.774445 0.752563
0.621277 0.780029 0.759247
0.682220 0.787781 0.768341
0.748962 0.797180 0.779266
0.815094 0.809570 0.787811
0.888763 0.818329 0.792542
0.952209 0.827332 0.798584
0.610229 0.846161 0.777863
0.620453 0.847046 0.779205
0.644836 0.849274 0.782532
0.683838 0.852997 0.788116
0.733582 0.858093 0.795868
0.787628 0.864166 0.805450
0.838165 0.874817 0.812317
0.892883 0.886139 0.814331
0.948425 0.894409 0.817810
0.692078 0.905548 0.807892
0.699738 0.906189 0.809021
0.718109 0.907715 0.811798
0.747559 0.910278 0.816467
0.785095 0.913788 0.822937
0.826172 0.918396 0.830780
0.865906 0.927612 0.835510
0.909210 0.939301 0.835297
0.955750 0.947113 0.838898
0.368134 0.266296 0.699036
0.386261 0.267639 0.704712
0.429596 0.270538 0.717926
0.499420 0.276672 0.736481
0.589661 0.287445 0.757172
0.690796 0.305359 0.776886
0.791321 0.334106 0.793701
0.880737 0.372253 0.808411
0.953217 0.417206 0.821442
0.375427 0.303925 0.705353
0.393311 0.305237 0.710602
0.435699 0.307312 0.723572
0.504547 0.312683 0.741486
0.593842 0.322449 0.761322
0.693939 0.338806 0.780304
0.793396 0.365021 0.796570
0.881683 0.400085 0.810852
0.953522 0.441467 0.823669
0.393494 0.378235 0.717865
0.411987 0.381042 0.720734
0.454376 0.387177 0.728546
0.518890 0.392975 0.745331
0.603455 0.399719 0.766510
0.700531 0.410919 0.786804
0.797821 0.431427 0.803101
0.883942 0.460449 0.816803
0.954285 0.495361 0.828918
0.422882 0.476440 0.735901
0.439667 0.478699 0.738739
0.479736 0.484497 0.745026
0.541687 0.493927 0.755707
0.619324 0.501251 0.775513
0.710602 0.509155 0.796692
0.804047 0.524017 0.813110
0.886414 0.546844 0.825806
0.954529 0.574280 0.837036
0.463379 0.585480 0.758087
0.478394 0.587463 0.760498
0.514282 0.592407 0.766144
0.570953 0.600708 0.775269
0.642883 0.611877 0.787720
0.724060 0.619232 0.808380
0.811066 0.629028 0.825409
0.888367 0.646057 0.836945
0.954132 0.665955 0.847137
0.514282 0.693359 0.783691
0.527618 0.695068 0.785553
0.559357 0.699249 0.790039
0.609467 0.706238 0.797607
0.673157 0.715759 0.808044
0.744171 0.726959 0.820679
0.818970 0.733429 0.838501
0.890411 0.744659 0.849091
0.954315 0.757355 0.857788
0.575653 0.788635 0.810730
0.587036 0.789886 0.812225
0.614136 0.792969 0.815796
0.657318 0.798218 0.821777
0.712280 0.805511 0.829987
0.772522 0.814453 0.839752
0.831787 0.823822 0.850800
0.896362 0.829285 0.860992
0.957306 0.837158 0.866943
0.646118 0.862671 0.836761
0.655212 0.863586 0.837952
0.677063 0.865753 0.840851
0.712097 0.869415 0.845734
0.756958 0.874481 0.852295
0.806274 0.880707 0.859985
0.855469 0.887604 0.868469
0.903412 0.897430 0.873413
0.958832 0.904053 0.876556
0.718781 0.920654 0.861359
0.725677 0.921265 0.862366
0.742218 0.922821 0.864685
0.768829 0.925385 0.868561
0.803162 0.928925 0.873840
0.841858 0.933258 0.880341
0.881500 0.938354 0.887787
0.919128 0.948059 0.891602
0.963348 0.957001 0.893433
0.445282 0.295898 0.771423
0.460876 0.296997 0.775970
0.498444 0.300201 0.786407
0.559509 0.306580 0.801819
0.639404 0.317444 0.819763
0.729858 0.334808 0.837555
0.820465 0.361603 0.853302
0.900391 0.398926 0.866364
0.965820 0.442902 0.877960
0.451111 0.330505 0.776917
0.466461 0.331482 0.781311
0.503479 0.334320 0.791351
0.563904 0.340088 0.806183
0.642944 0.350006 0.823425
0.732452 0.365997 0.840637
0.822083 0.390686 0.855865
0.901001 0.425201 0.868591
0.965790 0.466034 0.879883
0.469360 0.406738 0.782043
0.484161 0.408508 0.785370
0.519165 0.411987 0.794312
0.575897 0.416779 0.809326
0.651154 0.423706 0.827789
0.737885 0.435120 0.846039
0.825348 0.454346 0.861572
0.902161 0.483276 0.873779
0.965485 0.518311 0.884460
0.493622 0.501282 0.798248
0.508057 0.503540 0.800415
0.542389 0.509155 0.805573
0.595306 0.515808 0.817505
0.664734 0.522186 0.835419
0.746216 0.530365 0.854370
0.829742 0.544250 0.870209
0.903076 0.566986 0.881714
0.964172 0.595093 0.891632
0.527252 0.607452 0.817993
0.540222 0.609314 0.820038
0.571350 0.613770 0.825012
0.621368 0.621582 0.832794
0.684692 0.630829 0.845490
0.757446 0.637817 0.864136
0.834290 0.647064 0.880524
0.903137 0.663666 0.891510
0.961761 0.684631 0.900604
0.570984 0.712982 0.840118
0.582458 0.714508 0.841797
0.609955 0.718262 0.845947
0.653992 0.724548 0.852905
0.710876 0.733215 0.862335
0.774261 0.743134 0.874298
0.839752 0.749695 0.890839
0.903137 0.759827 0.902191
0.959381 0.773773 0.910583
0.624573 0.805603 0.863586
0.634399 0.806732 0.864899
0.658020 0.809601 0.868195
0.695862 0.814392 0.873688
0.744385 0.821045 0.881226
0.797974 0.829041 0.890259
0.851501 0.837524 0.900269
0.906189 0.842499 0.912781
0.960266 0.850159 0.920410
0.686127 0.877258 0.886383
0.694122 0.878082 0.887451
0.713318 0.880096 0.890076
0.744110 0.883514 0.894379
0.783600 0.888245 0.900208
0.827362 0.894135 0.907043
0.871735 0.900970 0.914459
0.915192 0.907654 0.922882
0.966858 0.911743 0.929443
0.748291 0.933899 0.907959
0.754333 0.934540 0.908783
0.768829 0.936005 0.910797
0.792267 0.938507 0.914154
0.822937 0.942017 0.918732
0.858063 0.946381 0.924225
0.895142 0.951538 0.930389
0.932587 0.957214 0.937347
0.972626 0.966187 0.940399
