滤镜资源/Professional Luts Collection/Lutify.me Professional/Instant Films/Desert Rose.cube
# Created by: Lutify.me
# Copyright: (c) Copyright Lutify.me 2015
# Website: https://lutify.me
#LUT size
LUT_3D_SIZE 5
#LUT data points
0.000000 0.000000 0.000000
0.169067 0.000000 0.007935
0.436493 0.012939 0.042389
0.711456 0.090881 0.098419
0.935547 0.212067 0.155823
0.056305 0.166687 0.054474
0.197784 0.198059 0.056183
0.449005 0.234680 0.083832
0.717377 0.276001 0.128815
0.930084 0.346436 0.183167
0.209290 0.423553 0.193146
0.292053 0.442902 0.196808
0.489044 0.486084 0.197235
0.722229 0.524841 0.229462
0.909454 0.571136 0.269257
0.395874 0.663544 0.342651
0.443634 0.678284 0.339722
0.579620 0.713165 0.329193
0.760437 0.739777 0.348236
0.905884 0.765228 0.379272
0.592377 0.841705 0.458466
0.623871 0.849060 0.456757
0.712219 0.865173 0.456329
0.827393 0.880829 0.466553
0.931152 0.894257 0.490204
0.028564 0.031067 0.152924
0.191711 0.042480 0.185242
0.448578 0.073853 0.225159
0.719421 0.134613 0.265930
0.938599 0.240326 0.305756
0.102356 0.205078 0.199249
0.226044 0.224274 0.217255
0.476929 0.249908 0.242401
0.736694 0.288940 0.277527
0.946014 0.356934 0.313965
0.237427 0.448730 0.295502
0.322540 0.458435 0.310486
0.505066 0.502167 0.315460
0.738373 0.538910 0.338379
0.923645 0.582703 0.369507
0.414307 0.680817 0.416992
0.466736 0.687622 0.425415
0.592316 0.722534 0.420471
0.768646 0.750793 0.433594
0.912872 0.775909 0.458038
0.611420 0.842377 0.533295
0.639587 0.850250 0.532166
0.720581 0.869537 0.529022
0.832031 0.888489 0.532623
0.935059 0.902466 0.551758
0.146667 0.125336 0.392792
0.259033 0.138580 0.416260
0.480835 0.168030 0.461670
0.731598 0.222076 0.503571
0.936371 0.310760 0.539642
0.194916 0.272034 0.422760
0.293549 0.285797 0.437500
0.499847 0.305237 0.480560
0.746826 0.339966 0.517181
0.947296 0.402313 0.547760
0.301666 0.502167 0.488983
0.377106 0.511658 0.498901
0.542969 0.539124 0.524170
0.776184 0.565125 0.544891
0.953888 0.604858 0.568329
0.457916 0.723755 0.576813
0.510864 0.727631 0.585022
0.631958 0.743134 0.605927
0.788177 0.777740 0.610992
0.930084 0.801758 0.625458
0.648804 0.867157 0.671143
0.677368 0.869720 0.676483
0.746826 0.884277 0.683105
0.844086 0.907745 0.682220
0.944092 0.923248 0.693298
0.288971 0.223999 0.616425
0.365479 0.234283 0.633881
0.545868 0.252045 0.678467
0.765289 0.304474 0.716553
0.943481 0.387268 0.748505
0.320496 0.346313 0.637634
0.393524 0.357117 0.648773
0.561188 0.371429 0.690186
0.773407 0.406921 0.727631
0.946899 0.468201 0.757263
0.403198 0.560577 0.684540
0.461975 0.568420 0.693207
0.604645 0.590027 0.716766
0.791077 0.609802 0.754486
0.952209 0.644257 0.777466
0.529663 0.769806 0.746979
0.573120 0.774445 0.752563
0.682220 0.787781 0.768341
0.815094 0.809570 0.787811
0.952209 0.827332 0.798584
0.692078 0.905548 0.807892
0.718109 0.907715 0.811798
0.785095 0.913788 0.822937
0.865906 0.927612 0.835510
0.955750 0.947113 0.838898
0.445282 0.295898 0.771423
0.498444 0.300201 0.786407
0.639404 0.317444 0.819763
0.820465 0.361603 0.853302
0.965820 0.442902 0.877960
0.469360 0.406738 0.782043
0.519165 0.411987 0.794312
0.651154 0.423706 0.827789
0.825348 0.454346 0.861572
0.965485 0.518311 0.884460
0.527252 0.607452 0.817993
0.571350 0.613770 0.825012
0.684692 0.630829 0.845490
0.834290 0.647064 0.880524
0.961761 0.684631 0.900604
0.624573 0.805603 0.863586
0.658020 0.809601 0.868195
0.744385 0.821045 0.881226
0.851501 0.837524 0.900269
0.960266 0.850159 0.920410
0.748291 0.933899 0.907959
0.768829 0.936005 0.910797
0.822937 0.942017 0.918732
0.895142 0.951538 0.930389
0.972626 0.966187 0.940399
