滤镜资源/Professional Luts Collection/Lutify.me Professional/Instant Films/Dioptase.cube
# Created by: Lutify.me
# Copyright: (c) Copyright Lutify.me 2015
# Website: https://lutify.me
#LUT size
LUT_3D_SIZE 9
#LUT data points
0.000000 0.000000 0.000000
0.067596 0.001556 0.001129
0.154633 0.004700 0.003784
0.258331 0.000885 0.008575
0.385956 0.000000 0.016541
0.539612 0.000000 0.027130
0.708679 0.000000 0.039368
0.874268 0.000000 0.050781
1.000000 0.000000 0.059601
0.015167 0.057434 0.011200
0.069977 0.065430 0.010376
0.156494 0.070068 0.011200
0.263336 0.066711 0.015106
0.392914 0.041626 0.021545
0.546387 0.000000 0.031433
0.714294 0.000000 0.042358
0.878174 0.000000 0.051819
1.000000 0.000000 0.058990
0.049835 0.137756 0.038727
0.089355 0.144379 0.036774
0.166077 0.152985 0.035400
0.270996 0.158630 0.036987
0.402649 0.156097 0.039032
0.559265 0.136230 0.041473
0.727142 0.085419 0.045044
0.886932 0.018585 0.050842
1.000000 0.009949 0.053802
0.076416 0.240784 0.075592
0.114197 0.244232 0.077820
0.183044 0.257629 0.068481
0.285736 0.268616 0.067444
0.416077 0.277222 0.066833
0.570465 0.279877 0.063141
0.734680 0.275879 0.058929
0.890442 0.272064 0.054047
1.000000 0.285309 0.052887
0.077576 0.375061 0.110321
0.124298 0.377594 0.113220
0.200073 0.386810 0.113495
0.301636 0.406464 0.094482
0.433563 0.420898 0.089905
0.582245 0.433136 0.088196
0.738678 0.443787 0.079437
0.884338 0.455231 0.071228
0.997589 0.475220 0.076019
0.049652 0.531830 0.144775
0.120026 0.533936 0.147583
0.218109 0.539093 0.154541
0.323212 0.557037 0.140625
0.453369 0.578735 0.112244
0.598999 0.593536 0.105621
0.743469 0.606720 0.107941
0.875763 0.621674 0.101562
0.976257 0.640106 0.109253
0.118988 0.684540 0.186554
0.173431 0.686096 0.189209
0.265472 0.689850 0.195831
0.370422 0.701691 0.191986
0.488922 0.723877 0.158722
0.625061 0.740692 0.133545
0.758087 0.751465 0.134735
0.872864 0.761932 0.144165
0.958405 0.774719 0.153595
0.286774 0.803040 0.243256
0.315704 0.803955 0.245575
0.377716 0.806305 0.251068
0.456360 0.819916 0.234406
0.558777 0.835907 0.209442
0.675568 0.848083 0.190063
0.789612 0.855591 0.184906
0.884674 0.859863 0.197601
0.952515 0.865265 0.211243
0.466522 0.876221 0.299469
0.481506 0.879059 0.295624
0.518860 0.885071 0.287170
0.581024 0.892975 0.275574
0.663025 0.900543 0.264130
0.754333 0.905792 0.257202
0.841614 0.908203 0.258789
0.912262 0.908813 0.269226
0.959778 0.909973 0.282471
0.000000 0.000000 0.076843
0.073395 0.000854 0.073822
0.160706 0.004761 0.075439
0.264282 0.000916 0.080231
0.391418 0.000000 0.087097
0.544556 0.000000 0.095337
0.712738 0.000000 0.103943
0.877258 0.000000 0.112122
1.000000 0.000000 0.118866
0.011688 0.069702 0.073273
0.075989 0.070831 0.075439
0.163177 0.072388 0.078888
0.268860 0.067963 0.083710
0.398132 0.041412 0.089813
0.551178 0.000000 0.097473
0.718231 0.000000 0.105469
0.881073 0.000000 0.112854
1.000000 0.000000 0.119019
0.046234 0.148834 0.087341
0.097290 0.147430 0.094025
0.170898 0.157013 0.093384
0.278259 0.160950 0.093872
0.410187 0.156281 0.097137
0.564972 0.135864 0.101776
0.730621 0.086517 0.107361
0.889465 0.020874 0.113098
1.000000 0.011078 0.117188
0.076630 0.248413 0.113678
0.120636 0.248718 0.119232
0.188385 0.259827 0.117432
0.290131 0.271606 0.115967
0.421570 0.279633 0.115662
0.575775 0.281189 0.115692
0.738373 0.277008 0.116882
0.892670 0.273682 0.117432
1.000000 0.287140 0.119446
0.087189 0.378906 0.146576
0.131439 0.381348 0.149170
0.205383 0.390472 0.150116
0.306213 0.409363 0.137878
0.437653 0.423157 0.136993
0.585815 0.435150 0.137695
0.741516 0.445496 0.134247
0.886383 0.456848 0.131378
0.998352 0.476898 0.136383
0.066803 0.534973 0.178650
0.129822 0.537048 0.181122
0.224548 0.542145 0.187469
0.327942 0.559998 0.176636
0.457336 0.581024 0.156860
0.602234 0.595398 0.154388
0.746094 0.608490 0.157532
0.877533 0.623291 0.154907
0.977325 0.641724 0.161835
0.131378 0.687195 0.217712
0.182587 0.688721 0.220093
0.271820 0.692413 0.226105
0.374817 0.704498 0.222687
0.492584 0.726074 0.196655
0.627991 0.742462 0.178711
0.760223 0.753021 0.181213
0.874298 0.763458 0.189392
0.959229 0.776184 0.197815
0.293213 0.805298 0.270538
0.321533 0.806213 0.272705
0.382507 0.808594 0.277710
0.460114 0.822235 0.262939
0.561859 0.837769 0.242340
0.677948 0.849640 0.227142
0.791290 0.856995 0.223999
0.885712 0.861237 0.235291
0.953033 0.866577 0.247375
0.470062 0.878418 0.323334
0.484924 0.881165 0.319946
0.522034 0.886993 0.312561
0.583832 0.894684 0.302673
0.665283 0.902039 0.293030
0.756042 0.907135 0.287537
0.842682 0.909393 0.289520
0.912811 0.910004 0.299225
0.959900 0.911224 0.311218
0.000000 0.000000 0.175446
0.069519 0.000000 0.173035
0.166412 0.000824 0.170654
0.275360 0.000000 0.171997
0.403992 0.000000 0.176300
0.556854 0.000000 0.183197
0.723541 0.000000 0.191223
0.886017 0.000000 0.199402
1.000000 0.000000 0.206635
0.000641 0.072021 0.170898
0.070557 0.068756 0.175537
0.171082 0.069824 0.172394
0.280243 0.064056 0.173950
0.410583 0.033234 0.178406
0.563263 0.000000 0.185059
0.728851 0.000000 0.192810
0.889709 0.000000 0.200623
1.000000 0.000000 0.207245
0.032959 0.159912 0.170868
0.092377 0.161194 0.172241
0.181244 0.162567 0.175690
0.290039 0.163361 0.179138
0.421112 0.157410 0.184296
0.574982 0.135925 0.190186
0.740814 0.082184 0.195709
0.897644 0.017456 0.202484
1.000000 0.010925 0.207947
0.054230 0.265900 0.182648
0.114288 0.266113 0.185150
0.201935 0.264465 0.195740
0.300079 0.278015 0.194550
0.435638 0.283722 0.194519
0.590546 0.282410 0.197296
0.751953 0.276337 0.201233
0.903595 0.272705 0.205322
1.000000 0.286682 0.209442
0.065063 0.396393 0.206482
0.122070 0.398438 0.208496
0.220856 0.396454 0.222015
0.317596 0.412781 0.220215
0.447021 0.428558 0.217529
0.596893 0.440125 0.216949
0.752838 0.449005 0.216370
0.895996 0.459442 0.217896
1.000000 0.479645 0.224701
0.079834 0.545502 0.242065
0.140259 0.547394 0.244263
0.234344 0.552094 0.249756
0.341644 0.564087 0.252258
0.466675 0.585571 0.239319
0.609894 0.599915 0.239166
0.752472 0.612823 0.243073
0.882080 0.627258 0.244354
0.979767 0.645630 0.251923
0.157776 0.693665 0.282776
0.203033 0.695099 0.284882
0.286774 0.698761 0.290131
0.385376 0.711182 0.287598
0.501373 0.731354 0.271576
0.634857 0.746735 0.262146
0.765289 0.756866 0.266571
0.877655 0.767181 0.274109
0.960968 0.779907 0.281708
0.308167 0.810883 0.330811
0.335205 0.811768 0.332703
0.394073 0.814209 0.336975
0.469086 0.827789 0.325592
0.569214 0.842377 0.311798
0.683533 0.853485 0.302612
0.795166 0.860382 0.302216
0.888000 0.864594 0.311798
0.953949 0.869934 0.321869
0.478912 0.883362 0.378296
0.493591 0.885895 0.375824
0.529907 0.891357 0.370575
0.590576 0.898621 0.363495
0.670654 0.905487 0.356873
0.759888 0.910248 0.353546
0.845093 0.912415 0.356049
0.913971 0.913055 0.364349
0.960083 0.914276 0.374542
0.000000 0.000000 0.295685
0.023193 0.000000 0.295197
0.160767 0.000000 0.290558
0.282440 0.000000 0.288940
0.419281 0.000000 0.290680
0.574524 0.000000 0.294952
0.740112 0.000000 0.301758
0.899811 0.000000 0.309692
1.000000 0.000000 0.317017
0.000000 0.069031 0.293121
0.031403 0.065430 0.295715
0.166107 0.062561 0.293304
0.288788 0.053680 0.290802
0.425903 0.012695 0.292572
0.580750 0.000000 0.296844
0.745209 0.000000 0.303497
0.903229 0.000000 0.311157
1.000000 0.000000 0.318146
0.000458 0.165070 0.288147
0.067627 0.164215 0.291504
0.177032 0.159271 0.298553
0.302490 0.159454 0.294708
0.438171 0.152954 0.296356
0.592499 0.128815 0.301270
0.756622 0.068420 0.307190
0.910614 0.010651 0.314209
1.000000 0.008820 0.320282
0.021332 0.278229 0.290863
0.099609 0.279541 0.291901
0.198547 0.282562 0.294525
0.316101 0.285583 0.298584
0.453156 0.287170 0.302979
0.605957 0.284760 0.308594
0.764343 0.278778 0.314728
0.912781 0.276215 0.320740
1.000000 0.291168 0.326233
0.002411 0.418579 0.302704
0.088898 0.420197 0.303894
0.216339 0.419891 0.309326
0.337402 0.419586 0.323700
0.461731 0.437531 0.321777
0.614746 0.447052 0.321289
0.770233 0.453339 0.323761
0.911072 0.462524 0.327698
1.000000 0.482300 0.333557
0.000000 0.571747 0.326233
0.097504 0.573334 0.327759
0.222382 0.577209 0.331543
0.366028 0.569977 0.354767
0.481964 0.591003 0.350403
0.621796 0.607635 0.348022
0.764740 0.620728 0.348969
0.894287 0.634247 0.349640
0.990295 0.652130 0.356140
0.125824 0.717346 0.361938
0.184174 0.718567 0.363617
0.280609 0.721558 0.367706
0.410889 0.715607 0.389771
0.519440 0.733093 0.385620
0.645325 0.752014 0.375275
0.773041 0.763428 0.376770
0.883636 0.774139 0.381622
0.965240 0.786835 0.387238
0.304047 0.830719 0.405914
0.333038 0.831421 0.407471
0.399200 0.831146 0.414124
0.493256 0.828644 0.429047
0.585327 0.843079 0.421570
0.692566 0.856842 0.412109
0.800720 0.865631 0.408661
0.891205 0.870239 0.415466
0.955231 0.875824 0.422791
0.502533 0.884888 0.470123
0.517914 0.885742 0.470825
0.552704 0.889435 0.470184
0.607819 0.896820 0.466125
0.681305 0.905731 0.459381
0.765747 0.912994 0.453339
0.848236 0.916870 0.452057
0.915222 0.918091 0.457489
0.959778 0.919464 0.465485
0.000000 0.000000 0.441376
0.000000 0.000000 0.441345
0.120300 0.000000 0.438599
0.278381 0.000000 0.433105
0.429169 0.000000 0.432159
0.592377 0.000000 0.434174
0.759125 0.000000 0.438080
0.916138 0.000000 0.444122
1.000000 0.000000 0.450500
0.000000 0.061493 0.440155
0.000000 0.058594 0.440369
0.129089 0.047211 0.441040
0.285675 0.034821 0.434906
0.436127 0.001648 0.433899
0.598480 0.000000 0.435822
0.763885 0.000000 0.439728
0.919250 0.000000 0.445587
1.000000 0.000000 0.451691
0.000000 0.164246 0.435089
0.001068 0.163849 0.435455
0.147308 0.154297 0.445129
0.301208 0.152069 0.440063
0.451569 0.141632 0.437653
0.611481 0.110077 0.439301
0.774567 0.043701 0.443298
0.925812 0.004242 0.448792
1.000000 0.003632 0.454193
0.000000 0.286560 0.430237
0.046051 0.287415 0.430817
0.176239 0.286469 0.439301
0.317352 0.281677 0.446533
0.471283 0.283478 0.442017
0.625854 0.282227 0.443787
0.781860 0.277283 0.448700
0.926270 0.276306 0.454468
1.000000 0.293243 0.459808
0.000000 0.433746 0.434326
0.042145 0.435059 0.435150
0.200836 0.438202 0.437164
0.338074 0.442993 0.440704
0.482239 0.448425 0.445465
0.635834 0.452728 0.450134
0.787231 0.457672 0.455414
0.923462 0.467010 0.460754
1.000000 0.486786 0.465698
0.000000 0.596558 0.446045
0.005280 0.597809 0.447021
0.203491 0.600800 0.449463
0.370667 0.596558 0.459503
0.504333 0.599152 0.474884
0.636932 0.618408 0.472260
0.780365 0.630402 0.472137
0.907684 0.642181 0.474304
0.998596 0.659607 0.479980
0.028687 0.745361 0.468842
0.136597 0.746307 0.469971
0.262756 0.748596 0.472809
0.419312 0.738983 0.490356
0.544159 0.739227 0.506989
0.659241 0.759460 0.500977
0.782440 0.772552 0.500275
0.890533 0.783447 0.503052
0.969574 0.795959 0.507111
0.283295 0.857574 0.502014
0.316864 0.858063 0.503113
0.396881 0.855011 0.510254
0.513153 0.841675 0.532715
0.607422 0.846802 0.540009
0.705048 0.861664 0.533875
0.807312 0.872711 0.528503
0.894257 0.877960 0.532806
0.955597 0.883759 0.537842
0.513184 0.902191 0.560272
0.532745 0.900146 0.563965
0.574127 0.897522 0.570801
0.629150 0.900269 0.574188
0.696106 0.908569 0.571472
0.773773 0.917419 0.565796
0.851807 0.922882 0.562561
0.915833 0.924866 0.565552
0.958130 0.926361 0.571686
0.000000 0.000000 0.598541
0.000000 0.000000 0.598511
0.007324 0.000000 0.598267
0.258850 0.000000 0.591339
0.433929 0.000000 0.585938
0.605865 0.000000 0.586029
0.776245 0.000000 0.587738
0.931366 0.000000 0.590759
1.000000 0.000000 0.595215
0.000000 0.045807 0.598053
0.000000 0.040100 0.598236
0.021515 0.020660 0.599091
0.268799 0.003998 0.592224
0.441467 0.000000 0.587067
0.612061 0.000000 0.587250
0.780792 0.000000 0.588898
0.934113 0.000000 0.591888
1.000000 0.000000 0.596130
0.000000 0.159241 0.593109
0.000000 0.158081 0.593353
0.069946 0.148682 0.599213
0.287506 0.138916 0.597443
0.458252 0.128204 0.590424
0.625854 0.083435 0.589996
0.790802 0.012634 0.591522
0.939758 0.000000 0.594330
1.000000 0.000000 0.598083
0.000000 0.289673 0.584930
0.000000 0.290039 0.585266
0.136505 0.286041 0.593689
0.308716 0.277008 0.602661
0.479980 0.278198 0.594971
0.643646 0.273315 0.593201
0.800507 0.268646 0.594055
0.940948 0.270782 0.597137
1.000000 0.290527 0.600800
0.000000 0.444794 0.578522
0.001404 0.445831 0.579102
0.188812 0.448059 0.582245
0.331482 0.449066 0.592163
0.493500 0.446045 0.599030
0.656158 0.452057 0.594604
0.803864 0.459656 0.596558
0.933990 0.471252 0.600677
1.000000 0.492767 0.604736
0.000000 0.612732 0.583405
0.000000 0.613739 0.584076
0.200256 0.616180 0.585754
0.361572 0.619751 0.588531
0.514160 0.623657 0.592834
0.655914 0.631165 0.599152
0.799164 0.638489 0.601685
0.920837 0.648834 0.605682
1.000000 0.666168 0.609894
0.002289 0.767456 0.594391
0.088318 0.768158 0.595154
0.251923 0.769836 0.597107
0.414032 0.766357 0.603180
0.561249 0.760498 0.616333
0.678101 0.767639 0.626953
0.792999 0.783234 0.624542
0.897858 0.793915 0.625488
0.973450 0.805908 0.628265
0.269897 0.880035 0.615143
0.307495 0.880310 0.615967
0.396759 0.876801 0.620605
0.516693 0.867310 0.632446
0.629700 0.859375 0.648682
0.722412 0.867310 0.653778
0.814850 0.880493 0.648438
0.896851 0.886749 0.650177
0.954285 0.892700 0.653503
0.514832 0.925293 0.654053
0.535980 0.923218 0.656647
0.582825 0.918610 0.663025
0.648346 0.912811 0.673187
0.716125 0.913574 0.679932
0.784943 0.922028 0.677856
0.855713 0.929230 0.673706
0.915497 0.932312 0.674103
0.954926 0.933960 0.678589
0.000000 0.000000 0.744019
0.000000 0.000000 0.743988
0.000000 0.000000 0.743805
0.242371 0.000000 0.737610
0.443176 0.000000 0.730042
0.621552 0.000000 0.726166
0.792358 0.000000 0.727081
0.944611 0.000000 0.728088
1.000000 0.000000 0.730499
0.000000 0.016785 0.743988
0.000000 0.008972 0.744080
0.000000 0.000122 0.744202
0.256165 0.000000 0.737701
0.451538 0.000000 0.730469
0.627716 0.000000 0.726837
0.796692 0.000000 0.727753
0.946991 0.000000 0.728699
1.000000 0.000000 0.730927
0.000000 0.150208 0.738647
0.000000 0.148102 0.738800
0.011353 0.139038 0.741150
0.280640 0.120880 0.741364
0.469574 0.104065 0.732758
0.641479 0.056427 0.728333
0.806122 0.001740 0.729156
0.951752 0.000000 0.729889
1.000000 0.000000 0.731781
0.000000 0.289001 0.728302
0.000000 0.288879 0.728485
0.103058 0.283386 0.735321
0.309784 0.271027 0.744446
0.492554 0.269958 0.736572
0.659607 0.268463 0.730347
0.817108 0.259064 0.730133
0.953735 0.263306 0.730286
1.000000 0.287018 0.731781
0.000000 0.451996 0.715302
0.001007 0.452759 0.715637
0.184967 0.452911 0.720612
0.335907 0.447906 0.734924
0.506805 0.443420 0.739136
0.673157 0.450378 0.730621
0.822357 0.455994 0.729156
0.947388 0.470367 0.729279
1.000000 0.493835 0.730835
0.000000 0.623322 0.709167
0.055847 0.624176 0.709717
0.236908 0.626282 0.711243
0.380066 0.629791 0.715607
0.522797 0.633026 0.722839
0.675995 0.632874 0.728607
0.816193 0.641937 0.726044
0.929230 0.654327 0.728302
1.000000 0.672821 0.730835
0.027771 0.780945 0.713654
0.138855 0.781433 0.714203
0.279083 0.782623 0.715576
0.421997 0.783722 0.717712
0.563232 0.784790 0.721222
0.698822 0.783630 0.729126
0.806183 0.794098 0.733521
0.907135 0.803131 0.733734
0.977264 0.814240 0.735962
0.290314 0.894653 0.723419
0.327515 0.894562 0.724060
0.412872 0.892151 0.726166
0.521820 0.888367 0.730377
0.637970 0.882721 0.738312
0.744202 0.876923 0.751709
0.825317 0.887421 0.752716
0.899811 0.895294 0.751862
0.952301 0.901245 0.753662
0.523651 0.943115 0.744324
0.543762 0.941833 0.745544
0.589569 0.938629 0.748779
0.657257 0.933197 0.755005
0.733948 0.926422 0.765015
0.801483 0.926788 0.771851
0.861908 0.934509 0.769440
0.915253 0.939087 0.767609
0.951447 0.941101 0.770233
0.000000 0.000000 0.854645
0.000000 0.000000 0.854492
0.000977 0.000000 0.854095
0.279480 0.000000 0.846771
0.476654 0.000000 0.838776
0.651917 0.000000 0.833344
0.815796 0.000000 0.832092
0.960663 0.000000 0.832489
1.000000 0.000000 0.833313
0.000000 0.000000 0.854584
0.000000 0.000000 0.854462
0.006256 0.000000 0.853851
0.293884 0.000000 0.846313
0.485229 0.000000 0.838623
0.657928 0.000000 0.833466
0.819824 0.000000 0.832275
0.962646 0.000000 0.832581
1.000000 0.000000 0.833282
0.000000 0.136108 0.848938
0.000000 0.132507 0.849030
0.064484 0.115448 0.852997
0.320618 0.097473 0.848083
0.503815 0.071381 0.839081
0.671265 0.023163 0.833496
0.828491 0.000000 0.832489
0.966400 0.000000 0.832489
1.000000 0.000000 0.832916
0.000000 0.286072 0.836517
0.002167 0.285492 0.836609
0.157715 0.273193 0.848175
0.352264 0.264496 0.849701
0.526886 0.262848 0.841431
0.688629 0.261658 0.834015
0.838470 0.255646 0.831848
0.967896 0.260315 0.831024
1.000000 0.288849 0.830872
0.009613 0.456024 0.819122
0.108276 0.456451 0.819519
0.231262 0.451599 0.831024
0.376282 0.443909 0.842987
0.542511 0.441895 0.841431
0.701172 0.448914 0.832306
0.842957 0.455994 0.828705
0.961365 0.470337 0.826996
1.000000 0.495636 0.826416
0.122925 0.631653 0.804993
0.195160 0.632355 0.805389
0.295135 0.633667 0.809479
0.416290 0.634857 0.816559
0.550568 0.633179 0.827148
0.701965 0.632599 0.828247
0.837128 0.641937 0.822144
0.942871 0.655945 0.820374
1.000000 0.676239 0.820221
0.216522 0.788330 0.801514
0.264709 0.788757 0.801971
0.355316 0.789825 0.803070
0.469574 0.791595 0.804962
0.592560 0.794037 0.807617
0.713867 0.797363 0.810974
0.826660 0.801025 0.814178
0.917969 0.808594 0.815430
0.979675 0.819885 0.816833
0.361664 0.901764 0.804016
0.392761 0.901398 0.804382
0.458557 0.900696 0.805389
0.550354 0.899445 0.807281
0.654877 0.897278 0.810486
0.759033 0.893402 0.816559
0.841827 0.893219 0.825165
0.905609 0.902100 0.823669
0.952332 0.907928 0.824036
0.555573 0.952332 0.812805
0.573120 0.951538 0.813416
0.613708 0.949554 0.815002
0.675323 0.945984 0.818115
0.748627 0.940613 0.823639
0.819489 0.934753 0.832428
0.872864 0.938354 0.835052
0.917480 0.943878 0.832550
0.950256 0.946411 0.833374
0.000000 0.000000 0.917419
0.000000 0.000000 0.917206
0.203766 0.000000 0.912506
0.383240 0.000000 0.905609
0.546448 0.000000 0.898651
0.704559 0.000000 0.893524
0.854218 0.000000 0.891571
0.984009 0.000000 0.891327
1.000000 0.000000 0.891205
0.000000 0.000000 0.916931
0.001526 0.000000 0.916382
0.224915 0.000000 0.911499
0.394653 0.000000 0.904877
0.554199 0.000000 0.898132
0.709991 0.000000 0.893250
0.857666 0.000000 0.891357
0.985382 0.000000 0.891022
1.000000 0.000000 0.890778
0.000000 0.110565 0.912872
0.088562 0.099213 0.915314
0.261810 0.088165 0.911926
0.417877 0.069824 0.904755
0.571289 0.041260 0.897003
0.722015 0.004974 0.892303
0.865021 0.000000 0.890594
0.987732 0.000000 0.890015
1.000000 0.000977 0.889496
0.122467 0.272552 0.907043
0.186096 0.267822 0.910248
0.303711 0.262451 0.910950
0.445251 0.259796 0.905823
0.592621 0.258698 0.897797
0.737244 0.257751 0.891083
0.872864 0.255341 0.888367
0.987823 0.264435 0.887115
1.000000 0.298492 0.886078
0.215698 0.452271 0.888519
0.254822 0.450104 0.892212
0.339661 0.445190 0.898987
0.464050 0.440552 0.902222
0.607788 0.442963 0.895569
0.747559 0.450653 0.887177
0.874664 0.459473 0.883179
0.980621 0.474792 0.881104
1.000000 0.501831 0.879608
0.288025 0.636475 0.863464
0.319244 0.636536 0.865479
0.387726 0.636505 0.870087
0.486877 0.635132 0.877777
0.609222 0.631012 0.886292
0.746704 0.634918 0.880371
0.865967 0.645294 0.874176
0.960236 0.659393 0.871735
1.000000 0.680634 0.870087
0.360046 0.793488 0.850525
0.388245 0.793915 0.850983
0.450256 0.794891 0.852203
0.539032 0.796539 0.854279
0.641479 0.798706 0.857513
0.746246 0.800385 0.863037
0.852600 0.802765 0.863129
0.932831 0.811768 0.861664
0.983704 0.824493 0.861694
0.460022 0.904755 0.848389
0.481903 0.904633 0.848724
0.531616 0.904327 0.849487
0.605652 0.903778 0.850861
0.693512 0.902893 0.852814
0.783691 0.901367 0.855804
0.861511 0.899445 0.862213
0.915741 0.906799 0.862030
0.956268 0.912201 0.861694
0.610870 0.955139 0.851501
0.625336 0.954559 0.851898
0.659149 0.953094 0.852936
0.711517 0.950500 0.854919
0.775055 0.946503 0.858429
0.838623 0.941406 0.864563
0.887024 0.941620 0.869202
0.923401 0.946899 0.867249
0.952850 0.949615 0.867310
