滤镜资源/Professional Luts Collection/Lutify.me Professional/Instant Films/Dioptase.cube
# Created by: Lutify.me
# Copyright: (c) Copyright Lutify.me 2015
# Website: https://lutify.me
#LUT size
LUT_3D_SIZE 5
#LUT data points
0.000000 0.000000 0.000000
0.154633 0.004700 0.003784
0.385956 0.000000 0.016541
0.708679 0.000000 0.039368
1.000000 0.000000 0.059601
0.049835 0.137756 0.038727
0.166077 0.152985 0.035400
0.402649 0.156097 0.039032
0.727142 0.085419 0.045044
1.000000 0.009949 0.053802
0.077576 0.375061 0.110321
0.200073 0.386810 0.113495
0.433563 0.420898 0.089905
0.738678 0.443787 0.079437
0.997589 0.475220 0.076019
0.118988 0.684540 0.186554
0.265472 0.689850 0.195831
0.488922 0.723877 0.158722
0.758087 0.751465 0.134735
0.958405 0.774719 0.153595
0.466522 0.876221 0.299469
0.518860 0.885071 0.287170
0.663025 0.900543 0.264130
0.841614 0.908203 0.258789
0.959778 0.909973 0.282471
0.000000 0.000000 0.175446
0.166412 0.000824 0.170654
0.403992 0.000000 0.176300
0.723541 0.000000 0.191223
1.000000 0.000000 0.206635
0.032959 0.159912 0.170868
0.181244 0.162567 0.175690
0.421112 0.157410 0.184296
0.740814 0.082184 0.195709
1.000000 0.010925 0.207947
0.065063 0.396393 0.206482
0.220856 0.396454 0.222015
0.447021 0.428558 0.217529
0.752838 0.449005 0.216370
1.000000 0.479645 0.224701
0.157776 0.693665 0.282776
0.286774 0.698761 0.290131
0.501373 0.731354 0.271576
0.765289 0.756866 0.266571
0.960968 0.779907 0.281708
0.478912 0.883362 0.378296
0.529907 0.891357 0.370575
0.670654 0.905487 0.356873
0.845093 0.912415 0.356049
0.960083 0.914276 0.374542
0.000000 0.000000 0.441376
0.120300 0.000000 0.438599
0.429169 0.000000 0.432159
0.759125 0.000000 0.438080
1.000000 0.000000 0.450500
0.000000 0.164246 0.435089
0.147308 0.154297 0.445129
0.451569 0.141632 0.437653
0.774567 0.043701 0.443298
1.000000 0.003632 0.454193
0.000000 0.433746 0.434326
0.200836 0.438202 0.437164
0.482239 0.448425 0.445465
0.787231 0.457672 0.455414
1.000000 0.486786 0.465698
0.028687 0.745361 0.468842
0.262756 0.748596 0.472809
0.544159 0.739227 0.506989
0.782440 0.772552 0.500275
0.969574 0.795959 0.507111
0.513184 0.902191 0.560272
0.574127 0.897522 0.570801
0.696106 0.908569 0.571472
0.851807 0.922882 0.562561
0.958130 0.926361 0.571686
0.000000 0.000000 0.744019
0.000000 0.000000 0.743805
0.443176 0.000000 0.730042
0.792358 0.000000 0.727081
1.000000 0.000000 0.730499
0.000000 0.150208 0.738647
0.011353 0.139038 0.741150
0.469574 0.104065 0.732758
0.806122 0.001740 0.729156
1.000000 0.000000 0.731781
0.000000 0.451996 0.715302
0.184967 0.452911 0.720612
0.506805 0.443420 0.739136
0.822357 0.455994 0.729156
1.000000 0.493835 0.730835
0.027771 0.780945 0.713654
0.279083 0.782623 0.715576
0.563232 0.784790 0.721222
0.806183 0.794098 0.733521
0.977264 0.814240 0.735962
0.523651 0.943115 0.744324
0.589569 0.938629 0.748779
0.733948 0.926422 0.765015
0.861908 0.934509 0.769440
0.951447 0.941101 0.770233
0.000000 0.000000 0.917419
0.203766 0.000000 0.912506
0.546448 0.000000 0.898651
0.854218 0.000000 0.891571
1.000000 0.000000 0.891205
0.000000 0.110565 0.912872
0.261810 0.088165 0.911926
0.571289 0.041260 0.897003
0.865021 0.000000 0.890594
1.000000 0.000977 0.889496
0.215698 0.452271 0.888519
0.339661 0.445190 0.898987
0.607788 0.442963 0.895569
0.874664 0.459473 0.883179
1.000000 0.501831 0.879608
0.360046 0.793488 0.850525
0.450256 0.794891 0.852203
0.641479 0.798706 0.857513
0.852600 0.802765 0.863129
0.983704 0.824493 0.861694
0.610870 0.955139 0.851501
0.659149 0.953094 0.852936
0.775055 0.946503 0.858429
0.887024 0.941620 0.869202
0.952850 0.949615 0.867310
