滤镜资源/Professional Luts Collection/Lutify.me Professional/Instant Films/Dioptase.cube
# Created by: Lutify.me
# Copyright: (c) Copyright Lutify.me 2015
# Website: https://lutify.me
#LUT size
LUT_3D_SIZE 33
#LUT data points
0.000000 0.000000 0.000000
0.012115 0.000397 0.000000
0.026855 0.000427 0.000366
0.046387 0.000793 0.000763
0.067596 0.001556 0.001129
0.088806 0.002289 0.001495
0.110229 0.003143 0.001953
0.131897 0.004150 0.002655
0.154633 0.004700 0.003784
0.178467 0.005005 0.004913
0.203674 0.004730 0.005829
0.230316 0.003082 0.007080
0.258331 0.000885 0.008575
0.287811 0.000000 0.010254
0.318878 0.000000 0.012268
0.351562 0.000000 0.014404
0.385956 0.000000 0.016541
0.422119 0.000000 0.019012
0.459900 0.000000 0.021759
0.499146 0.000000 0.024353
0.539612 0.000000 0.027130
0.581116 0.000000 0.029938
0.623322 0.000000 0.032928
0.665955 0.000000 0.036316
0.708679 0.000000 0.039368
0.751190 0.000000 0.042389
0.793182 0.000000 0.045288
0.834351 0.000000 0.048157
0.874268 0.000000 0.050781
0.912689 0.000000 0.053345
0.949249 0.000000 0.055573
0.983215 0.000000 0.057434
1.000000 0.000000 0.059601
0.002686 0.010468 0.002289
0.013245 0.012512 0.001526
0.026550 0.013611 0.001221
0.046722 0.014374 0.001556
0.067688 0.014832 0.001892
0.089020 0.015564 0.002380
0.110657 0.016357 0.002747
0.132538 0.017090 0.003723
0.155273 0.017731 0.004578
0.179291 0.017883 0.005371
0.204651 0.017334 0.006500
0.231445 0.015594 0.007935
0.259521 0.012512 0.009583
0.289032 0.007843 0.011414
0.320099 0.002563 0.013214
0.352753 0.000122 0.015289
0.387146 0.000000 0.017578
0.423279 0.000000 0.019989
0.461090 0.000000 0.022491
0.500366 0.000000 0.025146
0.540802 0.000000 0.027893
0.582245 0.000000 0.030701
0.624390 0.000000 0.033997
0.666962 0.000000 0.037140
0.709656 0.000000 0.040131
0.752106 0.000000 0.042847
0.793976 0.000000 0.045715
0.835083 0.000000 0.048279
0.874939 0.000000 0.051086
0.913269 0.000000 0.053162
0.949768 0.000000 0.055573
0.983643 0.000000 0.057465
1.000000 0.000000 0.059601
0.005096 0.022217 0.004242
0.015228 0.024536 0.003906
0.028381 0.026123 0.003479
0.047058 0.027985 0.003479
0.067902 0.028839 0.003479
0.089233 0.029572 0.003601
0.110718 0.030914 0.003967
0.132812 0.031525 0.004913
0.155884 0.031891 0.005524
0.180023 0.031982 0.006470
0.205597 0.031250 0.007629
0.232391 0.029541 0.009094
0.260681 0.026276 0.010620
0.290283 0.021545 0.012512
0.321381 0.015076 0.014404
0.354126 0.006592 0.016357
0.388550 0.001190 0.018555
0.424713 0.000000 0.020874
0.462494 0.000000 0.023376
0.501709 0.000000 0.026062
0.542084 0.000000 0.028839
0.583496 0.000000 0.031708
0.625610 0.000000 0.034668
0.668121 0.000000 0.037506
0.710754 0.000000 0.040497
0.753113 0.000000 0.043549
0.794952 0.000000 0.046387
0.835968 0.000000 0.048859
0.875732 0.000000 0.051392
0.913940 0.000000 0.053680
0.950348 0.000000 0.055603
0.984070 0.000000 0.057465
1.000000 0.000000 0.059326
0.009247 0.038757 0.006958
0.019043 0.040710 0.006958
0.030792 0.043182 0.006561
0.048157 0.045288 0.006165
0.067963 0.047058 0.006226
0.089050 0.048370 0.006470
0.110596 0.049347 0.006561
0.132751 0.050293 0.007172
0.156006 0.050690 0.007935
0.180542 0.050781 0.008728
0.206360 0.050140 0.009674
0.233582 0.048401 0.010864
0.262085 0.045349 0.012512
0.291962 0.040894 0.014038
0.323273 0.034454 0.015839
0.356049 0.025787 0.017731
0.390472 0.014435 0.019806
0.426605 0.004272 0.022034
0.464386 0.000061 0.024506
0.503601 0.000000 0.027222
0.543976 0.000000 0.029938
0.585327 0.000000 0.032745
0.627350 0.000000 0.035675
0.669769 0.000000 0.038605
0.712280 0.000000 0.041351
0.754547 0.000000 0.044189
0.796295 0.000000 0.046814
0.837158 0.000000 0.049408
0.876801 0.000000 0.051544
0.914886 0.000000 0.053925
0.951141 0.000000 0.055847
0.984741 0.000000 0.057465
1.000000 0.000000 0.059296
0.015167 0.057434 0.011200
0.024750 0.058990 0.011261
0.036133 0.061035 0.010803
0.051666 0.063782 0.009705
0.069977 0.065430 0.010376
0.089783 0.067078 0.010101
0.110962 0.068451 0.010437
0.133270 0.069305 0.010529
0.156494 0.070068 0.011200
0.181244 0.070312 0.011963
0.207336 0.069946 0.013000
0.234650 0.068787 0.013977
0.263336 0.066711 0.015106
0.293488 0.063324 0.016571
0.325165 0.058533 0.018036
0.358337 0.051605 0.019531
0.392914 0.041626 0.021545
0.429138 0.027985 0.023895
0.466949 0.012299 0.026306
0.506104 0.002289 0.028839
0.546387 0.000000 0.031433
0.587646 0.000000 0.034180
0.629578 0.000000 0.036987
0.671936 0.000000 0.039734
0.714294 0.000000 0.042358
0.756409 0.000000 0.045013
0.798004 0.000000 0.047455
0.838745 0.000000 0.049774
0.878174 0.000000 0.051819
0.916107 0.000000 0.053986
0.952209 0.000000 0.055908
0.985626 0.000000 0.057465
1.000000 0.000000 0.058990
0.022034 0.076385 0.016296
0.031708 0.077606 0.016632
0.043091 0.079346 0.016174
0.057129 0.081848 0.015137
0.073944 0.084259 0.014648
0.092377 0.085632 0.015167
0.112610 0.087280 0.015106
0.134338 0.088623 0.015503
0.157684 0.089661 0.015808
0.182343 0.090210 0.016266
0.208527 0.090332 0.016968
0.235901 0.089844 0.018036
0.264709 0.088593 0.019012
0.295013 0.086334 0.020111
0.326874 0.083069 0.021332
0.360352 0.078186 0.022644
0.395416 0.071198 0.024078
0.432068 0.061310 0.025879
0.470062 0.047577 0.028046
0.509216 0.029205 0.030457
0.549469 0.011230 0.032990
0.590607 0.001099 0.035675
0.632416 0.000000 0.038300
0.674622 0.000000 0.040924
0.716827 0.000000 0.043488
0.758820 0.000000 0.045990
0.800171 0.000000 0.048157
0.840698 0.000000 0.050232
0.879913 0.000000 0.052338
0.917633 0.000000 0.054260
0.953522 0.000000 0.055878
0.986664 0.000000 0.057190
1.000000 0.000000 0.058655
0.030823 0.095581 0.022919
0.040894 0.096924 0.022797
0.050568 0.098480 0.022644
0.063232 0.100769 0.021545
0.078766 0.103180 0.020447
0.096375 0.105377 0.019836
0.115723 0.106689 0.020844
0.136749 0.108215 0.021423
0.159729 0.109680 0.021515
0.184235 0.110779 0.021912
0.210236 0.111389 0.022369
0.237610 0.111603 0.022797
0.266449 0.111176 0.023804
0.296783 0.109955 0.024658
0.328674 0.107880 0.025818
0.362274 0.104614 0.027069
0.397614 0.099823 0.028198
0.434631 0.093109 0.029327
0.473145 0.083862 0.030640
0.512695 0.071350 0.032379
0.553070 0.054352 0.034576
0.594147 0.033051 0.037109
0.635803 0.013428 0.039642
0.677826 0.001709 0.041992
0.719879 0.000000 0.044281
0.761597 0.000000 0.046600
0.802765 0.000000 0.048645
0.843048 0.000000 0.050446
0.881989 0.000000 0.052307
0.919434 0.000000 0.053833
0.954987 0.000000 0.055511
0.987854 0.000000 0.056519
1.000000 0.000000 0.057770
0.040771 0.116028 0.030151
0.049591 0.117065 0.030396
0.058197 0.118439 0.030304
0.069611 0.120636 0.029205
0.083740 0.123260 0.027740
0.100769 0.125519 0.026611
0.119659 0.127655 0.026459
0.140137 0.129059 0.027496
0.162445 0.130585 0.028381
0.186584 0.132141 0.028625
0.212402 0.133331 0.028809
0.239716 0.134094 0.029175
0.268555 0.134399 0.029602
0.298889 0.134033 0.030487
0.330902 0.132996 0.031219
0.364563 0.131042 0.032043
0.399963 0.127899 0.033142
0.437103 0.123383 0.034149
0.475739 0.117035 0.035126
0.515686 0.108643 0.035980
0.556549 0.097778 0.037170
0.597992 0.083710 0.038788
0.639648 0.065491 0.040710
0.681488 0.044189 0.042877
0.723297 0.023224 0.044983
0.764771 0.006561 0.046967
0.805664 0.001038 0.048737
0.845673 0.000000 0.050415
0.884338 0.000000 0.052002
0.921478 0.000000 0.053467
0.956726 0.000000 0.054626
0.989166 0.000000 0.055328
1.000000 0.000000 0.056244
0.049835 0.137756 0.038727
0.057953 0.138550 0.039459
0.065887 0.139771 0.038940
0.076141 0.141846 0.038269
0.089355 0.144379 0.036774
0.105469 0.147125 0.034790
0.123901 0.149445 0.033875
0.144257 0.151489 0.034149
0.166077 0.152985 0.035400
0.189758 0.154724 0.036377
0.215210 0.156372 0.036560
0.242340 0.157654 0.036835
0.270996 0.158630 0.036987
0.301361 0.159088 0.037476
0.333405 0.158844 0.037872
0.367188 0.157867 0.038422
0.402649 0.156097 0.039032
0.439758 0.153168 0.039734
0.478394 0.148987 0.040436
0.518311 0.143433 0.041138
0.559265 0.136230 0.041473
0.601044 0.127045 0.041931
0.643188 0.115845 0.042511
0.685364 0.102173 0.043579
0.727142 0.085419 0.045044
0.768372 0.066956 0.046753
0.808960 0.050903 0.048309
0.848602 0.034302 0.049652
0.886932 0.018585 0.050842
0.923645 0.010803 0.051941
0.958557 0.009033 0.052826
0.990570 0.008636 0.053223
1.000000 0.009949 0.053802
0.057770 0.160980 0.048218
0.065582 0.161560 0.048737
0.073303 0.162537 0.048676
0.082764 0.164551 0.047821
0.095276 0.167023 0.046448
0.110535 0.169830 0.044678
0.128540 0.172516 0.043030
0.148590 0.175079 0.041840
0.170563 0.177094 0.042206
0.193573 0.178741 0.043945
0.218628 0.180664 0.044891
0.245392 0.182434 0.044952
0.273987 0.183929 0.044891
0.304230 0.184998 0.044983
0.336304 0.185577 0.045258
0.370087 0.185577 0.045410
0.405609 0.184814 0.045502
0.442719 0.183228 0.045807
0.481262 0.180695 0.046143
0.521088 0.177124 0.046478
0.561890 0.172516 0.046631
0.603546 0.166565 0.046631
0.645691 0.159363 0.046631
0.688049 0.150818 0.046600
0.730133 0.141083 0.046600
0.771637 0.130402 0.046814
0.812286 0.118835 0.047241
0.851685 0.106445 0.047943
0.889648 0.094269 0.048676
0.925995 0.086548 0.049469
0.960388 0.083710 0.049957
0.991974 0.083984 0.050018
1.000000 0.088043 0.050323
0.064880 0.185791 0.057373
0.072479 0.186310 0.058075
0.080292 0.186981 0.058533
0.089813 0.188629 0.058167
0.101501 0.191162 0.056610
0.115997 0.193939 0.054901
0.133240 0.197021 0.052887
0.152924 0.199890 0.051056
0.174744 0.202637 0.049774
0.198090 0.204742 0.050354
0.222717 0.206543 0.052429
0.249084 0.208557 0.053009
0.277405 0.210480 0.053040
0.307556 0.212189 0.052887
0.339569 0.213440 0.052734
0.373352 0.214233 0.052673
0.408813 0.214508 0.052490
0.445892 0.213989 0.052277
0.484375 0.212769 0.052185
0.524078 0.210754 0.052032
0.564697 0.207977 0.051910
0.606079 0.204376 0.051605
0.647919 0.199921 0.051331
0.689972 0.194733 0.051025
0.731873 0.188782 0.050354
0.773315 0.182465 0.049652
0.813965 0.176117 0.049011
0.853394 0.170074 0.048492
0.891357 0.164917 0.048004
0.927551 0.161224 0.047668
0.961700 0.160004 0.046997
0.992889 0.161621 0.046631
1.000000 0.166809 0.046295
0.071320 0.212341 0.066559
0.078674 0.212799 0.067200
0.086456 0.213348 0.068024
0.096466 0.214478 0.068268
0.108002 0.216797 0.067352
0.121826 0.219727 0.065308
0.138336 0.222931 0.063171
0.157410 0.226227 0.060791
0.178772 0.229370 0.058899
0.202209 0.232178 0.057617
0.227203 0.234497 0.057983
0.253387 0.236389 0.060272
0.281311 0.238586 0.060852
0.311249 0.240723 0.060822
0.343170 0.242645 0.060455
0.376953 0.244110 0.060059
0.412323 0.245178 0.059631
0.449280 0.245697 0.058990
0.487640 0.245575 0.058533
0.527161 0.244873 0.057983
0.567596 0.243591 0.057404
0.608673 0.241730 0.056763
0.650208 0.239258 0.056061
0.691864 0.236359 0.055450
0.733337 0.233124 0.054596
0.774323 0.229645 0.053711
0.814514 0.226379 0.052704
0.853638 0.223389 0.051514
0.891266 0.221191 0.050507
0.927124 0.220245 0.049469
0.960754 0.221161 0.048645
0.991425 0.224243 0.048157
1.000000 0.229828 0.048004
0.076416 0.240784 0.075592
0.083893 0.241180 0.076202
0.091797 0.241730 0.076935
0.102173 0.242584 0.077881
0.114197 0.244232 0.077820
0.127686 0.247162 0.076050
0.143646 0.250549 0.073639
0.162048 0.254120 0.071167
0.183044 0.257629 0.068481
0.206116 0.260986 0.066223
0.231293 0.264008 0.064911
0.257965 0.266479 0.065277
0.285736 0.268616 0.067444
0.315460 0.270966 0.068268
0.347137 0.273346 0.068115
0.380798 0.275452 0.067535
0.416077 0.277222 0.066833
0.452850 0.278595 0.065948
0.490997 0.279541 0.065002
0.530304 0.279938 0.064087
0.570465 0.279877 0.063141
0.611267 0.279388 0.062073
0.652405 0.278473 0.061066
0.693665 0.277252 0.060089
0.734680 0.275879 0.058929
0.775177 0.274414 0.057739
0.814819 0.273163 0.056458
0.853363 0.272278 0.055176
0.890442 0.272064 0.054047
0.925659 0.272888 0.052887
0.958557 0.275269 0.052429
0.988525 0.279327 0.052490
1.000000 0.285309 0.052887
0.079865 0.271271 0.084503
0.087616 0.271667 0.085114
0.095825 0.272186 0.085785
0.106445 0.272980 0.086731
0.119354 0.274078 0.087646
0.133423 0.276337 0.087036
0.148804 0.279846 0.084656
0.166718 0.283691 0.081787
0.187134 0.287598 0.078674
0.209991 0.291382 0.075714
0.234955 0.295044 0.073151
0.261902 0.298248 0.071655
0.290405 0.300964 0.071808
0.320038 0.303345 0.074005
0.351562 0.305817 0.074921
0.384888 0.308441 0.074585
0.420013 0.310822 0.073914
0.456573 0.312927 0.072815
0.494507 0.314667 0.071655
0.533478 0.316071 0.070465
0.573334 0.317047 0.069061
0.613770 0.317657 0.067688
0.654510 0.317993 0.066254
0.695343 0.318085 0.064880
0.735901 0.318054 0.063446
0.775848 0.318024 0.061981
0.814941 0.318176 0.060394
0.852905 0.318756 0.059021
0.889343 0.319916 0.057587
0.923889 0.321899 0.056366
0.956055 0.325226 0.056274
0.985321 0.329865 0.057037
1.000000 0.336121 0.058044
0.081635 0.303955 0.093262
0.089722 0.304352 0.093750
0.098114 0.304871 0.094421
0.109100 0.305603 0.095306
0.122650 0.306549 0.096497
0.138062 0.308014 0.097321
0.153961 0.310913 0.096191
0.171295 0.314972 0.093109
0.191284 0.319183 0.089569
0.213715 0.323456 0.085907
0.238525 0.327637 0.082520
0.265442 0.331482 0.079559
0.294342 0.335022 0.077637
0.324799 0.337952 0.077728
0.356262 0.340454 0.080017
0.389435 0.343140 0.080841
0.424164 0.345978 0.080536
0.460449 0.348663 0.079742
0.498047 0.351105 0.078369
0.536743 0.353210 0.076904
0.576202 0.355072 0.075317
0.616241 0.356598 0.073547
0.656586 0.357910 0.071777
0.696930 0.359039 0.070007
0.736938 0.360077 0.068298
0.776337 0.361145 0.066559
0.814850 0.362366 0.064819
0.852203 0.363953 0.063232
0.887970 0.366058 0.061646
0.921844 0.368866 0.060272
0.953217 0.372803 0.060425
0.981781 0.377869 0.061951
1.000000 0.384216 0.063660
0.080933 0.338623 0.101868
0.089600 0.339050 0.102264
0.098480 0.339539 0.102966
0.110077 0.340271 0.103790
0.124237 0.341187 0.104919
0.140594 0.342377 0.106262
0.158295 0.344208 0.107208
0.176025 0.347839 0.105072
0.195465 0.352325 0.101196
0.217529 0.356995 0.096985
0.242126 0.361633 0.092773
0.268921 0.366089 0.088776
0.297974 0.370209 0.085449
0.328827 0.373962 0.083038
0.361115 0.377106 0.082916
0.394196 0.379791 0.085266
0.428680 0.382629 0.086365
0.464630 0.385651 0.086121
0.501831 0.388550 0.085083
0.540100 0.391296 0.083496
0.579163 0.393799 0.081665
0.618713 0.396118 0.079742
0.658569 0.398193 0.077728
0.698425 0.400116 0.075592
0.737854 0.402008 0.073608
0.776672 0.403931 0.071625
0.814514 0.405975 0.069611
0.851196 0.408325 0.067871
0.886261 0.411102 0.066071
0.919464 0.414520 0.064697
0.950012 0.418823 0.065186
0.977905 0.424133 0.067322
0.999878 0.430481 0.069641
0.077576 0.375061 0.110321
0.087006 0.375488 0.110748
0.096619 0.375977 0.111359
0.109161 0.376678 0.112213
0.124298 0.377594 0.113220
0.141602 0.378723 0.114594
0.160645 0.380157 0.116333
0.180603 0.382416 0.116913
0.200073 0.386810 0.113495
0.221680 0.391815 0.108795
0.245972 0.396851 0.104004
0.272675 0.401764 0.099060
0.301636 0.406464 0.094482
0.332642 0.410828 0.090576
0.365326 0.414734 0.087891
0.399170 0.418030 0.087402
0.433563 0.420898 0.089905
0.469116 0.423798 0.091339
0.505951 0.427002 0.091125
0.543701 0.430115 0.089905
0.582245 0.433136 0.088196
0.621307 0.436005 0.086182
0.660583 0.438721 0.084045
0.699860 0.441254 0.081787
0.738678 0.443787 0.079437
0.776825 0.446350 0.077271
0.814026 0.449005 0.075043
0.849976 0.451935 0.073151
0.884338 0.455231 0.071228
0.916779 0.459045 0.069733
0.946564 0.463593 0.070557
0.973633 0.468933 0.073242
0.997589 0.475220 0.076019
0.071747 0.412994 0.118652
0.082214 0.413422 0.119202
0.092896 0.413910 0.119659
0.106598 0.414551 0.120544
0.122986 0.415436 0.121582
0.141632 0.416534 0.122955
0.161804 0.417908 0.124573
0.183472 0.419556 0.126465
0.205170 0.422485 0.126160
0.226562 0.427612 0.121399
0.250458 0.433044 0.115906
0.276886 0.438385 0.110352
0.305756 0.443542 0.104767
0.336670 0.448425 0.099548
0.369385 0.452942 0.095093
0.403534 0.456940 0.092194
0.438629 0.460388 0.091553
0.474091 0.463318 0.094086
0.510406 0.466309 0.095856
0.547699 0.469635 0.095734
0.585663 0.472931 0.094543
0.624115 0.476166 0.092804
0.662781 0.479309 0.090668
0.701385 0.482361 0.088348
0.739532 0.485321 0.085999
0.776978 0.488373 0.083557
0.813416 0.491516 0.081299
0.848633 0.494812 0.079193
0.882202 0.498474 0.077393
0.913849 0.502533 0.075836
0.942902 0.507172 0.076691
0.969086 0.512512 0.079987
0.992767 0.518616 0.083191
0.063751 0.452087 0.127075
0.075745 0.452484 0.127655
0.087982 0.452911 0.128174
0.103271 0.453552 0.128967
0.121124 0.454407 0.130035
0.141052 0.455475 0.131409
0.162659 0.456787 0.132965
0.185577 0.458313 0.134918
0.209320 0.460297 0.136719
0.232452 0.464233 0.134674
0.255859 0.469971 0.128632
0.281921 0.475677 0.122345
0.310486 0.481232 0.116058
0.341156 0.486511 0.109833
0.373749 0.491516 0.104095
0.407867 0.496094 0.099274
0.443176 0.500122 0.096100
0.479218 0.503632 0.095306
0.515472 0.506622 0.097839
0.552124 0.509674 0.100067
0.589539 0.513000 0.100128
0.627319 0.516418 0.099091
0.665283 0.519836 0.097351
0.703094 0.523193 0.095306
0.740509 0.526520 0.093018
0.777191 0.529877 0.090637
0.812866 0.533325 0.088379
0.847229 0.536926 0.086273
0.879944 0.540771 0.084381
0.910797 0.544983 0.082977
0.939056 0.549591 0.083740
0.964386 0.554779 0.087524
0.987244 0.560669 0.091217
0.055267 0.491852 0.135803
0.069153 0.492218 0.136261
0.083191 0.492645 0.136841
0.100159 0.493225 0.137573
0.119720 0.494049 0.138611
0.141083 0.495056 0.139954
0.163940 0.496338 0.141602
0.188080 0.497803 0.143463
0.213257 0.499512 0.145691
0.238617 0.502075 0.146729
0.262573 0.507263 0.141998
0.288086 0.513275 0.135040
0.316193 0.519165 0.128052
0.346497 0.524811 0.121063
0.378815 0.530151 0.114380
0.412781 0.535156 0.108276
0.447937 0.539673 0.103210
0.484039 0.543732 0.099854
0.520660 0.547211 0.098938
0.557220 0.550232 0.101532
0.593933 0.553223 0.104187
0.631012 0.556580 0.104584
0.668182 0.560059 0.103699
0.705200 0.563538 0.102295
0.741760 0.567047 0.100464
0.777618 0.570618 0.098328
0.812408 0.574219 0.096283
0.845917 0.577942 0.094330
0.877777 0.581909 0.092499
0.907745 0.586151 0.091156
0.935211 0.590698 0.091705
0.959686 0.595673 0.095795
0.981689 0.601227 0.099915
0.049652 0.531830 0.144775
0.065399 0.532196 0.145203
0.080872 0.532623 0.145813
0.099213 0.533173 0.146515
0.120026 0.533936 0.147583
0.142853 0.534882 0.148834
0.166840 0.536102 0.150482
0.191956 0.537506 0.152313
0.218109 0.539093 0.154541
0.244965 0.540955 0.156921
0.270599 0.544830 0.155304
0.295685 0.550903 0.148224
0.323212 0.557037 0.140625
0.353058 0.562927 0.133057
0.384857 0.568573 0.125671
0.418457 0.573853 0.118561
0.453369 0.578735 0.112244
0.489258 0.583160 0.107056
0.525757 0.587128 0.103729
0.562469 0.590576 0.102997
0.598999 0.593536 0.105621
0.635315 0.596466 0.108673
0.671692 0.599762 0.109436
0.707825 0.603210 0.109070
0.743469 0.606720 0.107941
0.778412 0.610291 0.106415
0.812286 0.613953 0.104675
0.844818 0.617737 0.102997
0.875763 0.621674 0.101562
0.904816 0.625854 0.100311
0.931488 0.630249 0.100677
0.955109 0.634949 0.104858
0.976257 0.640106 0.109253
0.051178 0.571594 0.154114
0.067688 0.571960 0.154602
0.083801 0.572327 0.155212
0.102814 0.572876 0.155975
0.124237 0.573608 0.156982
0.147675 0.574493 0.158203
0.172516 0.575592 0.159821
0.198212 0.576904 0.161682
0.224915 0.578430 0.163849
0.252411 0.580139 0.166351
0.279694 0.582794 0.167358
0.305145 0.588226 0.161743
0.331909 0.594543 0.153595
0.361115 0.600616 0.145569
0.392395 0.606415 0.137634
0.425415 0.611908 0.129974
0.459808 0.617035 0.122620
0.495270 0.621735 0.116302
0.531433 0.625977 0.111176
0.567932 0.629761 0.108185
0.604401 0.633087 0.107697
0.640411 0.635895 0.110657
0.675903 0.638763 0.113892
0.711151 0.641907 0.115204
0.745850 0.645294 0.115265
0.779724 0.648773 0.114502
0.812622 0.652313 0.113525
0.844147 0.656006 0.112366
0.874054 0.659821 0.111237
0.902130 0.663818 0.110413
0.927979 0.668060 0.110474
0.950745 0.672394 0.114777
0.971100 0.677155 0.119263
0.063385 0.610657 0.164124
0.078857 0.610992 0.164642
0.094391 0.611328 0.165131
0.113007 0.611816 0.165924
0.134033 0.612518 0.166962
0.157227 0.613342 0.168152
0.182098 0.614380 0.169769
0.207855 0.615570 0.171631
0.234589 0.616974 0.173767
0.262207 0.618591 0.176178
0.290283 0.620544 0.178558
0.316406 0.625122 0.174835
0.342529 0.631378 0.166718
0.371002 0.637543 0.158325
0.401550 0.643402 0.149994
0.433929 0.648987 0.141907
0.467682 0.654205 0.134186
0.502502 0.659058 0.126953
0.538147 0.663452 0.120819
0.574158 0.667450 0.116089
0.610199 0.670990 0.113647
0.645996 0.674072 0.113556
0.681030 0.676758 0.116821
0.715302 0.679443 0.120483
0.748993 0.682465 0.122223
0.781830 0.685669 0.122681
0.813629 0.689026 0.122589
0.844086 0.692474 0.122223
0.872925 0.696106 0.121704
0.899933 0.699860 0.121368
0.924805 0.703796 0.121490
0.946777 0.707794 0.125305
0.966309 0.712097 0.129883
0.087250 0.648499 0.174927
0.100342 0.648773 0.175385
0.113831 0.649109 0.175873
0.130829 0.649567 0.176666
0.150360 0.650208 0.177643
0.172546 0.650970 0.178864
0.196503 0.651886 0.180450
0.221649 0.653015 0.182251
0.247925 0.654297 0.184387
0.275208 0.655762 0.186798
0.303223 0.657440 0.189453
0.329559 0.661316 0.187103
0.355347 0.667206 0.179565
0.382965 0.673340 0.171021
0.412750 0.679199 0.162537
0.444305 0.684723 0.154236
0.477295 0.689941 0.146271
0.511383 0.694794 0.138794
0.546234 0.699280 0.131989
0.581573 0.703339 0.126373
0.617004 0.706970 0.122406
0.652161 0.710175 0.120575
0.686768 0.712982 0.121185
0.720398 0.715485 0.124725
0.753021 0.717957 0.128632
0.784790 0.720764 0.130798
0.815430 0.723785 0.131866
0.844757 0.726929 0.132355
0.872467 0.730225 0.132690
0.898376 0.733673 0.132935
0.922180 0.737305 0.133575
0.943359 0.740875 0.136810
0.962036 0.744690 0.141296
0.118988 0.684540 0.186554
0.129639 0.684845 0.187042
0.140961 0.685120 0.187531
0.155640 0.685547 0.188232
0.173431 0.686096 0.189209
0.193848 0.686798 0.190460
0.216217 0.687683 0.191925
0.240112 0.688690 0.193726
0.265472 0.689850 0.195831
0.291901 0.691162 0.198181
0.319275 0.692688 0.200836
0.345184 0.696167 0.199005
0.370422 0.701691 0.191986
0.397217 0.707672 0.183380
0.426147 0.713379 0.174927
0.456848 0.718781 0.166687
0.488922 0.723877 0.158722
0.522095 0.728668 0.151154
0.556061 0.733063 0.144257
0.590485 0.737061 0.138275
0.625061 0.740692 0.133545
0.659424 0.743896 0.130524
0.693268 0.746765 0.129578
0.726288 0.749268 0.130951
0.758087 0.751465 0.134735
0.788727 0.753723 0.138794
0.818176 0.756287 0.141235
0.846313 0.759033 0.142944
0.872864 0.761932 0.144165
0.897583 0.764984 0.145081
0.920258 0.768188 0.146240
0.940674 0.771393 0.149017
0.958405 0.774719 0.153595
0.156128 0.718445 0.199158
0.164978 0.718658 0.199554
0.174377 0.718933 0.200104
0.186981 0.719330 0.200806
0.202667 0.719818 0.201721
0.220795 0.720459 0.202972
0.241333 0.721222 0.204437
0.263580 0.722137 0.206177
0.287476 0.723175 0.208221
0.312653 0.724365 0.210480
0.338806 0.725769 0.212952
0.363617 0.729248 0.210632
0.388000 0.734558 0.203705
0.413940 0.740265 0.195312
0.441956 0.745697 0.187134
0.471710 0.750854 0.179138
0.502777 0.755737 0.171417
0.534912 0.760315 0.164032
0.567841 0.764557 0.157227
0.601257 0.768433 0.151123
0.634796 0.771912 0.146301
0.668152 0.775024 0.142761
0.701050 0.777740 0.140869
0.733154 0.780182 0.140839
0.764160 0.782318 0.143005
0.793762 0.784241 0.147125
0.822021 0.786224 0.151215
0.848907 0.788513 0.153992
0.874207 0.790955 0.156067
0.897705 0.793579 0.157837
0.919250 0.796326 0.159515
0.938690 0.799133 0.161926
0.955566 0.801941 0.166595
0.197235 0.749725 0.212799
0.204590 0.749908 0.213226
0.212524 0.750122 0.213715
0.223297 0.750458 0.214447
0.236755 0.750916 0.215363
0.252747 0.751495 0.216553
0.271362 0.752136 0.217957
0.291718 0.752960 0.219574
0.313843 0.753876 0.221558
0.337463 0.754944 0.223785
0.361786 0.756500 0.225342
0.384857 0.760254 0.221741
0.408173 0.765411 0.214539
0.433228 0.770721 0.206635
0.460266 0.775818 0.198914
0.488953 0.780640 0.191376
0.518951 0.785217 0.184052
0.549988 0.789490 0.177063
0.581818 0.793457 0.170624
0.614044 0.797089 0.164917
0.646393 0.800354 0.160034
0.678589 0.803253 0.156464
0.710358 0.805817 0.154266
0.741302 0.808075 0.153564
0.771240 0.810028 0.154663
