滤镜资源/Professional Luts Collection/Lutify.me Professional/Instant Films/Dravite.cube
# Created by: Lutify.me
# Copyright: (c) Copyright Lutify.me 2015
# Website: https://lutify.me
#LUT size
LUT_3D_SIZE 5
#LUT data points
0.000000 0.000000 0.000000
0.161346 0.000000 0.001465
0.455719 0.000000 0.001770
0.745239 0.000000 0.008148
1.000000 0.000000 0.053284
0.000244 0.161896 0.015625
0.192688 0.187347 0.007965
0.468201 0.207367 0.005951
0.752350 0.221283 0.026917
1.000000 0.258453 0.082733
0.159241 0.430725 0.144775
0.271149 0.447327 0.141876
0.496674 0.477600 0.137085
0.754333 0.502319 0.157806
0.988770 0.531311 0.193787
0.339478 0.686005 0.297302
0.402863 0.698181 0.292542
0.568176 0.726227 0.277679
0.784729 0.745941 0.293091
0.983429 0.766327 0.322754
0.542114 0.887268 0.437775
0.581360 0.894470 0.434235
0.693634 0.910736 0.426971
0.855133 0.925262 0.428162
1.000000 0.933533 0.452209
0.000000 0.006439 0.177643
0.175659 0.000000 0.200562
0.462524 0.000000 0.228668
0.748779 0.000000 0.256378
1.000000 0.033783 0.285522
0.002350 0.194519 0.213226
0.211151 0.206055 0.227386
0.485565 0.215485 0.245239
0.762390 0.229614 0.267944
1.000000 0.267303 0.294434
0.168030 0.455414 0.288849
0.295319 0.458252 0.303253
0.506500 0.489319 0.306183
0.768402 0.511292 0.316010
1.000000 0.536621 0.338074
0.344849 0.703735 0.395111
0.423431 0.703278 0.407990
0.576874 0.730255 0.404205
0.789490 0.753815 0.409546
0.989197 0.774200 0.428528
0.557983 0.889374 0.523071
0.596313 0.894379 0.524078
0.700684 0.912048 0.518860
0.857239 0.930267 0.514679
1.000000 0.939148 0.533386
0.000000 0.034302 0.465179
0.196259 0.030029 0.480072
0.474091 0.008728 0.513824
0.751587 0.046570 0.541229
1.000000 0.143097 0.566986
0.002960 0.234436 0.492279
0.230469 0.239899 0.504333
0.491943 0.246948 0.530029
0.762939 0.264130 0.552704
1.000000 0.303406 0.575165
0.188843 0.494263 0.534210
0.311188 0.500061 0.540649
0.525299 0.513916 0.560669
0.786652 0.524628 0.577881
1.000000 0.547333 0.594696
0.352142 0.740479 0.599945
0.432831 0.742157 0.605347
0.605164 0.746338 0.624359
0.799774 0.772980 0.630676
1.000000 0.790924 0.640381
0.569061 0.919312 0.685852
0.614838 0.918549 0.691559
0.724335 0.920532 0.706451
0.862518 0.942322 0.704773
1.000000 0.953705 0.714478
0.008575 0.095520 0.740082
0.245636 0.106079 0.749268
0.499237 0.113159 0.780029
0.763885 0.141388 0.809052
0.999481 0.220306 0.831970
0.104553 0.277191 0.761108
0.275452 0.283234 0.767944
0.515137 0.290222 0.792480
0.772491 0.304657 0.818726
1.000000 0.349701 0.839081
0.243774 0.531586 0.788818
0.349731 0.535675 0.794708
0.550537 0.542786 0.816101
0.788971 0.552216 0.839661
1.000000 0.576721 0.856567
0.394409 0.773315 0.830597
0.463562 0.776215 0.834351
0.621246 0.784607 0.845734
0.812531 0.795563 0.865387
1.000000 0.805847 0.880157
0.581512 0.953094 0.883392
0.624420 0.953979 0.886047
0.735077 0.956573 0.893982
0.878174 0.960175 0.907928
1.000000 0.972839 0.916595
0.271973 0.162231 0.945374
0.371857 0.169586 0.950653
0.571289 0.176300 0.970428
0.805237 0.204285 0.989807
1.000000 0.277710 1.000000
0.309540 0.318939 0.949249
0.396912 0.321533 0.955658
0.586273 0.328186 0.972534
0.812134 0.343964 0.991852
1.000000 0.391266 1.000000
0.389374 0.565521 0.951172
0.451935 0.565674 0.960938
0.618073 0.572540 0.974792
0.824310 0.582123 0.993744
1.000000 0.607819 1.000000
0.493439 0.802704 0.961365
0.544403 0.805115 0.965027
0.672943 0.811676 0.975677
0.841858 0.820374 0.991333
1.000000 0.831879 1.000000
0.640320 0.977020 0.976044
0.675568 0.978058 0.977966
0.768921 0.981171 0.983490
0.891876 0.986755 0.991669
1.000000 0.995148 1.000000
