滤镜资源/Professional Luts Collection/Lutify.me Professional/Instant Films/Dravite.cube
# Created by: Lutify.me
# Copyright: (c) Copyright Lutify.me 2015
# Website: https://lutify.me
#LUT size
LUT_3D_SIZE 33
#LUT data points
0.000000 0.000000 0.000000
0.001923 0.000366 0.000793
0.006165 0.000031 0.000092
0.013458 0.000000 0.000336
0.029877 0.000000 0.000397
0.057251 0.000000 0.000732
0.089630 0.000000 0.000519
0.124725 0.000000 0.001038
0.161346 0.000000 0.001465
0.198151 0.000000 0.001556
0.234985 0.000000 0.001831
0.271820 0.000000 0.001953
0.308533 0.000000 0.002197
0.345306 0.000000 0.002350
0.382111 0.000000 0.002136
0.418945 0.000000 0.001953
0.455719 0.000000 0.001770
0.492462 0.000000 0.001465
0.529083 0.000000 0.001465
0.565643 0.000000 0.001556
0.602081 0.000000 0.001892
0.638306 0.000000 0.002808
0.674286 0.000000 0.003876
0.709961 0.000000 0.005585
0.745239 0.000000 0.008148
0.780029 0.000000 0.011017
0.814392 0.000000 0.014435
0.848145 0.000000 0.019073
0.881226 0.000000 0.024475
0.913574 0.000000 0.030670
0.945038 0.000000 0.037811
0.975464 0.000000 0.045593
1.000000 0.000000 0.053284
0.000031 0.002319 0.000763
0.002716 0.002350 0.000397
0.007019 0.002747 0.000397
0.016785 0.002716 0.000397
0.035126 0.002319 0.000427
0.062469 0.000916 0.000671
0.094635 0.000122 0.000824
0.129364 0.000000 0.001099
0.165405 0.000000 0.001190
0.201691 0.000000 0.001465
0.238068 0.000000 0.001556
0.274506 0.000000 0.001495
0.310944 0.000000 0.001526
0.347412 0.000000 0.001465
0.384003 0.000000 0.001312
0.420593 0.000000 0.000977
0.457184 0.000000 0.000824
0.493713 0.000000 0.000793
0.530273 0.000000 0.000732
0.566772 0.000000 0.000793
0.603088 0.000000 0.001343
0.639221 0.000000 0.002258
0.675110 0.000000 0.003571
0.710724 0.000000 0.005432
0.745972 0.000000 0.007935
0.780731 0.000000 0.011108
0.814972 0.000000 0.014832
0.848694 0.000000 0.019470
0.881683 0.000000 0.024872
0.913971 0.000000 0.031158
0.945435 0.000000 0.038940
0.975800 0.000000 0.046661
1.000000 0.000427 0.054565
0.000702 0.005890 0.001190
0.002777 0.006622 0.000824
0.007812 0.007782 0.000793
0.018097 0.008575 0.000763
0.038971 0.008575 0.000427
0.067566 0.007538 0.000732
0.099670 0.005920 0.000732
0.133972 0.002838 0.000824
0.169525 0.000702 0.000854
0.205444 0.000092 0.000885
0.241241 0.000000 0.001099
0.277252 0.000000 0.000916
0.313354 0.000000 0.000732
0.349548 0.000000 0.000549
0.385925 0.000000 0.000427
0.422363 0.000000 0.000214
0.458771 0.000000 0.000061
0.495209 0.000000 0.000061
0.531616 0.000000 0.000061
0.567993 0.000000 0.000275
0.604187 0.000000 0.000916
0.640259 0.000000 0.001923
0.676056 0.000000 0.003448
0.711578 0.000000 0.005341
0.746735 0.000000 0.007721
0.781464 0.000000 0.011169
0.815643 0.000000 0.015320
0.849304 0.000000 0.019928
0.882263 0.000000 0.025665
0.914459 0.000031 0.032257
0.945862 0.000793 0.039734
0.976196 0.007172 0.047394
1.000000 0.034332 0.055298
0.000061 0.015320 0.001587
0.003174 0.016479 0.001587
0.008942 0.017700 0.001923
0.020020 0.020721 0.001160
0.042175 0.022919 0.000488
0.072174 0.023102 0.000061
0.104797 0.022949 0.000336
0.139191 0.021484 0.000122
0.174225 0.018921 0.000092
0.209686 0.016022 0.000092
0.245148 0.012970 0.000092
0.280731 0.009430 0.000122
0.316528 0.005554 0.000061
0.352417 0.002594 0.000061
0.388489 0.001556 0.000031
0.424683 0.001312 0.000031
0.460907 0.001038 0.000000
0.497131 0.000763 0.000000
0.533386 0.000488 0.000000
0.569580 0.000275 0.000000
0.605713 0.000122 0.000244
0.641663 0.000031 0.001099
0.677368 0.000000 0.002838
0.712769 0.000092 0.005127
0.747833 0.000305 0.007843
0.782440 0.000671 0.011383
0.816528 0.001282 0.015930
0.850098 0.002228 0.020905
0.882996 0.005402 0.026581
0.915100 0.018677 0.033752
0.946442 0.035950 0.041290
0.976685 0.055878 0.049377
1.000000 0.076813 0.057281
0.000000 0.035095 0.002350
0.002838 0.036652 0.003021
0.010223 0.038544 0.003418
0.022736 0.041779 0.003052
0.045929 0.046631 0.001556
0.074829 0.049774 0.001099
0.108215 0.051300 0.000061
0.142761 0.052185 0.000031
0.177887 0.052185 0.000000
0.213257 0.051392 0.000000
0.248779 0.050293 0.000000
0.284271 0.048706 0.000000
0.319916 0.047058 0.000000
0.355682 0.045166 0.000000
0.391541 0.043335 0.000000
0.427490 0.041656 0.000000
0.463470 0.039856 0.000000
0.499542 0.038055 0.000000
0.535645 0.036316 0.000000
0.571716 0.034729 0.000000
0.607635 0.033630 0.000000
0.643402 0.033173 0.000610
0.678986 0.033508 0.002411
0.714294 0.035095 0.004913
0.749207 0.037811 0.008057
0.783722 0.041656 0.012024
0.817688 0.047485 0.016754
0.851166 0.054138 0.022095
0.883942 0.062622 0.028107
0.915955 0.073639 0.035461
0.947205 0.086334 0.043365
0.977325 0.100372 0.051361
1.000000 0.115051 0.059235
0.000000 0.063995 0.003784
0.002045 0.065369 0.004272
0.011475 0.067017 0.005310
0.027435 0.069672 0.005676
0.050629 0.075134 0.004089
0.079773 0.079865 0.002228
0.111450 0.083160 0.001556
0.145416 0.085846 0.000153
0.180298 0.087585 0.000000
0.215240 0.088898 0.000000
0.250580 0.089752 0.000000
0.286011 0.090179 0.000000
0.321686 0.090240 0.000000
0.357605 0.090057 0.000000
0.393616 0.089752 0.000000
0.429749 0.089233 0.000000
0.465942 0.088562 0.000000
0.502106 0.087860 0.000000
0.538177 0.087250 0.000000
0.574127 0.086975 0.000000
0.609924 0.087036 0.000000
0.645538 0.087433 0.000397
0.680969 0.088318 0.002258
0.716125 0.089874 0.005280
0.750885 0.092346 0.008789
0.785278 0.095673 0.013153
0.819092 0.100311 0.018036
0.852478 0.105774 0.023865
0.885101 0.112518 0.030548
0.917023 0.120514 0.037842
0.948151 0.129639 0.045929
0.978119 0.139832 0.053772
1.000000 0.151093 0.062256
0.000000 0.096069 0.005768
0.001801 0.097382 0.006561
0.013824 0.098907 0.007629
0.033051 0.100891 0.009064
0.057373 0.105438 0.007568
0.085388 0.111420 0.004333
0.116852 0.115540 0.002533
0.149048 0.118744 0.002319
0.182831 0.121765 0.001068
0.217316 0.124146 0.000214
0.252136 0.126099 0.000031
0.287384 0.127808 0.000000
0.322845 0.129089 0.000000
0.358643 0.130035 0.000000
0.394562 0.130768 0.000000
0.430603 0.131378 0.000000
0.466766 0.131775 0.000000
0.502991 0.132172 0.000000
0.539185 0.132507 0.000000
0.575317 0.132843 0.000092
0.611298 0.133423 0.000397
0.647125 0.134186 0.001373
0.682678 0.135284 0.003418
0.717926 0.136780 0.006348
0.752686 0.138977 0.010101
0.786957 0.141785 0.014984
0.820709 0.145355 0.020233
0.853912 0.149841 0.026367
0.886414 0.155151 0.033478
0.918243 0.161407 0.041260
0.949188 0.168640 0.049377
0.979004 0.177002 0.057495
1.000000 0.186340 0.065582
0.000000 0.128876 0.009521
0.004150 0.130096 0.010590
0.018921 0.131317 0.011566
0.041168 0.133148 0.013184
0.065918 0.136627 0.013245
0.093018 0.142609 0.008911
0.123138 0.147888 0.004883
0.154694 0.151428 0.004211
0.186829 0.154541 0.004303
0.220215 0.157715 0.003326
0.254517 0.160431 0.001984
0.289246 0.162842 0.001068
0.324402 0.164886 0.000580
0.359802 0.166656 0.000366
0.395538 0.168182 0.000336
0.431396 0.169495 0.000397
0.467377 0.170685 0.000549
0.503448 0.171753 0.001068
0.539520 0.172821 0.001770
0.575562 0.173859 0.002930
0.611511 0.174927 0.004456
0.647278 0.176147 0.006409
0.682800 0.177551 0.009155
0.718048 0.179260 0.012482
0.752838 0.181396 0.016541
0.787201 0.183929 0.021423
0.821014 0.187012 0.026855
0.854279 0.190796 0.033203
0.886780 0.195251 0.040833
0.918518 0.200592 0.048340
0.949341 0.206696 0.056244
0.978973 0.213898 0.064056
1.000000 0.222015 0.072266
0.000244 0.161896 0.015625
0.011383 0.162903 0.016693
0.028198 0.164062 0.017700
0.052307 0.165649 0.019745
0.077454 0.168243 0.020905
0.102417 0.173920 0.016510
0.130707 0.179657 0.011230
0.161407 0.184235 0.007629
0.192688 0.187347 0.007965
0.224579 0.190460 0.008453
0.257843 0.193695 0.007843
0.291870 0.196564 0.006683
0.326447 0.199310 0.005829
0.361511 0.201599 0.005219
0.396851 0.203705 0.005096
0.432465 0.205658 0.005432
0.468201 0.207367 0.005951
0.504059 0.209015 0.006775
0.539948 0.210571 0.008087
0.575775 0.212158 0.009888
0.611542 0.213715 0.012299
0.647186 0.215302 0.014984
0.682556 0.217041 0.018280
0.717651 0.218964 0.022308
0.752350 0.221283 0.026917
0.786621 0.223877 0.032257
0.820374 0.226837 0.038208
0.853485 0.230316 0.044830
0.885925 0.234406 0.052002
0.917511 0.239166 0.059204
0.948090 0.244690 0.066986
0.977539 0.251190 0.074646
1.000000 0.258453 0.082733
0.007843 0.195190 0.024597
0.024292 0.196014 0.025818
0.043579 0.197021 0.027161
0.065948 0.198425 0.029449
0.090271 0.200439 0.031738
0.113647 0.205505 0.027466
0.139893 0.211273 0.021393
0.168793 0.216370 0.016357
0.199463 0.220551 0.013306
0.230621 0.223511 0.014709
0.262451 0.226562 0.015869
0.295502 0.229767 0.015747
0.329376 0.232819 0.015228
0.363831 0.235657 0.014832
0.398743 0.238190 0.014648
0.433990 0.240601 0.014954
0.469421 0.242798 0.015717
0.504944 0.244904 0.016785
0.540588 0.246887 0.018494
0.576263 0.248779 0.020721
0.611786 0.250732 0.023529
0.647217 0.252655 0.026855
0.682434 0.254700 0.030701
0.717346 0.256866 0.035431
0.751892 0.259247 0.040527
0.785950 0.261932 0.046021
0.819519 0.264954 0.051941
0.852509 0.268341 0.058289
0.884796 0.272186 0.064880
0.916229 0.276611 0.071686
0.946472 0.281860 0.079193
0.975677 0.287842 0.086884
1.000000 0.294556 0.094788
0.025604 0.228577 0.037537
0.043243 0.229370 0.039001
0.060974 0.230316 0.040375
0.081696 0.231476 0.042816
0.103973 0.233124 0.045349
0.126099 0.237427 0.042572
0.150177 0.243073 0.035980
0.177246 0.248352 0.029602
0.206696 0.253082 0.024689
0.237488 0.256897 0.023010
0.268616 0.259735 0.025818
0.300385 0.262756 0.027405
0.333313 0.265930 0.028107
0.367035 0.269073 0.028137
0.401337 0.272064 0.028351
0.436096 0.274811 0.028809
0.471069 0.277405 0.029816
0.506287 0.279846 0.031281
0.541626 0.282166 0.033112
0.576996 0.284424 0.035583
0.612305 0.286652 0.038696
0.647491 0.288879 0.042297
0.682465 0.291168 0.046326
0.717163 0.293579 0.050873
0.751495 0.296082 0.055878
0.785400 0.298798 0.061157
0.818756 0.301849 0.066711
0.851562 0.305176 0.072418
0.883667 0.308868 0.078552
0.914917 0.313049 0.084900
0.944855 0.318054 0.092255
0.973785 0.323639 0.099915
1.000000 0.329865 0.107544
0.048767 0.262085 0.053223
0.064392 0.262848 0.054718
0.079437 0.263611 0.056030
0.097717 0.264740 0.058228
0.118347 0.266174 0.060730
0.139404 0.269745 0.059509
0.161713 0.275024 0.053772
0.186920 0.280426 0.047546
0.214752 0.285370 0.041901
0.244629 0.289673 0.037689
0.275513 0.293243 0.037018
0.306580 0.296021 0.041046
0.338379 0.299042 0.043579
0.371185 0.302185 0.044891
0.404816 0.305389 0.045654
0.438904 0.308441 0.046448
0.473389 0.311371 0.047394
0.508087 0.314117 0.048920
0.543091 0.316711 0.050903
0.578125 0.319275 0.053284
0.613098 0.321747 0.056183
0.648010 0.324219 0.059601
0.682739 0.326691 0.063354
0.717194 0.329285 0.067444
0.751282 0.331970 0.071991
0.784973 0.334747 0.076843
0.818115 0.337799 0.081940
0.850708 0.341125 0.087250
0.882599 0.344727 0.092834
0.913635 0.348755 0.098663
0.943268 0.353485 0.105896
0.971863 0.358765 0.113434
0.999084 0.364624 0.120819
0.072235 0.295776 0.070404
0.085175 0.296417 0.071747
0.098267 0.297150 0.072937
0.114380 0.298157 0.074829
0.133453 0.299469 0.077209
0.153412 0.302277 0.077118
0.174255 0.307312 0.072479
0.197906 0.312592 0.066956
0.224091 0.317688 0.061554
0.252563 0.322296 0.056946
0.282715 0.326355 0.054169
0.313568 0.329712 0.054657
0.344666 0.332397 0.058990
0.376404 0.335388 0.062225
0.409180 0.338531 0.063873
0.442566 0.341766 0.065186
0.476379 0.344910 0.066406
0.510590 0.347931 0.067841
0.545044 0.350800 0.069763
0.579681 0.353546 0.071930
0.614319 0.356262 0.074524
0.648895 0.358948 0.077454
0.683289 0.361603 0.080902
0.717468 0.364319 0.084534
0.751282 0.367096 0.088684
0.784698 0.369995 0.092987
0.817596 0.373077 0.097565
0.849945 0.376373 0.102539
0.881622 0.379883 0.107635
0.912415 0.383789 0.113098
0.941681 0.388367 0.120087
0.969940 0.393341 0.127319
0.997162 0.398926 0.134521
0.094635 0.329529 0.088348
0.105682 0.330109 0.089478
0.117218 0.330750 0.090576
0.131683 0.331696 0.092255
0.149200 0.332916 0.094421
0.168274 0.335052 0.095367
0.187653 0.339783 0.091461
0.209717 0.344940 0.086456
0.234528 0.350037 0.081482
0.261566 0.354828 0.077118
0.290527 0.359192 0.073669
0.320709 0.362976 0.072235
0.351624 0.366180 0.073547
0.382751 0.368835 0.078033
0.414520 0.371796 0.081451
0.447083 0.374939 0.083588
0.480164 0.378204 0.085175
0.513763 0.381348 0.086823
0.547668 0.384430 0.088623
0.581787 0.387390 0.090698
0.615997 0.390259 0.092957
0.650146 0.393127 0.095673
0.684204 0.395966 0.098633
0.718018 0.398804 0.101959
0.751526 0.401672 0.105682
0.784637 0.404633 0.109558
0.817261 0.407745 0.113647
0.849335 0.411041 0.118225
0.880737 0.414520 0.122955
0.911255 0.418304 0.128021
0.940155 0.422699 0.134827
0.968079 0.427429 0.141693
0.994904 0.432709 0.148743
0.116302 0.363342 0.106750
0.126068 0.363861 0.107758
0.136292 0.364441 0.108826
0.149384 0.365295 0.110291
0.165588 0.366394 0.112305
0.183777 0.368103 0.113892
0.201965 0.372406 0.110748
0.222473 0.377441 0.106201
0.245819 0.382446 0.101654
0.271545 0.387299 0.097412
0.299255 0.391876 0.093842
0.328491 0.395966 0.091492
0.358826 0.399536 0.091003
0.389801 0.402618 0.092896
0.420837 0.405243 0.097565
0.452515 0.408173 0.101044
0.484833 0.411316 0.103485
0.517639 0.414551 0.105469
0.550934 0.417725 0.107330
0.584503 0.420807 0.109314
0.618164 0.423889 0.111542
0.651886 0.426849 0.113892
0.685516 0.429840 0.116608
0.718964 0.432770 0.119598
0.752075 0.435760 0.122925
0.784882 0.438782 0.126434
0.817169 0.441925 0.130188
0.848938 0.445190 0.134308
0.880005 0.448639 0.138702
0.910248 0.452362 0.143341
0.938751 0.456543 0.149811
0.966278 0.461090 0.156586
0.992737 0.466064 0.163452
0.137848 0.397125 0.125671
0.146454 0.397583 0.126587
0.155609 0.398132 0.127502
0.167603 0.398895 0.128845
0.182556 0.399902 0.130676
0.199768 0.401337 0.132507
0.217010 0.405151 0.130157
0.236115 0.410004 0.126068
0.258057 0.414917 0.121796
0.282410 0.419769 0.117889
0.308929 0.424347 0.114380
0.337097 0.428680 0.111572
0.366577 0.432556 0.110046
0.397034 0.436035 0.110229
0.427948 0.438965 0.112671
0.458862 0.441559 0.117310
0.490295 0.444427 0.120911
0.522430 0.447571 0.123535
0.554932 0.450745 0.125824
0.587891 0.453918 0.127716
0.620972 0.457062 0.129883
0.654144 0.460175 0.132172
0.687286 0.463226 0.134613
0.720276 0.466278 0.137329
0.753021 0.469299 0.140350
0.785370 0.472412 0.143524
0.817291 0.475555 0.146942
0.848724 0.478821 0.150726
0.879456 0.482239 0.154663
0.909363 0.485870 0.158997
0.937500 0.489899 0.165192
0.964630 0.494263 0.171783
0.990692 0.498962 0.178467
0.159241 0.430725 0.144775
0.166992 0.431152 0.145599
0.175171 0.431671 0.146454
0.186279 0.432373 0.147705
0.200073 0.433289 0.149323
0.216278 0.434540 0.151184
0.232635 0.437927 0.149567
0.250641 0.442535 0.145874
0.271149 0.447327 0.141876
0.294220 0.452118 0.138153
0.319489 0.456726 0.134735
0.346527 0.461121 0.131805
0.375092 0.465210 0.129761
0.404694 0.468903 0.128876
0.435181 0.472229 0.129639
0.465942 0.475037 0.132446
0.496674 0.477600 0.137085
0.527954 0.480438 0.140747
0.559784 0.483490 0.143463
0.591980 0.486664 0.145874
0.624420 0.489807 0.147980
0.656982 0.492981 0.150208
0.689545 0.496124 0.152496
0.722076 0.499207 0.155121
0.754333 0.502319 0.157806
0.786255 0.505432 0.160767
0.817749 0.508636 0.163818
0.848755 0.511902 0.167297
0.879120 0.515259 0.170959
0.908661 0.518829 0.174957
0.936401 0.522675 0.180939
0.963104 0.526855 0.187286
0.988770 0.531311 0.193787
0.180634 0.464172 0.163910
0.187653 0.464569 0.164673
0.195038 0.465057 0.165497
0.205292 0.465698 0.166626
0.218109 0.466553 0.168121
0.233368 0.467682 0.169891
0.248932 0.470673 0.168823
0.265839 0.475006 0.165466
0.285126 0.479645 0.161774
0.306915 0.484344 0.158173
0.330933 0.488922 0.154846
0.356842 0.493347 0.151886
0.384338 0.497528 0.149536
0.413116 0.501404 0.148132
0.442841 0.504944 0.147797
0.473206 0.508087 0.149017
0.503754 0.510803 0.152069
0.534302 0.513306 0.156830
0.565338 0.516113 0.160431
0.596802 0.519135 0.163239
0.628540 0.522278 0.165710
0.660461 0.525391 0.167999
0.692413 0.528564 0.170288
0.724365 0.531647 0.172668
0.756104 0.534821 0.175262
0.787537 0.537933 0.177979
0.818604 0.541138 0.180878
0.849152 0.544403 0.184021
0.879059 0.547729 0.187408
0.908203 0.551208 0.191254
0.935516 0.554932 0.196899
0.961792 0.558899 0.203156
0.987061 0.563141 0.209412
0.202332 0.497345 0.183105
0.208527 0.497742 0.183777
0.215424 0.498169 0.184509
0.224823 0.498749 0.185547
0.236786 0.499573 0.186920
0.251068 0.500610 0.188599
0.265869 0.503296 0.187836
0.281738 0.507385 0.184784
0.299866 0.511871 0.181305
0.320465 0.516418 0.177948
0.343323 0.520966 0.174652
0.368042 0.525360 0.171753
0.394470 0.529572 0.169312
0.422272 0.533539 0.167480
0.451202 0.537231 0.166565
0.480927 0.540588 0.166779
0.511078 0.543579 0.168304
0.541382 0.546204 0.171692
0.571686 0.548645 0.176270
0.602356 0.551422 0.179901
0.633392 0.554382 0.182892
0.664612 0.557465 0.185364
0.695953 0.560547 0.187744
0.727234 0.563690 0.190247
0.758423 0.566803 0.192688
0.789307 0.569946 0.195221
0.819855 0.573090 0.197998
0.849884 0.576355 0.200958
0.879303 0.579651 0.204041
0.908020 0.583038 0.207703
0.934906 0.586578 0.213165
0.960754 0.590332 0.219208
0.985565 0.594391 0.225250
0.224182 0.530182 0.202179
0.229858 0.530548 0.202759
0.236237 0.530945 0.203461
0.244873 0.531494 0.204407
0.256042 0.532227 0.205688
0.269409 0.533173 0.207275
0.283386 0.535706 0.206635
0.298279 0.539581 0.203796
0.315369 0.543915 0.200531
0.334839 0.548309 0.197327
0.356506 0.552704 0.194214
0.380188 0.557037 0.191315
0.405487 0.561249 0.188843
0.432281 0.565277 0.186859
0.460297 0.569061 0.185516
0.489288 0.572540 0.185089
0.518860 0.575714 0.185760
0.548737 0.578552 0.187653
0.578735 0.581085 0.191254
0.608704 0.583496 0.195709
0.638977 0.586212 0.199341
0.669464 0.589081 0.202362
0.700073 0.592102 0.204926
0.730743 0.595184 0.207458
0.761230 0.598236 0.210022
0.791534 0.601349 0.212585
0.821533 0.604462 0.215179
0.851074 0.607666 0.217987
0.879974 0.610901 0.220917
0.908173 0.614227 0.224274
0.934631 0.617584 0.229614
0.959991 0.621155 0.235443
0.984344 0.625031 0.241364
0.246399 0.562592 0.221222
0.251648 0.562927 0.221771
0.257507 0.563293 0.222443
0.265503 0.563782 0.223297
0.275848 0.564453 0.224518
0.288391 0.565338 0.225983
0.301422 0.567810 0.225189
0.315460 0.571533 0.222534
0.331543 0.575653 0.219452
0.350006 0.579865 0.216431
0.370544 0.584137 0.213501
0.393097 0.588379 0.210663
0.417389 0.592560 0.208191
0.443176 0.596527 0.206116
0.470215 0.600372 0.204620
0.498322 0.603943 0.203705
0.527191 0.607239 0.203705
0.556519 0.610229 0.204712
0.586151 0.612946 0.207031
0.615692 0.615356 0.210724
0.645233 0.617706 0.215240
0.674988 0.620331 0.218750
0.704926 0.623169 0.221771
0.734863 0.626099 0.224518
0.764709 0.629089 0.227142
0.794342 0.632111 0.229736
0.823730 0.635162 0.232361
0.852661 0.638275 0.235077
0.881042 0.641449 0.237885
0.908691 0.644684 0.241058
0.934692 0.647888 0.246185
0.959564 0.651306 0.251831
0.983429 0.654938 0.257568
0.269043 0.594452 0.240234
0.273865 0.594757 0.240814
0.279266 0.595093 0.241394
0.286713 0.595551 0.242188
0.296295 0.596222 0.243347
0.307983 0.597046 0.244598
0.320007 0.599548 0.243561
0.333160 0.603088 0.240997
0.348419 0.607025 0.238098
0.365906 0.611084 0.235229
0.385437 0.615173 0.232483
0.406921 0.619324 0.229797
0.430145 0.623383 0.227356
0.454895 0.627319 0.225311
0.481018 0.631134 0.223602
0.508209 0.634735 0.222504
0.536224 0.638092 0.222046
0.564880 0.641205 0.222443
0.593933 0.644012 0.223846
0.623138 0.646576 0.226410
0.652191 0.648895 0.230286
0.681244 0.651184 0.234650
0.710388 0.653778 0.238190
0.739594 0.656494 0.241241
0.768768 0.659332 0.244019
0.797729 0.662262 0.246704
0.826447 0.665222 0.249420
0.854767 0.668243 0.252106
0.882538 0.671295 0.254852
0.909607 0.674408 0.257874
0.935120 0.677460 0.262787
0.959473 0.680664 0.268311
0.982819 0.684082 0.273834
0.292023 0.625732 0.259216
0.296478 0.625977 0.259827
0.301483 0.626282 0.260315
0.308380 0.626740 0.261078
0.317352 0.627350 0.262177
0.328125 0.628265 0.263123
0.339142 0.630859 0.261688
0.351501 0.634247 0.259216
0.365967 0.637970 0.256500
0.382507 0.641846 0.253784
0.401093 0.645782 0.251251
0.421570 0.649719 0.248718
0.443817 0.653656 0.246368
0.467560 0.657532 0.244293
0.492645 0.661285 0.242554
0.518890 0.664886 0.241241
0.546051 0.668274 0.240540
0.573914 0.671417 0.240509
0.602295 0.674316 0.241272
0.630920 0.676971 0.243042
0.659607 0.679382 0.245880
0.688171 0.681549 0.249847
0.716583 0.683777 0.254120
0.745056 0.686310 0.257629
0.773468 0.688934 0.260651
0.801727 0.691711 0.263519
0.829742 0.694519 0.266327
0.857391 0.697418 0.269043
0.884521 0.700348 0.271820
0.910950 0.703339 0.274750
0.935944 0.706238 0.279480
0.959778 0.709259 0.284729
0.982635 0.712402 0.290070
0.315521 0.656281 0.278290
0.319641 0.656525 0.278778
0.324219 0.656830 0.279297
0.330658 0.657227 0.280029
0.338989 0.657776 0.281006
0.348663 0.658997 0.281281
0.358734 0.661682 0.279541
0.370392 0.664917 0.277130
0.384125 0.668396 0.274658
0.399872 0.672058 0.272186
0.417542 0.675781 0.269714
0.437073 0.679596 0.267395
0.458282 0.683380 0.265137
0.481049 0.687134 0.263123
0.505157 0.690796 0.261414
0.530457 0.694305 0.260071
0.556702 0.697662 0.259125
0.583740 0.700836 0.258789
0.611359 0.703766 0.259155
0.639343 0.706482 0.260284
0.667450 0.708954 0.262329
0.695557 0.711212 0.265411
0.723419 0.713287 0.269501
0.751068 0.715424 0.273621
0.778748 0.717834 0.277039
0.806335 0.720367 0.280182
0.833618 0.723053 0.283051
0.860565 0.725800 0.285919
0.886993 0.728577 0.288727
0.912811 0.731415 0.291687
0.937225 0.734131 0.296143
0.960510 0.736938 0.301239
0.982819 0.739838 0.306396
0.339478 0.686005 0.297302
0.343262 0.686249 0.297729
0.347473 0.686493 0.298248
0.353485 0.686890 0.298920
0.361115 0.687531 0.299561
0.369415 0.689270 0.298859
0.378754 0.691895 0.296997
0.389832 0.694916 0.294830
0.402863 0.698181 0.292542
0.417877 0.701599 0.290253
0.434753 0.705139 0.287964
0.453400 0.708740 0.285736
0.473663 0.712372 0.283661
0.495422 0.716003 0.281738
0.518555 0.719543 0.280029
0.542908 0.722961 0.278656
0.568176 0.726227 0.277679
0.594360 0.729370 0.277161
0.621185 0.732300 0.277252
0.648407 0.735016 0.277985
0.675873 0.737518 0.279419
0.703369 0.739807 0.281708
0.730774 0.741913 0.285034
0.757843 0.743866 0.289185
0.784729 0.745941 0.293091
0.811523 0.748230 0.296539
0.838043 0.750671 0.299652
0.864319 0.753204 0.302673
0.890045 0.755829 0.305542
0.915131 0.758514 0.308533
0.938965 0.761017 0.312805
0.961700 0.763641 0.317749
0.983429 0.766327 0.322754
0.363861 0.714783 0.316345
0.367432 0.714996 0.316742
0.371368 0.715240 0.317169
0.376740 0.715729 0.317627
0.383240 0.716827 0.317352
0.390442 0.718872 0.315979
0.399292 0.721405 0.314148
0.409882 0.724182 0.312195
0.422302 0.727234 0.310120
0.436584 0.730408 0.308014
0.452667 0.733734 0.305939
0.470428 0.737152 0.303894
0.489807 0.740570 0.301941
0.510620 0.744019 0.300140
0.532837 0.747406 0.298553
0.556244 0.750732 0.297180
0.580627 0.753906 0.296143
0.605865 0.756927 0.295563
0.631805 0.759827 0.295410
0.658234 0.762512 0.295868
0.684937 0.765045 0.296906
0.711792 0.767334 0.298737
0.738617 0.769409 0.301331
0.765198 0.771362 0.304718
0.791412 0.773163 0.308929
0.817413 0.775177 0.312714
0.843170 0.777374 0.316101
0.868622 0.779694 0.319214
0.893646 0.782074 0.322266
0.918030 0.784546 0.325256
0.941223 0.786896 0.329468
0.963318 0.789276 0.334167
0.984436 0.791779 0.339020
0.388672 0.742584 0.335266
0.391937 0.742859 0.335449
0.395447 0.743225 0.335693
0.399719 0.744202 0.335205
0.405151 0.745758 0.334106
0.411926 0.747742 0.332703
0.420410 0.750061 0.331055
0.430542 0.752594 0.329254
0.442413 0.755402 0.327423
0.456024 0.758362 0.325531
0.471344 0.761444 0.323639
0.488281 0.764648 0.321777
0.506775 0.767883 0.319977
0.526703 0.771118 0.318298
0.547974 0.774353 0.316803
0.570435 0.777527 0.315521
0.593872 0.780609 0.314514
0.618225 0.783508 0.313873
0.643280 0.786316 0.313629
0.668854 0.788940 0.313873
0.694763 0.791382 0.314697
0.720886 0.793640 0.316101
0.747040 0.795715 0.318237
0.773041 0.797638 0.321014
0.798676 0.799408 0.324585
