滤镜资源/Professional Luts Collection/Lutify.me Professional/Instant Films/Dravite.cube
# Created by: Lutify.me
# Copyright: (c) Copyright Lutify.me 2015
# Website: https://lutify.me
#LUT size
LUT_3D_SIZE 9
#LUT data points
0.000000 0.000000 0.000000
0.029877 0.000000 0.000397
0.161346 0.000000 0.001465
0.308533 0.000000 0.002197
0.455719 0.000000 0.001770
0.602081 0.000000 0.001892
0.745239 0.000000 0.008148
0.881226 0.000000 0.024475
1.000000 0.000000 0.053284
0.000000 0.035095 0.002350
0.045929 0.046631 0.001556
0.177887 0.052185 0.000000
0.319916 0.047058 0.000000
0.463470 0.039856 0.000000
0.607635 0.033630 0.000000
0.749207 0.037811 0.008057
0.883942 0.062622 0.028107
1.000000 0.115051 0.059235
0.000244 0.161896 0.015625
0.077454 0.168243 0.020905
0.192688 0.187347 0.007965
0.326447 0.199310 0.005829
0.468201 0.207367 0.005951
0.611542 0.213715 0.012299
0.752350 0.221283 0.026917
0.885925 0.234406 0.052002
1.000000 0.258453 0.082733
0.072235 0.295776 0.070404
0.133453 0.299469 0.077209
0.224091 0.317688 0.061554
0.344666 0.332397 0.058990
0.476379 0.344910 0.066406
0.614319 0.356262 0.074524
0.751282 0.367096 0.088684
0.881622 0.379883 0.107635
0.997162 0.398926 0.134521
0.159241 0.430725 0.144775
0.200073 0.433289 0.149323
0.271149 0.447327 0.141876
0.375092 0.465210 0.129761
0.496674 0.477600 0.137085
0.624420 0.489807 0.147980
0.754333 0.502319 0.157806
0.879120 0.515259 0.170959
0.988770 0.531311 0.193787
0.246399 0.562592 0.221222
0.275848 0.564453 0.224518
0.331543 0.575653 0.219452
0.417389 0.592560 0.208191
0.527191 0.607239 0.203705
0.645233 0.617706 0.215240
0.764709 0.629089 0.227142
0.881042 0.641449 0.237885
0.983429 0.654938 0.257568
0.339478 0.686005 0.297302
0.361115 0.687531 0.299561
0.402863 0.698181 0.292542
0.473663 0.712372 0.283661
0.568176 0.726227 0.277679
0.675873 0.737518 0.279419
0.784729 0.745941 0.293091
0.890045 0.755829 0.305542
0.983429 0.766327 0.322754
0.436798 0.797119 0.368927
0.450317 0.800842 0.366364
0.484619 0.808685 0.361328
0.543304 0.819305 0.355347
0.623230 0.830505 0.350861
0.716888 0.840302 0.350555
0.814819 0.847748 0.357605
0.907990 0.853790 0.371826
0.990387 0.860748 0.387482
0.542114 0.887268 0.437775
0.553467 0.889404 0.436707
0.581360 0.894470 0.434235
0.628601 0.902069 0.430511
0.693634 0.910736 0.426971
0.771515 0.918915 0.425293
0.855133 0.925262 0.428162
0.935272 0.929504 0.438080
1.000000 0.933533 0.452209
0.000000 0.000824 0.041473
0.036285 0.000000 0.049622
0.169006 0.000000 0.061859
0.313812 0.000000 0.074554
0.459564 0.000000 0.088165
0.605011 0.000000 0.102295
0.747498 0.000000 0.118164
0.882904 0.000000 0.135803
1.000000 0.000000 0.154724
0.000000 0.048309 0.056824
0.056641 0.054718 0.063416
0.186920 0.055939 0.071442
0.325012 0.052643 0.081482
0.467072 0.047485 0.093353
0.610382 0.043640 0.106995
0.751312 0.049011 0.122498
0.885498 0.073242 0.139801
1.000000 0.122833 0.158630
0.006195 0.173218 0.090240
0.090973 0.177490 0.097382
0.200317 0.193573 0.098602
0.334167 0.203888 0.102600
0.474884 0.210602 0.110626
0.616882 0.216309 0.122070
0.756409 0.223846 0.136047
0.888855 0.237152 0.152405
1.000000 0.261322 0.171112
0.084808 0.304230 0.140350
0.142822 0.307739 0.145142
0.231201 0.322540 0.143829
0.349518 0.337250 0.145111
0.480988 0.349213 0.151825
0.618591 0.359711 0.159637
0.754883 0.369995 0.170898
0.884460 0.382507 0.184967
0.999146 0.401337 0.204224
0.167694 0.437012 0.199280
0.207245 0.439514 0.202972
0.277496 0.451630 0.201538
0.379028 0.469116 0.194763
0.499908 0.481323 0.201324
0.627258 0.493256 0.210541
0.756775 0.505310 0.219208
0.881165 0.517914 0.230347
0.990540 0.533844 0.248779
0.252472 0.567444 0.263306
0.281433 0.569275 0.266266
0.336761 0.579407 0.264160
0.421021 0.595825 0.256378
0.529816 0.610260 0.253815
0.647430 0.620605 0.263977
0.766602 0.631836 0.274567
0.882721 0.643982 0.284149
0.985077 0.657318 0.300903
0.343628 0.690063 0.330688
0.365509 0.691315 0.333221
0.408203 0.700195 0.329987
0.477386 0.714203 0.323151
0.570557 0.728302 0.318054
0.677582 0.739838 0.319336
0.786224 0.748322 0.331482
0.891510 0.758209 0.342194
0.984955 0.768677 0.357300
0.443451 0.797821 0.400452
0.457977 0.800262 0.400208
0.491791 0.807251 0.397430
0.548218 0.818146 0.392395
0.625793 0.830414 0.387238
0.718170 0.841461 0.384918
0.815857 0.849640 0.389709
0.908875 0.855804 0.402344
0.991302 0.862823 0.416504
0.547913 0.886627 0.466156
0.559021 0.888641 0.465515
0.586243 0.893616 0.463623
0.632111 0.901550 0.460175
0.695648 0.910889 0.456207
0.772614 0.919830 0.453400
0.855774 0.926727 0.455048
0.935760 0.931183 0.463898
1.000000 0.935211 0.477173
0.000000 0.006439 0.177643
0.029938 0.005157 0.184296
0.175659 0.000000 0.200562
0.318024 0.000000 0.214661
0.462524 0.000000 0.228668
0.607086 0.000000 0.242432
0.748779 0.000000 0.256378
0.883392 0.000000 0.270660
1.000000 0.033783 0.285522
0.000000 0.066589 0.193024
0.058624 0.070831 0.197998
0.191772 0.070709 0.211090
0.328461 0.070801 0.222565
0.469666 0.068878 0.234558
0.612244 0.068176 0.247162
0.752441 0.075531 0.260315
0.885895 0.100128 0.274078
1.000000 0.144348 0.288544
0.002350 0.194519 0.213226
0.098206 0.198486 0.217285
0.211151 0.206055 0.227386
0.346924 0.210327 0.236115
0.485565 0.215485 0.245239
0.625092 0.221313 0.255951
0.762390 0.229614 0.267944
0.893127 0.243683 0.280853
1.000000 0.267303 0.294434
0.082428 0.325226 0.246155
0.146606 0.328094 0.249451
0.248383 0.331116 0.260040
0.358307 0.347290 0.263306
0.494202 0.357239 0.266602
0.633118 0.364532 0.274017
0.768951 0.372589 0.283875
0.897400 0.383850 0.295380
1.000000 0.401245 0.308624
0.168030 0.455414 0.288849
0.210266 0.457581 0.291687
0.295319 0.458252 0.303253
0.388428 0.473969 0.305267
0.506500 0.489319 0.306183
0.636536 0.501068 0.310242
0.768402 0.511292 0.316010
0.893677 0.522064 0.324677
1.000000 0.536621 0.338074
0.253693 0.583221 0.339325
0.283813 0.584869 0.341675
0.353210 0.584381 0.352814
0.433502 0.596710 0.355591
0.535339 0.615204 0.349976
0.652283 0.627197 0.355042
0.772980 0.638672 0.360748
0.890869 0.650024 0.366699
0.993896 0.662506 0.379578
0.344849 0.703735 0.395111
0.367798 0.704559 0.397522
0.423431 0.703278 0.407990
0.490540 0.713684 0.409576
0.576874 0.730255 0.404205
0.681183 0.744629 0.401093
0.789490 0.753815 0.409546
0.895508 0.763977 0.416565
0.989197 0.774200 0.428528
0.448853 0.807007 0.458496
0.467102 0.806610 0.461884
0.505035 0.808746 0.466309
0.559387 0.817932 0.465851
0.632202 0.831421 0.461365
0.721344 0.844543 0.456909
0.818115 0.854065 0.458466
0.910797 0.860474 0.468689
0.992889 0.867493 0.480530
0.557983 0.889374 0.523071
0.569458 0.890564 0.523773
0.596313 0.894379 0.524078
0.640167 0.901978 0.522491
0.700684 0.912048 0.518860
0.775208 0.922272 0.515106
0.857239 0.930267 0.514679
0.936798 0.935150 0.521515
1.000000 0.939148 0.533386
0.000000 0.017059 0.320618
0.021606 0.014648 0.326111
0.184174 0.001892 0.340088
0.325073 0.000000 0.356964
0.466614 0.000000 0.371124
0.609375 0.000000 0.385254
0.749695 0.000000 0.398834
0.883118 0.012756 0.412140
1.000000 0.094818 0.425415
0.000000 0.088043 0.334473
0.055542 0.091217 0.338501
0.198486 0.093079 0.350189
0.334473 0.092346 0.364563
0.473389 0.096832 0.376862
0.614319 0.100861 0.389740
0.753265 0.110657 0.402527
0.885529 0.132874 0.415222
1.000000 0.172729 0.428131
0.001617 0.214355 0.350891
0.104736 0.217407 0.353912
0.220306 0.221405 0.365021
0.349854 0.224731 0.377899
0.486877 0.229980 0.388519
0.626160 0.235565 0.399261
0.762848 0.244263 0.410278
0.892761 0.258667 0.421753
1.000000 0.282837 0.433624
0.094391 0.344543 0.374023
0.158203 0.347015 0.376587
0.255524 0.352814 0.383057
0.368591 0.360382 0.394409
0.504425 0.364655 0.403625
0.641449 0.370819 0.411987
0.775299 0.378906 0.421326
0.902100 0.390411 0.431519
1.000000 0.407684 0.442261
0.170471 0.475739 0.405792
0.214844 0.477600 0.407959
0.300140 0.481049 0.413422
0.405151 0.485687 0.424286
0.515625 0.501038 0.428986
0.649414 0.510101 0.432129
0.781372 0.517517 0.439087
0.905243 0.526794 0.447876
1.000000 0.540405 0.458221
0.255432 0.602875 0.444061
0.286987 0.604340 0.445953
0.358795 0.605042 0.452484
0.450867 0.606964 0.464600
0.544952 0.622467 0.468262
0.659119 0.637054 0.469513
0.781647 0.647949 0.472626
0.900452 0.657623 0.477783
1.000000 0.669037 0.487793
0.346924 0.721802 0.488525
0.370300 0.722778 0.490295
0.430023 0.720917 0.498383
0.506836 0.722046 0.509613
0.588684 0.734680 0.513245
0.686798 0.752014 0.508972
0.794220 0.762268 0.514069
0.900757 0.772339 0.518433
0.994690 0.782074 0.527618
0.451416 0.823761 0.539978
0.471375 0.822784 0.543121
0.514252 0.821930 0.549713
0.574615 0.823730 0.558258
0.643677 0.834564 0.560059
0.726929 0.849487 0.556061
0.821381 0.860992 0.554718
0.913330 0.867767 0.562439
0.994934 0.874847 0.571686
0.565643 0.901184 0.597656
0.578644 0.901093 0.599640
0.608582 0.901489 0.603943
0.653259 0.905304 0.607880
0.710052 0.914612 0.607483
0.780029 0.926147 0.604034
0.859467 0.935760 0.601685
0.938080 0.941437 0.606018
1.000000 0.945496 0.616089
0.000000 0.034302 0.465179
0.027679 0.033356 0.469513
0.196259 0.030029 0.480072
0.333893 0.014801 0.497833
0.474091 0.008728 0.513824
0.613800 0.023010 0.527466
0.751587 0.046570 0.541229
0.882874 0.086426 0.554413
1.000000 0.143097 0.566986
0.000000 0.111633 0.477386
0.059540 0.114380 0.480774
0.208557 0.118744 0.489838
0.342194 0.118958 0.505310
0.480225 0.121948 0.519348
0.618439 0.132233 0.531799
0.754913 0.145142 0.544739
0.885132 0.166870 0.557343
1.000000 0.204102 0.569458
0.002960 0.234436 0.492279
0.112335 0.237030 0.494751
0.230469 0.239899 0.504333
0.357727 0.244293 0.516205
0.491943 0.246948 0.530029
0.628113 0.254852 0.541138
0.762939 0.264130 0.552704
0.891296 0.278809 0.563995
1.000000 0.303406 0.575165
0.107819 0.364319 0.509796
0.170593 0.366425 0.511841
0.264771 0.370453 0.519409
0.378662 0.375244 0.531281
0.507050 0.378876 0.544342
0.641205 0.384857 0.554474
0.774231 0.392273 0.564301
0.900146 0.403503 0.573944
1.000000 0.421295 0.583710
0.188843 0.494263 0.534210
0.231384 0.495941 0.536011
0.311188 0.500061 0.540649
0.412231 0.506805 0.548645
0.525299 0.513916 0.560669
0.656677 0.518066 0.570190
0.786652 0.524628 0.577881
0.908569 0.533875 0.586060
1.000000 0.547333 0.594696
0.263733 0.621857 0.564972
0.295471 0.623138 0.566559
0.363159 0.625977 0.570343
0.455719 0.630524 0.576874
0.560394 0.636017 0.587219
0.667633 0.649414 0.593048
0.793091 0.657166 0.596375
0.910950 0.664429 0.602936
1.000000 0.674652 0.611053
0.352142 0.740479 0.599945
0.375671 0.741455 0.601349
0.432831 0.742157 0.605347
0.513153 0.743805 0.612671
0.605164 0.746338 0.624359
0.695251 0.760223 0.629181
0.799774 0.772980 0.630676
0.907379 0.782257 0.633331
1.000000 0.790924 0.640381
0.453674 0.842773 0.639923
0.473663 0.842346 0.641785
0.517731 0.842041 0.646179
0.582825 0.842072 0.653839
0.659485 0.843628 0.664642
0.736786 0.855133 0.668549
0.825348 0.869537 0.665497
0.916077 0.877075 0.670563
0.997253 0.884155 0.677216
0.569061 0.919312 0.685852
0.582703 0.919067 0.687500
0.614838 0.918549 0.691559
0.664398 0.918274 0.698517
0.724335 0.920532 0.706451
0.788696 0.930634 0.707764
0.862518 0.942322 0.704773
0.939148 0.949554 0.706146
1.000000 0.953705 0.714478
0.000000 0.062347 0.606903
0.058319 0.064087 0.610352
0.215057 0.069336 0.618195
0.347443 0.066132 0.634827
0.483643 0.066589 0.651764
0.621521 0.076843 0.666595
0.755951 0.103973 0.679474
0.883911 0.137360 0.692383
0.999451 0.184662 0.704407
0.000000 0.137787 0.617523
0.083191 0.140442 0.620361
0.225220 0.146545 0.627106
0.354584 0.148132 0.641876
0.489227 0.150940 0.657043
0.625763 0.158630 0.670685
0.759003 0.176300 0.682800
0.885956 0.199615 0.695129
1.000000 0.235535 0.706696
0.029633 0.255615 0.631012
0.131653 0.257751 0.633118
0.246948 0.261017 0.640320
0.370544 0.265350 0.651459
0.500366 0.268097 0.666016
0.634338 0.273224 0.679199
0.765625 0.285522 0.690186
0.890839 0.301514 0.701538
1.000000 0.326691 0.712280
0.130859 0.383789 0.645691
0.188690 0.385590 0.647430
0.280884 0.388641 0.654083
0.391418 0.391754 0.666138
0.515808 0.396698 0.677856
0.645874 0.400330 0.691071
0.774597 0.409515 0.701141
0.897644 0.420959 0.711334
1.000000 0.439331 0.720825
0.210632 0.513367 0.664459
0.250671 0.514862 0.665985
0.326050 0.518280 0.670868
0.422455 0.522919 0.680756
0.535767 0.528076 0.692322
0.659119 0.531860 0.705109
0.784729 0.538361 0.714539
0.904694 0.546906 0.723358
1.000000 0.560638 0.731567
0.287201 0.639374 0.688843
0.317047 0.640533 0.690186
0.380005 0.643494 0.693665
0.467133 0.648499 0.699768
0.567322 0.655212 0.708557
0.675812 0.661560 0.720367
0.796387 0.665466 0.729858
0.911774 0.672058 0.736816
1.000000 0.682190 0.743744
0.366333 0.757599 0.717834
0.389404 0.758484 0.718994
0.441528 0.760529 0.721863
0.517944 0.764038 0.726746
0.609436 0.768890 0.733673
0.708008 0.774597 0.742828
0.806854 0.784943 0.749146
0.915771 0.790741 0.753021
1.000000 0.797791 0.759186
0.460938 0.860229 0.749298
0.479523 0.860474 0.750366
0.521667 0.861359 0.753021
0.585785 0.862946 0.757690
0.665039 0.864990 0.764740
0.750916 0.867188 0.775146
0.831177 0.877960 0.780701
0.918976 0.887634 0.782318
0.999939 0.894196 0.786530
0.572021 0.937775 0.784149
0.585510 0.937805 0.785156
0.617462 0.937927 0.787781
0.668030 0.938110 0.792480
0.732239 0.938263 0.799683
0.802155 0.939209 0.809418
0.868530 0.948486 0.813019
0.939972 0.958557 0.811676
1.000000 0.963135 0.817841
0.008575 0.095520 0.740082
0.121338 0.098389 0.742859
0.245636 0.106079 0.749268
0.369293 0.109253 0.763611
0.499237 0.113159 0.780029
0.632477 0.121918 0.795532
0.763885 0.141388 0.809052
0.887756 0.175903 0.820770
0.999481 0.220306 0.831970
0.033630 0.165497 0.749146
0.136017 0.168091 0.751465
0.254211 0.174438 0.756897
0.375519 0.177185 0.770020
0.504181 0.180756 0.785004
0.636261 0.187775 0.799377
0.766693 0.202454 0.812103
0.889587 0.228760 0.823303
1.000000 0.264587 0.834076
0.104553 0.277191 0.761108
0.172485 0.279114 0.762939
0.275452 0.283234 0.767944
0.390961 0.286774 0.778748
0.515137 0.290222 0.792480
0.644165 0.294769 0.806580
0.772491 0.304657 0.818726
0.893494 0.323395 0.829041
1.000000 0.349701 0.839081
0.174286 0.402863 0.773834
0.222351 0.404449 0.775330
0.307495 0.407349 0.780579
0.410980 0.409149 0.792511
0.530884 0.414734 0.802765
0.655121 0.418579 0.816315
0.780304 0.425232 0.828278
0.898560 0.439056 0.837708
1.000000 0.458405 0.846802
0.243774 0.531586 0.788818
0.279663 0.532898 0.790161
0.349731 0.535675 0.794708
0.440186 0.538330 0.805603
0.550537 0.542786 0.816101
0.668579 0.547821 0.827545
0.788971 0.552216 0.839661
0.903534 0.562347 0.848358
1.000000 0.576721 0.856567
0.316528 0.656860 0.807648
0.344055 0.657928 0.808838
0.401825 0.660522 0.812408
0.482178 0.664520 0.819672
0.578888 0.669281 0.829590
0.686340 0.674408 0.840393
0.798645 0.678192 0.852173
0.908203 0.684937 0.860565
1.000000 0.695190 0.867767
0.394409 0.773315 0.830597
0.415802 0.774109 0.831635
0.463562 0.776215 0.834351
0.534821 0.779724 0.839050
0.621246 0.784607 0.845734
0.714783 0.790497 0.854675
0.812531 0.795563 0.865387
0.914124 0.799194 0.874176
1.000000 0.805847 0.880157
0.480194 0.874969 0.856445
0.496918 0.875488 0.857330
0.535645 0.876862 0.859558
0.595825 0.879150 0.863312
0.671234 0.882385 0.868622
0.754669 0.886627 0.875275
0.839813 0.891693 0.882965
0.923706 0.897552 0.889252
1.000000 0.901306 0.893738
0.581512 0.953094 0.883392
0.594208 0.953339 0.884186
0.624420 0.953979 0.886047
0.672729 0.955078 0.889313
0.735077 0.956573 0.893982
0.805756 0.958405 0.900055
0.878174 0.960175 0.907928
0.941803 0.966614 0.913849
1.000000 0.972839 0.916595
0.148071 0.129913 0.857452
0.201996 0.133179 0.859711
0.295258 0.141144 0.865051
0.404236 0.145294 0.877716
0.524750 0.150513 0.892822
0.650787 0.159729 0.907776
0.776520 0.176819 0.921387
0.895996 0.206177 0.933136
1.000000 0.249512 0.943146
0.160126 0.193146 0.864990
0.211273 0.195526 0.866913
0.302216 0.201355 0.871552
0.409668 0.204285 0.883301
0.529114 0.208435 0.897278
0.654114 0.215942 0.911285
0.778992 0.229614 0.924164
0.897522 0.253479 0.935364
1.000000 0.289703 0.945007
0.193024 0.298401 0.875397
0.237366 0.300171 0.876984
0.320251 0.303711 0.881561
0.423950 0.307312 0.891022
0.539612 0.311157 0.903625
0.661530 0.316162 0.917236
0.784119 0.325409 0.929779
0.900818 0.342438 0.940399
1.000000 0.369965 0.949310
0.240723 0.421082 0.886230
0.277466 0.422546 0.887543
0.348511 0.424683 0.892731
0.442627 0.426178 0.903320
0.554901 0.431854 0.912476
0.672180 0.436340 0.925140
0.791046 0.442657 0.937500
0.904877 0.454559 0.947723
1.000000 0.475159 0.955750
0.296600 0.548370 0.898315
0.326538 0.549561 0.899475
0.386536 0.551483 0.904419
0.469147 0.552887 0.915070
0.573578 0.557220 0.924133
0.685516 0.562714 0.934296
0.798981 0.567413 0.946381
0.908630 0.575592 0.956451
1.000000 0.591064 0.963715
0.359894 0.672760 0.912811
0.384094 0.673737 0.913818
0.434204 0.675720 0.917999
0.507446 0.678436 0.925873
0.599091 0.681885 0.935730
0.702576 0.686737 0.945007
0.808472 0.691528 0.955536
0.911865 0.696655 0.965820
1.000000 0.707703 0.972534
0.431580 0.788055 0.930237
0.450806 0.788818 0.931183
0.492462 0.790649 0.934357
0.557220 0.793671 0.939453
0.637909 0.797607 0.946716
0.727509 0.801819 0.956207
0.822510 0.806305 0.965485
0.916077 0.809937 0.975372
0.999939 0.816803 0.981506
0.512238 0.887878 0.949463
0.527161 0.888367 0.950317
0.562469 0.889679 0.952393
0.617828 0.891937 0.955933
0.688049 0.895050 0.960968
0.766235 0.898987 0.967468
0.846313 0.903137 0.975647
0.925507 0.906586 0.984070
0.999329 0.909607 0.990814
0.604645 0.964722 0.969421
0.616333 0.965027 0.970062
0.644287 0.965759 0.971680
0.689270 0.966980 0.974518
0.747650 0.968750 0.978424
0.813965 0.971069 0.983337
0.882080 0.974091 0.988922
0.945679 0.977844 0.994507
1.000000 0.980682 0.999176
0.271973 0.162231 0.945374
0.304840 0.165070 0.946472
0.371857 0.169586 0.950653
0.463104 0.171356 0.959991
0.571289 0.176300 0.970428
0.687622 0.186127 0.980713
0.805237 0.204285 0.989807
0.917358 0.234406 0.997101
1.000000 0.277710 1.000000
0.283173 0.218628 0.947693
0.314728 0.220795 0.948730
0.379333 0.223480 0.953186
0.468994 0.225189 0.962036
0.575745 0.229340 0.972015
0.690948 0.237549 0.981873
0.807495 0.252533 0.990631
0.918610 0.277771 0.997711
1.000000 0.315002 1.000000
0.309540 0.318939 0.949249
0.338135 0.320587 0.950256
0.396912 0.321533 0.955658
0.483643 0.324860 0.962646
0.586273 0.328186 0.972534
0.698090 0.333618 0.982849
0.812134 0.343964 0.991852
0.921234 0.362457 0.998840
1.000000 0.391266 1.000000
0.346466 0.439575 0.949707
0.369568 0.439911 0.952087
0.419800 0.438995 0.959686
0.502533 0.443054 0.964966
0.600800 0.447327 0.973236
0.707825 0.451660 0.983582
0.818085 0.458649 0.993103
0.924103 0.471771 0.999908
1.000000 0.493713 1.000000
0.389374 0.565521 0.951172
0.406921 0.565277 0.954742
0.451935 0.565674 0.960938
0.524689 0.567505 0.968567
0.618073 0.572540 0.974792
0.719482 0.577179 0.983887
0.824310 0.582123 0.993744
0.926056 0.591248 1.000000
1.000000 0.607819 1.000000
0.436829 0.688477 0.955536
0.453064 0.688995 0.957672
0.493500 0.690460 0.961884
0.557465 0.692932 0.968384
0.639282 0.696014 0.976807
0.733856 0.701172 0.983856
0.831268 0.705658 0.993011
0.926819 0.711456 1.000000
1.000000 0.723450 1.000000
0.493439 0.802704 0.961365
0.508545 0.803406 0.962463
0.544403 0.805115 0.965027
0.600983 0.807953 0.969360
0.672943 0.811676 0.975677
0.754364 0.815674 0.983917
0.841858 0.820374 0.991333
0.927826 0.824280 0.999420
1.000000 0.831879 1.000000
0.561188 0.901276 0.968414
0.574127 0.901794 0.969116
0.604889 0.903076 0.970825
0.653992 0.905273 0.973755
0.717041 0.908386 0.977905
0.788208 0.912354 0.983276
0.861450 0.916687 0.989960
0.933472 0.920563 0.996765
1.000000 0.924133 1.000000
0.640320 0.977020 0.976044
0.650696 0.977325 0.976624
0.675568 0.978058 0.977966
0.716003 0.979309 0.980286
0.768921 0.981171 0.983490
0.829498 0.983612 0.987396
0.891876 0.986755 0.991669
0.950226 0.990753 0.995941
1.000000 0.995148 1.000000
