滤镜资源/Professional Luts Collection/Lutify.me Professional/Instant Films/Dumortierite.cube
# Created by: Lutify.me
# Copyright: (c) Copyright Lutify.me 2015
# Website: https://lutify.me
#LUT size
LUT_3D_SIZE 5
#LUT data points
0.000000 0.000000 0.000000
0.077423 0.000000 0.001923
0.365936 0.000000 0.022217
0.634918 0.000000 0.064392
0.863007 0.134949 0.108643
0.000000 0.092529 0.014069
0.119781 0.124023 0.016724
0.393372 0.161621 0.032043
0.648041 0.211365 0.071167
0.868500 0.287079 0.121277
0.140320 0.358276 0.133514
0.239777 0.374573 0.148712
0.434662 0.424316 0.140259
0.653564 0.464417 0.170990
0.862518 0.507904 0.211731
0.359711 0.593262 0.295532
0.404968 0.606781 0.295929
0.527191 0.644684 0.284454
0.699860 0.676270 0.306122
0.881165 0.709564 0.342285
0.537384 0.806366 0.449402
0.562439 0.817749 0.445160
0.642548 0.843506 0.439850
0.773926 0.873047 0.444672
0.929535 0.899384 0.472351
0.000000 0.009491 0.092896
0.108002 0.006531 0.112396
0.388092 0.000000 0.154297
0.649353 0.000275 0.200317
0.874023 0.164825 0.246979
0.016479 0.129639 0.126282
0.154388 0.149963 0.144714
0.420166 0.177612 0.176392
0.665039 0.228271 0.216492
0.882721 0.302307 0.260040
0.178680 0.385712 0.237457
0.272278 0.397339 0.254639
0.453430 0.442688 0.262299
0.669800 0.480469 0.289581
0.876740 0.521698 0.325409
0.381195 0.613159 0.374451
0.426300 0.623108 0.380157
0.541382 0.658905 0.376617
0.710815 0.689819 0.395752
0.891113 0.722015 0.426117
0.553436 0.816803 0.508301
0.577850 0.826599 0.507050
0.653839 0.852020 0.503967
0.781769 0.882202 0.507538
0.936432 0.908600 0.531281
0.001312 0.081085 0.354492
0.182251 0.087219 0.365997
0.432587 0.071960 0.409485
0.672974 0.131195 0.449097
0.888489 0.242706 0.487701
0.094299 0.203033 0.373901
0.227936 0.216095 0.388824
0.454803 0.237976 0.428375
0.685303 0.284760 0.463531
0.897308 0.350983 0.497711
0.245453 0.449493 0.436310
0.330017 0.459045 0.446716
0.497070 0.485291 0.471313
0.715515 0.510742 0.493622
0.918793 0.545410 0.521179
0.419312 0.664093 0.524536
0.471069 0.666992 0.533569
0.583221 0.682404 0.555878
0.736755 0.720367 0.563477
0.921112 0.750183 0.581055
0.585449 0.851501 0.626373
0.616547 0.852997 0.633850
0.691132 0.866394 0.647644
0.802948 0.901703 0.648224
0.954315 0.931244 0.661652
0.205750 0.158295 0.577606
0.309296 0.164886 0.587952
0.502045 0.167816 0.626160
0.712250 0.227386 0.660095
0.911407 0.320801 0.694458
0.253571 0.277222 0.593231
0.341217 0.287201 0.604370
0.517487 0.304321 0.639801
0.720184 0.349457 0.671814
0.917206 0.411224 0.703552
0.355865 0.509247 0.632996
0.415100 0.516296 0.642517
0.555237 0.534149 0.667023
0.740631 0.554047 0.699463
0.935852 0.584595 0.725708
0.484802 0.714691 0.694794
0.526398 0.719452 0.700226
0.631805 0.733429 0.715729
0.775238 0.757599 0.736572
0.962006 0.778107 0.753906
0.625824 0.898499 0.767303
0.655182 0.900787 0.771912
0.734222 0.907898 0.786377
0.840851 0.927399 0.806702
0.981049 0.961304 0.814484
0.391083 0.239777 0.775085
0.448547 0.242249 0.787567
0.588654 0.258270 0.816528
0.766815 0.308350 0.848907
0.947876 0.391998 0.878143
0.413025 0.352112 0.789520
0.467072 0.358734 0.799316
0.598907 0.375885 0.826996
0.772064 0.412109 0.858215
0.951385 0.471039 0.885773
0.472717 0.566864 0.819122
0.515320 0.571167 0.827850
0.630157 0.586243 0.846252
0.786987 0.603027 0.878540
0.962250 0.633606 0.905212
0.570862 0.764618 0.862640
0.603333 0.768707 0.867676
0.691071 0.780457 0.882416
0.820801 0.797821 0.906036
0.984283 0.814423 0.933380
0.682983 0.944458 0.919556
0.707703 0.947418 0.922913
0.777710 0.956451 0.932953
0.884918 0.972046 0.950012
1.000000 0.995178 0.974304
