滤镜资源/Professional Luts Collection/Lutify.me Professional/Instant Films/Dumortierite.cube
# Created by: Lutify.me
# Copyright: (c) Copyright Lutify.me 2015
# Website: https://lutify.me
#LUT size
LUT_3D_SIZE 9
#LUT data points
0.000000 0.000000 0.000000
0.007965 0.000000 0.000397
0.077423 0.000000 0.001923
0.213684 0.000000 0.008179
0.365936 0.000000 0.022217
0.506836 0.000000 0.042542
0.634918 0.000000 0.064392
0.752899 0.022156 0.085754
0.863007 0.134949 0.108643
0.001221 0.009216 0.001862
0.013153 0.013733 0.001923
0.096313 0.018860 0.003021
0.230042 0.014008 0.009888
0.377350 0.003723 0.023834
0.514435 0.011383 0.043854
0.640106 0.058197 0.065369
0.756470 0.126495 0.087128
0.865540 0.191467 0.110748
0.000000 0.092529 0.014069
0.032043 0.099670 0.019318
0.119781 0.124023 0.016724
0.250885 0.144684 0.021454
0.393372 0.161621 0.032043
0.525848 0.182495 0.049866
0.648041 0.211365 0.071167
0.761719 0.247131 0.094788
0.868500 0.287079 0.121277
0.029419 0.226318 0.062073
0.083679 0.231934 0.069611
0.166351 0.249939 0.077179
0.280182 0.279297 0.067780
0.404999 0.301300 0.081177
0.528900 0.323303 0.093994
0.646973 0.346039 0.111816
0.758514 0.371063 0.133362
0.863464 0.399139 0.159332
0.140320 0.358276 0.133514
0.174591 0.362305 0.139618
0.239777 0.374573 0.148712
0.327698 0.403656 0.132965
0.434662 0.424316 0.140259
0.543732 0.443787 0.156555
0.653564 0.464417 0.170990
0.760468 0.485565 0.188751
0.862518 0.507904 0.211731
0.255859 0.480072 0.213409
0.277618 0.483002 0.217804
0.322540 0.493500 0.221771
0.388123 0.517548 0.209747
0.476929 0.538727 0.206696
0.573181 0.555328 0.221222
0.671234 0.572845 0.238647
0.770599 0.591797 0.254517
0.867981 0.611237 0.274567
0.359711 0.593262 0.295532
0.374725 0.595367 0.298767
0.404968 0.606781 0.295929
0.455597 0.625610 0.288116
0.527191 0.644684 0.284454
0.611664 0.661804 0.289093
0.699860 0.676270 0.306122
0.789978 0.692322 0.323853
0.881165 0.709564 0.342285
0.454285 0.699799 0.377289
0.463226 0.703918 0.375854
0.485260 0.714539 0.371063
0.525452 0.729218 0.366180
0.583466 0.745636 0.363403
0.655304 0.761871 0.364899
0.735260 0.776672 0.373413
0.817688 0.790009 0.390930
0.902039 0.804718 0.409760
0.537384 0.806366 0.449402
0.544281 0.809875 0.447968
0.562439 0.817749 0.445160
0.594940 0.829468 0.441986
0.642548 0.843506 0.439850
0.703308 0.858398 0.440247
0.773926 0.873047 0.444672
0.850525 0.886688 0.454895
0.929535 0.899384 0.472351
0.000641 0.000793 0.008850
0.011688 0.001129 0.011688
0.088806 0.000000 0.018768
0.223297 0.000000 0.033539
0.373199 0.000000 0.056641
0.512482 0.000000 0.080566
0.639618 0.000000 0.104218
0.756958 0.037567 0.127838
0.866638 0.142883 0.152039
0.002686 0.014496 0.014069
0.019165 0.018646 0.017517
0.107239 0.022095 0.024445
0.239044 0.017853 0.040588
0.384338 0.009216 0.062408
0.519928 0.019928 0.085144
0.644653 0.067657 0.107941
0.760468 0.133881 0.131287
0.869171 0.197479 0.155548
0.007660 0.101257 0.040955
0.045349 0.108215 0.048065
0.130432 0.130615 0.051819
0.259674 0.149780 0.063019
0.399963 0.166412 0.078918
0.531067 0.187378 0.097778
0.652466 0.216309 0.119141
0.765594 0.252014 0.142365
0.871948 0.291962 0.167603
0.049591 0.234344 0.097046
0.098053 0.239868 0.103790
0.176422 0.258179 0.110687
0.288116 0.285187 0.110565
0.411346 0.306610 0.124695
0.534119 0.328094 0.139038
0.651337 0.350647 0.156952
0.762329 0.375580 0.177826
0.866882 0.403503 0.202209
0.153351 0.365692 0.166321
0.185944 0.369659 0.171906
0.248596 0.382263 0.179749
0.334778 0.409760 0.170502
0.440369 0.429565 0.179871
0.548584 0.448761 0.195709
0.657745 0.469055 0.210480
0.764160 0.489929 0.227875
0.865784 0.512146 0.249695
0.264771 0.486755 0.242401
0.286102 0.489594 0.246552
0.329681 0.500305 0.250153
0.394135 0.523315 0.241669
0.481873 0.543823 0.241180
0.577454 0.560028 0.255554
0.675079 0.577362 0.272339
0.774017 0.596039 0.287872
0.871033 0.615265 0.307098
0.366394 0.599060 0.320496
0.381226 0.601166 0.323547
0.410645 0.612549 0.321259
0.460541 0.630768 0.315247
0.531433 0.649323 0.313171
0.615356 0.666077 0.318481
0.703217 0.680359 0.334808
0.792999 0.696259 0.351776
0.883942 0.713287 0.369476
0.459442 0.704773 0.397980
0.468201 0.708893 0.396667
0.489807 0.719238 0.392670
0.529510 0.733612 0.388641
0.587036 0.749695 0.386688
0.658417 0.765625 0.388763
0.738068 0.780212 0.397186
0.820251 0.793396 0.413971
0.904449 0.807953 0.431946
0.541229 0.810394 0.466492
0.548126 0.813812 0.465210
0.566040 0.821564 0.462708
0.598297 0.833069 0.459991
0.645508 0.846924 0.458344
0.705963 0.861603 0.459106
0.776306 0.876007 0.463654
0.852661 0.889557 0.473663
0.931580 0.902130 0.490479
0.000000 0.009491 0.092896
0.018433 0.011078 0.096405
0.108002 0.006531 0.112396
0.241547 0.000000 0.132080
0.388092 0.000000 0.154297
0.524200 0.000000 0.177216
0.649353 0.000275 0.200317
0.765350 0.079346 0.223572
0.874023 0.164825 0.246979
0.000122 0.033783 0.101807
0.032867 0.038483 0.106201
0.125153 0.041779 0.122070
0.255951 0.039886 0.140747
0.398163 0.035461 0.161743
0.531006 0.051910 0.183472
0.654022 0.096771 0.205597
0.768616 0.155212 0.228088
0.876404 0.214722 0.251099
0.016479 0.129639 0.126282
0.066864 0.135498 0.131744
0.154388 0.149963 0.144714
0.286011 0.162415 0.158447
0.420166 0.177612 0.176392
0.546417 0.199158 0.196014
0.665039 0.228271 0.216492
0.776794 0.263428 0.237762
0.882721 0.302307 0.260040
0.078796 0.258881 0.174957
0.123230 0.263885 0.180450
0.204041 0.273987 0.195801
0.306427 0.300690 0.200562
0.429596 0.320648 0.211884
0.551514 0.339813 0.226440
0.667236 0.360870 0.244080
0.776550 0.384949 0.263855
0.879822 0.412354 0.285889
0.178680 0.385712 0.237457
0.209351 0.389404 0.242188
0.272278 0.397339 0.254639
0.351105 0.422791 0.253693
0.453430 0.442688 0.262299
0.561035 0.461304 0.275787
0.669800 0.480469 0.289581
0.775665 0.500275 0.305786
0.876740 0.521698 0.325409
0.284149 0.503479 0.305420
0.304565 0.506165 0.309021
0.348785 0.513336 0.316956
0.408844 0.534729 0.314270
0.493103 0.555237 0.315247
0.587341 0.571289 0.327942
0.684357 0.588196 0.342590
0.783081 0.606232 0.356445
0.879913 0.624756 0.373596
0.381195 0.613159 0.374451
0.395660 0.615173 0.377258
0.426300 0.623108 0.380157
0.473419 0.640381 0.377411
0.541382 0.658905 0.376617
0.623688 0.675720 0.381378
0.710815 0.689819 0.395752
0.800293 0.705414 0.410614
0.891113 0.722015 0.426117
0.471222 0.716339 0.442963
0.481537 0.718384 0.444580
0.503113 0.727020 0.443542
0.540833 0.740875 0.441345
0.595978 0.757080 0.440002
0.665619 0.773346 0.441650
0.744446 0.788116 0.448730
0.826263 0.801178 0.463623
0.910278 0.815582 0.479675
0.553436 0.816803 0.508301
0.560516 0.819580 0.508026
0.577850 0.826599 0.507050
0.608673 0.837860 0.505341
0.653839 0.852020 0.503967
0.712524 0.867249 0.504181
0.781769 0.882202 0.507538
0.857727 0.896057 0.515900
0.936432 0.908600 0.531281
0.000000 0.039429 0.226379
0.026733 0.041992 0.229370
0.138031 0.042480 0.241272
0.268005 0.022247 0.264038
0.406555 0.006226 0.285217
0.537903 0.011749 0.306671
0.660065 0.062164 0.327850
0.774017 0.133667 0.348877
0.880798 0.202393 0.369995
0.000000 0.071930 0.233002
0.052734 0.076111 0.236633
0.154144 0.081055 0.250275
0.280640 0.081268 0.271454
0.415375 0.086884 0.291992
0.543854 0.105194 0.312531
0.664124 0.142242 0.332855
0.776794 0.191528 0.353180
0.882843 0.245514 0.373688
0.040100 0.165680 0.250641
0.097260 0.170776 0.254913
0.186188 0.181183 0.268341
0.305054 0.190735 0.289368
0.434540 0.204712 0.307495
0.558014 0.225525 0.325317
0.674744 0.253479 0.343536
0.785339 0.286865 0.362061
0.890564 0.323792 0.380951
0.110382 0.294067 0.285706
0.153961 0.298370 0.290009
0.233551 0.308563 0.300385
0.333374 0.325165 0.315308
0.458282 0.338470 0.327393
0.576965 0.354675 0.342102
0.689911 0.374207 0.358124
0.797424 0.397217 0.375122
0.900146 0.423309 0.392975
0.204376 0.418427 0.333160
0.234619 0.421631 0.336914
0.299103 0.427765 0.346802
0.379242 0.439117 0.362762
0.472626 0.462585 0.367310
0.582428 0.479858 0.375916
0.692627 0.496094 0.387512
0.798615 0.513428 0.401642
0.899750 0.532928 0.418030
0.304443 0.532043 0.387207
0.324646 0.534454 0.390228
0.373291 0.537476 0.399902
0.436493 0.546539 0.412903
0.510071 0.569946 0.413544
0.601929 0.587860 0.420898
0.700195 0.604553 0.430603
0.800842 0.621094 0.440857
0.898956 0.637878 0.454620
0.397308 0.637756 0.443970
0.411804 0.639557 0.446411
0.449921 0.640167 0.456207
0.498779 0.648926 0.465179
0.558441 0.668762 0.465668
0.636047 0.688782 0.465973
0.722260 0.703735 0.476227
0.812592 0.719360 0.486847
0.904816 0.735260 0.498688
0.484955 0.736969 0.502563
0.498444 0.736298 0.506714
0.525665 0.738159 0.513550
0.563507 0.746979 0.518799
0.612793 0.763702 0.519073
0.677277 0.782562 0.518219
0.754120 0.799500 0.520966
0.835541 0.812988 0.532837
0.919952 0.827332 0.545776
0.569611 0.830292 0.564270
0.578491 0.830933 0.566498
0.598663 0.833771 0.570740
0.628723 0.842346 0.573486
0.669922 0.856537 0.573639
0.724121 0.873566 0.572632
0.790558 0.890656 0.572968
0.865692 0.905884 0.577820
0.944153 0.918579 0.590942
0.001312 0.081085 0.354492
0.072968 0.083282 0.357269
0.182251 0.087219 0.365997
0.303619 0.073425 0.389496
0.432587 0.071960 0.409485
0.555573 0.091949 0.429169
0.672974 0.131195 0.449097
0.783997 0.184021 0.468567
0.888489 0.242706 0.487701
0.028992 0.112701 0.359894
0.098694 0.116425 0.363098
0.197266 0.122955 0.373413
0.314758 0.121796 0.396027
0.440033 0.132141 0.415100
0.560699 0.154358 0.434235
0.676514 0.187714 0.453491
0.786407 0.231171 0.472321
0.890259 0.280182 0.490906
0.094299 0.203033 0.373901
0.143433 0.207458 0.377472
0.227936 0.216095 0.388824
0.336090 0.224030 0.409760
0.454803 0.237976 0.428375
0.571960 0.258545 0.446075
0.685303 0.284760 0.463531
0.793762 0.315948 0.480652
0.897308 0.350983 0.497711
0.165161 0.328186 0.399200
0.202118 0.331970 0.402771
0.272217 0.340698 0.412628
0.364349 0.352814 0.428986
0.473938 0.363190 0.448090
0.589355 0.377075 0.463043
0.700867 0.395203 0.477386
0.807465 0.416992 0.492035
0.909485 0.442169 0.507294
0.245453 0.449493 0.436310
0.272797 0.452301 0.439423
0.330017 0.459045 0.446716
0.407867 0.469910 0.458374
0.497070 0.485291 0.471313
0.608215 0.497070 0.481354
0.715515 0.510742 0.493622
0.818939 0.526886 0.506958
0.918793 0.545410 0.521179
0.332947 0.560974 0.478607
0.352203 0.563110 0.481140
0.397827 0.567169 0.487579
0.463593 0.573456 0.499146
0.534637 0.586609 0.512634
0.620087 0.607147 0.516846
0.719849 0.622437 0.523804
0.821075 0.636505 0.533417
0.919189 0.651428 0.545837
0.419312 0.664093 0.524536
0.433685 0.665619 0.526672
0.471069 0.666992 0.533569
0.523956 0.671082 0.544708
0.583221 0.682404 0.555878
0.652496 0.704254 0.556580
0.736755 0.720367 0.563477
0.827850 0.735565 0.571228
0.921112 0.750183 0.581055
0.503510 0.760406 0.573669
0.516541 0.760254 0.576569
0.544769 0.761322 0.582825
0.586761 0.764832 0.592468
0.635986 0.775269 0.600891
0.693909 0.794525 0.601929
0.766937 0.813477 0.602295
0.847534 0.827423 0.611511
0.932220 0.841644 0.622009
0.585449 0.851501 0.626373
0.594788 0.851776 0.628632
0.616547 0.852997 0.633850
0.650177 0.856537 0.641602
0.691132 0.866394 0.647644
0.740692 0.883118 0.648834
0.802948 0.901703 0.648224
0.876312 0.918335 0.650513
0.954315 0.931244 0.661652
0.100189 0.119995 0.470428
0.152161 0.122284 0.473083
0.241150 0.126953 0.480713
0.348053 0.119812 0.502228
0.464996 0.120514 0.522858
0.579498 0.145447 0.540222
0.690186 0.183319 0.558655
0.796844 0.229858 0.577209
0.898407 0.282471 0.595245
0.125214 0.152618 0.475311
0.171051 0.155945 0.478210
0.253845 0.162384 0.487152
0.357239 0.162933 0.507965
0.471313 0.171021 0.527740
0.583832 0.196045 0.544678
0.693176 0.229919 0.562561
0.798950 0.270264 0.580597
0.899963 0.315582 0.598145
0.170166 0.240143 0.487488
0.207977 0.243988 0.490570
0.280853 0.251587 0.500183
0.375854 0.259216 0.518768
0.483582 0.269653 0.538788
0.592682 0.291382 0.554993
0.700073 0.317596 0.571808
0.804840 0.347229 0.588501
0.905731 0.380615 0.604858
0.228882 0.361755 0.507568
0.259186 0.365051 0.510529
0.318512 0.371613 0.520416
0.402161 0.382019 0.534332
0.499756 0.390869 0.554382
0.605255 0.405060 0.570374
0.711731 0.421875 0.585663
0.816010 0.441986 0.600311
0.916351 0.466034 0.614746
0.299438 0.479462 0.536438
0.322388 0.481964 0.539001
0.370911 0.488068 0.545776
0.439880 0.497650 0.557220
0.523254 0.509003 0.572540
0.622375 0.517944 0.589081
0.727264 0.529755 0.601715
0.829529 0.544800 0.613922
0.928467 0.562653 0.626617
0.371979 0.588318 0.571564
0.389435 0.590240 0.573730
0.429352 0.594879 0.578888
0.489014 0.602661 0.587433
0.561432 0.613281 0.598999
0.642578 0.627808 0.610107
0.743530 0.638428 0.618713
0.842346 0.650299 0.629425
0.939026 0.664062 0.641113
0.448212 0.689880 0.609528
0.462067 0.691223 0.611328
0.495483 0.694092 0.615936
0.546326 0.699188 0.623871
0.609406 0.706116 0.635803
0.674438 0.720306 0.647064
0.754089 0.738586 0.651154
0.846558 0.752441 0.657104
0.940552 0.765106 0.666321
0.526611 0.784637 0.650482
0.538330 0.785187 0.652344
0.565369 0.786957 0.656860
0.607544 0.790283 0.664703
0.660614 0.795563 0.676117
0.716797 0.808075 0.685944
0.782806 0.828766 0.686493
0.861938 0.843597 0.693146
0.947113 0.857452 0.701508
0.603912 0.874878 0.694824
0.613068 0.875275 0.696594
0.634827 0.876495 0.700897
0.669556 0.878967 0.708282
0.714050 0.883698 0.718384
0.762848 0.895142 0.726410
0.819305 0.914093 0.727600
0.889374 0.932434 0.728027
0.966675 0.945679 0.737213
0.205750 0.158295 0.577606
0.240387 0.160706 0.580078
0.309296 0.164886 0.587952
0.399048 0.162506 0.606781
0.502045 0.167816 0.626160
0.608551 0.188507 0.643982
0.712250 0.227386 0.660095
0.813477 0.272064 0.677338
0.911407 0.320801 0.694458
0.221558 0.192108 0.582245
0.253998 0.195465 0.584778
0.319214 0.200470 0.593719
0.406342 0.202911 0.611877
0.507202 0.212250 0.630585
0.612122 0.233307 0.647888
0.714752 0.268372 0.663635
0.815277 0.307770 0.680450
0.912811 0.350525 0.697113
0.253571 0.277222 0.593231
0.282288 0.280640 0.595886
0.341217 0.287201 0.604370
0.421936 0.294189 0.620850
0.517487 0.304321 0.639801
0.619385 0.322144 0.656830
0.720184 0.349457 0.671814
0.819855 0.378815 0.687744
0.917206 0.411224 0.703552
0.299103 0.394745 0.609833
0.323151 0.397614 0.612305
0.371185 0.402191 0.622223
0.445160 0.411743 0.633667
0.532318 0.420746 0.651642
0.629761 0.431427 0.669800
0.728729 0.449707 0.684143
0.828003 0.469452 0.699066
0.925262 0.492645 0.713501
0.355865 0.509247 0.632996
0.375092 0.511444 0.635162
0.415100 0.516296 0.642517
0.476959 0.523895 0.653809
0.555237 0.534149 0.667023
0.644409 0.541870 0.685486
0.740631 0.554047 0.699463
0.839081 0.567688 0.712952
0.935852 0.584595 0.725708
0.419495 0.615112 0.661926
0.434692 0.616882 0.663818
0.469208 0.621246 0.668671
0.522430 0.628510 0.676727
0.588745 0.638275 0.688141
0.665436 0.648712 0.702698
0.757172 0.656586 0.717102
0.854065 0.666992 0.728119
0.949524 0.680084 0.739014
0.484802 0.714691 0.694794
0.497192 0.716064 0.696381
0.526398 0.719452 0.700226
0.572510 0.725250 0.706696
0.631805 0.733429 0.715729
0.699890 0.743622 0.727112
0.775238 0.757599 0.736572
0.868896 0.767456 0.744202
0.962006 0.778107 0.753906
0.554474 0.808685 0.729675
0.564911 0.809631 0.731049
0.589569 0.812042 0.734436
0.629364 0.816223 0.740356
0.681671 0.821991 0.749023
0.742096 0.829193 0.761108
0.802917 0.844299 0.770386
0.878784 0.860931 0.774536
0.965271 0.873718 0.781311
0.625824 0.898499 0.767303
0.634399 0.899139 0.768616
0.655182 0.900787 0.771912
0.689087 0.903656 0.777710
0.734222 0.907898 0.786377
0.786865 0.913910 0.797943
0.840851 0.927399 0.806702
0.905029 0.947388 0.807129
0.981049 0.961304 0.814484
0.303223 0.197632 0.678467
0.328033 0.200592 0.680603
0.379547 0.202606 0.689728
0.453857 0.204407 0.705597
0.543640 0.213165 0.723145
0.640533 0.233154 0.740479
0.738464 0.266754 0.756622
0.834045 0.311096 0.771851
0.927856 0.357330 0.787750
0.313873 0.232361 0.682831
0.337616 0.235565 0.684998
0.386871 0.238159 0.694763
0.459534 0.242737 0.710114
0.547821 0.253510 0.727173
0.643433 0.273254 0.744080
0.740509 0.303894 0.759796
0.835541 0.343353 0.774689
0.929108 0.384430 0.790192
0.336121 0.314636 0.692932
0.357269 0.317200 0.695770
0.403992 0.322723 0.703430
0.472198 0.329407 0.717865
0.556366 0.339691 0.734985
0.649384 0.355896 0.751801
0.744934 0.379456 0.767059
0.839172 0.409546 0.781219
0.932404 0.441650 0.796112
0.370026 0.427521 0.706848
0.387238 0.429047 0.710571
0.427887 0.433014 0.718750
0.492249 0.441925 0.728271
0.569977 0.450745 0.744232
0.658325 0.460724 0.762054
0.751953 0.475464 0.777832
0.845154 0.496887 0.791351
0.938171 0.520203 0.805481
0.415100 0.538574 0.726044
0.429260 0.540039 0.729248
0.463623 0.543732 0.736267
0.519165 0.550140 0.746399
0.591095 0.559814 0.757721
0.672211 0.567932 0.774811
0.762146 0.577118 0.791290
0.853821 0.592316 0.804230
0.946381 0.609131 0.817413
0.468872 0.642181 0.750275
0.480988 0.643677 0.752502
0.510773 0.647430 0.757446
0.558350 0.653595 0.765594
0.620056 0.661652 0.776917
0.693420 0.671387 0.789642
0.776276 0.678192 0.806702
0.865906 0.688843 0.819305
0.957947 0.701141 0.831299
0.527557 0.739349 0.778564
0.538391 0.740662 0.780029
0.564423 0.743896 0.783600
0.606140 0.749420 0.789642
0.660583 0.757233 0.798218
0.723877 0.766937 0.809448
0.795715 0.776459 0.823425
0.882538 0.783691 0.836060
0.973724 0.793488 0.846069
0.587982 0.832153 0.809570
0.597198 0.833221 0.810791
0.619446 0.835815 0.813751
0.655823 0.840363 0.818848
0.704498 0.846832 0.826050
0.762573 0.855194 0.835266
0.827393 0.865021 0.846558
0.899109 0.878876 0.854675
0.987915 0.888336 0.862030
0.651855 0.921692 0.842377
0.659790 0.922485 0.843445
0.678955 0.924500 0.846100
0.710846 0.927948 0.850739
0.754272 0.932892 0.857513
0.806976 0.939148 0.866699
0.865509 0.946594 0.878906
0.924072 0.962616 0.886627
0.997284 0.977875 0.892151
0.391083 0.239777 0.775085
0.408722 0.241058 0.778290
0.448547 0.242249 0.787567
0.510651 0.247009 0.800873
0.588654 0.258270 0.816528
0.675751 0.278320 0.832947
0.766815 0.308350 0.848907
0.858032 0.347595 0.863861
0.947876 0.391998 0.878143
0.398193 0.274109 0.779205
0.414917 0.274963 0.783051
0.453918 0.277313 0.791992
0.514954 0.283417 0.804932
0.591827 0.295288 0.820221
0.678070 0.314545 0.836212
0.768463 0.342041 0.851807
0.859283 0.377075 0.866455
0.948853 0.416992 0.880432
0.413025 0.352112 0.789520
0.429596 0.354462 0.791901
0.467072 0.358734 0.799316
0.525024 0.365387 0.811768
0.598907 0.375885 0.826996
0.682953 0.391266 0.842865
0.772064 0.412109 0.858215
0.862244 0.438965 0.872345
0.951385 0.471039 0.885773
0.437073 0.458923 0.803040
0.451385 0.460236 0.806091
0.486847 0.464813 0.811615
0.542145 0.472809 0.820099
0.611237 0.481232 0.834320
0.691071 0.491119 0.850922
0.777863 0.504181 0.867157
0.867218 0.522552 0.881470
0.955750 0.546936 0.894226
0.472717 0.566864 0.819122
0.485016 0.568024 0.821899
0.515320 0.571167 0.827850
0.564972 0.577057 0.836395
0.630157 0.586243 0.846252
0.704285 0.594452 0.861725
0.786987 0.603027 0.878540
0.874634 0.615326 0.893097
0.962250 0.633606 0.905212
0.518311 0.668854 0.838989
0.529022 0.670105 0.841034
0.555298 0.673187 0.845825
0.598114 0.678314 0.853638
0.655457 0.685333 0.864044
0.724396 0.694702 0.875214
0.800629 0.701996 0.891479
0.885193 0.710114 0.906738
0.971527 0.723938 0.918365
0.570862 0.764618 0.862640
0.580353 0.765808 0.864075
0.603333 0.768707 0.867676
0.640900 0.773651 0.873718
0.691071 0.780457 0.882416
0.751282 0.788605 0.893677
0.820801 0.797821 0.906036
0.899506 0.803894 0.922058
0.984283 0.814423 0.933380
0.626923 0.855591 0.889740
0.635254 0.856628 0.890839
0.655457 0.859131 0.893585
0.688782 0.863495 0.898376
0.733887 0.869751 0.905182
0.788147 0.877899 0.914001
0.849152 0.887543 0.925018
0.918182 0.896454 0.938690
0.999847 0.904144 0.950012
0.682983 0.944458 0.919556
0.690186 0.945343 0.920532
0.707703 0.947418 0.922913
0.737152 0.951111 0.927002
0.777710 0.956451 0.932953
0.827606 0.963440 0.940643
0.884918 0.972046 0.950012
0.947998 0.981659 0.961487
1.000000 0.995178 0.974304
