滤镜资源/Professional Luts Collection/Lutify.me Professional/Instant Films/Dumortierite.cube
# Created by: Lutify.me
# Copyright: (c) Copyright Lutify.me 2015
# Website: https://lutify.me
#LUT size
LUT_3D_SIZE 33
#LUT data points
0.000000 0.000000 0.000000
0.000000 0.001099 0.001160
0.000854 0.000427 0.001221
0.003510 0.000061 0.000488
0.007965 0.000000 0.000397
0.015228 0.000000 0.000671
0.028442 0.000000 0.000854
0.050201 0.000000 0.001404
0.077423 0.000000 0.001923
0.108093 0.000000 0.002991
0.141388 0.000000 0.004456
0.176697 0.000000 0.006104
0.213684 0.000000 0.008179
0.251617 0.000000 0.010895
0.290009 0.000000 0.014069
0.328339 0.000000 0.017883
0.365936 0.000000 0.022217
0.402557 0.000000 0.026703
0.438202 0.000000 0.031647
0.472931 0.000000 0.037018
0.506836 0.000000 0.042542
0.539948 0.000000 0.048096
0.572296 0.000000 0.053497
0.603973 0.000000 0.058868
0.634918 0.000000 0.064392
0.665283 0.000000 0.069763
0.695068 0.000000 0.075165
0.724274 0.002747 0.080444
0.752899 0.022156 0.085754
0.781097 0.057617 0.091370
0.808807 0.087006 0.096863
0.836121 0.112396 0.102753
0.863007 0.134949 0.108643
0.000000 0.000793 0.000397
0.000793 0.000793 0.000397
0.002258 0.001221 0.000397
0.004272 0.001190 0.000061
0.008545 0.001190 0.000366
0.017273 0.001129 0.000458
0.031830 0.000793 0.001068
0.053894 0.000153 0.001465
0.080994 0.000000 0.002258
0.111664 0.000000 0.003387
0.144775 0.000000 0.004761
0.179962 0.000000 0.006409
0.216675 0.000000 0.008667
0.254333 0.000000 0.011597
0.292542 0.000000 0.014832
0.330658 0.000000 0.018433
0.367981 0.000000 0.022491
0.404388 0.000000 0.027008
0.439850 0.000000 0.032043
0.474426 0.000000 0.037415
0.508179 0.000000 0.042938
0.541168 0.000000 0.048492
0.573395 0.000000 0.053833
0.604980 0.000000 0.059204
0.635895 0.000000 0.064636
0.666138 0.000000 0.069946
0.695801 0.002136 0.075348
0.724945 0.016388 0.080536
0.753540 0.048370 0.086182
0.781647 0.077759 0.091644
0.809326 0.102661 0.097290
0.836578 0.125214 0.102936
0.863434 0.146118 0.109009
0.000366 0.001587 0.000732
0.001495 0.001953 0.000763
0.002686 0.002350 0.000427
0.004761 0.003082 0.000427
0.010071 0.003174 0.000732
0.019012 0.003174 0.001068
0.034943 0.003143 0.001160
0.057770 0.002686 0.001617
0.084991 0.001556 0.002350
0.115448 0.000305 0.003418
0.148438 0.000000 0.004883
0.183350 0.000000 0.006744
0.219879 0.000000 0.008972
0.257355 0.000000 0.011963
0.295319 0.000000 0.015350
0.333130 0.000000 0.019012
0.370239 0.000000 0.023041
0.406433 0.000000 0.027466
0.441742 0.000000 0.032410
0.476135 0.000000 0.037781
0.509705 0.000000 0.043243
0.542542 0.000000 0.048737
0.574646 0.000000 0.054108
0.606110 0.000000 0.059387
0.636902 0.000122 0.064758
0.667084 0.003143 0.070251
0.696655 0.017456 0.075470
0.725708 0.045044 0.080811
0.754272 0.072296 0.086426
0.782288 0.096527 0.091858
0.809937 0.118134 0.097504
0.837128 0.138458 0.103302
0.863953 0.157928 0.109222
0.001129 0.003906 0.000854
0.002258 0.004242 0.001160
0.003143 0.005005 0.001160
0.005524 0.005859 0.000793
0.010956 0.006622 0.001129
0.021942 0.007416 0.001190
0.039612 0.007721 0.001282
0.063141 0.007782 0.001862
0.090332 0.007355 0.002686
0.120544 0.005798 0.003967
0.153442 0.003540 0.005310
0.188232 0.001129 0.007111
0.224396 0.000214 0.009613
0.261536 0.000031 0.012451
0.299194 0.000000 0.015625
0.336639 0.000000 0.019257
0.373352 0.000000 0.023407
0.409241 0.000000 0.027954
0.444244 0.000000 0.032898
0.478394 0.000000 0.038147
0.511780 0.000000 0.043518
0.544434 0.000000 0.048950
0.576355 0.000488 0.054504
0.607635 0.003326 0.059845
0.638306 0.013092 0.065002
0.668335 0.032562 0.070496
0.697815 0.054932 0.075897
0.726807 0.077637 0.081207
0.755219 0.098663 0.086639
0.783173 0.118317 0.092255
0.810730 0.137207 0.098083
0.837860 0.155487 0.103851
0.864624 0.173035 0.109894
0.001221 0.009216 0.001862
0.002350 0.009338 0.001953
0.004242 0.010101 0.001953
0.006989 0.011658 0.002319
0.013153 0.013733 0.001923
0.024292 0.015564 0.001892
0.044067 0.017090 0.001648
0.068542 0.018188 0.002228
0.096313 0.018860 0.003021
0.126953 0.018707 0.004150
0.159698 0.017700 0.005707
0.194122 0.016296 0.007660
0.230042 0.014008 0.009888
0.266815 0.011383 0.012665
0.304016 0.008362 0.016083
0.341064 0.005676 0.019806
0.377350 0.003723 0.023834
0.412842 0.002808 0.028320
0.447479 0.003632 0.033203
0.481323 0.006378 0.038391
0.514435 0.011383 0.043854
0.546814 0.019196 0.049286
0.578522 0.029785 0.054718
0.609650 0.042999 0.060120
0.640106 0.058197 0.065369
0.669983 0.075134 0.070679
0.699310 0.092590 0.076050
0.728180 0.109711 0.081635
0.756470 0.126495 0.087128
0.784332 0.143188 0.092834
0.811798 0.159576 0.098572
0.838898 0.175629 0.104462
0.865540 0.191467 0.110748
0.001190 0.019012 0.003082
0.002747 0.020020 0.003448
0.005096 0.020813 0.003784
0.008942 0.022400 0.004211
0.015289 0.025146 0.004547
0.027435 0.029419 0.003784
0.047546 0.033081 0.003754
0.073181 0.036407 0.003510
0.101776 0.039001 0.003906
0.132965 0.040985 0.004913
0.166168 0.042023 0.006104
0.200867 0.042389 0.007874
0.236511 0.042358 0.010284
0.273041 0.042023 0.013031
0.309814 0.041504 0.016327
0.346283 0.041443 0.020050
0.382080 0.042023 0.024078
0.417084 0.043671 0.028564
0.451324 0.046814 0.033569
0.484833 0.051819 0.038788
0.517578 0.058472 0.044128
0.549683 0.066772 0.049561
0.581177 0.076691 0.054871
0.612030 0.088104 0.060394
0.642273 0.100616 0.065826
0.671967 0.113678 0.071228
0.701111 0.127350 0.076599
0.729828 0.141296 0.082153
0.757996 0.155426 0.087738
0.785767 0.169769 0.093475
0.813110 0.184113 0.099457
0.840088 0.198212 0.105499
0.866669 0.212433 0.111786
0.000488 0.037415 0.005310
0.003143 0.038818 0.005707
0.006409 0.039978 0.006409
0.011536 0.041962 0.007172
0.019714 0.044586 0.007965
0.032349 0.049713 0.008179
0.052673 0.056244 0.006165
0.077637 0.060791 0.006836
0.106445 0.065308 0.006805
0.137909 0.068909 0.007141
0.171173 0.072021 0.008087
0.206177 0.074341 0.009521
0.242249 0.076172 0.011292
0.278992 0.077698 0.013641
0.315796 0.079376 0.016510
0.351990 0.081329 0.019989
0.387390 0.083771 0.023956
0.421936 0.087097 0.028473
0.455688 0.091400 0.033508
0.488800 0.096741 0.038818
0.521210 0.103271 0.044159
0.552979 0.110718 0.049622
0.584167 0.119202 0.055084
0.614777 0.128632 0.060638
0.644775 0.138824 0.066132
0.674286 0.149658 0.071625
0.703247 0.161163 0.077148
0.731781 0.173035 0.082825
0.759796 0.185303 0.088623
0.787415 0.197632 0.094452
0.814606 0.210205 0.100586
0.841492 0.222839 0.106812
0.868011 0.235443 0.113037
0.000061 0.063141 0.008728
0.003387 0.064301 0.009216
0.007751 0.065643 0.010254
0.014496 0.067902 0.011200
0.025024 0.070465 0.012939
0.040527 0.074402 0.014343
0.059479 0.081787 0.012360
0.084320 0.088501 0.010590
0.111908 0.093384 0.011841
0.142670 0.098572 0.012115
0.175873 0.103088 0.012543
0.210663 0.107086 0.013611
0.246613 0.110474 0.014984
0.283112 0.113678 0.017212
0.319733 0.116760 0.019684
0.355865 0.119934 0.022583
0.391205 0.123444 0.026062
0.425751 0.127350 0.030060
0.459503 0.131927 0.034576
0.492493 0.137207 0.039429
0.524780 0.143341 0.044586
0.556335 0.150146 0.049927
0.587250 0.157745 0.055420
0.617615 0.166077 0.061066
0.647400 0.175018 0.066711
0.676666 0.184448 0.072357
0.705475 0.194489 0.078064
0.733826 0.204834 0.084015
0.761688 0.215515 0.089935
0.789154 0.226379 0.095947
0.816223 0.237488 0.102325
0.842926 0.248718 0.108673
0.869293 0.260040 0.115265
0.000000 0.092529 0.014069
0.004150 0.093658 0.014771
0.009521 0.095062 0.015717
0.018829 0.097015 0.017151
0.032043 0.099670 0.019318
0.049316 0.103027 0.021942
0.069061 0.109131 0.021637
0.092255 0.117279 0.018036
0.119781 0.124023 0.016724
0.149078 0.129211 0.018921
0.181366 0.134766 0.019440
0.215485 0.139923 0.020355
0.250885 0.144684 0.021454
0.286865 0.148987 0.023254
0.322876 0.153168 0.025757
0.358490 0.157318 0.028656
0.393372 0.161621 0.032043
0.427521 0.166199 0.035919
0.460999 0.171143 0.040283
0.493744 0.176605 0.044983
0.525848 0.182495 0.049866
0.557312 0.188904 0.054932
0.588104 0.195862 0.060181
0.618378 0.203369 0.065613
0.648041 0.211365 0.071167
0.677185 0.219788 0.076874
0.705841 0.228546 0.082642
0.734039 0.237701 0.088715
0.761719 0.247131 0.094788
0.789032 0.256805 0.101074
0.815948 0.266693 0.107605
0.842499 0.276703 0.114258
0.868500 0.287079 0.121277
0.000244 0.124268 0.021881
0.006409 0.125366 0.022736
0.013458 0.126740 0.023865
0.025085 0.128601 0.025452
0.040894 0.131104 0.028259
0.059998 0.134155 0.031525
0.080322 0.138763 0.034363
0.102142 0.147034 0.030396
0.128571 0.155212 0.025879
0.157959 0.161804 0.025391
0.188477 0.167175 0.028992
0.221436 0.172913 0.030060
0.255859 0.178467 0.031189
0.290985 0.183746 0.032837
0.326202 0.188751 0.035156
0.361053 0.193665 0.037964
0.395325 0.198547 0.041260
0.428894 0.203613 0.045105
0.461884 0.208832 0.049194
0.494293 0.214386 0.053558
0.526062 0.220245 0.058289
0.557251 0.226379 0.063202
0.587860 0.232910 0.068237
0.617950 0.239807 0.073486
0.647491 0.247009 0.078918
0.676514 0.254608 0.084595
0.705048 0.262451 0.090363
0.733154 0.270599 0.096344
0.760773 0.279022 0.102478
0.787994 0.287689 0.108765
0.814758 0.296539 0.115265
0.841248 0.305603 0.122040
0.867065 0.315063 0.129333
0.003754 0.157623 0.032501
0.011566 0.158691 0.033844
0.020630 0.160004 0.035309
0.034973 0.161774 0.037201
0.052429 0.164093 0.040161
0.071991 0.167023 0.043732
0.093323 0.170685 0.048248
0.114471 0.177734 0.046753
0.139008 0.186676 0.041229
0.167328 0.194611 0.036926
0.198029 0.200958 0.037323
0.229187 0.206238 0.042145
0.262085 0.212097 0.043945
0.296051 0.217896 0.045715
0.330231 0.223480 0.047699
0.364166 0.228882 0.050110
0.397614 0.234253 0.053070
0.430603 0.239563 0.056335
0.463074 0.244934 0.060150
0.495056 0.250488 0.064178
0.526459 0.256226 0.068573
0.557343 0.262146 0.073242
0.587708 0.268311 0.078156
0.617554 0.274719 0.083252
0.646942 0.281342 0.088562
0.675812 0.288208 0.094086
0.704224 0.295380 0.099731
0.732208 0.302795 0.105560
0.759735 0.310364 0.111694
0.786896 0.318207 0.117859
0.813629 0.326263 0.124298
0.840057 0.334534 0.130890
0.865662 0.343201 0.138336
0.012848 0.191864 0.046265
0.022217 0.192902 0.047638
0.033539 0.194092 0.049316
0.048889 0.195740 0.051392
0.066772 0.197937 0.054199
0.086334 0.200684 0.057861
0.107239 0.203979 0.062286
0.128845 0.209381 0.064209
0.151611 0.218262 0.058960
0.178284 0.226990 0.053406
0.207916 0.234436 0.050171
0.239044 0.240356 0.051788
0.270203 0.245636 0.057068
0.302460 0.251465 0.059784
0.335327 0.257263 0.061920
0.368195 0.262909 0.063965
0.400757 0.268463 0.066559
0.432983 0.273956 0.069519
0.464874 0.279388 0.072815
0.496338 0.284912 0.076538
0.527344 0.290497 0.080536
0.557892 0.296204 0.084900
0.587952 0.302032 0.089539
0.617584 0.308075 0.094452
0.646729 0.314270 0.099548
0.675446 0.320648 0.104858
0.703674 0.327240 0.110382
0.731537 0.334076 0.116028
0.758972 0.341003 0.121979
0.786011 0.348236 0.128021
0.812714 0.355621 0.134308
0.839081 0.363190 0.140747
0.864471 0.371216 0.148407
0.029419 0.226318 0.062073
0.040344 0.227295 0.063232
0.051941 0.228394 0.064850
0.066467 0.229950 0.066986
0.083679 0.231934 0.069611
0.102600 0.234528 0.073151
0.123199 0.237549 0.077332
0.144714 0.241730 0.081085
0.166351 0.249939 0.077179
0.191101 0.258911 0.071381
0.219299 0.266968 0.066711
0.249481 0.273743 0.064911
0.280182 0.279297 0.067780
0.310699 0.284424 0.073242
0.341888 0.290039 0.076447
0.373444 0.295715 0.078766
0.404999 0.301300 0.081177
0.436371 0.306854 0.083923
0.467529 0.312347 0.086914
0.498413 0.317780 0.090363
0.528900 0.323303 0.093994
0.559052 0.328796 0.097992
0.588776 0.334412 0.102356
0.618073 0.340179 0.106934
0.646973 0.346039 0.111816
0.675415 0.352051 0.116882
0.703491 0.358246 0.122162
0.731201 0.364594 0.127655
0.758514 0.371063 0.133362
0.785431 0.377777 0.139252
0.812042 0.384644 0.145355
0.838318 0.391663 0.151611
0.863464 0.399139 0.159332
0.053833 0.260345 0.078766
0.063965 0.261230 0.079895
0.074402 0.262238 0.081390
0.087555 0.263702 0.083344
0.103394 0.265533 0.085938
0.121277 0.267853 0.089294
0.141083 0.270752 0.093292
0.162018 0.274261 0.097504
0.182861 0.281464 0.095306
0.205933 0.290344 0.089478
0.232269 0.298615 0.084412
0.260986 0.305847 0.081268
0.290771 0.312012 0.080841
0.320557 0.317169 0.084656
0.350098 0.322083 0.090271
0.380127 0.327484 0.093719
0.410461 0.333008 0.096497
0.440887 0.338501 0.099182
0.471222 0.343933 0.102020
0.501343 0.349396 0.105255
0.531281 0.354797 0.108643
0.560913 0.360199 0.112274
0.590179 0.365662 0.116364
0.619110 0.371216 0.120636
0.647705 0.376862 0.125244
0.675903 0.382568 0.130096
0.703735 0.388428 0.135071
0.731232 0.394440 0.140350
0.758362 0.400543 0.145844
0.785156 0.406799 0.151520
0.811615 0.413269 0.157410
0.837799 0.419830 0.163483
0.862732 0.426819 0.171112
0.081940 0.293701 0.096252
0.090363 0.294525 0.097443
0.099426 0.295441 0.098816
0.111115 0.296783 0.100647
0.125519 0.298492 0.103149
0.142212 0.300629 0.106262
0.160919 0.303253 0.110046
0.180939 0.306427 0.114166
0.200745 0.312866 0.113098
0.222321 0.321289 0.107880
0.246887 0.329529 0.102600
0.273773 0.336945 0.098785
0.302124 0.343475 0.097046
0.331055 0.349121 0.097992
0.359741 0.353912 0.102509
0.388306 0.358643 0.108002
0.417297 0.363831 0.111816
0.446533 0.369202 0.114929
0.475922 0.374603 0.117767
0.505280 0.379913 0.120850
0.534485 0.385284 0.124115
0.563507 0.390594 0.127533
0.592316 0.395966 0.131317
0.620819 0.401367 0.135406
0.649017 0.406799 0.139679
0.676910 0.412292 0.144257
0.704437 0.417908 0.149017
0.731720 0.423645 0.154083
0.758636 0.429443 0.159363
0.785217 0.435394 0.164764
0.811554 0.441467 0.170410
0.837585 0.447662 0.176300
0.862335 0.454163 0.183868
0.110962 0.326324 0.114594
0.118134 0.327118 0.115753
0.126099 0.327942 0.116943
0.136414 0.329163 0.118774
0.149445 0.330719 0.121094
0.164795 0.332733 0.123993
0.182159 0.335144 0.127533
0.201141 0.338013 0.131470
0.219910 0.343903 0.130859
0.239990 0.351898 0.126190
0.262726 0.359894 0.121155
0.287750 0.367279 0.117096
0.314453 0.373932 0.114624
0.342102 0.379913 0.114044
0.370087 0.385101 0.116089
0.397766 0.389618 0.121094
0.425385 0.394165 0.126465
0.453461 0.399200 0.130493
0.481750 0.404419 0.133850
0.510193 0.409668 0.136932
0.538635 0.414886 0.140137
0.566986 0.420135 0.143524
0.595184 0.425415 0.147095
0.623199 0.430664 0.150940
0.650940 0.435974 0.155029
0.678436 0.441315 0.159332
0.705688 0.446716 0.163849
0.732635 0.452240 0.168671
0.759308 0.457794 0.173706
0.785706 0.463470 0.178833
0.811859 0.469238 0.184204
0.837738 0.475098 0.189911
0.862244 0.481232 0.197479
0.140320 0.358276 0.133514
0.146698 0.358978 0.134644
0.153534 0.359772 0.135681
0.162842 0.360870 0.137451
0.174591 0.362305 0.139618
0.188660 0.364166 0.142334
0.204620 0.366425 0.145599
0.222290 0.369080 0.149292
0.239777 0.374573 0.148712
0.258453 0.382141 0.144409
0.279510 0.389832 0.139709
0.302734 0.397003 0.135742
0.327698 0.403656 0.132965
0.353882 0.409729 0.131622
0.380859 0.415192 0.132111
0.407898 0.420013 0.134857
0.434662 0.424316 0.140259
0.461487 0.428772 0.145569
0.488678 0.433655 0.149628
0.516144 0.438721 0.153229
0.543732 0.443787 0.156555
0.571289 0.448944 0.159943
0.598846 0.454071 0.163452
0.626312 0.459259 0.167175
0.653564 0.464417 0.170990
0.680634 0.469635 0.175140
0.707458 0.474854 0.179382
0.734100 0.480194 0.183990
0.760468 0.485565 0.188751
0.786621 0.490997 0.193665
0.812531 0.496552 0.198853
0.838226 0.502106 0.204254
0.862518 0.507904 0.211731
0.169830 0.389618 0.152954
0.175446 0.390259 0.154022
0.181427 0.390961 0.155060
0.189758 0.391998 0.156647
0.200409 0.393341 0.158661
0.213196 0.395050 0.161163
0.227875 0.397125 0.164246
0.244110 0.399628 0.167572
0.260223 0.404907 0.166718
0.277435 0.412018 0.162750
0.296875 0.419342 0.158325
0.318512 0.426270 0.154633
0.341858 0.432800 0.151764
0.366516 0.438873 0.150024
0.392181 0.444458 0.149658
0.418396 0.449524 0.151031
0.444672 0.454041 0.154297
0.470581 0.458191 0.159912
0.496674 0.462555 0.165131
0.523102 0.467255 0.169373
0.549774 0.472168 0.173096
0.576538 0.477112 0.176636
0.603333 0.482147 0.180115
0.630157 0.487183 0.183746
0.656860 0.492249 0.187500
0.683441 0.497314 0.191467
0.709869 0.502441 0.195587
0.736145 0.507599 0.199921
0.762146 0.512787 0.204498
0.788025 0.518066 0.209229
0.813660 0.523376 0.214142
0.839142 0.528748 0.219330
0.863220 0.534241 0.226654
0.199188 0.420349 0.172852
0.204010 0.420959 0.173828
0.209442 0.421600 0.174866
0.216827 0.422577 0.176208
0.226440 0.423798 0.178101
0.237946 0.425354 0.180450
0.251404 0.427277 0.183289
0.266266 0.429657 0.186218
0.280945 0.434845 0.184875
0.296783 0.441559 0.181183
0.314758 0.448456 0.177155
0.334839 0.455139 0.173706
0.356720 0.461456 0.170929
0.379944 0.467468 0.169006
0.404327 0.473053 0.168152
0.429413 0.478241 0.168579
0.454895 0.482971 0.170593
0.480408 0.487274 0.174347
0.505615 0.491272 0.179993
0.531006 0.495544 0.185181
0.556732 0.500092 0.189514
0.582672 0.504883 0.193390
0.608734 0.509705 0.196991
0.634827 0.514648 0.200684
0.660919 0.519562 0.204376
0.686951 0.524506 0.208221
0.712921 0.529480 0.212250
0.738739 0.534515 0.216431
0.764404 0.539581 0.220764
0.789917 0.544708 0.225311
0.815308 0.549805 0.230011
0.840515 0.554993 0.235016
0.864319 0.560272 0.242157
0.227905 0.450531 0.193054
0.232147 0.451080 0.193848
0.237061 0.451660 0.194824
0.243652 0.452545 0.196075
0.252258 0.453705 0.197845
0.262726 0.455109 0.200012
0.274933 0.456879 0.202637
0.288422 0.459198 0.205078
0.301727 0.464386 0.203217
0.316376 0.470734 0.199707
0.333038 0.477234 0.196075
0.351715 0.483582 0.192902
0.372131 0.489716 0.190247
0.394043 0.495544 0.188324
0.417114 0.501099 0.187225
0.441132 0.506317 0.187103
0.465637 0.511169 0.188202
0.490417 0.515625 0.190704
0.515228 0.519745 0.194794
0.539795 0.523651 0.200500
0.564575 0.527802 0.205566
0.589630 0.532227 0.209930
0.614899 0.536865 0.213928
0.640259 0.541595 0.217712
0.665710 0.546387 0.221497
0.691162 0.551239 0.225311
0.716583 0.556061 0.229248
0.741974 0.560974 0.233276
0.767212 0.565887 0.237488
0.792389 0.570892 0.241852
0.817444 0.575836 0.246338
0.842346 0.580872 0.251160
0.865906 0.585938 0.258179
0.255859 0.480072 0.213409
0.259613 0.480621 0.214142
0.263947 0.481201 0.215027
0.269867 0.481964 0.216187
0.277618 0.483002 0.217804
0.287170 0.484314 0.219757
0.298309 0.485931 0.222198
0.310455 0.488434 0.223877
0.322540 0.493500 0.221771
0.336121 0.499542 0.218323
0.351624 0.505646 0.215088
0.369019 0.511658 0.212189
0.388123 0.517548 0.209747
0.408752 0.523224 0.207794
0.430542 0.528656 0.206604
0.453369 0.533844 0.206146
0.476929 0.538727 0.206696
0.500885 0.543304 0.208344
0.525055 0.547607 0.211273
0.549225 0.551575 0.215576
0.573181 0.555328 0.221222
0.597382 0.559387 0.226288
0.621826 0.563721 0.230713
0.646454 0.568207 0.234741
0.671234 0.572845 0.238647
0.696075 0.577515 0.242523
0.720947 0.582245 0.246460
0.745789 0.587036 0.250427
0.770599 0.591797 0.254517
0.795380 0.596649 0.258698
0.820068 0.601501 0.263123
0.844666 0.606415 0.267731
0.867981 0.611237 0.274567
0.282867 0.509125 0.233856
0.286285 0.509583 0.234528
0.290222 0.510101 0.235352
0.295471 0.510834 0.236420
0.302521 0.511780 0.237885
0.311188 0.513000 0.239716
0.321411 0.514526 0.241913
0.332184 0.517456 0.242462
0.343292 0.522369 0.240204
0.355896 0.527985 0.237091
0.370422 0.533691 0.234161
0.386658 0.539398 0.231537
0.404541 0.545013 0.229279
0.423920 0.550507 0.227448
0.444580 0.555847 0.226135
0.466248 0.560974 0.225586
0.488739 0.565826 0.225677
0.511780 0.570435 0.226746
0.535217 0.574799 0.228851
0.558868 0.578857 0.232147
0.582428 0.582733 0.236664
0.605835 0.586395 0.242218
0.629517 0.590363 0.247253
0.653351 0.594574 0.251770
0.677429 0.598999 0.255798
0.701630 0.603485 0.259796
0.725922 0.608093 0.263763
0.750244 0.612701 0.267761
0.774567 0.617371 0.271759
0.798920 0.622070 0.275848
0.823212 0.626831 0.280121
0.847473 0.631592 0.284607
0.870544 0.636230 0.291229
0.309113 0.537598 0.254333
0.312195 0.538055 0.255005
0.315796 0.538513 0.255707
0.320618 0.539215 0.256744
0.327026 0.540100 0.258118
0.334930 0.541229 0.259796
0.344238 0.542725 0.261658
0.353729 0.546082 0.261078
0.363983 0.550873 0.258667
0.375763 0.556091 0.255890
0.389282 0.561432 0.253326
0.404541 0.566833 0.250946
0.421326 0.572174 0.248871
0.439575 0.577484 0.247162
0.459076 0.582642 0.245880
0.479614 0.587646 0.245178
0.501068 0.592499 0.245148
0.523193 0.597107 0.245728
0.545837 0.601501 0.247284
0.568817 0.605652 0.249725
0.591858 0.609558 0.253265
0.614929 0.613251 0.257935
0.637817 0.616852 0.263489
0.660980 0.620758 0.268402
0.684296 0.624908 0.272888
0.707855 0.629211 0.277039
0.731506 0.633575 0.281128
0.755310 0.638092 0.285065
0.779175 0.642639 0.289062
0.803009 0.647217 0.293152
0.826904 0.651825 0.297302
0.850800 0.656464 0.301636
0.873566 0.660950 0.308105
0.334747 0.565643 0.274933
0.337585 0.566040 0.275543
0.340820 0.566498 0.276215
0.345276 0.567139 0.277161
0.351105 0.567963 0.278442
0.358398 0.569031 0.279999
0.366669 0.570770 0.281128
0.375061 0.574432 0.279724
0.384552 0.579010 0.277313
0.395599 0.583893 0.274841
0.408295 0.588867 0.272522
0.422577 0.593964 0.270386
0.438354 0.599060 0.268494
0.455566 0.604095 0.266937
0.474030 0.609131 0.265747
0.493500 0.614014 0.264954
0.513885 0.618744 0.264709
0.535095 0.623352 0.265106
0.556915 0.627747 0.266205
0.579132 0.631927 0.268127
0.601593 0.635925 0.270844
0.624176 0.639709 0.274567
0.646729 0.643280 0.279327
0.669159 0.646820 0.284760
0.691803 0.650635 0.289673
0.714691 0.654694 0.294159
0.737732 0.658905 0.298370
0.760956 0.663208 0.302490
0.784271 0.667603 0.306519
0.807678 0.672028 0.310516
0.831177 0.676544 0.314667
0.854645 0.681091 0.318848
0.877106 0.685364 0.325134
0.359711 0.593262 0.295532
0.362335 0.593597 0.296082
0.365265 0.594025 0.296722
0.369354 0.594604 0.297577
0.374725 0.595367 0.298767
0.381409 0.596436 0.300110
0.388458 0.598816 0.299957
0.396057 0.602509 0.298187
0.404968 0.606781 0.295929
0.415344 0.611328 0.293762
0.427307 0.615997 0.291718
0.440735 0.620758 0.289825
0.455597 0.625610 0.288116
0.471771 0.630463 0.286682
0.489227 0.635284 0.285553
0.507751 0.640045 0.284790
0.527191 0.644684 0.284454
0.547424 0.649200 0.284637
0.568390 0.653564 0.285461
0.589844 0.657776 0.286926
0.611664 0.661804 0.289093
0.633667 0.665619 0.292084
0.655823 0.669281 0.295959
0.677887 0.672791 0.300751
0.699860 0.676270 0.306122
0.722076 0.680023 0.310974
0.744537 0.683960 0.315430
0.767212 0.688110 0.319702
0.789978 0.692322 0.323853
0.812897 0.696625 0.327881
0.835938 0.700958 0.332001
0.858978 0.705414 0.336121
0.881165 0.709564 0.342285
0.384094 0.620392 0.316101
0.386505 0.620728 0.316650
0.389191 0.621124 0.317169
0.393005 0.621643 0.318024
0.397980 0.622406 0.319092
0.403809 0.623810 0.319702
0.409851 0.626678 0.318542
0.416870 0.630280 0.316681
0.425262 0.634216 0.314697
0.435089 0.638397 0.312775
0.446320 0.642792 0.310974
0.458954 0.647278 0.309296
0.472961 0.651886 0.307770
0.488251 0.656525 0.306427
0.504730 0.661163 0.305359
0.522308 0.665771 0.304626
0.540833 0.670288 0.304291
0.560211 0.674744 0.304352
0.580261 0.679047 0.304901
0.600983 0.683228 0.306030
0.622070 0.687286 0.307770
0.643524 0.691132 0.310242
0.665100 0.694824 0.313385
0.686798 0.698395 0.317352
0.708435 0.701843 0.322235
0.730011 0.705231 0.327484
0.751862 0.708954 0.332275
0.773956 0.712830 0.336731
0.796204 0.716888 0.341003
0.818573 0.721008 0.345123
0.841156 0.725250 0.349274
0.863831 0.729523 0.353363
0.885651 0.733521 0.359344
0.407990 0.647186 0.336639
0.410278 0.647461 0.337158
0.412750 0.647827 0.337646
0.416199 0.648376 0.338409
0.420593 0.649323 0.338989
0.425354 0.651398 0.338348
0.430878 0.654327 0.336853
0.437469 0.657654 0.335205
0.445435 0.661316 0.333527
0.454742 0.665192 0.331818
0.465302 0.669312 0.330200
0.477203 0.673523 0.328705
0.490417 0.677887 0.327301
0.504852 0.682312 0.326111
0.520477 0.686768 0.325134
0.537140 0.691223 0.324432
0.554779 0.695648 0.324066
0.573303 0.699982 0.324005
0.592529 0.704224 0.324402
0.612427 0.708374 0.325287
0.632843 0.712402 0.326721
0.653595 0.716309 0.328735
0.674683 0.720032 0.331390
0.695953 0.723633 0.334686
0.717194 0.727112 0.338745
