滤镜资源/Professional Luts Collection/Lutify.me Professional/Instant Films/Emerald.cube
# Created by: Lutify.me
# Copyright: (c) Copyright Lutify.me 2015
# Website: https://lutify.me
#LUT size
LUT_3D_SIZE 5
#LUT data points
0.000000 0.000000 0.000000
0.138153 0.018097 0.006866
0.353577 0.051239 0.034424
0.655548 0.026978 0.086487
0.944000 0.053619 0.135834
0.017822 0.160889 0.022980
0.152893 0.174438 0.029633
0.375000 0.197540 0.057220
0.674622 0.213867 0.098724
0.952515 0.250977 0.140961
0.000000 0.413971 0.065338
0.167114 0.422333 0.077576
0.420410 0.450012 0.088501
0.709900 0.480560 0.124176
0.957703 0.521423 0.159515
0.053680 0.706085 0.109619
0.252289 0.710754 0.121826
0.499786 0.729248 0.129089
0.760040 0.750122 0.155121
0.959961 0.773102 0.191589
0.467651 0.899017 0.217499
0.526642 0.903076 0.216858
0.673767 0.911469 0.221802
0.847504 0.919830 0.240173
0.983673 0.928833 0.268219
0.018402 0.004211 0.143982
0.167999 0.025482 0.138397
0.380463 0.060333 0.154633
0.675476 0.042480 0.188751
0.956177 0.077484 0.225281
0.024689 0.183594 0.139160
0.173279 0.188629 0.148071
0.395538 0.208313 0.166351
0.690369 0.223511 0.197449
0.962402 0.261353 0.229858
0.000061 0.425415 0.170898
0.192932 0.432861 0.179291
0.437256 0.458801 0.191010
0.722198 0.488220 0.217896
0.965057 0.528748 0.246094
0.126129 0.713593 0.211578
0.278778 0.718079 0.219482
0.514771 0.736176 0.226562
0.769562 0.756104 0.247711
0.965302 0.778900 0.275696
0.482819 0.905273 0.294373
0.540070 0.908997 0.294861
0.683716 0.916901 0.300537
0.853668 0.924896 0.316528
0.987549 0.933807 0.339874
0.017334 0.016052 0.357269
0.198761 0.036896 0.347168
0.438751 0.051971 0.346313
0.730316 0.029724 0.365570
0.996765 0.083099 0.393738
0.049561 0.205109 0.344727
0.201965 0.203308 0.354370
0.452911 0.221191 0.350952
0.740509 0.235107 0.373199
0.998993 0.271942 0.398926
0.000000 0.467651 0.350311
0.229736 0.470612 0.355316
0.483093 0.482544 0.375397
0.759460 0.509064 0.397064
0.988983 0.548492 0.421936
0.191498 0.747101 0.389954
0.323486 0.750305 0.395325
0.557587 0.754303 0.419861
0.795959 0.774170 0.435699
0.980255 0.796539 0.456573
0.528412 0.921051 0.472748
0.580627 0.923828 0.475128
0.711853 0.931580 0.480621
0.870087 0.940033 0.491760
0.997742 0.948914 0.509125
0.000000 0.023804 0.644470
0.205627 0.026093 0.637146
0.500397 0.045837 0.619293
0.801086 0.000000 0.624542
1.000000 0.060791 0.639038
0.000000 0.218658 0.632446
0.223938 0.210510 0.640076
0.518219 0.227173 0.623047
0.810944 0.234985 0.628235
1.000000 0.278748 0.642639
0.122589 0.500702 0.617767
0.281799 0.503967 0.622253
0.548218 0.506775 0.634338
0.817352 0.536163 0.637939
1.000000 0.577698 0.656708
0.245636 0.793549 0.632416
0.379089 0.793274 0.635803
0.619934 0.787659 0.652985
0.833954 0.803802 0.669098
0.999969 0.825165 0.684448
0.575409 0.958984 0.684540
0.633087 0.954926 0.691833
0.755249 0.954498 0.704865
0.892151 0.964020 0.712555
1.000000 0.970428 0.727051
0.018188 0.000000 0.918640
0.292206 0.000000 0.909424
0.583832 0.000000 0.888214
0.866394 0.000000 0.882050
1.000000 0.090057 0.889465
0.151672 0.219666 0.908600
0.317932 0.210724 0.910706
0.599945 0.228088 0.890076
0.873444 0.249023 0.883545
1.000000 0.298187 0.890808
0.262421 0.521698 0.887054
0.371368 0.518097 0.897003
0.623413 0.517853 0.899994
0.881378 0.548279 0.887085
1.000000 0.587555 0.892700
0.392792 0.820404 0.876709
0.479584 0.821625 0.878784
0.668488 0.824921 0.885406
0.880371 0.830200 0.892334
1.000000 0.851807 0.898895
0.617035 0.996613 0.896881
0.666016 0.995758 0.898468
0.785706 0.993042 0.903625
0.918213 0.989319 0.916199
1.000000 0.992493 0.934540
