滤镜资源/Professional Luts Collection/Lutify.me Professional/Instant Films/Emerald.cube
# Created by: Lutify.me
# Copyright: (c) Copyright Lutify.me 2015
# Website: https://lutify.me
#LUT size
LUT_3D_SIZE 33
#LUT data points
0.000000 0.000000 0.000000
0.009644 0.000793 0.000000
0.020691 0.001923 0.000732
0.036530 0.003479 0.001190
0.055817 0.005402 0.001617
0.075409 0.007629 0.002686
0.095673 0.010742 0.003784
0.116638 0.014313 0.005066
0.138153 0.018097 0.006866
0.160400 0.022400 0.008911
0.183655 0.027130 0.010925
0.208038 0.031982 0.013702
0.233704 0.036774 0.016815
0.261017 0.041382 0.020111
0.290161 0.045563 0.024200
0.321045 0.048828 0.029022
0.353577 0.051239 0.034424
0.387695 0.052460 0.040375
0.423279 0.052460 0.046661
0.460114 0.051544 0.053070
0.497955 0.049316 0.059631
0.536682 0.045685 0.066406
0.576019 0.040619 0.073059
0.615723 0.034119 0.079712
0.655548 0.026978 0.086487
0.695129 0.019989 0.093170
0.734283 0.014099 0.099762
0.772705 0.009033 0.106354
0.810059 0.007324 0.112610
0.846130 0.009613 0.118713
0.880615 0.017975 0.124664
0.913330 0.032318 0.130402
0.944000 0.053619 0.135834
0.000793 0.012512 0.001160
0.010864 0.014069 0.001526
0.021820 0.015228 0.001556
0.038025 0.017059 0.002289
0.057129 0.019073 0.003052
0.076782 0.021759 0.003876
0.097015 0.024750 0.005005
0.117645 0.028503 0.006226
0.139130 0.032379 0.007904
0.161377 0.036987 0.009674
0.184723 0.041534 0.012177
0.209198 0.046356 0.014984
0.234985 0.050720 0.017975
0.262299 0.054657 0.021393
0.291443 0.058319 0.025330
0.322357 0.061340 0.029999
0.354858 0.063446 0.035400
0.388977 0.064850 0.041321
0.424561 0.065308 0.047638
0.461395 0.064636 0.054077
0.499207 0.062927 0.060516
0.537872 0.060181 0.067230
0.577148 0.056396 0.073975
0.616852 0.051392 0.080475
0.656647 0.045715 0.087128
0.696136 0.040131 0.093811
0.735168 0.034851 0.100372
0.773560 0.030792 0.106934
0.810852 0.029999 0.113281
0.846802 0.033752 0.119232
0.881226 0.042603 0.125122
0.913879 0.056030 0.130707
0.944458 0.073059 0.136108
0.002350 0.026123 0.002319
0.012115 0.027679 0.003052
0.023346 0.029236 0.003113
0.039520 0.031525 0.003815
0.057831 0.034210 0.004272
0.077728 0.037292 0.005341
0.097809 0.040649 0.006195
0.118622 0.044006 0.007629
0.140137 0.047791 0.009460
0.162537 0.051849 0.011505
0.185852 0.056000 0.013794
0.210297 0.060120 0.016266
0.236145 0.063965 0.019470
0.263611 0.067596 0.022888
0.292786 0.070953 0.026733
0.323761 0.073669 0.031372
0.356354 0.075714 0.036926
0.390472 0.077026 0.042877
0.426056 0.077576 0.048981
0.462860 0.077301 0.055298
0.500641 0.076233 0.061707
0.539276 0.074249 0.068298
0.578522 0.071503 0.074921
0.618103 0.068054 0.081421
0.657776 0.063965 0.087982
0.697296 0.059723 0.094543
0.736267 0.056305 0.101105
0.774506 0.054047 0.107605
0.811737 0.054260 0.113800
0.847595 0.058105 0.119690
0.881958 0.065460 0.125610
0.914459 0.076813 0.131134
0.944977 0.091309 0.136566
0.004578 0.045685 0.004242
0.014374 0.047363 0.005005
0.024628 0.049042 0.005371
0.040985 0.050995 0.005432
0.059326 0.053528 0.006531
0.078888 0.056274 0.007294
0.098999 0.059296 0.008148
0.119751 0.062469 0.009552
0.141388 0.065765 0.011261
0.163818 0.069244 0.013245
0.187225 0.072845 0.015717
0.211731 0.076447 0.018433
0.237671 0.079987 0.021423
0.265198 0.083374 0.024872
0.294556 0.086334 0.028839
0.325653 0.088837 0.033539
0.358368 0.090820 0.038757
0.392548 0.092224 0.044525
0.428101 0.093079 0.050568
0.464844 0.093231 0.056824
0.502594 0.092621 0.063232
0.541168 0.091370 0.069702
0.580322 0.089508 0.076080
0.619873 0.087097 0.082489
0.659424 0.084534 0.089081
0.698822 0.082062 0.095612
0.737732 0.079926 0.102051
0.775879 0.079163 0.108368
0.812927 0.080383 0.114502
0.848694 0.084167 0.120483
0.882935 0.090942 0.126251
0.915344 0.100433 0.131744
0.945740 0.112885 0.136993
0.006958 0.067352 0.006866
0.016724 0.068481 0.007324
0.027649 0.069977 0.007996
0.043182 0.071991 0.008118
0.061554 0.074188 0.008514
0.080780 0.076630 0.009644
0.100677 0.079254 0.011108
0.121338 0.082214 0.012390
0.142944 0.085327 0.013977
0.165344 0.088562 0.015839
0.188812 0.091736 0.018341
0.213440 0.094971 0.020905
0.239532 0.098206 0.024017
0.267212 0.101349 0.027527
0.296661 0.104187 0.031647
0.327881 0.106628 0.036346
0.360687 0.108551 0.041473
0.394989 0.110107 0.046906
0.430664 0.111115 0.052643
0.467468 0.111603 0.058655
0.505188 0.111572 0.064941
0.543671 0.111053 0.071289
0.582733 0.110077 0.077667
0.622162 0.108734 0.084076
0.661621 0.107300 0.090546
0.700867 0.106049 0.096893
0.739594 0.105377 0.103180
0.777618 0.105835 0.109406
0.814514 0.107635 0.115509
0.850159 0.111572 0.121307
0.884186 0.117767 0.127014
0.916473 0.126404 0.132538
0.946686 0.137360 0.137573
0.009674 0.089600 0.009674
0.019409 0.090485 0.010406
0.031006 0.091675 0.011200
0.046570 0.093384 0.011627
0.063843 0.095673 0.012024
0.083069 0.097870 0.012756
0.102875 0.100342 0.013977
0.123383 0.102966 0.015747
0.144836 0.105774 0.017334
0.167297 0.108826 0.019257
0.190857 0.111938 0.021576
0.215607 0.115021 0.024231
0.241791 0.118073 0.027222
0.269653 0.121063 0.030945
0.299316 0.123810 0.035065
0.330658 0.126343 0.039734
0.363495 0.128448 0.044678
0.397858 0.130127 0.049927
0.433624 0.131439 0.055542
0.470520 0.132233 0.061279
0.508301 0.132660 0.067078
0.546753 0.132721 0.073151
0.585754 0.132507 0.079529
0.625031 0.132080 0.085907
0.664337 0.131622 0.092163
0.703400 0.131531 0.098328
0.741943 0.131958 0.104523
0.779816 0.133240 0.110657
0.816498 0.135681 0.116669
0.851959 0.139893 0.122375
0.885803 0.145721 0.128021
0.917877 0.153656 0.133240
0.947876 0.163696 0.138397
0.012726 0.112640 0.013489
0.023071 0.113251 0.014069
0.034882 0.114197 0.014801
0.049927 0.115601 0.015533
0.066864 0.117676 0.016235
0.085510 0.119965 0.016663
0.105408 0.122498 0.017731
0.125854 0.124969 0.018982
0.147217 0.127594 0.021423
0.169708 0.130402 0.023407
0.193298 0.133362 0.025726
0.218231 0.136383 0.028198
0.244598 0.139404 0.031342
0.272675 0.142365 0.034973
0.302460 0.145111 0.039246
0.333862 0.147705 0.043762
0.366852 0.149963 0.048492
0.401276 0.151947 0.053528
0.436981 0.153595 0.058899
0.473846 0.154846 0.064453
0.511658 0.155731 0.070007
0.550232 0.156311 0.075714
0.589264 0.156708 0.081665
0.628448 0.157104 0.087769
0.667603 0.157593 0.093842
0.706451 0.158386 0.100006
0.744812 0.159668 0.106079
0.782379 0.161774 0.112122
0.818878 0.164795 0.117981
0.854065 0.169128 0.123596
0.887665 0.174835 0.129028
0.919495 0.182434 0.134277
0.949249 0.191711 0.139191
0.015503 0.136200 0.018066
0.026031 0.136810 0.018555
0.038391 0.137634 0.019196
0.053558 0.138763 0.020325
0.070160 0.140656 0.020813
0.088593 0.142853 0.021271
0.107849 0.145233 0.021973
0.128479 0.147858 0.023193
0.150024 0.150330 0.024994
0.172455 0.153107 0.027649
0.196228 0.155975 0.030243
0.221283 0.158936 0.033051
0.247894 0.161957 0.036102
0.276093 0.164948 0.039948
0.306122 0.167816 0.043793
0.337646 0.170471 0.048126
0.370667 0.172974 0.052826
0.405121 0.175171 0.057739
0.440826 0.177216 0.062683
0.477631 0.178925 0.067841
0.515381 0.180420 0.073334
0.553833 0.181671 0.078918
0.592773 0.182770 0.084595
0.631958 0.183807 0.090240
0.671112 0.184998 0.096008
0.709869 0.186432 0.101898
0.748016 0.188385 0.107727
0.785370 0.191040 0.113647
0.821594 0.194489 0.119385
0.856506 0.199036 0.124786
0.889801 0.204742 0.130157
0.921326 0.212006 0.135254
0.950836 0.220734 0.140076
0.017822 0.160889 0.022980
0.028564 0.161530 0.023529
0.041077 0.162170 0.024261
0.056519 0.163239 0.025543
0.073273 0.164673 0.026215
0.091370 0.166840 0.026794
0.110840 0.169250 0.027283
0.131195 0.171783 0.028351
0.152893 0.174438 0.029633
0.175690 0.177094 0.032166
0.199493 0.179901 0.035278
0.224731 0.182861 0.038330
0.251587 0.185913 0.041473
0.280060 0.188965 0.044861
0.310181 0.191925 0.048798
0.341888 0.194824 0.052826
0.375000 0.197540 0.057220
0.409424 0.200134 0.061920
0.445160 0.202484 0.066864
0.481903 0.204681 0.071777
0.519531 0.206696 0.076996
0.557861 0.208527 0.082336
0.596619 0.210297 0.087769
0.635651 0.212067 0.093231
0.674622 0.213867 0.098724
0.713257 0.215942 0.104340
0.751282 0.218384 0.109863
0.788483 0.221405 0.115326
0.824493 0.225189 0.120758
0.859131 0.229889 0.126099
0.892151 0.235657 0.131348
0.923340 0.242676 0.136230
0.952515 0.250977 0.140961
0.019073 0.186920 0.028351
0.030243 0.187439 0.029053
0.043152 0.188080 0.029846
0.058533 0.189026 0.030823
0.075775 0.190247 0.032227
0.094055 0.192108 0.032990
0.113373 0.194519 0.033478
0.133972 0.197113 0.034241
0.155762 0.199860 0.035492
0.178864 0.202637 0.037231
0.203094 0.205475 0.040009
0.228607 0.208313 0.043701
0.255676 0.211395 0.046906
0.284393 0.214508 0.050293
0.314697 0.217682 0.053833
0.346466 0.220764 0.057709
0.379700 0.223785 0.061890
0.414185 0.226715 0.066284
0.449829 0.229462 0.070923
0.486542 0.232056 0.075867
0.524048 0.234558 0.080811
0.562225 0.236938 0.085938
0.600800 0.239288 0.091156
0.639618 0.241638 0.096436
0.678314 0.244049 0.101776
0.716675 0.246674 0.107178
0.754456 0.249603 0.112549
0.791351 0.253021 0.117767
0.827118 0.257080 0.122925
0.861481 0.261932 0.128021
0.894135 0.267731 0.133026
0.924988 0.274628 0.137848
0.953766 0.282623 0.142517
0.018311 0.214355 0.034210
0.030212 0.214874 0.034973
0.043549 0.215515 0.035767
0.059601 0.216370 0.036713
0.077026 0.217499 0.038147
0.095978 0.219025 0.039825
0.115601 0.221344 0.040314
0.136322 0.223999 0.040771
0.158386 0.226837 0.041779
0.181824 0.229767 0.043274
0.206604 0.232788 0.045288
0.232574 0.235748 0.048096
0.260010 0.238739 0.051941
0.289001 0.241913 0.055511
0.319519 0.245178 0.058929
0.351410 0.248566 0.062683
0.384674 0.251831 0.066589
0.419250 0.254974 0.070740
0.454895 0.258087 0.075195
0.491547 0.261047 0.079803
0.528961 0.263977 0.084625
0.566956 0.266815 0.089600
0.605316 0.269592 0.094666
0.643860 0.272430 0.099792
0.682281 0.275330 0.105011
0.720337 0.278381 0.110168
0.757751 0.281738 0.115295
0.794312 0.285553 0.120422
0.829681 0.289886 0.125488
0.863678 0.294891 0.130432
0.895905 0.300781 0.135284
0.926300 0.307556 0.140106
0.954620 0.315369 0.144653
0.014740 0.243591 0.040314
0.026703 0.244141 0.040802
0.040649 0.244720 0.041779
0.057800 0.245575 0.042664
0.076721 0.246643 0.044220
0.096619 0.247986 0.046021
0.117096 0.249969 0.047150
0.138214 0.252625 0.047729
0.160736 0.255524 0.048248
0.184509 0.258575 0.049194
0.209900 0.261688 0.050720
0.236542 0.264893 0.053009
0.264557 0.268005 0.056061
0.293793 0.271179 0.060059
0.324554 0.274506 0.063782
0.356628 0.277954 0.067474
0.389984 0.281464 0.071320
0.424561 0.284851 0.075256
0.460266 0.288177 0.079437
0.496796 0.291473 0.083862
0.534119 0.294708 0.088440
0.571960 0.297882 0.093292
0.610107 0.301056 0.098175
0.648407 0.304260 0.103119
0.686493 0.307556 0.108154
0.724213 0.311035 0.113220
0.761230 0.314697 0.118225
0.797424 0.318787 0.123169
0.832367 0.323334 0.128113
0.865875 0.328522 0.132904
0.897614 0.334442 0.137756
0.927521 0.341156 0.142517
0.955353 0.348755 0.147064
0.006897 0.274719 0.046143
0.019379 0.275208 0.046692
0.033997 0.275787 0.047424
0.052765 0.276642 0.048401
0.073975 0.277649 0.049896
0.095428 0.278931 0.051544
0.117249 0.280609 0.053497
0.139435 0.283020 0.054443
0.162506 0.285950 0.054749
0.187042 0.289062 0.055450
0.213013 0.292358 0.056335
0.240326 0.295654 0.058105
0.268921 0.298981 0.060455
0.298828 0.302246 0.063934
0.329803 0.305511 0.068054
0.362091 0.309021 0.071930
0.395569 0.312592 0.075775
0.430206 0.316193 0.079681
0.465851 0.319702 0.083740
0.502350 0.323242 0.088013
0.539520 0.326752 0.092377
0.577209 0.330200 0.097015
0.615112 0.333618 0.101746
0.653107 0.337128 0.106567
0.690918 0.340729 0.111389
0.728241 0.344452 0.116241
0.764893 0.348450 0.121124
0.800629 0.352753 0.125946
0.835114 0.357483 0.130707
0.868164 0.362701 0.135376
0.899353 0.368683 0.140228
0.928711 0.375275 0.144897
0.955994 0.382721 0.149414
0.001282 0.307526 0.051331
0.008209 0.308014 0.052094
0.023224 0.308563 0.052795
0.044250 0.309357 0.053864
0.068451 0.310333 0.055145
0.092163 0.311584 0.056763
0.115845 0.313141 0.058746
0.139862 0.315094 0.060822
0.164093 0.317932 0.061340
0.189301 0.321136 0.061676
0.216003 0.324432 0.062286
0.244019 0.327911 0.063385
0.273285 0.331329 0.065247
0.303741 0.334839 0.067688
0.335327 0.338165 0.071411
0.367828 0.341553 0.075897
0.401428 0.345154 0.079895
0.436096 0.348816 0.083862
0.471771 0.352509 0.087830
0.508148 0.356201 0.092010
0.545166 0.359894 0.096283
0.582642 0.363556 0.100677
0.620331 0.367249 0.105225
0.658020 0.370941 0.109924
0.695465 0.374756 0.114624
0.732391 0.378693 0.119293
0.768616 0.382874 0.123993
0.803894 0.387360 0.128693
0.837921 0.392181 0.133331
0.870453 0.397430 0.137939
0.901093 0.403381 0.142700
0.929871 0.409851 0.147369
0.956573 0.417114 0.151825
0.000000 0.341858 0.056274
0.001343 0.342316 0.056976
0.009003 0.342834 0.057648
0.031281 0.343597 0.058807
0.059540 0.344513 0.060150
0.086945 0.345764 0.061646
0.113220 0.347229 0.063629
0.139313 0.348999 0.065918
0.165466 0.351318 0.067719
0.191681 0.354492 0.067871
0.219116 0.357941 0.068085
0.247742 0.361450 0.068878
0.277618 0.365021 0.070038
0.308716 0.368591 0.072021
0.340790 0.372162 0.074738
0.373810 0.375549 0.078766
0.407562 0.379028 0.083435
0.442230 0.382690 0.087646
0.477875 0.386475 0.091705
0.514191 0.390228 0.095825
0.551056 0.394043 0.100067
0.588318 0.397858 0.104309
0.625732 0.401703 0.108734
0.663086 0.405579 0.113190
0.700134 0.409546 0.117798
0.736664 0.413635 0.122314
0.772400 0.417938 0.126923
0.807220 0.422485 0.131470
0.840698 0.427368 0.135956
0.872711 0.432648 0.140472
0.902740 0.438477 0.145203
0.930969 0.444824 0.149902
0.957062 0.451782 0.154297
0.000000 0.377441 0.061096
0.000000 0.377899 0.061584
0.001221 0.378387 0.062195
0.014465 0.379089 0.063354
0.047302 0.380005 0.064697
0.079651 0.381165 0.066223
0.109558 0.382568 0.068207
0.138123 0.384247 0.070618
0.166382 0.386230 0.073059
0.194122 0.389099 0.073975
0.222412 0.392517 0.073944
0.251709 0.396118 0.074310
0.282166 0.399750 0.075073
0.313690 0.403442 0.076416
0.346375 0.407074 0.078522
0.379761 0.410675 0.081665
0.413940 0.414124 0.086060
0.448730 0.417633 0.090820
0.484253 0.421356 0.095276
0.520477 0.425171 0.099457
0.557159 0.429016 0.103699
0.594177 0.432922 0.107880
0.631287 0.436859 0.112183
0.668335 0.440826 0.116547
0.704956 0.444885 0.120972
0.740997 0.449066 0.125366
0.776276 0.453430 0.129822
0.810547 0.458008 0.134247
0.843475 0.462860 0.138641
0.874908 0.468079 0.143005
0.904358 0.473785 0.147827
0.931915 0.479919 0.152435
0.957428 0.486633 0.156860
0.000000 0.413971 0.065338
0.000000 0.414398 0.065979
0.000000 0.414886 0.066650
0.003235 0.415558 0.067627
0.032471 0.416443 0.068878
0.071472 0.417542 0.070557
0.105438 0.418915 0.072479
0.136810 0.420502 0.074860
0.167114 0.422333 0.077576
0.196808 0.424683 0.079803
0.226013 0.428040 0.079865
0.256042 0.431610 0.079773
0.287079 0.435303 0.080200
0.319092 0.439026 0.081085
0.352081 0.442749 0.082733
0.385956 0.446411 0.084991
0.420410 0.450012 0.088501
0.455475 0.453491 0.093140
0.490997 0.457031 0.098206
0.527069 0.460754 0.102753
0.563538 0.464600 0.107117
0.600281 0.468506 0.111298
0.637024 0.472443 0.115479
0.673676 0.476471 0.119843
0.709900 0.480560 0.124176
0.745453 0.484772 0.128448
0.780182 0.489105 0.132782
0.813904 0.493683 0.137085
0.846252 0.498474 0.141418
0.877075 0.503571 0.145660
0.905884 0.509094 0.150421
0.932800 0.515015 0.155060
0.957703 0.521423 0.159515
0.000000 0.451324 0.069275
0.000000 0.451691 0.070007
0.000000 0.452148 0.070770
0.000061 0.452789 0.071747
0.019348 0.453613 0.072937
0.063446 0.454681 0.074615
0.101837 0.455994 0.076630
0.136108 0.457489 0.079041
0.168365 0.459259 0.081726
0.199768 0.461273 0.084686
0.230377 0.464203 0.085815
0.260986 0.467804 0.085419
0.292542 0.471466 0.085327
0.324982 0.475189 0.085876
0.358276 0.478943 0.087067
0.392426 0.482635 0.088928
0.427185 0.486298 0.091583
0.462463 0.489838 0.095215
0.498077 0.493317 0.100311
0.533997 0.496857 0.105530
0.570221 0.500610 0.110168
0.606659 0.504425 0.114624
0.643005 0.508331 0.118835
0.679230 0.512299 0.123077
0.714935 0.516357 0.127380
0.750000 0.520538 0.131592
0.784180 0.524841 0.135895
0.817261 0.529327 0.140076
0.848999 0.533997 0.144287
0.879181 0.539001 0.148438
0.907318 0.544281 0.153107
0.933563 0.549927 0.157867
0.957886 0.556000 0.162292
0.000000 0.489136 0.073364
0.000000 0.489502 0.073944
0.000000 0.489899 0.074738
0.000000 0.490479 0.075806
0.010040 0.491272 0.077026
0.057465 0.492279 0.078674
0.100128 0.493530 0.080841
0.136749 0.494965 0.083221
0.170776 0.496613 0.085938
0.203613 0.498505 0.089081
0.235596 0.500946 0.091370
0.266907 0.504364 0.091156
0.298859 0.507996 0.090820
0.331573 0.511719 0.090912
0.365173 0.515411 0.091644
0.399445 0.519135 0.093048
0.434357 0.522797 0.095123
0.469757 0.526367 0.098206
0.505493 0.529877 0.102142
0.541351 0.533295 0.107574
0.577301 0.536804 0.112885
0.613373 0.540497 0.117554
0.649323 0.544250 0.122070
0.684998 0.548157 0.126404
0.720184 0.552124 0.130676
0.754669 0.556213 0.134857
0.788239 0.560364 0.139099
0.820709 0.564758 0.143250
0.851715 0.569275 0.147247
0.881226 0.574066 0.151337
0.908691 0.579102 0.156097
0.934265 0.584473 0.160767
0.957947 0.590179 0.165253
0.000000 0.527008 0.077637
0.000000 0.527374 0.078156
0.000000 0.527771 0.079010
0.000000 0.528290 0.080078
0.006409 0.529053 0.081299
0.056335 0.529968 0.082916
0.101654 0.531158 0.085144
0.140045 0.532501 0.087555
0.175232 0.534058 0.090271
0.209045 0.535858 0.093445
0.242065 0.537933 0.096558
0.274078 0.541016 0.097076
0.306244 0.544586 0.096344
0.339203 0.548248 0.096222
0.372894 0.551910 0.096619
0.407318 0.555573 0.097565
0.442200 0.559204 0.099213
0.477570 0.562744 0.101685
0.513275 0.566223 0.105072
0.549103 0.569641 0.109528
0.584839 0.572968 0.115021
0.620483 0.576385 0.120361
0.655975 0.579987 0.125092
0.691132 0.583740 0.129669
0.725677 0.587555 0.134125
0.759552 0.591461 0.138336
0.792450 0.595490 0.142456
0.824219 0.599670 0.146545
0.854553 0.604034 0.150513
0.883301 0.608582 0.154541
0.910065 0.613312 0.159271
0.934937 0.618347 0.163971
0.957977 0.623688 0.168457
0.000000 0.564667 0.082245
0.000000 0.565002 0.082825
0.000000 0.565399 0.083649
0.000000 0.565887 0.084717
0.012085 0.566620 0.085968
0.062592 0.567474 0.087646
0.108276 0.568542 0.089783
0.146881 0.569855 0.092163
0.182556 0.571289 0.095001
0.216827 0.572937 0.098206
0.250336 0.574799 0.101593
0.282898 0.577515 0.102966
0.315216 0.580933 0.102264
0.348145 0.584503 0.101776
0.381805 0.588074 0.101929
0.416138 0.591675 0.102570
0.450989 0.595184 0.103882
0.486176 0.598694 0.105927
0.521698 0.602142 0.108704
0.557281 0.605469 0.112396
0.592865 0.608704 0.117218
0.628143 0.611908 0.122864
0.663055 0.615234 0.128143
0.697632 0.618744 0.132996
0.731567 0.622345 0.137604
0.764709 0.626068 0.141937
0.796875 0.629883 0.146118
0.827850 0.633850 0.150208
0.857483 0.637970 0.154114
0.885498 0.642242 0.158142
0.911499 0.646667 0.162781
0.935669 0.651367 0.167511
0.958038 0.656311 0.171967
0.000000 0.601776 0.087524
0.000000 0.602081 0.088257
0.000000 0.602417 0.088959
0.001312 0.602905 0.089996
0.030121 0.603546 0.091309
0.077667 0.604370 0.092926
0.120941 0.605377 0.095093
0.158325 0.606537 0.097443
0.193481 0.607880 0.100250
0.227600 0.609436 0.103485
0.261047 0.611145 0.106964
0.293762 0.613525 0.108948
0.326019 0.616730 0.108551
0.358795 0.620209 0.107758
0.392242 0.623657 0.107635
0.426331 0.627106 0.108063
0.460876 0.630524 0.109039
0.495819 0.633881 0.110779
0.530945 0.637207 0.113220
0.566254 0.640472 0.116333
0.601410 0.643616 0.120422
0.636292 0.646698 0.125397
0.670715 0.649719 0.131195
0.704559 0.652924 0.136505
0.737823 0.656281 0.141235
0.770203 0.659760 0.145782
0.801605 0.663330 0.150085
0.831787 0.667023 0.154205
0.860565 0.670868 0.158234
0.887787 0.674835 0.162140
0.913025 0.678925 0.166748
0.936493 0.683258 0.171417
0.958160 0.687775 0.175934
0.000000 0.637939 0.093658
0.000000 0.638214 0.094360
0.004272 0.638519 0.095123
0.018646 0.638977 0.096130
0.059509 0.639587 0.097534
0.102051 0.640350 0.099060
0.140167 0.641235 0.101166
0.175018 0.642334 0.103638
0.208771 0.643555 0.106415
0.241943 0.644989 0.109558
0.274719 0.646576 0.113037
0.307098 0.648682 0.115387
0.339020 0.651672 0.115143
0.371368 0.654968 0.114319
0.404419 0.658264 0.113892
0.438080 0.661560 0.114105
0.472198 0.664825 0.114990
0.506653 0.668060 0.116333
0.541351 0.671204 0.118408
0.576080 0.674347 0.121277
0.610748 0.677338 0.124817
0.645142 0.680267 0.129181
0.678955 0.683136 0.134369
0.712128 0.686035 0.140228
0.744598 0.689026 0.145386
0.776154 0.692230 0.150116
0.806732 0.695496 0.154510
0.836060 0.698914 0.158783
0.863953 0.702454 0.162750
0.890289 0.706085 0.166718
0.914764 0.709869 0.171204
0.937469 0.713776 0.175873
0.958496 0.717865 0.180420
0.009644 0.672852 0.101013
0.016205 0.673096 0.101624
0.031616 0.673370 0.102325
0.063904 0.673798 0.103363
0.099182 0.674347 0.104706
0.132751 0.675018 0.106384
0.165131 0.675842 0.108337
0.196747 0.676849 0.110779
0.228394 0.677979 0.113525
0.260040 0.679260 0.116608
0.291779 0.680725 0.120026
0.323273 0.682648 0.122375
0.354523 0.685425 0.122131
0.386139 0.688568 0.121185
0.418579 0.691681 0.120880
0.451569 0.694794 0.120972
0.485077 0.697845 0.121582
0.518921 0.700897 0.122833
0.553040 0.703888 0.124634
0.587128 0.706787 0.127136
0.621094 0.709625 0.130341
0.654755 0.712402 0.134216
0.687927 0.715118 0.138855
0.720367 0.717743 0.144318
0.751953 0.720428 0.149933
0.782684 0.723267 0.155029
0.812286 0.726196 0.159637
0.840668 0.729309 0.163940
0.867706 0.732483 0.168060
0.893097 0.735809 0.172058
0.916809 0.739197 0.176483
0.938721 0.742706 0.181091
0.959015 0.746399 0.185577
0.053680 0.706085 0.109619
0.073700 0.706329 0.110352
0.093567 0.706604 0.110901
0.116241 0.706970 0.111908
0.141052 0.707458 0.113159
0.167389 0.708069 0.114899
0.194916 0.708801 0.116760
0.223206 0.709717 0.119110
0.252289 0.710754 0.121826
0.281982 0.711914 0.124786
0.312286 0.713196 0.128143
0.342468 0.715088 0.130096
0.372620 0.717712 0.129822
0.403351 0.720612 0.128815
0.434906 0.723511 0.128418
0.467102 0.726410 0.128510
0.499786 0.729248 0.129089
0.532806 0.732086 0.130249
0.566101 0.734863 0.131897
0.599396 0.737579 0.134216
0.632538 0.740204 0.137085
0.665375 0.742767 0.140594
0.697693 0.745270 0.144867
0.729340 0.747711 0.149628
0.760040 0.750122 0.155121
0.789764 0.752563 0.160492
0.818390 0.755188 0.165375
0.845825 0.757904 0.169830
0.871857 0.760773 0.174042
0.896332 0.763733 0.178101
0.919159 0.766724 0.182526
0.940338 0.769867 0.187103
0.959961 0.773102 0.191589
0.125031 0.737457 0.119690
0.136871 0.737640 0.120361
0.149078 0.737885 0.120941
0.164764 0.738220 0.121796
0.183685 0.738647 0.123077
0.205048 0.739197 0.124695
0.228668 0.739838 0.126617
0.253754 0.740662 0.128815
0.280212 0.741577 0.131470
0.307739 0.742615 0.134369
0.336121 0.743835 0.137482
0.364563 0.745758 0.138550
0.393372 0.748230 0.138000
0.423004 0.750916 0.137177
0.453491 0.753571 0.136841
0.484680 0.756226 0.136993
0.516388 0.758850 0.137543
0.548462 0.761444 0.138580
0.580750 0.763977 0.140198
0.613037 0.766449 0.142334
0.645233 0.768860 0.145111
0.677063 0.771210 0.148346
0.708466 0.773438 0.152283
0.739105 0.775665 0.156616
0.768860 0.777832 0.161560
0.797577 0.779999 0.167023
0.825195 0.782227 0.171967
0.851532 0.784607 0.176666
0.876526 0.787109 0.181000
0.900024 0.789734 0.185059
0.921967 0.792358 0.189453
0.942352 0.795105 0.194061
0.961334 0.797943 0.198456
0.182220 0.766632 0.131256
0.190674 0.766785 0.131775
0.199738 0.767029 0.132446
0.211945 0.767303 0.133270
0.227234 0.767670 0.134583
0.245056 0.768188 0.136017
0.265442 0.768768 0.137817
0.287598 0.769440 0.140015
0.311493 0.770294 0.142548
0.336823 0.771240 0.145294
0.363007 0.772461 0.147583
0.389496 0.774384 0.147827
0.416779 0.776764 0.146942
0.445129 0.779175 0.146332
0.474396 0.781586 0.146179
0.504364 0.783997 0.146423
0.534882 0.786377 0.147095
0.565857 0.788727 0.148163
0.597015 0.791016 0.149750
0.628204 0.793243 0.151794
0.659271 0.795410 0.154327
0.690002 0.797485 0.157501
0.720245 0.799530 0.161011
0.749817 0.801483 0.165100
0.778442 0.803436 0.169617
