滤镜资源/Professional Luts Collection/Lutify.me Professional/Instant Films/Emerald.cube
# Created by: Lutify.me
# Copyright: (c) Copyright Lutify.me 2015
# Website: https://lutify.me
#LUT size
LUT_3D_SIZE 9
#LUT data points
0.000000 0.000000 0.000000
0.055817 0.005402 0.001617
0.138153 0.018097 0.006866
0.233704 0.036774 0.016815
0.353577 0.051239 0.034424
0.497955 0.049316 0.059631
0.655548 0.026978 0.086487
0.810059 0.007324 0.112610
0.944000 0.053619 0.135834
0.006958 0.067352 0.006866
0.061554 0.074188 0.008514
0.142944 0.085327 0.013977
0.239532 0.098206 0.024017
0.360687 0.108551 0.041473
0.505188 0.111572 0.064941
0.661621 0.107300 0.090546
0.814514 0.107635 0.115509
0.946686 0.137360 0.137573
0.017822 0.160889 0.022980
0.073273 0.164673 0.026215
0.152893 0.174438 0.029633
0.251587 0.185913 0.041473
0.375000 0.197540 0.057220
0.519531 0.206696 0.076996
0.674622 0.213867 0.098724
0.824493 0.225189 0.120758
0.952515 0.250977 0.140961
0.006897 0.274719 0.046143
0.073975 0.277649 0.049896
0.162506 0.285950 0.054749
0.268921 0.298981 0.060455
0.395569 0.312592 0.075775
0.539520 0.326752 0.092377
0.690918 0.340729 0.111389
0.835114 0.357483 0.130707
0.955994 0.382721 0.149414
0.000000 0.413971 0.065338
0.032471 0.416443 0.068878
0.167114 0.422333 0.077576
0.287079 0.435303 0.080200
0.420410 0.450012 0.088501
0.563538 0.464600 0.107117
0.709900 0.480560 0.124176
0.846252 0.498474 0.141418
0.957703 0.521423 0.159515
0.000000 0.564667 0.082245
0.012085 0.566620 0.085968
0.182556 0.571289 0.095001
0.315216 0.580933 0.102264
0.450989 0.595184 0.103882
0.592865 0.608704 0.117218
0.731567 0.622345 0.137604
0.857483 0.637970 0.154114
0.958038 0.656311 0.171967
0.053680 0.706085 0.109619
0.141052 0.707458 0.113159
0.252289 0.710754 0.121826
0.372620 0.717712 0.129822
0.499786 0.729248 0.129089
0.632538 0.740204 0.137085
0.760040 0.750122 0.155121
0.871857 0.760773 0.174042
0.959961 0.773102 0.191589
0.285248 0.818024 0.158569
0.315979 0.818848 0.161499
0.381348 0.820923 0.168274
0.470581 0.827454 0.167542
0.577393 0.834961 0.169159
0.691040 0.842072 0.176331
0.800049 0.848267 0.189819
0.893799 0.854248 0.207611
0.968628 0.861237 0.224457
0.467651 0.899017 0.217499
0.485199 0.900269 0.217072
0.526642 0.903076 0.216858
0.591858 0.907043 0.217896
0.673767 0.911469 0.221802
0.762451 0.915802 0.229156
0.847504 0.919830 0.240173
0.921143 0.923981 0.253571
0.983673 0.928833 0.268219
0.005737 0.001221 0.059814
0.071136 0.007751 0.056458
0.149567 0.023407 0.062073
0.243195 0.043457 0.073059
0.361664 0.057190 0.087891
0.504700 0.056213 0.106720
0.661011 0.036530 0.127869
0.814362 0.018768 0.149292
0.947296 0.064301 0.168793
0.009338 0.079712 0.056824
0.071259 0.082214 0.061523
0.151184 0.092010 0.068054
0.247101 0.103760 0.078186
0.367645 0.113434 0.092194
0.511383 0.116180 0.109985
0.666718 0.112457 0.130493
0.818695 0.113525 0.151184
0.949890 0.142853 0.170135
0.025116 0.168335 0.071625
0.082092 0.170319 0.076294
0.159515 0.179565 0.080353
0.257874 0.190491 0.089539
0.381134 0.201447 0.101929
0.524963 0.210266 0.118164
0.679260 0.217316 0.136353
0.828278 0.228607 0.155151
0.955444 0.254456 0.172668
0.019867 0.279144 0.090607
0.083405 0.281982 0.093384
0.169037 0.290100 0.097534
0.274719 0.302643 0.103027
0.400879 0.315887 0.115601
0.544312 0.329712 0.129852
0.695038 0.343475 0.146271
0.838470 0.360107 0.163239
0.958588 0.385315 0.179810
0.000000 0.417358 0.106384
0.051056 0.419769 0.109070
0.174774 0.425629 0.115875
0.292877 0.438385 0.118774
0.425415 0.452698 0.126556
0.567871 0.467133 0.142242
0.713531 0.482910 0.157257
0.849182 0.500702 0.172546
0.959900 0.523621 0.188751
0.000000 0.567352 0.121582
0.037476 0.569275 0.124420
0.191498 0.573883 0.131653
0.321075 0.583588 0.137543
0.455719 0.597534 0.140106
0.596771 0.610840 0.151855
0.734772 0.624359 0.169403
0.859985 0.639893 0.184174
0.959900 0.658173 0.200195
0.079315 0.708282 0.145264
0.154236 0.709595 0.148224
0.260162 0.712891 0.155304
0.378052 0.719940 0.161743
0.504150 0.731293 0.162292
0.636047 0.742065 0.169922
0.762817 0.751831 0.185822
0.873932 0.762482 0.202637
0.961517 0.774780 0.218506
0.292755 0.819885 0.188110
0.322693 0.820709 0.190582
0.386963 0.822815 0.196533
0.475098 0.829315 0.196075
0.581085 0.836731 0.198151
0.694000 0.843689 0.205109
0.802368 0.849823 0.217438
0.895508 0.855743 0.233673
0.969971 0.862732 0.249054
0.472015 0.900818 0.241455
0.489410 0.902039 0.241180
0.530579 0.904785 0.241180
0.595276 0.908661 0.242523
0.676636 0.913025 0.246399
0.764801 0.917297 0.253510
0.849335 0.921265 0.263885
0.922485 0.925385 0.276428
0.984802 0.930237 0.290100
0.018402 0.004211 0.143982
0.085815 0.011322 0.139130
0.167999 0.025482 0.138397
0.262512 0.046448 0.143463
0.380463 0.060333 0.154633
0.521667 0.059601 0.170380
0.675476 0.042480 0.188751
0.825928 0.030640 0.207825
0.956177 0.077484 0.225281
0.019714 0.088959 0.137146
0.081573 0.089722 0.141113
0.168671 0.098755 0.139740
0.263153 0.111084 0.146851
0.383759 0.119598 0.158478
0.527863 0.119965 0.172943
0.680756 0.117126 0.191010
0.829742 0.120636 0.209686
0.958252 0.151459 0.226654
0.024689 0.183594 0.139160
0.090179 0.184845 0.141144
0.173279 0.188629 0.148071
0.272156 0.198700 0.155243
0.395538 0.208313 0.166351
0.538269 0.216339 0.180817
0.690369 0.223511 0.197449
0.837616 0.234894 0.214020
0.962402 0.261353 0.229858
0.024139 0.293060 0.151306
0.091187 0.295441 0.153259
0.184937 0.297455 0.163391
0.287933 0.310028 0.168396
0.413696 0.322815 0.178619
0.556427 0.335815 0.191162
0.705475 0.349091 0.206116
0.846558 0.365814 0.221924
0.964386 0.391296 0.237030
0.000061 0.425415 0.170898
0.085022 0.427643 0.173187
0.192932 0.432861 0.179291
0.306763 0.445068 0.183136
0.437256 0.458801 0.191010
0.578217 0.472809 0.204437
0.722198 0.488220 0.217896
0.856079 0.505859 0.231750
0.965057 0.528748 0.246094
0.000000 0.573578 0.188477
0.086884 0.575439 0.190704
0.212341 0.579956 0.196320
0.335175 0.589722 0.201050
0.467194 0.602997 0.205231
0.606323 0.615845 0.216003
0.742554 0.629181 0.230804
0.865997 0.644531 0.243896
0.964325 0.662781 0.257965
0.126129 0.713593 0.211578
0.183228 0.714905 0.213837
0.278778 0.718079 0.219482
0.391235 0.725342 0.224243
0.514771 0.736176 0.226562
0.644653 0.746552 0.234039
0.769562 0.756104 0.247711
0.879089 0.766663 0.261963
0.965302 0.778900 0.275696
0.310669 0.824524 0.248718
0.338989 0.825317 0.250793
0.400360 0.827545 0.255157
0.486084 0.833954 0.255463
0.590149 0.841034 0.258362
0.701294 0.847717 0.265045
0.807983 0.853699 0.275940
0.899719 0.859528 0.289795
0.973206 0.866486 0.303192
0.482819 0.905273 0.294373
0.499817 0.906433 0.294373
0.540070 0.908997 0.294861
0.603668 0.912720 0.296600
0.683716 0.916901 0.300537
0.770447 0.920990 0.307220
0.853668 0.924896 0.316528
0.925812 0.929016 0.327698
0.987549 0.933807 0.339874
0.030579 0.009247 0.239563
0.098663 0.015961 0.235382
0.185089 0.032776 0.230103
0.286224 0.047058 0.231659
0.407440 0.058777 0.237762
0.547882 0.057556 0.249878
0.698944 0.041718 0.265869
0.845856 0.035614 0.283142
0.973480 0.083221 0.298706
0.032471 0.095215 0.233917
0.093994 0.094055 0.237366
0.186859 0.102936 0.232147
0.289398 0.113220 0.232849
0.411255 0.121613 0.239990
0.553589 0.121552 0.252167
0.703857 0.119263 0.268036
0.849365 0.125092 0.285004
0.975311 0.156342 0.300201
0.045898 0.194946 0.228882
0.102753 0.196625 0.230408
0.188660 0.199188 0.235382
0.295563 0.208313 0.236816
0.417633 0.217529 0.247009
0.559052 0.224823 0.260315
0.710205 0.230652 0.275055
0.856201 0.240540 0.289642
0.978668 0.266785 0.303833
0.022400 0.311096 0.233521
0.097778 0.313019 0.234741
0.203827 0.313232 0.240845
0.309204 0.321442 0.249451
0.434753 0.333221 0.258423
0.576233 0.344940 0.270538
0.722931 0.357513 0.284851
0.861237 0.374054 0.299683
0.976471 0.399475 0.313599
0.000000 0.445770 0.246399
0.091797 0.447662 0.248077
0.210693 0.449646 0.255066
0.330109 0.454437 0.267609
0.456726 0.468597 0.274170
0.595978 0.482269 0.285461
0.738068 0.496979 0.297668
0.869202 0.514130 0.310822
0.975220 0.537018 0.324371
0.033478 0.588470 0.268799
0.124542 0.590088 0.270691
0.235718 0.594116 0.275421
0.359650 0.598480 0.287384
0.486298 0.611633 0.292023
0.622101 0.624329 0.301544
0.755615 0.637421 0.314331
0.876251 0.652496 0.326385
0.971802 0.670624 0.339355
0.178833 0.723053 0.298340
0.223602 0.724304 0.300262
0.307709 0.727295 0.304962
0.413208 0.734283 0.309570
0.532471 0.744415 0.313385
0.658936 0.754242 0.321045
0.780792 0.763458 0.333191
0.887512 0.773895 0.345551
0.971497 0.786011 0.357635
0.338989 0.832520 0.332977
0.365173 0.833252 0.334717
0.422241 0.835907 0.337646
0.504395 0.841888 0.338989
0.605225 0.848419 0.342804
0.713379 0.854675 0.349518
0.817291 0.860382 0.359314
0.906586 0.866150 0.371155
0.978455 0.873047 0.382690
0.500732 0.912872 0.372467
0.517090 0.913910 0.372711
0.556091 0.916290 0.373657
0.617676 0.919708 0.375885
0.695465 0.923584 0.380035
0.779816 0.927429 0.386353
0.860779 0.931183 0.394684
0.931183 0.935211 0.404449
0.991974 0.940002 0.415039
0.017334 0.016052 0.357269
0.098724 0.020416 0.354462
0.198761 0.036896 0.347168
0.309021 0.053955 0.343231
0.438751 0.051971 0.346313
0.581329 0.046051 0.353424
0.730316 0.029724 0.365570
0.873077 0.031952 0.380249
0.996765 0.083099 0.393738
0.026001 0.101471 0.352020
0.095947 0.099182 0.355133
0.199829 0.105438 0.350311
0.313629 0.117767 0.344635
0.443695 0.119598 0.347809
0.586578 0.119263 0.355377
0.734711 0.117584 0.367584
0.876129 0.127045 0.382080
0.997711 0.158783 0.395264
0.049561 0.205109 0.344727
0.107635 0.205109 0.347961
0.201965 0.203308 0.354370
0.324463 0.212402 0.348022
0.452911 0.221191 0.350952
0.592529 0.229462 0.360474
0.740509 0.235107 0.373199
0.882172 0.245667 0.386536
0.998993 0.271942 0.398926
0.048950 0.325806 0.343872
0.118652 0.327423 0.344757
0.217407 0.331207 0.347229
0.335724 0.335571 0.352905
0.463226 0.346558 0.359100
0.601898 0.357391 0.371033
0.744934 0.369812 0.384644
0.878998 0.386597 0.398773
0.990021 0.412445 0.411896
0.000000 0.467651 0.350311
0.102783 0.469177 0.351410
0.229736 0.470612 0.355316
0.360718 0.469666 0.367523
0.483093 0.482544 0.375397
0.620422 0.495392 0.385254
0.759460 0.509064 0.397064
0.886597 0.525757 0.409637
0.988983 0.548492 0.421936
0.040710 0.613220 0.365356
0.134888 0.614594 0.366699
0.251129 0.617737 0.370239
0.391846 0.611908 0.389252
0.512390 0.623718 0.396088
0.643616 0.636475 0.404266
0.773895 0.649384 0.414948
0.891205 0.664062 0.425568
0.983368 0.681976 0.437164
0.191498 0.747101 0.389954
0.236938 0.748108 0.391449
0.323486 0.750305 0.395325
0.445435 0.744873 0.414520
0.557587 0.754303 0.419861
0.678314 0.764832 0.425629
0.795959 0.774170 0.435699
0.899170 0.784546 0.445923
0.980255 0.796539 0.456573
0.356171 0.852875 0.422668
0.383270 0.852905 0.424835
0.452301 0.847198 0.438293
0.531982 0.850525 0.443878
0.626740 0.857086 0.447723
0.729797 0.863922 0.452820
0.829651 0.869965 0.460449
0.915649 0.875702 0.470428
0.985413 0.882568 0.480408
0.528412 0.921051 0.472748
0.543976 0.921783 0.473541
0.580627 0.923828 0.475128
0.638458 0.927307 0.477448
0.711853 0.931580 0.480621
0.792389 0.935944 0.485291
0.870087 0.940033 0.491760
0.938171 0.944153 0.499878
0.997742 0.948914 0.509125
0.000000 0.021973 0.495422
0.069061 0.022156 0.494537
0.203827 0.035461 0.486511
0.331940 0.052704 0.478149
0.468719 0.051758 0.476501
0.617249 0.022034 0.480469
0.765900 0.004028 0.487732
0.904724 0.015167 0.498383
1.000000 0.074738 0.509247
0.000000 0.106659 0.490997
0.078125 0.104980 0.492157
0.205566 0.106628 0.489227
0.336914 0.118347 0.479889
0.474121 0.121826 0.477753
0.622070 0.112488 0.481964
0.769775 0.110046 0.489380
0.907288 0.124390 0.500000
1.000000 0.157562 0.510620
0.019287 0.212982 0.482971
0.104675 0.212250 0.485229
0.212402 0.207489 0.492035
0.348419 0.214447 0.484467
0.486389 0.223389 0.480804
0.630829 0.228821 0.484772
0.776062 0.235962 0.493164
0.912231 0.249359 0.503815
1.000000 0.275696 0.513916
0.063629 0.339752 0.476440
0.135132 0.340912 0.477173
0.230560 0.341797 0.483917
0.358887 0.340607 0.490967
0.502411 0.351898 0.485046
0.640350 0.365234 0.489929
0.778015 0.379364 0.500549
0.905853 0.397583 0.512817
1.000000 0.423798 0.524139
0.052185 0.485199 0.478577
0.138306 0.486450 0.479401
0.251831 0.489471 0.481384
0.379852 0.494080 0.484985
0.515686 0.500336 0.491455
0.650299 0.511108 0.501434
0.784271 0.524017 0.512970
0.905823 0.540680 0.524811
1.000000 0.563385 0.535767
0.073792 0.636627 0.486816
0.157959 0.637695 0.487762
0.277130 0.639160 0.490570
0.417206 0.636627 0.499298
0.544800 0.639435 0.512482
0.669800 0.652222 0.519989
0.796082 0.664490 0.529144
0.908539 0.678497 0.539062
0.996307 0.696167 0.549408
0.209595 0.772278 0.503693
0.255096 0.773041 0.504761
0.348480 0.772522 0.509247
0.475555 0.764740 0.524536
0.588287 0.767944 0.535980
0.701782 0.778564 0.541534
0.814026 0.787872 0.550079
0.912689 0.798126 0.558685
0.990173 0.809906 0.568115
0.373077 0.876740 0.529663
0.404968 0.874878 0.532990
0.478180 0.867340 0.544617
0.563721 0.863770 0.556488
0.653107 0.868805 0.562317
0.749573 0.875824 0.566956
0.844177 0.882172 0.573029
0.925903 0.887939 0.581512
0.993164 0.894684 0.590118
0.556061 0.936035 0.578583
0.572754 0.935303 0.580963
0.609192 0.935364 0.584747
0.663605 0.937958 0.588196
0.731995 0.942169 0.591553
0.807343 0.946869 0.595367
0.880829 0.951263 0.600403
0.946014 0.955536 0.607117
1.000000 0.959900 0.615448
0.000000 0.023804 0.644470
0.010376 0.020874 0.643829
0.205627 0.026093 0.637146
0.354553 0.040436 0.626373
0.500397 0.045837 0.619293
0.651337 0.007935 0.620575
0.801086 0.000000 0.624542
0.936523 0.000000 0.630890
1.000000 0.060791 0.639038
0.000000 0.109192 0.640808
0.041595 0.107880 0.640503
0.210449 0.105194 0.638580
0.360229 0.115540 0.627319
0.505737 0.123108 0.619873
0.655945 0.109039 0.621613
0.804413 0.098480 0.625702
0.938477 0.117340 0.632141
1.000000 0.154480 0.640137
0.000000 0.218658 0.632446
0.101471 0.218445 0.632660
0.223938 0.210510 0.640076
0.371979 0.215393 0.632294
0.518219 0.227173 0.623047
0.666016 0.229309 0.624023
0.810944 0.234985 0.628235
0.942322 0.251221 0.635010
1.000000 0.278748 0.642639
0.074371 0.350952 0.622803
0.150726 0.351562 0.623444
0.247437 0.347900 0.633514
0.384277 0.345398 0.637848
0.534576 0.357300 0.627747
0.679138 0.367279 0.627441
0.815735 0.382660 0.631531
0.937897 0.403412 0.639282
1.000000 0.429474 0.647614
0.122589 0.500702 0.617767
0.185150 0.501740 0.618378
0.281799 0.503967 0.622253
0.402679 0.506073 0.629395
0.548218 0.506775 0.634338
0.690369 0.520233 0.631256
0.817352 0.536163 0.637939
0.930664 0.554565 0.647583
1.000000 0.577698 0.656708
0.148346 0.654633 0.622498
0.208527 0.655457 0.623199
0.311859 0.657440 0.624908
0.436829 0.660431 0.627930
0.572235 0.663666 0.632782
0.700226 0.670502 0.641632
0.821075 0.681152 0.650604
0.926788 0.694580 0.659912
1.000000 0.712067 0.668732
0.245636 0.793549 0.632416
0.287659 0.794098 0.633179
0.379089 0.793274 0.635803
0.496704 0.791046 0.641510
0.619934 0.787659 0.652985
0.728577 0.794373 0.662140
0.833954 0.803802 0.669098
0.927185 0.813721 0.676361
0.999969 0.825165 0.684448
0.403229 0.896576 0.651337
0.435242 0.894562 0.653503
0.500122 0.891083 0.658417
0.588776 0.886200 0.667297
0.683075 0.883453 0.678802
0.772186 0.889465 0.684601
0.859863 0.896179 0.689453
0.936554 0.902008 0.696472
0.999878 0.908600 0.703827
0.575409 0.958984 0.684540
0.593048 0.957703 0.686646
0.633087 0.954926 0.691833
0.690826 0.952209 0.699554
0.755249 0.954498 0.704865
0.824249 0.959167 0.708649
0.892151 0.964020 0.712555
0.954071 0.968475 0.717865
1.000000 0.970428 0.727051
0.000000 0.013824 0.789795
0.014404 0.007568 0.789154
0.227264 0.007446 0.782776
0.385742 0.016968 0.771179
0.536926 0.021301 0.761444
0.686615 0.005219 0.757690
0.833771 0.000000 0.760681
0.965149 0.000000 0.764404
1.000000 0.059052 0.770111
0.000000 0.105988 0.786926
0.055511 0.102997 0.786621
0.236053 0.100464 0.782715
0.392822 0.110779 0.770447
0.542328 0.116486 0.761383
0.690765 0.113068 0.758270
0.836639 0.094391 0.761414
0.966431 0.112488 0.765228
1.000000 0.157318 0.770844
0.013824 0.221344 0.778351
0.127991 0.219879 0.778931
0.253387 0.211243 0.784119
0.404663 0.215790 0.775482
0.554291 0.227295 0.764435
0.700165 0.236603 0.759949
0.842560 0.237854 0.763123
0.968811 0.254395 0.767029
1.000000 0.284760 0.772400
0.126343 0.359131 0.766724
0.182770 0.357513 0.770050
0.279968 0.351379 0.779266
0.418945 0.349854 0.779816
0.569550 0.360565 0.769196
0.712677 0.375244 0.762787
0.849152 0.385284 0.765167
0.967255 0.406219 0.768646
1.000000 0.432587 0.774017
0.187439 0.513855 0.756531
0.233490 0.514191 0.758331
0.316284 0.513580 0.765472
0.434631 0.511292 0.774658
0.581116 0.511993 0.775330
0.724548 0.526978 0.766113
0.853119 0.540253 0.767548
0.960724 0.560822 0.771454
1.000000 0.583466 0.777161
0.239685 0.669037 0.754211
0.282318 0.669739 0.754852
0.363586 0.671600 0.757233
0.473145 0.674347 0.761261
0.596771 0.676636 0.768341
0.734619 0.679871 0.770172
0.852112 0.693176 0.771027
0.947998 0.708710 0.777496
1.000000 0.726227 0.784271
0.310028 0.808807 0.760406
0.345215 0.809143 0.761017
0.419678 0.809875 0.762421
0.521973 0.811127 0.764862
0.638397 0.812531 0.768524
0.756775 0.813019 0.775208
0.855713 0.820435 0.782471
0.942291 0.829315 0.789062
1.000000 0.840332 0.795776
0.443024 0.912842 0.771667
0.468475 0.912415 0.772339
0.525116 0.911377 0.774200
0.607849 0.909546 0.777802
0.704529 0.906311 0.784424
0.797638 0.903961 0.794739
0.876465 0.910492 0.799683
0.947479 0.916443 0.805145
1.000000 0.922882 0.811218
0.593475 0.980591 0.790894
0.610168 0.979858 0.791901
0.648987 0.977997 0.794556
0.708099 0.974701 0.799713
0.777740 0.970673 0.807953
0.843292 0.971710 0.814819
0.904327 0.976776 0.818420
0.962372 0.981506 0.822510
1.000000 0.981171 0.832642
0.018188 0.000000 0.918640
0.146759 0.000000 0.917786
0.292206 0.000000 0.909424
0.437714 0.000000 0.898468
0.583832 0.000000 0.888214
0.728149 0.000000 0.882111
0.866394 0.000000 0.882050
0.988312 0.000000 0.885468
1.000000 0.090057 0.889465
0.070496 0.092957 0.916687
0.166748 0.088654 0.915924
0.303131 0.095093 0.907654
0.444977 0.101196 0.897308
0.589020 0.106598 0.887787
0.731873 0.109680 0.882233
0.868683 0.108246 0.882477
0.989044 0.122620 0.885925
1.000000 0.175262 0.889893
0.151672 0.219666 0.908600
0.203064 0.212555 0.913086
0.317932 0.210724 0.910706
0.456879 0.216553 0.901245
0.599945 0.228088 0.890076
0.740051 0.240784 0.883209
0.873444 0.249023 0.883545
0.990112 0.263947 0.886993
1.000000 0.298187 0.890808
0.207520 0.360718 0.900696
0.248352 0.357239 0.904846
0.340485 0.352661 0.909119
0.471405 0.354248 0.905151
0.613525 0.364838 0.894653
0.750824 0.380798 0.886139
0.878754 0.394928 0.885223
0.989349 0.412048 0.888153
1.000000 0.439606 0.891724
0.262421 0.521698 0.887054
0.295532 0.520569 0.890533
0.371368 0.518097 0.897003
0.484070 0.514282 0.904022
0.623413 0.517853 0.899994
0.759979 0.532593 0.889771
0.881378 0.548279 0.887085
0.984467 0.565308 0.889313
1.000000 0.587555 0.892700
0.320526 0.681488 0.876648
0.350281 0.681793 0.878357
0.417114 0.682465 0.882111
0.514008 0.682739 0.888428
0.631226 0.680847 0.897369
0.764679 0.684570 0.894989
0.880341 0.698975 0.889099
0.973236 0.713989 0.890503
1.000000 0.730499 0.894073
0.392792 0.820404 0.876709
0.419678 0.820770 0.877319
0.479584 0.821625 0.878784
0.566650 0.823029 0.881409
0.668488 0.824921 0.885406
0.773926 0.826355 0.891785
0.880371 0.830200 0.892334
0.960480 0.840912 0.894226
1.000000 0.851807 0.898895
0.493652 0.925262 0.884674
0.514404 0.925262 0.885132
0.561981 0.925232 0.886261
0.633759 0.925201 0.888214
0.720154 0.925171 0.890930
0.810333 0.925293 0.894379
0.893860 0.925171 0.899933
0.959167 0.930573 0.904907
1.000000 0.936493 0.910126
0.617035 0.996613 0.896881
0.631592 0.996368 0.897369
0.666016 0.995758 0.898468
0.719574 0.994690 0.900452
0.785706 0.993042 0.903625
0.855560 0.990662 0.908722
0.918213 0.989319 0.916199
0.971405 0.992249 0.922211
1.000000 0.992493 0.934540
