滤镜资源/Professional Luts Collection/Lutify.me Professional/Instant Films/Enstatite.cube
# Created by: Lutify.me
# Copyright: (c) Copyright Lutify.me 2015
# Website: https://lutify.me
#LUT size
LUT_3D_SIZE 9
#LUT data points
0.000000 0.000000 0.000000
0.009308 0.000397 0.000427
0.060883 0.000000 0.001862
0.175446 0.000000 0.006744
0.324615 0.000000 0.019562
0.471497 0.000000 0.039764
0.606445 0.000000 0.062042
0.732300 0.000000 0.082977
0.850983 0.000000 0.103027
0.002655 0.008942 0.002258
0.013641 0.012848 0.002289
0.074951 0.016632 0.003113
0.191315 0.010620 0.008759
0.337311 0.000000 0.021973
0.480591 0.000000 0.042023
0.613098 0.000000 0.063202
0.737183 0.016083 0.083588
0.854675 0.104370 0.103394
0.006592 0.070801 0.012329
0.027893 0.076111 0.015717
0.095337 0.095947 0.013947
0.216431 0.112396 0.017151
0.360962 0.122040 0.026520
0.499115 0.133881 0.043091
0.627045 0.156189 0.063263
0.747681 0.188934 0.083466
0.862793 0.227814 0.104218
0.012604 0.193756 0.048065
0.057770 0.198761 0.054565
0.136230 0.213776 0.064880
0.247009 0.242981 0.053955
0.377228 0.264313 0.063599
0.507263 0.284271 0.073639
0.631714 0.304718 0.088318
0.750427 0.327393 0.105865
0.863647 0.353088 0.126831
0.097687 0.326233 0.107727
0.135498 0.330078 0.113525
0.205841 0.339844 0.126740
0.296509 0.369965 0.107819
0.408600 0.390930 0.112671
0.523895 0.410400 0.124664
0.640442 0.430115 0.135437
0.754639 0.449951 0.149780
0.864502 0.470978 0.169983
0.216614 0.450104 0.177429
0.240814 0.453033 0.181946
0.291626 0.460999 0.190948
0.360168 0.486755 0.174225
0.453827 0.509155 0.166199
0.555298 0.525665 0.180603
0.660065 0.543518 0.194824
0.766876 0.562195 0.207733
0.871674 0.581055 0.226532
0.327240 0.567017 0.253296
0.343506 0.569153 0.256683
0.378235 0.578033 0.258209
0.431213 0.598999 0.245361
0.507263 0.619476 0.237183
0.597290 0.637146 0.239532
0.691132 0.651672 0.257294
0.788544 0.668274 0.272705
0.886871 0.685516 0.290985
0.427368 0.678375 0.331604
0.439209 0.680206 0.333984
0.462585 0.691620 0.327515
0.505157 0.707947 0.318939
0.567291 0.725830 0.312500
0.644592 0.743011 0.311340
0.730530 0.758179 0.319336
0.819183 0.771729 0.337921
0.910370 0.786804 0.357269
0.518158 0.788483 0.406097
0.525391 0.792542 0.403656
0.544556 0.801453 0.398895
0.579407 0.814545 0.393097
0.630829 0.829926 0.388123
0.696747 0.845978 0.386017
0.773438 0.861328 0.388947
0.856415 0.875214 0.399689
0.941620 0.887970 0.419403
0.001953 0.000854 0.007721
0.013336 0.001801 0.010071
0.070435 0.000427 0.014282
0.184845 0.000000 0.024353
0.332275 0.000000 0.043488
0.477386 0.000000 0.066376
0.611206 0.000000 0.088257
0.736298 0.000000 0.109711
0.854584 0.000000 0.130676
0.004944 0.013702 0.012054
0.019043 0.016693 0.013733
0.084259 0.019196 0.017822
0.200043 0.013000 0.028717
0.344574 0.000122 0.047913
0.486237 0.000000 0.069641
0.617706 0.000000 0.090729
0.741119 0.024933 0.111389
0.858246 0.110504 0.132294
0.013123 0.077545 0.029053
0.036652 0.082825 0.033813
0.104370 0.101135 0.035858
0.224854 0.116241 0.043579
0.367554 0.125458 0.057495
0.504303 0.137573 0.075043
0.631378 0.160034 0.094757
0.751465 0.192749 0.115051
0.866272 0.231659 0.136108
0.026215 0.199768 0.072235
0.070587 0.204651 0.077881
0.145050 0.220398 0.086212
0.254639 0.247345 0.083130
0.383362 0.268188 0.093750
0.512268 0.287720 0.105469
0.635956 0.308075 0.120758
0.754181 0.330719 0.138763
0.867035 0.356415 0.159851
0.111206 0.331787 0.131439
0.146667 0.335632 0.136810
0.214294 0.345673 0.148529
0.303436 0.374908 0.134583
0.414215 0.395020 0.142151
0.528687 0.414246 0.154602
0.644623 0.433716 0.166595
0.758392 0.453400 0.181702
0.867859 0.474396 0.201813
0.225800 0.455597 0.200806
0.249298 0.458466 0.205078
0.298553 0.466949 0.212708
0.366180 0.491852 0.199646
0.458984 0.513489 0.195038
0.559753 0.529663 0.209534
0.664062 0.547302 0.223633
0.770477 0.565796 0.236847
0.874969 0.584503 0.255432
0.334015 0.572144 0.274963
0.350128 0.574280 0.278198
0.383942 0.583527 0.279175
0.436340 0.603790 0.268677
0.511810 0.623749 0.262665
0.601288 0.641022 0.266113
0.694763 0.655396 0.283295
0.791901 0.671844 0.298340
0.889923 0.688904 0.316162
0.432800 0.682983 0.350708
0.444397 0.684937 0.352753
0.467316 0.696320 0.346771
0.509552 0.712250 0.339478
0.571259 0.729736 0.334259
0.648071 0.746613 0.333954
0.733734 0.761566 0.342072
0.822113 0.774994 0.359955
0.913147 0.789978 0.378571
0.522217 0.792664 0.421906
0.529449 0.796600 0.419739
0.548492 0.805389 0.415405
0.583069 0.818207 0.410248
0.634155 0.833374 0.405975
0.699768 0.849152 0.404327
0.776215 0.864288 0.407593
0.858948 0.878021 0.418152
0.944000 0.890686 0.437134
0.003937 0.007111 0.065308
0.022400 0.008972 0.067474
0.087250 0.007233 0.078217
0.204651 0.000000 0.093597
0.349762 0.000000 0.113464
0.491455 0.000000 0.135193
0.623108 0.000000 0.157379
0.746765 0.000000 0.179626
0.864044 0.032715 0.202057
0.008545 0.027161 0.071259
0.031708 0.029602 0.074554
0.100891 0.031097 0.085602
0.218811 0.023804 0.100372
0.361176 0.002716 0.119476
0.499756 0.000305 0.140350
0.629272 0.002808 0.161743
0.751373 0.052124 0.183319
0.867554 0.128693 0.205322
0.021545 0.099548 0.089874
0.054443 0.104218 0.093994
0.127045 0.116394 0.103149
0.249725 0.125885 0.114655
0.386108 0.134705 0.131866
0.517487 0.148743 0.151245
0.642365 0.171875 0.171143
0.761322 0.204224 0.191528
0.875305 0.242493 0.212769
0.057434 0.218567 0.132904
0.096954 0.223236 0.137878
0.169281 0.235260 0.149902
0.273560 0.260315 0.153656
0.400604 0.279480 0.164795
0.526764 0.297638 0.179199
0.647858 0.317444 0.196411
0.764130 0.340027 0.215240
0.875763 0.365723 0.235840
0.141357 0.347595 0.191528
0.172882 0.351288 0.196228
0.234985 0.362061 0.205322
0.320465 0.388031 0.201080
0.428162 0.406372 0.211884
0.540710 0.424774 0.225098
0.655060 0.443451 0.238373
0.767670 0.462616 0.253815
0.876160 0.483307 0.273010
0.247711 0.469818 0.256744
0.269775 0.472595 0.260590
0.315491 0.481842 0.266174
0.380737 0.504547 0.259705
0.471313 0.524384 0.260284
0.570557 0.539856 0.274536
0.673706 0.556946 0.288361
0.779175 0.574860 0.301727
0.882782 0.593140 0.319427
0.350494 0.584747 0.325043
0.365967 0.586823 0.327942
0.397644 0.596619 0.328308
0.448700 0.615356 0.322052
0.522614 0.634064 0.319733
0.610809 0.650421 0.324890
0.703400 0.664398 0.340790
0.799774 0.680420 0.355011
0.897125 0.697052 0.371765
0.445740 0.693939 0.393829
0.456512 0.696350 0.395050
0.478638 0.707275 0.390411
0.519867 0.722351 0.385468
0.580536 0.738953 0.382477
0.656403 0.755096 0.383667
0.741241 0.769501 0.391968
0.829102 0.782654 0.408356
0.919617 0.797302 0.425598
0.532043 0.802338 0.457550
0.539062 0.806091 0.455841
0.557678 0.814423 0.452545
0.591736 0.826721 0.448669
0.642059 0.841309 0.445709
0.706940 0.856537 0.445190
0.782715 0.871216 0.448944
0.864960 0.884644 0.459167
0.949707 0.897095 0.476837
0.000000 0.031952 0.186340
0.032043 0.034271 0.187195
0.115021 0.034698 0.194794
0.233734 0.017731 0.211517
0.374237 0.000000 0.230255
0.511108 0.000000 0.249969
0.639465 0.000000 0.270325
0.760651 0.003998 0.291199
0.875763 0.099670 0.312408
0.006622 0.059570 0.189514
0.047699 0.062195 0.191467
0.128662 0.064056 0.201294
0.246582 0.058258 0.217651
0.384216 0.041260 0.236053
0.518372 0.031311 0.255219
0.644806 0.051941 0.275055
0.764648 0.103943 0.295258
0.878815 0.164825 0.315887
0.037964 0.132507 0.201202
0.080750 0.136627 0.204407
0.158142 0.144806 0.215546
0.273865 0.150848 0.233368
0.406311 0.159576 0.249847
0.533813 0.174683 0.267395
0.656097 0.197662 0.285675
0.773285 0.228760 0.304474
0.885681 0.265503 0.323914
0.085205 0.253052 0.231934
0.125977 0.257080 0.235901
0.202911 0.266541 0.245667
0.304688 0.283752 0.257690
0.433441 0.296631 0.268585
0.556793 0.311462 0.283020
0.675232 0.329498 0.299072
0.789185 0.350952 0.316223
0.899292 0.375610 0.334381
0.171173 0.379211 0.278931
0.202118 0.382477 0.282715
0.267914 0.388458 0.293488
0.348297 0.404938 0.304352
0.450470 0.425842 0.309570
0.565125 0.442688 0.317902
0.680481 0.458527 0.329407
0.792725 0.475311 0.343536
0.900635 0.494232 0.360382
0.274323 0.496490 0.334442
0.295593 0.498993 0.337646
0.345184 0.502533 0.347992
0.407623 0.517426 0.354797
0.490234 0.540192 0.353149
0.587677 0.556305 0.363220
0.691803 0.572876 0.372742
0.798370 0.589264 0.383331
0.902313 0.606018 0.398407
0.372345 0.606995 0.393097
0.387421 0.608917 0.395691
0.424774 0.611176 0.404785
0.472717 0.626007 0.406433
0.540039 0.646332 0.403961
0.625336 0.664307 0.405945
0.717010 0.678284 0.418610
0.813843 0.694061 0.429352
0.911438 0.709869 0.443390
0.464020 0.712341 0.453003
0.476990 0.712402 0.456787
0.502258 0.717834 0.460022
0.540527 0.731445 0.458832
0.596588 0.748901 0.456299
0.669312 0.766327 0.455811
0.752869 0.781403 0.461548
0.840179 0.794434 0.475525
0.930511 0.808777 0.490417
0.551025 0.814056 0.514008
0.558838 0.816406 0.514374
0.577240 0.823242 0.513763
0.609100 0.834991 0.511749
0.656464 0.849945 0.509338
0.718750 0.865967 0.508179
0.793030 0.881256 0.510498
0.874603 0.894836 0.518982
0.958862 0.907104 0.534973
0.000397 0.072906 0.313232
0.057739 0.074829 0.313812
0.156036 0.077332 0.317963
0.273438 0.058594 0.336182
0.405548 0.035583 0.352173
0.534637 0.013184 0.369995
0.658325 0.026886 0.388397
0.776337 0.086945 0.407104
0.888702 0.155975 0.426117
0.020874 0.098267 0.314850
0.079498 0.100494 0.316223
0.169952 0.103546 0.322784
0.285095 0.094696 0.340973
0.414093 0.091278 0.356812
0.540833 0.093842 0.374451
0.662872 0.114777 0.392487
0.779755 0.154816 0.410706
0.891327 0.205902 0.429230
0.076569 0.169098 0.322144
0.120819 0.172546 0.324707
0.200378 0.179352 0.333740
0.309052 0.182404 0.352844
0.431946 0.192627 0.368652
0.553925 0.207794 0.385132
0.672546 0.230042 0.401947
0.787140 0.259399 0.418976
0.897217 0.294434 0.436432
0.138397 0.287659 0.342560
0.174347 0.291229 0.345734
0.243652 0.299591 0.354889
0.338959 0.310089 0.371552
0.456909 0.319275 0.387238
0.576660 0.332550 0.400482
0.692688 0.349731 0.414368
0.804871 0.370422 0.429108
0.913513 0.394501 0.444672
0.213745 0.412018 0.378357
0.242279 0.414795 0.381470
0.302948 0.421234 0.388855
0.385071 0.430878 0.401764
0.479950 0.448730 0.410004
0.595428 0.460724 0.418701
0.708313 0.473663 0.430573
0.818024 0.488861 0.443909
0.924744 0.506500 0.458435
0.306610 0.526886 0.421539
0.326752 0.529053 0.424133
0.375305 0.532288 0.431763
0.442200 0.538239 0.445374
0.514954 0.558838 0.449799
0.609650 0.575958 0.455811
0.715179 0.590942 0.462524
0.822266 0.604919 0.471985
0.926300 0.619812 0.485138
0.397552 0.634460 0.469299
0.412659 0.635956 0.471710
0.451782 0.636536 0.480255
0.504303 0.642120 0.491577
0.564301 0.660583 0.494293
0.644165 0.680908 0.493561
0.734680 0.695221 0.503052
0.832520 0.710449 0.510468
0.930847 0.725006 0.522247
0.485962 0.736145 0.520752
0.499695 0.735596 0.524475
0.528442 0.736877 0.531433
0.569244 0.743561 0.538879
0.619751 0.759888 0.539978
0.686768 0.779358 0.538177
0.768158 0.796051 0.540497
0.854858 0.809204 0.551819
0.945282 0.823242 0.564240
0.572296 0.833038 0.576355
0.581757 0.833496 0.578705
0.603302 0.835785 0.583466
0.635345 0.843658 0.587128
0.678375 0.858063 0.587158
0.735626 0.875702 0.585297
0.806824 0.893066 0.584686
0.887451 0.907745 0.589935
0.971069 0.919861 0.604218
0.073547 0.111237 0.427673
0.126068 0.112579 0.428375
0.213959 0.114624 0.432068
0.322388 0.099670 0.449158
0.444489 0.083038 0.465424
0.563599 0.087738 0.479980
0.680756 0.108795 0.496948
0.794495 0.150238 0.514374
0.903473 0.205475 0.531921
0.099640 0.135406 0.428986
0.145142 0.137268 0.430267
0.226929 0.139923 0.435974
0.332520 0.132202 0.453125
0.451660 0.128906 0.469086
0.568787 0.142303 0.483765
0.684601 0.165100 0.500519
0.797394 0.200623 0.517578
0.905701 0.246643 0.534729
0.145813 0.205353 0.434662
0.182770 0.208405 0.436859
0.255157 0.213989 0.444672
0.353394 0.216217 0.462372
0.466431 0.223602 0.478607
0.579803 0.241516 0.493042
0.692871 0.263824 0.508911
0.803772 0.291870 0.525024
0.910889 0.325531 0.541290
0.202972 0.321869 0.449646
0.233398 0.324982 0.452271
0.293793 0.330933 0.462036
0.381195 0.339905 0.475952
0.485748 0.346985 0.494019
0.596741 0.360229 0.507996
0.709045 0.375702 0.521942
0.819092 0.395020 0.535767
0.925629 0.418457 0.550140
0.273224 0.442810 0.477081
0.297241 0.445282 0.479645
0.348389 0.451385 0.486176
0.420410 0.461121 0.497253
0.510315 0.470184 0.513214
0.619293 0.479095 0.524872
0.728882 0.491058 0.535980
0.836334 0.505707 0.547852
0.941498 0.522827 0.560669
0.348969 0.555847 0.512299
0.367310 0.557770 0.514496
0.410095 0.562073 0.519806
0.473389 0.569153 0.528961
0.547455 0.579193 0.542664
0.637299 0.596893 0.546722
0.743225 0.608063 0.554138
0.848419 0.619629 0.564301
0.951508 0.633026 0.576294
0.430054 0.661774 0.551422
0.445587 0.662598 0.553619
0.481110 0.664825 0.559143
0.534119 0.669037 0.568848
0.595825 0.678101 0.581177
0.667023 0.699341 0.581879
0.756134 0.714020 0.588501
0.854980 0.727692 0.594269
0.953583 0.740601 0.604950
0.513977 0.760834 0.595215
0.526306 0.761139 0.597565
0.554565 0.762451 0.603149
0.597626 0.765747 0.612366
0.648926 0.775055 0.621582
0.709045 0.794434 0.622284
0.786804 0.812683 0.622559
0.872711 0.825897 0.631592
0.962982 0.839325 0.642303
0.595520 0.856445 0.642792
0.605072 0.856720 0.644928
0.627441 0.857941 0.649994
0.662292 0.861359 0.657715
0.705139 0.871094 0.663818
0.757355 0.888306 0.664307
0.824280 0.907104 0.662811
0.903320 0.922729 0.665863
0.985992 0.934601 0.678864
0.178497 0.147125 0.533569
0.214203 0.148315 0.534485
0.285004 0.148438 0.539429
0.379303 0.136749 0.554779
0.487610 0.127045 0.570251
0.598419 0.135803 0.583862
0.707642 0.163544 0.598419
0.816010 0.201508 0.614685
0.920959 0.251007 0.631073
0.195709 0.171417 0.535034
0.228851 0.173309 0.536285
0.295898 0.173981 0.542969
0.387604 0.168488 0.558136
0.493591 0.167755 0.573425
0.602692 0.182007 0.587036
0.710876 0.209137 0.601562
0.818451 0.243317 0.617584
0.922852 0.286438 0.633636
0.229919 0.241486 0.540375
0.259186 0.244141 0.542297
0.319611 0.247955 0.550201
0.404755 0.249878 0.565887
0.505890 0.256409 0.581573
0.611755 0.273590 0.594879
0.717834 0.297607 0.609100
0.823944 0.324951 0.624359
0.927429 0.357666 0.639679
0.277161 0.355591 0.552155
0.301270 0.358032 0.554962
0.352081 0.362091 0.564270
0.429108 0.370056 0.575775
0.522217 0.376221 0.593323
0.624756 0.388397 0.607513
0.729889 0.404327 0.621277
0.835938 0.422516 0.635223
0.939331 0.445557 0.649017
0.335876 0.473724 0.573425
0.354950 0.475830 0.576019
0.397278 0.480621 0.582977
0.462250 0.487976 0.594025
0.544922 0.496216 0.608398
0.642426 0.503876 0.623383
0.746429 0.514374 0.635956
0.851501 0.527496 0.647858
0.954285 0.544281 0.660034
0.401245 0.583679 0.602386
0.417114 0.585480 0.604309
0.453796 0.589813 0.608978
0.509949 0.597137 0.616821
0.579529 0.607239 0.627991
0.666351 0.615448 0.641541
0.768158 0.623993 0.650970
0.870117 0.634888 0.660828
0.971436 0.647736 0.671661
0.470306 0.688110 0.635742
0.483643 0.689392 0.637360
0.514862 0.692596 0.641357
0.564117 0.697937 0.648315
0.627045 0.705109 0.658752
0.694489 0.718658 0.669098
0.782349 0.733521 0.672852
0.881653 0.744110 0.679382
0.980011 0.755066 0.689453
0.545807 0.786591 0.672485
0.557007 0.787354 0.674103
0.583344 0.789337 0.678131
0.625427 0.792786 0.685364
0.679321 0.798004 0.696259
0.737061 0.810913 0.705231
0.808655 0.830658 0.705078
0.893890 0.843933 0.711884
0.984253 0.856323 0.721436
0.622040 0.881317 0.713287
0.631195 0.881775 0.714935
0.653107 0.883057 0.719055
0.688385 0.885620 0.726196
0.734009 0.890472 0.736084
0.784363 0.903015 0.742859
0.845398 0.922424 0.742493
0.921875 0.939148 0.743835
1.000000 0.950897 0.756592
0.280914 0.182129 0.633820
0.307220 0.183411 0.634827
0.361542 0.179993 0.642456
0.440369 0.172882 0.655334
0.535065 0.169739 0.669342
0.636841 0.179260 0.682953
0.739044 0.208923 0.695679
0.841217 0.247162 0.710236
0.941742 0.293610 0.725311
0.293152 0.207489 0.635498
0.318115 0.209320 0.636810
0.369934 0.207001 0.645508
0.446899 0.204895 0.658203
0.539886 0.207489 0.672150
0.640320 0.220642 0.685699
0.741669 0.248993 0.698425
0.843262 0.283752 0.712860
0.943451 0.325012 0.727722
0.317993 0.277802 0.640991
0.340057 0.279510 0.643494
0.388153 0.281342 0.651855
0.460541 0.283966 0.665039
0.549957 0.290985 0.679321
0.647827 0.305878 0.692596
0.747467 0.330353 0.705048
0.847961 0.357971 0.718964
0.947418 0.389984 0.733276
0.352631 0.388336 0.652008
0.370697 0.389435 0.655762
0.415009 0.394104 0.661621
0.481293 0.400696 0.672180
0.564026 0.406769 0.687927
0.658630 0.416046 0.703125
0.756714 0.432861 0.715576
0.857025 0.451324 0.729095
0.956360 0.474335 0.742462
0.398682 0.503754 0.668945
0.414032 0.505219 0.671844
0.450897 0.508850 0.678253
0.509827 0.515106 0.687561
0.585175 0.522736 0.700195
0.674011 0.528473 0.716614
0.769897 0.539917 0.729004
0.869629 0.552460 0.741669
0.968597 0.569244 0.753876
0.455322 0.611969 0.691742
0.468658 0.613556 0.693665
0.500305 0.617340 0.698303
0.550262 0.623566 0.706268
0.615509 0.631439 0.717621
0.695007 0.638428 0.732208
0.787842 0.645996 0.744720
0.886627 0.655151 0.755707
0.984955 0.667847 0.766388
0.516907 0.714172 0.720123
0.528473 0.715485 0.721558
0.556061 0.718719 0.725098
0.600403 0.724304 0.731140
0.658234 0.732300 0.739624
0.725586 0.742493 0.750610
0.811798 0.750244 0.761047
0.907593 0.758667 0.769409
0.999939 0.768707 0.778717
0.582001 0.812317 0.751923
0.591949 0.813293 0.753174
0.615875 0.815735 0.756317
0.654999 0.819977 0.761810
0.707306 0.825867 0.769958
0.768738 0.833069 0.781616
0.833649 0.849670 0.787415
0.919250 0.862488 0.791901
1.000000 0.872986 0.800842
0.652008 0.906677 0.786987
0.660492 0.907318 0.788239
0.681183 0.909027 0.791382
0.715332 0.911926 0.797028
0.761200 0.916107 0.805573
0.814758 0.922485 0.816986
0.870911 0.938660 0.822357
0.943268 0.956726 0.822662
1.000000 0.969025 0.840088
0.376984 0.218048 0.731110
0.395142 0.216125 0.734528
0.437622 0.212982 0.741974
0.503387 0.210388 0.752655
0.585876 0.212494 0.765198
0.677979 0.224396 0.778259
0.773926 0.250519 0.790894
0.870148 0.289520 0.803467
0.966187 0.333893 0.817078
0.384644 0.243439 0.733887
0.402283 0.242676 0.737244
0.443756 0.241791 0.744598
0.508423 0.242615 0.755219
0.589661 0.248108 0.767731
0.680817 0.261749 0.780731
0.776062 0.286926 0.793304
0.871857 0.322357 0.805817
0.967560 0.362152 0.819275
0.401428 0.313385 0.739990
0.418030 0.314026 0.743073
0.457245 0.315521 0.750488
0.518890 0.318970 0.761627
0.597717 0.326965 0.774109
0.686920 0.340942 0.786896
0.780853 0.362457 0.799194
0.875824 0.390625 0.811371
0.971069 0.422028 0.824371
0.426300 0.420441 0.750122
0.442169 0.422180 0.752045
0.479553 0.426727 0.756531
0.536407 0.432068 0.766479
0.609985 0.438080 0.780426
0.695923 0.446503 0.795166
0.788544 0.460236 0.808350
0.882782 0.480194 0.820282
0.977631 0.503540 0.832794
0.462280 0.532837 0.764069
0.475708 0.534027 0.766418
0.508240 0.537140 0.771729
0.561371 0.543274 0.778809
0.629089 0.549957 0.790649
0.709717 0.555603 0.806274
0.799866 0.564270 0.820221
0.892944 0.578552 0.831879
0.987183 0.595917 0.843750
0.510132 0.639923 0.781982
0.521698 0.641205 0.783875
0.549561 0.644196 0.788483
0.594910 0.649200 0.796204
0.656281 0.656189 0.805969
0.729675 0.663025 0.819336
0.815430 0.668579 0.834259
0.906982 0.678802 0.845612
0.999298 0.692017 0.856689
0.565918 0.740814 0.805084
0.576019 0.742004 0.806458
0.600433 0.744995 0.809906
0.640259 0.750092 0.815826
0.693329 0.757080 0.824524
0.757812 0.765167 0.835968
0.835693 0.771118 0.850189
0.925781 0.778320 0.860962
1.000000 0.788574 0.870758
0.624115 0.837524 0.833130
0.632996 0.838562 0.834229
0.654510 0.841095 0.837036
0.690155 0.845490 0.841858
0.738434 0.851898 0.848785
0.796783 0.860260 0.857697
0.862671 0.870544 0.868408
0.949036 0.878601 0.875916
1.000000 0.886841 0.884399
0.685669 0.931946 0.863953
0.693451 0.932770 0.864960
0.712494 0.934753 0.867493
0.744415 0.938202 0.871979
0.788361 0.943146 0.878601
0.842316 0.949280 0.887787
0.901703 0.957397 0.899902
0.967346 0.975464 0.902588
1.000000 0.986206 0.926666
