滤镜资源/Professional Luts Collection/Lutify.me Professional/Instant Films/Enstatite.cube
# Created by: Lutify.me
# Copyright: (c) Copyright Lutify.me 2015
# Website: https://lutify.me
#LUT size
LUT_3D_SIZE 33
#LUT data points
0.000000 0.000000 0.000000
0.000031 0.000397 0.001160
0.002319 0.000031 0.001465
0.005646 0.000366 0.000488
0.009308 0.000397 0.000427
0.015625 0.000397 0.000397
0.025757 0.000122 0.000793
0.041107 0.000031 0.001404
0.060883 0.000000 0.001862
0.084259 0.000000 0.002625
0.111359 0.000000 0.003662
0.142059 0.000000 0.005005
0.175446 0.000000 0.006744
0.210999 0.000000 0.009155
0.248230 0.000000 0.012146
0.286316 0.000000 0.015625
0.324615 0.000000 0.019562
0.362549 0.000000 0.023987
0.399689 0.000000 0.028809
0.436005 0.000000 0.034149
0.471497 0.000000 0.039764
0.506195 0.000000 0.045410
0.540222 0.000000 0.051117
0.573639 0.000000 0.056610
0.606445 0.000000 0.062042
0.638641 0.000000 0.067413
0.670349 0.000000 0.072876
0.701538 0.000000 0.077972
0.732300 0.000000 0.082977
0.762512 0.000000 0.088074
0.792389 0.000000 0.092957
0.821838 0.000000 0.097992
0.850983 0.000000 0.103027
0.000763 0.001160 0.000397
0.001190 0.001526 0.000397
0.003448 0.001556 0.000061
0.005829 0.001862 0.000397
0.010437 0.001923 0.000427
0.017426 0.001984 0.000763
0.028015 0.002014 0.000854
0.044037 0.001892 0.001465
0.063751 0.001343 0.001953
0.087097 0.000336 0.002625
0.114349 0.000000 0.003937
0.144989 0.000000 0.005371
0.178345 0.000000 0.007233
0.213837 0.000000 0.009644
0.250824 0.000000 0.012695
0.288727 0.000000 0.016205
0.326843 0.000000 0.019958
0.364594 0.000000 0.024292
0.401581 0.000000 0.029205
0.437775 0.000000 0.034546
0.473083 0.000000 0.040192
0.507660 0.000000 0.045868
0.541595 0.000000 0.051514
0.574921 0.000000 0.056976
0.607635 0.000000 0.062500
0.639771 0.000000 0.067657
0.671356 0.000000 0.072906
0.702484 0.000000 0.078033
0.733124 0.000000 0.083191
0.763336 0.000000 0.088257
0.793091 0.000000 0.093170
0.822540 0.000305 0.098022
0.851685 0.009918 0.103027
0.001160 0.002350 0.000427
0.002289 0.002747 0.000793
0.003845 0.003143 0.000793
0.006256 0.003815 0.000732
0.011261 0.003937 0.000488
0.018890 0.004486 0.000824
0.030334 0.004639 0.001160
0.046570 0.004333 0.001526
0.066650 0.003937 0.002258
0.090332 0.003418 0.003021
0.117493 0.001526 0.004272
0.148041 0.000275 0.005829
0.181396 0.000000 0.007721
0.216766 0.000000 0.010193
0.253601 0.000000 0.013153
0.291412 0.000000 0.016571
0.329376 0.000000 0.020508
0.366943 0.000000 0.024933
0.403748 0.000000 0.029755
0.439728 0.000000 0.035004
0.474915 0.000000 0.040680
0.509338 0.000000 0.046387
0.543121 0.000000 0.051941
0.576324 0.000000 0.057465
0.608948 0.000000 0.062775
0.640961 0.000000 0.067932
0.672455 0.000000 0.073090
0.703522 0.000000 0.078064
0.734131 0.000000 0.083221
0.764221 0.000000 0.088287
0.793976 0.000244 0.093170
0.823364 0.004852 0.098206
0.852356 0.039093 0.103210
0.001556 0.005005 0.001160
0.002747 0.005371 0.001526
0.004608 0.006134 0.001221
0.007324 0.006622 0.001190
0.012421 0.007385 0.001495
0.020508 0.007751 0.001190
0.032715 0.008484 0.001740
0.049866 0.008850 0.001953
0.070374 0.008575 0.002625
0.094391 0.008087 0.003418
0.121826 0.006744 0.004730
0.152496 0.004150 0.006165
0.185730 0.001129 0.008148
0.220978 0.000061 0.010620
0.257660 0.000000 0.013672
0.295105 0.000000 0.017181
0.332794 0.000000 0.021210
0.370117 0.000000 0.025604
0.406647 0.000000 0.030273
0.442383 0.000000 0.035583
0.477386 0.000000 0.041321
0.511627 0.000000 0.046936
0.545258 0.000000 0.052338
0.578308 0.000000 0.057617
0.610748 0.000000 0.062958
0.642670 0.000000 0.068298
0.674042 0.000000 0.073334
0.704987 0.000000 0.078247
0.735443 0.000092 0.083221
0.765442 0.001953 0.088348
0.795135 0.014435 0.093384
0.824402 0.043488 0.098236
0.853363 0.072296 0.103363
0.002655 0.008942 0.002258
0.004181 0.009644 0.002625
0.005493 0.010437 0.002380
0.008514 0.011322 0.002319
0.013641 0.012848 0.002289
0.022095 0.014343 0.002014
0.035645 0.015411 0.002014
0.053589 0.016205 0.002625
0.074951 0.016632 0.003113
0.099579 0.016388 0.004059
0.127472 0.015656 0.005096
0.158142 0.013855 0.006775
0.191315 0.010620 0.008759
0.226349 0.006256 0.011475
0.262787 0.002167 0.014496
0.299988 0.000275 0.018005
0.337311 0.000000 0.021973
0.374268 0.000000 0.026520
0.410461 0.000000 0.031342
0.445892 0.000000 0.036499
0.480591 0.000000 0.042023
0.514618 0.000000 0.047424
0.548004 0.000000 0.052704
0.580841 0.000000 0.058044
0.613098 0.000000 0.063202
0.644836 0.000092 0.068420
0.676086 0.000824 0.073456
0.706879 0.004303 0.078491
0.737183 0.016083 0.083588
0.767090 0.037109 0.088501
0.796631 0.060333 0.093414
0.825806 0.083344 0.098541
0.854675 0.104370 0.103394
0.003540 0.016266 0.003510
0.005127 0.016968 0.003876
0.007568 0.017792 0.004181
0.010498 0.018890 0.004211
0.015900 0.021210 0.003845
0.024353 0.023560 0.003845
0.038910 0.025543 0.003784
0.057312 0.027740 0.003510
0.079559 0.029175 0.003937
0.105042 0.030029 0.004669
0.133606 0.030304 0.005737
0.164795 0.029266 0.007385
0.197998 0.027588 0.009430
0.232910 0.024750 0.012085
0.269073 0.020813 0.015350
0.305939 0.016083 0.018738
0.342804 0.011719 0.022736
0.379272 0.007507 0.027191
0.415131 0.004150 0.032074
0.450195 0.002838 0.037170
0.484528 0.002930 0.042542
0.518219 0.003235 0.048004
0.551361 0.004181 0.053223
0.583954 0.007202 0.058441
0.615967 0.014069 0.063538
0.647491 0.024017 0.068665
0.678528 0.036682 0.073578
0.709167 0.050964 0.078522
0.739319 0.066956 0.083649
0.769104 0.084778 0.088593
0.798492 0.102356 0.093414
0.827545 0.119202 0.098602
0.856293 0.135681 0.103424
0.004944 0.028351 0.005402
0.007080 0.028900 0.005707
0.009308 0.029999 0.006378
0.013519 0.031158 0.006592
0.019196 0.033813 0.006866
0.027832 0.037598 0.006683
0.042267 0.041718 0.005768
0.061096 0.044830 0.006134
0.083801 0.048065 0.006256
0.110229 0.050323 0.006714
0.139496 0.051910 0.007263
0.171265 0.052734 0.008575
0.205048 0.052612 0.010406
0.240204 0.051941 0.012695
0.276215 0.050659 0.015869
0.312653 0.048889 0.019531
0.349152 0.046844 0.023346
0.385132 0.045044 0.027740
0.420502 0.043823 0.032501
0.455109 0.043793 0.037567
0.489105 0.045410 0.042816
0.522461 0.048309 0.048157
0.555237 0.052673 0.053436
0.587555 0.058533 0.058624
0.619324 0.066498 0.063721
0.650604 0.076202 0.068848
0.681427 0.087494 0.073792
0.711853 0.099945 0.078674
0.741791 0.112915 0.083679
0.771423 0.126160 0.088715
0.800659 0.139526 0.093567
0.829590 0.153076 0.098633
0.858215 0.166656 0.103729
0.006104 0.047058 0.008270
0.008911 0.047791 0.008728
0.011963 0.048767 0.009186
0.016327 0.050323 0.009918
0.023102 0.052338 0.011017
0.032806 0.056000 0.011078
0.047455 0.061523 0.010010
0.066315 0.066376 0.009369
0.088654 0.070099 0.009857
0.115021 0.074097 0.010010
0.144806 0.077332 0.010437
0.176910 0.079834 0.011200
0.211029 0.081696 0.012878
0.246521 0.082855 0.014832
0.282928 0.083588 0.017212
0.319580 0.084076 0.020142
0.355896 0.084656 0.023712
0.391510 0.085541 0.027893
0.426361 0.086853 0.032562
0.460541 0.088989 0.037598
0.494080 0.092072 0.042908
0.527100 0.096161 0.048157
0.559570 0.101257 0.053406
0.591553 0.107544 0.058502
0.623016 0.114807 0.063690
0.654053 0.122986 0.068726
0.684631 0.132080 0.073669
0.714844 0.141907 0.078583
0.744598 0.152283 0.083679
0.774017 0.163177 0.088715
0.803101 0.174286 0.093567
0.831909 0.185760 0.098663
0.860382 0.197357 0.103851
0.006592 0.070801 0.012329
0.010101 0.071747 0.013000
0.013702 0.072571 0.013641
0.019592 0.074036 0.014496
0.027893 0.076111 0.015717
0.039490 0.078949 0.017365
0.053833 0.084045 0.016724
0.072418 0.090759 0.014648
0.095337 0.095947 0.013947
0.120972 0.100372 0.015198
0.150421 0.104919 0.015564
0.182495 0.108978 0.016113
0.216431 0.112396 0.017151
0.251862 0.115265 0.018921
0.288055 0.117706 0.020996
0.324646 0.119873 0.023499
0.360962 0.122040 0.026520
0.396545 0.124329 0.030029
0.431458 0.126953 0.033936
0.465637 0.130066 0.038300
0.499115 0.133881 0.043091
0.531921 0.138367 0.047974
0.564117 0.143555 0.053070
0.595825 0.149506 0.058105
0.627045 0.156189 0.063263
0.657806 0.163513 0.068268
0.688141 0.171417 0.073364
0.718109 0.179993 0.078430
0.747681 0.188934 0.083466
0.776917 0.198273 0.088623
0.805817 0.207916 0.093750
0.834473 0.217773 0.098938
0.862793 0.227814 0.104218
0.006927 0.098206 0.017944
0.010925 0.099091 0.018707
0.015320 0.100098 0.019409
0.022461 0.101562 0.020569
0.032867 0.103485 0.022125
0.046234 0.106232 0.024078
0.062225 0.109894 0.026276
0.080200 0.116730 0.023895
0.102814 0.123901 0.020691
0.128906 0.129608 0.020416
0.157257 0.134369 0.022705
0.188568 0.139435 0.023346
0.222137 0.144104 0.024200
0.257080 0.148254 0.025391
0.292877 0.152039 0.027222
0.328918 0.155579 0.029663
0.364685 0.158936 0.032379
0.399872 0.162384 0.035583
0.434448 0.165955 0.039276
0.468384 0.169800 0.043152
0.501740 0.174011 0.047333
0.534515 0.178680 0.051666
0.566681 0.183868 0.056183
0.598419 0.189484 0.060730
0.629608 0.195618 0.065399
0.660339 0.202271 0.070038
0.690674 0.209259 0.074860
0.720581 0.216766 0.079773
0.750122 0.224579 0.084686
0.779297 0.232666 0.089752
0.808136 0.241058 0.094818
0.836700 0.249695 0.100067
0.864929 0.258575 0.105438
0.006775 0.128418 0.025452
0.011810 0.129211 0.026459
0.017670 0.130219 0.027252
0.026398 0.131683 0.028778
0.038879 0.133575 0.030884
0.054504 0.136139 0.033508
0.071716 0.139374 0.036835
0.090271 0.144867 0.037140
0.111725 0.152893 0.032562
0.137451 0.160339 0.028809
0.166168 0.166077 0.029358
0.196167 0.171082 0.032593
0.228760 0.176422 0.033722
0.262939 0.181580 0.034851
0.298035 0.186279 0.036407
0.333313 0.190735 0.038391
0.368347 0.195068 0.040924
0.402863 0.199280 0.043793
0.436890 0.203583 0.047058
0.470367 0.207977 0.050690
0.503326 0.212616 0.054504
0.535797 0.217529 0.058472
0.567780 0.222687 0.062622
0.599304 0.228149 0.066864
0.630371 0.233917 0.071289
0.660980 0.240051 0.075775
0.691193 0.246399 0.080383
0.721069 0.253082 0.085144
0.750519 0.260040 0.089996
0.779633 0.267242 0.094971
0.808380 0.274689 0.100037
0.836884 0.282410 0.105286
0.864960 0.290375 0.110718
0.008057 0.160431 0.035675
0.014099 0.161316 0.036743
0.021149 0.162262 0.037781
0.032166 0.163727 0.039551
0.046844 0.165619 0.041901
0.063965 0.167999 0.044861
0.082428 0.171051 0.048431
0.102264 0.175079 0.051758
0.122772 0.182953 0.048187
0.147400 0.191284 0.042603
0.175629 0.198547 0.039307
0.205780 0.204193 0.040894
0.236816 0.209381 0.044739
0.269867 0.214844 0.046539
0.303925 0.220276 0.047699
0.338287 0.225311 0.049469
0.372437 0.230225 0.051483
0.406189 0.235016 0.053833
0.439606 0.239716 0.056763
0.472565 0.244476 0.059937
0.505066 0.249359 0.063354
0.537170 0.254333 0.067047
0.568787 0.259460 0.070923
0.600037 0.264740 0.074982
0.630859 0.270264 0.079163
0.661285 0.275970 0.083527
0.691315 0.281921 0.088043
0.721008 0.288025 0.092682
0.750305 0.294373 0.097412
0.779327 0.300964 0.102295
0.808014 0.307739 0.107391
0.836426 0.314758 0.112518
0.864227 0.322083 0.118286
0.012604 0.193756 0.048065
0.020050 0.194611 0.049255
0.028748 0.195587 0.050323
0.041931 0.196960 0.052246
0.057770 0.198761 0.054565
0.075439 0.201050 0.057587
0.094971 0.203918 0.061127
0.115387 0.207367 0.065399
0.136230 0.213776 0.064880
0.159271 0.222595 0.058990
0.186371 0.230713 0.053711
0.216187 0.237579 0.051208
0.247009 0.242981 0.053955
0.278320 0.248108 0.058228
0.310974 0.253632 0.060394
0.344086 0.259094 0.061798
0.377228 0.264313 0.063599
0.410156 0.269440 0.065582
0.442841 0.274445 0.067902
0.475250 0.279327 0.070618
0.507263 0.284271 0.073639
0.538971 0.289246 0.076965
0.570221 0.294281 0.080536
0.601166 0.299438 0.084381
0.631714 0.304718 0.088318
0.661896 0.310150 0.092407
0.691742 0.315735 0.096741
0.721252 0.321472 0.101257
0.750427 0.327393 0.105865
0.779266 0.333496 0.110626
0.807861 0.339752 0.115631
0.836151 0.346252 0.120605
0.863647 0.353088 0.126831
0.023499 0.227509 0.061859
0.032471 0.228363 0.062927
0.042999 0.229248 0.064148
0.056519 0.230560 0.065887
0.072357 0.232239 0.068237
0.090027 0.234467 0.071167
0.109344 0.237152 0.074738
0.130096 0.240295 0.079041
0.151367 0.245361 0.080963
0.173309 0.253906 0.075684
0.198853 0.262512 0.069733
0.227448 0.270081 0.065247
0.257874 0.276428 0.063934
0.288635 0.281464 0.067810
0.319550 0.286438 0.072235
0.351227 0.291840 0.074585
0.383087 0.297211 0.076385
0.415070 0.302460 0.078217
0.446960 0.307587 0.080261
0.478668 0.312653 0.082581
0.510132 0.317596 0.085144
0.541321 0.322540 0.088135
0.572205 0.327545 0.091309
0.602783 0.332581 0.094818
0.633057 0.337677 0.098541
0.662964 0.342926 0.102478
0.692535 0.348267 0.106537
0.721863 0.353699 0.110840
0.750854 0.359283 0.115356
0.779572 0.365021 0.119965
0.807983 0.370911 0.124786
0.836182 0.376953 0.129761
0.863342 0.383392 0.136169
0.043304 0.261047 0.076447
0.052490 0.261841 0.077484
0.062592 0.262665 0.078735
0.075409 0.263916 0.080414
0.090576 0.265472 0.082581
0.107574 0.267548 0.085541
0.126465 0.270050 0.089050
0.146851 0.272980 0.093140
0.168060 0.277039 0.096497
0.189240 0.285004 0.092285
0.213226 0.293762 0.085815
0.240356 0.301666 0.080566
0.269623 0.308563 0.077301
0.299774 0.314331 0.077454
0.329712 0.319000 0.082306
0.359802 0.323853 0.086639
0.390350 0.329071 0.089142
0.421112 0.334320 0.091217
0.452118 0.339447 0.093140
0.483032 0.344543 0.095337
0.513824 0.349579 0.097687
0.544434 0.354523 0.100342
0.574860 0.359497 0.103241
0.605011 0.364471 0.106415
0.634918 0.369476 0.109833
0.664490 0.374542 0.113525
0.693817 0.379700 0.117432
0.722900 0.384949 0.121460
0.751678 0.390289 0.125885
0.780212 0.395752 0.130341
0.808472 0.401306 0.134949
0.836548 0.407043 0.139893
0.863403 0.413147 0.146484
0.069214 0.293976 0.091766
0.077637 0.294678 0.092743
0.086365 0.295471 0.093964
0.097809 0.296631 0.095642
0.111847 0.298096 0.097748
0.127991 0.300018 0.100494
0.145996 0.302338 0.103943
0.165619 0.305084 0.107788
0.186310 0.308624 0.111511
0.206696 0.315918 0.108368
0.229248 0.324524 0.102020
0.254761 0.332550 0.096313
0.282532 0.339630 0.092224
0.311554 0.345825 0.090454
0.340881 0.351074 0.091858
0.369720 0.355438 0.097260
0.398865 0.360168 0.101471
0.428467 0.365234 0.104218
0.458344 0.370331 0.106537
0.488373 0.375397 0.108643
0.518402 0.380432 0.110870
0.548370 0.385406 0.113373
0.578217 0.390350 0.116058
0.607880 0.395294 0.119019
0.637360 0.400269 0.122223
0.666595 0.405212 0.125610
0.695587 0.410248 0.129272
0.724396 0.415344 0.133148
0.752930 0.420502 0.137329
0.781250 0.425751 0.141632
0.809326 0.431091 0.146118
0.837158 0.436554 0.150970
0.863770 0.442352 0.157776
0.097687 0.326233 0.107727
0.104950 0.326843 0.108643
0.112549 0.327606 0.109741
0.122772 0.328705 0.111359
0.135498 0.330078 0.113525
0.150513 0.331879 0.116089
0.167450 0.334045 0.119354
0.186096 0.336578 0.123077
0.205841 0.339844 0.126740
0.225281 0.346649 0.124023
0.246521 0.354919 0.118011
0.270416 0.362793 0.112335
0.296509 0.369965 0.107819
0.324066 0.376343 0.105042
0.352356 0.381958 0.104584
0.380707 0.386749 0.107056
0.408600 0.390930 0.112671
0.436890 0.395538 0.116791
0.465668 0.400452 0.119843
0.494720 0.405426 0.122314
0.523895 0.410400 0.124664
0.553101 0.415375 0.126984
0.582336 0.420319 0.129639
0.611450 0.425232 0.132416
0.640442 0.430115 0.135437
0.669250 0.435028 0.138702
0.697906 0.439941 0.142090
0.726379 0.444946 0.145813
0.754639 0.449951 0.149780
0.782684 0.455017 0.153900
0.810577 0.460205 0.158295
0.838196 0.465454 0.163025
0.864502 0.470978 0.169983
0.127258 0.357910 0.124268
0.133423 0.358521 0.125214
0.140076 0.359222 0.126221
0.149231 0.360229 0.127716
0.160797 0.361542 0.129791
0.174591 0.363190 0.132294
0.190369 0.365204 0.135345
0.207886 0.367584 0.138947
0.226501 0.370636 0.142334
0.244751 0.377106 0.139679
0.264648 0.385040 0.134033
0.286987 0.392670 0.128479
0.311432 0.399750 0.123871
0.337402 0.406189 0.120575
0.364410 0.411987 0.119019
0.391876 0.417145 0.119598
0.419403 0.421570 0.123016
0.446503 0.425598 0.128662
0.474060 0.430115 0.132782
0.502075 0.434875 0.136047
0.530365 0.439758 0.138672
0.558777 0.444641 0.141235
0.587250 0.449554 0.143799
0.615784 0.454437 0.146484
0.644226 0.459290 0.149445
0.672577 0.464142 0.152496
0.700806 0.468964 0.155823
0.728943 0.473877 0.159363
0.756836 0.478790 0.163177
0.784637 0.483734 0.167175
0.812256 0.488770 0.171387
0.839630 0.493835 0.176086
0.865601 0.499115 0.183075
0.157104 0.389099 0.141510
0.162476 0.389679 0.142365
0.168488 0.390350 0.143341
0.176666 0.391266 0.144806
0.187164 0.392517 0.146637
0.199768 0.394012 0.149048
0.214325 0.395905 0.151917
0.230560 0.398132 0.155304
0.247986 0.401062 0.158325
0.264893 0.407318 0.155426
0.283386 0.414856 0.150055
0.304199 0.422211 0.144836
0.327057 0.429108 0.140320
0.351532 0.435516 0.136810
0.377197 0.441376 0.134613
0.403625 0.446716 0.134125
0.430359 0.451447 0.135590
0.457092 0.455658 0.139648
0.483551 0.459595 0.145264
0.510468 0.463989 0.149506
0.537781 0.468628 0.152832
0.565338 0.473419 0.155701
0.593079 0.478210 0.158447
0.620880 0.483032 0.161194
0.648743 0.487823 0.164062
0.676575 0.492645 0.167114
0.704346 0.497437 0.170319
0.732086 0.502228 0.173767
0.759613 0.507080 0.177399
0.787079 0.511932 0.181244
0.814423 0.516846 0.185242
0.841492 0.521759 0.189880
0.867188 0.526825 0.196930
0.187012 0.419830 0.159210
0.191711 0.420380 0.160004
0.197113 0.421021 0.160950
0.204437 0.421844 0.162354
0.214020 0.423004 0.164032
0.225464 0.424438 0.166290
0.238831 0.426178 0.169006
0.253784 0.428223 0.172150
0.269775 0.431152 0.174591
0.285431 0.437225 0.171478
0.302582 0.444427 0.166290
0.321960 0.451447 0.161407
0.343323 0.458099 0.157104
0.366364 0.464386 0.153595
0.390686 0.470276 0.151093
0.416016 0.475647 0.149902
0.441864 0.480591 0.150208
0.467926 0.485046 0.152466
0.493927 0.489044 0.157013
0.519775 0.492920 0.162628
0.546112 0.497223 0.166870
0.572815 0.501770 0.170288
0.599701 0.506439 0.173370
0.626831 0.511139 0.176331
0.654022 0.515869 0.179260
0.681274 0.520630 0.182312
0.708527 0.525360 0.185455
0.735779 0.530090 0.188751
0.762939 0.534882 0.192322
0.790070 0.539642 0.195953
0.817078 0.544434 0.199829
0.843811 0.549255 0.204407
0.869202 0.554169 0.211456
0.216614 0.450104 0.177429
0.220795 0.450623 0.178131
0.225586 0.451202 0.179047
0.232208 0.451965 0.180298
0.240814 0.453033 0.181946
0.251221 0.454346 0.184021
0.263397 0.455994 0.186523
0.277100 0.457886 0.189453
0.291626 0.460999 0.190948
0.306091 0.466858 0.187714
0.322021 0.473694 0.182831
0.340149 0.480347 0.178314
0.360168 0.486755 0.174225
0.381866 0.492889 0.170807
0.404877 0.498718 0.168213
0.428986 0.504120 0.166595
0.453827 0.509155 0.166199
0.479156 0.513763 0.167297
0.504639 0.517975 0.170227
0.529968 0.521820 0.175079
0.555298 0.525665 0.180603
0.581055 0.529877 0.184845
0.607178 0.534302 0.188416
0.633514 0.538879 0.191650
0.660065 0.543518 0.194824
0.686676 0.548157 0.197906
0.713379 0.552826 0.201050
0.740143 0.557495 0.204285
0.766876 0.562195 0.207733
0.793610 0.566895 0.211243
0.820251 0.571625 0.215057
0.846619 0.576324 0.219604
0.871674 0.581055 0.226532
0.245483 0.479950 0.195984
0.249298 0.480408 0.196686
0.253601 0.480957 0.197571
0.259552 0.481689 0.198700
0.267273 0.482635 0.200226
0.276672 0.483856 0.202148
0.287811 0.485382 0.204437
0.300385 0.487152 0.207153
0.313416 0.490631 0.207458
0.326782 0.496307 0.204102
0.341705 0.502716 0.199615
0.358643 0.509033 0.195465
0.377441 0.515198 0.191681
0.397888 0.521118 0.188385
0.419678 0.526794 0.185760
0.442596 0.532196 0.183990
0.466400 0.537262 0.183105
0.490814 0.541992 0.183472
0.515625 0.546356 0.185272
0.540527 0.550354 0.188690
0.565308 0.554047 0.193787
0.590179 0.557831 0.199188
0.615417 0.561981 0.203400
0.640961 0.566345 0.207092
0.666809 0.570831 0.210480
0.692749 0.575348 0.213745
0.718903 0.579926 0.216949
0.745117 0.584534 0.220276
0.771393 0.589142 0.223602
0.797668 0.593781 0.227081
0.823944 0.598419 0.230774
0.849915 0.603027 0.235321
0.874695 0.607574 0.242157
0.273560 0.509338 0.214844
0.276978 0.509766 0.215546
0.280823 0.510254 0.216309
0.286163 0.510956 0.217377
0.293182 0.511871 0.218781
0.301758 0.512970 0.220551
0.311981 0.514374 0.222748
0.323517 0.516113 0.225098
0.335144 0.519989 0.224213
0.347534 0.525513 0.220703
0.361511 0.531494 0.216644
0.377411 0.537445 0.212860
0.395050 0.543335 0.209381
0.414307 0.549072 0.206329
0.434967 0.554596 0.203735
0.456787 0.559937 0.201782
0.479523 0.565002 0.200714
0.503021 0.569733 0.200562
0.527039 0.574219 0.201569
0.551331 0.578369 0.203888
0.575745 0.582214 0.207672
0.599976 0.585785 0.212982
0.624359 0.589569 0.218201
0.649170 0.593628 0.222443
0.674255 0.597900 0.226196
0.699585 0.602295 0.229706
0.725098 0.606750 0.233032
0.750763 0.611237 0.236389
0.776520 0.615784 0.239807
0.802368 0.620331 0.243256
0.828186 0.624908 0.246887
0.853760 0.629425 0.251373
0.878235 0.633789 0.258118
0.300781 0.538391 0.233978
0.303772 0.538757 0.234619
0.307373 0.539215 0.235352
0.312256 0.539825 0.236298
0.318604 0.540710 0.237640
0.326477 0.541748 0.239288
0.335846 0.543060 0.241333
0.346313 0.544922 0.243042
0.356750 0.549133 0.241180
0.368286 0.554474 0.237610
0.381470 0.560089 0.233948
0.396423 0.565674 0.230499
0.413025 0.571259 0.227264
0.431183 0.576782 0.224396
0.450745 0.582153 0.221985
0.471436 0.587372 0.220062
0.493164 0.592377 0.218781
0.515717 0.597168 0.218323
0.538940 0.601654 0.218750
0.562500 0.605927 0.220306
0.586334 0.609894 0.223053
0.610260 0.613617 0.227142
0.634033 0.617096 0.232544
0.658020 0.620819 0.237579
0.682373 0.624817 0.241821
0.707031 0.629028 0.245605
0.731903 0.633331 0.249268
0.757019 0.637726 0.252716
0.782257 0.642151 0.256195
0.807587 0.646637 0.259674
0.833008 0.651123 0.263245
0.858124 0.655518 0.267761
0.882263 0.659790 0.274475
0.327240 0.567017 0.253296
0.330017 0.567352 0.253906
0.333252 0.567780 0.254517
0.337738 0.568359 0.255432
0.343506 0.569153 0.256683
0.350800 0.570129 0.258240
0.359436 0.571381 0.260071
0.368744 0.573730 0.260620
0.378235 0.578033 0.258209
0.388977 0.583130 0.254761
0.401459 0.588409 0.251434
0.415558 0.593689 0.248291
0.431213 0.598999 0.245361
0.448334 0.604279 0.242676
0.466858 0.609467 0.240387
0.486542 0.614532 0.238525
0.507263 0.619476 0.237183
0.528870 0.624237 0.236481
0.551208 0.628754 0.236572
0.574066 0.633087 0.237549
0.597290 0.637146 0.239532
0.620697 0.640961 0.242615
0.644165 0.644562 0.246887
0.667542 0.647980 0.252319
0.691132 0.651672 0.257294
0.715118 0.655609 0.261536
0.739319 0.659729 0.265411
0.763885 0.663971 0.269135
0.788544 0.668274 0.272705
0.813385 0.672668 0.276154
0.838379 0.677063 0.279816
0.863037 0.681366 0.284424
0.886871 0.685516 0.290985
0.353088 0.595276 0.272736
0.355682 0.595612 0.273315
0.358582 0.595978 0.273865
0.362640 0.596558 0.274719
0.368011 0.597290 0.275879
0.374756 0.598236 0.277344
0.382629 0.599548 0.278839
0.390717 0.602539 0.277893
0.399536 0.606812 0.275208
0.409668 0.611542 0.272125
0.421417 0.616486 0.269165
0.434753 0.621460 0.266266
0.449524 0.626495 0.263580
0.465729 0.631561 0.261139
0.483276 0.636566 0.258972
0.502014 0.641541 0.257172
0.521820 0.646362 0.255829
0.542480 0.651031 0.255005
0.563934 0.655579 0.254822
0.586029 0.659912 0.255371
0.608551 0.664032 0.256805
0.631439 0.667938 0.259125
0.654480 0.671600 0.262512
0.677521 0.675110 0.266968
0.700531 0.678497 0.272369
0.723785 0.682129 0.277222
0.747406 0.686035 0.281525
0.771301 0.690094 0.285461
0.795441 0.694244 0.289246
0.819733 0.698547 0.292816
0.844208 0.702820 0.296478
0.868439 0.707001 0.301208
0.891937 0.711029 0.307648
0.378326 0.623291 0.292297
0.380676 0.623596 0.292816
0.383392 0.623901 0.293365
0.387177 0.624451 0.294159
0.392181 0.625153 0.295227
0.398407 0.626038 0.296600
0.405334 0.627808 0.296997
0.412445 0.631195 0.295105
0.420685 0.635345 0.292450
0.430328 0.639740 0.289703
0.441406 0.644348 0.286987
0.453979 0.649017 0.284393
0.467987 0.653809 0.281952
0.483368 0.658661 0.279724
0.500000 0.663483 0.277679
0.517792 0.668274 0.275970
0.536621 0.673004 0.274628
0.556458 0.677612 0.273743
0.577087 0.682098 0.273407
0.598419 0.686432 0.273651
0.620270 0.690582 0.274628
0.642487 0.694550 0.276367
0.665009 0.698334 0.279022
0.687714 0.701904 0.282654
0.710358 0.705322 0.287262
