滤镜资源/Professional Luts Collection/Lutify.me Professional/Instant Films/Enstatite Golden.cube
# Created by: Lutify.me
# Copyright: (c) Copyright Lutify.me 2015
# Website: https://lutify.me
#LUT size
LUT_3D_SIZE 5
#LUT data points
0.000000 0.000000 0.000000
0.121277 0.000488 0.003845
0.384277 0.000000 0.026703
0.683655 0.000000 0.073608
0.911926 0.116394 0.115173
0.026459 0.124329 0.028961
0.149750 0.152496 0.028320
0.406006 0.184143 0.046692
0.698303 0.212830 0.082489
0.911560 0.288544 0.123932
0.141022 0.384521 0.139587
0.240570 0.398468 0.154785
0.450134 0.451080 0.137268
0.703156 0.492828 0.164978
0.881409 0.543304 0.197968
0.343781 0.636139 0.279297
0.404083 0.645752 0.285675
0.551178 0.687256 0.260315
0.740448 0.714111 0.275177
0.864624 0.737091 0.301514
0.579559 0.790649 0.377747
0.614227 0.797211 0.375214
0.705933 0.810089 0.374390
0.808777 0.819824 0.386932
0.879761 0.827637 0.407715
0.018707 0.016510 0.098389
0.142822 0.021698 0.123749
0.400787 0.001801 0.159760
0.695160 0.000000 0.200104
0.917877 0.145355 0.236420
0.065125 0.153534 0.136475
0.177704 0.172607 0.150970
0.432068 0.195374 0.174225
0.712830 0.225494 0.209961
0.920929 0.300446 0.243164
0.176392 0.404205 0.229187
0.267731 0.416779 0.242889
0.467682 0.464447 0.244110
0.715027 0.504242 0.270752
0.887512 0.553864 0.300110
0.366150 0.650452 0.350189
0.422302 0.661011 0.354492
0.564819 0.698639 0.341949
0.748810 0.723724 0.358521
0.869354 0.746002 0.381561
0.592133 0.798828 0.441681
0.625214 0.805176 0.440125
0.713593 0.817841 0.440216
0.813477 0.827515 0.450989
0.882965 0.835236 0.468872
0.098663 0.094452 0.319580
0.207214 0.103058 0.339661
0.437500 0.109253 0.384094
0.713013 0.128693 0.427032
0.917450 0.229523 0.461395
0.147125 0.216461 0.346161
0.244690 0.229736 0.360474
0.463348 0.245819 0.402924
0.728912 0.276489 0.439667
0.924347 0.345459 0.468719
0.247284 0.457001 0.413635
0.330170 0.467224 0.424286
0.512238 0.499634 0.447052
0.758667 0.530518 0.465973
0.919037 0.576599 0.488525
0.418091 0.691589 0.505859
0.476379 0.695496 0.515503
0.604279 0.718445 0.529541
0.769287 0.748871 0.534698
0.883362 0.770477 0.547974
0.634949 0.810974 0.596985
0.661469 0.817291 0.597443
0.734039 0.833923 0.594696
0.824341 0.847046 0.596619
0.889923 0.854645 0.608398
0.237030 0.180573 0.532684
0.317444 0.186340 0.549377
0.512665 0.187531 0.594452
0.749603 0.227692 0.632446
0.920807 0.315735 0.662659
0.273956 0.288025 0.552216
0.349670 0.297699 0.564636
0.533081 0.306274 0.608032
0.760437 0.342865 0.643188
0.923737 0.409637 0.670319
0.361267 0.514191 0.600342
0.425018 0.523010 0.609436
0.578766 0.545166 0.636871
0.785370 0.565979 0.668671
0.926697 0.607544 0.684845
0.500061 0.735474 0.664307
0.547943 0.739899 0.670532
0.664276 0.752075 0.688538
0.796356 0.777496 0.698547
0.898193 0.795990 0.705383
0.685974 0.841095 0.721466
0.710541 0.842743 0.725739
0.767639 0.851715 0.732483
0.838318 0.866943 0.730774
0.897003 0.874603 0.736298
0.406982 0.225983 0.655396
0.465454 0.226196 0.669952
0.620483 0.234039 0.701294
0.808929 0.280792 0.730499
0.936798 0.370117 0.753143
0.434265 0.333466 0.666595
0.488556 0.335632 0.680786
0.636078 0.344971 0.711792
0.815582 0.384949 0.738617
0.936798 0.454285 0.759338
0.499969 0.554169 0.699219
0.546967 0.561249 0.706635
0.668884 0.574310 0.733337
0.825867 0.597290 0.757812
0.931671 0.637207 0.772217
0.605255 0.762848 0.745392
0.640289 0.766846 0.750183
0.727997 0.777954 0.763214
0.832886 0.794128 0.773010
0.913544 0.809113 0.779083
0.742157 0.859680 0.783630
0.760406 0.860992 0.786652
0.804230 0.865753 0.793793
0.856689 0.878326 0.793243
0.906830 0.885590 0.796295
