滤镜资源/Professional Luts Collection/Lutify.me Professional/Instant Films/Enstatite Golden.cube
# Created by: Lutify.me
# Copyright: (c) Copyright Lutify.me 2015
# Website: https://lutify.me
#LUT size
LUT_3D_SIZE 9
#LUT data points
0.000000 0.000000 0.000000
0.030548 0.000824 0.001099
0.121277 0.000488 0.003845
0.242645 0.000000 0.011902
0.384277 0.000000 0.026703
0.535370 0.000000 0.049103
0.683655 0.000000 0.073608
0.814606 0.001343 0.096069
0.911926 0.116394 0.115173
0.006714 0.030090 0.006073
0.040100 0.040863 0.006134
0.132843 0.052032 0.007751
0.254272 0.057343 0.014862
0.393890 0.057312 0.029510
0.542816 0.054901 0.051910
0.688904 0.066010 0.075623
0.817688 0.109467 0.097870
0.912994 0.180847 0.116669
0.026459 0.124329 0.028961
0.069153 0.130859 0.035339
0.149750 0.152496 0.028320
0.266724 0.169708 0.035645
0.406006 0.184143 0.046692
0.554199 0.196747 0.063171
0.698303 0.212830 0.082489
0.822876 0.241211 0.103271
0.911560 0.288544 0.123932
0.072968 0.247162 0.078522
0.113464 0.252014 0.084747
0.184052 0.270477 0.083771
0.291595 0.295135 0.077271
0.420837 0.315277 0.089874
0.561859 0.335358 0.100800
0.699066 0.355957 0.115906
0.816437 0.381561 0.133789
0.897125 0.417389 0.155365
0.141022 0.384521 0.139587
0.174683 0.388245 0.144684
0.240570 0.398468 0.154785
0.330139 0.428040 0.136810
0.450134 0.451080 0.137268
0.577484 0.471222 0.153320
0.703156 0.492828 0.164978
0.809326 0.515961 0.179138
0.881409 0.543304 0.197968
0.231689 0.520447 0.207794
0.257568 0.523285 0.211914
0.313599 0.530151 0.221985
0.387756 0.555695 0.207642
0.491852 0.580750 0.195831
0.607025 0.599091 0.204620
0.715790 0.616272 0.221313
0.806183 0.634827 0.233948
0.868988 0.654480 0.248047
0.343781 0.636139 0.279297
0.362823 0.638123 0.282562
0.404083 0.645752 0.285675
0.464539 0.667114 0.270966
0.551178 0.687256 0.260315
0.649536 0.703064 0.260437
0.740448 0.714111 0.275177
0.812622 0.725372 0.289246
0.864624 0.737091 0.301514
0.463867 0.722473 0.339081
0.475525 0.726868 0.335938
0.505615 0.736237 0.329742
0.557465 0.748749 0.322601
0.627350 0.761292 0.318085
0.704468 0.771393 0.319855
0.774078 0.778442 0.329712
0.828674 0.784302 0.343170
0.869690 0.790833 0.354553
0.579559 0.790649 0.377747
0.589569 0.792694 0.376892
0.614227 0.797211 0.375214
0.654419 0.803558 0.373749
0.705933 0.810089 0.374390
0.759949 0.815582 0.378723
0.808777 0.819824 0.386932
0.848389 0.823486 0.397614
0.879761 0.827637 0.407715
0.005005 0.003143 0.020874
0.038605 0.005005 0.029388
0.130035 0.003967 0.040649
0.250305 0.000000 0.055542
0.390778 0.000000 0.074493
0.540863 0.000000 0.095581
0.688049 0.000000 0.117432
0.817963 0.003387 0.138458
0.914337 0.124329 0.156311
0.014130 0.041473 0.033691
0.051392 0.049133 0.039429
0.143555 0.057098 0.047302
0.262054 0.062714 0.060974
0.400146 0.063538 0.078827
0.548126 0.062317 0.099060
0.693207 0.074280 0.120392
0.820953 0.116791 0.140656
0.915344 0.186279 0.158020
0.040741 0.132965 0.065765
0.081146 0.139069 0.072144
0.158691 0.158600 0.072632
0.274475 0.174713 0.082092
0.412231 0.188385 0.094635
0.559265 0.200806 0.110352
0.702271 0.216949 0.128143
0.825897 0.245361 0.146912
0.913696 0.292664 0.165680
0.086700 0.254089 0.111908
0.124634 0.258850 0.117432
0.192474 0.277008 0.118011
0.298615 0.299927 0.117798
0.426727 0.319550 0.130310
0.566681 0.339142 0.142029
0.702850 0.359467 0.156891
0.819244 0.385071 0.173584
0.899139 0.420776 0.193054
0.152313 0.390228 0.168610
0.184448 0.393890 0.173279
0.248169 0.404541 0.181854
0.336517 0.432892 0.169373
0.455414 0.454987 0.172913
0.581909 0.474915 0.188080
0.706635 0.496185 0.200043
0.811890 0.519165 0.213745
0.883301 0.546387 0.231171
0.240326 0.525330 0.232941
0.265656 0.528076 0.236816
0.320526 0.535034 0.246216
0.393372 0.560272 0.234161
0.496582 0.584473 0.225891
0.610870 0.602417 0.235352
0.718811 0.619446 0.251160
0.808411 0.637817 0.263428
0.870667 0.657349 0.276794
0.350342 0.640350 0.301025
0.369141 0.642303 0.304230
0.409454 0.650269 0.306610
0.469360 0.671021 0.294159
0.555237 0.690643 0.285767
0.652740 0.706024 0.286987
0.742920 0.716949 0.301270
0.814484 0.728058 0.314667
0.866089 0.739685 0.326355
0.468414 0.726440 0.357910
0.480042 0.730682 0.355225
0.509796 0.739777 0.349884
0.561218 0.751953 0.343903
0.630585 0.764160 0.340393
0.706970 0.774017 0.342682
0.776001 0.780945 0.352295
0.830200 0.786774 0.365051
0.870850 0.793243 0.376038
0.582916 0.793610 0.396179
0.592926 0.795593 0.395477
0.617310 0.799988 0.394104
0.657196 0.806152 0.393036
0.708221 0.812531 0.394012
0.761810 0.817932 0.398376
0.810181 0.822113 0.406372
0.849518 0.825745 0.416565
0.880676 0.829865 0.426270
0.018707 0.016510 0.098389
0.058716 0.020630 0.106598
0.142822 0.021698 0.123749
0.261322 0.016052 0.141266
0.400787 0.001801 0.159760
0.549469 0.000000 0.179657
0.695160 0.000000 0.200104
0.823334 0.043365 0.219604
0.917877 0.145355 0.236420
0.032959 0.063568 0.110809
0.074341 0.069519 0.116760
0.156067 0.074799 0.132751
0.272736 0.080658 0.147919
0.409821 0.083252 0.165161
0.556488 0.085144 0.183990
0.700134 0.098114 0.203674
0.826294 0.136475 0.222382
0.918854 0.201630 0.238647
0.065125 0.153534 0.136475
0.103973 0.158844 0.141663
0.177704 0.172607 0.150970
0.296844 0.184357 0.159943
0.432068 0.195374 0.174225
0.574493 0.207733 0.191345
0.712830 0.225494 0.209961
0.833649 0.254456 0.227661
0.920929 0.300446 0.243164
0.112030 0.271393 0.177032
0.146912 0.275848 0.181793
0.214661 0.287140 0.192230
0.314178 0.311249 0.193604
0.442963 0.329865 0.203369
0.582092 0.347382 0.215729
0.715668 0.366669 0.231262
0.828613 0.392242 0.248169
0.905487 0.428314 0.266357
0.176392 0.404205 0.229187
0.206177 0.407715 0.233276
0.267731 0.416779 0.242889
0.351654 0.443176 0.238159
0.467682 0.464447 0.244110
0.592529 0.483765 0.258118
0.715027 0.504242 0.270752
0.817841 0.526794 0.284485
0.887512 0.553864 0.300110
0.260620 0.536987 0.288086
0.284485 0.539703 0.291626
0.336792 0.546814 0.299622
0.406769 0.570984 0.292145
0.507751 0.593353 0.289520
0.619904 0.610352 0.300232
0.725952 0.627014 0.314789
0.813568 0.644989 0.326599
0.874481 0.664215 0.338898
0.366150 0.650452 0.350189
0.384277 0.652374 0.353088
0.422302 0.661011 0.354492
0.480743 0.680359 0.346313
0.564819 0.698639 0.341949
0.660431 0.713165 0.345245
0.748810 0.723724 0.358521
0.818848 0.734589 0.370819
0.869354 0.746002 0.381561
0.479523 0.735779 0.401611
0.490906 0.739746 0.399719
0.519989 0.748199 0.396118
0.570312 0.759583 0.392334
0.638184 0.771027 0.390808
0.712982 0.780334 0.394104
0.780518 0.786987 0.403229
0.833649 0.792664 0.414795
0.873596 0.799011 0.424805
0.592133 0.798828 0.441681
0.601715 0.800812 0.441162
0.625214 0.805176 0.440125
0.663910 0.811371 0.439362
0.713593 0.817841 0.440216
0.765961 0.823303 0.443970
0.813477 0.827515 0.450989
0.852173 0.831146 0.460205
0.882965 0.835236 0.468872
0.050049 0.050140 0.202942
0.092621 0.056396 0.207977
0.169342 0.056702 0.227356
0.280304 0.059509 0.246887
0.414703 0.055145 0.267792
0.560303 0.047546 0.288452
0.702942 0.058472 0.308624
0.827850 0.106873 0.327423
0.918213 0.183777 0.343872
0.067780 0.095764 0.213104
0.107269 0.100952 0.217957
0.181244 0.105042 0.235413
0.290649 0.112091 0.253937
0.423279 0.117188 0.273529
0.566895 0.122589 0.293182
0.707581 0.137054 0.312531
0.830414 0.171753 0.330627
0.918915 0.231384 0.346558
0.101746 0.182007 0.234253
0.137054 0.186768 0.238678
0.206146 0.197083 0.250549
0.313507 0.204315 0.269989
0.446655 0.213776 0.285645
0.586121 0.226868 0.302368
0.720825 0.245941 0.320129
0.838531 0.274841 0.336700
0.925110 0.317780 0.349915
0.145660 0.297821 0.268524
0.178040 0.301880 0.272430
0.245026 0.311188 0.282196
0.338196 0.329498 0.293060
0.470276 0.343842 0.301910
0.607117 0.358154 0.315460
0.737274 0.376068 0.330566
0.847198 0.400940 0.345490
0.923187 0.436218 0.359467
0.206757 0.428345 0.313354
0.234772 0.431671 0.316925
0.296234 0.438568 0.326538
0.377899 0.455139 0.337555
0.486908 0.479645 0.339935
0.612854 0.498474 0.348877
0.735565 0.516815 0.359283
0.836395 0.537842 0.371521
0.903809 0.564362 0.385010
0.287659 0.557983 0.365784
0.310425 0.560516 0.368896
0.362335 0.566010 0.377350
0.434540 0.579163 0.386902
0.525391 0.604706 0.383698
0.634125 0.623260 0.390228
0.738922 0.639954 0.400757
0.825195 0.657318 0.409973
0.884796 0.675964 0.420166
0.388977 0.668427 0.421173
0.406464 0.670258 0.423828
0.448364 0.673309 0.431854
0.505035 0.686981 0.434418
0.581055 0.707214 0.430389
0.672211 0.723846 0.430237
0.757935 0.734680 0.440582
0.826263 0.745605 0.450073
0.875916 0.756866 0.458435
0.505371 0.743347 0.476868
0.517090 0.745483 0.477875
0.544037 0.752411 0.477905
0.588776 0.764435 0.475464
0.650909 0.778046 0.472260
0.722015 0.789276 0.472137
0.787384 0.796661 0.478180
0.838989 0.802368 0.487793
0.878265 0.808716 0.495575
0.610809 0.801971 0.517090
0.619354 0.804138 0.516663
0.640472 0.809204 0.515411
0.675690 0.816711 0.513489
0.722137 0.824768 0.512177
0.772247 0.831421 0.513275
0.818390 0.836182 0.518005
0.856079 0.839813 0.525696
0.886353 0.843872 0.532867
0.098663 0.094452 0.319580
0.136414 0.099426 0.323700
0.207214 0.103058 0.339661
0.311401 0.101105 0.363647
0.437500 0.109253 0.384094
0.575836 0.114532 0.406189
0.713013 0.128693 0.427032
0.832672 0.165375 0.445618
0.917450 0.229523 0.461395
0.114471 0.134735 0.328094
0.150024 0.139343 0.332062
0.218506 0.143982 0.347412
0.320953 0.145782 0.370270
0.445374 0.156982 0.389679
0.582001 0.166565 0.410858
0.717255 0.182587 0.430939
0.834900 0.214813 0.448853
0.917938 0.269623 0.464111
0.147125 0.216461 0.346161
0.179260 0.220673 0.349884
0.244690 0.229736 0.360474
0.340576 0.235016 0.383667
0.463348 0.245819 0.402924
0.598145 0.257874 0.421844
0.728912 0.276489 0.439667
0.842163 0.304504 0.455780
0.924347 0.345459 0.468719
0.191925 0.328766 0.375031
0.220917 0.332489 0.378418
0.281677 0.341370 0.387299
0.368896 0.354706 0.403107
0.490509 0.363098 0.422241
0.624084 0.375671 0.436310
0.750519 0.393127 0.450287
0.856781 0.417450 0.463409
0.931213 0.451263 0.474335
0.247284 0.457001 0.413635
0.273102 0.460022 0.416718
0.330170 0.467224 0.424286
0.412476 0.478760 0.437469
0.512238 0.499634 0.447052
0.639496 0.514954 0.454773
0.758667 0.530518 0.465973
0.854584 0.550446 0.477570
0.919037 0.576599 0.488525
0.322601 0.584137 0.458435
0.343933 0.586487 0.461151
0.393768 0.591583 0.468262
0.467529 0.599365 0.481293
0.550018 0.619568 0.488495
0.652588 0.640045 0.491974
0.755585 0.656189 0.499237
0.839203 0.672241 0.506958
0.896606 0.690033 0.515564
0.418091 0.691589 0.505859
0.434998 0.693176 0.508240
0.476379 0.695496 0.515503
0.536163 0.701233 0.526398
0.604279 0.718445 0.529541
0.687592 0.737488 0.527374
0.769287 0.748871 0.534698
0.835175 0.759613 0.541626
0.883362 0.770477 0.547974
0.531036 0.762299 0.554291
0.543488 0.763092 0.556580
0.572235 0.765533 0.561676
0.614319 0.773712 0.565399
0.668945 0.787720 0.563995
0.733917 0.800720 0.561981
0.795837 0.808990 0.565216
0.845154 0.814575 0.572876
0.883240 0.820831 0.578796
0.634949 0.810974 0.596985
0.642700 0.812714 0.597290
0.661469 0.817291 0.597443
0.692505 0.824951 0.596466
0.734039 0.833923 0.594696
0.780457 0.841644 0.594055
0.824341 0.847046 0.596619
0.860565 0.850708 0.602600
0.889923 0.854645 0.608398
0.161133 0.139404 0.434814
0.192963 0.143829 0.438385
0.256958 0.148499 0.451630
0.351501 0.146912 0.475922
0.471283 0.149658 0.498993
0.599640 0.166107 0.519043
0.727936 0.184692 0.540009
0.839661 0.218567 0.558380
0.917603 0.275757 0.573090
0.174561 0.176025 0.442108
0.205170 0.180145 0.445557
0.266937 0.184326 0.459198
0.360199 0.185669 0.482147
0.478485 0.191772 0.503967
0.605255 0.208710 0.523376
0.731720 0.227722 0.543640
0.841522 0.259094 0.561371
0.917847 0.310272 0.575592
0.204163 0.253357 0.457611
0.232361 0.257141 0.460907
0.292267 0.265167 0.470306
0.379456 0.270416 0.492188
0.493958 0.276581 0.515198
0.618073 0.292725 0.533752
0.741211 0.311432 0.552307
0.847198 0.338776 0.568451
0.922699 0.378326 0.581207
0.246674 0.362030 0.482056
0.272217 0.365387 0.485077
0.326996 0.372955 0.493866
0.409210 0.384979 0.508118
0.515839 0.391571 0.532379
0.637787 0.404358 0.549866
0.758453 0.419739 0.565399
0.859192 0.442596 0.578217
0.929169 0.474976 0.588318
0.300079 0.486603 0.514923
0.322876 0.489380 0.517609
0.373871 0.496307 0.524414
0.449310 0.507874 0.535858
0.541992 0.521454 0.553314
0.662170 0.531067 0.567200
0.775482 0.545441 0.577972
0.865906 0.564880 0.587677
0.927765 0.590210 0.595795
0.367035 0.610962 0.553040
0.386627 0.613129 0.555420
0.432129 0.618256 0.561279
0.500916 0.626678 0.571289
0.583069 0.638153 0.585785
0.674774 0.658600 0.590942
0.775421 0.672546 0.596527
0.854218 0.686798 0.603912
0.907959 0.703766 0.611359
0.454956 0.715302 0.592438
0.471069 0.716583 0.594574
0.509186 0.719391 0.600037
0.566589 0.724457 0.609375
0.634399 0.732910 0.621277
0.706238 0.752014 0.621826
0.782043 0.764069 0.626282
0.844696 0.774384 0.631042
0.890808 0.784515 0.635864
0.560333 0.783417 0.631195
0.572205 0.784088 0.633118
0.600037 0.785889 0.637817
0.642761 0.789337 0.645477
0.692474 0.798767 0.650543
0.748352 0.812531 0.649109
0.805176 0.821869 0.649811
0.851532 0.827393 0.655548
0.888031 0.833405 0.659668
0.660370 0.826141 0.667847
0.668243 0.826752 0.669220
0.686523 0.828857 0.672089
0.714081 0.834534 0.674072
0.749481 0.843323 0.673584
0.790344 0.851929 0.672150
0.830872 0.858093 0.672699
0.865204 0.861969 0.676666
0.893402 0.865692 0.681122
0.237030 0.180573 0.532684
0.262909 0.184479 0.535767
0.317444 0.186340 0.549377
0.402618 0.185394 0.571564
0.512665 0.187531 0.594452
0.632660 0.202789 0.613800
0.749603 0.227692 0.632446
0.850830 0.262268 0.649597
0.920807 0.315735 0.662659
0.248199 0.214417 0.538910
0.273438 0.218109 0.541962
0.326355 0.219696 0.556030
0.410431 0.220917 0.577087
0.519135 0.225525 0.598877
0.637573 0.241516 0.617493
0.752930 0.265320 0.635620
0.852325 0.297577 0.652191
0.920868 0.346558 0.664856
0.273956 0.288025 0.552216
0.297302 0.291077 0.555573
0.349670 0.297699 0.564636
0.428589 0.301636 0.585114
0.533081 0.306274 0.608032
0.648376 0.321472 0.626068
0.760437 0.342865 0.643188
0.856323 0.370605 0.658508
0.923737 0.409637 0.670319
0.312225 0.393097 0.572906
0.333282 0.395813 0.576263
0.382019 0.402466 0.584229
0.456787 0.412720 0.597748
0.553162 0.418427 0.621368
0.663788 0.430878 0.639343
0.772491 0.447266 0.655304
0.863739 0.469330 0.668304
0.926941 0.500671 0.677887
0.361267 0.514191 0.600342
0.380615 0.516754 0.602905
0.425018 0.523010 0.609436
0.493317 0.533264 0.620331
0.578766 0.545166 0.636871
0.681671 0.553864 0.655701
0.785370 0.565979 0.668671
0.868835 0.583740 0.678009
0.926697 0.607544 0.684845
0.421844 0.634735 0.632294
0.439056 0.636749 0.634399
0.479004 0.641693 0.639587
0.540466 0.650055 0.648254
0.616119 0.661560 0.660034
0.702942 0.674194 0.671478
0.796173 0.684601 0.678741
0.867462 0.698090 0.685303
0.916687 0.714691 0.690948
0.500061 0.735474 0.664307
0.514374 0.736755 0.666107
0.547943 0.739899 0.670532
0.600098 0.745148 0.677979
0.664276 0.752075 0.688538
0.728607 0.764984 0.696198
0.796356 0.777496 0.698547
0.855042 0.786835 0.701660
0.898193 0.795990 0.705383
0.594543 0.801117 0.694000
0.605347 0.801849 0.695557
0.630737 0.803650 0.699371
0.670502 0.806610 0.705902
0.718353 0.811249 0.714264
0.765778 0.822601 0.716339
0.815643 0.832672 0.715546
0.858337 0.838135 0.719513
0.892853 0.843842 0.722107
0.685974 0.841095 0.721466
0.693298 0.841553 0.722748
0.710541 0.842743 0.725739
0.736969 0.845215 0.730255
0.767639 0.851715 0.732483
0.802246 0.860229 0.731567
0.838318 0.866943 0.730774
0.870148 0.871063 0.733002
0.897003 0.874603 0.736298
0.321747 0.211945 0.601318
0.341034 0.211517 0.607269
0.387787 0.210876 0.620514
0.464050 0.210968 0.639099
0.563202 0.214600 0.659210
0.672485 0.229340 0.677124
0.777557 0.257416 0.693146
0.866516 0.293823 0.708130
0.927734 0.345825 0.719452
0.330444 0.243073 0.607788
0.349457 0.243073 0.613464
0.395691 0.243469 0.626007
0.471008 0.245239 0.643768
0.568909 0.250610 0.663055
0.676727 0.265839 0.680237
0.780304 0.292389 0.695862
0.867493 0.326355 0.710358
0.927551 0.374359 0.721313
0.353027 0.315552 0.618042
0.372070 0.317810 0.621552
0.415802 0.320740 0.632568
0.486908 0.323395 0.650848
0.581360 0.328491 0.670868
0.686066 0.342804 0.687531
0.786285 0.366211 0.702271
0.870239 0.395172 0.715820
0.928925 0.434265 0.726227
0.385345 0.417450 0.636658
0.403412 0.419983 0.639435
0.446167 0.426422 0.645813
0.511536 0.433075 0.660889
0.599152 0.438171 0.681732
0.699097 0.449585 0.698608
0.794830 0.468109 0.712433
0.874176 0.490784 0.724426
0.929474 0.521820 0.733154
0.428741 0.536224 0.659332
0.445007 0.538544 0.661804
0.483551 0.544098 0.667816
0.544403 0.553314 0.677551
0.621490 0.562256 0.694397
0.713562 0.570221 0.711945
0.803070 0.583649 0.724121
0.875885 0.600800 0.733398
0.927399 0.623596 0.739838
0.483368 0.653564 0.685822
0.497955 0.655396 0.687744
0.532379 0.660034 0.692474
0.586182 0.667786 0.700348
0.653259 0.678345 0.711182
0.729858 0.687134 0.725647
0.811523 0.695801 0.734100
0.875580 0.708344 0.739594
0.920837 0.724121 0.743683
0.551208 0.750763 0.712769
0.563446 0.752014 0.714355
0.592529 0.755096 0.718201
0.638306 0.760162 0.724609
0.695251 0.766907 0.733307
0.753326 0.776245 0.742371
0.813385 0.787445 0.744202
0.866699 0.795258 0.747040
0.905823 0.803650 0.750275
0.633362 0.813782 0.736603
0.642761 0.814484 0.737915
0.665192 0.816223 0.741119
0.700348 0.819061 0.746490
0.743011 0.822845 0.753815
0.784668 0.830902 0.758331
0.827637 0.840546 0.757477
0.866119 0.845764 0.760315
0.898346 0.851074 0.761993
0.713531 0.851807 0.757904
0.719971 0.852234 0.758972
0.735168 0.853241 0.761536
0.758606 0.855072 0.765656
0.786194 0.859161 0.769409
0.815582 0.866699 0.769379
0.847015 0.873322 0.768280
0.875946 0.877411 0.769623
0.901428 0.880859 0.772095
0.406982 0.225983 0.655396
0.424103 0.225861 0.659851
0.465454 0.226196 0.669952
0.532837 0.227814 0.684753
0.620483 0.234039 0.701294
0.716919 0.251282 0.716522
0.808929 0.280792 0.730499
0.884766 0.318726 0.743439
0.936798 0.370117 0.753143
0.414551 0.257751 0.660614
0.431458 0.257996 0.664886
0.472229 0.259033 0.674561
0.538879 0.261841 0.688782
0.625397 0.269104 0.704620
0.720459 0.286255 0.719330
0.811066 0.313904 0.732910
0.885345 0.349304 0.745422
0.936371 0.396973 0.754822
0.434265 0.333466 0.666595
0.450012 0.334167 0.670807
0.488556 0.335632 0.680786
0.552277 0.338318 0.695648
0.636078 0.344971 0.711792
0.728241 0.360809 0.725800
0.815582 0.384949 0.738617
0.886993 0.414856 0.750397
0.936798 0.454285 0.759338
0.463837 0.437866 0.678619
0.478729 0.439819 0.681519
0.514099 0.443329 0.689911
0.572296 0.447113 0.704651
0.651062 0.452454 0.721710
0.738770 0.465118 0.735596
0.821411 0.484344 0.747559
0.888611 0.507751 0.758057
0.935516 0.539062 0.765747
0.499969 0.554169 0.699219
0.513794 0.556213 0.701447
0.546967 0.561249 0.706635
0.599609 0.569000 0.716187
0.668884 0.574310 0.733337
0.749878 0.583221 0.747284
0.825867 0.597290 0.757812
0.887482 0.614716 0.766235
0.931671 0.637207 0.772217
0.547180 0.669037 0.721832
0.559418 0.670746 0.723633
0.588593 0.674927 0.727936
0.634735 0.681946 0.735199
0.693420 0.691254 0.745087
0.761444 0.697449 0.759003
0.829651 0.706177 0.767120
0.884735 0.718079 0.772430
0.924835 0.733032 0.776062
0.605255 0.762848 0.745392
0.615601 0.764008 0.746796
0.640289 0.766846 0.750183
0.679382 0.771576 0.755798
0.727997 0.777954 0.763214
0.777954 0.786285 0.770752
0.832886 0.794128 0.773010
0.879028 0.800995 0.776154
0.913544 0.809113 0.779083
0.674805 0.823303 0.765839
0.682861 0.823975 0.766998
0.701843 0.825562 0.769714
0.731720 0.828186 0.774292
0.767883 0.831604 0.780426
0.803558 0.838257 0.784729
0.840881 0.846558 0.784271
0.875153 0.851379 0.786438
0.904938 0.856232 0.787781
0.742157 0.859680 0.783630
0.747589 0.860046 0.784515
0.760406 0.860992 0.786652
0.780396 0.862579 0.790131
0.804230 0.865753 0.793793
0.829376 0.872253 0.794159
0.856689 0.878326 0.793243
0.882629 0.882141 0.794403
0.906830 0.885590 0.796295
