滤镜资源/Professional Luts Collection/Lutify.me Professional/Instant Films/Enstatite.cube
# Created by: Lutify.me
# Copyright: (c) Copyright Lutify.me 2015
# Website: https://lutify.me
#LUT size
LUT_3D_SIZE 5
#LUT data points
0.000000 0.000000 0.000000
0.060883 0.000000 0.001862
0.324615 0.000000 0.019562
0.606445 0.000000 0.062042
0.850983 0.000000 0.103027
0.006592 0.070801 0.012329
0.095337 0.095947 0.013947
0.360962 0.122040 0.026520
0.627045 0.156189 0.063263
0.862793 0.227814 0.104218
0.097687 0.326233 0.107727
0.205841 0.339844 0.126740
0.408600 0.390930 0.112671
0.640442 0.430115 0.135437
0.864502 0.470978 0.169983
0.327240 0.567017 0.253296
0.378235 0.578033 0.258209
0.507263 0.619476 0.237183
0.691132 0.651672 0.257294
0.886871 0.685516 0.290985
0.518158 0.788483 0.406097
0.544556 0.801453 0.398895
0.630829 0.829926 0.388123
0.773438 0.861328 0.388947
0.941620 0.887970 0.419403
0.003937 0.007111 0.065308
0.087250 0.007233 0.078217
0.349762 0.000000 0.113464
0.623108 0.000000 0.157379
0.864044 0.032715 0.202057
0.021545 0.099548 0.089874
0.127045 0.116394 0.103149
0.386108 0.134705 0.131866
0.642365 0.171875 0.171143
0.875305 0.242493 0.212769
0.141357 0.347595 0.191528
0.234985 0.362061 0.205322
0.428162 0.406372 0.211884
0.655060 0.443451 0.238373
0.876160 0.483307 0.273010
0.350494 0.584747 0.325043
0.397644 0.596619 0.328308
0.522614 0.634064 0.319733
0.703400 0.664398 0.340790
0.897125 0.697052 0.371765
0.532043 0.802338 0.457550
0.557678 0.814423 0.452545
0.642059 0.841309 0.445709
0.782715 0.871216 0.448944
0.949707 0.897095 0.476837
0.000397 0.072906 0.313232
0.156036 0.077332 0.317963
0.405548 0.035583 0.352173
0.658325 0.026886 0.388397
0.888702 0.155975 0.426117
0.076569 0.169098 0.322144
0.200378 0.179352 0.333740
0.431946 0.192627 0.368652
0.672546 0.230042 0.401947
0.897217 0.294434 0.436432
0.213745 0.412018 0.378357
0.302948 0.421234 0.388855
0.479950 0.448730 0.410004
0.708313 0.473663 0.430573
0.924744 0.506500 0.458435
0.397552 0.634460 0.469299
0.451782 0.636536 0.480255
0.564301 0.660583 0.494293
0.734680 0.695221 0.503052
0.930847 0.725006 0.522247
0.572296 0.833038 0.576355
0.603302 0.835785 0.583466
0.678375 0.858063 0.587158
0.806824 0.893066 0.584686
0.971069 0.919861 0.604218
0.178497 0.147125 0.533569
0.285004 0.148438 0.539429
0.487610 0.127045 0.570251
0.707642 0.163544 0.598419
0.920959 0.251007 0.631073
0.229919 0.241486 0.540375
0.319611 0.247955 0.550201
0.505890 0.256409 0.581573
0.717834 0.297607 0.609100
0.927429 0.357666 0.639679
0.335876 0.473724 0.573425
0.397278 0.480621 0.582977
0.544922 0.496216 0.608398
0.746429 0.514374 0.635956
0.954285 0.544281 0.660034
0.470306 0.688110 0.635742
0.514862 0.692596 0.641357
0.627045 0.705109 0.658752
0.782349 0.733521 0.672852
0.980011 0.755066 0.689453
0.622040 0.881317 0.713287
0.653107 0.883057 0.719055
0.734009 0.890472 0.736084
0.845398 0.922424 0.742493
1.000000 0.950897 0.756592
0.376984 0.218048 0.731110
0.437622 0.212982 0.741974
0.585876 0.212494 0.765198
0.773926 0.250519 0.790894
0.966187 0.333893 0.817078
0.401428 0.313385 0.739990
0.457245 0.315521 0.750488
0.597717 0.326965 0.774109
0.780853 0.362457 0.799194
0.971069 0.422028 0.824371
0.462280 0.532837 0.764069
0.508240 0.537140 0.771729
0.629089 0.549957 0.790649
0.799866 0.564270 0.820221
0.987183 0.595917 0.843750
0.565918 0.740814 0.805084
0.600433 0.744995 0.809906
0.693329 0.757080 0.824524
0.835693 0.771118 0.850189
1.000000 0.788574 0.870758
0.685669 0.931946 0.863953
0.712494 0.934753 0.867493
0.788361 0.943146 0.878601
0.901703 0.957397 0.899902
1.000000 0.986206 0.926666
