滤镜资源/Professional Luts Collection/Lutify.me Professional/Instant Films/Enstatite Golden.cube
# Created by: Lutify.me
# Copyright: (c) Copyright Lutify.me 2015
# Website: https://lutify.me
#LUT size
LUT_3D_SIZE 33
#LUT data points
0.000000 0.000000 0.000000
0.004242 0.000366 0.000000
0.008942 0.000763 0.000031
0.017822 0.000793 0.000397
0.030548 0.000824 0.001099
0.049286 0.001190 0.001495
0.071228 0.001495 0.002197
0.095215 0.001190 0.002869
0.121277 0.000488 0.003845
0.149170 0.000092 0.005463
0.178802 0.000000 0.007263
0.210052 0.000000 0.009399
0.242645 0.000000 0.011902
0.276489 0.000000 0.014893
0.311493 0.000000 0.018280
0.347534 0.000000 0.022186
0.384277 0.000000 0.026703
0.421600 0.000000 0.031647
0.459351 0.000000 0.037109
0.497314 0.000000 0.043030
0.535370 0.000000 0.049103
0.573242 0.000000 0.055267
0.610718 0.000000 0.061340
0.647614 0.000000 0.067474
0.683655 0.000000 0.073608
0.718628 0.000000 0.079437
0.752258 0.000000 0.085236
0.784393 0.000000 0.090820
0.814606 0.001343 0.096069
0.842651 0.014374 0.101471
0.868347 0.051880 0.106384
0.891449 0.085846 0.110870
0.911926 0.116394 0.115173
0.001190 0.003815 0.000793
0.004639 0.004639 0.001160
0.010498 0.005402 0.000793
0.019379 0.006134 0.001129
0.032959 0.006561 0.001495
0.052185 0.006958 0.001953
0.074097 0.007599 0.002655
0.098206 0.007507 0.003448
0.123901 0.007507 0.004578
0.151733 0.006744 0.005829
0.181335 0.005524 0.007568
0.212433 0.003906 0.009827
0.244873 0.001740 0.012543
0.278564 0.000366 0.015442
0.313507 0.000031 0.018890
0.349396 0.000000 0.022827
0.385956 0.000000 0.027161
0.423157 0.000000 0.032227
0.460846 0.000000 0.037842
0.498749 0.000000 0.043732
0.536682 0.000000 0.049774
0.574432 0.000000 0.055878
0.611816 0.000000 0.061890
0.648621 0.000000 0.067902
0.684601 0.000000 0.073914
0.719452 0.000000 0.079712
0.752991 0.000000 0.085480
0.784973 0.001404 0.090973
0.815094 0.012543 0.096466
0.843109 0.041992 0.101685
0.868713 0.073608 0.106598
0.891632 0.102356 0.111237
0.912140 0.129150 0.115540
0.002350 0.008545 0.001923
0.005798 0.009369 0.002289
0.010956 0.011353 0.001984
0.020630 0.012573 0.001923
0.035217 0.013397 0.001984
0.054871 0.014496 0.002380
0.076965 0.015289 0.003387
0.101074 0.016052 0.004211
0.126923 0.016663 0.005066
0.154663 0.016571 0.006500
0.183960 0.016174 0.008331
0.214905 0.015320 0.010620
0.247253 0.013641 0.013336
0.280853 0.011505 0.016144
0.315613 0.008820 0.019379
0.351410 0.005463 0.023346
0.387909 0.002197 0.027771
0.425018 0.000580 0.032745
0.462585 0.000244 0.038361
0.500366 0.000092 0.044342
0.538147 0.000000 0.050446
0.575806 0.000000 0.056458
0.613098 0.000000 0.062378
0.649750 0.000000 0.068420
0.685608 0.000122 0.074371
0.720428 0.000610 0.080139
0.753845 0.004150 0.085785
0.785736 0.019775 0.091522
0.815765 0.042053 0.096802
0.843658 0.068451 0.101959
0.869110 0.093597 0.106934
0.891937 0.118256 0.111450
0.912354 0.142822 0.115875
0.004944 0.016418 0.003540
0.008423 0.017578 0.004181
0.012970 0.019836 0.004211
0.021851 0.022247 0.003815
0.037140 0.024506 0.003510
0.057312 0.026367 0.003784
0.079437 0.028259 0.004211
0.104095 0.029510 0.005005
0.130035 0.030975 0.006073
0.157990 0.031891 0.007477
0.187469 0.032501 0.008972
0.218262 0.032867 0.011078
0.250458 0.032532 0.013763
0.283936 0.031555 0.016785
0.318604 0.029999 0.020142
0.354156 0.028076 0.024078
0.390503 0.025543 0.028503
0.427460 0.022736 0.033661
0.464905 0.020142 0.039368
0.502533 0.017761 0.045166
0.540192 0.015869 0.051056
0.577698 0.014801 0.057037
0.614807 0.015106 0.063049
0.651367 0.017395 0.068970
0.687042 0.022217 0.074860
0.721680 0.030518 0.080688
0.754974 0.042603 0.086395
0.786713 0.058289 0.091980
0.816589 0.076355 0.097260
0.844330 0.096130 0.102539
0.869659 0.116608 0.107300
0.892395 0.138123 0.111786
0.912659 0.160034 0.116211
0.006714 0.030090 0.006073
0.011627 0.031281 0.006561
0.016724 0.033295 0.007263
0.025574 0.036804 0.006866
0.040100 0.040863 0.006134
0.059418 0.044037 0.006439
0.081726 0.047028 0.006226
0.106140 0.049622 0.007141
0.132843 0.052032 0.007751
0.160950 0.053986 0.008850
0.190643 0.055481 0.010437
0.221802 0.056519 0.012573
0.254272 0.057343 0.014862
0.287811 0.057922 0.017639
0.322357 0.057983 0.020935
0.357758 0.057800 0.024872
0.393890 0.057312 0.029510
0.430634 0.056519 0.034637
0.467896 0.055725 0.040253
0.505341 0.055084 0.046051
0.542816 0.054901 0.051910
0.580139 0.055542 0.057892
0.617065 0.057343 0.063904
0.653442 0.060760 0.069794
0.688904 0.066010 0.075623
0.723358 0.073425 0.081421
0.756470 0.083374 0.087189
0.788025 0.095428 0.092682
0.817688 0.109467 0.097870
0.845245 0.125153 0.103149
0.870361 0.142487 0.107819
0.892914 0.161255 0.112427
0.912994 0.180847 0.116669
0.010040 0.049835 0.009338
0.015503 0.051117 0.010345
0.021393 0.052704 0.010895
0.030640 0.055786 0.011505
0.044800 0.060455 0.010406
0.063599 0.064911 0.009552
0.084961 0.068390 0.010376
0.109100 0.071747 0.010406
0.135315 0.075043 0.011200
0.163544 0.077911 0.011963
0.193420 0.080444 0.013458
0.224670 0.082642 0.015045
0.257294 0.084229 0.017303
0.291138 0.085632 0.019684
0.326111 0.086792 0.022644
0.361755 0.087646 0.026276
0.397888 0.088531 0.030548
0.434509 0.089264 0.035614
0.471527 0.090057 0.041260
0.508759 0.091003 0.047089
0.546051 0.092224 0.052856
0.583099 0.094086 0.058807
0.619843 0.096741 0.064850
0.655975 0.100525 0.070740
0.691223 0.105530 0.076477
0.725403 0.112000 0.082306
0.758301 0.120270 0.087830
0.789612 0.130188 0.093384
0.819031 0.141876 0.098633
0.846344 0.155304 0.103638
0.871185 0.170349 0.108521
0.893555 0.186798 0.112976
0.913422 0.204407 0.117157
0.014282 0.072388 0.014282
0.020111 0.073639 0.015350
0.027130 0.075073 0.016144
0.038025 0.077484 0.017242
0.051727 0.081879 0.016602
0.069092 0.087402 0.014771
0.090118 0.091797 0.014313
0.113098 0.095459 0.015717
0.138763 0.099365 0.016083
0.166718 0.102966 0.016632
0.196289 0.106445 0.017761
0.227448 0.109558 0.019470
0.260071 0.112274 0.021210
0.293884 0.114502 0.023804
0.328796 0.116638 0.026428
0.364624 0.118469 0.029694
0.401123 0.120026 0.033539
0.438110 0.121613 0.037872
0.475403 0.123169 0.042847
0.512665 0.124908 0.048279
0.549805 0.127014 0.053955
0.586639 0.129639 0.059875
0.623077 0.132904 0.065857
0.658936 0.136902 0.071716
0.693909 0.141907 0.077423
0.727844 0.148010 0.083252
0.760437 0.155365 0.088867
0.791443 0.164215 0.094208
0.820587 0.174408 0.099396
0.847565 0.186279 0.104462
0.872131 0.199646 0.109253
0.894226 0.214355 0.113647
0.913849 0.230194 0.117950
0.019653 0.097382 0.020599
0.026459 0.098541 0.021576
0.034668 0.099945 0.022705
0.046051 0.101807 0.024200
0.059967 0.105194 0.025055
0.076080 0.110840 0.022919
0.095734 0.116516 0.020416
0.118896 0.121033 0.020386
0.143433 0.124786 0.022583
0.170532 0.129181 0.023346
0.199829 0.133209 0.024353
0.230774 0.137054 0.025604
0.263123 0.140594 0.027222
0.296783 0.143768 0.029541
0.331512 0.146759 0.032318
0.367096 0.149536 0.035461
0.403473 0.152039 0.039215
0.440460 0.154388 0.043213
0.477783 0.156738 0.047546
0.515259 0.159119 0.052185
0.552612 0.161713 0.057068
0.589722 0.164581 0.062134
0.626282 0.167938 0.067383
0.662079 0.171997 0.072968
0.696838 0.176941 0.078644
0.730499 0.182831 0.084259
0.762787 0.189728 0.089813
0.793488 0.197906 0.095123
0.822296 0.207184 0.100403
0.848938 0.217957 0.105286
0.873138 0.229980 0.110168
0.894745 0.243317 0.114624
0.913910 0.257874 0.119232
0.026459 0.124329 0.028961
0.034271 0.125366 0.029877
0.043243 0.126678 0.031281
0.055206 0.128326 0.033234
0.069153 0.130859 0.035339
0.084412 0.135895 0.033966
0.102905 0.142090 0.030701
0.125092 0.147766 0.028320
0.149750 0.152496 0.028320
0.175842 0.156555 0.031586
0.204254 0.161072 0.033020
0.234680 0.165527 0.034332
0.266724 0.169708 0.035645
0.300049 0.173676 0.037659
0.334503 0.177338 0.040344
0.369904 0.180847 0.043365
0.406006 0.184143 0.046692
0.442657 0.187317 0.050446
0.479767 0.190430 0.054474
0.516998 0.193542 0.058777
0.554199 0.196747 0.063171
0.591187 0.200104 0.067841
0.627686 0.203796 0.072601
0.663513 0.207947 0.077484
0.698303 0.212830 0.082489
0.731842 0.218475 0.087646
0.764008 0.224976 0.092804
0.794464 0.232544 0.097961
0.822876 0.241211 0.103271
0.849030 0.251221 0.108276
0.872528 0.262390 0.113495
0.893311 0.274902 0.118744
0.911560 0.288544 0.123932
0.035278 0.152954 0.039398
0.044220 0.153961 0.040619
0.053253 0.155060 0.042053
0.065063 0.156708 0.043945
0.079315 0.158813 0.046570
0.094635 0.162476 0.047638
0.111816 0.168854 0.044220
0.132446 0.175232 0.040710
0.156677 0.181030 0.038208
0.182831 0.185883 0.038849
0.210205 0.190155 0.042603
0.239716 0.194824 0.044586
0.271118 0.199615 0.046234
0.303925 0.204132 0.048035
0.338043 0.208435 0.050110
0.373047 0.212616 0.052643
0.408875 0.216522 0.055573
0.445190 0.220367 0.058960
0.481903 0.224091 0.062683
0.518829 0.227814 0.066650
0.555695 0.231598 0.070801
0.592346 0.235474 0.075134
0.628510 0.239624 0.079681
0.664001 0.244110 0.084442
0.698517 0.249084 0.089142
0.731781 0.254730 0.093933
0.763611 0.261047 0.098907
0.793732 0.268250 0.103973
0.821747 0.276459 0.109039
0.847443 0.285706 0.114136
0.870361 0.296204 0.119476
0.890564 0.307800 0.125031
0.908234 0.320465 0.130707
0.046478 0.183136 0.051636
0.055145 0.184021 0.052734
0.064209 0.185059 0.054230
0.075684 0.186615 0.056030
0.089661 0.188568 0.058502
0.105560 0.191254 0.061279
0.122192 0.196777 0.059692
0.141449 0.203583 0.055481
0.164337 0.210114 0.051971
0.190125 0.216064 0.049805
0.217712 0.221008 0.050903
0.246216 0.225372 0.055206
0.276642 0.230225 0.057465
0.308838 0.235199 0.059387
0.342285 0.240021 0.061340
0.376831 0.244659 0.063538
0.412140 0.249237 0.066010
0.448120 0.253540 0.068878
0.484467 0.257812 0.072205
0.520966 0.262054 0.075745
0.557434 0.266296 0.079590
0.593658 0.270630 0.083649
0.629425 0.275116 0.087952
0.664490 0.279938 0.092468
0.698547 0.285065 0.097076
0.731415 0.290741 0.101776
0.762817 0.297028 0.106537
0.792450 0.304016 0.111389
0.820038 0.311798 0.116364
0.845245 0.320496 0.121399
0.867706 0.330261 0.126831
0.887421 0.341034 0.132477
0.904694 0.352661 0.138184
0.059082 0.214600 0.064758
0.067322 0.215454 0.065857
0.075958 0.216400 0.067230
0.087280 0.217865 0.069000
0.101135 0.219696 0.071289
0.116852 0.222076 0.074249
0.133881 0.226105 0.075256
0.152008 0.232880 0.071533
0.173401 0.239868 0.067413
0.198120 0.246552 0.063782
0.225342 0.252502 0.062164
0.254028 0.257477 0.063751
0.283539 0.261932 0.068420
0.314697 0.266968 0.071198
0.347412 0.272095 0.073303
0.381348 0.277161 0.075287
0.416107 0.282104 0.077576
0.451508 0.286926 0.080048
0.487396 0.291595 0.082947
0.523438 0.296234 0.086121
0.559448 0.300873 0.089600
0.595245 0.305542 0.093353
0.630554 0.310303 0.097351
0.665131 0.315369 0.101624
0.698730 0.320679 0.105957
0.731140 0.326385 0.110535
0.762024 0.332581 0.115143
0.791168 0.339386 0.119812
0.818268 0.346802 0.124634
0.842957 0.355072 0.129547
0.864899 0.364197 0.134857
0.884125 0.374237 0.140625
0.900970 0.385010 0.146454
0.072968 0.247162 0.078522
0.080566 0.248047 0.079590
0.088989 0.248932 0.080902
0.099792 0.250305 0.082428
0.113464 0.252014 0.084747
0.129150 0.254181 0.087585
0.146423 0.257141 0.090454
0.164062 0.263153 0.088348
0.184052 0.270477 0.083771
0.207336 0.277527 0.079742
0.233643 0.284210 0.076324
0.262054 0.290070 0.075256
0.291595 0.295135 0.077271
0.321930 0.299652 0.082214
0.353699 0.304749 0.085358
0.386780 0.310028 0.087738
0.420837 0.315277 0.089874
0.455597 0.320435 0.092194
0.490845 0.325470 0.094757
0.526398 0.330414 0.097656
0.561859 0.335358 0.100800
0.597137 0.340302 0.104187
0.631927 0.345337 0.107880
0.665985 0.350525 0.111816
0.699066 0.355957 0.115906
0.730927 0.361664 0.120148
0.761261 0.367828 0.124603
0.789886 0.374451 0.129181
0.816437 0.381561 0.133789
0.840576 0.389465 0.138519
0.862030 0.398010 0.143646
0.880707 0.407379 0.149475
0.897125 0.417389 0.155365
0.087891 0.280701 0.092926
0.095184 0.281494 0.093933
0.103271 0.282379 0.095123
0.113708 0.283630 0.096710
0.126862 0.285309 0.098846
0.142181 0.287323 0.101501
0.159546 0.289856 0.104828
0.177399 0.294312 0.105499
0.196167 0.301636 0.101135
0.218079 0.309082 0.096497
0.243134 0.316132 0.092438
0.270660 0.322723 0.089630
0.300018 0.328552 0.088928
0.330353 0.333618 0.091370
0.361206 0.338196 0.096680
0.393311 0.343323 0.100067
0.426483 0.348694 0.102753
0.460480 0.354034 0.105103
0.495056 0.359344 0.107483
0.529907 0.364563 0.110107
0.564758 0.369751 0.112946
0.599426 0.374908 0.116028
0.633606 0.380096 0.119446
0.667084 0.385437 0.123047
0.699585 0.390900 0.126862
0.730865 0.396606 0.130829
0.760620 0.402679 0.135040
0.788635 0.409149 0.139435
0.814575 0.416046 0.143860
0.838135 0.423492 0.148376
0.859070 0.431580 0.153351
0.877197 0.440277 0.159119
0.893158 0.449554 0.164978
0.104095 0.315002 0.107941
0.111206 0.315735 0.108887
0.118774 0.316528 0.109985
0.128906 0.317688 0.111542
0.141510 0.319244 0.113556
0.156403 0.321198 0.116150
0.173401 0.323517 0.119263
0.191711 0.326752 0.122040
0.209808 0.333313 0.119110
0.230347 0.341003 0.114136
0.254028 0.348450 0.109558
0.280396 0.355408 0.105774
0.308960 0.361877 0.103516
0.339050 0.367615 0.103271
0.369873 0.372681 0.106171
0.401062 0.377258 0.111633
0.433258 0.382416 0.115356
0.466339 0.387817 0.118256
0.500061 0.393219 0.120758
0.534149 0.398560 0.123291
0.568268 0.403931 0.125946
0.602203 0.409241 0.128784
0.635742 0.414581 0.131897
0.668549 0.419983 0.135254
0.700378 0.425476 0.138794
0.731018 0.431183 0.142548
0.760132 0.437103 0.146454
0.787476 0.443390 0.150604
0.812744 0.450043 0.154846
0.835663 0.457123 0.159149
0.856079 0.464691 0.163818
0.873688 0.472809 0.169556
0.889191 0.481384 0.175385
0.121826 0.349701 0.123505
0.128448 0.350372 0.124481
0.135620 0.351135 0.125488
0.145386 0.352203 0.126923
0.157471 0.353668 0.128845
0.171844 0.355499 0.131287
0.188354 0.357697 0.134308
0.206512 0.360352 0.137665
0.224670 0.365631 0.137115
0.244019 0.373260 0.132324
0.266357 0.380920 0.127319
0.291443 0.388214 0.123016
0.318909 0.395050 0.119659
0.348267 0.401367 0.117889
0.378845 0.406982 0.118195
0.409912 0.411957 0.121490
0.441162 0.416534 0.127045
0.473236 0.421661 0.131042
0.505981 0.427002 0.134155
0.539185 0.432404 0.136841
0.572479 0.437775 0.139496
0.605652 0.443176 0.142242
0.638367 0.448578 0.145172
0.670441 0.454010 0.148254
0.701538 0.459503 0.151581
0.731415 0.465149 0.155060
0.759827 0.470978 0.158722
0.786469 0.477051 0.162598
0.810944 0.483398 0.166595
0.833191 0.490143 0.170746
0.853088 0.497223 0.175079
0.870209 0.504791 0.180664
0.885254 0.512726 0.186401
0.141022 0.384521 0.139587
0.147186 0.385132 0.140533
0.153870 0.385895 0.141479
0.163086 0.386871 0.142822
0.174683 0.388245 0.144684
0.188507 0.389984 0.146973
0.204407 0.392059 0.149841
0.222137 0.394531 0.153168
0.240570 0.398468 0.154785
0.258972 0.405670 0.150665
0.279999 0.413452 0.145477
0.303833 0.420929 0.140747
0.330139 0.428040 0.136810
0.358398 0.434662 0.133972
0.388306 0.440765 0.132690
0.419067 0.446228 0.133575
0.450134 0.451080 0.137268
0.481232 0.455597 0.143005
0.512939 0.460632 0.147125
0.545135 0.465881 0.150421
0.577484 0.471222 0.153320
0.609772 0.476593 0.156036
0.641663 0.481964 0.158905
0.672882 0.487396 0.161896
0.703156 0.492828 0.164978
0.732208 0.498352 0.168304
0.759796 0.503998 0.171722
0.785614 0.509888 0.175354
0.809326 0.515961 0.179138
0.830841 0.522339 0.183044
0.850128 0.529022 0.187134
0.866852 0.535980 0.192261
0.881409 0.543304 0.197968
0.161591 0.419312 0.156097
0.167389 0.419861 0.156952
0.173553 0.420593 0.157928
0.182190 0.421539 0.159241
0.193207 0.422821 0.160950
0.206482 0.424377 0.163147
0.221771 0.426392 0.165833
0.238861 0.428680 0.168976
0.257324 0.431702 0.171875
0.275238 0.438141 0.169067
0.294983 0.445923 0.163757
0.317535 0.453461 0.158875
0.342621 0.460724 0.154480
0.369781 0.467590 0.151001
0.398621 0.473938 0.148712
0.428741 0.479767 0.148010
0.459473 0.485016 0.149506
0.490295 0.489716 0.153564
0.520996 0.494141 0.159363
0.552124 0.499054 0.163605
0.583435 0.504181 0.167023
0.614685 0.509430 0.170044
0.645599 0.514679 0.172913
0.675934 0.519989 0.175873
0.705292 0.525299 0.178864
0.733459 0.530701 0.182037
0.760162 0.536163 0.185333
0.785095 0.541779 0.188721
0.807953 0.547577 0.192291
0.828674 0.553589 0.196014
0.847321 0.559814 0.199860
0.863678 0.566284 0.204468
0.877777 0.572968 0.210022
0.183533 0.453766 0.173004
0.188873 0.454315 0.173798
0.194733 0.454956 0.174744
0.202789 0.455841 0.175995
0.213226 0.457031 0.177612
0.225830 0.458527 0.179688
0.240479 0.460358 0.182281
0.256927 0.462524 0.185272
0.274933 0.465088 0.188538
0.292542 0.470673 0.187012
0.311249 0.478210 0.181976
0.332550 0.485748 0.176941
0.356384 0.493011 0.172424
0.382385 0.499969 0.168518
0.410156 0.506470 0.165588
0.439301 0.512512 0.163971
0.469299 0.518066 0.163849
0.499756 0.523071 0.165863
0.530060 0.527527 0.170227
0.560120 0.531860 0.175934
0.590363 0.536591 0.180389
0.620544 0.541534 0.183838
0.650391 0.546600 0.186981
0.679688 0.551697 0.190063
0.708069 0.556854 0.193024
0.735260 0.562042 0.196075
0.760956 0.567261 0.199280
0.784943 0.572601 0.202545
0.806885 0.578064 0.205933
0.826782 0.583710 0.209473
0.844757 0.589478 0.213135
0.860748 0.595459 0.217194
0.874451 0.601562 0.222443
0.206879 0.487579 0.190277
0.211792 0.488068 0.191010
0.217377 0.488678 0.191895
0.224915 0.489502 0.193054
0.234711 0.490601 0.194611
0.246582 0.492004 0.196625
0.260498 0.493713 0.199097
0.276276 0.495697 0.201904
0.293671 0.498047 0.205200
0.310852 0.502960 0.204498
0.328674 0.510101 0.199890
0.348846 0.517548 0.194763
0.371460 0.524750 0.190155
0.396240 0.531647 0.186127
0.422913 0.538208 0.182831
0.450989 0.544342 0.180542
0.480072 0.550018 0.179535
0.509705 0.555206 0.180115
0.539551 0.559906 0.182617
0.569092 0.564178 0.187256
0.598236 0.568298 0.192841
0.627319 0.572815 0.197296
0.656067 0.577545 0.200806
0.684235 0.582367 0.204102
0.711517 0.587219 0.207275
0.737671 0.592163 0.210327
0.762329 0.597107 0.213409
0.785248 0.602142 0.216614
0.806274 0.607269 0.219879
0.825348 0.612457 0.223267
0.842590 0.617798 0.226776
0.858124 0.623291 0.230377
0.871490 0.628815 0.235168
0.231689 0.520447 0.207794
0.236237 0.520905 0.208466
0.241364 0.521484 0.209320
0.248444 0.522247 0.210419
0.257568 0.523285 0.211914
0.268768 0.524567 0.213837
0.281982 0.526123 0.216156
0.296967 0.527985 0.218842
0.313599 0.530151 0.221985
0.330109 0.534668 0.221619
0.347137 0.541443 0.217316
0.366211 0.548676 0.212250
0.387756 0.555695 0.207642
0.411407 0.562469 0.203522
0.436859 0.568939 0.200104
0.463806 0.575043 0.197449
0.491852 0.580750 0.195831
0.520599 0.585999 0.195526
0.549652 0.590820 0.196777
0.578613 0.595184 0.199707
0.607025 0.599091 0.204620
0.634979 0.603027 0.210052
0.662598 0.607300 0.214325
0.689606 0.611725 0.218018
0.715790 0.616272 0.221313
0.740723 0.620850 0.224548
0.764282 0.625458 0.227661
0.786133 0.630127 0.230774
0.806183 0.634827 0.233948
0.824432 0.639648 0.237183
0.840942 0.644501 0.240570
0.855835 0.649475 0.244019
0.868988 0.654480 0.248047
0.257904 0.552063 0.225494
0.262054 0.552521 0.226166
0.266785 0.553009 0.226929
0.273376 0.553741 0.227997
0.281830 0.554688 0.229492
0.292358 0.555878 0.231262
0.304840 0.557343 0.233459
0.319000 0.559052 0.236023
0.334778 0.561127 0.238892
0.350372 0.565552 0.238159
0.366577 0.571991 0.234039
0.384735 0.578918 0.229156
0.405212 0.585693 0.224640
0.427765 0.592224 0.220581
0.452118 0.598511 0.217072
0.477905 0.604462 0.214325
0.504791 0.610077 0.212341
0.532471 0.615265 0.211456
0.560608 0.620056 0.211884
0.588745 0.624420 0.213715
0.616516 0.628418 0.217102
0.643555 0.631989 0.222229
0.669983 0.635681 0.227386
0.695801 0.639648 0.231537
0.720764 0.643738 0.235168
0.744537 0.647919 0.238495
0.766907 0.652130 0.241730
0.787659 0.656372 0.244873
0.806671 0.660675 0.247986
0.824066 0.664978 0.251160
0.839844 0.669373 0.254395
0.854156 0.673798 0.257751
0.866974 0.678284 0.261200
0.285339 0.582123 0.243378
0.289154 0.582550 0.244019
0.293549 0.583008 0.244720
0.299652 0.583679 0.245758
0.307556 0.584534 0.247131
0.317383 0.585632 0.248810
0.329071 0.586975 0.250885
0.342377 0.588562 0.253357
0.357147 0.590668 0.255707
0.371582 0.595367 0.253998
0.386963 0.601532 0.249847
0.404327 0.608032 0.245209
0.423859 0.614441 0.240936
0.445374 0.620667 0.237091
0.468597 0.626648 0.233643
0.493225 0.632385 0.230865
0.518982 0.637787 0.228790
0.545532 0.642822 0.227570
0.572571 0.647491 0.227417
0.599731 0.651764 0.228516
0.626617 0.655640 0.230957
0.652924 0.659149 0.234741
0.678223 0.662384 0.239960
0.702850 0.665802 0.244690
0.726562 0.669373 0.248718
0.749084 0.673096 0.252289
0.770264 0.676819 0.255585
0.789856 0.680634 0.258759
0.807892 0.684448 0.261932
0.824463 0.688293 0.265045
0.839508 0.692139 0.268188
0.853149 0.696045 0.271393
0.865509 0.699982 0.274658
0.313965 0.610260 0.261383
0.317535 0.610657 0.261932
0.321564 0.611084 0.262634
0.327240 0.611664 0.263611
0.334625 0.612488 0.264862
0.343719 0.613495 0.266479
0.354645 0.614716 0.268463
0.367096 0.616211 0.270721
0.380371 0.618866 0.271576
0.393707 0.623779 0.268921
0.408295 0.629730 0.264587
0.424957 0.635773 0.260376
0.443665 0.641693 0.256409
0.464172 0.647491 0.252808
0.486359 0.653137 0.249603
0.509857 0.658508 0.246857
0.534454 0.663605 0.244843
0.559845 0.668396 0.243500
0.585724 0.672791 0.243103
0.611755 0.676849 0.243805
0.637573 0.680573 0.245514
0.662872 0.683960 0.248413
0.687347 0.686981 0.252563
0.710693 0.689850 0.257629
0.733124 0.692902 0.261963
0.754425 0.696106 0.265869
0.774323 0.699371 0.269287
0.792816 0.702667 0.272522
0.809875 0.706024 0.275696
0.825592 0.709381 0.278778
0.839905 0.712738 0.281860
0.852905 0.716125 0.285004
0.864716 0.719543 0.288116
0.343781 0.636139 0.279297
0.347015 0.636475 0.279846
0.350739 0.636871 0.280518
0.355988 0.637390 0.281403
0.362823 0.638123 0.282562
0.371277 0.639038 0.284149
0.381378 0.640198 0.285950
0.392548 0.642120 0.287048
0.404083 0.645752 0.285675
0.416504 0.650757 0.282257
0.430603 0.656219 0.278259
0.446655 0.661682 0.274475
0.464539 0.667114 0.270966
0.484192 0.672424 0.267670
0.505341 0.677582 0.264740
0.527802 0.682556 0.262268
0.551178 0.687256 0.260315
0.575378 0.691681 0.259094
0.600067 0.695831 0.258636
0.624878 0.699585 0.259033
0.649536 0.703064 0.260437
0.673676 0.706177 0.262756
0.697052 0.709015 0.266144
0.719360 0.711578 0.270538
0.740448 0.714111 0.275177
0.760406 0.716827 0.279205
0.779083 0.719635 0.282745
0.796509 0.722473 0.286133
0.812622 0.725372 0.289246
0.827423 0.728271 0.292358
0.840973 0.731201 0.295441
0.853333 0.734161 0.298462
0.864624 0.737091 0.301514
0.374512 0.659485 0.297119
0.377563 0.659790 0.297668
0.380951 0.660156 0.298279
0.385742 0.660645 0.299164
0.392059 0.661285 0.300262
0.399658 0.662384 0.301300
0.408600 0.663971 0.302002
0.418030 0.666962 0.300812
0.428284 0.671204 0.297821
0.440155 0.675903 0.294342
0.453888 0.680725 0.290955
0.469391 0.685577 0.287689
0.486572 0.690460 0.284607
0.505310 0.695251 0.281738
0.525482 0.699921 0.279175
0.546844 0.704437 0.277008
0.569092 0.708740 0.275330
0.592072 0.712769 0.274200
0.615479 0.716553 0.273804
0.639008 0.720001 0.274170
0.662384 0.723145 0.275330
0.685303 0.726013 0.277344
0.707428 0.728607 0.280243
0.728546 0.730957 0.283997
0.748352 0.733154 0.288361
0.766998 0.735382 0.292572
0.784485 0.737732 0.296204
0.800812 0.740204 0.299561
0.815948 0.742676 0.302765
0.829895 0.745209 0.305786
0.842712 0.747742 0.308838
0.854431 0.750275 0.311798
0.865112 0.752808 0.314880
0.405823 0.680542 0.314789
0.408539 0.680878 0.315155
0.411499 0.681366 0.315460
0.415741 0.681976 0.315948
0.421295 0.682892 0.316528
0.427643 0.684692 0.315948
0.434784 0.687592 0.314056
0.443146 0.691132 0.311462
0.453125 0.694977 0.308655
0.464813 0.699036 0.305756
0.478119 0.703217 0.302979
0.493042 0.707489 0.300232
0.509521 0.711792 0.297607
0.527405 0.716064 0.295166
0.546570 0.720215 0.292999
0.566803 0.724274 0.291199
0.587921 0.728149 0.289856
0.609650 0.731750 0.288971
0.631744 0.735138 0.288696
0.653931 0.738251 0.289124
0.675964 0.741119 0.290253
0.697540 0.743683 0.292084
0.718353 0.746002 0.294678
0.738129 0.748108 0.297943
0.756683 0.750061 0.301880
