滤镜资源/Professional Luts Collection/Lutify.me Professional/Instant Films/Eudialyte.cube
# Created by: Lutify.me
# Copyright: (c) Copyright Lutify.me 2015
# Website: https://lutify.me
#LUT size
LUT_3D_SIZE 9
#LUT data points
0.000000 0.000000 0.000000
0.029785 0.000000 0.000092
0.160095 0.000000 0.000885
0.306183 0.000000 0.001099
0.451843 0.000000 0.000000
0.596649 0.000000 0.000000
0.738312 0.000000 0.000000
0.872833 0.000000 0.006500
0.995422 0.033508 0.026001
0.000000 0.035217 0.001862
0.042877 0.047607 0.001099
0.174225 0.054932 0.000000
0.315521 0.053436 0.000000
0.458130 0.051147 0.000000
0.601074 0.053192 0.000000
0.741333 0.065887 0.000000
0.874817 0.097351 0.006592
0.996460 0.145874 0.028748
0.000000 0.162628 0.011536
0.071259 0.168854 0.017303
0.186371 0.189575 0.002350
0.318909 0.202942 0.000671
0.459625 0.213409 0.000092
0.601868 0.222626 0.000732
0.741486 0.233582 0.007324
0.873779 0.250153 0.025085
0.992584 0.276947 0.055878
0.055817 0.297089 0.059296
0.122589 0.300934 0.066101
0.214569 0.318878 0.050995
0.334839 0.335968 0.040100
0.465363 0.349640 0.048340
0.602203 0.363068 0.053375
0.738159 0.376099 0.065033
0.867401 0.391235 0.082306
0.982086 0.412140 0.108337
0.141602 0.432617 0.128998
0.184998 0.435303 0.133606
0.259125 0.447968 0.129456
0.361694 0.467926 0.111877
0.483490 0.482544 0.113434
0.610016 0.495758 0.125793
0.738892 0.509979 0.133789
0.862701 0.524811 0.144867
0.972015 0.542358 0.165833
0.226532 0.565033 0.200714
0.257446 0.567017 0.204102
0.317230 0.575897 0.203674
0.401428 0.594757 0.188263
0.510468 0.611542 0.178986
0.628845 0.624023 0.186218
0.747223 0.636200 0.199615
0.862579 0.649994 0.209320
0.964935 0.664795 0.226654
0.317566 0.689056 0.272308
0.340363 0.690491 0.274841
0.386108 0.698456 0.272644
0.455261 0.714417 0.260284
0.548889 0.730164 0.250519
0.656250 0.743469 0.248169
0.765472 0.753479 0.259094
0.869873 0.764008 0.272766
0.963318 0.775726 0.288086
0.417328 0.798065 0.343994
0.432404 0.800568 0.343384
0.465271 0.809631 0.336212
0.522705 0.821716 0.327606
0.601807 0.834534 0.320160
0.695038 0.846069 0.316589
0.793091 0.855286 0.320312
0.886383 0.862396 0.333466
0.968842 0.870117 0.348663
0.516327 0.893433 0.400269
0.527527 0.895935 0.398468
0.555756 0.901581 0.394592
0.603729 0.909607 0.389587
0.669800 0.918518 0.385223
0.748322 0.926758 0.383606
0.832001 0.933441 0.386597
0.912445 0.938599 0.395416
0.981934 0.943298 0.409027
0.000000 0.000824 0.038574
0.038208 0.000000 0.045593
0.169891 0.000000 0.055603
0.313049 0.000000 0.067047
0.457092 0.000000 0.078796
0.600891 0.000000 0.091003
0.741760 0.000000 0.104218
0.875610 0.000000 0.119019
0.997559 0.050018 0.135040
0.000000 0.048950 0.049835
0.055695 0.055695 0.055695
0.185303 0.058899 0.062744
0.322357 0.058411 0.071655
0.463074 0.057770 0.081970
0.605072 0.060760 0.093597
0.744659 0.074097 0.106812
0.877441 0.104889 0.121490
0.998535 0.151855 0.137573
0.003418 0.173431 0.080963
0.085907 0.178345 0.088074
0.195007 0.195892 0.087036
0.326691 0.207947 0.091370
0.466034 0.217316 0.098022
0.606720 0.226196 0.107880
0.744873 0.237335 0.120148
0.876343 0.253906 0.134094
0.994507 0.280792 0.151062
0.073090 0.304993 0.127594
0.133759 0.308716 0.132477
0.222076 0.325104 0.128510
0.340454 0.340942 0.128021
0.469910 0.354065 0.136108
0.605896 0.366821 0.142822
0.741089 0.379517 0.152130
0.869720 0.394409 0.163971
0.983917 0.415161 0.181335
0.151886 0.438690 0.181824
0.193481 0.441315 0.185638
0.265350 0.453583 0.183899
0.366425 0.472412 0.174683
0.487305 0.486359 0.178223
0.613251 0.499268 0.188568
0.741486 0.513092 0.196045
0.864777 0.527618 0.205505
0.973633 0.545074 0.222107
0.233521 0.569824 0.241364
0.263824 0.571777 0.244354
0.322266 0.580536 0.244507
0.405457 0.598633 0.233612
0.513672 0.614838 0.227936
0.631500 0.626984 0.235046
0.749481 0.639008 0.246826
0.864349 0.652557 0.255768
0.966370 0.667267 0.270813
0.322693 0.692871 0.304626
0.345215 0.694336 0.307007
0.390259 0.702209 0.305328
0.458649 0.717712 0.295502
0.551636 0.733032 0.288116
0.658478 0.746002 0.287048
0.767334 0.755890 0.297211
0.871338 0.766296 0.309692
0.964478 0.777924 0.323608
0.421173 0.801239 0.370331
0.435944 0.803833 0.369720
0.468445 0.812653 0.363586
0.525482 0.824463 0.356354
0.604065 0.836975 0.350220
0.696838 0.848297 0.347626
0.794525 0.857361 0.351532
0.887512 0.864380 0.363800
0.969727 0.872070 0.377838
0.520782 0.894409 0.425751
0.532013 0.896790 0.424316
0.559723 0.902283 0.421112
0.606934 0.910278 0.416809
0.672028 0.919342 0.412811
0.749817 0.927856 0.410889
0.833008 0.934875 0.413116
0.913208 0.940277 0.420746
0.982483 0.944946 0.433441
0.000000 0.006470 0.171448
0.040985 0.004822 0.175720
0.181030 0.000000 0.189087
0.321198 0.000000 0.200867
0.463531 0.000000 0.212860
0.606018 0.000000 0.224884
0.745789 0.000000 0.237030
0.878632 0.000946 0.249390
0.999390 0.083801 0.262177
0.000000 0.068512 0.179901
0.064880 0.072388 0.184845
0.194366 0.073242 0.196411
0.329468 0.074921 0.206604
0.468903 0.076904 0.217224
0.609833 0.082092 0.228241
0.748444 0.096161 0.239868
0.880310 0.124329 0.251831
0.999939 0.168152 0.264191
0.004211 0.196167 0.196320
0.097748 0.200226 0.200378
0.209198 0.209198 0.209198
0.344360 0.215363 0.215942
0.481689 0.222107 0.224335
0.620056 0.230072 0.234009
0.756165 0.240906 0.244629
0.885742 0.257599 0.255920
1.000000 0.283539 0.267609
0.077972 0.326172 0.226654
0.142151 0.329224 0.230103
0.242340 0.332489 0.241882
0.351135 0.351196 0.242004
0.483826 0.363281 0.245453
0.621613 0.373077 0.251251
0.756561 0.383453 0.259613
0.884094 0.396912 0.269653
0.997986 0.416595 0.281921
0.158478 0.456116 0.267181
0.201111 0.458496 0.270050
0.285065 0.460205 0.281586
0.377716 0.477692 0.281128
0.495300 0.494507 0.280182
0.622528 0.507446 0.285736
0.752502 0.519989 0.290497
0.876404 0.532990 0.297791
0.985382 0.549377 0.310211
0.240417 0.583984 0.314850
0.270966 0.585785 0.317322
0.338806 0.586975 0.327362
0.418823 0.601074 0.327576
0.520752 0.620117 0.321014
0.637421 0.633667 0.324036
0.755768 0.645844 0.331787
0.871613 0.658966 0.337433
0.973907 0.673035 0.348938
0.328827 0.704651 0.367676
0.351440 0.706024 0.369720
0.405487 0.706543 0.378601
0.472198 0.718689 0.377441
0.559265 0.735748 0.370850
0.663269 0.750854 0.366882
0.771484 0.761444 0.373657
0.875488 0.772064 0.382782
0.968689 0.783569 0.393433
0.426117 0.811340 0.424103
0.445801 0.810394 0.428467
0.484009 0.813171 0.432220
0.538300 0.823700 0.429504
0.611877 0.837616 0.423767
0.701141 0.851074 0.418823
0.797638 0.861694 0.419128
0.890167 0.869080 0.428558
0.971924 0.876831 0.440094
0.535431 0.894012 0.485779
0.546661 0.895660 0.485870
0.573303 0.900330 0.484833
0.617432 0.908661 0.481659
0.678650 0.919189 0.476929
0.753510 0.929626 0.472748
0.835327 0.938171 0.471924
0.914978 0.944244 0.476990
0.983704 0.949005 0.488007
0.000000 0.016571 0.310059
0.049469 0.013855 0.313385
0.195862 0.000305 0.324860
0.333038 0.000000 0.337616
0.471802 0.000000 0.349274
0.612213 0.000000 0.361176
0.750366 0.002014 0.372864
0.881744 0.049072 0.384369
1.000000 0.122803 0.395874
0.000000 0.089935 0.316833
0.077850 0.093048 0.320068
0.207336 0.094604 0.330841
0.340027 0.096191 0.342560
0.476654 0.102631 0.353271
0.615692 0.110168 0.364410
0.752777 0.124664 0.375519
0.883179 0.150543 0.386597
1.000000 0.191742 0.397797
0.021088 0.217102 0.326843
0.115723 0.220367 0.329742
0.224213 0.225067 0.340607
0.351654 0.229431 0.352295
0.487610 0.235443 0.361694
0.625397 0.242981 0.370972
0.760620 0.253937 0.380676
0.889069 0.270752 0.390656
1.000000 0.296692 0.400909
0.096497 0.347168 0.347198
0.158081 0.349762 0.349762
0.254395 0.355835 0.355835
0.365417 0.365509 0.365479
0.501251 0.371796 0.371918
0.636780 0.379425 0.379578
0.769287 0.389130 0.388153
0.894775 0.402374 0.397339
1.000000 0.421326 0.406830
0.166138 0.477905 0.375916
0.210083 0.479889 0.378174
0.295837 0.482788 0.384521
0.398132 0.487427 0.397247
0.506744 0.506409 0.397736
0.636383 0.518188 0.400726
0.767303 0.528107 0.405823
0.890503 0.539307 0.413147
0.998962 0.554626 0.422852
0.246155 0.604614 0.412079
0.277649 0.606201 0.414062
0.348999 0.606964 0.421417
0.439545 0.609528 0.434204
0.532715 0.627655 0.434418
0.646179 0.643738 0.433990
0.765259 0.655853 0.438568
0.882141 0.667816 0.442566
0.984528 0.680908 0.451508
0.333740 0.723419 0.454285
0.356995 0.724640 0.455994
0.415527 0.723419 0.464417
0.491699 0.725433 0.475677
0.572876 0.740295 0.476227
0.670868 0.758179 0.471069
0.777740 0.770020 0.474396
0.881622 0.780792 0.480560
0.974792 0.792023 0.488464
0.430817 0.828003 0.501007
0.452362 0.826385 0.505127
0.496765 0.824951 0.512970
0.556061 0.828247 0.520264
0.625061 0.840668 0.519714
0.708649 0.855957 0.514832
0.802490 0.868530 0.512299
0.894073 0.876465 0.518982
0.975037 0.884277 0.528046
0.546173 0.904602 0.557861
0.559174 0.904602 0.559906
0.588684 0.905731 0.563629
0.632355 0.911316 0.565399
0.689484 0.921631 0.563171
0.759979 0.933472 0.558899
0.839111 0.943604 0.556091
0.917572 0.950592 0.558655
0.985352 0.955444 0.567657
0.000000 0.032715 0.449432
0.078583 0.031769 0.452057
0.215759 0.025116 0.460785
0.347809 0.011292 0.474335
0.484070 0.012543 0.486237
0.620850 0.033173 0.497467
0.756256 0.063202 0.509033
0.885345 0.105347 0.520203
1.000000 0.161621 0.530945
0.000000 0.113647 0.455078
0.101074 0.116577 0.457611
0.225433 0.119720 0.465912
0.353821 0.120819 0.478729
0.488373 0.127258 0.489716
0.623993 0.139465 0.500366
0.758423 0.155182 0.511475
0.886627 0.180054 0.522247
1.000000 0.219238 0.532715
0.054810 0.238251 0.462402
0.137726 0.240906 0.464630
0.242340 0.243713 0.474396
0.364960 0.248322 0.485535
0.496826 0.252960 0.497131
0.631287 0.261566 0.507111
0.764648 0.272461 0.517090
0.891449 0.289124 0.526794
1.000000 0.315338 0.536346
0.127838 0.368011 0.475464
0.182709 0.370239 0.477539
0.270935 0.374939 0.484680
0.380920 0.380707 0.496033
0.507965 0.385468 0.507812
0.641479 0.392151 0.516663
0.773163 0.401154 0.524994
0.897583 0.414154 0.533325
1.000000 0.433319 0.541779
0.189880 0.497986 0.497437
0.231171 0.499756 0.499268
0.309967 0.504059 0.503693
0.410492 0.511169 0.511017
0.520996 0.520935 0.520996
0.653076 0.527222 0.527069
0.781311 0.535248 0.533997
0.901794 0.545837 0.541534
1.000000 0.560547 0.549286
0.258942 0.625305 0.525055
0.290344 0.626709 0.526672
0.358551 0.629242 0.530792
0.451691 0.632782 0.538483
0.552765 0.638031 0.551331
0.657135 0.656250 0.552002
0.777771 0.667358 0.554657
0.894745 0.677032 0.559143
0.996704 0.688873 0.566620
0.343079 0.743469 0.557831
0.366425 0.744537 0.559265
0.423981 0.744873 0.564178
0.504486 0.745636 0.573181
0.593018 0.749451 0.585358
0.681976 0.766846 0.585632
0.785553 0.780914 0.585876
0.889221 0.791595 0.589783
0.982239 0.802155 0.595703
0.438507 0.846649 0.595306
0.459747 0.845673 0.597839
0.505280 0.844513 0.603516
0.569946 0.844330 0.612366
0.643677 0.848053 0.622070
0.720428 0.862213 0.622314
0.808838 0.877075 0.618500
0.898712 0.885925 0.622437
0.978485 0.893829 0.629303
0.553711 0.922241 0.640778
0.567535 0.921875 0.642700
0.599579 0.921295 0.647339
0.648163 0.921570 0.654480
0.705536 0.926758 0.659668
0.770294 0.938385 0.658356
0.844452 0.950287 0.654816
0.920532 0.958649 0.654877
0.987000 0.963806 0.661835
0.015564 0.060516 0.585541
0.124725 0.062347 0.587646
0.243317 0.064545 0.594208
0.367615 0.061523 0.607056
0.499420 0.065643 0.619812
0.633331 0.084259 0.630829
0.764740 0.113983 0.641449
0.890350 0.149353 0.652222
1.000000 0.198700 0.662323
0.049408 0.139801 0.590363
0.139374 0.142517 0.592377
0.251007 0.146881 0.598785
0.372711 0.148926 0.610931
0.503174 0.153625 0.622925
0.636108 0.165588 0.633392
0.766632 0.184937 0.643616
0.891449 0.210236 0.654053
1.000000 0.248260 0.663849
0.106445 0.259979 0.596008
0.170654 0.262238 0.597778
0.266968 0.264343 0.606079
0.384277 0.269348 0.615601
0.510742 0.272766 0.628418
0.641907 0.280579 0.639038
0.771088 0.293671 0.648743
0.894714 0.310852 0.658539
1.000000 0.337463 0.667664
0.164856 0.388672 0.605072
0.212585 0.390564 0.606750
0.293610 0.393433 0.614410
0.400299 0.397675 0.624939
0.521515 0.402740 0.636383
0.649750 0.408356 0.647430
0.777252 0.417938 0.656525
0.899078 0.430542 0.665253
1.000000 0.450073 0.673370
0.225403 0.517944 0.620392
0.262054 0.519531 0.621979
0.332977 0.523346 0.626678
0.426941 0.529205 0.635162
0.536407 0.535431 0.646637
0.658997 0.540314 0.657959
0.784393 0.547394 0.666046
0.903320 0.557373 0.673279
1.000000 0.572113 0.680298
0.287262 0.644135 0.642517
0.316345 0.645355 0.643890
0.378479 0.648468 0.647247
0.465149 0.653656 0.652924
0.565063 0.661011 0.660736
0.670380 0.670380 0.670380
0.792480 0.676392 0.675964
0.906189 0.684448 0.682007
1.000000 0.695587 0.688232
0.360901 0.762329 0.668488
0.383636 0.763275 0.669647
0.436615 0.765076 0.672638
0.513824 0.768036 0.677917
0.605469 0.771912 0.686035
0.700348 0.776886 0.698242
0.794769 0.793243 0.699005
0.898743 0.803009 0.701294
0.991425 0.812134 0.706146
0.451538 0.864746 0.697815
0.471130 0.864624 0.699158
0.514465 0.864899 0.702423
0.578979 0.865723 0.708160
0.657257 0.867004 0.717041
0.738464 0.870789 0.728149
0.817505 0.885925 0.728058
0.903931 0.896667 0.729095
0.982300 0.904633 0.733734
0.561523 0.941345 0.731934
0.575195 0.941193 0.733215
0.607422 0.940918 0.736511
0.657837 0.940582 0.742340
0.720551 0.940643 0.750885
0.786072 0.944885 0.758728
0.852539 0.957031 0.757965
0.923859 0.967529 0.755951
0.988556 0.973328 0.760559
0.124420 0.094116 0.712921
0.184814 0.097107 0.714630
0.282166 0.102753 0.719910
0.395630 0.104889 0.731537
0.520325 0.111176 0.743896
0.649567 0.124207 0.755524
0.777161 0.150360 0.765503
0.898041 0.186401 0.775085
1.000000 0.232544 0.784302
0.137726 0.167511 0.717010
0.194061 0.170258 0.718597
0.288116 0.174683 0.723877
0.399994 0.177246 0.734863
0.523621 0.182190 0.746613
0.651978 0.191925 0.757721
0.778717 0.211182 0.767303
0.898926 0.238770 0.776672
1.000000 0.276367 0.785645
0.171143 0.282013 0.721375
0.219025 0.283997 0.722870
0.302490 0.285736 0.729950
0.411346 0.290680 0.738190
0.530914 0.294495 0.750275
0.656921 0.300476 0.762054
0.782135 0.313538 0.771515
0.900909 0.332977 0.780518
1.000000 0.360413 0.789032
0.215942 0.408661 0.727814
0.255310 0.410339 0.729218
0.326447 0.411835 0.736938
0.426666 0.415436 0.746124
0.541840 0.420959 0.756134
0.663849 0.425415 0.768402
0.786652 0.434692 0.777893
0.903290 0.448822 0.786346
1.000000 0.468994 0.794220
0.268188 0.537384 0.738525
0.300201 0.538757 0.739838
0.362305 0.541504 0.745331
0.450134 0.545410 0.754639
0.556610 0.550598 0.764771
0.672455 0.555786 0.776001
0.791565 0.562164 0.785919
0.905273 0.572510 0.793762
1.000000 0.587494 0.800751
0.327423 0.662292 0.754669
0.353241 0.663483 0.755859
0.408264 0.666351 0.759308
0.487518 0.671143 0.765289
0.581635 0.677307 0.773956
0.685272 0.683502 0.784912
0.797272 0.688354 0.795227
0.907104 0.695618 0.802185
1.000000 0.706573 0.808014
0.393219 0.779053 0.775574
0.414093 0.779938 0.776611
0.461578 0.782104 0.779205
0.532532 0.785767 0.783600
0.618652 0.791016 0.789734
0.711975 0.797791 0.797363
0.806030 0.806061 0.806030
0.910004 0.811523 0.810791
0.999664 0.819305 0.815582
0.474091 0.880859 0.798767
0.491241 0.881287 0.799652
0.530457 0.882477 0.801910
0.591003 0.884583 0.805786
0.666687 0.887451 0.811432
0.750305 0.890778 0.819122
0.832550 0.894775 0.829742
0.910034 0.907806 0.830475
0.987396 0.915405 0.833008
0.574524 0.958252 0.824127
0.587402 0.958405 0.824951
0.618011 0.958801 0.827118
0.666748 0.959412 0.830933
0.729279 0.960114 0.836639
0.799042 0.960846 0.844788
0.866394 0.964050 0.853790
0.928406 0.975800 0.853333
0.990387 0.983185 0.855042
0.219727 0.129120 0.824554
0.259430 0.132568 0.825958
0.335480 0.137390 0.831177
0.435455 0.141174 0.841309
0.550385 0.148285 0.852631
0.672180 0.160614 0.863831
0.794220 0.182159 0.873901
0.909943 0.216797 0.882477
1.000000 0.261932 0.890381
0.227234 0.195251 0.827911
0.265656 0.197693 0.829224
0.340118 0.200928 0.834442
0.439117 0.203888 0.844055
0.553253 0.209351 0.854919
0.674255 0.218964 0.865692
0.795563 0.235931 0.875427
0.910522 0.263947 0.883759
1.000000 0.301788 0.891510
0.249359 0.303528 0.831299
0.284576 0.305328 0.832550
0.352936 0.306610 0.838898
0.449646 0.311127 0.846313
0.560211 0.315308 0.857239
0.678619 0.321411 0.868622
0.798248 0.332672 0.878632
0.911743 0.352966 0.886688
1.000000 0.381714 0.894104
0.283264 0.427551 0.835724
0.314148 0.429077 0.836914
0.372528 0.428925 0.845306
0.463898 0.432831 0.852417
0.570679 0.438202 0.861420
0.684998 0.443085 0.872955
0.801758 0.450714 0.883362
0.912842 0.465485 0.891205
1.000000 0.487000 0.898102
0.325714 0.555115 0.843048
0.352295 0.556396 0.844177
0.403503 0.557648 0.851044
0.483917 0.560333 0.859833
0.584534 0.565399 0.868073
0.693420 0.570953 0.878113
0.805481 0.576324 0.889038
0.913116 0.586975 0.896759
1.000000 0.603119 0.903137
0.377106 0.679260 0.854340
0.399414 0.680267 0.855408
0.445526 0.682556 0.859741
0.517059 0.686249 0.866302
0.605530 0.690796 0.875366
0.705688 0.696228 0.884705
0.810181 0.701324 0.894989
0.912720 0.708313 0.903046
1.000000 0.719910 0.908875
0.438049 0.794342 0.869690
0.456116 0.795166 0.870697
0.497650 0.797241 0.873291
0.561676 0.800720 0.877594
0.640991 0.805603 0.883759
0.728241 0.811432 0.891937
0.819611 0.817017 0.901581
0.913208 0.821625 0.910065
0.997681 0.829102 0.915253
0.509583 0.894501 0.887848
0.524506 0.895020 0.888641
0.559631 0.896423 0.890625
0.614838 0.898773 0.894012
0.684784 0.902161 0.898712
0.762939 0.906525 0.904602
0.842865 0.911865 0.911224
0.918213 0.918274 0.918213
0.994629 0.922729 0.921692
0.598053 0.971527 0.906921
0.609802 0.971802 0.907593
0.637787 0.972534 0.909271
0.682770 0.973755 0.912170
0.741241 0.975433 0.916229
0.807831 0.977539 0.921417
0.876404 0.979828 0.927826
0.938477 0.982758 0.935913
0.993683 0.992310 0.936493
0.320099 0.162598 0.912354
0.346832 0.164276 0.914246
0.404602 0.165924 0.920227
0.489838 0.169861 0.928802
0.592712 0.177277 0.938782
0.704712 0.189697 0.948944
0.818665 0.210541 0.958252
0.927673 0.242706 0.966156
1.000000 0.286896 0.972870
0.325043 0.221130 0.915039
0.351166 0.221954 0.917114
0.408325 0.223236 0.922791
0.492950 0.226349 0.931030
0.595093 0.232117 0.940613
0.706451 0.242065 0.950439
0.819733 0.259033 0.959442
0.928040 0.285889 0.967163
1.000000 0.323883 0.973724
0.339752 0.322876 0.918091
0.362976 0.322357 0.921356
0.420013 0.325470 0.924835
0.502167 0.328796 0.932159
0.601318 0.332916 0.941956
0.710266 0.339417 0.952301
0.821808 0.350861 0.961670
0.928650 0.370392 0.969391
1.000000 0.399902 0.975555
0.363129 0.443329 0.922119
0.383636 0.442841 0.925629
0.434998 0.443848 0.930908
0.515106 0.448425 0.935913
0.610748 0.452972 0.944519
0.715881 0.457947 0.955017
0.824432 0.465759 0.964844
0.928833 0.479614 0.972595
1.000000 0.502014 0.978363
0.396179 0.569733 0.926666
0.414551 0.569916 0.929535
0.459747 0.570923 0.935028
0.531494 0.573273 0.942322
0.623260 0.578613 0.948730
0.723328 0.583740 0.958099
0.827209 0.589264 0.968323
0.927887 0.598938 0.976349
1.000000 0.615784 0.981689
0.438812 0.693329 0.933685
0.455597 0.694000 0.935547
0.495880 0.695709 0.939606
0.559357 0.698517 0.946014
0.640472 0.702057 0.954498
0.734131 0.707489 0.962036
0.830933 0.712585 0.971497
0.925934 0.718781 0.980164
1.000000 0.730927 0.985291
0.491730 0.807434 0.944122
0.506897 0.808167 0.945221
0.542725 0.809998 0.947815
0.599274 0.813019 0.952240
0.671143 0.817047 0.958618
0.752228 0.821533 0.966980
0.839050 0.826538 0.975128
0.924683 0.831085 0.983704
0.999969 0.838715 0.989166
0.556519 0.905762 0.957275
0.569580 0.906281 0.958038
0.600494 0.907593 0.959869
0.649780 0.909821 0.962982
0.713104 0.913055 0.967438
0.784454 0.917175 0.973145
0.857819 0.921906 0.980103
0.929077 0.926300 0.987671
0.996338 0.930145 0.993805
0.634460 0.981293 0.972107
0.644806 0.981598 0.972748
0.669922 0.982330 0.974213
0.710602 0.983612 0.976776
0.763763 0.985504 0.980377
0.824615 0.987976 0.984802
0.887238 0.991180 0.989746
0.945831 0.995148 0.994812
0.999939 1.000000 0.999878
