滤镜资源/Professional Luts Collection/Lutify.me Professional/Instant Films/Eudialyte.cube
# Created by: Lutify.me
# Copyright: (c) Copyright Lutify.me 2015
# Website: https://lutify.me
#LUT size
LUT_3D_SIZE 33
#LUT data points
0.000000 0.000000 0.000000
0.001923 0.000366 0.000793
0.006165 0.000031 0.000092
0.013458 0.000000 0.000336
0.029785 0.000000 0.000092
0.056702 0.000000 0.000610
0.088867 0.000000 0.000519
0.123810 0.000000 0.000793
0.160095 0.000000 0.000885
0.196655 0.000000 0.001099
0.233246 0.000000 0.001190
0.269745 0.000000 0.001190
0.306183 0.000000 0.001099
0.342590 0.000000 0.000671
0.379028 0.000000 0.000305
0.415466 0.000000 0.000092
0.451843 0.000000 0.000000
0.488190 0.000000 0.000000
0.524414 0.000000 0.000000
0.560577 0.000000 0.000000
0.596649 0.000000 0.000000
0.632477 0.000000 0.000000
0.668091 0.000000 0.000000
0.703369 0.000000 0.000000
0.738312 0.000000 0.000000
0.772766 0.000000 0.000153
0.806732 0.000000 0.001068
0.840149 0.000000 0.003418
0.872833 0.000000 0.006500
0.904816 0.000000 0.010406
0.935974 0.000000 0.014862
0.966217 0.001038 0.020233
0.995422 0.033508 0.026001
0.000031 0.002319 0.000000
0.002716 0.002350 0.000397
0.006989 0.002747 0.000397
0.015717 0.003052 0.000031
0.033722 0.002350 0.000305
0.061707 0.000916 0.000366
0.093323 0.000122 0.000458
0.127899 0.000000 0.000458
0.163605 0.000000 0.000732
0.199829 0.000000 0.000793
0.235962 0.000000 0.000793
0.272064 0.000000 0.000519
0.308167 0.000000 0.000336
0.344330 0.000000 0.000122
0.380554 0.000000 0.000000
0.416779 0.000000 0.000000
0.453003 0.000000 0.000000
0.489197 0.000000 0.000000
0.525391 0.000000 0.000000
0.561493 0.000000 0.000000
0.597473 0.000000 0.000000
0.633240 0.000000 0.000000
0.668732 0.000000 0.000000
0.703979 0.000000 0.000000
0.738892 0.000000 0.000000
0.773254 0.000000 0.000061
0.807190 0.000000 0.000824
0.840546 0.000000 0.003418
0.873169 0.000000 0.006561
0.905090 0.000519 0.010498
0.936218 0.007294 0.015228
0.966461 0.034210 0.020264
0.995636 0.063934 0.026764
0.000732 0.005890 0.000397
0.002777 0.006653 0.000793
0.007751 0.007782 0.000763
0.017365 0.008606 0.000397
0.038055 0.008972 0.000336
0.065948 0.008270 0.000061
0.098145 0.006714 0.000031
0.131989 0.004211 0.000275
0.167328 0.001099 0.000092
0.203003 0.000275 0.000244
0.238678 0.000061 0.000122
0.274353 0.000000 0.000061
0.310211 0.000000 0.000031
0.346161 0.000000 0.000031
0.382172 0.000000 0.000000
0.418213 0.000000 0.000000
0.454285 0.000000 0.000000
0.490356 0.000000 0.000000
0.526459 0.000000 0.000000
0.562469 0.000000 0.000000
0.598328 0.000000 0.000000
0.634033 0.000000 0.000000
0.669495 0.000000 0.000000
0.704651 0.000000 0.000000
0.739471 0.000000 0.000000
0.773834 0.000000 0.000000
0.807678 0.000122 0.000488
0.840973 0.000732 0.003082
0.873596 0.003937 0.006470
0.905457 0.021790 0.010498
0.936523 0.044189 0.015289
0.966675 0.066925 0.020660
0.995850 0.088928 0.026855
0.000061 0.015656 0.001160
0.003448 0.016479 0.001221
0.008179 0.018372 0.001892
0.019165 0.021118 0.000793
0.040100 0.023041 0.000397
0.069946 0.024475 0.000061
0.102386 0.024536 0.000000
0.136475 0.023438 0.000000
0.171478 0.021606 0.000031
0.206757 0.019073 0.000000
0.242126 0.016632 0.000031
0.277405 0.014130 0.000000
0.312866 0.011444 0.000000
0.348480 0.008789 0.000000
0.384277 0.006439 0.000000
0.420105 0.004364 0.000000
0.456024 0.002808 0.000000
0.491943 0.002197 0.000000
0.527893 0.002197 0.000000
0.563751 0.002197 0.000000
0.599518 0.002258 0.000000
0.635132 0.002411 0.000000
0.670471 0.003052 0.000000
0.705597 0.005554 0.000000
0.740265 0.010834 0.000000
0.774567 0.017975 0.000000
0.808319 0.026947 0.000458
0.841583 0.038544 0.002991
0.874115 0.051727 0.006531
0.905945 0.067139 0.010803
0.936951 0.083191 0.015686
0.967010 0.099731 0.021423
0.996063 0.116486 0.027893
0.000000 0.035217 0.001862
0.002075 0.036743 0.001953
0.009644 0.038574 0.002716
0.021393 0.041901 0.002686
0.042877 0.047607 0.001099
0.072021 0.050690 0.000092
0.105011 0.053162 0.000000
0.139221 0.054565 0.000000
0.174225 0.054932 0.000000
0.209412 0.054993 0.000000
0.244720 0.054810 0.000000
0.279999 0.054291 0.000000
0.315521 0.053436 0.000000
0.351105 0.052704 0.000000
0.386749 0.052032 0.000000
0.422455 0.051575 0.000000
0.458130 0.051147 0.000000
0.493896 0.051056 0.000000
0.529694 0.051392 0.000000
0.565460 0.052032 0.000000
0.601074 0.053192 0.000000
0.636536 0.054962 0.000000
0.671783 0.057495 0.000000
0.706757 0.061005 0.000000
0.741333 0.065887 0.000000
0.775543 0.071899 0.000000
0.809204 0.079010 0.000458
0.842377 0.087616 0.002960
0.874817 0.097351 0.006592
0.906525 0.108093 0.011230
0.937408 0.119751 0.016327
0.967468 0.132385 0.022156
0.996460 0.145874 0.028748
0.000000 0.064240 0.003021
0.000641 0.065826 0.003418
0.009735 0.067505 0.003876
0.024597 0.070068 0.004578
0.047028 0.075745 0.003052
0.075958 0.081024 0.000793
0.107666 0.084473 0.000061
0.141144 0.087677 0.000000
0.175751 0.089996 0.000000
0.210632 0.091949 0.000000
0.245789 0.093323 0.000000
0.280975 0.094574 0.000000
0.316315 0.095520 0.000000
0.351959 0.096252 0.000000
0.387756 0.096924 0.000000
0.423615 0.097534 0.000000
0.459503 0.098145 0.000000
0.495422 0.098633 0.000000
0.531372 0.099396 0.000000
0.567200 0.100525 0.000000
0.602783 0.102020 0.000000
0.638184 0.103973 0.000000
0.673340 0.106476 0.000000
0.708191 0.109589 0.000000
0.742645 0.113464 0.000000
0.776733 0.118042 0.000000
0.810272 0.123627 0.000336
0.843323 0.130035 0.002502
0.875671 0.137299 0.006714
0.907288 0.145752 0.011536
0.938080 0.155060 0.017456
0.967987 0.165222 0.023346
0.996857 0.176544 0.030457
0.000000 0.096588 0.004547
0.000183 0.097839 0.005280
0.010406 0.099518 0.005768
0.028961 0.101562 0.007141
0.053345 0.105713 0.006622
0.080750 0.112274 0.002808
0.112152 0.116943 0.000458
0.144257 0.120331 0.000336
0.177521 0.123871 0.000031
0.211914 0.126831 0.000000
0.246521 0.129395 0.000000
0.281525 0.131592 0.000000
0.316742 0.133484 0.000000
0.352203 0.135193 0.000000
0.387878 0.136719 0.000000
0.423676 0.138184 0.000000
0.459534 0.139465 0.000000
0.495453 0.140778 0.000000
0.531403 0.142151 0.000000
0.567261 0.143646 0.000000
0.602966 0.145294 0.000000
0.638489 0.147247 0.000000
0.673798 0.149567 0.000000
0.708771 0.152222 0.000000
0.743347 0.155457 0.000000
0.777466 0.159332 0.000092
0.811066 0.163788 0.000854
0.844055 0.169128 0.003754
0.876343 0.175171 0.008179
0.907837 0.182068 0.013367
0.938507 0.189911 0.019379
0.968201 0.198822 0.026337
0.996765 0.208710 0.034149
0.000000 0.129517 0.007141
0.000397 0.130676 0.007751
0.013763 0.132019 0.008820
0.035339 0.133911 0.010315
0.061310 0.136963 0.011261
0.087860 0.143036 0.007294
0.117523 0.149017 0.002747
0.149292 0.153259 0.000793
0.181152 0.156525 0.001129
0.214142 0.160034 0.000214
0.248169 0.163330 0.000031
0.282623 0.166260 0.000000
0.317535 0.168854 0.000000
0.352692 0.171204 0.000000
0.388184 0.173431 0.000000
0.423737 0.175415 0.000000
0.459442 0.177399 0.000000
0.495209 0.179230 0.000000
0.531036 0.181091 0.000000
0.566803 0.183014 0.000000
0.602448 0.185028 0.000000
0.637909 0.187195 0.000000
0.673096 0.189636 0.000031
0.708038 0.192383 0.000214
0.742554 0.195435 0.001068
0.776642 0.199005 0.003021
0.810181 0.203064 0.005951
0.843140 0.207703 0.010040
0.875336 0.213043 0.015076
0.906769 0.219116 0.020844
0.937256 0.225952 0.027649
0.966644 0.233856 0.035400
0.994965 0.242645 0.043915
0.000000 0.162628 0.011536
0.004669 0.163696 0.012604
0.020691 0.164886 0.013458
0.045166 0.166473 0.015320
0.071259 0.168854 0.017303
0.096771 0.174194 0.013885
0.124481 0.180450 0.008209
0.154968 0.185730 0.003906
0.186371 0.189575 0.002350
0.218079 0.192749 0.003326
0.250916 0.196320 0.002319
0.284637 0.199768 0.001465
0.318909 0.202942 0.000671
0.353699 0.205841 0.000336
0.388824 0.208496 0.000183
0.424194 0.211029 0.000153
0.459625 0.213409 0.000092
0.495178 0.215759 0.000183
0.530823 0.217987 0.000275
0.566406 0.220276 0.000427
0.601868 0.222626 0.000732
0.637207 0.225037 0.001556
0.672272 0.227631 0.002991
0.707092 0.230469 0.004883
0.741486 0.233582 0.007324
0.775421 0.237030 0.010590
0.808868 0.240906 0.014679
0.841675 0.245270 0.019562
0.873779 0.250153 0.025085
0.905090 0.255676 0.031403
0.935364 0.261902 0.039185
0.964508 0.269012 0.047485
0.992584 0.276947 0.055878
0.001221 0.196014 0.018555
0.014526 0.196960 0.020020
0.033295 0.198059 0.021118
0.057068 0.199554 0.023010
0.082825 0.201416 0.025421
0.107361 0.205750 0.023468
0.132935 0.211853 0.017151
0.161530 0.217560 0.011169
0.192200 0.222351 0.006958
0.223450 0.226044 0.006256
0.255066 0.229187 0.007996
0.287720 0.232727 0.007690
0.321259 0.236237 0.006897
0.355377 0.239532 0.006012
0.390045 0.242645 0.005219
0.425018 0.245575 0.004761
0.460205 0.248352 0.004547
0.495483 0.251068 0.004761
0.530823 0.253693 0.005371
0.566223 0.256256 0.006195
0.601532 0.258850 0.007385
0.636688 0.261505 0.008911
0.671570 0.264282 0.011230
0.706238 0.267212 0.014191
0.740479 0.270355 0.017548
0.774231 0.273773 0.021545
0.807526 0.277557 0.026276
0.840210 0.281708 0.031738
0.872162 0.286316 0.037811
0.903320 0.291443 0.044434
0.933319 0.297302 0.051910
0.962250 0.303864 0.060303
0.990051 0.311157 0.068512
0.012695 0.229584 0.029022
0.030334 0.230438 0.030579
0.049377 0.231384 0.031982
0.071655 0.232697 0.034027
0.095123 0.234375 0.036835
0.118835 0.237671 0.036774
0.142792 0.243500 0.029999
0.169403 0.249359 0.022736
0.198547 0.254639 0.016754
0.229248 0.259094 0.013184
0.260590 0.262604 0.013580
0.292084 0.265717 0.016205
0.324677 0.269196 0.016632
0.358002 0.272797 0.016357
0.392029 0.276215 0.015747
0.426483 0.279480 0.015259
0.461212 0.282623 0.015167
0.496185 0.285614 0.015350
0.531250 0.288513 0.016022
0.566345 0.291382 0.017273
0.601410 0.294220 0.018982
0.636322 0.297089 0.021118
0.671021 0.300018 0.023865
0.705475 0.303101 0.027405
0.739532 0.306305 0.031342
0.773132 0.309692 0.035858
0.806213 0.313416 0.040924
0.838715 0.317444 0.046417
0.870544 0.321808 0.052246
0.901520 0.326660 0.058533
0.931335 0.332153 0.065582
0.959930 0.338318 0.073547
0.987427 0.345123 0.081360
0.032867 0.263245 0.043213
0.050262 0.263977 0.044647
0.067047 0.264893 0.046021
0.086731 0.266022 0.048096
0.108521 0.267517 0.050690
0.131287 0.270020 0.052338
0.153564 0.275391 0.046814
0.178406 0.281250 0.039276
0.205994 0.286713 0.031830
0.235565 0.291626 0.026123
0.266449 0.295837 0.023346
0.297699 0.299225 0.024780
0.329224 0.302338 0.028473
0.361664 0.305817 0.029694
0.394897 0.309448 0.030060
0.428741 0.312897 0.030121
0.462921 0.316315 0.030243
0.497406 0.319580 0.030731
0.532104 0.322723 0.031677
0.566864 0.325836 0.032990
0.601593 0.328918 0.034943
0.636230 0.331970 0.037323
0.670685 0.335052 0.040161
0.704926 0.338196 0.043701
0.738739 0.341492 0.047699
0.772125 0.344940 0.052094
0.805023 0.348602 0.056885
0.837341 0.352570 0.061951
0.868927 0.356720 0.067169
0.899719 0.361389 0.072662
0.929321 0.366577 0.079376
0.957581 0.372375 0.087158
0.984772 0.378754 0.094727
0.055817 0.297089 0.059296
0.070801 0.297729 0.060425
0.085175 0.298523 0.061676
0.102325 0.299591 0.063721
0.122589 0.300934 0.066101
0.144226 0.302856 0.068481
0.165527 0.307495 0.064850
0.188629 0.313293 0.058044
0.214569 0.318878 0.050995
0.242798 0.324036 0.044342
0.272675 0.328674 0.039581
0.303650 0.332642 0.037842
0.334839 0.335968 0.040100
0.366394 0.339020 0.044678
0.398743 0.342499 0.046692
0.431793 0.346100 0.047668
0.465363 0.349640 0.048340
0.499298 0.353119 0.049042
0.533478 0.356506 0.050018
0.567841 0.359772 0.051575
0.602203 0.363068 0.053375
0.636536 0.366272 0.055695
0.670654 0.369476 0.058380
0.704590 0.372772 0.061462
0.738159 0.376099 0.065033
0.771301 0.379608 0.068848
0.803925 0.383270 0.073090
0.836029 0.387146 0.077606
0.867401 0.391235 0.082306
0.897980 0.395691 0.087341
0.927277 0.400665 0.093536
0.955231 0.406158 0.100983
0.982086 0.412140 0.108337
0.078278 0.330994 0.076111
0.090698 0.331573 0.077026
0.103180 0.332275 0.078247
0.118744 0.333252 0.080048
0.137146 0.334503 0.082214
0.157776 0.336090 0.084839
0.178162 0.339966 0.082916
0.199921 0.345459 0.077148
0.224274 0.351044 0.070740
0.251068 0.356384 0.064636
0.279785 0.361298 0.059235
0.309875 0.365692 0.055725
0.340820 0.369537 0.055023
0.372040 0.372772 0.057831
0.403595 0.375763 0.062683
0.435791 0.379211 0.065308
0.468597 0.382782 0.066833
0.501892 0.386383 0.067841
0.535522 0.389893 0.069092
0.569336 0.393402 0.070465
0.603271 0.396759 0.072174
0.637177 0.400116 0.074158
0.670959 0.403473 0.076599
0.704559 0.406830 0.079315
0.737823 0.410278 0.082367
0.770630 0.413788 0.085754
0.803009 0.417450 0.089355
0.834839 0.421295 0.093384
0.865967 0.425323 0.097626
0.896301 0.429596 0.102234
0.925293 0.434357 0.108093
0.952942 0.439575 0.115173
0.979431 0.445221 0.122223
0.099762 0.364929 0.093414
0.110352 0.365479 0.094299
0.121368 0.366119 0.095428
0.135468 0.367004 0.096954
0.152496 0.368134 0.098907
0.171783 0.369598 0.101410
0.191742 0.372650 0.101196
0.212097 0.377838 0.096222
0.234924 0.383331 0.090454
0.260284 0.388672 0.084808
0.287750 0.393799 0.079559
0.316864 0.398468 0.075409
0.347107 0.402679 0.072937
0.378052 0.406372 0.073029
0.409332 0.409515 0.076233
0.440735 0.412506 0.081177
0.472717 0.415924 0.084076
0.505249 0.419495 0.085999
0.538239 0.423065 0.087433
0.571533 0.426605 0.088928
0.604889 0.430145 0.090607
0.638336 0.433594 0.092438
0.671692 0.437073 0.094482
0.704895 0.440491 0.096924
0.737793 0.444000 0.099640
0.770264 0.447571 0.102631
0.802338 0.451202 0.105865
0.833862 0.455017 0.109344
0.864685 0.458954 0.113251
0.894745 0.463135 0.117340
0.923431 0.467712 0.122772
0.950684 0.472626 0.129669
0.976868 0.477997 0.136444
0.120789 0.398834 0.111084
0.130066 0.399353 0.111969
0.139893 0.399933 0.112915
0.152740 0.400726 0.114349
0.168488 0.401764 0.116119
0.186584 0.403107 0.118378
0.205963 0.405457 0.119507
0.225159 0.410278 0.115417
0.246613 0.415649 0.110046
0.270569 0.420990 0.104767
0.296692 0.426147 0.099823
0.324615 0.431000 0.095490
0.354034 0.435455 0.092285
0.384399 0.439514 0.090729
0.415375 0.443085 0.091339
0.446533 0.446167 0.094879
0.477722 0.449127 0.099731
0.509491 0.452484 0.102783
0.541718 0.455994 0.104980
0.574310 0.459564 0.106812
0.607147 0.463135 0.108490
0.640045 0.466675 0.110321
0.672913 0.470184 0.112274
0.705658 0.473724 0.114380
0.738129 0.477234 0.116760
0.770233 0.480835 0.119446
0.801910 0.484467 0.122375
0.833099 0.488251 0.125519
0.863586 0.492126 0.128967
0.893311 0.496216 0.132751
0.921692 0.500610 0.137726
0.948578 0.505341 0.144409
0.974365 0.510406 0.151031
0.141602 0.432617 0.128998
0.149872 0.433075 0.129852
0.158630 0.433624 0.130707
0.170471 0.434326 0.131958
0.184998 0.435303 0.133606
0.202057 0.436554 0.135681
0.220734 0.438354 0.137512
0.239044 0.442719 0.134399
0.259125 0.447968 0.129456
0.281769 0.453217 0.124420
0.306671 0.458374 0.119659
0.333374 0.463318 0.115417
0.361694 0.467926 0.111877
0.391235 0.472229 0.109497
0.421722 0.476074 0.108521
0.452576 0.479523 0.109711
0.483490 0.482544 0.113434
0.514496 0.485443 0.118195
0.546021 0.488739 0.121338
0.577881 0.492218 0.123810
0.610016 0.495758 0.125793
0.642334 0.499329 0.127655
0.674652 0.502869 0.129608
0.706879 0.506439 0.131714
0.738892 0.509979 0.133789
0.770569 0.513580 0.136230
0.801819 0.517242 0.138855
0.832611 0.520966 0.141724
0.862701 0.524811 0.144867
0.892059 0.528809 0.148315
0.920135 0.533020 0.152954
0.946625 0.537506 0.159363
0.972015 0.542358 0.165833
0.162476 0.466217 0.147003
0.169922 0.466614 0.147797
0.177856 0.467133 0.148560
0.188599 0.467804 0.149719
0.202087 0.468689 0.151215
0.218079 0.469818 0.153107
0.235992 0.471344 0.155182
0.253571 0.475159 0.153046
0.272491 0.480164 0.148499
0.293854 0.485352 0.143768
0.317474 0.490448 0.139221
0.343109 0.495392 0.135010
0.370300 0.500122 0.131317
0.398895 0.504547 0.128448
0.428528 0.508636 0.126740
0.458954 0.512360 0.126343
0.489624 0.515656 0.127991
0.520294 0.518616 0.131805
0.551056 0.521454 0.136505
0.582245 0.524719 0.139801
0.613678 0.528137 0.142365
0.645294 0.531616 0.144470
0.677002 0.535187 0.146484
0.708679 0.538727 0.148590
0.740143 0.542267 0.150665
0.771332 0.545837 0.152893
0.802124 0.549469 0.155334
0.832458 0.553192 0.157990
0.862122 0.556946 0.160889
0.891052 0.560852 0.164062
0.918793 0.564941 0.168335
0.944855 0.569214 0.174500
0.969849 0.573822 0.180817
0.183624 0.499542 0.164948
0.190277 0.499908 0.165680
0.197601 0.500397 0.166412
0.207397 0.501007 0.167480
0.219879 0.501831 0.168884
0.234863 0.502899 0.170593
0.251862 0.504211 0.172699
0.268799 0.507538 0.171326
0.286652 0.512299 0.167206
0.306793 0.517334 0.162720
0.329193 0.522369 0.158386
0.353638 0.527283 0.154297
0.379822 0.531982 0.150665
0.407349 0.536530 0.147522
0.436127 0.540741 0.145264
0.465790 0.544678 0.144073
0.495972 0.548248 0.144196
0.526459 0.551422 0.146088
0.556854 0.554291 0.149994
0.587311 0.557129 0.154602
0.618042 0.560272 0.158051
0.648956 0.563629 0.160645
0.679962 0.567078 0.162964
0.711029 0.570587 0.165131
0.741943 0.574097 0.167267
0.772552 0.577667 0.169464
0.802826 0.581207 0.171844
0.832672 0.584869 0.174347
0.861847 0.588593 0.176971
0.890381 0.592407 0.179962
0.917725 0.596344 0.183868
0.943359 0.600403 0.189911
0.967926 0.604767 0.196014
0.204926 0.532501 0.182861
0.210938 0.532867 0.183502
0.217682 0.533295 0.184174
0.226715 0.533875 0.185181
0.238373 0.534637 0.186462
0.252350 0.535614 0.188110
0.268433 0.536835 0.190125
0.284668 0.539703 0.189331
0.301575 0.544220 0.185638
0.320557 0.549103 0.181366
0.341827 0.554016 0.177185
0.365082 0.558868 0.173218
0.390137 0.563568 0.169556
0.416687 0.568115 0.166382
0.444519 0.572418 0.163849
0.473389 0.576447 0.162140
0.502899 0.580200 0.161377
0.532867 0.583618 0.161896
0.563019 0.586670 0.164154
0.593048 0.589478 0.168091
0.623108 0.592255 0.172668
0.653290 0.595337 0.176117
0.683655 0.598602 0.178833
0.714020 0.601990 0.181274
0.744293 0.605408 0.183624
0.774323 0.608917 0.185883
0.804016 0.612396 0.188232
0.833313 0.615967 0.190643
0.862000 0.619629 0.193146
0.890015 0.623352 0.195892
0.916962 0.627136 0.199585
0.942169 0.630981 0.205414
0.966278 0.635101 0.211304
0.226532 0.565033 0.200714
0.232086 0.565399 0.201263
0.238220 0.565796 0.201965
0.246613 0.566315 0.202850
0.257446 0.567017 0.204102
0.270477 0.567932 0.205627
0.285706 0.569061 0.207520
0.301208 0.571625 0.207031
0.317230 0.575897 0.203674
0.335114 0.580627 0.199646
0.355286 0.585358 0.195618
0.377441 0.590088 0.191833
0.401428 0.594757 0.188263
0.426941 0.599243 0.185028
0.453796 0.603577 0.182312
0.481720 0.607697 0.180237
0.510468 0.611542 0.178986
0.539795 0.615082 0.178711
0.569458 0.618378 0.179718
0.599213 0.621307 0.182159
0.628845 0.624023 0.186218
0.658325 0.626709 0.190735
0.687988 0.629730 0.194153
0.717621 0.632904 0.197052
0.747223 0.636200 0.199615
0.776642 0.639557 0.202057
0.805725 0.642975 0.204407
0.834442 0.646454 0.206848
0.862579 0.649994 0.209320
0.890076 0.653595 0.211914
0.916534 0.657257 0.215302
0.941254 0.660919 0.221008
0.964935 0.664795 0.226654
0.248566 0.597076 0.218567
0.253662 0.597382 0.219116
0.259277 0.597748 0.219727
0.267120 0.598236 0.220612
0.277130 0.598907 0.221771
0.289337 0.599731 0.223175
0.303680 0.600769 0.224915
0.318359 0.603180 0.224548
0.333527 0.607239 0.221405
0.350433 0.611786 0.217560
0.369507 0.616364 0.213806
0.390656 0.620941 0.210144
0.413544 0.625488 0.206726
0.438049 0.629944 0.203522
0.463898 0.634247 0.200714
0.490936 0.638367 0.198486
0.518799 0.642273 0.196808
0.547394 0.645905 0.196014
0.576447 0.649292 0.196228
0.605743 0.652374 0.197571
0.635010 0.655243 0.200226
0.664062 0.657806 0.204376
0.692993 0.660431 0.208771
0.721954 0.663361 0.212250
0.750824 0.666473 0.215210
0.779541 0.669647 0.217865
0.807983 0.672943 0.220398
0.836029 0.676300 0.222931
0.863586 0.679688 0.225403
0.890503 0.683167 0.227966
0.916504 0.686676 0.231079
0.940735 0.690155 0.236572
0.963959 0.693787 0.242035
0.271057 0.628479 0.236450
0.275696 0.628784 0.237000
0.281006 0.629089 0.237518
0.288208 0.629547 0.238373
0.297516 0.630188 0.239441
0.308960 0.630951 0.240723
0.322449 0.631927 0.242340
0.336151 0.634308 0.241852
0.350433 0.638153 0.238831
0.366486 0.642487 0.235199
0.384613 0.646912 0.231628
0.404694 0.651337 0.228180
0.426575 0.655762 0.224884
0.450073 0.660095 0.221771
0.474915 0.664337 0.218964
0.500946 0.668427 0.216614
0.527985 0.672333 0.214813
0.555756 0.675995 0.213593
0.584076 0.679413 0.213226
0.612732 0.682648 0.213806
0.641541 0.685577 0.215454
0.670258 0.688263 0.218353
0.698669 0.690735 0.222626
0.726929 0.693298 0.226868
0.755096 0.696106 0.230377
0.783081 0.699097 0.233398
0.810852 0.702179 0.236084
0.838257 0.705383 0.238739
0.865112 0.708649 0.241364
0.891418 0.711975 0.243927
0.916870 0.715363 0.246887
0.940613 0.718597 0.252075
0.963348 0.721985 0.257385
0.294037 0.659180 0.254425
0.298370 0.659454 0.254822
0.303192 0.659760 0.255371
0.309998 0.660156 0.256165
0.318634 0.660736 0.257141
0.329315 0.661469 0.258362
0.341919 0.662415 0.259796
0.354553 0.664917 0.258850
0.368011 0.668610 0.255920
0.383240 0.672729 0.252502
0.400482 0.676941 0.249146
0.419617 0.681183 0.245880
0.440491 0.685425 0.242706
0.462952 0.689667 0.239777
0.486847 0.693787 0.237030
0.511932 0.697784 0.234650
0.537964 0.701660 0.232697
0.564880 0.705322 0.231323
0.592468 0.708771 0.230591
0.620392 0.712006 0.230591
0.648560 0.715027 0.231537
0.676788 0.717773 0.233521
0.704834 0.720306 0.236572
0.732513 0.722687 0.240875
0.759949 0.725159 0.244995
0.787231 0.727844 0.248505
0.814270 0.730713 0.251587
0.841003 0.733704 0.254425
0.867218 0.736786 0.257172
0.892822 0.739929 0.259827
0.917694 0.743134 0.262665
0.940918 0.746155 0.267578
0.963104 0.749329 0.272766
0.317566 0.689056 0.272308
0.321564 0.689270 0.272675
0.326019 0.689575 0.273254
0.332306 0.689972 0.273926
0.340363 0.690491 0.274841
0.350372 0.691162 0.276062
0.361938 0.692200 0.277130
0.373474 0.694885 0.275574
0.386108 0.698456 0.272644
0.400604 0.702332 0.269470
0.417084 0.706329 0.266327
0.435303 0.710358 0.263275
0.455261 0.714417 0.260284
0.476746 0.718506 0.257446
0.499664 0.722504 0.254852
0.523773 0.726410 0.252502
0.548889 0.730164 0.250519
0.574890 0.733795 0.248993
0.601593 0.737213 0.248047
0.628784 0.740448 0.247772
0.656250 0.743469 0.248169
0.683838 0.746277 0.249451
0.711334 0.748871 0.251617
0.738678 0.751251 0.254883
0.765472 0.753479 0.259094
0.792023 0.755859 0.263214
0.818359 0.758423 0.266693
0.844360 0.761169 0.269836
0.869873 0.764008 0.272766
0.894806 0.766937 0.275574
0.918976 0.769958 0.278442
0.941711 0.772797 0.283081
0.963318 0.775726 0.288086
0.341675 0.717987 0.290222
0.345337 0.718170 0.290588
0.349457 0.718445 0.291107
0.355225 0.718842 0.291748
0.362823 0.719299 0.292633
0.372101 0.719940 0.293701
0.382446 0.721313 0.293915
0.392975 0.724152 0.291870
0.404938 0.727600 0.289032
0.418732 0.731232 0.286102
0.434418 0.734985 0.283234
0.451813 0.738800 0.280365
0.470856 0.742676 0.277618
0.491425 0.746552 0.274902
0.513397 0.750397 0.272400
0.536560 0.754150 0.270172
0.560730 0.757812 0.268188
0.585815 0.761353 0.266663
0.611603 0.764709 0.265564
0.637970 0.767883 0.265015
0.664703 0.770874 0.265106
0.691559 0.773682 0.265900
0.718475 0.776245 0.267487
0.745209 0.778687 0.269867
0.771576 0.780884 0.273315
0.797485 0.783020 0.277527
0.823059 0.785278 0.281525
0.848297 0.787720 0.285004
0.873077 0.790314 0.288177
0.897278 0.793030 0.291077
0.920746 0.795807 0.294128
0.942932 0.798431 0.298523
0.963959 0.801117 0.303314
0.366302 0.745850 0.308167
0.369751 0.746033 0.308563
0.373596 0.746277 0.308960
0.378876 0.746613 0.309631
0.385986 0.747070 0.310455
0.394379 0.747894 0.311066
0.403229 0.749878 0.309937
0.412994 0.752716 0.307678
0.424377 0.755890 0.305084
0.437561 0.759277 0.302399
0.452484 0.762756 0.299774
0.469086 0.766388 0.297119
0.487274 0.770020 0.294525
0.506958 0.773712 0.292084
0.527985 0.777374 0.289734
0.550232 0.780975 0.287598
0.573486 0.784485 0.285736
0.597626 0.787872 0.284180
0.622559 0.791138 0.283020
0.648041 0.794250 0.282349
0.673950 0.797180 0.282196
0.700043 0.799927 0.282654
0.726227 0.802490 0.283875
0.752319 0.804840 0.285736
0.778137 0.807068 0.288361
