滤镜资源/Professional Luts Collection/Lutify.me Professional/Instant Films/Eudialyte.cube
# Created by: Lutify.me
# Copyright: (c) Copyright Lutify.me 2015
# Website: https://lutify.me
#LUT size
LUT_3D_SIZE 5
#LUT data points
0.000000 0.000000 0.000000
0.160095 0.000000 0.000885
0.451843 0.000000 0.000000
0.738312 0.000000 0.000000
0.995422 0.033508 0.026001
0.000000 0.162628 0.011536
0.186371 0.189575 0.002350
0.459625 0.213409 0.000092
0.741486 0.233582 0.007324
0.992584 0.276947 0.055878
0.141602 0.432617 0.128998
0.259125 0.447968 0.129456
0.483490 0.482544 0.113434
0.738892 0.509979 0.133789
0.972015 0.542358 0.165833
0.317566 0.689056 0.272308
0.386108 0.698456 0.272644
0.548889 0.730164 0.250519
0.765472 0.753479 0.259094
0.963318 0.775726 0.288086
0.516327 0.893433 0.400269
0.555756 0.901581 0.394592
0.669800 0.918518 0.385223
0.832001 0.933441 0.386597
0.981934 0.943298 0.409027
0.000000 0.006470 0.171448
0.181030 0.000000 0.189087
0.463531 0.000000 0.212860
0.745789 0.000000 0.237030
0.999390 0.083801 0.262177
0.004211 0.196167 0.196320
0.209198 0.209198 0.209198
0.481689 0.222107 0.224335
0.756165 0.240906 0.244629
1.000000 0.283539 0.267609
0.158478 0.456116 0.267181
0.285065 0.460205 0.281586
0.495300 0.494507 0.280182
0.752502 0.519989 0.290497
0.985382 0.549377 0.310211
0.328827 0.704651 0.367676
0.405487 0.706543 0.378601
0.559265 0.735748 0.370850
0.771484 0.761444 0.373657
0.968689 0.783569 0.393433
0.535431 0.894012 0.485779
0.573303 0.900330 0.484833
0.678650 0.919189 0.476929
0.835327 0.938171 0.471924
0.983704 0.949005 0.488007
0.000000 0.032715 0.449432
0.215759 0.025116 0.460785
0.484070 0.012543 0.486237
0.756256 0.063202 0.509033
1.000000 0.161621 0.530945
0.054810 0.238251 0.462402
0.242340 0.243713 0.474396
0.496826 0.252960 0.497131
0.764648 0.272461 0.517090
1.000000 0.315338 0.536346
0.189880 0.497986 0.497437
0.309967 0.504059 0.503693
0.520996 0.520935 0.520996
0.781311 0.535248 0.533997
1.000000 0.560547 0.549286
0.343079 0.743469 0.557831
0.423981 0.744873 0.564178
0.593018 0.749451 0.585358
0.785553 0.780914 0.585876
0.982239 0.802155 0.595703
0.553711 0.922241 0.640778
0.599579 0.921295 0.647339
0.705536 0.926758 0.659668
0.844452 0.950287 0.654816
0.987000 0.963806 0.661835
0.124420 0.094116 0.712921
0.282166 0.102753 0.719910
0.520325 0.111176 0.743896
0.777161 0.150360 0.765503
1.000000 0.232544 0.784302
0.171143 0.282013 0.721375
0.302490 0.285736 0.729950
0.530914 0.294495 0.750275
0.782135 0.313538 0.771515
1.000000 0.360413 0.789032
0.268188 0.537384 0.738525
0.362305 0.541504 0.745331
0.556610 0.550598 0.764771
0.791565 0.562164 0.785919
1.000000 0.587494 0.800751
0.393219 0.779053 0.775574
0.461578 0.782104 0.779205
0.618652 0.791016 0.789734
0.806030 0.806061 0.806030
0.999664 0.819305 0.815582
0.574524 0.958252 0.824127
0.618011 0.958801 0.827118
0.729279 0.960114 0.836639
0.866394 0.964050 0.853790
0.990387 0.983185 0.855042
0.320099 0.162598 0.912354
0.404602 0.165924 0.920227
0.592712 0.177277 0.938782
0.818665 0.210541 0.958252
1.000000 0.286896 0.972870
0.339752 0.322876 0.918091
0.420013 0.325470 0.924835
0.601318 0.332916 0.941956
0.821808 0.350861 0.961670
1.000000 0.399902 0.975555
0.396179 0.569733 0.926666
0.459747 0.570923 0.935028
0.623260 0.578613 0.948730
0.827209 0.589264 0.968323
1.000000 0.615784 0.981689
0.491730 0.807434 0.944122
0.542725 0.809998 0.947815
0.671143 0.817047 0.958618
0.839050 0.826538 0.975128
0.999969 0.838715 0.989166
0.634460 0.981293 0.972107
0.669922 0.982330 0.974213
0.763763 0.985504 0.980377
0.887238 0.991180 0.989746
0.999939 1.000000 0.999878
