滤镜资源/Lutify.me Free 3D LUTs Package/Capture One/Windows/Lutify.me Raw Styles/25%/LM-RAW-Herderite-25.costyle
<?xml version="1.0"?>
<SL Engine="1000">
	<E K="ICCProfile" V="LM-RAW-Herderite-25.icm" />
	<E K="Name" V="LM-RAW-Herderite" />
	<E K="StyleSource" V="Styles" />
	<E K="UUID" V="D1D33D31-7309-6829-8971-166B7F0A6AD2" />
</SL>
