滤镜资源/Lutify.me Free 3D LUTs Package/Capture One/Windows/Lutify.me Raw Styles/25%/LM-RAW-Howlite-25.costyle
<?xml version="1.0"?>
<SL Engine="1000">
	<E K="ICCProfile" V="LM-RAW-Howlite-25.icm" />
	<E K="Name" V="LM-RAW-Howlite" />
	<E K="StyleSource" V="Styles" />
	<E K="UUID" V="B6BA06FC-90B8-611E-B781-3A2283BFCF16" />
</SL>
