滤镜资源/Lutify.me Free 3D LUTs Package/Capture One/Windows/Lutify.me Raw Styles/25%/LM-RAW-Hiddenite-25.costyle
<?xml version="1.0"?>
<SL Engine="1000">
	<E K="ICCProfile" V="LM-RAW-Hiddenite-25.icm" />
	<E K="Name" V="LM-RAW-Hiddenite" />
	<E K="StyleSource" V="Styles" />
	<E K="UUID" V="3C621EEE-9DEA-601A-9262-36666CC720C9" />
</SL>
