滤镜资源/Lutify.me Free 3D LUTs Package/Capture One/Mac/Lutify.me Raw Styles/25%/LM-RAW-Hypersthene-25.costyle
<?xml version="1.0"?>
<SL Engine="1000">
	<E K="ICCProfile" V="LM-RAW-Hypersthene-25.icm" />
	<E K="Name" V="LM-RAW-Hypersthene" />
	<E K="StyleSource" V="Styles" />
	<E K="UUID" V="6DD2FD62-C778-6FDB-A036-F9CEAE836D6D" />
</SL>
