滤镜资源/Professional Luts Collection/Lutify.me Professional/Contemporary Color Films/Calcite Angel Wing.cube
# Created by: Lutify.me
# Copyright: (c) Copyright Lutify.me 2015
# Website: https://lutify.me
#LUT size
LUT_3D_SIZE 5
#LUT data points
0.000000 0.000000 0.000000
0.200745 0.000000 0.000000
0.511963 0.000000 0.000000
0.820251 0.000000 0.000000
1.000000 0.000000 0.000000
0.000000 0.212219 0.000000
0.216797 0.219818 0.000000
0.521973 0.216980 0.000000
0.823029 0.203827 0.000000
1.000000 0.222717 0.000000
0.000000 0.516418 0.000000
0.222198 0.520691 0.000000
0.532257 0.527435 0.000000
0.821533 0.530731 0.000000
1.000000 0.544159 0.000000
0.075409 0.793182 0.000000
0.293243 0.795746 0.000000
0.562408 0.800262 0.000000
0.825836 0.800537 0.000000
1.000000 0.804321 0.000000
0.424500 0.991760 0.145782
0.498260 0.992279 0.141357
0.667816 0.992188 0.134338
0.864166 0.990173 0.139282
1.000000 0.988861 0.165100
0.000000 0.001648 0.209595
0.208466 0.000000 0.214874
0.518738 0.000000 0.219452
0.823395 0.000000 0.221344
1.000000 0.000000 0.220947
0.000000 0.219055 0.218903
0.228027 0.222534 0.221130
0.531097 0.216553 0.221069
0.828125 0.203186 0.219879
1.000000 0.223175 0.218079
0.000000 0.520630 0.227142
0.236633 0.521790 0.229675
0.537292 0.529083 0.222748
0.825104 0.532104 0.219086
1.000000 0.545380 0.218628
0.096893 0.795837 0.248596
0.304291 0.795685 0.250977
0.565552 0.800415 0.242432
0.826202 0.801605 0.239746
1.000000 0.805634 0.247223
0.432281 0.989838 0.326416
0.503632 0.990234 0.325256
0.668762 0.991119 0.321136
0.862366 0.990509 0.319855
1.000000 0.989655 0.330261
0.000000 0.000000 0.511963
0.203003 0.000000 0.515564
0.525208 0.000000 0.522797
0.824493 0.000000 0.526825
1.000000 0.000000 0.530060
0.000000 0.229279 0.517212
0.230591 0.229828 0.519287
0.534851 0.220978 0.525940
0.828033 0.209717 0.528687
1.000000 0.234833 0.530670
0.000000 0.528748 0.525604
0.247772 0.529938 0.526794
0.544281 0.532654 0.529755
0.829529 0.533630 0.530090
1.000000 0.547333 0.531189
0.126801 0.801849 0.539642
0.316498 0.801300 0.540985
0.573456 0.800476 0.544769
0.824707 0.804138 0.542053
1.000000 0.808594 0.544189
0.439362 0.992706 0.577118
0.510651 0.991577 0.578491
0.670929 0.990021 0.580658
0.856049 0.991333 0.578400
1.000000 0.991608 0.581635
0.000000 0.000000 0.789764
0.230286 0.000000 0.792175
0.541321 0.000000 0.799500
0.829620 0.000000 0.803314
1.000000 0.000000 0.805145
0.000000 0.237732 0.792084
0.256683 0.237213 0.793396
0.549622 0.228027 0.799866
0.831146 0.220673 0.803864
1.000000 0.256531 0.805267
0.016083 0.537018 0.794434
0.283356 0.537720 0.795532
0.560791 0.539368 0.798218
0.828400 0.539642 0.803436
1.000000 0.555664 0.804382
0.204437 0.807373 0.798065
0.350037 0.807159 0.798676
0.587433 0.806641 0.800385
0.824127 0.807159 0.802795
1.000000 0.811005 0.803284
0.459259 0.997009 0.811127
0.525146 0.996063 0.811737
0.677124 0.993469 0.813629
0.851257 0.991486 0.816589
1.000000 0.994080 0.815643
0.234009 0.000000 0.990753
0.365723 0.000000 0.993500
0.604309 0.000000 0.998627
0.858643 0.000000 1.000000
1.000000 0.000000 1.000000
0.259125 0.243958 0.990692
0.381744 0.242523 0.992065
0.610413 0.234650 0.997131
0.858429 0.233337 1.000000
1.000000 0.281067 1.000000
0.291138 0.543884 0.988861
0.402466 0.544250 0.989655
0.618622 0.545929 0.991425
0.851501 0.547760 0.996490
1.000000 0.567535 0.997101
0.359802 0.811432 0.984772
0.449097 0.811249 0.985199
0.636475 0.810883 0.986511
0.841461 0.811951 0.988556
1.000000 0.816101 0.991516
0.524506 0.999054 0.986481
0.577118 0.998352 0.986816
0.704498 0.996643 0.987762
0.859894 0.995453 0.989349
1.000000 0.998260 0.993042
