滤镜资源/Professional Luts Collection/Lutify.me Professional/Contemporary Color Films/Calcite Angel Wing.cube
# Created by: Lutify.me
# Copyright: (c) Copyright Lutify.me 2015
# Website: https://lutify.me
#LUT size
LUT_3D_SIZE 9
#LUT data points
0.000000 0.000000 0.000000
0.080078 0.000000 0.000000
0.200745 0.000000 0.000000
0.352936 0.000000 0.000000
0.511963 0.000000 0.000000
0.668915 0.000000 0.000000
0.820251 0.000000 0.000000
0.960968 0.000000 0.000000
1.000000 0.000000 0.000000
0.000092 0.080170 0.000763
0.083557 0.083099 0.000000
0.209229 0.080658 0.000000
0.360596 0.059265 0.000000
0.516937 0.013855 0.000000
0.671906 0.000000 0.000000
0.821808 0.000000 0.000000
0.961487 0.000000 0.000000
1.000000 0.000000 0.000000
0.000000 0.212219 0.000000
0.067963 0.214905 0.000000
0.216797 0.219818 0.000000
0.368286 0.220306 0.000000
0.521973 0.216980 0.000000
0.674927 0.210449 0.000000
0.823029 0.203827 0.000000
0.960663 0.204468 0.000000
1.000000 0.222717 0.000000
0.000000 0.364777 0.000000
0.022614 0.365814 0.000000
0.218384 0.370911 0.000000
0.374359 0.374237 0.000000
0.526703 0.375488 0.000000
0.677399 0.375702 0.000000
0.822723 0.376160 0.000000
0.957336 0.380066 0.000000
1.000000 0.392578 0.000000
0.000000 0.516418 0.000000
0.005066 0.516998 0.000000
0.222198 0.520691 0.000000
0.380310 0.525177 0.000000
0.532257 0.527435 0.000000
0.679932 0.528778 0.000000
0.821533 0.530731 0.000000
0.951843 0.534821 0.000000
1.000000 0.544159 0.000000
0.000000 0.661774 0.000000
0.051575 0.662079 0.000000
0.241089 0.664795 0.000000
0.393188 0.668732 0.000000
0.541351 0.671478 0.000000
0.685028 0.672485 0.000000
0.821106 0.673737 0.000000
0.945465 0.676727 0.000000
1.000000 0.683075 0.000000
0.075409 0.793182 0.000000
0.172943 0.793396 0.000000
0.293243 0.795746 0.000000
0.425812 0.798370 0.000000
0.562408 0.800262 0.000000
0.697723 0.800903 0.000000
0.825836 0.800537 0.000000
0.941559 0.801331 0.000000
1.000000 0.804321 0.000000
0.272858 0.902771 0.005493
0.309937 0.903351 0.004791
0.386536 0.904449 0.003052
0.489990 0.905548 0.001190
0.606445 0.906006 0.000000
0.726166 0.905487 0.000000
0.841278 0.904205 0.000610
0.945129 0.903137 0.004456
1.000000 0.903473 0.014465
0.424500 0.991760 0.145782
0.446899 0.991974 0.144287
0.498260 0.992279 0.141357
0.574951 0.992493 0.137360
0.667816 0.992188 0.134338
0.767029 0.991333 0.134491
0.864166 0.990173 0.139282
0.954773 0.989227 0.149689
1.000000 0.988861 0.165100
0.000061 0.000427 0.079437
0.081726 0.000000 0.081726
0.204956 0.000000 0.082855
0.356995 0.000000 0.083160
0.514923 0.000000 0.081512
0.671143 0.000000 0.076569
0.821838 0.000000 0.066895
0.962006 0.000000 0.052948
1.000000 0.000000 0.037140
0.000183 0.082916 0.082642
0.087128 0.084442 0.083557
0.215057 0.080017 0.083557
0.364990 0.057892 0.082428
0.519806 0.013245 0.079163
0.674011 0.000000 0.072266
0.823334 0.000000 0.061066
0.962494 0.000000 0.045837
1.000000 0.000000 0.029846
0.000000 0.214600 0.082520
0.076813 0.216248 0.083527
0.222015 0.220703 0.079468
0.372650 0.220825 0.074890
0.525452 0.217010 0.067993
0.677551 0.210327 0.058319
0.824829 0.203827 0.044983
0.961731 0.204742 0.030273
1.000000 0.223541 0.016876
0.000000 0.366302 0.070129
0.038147 0.367279 0.070709
0.223663 0.371613 0.063416
0.377655 0.374939 0.054138
0.529175 0.376007 0.046356
0.679199 0.376129 0.035492
0.823914 0.376556 0.022675
0.958008 0.380554 0.009338
1.000000 0.393066 0.004181
0.000000 0.517517 0.051208
0.018280 0.518097 0.052063
0.226532 0.521667 0.042633
0.382935 0.525848 0.026001
0.534180 0.527893 0.017059
0.681244 0.529236 0.010223
0.822357 0.531128 0.004303
0.952271 0.535278 0.003204
1.000000 0.544678 0.003113
0.000000 0.662689 0.047455
0.062073 0.662964 0.048553
0.244263 0.665619 0.037994
0.395142 0.669342 0.018219
0.542664 0.671936 0.004791
0.685944 0.672913 0.004333
0.821655 0.674133 0.004303
0.945587 0.677124 0.004150
1.000000 0.683502 0.005524
0.084229 0.793884 0.077545
0.176819 0.794067 0.078064
0.295441 0.796356 0.066467
0.427185 0.798889 0.052246
0.563354 0.800659 0.036774
0.698242 0.801208 0.028503
0.826019 0.800873 0.035065
0.941406 0.801697 0.045013
1.000000 0.804688 0.060394
0.274872 0.903229 0.140869
0.311737 0.903778 0.138458
0.387817 0.904846 0.133514
0.490906 0.905853 0.126678
0.606964 0.906281 0.120361
0.726318 0.905731 0.117432
0.841187 0.904449 0.121368
0.944733 0.903381 0.133057
1.000000 0.903748 0.147064
0.427429 0.990784 0.216278
0.449615 0.990967 0.215393
0.500244 0.991333 0.213409
0.576141 0.991699 0.210571
0.668152 0.991669 0.207825
0.766876 0.991119 0.206696
0.863708 0.990204 0.208832
0.954132 0.989441 0.215363
1.000000 0.989105 0.225952
0.000000 0.001648 0.209595
0.070770 0.000122 0.211151
0.208466 0.000000 0.214874
0.361938 0.000000 0.217377
0.518738 0.000000 0.219452
0.673798 0.000000 0.220886
0.823395 0.000000 0.221344
0.962555 0.000000 0.221161
1.000000 0.000000 0.220947
0.000000 0.087036 0.213379
0.080719 0.087372 0.214508
0.218475 0.080444 0.217865
0.369385 0.057495 0.219666
0.523254 0.013611 0.220856
0.676422 0.000000 0.221466
0.824768 0.000000 0.221375
0.962921 0.000000 0.220886
1.000000 0.000000 0.220490
0.000000 0.219055 0.218903
0.078217 0.220459 0.219574
0.228027 0.222534 0.221130
0.379425 0.220978 0.221191
0.531097 0.216553 0.221069
0.681976 0.209564 0.220642
0.828125 0.203186 0.219879
0.964050 0.204376 0.218933
1.000000 0.223175 0.218079
0.000000 0.370117 0.223297
0.050598 0.370941 0.223938
0.232391 0.372162 0.225769
0.382507 0.376343 0.223083
0.534180 0.377197 0.221436
0.684021 0.376587 0.219849
0.828064 0.376526 0.218475
0.961212 0.380371 0.217255
1.000000 0.392914 0.216949
0.000000 0.520630 0.227142
0.035583 0.521118 0.227661
0.236633 0.521790 0.229675
0.387604 0.526154 0.226227
0.537292 0.529083 0.222748
0.684174 0.530426 0.221130
0.825104 0.532104 0.219086
0.954498 0.536011 0.217834
1.000000 0.545380 0.218628
0.000000 0.665131 0.233490
0.074829 0.665375 0.233978
0.254150 0.665558 0.236023
0.400421 0.668823 0.232819
0.545135 0.672424 0.226776
0.687561 0.673859 0.224915
0.822845 0.675171 0.224640
0.946381 0.678162 0.224213
1.000000 0.684540 0.226868
0.096893 0.795837 0.248596
0.184479 0.795685 0.249512
0.304291 0.795685 0.250977
0.432343 0.797882 0.247833
0.565552 0.800415 0.242432
0.699127 0.801697 0.238373
0.826202 0.801605 0.239746
0.941071 0.802582 0.242432
1.000000 0.805634 0.247223
0.283051 0.903015 0.281097
0.320160 0.902893 0.281525
0.394775 0.903290 0.281006
0.495056 0.904419 0.278442
0.608673 0.905457 0.274689
0.726532 0.905701 0.271698
0.840576 0.904907 0.271942
0.943604 0.904022 0.276947
1.000000 0.904480 0.283661
0.432281 0.989838 0.326416
0.454102 0.989929 0.326141
0.503632 0.990234 0.325256
0.578156 0.990723 0.323456
0.668762 0.991119 0.321136
0.766266 0.991028 0.319519
0.862366 0.990509 0.319855
0.952484 0.989929 0.323334
1.000000 0.989655 0.330261
0.000000 0.001648 0.360748
0.019409 0.000031 0.361389
0.206299 0.000000 0.365509
0.365509 0.000000 0.369049
0.521698 0.000000 0.371521
0.675720 0.000000 0.373688
0.824158 0.000000 0.375336
0.961945 0.000000 0.376648
1.000000 0.000000 0.378052
0.000000 0.091003 0.363495
0.044250 0.090179 0.364166
0.217346 0.081543 0.367584
0.372314 0.055847 0.371002
0.525909 0.014923 0.372986
0.678192 0.000183 0.374695
0.825378 0.000000 0.375946
0.962189 0.000000 0.377045
1.000000 0.001587 0.378235
0.000000 0.224213 0.367889
0.061096 0.225098 0.368500
0.230347 0.226013 0.370361
0.381073 0.223145 0.373901
0.532898 0.218201 0.375214
0.683472 0.211151 0.375946
0.828735 0.205292 0.376556
0.963531 0.207367 0.377045
1.000000 0.227264 0.377747
0.000000 0.374542 0.372864
0.053223 0.375183 0.373383
0.236694 0.376587 0.374512
0.386841 0.378326 0.376160
0.539215 0.377716 0.376251
0.688080 0.376678 0.376373
0.830811 0.376648 0.376495
0.962555 0.380768 0.376801
1.000000 0.393616 0.377350
0.000000 0.524628 0.378143
0.048248 0.525055 0.378571
0.242493 0.525757 0.379761
0.393982 0.526917 0.381836
0.540771 0.530731 0.379608
0.687622 0.531860 0.378601
0.827881 0.533081 0.378082
0.956116 0.536804 0.378174
1.000000 0.546265 0.379242
0.000000 0.668640 0.384918
0.088104 0.668823 0.385315
0.260773 0.668793 0.386749
0.407532 0.669281 0.388824
0.548309 0.673065 0.386292
0.689301 0.675232 0.384338
0.823914 0.676666 0.384003
0.946686 0.679565 0.383911
1.000000 0.685913 0.385712
0.110199 0.798706 0.396393
0.192383 0.798523 0.397003
0.310547 0.797974 0.398621
0.438934 0.797882 0.400482
0.568756 0.800232 0.398438
0.699951 0.802429 0.395020
0.825897 0.802734 0.395294
0.939728 0.803894 0.396606
1.000000 0.806976 0.399414
0.288116 0.905182 0.418121
0.325104 0.904846 0.418732
0.400574 0.904144 0.420135
0.500153 0.903839 0.421051
0.610992 0.904907 0.419373
0.726501 0.905792 0.416718
0.839142 0.905640 0.415771
0.941162 0.904999 0.418671
1.000000 0.905518 0.422760
0.436249 0.990540 0.450287
0.458252 0.990265 0.450714
0.507812 0.989899 0.451263
0.580933 0.990021 0.451019
0.669525 0.990540 0.449677
0.765076 0.990936 0.447998
0.859833 0.990936 0.447357
0.949341 0.990692 0.448975
1.000000 0.990509 0.453552
0.000000 0.000000 0.511963
0.000000 0.000000 0.512421
0.203003 0.000000 0.515564
0.368225 0.000000 0.519958
0.525208 0.000000 0.522797
0.677795 0.000000 0.524872
0.824493 0.000000 0.526825
0.960358 0.000000 0.528503
1.000000 0.000000 0.530060
0.000000 0.092682 0.513977
0.004242 0.090637 0.514435
0.215393 0.080688 0.517059
0.374695 0.052948 0.521454
0.529053 0.012848 0.523956
0.680023 0.000519 0.525757
0.825562 0.000000 0.527466
0.960480 0.000000 0.528931
1.000000 0.005310 0.530365
0.000000 0.229279 0.517212
0.036987 0.229706 0.517609
0.230591 0.229828 0.519287
0.383423 0.226776 0.523071
0.534851 0.220978 0.525940
0.684113 0.214722 0.527496
0.828033 0.209717 0.528687
0.961212 0.213135 0.529663
1.000000 0.234833 0.530670
0.000000 0.379181 0.521057
0.051453 0.379730 0.521423
0.239563 0.380707 0.522675
0.391052 0.381775 0.524597
0.540131 0.380127 0.528015
0.688202 0.378662 0.529144
0.829987 0.378662 0.529694
0.960297 0.383209 0.530182
1.000000 0.396881 0.530853
0.000000 0.528748 0.525604
0.060608 0.529114 0.525940
0.247772 0.529938 0.526794
0.398865 0.531158 0.528137
0.544281 0.532654 0.529755
0.690918 0.532623 0.529846
0.829529 0.533630 0.530090
0.955780 0.537567 0.530487
1.000000 0.547333 0.531189
0.000000 0.672302 0.531158
0.104309 0.672485 0.531464
0.267059 0.672699 0.532288
0.412659 0.673065 0.533722
0.553070 0.673767 0.535828
0.690765 0.676910 0.534027
0.824646 0.678223 0.533447
0.945923 0.680939 0.533600
1.000000 0.687317 0.534821
0.126801 0.801849 0.539642
0.202118 0.801697 0.540009
0.316498 0.801300 0.540985
0.443939 0.800720 0.542694
0.573456 0.800476 0.544769
0.700653 0.803131 0.542755
0.824707 0.804138 0.542053
0.937164 0.805450 0.542572
1.000000 0.808594 0.544189
0.294495 0.907867 0.554657
0.330566 0.907532 0.555084
0.404968 0.906738 0.556122
0.504547 0.905518 0.557892
0.614502 0.904663 0.559509
0.726471 0.905762 0.558136
0.836578 0.906464 0.556396
0.937256 0.906189 0.557922
1.000000 0.906891 0.560455
0.439362 0.992706 0.577118
0.461121 0.992401 0.577515
0.510651 0.991577 0.578491
0.584045 0.990417 0.580017
0.670929 0.990021 0.580658
0.763580 0.990662 0.579620
0.856049 0.991333 0.578400
0.944580 0.991638 0.578674
1.000000 0.991608 0.581635
0.000000 0.000000 0.657410
0.000000 0.000000 0.657776
0.206512 0.000000 0.660187
0.373779 0.000000 0.664490
0.530151 0.000000 0.667999
0.681427 0.000000 0.670105
0.825562 0.000000 0.671753
0.958618 0.000000 0.673309
1.000000 0.000000 0.674652
0.000000 0.090973 0.658905
0.002869 0.088135 0.659241
0.218781 0.077576 0.661346
0.379791 0.049866 0.665649
0.533661 0.010345 0.668915
0.683380 0.000702 0.670715
0.826416 0.000000 0.672211
0.958557 0.000122 0.673645
1.000000 0.034027 0.674866
0.000000 0.233765 0.661133
0.032654 0.233917 0.661438
0.235046 0.233582 0.662781
0.389130 0.230835 0.665894
0.539032 0.223999 0.669891
0.686646 0.218079 0.671906
0.827942 0.215424 0.673187
0.958405 0.221069 0.674377
1.000000 0.244965 0.675323
0.000000 0.383881 0.663666
0.063202 0.384247 0.663940
0.246643 0.384796 0.665253
0.397919 0.385529 0.666840
0.544250 0.383850 0.670654
0.689545 0.382111 0.673065
0.828644 0.382751 0.674225
0.956482 0.387878 0.675018
1.000000 0.402771 0.675690
0.000000 0.532928 0.666626
0.086517 0.533234 0.666901
0.258392 0.533936 0.667694
0.406128 0.534912 0.669037
0.549438 0.535980 0.670898
0.691101 0.535095 0.674011
0.827576 0.535889 0.674896
0.951660 0.540100 0.675262
1.000000 0.550415 0.675690
0.007629 0.675812 0.670319
0.133575 0.675995 0.670563
0.279144 0.676300 0.671173
0.420013 0.676819 0.672180
0.558350 0.677582 0.673584
0.693146 0.678711 0.674988
0.825378 0.679138 0.675171
0.943909 0.681885 0.675446
1.000000 0.688507 0.676025
0.154449 0.804810 0.675842
0.219849 0.804749 0.676056
0.326874 0.804504 0.676636
0.450409 0.804169 0.677673
0.578217 0.803650 0.679230
0.703247 0.803558 0.681213
0.823273 0.805695 0.679932
0.933929 0.807037 0.679779
1.000000 0.810089 0.680695
0.306305 0.910400 0.685455
0.340729 0.910126 0.685730
0.412323 0.909454 0.686371
0.509521 0.908295 0.687592
0.618256 0.906738 0.689362
0.728241 0.905640 0.691223
0.833740 0.907135 0.689758
0.932434 0.907501 0.689972
1.000000 0.908356 0.691254
0.445160 0.995087 0.700226
0.466339 0.994781 0.700500
0.514679 0.993988 0.701202
0.586731 0.992706 0.702423
0.672943 0.991119 0.704193
0.763306 0.990387 0.705475
0.852203 0.991486 0.704559
0.938934 0.992554 0.703674
1.000000 0.992828 0.705261
0.000000 0.000000 0.789764
0.011200 0.000000 0.790039
0.230286 0.000000 0.792175
0.389526 0.000000 0.795990
0.541321 0.000000 0.799500
0.689056 0.000000 0.802032
0.829620 0.000000 0.803314
0.958618 0.000000 0.804321
1.000000 0.000000 0.805145
0.000000 0.086334 0.790802
0.043182 0.083557 0.791046
0.240601 0.072021 0.793091
0.394806 0.046326 0.796814
0.544373 0.010040 0.800079
0.690735 0.000977 0.802399
0.830292 0.000000 0.803528
0.958344 0.002533 0.804443
1.000000 0.067963 0.805206
0.000000 0.237732 0.792084
0.086884 0.237762 0.792328
0.256683 0.237213 0.793396
0.404297 0.234314 0.796082
0.549622 0.228027 0.799866
0.693512 0.221252 0.802704
0.831146 0.220673 0.803864
0.957397 0.229950 0.804688
1.000000 0.256531 0.805267
0.000000 0.388275 0.793335
0.119629 0.388550 0.793549
0.269806 0.388733 0.794800
0.413666 0.389313 0.795990
0.555206 0.388062 0.799225
0.695831 0.385651 0.802643
0.830872 0.387054 0.803925
0.954315 0.393921 0.804626
1.000000 0.410309 0.805054
0.016083 0.537018 0.794434
0.145996 0.537262 0.794647
0.283356 0.537720 0.795532
0.422180 0.538391 0.796783
0.560791 0.539368 0.798218
0.696869 0.538605 0.801727
0.828400 0.539642 0.803436
0.948120 0.544525 0.804077
1.000000 0.555664 0.804382
0.098358 0.679230 0.795715
0.185303 0.679352 0.795929
0.305420 0.679626 0.796448
0.436279 0.680115 0.797302
0.568878 0.680725 0.798584
0.699066 0.681641 0.800232
0.824738 0.681580 0.802734
0.939453 0.684357 0.803284
1.000000 0.691284 0.803436
0.204437 0.807373 0.798065
0.255981 0.807312 0.798218
0.350037 0.807159 0.798676
0.465240 0.806915 0.799377
0.587433 0.806641 0.800385
0.708710 0.806580 0.801666
0.824127 0.807159 0.802795
0.931732 0.808014 0.802948
1.000000 0.811005 0.803284
0.331787 0.912445 0.802948
0.362915 0.912170 0.803131
0.429047 0.911621 0.803558
0.520935 0.910645 0.804291
0.625275 0.909332 0.805359
0.732208 0.907928 0.806885
0.833618 0.907440 0.808411
0.928650 0.908844 0.807526
1.000000 0.909760 0.807770
0.459259 0.997009 0.811127
0.479309 0.996735 0.811310
0.525146 0.996063 0.811737
0.594025 0.994934 0.812500
0.677124 0.993469 0.813629
0.765106 0.991974 0.815216
0.851257 0.991486 0.816589
0.934631 0.993286 0.815430
1.000000 0.994080 0.815643
0.033875 0.000000 0.900238
0.155548 0.000000 0.900543
0.286591 0.000000 0.902954
0.424622 0.000000 0.906097
0.565552 0.000000 0.909180
0.705658 0.000000 0.911560
0.840240 0.000000 0.912903
0.963379 0.000000 0.913330
1.000000 0.000000 0.913452
0.072144 0.080658 0.900848
0.169983 0.077515 0.901306
0.294006 0.064240 0.903595
0.428986 0.041779 0.906555
0.568146 0.010040 0.909454
0.707062 0.001984 0.911652
0.840729 0.000916 0.912872
0.962921 0.009460 0.913208
1.000000 0.099945 0.913300
0.114136 0.241272 0.901367
0.191681 0.240845 0.901855
0.308197 0.240204 0.902557
0.437744 0.237122 0.905029
0.573059 0.231598 0.908295
0.709381 0.226013 0.911041
0.841034 0.225861 0.912537
0.961334 0.238953 0.912811
1.000000 0.268585 0.912811
0.146027 0.392303 0.901367
0.211792 0.392242 0.901947
0.320465 0.392365 0.902771
0.446899 0.392853 0.903687
0.578400 0.391785 0.906464
0.711212 0.390076 0.909607
0.839966 0.391205 0.911469
0.957275 0.400055 0.911743
1.000000 0.418304 0.911652
0.173828 0.540710 0.900787
0.231873 0.540802 0.901215
0.333527 0.541107 0.901917
0.455139 0.541656 0.902924
0.583649 0.542664 0.903992
0.711884 0.542511 0.906982
0.836487 0.543182 0.909424
0.949768 0.549377 0.909821
1.000000 0.561676 0.909760
0.212067 0.682281 0.899841
0.261505 0.682404 0.900024
0.353638 0.682587 0.900513
0.468079 0.682953 0.901306
0.590546 0.683472 0.902405
0.713531 0.684479 0.903595
0.831543 0.684662 0.906494
0.939514 0.688110 0.907379
1.000000 0.695648 0.907440
0.278137 0.809540 0.899261
0.316010 0.809509 0.899414
0.392822 0.809357 0.899719
0.494720 0.809143 0.900299
0.607239 0.808929 0.901123
0.721161 0.808960 0.902191
0.829865 0.809509 0.903564
0.930511 0.810089 0.905334
1.000000 0.813141 0.905609
0.377167 0.913788 0.900604
0.403595 0.913574 0.900757
0.461578 0.913055 0.901031
0.544678 0.912201 0.901550
0.641388 0.911102 0.902313
0.741699 0.910095 0.903229
0.838226 0.909607 0.904327
0.928955 0.910004 0.905090
1.000000 0.910400 0.905151
0.486908 0.998260 0.904327
0.505066 0.997986 0.904449
0.546814 0.997406 0.904724
0.610382 0.996460 0.905243
0.687866 0.995300 0.905945
0.770935 0.994171 0.906891
0.854126 0.993408 0.908081
0.934570 0.993744 0.909149
1.000000 0.995239 0.908447
0.234009 0.000000 0.990753
0.278473 0.000000 0.991669
0.365723 0.000000 0.993500
0.479004 0.000000 0.996002
0.604309 0.000000 0.998627
0.733124 0.000000 1.000000
0.858643 0.000000 1.000000
0.973877 0.000000 1.000000
1.000000 0.000000 1.000000
0.242615 0.072327 0.991272
0.285675 0.067352 0.992096
0.370697 0.056091 0.993866
0.482269 0.036407 0.996246
0.606293 0.010071 0.998718
0.734100 0.003265 1.000000
0.858734 0.003662 1.000000
0.973114 0.040039 1.000000
1.000000 0.129578 1.000000
0.259125 0.243958 0.990692
0.300110 0.243835 0.990875
0.381744 0.242523 0.992065
0.489532 0.239227 0.994324
0.610413 0.234650 0.997131
0.735779 0.231049 0.999573
0.858429 0.233337 1.000000
0.970856 0.248749 1.000000
1.000000 0.281067 1.000000
0.274597 0.395599 0.990356
0.313202 0.395630 0.990601
0.392303 0.395966 0.991028
0.497375 0.396118 0.992126
0.614746 0.395142 0.994690
0.736694 0.394409 0.997467
0.856293 0.396698 0.999420
0.965790 0.406372 0.999847
1.000000 0.426422 0.999573
0.291138 0.543884 0.988861
0.327362 0.544006 0.989075
0.402466 0.544250 0.989655
0.504242 0.544891 0.990387
0.618622 0.545929 0.991425
0.736237 0.546173 0.994080
0.851501 0.547760 0.996490
0.956970 0.554138 0.997437
1.000000 0.567535 0.997101
0.315063 0.684998 0.986664
0.348206 0.685059 0.986847
0.418121 0.685242 0.987274
0.514252 0.685547 0.988007
0.623474 0.686127 0.988892
0.736145 0.687378 0.989899
0.845001 0.688385 0.992462
0.945282 0.691772 0.994141
1.000000 0.699951 0.994110
0.359802 0.811432 0.984772
0.387878 0.811371 0.984894
0.449097 0.811249 0.985199
0.536011 0.811035 0.985748
0.636475 0.810883 0.986511
0.740784 0.811035 0.987488
0.841461 0.811951 0.988556
0.934875 0.812805 0.990906
1.000000 0.816101 0.991516
0.435211 0.914764 0.984589
0.456848 0.914581 0.984650
0.505798 0.914093 0.984894
0.578552 0.913361 0.985352
0.665527 0.912445 0.985992
0.757202 0.911682 0.986786
0.846863 0.911499 0.987793
0.932434 0.911865 0.989075
1.000000 0.912048 0.990570
0.524506 0.999054 0.986481
0.540192 0.998871 0.986603
0.577118 0.998352 0.986816
0.634094 0.997559 0.987213
0.704498 0.996643 0.987762
0.781403 0.995850 0.988495
0.859894 0.995453 0.989349
0.937897 0.995667 0.990295
1.000000 0.998260 0.993042
