滤镜资源/Professional Luts Collection/Lutify.me Professional/Contemporary Color Films/Calcite Citrine.cube
# Created by: Lutify.me
# Copyright: (c) Copyright Lutify.me 2015
# Website: https://lutify.me
#LUT size
LUT_3D_SIZE 9
#LUT data points
0.000000 0.000000 0.000000
0.099121 0.000000 0.000000
0.224060 0.000000 0.000000
0.371124 0.000000 0.000000
0.521759 0.000000 0.000000
0.669556 0.000000 0.000000
0.812134 0.000000 0.000000
0.946075 0.000000 0.000000
1.000000 0.000000 0.000000
0.002594 0.092926 0.000092
0.101746 0.094452 0.000000
0.229645 0.090179 0.000000
0.376007 0.069214 0.000000
0.524750 0.026733 0.000000
0.671143 0.000702 0.000000
0.812714 0.000000 0.000000
0.945923 0.000000 0.000000
1.000000 0.000000 0.000000
0.000000 0.220520 0.000000
0.097626 0.222900 0.000000
0.236084 0.225098 0.000000
0.380768 0.223328 0.000000
0.526855 0.218048 0.000000
0.671509 0.209900 0.000000
0.811707 0.201508 0.000000
0.943573 0.198486 0.000000
1.000000 0.208588 0.000000
0.000000 0.364136 0.000000
0.085022 0.365204 0.000000
0.239441 0.368866 0.000000
0.384674 0.370026 0.000000
0.528595 0.369507 0.000000
0.671082 0.367981 0.000000
0.809113 0.366577 0.000000
0.938782 0.367798 0.000000
1.000000 0.375214 0.000000
0.000000 0.507355 0.000000
0.086670 0.507904 0.000000
0.243927 0.511230 0.000000
0.388397 0.513977 0.000000
0.530792 0.514679 0.000000
0.670380 0.514740 0.000000
0.805359 0.515167 0.000000
0.931854 0.517303 0.000000
1.000000 0.522888 0.000000
0.000000 0.646271 0.000000
0.113190 0.646698 0.000000
0.256256 0.649384 0.000000
0.395630 0.652100 0.000000
0.534790 0.653717 0.000000
0.671021 0.653870 0.000000
0.801697 0.654205 0.000000
0.923950 0.655884 0.000000
1.000000 0.659546 0.000000
0.099884 0.775269 0.000000
0.176971 0.776062 0.000000
0.289276 0.777954 0.000000
0.415466 0.779999 0.000000
0.546143 0.781403 0.000000
0.676300 0.781769 0.000000
0.801239 0.781250 0.000000
0.918091 0.781555 0.000000
1.000000 0.783081 0.000000
0.228607 0.891052 0.000000
0.269318 0.891632 0.000000
0.349945 0.892761 0.000000
0.454987 0.894043 0.000000
0.571136 0.894958 0.000000
0.690063 0.895233 0.000000
0.806122 0.894958 0.000000
0.916748 0.894470 0.000000
1.000000 0.894714 0.000000
0.336121 0.996826 0.045837
0.362671 0.997162 0.040741
0.421265 0.997864 0.028625
0.505310 0.998779 0.010620
0.604065 0.999512 0.000000
0.708679 0.999969 0.000000
0.814240 1.000000 0.000000
0.918365 1.000000 0.000000
1.000000 1.000000 0.000000
0.001099 0.000031 0.092560
0.099518 0.000000 0.094208
0.226105 0.000000 0.093781
0.373169 0.000000 0.091705
0.523163 0.000000 0.087830
0.670532 0.000000 0.080597
0.812683 0.000000 0.069000
0.946289 0.000000 0.052277
1.000000 0.000000 0.032227
0.005310 0.094208 0.093994
0.104614 0.094360 0.094421
0.233765 0.088379 0.092987
0.378967 0.066498 0.089966
0.526489 0.023651 0.084778
0.672119 0.000488 0.076141
0.813232 0.000000 0.062958
0.946136 0.000000 0.045013
1.000000 0.000000 0.024445
0.000000 0.221924 0.092529
0.104462 0.222626 0.092804
0.239777 0.225098 0.087860
0.384033 0.222961 0.081970
0.529449 0.217163 0.073822
0.673462 0.208801 0.062256
0.813049 0.200378 0.046387
0.944397 0.197388 0.027893
1.000000 0.207855 0.008698
0.000000 0.364960 0.080536
0.094727 0.365387 0.080688
0.243225 0.368683 0.072266
0.386932 0.370056 0.062836
0.530304 0.369476 0.052368
0.672455 0.367767 0.038177
0.810028 0.366272 0.021667
0.939209 0.367554 0.005432
1.000000 0.374969 0.002014
0.000000 0.507935 0.060638
0.095062 0.508270 0.060516
0.247070 0.511292 0.048492
0.390106 0.514008 0.032074
0.531921 0.514679 0.020782
0.671143 0.514709 0.009827
0.805725 0.515106 0.002991
0.931885 0.517212 0.001099
1.000000 0.522858 0.000000
0.000000 0.646698 0.047180
0.118073 0.647064 0.045746
0.258392 0.649628 0.030609
0.396820 0.652252 0.011078
0.535492 0.653748 0.003265
0.671448 0.653870 0.002136
0.801849 0.654205 0.001068
0.923798 0.655884 0.000000
1.000000 0.659546 0.000000
0.104187 0.775574 0.057861
0.179443 0.776367 0.053101
0.290710 0.778168 0.039886
0.416260 0.780090 0.020752
0.546600 0.781433 0.004913
0.676483 0.781738 0.002869
0.801147 0.781250 0.002563
0.917786 0.781555 0.002533
1.000000 0.783081 0.002747
0.230408 0.891083 0.098450
0.270935 0.891602 0.095093
0.351013 0.892670 0.086884
0.455627 0.893921 0.073944
0.571320 0.894867 0.060333
0.689911 0.895172 0.048035
0.805786 0.894928 0.041931
0.916290 0.894470 0.047668
1.000000 0.894714 0.056183
0.338959 0.995880 0.157532
0.365326 0.996185 0.155914
0.423157 0.996857 0.152069
0.506378 0.997864 0.145782
0.604340 0.998810 0.138184
0.708466 0.999512 0.130798
0.813782 0.999908 0.125824
0.917816 1.000000 0.125549
1.000000 1.000000 0.132019
0.000000 0.000000 0.219208
0.093842 0.000000 0.220856
0.228088 0.000000 0.222900
0.375549 0.000000 0.223358
0.524506 0.000000 0.223114
0.670990 0.000000 0.221924
0.812439 0.000000 0.219757
0.945374 0.000000 0.216858
1.000000 0.000000 0.213745
0.000000 0.095398 0.221283
0.102692 0.094818 0.222046
0.235779 0.086426 0.224304
0.381104 0.063507 0.224304
0.527740 0.020630 0.223389
0.672516 0.000305 0.221710
0.812927 0.000000 0.219177
0.945160 0.000000 0.216034
1.000000 0.000000 0.212769
0.000000 0.223969 0.224060
0.107574 0.224579 0.224396
0.244507 0.224915 0.224884
0.388672 0.221344 0.223541
0.532959 0.214996 0.221680
0.675934 0.206390 0.219208
0.814606 0.197906 0.216217
0.945221 0.195099 0.212799
1.000000 0.205627 0.209198
0.000000 0.366943 0.225281
0.103333 0.367157 0.225677
0.249359 0.367737 0.226349
0.390076 0.370056 0.222717
0.533600 0.369171 0.219452
0.675476 0.366882 0.216125
0.812531 0.364990 0.212646
0.941132 0.366058 0.208984
1.000000 0.373383 0.205658
0.000000 0.509613 0.225494
0.104614 0.509644 0.225952
0.254547 0.509979 0.226776
0.392944 0.513275 0.221924
0.533691 0.514679 0.217651
0.672791 0.514771 0.214050
0.807404 0.514984 0.209869
0.933319 0.516846 0.205994
1.000000 0.522339 0.203156
0.000000 0.648041 0.226807
0.126373 0.647919 0.227417
0.266235 0.648041 0.228149
0.400360 0.650696 0.223663
0.536682 0.653290 0.216553
0.672028 0.653870 0.213013
0.802185 0.654358 0.210144
0.924072 0.656006 0.206787
1.000000 0.659576 0.205017
0.110077 0.776581 0.234283
0.187134 0.776215 0.235229
0.298004 0.776367 0.235413
0.420105 0.778198 0.231293
0.547729 0.780334 0.224548
0.676514 0.781433 0.218353
0.800690 0.781219 0.216888
0.917175 0.781677 0.216339
1.000000 0.783234 0.216339
0.236969 0.890411 0.254456
0.277893 0.890320 0.254730
0.356781 0.890686 0.253845
0.458954 0.891907 0.250305
0.572357 0.893372 0.244812
0.689545 0.894409 0.239075
0.804810 0.894714 0.235565
0.915161 0.894440 0.236633
1.000000 0.894775 0.239014
0.343201 0.994751 0.284241
0.369354 0.994873 0.283905
0.426361 0.995300 0.282715
0.508331 0.996246 0.279938
0.604736 0.997498 0.275726
0.707733 0.998657 0.271179
0.812469 0.999512 0.267548
0.916351 0.999969 0.266296
1.000000 1.000000 0.269043
0.000000 0.000000 0.362549
0.068115 0.000000 0.363312
0.226624 0.000000 0.366638
0.376831 0.000000 0.368317
0.524841 0.000000 0.368896
0.670410 0.000000 0.368927
0.810944 0.000000 0.368317
0.942963 0.000000 0.367310
1.000000 0.000000 0.366241
0.000000 0.095551 0.364136
0.085114 0.093994 0.364716
0.235077 0.083771 0.367462
0.381897 0.058411 0.369202
0.527802 0.017029 0.369507
0.671875 0.000183 0.369141
0.811432 0.000000 0.368317
0.942719 0.000000 0.367157
1.000000 0.000000 0.366028
0.000000 0.225922 0.366364
0.101196 0.226105 0.366852
0.245941 0.225647 0.367950
0.388428 0.220947 0.370087
0.532593 0.214172 0.369904
0.675232 0.205383 0.368896
0.813324 0.197144 0.367554
0.943176 0.194885 0.365997
1.000000 0.206055 0.364471
0.000000 0.368866 0.368561
0.105804 0.369110 0.368774
0.252655 0.369568 0.369324
0.392700 0.369781 0.369781
0.536377 0.367676 0.368652
0.677368 0.365112 0.367249
0.813385 0.363220 0.365662
0.940948 0.364563 0.364014
1.000000 0.372070 0.362518
0.000000 0.511536 0.370575
0.109985 0.511658 0.370789
0.258423 0.511780 0.371399
0.396759 0.512329 0.372284
0.535156 0.514679 0.369110
0.674438 0.514496 0.366699
0.808563 0.514313 0.364624
0.933685 0.516022 0.362915
1.000000 0.521484 0.361694
0.001068 0.649811 0.373413
0.131897 0.649719 0.373718
0.270325 0.649445 0.374603
0.404999 0.649628 0.375519
0.537933 0.652649 0.371796
0.672211 0.653870 0.368896
0.802032 0.654419 0.366882
0.923553 0.655975 0.364990
1.000000 0.659424 0.364105
0.115692 0.778046 0.379608
0.190765 0.777679 0.380188
0.301788 0.777161 0.381165
0.424408 0.777039 0.382019
0.549225 0.779053 0.379028
0.676025 0.780975 0.374420
0.799438 0.781158 0.372925
0.915527 0.781799 0.372253
1.000000 0.783325 0.372009
0.238861 0.891541 0.393036
0.279968 0.891266 0.393463
0.360077 0.890747 0.394348
0.462280 0.890594 0.394714
0.573456 0.891907 0.392273
0.688599 0.893524 0.388275
0.802856 0.894409 0.385040
0.912842 0.894409 0.385162
1.000000 0.894836 0.386230
0.343964 0.995270 0.413086
0.370605 0.995087 0.413391
0.428680 0.994720 0.414032
0.510162 0.994934 0.413788
0.604980 0.996033 0.411774
0.706268 0.997528 0.408539
0.810059 0.998901 0.405304
0.913666 0.999786 0.403503
1.000000 1.000000 0.404694
0.000000 0.000000 0.506683
0.031677 0.000000 0.507019
0.224243 0.000000 0.510132
0.377350 0.000000 0.513000
0.525360 0.000000 0.514099
0.669617 0.000000 0.514435
0.808807 0.000000 0.514465
0.939453 0.000000 0.514130
1.000000 0.000000 0.513641
0.000000 0.093170 0.507843
0.060028 0.090393 0.508240
0.233765 0.078888 0.510529
0.382202 0.049866 0.513550
0.528076 0.010223 0.514526
0.670959 0.000061 0.514709
0.809204 0.000000 0.514557
0.939148 0.000000 0.514099
1.000000 0.000000 0.513550
0.000000 0.227325 0.509369
0.089752 0.227142 0.509827
0.246124 0.226135 0.510773
0.388702 0.221222 0.513672
0.531891 0.213989 0.514984
0.673370 0.205750 0.515045
0.810425 0.198059 0.514618
0.939148 0.196716 0.513824
1.000000 0.209167 0.512970
0.000000 0.370605 0.510925
0.104706 0.370789 0.511169
0.253967 0.370972 0.511902
0.394012 0.370758 0.513031
0.534882 0.367706 0.515076
0.675232 0.364746 0.514862
0.810577 0.362885 0.513977
0.937195 0.364502 0.512878
1.000000 0.372467 0.511810
0.000000 0.513275 0.512787
0.114258 0.513397 0.512939
0.260651 0.513702 0.513306
0.399139 0.514160 0.513885
0.536438 0.514374 0.514465
0.675415 0.513275 0.513458
0.808289 0.512909 0.512329
0.932037 0.514832 0.511230
1.000000 0.520416 0.510315
0.005127 0.651459 0.515198
0.136749 0.651489 0.515320
0.272614 0.651428 0.515747
0.407349 0.651367 0.516479
0.539978 0.651611 0.517517
0.671692 0.653839 0.514771
0.801208 0.654297 0.512939
0.921997 0.655579 0.511688
1.000000 0.658844 0.511047
0.121704 0.779510 0.519745
0.194000 0.779297 0.519989
0.303772 0.778870 0.520538
0.426544 0.778229 0.521576
0.551575 0.777893 0.522675
0.675018 0.780212 0.519806
0.797058 0.781128 0.517792
0.912781 0.781860 0.516815
1.000000 0.783325 0.516235
0.240448 0.892944 0.528778
0.281128 0.892670 0.529053
0.360931 0.892090 0.529724
0.463715 0.891205 0.530853
0.575012 0.890656 0.531799
0.687347 0.892273 0.529724
0.799744 0.893982 0.526489
0.909271 0.894379 0.525818
1.000000 0.894897 0.526093
0.343323 0.996490 0.542419
0.369965 0.996277 0.542694
0.428131 0.995758 0.543335
0.510468 0.995026 0.544403
0.605133 0.994812 0.545013
0.704559 0.996155 0.543457
0.806671 0.998047 0.540619
0.909668 0.999481 0.538300
1.000000 0.999969 0.538452
0.000000 0.000000 0.647064
0.015930 0.000000 0.647308
0.225372 0.000000 0.649902
0.379242 0.000000 0.652985
0.526550 0.000000 0.655060
0.669647 0.000000 0.655640
0.806854 0.000000 0.655731
0.935455 0.000000 0.655579
1.000000 0.000000 0.655243
0.000000 0.086609 0.647858
0.051422 0.083160 0.648102
0.234924 0.070435 0.650085
0.383881 0.041046 0.653259
0.529053 0.004547 0.655334
0.670868 0.000000 0.655762
0.807190 0.000000 0.655731
0.935120 0.000000 0.655518
1.000000 0.000000 0.655121
0.000000 0.228027 0.648743
0.085785 0.227570 0.649109
0.248108 0.226318 0.649902
0.390869 0.221863 0.652374
0.532593 0.213470 0.655121
0.672607 0.205597 0.655792
0.807617 0.199829 0.655731
0.934357 0.200348 0.655426
1.000000 0.214294 0.654877
0.000000 0.372192 0.649475
0.108032 0.372162 0.649780
0.257050 0.372040 0.650635
0.397186 0.371735 0.651489
0.535522 0.368652 0.654327
0.673553 0.365570 0.655457
0.806854 0.364258 0.655365
0.931763 0.366333 0.654846
1.000000 0.374847 0.654114
0.000000 0.514893 0.650330
0.123993 0.514984 0.650513
0.265350 0.515198 0.650970
0.402222 0.515442 0.651703
0.537689 0.515503 0.652740
0.672760 0.513580 0.654663
0.804169 0.513031 0.654419
0.926636 0.515076 0.653625
1.000000 0.520874 0.652740
0.027496 0.652863 0.651672
0.148163 0.652924 0.651794
0.277863 0.652985 0.652069
0.410187 0.653107 0.652527
0.541870 0.653320 0.653137
0.671417 0.653656 0.653687
0.799896 0.653320 0.652832
0.919128 0.654572 0.651978
1.000000 0.657898 0.651245
0.135040 0.780731 0.654297
0.201721 0.780640 0.654388
0.307709 0.780396 0.654694
0.428497 0.779968 0.655182
0.552887 0.779388 0.656006
0.675201 0.779114 0.657135
0.794128 0.781097 0.654907
0.909454 0.781769 0.653625
1.000000 0.782959 0.652924
0.245331 0.894165 0.659729
0.284882 0.893951 0.659882
0.363037 0.893494 0.660248
0.464539 0.892700 0.660919
0.575409 0.891693 0.661957
0.687256 0.891083 0.663177
0.796326 0.893250 0.661011
0.904968 0.894287 0.659424
1.000000 0.894958 0.658905
0.344086 0.997803 0.668213
0.370331 0.997589 0.668396
0.427795 0.997131 0.668793
0.509491 0.996368 0.669556
0.604156 0.995514 0.670654
0.703583 0.995117 0.671722
0.803497 0.996887 0.670288
0.905121 0.999054 0.667572
1.000000 0.999969 0.666718
0.000000 0.000000 0.778259
0.054993 0.000000 0.778473
0.238708 0.000000 0.780792
0.387665 0.000000 0.783630
0.531647 0.000000 0.785980
0.672211 0.000000 0.787262
0.806915 0.000000 0.787231
0.932556 0.000000 0.786896
1.000000 0.000000 0.786407
0.000000 0.076172 0.778778
0.079773 0.072571 0.778961
0.247253 0.058472 0.780823
0.391876 0.029663 0.783752
0.533875 0.002563 0.786072
0.673279 0.000000 0.787201
0.807129 0.000000 0.787109
0.932129 0.000000 0.786743
1.000000 0.001953 0.786255
0.000000 0.228119 0.778992
0.111969 0.227509 0.779388
0.260223 0.226196 0.779968
0.399109 0.221893 0.782104
0.537415 0.214081 0.784882
0.674713 0.205139 0.786621
0.807037 0.200989 0.786682
0.930756 0.204742 0.786346
1.000000 0.220917 0.785797
0.005493 0.373535 0.778900
0.134247 0.373352 0.779297
0.269928 0.373016 0.780029
0.405823 0.372681 0.780670
0.540710 0.370178 0.783081
0.675232 0.366455 0.785431
0.805542 0.365723 0.785736
0.927338 0.369293 0.785431
1.000000 0.378693 0.784821
0.039886 0.516418 0.778534
0.151917 0.516418 0.778778
0.279022 0.516510 0.779297
0.410828 0.516541 0.780029
0.543335 0.516663 0.780792
0.674072 0.514893 0.783325
0.801788 0.514465 0.784180
0.921356 0.517029 0.783905
1.000000 0.523102 0.783234
0.093292 0.654175 0.778229
0.176331 0.654205 0.778351
0.292511 0.654266 0.778625
0.418732 0.654358 0.779022
0.546722 0.654480 0.779724
0.673004 0.654785 0.780579
0.796326 0.653900 0.782288
0.913544 0.654999 0.782013
1.000000 0.658325 0.781250
0.167175 0.781677 0.778809
0.223572 0.781586 0.778870
0.320770 0.781403 0.779083
0.436035 0.781097 0.779388
0.556732 0.780762 0.779846
0.676636 0.780640 0.780426
0.792480 0.780975 0.780975
0.906860 0.780945 0.780273
1.000000 0.781982 0.779572
0.261292 0.895050 0.781158
0.297882 0.894867 0.781219
0.371704 0.894501 0.781433
0.469452 0.893951 0.781769
0.577454 0.893188 0.782288
0.687561 0.892487 0.783081
0.795349 0.892242 0.784149
0.901306 0.894287 0.782257
1.000000 0.894867 0.781128
0.351501 0.998840 0.785400
0.376770 0.998657 0.785492
0.432098 0.998291 0.785736
0.511414 0.997711 0.786163
0.604218 0.996979 0.786774
0.702850 0.996246 0.787750
0.802612 0.996033 0.788849
0.901672 0.998383 0.787140
1.000000 0.999939 0.785278
0.011566 0.000000 0.895630
0.141144 0.000000 0.896271
0.273315 0.000000 0.898254
0.408661 0.000000 0.900726
0.545227 0.000000 0.902954
0.680450 0.000000 0.904449
0.810974 0.000000 0.904938
0.932678 0.000000 0.904419
1.000000 0.000000 0.903687
0.046875 0.063354 0.895935
0.154633 0.058838 0.896362
0.279755 0.044037 0.898254
0.412079 0.016693 0.900757
0.547058 0.001587 0.902893
0.681244 0.000000 0.904297
0.811035 0.000000 0.904694
0.932098 0.000000 0.904144
1.000000 0.005035 0.903412
0.089386 0.227814 0.895813
0.173676 0.227051 0.896210
0.291534 0.225739 0.896637
0.419098 0.221497 0.898560
0.550507 0.214478 0.901062
0.682373 0.206543 0.903046
0.810547 0.202271 0.903870
0.930328 0.209106 0.903412
1.000000 0.227997 0.902679
0.118256 0.374512 0.895172
0.190033 0.374329 0.895538
0.300659 0.373993 0.896057
0.425507 0.373627 0.896576
0.553680 0.371582 0.898651
0.682587 0.368530 0.901031
0.808441 0.367310 0.902313
0.926331 0.372192 0.902008
1.000000 0.383057 0.901337
0.140717 0.517731 0.893890
0.204651 0.517700 0.894135
0.309143 0.517639 0.894623
0.429993 0.517639 0.895233
0.556000 0.517883 0.895752
0.681244 0.516846 0.897980
0.803894 0.516052 0.899902
0.919556 0.519287 0.899902
1.000000 0.526245 0.899292
0.168518 0.655396 0.892365
0.224304 0.655396 0.892487
0.321228 0.655396 0.892761
0.436768 0.655426 0.893250
0.558258 0.655487 0.893890
0.679840 0.655975 0.894501
0.797607 0.655457 0.896698
0.910889 0.656616 0.897369
1.000000 0.660278 0.896973
0.218689 0.782471 0.891357
0.262573 0.782379 0.891449
0.346436 0.782227 0.891632
0.452454 0.781982 0.891907
0.566711 0.781708 0.892334
0.681793 0.781647 0.892914
0.793793 0.781982 0.893646
0.903381 0.781494 0.895264
1.000000 0.782349 0.895050
0.292114 0.895569 0.891876
0.324066 0.895416 0.891968
0.390869 0.895111 0.892090
0.481995 0.894653 0.892334
0.584686 0.894104 0.892670
0.690704 0.893738 0.893127
0.796143 0.893768 0.893677
0.899719 0.894287 0.894257
1.000000 0.894104 0.893585
0.368347 0.999512 0.893799
0.391602 0.999420 0.893829
0.443298 0.999146 0.893982
0.518555 0.998718 0.894257
0.607849 0.998199 0.894592
0.704010 0.997772 0.895111
0.802612 0.997528 0.895782
0.901306 0.997681 0.896790
1.000000 0.999969 0.894958
0.171478 0.000000 1.000000
0.226349 0.000000 1.000000
0.323578 0.000000 1.000000
0.441315 0.000000 1.000000
0.567108 0.000000 1.000000
0.694580 0.000000 1.000000
0.818878 0.000000 1.000000
0.935608 0.000000 1.000000
1.000000 0.000000 1.000000
0.181396 0.048523 1.000000
0.233521 0.042542 1.000000
0.327850 0.027405 1.000000
0.443878 0.005554 1.000000
0.568481 0.000763 1.000000
0.695068 0.000000 1.000000
0.818695 0.000000 1.000000
0.934875 0.000031 1.000000
1.000000 0.025299 1.000000
0.197662 0.227081 1.000000
0.247040 0.226685 1.000000
0.337708 0.224915 1.000000
0.449951 0.220917 1.000000
0.571472 0.214813 1.000000
0.695831 0.208557 1.000000
0.817719 0.206329 1.000000
0.932739 0.214203 1.000000
1.000000 0.234924 1.000000
0.212036 0.375366 1.000000
0.257996 0.375244 1.000000
0.345398 0.375061 1.000000
0.455414 0.374695 1.000000
0.574066 0.372925 1.000000
0.695465 0.370819 1.000000
0.814911 0.370575 1.000000
0.928192 0.375366 1.000000
1.000000 0.387238 1.000000
0.225098 0.518921 1.000000
0.268158 0.518890 1.000000
0.351776 0.518829 1.000000
0.458801 0.518890 1.000000
0.575317 0.519318 1.000000
0.693390 0.518890 1.000000
0.809509 0.518921 1.000000
0.920776 0.521698 1.000000
1.000000 0.529083 1.000000
0.242096 0.656494 0.998444
0.281921 0.656464 0.998566
0.360809 0.656464 0.998871
0.463287 0.656464 0.999329
0.575867 0.656616 0.999847
0.690735 0.657379 1.000000
0.802612 0.657623 1.000000
0.911438 0.658508 1.000000
1.000000 0.662231 1.000000
0.275848 0.783173 0.996735
0.310089 0.783112 0.996826
0.380646 0.782959 0.997040
0.475616 0.782715 0.997375
0.581604 0.782501 0.997833
0.690491 0.782562 0.998474
0.798218 0.783142 0.999054
0.903534 0.782928 1.000000
1.000000 0.783508 1.000000
0.331512 0.895966 0.996368
0.358673 0.895874 0.996429
0.417358 0.895630 0.996552
0.500305 0.895233 0.996765
0.596130 0.894867 0.997131
0.697083 0.894623 0.997589
0.798981 0.894775 0.998199
0.900360 0.895172 0.998993
1.000000 0.894440 1.000000
0.392120 1.000000 0.997314
0.412964 0.999908 0.997375
0.460266 0.999695 0.997467
0.530487 0.999390 0.997681
0.615326 0.999084 0.997955
0.707947 0.998840 0.998352
0.804016 0.998871 0.998840
0.901489 0.999268 0.999359
0.999969 1.000000 0.999939
