滤镜资源/Professional Luts Collection/Lutify.me Professional/Contemporary Color Films/Calcite Angel Wing.cube
# Created by: Lutify.me
# Copyright: (c) Copyright Lutify.me 2015
# Website: https://lutify.me
#LUT size
LUT_3D_SIZE 33
#LUT data points
0.000000 0.000000 0.000000
0.014832 0.000000 0.000000
0.031586 0.000000 0.000000
0.054535 0.000000 0.000000
0.080078 0.000000 0.000000
0.106964 0.000000 0.000000
0.135803 0.000000 0.000000
0.166840 0.000000 0.000000
0.200745 0.000000 0.000000
0.236755 0.000000 0.000000
0.274536 0.000000 0.000000
0.313416 0.000000 0.000000
0.352936 0.000000 0.000000
0.392700 0.000000 0.000000
0.432526 0.000000 0.000000
0.472321 0.000000 0.000000
0.511963 0.000000 0.000000
0.551453 0.000000 0.000000
0.590851 0.000000 0.000000
0.630005 0.000000 0.000000
0.668915 0.000000 0.000000
0.707428 0.000000 0.000000
0.745544 0.000000 0.000000
0.783203 0.000000 0.000000
0.820251 0.000000 0.000000
0.856598 0.000000 0.000000
0.892242 0.000000 0.000000
0.927094 0.000000 0.000000
0.960968 0.000000 0.000000
0.991608 0.000000 0.000000
1.000000 0.000000 0.000000
1.000000 0.000000 0.000000
1.000000 0.000000 0.000000
0.000763 0.013702 0.000397
0.014465 0.014465 0.000000
0.031952 0.014832 0.000000
0.055969 0.014496 0.000000
0.081268 0.013763 0.000000
0.108246 0.013214 0.000000
0.137238 0.011108 0.000000
0.168671 0.007965 0.000000
0.202545 0.002899 0.000000
0.238586 0.000427 0.000000
0.276367 0.000000 0.000000
0.315216 0.000000 0.000000
0.354584 0.000000 0.000000
0.394104 0.000000 0.000000
0.433777 0.000000 0.000000
0.473389 0.000000 0.000000
0.512909 0.000000 0.000000
0.552307 0.000000 0.000000
0.591583 0.000000 0.000000
0.630707 0.000000 0.000000
0.669495 0.000000 0.000000
0.707916 0.000000 0.000000
0.745941 0.000000 0.000000
0.783539 0.000000 0.000000
0.820557 0.000000 0.000000
0.856842 0.000000 0.000000
0.892456 0.000000 0.000000
0.927246 0.000000 0.000000
0.961060 0.000000 0.000000
0.991638 0.000000 0.000000
1.000000 0.000000 0.000000
1.000000 0.000000 0.000000
1.000000 0.000000 0.000000
0.000824 0.030365 0.000427
0.014893 0.031128 0.000397
0.032684 0.031555 0.000000
0.056580 0.031647 0.000305
0.082062 0.031860 0.000031
0.109314 0.031158 0.000000
0.138824 0.029572 0.000000
0.170471 0.026337 0.000000
0.204590 0.021515 0.000000
0.240662 0.014404 0.000000
0.278290 0.005737 0.000000
0.316986 0.000977 0.000000
0.356232 0.000000 0.000000
0.395630 0.000000 0.000000
0.435120 0.000000 0.000000
0.474548 0.000000 0.000000
0.513916 0.000000 0.000000
0.553223 0.000000 0.000000
0.592438 0.000000 0.000000
0.631409 0.000000 0.000000
0.670105 0.000000 0.000000
0.708466 0.000000 0.000000
0.746399 0.000000 0.000000
0.783905 0.000000 0.000000
0.820831 0.000000 0.000000
0.857117 0.000000 0.000000
0.892670 0.000000 0.000000
0.927399 0.000000 0.000000
0.961212 0.000000 0.000000
0.991699 0.000000 0.000000
1.000000 0.000000 0.000000
1.000000 0.000000 0.000000
1.000000 0.000000 0.000000
0.000763 0.053864 0.000763
0.015869 0.054260 0.000427
0.033081 0.055115 0.000366
0.056610 0.056000 0.000000
0.082916 0.056274 0.000031
0.110626 0.056061 0.000000
0.140411 0.055328 0.000000
0.172455 0.053284 0.000000
0.206726 0.049805 0.000000
0.243073 0.044067 0.000000
0.280762 0.035858 0.000000
0.319336 0.025452 0.000000
0.358368 0.013947 0.000000
0.397614 0.004333 0.000000
0.436859 0.000488 0.000000
0.476105 0.000000 0.000000
0.515289 0.000000 0.000000
0.554443 0.000000 0.000000
0.593475 0.000000 0.000000
0.632294 0.000000 0.000000
0.670898 0.000000 0.000000
0.709167 0.000000 0.000000
0.747009 0.000000 0.000000
0.784454 0.000000 0.000000
0.821289 0.000000 0.000000
0.857483 0.000000 0.000000
0.892914 0.000000 0.000000
0.927612 0.000000 0.000000
0.961334 0.000000 0.000000
0.991791 0.000000 0.000000
1.000000 0.000000 0.000000
1.000000 0.000000 0.000000
1.000000 0.000000 0.000000
0.000092 0.080170 0.000763
0.013824 0.080780 0.000702
0.032013 0.081482 0.000061
0.056671 0.082581 0.000031
0.083557 0.083099 0.000000
0.111694 0.083527 0.000000
0.142212 0.083313 0.000000
0.174652 0.082428 0.000000
0.209229 0.080658 0.000000
0.245514 0.077606 0.000000
0.283295 0.073181 0.000000
0.321716 0.066986 0.000000
0.360596 0.059265 0.000000
0.399658 0.049591 0.000000
0.438782 0.038361 0.000000
0.477905 0.026611 0.000000
0.516937 0.013855 0.000000
0.555878 0.005219 0.000000
0.594757 0.001984 0.000000
0.633484 0.000610 0.000000
0.671906 0.000000 0.000000
0.710022 0.000000 0.000000
0.747772 0.000000 0.000000
0.785065 0.000000 0.000000
0.821808 0.000000 0.000000
0.857910 0.000000 0.000000
0.893280 0.000000 0.000000
0.927917 0.000000 0.000000
0.961487 0.000000 0.000000
0.991852 0.000000 0.000000
1.000000 0.000000 0.000000
1.000000 0.000000 0.000000
1.000000 0.000000 0.000000
0.000000 0.109161 0.000122
0.010376 0.109558 0.000122
0.029449 0.110291 0.000061
0.055328 0.111328 0.000000
0.082977 0.112610 0.000000
0.112396 0.113434 0.000000
0.143768 0.113647 0.000000
0.176666 0.113708 0.000000
0.211731 0.112946 0.000000
0.248199 0.111481 0.000000
0.285736 0.109253 0.000000
0.324036 0.106110 0.000000
0.362671 0.101898 0.000000
0.401520 0.097046 0.000000
0.440521 0.091156 0.000000
0.479492 0.084229 0.000000
0.518372 0.076324 0.000000
0.557220 0.067413 0.000000
0.596008 0.058990 0.000000
0.634613 0.050323 0.000000
0.672974 0.040710 0.000000
0.710999 0.030426 0.000000
0.748627 0.020294 0.000000
0.785828 0.011749 0.000000
0.822418 0.007111 0.000000
0.858459 0.006134 0.000000
0.893707 0.005493 0.000000
0.928192 0.005219 0.000000
0.961700 0.005402 0.000000
0.991943 0.006287 0.000000
1.000000 0.007874 0.000000
1.000000 0.014832 0.000000
1.000000 0.034302 0.000000
0.000000 0.141174 0.000000
0.002197 0.141571 0.000000
0.021576 0.142242 0.000000
0.050079 0.143188 0.000000
0.080719 0.144531 0.000000
0.111877 0.145813 0.000000
0.144745 0.146637 0.000000
0.178497 0.147003 0.000000
0.213745 0.147095 0.000000
0.250549 0.146606 0.000000
0.288086 0.145630 0.000000
0.326294 0.144165 0.000000
0.364716 0.142151 0.000000
0.403320 0.139587 0.000000
0.442078 0.136627 0.000000
0.480835 0.133118 0.000000
0.519592 0.129150 0.000000
0.558319 0.124756 0.000000
0.596985 0.119843 0.000000
0.635437 0.114471 0.000000
0.673676 0.108704 0.000000
0.711609 0.102448 0.000000
0.749146 0.096252 0.000000
0.786285 0.090271 0.000000
0.822845 0.085358 0.000000
0.858734 0.082367 0.000000
0.893890 0.080322 0.000000
0.928223 0.079681 0.000000
0.961609 0.080902 0.000000
0.991791 0.083954 0.000000
1.000000 0.089020 0.000000
1.000000 0.097504 0.000000
1.000000 0.110931 0.000000
0.000000 0.175690 0.000000
0.000153 0.176147 0.000000
0.008606 0.176605 0.000000
0.040802 0.177338 0.000000
0.075500 0.178894 0.000000
0.109802 0.180389 0.000000
0.144318 0.181641 0.000000
0.179596 0.182465 0.000000
0.215576 0.182800 0.000000
0.252472 0.182953 0.000000
0.290222 0.182739 0.000000
0.328308 0.182220 0.000000
0.366638 0.181305 0.000000
0.405029 0.180115 0.000000
0.443604 0.178650 0.000000
0.482178 0.176758 0.000000
0.520782 0.174652 0.000000
0.559357 0.172211 0.000000
0.597839 0.169464 0.000000
0.636200 0.166565 0.000000
0.674316 0.163544 0.000000
0.712128 0.160400 0.000000
0.749512 0.157318 0.000000
0.786499 0.154388 0.000000
0.822937 0.151825 0.000000
0.858704 0.149841 0.000000
0.893768 0.148621 0.000000
0.927979 0.148499 0.000000
0.961243 0.149780 0.000000
0.991302 0.152740 0.000000
1.000000 0.157227 0.000000
1.000000 0.163879 0.000000
1.000000 0.172546 0.000000
0.000000 0.212219 0.000000
0.000000 0.212646 0.000000
0.001251 0.213043 0.000000
0.025665 0.213684 0.000000
0.067963 0.214905 0.000000
0.105988 0.216522 0.000000
0.142822 0.218048 0.000000
0.179657 0.219177 0.000000
0.216797 0.219818 0.000000
0.254181 0.220215 0.000000
0.291992 0.220520 0.000000
0.330109 0.220520 0.000000
0.368286 0.220306 0.000000
0.406586 0.219849 0.000000
0.445007 0.219147 0.000000
0.483521 0.218201 0.000000
0.521973 0.216980 0.000000
0.560394 0.215607 0.000000
0.598724 0.214020 0.000000
0.636932 0.212280 0.000000
0.674927 0.210449 0.000000
0.712616 0.208588 0.000000
0.749878 0.206787 0.000000
0.786743 0.205139 0.000000
0.823029 0.203827 0.000000
0.858643 0.202911 0.000000
0.893524 0.202606 0.000000
0.927582 0.203094 0.000000
0.960663 0.204468 0.000000
0.990692 0.206970 0.000000
1.000000 0.210663 0.000000
1.000000 0.215973 0.000000
1.000000 0.222717 0.000000
0.000000 0.250061 0.000000
0.000000 0.250397 0.000000
0.000000 0.250763 0.000000
0.008575 0.251282 0.000000
0.057556 0.252106 0.000000
0.101135 0.253632 0.000000
0.140594 0.255249 0.000000
0.179047 0.256592 0.000000
0.217407 0.257660 0.000000
0.255585 0.258240 0.000000
0.293549 0.258698 0.000000
0.331604 0.258972 0.000000
0.369751 0.259094 0.000000
0.408020 0.259033 0.000000
0.446411 0.258789 0.000000
0.484772 0.258423 0.000000
0.523132 0.257782 0.000000
0.561432 0.257019 0.000000
0.599640 0.256104 0.000000
0.637726 0.255066 0.000000
0.675568 0.253967 0.000000
0.713104 0.252838 0.000000
0.750214 0.251831 0.000000
0.786926 0.250916 0.000000
0.823029 0.250244 0.000000
0.858490 0.249939 0.000000
0.893219 0.250122 0.000000
0.927094 0.250854 0.000000
0.960022 0.252350 0.000000
0.989990 0.254639 0.000000
1.000000 0.257996 0.000000
1.000000 0.262604 0.000000
1.000000 0.268341 0.000000
0.000000 0.288330 0.000000
0.000000 0.288574 0.000000
0.000000 0.288849 0.000000
0.001526 0.289276 0.000000
0.045044 0.289825 0.000000
0.095428 0.291229 0.000000
0.138306 0.292786 0.000000
0.178314 0.294220 0.000000
0.217712 0.295502 0.000000
0.256622 0.296417 0.000000
0.295074 0.296936 0.000000
0.333160 0.297302 0.000000
0.371307 0.297607 0.000000
0.409485 0.297852 0.000000
0.447784 0.297882 0.000000
0.486053 0.297791 0.000000
0.524231 0.297638 0.000000
0.562469 0.297241 0.000000
0.600586 0.296783 0.000000
0.638489 0.296173 0.000000
0.676208 0.295593 0.000000
0.713562 0.294983 0.000000
0.750519 0.294464 0.000000
0.787048 0.294067 0.000000
0.822998 0.293823 0.000000
0.858276 0.293884 0.000000
0.892822 0.294342 0.000000
0.926544 0.295258 0.000000
0.959259 0.296753 0.000000
0.989136 0.298950 0.000000
1.000000 0.302094 0.000000
1.000000 0.306152 0.000000
1.000000 0.311279 0.000000
0.000000 0.326538 0.000000
0.000000 0.326813 0.000000
0.000000 0.327026 0.000000
0.000122 0.327362 0.000000
0.032745 0.327820 0.000000
0.089874 0.328857 0.000000
0.135956 0.330383 0.000000
0.177948 0.331848 0.000000
0.217926 0.333191 0.000000
0.257446 0.334290 0.000000
0.296295 0.335144 0.000000
0.334717 0.335571 0.000000
0.372864 0.335968 0.000000
0.411011 0.336273 0.000000
0.449158 0.336578 0.000000
0.487366 0.336731 0.000000
0.525452 0.336731 0.000000
0.563507 0.336670 0.000000
0.601501 0.336517 0.000000
0.639282 0.336304 0.000000
0.676788 0.336060 0.000000
0.713989 0.335785 0.000000
0.750793 0.335571 0.000000
0.787140 0.335510 0.000000
0.822876 0.335602 0.000000
0.857971 0.335907 0.000000
0.892303 0.336517 0.000000
0.925842 0.337585 0.000000
0.958344 0.339081 0.000000
0.988159 0.341278 0.000000
1.000000 0.344177 0.000000
1.000000 0.347839 0.000000
1.000000 0.352509 0.000000
0.000000 0.364777 0.000000
0.000000 0.364990 0.000000
0.000000 0.365173 0.000000
0.000000 0.365479 0.000000
0.022614 0.365814 0.000000
0.084534 0.366608 0.000000
0.134216 0.368011 0.000000
0.177521 0.369537 0.000000
0.218384 0.370911 0.000000
0.258118 0.372070 0.000000
0.297333 0.373108 0.000000
0.336060 0.373840 0.000000
0.374359 0.374237 0.000000
0.412476 0.374603 0.000000
0.450623 0.374939 0.000000
0.488708 0.375244 0.000000
0.526703 0.375488 0.000000
0.564575 0.375641 0.000000
0.602417 0.375671 0.000000
0.640015 0.375702 0.000000
0.677399 0.375702 0.000000
0.714417 0.375702 0.000000
0.751007 0.375732 0.000000
0.787140 0.375885 0.000000
0.822723 0.376160 0.000000
0.857574 0.376648 0.000000
0.891724 0.377411 0.000000
0.925018 0.378571 0.000000
0.957336 0.380066 0.000000
0.987030 0.382141 0.000000
1.000000 0.384888 0.000000
1.000000 0.388306 0.000000
1.000000 0.392578 0.000000
0.000000 0.402924 0.000000
0.000000 0.403107 0.000000
0.000000 0.403229 0.000000
0.000000 0.403503 0.000000
0.014282 0.403839 0.000000
0.080353 0.404388 0.000000
0.132904 0.405731 0.000000
0.177307 0.407166 0.000000
0.218933 0.408539 0.000000
0.258942 0.409851 0.000000
0.298309 0.410919 0.000000
0.337219 0.411804 0.000000
0.375793 0.412476 0.000000
0.414001 0.412903 0.000000
0.452087 0.413208 0.000000
0.490051 0.413574 0.000000
0.527924 0.413910 0.000000
0.565704 0.414154 0.000000
0.603363 0.414398 0.000000
0.640808 0.414581 0.000000
0.677948 0.414764 0.000000
0.714783 0.414917 0.000000
0.751190 0.415131 0.000000
0.787109 0.415436 0.000000
0.822479 0.415833 0.000000
0.857117 0.416443 0.000000
0.891022 0.417297 0.000000
0.924072 0.418488 0.000000
0.956146 0.420013 0.000000
0.985779 0.421967 0.000000
1.000000 0.424530 0.000000
1.000000 0.427734 0.000000
1.000000 0.431641 0.000000
0.000000 0.441010 0.000000
0.000000 0.441132 0.000000
0.000000 0.441254 0.000000
0.000000 0.441498 0.000000
0.007935 0.441772 0.000000
0.077179 0.442200 0.000000
0.132202 0.443390 0.000000
0.177521 0.444763 0.000000
0.219482 0.446167 0.000000
0.259949 0.447418 0.000000
0.299469 0.448608 0.000000
0.338409 0.449585 0.000000
0.377136 0.450409 0.000000
0.415558 0.450989 0.000000
0.453613 0.451385 0.000000
0.491547 0.451660 0.000000
0.529266 0.452057 0.000000
0.566833 0.452423 0.000000
0.604340 0.452728 0.000000
0.641602 0.452972 0.000000
0.678558 0.453308 0.000000
0.715179 0.453552 0.000000
0.751373 0.453918 0.000000
0.787079 0.454315 0.000000
0.822174 0.454834 0.000000
0.856598 0.455536 0.000000
0.890228 0.456390 0.000000
0.923035 0.457581 0.000000
0.954803 0.459076 0.000000
0.984344 0.460968 0.000000
0.999969 0.463379 0.000000
1.000000 0.466339 0.000000
1.000000 0.469879 0.000000
0.000000 0.478882 0.000000
0.000000 0.478973 0.000000
0.000000 0.479126 0.000000
0.000000 0.479309 0.000000
0.005310 0.479523 0.000000
0.075317 0.479858 0.000000
0.132324 0.480896 0.000000
0.178192 0.482239 0.000000
0.220551 0.483551 0.000000
0.261169 0.484833 0.000000
0.300842 0.486053 0.000000
0.339874 0.487091 0.000000
0.378571 0.487976 0.000000
0.417053 0.488739 0.000000
0.455261 0.489258 0.000000
0.493073 0.489624 0.000000
0.530701 0.489899 0.000000
0.568146 0.490265 0.000000
0.605408 0.490631 0.000000
0.642456 0.490967 0.000000
0.679199 0.491302 0.000000
0.715607 0.491669 0.000000
0.751556 0.492096 0.000000
0.787018 0.492554 0.000000
0.821869 0.493134 0.000000
0.855988 0.493866 0.000000
0.889374 0.494751 0.000000
0.921875 0.495911 0.000000
0.953369 0.497345 0.000000
0.982819 0.499146 0.000000
0.999878 0.501404 0.000000
1.000000 0.504150 0.000000
1.000000 0.507416 0.000000
0.000000 0.516418 0.000000
0.000000 0.516479 0.000000
0.000000 0.516632 0.000000
0.000000 0.516785 0.000000
0.005066 0.516998 0.000000
0.075775 0.517273 0.000000
0.133331 0.518127 0.000000
0.179840 0.519379 0.000000
0.222198 0.520691 0.000000
0.262939 0.521942 0.000000
0.302612 0.523132 0.000000
0.341675 0.524231 0.000000
0.380310 0.525177 0.000000
0.418701 0.526001 0.000000
0.456940 0.526642 0.000000
0.494812 0.527100 0.000000
0.532257 0.527435 0.000000
0.569550 0.527679 0.000000
0.606628 0.528015 0.000000
0.643433 0.528381 0.000000
0.679932 0.528778 0.000000
0.716064 0.529175 0.000000
0.751770 0.529602 0.000000
0.786957 0.530121 0.000000
0.821533 0.530731 0.000000
0.855377 0.531433 0.000000
0.888458 0.532349 0.000000
0.920654 0.533478 0.000000
0.951843 0.534821 0.000000
0.981171 0.536560 0.000000
0.999756 0.538635 0.000000
1.000000 0.541168 0.000000
1.000000 0.544159 0.000000
0.000000 0.553589 0.000000
0.000000 0.553619 0.000000
0.000000 0.553772 0.000000
0.000000 0.553894 0.000000
0.006775 0.554108 0.000000
0.078552 0.554321 0.000000
0.136078 0.555054 0.000000
0.182556 0.556213 0.000000
0.224854 0.557465 0.000000
0.265411 0.558716 0.000000
0.304993 0.559845 0.000000
0.343964 0.560944 0.000000
0.382477 0.561920 0.000000
0.420685 0.562805 0.000000
0.458801 0.563507 0.000000
0.496613 0.564056 0.000000
0.534088 0.564453 0.000000
0.571167 0.564697 0.000000
0.608002 0.564972 0.000000
0.644592 0.565308 0.000000
0.680817 0.565674 0.000000
0.716675 0.566071 0.000000
0.752075 0.566528 0.000000
0.786987 0.567017 0.000000
0.821228 0.567657 0.000000
0.854767 0.568329 0.000000
0.887543 0.569214 0.000000
0.919403 0.570282 0.000000
0.950256 0.571564 0.000000
0.979431 0.573181 0.000000
0.999634 0.575104 0.000000
1.000000 0.577423 0.000000
1.000000 0.580200 0.000000
0.000000 0.590302 0.000000
0.000000 0.590363 0.000000
0.000000 0.590454 0.000000
0.000000 0.590576 0.000000
0.014465 0.590729 0.000000
0.084412 0.590912 0.000000
0.141083 0.591583 0.000000
0.186737 0.592651 0.000000
0.228668 0.593842 0.000000
0.268890 0.595001 0.000000
0.308197 0.596161 0.000000
0.346863 0.597198 0.000000
0.385223 0.598175 0.000000
0.423218 0.599060 0.000000
0.461060 0.599823 0.000000
0.498718 0.600433 0.000000
0.536041 0.600891 0.000000
0.573090 0.601227 0.000000
0.609680 0.601440 0.000000
0.645996 0.601685 0.000000
0.681915 0.601990 0.000000
0.717438 0.602386 0.000000
0.752533 0.602783 0.000000
0.787079 0.603271 0.000000
0.821014 0.603821 0.000000
0.854218 0.604523 0.000000
0.886627 0.605316 0.000000
0.918152 0.606323 0.000000
0.948608 0.607513 0.000000
0.977631 0.609009 0.000000
0.999512 0.610779 0.000000
1.000000 0.612915 0.000000
1.000000 0.615417 0.000000
0.000000 0.626404 0.000000
0.000000 0.626465 0.000000
0.000000 0.626556 0.000000
0.000061 0.626648 0.000000
0.030090 0.626740 0.000000
0.095001 0.626923 0.000000
0.148682 0.627533 0.000000
0.192841 0.628571 0.000000
0.233948 0.629669 0.000000
0.273560 0.630768 0.000000
0.312439 0.631836 0.000000
0.350739 0.632874 0.000000
0.388672 0.633850 0.000000
0.426422 0.634705 0.000000
0.463989 0.635468 0.000000
0.501312 0.636108 0.000000
0.538391 0.636597 0.000000
0.575195 0.636993 0.000000
0.611694 0.637238 0.000000
0.647644 0.637451 0.000000
0.683319 0.637634 0.000000
0.718506 0.637909 0.000000
0.753204 0.638306 0.000000
0.787415 0.638702 0.000000
0.820953 0.639221 0.000000
0.853760 0.639862 0.000000
0.885803 0.640564 0.000000
0.916931 0.641510 0.000000
0.946991 0.642609 0.000000
0.975830 0.643951 0.000000
0.999390 0.645538 0.000000
1.000000 0.647491 0.000000
1.000000 0.649750 0.000000
0.000000 0.661774 0.000000
0.000000 0.661835 0.000000
0.000000 0.661896 0.000000
0.001831 0.661987 0.000000
0.051575 0.662079 0.000000
0.110046 0.662201 0.000000
0.159088 0.662811 0.000000
0.201202 0.663757 0.000000
0.241089 0.664795 0.000000
0.279877 0.665833 0.000000
0.317993 0.666840 0.000000
0.355743 0.667786 0.000000
0.393188 0.668732 0.000000
0.430481 0.669556 0.000000
0.467621 0.670288 0.000000
0.504608 0.670959 0.000000
0.541351 0.671478 0.000000
0.577820 0.671875 0.000000
0.613983 0.672180 0.000000
0.649750 0.672394 0.000000
0.685028 0.672485 0.000000
0.719879 0.672668 0.000000
0.754211 0.672913 0.000000
0.787994 0.673279 0.000000
0.821106 0.673737 0.000000
0.853516 0.674255 0.000000
0.885132 0.674896 0.000000
0.915833 0.675720 0.000000
0.945465 0.676727 0.000000
0.973969 0.677917 0.000000
0.998901 0.679352 0.000000
1.000000 0.681091 0.000000
1.000000 0.683075 0.000000
0.000000 0.696289 0.000000
0.000000 0.696350 0.000000
0.000488 0.696381 0.000000
0.019073 0.696442 0.000000
0.076782 0.696533 0.000000
0.128937 0.696655 0.000000
0.172516 0.697266 0.000000
0.212097 0.698151 0.000000
0.250366 0.699097 0.000000
0.287994 0.700043 0.000000
0.325165 0.700989 0.000000
0.362091 0.701904 0.000000
0.398926 0.702759 0.000000
0.435638 0.703552 0.000000
0.472260 0.704285 0.000000
0.508728 0.704895 0.000000
0.545013 0.705414 0.000000
0.581085 0.705811 0.000000
0.616852 0.706116 0.000000
0.652283 0.706329 0.000000
0.687256 0.706451 0.000000
0.721680 0.706512 0.000000
0.755554 0.706635 0.000000
0.788910 0.706879 0.000000
0.821594 0.707214 0.000000
0.853546 0.707672 0.000000
0.884674 0.708221 0.000000
0.914886 0.708893 0.000000
0.944061 0.709747 0.000000
0.972076 0.710846 0.000000
0.997467 0.712097 0.000000
1.000000 0.713593 0.000000
1.000000 0.715302 0.000000
0.000000 0.729828 0.000000
0.004669 0.729858 0.000000
0.017578 0.729858 0.000000
0.058777 0.729919 0.000000
0.107819 0.729980 0.000000
0.150757 0.730133 0.000000
0.189117 0.730804 0.000000
0.225800 0.731598 0.000000
0.262115 0.732452 0.000000
0.298218 0.733337 0.000000
0.334137 0.734192 0.000000
0.370148 0.735016 0.000000
0.406097 0.735840 0.000000
0.442108 0.736542 0.000000
0.478027 0.737213 0.000000
0.513916 0.737793 0.000000
0.549622 0.738281 0.000000
0.585175 0.738647 0.000000
0.620453 0.738953 0.000000
0.655396 0.739136 0.000000
0.689941 0.739258 0.000000
0.724030 0.739288 0.000000
0.757416 0.739319 0.000000
0.790283 0.739410 0.000000
0.822479 0.739594 0.000000
0.853912 0.739929 0.000000
0.884521 0.740326 0.000000
0.914246 0.740906 0.000000
0.942902 0.741638 0.000000
0.970367 0.742554 0.000000
0.995453 0.743652 0.000000
1.000000 0.744904 0.000000
1.000000 0.746338 0.000000
0.016479 0.762177 0.000000
0.034546 0.762177 0.000000
0.067078 0.762207 0.000000
0.104492 0.762207 0.000000
0.140411 0.762299 0.000000
0.174866 0.762604 0.000000
0.208588 0.763245 0.000000
0.242279 0.763977 0.000000
0.276337 0.764740 0.000000
0.310760 0.765503 0.000000
0.345306 0.766296 0.000000
0.380066 0.767059 0.000000
0.415039 0.767731 0.000000
0.450073 0.768402 0.000000
0.485199 0.769012 0.000000
0.520325 0.769531 0.000000
0.555359 0.769958 0.000000
0.590271 0.770294 0.000000
0.625000 0.770538 0.000000
0.659393 0.770691 0.000000
0.693390 0.770782 0.000000
0.726929 0.770813 0.000000
0.759918 0.770782 0.000000
0.792206 0.770721 0.000000
0.823822 0.770782 0.000000
0.854706 0.770935 0.000000
0.884766 0.771240 0.000000
0.913910 0.771637 0.000000
0.941986 0.772217 0.000000
0.968964 0.772980 0.000000
0.993744 0.773865 0.000000
1.000000 0.774902 0.000000
1.000000 0.776093 0.000000
0.075409 0.793182 0.000000
0.099274 0.793182 0.000000
0.120789 0.793213 0.000000
0.145813 0.793243 0.000000
0.172943 0.793396 0.000000
0.201172 0.793823 0.000000
0.230804 0.794403 0.000000
0.261597 0.795074 0.000000
0.293243 0.795746 0.000000
0.325653 0.796417 0.000000
0.358673 0.797119 0.000000
0.392059 0.797760 0.000000
0.425812 0.798370 0.000000
0.459808 0.798950 0.000000
0.493988 0.799469 0.000000
0.528229 0.799896 0.000000
0.562408 0.800262 0.000000
0.596588 0.800537 0.000000
0.630585 0.800751 0.000000
0.664337 0.800842 0.000000
0.697723 0.800903 0.000000
0.730652 0.800842 0.000000
0.763031 0.800781 0.000000
0.794800 0.800659 0.000000
0.825836 0.800537 0.000000
0.856110 0.800537 0.000000
0.885529 0.800690 0.000000
0.914062 0.800964 0.000000
0.941559 0.801331 0.000000
0.967957 0.801910 0.000000
0.992401 0.802582 0.000000
1.000000 0.803375 0.000000
1.000000 0.804321 0.000000
0.137329 0.822723 0.000000
0.151672 0.822754 0.000000
0.166199 0.822784 0.000000
0.184601 0.822906 0.000000
0.205872 0.823212 0.000000
0.229675 0.823669 0.000000
0.255859 0.824188 0.000000
0.283691 0.824738 0.000000
0.312897 0.825317 0.000000
0.343231 0.825897 0.000000
0.374451 0.826477 0.000000
0.406311 0.827057 0.000000
0.438660 0.827576 0.000000
0.471405 0.828033 0.000000
0.504456 0.828461 0.000000
0.537720 0.828827 0.000000
0.571014 0.829132 0.000000
0.604279 0.829315 0.000000
0.637451 0.829407 0.000000
0.670410 0.829468 0.000000
0.703033 0.829437 0.000000
0.735291 0.829346 0.000000
0.767059 0.829163 0.000000
0.798187 0.828979 0.000000
0.828583 0.828796 0.000000
0.858154 0.828613 0.000000
0.886932 0.828583 0.000000
0.914764 0.828705 0.000000
0.941620 0.828918 0.000000
0.967468 0.829285 0.000000
0.991455 0.829773 0.000000
1.000000 0.830353 0.000000
1.000000 0.831055 0.000000
0.186798 0.850739 0.000000
0.197021 0.850861 0.000000
0.207794 0.851013 0.000000
0.222015 0.851257 0.000000
0.239655 0.851562 0.000000
0.260132 0.851959 0.000000
0.283325 0.852386 0.000000
0.308441 0.852844 0.000000
0.335266 0.853333 0.000000
0.363464 0.853821 0.000000
0.392731 0.854279 0.000000
0.422882 0.854736 0.000000
0.453735 0.855164 0.000000
0.485107 0.855530 0.000000
0.516907 0.855865 0.000000
0.549011 0.856110 0.000000
0.581238 0.856323 0.000000
0.613525 0.856415 0.000000
0.645782 0.856445 0.000000
0.677856 0.856415 0.000000
0.709686 0.856293 0.000000
0.741089 0.856140 0.000000
0.772064 0.855896 0.000000
0.802399 0.855652 0.000000
0.832092 0.855377 0.000000
