滤镜资源/Professional Luts Collection/Lutify.me Professional/Contemporary Color Films/Calcite Cobaltoan.cube
# Created by: Lutify.me
# Copyright: (c) Copyright Lutify.me 2015
# Website: https://lutify.me
#LUT size
LUT_3D_SIZE 33
#LUT data points
0.000000 0.000000 0.000000
0.017120 0.000000 0.000000
0.036316 0.000000 0.000336
0.061035 0.000000 0.000397
0.086670 0.000000 0.000092
0.113007 0.000000 0.000336
0.140869 0.000000 0.000732
0.169678 0.000000 0.000641
0.200348 0.000000 0.000824
0.232635 0.000000 0.001007
0.266449 0.000000 0.000702
0.301575 0.000000 0.000793
0.337982 0.000000 0.000763
0.375366 0.000000 0.000488
0.413483 0.000000 0.000305
0.452118 0.000000 0.000092
0.491058 0.000000 0.000000
0.530151 0.000000 0.000000
0.569244 0.000000 0.000000
0.608185 0.000000 0.000000
0.646912 0.000000 0.000000
0.685303 0.000000 0.000000
0.723328 0.000000 0.000000
0.760956 0.000000 0.000000
0.798157 0.000000 0.000000
0.834747 0.000000 0.000000
0.870667 0.000000 0.000000
0.905945 0.000000 0.000000
0.940399 0.000000 0.000000
0.973480 0.000000 0.000000
0.999329 0.000000 0.000000
1.000000 0.000000 0.000000
1.000000 0.000000 0.000000
0.001923 0.014069 0.000763
0.018341 0.014038 0.000397
0.038574 0.013672 0.000397
0.062805 0.012939 0.000427
0.088226 0.011810 0.000763
0.114807 0.010529 0.000793
0.142273 0.008026 0.001068
0.171326 0.004913 0.001160
0.201904 0.001038 0.001160
0.234222 0.000031 0.001190
0.268097 0.000000 0.001190
0.303223 0.000000 0.001160
0.339600 0.000000 0.001038
0.376862 0.000000 0.000610
0.414917 0.000000 0.000397
0.453461 0.000000 0.000183
0.492279 0.000000 0.000000
0.531281 0.000000 0.000000
0.570312 0.000000 0.000000
0.609161 0.000000 0.000000
0.647766 0.000000 0.000000
0.686066 0.000000 0.000000
0.724030 0.000000 0.000000
0.761627 0.000000 0.000000
0.798737 0.000000 0.000000
0.835205 0.000000 0.000000
0.871094 0.000000 0.000000
0.906311 0.000000 0.000000
0.940674 0.000000 0.000000
0.973633 0.000000 0.000000
0.999359 0.000000 0.000000
1.000000 0.000000 0.000000
1.000000 0.000000 0.000000
0.003876 0.029968 0.001190
0.020630 0.029633 0.001495
0.040833 0.029602 0.001160
0.064758 0.029205 0.001434
0.090149 0.028412 0.001190
0.116547 0.026611 0.001251
0.144043 0.024597 0.001434
0.173157 0.020935 0.001556
0.203888 0.016113 0.001556
0.236176 0.009430 0.001495
0.269897 0.002289 0.001526
0.304993 0.000092 0.001465
0.341248 0.000000 0.001404
0.378448 0.000000 0.001099
0.416473 0.000000 0.000580
0.454956 0.000000 0.000183
0.493683 0.000000 0.000000
0.532623 0.000000 0.000000
0.571533 0.000000 0.000000
0.610260 0.000000 0.000000
0.648743 0.000000 0.000000
0.686981 0.000000 0.000000
0.724854 0.000000 0.000000
0.762360 0.000000 0.000000
0.799347 0.000000 0.000000
0.835815 0.000000 0.000000
0.871613 0.000000 0.000000
0.906708 0.000000 0.000000
0.941010 0.000000 0.000000
0.973907 0.000000 0.000000
0.999359 0.000000 0.000000
1.000000 0.000000 0.000000
1.000000 0.000000 0.000000
0.006531 0.051361 0.001953
0.023346 0.051636 0.002289
0.043701 0.051605 0.002289
0.066925 0.051605 0.001923
0.092194 0.050934 0.001953
0.118652 0.049683 0.001923
0.146362 0.047485 0.001923
0.175537 0.044678 0.001892
0.206360 0.040161 0.002136
0.238739 0.033173 0.002075
0.272552 0.024231 0.001953
0.307526 0.013092 0.001862
0.343719 0.003357 0.001648
0.380798 0.000153 0.001221
0.418671 0.000000 0.000916
0.457001 0.000000 0.000366
0.495605 0.000000 0.000000
0.534332 0.000000 0.000000
0.573151 0.000000 0.000000
0.611725 0.000000 0.000000
0.650085 0.000000 0.000000
0.688202 0.000000 0.000000
0.725952 0.000000 0.000000
0.763336 0.000000 0.000000
0.800201 0.000000 0.000000
0.836517 0.000000 0.000000
0.872192 0.000000 0.000000
0.907227 0.000000 0.000000
0.941406 0.000000 0.000000
0.974182 0.000000 0.000000
0.999390 0.000000 0.000000
1.000000 0.000000 0.000000
1.000000 0.000000 0.000000
0.010498 0.074677 0.003387
0.027832 0.074890 0.003143
0.047546 0.075134 0.003082
0.070343 0.074921 0.003082
0.095001 0.074677 0.003052
0.121490 0.073944 0.002991
0.149292 0.072510 0.002716
0.178467 0.070190 0.002655
0.209412 0.066925 0.002655
0.241882 0.062195 0.002686
0.275726 0.055389 0.002411
0.310699 0.045746 0.002319
0.346832 0.032593 0.001984
0.383850 0.016724 0.001556
0.421509 0.004517 0.001068
0.459656 0.000244 0.000519
0.498077 0.000000 0.000061
0.536652 0.000000 0.000000
0.575226 0.000000 0.000000
0.613647 0.000000 0.000000
0.651794 0.000000 0.000000
0.689728 0.000000 0.000000
0.727356 0.000000 0.000000
0.764557 0.000000 0.000000
0.801239 0.000000 0.000000
0.837433 0.000000 0.000000
0.872986 0.000000 0.000000
0.907867 0.000000 0.000000
0.941925 0.000000 0.000000
0.974579 0.000000 0.000000
0.999420 0.000000 0.000000
1.000000 0.000000 0.000000
1.000000 0.000000 0.000000
0.014801 0.098663 0.004639
0.032562 0.098877 0.004578
0.052307 0.099060 0.004211
0.074554 0.099213 0.003845
0.098785 0.098999 0.004120
0.125031 0.098511 0.003906
0.152893 0.097534 0.003662
0.182190 0.095947 0.003540
0.213165 0.093475 0.003479
0.245605 0.090118 0.003143
0.279480 0.085205 0.002838
0.314453 0.078766 0.002655
0.350494 0.070038 0.002319
0.387390 0.058289 0.001862
0.424957 0.042694 0.001129
0.462891 0.024078 0.000366
0.501038 0.008270 0.000031
0.539368 0.001007 0.000000
0.577728 0.000000 0.000000
0.615936 0.000000 0.000000
0.653900 0.000000 0.000000
0.691589 0.000000 0.000000
0.729004 0.000000 0.000000
0.765991 0.000000 0.000000
0.802521 0.000000 0.000000
0.838501 0.000000 0.000000
0.873871 0.000000 0.000000
0.908600 0.000000 0.000000
0.942505 0.000000 0.000000
0.974976 0.000000 0.000000
0.999420 0.000000 0.000000
1.000000 0.000000 0.000000
1.000000 0.000000 0.000000
0.020660 0.123749 0.006042
0.038696 0.123901 0.005768
0.057617 0.124176 0.005646
0.079620 0.124359 0.005035
0.103668 0.124268 0.004944
0.129456 0.124054 0.004974
0.157349 0.123413 0.004639
0.186676 0.122223 0.004517
0.217621 0.120605 0.004425
0.250061 0.118103 0.003876
0.283752 0.114716 0.003510
0.318665 0.110229 0.003021
0.354553 0.104370 0.002441
0.391327 0.096893 0.001465
0.428711 0.087372 0.000824
0.466461 0.075317 0.000275
0.504425 0.059967 0.000000
0.542480 0.042236 0.000000
0.580566 0.023773 0.000000
0.618469 0.009186 0.000000
0.656219 0.002136 0.000000
0.693695 0.000000 0.000000
0.730835 0.000000 0.000000
0.767609 0.000000 0.000000
0.803894 0.000000 0.000000
0.839691 0.000000 0.000000
0.874878 0.000000 0.000000
0.909393 0.000000 0.000000
0.943115 0.000000 0.000000
0.975433 0.000000 0.000000
0.999451 0.000000 0.000000
1.000000 0.000000 0.000000
1.000000 0.000000 0.000000
0.025970 0.150055 0.007263
0.044922 0.150299 0.006958
0.062683 0.150665 0.006775
0.084351 0.150909 0.006134
0.108093 0.151123 0.005493
0.134338 0.151001 0.005615
0.161957 0.150696 0.005402
0.191498 0.149994 0.004944
0.222351 0.148743 0.004852
0.254700 0.147095 0.004242
0.288391 0.144806 0.003571
0.323151 0.141693 0.002869
0.358917 0.137665 0.001862
0.395416 0.132721 0.001038
0.432556 0.126678 0.000336
0.470093 0.119263 0.000092
0.507874 0.110657 0.000000
0.545715 0.100403 0.000000
0.583527 0.088013 0.000000
0.621185 0.073639 0.000000
0.658630 0.060638 0.000000
0.695831 0.047577 0.000000
0.732697 0.033844 0.000000
0.769226 0.020233 0.000000
0.805298 0.011169 0.000000
0.840851 0.008362 0.000000
0.875854 0.006317 0.000000
0.910187 0.004639 0.000000
0.943726 0.003632 0.000000
0.975830 0.003296 0.000000
0.999481 0.003601 0.000000
1.000000 0.004974 0.000000
1.000000 0.007294 0.000000
0.029755 0.178528 0.007751
0.049500 0.178741 0.007599
0.067108 0.179138 0.007263
0.088562 0.179443 0.006622
0.112579 0.179871 0.006042
0.138824 0.180054 0.005096
0.166870 0.179932 0.004852
0.196228 0.179474 0.004669
0.227264 0.178833 0.004242
0.259521 0.177856 0.003387
0.293091 0.176300 0.002808
0.327698 0.174377 0.001984
0.363220 0.171753 0.000946
0.399506 0.168549 0.000366
0.436340 0.164673 0.000122
0.473602 0.160095 0.000000
0.511108 0.154816 0.000000
0.548645 0.149078 0.000000
0.586182 0.142639 0.000000
0.623596 0.135590 0.000000
0.660828 0.127899 0.000000
0.697845 0.119415 0.000000
0.734497 0.110229 0.000000
0.770844 0.100555 0.000000
0.806671 0.092041 0.000000
0.842010 0.086823 0.000000
0.876801 0.082428 0.000000
0.910919 0.079102 0.000000
0.944275 0.077271 0.000000
0.976166 0.077026 0.000000
0.999481 0.078491 0.000000
1.000000 0.082245 0.000000
1.000000 0.088318 0.000000
0.030914 0.209503 0.007568
0.051178 0.209717 0.007080
0.069855 0.210114 0.006622
0.091461 0.210571 0.005890
0.115997 0.211029 0.005157
0.142487 0.211456 0.004272
0.170929 0.211639 0.003235
0.200592 0.211578 0.002777
0.231659 0.211334 0.002228
0.263885 0.210907 0.001740
0.297394 0.210205 0.000824
0.331940 0.209015 0.000641
0.367249 0.207581 0.000397
0.403229 0.205627 0.000061
0.439850 0.203339 0.000000
0.476807 0.200653 0.000000
0.513977 0.197540 0.000000
0.551239 0.194183 0.000000
0.588440 0.190521 0.000000
0.625610 0.186584 0.000000
0.662567 0.182526 0.000000
0.699341 0.178284 0.000000
0.735779 0.174133 0.000000
0.771942 0.169983 0.000000
0.807617 0.166138 0.000000
0.842773 0.162781 0.000000
0.877350 0.159912 0.000000
0.911285 0.157990 0.000000
0.944489 0.157135 0.000000
0.976227 0.157562 0.000000
0.999481 0.159546 0.000000
1.000000 0.163116 0.000000
1.000000 0.168640 0.000000
0.026794 0.243317 0.005402
0.048828 0.243530 0.004944
0.068939 0.243896 0.004425
0.091827 0.244446 0.003479
0.117126 0.245087 0.002655
0.144287 0.245697 0.001678
0.173309 0.246216 0.001038
0.203491 0.246582 0.000763
0.234985 0.246674 0.000610
0.267456 0.246582 0.000427
0.300995 0.246460 0.000275
0.335358 0.246002 0.000000
0.370575 0.245331 0.000000
0.406494 0.244354 0.000000
0.442871 0.243073 0.000000
0.479614 0.241608 0.000000
0.516479 0.239899 0.000000
0.553436 0.237946 0.000000
0.590424 0.235870 0.000000
0.627289 0.233643 0.000000
0.664032 0.231384 0.000000
0.700531 0.229095 0.000000
0.736755 0.226837 0.000000
0.772675 0.224762 0.000000
0.808167 0.222809 0.000000
0.843109 0.221313 0.000000
0.877502 0.220184 0.000000
0.911255 0.219696 0.000000
0.944275 0.219818 0.000000
0.975891 0.220764 0.000000
0.999481 0.222809 0.000000
1.000000 0.225800 0.000000
1.000000 0.230164 0.000000
0.015625 0.279877 0.001709
0.039581 0.280060 0.001404
0.063263 0.280365 0.001251
0.088287 0.280975 0.000946
0.115265 0.281677 0.000641
0.143890 0.282410 0.000336
0.173676 0.283173 0.000092
0.204803 0.283844 0.000000
0.236786 0.284271 0.000000
0.269867 0.284485 0.000000
0.303619 0.284607 0.000000
0.338196 0.284637 0.000000
0.373322 0.284485 0.000000
0.409088 0.284119 0.000000
0.445404 0.283569 0.000000
0.481934 0.282837 0.000000
0.518585 0.281982 0.000000
0.555298 0.280945 0.000000
0.592041 0.279816 0.000000
0.628723 0.278595 0.000000
0.665222 0.277374 0.000000
0.701538 0.276154 0.000000
0.737549 0.274963 0.000000
0.773224 0.273895 0.000000
0.808502 0.272949 0.000000
0.843292 0.272278 0.000000
0.877441 0.271942 0.000000
0.911041 0.272034 0.000000
0.943848 0.272552 0.000000
0.975342 0.273773 0.000000
0.999420 0.275757 0.000000
1.000000 0.278564 0.000000
1.000000 0.282379 0.000000
0.004028 0.318420 0.000092
0.023010 0.318604 0.000000
0.051270 0.318817 0.000000
0.080811 0.319305 0.000000
0.110809 0.320007 0.000000
0.141205 0.320862 0.000000
0.172546 0.321747 0.000000
0.204620 0.322571 0.000000
0.237488 0.323303 0.000000
0.271118 0.323792 0.000000
0.305450 0.324158 0.000000
0.340179 0.324341 0.000000
0.375427 0.324493 0.000000
0.411194 0.324493 0.000000
0.447388 0.324371 0.000000
0.483856 0.324158 0.000000
0.520325 0.323822 0.000000
0.556885 0.323364 0.000000
0.593414 0.322815 0.000000
0.629883 0.322235 0.000000
0.666229 0.321625 0.000000
0.702332 0.320953 0.000000
0.738159 0.320374 0.000000
0.773651 0.319885 0.000000
0.808746 0.319489 0.000000
0.843323 0.319275 0.000000
0.877289 0.319336 0.000000
0.910706 0.319763 0.000000
0.943298 0.320526 0.000000
0.974670 0.321869 0.000000
0.999359 0.323883 0.000000
1.000000 0.326508 0.000000
1.000000 0.329987 0.000000
0.000000 0.358063 0.000000
0.006134 0.358246 0.000000
0.032562 0.358429 0.000000
0.069672 0.358734 0.000000
0.103790 0.359375 0.000000
0.136871 0.360229 0.000000
0.170013 0.361176 0.000000
0.203400 0.362091 0.000000
0.237213 0.362976 0.000000
0.271606 0.363708 0.000000
0.306396 0.364288 0.000000
0.341614 0.364655 0.000000
0.377075 0.364868 0.000000
0.412933 0.365082 0.000000
0.449097 0.365204 0.000000
0.485443 0.365234 0.000000
0.521820 0.365234 0.000000
0.558197 0.365112 0.000000
0.594635 0.364899 0.000000
0.630890 0.364716 0.000000
0.667084 0.364441 0.000000
0.703003 0.364166 0.000000
0.738678 0.363892 0.000000
0.773956 0.363739 0.000000
0.808838 0.363647 0.000000
0.843231 0.363770 0.000000
0.877014 0.364075 0.000000
0.910217 0.364685 0.000000
0.942596 0.365631 0.000000
0.973877 0.367004 0.000000
0.999298 0.368988 0.000000
1.000000 0.371460 0.000000
1.000000 0.374664 0.000000
0.000000 0.398163 0.000000
0.000000 0.398315 0.000000
0.011688 0.398438 0.000000
0.054657 0.398651 0.000000
0.095428 0.399078 0.000000
0.131714 0.399902 0.000000
0.166870 0.400879 0.000000
0.201569 0.401855 0.000000
0.236420 0.402771 0.000000
0.271515 0.403625 0.000000
0.306946 0.404358 0.000000
0.342590 0.404907 0.000000
0.378448 0.405304 0.000000
0.414459 0.405487 0.000000
0.450623 0.405731 0.000000
0.486908 0.405884 0.000000
0.523163 0.406067 0.000000
0.559418 0.406158 0.000000
0.595673 0.406189 0.000000
0.631836 0.406128 0.000000
0.667786 0.406128 0.000000
0.703613 0.406067 0.000000
0.739075 0.406067 0.000000
0.774170 0.406128 0.000000
0.808838 0.406250 0.000000
0.843018 0.406555 0.000000
0.876617 0.407043 0.000000
0.909576 0.407776 0.000000
0.941742 0.408783 0.000000
0.972900 0.410187 0.000000
0.999237 0.412079 0.000000
1.000000 0.414459 0.000000
1.000000 0.417419 0.000000
0.000000 0.438080 0.000000
0.000000 0.438202 0.000000
0.001495 0.438324 0.000000
0.037231 0.438477 0.000000
0.086182 0.438751 0.000000
0.126434 0.439423 0.000000
0.163757 0.440369 0.000000
0.199829 0.441376 0.000000
0.235626 0.442322 0.000000
0.271423 0.443207 0.000000
0.307373 0.444000 0.000000
0.343414 0.444702 0.000000
0.379608 0.445221 0.000000
0.415894 0.445618 0.000000
0.452087 0.445770 0.000000
0.488251 0.446045 0.000000
0.524445 0.446228 0.000000
0.560577 0.446442 0.000000
0.596680 0.446594 0.000000
0.632690 0.446747 0.000000
0.668488 0.446838 0.000000
0.704102 0.446960 0.000000
0.739410 0.447113 0.000000
0.774323 0.447296 0.000000
0.808777 0.447632 0.000000
0.842712 0.448029 0.000000
0.876099 0.448608 0.000000
0.908844 0.449432 0.000000
0.940765 0.450470 0.000000
0.971832 0.451843 0.000000
0.999115 0.453644 0.000000
1.000000 0.455902 0.000000
1.000000 0.458649 0.000000
0.000000 0.477509 0.000000
0.000000 0.477661 0.000000
0.000000 0.477753 0.000000
0.021759 0.477875 0.000000
0.076660 0.478088 0.000000
0.121613 0.478607 0.000000
0.160980 0.479462 0.000000
0.198517 0.480408 0.000000
0.235168 0.481384 0.000000
0.271576 0.482300 0.000000
0.308014 0.483154 0.000000
0.344330 0.483917 0.000000
0.380737 0.484528 0.000000
0.417084 0.485016 0.000000
0.453491 0.485382 0.000000
0.489655 0.485565 0.000000
0.525696 0.485840 0.000000
0.561707 0.486023 0.000000
0.597687 0.486267 0.000000
0.633514 0.486481 0.000000
0.669159 0.486725 0.000000
0.704529 0.486938 0.000000
0.739655 0.487183 0.000000
0.774384 0.487488 0.000000
0.808624 0.487854 0.000000
0.842346 0.488373 0.000000
0.875488 0.489014 0.000000
0.907990 0.489838 0.000000
0.939636 0.490875 0.000000
0.970490 0.492218 0.000000
0.998383 0.493927 0.000000
1.000000 0.496033 0.000000
1.000000 0.498596 0.000000
0.000000 0.516541 0.000000
0.000000 0.516632 0.000000
0.000000 0.516754 0.000000
0.009644 0.516846 0.000000
0.068756 0.517029 0.000000
0.118103 0.517334 0.000000
0.159332 0.518158 0.000000
0.197876 0.519073 0.000000
0.235321 0.519989 0.000000
0.272156 0.520935 0.000000
0.308899 0.521790 0.000000
0.345459 0.522583 0.000000
0.381989 0.523254 0.000000
0.418396 0.523865 0.000000
0.454742 0.524323 0.000000
0.491028 0.524628 0.000000
0.527039 0.524811 0.000000
0.562927 0.525055 0.000000
0.598694 0.525299 0.000000
0.634399 0.525543 0.000000
0.669830 0.525818 0.000000
0.705017 0.526093 0.000000
0.739868 0.526428 0.000000
0.774384 0.526764 0.000000
0.808411 0.527191 0.000000
0.841919 0.527710 0.000000
0.874786 0.528381 0.000000
0.907043 0.529205 0.000000
0.938446 0.530243 0.000000
0.968994 0.531525 0.000000
0.996887 0.533142 0.000000
1.000000 0.535095 0.000000
1.000000 0.537445 0.000000
0.000000 0.555054 0.000000
0.000000 0.555115 0.000000
0.000000 0.555206 0.000000
0.003723 0.555328 0.000000
0.064056 0.555481 0.000000
0.116364 0.555664 0.000000
0.159180 0.556366 0.000000
0.198364 0.557281 0.000000
0.236206 0.558167 0.000000
0.273407 0.559082 0.000000
0.310272 0.559937 0.000000
0.346893 0.560760 0.000000
0.383453 0.561462 0.000000
0.419861 0.562073 0.000000
0.456207 0.562622 0.000000
0.492432 0.563019 0.000000
0.528473 0.563293 0.000000
0.564240 0.563507 0.000000
0.599884 0.563721 0.000000
0.635345 0.563934 0.000000
0.670563 0.564209 0.000000
0.705566 0.564514 0.000000
0.740204 0.564819 0.000000
0.774445 0.565216 0.000000
0.808228 0.565643 0.000000
0.841461 0.566193 0.000000
0.874084 0.566833 0.000000
0.906006 0.567627 0.000000
0.937134 0.568634 0.000000
0.967407 0.569855 0.000000
0.995148 0.571320 0.000000
1.000000 0.573151 0.000000
1.000000 0.575287 0.000000
0.000000 0.592987 0.000000
0.000000 0.593048 0.000000
0.000000 0.593109 0.000000
0.002960 0.593170 0.000000
0.064209 0.593323 0.000000
0.117096 0.593475 0.000000
0.160736 0.594055 0.000000
0.200195 0.594879 0.000000
0.238190 0.595764 0.000000
0.275452 0.596619 0.000000
0.312347 0.597443 0.000000
0.348907 0.598267 0.000000
0.385315 0.598999 0.000000
0.421661 0.599640 0.000000
0.457886 0.600220 0.000000
0.494019 0.600677 0.000000
0.529999 0.601013 0.000000
0.565704 0.601288 0.000000
0.601227 0.601440 0.000000
0.636444 0.601624 0.000000
0.671509 0.601837 0.000000
0.706207 0.602112 0.000000
0.740601 0.602417 0.000000
0.774567 0.602783 0.000000
0.808075 0.603210 0.000000
0.841034 0.603729 0.000000
0.873352 0.604340 0.000000
0.904999 0.605072 0.000000
0.935822 0.606018 0.000000
0.965790 0.607147 0.000000
0.993347 0.608521 0.000000
1.000000 0.610168 0.000000
1.000000 0.612122 0.000000
0.000000 0.630157 0.000000
0.000000 0.630219 0.000000
0.000000 0.630249 0.000000
0.007904 0.630310 0.000000
0.069183 0.630432 0.000000
0.121307 0.630554 0.000000
0.164581 0.631073 0.000000
0.203705 0.631836 0.000000
0.241516 0.632660 0.000000
0.278534 0.633484 0.000000
0.315216 0.634277 0.000000
0.351624 0.635071 0.000000
0.387848 0.635803 0.000000
0.423981 0.636444 0.000000
0.460022 0.636993 0.000000
0.496002 0.637482 0.000000
0.531830 0.637878 0.000000
0.567444 0.638153 0.000000
0.602783 0.638397 0.000000
0.637817 0.638519 0.000000
0.672577 0.638672 0.000000
0.707062 0.638855 0.000000
0.741150 0.639130 0.000000
0.774841 0.639496 0.000000
0.808044 0.639862 0.000000
0.840668 0.640320 0.000000
0.872681 0.640869 0.000000
0.904022 0.641571 0.000000
0.934509 0.642395 0.000000
0.964142 0.643433 0.000000
0.991547 0.644684 0.000000
1.000000 0.646149 0.000000
1.000000 0.647888 0.000000
0.000000 0.666534 0.000000
0.000000 0.666565 0.000000
0.000244 0.666595 0.000000
0.022766 0.666656 0.000000
0.080261 0.666748 0.000000
0.129272 0.666840 0.000000
0.170898 0.667328 0.000000
0.209229 0.668060 0.000000
0.246460 0.668823 0.000000
0.283020 0.669586 0.000000
0.319244 0.670349 0.000000
0.355316 0.671082 0.000000
0.391235 0.671783 0.000000
0.427063 0.672424 0.000000
0.462860 0.672974 0.000000
0.498535 0.673462 0.000000
0.534088 0.673859 0.000000
0.569519 0.674164 0.000000
0.604645 0.674377 0.000000
0.639526 0.674530 0.000000
0.674011 0.674652 0.000000
0.708191 0.674744 0.000000
0.742004 0.674927 0.000000
0.775330 0.675201 0.000000
0.808197 0.675537 0.000000
0.840485 0.675934 0.000000
0.872162 0.676392 0.000000
0.903107 0.677002 0.000000
0.933258 0.677765 0.000000
0.962494 0.678680 0.000000
0.989716 0.679779 0.000000
1.000000 0.681061 0.000000
1.000000 0.682587 0.000000
0.000000 0.701996 0.000000
0.000000 0.702026 0.000000
0.006104 0.702057 0.000000
0.046631 0.702087 0.000000
0.097137 0.702148 0.000000
0.141174 0.702271 0.000000
0.180176 0.702728 0.000000
0.217041 0.703400 0.000000
0.253265 0.704102 0.000000
0.289093 0.704803 0.000000
0.324646 0.705505 0.000000
0.360199 0.706207 0.000000
0.395691 0.706848 0.000000
0.431122 0.707428 0.000000
0.466522 0.707977 0.000000
0.501892 0.708435 0.000000
0.537079 0.708832 0.000000
0.572144 0.709137 0.000000
0.607025 0.709351 0.000000
0.641571 0.709534 0.000000
0.675842 0.709625 0.000000
0.709686 0.709625 0.000000
0.743134 0.709717 0.000000
0.776154 0.709900 0.000000
0.808655 0.710114 0.000000
0.840546 0.710419 0.000000
0.871826 0.710815 0.000000
0.902405 0.711334 0.000000
0.932129 0.712006 0.000000
0.960999 0.712769 0.000000
0.988007 0.713745 0.000000
1.000000 0.714844 0.000000
1.000000 0.716125 0.000000
0.000000 0.736420 0.000000
0.008514 0.736450 0.000000
0.030975 0.736450 0.000000
0.076813 0.736511 0.000000
0.118713 0.736542 0.000000
0.156708 0.736694 0.000000
0.192505 0.737183 0.000000
0.227417 0.737793 0.000000
0.262207 0.738434 0.000000
0.297089 0.739075 0.000000
0.331818 0.739716 0.000000
0.366577 0.740326 0.000000
0.401459 0.740906 0.000000
0.436340 0.741455 0.000000
0.471222 0.741943 0.000000
0.506104 0.742371 0.000000
0.540894 0.742706 0.000000
0.575500 0.743011 0.000000
0.610016 0.743195 0.000000
0.644226 0.743347 0.000000
0.678131 0.743439 0.000000
0.711670 0.743439 0.000000
0.744751 0.743439 0.000000
0.777344 0.743469 0.000000
0.809448 0.743591 0.000000
0.840942 0.743805 0.000000
0.871796 0.744110 0.000000
0.901947 0.744476 0.000000
0.931213 0.745026 0.000000
0.959686 0.745667 0.000000
0.986450 0.746460 0.000000
1.000000 0.747375 0.000000
1.000000 0.748474 0.000000
0.015778 0.769714 0.000000
0.043945 0.769714 0.000000
0.076355 0.769714 0.000000
0.109711 0.769745 0.000000
0.142853 0.769775 0.000000
0.175415 0.770050 0.000000
0.207855 0.770508 0.000000
0.240540 0.771057 0.000000
0.273651 0.771606 0.000000
0.307129 0.772186 0.000000
0.340881 0.772766 0.000000
0.374756 0.773315 0.000000
0.408783 0.773834 0.000000
0.442963 0.774323 0.000000
0.477203 0.774750 0.000000
0.511475 0.775116 0.000000
0.545685 0.775421 0.000000
0.579834 0.775665 0.000000
0.613861 0.775848 0.000000
0.647614 0.775940 0.000000
0.681091 0.776001 0.000000
0.714203 0.775940 0.000000
0.746887 0.775909 0.000000
0.779022 0.775879 0.000000
0.810699 0.775848 0.000000
0.841766 0.775909 0.000000
0.872101 0.776123 0.000000
0.901825 0.776367 0.000000
0.930664 0.776733 0.000000
0.958649 0.777252 0.000000
0.985138 0.777863 0.000000
0.999969 0.778625 0.000000
1.000000 0.779480 0.000000
0.075500 0.801697 0.000000
0.098297 0.801697 0.000000
0.118866 0.801697 0.000000
0.142853 0.801727 0.000000
0.169342 0.801849 0.000000
0.197113 0.802185 0.000000
0.226410 0.802612 0.000000
0.256622 0.803101 0.000000
0.287842 0.803589 0.000000
0.319702 0.804077 0.000000
0.352051 0.804565 0.000000
0.384827 0.805054 0.000000
0.417877 0.805511 0.000000
0.451141 0.805908 0.000000
0.484650 0.806274 0.000000
0.518219 0.806580 0.000000
0.551758 0.806824 0.000000
0.585236 0.807007 0.000000
0.618683 0.807129 0.000000
0.651917 0.807190 0.000000
0.684875 0.807190 0.000000
0.717499 0.807129 0.000000
0.749695 0.806976 0.000000
0.781403 0.806885 0.000000
0.812531 0.806732 0.000000
0.843079 0.806671 0.000000
0.872925 0.806732 0.000000
0.902100 0.806854 0.000000
0.930481 0.807098 0.000000
0.958038 0.807434 0.000000
0.984222 0.807892 0.000000
0.999939 0.808411 0.000000
1.000000 0.809082 0.000000
0.128418 0.832275 0.000000
0.143188 0.832275 0.000000
0.157715 0.832306 0.000000
0.176117 0.832428 0.000000
0.197571 0.832672 0.000000
0.221466 0.833008 0.000000
0.247833 0.833374 0.000000
0.275574 0.833771 0.000000
0.304688 0.834198 0.000000
0.334808 0.834625 0.000000
0.365570 0.835022 0.000000
0.397034 0.835419 0.000000
0.428955 0.835785 0.000000
0.461212 0.836121 0.000000
0.493713 0.836395 0.000000
0.526428 0.836639 0.000000
0.559204 0.836792 0.000000
0.592010 0.836914 0.000000
0.624725 0.836945 0.000000
0.657318 0.836975 0.000000
0.689636 0.836884 0.000000
0.721619 0.836792 0.000000
0.753296 0.836609 0.000000
0.784454 0.836395 0.000000
0.815063 0.836212 0.000000
