滤镜资源/Professional Luts Collection/Lutify.me Professional/Contemporary Color Films/Calcite Managanoan.cube
# Created by: Lutify.me
# Copyright: (c) Copyright Lutify.me 2015
# Website: https://lutify.me
#LUT size
LUT_3D_SIZE 9
#LUT data points
0.000000 0.000000 0.000000
0.028656 0.001526 0.001160
0.111176 0.002380 0.004974
0.230957 0.000000 0.014954
0.370117 0.000000 0.033325
0.517578 0.000000 0.059143
0.666138 0.000000 0.085358
0.806885 0.000000 0.111389
0.929657 0.066467 0.135834
0.003601 0.033600 0.003876
0.039429 0.038666 0.005402
0.125061 0.046234 0.009857
0.243652 0.049866 0.020416
0.380127 0.048553 0.039185
0.525421 0.046967 0.063629
0.672058 0.057068 0.088928
0.811127 0.091248 0.114227
0.932281 0.148071 0.138672
0.000000 0.133392 0.012390
0.048218 0.138031 0.015289
0.146118 0.149109 0.019012
0.265350 0.161316 0.031525
0.399170 0.173828 0.050171
0.541412 0.186646 0.072601
0.684875 0.202301 0.096649
0.820465 0.225555 0.121399
0.937927 0.261505 0.145569
0.000000 0.267731 0.024628
0.049500 0.271118 0.029388
0.168854 0.280273 0.036469
0.291260 0.293457 0.047180
0.423126 0.307495 0.067261
0.561768 0.322845 0.088898
0.700714 0.340088 0.112610
0.831268 0.361359 0.137146
0.942688 0.390167 0.161682
0.000000 0.415375 0.055176
0.073029 0.417908 0.060394
0.198273 0.424225 0.071289
0.320465 0.436859 0.076874
0.451233 0.450226 0.093140
0.585724 0.464569 0.115936
0.719086 0.480927 0.139038
0.842987 0.499908 0.162842
0.946716 0.523560 0.187073
0.057281 0.564941 0.106720
0.137238 0.566833 0.110687
0.243378 0.571350 0.120239
0.359192 0.581512 0.125885
0.484863 0.593628 0.136108
0.614075 0.605835 0.155151
0.739929 0.619232 0.178070
0.855103 0.634796 0.200256
0.949829 0.653168 0.223145
0.199768 0.703094 0.173157
0.240051 0.704407 0.176208
0.318237 0.707550 0.183624
0.417786 0.715332 0.188202
0.531372 0.724823 0.195923
0.650543 0.734528 0.209534
0.766052 0.744110 0.229034
0.869476 0.754913 0.249695
0.954468 0.767395 0.270294
0.349091 0.814270 0.250061
0.373383 0.815063 0.252380
0.426178 0.818207 0.255219
0.504211 0.823669 0.258728
0.599426 0.829956 0.265808
0.701935 0.836334 0.276703
0.801880 0.842621 0.291534
0.890045 0.849152 0.309174
0.964966 0.856873 0.327179
0.495117 0.900269 0.326813
0.510803 0.901245 0.327454
0.548065 0.903473 0.329529
0.606964 0.906830 0.333435
0.681488 0.910889 0.339874
0.763245 0.915192 0.349121
0.843018 0.919708 0.360840
0.915375 0.924622 0.374481
0.980499 0.930267 0.389832
0.002747 0.002289 0.030945
0.036743 0.004608 0.036438
0.120483 0.005768 0.046600
0.239288 0.000061 0.062286
0.376984 0.000000 0.082153
0.523315 0.000000 0.104706
0.670868 0.000000 0.128723
0.810791 0.000000 0.153198
0.932831 0.079071 0.176941
0.007660 0.041504 0.041260
0.047211 0.045898 0.045532
0.133759 0.052094 0.054352
0.251282 0.056213 0.068970
0.386658 0.055542 0.087830
0.530914 0.055389 0.109314
0.676666 0.066620 0.132721
0.814941 0.100128 0.156738
0.935364 0.155151 0.180267
0.001495 0.139587 0.059509
0.058502 0.143799 0.063446
0.154175 0.154144 0.070251
0.272491 0.165985 0.082977
0.405243 0.178162 0.099823
0.546509 0.191071 0.119965
0.689178 0.206909 0.142151
0.824066 0.230255 0.165436
0.940826 0.266235 0.188232
0.000000 0.272614 0.083557
0.064056 0.275909 0.087372
0.176849 0.284882 0.093628
0.297546 0.297577 0.103516
0.428497 0.311371 0.119812
0.566406 0.326599 0.138641
0.704651 0.343781 0.159851
0.834534 0.365112 0.182098
0.945343 0.393921 0.204559
0.000000 0.419586 0.115936
0.087952 0.422058 0.119354
0.205780 0.428375 0.127197
0.326202 0.440674 0.133270
0.456055 0.453735 0.146820
0.589844 0.468018 0.165771
0.722595 0.484253 0.185913
0.845856 0.503174 0.207062
0.949005 0.526794 0.228912
0.077209 0.568634 0.159882
0.147766 0.570435 0.162994
0.250183 0.574921 0.170593
0.364288 0.584961 0.175964
0.489044 0.596832 0.185364
0.617584 0.608887 0.201843
0.742920 0.622223 0.221771
0.857483 0.637665 0.241516
0.951752 0.656006 0.262054
0.207855 0.706207 0.216644
0.246887 0.707489 0.219269
0.323730 0.710602 0.225616
0.422058 0.718353 0.230042
0.534973 0.727661 0.237457
0.653503 0.737213 0.249786
0.768494 0.746704 0.267365
0.871399 0.757446 0.286011
0.955994 0.769867 0.304749
0.354004 0.816925 0.284607
0.377960 0.817749 0.286682
0.430176 0.820862 0.289368
0.507599 0.826233 0.292908
0.602295 0.832397 0.299713
0.704285 0.838715 0.309998
0.803772 0.844910 0.323792
0.891510 0.851440 0.340118
0.966156 0.859100 0.356873
0.498199 0.902618 0.355103
0.513855 0.903564 0.355774
0.550964 0.905762 0.357727
0.609436 0.909058 0.361603
0.683624 0.913025 0.367859
0.765045 0.917297 0.376678
0.844452 0.921753 0.387787
0.916473 0.926636 0.400757
0.981415 0.932281 0.415192
0.000732 0.011230 0.126648
0.044800 0.014587 0.130646
0.135712 0.016449 0.140961
0.255066 0.009735 0.155518
0.391052 0.000000 0.173767
0.535522 0.000000 0.194855
0.681274 0.000000 0.217529
0.819427 0.015625 0.240692
0.939636 0.106934 0.263123
0.006775 0.057800 0.135834
0.056915 0.061737 0.139496
0.148254 0.066925 0.149048
0.266113 0.071167 0.162628
0.400055 0.073059 0.180054
0.542664 0.076477 0.200226
0.686737 0.089783 0.222198
0.823364 0.121277 0.244781
0.941986 0.172760 0.266693
0.009735 0.154236 0.154663
0.073914 0.158081 0.157867
0.169434 0.166595 0.165924
0.287872 0.176910 0.177643
0.419128 0.188690 0.193298
0.558472 0.201782 0.211945
0.699005 0.218323 0.232697
0.831970 0.242188 0.254150
0.947083 0.277893 0.275055
0.002411 0.285034 0.181335
0.087372 0.288116 0.184296
0.193787 0.295044 0.191956
0.310944 0.307739 0.200806
0.441162 0.321014 0.214264
0.578033 0.335602 0.230835
0.714905 0.352417 0.249756
0.843170 0.373627 0.269714
0.952423 0.402344 0.289551
0.025879 0.430023 0.214172
0.114288 0.432404 0.216858
0.222260 0.437988 0.223663
0.338959 0.449158 0.231323
0.466705 0.462311 0.242218
0.599457 0.476318 0.257660
0.731110 0.492218 0.274780
0.853088 0.510895 0.293060
0.954773 0.534393 0.311890
0.110840 0.577423 0.253387
0.169403 0.579193 0.255768
0.264984 0.583527 0.261688
0.376190 0.592529 0.268433
0.498535 0.604279 0.276672
0.625702 0.616211 0.290253
0.749817 0.629364 0.306763
0.863159 0.644623 0.323547
0.956207 0.662811 0.341064
0.225677 0.713715 0.300568
0.262329 0.714935 0.302673
0.336182 0.717957 0.307953
0.432281 0.725189 0.312836
0.543243 0.734253 0.319855
0.660339 0.743591 0.330627
0.774109 0.752960 0.345581
0.875793 0.763580 0.361450
0.959503 0.775909 0.377502
0.365204 0.823395 0.357117
0.388519 0.824158 0.358917
0.439941 0.826843 0.361969
0.515930 0.831970 0.365753
0.609131 0.838013 0.372040
0.709808 0.844238 0.381104
0.808136 0.850403 0.393127
0.894897 0.856842 0.407257
0.968903 0.864441 0.421936
0.507141 0.907104 0.419312
0.522461 0.907990 0.420135
0.558624 0.910126 0.422150
0.616058 0.913452 0.425720
0.688904 0.917572 0.431152
0.769073 0.921997 0.438721
0.847473 0.926605 0.448303
0.918915 0.931519 0.459686
0.983490 0.937103 0.472656
0.000000 0.034760 0.255707
0.041016 0.038330 0.258759
0.152374 0.041321 0.267426
0.275391 0.036255 0.281219
0.410156 0.026703 0.297607
0.552643 0.018646 0.316742
0.696014 0.030365 0.337372
0.831573 0.077606 0.358521
0.948822 0.144958 0.378967
0.000000 0.083160 0.263153
0.059692 0.086273 0.266052
0.165070 0.090942 0.274384
0.285614 0.094666 0.287567
0.418396 0.100006 0.303375
0.559174 0.107086 0.321808
0.701019 0.122345 0.341858
0.835114 0.152039 0.362427
0.950867 0.200073 0.382385
0.011566 0.176422 0.279358
0.087128 0.179749 0.282135
0.187866 0.187073 0.289398
0.305206 0.195953 0.301910
0.435822 0.207245 0.316437
0.573792 0.220398 0.333374
0.712311 0.237457 0.352112
0.842926 0.261597 0.371552
0.955231 0.297211 0.390472
0.035004 0.304108 0.303802
0.111877 0.306915 0.306366
0.213715 0.313538 0.312592
0.329102 0.323944 0.322815
0.459015 0.335693 0.335297
0.594238 0.349609 0.350433
0.728912 0.366272 0.367493
0.854889 0.387482 0.385345
0.961975 0.415955 0.402710
0.076752 0.446625 0.334015
0.143585 0.448883 0.336273
0.243225 0.454132 0.341858
0.358002 0.462585 0.351562
0.482239 0.475983 0.361115
0.614105 0.489471 0.374115
0.744385 0.504669 0.389191
0.864410 0.522858 0.405304
0.964233 0.546112 0.421448
0.146698 0.591888 0.369110
0.196655 0.593567 0.371124
0.285431 0.597656 0.376099
0.395172 0.603973 0.385040
0.512970 0.615570 0.393280
0.637848 0.627899 0.404022
0.760529 0.640869 0.417664
0.872314 0.655792 0.431885
0.963715 0.673706 0.446716
0.249634 0.726227 0.409698
0.283783 0.727417 0.411469
0.354065 0.730255 0.415924
0.449921 0.734680 0.423950
0.556763 0.743408 0.431213
0.670746 0.753540 0.439392
0.782623 0.763031 0.451447
0.882568 0.773621 0.464569
0.964966 0.785736 0.478058
0.381592 0.834320 0.456818
0.404266 0.834991 0.458374
0.455841 0.836365 0.462738
0.530792 0.839722 0.468811
0.620605 0.845795 0.474701
0.718353 0.852661 0.481750
0.814667 0.859222 0.491119
0.899841 0.865692 0.502960
0.972839 0.873230 0.515320
0.520538 0.915344 0.510468
0.535858 0.915833 0.511780
0.571564 0.917297 0.514587
0.627045 0.920380 0.518402
0.697510 0.924683 0.523193
0.775391 0.929535 0.529266
0.852051 0.934448 0.536957
0.922424 0.939514 0.546417
0.986389 0.945038 0.557587
0.000000 0.069794 0.397705
0.035126 0.072113 0.400238
0.171234 0.075745 0.406891
0.297852 0.073608 0.420013
0.432739 0.071381 0.435303
0.572968 0.076416 0.452393
0.713440 0.093811 0.471252
0.845734 0.129944 0.490509
0.959137 0.186005 0.509033
0.000000 0.113312 0.403778
0.062317 0.115753 0.406311
0.184143 0.120575 0.412933
0.307312 0.124359 0.425629
0.440247 0.130432 0.440369
0.578888 0.141296 0.457001
0.717957 0.158508 0.475372
0.848846 0.187500 0.494110
0.960815 0.232910 0.512177
0.014832 0.203583 0.417694
0.101410 0.206421 0.420105
0.208069 0.212860 0.426331
0.326080 0.221252 0.437744
0.455841 0.231262 0.452057
0.591888 0.244873 0.467712
0.728027 0.262207 0.484894
0.855682 0.286560 0.502563
0.964386 0.322052 0.519684
0.070892 0.327850 0.439056
0.137573 0.330353 0.441254
0.236053 0.336273 0.446777
0.350586 0.345642 0.456207
0.476990 0.356049 0.469818
0.610565 0.369263 0.484100
0.743164 0.385590 0.499603
0.866455 0.406738 0.515656
0.970276 0.435272 0.531189
0.120575 0.467407 0.465973
0.175293 0.469452 0.467957
0.267761 0.474396 0.472778
0.379425 0.482605 0.480927
0.501221 0.493683 0.492096
0.631805 0.505798 0.504333
0.759491 0.520386 0.518188
0.876556 0.538391 0.532654
0.973633 0.561371 0.546661
0.184753 0.610199 0.497131
0.227997 0.611786 0.498871
0.310333 0.615631 0.503174
0.416077 0.621826 0.510590
0.532043 0.630524 0.521057
0.652863 0.643219 0.530426
0.773651 0.655731 0.542145
0.882935 0.670105 0.554749
0.971985 0.687653 0.567535
0.278992 0.742310 0.532135
0.310303 0.743439 0.533661
0.376709 0.746124 0.537506
0.469360 0.750214 0.544373
0.574585 0.756409 0.553680
0.683960 0.766510 0.561523
0.792908 0.776276 0.571381
0.890381 0.786682 0.582367
0.971039 0.798553 0.593750
0.403076 0.848358 0.571472
0.424652 0.848999 0.572845
0.474396 0.850311 0.576477
0.548004 0.852753 0.582520
0.635834 0.856934 0.590118
0.729523 0.863800 0.596832
0.822540 0.870789 0.604279
0.905457 0.877289 0.614075
0.977234 0.884705 0.624481
0.536346 0.927795 0.615448
0.551270 0.928162 0.616638
0.586426 0.929077 0.619629
0.641235 0.930847 0.624542
0.709106 0.934448 0.629974
0.783661 0.939423 0.635406
0.857544 0.944733 0.641602
0.926392 0.949951 0.649200
0.989563 0.955414 0.658661
0.000000 0.105164 0.541626
0.060089 0.106842 0.543854
0.197540 0.110443 0.549286
0.324554 0.111542 0.560669
0.458069 0.113068 0.575256
0.596252 0.121918 0.591003
0.733032 0.142609 0.607880
0.861023 0.176453 0.625244
0.969696 0.227173 0.641754
0.000000 0.145721 0.546722
0.088104 0.147858 0.548889
0.210297 0.152771 0.554260
0.333313 0.157379 0.565552
0.464935 0.163727 0.579712
0.601624 0.175507 0.595032
0.737000 0.195251 0.611481
0.863739 0.224365 0.628448
0.971008 0.268097 0.644562
0.052399 0.233398 0.558594
0.129547 0.235870 0.560699
0.234253 0.241669 0.565918
0.351685 0.249817 0.575775
0.479370 0.258759 0.589722
0.613251 0.271729 0.604370
0.745880 0.289978 0.619904
0.869568 0.314728 0.635956
0.973755 0.350159 0.651215
0.114716 0.354248 0.576904
0.170502 0.356476 0.578796
0.263855 0.361816 0.583618
0.376221 0.370300 0.592072
0.499512 0.380219 0.604797
0.629761 0.392487 0.618866
0.758759 0.408813 0.633270
0.878265 0.429810 0.647949
0.977722 0.458496 0.661865
0.167267 0.490662 0.600098
0.213013 0.492554 0.601837
0.297974 0.497162 0.606079
0.404968 0.504700 0.613556
0.523682 0.514923 0.623871
0.648773 0.525848 0.637329
0.773193 0.539795 0.650269
0.886780 0.557434 0.663239
0.980103 0.580322 0.675568
0.228699 0.630646 0.627014
0.265961 0.632111 0.628540
0.341125 0.635712 0.632324
0.441162 0.641754 0.638763
0.553528 0.650146 0.647705
0.670441 0.660675 0.658569
0.788391 0.671997 0.669525
0.893646 0.685913 0.680817
0.979736 0.703217 0.691681
0.314667 0.760254 0.656677
0.343109 0.761292 0.658020
0.404785 0.763824 0.661346
0.492493 0.767944 0.667023
0.594360 0.773712 0.675079
0.700470 0.781158 0.684998
0.804474 0.791382 0.693237
0.898743 0.801422 0.702484
0.977264 0.812897 0.712128
0.430267 0.863953 0.688873
0.450531 0.864594 0.690033
0.497406 0.865936 0.692993
0.567810 0.868317 0.698059
0.653137 0.871643 0.705170
0.743622 0.876404 0.713531
0.831421 0.883759 0.719971
0.911346 0.890411 0.727844
0.981537 0.897705 0.736389
0.556030 0.941833 0.723694
0.570312 0.942200 0.724731
0.604034 0.943054 0.727264
0.656952 0.944550 0.731567
0.723145 0.946747 0.737579
0.794128 0.950592 0.743958
0.863983 0.956085 0.749298
0.930542 0.961670 0.755188
0.992706 0.967133 0.762939
0.044312 0.138733 0.674835
0.131042 0.140228 0.676727
0.240967 0.143860 0.681366
0.360840 0.147247 0.691132
0.489532 0.151642 0.704559
0.623383 0.161835 0.719421
0.755524 0.183350 0.734528
0.877838 0.217407 0.749786
0.980652 0.265564 0.764191
0.080872 0.177887 0.679108
0.149902 0.179871 0.680969
0.252350 0.184631 0.685577
0.368896 0.190002 0.695343
0.495728 0.197144 0.708405
0.628174 0.208923 0.722839
0.759033 0.229187 0.737579
0.880127 0.259369 0.752502
0.981628 0.302216 0.766571
0.130066 0.263275 0.689117
0.183105 0.265472 0.690918
0.274841 0.270813 0.695374
0.386292 0.278473 0.703949
0.509216 0.287140 0.716705
0.638733 0.299072 0.730774
0.766815 0.317383 0.744720
0.884979 0.343018 0.758911
0.983521 0.378510 0.772217
0.178314 0.380829 0.704498
0.221802 0.382843 0.706177
0.304474 0.387726 0.710327
0.410278 0.395447 0.717865
0.528625 0.405151 0.729065
0.653687 0.416321 0.742737
0.777740 0.432404 0.755981
0.891541 0.453888 0.769073
0.985565 0.482697 0.781281
0.226868 0.514282 0.723938
0.264038 0.515991 0.725464
0.338928 0.520172 0.729218
0.438507 0.527008 0.736053
0.552032 0.536621 0.745178
0.671173 0.547089 0.757843
0.789795 0.560486 0.770264
0.897614 0.578064 0.782043
0.985931 0.600922 0.792877
0.284088 0.651245 0.746216
0.315369 0.652649 0.747589
0.381775 0.655975 0.750916
0.473938 0.661621 0.756683
0.580231 0.669495 0.764771
0.691803 0.679321 0.774780
0.802399 0.689697 0.786499
0.902374 0.703125 0.796722
0.984528 0.720123 0.806091
0.361328 0.778015 0.770355
0.386322 0.778961 0.771545
0.441803 0.781342 0.774445
0.522766 0.785278 0.779388
0.618683 0.790894 0.786316
0.719910 0.797974 0.794800
0.818176 0.806458 0.803894
0.908020 0.815613 0.812225
0.983704 0.826660 0.820251
0.466187 0.879150 0.795593
0.484772 0.879730 0.796600
0.527679 0.881073 0.799103
0.593323 0.883423 0.803375
0.673828 0.886719 0.809326
0.760101 0.890869 0.816620
0.842651 0.896240 0.824463
0.918121 0.903412 0.830536
0.986633 0.910400 0.837402
0.582062 0.955292 0.821777
0.595398 0.955627 0.822662
0.626923 0.956482 0.824799
0.676636 0.957977 0.828369
0.739197 0.960052 0.833374
0.806854 0.962860 0.839447
0.872833 0.966949 0.845734
0.935730 0.972931 0.850494
0.996704 0.978485 0.856506
0.185028 0.168060 0.782501
0.227386 0.169647 0.784149
0.308746 0.173706 0.788239
0.413177 0.177795 0.797180
0.532013 0.184052 0.809204
0.657806 0.196014 0.822693
0.782745 0.217407 0.836517
0.897675 0.251526 0.849792
0.993134 0.298492 0.862122
0.199890 0.206818 0.786133
0.239655 0.208710 0.787781
0.318115 0.213409 0.791779
0.420288 0.218628 0.800720
0.537537 0.226471 0.812439
0.662048 0.238922 0.825592
0.785797 0.258881 0.839081
0.899475 0.289673 0.852020
0.993805 0.332214 0.864075
0.228485 0.290222 0.794586
0.264343 0.292206 0.796143
0.337524 0.297119 0.800110
0.436127 0.303955 0.807953
0.549866 0.312378 0.819397
0.671539 0.324280 0.832184
0.792572 0.342072 0.845032
0.903351 0.368378 0.857269
0.994934 0.404083 0.868652
0.264954 0.404877 0.807373
0.297028 0.406708 0.808807
0.364502 0.411041 0.812653
0.458679 0.418304 0.819183
0.567993 0.427399 0.829285
0.685089 0.438416 0.841675
0.801910 0.453613 0.854126
0.908142 0.475555 0.865479
0.995514 0.504608 0.875916
0.306122 0.535522 0.823364
0.334839 0.537109 0.824707
0.396851 0.540894 0.828217
0.485321 0.547180 0.834320
0.589966 0.556244 0.842346
0.701050 0.566437 0.853638
0.811951 0.579010 0.865479
0.911957 0.596832 0.875793
0.994171 0.619812 0.885101
0.355499 0.669769 0.841461
0.380829 0.671021 0.842651
0.436737 0.674072 0.845703
0.518433 0.679291 0.850922
0.615845 0.686615 0.858185
0.719849 0.695984 0.866974
0.822144 0.705933 0.877930
0.914154 0.719269 0.887207
0.990967 0.736176 0.895386
0.422485 0.793640 0.860626
0.443512 0.794495 0.861664
0.491425 0.796722 0.864258
0.563629 0.800446 0.868652
0.651184 0.805695 0.874786
0.744751 0.812408 0.882324
0.835480 0.820343 0.890594
0.917542 0.828827 0.899170
0.989288 0.839478 0.906281
0.513763 0.892120 0.880188
0.530151 0.892639 0.881104
0.568329 0.893951 0.883301
0.627594 0.896149 0.887024
0.701263 0.899292 0.892151
0.780609 0.903381 0.898346
0.857208 0.908417 0.905029
0.927612 0.914459 0.911499
0.993835 0.920837 0.917511
0.616821 0.966583 0.900085
0.628906 0.966919 0.900848
0.657471 0.967743 0.902649
0.702759 0.969208 0.905762
0.759949 0.971283 0.909943
0.822266 0.974060 0.914978
0.884460 0.977631 0.920563
0.943848 0.982391 0.926239
1.000000 0.988281 0.931030
0.304596 0.193970 0.864044
0.332520 0.195648 0.865509
0.393036 0.199005 0.869843
0.480469 0.203064 0.878235
0.586060 0.210938 0.888916
0.700775 0.224457 0.901062
0.815704 0.246704 0.913544
0.920990 0.280792 0.925446
1.000000 0.327240 0.936249
0.314087 0.232361 0.867279
0.341187 0.234161 0.868713
0.400330 0.237701 0.873169
0.486481 0.242706 0.881348
0.590881 0.251251 0.891785
0.704437 0.264587 0.903595
0.818237 0.285217 0.915771
0.922424 0.316223 0.927399
1.000000 0.358673 0.937958
0.334259 0.313995 0.874725
0.359772 0.315857 0.876129
0.416748 0.320038 0.880035
0.500153 0.325775 0.887695
0.601715 0.334015 0.897919
0.712738 0.346222 0.909393
0.823883 0.364441 0.920990
0.925232 0.391052 0.931976
1.000000 0.426971 0.941956
0.362427 0.426178 0.885895
0.386322 0.427734 0.887329
0.440033 0.431580 0.891022
0.520416 0.438293 0.896942
0.617889 0.446716 0.906311
0.724487 0.457703 0.917480
0.831451 0.472992 0.928772
0.928345 0.494843 0.939087
1.000000 0.524139 0.948212
0.396149 0.554352 0.899902
0.417999 0.555695 0.901306
0.468231 0.559052 0.904663
0.544342 0.565033 0.909973
0.637360 0.573547 0.917358
0.738220 0.583405 0.927643
0.839233 0.595947 0.938416
0.929993 0.613373 0.947906
1.000000 0.636444 0.956055
0.437103 0.686096 0.915588
0.456970 0.687225 0.916809
0.503052 0.690033 0.919678
0.573425 0.694855 0.924408
0.660126 0.701752 0.930939
0.754089 0.710724 0.938873
0.846619 0.720642 0.948700
0.929901 0.733429 0.957520
0.999969 0.750336 0.964783
0.492523 0.807373 0.932129
0.509827 0.808228 0.933105
0.550323 0.810242 0.935455
0.612946 0.813690 0.939484
0.690704 0.818604 0.945007
0.774902 0.824951 0.951782
0.856750 0.832642 0.959076
0.931122 0.840820 0.967255
0.997864 0.851318 0.973877
0.569794 0.903442 0.948730
0.583801 0.903931 0.949524
0.616882 0.905151 0.951508
0.668945 0.907227 0.954834
0.734436 0.910187 0.959412
0.805389 0.914093 0.964874
0.874573 0.919037 0.970825
0.939392 0.924683 0.977081
1.000000 0.930756 0.983490
0.658051 0.976471 0.965515
0.668549 0.976807 0.966156
0.693756 0.977600 0.967743
0.733856 0.979004 0.970459
0.784698 0.981079 0.974152
0.840881 0.983856 0.978546
0.898193 0.987457 0.983429
0.954559 0.991913 0.988647
1.000000 0.998535 0.996033
