滤镜资源/Professional Luts Collection/Lutify.me Professional/Contemporary Color Films/Calcite Cobaltoan.cube
# Created by: Lutify.me
# Copyright: (c) Copyright Lutify.me 2015
# Website: https://lutify.me
#LUT size
LUT_3D_SIZE 9
#LUT data points
0.000000 0.000000 0.000000
0.086670 0.000000 0.000092
0.200348 0.000000 0.000824
0.337982 0.000000 0.000763
0.491058 0.000000 0.000000
0.646912 0.000000 0.000000
0.798157 0.000000 0.000000
0.940399 0.000000 0.000000
1.000000 0.000000 0.000000
0.010498 0.074677 0.003387
0.095001 0.074677 0.003052
0.209412 0.066925 0.002655
0.346832 0.032593 0.001984
0.498077 0.000000 0.000061
0.651794 0.000000 0.000000
0.801239 0.000000 0.000000
0.941925 0.000000 0.000000
1.000000 0.000000 0.000000
0.029755 0.178528 0.007751
0.112579 0.179871 0.006042
0.227264 0.178833 0.004242
0.363220 0.171753 0.000946
0.511108 0.154816 0.000000
0.660828 0.127899 0.000000
0.806671 0.092041 0.000000
0.944275 0.077271 0.000000
1.000000 0.088318 0.000000
0.004028 0.318420 0.000092
0.110809 0.320007 0.000000
0.237488 0.323303 0.000000
0.375427 0.324493 0.000000
0.520325 0.323822 0.000000
0.666229 0.321625 0.000000
0.808746 0.319489 0.000000
0.943298 0.320526 0.000000
1.000000 0.329987 0.000000
0.000000 0.477509 0.000000
0.076660 0.478088 0.000000
0.235168 0.481384 0.000000
0.380737 0.484528 0.000000
0.525696 0.485840 0.000000
0.669159 0.486725 0.000000
0.808624 0.487854 0.000000
0.939636 0.490875 0.000000
1.000000 0.498596 0.000000
0.000000 0.630157 0.000000
0.069183 0.630432 0.000000
0.241516 0.632660 0.000000
0.387848 0.635803 0.000000
0.531830 0.637878 0.000000
0.672577 0.638672 0.000000
0.808044 0.639862 0.000000
0.934509 0.642395 0.000000
1.000000 0.647888 0.000000
0.015778 0.769714 0.000000
0.142853 0.769775 0.000000
0.273651 0.771606 0.000000
0.408783 0.773834 0.000000
0.545685 0.775421 0.000000
0.681091 0.776001 0.000000
0.810699 0.775848 0.000000
0.930664 0.776733 0.000000
1.000000 0.779480 0.000000
0.212982 0.889648 0.000885
0.258698 0.890137 0.000336
0.345947 0.891083 0.000000
0.457062 0.892059 0.000000
0.578491 0.892487 0.000000
0.702209 0.892120 0.000000
0.821960 0.891083 0.000000
0.932709 0.890289 0.000000
1.000000 0.890656 0.001617
0.356720 0.991394 0.105865
0.383423 0.991547 0.104340
0.442474 0.991852 0.100922
0.527863 0.992035 0.096161
0.628571 0.991791 0.092102
0.735138 0.991119 0.091248
0.840302 0.990173 0.095673
0.940216 0.989380 0.106354
1.000000 0.989075 0.121552
0.000000 0.000000 0.088623
0.086945 0.000000 0.090302
0.202576 0.000000 0.091675
0.340881 0.000000 0.093018
0.493591 0.000000 0.094086
0.648834 0.000000 0.094604
0.799561 0.000000 0.094177
0.941315 0.000000 0.091583
1.000000 0.000000 0.085876
0.009705 0.076141 0.092529
0.096649 0.074738 0.093750
0.212341 0.066040 0.094421
0.349548 0.030518 0.095490
0.500458 0.000000 0.096039
0.653656 0.000000 0.095978
0.802612 0.000000 0.094208
0.942810 0.000000 0.089905
1.000000 0.000000 0.082947
0.032318 0.179779 0.099640
0.115601 0.179962 0.100342
0.230591 0.179108 0.099243
0.366913 0.171204 0.098572
0.513977 0.154053 0.097290
0.662750 0.127167 0.094604
0.807861 0.092010 0.089905
0.945068 0.077545 0.082672
1.000000 0.089111 0.073090
0.006134 0.319702 0.101105
0.116211 0.320435 0.101715
0.240662 0.323700 0.097778
0.378143 0.324982 0.094696
0.522736 0.324127 0.090210
0.668152 0.321716 0.084259
0.810150 0.319550 0.076691
0.944153 0.320740 0.067505
1.000000 0.330353 0.059052
0.000000 0.478424 0.090454
0.084106 0.478973 0.090973
0.238403 0.481903 0.085480
0.382904 0.484985 0.076630
0.527313 0.486206 0.072174
0.670380 0.487061 0.065582
0.809418 0.488159 0.057007
0.940094 0.491211 0.049072
1.000000 0.498993 0.044373
0.000000 0.630829 0.078949
0.076935 0.631104 0.079681
0.244232 0.633301 0.073059
0.389587 0.636261 0.060425
0.533020 0.638245 0.050446
0.673431 0.638977 0.047455
0.808594 0.640167 0.043152
0.934692 0.642700 0.038483
1.000000 0.648224 0.040131
0.023712 0.770233 0.087250
0.146942 0.770325 0.087891
0.275726 0.772095 0.079926
0.410065 0.774231 0.067902
0.546539 0.775726 0.057251
0.681641 0.776245 0.051208
0.810974 0.776093 0.054077
0.930634 0.777008 0.057770
1.000000 0.779724 0.065948
0.215332 0.890045 0.127228
0.260559 0.890503 0.124969
0.347198 0.891418 0.120209
0.457916 0.892334 0.113892
0.579041 0.892731 0.107849
0.702423 0.892303 0.104523
0.821960 0.891296 0.107300
0.932465 0.890472 0.116425
1.000000 0.890869 0.127594
0.359161 0.990845 0.186218
0.385559 0.991028 0.185394
0.444153 0.991302 0.183502
0.528839 0.991577 0.180786
0.628906 0.991547 0.178162
0.735077 0.991028 0.176971
0.839996 0.990234 0.178650
0.939758 0.989563 0.184448
1.000000 0.989258 0.193634
0.000000 0.000000 0.214081
0.076447 0.000000 0.215088
0.203064 0.000000 0.218048
0.344299 0.000000 0.220184
0.497223 0.000000 0.222626
0.651611 0.000000 0.225189
0.801392 0.000000 0.227631
0.942230 0.000000 0.229523
1.000000 0.000000 0.230591
0.000000 0.077545 0.217590
0.089203 0.075867 0.218353
0.213074 0.064545 0.221191
0.352875 0.026611 0.223114
0.503815 0.000000 0.225189
0.656189 0.000000 0.227234
0.804291 0.000000 0.229034
0.943604 0.000000 0.230164
1.000000 0.000000 0.230713
0.017639 0.181976 0.224609
0.113647 0.181854 0.225342
0.232910 0.179169 0.227295
0.370575 0.170410 0.228485
0.517212 0.153198 0.229431
0.664978 0.126923 0.230255
0.809204 0.092987 0.230621
0.945557 0.079895 0.230438
1.000000 0.092804 0.229980
0.004578 0.322510 0.231445
0.118439 0.323090 0.231934
0.244965 0.324310 0.233032
0.382538 0.325897 0.231628
0.527313 0.324341 0.230774
0.672119 0.321533 0.230072
0.813354 0.319153 0.229126
0.946594 0.320343 0.228119
1.000000 0.329926 0.227356
0.000000 0.480865 0.234497
0.091736 0.481323 0.234863
0.245514 0.482025 0.236237
0.386597 0.485504 0.233398
0.530273 0.487122 0.231659
0.673309 0.487854 0.229828
0.812134 0.488708 0.228180
0.942291 0.491547 0.226898
1.000000 0.499329 0.226807
0.000000 0.632782 0.237366
0.088165 0.632996 0.237732
0.252197 0.633240 0.239166
0.393799 0.635925 0.236572
0.535248 0.638733 0.232025
0.675079 0.639740 0.231018
0.809906 0.640961 0.229889
0.935699 0.643494 0.228943
1.000000 0.648987 0.230286
0.037415 0.771729 0.245605
0.154022 0.771729 0.246155
0.283203 0.771698 0.247437
0.414368 0.773529 0.244843
0.548492 0.775635 0.240448
0.682617 0.776672 0.237213
0.811371 0.776703 0.238190
0.930603 0.777710 0.239380
1.000000 0.780487 0.242523
0.222809 0.890228 0.267700
0.268158 0.890106 0.268127
0.353394 0.890350 0.267822
0.461609 0.891266 0.265533
0.580597 0.892151 0.262299
0.702789 0.892334 0.259674
0.821716 0.891663 0.259766
0.931732 0.890991 0.263489
1.000000 0.891418 0.268555
0.364227 0.990082 0.302643
0.390259 0.990143 0.302368
0.447601 0.990387 0.301636
0.530914 0.990784 0.299988
0.629608 0.991058 0.297882
0.734802 0.990936 0.296356
0.839111 0.990448 0.296448
0.938599 0.989929 0.299286
1.000000 0.989685 0.304901
0.000000 0.000000 0.357941
0.025848 0.000000 0.358368
0.196259 0.000000 0.361115
0.346313 0.000000 0.364319
0.500336 0.000000 0.366699
0.654022 0.000000 0.369293
0.802765 0.000000 0.371857
0.942413 0.000000 0.374115
1.000000 0.000000 0.376068
0.000000 0.078003 0.360596
0.051575 0.075378 0.361023
0.207703 0.061768 0.363708
0.355011 0.017059 0.366608
0.506775 0.000000 0.368774
0.658417 0.000000 0.371033
0.805481 0.000000 0.373169
0.943634 0.000000 0.374939
1.000000 0.000000 0.376526
0.000000 0.184235 0.365906
0.095551 0.183563 0.366455
0.230896 0.180450 0.368317
0.372131 0.170227 0.371185
0.519348 0.153046 0.372772
0.666626 0.127350 0.374146
0.809998 0.095032 0.375305
0.945282 0.084106 0.376251
1.000000 0.098938 0.377167
0.000000 0.325806 0.371887
0.111847 0.326324 0.372253
0.246490 0.327240 0.373230
0.385193 0.326843 0.375275
0.530182 0.324554 0.375763
0.674500 0.321716 0.375946
0.814819 0.319580 0.376099
0.947052 0.321167 0.376312
1.000000 0.331146 0.376617
0.000000 0.483978 0.376526
0.094818 0.484406 0.376831
0.249451 0.485107 0.377594
0.391113 0.486206 0.378998
0.533600 0.488434 0.377563
0.676666 0.488647 0.376801
0.814728 0.489166 0.376526
0.943848 0.491974 0.376526
1.000000 0.499878 0.377014
0.000000 0.635468 0.381195
0.098572 0.635681 0.381470
0.257477 0.635803 0.382477
0.399506 0.636322 0.383972
0.537903 0.639465 0.381714
0.676849 0.640869 0.380615
0.811249 0.642090 0.379883
0.936340 0.644501 0.379639
1.000000 0.650024 0.380737
0.055664 0.773987 0.388672
0.161804 0.773956 0.389038
0.288666 0.773560 0.390259
0.419983 0.773560 0.391663
0.551300 0.775574 0.389893
0.683533 0.777344 0.387115
0.811432 0.777618 0.387390
0.929901 0.778778 0.387909
1.000000 0.781555 0.389862
0.228394 0.891937 0.403839
0.273193 0.891663 0.404358
0.358734 0.891113 0.405426
0.466217 0.890869 0.406189
0.582825 0.891754 0.404694
0.703064 0.892456 0.402435
0.820892 0.892273 0.401642
0.930115 0.891724 0.403809
1.000000 0.892273 0.406860
0.368347 0.990692 0.428345
0.394440 0.990509 0.428680
0.451721 0.990173 0.429169
0.533722 0.990234 0.428925
0.630615 0.990601 0.427734
0.734131 0.990875 0.426239
0.837341 0.990814 0.425568
0.936340 0.990540 0.426880
1.000000 0.990356 0.430511
0.000000 0.000000 0.504181
0.000000 0.000000 0.504486
0.184784 0.000000 0.506256
0.347046 0.000000 0.509979
0.503784 0.000000 0.512726
0.656525 0.000000 0.514923
0.803894 0.000000 0.517273
0.941864 0.000000 0.519409
1.000000 0.000000 0.521240
0.000000 0.075073 0.506165
0.002106 0.071045 0.506470
0.198730 0.053955 0.508453
0.356018 0.006134 0.511841
0.510010 0.000000 0.514313
0.660736 0.000000 0.516296
0.806366 0.000000 0.518341
0.942932 0.000000 0.520142
1.000000 0.000000 0.521698
0.000000 0.185577 0.510071
0.059723 0.184662 0.510376
0.226532 0.180939 0.511749
0.373505 0.169647 0.515167
0.521820 0.151459 0.517395
0.668274 0.127594 0.518860
0.810455 0.098206 0.520233
0.944214 0.090027 0.521423
1.000000 0.107422 0.522522
0.000000 0.329285 0.514557
0.097809 0.329651 0.514862
0.245911 0.330017 0.515930
0.387482 0.329468 0.517914
0.531342 0.326538 0.520294
0.674866 0.323608 0.521271
0.814362 0.321655 0.521881
0.945404 0.323669 0.522369
1.000000 0.334717 0.522980
0.000000 0.487274 0.518463
0.097015 0.487579 0.518707
0.252747 0.488281 0.519348
0.395020 0.489288 0.520386
0.536316 0.489502 0.522186
0.678741 0.489105 0.522400
0.815643 0.489655 0.522461
0.943329 0.492767 0.522614
1.000000 0.500977 0.522980
0.000000 0.638367 0.522614
0.109375 0.638580 0.522827
0.262390 0.638855 0.523376
0.403778 0.639313 0.524384
0.541595 0.640106 0.525818
0.678589 0.642273 0.524445
0.812408 0.643158 0.523926
0.936218 0.645416 0.524017
1.000000 0.651001 0.524780
0.077057 0.776459 0.528381
0.171326 0.776428 0.528625
0.294037 0.776184 0.529327
0.424408 0.775848 0.530579
0.555359 0.775787 0.532074
0.684448 0.778015 0.530243
0.810944 0.778748 0.529846
0.928345 0.779999 0.529907
1.000000 0.782806 0.531067
0.235474 0.894012 0.539001
0.278992 0.893768 0.539337
0.363068 0.893158 0.540161
0.470367 0.892181 0.541473
0.586060 0.891571 0.542664
0.703430 0.892487 0.541412
0.819275 0.892944 0.539978
0.927368 0.892700 0.541168
1.000000 0.893311 0.543060
0.371826 0.992401 0.556030
0.397675 0.992126 0.556335
0.454773 0.991486 0.557098
0.536865 0.990570 0.558258
0.632233 0.990234 0.558716
0.733337 0.990692 0.557800
0.834656 0.991180 0.556641
0.932922 0.991272 0.556885
1.000000 0.991241 0.559296
0.000000 0.000000 0.646027
0.000000 0.000000 0.646271
0.178162 0.000000 0.647339
0.350739 0.000000 0.651001
0.508575 0.000000 0.654205
0.660492 0.000000 0.656342
0.805725 0.000000 0.658173
0.941315 0.000000 0.659973
1.000000 0.000000 0.661469
0.000000 0.066040 0.647491
0.000000 0.059937 0.647736
0.194580 0.037476 0.649048
0.359833 0.000488 0.652466
0.514618 0.000000 0.655426
0.664429 0.000000 0.657318
0.807953 0.000000 0.658936
0.942139 0.000000 0.660522
1.000000 0.000000 0.661774
0.000000 0.185425 0.650391
0.032104 0.184082 0.650604
0.226105 0.179779 0.651581
0.377655 0.168213 0.654694
0.525787 0.148926 0.657715
0.671295 0.125854 0.659210
0.811493 0.101471 0.660370
0.943054 0.096802 0.661499
1.000000 0.122803 0.662445
0.000000 0.332672 0.653534
0.091583 0.332825 0.653717
0.248871 0.332764 0.654755
0.392456 0.332214 0.656250
0.534821 0.328796 0.659363
0.676697 0.325958 0.660919
0.814117 0.324829 0.661804
0.943115 0.327759 0.662537
1.000000 0.340149 0.663086
0.000000 0.490601 0.656158
0.108643 0.490845 0.656342
0.259521 0.491364 0.657043
0.400574 0.492035 0.658142
0.540039 0.492340 0.659912
0.679321 0.491333 0.661987
0.814423 0.491852 0.662628
0.940369 0.495178 0.662933
1.000000 0.503998 0.663208
0.002563 0.641205 0.658905
0.130432 0.641357 0.659088
0.271973 0.641693 0.659546
0.409912 0.642212 0.660248
0.546204 0.642975 0.661285
0.680786 0.643341 0.662750
0.812958 0.643799 0.662811
0.934631 0.646240 0.662872
1.000000 0.652069 0.663116
0.109009 0.778839 0.662750
0.188110 0.778809 0.662872
0.303192 0.778717 0.663300
0.430084 0.778534 0.664032
0.559601 0.778290 0.665161
0.686707 0.778473 0.666443
0.810394 0.780029 0.665405
0.926392 0.781189 0.665222
1.000000 0.783936 0.665833
0.248169 0.895996 0.669525
0.289246 0.895782 0.669739
0.370270 0.895233 0.670197
0.475098 0.894379 0.671082
0.589691 0.893188 0.672424
0.705231 0.892426 0.673737
0.817474 0.893585 0.672394
0.924042 0.893738 0.672638
1.000000 0.894501 0.673553
0.378143 0.994202 0.680634
0.403229 0.993958 0.680878
0.459015 0.993347 0.681366
0.539764 0.992340 0.682312
0.634491 0.991058 0.683655
0.733490 0.990509 0.684540
0.831970 0.991333 0.683655
0.928833 0.992035 0.682922
1.000000 0.992157 0.684296
0.000000 0.000000 0.777710
0.000000 0.000000 0.777863
0.193420 0.000000 0.778778
0.363800 0.000000 0.782043
0.518677 0.000000 0.785156
0.667786 0.000000 0.787537
0.810059 0.000000 0.788971
0.942169 0.000000 0.790161
1.000000 0.000000 0.791138
0.000000 0.046326 0.778778
0.000793 0.037079 0.778931
0.210052 0.010590 0.780060
0.372650 0.000000 0.783142
0.524323 0.000000 0.786041
0.671387 0.000000 0.788239
0.812012 0.000000 0.789459
0.942780 0.000000 0.790527
1.000000 0.000000 0.791351
0.000000 0.183258 0.780823
0.061981 0.181671 0.780975
0.241333 0.176819 0.781830
0.389740 0.164948 0.784637
0.534698 0.146240 0.787537
0.677521 0.123077 0.789459
0.814911 0.103607 0.790314
0.943237 0.103912 0.791046
1.000000 0.139038 0.791595
0.000488 0.335632 0.782715
0.122162 0.335663 0.782867
0.265106 0.335266 0.783783
0.404480 0.334656 0.784973
0.543396 0.331635 0.787750
0.682190 0.328156 0.790070
0.816589 0.327972 0.790894
0.942200 0.332672 0.791443
1.000000 0.346710 0.791748
0.020752 0.493774 0.783936
0.146088 0.493958 0.784119
0.277893 0.494263 0.784821
0.413208 0.494720 0.785767
0.549103 0.495117 0.787079
0.684265 0.493927 0.789825
0.815735 0.494843 0.790833
0.938202 0.498871 0.791260
1.000000 0.508545 0.791382
0.077759 0.643951 0.784882
0.170776 0.644073 0.785034
0.292419 0.644379 0.785431
0.422821 0.644806 0.786102
0.554871 0.645386 0.787079
0.685425 0.645874 0.788605
0.812897 0.645966 0.790222
0.931488 0.648499 0.790558
1.000000 0.654694 0.790588
0.160950 0.780884 0.786377
0.221313 0.780884 0.786499
0.323212 0.780823 0.786774
0.442719 0.780731 0.787292
0.567535 0.780640 0.788025
0.691589 0.780762 0.788910
0.811584 0.780975 0.789917
0.924866 0.781921 0.789948
1.000000 0.784698 0.790039
0.273865 0.897552 0.789703
0.310760 0.897339 0.789825
0.385590 0.896942 0.790131
0.485321 0.896210 0.790680
0.596069 0.895203 0.791443
0.709015 0.894135 0.792511
0.817627 0.893890 0.793518
0.921509 0.894806 0.792816
1.000000 0.895538 0.792938
0.392303 0.995667 0.795715
0.416077 0.995422 0.795807
0.469116 0.994904 0.796173
0.546692 0.994019 0.796722
0.638550 0.992859 0.797607
0.735565 0.991638 0.798798
0.831421 0.991364 0.799683
0.925690 0.992676 0.798584
1.000000 0.993134 0.798920
0.000000 0.000000 0.892426
0.056976 0.000000 0.892578
0.243927 0.000000 0.893921
0.394043 0.000000 0.896606
0.539703 0.000000 0.899292
0.682495 0.000000 0.901520
0.819672 0.000000 0.902924
0.946838 0.000000 0.903534
1.000000 0.000000 0.903931
0.000061 0.013580 0.893158
0.097687 0.004822 0.893280
0.257507 0.000000 0.894836
0.401978 0.000000 0.897369
0.544830 0.000000 0.899902
0.685608 0.000000 0.901947
0.821228 0.000000 0.903168
0.947174 0.000000 0.903656
1.000000 0.000000 0.903931
0.047333 0.179138 0.894531
0.156525 0.177277 0.894714
0.283417 0.171722 0.895844
0.417023 0.159912 0.898254
0.553955 0.142487 0.900757
0.690857 0.121643 0.902557
0.823547 0.105896 0.903473
0.947144 0.114868 0.903687
1.000000 0.154480 0.903778
0.121857 0.338043 0.895325
0.193237 0.337799 0.895752
0.304626 0.337524 0.896240
0.430695 0.336639 0.897400
0.561981 0.334076 0.899750
0.694763 0.331146 0.901947
0.824402 0.330963 0.903137
0.945190 0.337708 0.903259
1.000000 0.353668 0.903168
0.151550 0.496643 0.895294
0.213440 0.496674 0.895599
0.317352 0.496887 0.896149
0.439423 0.497253 0.896820
0.567535 0.497650 0.897919
0.696381 0.496979 0.900299
0.822662 0.497559 0.901855
0.940094 0.502869 0.902008
1.000000 0.513611 0.901855
0.180389 0.646454 0.894531
0.235016 0.646545 0.894684
0.331726 0.646729 0.895050
0.448608 0.647064 0.895660
0.572601 0.647552 0.896423
0.697296 0.648285 0.897552
0.818756 0.648407 0.899658
0.932068 0.651642 0.900055
1.000000 0.658356 0.899963
0.232117 0.782684 0.893829
0.275696 0.782684 0.893921
0.359833 0.782623 0.894165
0.467285 0.782532 0.894562
0.583984 0.782471 0.895142
0.702026 0.782593 0.895966
0.816223 0.782959 0.897156
0.924194 0.783752 0.898193
1.000000 0.786682 0.898254
0.318298 0.898560 0.894440
0.349182 0.898438 0.894562
0.415039 0.898041 0.894745
0.506134 0.897400 0.895142
0.609955 0.896576 0.895630
0.717316 0.895782 0.896301
0.821808 0.895477 0.897064
0.922180 0.895569 0.897675
1.000000 0.896027 0.897644
0.419159 0.996582 0.897034
0.440704 0.996368 0.897125
0.489258 0.995941 0.897308
0.561523 0.995178 0.897675
0.648254 0.994232 0.898193
0.740875 0.993317 0.898865
0.834229 0.992676 0.899750
0.925720 0.993103 0.900299
1.000000 0.994080 0.899933
0.150757 0.000000 0.991058
0.213196 0.000000 0.991791
0.317810 0.000000 0.993408
0.441742 0.000000 0.995544
0.573212 0.000000 0.997803
0.706146 0.000000 0.999725
0.835602 0.000000 1.000000
0.956146 0.000000 1.000000
1.000000 0.000000 1.000000
0.172546 0.000000 0.991852
0.228668 0.000000 0.992584
0.327759 0.000000 0.994049
0.448334 0.000000 0.996094
0.577484 0.000000 0.998230
0.708710 0.000000 0.999908
0.836700 0.000000 1.000000
0.956177 0.000000 1.000000
1.000000 0.000000 1.000000
0.209686 0.173065 0.992828
0.256989 0.170715 0.993317
0.346710 0.164551 0.994659
0.460419 0.153442 0.996674
0.584930 0.137848 0.998749
0.712860 0.120789 1.000000
0.838226 0.111877 1.000000
0.955475 0.128235 1.000000
1.000000 0.170105 1.000000
0.237579 0.339874 0.993195
0.280243 0.339844 0.993317
0.363892 0.339630 0.993683
0.471863 0.338348 0.995026
0.591614 0.336090 0.997101
0.715698 0.334106 0.999084
0.838074 0.335083 1.000000
0.952606 0.343048 1.000000
1.000000 0.360901 1.000000
0.255249 0.499084 0.992493
0.294830 0.499146 0.992676
0.374481 0.499329 0.993073
0.479736 0.499847 0.993469
0.596039 0.500122 0.994690
0.716309 0.499908 0.996765
0.835175 0.501190 0.998383
0.946350 0.506836 0.998871
1.000000 0.518585 0.998505
0.274231 0.648651 0.990845
0.310974 0.648712 0.990997
0.386292 0.648865 0.991302
0.486969 0.649170 0.991821
0.599823 0.649750 0.992432
0.715942 0.650635 0.993439
0.829895 0.651398 0.995361
0.937103 0.654633 0.996338
1.000000 0.662018 0.996155
0.309113 0.784241 0.989197
0.341278 0.784210 0.989258
0.408997 0.784180 0.989502
0.502411 0.784088 0.989868
0.608521 0.784058 0.990417
0.718506 0.784302 0.991119
0.825958 0.785034 0.992065
0.928040 0.785858 0.993683
1.000000 0.789154 0.993927
0.373779 0.899384 0.988647
0.399109 0.899231 0.988708
0.455017 0.898895 0.988892
0.535828 0.898315 0.989227
0.630737 0.897614 0.989655
0.730560 0.897034 0.990234
0.829254 0.896912 0.990997
0.924988 0.897064 0.992096
1.000000 0.897430 0.992889
0.455231 0.997162 0.989838
0.474152 0.997009 0.989899
0.517395 0.996613 0.990082
0.583008 0.996002 0.990356
0.663086 0.995239 0.990753
0.750092 0.994568 0.991272
0.839355 0.994293 0.991852
0.928802 0.994415 0.992523
1.000000 0.998047 0.995880
