滤镜资源/Professional Luts Collection/Lutify.me Professional/Contemporary Color Films/Calcite Cobaltoan.cube
# Created by: Lutify.me
# Copyright: (c) Copyright Lutify.me 2015
# Website: https://lutify.me
#LUT size
LUT_3D_SIZE 5
#LUT data points
0.000000 0.000000 0.000000
0.200348 0.000000 0.000824
0.491058 0.000000 0.000000
0.798157 0.000000 0.000000
1.000000 0.000000 0.000000
0.029755 0.178528 0.007751
0.227264 0.178833 0.004242
0.511108 0.154816 0.000000
0.806671 0.092041 0.000000
1.000000 0.088318 0.000000
0.000000 0.477509 0.000000
0.235168 0.481384 0.000000
0.525696 0.485840 0.000000
0.808624 0.487854 0.000000
1.000000 0.498596 0.000000
0.015778 0.769714 0.000000
0.273651 0.771606 0.000000
0.545685 0.775421 0.000000
0.810699 0.775848 0.000000
1.000000 0.779480 0.000000
0.356720 0.991394 0.105865
0.442474 0.991852 0.100922
0.628571 0.991791 0.092102
0.840302 0.990173 0.095673
1.000000 0.989075 0.121552
0.000000 0.000000 0.214081
0.203064 0.000000 0.218048
0.497223 0.000000 0.222626
0.801392 0.000000 0.227631
1.000000 0.000000 0.230591
0.017639 0.181976 0.224609
0.232910 0.179169 0.227295
0.517212 0.153198 0.229431
0.809204 0.092987 0.230621
1.000000 0.092804 0.229980
0.000000 0.480865 0.234497
0.245514 0.482025 0.236237
0.530273 0.487122 0.231659
0.812134 0.488708 0.228180
1.000000 0.499329 0.226807
0.037415 0.771729 0.245605
0.283203 0.771698 0.247437
0.548492 0.775635 0.240448
0.811371 0.776703 0.238190
1.000000 0.780487 0.242523
0.364227 0.990082 0.302643
0.447601 0.990387 0.301636
0.629608 0.991058 0.297882
0.839111 0.990448 0.296448
1.000000 0.989685 0.304901
0.000000 0.000000 0.504181
0.184784 0.000000 0.506256
0.503784 0.000000 0.512726
0.803894 0.000000 0.517273
1.000000 0.000000 0.521240
0.000000 0.185577 0.510071
0.226532 0.180939 0.511749
0.521820 0.151459 0.517395
0.810455 0.098206 0.520233
1.000000 0.107422 0.522522
0.000000 0.487274 0.518463
0.252747 0.488281 0.519348
0.536316 0.489502 0.522186
0.815643 0.489655 0.522461
1.000000 0.500977 0.522980
0.077057 0.776459 0.528381
0.294037 0.776184 0.529327
0.555359 0.775787 0.532074
0.810944 0.778748 0.529846
1.000000 0.782806 0.531067
0.371826 0.992401 0.556030
0.454773 0.991486 0.557098
0.632233 0.990234 0.558716
0.834656 0.991180 0.556641
1.000000 0.991241 0.559296
0.000000 0.000000 0.777710
0.193420 0.000000 0.778778
0.518677 0.000000 0.785156
0.810059 0.000000 0.788971
1.000000 0.000000 0.791138
0.000000 0.183258 0.780823
0.241333 0.176819 0.781830
0.534698 0.146240 0.787537
0.814911 0.103607 0.790314
1.000000 0.139038 0.791595
0.020752 0.493774 0.783936
0.277893 0.494263 0.784821
0.549103 0.495117 0.787079
0.815735 0.494843 0.790833
1.000000 0.508545 0.791382
0.160950 0.780884 0.786377
0.323212 0.780823 0.786774
0.567535 0.780640 0.788025
0.811584 0.780975 0.789917
1.000000 0.784698 0.790039
0.392303 0.995667 0.795715
0.469116 0.994904 0.796173
0.638550 0.992859 0.797607
0.831421 0.991364 0.799683
1.000000 0.993134 0.798920
0.150757 0.000000 0.991058
0.317810 0.000000 0.993408
0.573212 0.000000 0.997803
0.835602 0.000000 1.000000
1.000000 0.000000 1.000000
0.209686 0.173065 0.992828
0.346710 0.164551 0.994659
0.584930 0.137848 0.998749
0.838226 0.111877 1.000000
1.000000 0.170105 1.000000
0.255249 0.499084 0.992493
0.374481 0.499329 0.993073
0.596039 0.500122 0.994690
0.835175 0.501190 0.998383
1.000000 0.518585 0.998505
0.309113 0.784241 0.989197
0.408997 0.784180 0.989502
0.608521 0.784058 0.990417
0.825958 0.785034 0.992065
1.000000 0.789154 0.993927
0.455231 0.997162 0.989838
0.517395 0.996613 0.990082
0.663086 0.995239 0.990753
0.839355 0.994293 0.991852
1.000000 0.998047 0.995880
