滤镜资源/Professional Luts Collection/Lutify.me Professional/Contemporary Color Films/Calcite Citrine.cube
# Created by: Lutify.me
# Copyright: (c) Copyright Lutify.me 2015
# Website: https://lutify.me
#LUT size
LUT_3D_SIZE 33
#LUT data points
0.000000 0.000000 0.000000
0.020599 0.000000 0.000000
0.044128 0.000000 0.000000
0.071045 0.000000 0.000000
0.099121 0.000000 0.000000
0.127991 0.000000 0.000000
0.158264 0.000000 0.000000
0.190216 0.000000 0.000000
0.224060 0.000000 0.000000
0.259399 0.000000 0.000000
0.295990 0.000000 0.000000
0.333374 0.000000 0.000000
0.371124 0.000000 0.000000
0.408966 0.000000 0.000000
0.446686 0.000000 0.000000
0.484283 0.000000 0.000000
0.521759 0.000000 0.000000
0.559052 0.000000 0.000000
0.596130 0.000000 0.000000
0.632996 0.000000 0.000000
0.669556 0.000000 0.000000
0.705841 0.000000 0.000000
0.741699 0.000000 0.000000
0.777161 0.000000 0.000000
0.812134 0.000000 0.000000
0.846558 0.000000 0.000000
0.880402 0.000000 0.000000
0.913605 0.000000 0.000000
0.946075 0.000000 0.000000
0.977142 0.000000 0.000000
0.999542 0.000000 0.000000
1.000000 0.000000 0.000000
1.000000 0.000000 0.000000
0.001160 0.018311 0.000397
0.020630 0.018677 0.000000
0.044159 0.018646 0.000000
0.071411 0.017944 0.000000
0.099365 0.017151 0.000000
0.128662 0.015625 0.000000
0.159180 0.013123 0.000000
0.191437 0.009033 0.000000
0.225189 0.004059 0.000000
0.260651 0.000763 0.000000
0.297241 0.000000 0.000000
0.334595 0.000000 0.000000
0.372192 0.000000 0.000000
0.409821 0.000000 0.000000
0.447479 0.000000 0.000000
0.485016 0.000000 0.000000
0.522369 0.000000 0.000000
0.559570 0.000000 0.000000
0.596558 0.000000 0.000000
0.633392 0.000000 0.000000
0.669891 0.000000 0.000000
0.706085 0.000000 0.000000
0.741852 0.000000 0.000000
0.777313 0.000000 0.000000
0.812286 0.000000 0.000000
0.846649 0.000000 0.000000
0.880432 0.000000 0.000000
0.913605 0.000000 0.000000
0.946075 0.000000 0.000000
0.977081 0.000000 0.000000
0.999512 0.000000 0.000000
1.000000 0.000000 0.000000
1.000000 0.000000 0.000000
0.001923 0.039368 0.000061
0.022125 0.039764 0.000031
0.045135 0.040466 0.000000
0.071899 0.040161 0.000000
0.100098 0.039703 0.000000
0.129303 0.038239 0.000000
0.160187 0.035675 0.000000
0.192444 0.032074 0.000000
0.226501 0.026794 0.000000
0.261932 0.019684 0.000000
0.298523 0.010468 0.000000
0.335724 0.002655 0.000000
0.373260 0.000153 0.000000
0.410828 0.000000 0.000000
0.448364 0.000000 0.000000
0.485779 0.000000 0.000000
0.523010 0.000000 0.000000
0.560150 0.000000 0.000000
0.597076 0.000000 0.000000
0.633789 0.000000 0.000000
0.670227 0.000000 0.000000
0.706329 0.000000 0.000000
0.742096 0.000000 0.000000
0.777466 0.000000 0.000000
0.812347 0.000000 0.000000
0.846741 0.000000 0.000000
0.880493 0.000000 0.000000
0.913666 0.000000 0.000000
0.946106 0.000000 0.000000
0.977051 0.000000 0.000000
0.999512 0.000000 0.000000
1.000000 0.000000 0.000000
1.000000 0.000000 0.000000
0.003387 0.065033 0.000671
0.023560 0.065582 0.000000
0.046234 0.066376 0.000000
0.072449 0.066650 0.000000
0.100677 0.066406 0.000000
0.130280 0.065613 0.000000
0.161133 0.064453 0.000000
0.193726 0.062164 0.000000
0.227905 0.058289 0.000000
0.263519 0.052856 0.000000
0.300140 0.045410 0.000000
0.337280 0.035400 0.000000
0.374664 0.023804 0.000000
0.412109 0.011353 0.000000
0.449463 0.003235 0.000000
0.486755 0.000458 0.000000
0.523865 0.000000 0.000000
0.560852 0.000000 0.000000
0.597687 0.000000 0.000000
0.634308 0.000000 0.000000
0.670654 0.000000 0.000000
0.706726 0.000000 0.000000
0.742371 0.000000 0.000000
0.777710 0.000000 0.000000
0.812531 0.000000 0.000000
0.846832 0.000000 0.000000
0.880554 0.000000 0.000000
0.913635 0.000000 0.000000
0.946014 0.000000 0.000000
0.976929 0.000000 0.000000
0.999512 0.000000 0.000000
1.000000 0.000000 0.000000
1.000000 0.000000 0.000000
0.002594 0.092926 0.000092
0.023407 0.093353 0.000031
0.046692 0.093781 0.000000
0.073425 0.094391 0.000000
0.101746 0.094452 0.000000
0.131226 0.094360 0.000000
0.162598 0.093475 0.000000
0.195251 0.092346 0.000000
0.229645 0.090179 0.000000
0.265198 0.086914 0.000000
0.301788 0.082367 0.000000
0.338776 0.076477 0.000000
0.376007 0.069214 0.000000
0.413300 0.060486 0.000000
0.450592 0.049927 0.000000
0.487732 0.038818 0.000000
0.524750 0.026733 0.000000
0.561646 0.013947 0.000000
0.598389 0.005280 0.000000
0.634949 0.002106 0.000000
0.671143 0.000702 0.000000
0.707123 0.000000 0.000000
0.742737 0.000000 0.000000
0.777954 0.000000 0.000000
0.812714 0.000000 0.000000
0.846924 0.000000 0.000000
0.880585 0.000000 0.000000
0.913635 0.000000 0.000000
0.945923 0.000000 0.000000
0.976837 0.000000 0.000000
0.999512 0.000000 0.000000
1.000000 0.000000 0.000000
1.000000 0.000000 0.000000
0.001556 0.121826 0.000000
0.022186 0.122162 0.000000
0.046783 0.122772 0.000000
0.073639 0.123535 0.000000
0.102234 0.124268 0.000000
0.132385 0.124268 0.000000
0.164001 0.124023 0.000000
0.196899 0.123474 0.000000
0.231415 0.122192 0.000000
0.267090 0.120209 0.000000
0.303497 0.117615 0.000000
0.340302 0.114258 0.000000
0.377289 0.110077 0.000000
0.414398 0.105225 0.000000
0.451508 0.099579 0.000000
0.488525 0.092987 0.000000
0.525391 0.085510 0.000000
0.562164 0.077148 0.000000
0.598846 0.067963 0.000000
0.635284 0.059723 0.000000
0.671478 0.051147 0.000000
0.707367 0.041626 0.000000
0.742920 0.031799 0.000000
0.778107 0.022003 0.000000
0.812805 0.013214 0.000000
0.846985 0.007690 0.000000
0.880554 0.006500 0.000000
0.913544 0.005859 0.000000
0.945770 0.005554 0.000000
0.976624 0.005768 0.000000
0.999481 0.006378 0.000000
1.000000 0.007660 0.000000
1.000000 0.013580 0.000000
0.000244 0.152924 0.000000
0.018829 0.153259 0.000000
0.043945 0.153870 0.000000
0.072479 0.154755 0.000000
0.102020 0.155609 0.000000
0.132935 0.156158 0.000000
0.165253 0.156128 0.000000
0.198486 0.156067 0.000000
0.233093 0.155579 0.000000
0.268799 0.154510 0.000000
0.305084 0.152954 0.000000
0.341736 0.151001 0.000000
0.378571 0.148590 0.000000
0.415436 0.145660 0.000000
0.452332 0.142395 0.000000
0.489197 0.138672 0.000000
0.525940 0.134552 0.000000
0.562592 0.130127 0.000000
0.599121 0.125153 0.000000
0.635437 0.119812 0.000000
0.671539 0.114258 0.000000
0.707367 0.108307 0.000000
0.742828 0.102112 0.000000
0.777924 0.095886 0.000000
0.812561 0.089966 0.000000
0.846649 0.084991 0.000000
0.880188 0.082001 0.000000
0.913055 0.080078 0.000000
0.945190 0.079407 0.000000
0.976044 0.080078 0.000000
0.999451 0.082458 0.000000
1.000000 0.086884 0.000000
1.000000 0.093719 0.000000
0.000000 0.185944 0.000000
0.011475 0.186188 0.000000
0.037537 0.186676 0.000000
0.069336 0.187500 0.000000
0.100433 0.188568 0.000000
0.132782 0.189453 0.000000
0.165924 0.189941 0.000000
0.200012 0.190002 0.000000
0.234772 0.189789 0.000000
0.270355 0.189453 0.000000
0.306641 0.188660 0.000000
0.343140 0.187500 0.000000
0.379761 0.186066 0.000000
0.416473 0.184357 0.000000
0.453156 0.182404 0.000000
0.489807 0.180115 0.000000
0.526398 0.177612 0.000000
0.562927 0.174835 0.000000
0.599335 0.171814 0.000000
0.635559 0.168640 0.000000
0.671539 0.165344 0.000000
0.707275 0.161926 0.000000
0.742615 0.158600 0.000000
0.777618 0.155273 0.000000
0.812134 0.152222 0.000000
0.846161 0.149536 0.000000
0.879608 0.147522 0.000000
0.912415 0.146149 0.000000
0.944458 0.145874 0.000000
0.975281 0.146881 0.000000
0.999390 0.148987 0.000000
1.000000 0.152893 0.000000
1.000000 0.158112 0.000000
0.000000 0.220520 0.000000
0.002319 0.220673 0.000000
0.028107 0.220978 0.000000
0.063721 0.221802 0.000000
0.097626 0.222900 0.000000
0.131622 0.223846 0.000000
0.165802 0.224731 0.000000
0.200714 0.225159 0.000000
0.236084 0.225098 0.000000
0.271881 0.224945 0.000000
0.307983 0.224670 0.000000
0.344330 0.224152 0.000000
0.380768 0.223328 0.000000
0.417297 0.222351 0.000000
0.453888 0.221100 0.000000
0.490417 0.219696 0.000000
0.526855 0.218048 0.000000
0.563232 0.216217 0.000000
0.599518 0.214203 0.000000
0.635651 0.212067 0.000000
0.671509 0.209900 0.000000
0.707123 0.207642 0.000000
0.742371 0.205475 0.000000
0.777283 0.203339 0.000000
0.811707 0.201508 0.000000
0.845612 0.199951 0.000000
0.878937 0.198883 0.000000
0.911621 0.198303 0.000000
0.943573 0.198486 0.000000
0.974396 0.199524 0.000000
0.999329 0.201385 0.000000
1.000000 0.204498 0.000000
1.000000 0.208588 0.000000
0.000000 0.256073 0.000000
0.000031 0.256317 0.000000
0.016388 0.256531 0.000000
0.056396 0.257141 0.000000
0.094269 0.258087 0.000000
0.130035 0.259094 0.000000
0.165588 0.260040 0.000000
0.201172 0.260773 0.000000
0.237091 0.261108 0.000000
0.273041 0.261108 0.000000
0.309235 0.261017 0.000000
0.345398 0.260742 0.000000
0.381714 0.260376 0.000000
0.418060 0.259796 0.000000
0.454559 0.259003 0.000000
0.490967 0.258118 0.000000
0.527283 0.257019 0.000000
0.563568 0.255768 0.000000
0.599701 0.254425 0.000000
0.635712 0.252960 0.000000
0.671448 0.251465 0.000000
0.706940 0.249939 0.000000
0.742096 0.248474 0.000000
0.776886 0.247040 0.000000
0.811188 0.245819 0.000000
0.844971 0.244934 0.000000
0.878174 0.244354 0.000000
0.910736 0.244232 0.000000
0.942566 0.244659 0.000000
0.973419 0.245697 0.000000
0.999268 0.247498 0.000000
1.000000 0.250183 0.000000
1.000000 0.253723 0.000000
0.000000 0.292084 0.000000
0.000000 0.292236 0.000000
0.005615 0.292419 0.000000
0.048767 0.292816 0.000000
0.090515 0.293701 0.000000
0.128418 0.294769 0.000000
0.165161 0.295715 0.000000
0.201508 0.296539 0.000000
0.237854 0.297119 0.000000
0.274170 0.297424 0.000000
0.310364 0.297394 0.000000
0.346527 0.297272 0.000000
0.382690 0.297058 0.000000
0.418945 0.296814 0.000000
0.455231 0.296387 0.000000
0.491547 0.295776 0.000000
0.527679 0.295135 0.000000
0.563843 0.294250 0.000000
0.599884 0.293335 0.000000
0.635742 0.292328 0.000000
0.671356 0.291290 0.000000
0.706726 0.290253 0.000000
0.741730 0.289276 0.000000
0.776398 0.288361 0.000000
0.810577 0.287567 0.000000
0.844238 0.287018 0.000000
0.877319 0.286804 0.000000
0.909760 0.286957 0.000000
0.941467 0.287476 0.000000
0.972290 0.288605 0.000000
0.999176 0.290344 0.000000
1.000000 0.292755 0.000000
1.000000 0.295868 0.000000
0.000000 0.328094 0.000000
0.000000 0.328247 0.000000
0.001282 0.328369 0.000000
0.041321 0.328644 0.000000
0.087280 0.329437 0.000000
0.127228 0.330444 0.000000
0.164917 0.331451 0.000000
0.201965 0.332306 0.000000
0.238586 0.332977 0.000000
0.275116 0.333496 0.000000
0.311493 0.333740 0.000000
0.347626 0.333649 0.000000
0.383698 0.333618 0.000000
0.419769 0.333466 0.000000
0.455933 0.333282 0.000000
0.492096 0.332947 0.000000
0.528168 0.332520 0.000000
0.564117 0.332031 0.000000
0.600037 0.331360 0.000000
0.635742 0.330719 0.000000
0.671234 0.330017 0.000000
0.706482 0.329315 0.000000
0.741333 0.328644 0.000000
0.775848 0.328125 0.000000
0.809875 0.327667 0.000000
0.843414 0.327362 0.000000
0.876312 0.327362 0.000000
0.908630 0.327698 0.000000
0.940186 0.328308 0.000000
0.970947 0.329437 0.000000
0.998779 0.331116 0.000000
1.000000 0.333313 0.000000
1.000000 0.336151 0.000000
0.000000 0.364136 0.000000
0.000000 0.364227 0.000000
0.000458 0.364349 0.000000
0.035980 0.364532 0.000000
0.085022 0.365204 0.000000
0.126648 0.366150 0.000000
0.165314 0.367157 0.000000
0.202606 0.368073 0.000000
0.239441 0.368866 0.000000
0.275970 0.369476 0.000000
0.312469 0.369904 0.000000
0.348694 0.370056 0.000000
0.384674 0.370026 0.000000
0.420624 0.369995 0.000000
0.456665 0.369873 0.000000
0.492676 0.369751 0.000000
0.528595 0.369507 0.000000
0.564453 0.369232 0.000000
0.600159 0.368866 0.000000
0.635742 0.368439 0.000000
0.671082 0.367981 0.000000
0.706177 0.367554 0.000000
0.740906 0.367096 0.000000
0.775238 0.366791 0.000000
0.809113 0.366577 0.000000
0.842468 0.366486 0.000000
0.875214 0.366669 0.000000
0.907379 0.367096 0.000000
0.938782 0.367798 0.000000
0.969360 0.368927 0.000000
0.997528 0.370544 0.000000
1.000000 0.372589 0.000000
1.000000 0.375214 0.000000
0.000000 0.400085 0.000000
0.000000 0.400177 0.000000
0.000214 0.400238 0.000000
0.033203 0.400391 0.000000
0.083740 0.401031 0.000000
0.126648 0.401886 0.000000
0.165894 0.402863 0.000000
0.203430 0.403778 0.000000
0.240387 0.404663 0.000000
0.276947 0.405396 0.000000
0.313263 0.405945 0.000000
0.349609 0.406250 0.000000
0.385681 0.406433 0.000000
0.421539 0.406433 0.000000
0.457458 0.406342 0.000000
0.493286 0.406311 0.000000
0.529053 0.406219 0.000000
0.564728 0.406067 0.000000
0.600342 0.405853 0.000000
0.635712 0.405670 0.000000
0.670929 0.405396 0.000000
0.705811 0.405121 0.000000
0.740387 0.404877 0.000000
0.774536 0.404724 0.000000
0.808258 0.404694 0.000000
0.841431 0.404755 0.000000
0.874023 0.405029 0.000000
0.906006 0.405548 0.000000
0.937225 0.406311 0.000000
0.967651 0.407410 0.000000
0.995758 0.408936 0.000000
1.000000 0.410828 0.000000
1.000000 0.413239 0.000000
0.000000 0.436035 0.000000
0.000000 0.436096 0.000000
0.000122 0.436157 0.000000
0.031891 0.436279 0.000000
0.083740 0.436798 0.000000
0.127289 0.437622 0.000000
0.166656 0.438538 0.000000
0.204376 0.439484 0.000000
0.241302 0.440338 0.000000
0.277893 0.441132 0.000000
0.314209 0.441803 0.000000
0.350403 0.442291 0.000000
0.386536 0.442596 0.000000
0.422485 0.442749 0.000000
0.458282 0.442719 0.000000
0.494019 0.442627 0.000000
0.529572 0.442627 0.000000
0.565063 0.442596 0.000000
0.600494 0.442505 0.000000
0.635712 0.442413 0.000000
0.670715 0.442322 0.000000
0.705444 0.442200 0.000000
0.739807 0.442108 0.000000
0.773804 0.442078 0.000000
0.807312 0.442139 0.000000
0.840332 0.442322 0.000000
0.872742 0.442627 0.000000
0.904541 0.443207 0.000000
0.935547 0.444000 0.000000
0.965790 0.445099 0.000000
0.993896 0.446533 0.000000
1.000000 0.448303 0.000000
1.000000 0.450470 0.000000
0.000000 0.471832 0.000000
0.000000 0.471893 0.000000
0.000153 0.471954 0.000000
0.032410 0.472046 0.000000
0.084625 0.472443 0.000000
0.128357 0.473236 0.000000
0.167938 0.474121 0.000000
0.205566 0.475037 0.000000
0.242462 0.475891 0.000000
0.278961 0.476715 0.000000
0.315216 0.477478 0.000000
0.351318 0.478027 0.000000
0.387390 0.478485 0.000000
0.423309 0.478790 0.000000
0.459167 0.478851 0.000000
0.494720 0.478851 0.000000
0.530151 0.478790 0.000000
0.565460 0.478790 0.000000
0.600677 0.478790 0.000000
0.635742 0.478760 0.000000
0.670532 0.478760 0.000000
0.705048 0.478760 0.000000
0.739258 0.478760 0.000000
0.773071 0.478790 0.000000
0.806366 0.478973 0.000000
0.839142 0.479218 0.000000
0.871368 0.479614 0.000000
0.902924 0.480194 0.000000
0.933746 0.480988 0.000000
0.963806 0.482056 0.000000
0.991913 0.483398 0.000000
1.000000 0.485046 0.000000
1.000000 0.487030 0.000000
0.000000 0.507355 0.000000
0.000000 0.507416 0.000000
0.000366 0.507477 0.000000
0.035034 0.507538 0.000000
0.086670 0.507904 0.000000
0.130188 0.508636 0.000000
0.169525 0.509521 0.000000
0.207245 0.510376 0.000000
0.243927 0.511230 0.000000
0.280273 0.512054 0.000000
0.316467 0.512817 0.000000
0.352448 0.513489 0.000000
0.388397 0.513977 0.000000
0.424164 0.514404 0.000000
0.459961 0.514648 0.000000
0.495514 0.514709 0.000000
0.530792 0.514679 0.000000
0.565948 0.514648 0.000000
0.600952 0.514648 0.000000
0.635803 0.514679 0.000000
0.670380 0.514740 0.000000
0.704712 0.514771 0.000000
0.738678 0.514862 0.000000
0.772278 0.514954 0.000000
0.805359 0.515167 0.000000
0.837921 0.515472 0.000000
0.869904 0.515900 0.000000
0.901245 0.516510 0.000000
0.931854 0.517303 0.000000
0.961700 0.518311 0.000000
0.989777 0.519592 0.000000
1.000000 0.521057 0.000000
1.000000 0.522888 0.000000
0.000000 0.542664 0.000000
0.000000 0.542694 0.000000
0.000732 0.542755 0.000000
0.039825 0.542816 0.000000
0.090210 0.543152 0.000000
0.133057 0.543823 0.000000
0.171967 0.544678 0.000000
0.209381 0.545502 0.000000
0.245911 0.546326 0.000000
0.282013 0.547150 0.000000
0.317993 0.547913 0.000000
0.353821 0.548584 0.000000
0.389587 0.549164 0.000000
0.425262 0.549622 0.000000
0.460815 0.549988 0.000000
0.496338 0.550171 0.000000
0.531555 0.550201 0.000000
0.566528 0.550171 0.000000
0.601318 0.550171 0.000000
0.635956 0.550201 0.000000
0.670319 0.550262 0.000000
0.704376 0.550354 0.000000
0.738129 0.550476 0.000000
0.771484 0.550598 0.000000
0.804352 0.550842 0.000000
0.836670 0.551147 0.000000
0.868439 0.551575 0.000000
0.899536 0.552185 0.000000
0.929871 0.552948 0.000000
0.959534 0.553894 0.000000
0.987610 0.555115 0.000000
1.000000 0.556458 0.000000
1.000000 0.558105 0.000000
0.000000 0.577667 0.000000
0.000000 0.577698 0.000000
0.001373 0.577728 0.000000
0.047577 0.577789 0.000000
0.095581 0.578094 0.000000
0.137146 0.578735 0.000000
0.175354 0.579498 0.000000
0.212280 0.580292 0.000000
0.248474 0.581116 0.000000
0.284302 0.581909 0.000000
0.319977 0.582672 0.000000
0.355530 0.583374 0.000000
0.391083 0.583984 0.000000
0.426544 0.584503 0.000000
0.461975 0.584900 0.000000
0.497253 0.585175 0.000000
0.532379 0.585327 0.000000
0.567291 0.585327 0.000000
0.601898 0.585327 0.000000
0.636230 0.585297 0.000000
0.670380 0.585327 0.000000
0.704193 0.585419 0.000000
0.737671 0.585541 0.000000
0.770752 0.585693 0.000000
0.803375 0.585938 0.000000
0.835480 0.586273 0.000000
0.866943 0.586700 0.000000
0.897797 0.587250 0.000000
0.927887 0.587982 0.000000
0.957306 0.588867 0.000000
0.985382 0.589935 0.000000
1.000000 0.591187 0.000000
1.000000 0.592651 0.000000
0.000000 0.612244 0.000000
0.000000 0.612274 0.000000
0.008087 0.612305 0.000000
0.058044 0.612335 0.000000
0.103271 0.612640 0.000000
0.142792 0.613251 0.000000
0.180023 0.613953 0.000000
0.216125 0.614716 0.000000
0.251801 0.615509 0.000000
0.287231 0.616272 0.000000
0.322601 0.617004 0.000000
0.357819 0.617706 0.000000
0.393036 0.618317 0.000000
0.428223 0.618866 0.000000
0.463379 0.619293 0.000000
0.498505 0.619598 0.000000
0.533417 0.619843 0.000000
0.568115 0.619965 0.000000
0.602600 0.619965 0.000000
0.636719 0.619904 0.000000
0.670593 0.619904 0.000000
0.704163 0.619934 0.000000
0.737366 0.620056 0.000000
0.770142 0.620209 0.000000
0.802460 0.620422 0.000000
0.834259 0.620728 0.000000
0.865479 0.621124 0.000000
0.896057 0.621643 0.000000
0.925903 0.622314 0.000000
0.955109 0.623138 0.000000
0.983154 0.624054 0.000000
0.999939 0.625183 0.000000
1.000000 0.626465 0.000000
0.000000 0.646271 0.000000
0.001556 0.646301 0.000000
0.025909 0.646332 0.000000
0.072266 0.646362 0.000000
0.113190 0.646698 0.000000
0.150330 0.647247 0.000000
0.186218 0.647919 0.000000
0.221344 0.648651 0.000000
0.256256 0.649384 0.000000
0.291107 0.650085 0.000000
0.325958 0.650787 0.000000
0.360809 0.651489 0.000000
0.395630 0.652100 0.000000
0.430450 0.652649 0.000000
0.465302 0.653107 0.000000
0.500092 0.653473 0.000000
0.534790 0.653717 0.000000
0.569244 0.653870 0.000000
0.603485 0.653992 0.000000
0.637421 0.653961 0.000000
0.671021 0.653870 0.000000
0.704285 0.653870 0.000000
0.737183 0.653900 0.000000
0.769684 0.654022 0.000000
0.801697 0.654205 0.000000
0.833191 0.654480 0.000000
0.864075 0.654816 0.000000
0.894348 0.655304 0.000000
0.923950 0.655884 0.000000
0.952972 0.656616 0.000000
0.980957 0.657440 0.000000
0.999847 0.658417 0.000000
1.000000 0.659546 0.000000
0.001190 0.679718 0.000000
0.015167 0.679688 0.000000
0.050476 0.679718 0.000000
0.089905 0.679779 0.000000
0.125610 0.680145 0.000000
0.159912 0.680695 0.000000
0.194092 0.681305 0.000000
0.227997 0.681946 0.000000
0.262024 0.682648 0.000000
0.296112 0.683350 0.000000
0.330322 0.684021 0.000000
0.364624 0.684662 0.000000
0.398987 0.685272 0.000000
0.433380 0.685791 0.000000
0.467834 0.686249 0.000000
0.502228 0.686615 0.000000
0.536530 0.686920 0.000000
0.570709 0.687134 0.000000
0.604675 0.687225 0.000000
0.638397 0.687256 0.000000
0.671753 0.687225 0.000000
0.704712 0.687103 0.000000
0.737305 0.687073 0.000000
0.769470 0.687134 0.000000
0.801147 0.687256 0.000000
0.832275 0.687469 0.000000
0.862823 0.687775 0.000000
0.892792 0.688171 0.000000
0.922119 0.688660 0.000000
0.950897 0.689270 0.000000
0.978851 0.690002 0.000000
0.999786 0.690826 0.000000
1.000000 0.691742 0.000000
0.016876 0.712402 0.000000
0.047638 0.712402 0.000000
0.078308 0.712433 0.000000
0.109467 0.712555 0.000000
0.140381 0.712921 0.000000
0.171814 0.713440 0.000000
0.204010 0.714020 0.000000
0.236450 0.714600 0.000000
0.269348 0.715240 0.000000
0.302521 0.715881 0.000000
0.335846 0.716522 0.000000
0.369507 0.717133 0.000000
0.403290 0.717682 0.000000
0.437164 0.718201 0.000000
0.471130 0.718658 0.000000
0.505066 0.719025 0.000000
0.538940 0.719330 0.000000
0.572754 0.719513 0.000000
0.606354 0.719635 0.000000
0.639709 0.719727 0.000000
0.672760 0.719666 0.000000
0.705505 0.719574 0.000000
0.737732 0.719452 0.000000
0.769501 0.719452 0.000000
0.800842 0.719452 0.000000
0.831635 0.719604 0.000000
0.861786 0.719849 0.000000
0.891449 0.720154 0.000000
0.920502 0.720551 0.000000
0.949036 0.721069 0.000000
0.976868 0.721680 0.000000
0.999725 0.722351 0.000000
1.000000 0.723083 0.000000
0.058807 0.744293 0.000000
0.083954 0.744293 0.000000
0.106171 0.744354 0.000000
0.130890 0.744568 0.000000
0.157654 0.744965 0.000000
0.186157 0.745422 0.000000
0.216064 0.745941 0.000000
0.246857 0.746490 0.000000
0.278381 0.747070 0.000000
0.310486 0.747650 0.000000
0.342896 0.748230 0.000000
0.375641 0.748779 0.000000
0.408722 0.749298 0.000000
0.441956 0.749786 0.000000
0.475311 0.750214 0.000000
0.508698 0.750580 0.000000
0.542114 0.750854 0.000000
0.575439 0.751038 0.000000
0.608673 0.751160 0.000000
0.641602 0.751221 0.000000
0.674225 0.751221 0.000000
0.706573 0.751129 0.000000
0.738525 0.751007 0.000000
0.769928 0.750854 0.000000
0.800812 0.750854 0.000000
0.831238 0.750854 0.000000
0.861053 0.751038 0.000000
0.890381 0.751221 0.000000
0.919159 0.751526 0.000000
0.947418 0.751923 0.000000
0.975189 0.752380 0.000000
0.999664 0.752930 0.000000
1.000000 0.753510 0.000000
0.099884 0.775269 0.000000
0.116730 0.775330 0.000000
0.133423 0.775482 0.000000
0.153748 0.775726 0.000000
0.176971 0.776062 0.000000
0.202789 0.776459 0.000000
0.230377 0.776947 0.000000
0.259308 0.777435 0.000000
0.289276 0.777954 0.000000
0.320068 0.778473 0.000000
0.351501 0.778992 0.000000
0.383270 0.779510 0.000000
0.415466 0.779999 0.000000
0.447937 0.780426 0.000000
0.480591 0.780823 0.000000
0.513367 0.781128 0.000000
0.546143 0.781403 0.000000
0.578888 0.781586 0.000000
0.611603 0.781708 0.000000
0.644073 0.781799 0.000000
0.676300 0.781769 0.000000
0.708160 0.781677 0.000000
0.739685 0.781555 0.000000
0.770721 0.781433 0.000000
0.801239 0.781250 0.000000
0.831177 0.781189 0.000000
0.860626 0.781250 0.000000
0.889618 0.781372 0.000000
0.918091 0.781555 0.000000
0.946106 0.781860 0.000000
0.973724 0.782196 0.000000
0.999481 0.782623 0.000000
1.000000 0.783081 0.000000
0.135162 0.805389 0.000000
0.147827 0.805542 0.000000
0.161194 0.805695 0.000000
0.178162 0.805939 0.000000
0.198517 0.806213 0.000000
0.221649 0.806580 0.000000
0.247009 0.806976 0.000000
0.273865 0.807434 0.000000
0.302246 0.807892 0.000000
0.331573 0.808380 0.000000
0.361694 0.808868 0.000000
0.392395 0.809296 0.000000
0.423553 0.809723 0.000000
0.455139 0.810150 0.000000
0.487030 0.810486 0.000000
0.519073 0.810760 0.000000
0.551178 0.811005 0.000000
0.583252 0.811157 0.000000
0.615326 0.811279 0.000000
0.647247 0.811340 0.000000
0.678925 0.811340 0.000000
0.710327 0.811249 0.000000
0.741333 0.811127 0.000000
0.771912 0.811005 0.000000
0.801971 0.810822 0.000000
0.831512 0.810669 0.000000
0.860565 0.810638 0.000000
0.889191 0.810669 0.000000
0.917328 0.810791 0.000000
0.945068 0.811005 0.000000
0.972443 0.811249 0.000000
0.998718 0.811554 0.000000
1.000000 0.811920 0.000000
0.167603 0.834747 0.000000
0.177887 0.834869 0.000000
0.188965 0.834991 0.000000
0.203552 0.835205 0.000000
0.221405 0.835480 0.000000
0.242188 0.835785 0.000000
0.265411 0.836151 0.000000
0.290314 0.836548 0.000000
0.316925 0.836945 0.000000
0.344696 0.837372 0.000000
0.373413 0.837799 0.000000
0.402893 0.838196 0.000000
0.432983 0.838593 0.000000
0.463562 0.838959 0.000000
0.494537 0.839264 0.000000
0.525726 0.839508 0.000000
0.557037 0.839722 0.000000
0.588440 0.839874 0.000000
0.619812 0.839966 0.000000
0.651123 0.840027 0.000000
0.682159 0.839996 0.000000
0.712982 0.839935 0.000000
0.743439 0.839813 0.000000
0.773499 0.839722 0.000000
0.803070 0.839569 0.000000
