滤镜资源/Professional Luts Collection/Lutify.me Professional/Contemporary Color Films/Calcite Managanoan.cube
# Created by: Lutify.me
# Copyright: (c) Copyright Lutify.me 2015
# Website: https://lutify.me
#LUT size
LUT_3D_SIZE 33
#LUT data points
0.000000 0.000000 0.000000
0.003845 0.000397 0.000397
0.008911 0.000763 0.000061
0.016815 0.001160 0.000763
0.028656 0.001526 0.001160
0.045074 0.001953 0.001892
0.064819 0.002075 0.002747
0.086700 0.002594 0.003754
0.111176 0.002380 0.004974
0.138092 0.001495 0.006805
0.167358 0.000397 0.009033
0.198425 0.000000 0.011810
0.230957 0.000000 0.014954
0.264526 0.000000 0.018555
0.299011 0.000000 0.022949
0.334259 0.000000 0.027863
0.370117 0.000000 0.033325
0.406464 0.000000 0.039490
0.443237 0.000000 0.045898
0.480316 0.000000 0.052429
0.517578 0.000000 0.059143
0.554932 0.000000 0.065735
0.592224 0.000000 0.072235
0.629364 0.000000 0.078644
0.666138 0.000000 0.085358
0.702423 0.000000 0.091858
0.738068 0.000000 0.098389
0.772949 0.000000 0.104858
0.806885 0.000000 0.111389
0.839752 0.000061 0.117676
0.871216 0.002686 0.123840
0.901306 0.032837 0.129913
0.929657 0.066467 0.135834
0.000793 0.004272 0.000763
0.005402 0.005035 0.001160
0.010162 0.005432 0.001190
0.018341 0.006134 0.001526
0.030853 0.006592 0.001923
0.047668 0.007324 0.002655
0.067352 0.007751 0.003204
0.089294 0.008392 0.004456
0.113770 0.008545 0.005737
0.140839 0.007996 0.007568
0.170044 0.006500 0.009949
0.200897 0.004639 0.012909
0.233185 0.001953 0.016266
0.266754 0.000336 0.019806
0.301117 0.000000 0.023895
0.336182 0.000000 0.028839
0.371857 0.000000 0.034485
0.408081 0.000000 0.040527
0.444733 0.000000 0.046906
0.481750 0.000000 0.053497
0.518951 0.000000 0.060089
0.556183 0.000000 0.066559
0.593384 0.000000 0.073090
0.630432 0.000000 0.079559
0.667175 0.000000 0.086151
0.703369 0.000000 0.092651
0.738922 0.000000 0.099091
0.773743 0.000000 0.105408
0.807617 0.000397 0.111755
0.840363 0.005554 0.118042
0.871826 0.029663 0.124329
0.901825 0.058533 0.130402
0.930145 0.084869 0.136383
0.002289 0.010101 0.001221
0.006195 0.010925 0.001556
0.012177 0.011719 0.001923
0.020233 0.012543 0.002319
0.033539 0.013336 0.003021
0.050323 0.014099 0.003510
0.070038 0.015137 0.004547
0.092255 0.015686 0.005432
0.116730 0.016266 0.006836
0.143860 0.016174 0.008667
0.172913 0.015381 0.011108
0.203613 0.013916 0.013916
0.235718 0.011688 0.017181
0.269104 0.008667 0.020996
0.303375 0.005280 0.025116
0.338318 0.001923 0.029999
0.373840 0.000336 0.035675
0.409973 0.000122 0.041687
0.446594 0.000000 0.047943
0.483429 0.000000 0.054413
0.520477 0.000000 0.060791
0.557678 0.000000 0.067230
0.594788 0.000000 0.073883
0.631683 0.000000 0.080353
0.668335 0.000000 0.086792
0.704468 0.000061 0.093170
0.739960 0.000458 0.099701
0.774689 0.002960 0.106140
0.808472 0.015137 0.112427
0.841125 0.034698 0.118713
0.872467 0.057831 0.124847
0.902405 0.080292 0.130981
0.930634 0.102570 0.136841
0.002808 0.019073 0.002655
0.007996 0.019897 0.003021
0.013733 0.020691 0.003082
0.022858 0.021851 0.003448
0.035675 0.023315 0.003876
0.053467 0.024811 0.004639
0.073120 0.025970 0.005402
0.095795 0.027191 0.006805
0.120300 0.028290 0.008087
0.147461 0.028809 0.010162
0.176514 0.029053 0.012421
0.207245 0.028503 0.015289
0.239227 0.027557 0.018616
0.272369 0.025726 0.022339
0.306458 0.023468 0.026794
0.341248 0.021027 0.031799
0.376617 0.018219 0.037292
0.412537 0.015686 0.043243
0.448975 0.013306 0.049408
0.485687 0.011078 0.055725
0.522644 0.009399 0.062134
0.559662 0.008545 0.068451
0.596619 0.008545 0.074890
0.633453 0.010040 0.081360
0.669922 0.013611 0.087738
0.705933 0.019592 0.094147
0.741333 0.027954 0.100647
0.775940 0.039246 0.107056
0.809601 0.053802 0.113281
0.842163 0.069855 0.119507
0.873444 0.087097 0.125610
0.903229 0.105225 0.131744
0.931335 0.123749 0.137604
0.003601 0.033600 0.003876
0.008911 0.034454 0.004272
0.015625 0.035248 0.004608
0.024872 0.036804 0.004700
0.039429 0.038666 0.005402
0.056824 0.040802 0.006104
0.077148 0.042664 0.007172
0.099854 0.044678 0.008057
0.125061 0.046234 0.009857
0.152069 0.047760 0.011932
0.181152 0.048767 0.014282
0.211670 0.049622 0.016998
0.243652 0.049866 0.020416
0.276581 0.050110 0.024231
0.310394 0.049896 0.028503
0.344971 0.049316 0.033539
0.380127 0.048553 0.039185
0.415863 0.047791 0.045135
0.452087 0.047241 0.051178
0.488678 0.046875 0.057343
0.525421 0.046967 0.063629
0.562256 0.047729 0.069977
0.599060 0.049408 0.076294
0.635742 0.052551 0.082611
0.672058 0.057068 0.088928
0.707916 0.063141 0.095337
0.743103 0.070831 0.101685
0.777649 0.080139 0.108093
0.811127 0.091248 0.114227
0.843506 0.103577 0.120514
0.874664 0.117188 0.126678
0.904327 0.132202 0.132751
0.932281 0.148071 0.138672
0.003937 0.053497 0.005737
0.009674 0.054443 0.005798
0.017059 0.055328 0.006470
0.027130 0.056854 0.006866
0.042511 0.059143 0.006958
0.060699 0.061371 0.008026
0.081482 0.063446 0.008820
0.104706 0.065826 0.010071
0.129791 0.068024 0.011932
0.157074 0.070221 0.014099
0.186249 0.072113 0.016510
0.216766 0.073822 0.019379
0.248474 0.075317 0.022552
0.281372 0.076538 0.026337
0.315033 0.077728 0.030762
0.349426 0.078827 0.035828
0.384369 0.079773 0.041260
0.419891 0.080750 0.047119
0.455902 0.081818 0.053192
0.492279 0.083099 0.059174
0.528809 0.084778 0.065277
0.565460 0.086792 0.071564
0.602051 0.089386 0.077850
0.638519 0.092865 0.084137
0.674652 0.097198 0.090454
0.710327 0.102631 0.096741
0.745331 0.109222 0.103058
0.779663 0.116882 0.109436
0.812988 0.125854 0.115692
0.845215 0.136139 0.121887
0.876160 0.147675 0.128021
0.905670 0.160492 0.133972
0.933411 0.174438 0.139954
0.002777 0.077393 0.007599
0.009247 0.078186 0.008270
0.017059 0.079254 0.008698
0.028717 0.080444 0.009155
0.045349 0.082520 0.009583
0.064514 0.084961 0.009979
0.085907 0.087677 0.010895
0.109558 0.089966 0.012421
0.135162 0.092743 0.014435
0.162537 0.095306 0.016296
0.191650 0.097809 0.018860
0.222107 0.100250 0.021790
0.253815 0.102600 0.024963
0.286469 0.104706 0.028961
0.319946 0.106750 0.033600
0.354187 0.108795 0.038666
0.389038 0.110748 0.044006
0.424469 0.112732 0.049469
0.460297 0.114838 0.055298
0.496429 0.117065 0.061218
0.532745 0.119568 0.067230
0.569183 0.122375 0.073425
0.605591 0.125580 0.079651
0.641815 0.129333 0.085907
0.677704 0.133667 0.092224
0.713165 0.138733 0.098541
0.747986 0.144653 0.104889
0.782043 0.151581 0.111115
0.815186 0.159485 0.117310
0.847198 0.168457 0.123444
0.877930 0.178558 0.129517
0.907196 0.189941 0.135620
0.934784 0.202332 0.141479
0.000549 0.104034 0.009888
0.007080 0.104858 0.010376
0.015869 0.105927 0.010925
0.028839 0.107086 0.011597
0.046783 0.109039 0.012390
0.067993 0.111359 0.012787
0.090088 0.114288 0.013580
0.114502 0.117065 0.014679
0.140564 0.119751 0.016846
0.168121 0.122620 0.019196
0.197388 0.125488 0.021667
0.227905 0.128326 0.024719
0.259460 0.131165 0.028015
0.291931 0.133972 0.031921
0.325226 0.136719 0.036621
0.359253 0.139343 0.041595
0.393890 0.142059 0.046936
0.429138 0.144684 0.052429
0.464844 0.147339 0.058014
0.500854 0.150146 0.063721
0.537048 0.153168 0.069641
0.573303 0.156403 0.075714
0.609497 0.159882 0.081787
0.645538 0.163788 0.087952
0.681183 0.168213 0.094208
0.716370 0.173157 0.100433
0.750977 0.178802 0.106812
0.784821 0.185272 0.113037
0.817719 0.192474 0.119263
0.849457 0.200684 0.125397
0.879944 0.209900 0.131500
0.908966 0.220093 0.137573
0.936279 0.231415 0.143372
0.000000 0.133392 0.012390
0.002869 0.134216 0.012756
0.012268 0.135132 0.013245
0.027710 0.136322 0.014221
0.048218 0.138031 0.015289
0.070526 0.140259 0.016083
0.094269 0.143219 0.016357
0.119354 0.146179 0.017700
0.146118 0.149109 0.019012
0.174042 0.152008 0.021820
0.203339 0.155060 0.024536
0.233826 0.158173 0.027832
0.265350 0.161316 0.031525
0.297699 0.164490 0.035461
0.330872 0.167572 0.040100
0.364716 0.170746 0.045105
0.399170 0.173828 0.050171
0.434174 0.176941 0.055573
0.469635 0.180084 0.061127
0.505432 0.183319 0.066833
0.541412 0.186646 0.072601
0.577515 0.190125 0.078491
0.613525 0.193848 0.084503
0.649384 0.197845 0.090515
0.684875 0.202301 0.096649
0.719879 0.207184 0.102783
0.754242 0.212616 0.108978
0.787842 0.218781 0.115204
0.820465 0.225555 0.121399
0.851959 0.233215 0.127533
0.882172 0.241699 0.133728
0.910889 0.251099 0.139740
0.937927 0.261505 0.145569
0.000000 0.165009 0.014832
0.000458 0.165741 0.015198
0.007965 0.166565 0.015808
0.025024 0.167694 0.016785
0.048523 0.169189 0.018097
0.073212 0.171143 0.019562
0.098236 0.173920 0.020020
0.124268 0.177032 0.020782
0.151642 0.180115 0.022308
0.180145 0.183197 0.024445
0.209503 0.186371 0.027588
0.239960 0.189545 0.031006
0.271454 0.192810 0.034973
0.303711 0.196198 0.039246
0.336731 0.199524 0.043671
0.370453 0.202881 0.048645
0.404755 0.206268 0.053741
0.439545 0.209686 0.059052
0.474792 0.213104 0.064606
0.510345 0.216583 0.070221
0.546082 0.220184 0.076019
0.581940 0.223907 0.081787
0.617706 0.227844 0.087769
0.653320 0.231995 0.093811
0.688538 0.236481 0.099823
0.723297 0.241394 0.105927
0.757416 0.246735 0.112030
0.790771 0.252594 0.118225
0.823120 0.259094 0.124359
0.854340 0.266296 0.130493
0.884216 0.274261 0.136566
0.912598 0.283051 0.142700
0.939270 0.292725 0.148621
0.000000 0.198181 0.017426
0.000000 0.198792 0.017914
0.002777 0.199615 0.018768
0.022064 0.200684 0.019653
0.048553 0.202057 0.021210
0.075592 0.203796 0.022827
0.102081 0.206268 0.024353
0.129150 0.209290 0.024811
0.157013 0.212585 0.025787
0.186066 0.215790 0.027710
0.215973 0.218933 0.030701
0.246429 0.222076 0.034760
0.277802 0.225433 0.038940
0.310028 0.228821 0.043365
0.342926 0.232330 0.047943
0.376434 0.235840 0.052582
0.410583 0.239380 0.057800
0.445221 0.242950 0.063019
0.480255 0.246582 0.068451
0.515594 0.250244 0.074036
0.551056 0.254028 0.079803
0.586639 0.257904 0.085602
0.622131 0.261993 0.091461
0.657440 0.266296 0.097504
0.692413 0.270813 0.103577
0.726837 0.275665 0.109741
0.760651 0.280975 0.115784
0.793701 0.286743 0.121887
0.825714 0.292969 0.128113
0.856628 0.299835 0.134216
0.886139 0.307404 0.140320
0.914124 0.315704 0.146393
0.940399 0.324768 0.152374
0.000000 0.232452 0.020630
0.000000 0.233093 0.021393
0.000580 0.233795 0.022095
0.018616 0.234802 0.023315
0.048553 0.236084 0.024750
0.078308 0.237671 0.026825
0.106476 0.239838 0.028900
0.134308 0.242737 0.029877
0.162659 0.245972 0.030548
0.192047 0.249268 0.032043
0.222260 0.252563 0.034698
0.253082 0.255707 0.038391
0.284424 0.258972 0.042969
0.316498 0.262360 0.047668
0.349335 0.265900 0.052307
0.382782 0.269501 0.057251
0.416718 0.273132 0.062195
0.451141 0.276794 0.067505
0.485962 0.280487 0.072784
0.521088 0.284302 0.078308
0.556305 0.288208 0.084076
0.591614 0.292206 0.089905
0.626831 0.296356 0.095734
0.661804 0.300751 0.101715
0.696442 0.305328 0.107758
0.730591 0.310181 0.113953
0.764069 0.315399 0.120026
0.796753 0.321014 0.126129
0.828430 0.327057 0.132385
0.858978 0.333649 0.138458
0.888092 0.340820 0.144653
0.915680 0.348724 0.150726
0.941559 0.357269 0.156708
0.000000 0.267731 0.024628
0.000000 0.268341 0.025604
0.000183 0.268951 0.026398
0.017120 0.269897 0.027618
0.049500 0.271118 0.029388
0.081360 0.272583 0.031494
0.111298 0.274475 0.034332
0.140015 0.277100 0.035828
0.168854 0.280273 0.036469
0.198364 0.283600 0.037842
0.228760 0.286896 0.039948
0.259766 0.290222 0.042999
0.291260 0.293457 0.047180
0.323334 0.296753 0.052307
0.356018 0.300201 0.057251
0.389313 0.303833 0.062012
0.423126 0.307495 0.067261
0.457336 0.311218 0.072418
0.491913 0.315002 0.077759
0.526794 0.318848 0.083221
0.561768 0.322845 0.088898
0.596802 0.326935 0.094696
0.631714 0.331116 0.100555
0.666382 0.335510 0.106598
0.700714 0.340088 0.112610
0.734497 0.344879 0.118774
0.767609 0.350006 0.124878
0.799957 0.355499 0.131012
0.831268 0.361359 0.137146
0.861389 0.367706 0.143219
0.890076 0.374603 0.149445
0.917267 0.382050 0.155579
0.942688 0.390167 0.161682
0.000000 0.303802 0.029816
0.000000 0.304352 0.030823
0.000122 0.304932 0.031769
0.017700 0.305817 0.033356
0.051971 0.306976 0.035187
0.085480 0.308350 0.037445
0.116547 0.310089 0.040558
0.146118 0.312347 0.042908
0.175385 0.315369 0.043640
0.205017 0.318665 0.044647
0.235443 0.321991 0.046448
0.266510 0.325317 0.048981
0.298157 0.328705 0.052368
0.330383 0.331970 0.056976
0.363007 0.335297 0.062408
0.396149 0.338806 0.067657
0.429749 0.342438 0.072693
0.463776 0.346191 0.078003
0.498169 0.349976 0.083313
0.532715 0.353882 0.088837
0.567444 0.357880 0.094452
0.602173 0.361969 0.100220
0.636780 0.366180 0.106079
0.671143 0.370514 0.112061
0.705109 0.375061 0.118134
0.738525 0.379822 0.124207
0.771271 0.384857 0.130280
0.803223 0.390228 0.136444
0.834137 0.395905 0.142517
0.863861 0.401978 0.148621
0.892090 0.408600 0.154877
0.918823 0.415680 0.161011
0.943787 0.423340 0.167114
0.000000 0.340576 0.036713
0.000000 0.341064 0.037659
0.000305 0.341644 0.038727
0.020630 0.342438 0.040466
0.056671 0.343536 0.042328
0.090912 0.344818 0.044586
0.122559 0.346405 0.047729
0.152893 0.348358 0.050598
0.182312 0.351166 0.051880
0.212036 0.354370 0.052826
0.242462 0.357727 0.054077
0.273560 0.361023 0.056305
0.305206 0.364410 0.059174
0.337494 0.367767 0.062988
0.370209 0.371063 0.067902
0.403229 0.374420 0.073486
0.436646 0.377960 0.078918
0.470428 0.381683 0.084290
0.504578 0.385437 0.089600
0.538910 0.389282 0.095154
0.573334 0.393250 0.100800
0.607758 0.397308 0.106537
0.642029 0.401489 0.112427
0.676056 0.405823 0.118317
0.709656 0.410309 0.124359
0.742706 0.414978 0.130371
0.775055 0.419891 0.136383
0.806580 0.425110 0.142487
0.837067 0.430603 0.148590
0.866333 0.436462 0.154663
0.894104 0.442749 0.160919
0.920319 0.449524 0.167084
0.944824 0.456757 0.173157
0.000000 0.377838 0.045258
0.000000 0.378326 0.046204
0.000702 0.378845 0.047455
0.026825 0.379578 0.048889
0.063629 0.380554 0.050781
0.097778 0.381775 0.053070
0.129608 0.383270 0.055908
0.160156 0.385040 0.059235
0.189941 0.387512 0.061066
0.219604 0.390594 0.061951
0.249969 0.393860 0.063171
0.280975 0.397156 0.064819
0.312622 0.400513 0.067444
0.344849 0.403900 0.070740
0.377533 0.407257 0.074890
0.410553 0.410583 0.080017
0.443817 0.413910 0.085754
0.477386 0.417511 0.091248
0.511261 0.421204 0.096863
0.545319 0.424988 0.102325
0.579407 0.428864 0.107971
0.613495 0.432892 0.113647
0.647461 0.437012 0.119476
0.681122 0.441254 0.125366
0.714325 0.445618 0.131287
0.746979 0.450195 0.137299
0.778900 0.454987 0.143250
0.809998 0.460022 0.149323
0.840027 0.465302 0.155334
0.868835 0.470947 0.161316
0.896088 0.476959 0.167572
0.921783 0.483368 0.173706
0.945801 0.490234 0.179779
0.000000 0.415375 0.055176
0.000000 0.415802 0.056122
0.005524 0.416290 0.057281
0.037140 0.416962 0.058716
0.073029 0.417908 0.060394
0.106262 0.419037 0.062683
0.137695 0.420441 0.065460
0.168335 0.422089 0.068634
0.198273 0.424225 0.071289
0.227905 0.427124 0.072235
0.258087 0.430298 0.073151
0.288971 0.433533 0.074738
0.320465 0.436859 0.076874
0.352509 0.440216 0.079742
0.385193 0.443573 0.083374
0.418091 0.446869 0.087769
0.451233 0.450226 0.093140
0.484619 0.453552 0.099060
0.518188 0.457092 0.104675
0.551941 0.460785 0.110321
0.585724 0.464569 0.115936
0.619446 0.468506 0.121552
0.653015 0.472504 0.127258
0.686310 0.476654 0.133148
0.719086 0.480927 0.139038
0.751282 0.485352 0.144958
0.782806 0.489960 0.150818
0.813446 0.494812 0.156860
0.842987 0.499908 0.162842
0.871277 0.505280 0.168701
0.898041 0.511017 0.174896
0.923187 0.517090 0.180969
0.946716 0.523560 0.187073
0.000000 0.453064 0.066437
0.001801 0.453430 0.067200
0.018555 0.453918 0.068207
0.051605 0.454559 0.069672
0.085114 0.455414 0.071320
0.116791 0.456482 0.073456
0.147278 0.457794 0.076080
0.177551 0.459320 0.079193
0.207550 0.461151 0.082214
0.237030 0.463806 0.083527
0.266998 0.466888 0.084351
0.297638 0.470062 0.085724
0.328918 0.473297 0.087585
0.360748 0.476593 0.090057
0.393127 0.479919 0.093201
0.425964 0.483215 0.097015
0.459015 0.486481 0.101654
0.492157 0.489807 0.107239
0.525452 0.493103 0.113281
0.558868 0.496613 0.119049
0.592285 0.500305 0.124664
0.625641 0.504028 0.130310
0.658813 0.507965 0.135925
0.691650 0.511932 0.141724
0.723999 0.516083 0.147583
0.755768 0.520355 0.153442
0.786774 0.524780 0.159241
0.816925 0.529449 0.165100
0.845947 0.534332 0.170990
0.873718 0.539429 0.176849
0.899933 0.544861 0.182922
0.924500 0.550598 0.188995
0.947540 0.556702 0.195007
0.002808 0.490692 0.078857
0.014832 0.491058 0.079651
0.039581 0.491516 0.080566
0.069672 0.492096 0.081696
0.099792 0.492889 0.083374
0.129425 0.493866 0.085480
0.158875 0.495087 0.087891
0.188293 0.496521 0.090790
0.217926 0.498169 0.094025
0.247223 0.500549 0.095795
0.276794 0.503479 0.096588
0.307098 0.506531 0.097778
0.338043 0.509705 0.099457
0.369598 0.512909 0.101593
0.401703 0.516144 0.104401
0.434235 0.519409 0.107819
0.467072 0.522644 0.111786
0.500061 0.525879 0.116669
0.533081 0.529083 0.122284
0.566101 0.532379 0.128387
0.599182 0.535858 0.134247
0.632111 0.539459 0.139832
0.664825 0.543152 0.145477
0.697235 0.546997 0.151215
0.729065 0.550995 0.156952
0.760345 0.555084 0.162628
0.790863 0.559326 0.168427
0.820465 0.563751 0.174194
0.848907 0.568420 0.179901
0.876160 0.573273 0.185699
0.901764 0.578369 0.191711
0.925751 0.583801 0.197723
0.948303 0.589478 0.203674
0.021057 0.528076 0.092255
0.042694 0.528412 0.093140
0.065796 0.528809 0.094025
0.090790 0.529358 0.095001
0.117310 0.530090 0.096497
0.144470 0.531006 0.098511
0.172516 0.532135 0.100891
0.200928 0.533447 0.103546
0.229797 0.534973 0.106628
0.258698 0.537079 0.108887
0.287781 0.539856 0.109711
0.317566 0.542786 0.110687
0.348083 0.545837 0.112183
0.379211 0.548950 0.114227
0.410980 0.552094 0.116699
0.443176 0.555237 0.119781
0.475616 0.558411 0.123413
0.508301 0.561584 0.127686
0.541077 0.564728 0.132690
0.573792 0.567871 0.138245
0.606415 0.571106 0.144409
0.638885 0.574493 0.150146
0.671143 0.578003 0.155731
0.703033 0.581635 0.161438
0.734375 0.585419 0.167114
0.765106 0.589355 0.172729
0.795074 0.593384 0.178375
0.824097 0.597565 0.184052
0.851959 0.601959 0.189697
0.878571 0.606537 0.195374
0.903564 0.611359 0.201233
0.927002 0.616394 0.207184
0.949066 0.621704 0.213104
0.057281 0.564941 0.106720
0.075928 0.565277 0.107452
0.093353 0.565674 0.108276
0.113922 0.566162 0.109283
0.137238 0.566833 0.110687
0.162048 0.567688 0.112610
0.188293 0.568726 0.114807
0.215424 0.569946 0.117310
0.243378 0.571350 0.120239
0.271667 0.573181 0.122711
0.300079 0.575775 0.123718
0.329193 0.578613 0.124573
0.359192 0.581512 0.125885
0.389801 0.584503 0.127686
0.421051 0.587524 0.130066
0.452789 0.590576 0.132782
0.484863 0.593628 0.136108
0.517120 0.596680 0.139923
0.549500 0.599762 0.144440
0.581848 0.602814 0.149475
0.614075 0.605835 0.155151
0.646088 0.608978 0.161102
0.677795 0.612274 0.166840
0.709106 0.615692 0.172394
0.739929 0.619232 0.178070
0.770050 0.622925 0.183594
0.799408 0.626740 0.189178
0.827820 0.630707 0.194733
0.855103 0.634796 0.200256
0.881073 0.639069 0.205750
0.905396 0.643555 0.211517
0.928284 0.648224 0.217346
0.949829 0.653168 0.223145
0.094513 0.601166 0.122101
0.108246 0.601440 0.122772
0.121948 0.601776 0.123505
0.139221 0.602234 0.124512
0.159515 0.602875 0.125824
0.181976 0.603668 0.127594
0.206421 0.604614 0.129608
0.232025 0.605743 0.131989
0.258850 0.607025 0.134735
0.286285 0.608673 0.137329
0.313934 0.611053 0.138428
0.342255 0.613770 0.139252
0.371521 0.616547 0.140472
0.401550 0.619385 0.142120
0.432190 0.622253 0.144257
0.463348 0.625183 0.146851
0.494843 0.628113 0.149811
0.526642 0.631042 0.153320
0.558533 0.633972 0.157349
0.590454 0.636902 0.161896
0.622192 0.639832 0.167023
0.653717 0.642761 0.172729
0.684875 0.645782 0.178558
0.715576 0.648956 0.184174
0.745758 0.652252 0.189758
0.775299 0.655670 0.195221
0.803986 0.659241 0.200714
0.831726 0.662933 0.206177
0.858307 0.666748 0.211548
0.883606 0.670715 0.216858
0.907318 0.674835 0.222534
0.929626 0.679169 0.228210
0.950653 0.683685 0.233856
0.129669 0.636414 0.138275
0.140381 0.636658 0.139008
0.151764 0.636993 0.139587
0.166412 0.637390 0.140656
0.184082 0.638000 0.141846
0.204437 0.638702 0.143433
0.226990 0.639587 0.145325
0.251007 0.640594 0.147644
0.276459 0.641815 0.150238
0.302795 0.643311 0.152679
0.329376 0.645508 0.153809
0.356873 0.648071 0.154572
0.385284 0.650696 0.155762
0.414581 0.653351 0.157318
0.444519 0.656097 0.159271
0.475006 0.658844 0.161652
0.505890 0.661621 0.164459
0.537018 0.664429 0.167603
0.568359 0.667206 0.171356
0.599701 0.669983 0.175507
0.630859 0.672760 0.180115
0.661865 0.675507 0.185272
0.692383 0.678314 0.191040
0.722504 0.681213 0.196655
0.752014 0.684204 0.202148
0.780884 0.687378 0.207642
0.808868 0.690613 0.212891
0.835907 0.694031 0.218292
0.861725 0.697571 0.223572
0.886292 0.701233 0.228760
0.909363 0.704987 0.234253
0.931122 0.708954 0.239746
0.951691 0.713074 0.245270
0.164520 0.670471 0.155334
0.173248 0.670715 0.155914
0.182739 0.670990 0.156586
0.195435 0.671387 0.157501
0.210938 0.671936 0.158661
0.229309 0.672577 0.160126
0.249939 0.673370 0.161926
0.272278 0.674316 0.164093
0.296234 0.675415 0.166565
0.321259 0.676819 0.168762
0.346741 0.678894 0.169800
0.373169 0.681274 0.170593
0.400696 0.683716 0.171692
0.429047 0.686218 0.173187
0.458221 0.688782 0.175049
0.487885 0.691345 0.177246
0.518005 0.693970 0.179840
0.548431 0.696594 0.182831
0.579071 0.699188 0.186218
0.609711 0.701813 0.190094
0.640289 0.704407 0.194336
0.670593 0.707001 0.199066
0.700562 0.709595 0.204193
0.729950 0.712219 0.209808
0.758759 0.714935 0.215271
0.786865 0.717804 0.220642
0.814117 0.720734 0.225952
0.840393 0.723846 0.231140
0.865448 0.727051 0.236267
0.889221 0.730377 0.241364
0.911652 0.733795 0.246643
0.932800 0.737335 0.252045
0.952911 0.741028 0.257477
0.199768 0.703094 0.173157
0.207153 0.703308 0.173676
0.215302 0.703552 0.174286
0.226257 0.703918 0.175110
0.240051 0.704407 0.176208
0.256439 0.704987 0.177582
0.275208 0.705688 0.179291
0.295868 0.706573 0.181305
0.318237 0.707550 0.183624
0.341736 0.708923 0.185364
0.366028 0.710907 0.186310
0.391327 0.713104 0.187103
0.417786 0.715332 0.188202
0.445160 0.717651 0.189636
0.473389 0.720001 0.191406
0.502197 0.722412 0.193481
0.531372 0.724823 0.195923
0.561005 0.727234 0.198730
0.590851 0.729675 0.201935
0.620697 0.732117 0.205566
0.650543 0.734528 0.209534
0.680115 0.736908 0.213837
0.709351 0.739319 0.218536
0.738037 0.741699 0.223663
0.766052 0.744110 0.229034
0.793365 0.746643 0.234467
0.819794 0.749298 0.239532
0.845245 0.752045 0.244720
0.869476 0.754913 0.249695
0.892487 0.757904 0.254639
0.914246 0.760956 0.259735
0.934845 0.764099 0.264984
0.954468 0.767395 0.270294
0.235687 0.733978 0.191559
0.242157 0.734161 0.192078
0.249146 0.734406 0.192596
0.258789 0.734711 0.193390
0.271057 0.735138 0.194397
0.285706 0.735657 0.195740
0.302795 0.736298 0.197357
0.321777 0.737061 0.199219
0.342529 0.737976 0.201294
0.364349 0.739410 0.202484
0.387268 0.741272 0.203247
0.411377 0.743286 0.204132
0.436676 0.745331 0.205261
0.462982 0.747437 0.206665
0.490143 0.749603 0.208344
0.517975 0.751801 0.210358
0.546234 0.753998 0.212708
0.574890 0.756226 0.215363
0.603851 0.758423 0.218353
0.632843 0.760651 0.221710
0.661804 0.762848 0.225403
0.690552 0.765045 0.229462
0.718964 0.767181 0.233826
0.746857 0.769348 0.238495
0.774048 0.771515 0.243561
0.800446 0.773712 0.248749
0.825989 0.776031 0.253876
0.850525 0.778473 0.258820
0.873932 0.781006 0.263763
0.896149 0.783630 0.268585
0.917267 0.786346 0.273499
0.937317 0.789124 0.278595
0.956451 0.792023 0.283722
0.272858 0.762878 0.210541
0.278381 0.763031 0.211060
0.284454 0.763245 0.211517
0.292877 0.763489 0.212311
0.303741 0.763885 0.213287
0.316986 0.764343 0.214508
0.332458 0.764923 0.216034
0.349884 0.765594 0.217743
0.368805 0.766602 0.219269
0.389008 0.768066 0.220032
0.410492 0.769775 0.220642
0.433380 0.771545 0.221527
0.457520 0.773407 0.222656
0.482635 0.775299 0.224091
0.508636 0.777252 0.225769
0.535339 0.779236 0.227722
0.562561 0.781219 0.229980
0.590210 0.783234 0.232483
0.618164 0.785217 0.235352
0.646210 0.787231 0.238525
0.674194 0.789185 0.242004
0.701965 0.791168 0.245789
0.729431 0.793121 0.249939
0.756378 0.795044 0.254272
0.782745 0.796967 0.258850
