滤镜资源/Professional Luts Collection/Lutify.me Professional/Contemporary Color Films/Calcite Managanoan.cube
# Created by: Lutify.me
# Copyright: (c) Copyright Lutify.me 2015
# Website: https://lutify.me
#LUT size
LUT_3D_SIZE 5
#LUT data points
0.000000 0.000000 0.000000
0.111176 0.002380 0.004974
0.370117 0.000000 0.033325
0.666138 0.000000 0.085358
0.929657 0.066467 0.135834
0.000000 0.133392 0.012390
0.146118 0.149109 0.019012
0.399170 0.173828 0.050171
0.684875 0.202301 0.096649
0.937927 0.261505 0.145569
0.000000 0.415375 0.055176
0.198273 0.424225 0.071289
0.451233 0.450226 0.093140
0.719086 0.480927 0.139038
0.946716 0.523560 0.187073
0.199768 0.703094 0.173157
0.318237 0.707550 0.183624
0.531372 0.724823 0.195923
0.766052 0.744110 0.229034
0.954468 0.767395 0.270294
0.495117 0.900269 0.326813
0.548065 0.903473 0.329529
0.681488 0.910889 0.339874
0.843018 0.919708 0.360840
0.980499 0.930267 0.389832
0.000732 0.011230 0.126648
0.135712 0.016449 0.140961
0.391052 0.000000 0.173767
0.681274 0.000000 0.217529
0.939636 0.106934 0.263123
0.009735 0.154236 0.154663
0.169434 0.166595 0.165924
0.419128 0.188690 0.193298
0.699005 0.218323 0.232697
0.947083 0.277893 0.275055
0.025879 0.430023 0.214172
0.222260 0.437988 0.223663
0.466705 0.462311 0.242218
0.731110 0.492218 0.274780
0.954773 0.534393 0.311890
0.225677 0.713715 0.300568
0.336182 0.717957 0.307953
0.543243 0.734253 0.319855
0.774109 0.752960 0.345581
0.959503 0.775909 0.377502
0.507141 0.907104 0.419312
0.558624 0.910126 0.422150
0.688904 0.917572 0.431152
0.847473 0.926605 0.448303
0.983490 0.937103 0.472656
0.000000 0.069794 0.397705
0.171234 0.075745 0.406891
0.432739 0.071381 0.435303
0.713440 0.093811 0.471252
0.959137 0.186005 0.509033
0.014832 0.203583 0.417694
0.208069 0.212860 0.426331
0.455841 0.231262 0.452057
0.728027 0.262207 0.484894
0.964386 0.322052 0.519684
0.120575 0.467407 0.465973
0.267761 0.474396 0.472778
0.501221 0.493683 0.492096
0.759491 0.520386 0.518188
0.973633 0.561371 0.546661
0.278992 0.742310 0.532135
0.376709 0.746124 0.537506
0.574585 0.756409 0.553680
0.792908 0.776276 0.571381
0.971039 0.798553 0.593750
0.536346 0.927795 0.615448
0.586426 0.929077 0.619629
0.709106 0.934448 0.629974
0.857544 0.944733 0.641602
0.989563 0.955414 0.658661
0.044312 0.138733 0.674835
0.240967 0.143860 0.681366
0.489532 0.151642 0.704559
0.755524 0.183350 0.734528
0.980652 0.265564 0.764191
0.130066 0.263275 0.689117
0.274841 0.270813 0.695374
0.509216 0.287140 0.716705
0.766815 0.317383 0.744720
0.983521 0.378510 0.772217
0.226868 0.514282 0.723938
0.338928 0.520172 0.729218
0.552032 0.536621 0.745178
0.789795 0.560486 0.770264
0.985931 0.600922 0.792877
0.361328 0.778015 0.770355
0.441803 0.781342 0.774445
0.618683 0.790894 0.786316
0.818176 0.806458 0.803894
0.983704 0.826660 0.820251
0.582062 0.955292 0.821777
0.626923 0.956482 0.824799
0.739197 0.960052 0.833374
0.872833 0.966949 0.845734
0.996704 0.978485 0.856506
0.304596 0.193970 0.864044
0.393036 0.199005 0.869843
0.586060 0.210938 0.888916
0.815704 0.246704 0.913544
1.000000 0.327240 0.936249
0.334259 0.313995 0.874725
0.416748 0.320038 0.880035
0.601715 0.334015 0.897919
0.823883 0.364441 0.920990
1.000000 0.426971 0.941956
0.396149 0.554352 0.899902
0.468231 0.559052 0.904663
0.637360 0.573547 0.917358
0.839233 0.595947 0.938416
1.000000 0.636444 0.956055
0.492523 0.807373 0.932129
0.550323 0.810242 0.935455
0.690704 0.818604 0.945007
0.856750 0.832642 0.959076
0.997864 0.851318 0.973877
0.658051 0.976471 0.965515
0.693756 0.977600 0.967743
0.784698 0.981079 0.974152
0.898193 0.987457 0.983429
1.000000 0.998535 0.996033
