滤镜资源/Professional Luts Collection/Lutify.me Professional/Contemporary Color Films/Calcite Citrine.cube
# Created by: Lutify.me
# Copyright: (c) Copyright Lutify.me 2015
# Website: https://lutify.me
#LUT size
LUT_3D_SIZE 5
#LUT data points
0.000000 0.000000 0.000000
0.224060 0.000000 0.000000
0.521759 0.000000 0.000000
0.812134 0.000000 0.000000
1.000000 0.000000 0.000000
0.000000 0.220520 0.000000
0.236084 0.225098 0.000000
0.526855 0.218048 0.000000
0.811707 0.201508 0.000000
1.000000 0.208588 0.000000
0.000000 0.507355 0.000000
0.243927 0.511230 0.000000
0.530792 0.514679 0.000000
0.805359 0.515167 0.000000
1.000000 0.522888 0.000000
0.099884 0.775269 0.000000
0.289276 0.777954 0.000000
0.546143 0.781403 0.000000
0.801239 0.781250 0.000000
1.000000 0.783081 0.000000
0.336121 0.996826 0.045837
0.421265 0.997864 0.028625
0.604065 0.999512 0.000000
0.814240 1.000000 0.000000
1.000000 1.000000 0.000000
0.000000 0.000000 0.219208
0.228088 0.000000 0.222900
0.524506 0.000000 0.223114
0.812439 0.000000 0.219757
1.000000 0.000000 0.213745
0.000000 0.223969 0.224060
0.244507 0.224915 0.224884
0.532959 0.214996 0.221680
0.814606 0.197906 0.216217
1.000000 0.205627 0.209198
0.000000 0.509613 0.225494
0.254547 0.509979 0.226776
0.533691 0.514679 0.217651
0.807404 0.514984 0.209869
1.000000 0.522339 0.203156
0.110077 0.776581 0.234283
0.298004 0.776367 0.235413
0.547729 0.780334 0.224548
0.800690 0.781219 0.216888
1.000000 0.783234 0.216339
0.343201 0.994751 0.284241
0.426361 0.995300 0.282715
0.604736 0.997498 0.275726
0.812469 0.999512 0.267548
1.000000 1.000000 0.269043
0.000000 0.000000 0.506683
0.224243 0.000000 0.510132
0.525360 0.000000 0.514099
0.808807 0.000000 0.514465
1.000000 0.000000 0.513641
0.000000 0.227325 0.509369
0.246124 0.226135 0.510773
0.531891 0.213989 0.514984
0.810425 0.198059 0.514618
1.000000 0.209167 0.512970
0.000000 0.513275 0.512787
0.260651 0.513702 0.513306
0.536438 0.514374 0.514465
0.808289 0.512909 0.512329
1.000000 0.520416 0.510315
0.121704 0.779510 0.519745
0.303772 0.778870 0.520538
0.551575 0.777893 0.522675
0.797058 0.781128 0.517792
1.000000 0.783325 0.516235
0.343323 0.996490 0.542419
0.428131 0.995758 0.543335
0.605133 0.994812 0.545013
0.806671 0.998047 0.540619
1.000000 0.999969 0.538452
0.000000 0.000000 0.778259
0.238708 0.000000 0.780792
0.531647 0.000000 0.785980
0.806915 0.000000 0.787231
1.000000 0.000000 0.786407
0.000000 0.228119 0.778992
0.260223 0.226196 0.779968
0.537415 0.214081 0.784882
0.807037 0.200989 0.786682
1.000000 0.220917 0.785797
0.039886 0.516418 0.778534
0.279022 0.516510 0.779297
0.543335 0.516663 0.780792
0.801788 0.514465 0.784180
1.000000 0.523102 0.783234
0.167175 0.781677 0.778809
0.320770 0.781403 0.779083
0.556732 0.780762 0.779846
0.792480 0.780975 0.780975
1.000000 0.781982 0.779572
0.351501 0.998840 0.785400
0.432098 0.998291 0.785736
0.604218 0.996979 0.786774
0.802612 0.996033 0.788849
1.000000 0.999939 0.785278
0.171478 0.000000 1.000000
0.323578 0.000000 1.000000
0.567108 0.000000 1.000000
0.818878 0.000000 1.000000
1.000000 0.000000 1.000000
0.197662 0.227081 1.000000
0.337708 0.224915 1.000000
0.571472 0.214813 1.000000
0.817719 0.206329 1.000000
1.000000 0.234924 1.000000
0.225098 0.518921 1.000000
0.351776 0.518829 1.000000
0.575317 0.519318 1.000000
0.809509 0.518921 1.000000
1.000000 0.529083 1.000000
0.275848 0.783173 0.996735
0.380646 0.782959 0.997040
0.581604 0.782501 0.997833
0.798218 0.783142 0.999054
1.000000 0.783508 1.000000
0.392120 1.000000 0.997314
0.460266 0.999695 0.997467
0.615326 0.999084 0.997955
0.804016 0.998871 0.998840
0.999969 1.000000 0.999939
