滤镜资源/Professional Luts Collection/Lutify.me Professional/Contemporary Color Films/Cancrinite.cube
# Created by: Lutify.me
# Copyright: (c) Copyright Lutify.me 2015
# Website: https://lutify.me
#LUT size
LUT_3D_SIZE 33
#LUT data points
0.000000 0.000000 0.000000
0.019043 0.000000 0.001099
0.041565 0.000000 0.000061
0.067017 0.000000 0.000000
0.094513 0.000000 0.000000
0.122894 0.000000 0.000000
0.152924 0.000000 0.000000
0.184784 0.000000 0.000000
0.218536 0.000000 0.000000
0.253845 0.000000 0.000000
0.290497 0.000000 0.000000
0.328186 0.000000 0.000000
0.366669 0.000000 0.000000
0.405609 0.000000 0.000000
0.444916 0.000000 0.000000
0.484467 0.000000 0.000000
0.524139 0.000000 0.000000
0.563965 0.000000 0.000000
0.603790 0.000000 0.000000
0.643524 0.000000 0.000000
0.683075 0.000000 0.000000
0.722351 0.000000 0.000000
0.761261 0.000000 0.000000
0.799683 0.000000 0.000000
0.837433 0.000000 0.000000
0.874451 0.000000 0.000000
0.910583 0.000000 0.000000
0.945770 0.000000 0.000000
0.978546 0.000000 0.000000
0.999542 0.000000 0.000000
1.000000 0.000000 0.000000
1.000000 0.000000 0.000000
1.000000 0.000000 0.000000
0.000000 0.017914 0.000366
0.018280 0.017944 0.000000
0.039795 0.017914 0.000031
0.066864 0.017212 0.000000
0.094086 0.016449 0.000000
0.123199 0.014648 0.000000
0.153534 0.011932 0.000000
0.185699 0.008118 0.000000
0.219391 0.002716 0.000000
0.254791 0.000366 0.000000
0.291504 0.000000 0.000000
0.329224 0.000000 0.000000
0.367615 0.000000 0.000000
0.406464 0.000000 0.000000
0.445709 0.000000 0.000000
0.485199 0.000000 0.000000
0.524780 0.000000 0.000000
0.564484 0.000000 0.000000
0.604248 0.000000 0.000000
0.643951 0.000000 0.000000
0.683441 0.000000 0.000000
0.722626 0.000000 0.000000
0.761475 0.000000 0.000000
0.799835 0.000000 0.000000
0.837585 0.000000 0.000000
0.874542 0.000000 0.000000
0.910614 0.000000 0.000000
0.945801 0.000000 0.000000
0.978455 0.000000 0.000000
0.999512 0.000000 0.000000
1.000000 0.000000 0.000000
1.000000 0.000000 0.000000
1.000000 0.000000 0.000000
0.000000 0.038574 0.000031
0.017517 0.038971 0.000000
0.039703 0.039368 0.000000
0.066071 0.039337 0.000000
0.094177 0.038574 0.000000
0.123199 0.037079 0.000000
0.153961 0.034698 0.000000
0.186188 0.030640 0.000000
0.220215 0.025055 0.000000
0.255798 0.017334 0.000000
0.292511 0.007843 0.000000
0.330261 0.001678 0.000000
0.368591 0.000061 0.000000
0.407349 0.000000 0.000000
0.446503 0.000000 0.000000
0.485901 0.000000 0.000000
0.525421 0.000000 0.000000
0.565063 0.000000 0.000000
0.604767 0.000000 0.000000
0.644379 0.000000 0.000000
0.683777 0.000000 0.000000
0.722931 0.000000 0.000000
0.761719 0.000000 0.000000
0.800018 0.000000 0.000000
0.837708 0.000000 0.000000
0.874634 0.000000 0.000000
0.910645 0.000000 0.000000
0.945740 0.000000 0.000000
0.978424 0.000000 0.000000
0.999512 0.000000 0.000000
1.000000 0.000000 0.000000
1.000000 0.000000 0.000000
1.000000 0.000000 0.000000
0.000000 0.064484 0.000000
0.016754 0.064728 0.000000
0.038269 0.065521 0.000000
0.065277 0.065826 0.000000
0.093567 0.065338 0.000000
0.123169 0.064941 0.000000
0.154114 0.063385 0.000000
0.186798 0.060883 0.000000
0.221008 0.056976 0.000000
0.256714 0.051056 0.000000
0.293610 0.042755 0.000000
0.331329 0.032013 0.000000
0.369659 0.019348 0.000000
0.408386 0.006744 0.000000
0.447479 0.000885 0.000000
0.486816 0.000000 0.000000
0.526245 0.000000 0.000000
0.565765 0.000000 0.000000
0.605377 0.000000 0.000000
0.644897 0.000000 0.000000
0.684265 0.000000 0.000000
0.723358 0.000000 0.000000
0.762024 0.000000 0.000000
0.800293 0.000000 0.000000
0.837860 0.000000 0.000000
0.874725 0.000000 0.000000
0.910675 0.000000 0.000000
0.945679 0.000000 0.000000
0.978302 0.000000 0.000000
0.999481 0.000000 0.000000
1.000000 0.000000 0.000000
1.000000 0.000000 0.000000
1.000000 0.000000 0.000000
0.000000 0.092163 0.000000
0.013916 0.092560 0.000000
0.036285 0.093018 0.000000
0.063690 0.093933 0.000000
0.092804 0.093994 0.000000
0.122406 0.093933 0.000000
0.154175 0.093231 0.000000
0.187225 0.091736 0.000000
0.221802 0.089508 0.000000
0.257629 0.086090 0.000000
0.294586 0.081207 0.000000
0.332214 0.074921 0.000000
0.370514 0.066528 0.000000
0.409241 0.055939 0.000000
0.448303 0.042572 0.000000
0.487610 0.027588 0.000000
0.527039 0.011963 0.000000
0.566528 0.003021 0.000000
0.606079 0.000610 0.000000
0.645569 0.000000 0.000000
0.684814 0.000000 0.000000
0.723785 0.000000 0.000000
0.762421 0.000000 0.000000
0.800537 0.000000 0.000000
0.838013 0.000000 0.000000
0.874817 0.000000 0.000000
0.910675 0.000000 0.000000
0.945587 0.000000 0.000000
0.978180 0.000000 0.000000
0.999481 0.000000 0.000000
1.000000 0.000000 0.000000
1.000000 0.000000 0.000000
1.000000 0.000000 0.000000
0.000000 0.121918 0.000000
0.008423 0.122101 0.000000
0.031555 0.122589 0.000000
0.060608 0.123474 0.000000
0.090973 0.124359 0.000000
0.121826 0.124420 0.000000
0.154022 0.124268 0.000000
0.187500 0.123749 0.000000
0.222351 0.122498 0.000000
0.258362 0.120483 0.000000
0.295410 0.117706 0.000000
0.333069 0.113983 0.000000
0.371246 0.109131 0.000000
0.409912 0.103058 0.000000
0.448914 0.095673 0.000000
0.488129 0.086395 0.000000
0.527435 0.075104 0.000000
0.566925 0.061890 0.000000
0.606476 0.048004 0.000000
0.645905 0.031677 0.000000
0.685150 0.015350 0.000000
0.724060 0.005280 0.000000
0.762665 0.002014 0.000000
0.800751 0.000000 0.000000
0.838165 0.000000 0.000000
0.874847 0.000000 0.000000
0.910614 0.000000 0.000000
0.945435 0.000000 0.000000
0.977936 0.000000 0.000000
0.999451 0.000000 0.000000
1.000000 0.000000 0.000000
1.000000 0.000000 0.000000
1.000000 0.000000 0.000000
0.000000 0.153870 0.000000
0.001282 0.154083 0.000000
0.022095 0.154541 0.000000
0.054871 0.155334 0.000000
0.087372 0.156219 0.000000
0.120056 0.156830 0.000000
0.153595 0.157043 0.000000
0.187439 0.156921 0.000000
0.222565 0.156525 0.000000
0.258972 0.155365 0.000000
0.295959 0.153778 0.000000
0.333679 0.151520 0.000000
0.371857 0.148621 0.000000
0.410400 0.144989 0.000000
0.449310 0.140472 0.000000
0.488495 0.135101 0.000000
0.527771 0.128815 0.000000
0.567108 0.121521 0.000000
0.606567 0.112793 0.000000
0.645935 0.102386 0.000000
0.685089 0.090454 0.000000
0.723969 0.078033 0.000000
0.762451 0.067139 0.000000
0.800446 0.054871 0.000000
0.837769 0.041809 0.000000
0.874359 0.027832 0.000000
0.910065 0.015961 0.000000
0.944733 0.010193 0.000000
0.977234 0.009369 0.000000
0.999390 0.009003 0.000000
1.000000 0.009369 0.000000
1.000000 0.010468 0.000000
1.000000 0.014008 0.000000
0.000000 0.187622 0.000000
0.000000 0.187836 0.000000
0.008911 0.188171 0.000000
0.043976 0.188843 0.000000
0.081329 0.189819 0.000000
0.116547 0.190796 0.000000
0.151520 0.191437 0.000000
0.187012 0.191620 0.000000
0.222626 0.191376 0.000000
0.259064 0.191010 0.000000
0.296417 0.190155 0.000000
0.334137 0.188812 0.000000
0.372345 0.186981 0.000000
0.410797 0.184723 0.000000
0.449646 0.181915 0.000000
0.488739 0.178375 0.000000
0.527954 0.174377 0.000000
0.567230 0.169769 0.000000
0.606567 0.164459 0.000000
0.645813 0.158508 0.000000
0.684906 0.151978 0.000000
0.723663 0.144775 0.000000
0.762024 0.136963 0.000000
0.799927 0.128632 0.000000
0.837128 0.119965 0.000000
0.873596 0.111023 0.000000
0.909149 0.102875 0.000000
0.943695 0.097412 0.000000
0.976196 0.094849 0.000000
0.999268 0.094330 0.000000
1.000000 0.095734 0.000000
1.000000 0.099243 0.000000
1.000000 0.105347 0.000000
0.000000 0.222961 0.000000
0.000000 0.223236 0.000000
0.001343 0.223389 0.000000
0.027985 0.223846 0.000000
0.071991 0.224915 0.000000
0.111237 0.225891 0.000000
0.148407 0.226837 0.000000
0.185150 0.227417 0.000000
0.222046 0.227539 0.000000
0.259003 0.227264 0.000000
0.296387 0.226929 0.000000
0.334320 0.226196 0.000000
0.372498 0.225189 0.000000
0.411041 0.223694 0.000000
0.449860 0.221893 0.000000
0.488922 0.219604 0.000000
0.528046 0.216797 0.000000
0.567261 0.213623 0.000000
0.606506 0.210052 0.000000
0.645630 0.206116 0.000000
0.684601 0.201813 0.000000
0.723297 0.197144 0.000000
0.761505 0.192261 0.000000
0.799286 0.187347 0.000000
0.836365 0.182587 0.000000
0.872650 0.178131 0.000000
0.908081 0.174286 0.000000
0.942444 0.171387 0.000000
0.974945 0.169739 0.000000
0.999146 0.169708 0.000000
1.000000 0.171295 0.000000
1.000000 0.174774 0.000000
1.000000 0.179962 0.000000
0.000000 0.259521 0.000000
0.000000 0.259644 0.000000
0.000000 0.259888 0.000000
0.009125 0.260132 0.000000
0.059387 0.260925 0.000000
0.104034 0.262024 0.000000
0.144073 0.263000 0.000000
0.182526 0.263855 0.000000
0.220581 0.264343 0.000000
0.258362 0.264404 0.000000
0.296234 0.264160 0.000000
0.334229 0.263794 0.000000
0.372528 0.263184 0.000000
0.411072 0.262329 0.000000
0.449921 0.261108 0.000000
0.488953 0.259613 0.000000
0.528046 0.257690 0.000000
0.567200 0.255493 0.000000
0.606354 0.252930 0.000000
0.645416 0.250122 0.000000
0.684235 0.247101 0.000000
0.722778 0.243866 0.000000
0.760895 0.240540 0.000000
0.798492 0.237244 0.000000
0.835419 0.234100 0.000000
0.871552 0.231323 0.000000
0.906799 0.229004 0.000000
0.940979 0.227386 0.000000
0.973541 0.226807 0.000000
0.999023 0.227264 0.000000
1.000000 0.228943 0.000000
1.000000 0.231964 0.000000
1.000000 0.236145 0.000000
0.000000 0.296661 0.000000
0.000000 0.296783 0.000000
0.000000 0.296936 0.000000
0.001221 0.297150 0.000000
0.041687 0.297668 0.000000
0.094513 0.298737 0.000000
0.138489 0.299805 0.000000
0.178925 0.300751 0.000000
0.218384 0.301483 0.000000
0.257172 0.301849 0.000000
0.295746 0.301849 0.000000
0.333954 0.301605 0.000000
0.372406 0.301270 0.000000
0.411041 0.300751 0.000000
0.449860 0.300018 0.000000
0.488892 0.298981 0.000000
0.527893 0.297729 0.000000
0.567017 0.296143 0.000000
0.606110 0.294342 0.000000
0.645050 0.292328 0.000000
0.683746 0.290131 0.000000
0.722168 0.287811 0.000000
0.760101 0.285461 0.000000
0.797546 0.283203 0.000000
0.834320 0.281006 0.000000
0.870270 0.279144 0.000000
0.905304 0.277710 0.000000
0.939270 0.276855 0.000000
0.971893 0.276764 0.000000
0.998840 0.277527 0.000000
1.000000 0.279236 0.000000
1.000000 0.281982 0.000000
1.000000 0.285614 0.000000
0.000000 0.334167 0.000000
0.000000 0.334290 0.000000
0.000000 0.334412 0.000000
0.000000 0.334625 0.000000
0.021210 0.334930 0.000000
0.082794 0.335846 0.000000
0.131653 0.336945 0.000000
0.174713 0.337982 0.000000
0.215515 0.338806 0.000000
0.255310 0.339417 0.000000
0.294586 0.339722 0.000000
0.333496 0.339661 0.000000
0.372101 0.339447 0.000000
0.410828 0.339081 0.000000
0.449738 0.338684 0.000000
0.488739 0.338013 0.000000
0.527740 0.337158 0.000000
0.566711 0.336090 0.000000
0.605743 0.334778 0.000000
0.644592 0.333344 0.000000
0.683167 0.331757 0.000000
0.721405 0.330109 0.000000
0.759216 0.328400 0.000000
0.796478 0.326782 0.000000
0.833038 0.325287 0.000000
0.868774 0.324036 0.000000
0.903595 0.323151 0.000000
0.937347 0.322784 0.000000
0.969940 0.322998 0.000000
0.998199 0.323975 0.000000
1.000000 0.325653 0.000000
1.000000 0.328186 0.000000
1.000000 0.331451 0.000000
0.000000 0.372040 0.000000
0.000000 0.372131 0.000000
0.000000 0.372253 0.000000
0.000000 0.372406 0.000000
0.006165 0.372559 0.000000
0.067871 0.373291 0.000000
0.123718 0.374359 0.000000
0.169678 0.375458 0.000000
0.212097 0.376404 0.000000
0.252869 0.377167 0.000000
0.292908 0.377686 0.000000
0.332428 0.377899 0.000000
0.371582 0.377808 0.000000
0.410492 0.377533 0.000000
0.449432 0.377258 0.000000
0.488495 0.376831 0.000000
0.527466 0.376282 0.000000
0.566376 0.375580 0.000000
0.605255 0.374664 0.000000
0.644043 0.373596 0.000000
0.682465 0.372498 0.000000
0.720551 0.371277 0.000000
0.758179 0.370087 0.000000
0.795227 0.368958 0.000000
0.831573 0.367889 0.000000
0.867096 0.367096 0.000000
0.901703 0.366638 0.000000
0.935242 0.366547 0.000000
0.967621 0.366974 0.000000
0.996399 0.368042 0.000000
1.000000 0.369720 0.000000
1.000000 0.372070 0.000000
1.000000 0.375061 0.000000
0.000000 0.410095 0.000000
0.000000 0.410187 0.000000
0.000000 0.410278 0.000000
0.000000 0.410431 0.000000
0.000732 0.410553 0.000000
0.051178 0.411041 0.000000
0.114105 0.412079 0.000000
0.163757 0.413116 0.000000
0.208099 0.414124 0.000000
0.250122 0.415009 0.000000
0.290894 0.415649 0.000000
0.330994 0.416046 0.000000
0.370667 0.416229 0.000000
0.410004 0.416138 0.000000
0.449127 0.415802 0.000000
0.488098 0.415558 0.000000
0.527100 0.415161 0.000000
0.565979 0.414703 0.000000
0.604767 0.414093 0.000000
0.643341 0.413361 0.000000
0.681641 0.412537 0.000000
0.719574 0.411682 0.000000
0.757019 0.410828 0.000000
0.793823 0.410065 0.000000
0.829956 0.409363 0.000000
0.865265 0.408844 0.000000
0.899597 0.408661 0.000000
0.932861 0.408813 0.000000
0.964996 0.409393 0.000000
0.993896 0.410492 0.000000
1.000000 0.412109 0.000000
1.000000 0.414276 0.000000
1.000000 0.416992 0.000000
0.000000 0.448273 0.000000
0.000000 0.448334 0.000000
0.000000 0.448425 0.000000
0.000000 0.448517 0.000000
0.000000 0.448639 0.000000
0.032501 0.448944 0.000000
0.102722 0.449890 0.000000
0.157074 0.450928 0.000000
0.203552 0.451935 0.000000
0.246918 0.452850 0.000000
0.288605 0.453644 0.000000
0.329346 0.454163 0.000000
0.369507 0.454498 0.000000
0.409271 0.454620 0.000000
0.448669 0.454468 0.000000
0.487793 0.454132 0.000000
0.526703 0.453888 0.000000
0.565491 0.453552 0.000000
0.604218 0.453125 0.000000
0.642639 0.452637 0.000000
0.680756 0.452087 0.000000
0.718506 0.451447 0.000000
0.755737 0.450836 0.000000
0.792358 0.450317 0.000000
0.828217 0.449890 0.000000
0.863251 0.449585 0.000000
0.897308 0.449554 0.000000
0.930328 0.449890 0.000000
0.962189 0.450562 0.000000
0.991180 0.451660 0.000000
1.000000 0.453186 0.000000
1.000000 0.455170 0.000000
1.000000 0.457642 0.000000
0.000000 0.486389 0.000000
0.000000 0.486450 0.000000
0.000000 0.486542 0.000000
0.000000 0.486603 0.000000
0.000000 0.486664 0.000000
0.013519 0.486877 0.000000
0.089417 0.487671 0.000000
0.149750 0.488708 0.000000
0.198761 0.489716 0.000000
0.243500 0.490631 0.000000
0.286133 0.491455 0.000000
0.327454 0.492096 0.000000
0.368164 0.492584 0.000000
0.408325 0.492828 0.000000
0.448059 0.492859 0.000000
0.487366 0.492676 0.000000
0.526306 0.492340 0.000000
0.565063 0.492096 0.000000
0.603607 0.491760 0.000000
0.641937 0.491425 0.000000
0.679840 0.490997 0.000000
0.717346 0.490570 0.000000
0.754364 0.490143 0.000000
0.790771 0.489807 0.000000
0.826355 0.489532 0.000000
0.861084 0.489410 0.000000
0.894867 0.489532 0.000000
0.927551 0.489929 0.000000
0.959167 0.490631 0.000000
0.988281 0.491699 0.000000
1.000000 0.493103 0.000000
1.000000 0.494965 0.000000
1.000000 0.497162 0.000000
0.000000 0.524292 0.000000
0.000000 0.524323 0.000000
0.000000 0.524414 0.000000
0.000000 0.524445 0.000000
0.000000 0.524536 0.000000
0.004425 0.524658 0.000000
0.075653 0.525299 0.000000
0.142273 0.526276 0.000000
0.193939 0.527252 0.000000
0.240173 0.528198 0.000000
0.283752 0.529022 0.000000
0.325775 0.529724 0.000000
0.366821 0.530243 0.000000
0.407288 0.530640 0.000000
0.447357 0.530792 0.000000
0.486877 0.530762 0.000000
0.525970 0.530548 0.000000
0.564636 0.530182 0.000000
0.603088 0.529907 0.000000
0.641205 0.529633 0.000000
0.678955 0.529327 0.000000
0.716217 0.528992 0.000000
0.752960 0.528717 0.000000
0.789093 0.528473 0.000000
0.824402 0.528320 0.000000
0.858826 0.528320 0.000000
0.892273 0.528503 0.000000
0.924683 0.528931 0.000000
0.955994 0.529633 0.000000
0.985229 0.530640 0.000000
0.999969 0.531921 0.000000
1.000000 0.533600 0.000000
1.000000 0.535583 0.000000
0.000000 0.561890 0.000000
0.000000 0.561920 0.000000
0.000000 0.561951 0.000000
0.000000 0.562012 0.000000
0.000000 0.562073 0.000000
0.001617 0.562164 0.000000
0.065674 0.562653 0.000000
0.135071 0.563538 0.000000
0.189636 0.564484 0.000000
0.237213 0.565399 0.000000
0.281738 0.566223 0.000000
0.324341 0.566956 0.000000
0.365845 0.567535 0.000000
0.406555 0.567993 0.000000
0.446716 0.568268 0.000000
0.486481 0.568329 0.000000
0.525665 0.568207 0.000000
0.564392 0.567932 0.000000
0.602692 0.567566 0.000000
0.640656 0.567291 0.000000
0.678101 0.567047 0.000000
0.715179 0.566772 0.000000
0.751617 0.566559 0.000000
0.787445 0.566376 0.000000
0.822418 0.566284 0.000000
0.856537 0.566315 0.000000
0.889618 0.566559 0.000000
0.921722 0.566986 0.000000
0.952759 0.567657 0.000000
0.982086 0.568573 0.000000
0.999847 0.569733 0.000000
1.000000 0.571198 0.000000
1.000000 0.572906 0.000000
0.000000 0.599030 0.000000
0.000000 0.599060 0.000000
0.000000 0.599091 0.000000
0.000000 0.599121 0.000000
0.000000 0.599152 0.000000
0.000214 0.599213 0.000000
0.057404 0.599548 0.000000
0.129120 0.600403 0.000000
0.186279 0.601318 0.000000
0.235199 0.602173 0.000000
0.280365 0.602997 0.000000
0.323425 0.603729 0.000000
0.365234 0.604309 0.000000
0.406189 0.604767 0.000000
0.446472 0.605103 0.000000
0.486267 0.605255 0.000000
0.525513 0.605225 0.000000
0.564301 0.605042 0.000000
0.602539 0.604706 0.000000
0.640289 0.604340 0.000000
0.677551 0.604034 0.000000
0.714264 0.603790 0.000000
0.750427 0.603577 0.000000
0.785858 0.603424 0.000000
0.820496 0.603363 0.000000
0.854218 0.603394 0.000000
0.886963 0.603607 0.000000
0.918732 0.604034 0.000000
0.949493 0.604645 0.000000
0.978912 0.605469 0.000000
0.999634 0.606445 0.000000
1.000000 0.607697 0.000000
1.000000 0.609192 0.000000
0.000000 0.635529 0.000000
0.000000 0.635559 0.000000
0.000000 0.635559 0.000000
0.000000 0.635559 0.000000
0.000000 0.635559 0.000000
0.000000 0.635590 0.000000
0.052979 0.635864 0.000000
0.125854 0.636627 0.000000
0.184875 0.637482 0.000000
0.234528 0.638306 0.000000
0.280182 0.639099 0.000000
0.323517 0.639771 0.000000
0.365448 0.640381 0.000000
0.406433 0.640869 0.000000
0.446747 0.641174 0.000000
0.486542 0.641388 0.000000
0.525757 0.641388 0.000000
0.564423 0.641296 0.000000
0.602631 0.641022 0.000000
0.640198 0.640656 0.000000
0.677216 0.640259 0.000000
0.713623 0.639923 0.000000
0.749420 0.639709 0.000000
0.784454 0.639526 0.000000
0.818695 0.639404 0.000000
0.852020 0.639465 0.000000
0.884399 0.639648 0.000000
0.915833 0.639954 0.000000
0.946320 0.640503 0.000000
0.975830 0.641144 0.000000
0.999420 0.641968 0.000000
1.000000 0.642975 0.000000
1.000000 0.644226 0.000000
0.000000 0.671143 0.000000
0.000000 0.671143 0.000000
0.000000 0.671173 0.000000
0.000000 0.671143 0.000000
0.000000 0.671143 0.000000
0.000000 0.671143 0.000000
0.054321 0.671356 0.000000
0.126495 0.672058 0.000000
0.186188 0.672852 0.000000
0.236023 0.673645 0.000000
0.281616 0.674347 0.000000
0.324982 0.674988 0.000000
0.366882 0.675568 0.000000
0.407776 0.676025 0.000000
0.447937 0.676361 0.000000
0.487549 0.676544 0.000000
0.526611 0.676605 0.000000
0.565155 0.676514 0.000000
0.603088 0.676331 0.000000
0.640472 0.675964 0.000000
0.677246 0.675537 0.000000
0.713318 0.675079 0.000000
0.748718 0.674744 0.000000
0.783356 0.674530 0.000000
0.817139 0.674408 0.000000
0.850006 0.674377 0.000000
0.881989 0.674469 0.000000
0.913086 0.674683 0.000000
0.943329 0.675079 0.000000
0.972748 0.675568 0.000000
0.998749 0.676239 0.000000
1.000000 0.677002 0.000000
1.000000 0.677948 0.000000
0.000000 0.705750 0.000000
0.000000 0.705750 0.000000
0.000000 0.705750 0.000000
0.000000 0.705719 0.000000
0.000000 0.705688 0.000000
0.001495 0.705658 0.000000
0.062836 0.705902 0.000000
0.132812 0.706543 0.000000
0.190887 0.707275 0.000000
0.240143 0.707977 0.000000
0.285309 0.708618 0.000000
0.328278 0.709198 0.000000
0.369843 0.709717 0.000000
0.410431 0.710144 0.000000
0.450317 0.710449 0.000000
0.489594 0.710632 0.000000
0.528351 0.710663 0.000000
0.566589 0.710571 0.000000
0.604279 0.710358 0.000000
0.641357 0.710052 0.000000
0.677765 0.709625 0.000000
0.713531 0.709106 0.000000
0.748474 0.708679 0.000000
0.782654 0.708344 0.000000
0.815979 0.708099 0.000000
0.848389 0.707977 0.000000
0.879944 0.707977 0.000000
0.910675 0.708069 0.000000
0.940613 0.708313 0.000000
0.969757 0.708649 0.000000
0.996765 0.709137 0.000000
1.000000 0.709717 0.000000
1.000000 0.710358 0.000000
0.000000 0.739136 0.000000
0.000000 0.739105 0.000000
0.000000 0.739075 0.000000
0.000000 0.739044 0.000000
0.000000 0.739014 0.000000
0.007965 0.738983 0.000000
0.078949 0.739288 0.000000
0.145416 0.739868 0.000000
0.199951 0.740479 0.000000
0.247528 0.741119 0.000000
0.291626 0.741699 0.000000
0.333832 0.742218 0.000000
0.374756 0.742645 0.000000
0.414825 0.743011 0.000000
0.454193 0.743256 0.000000
0.493011 0.743408 0.000000
0.531281 0.743439 0.000000
0.569061 0.743317 0.000000
0.606323 0.743073 0.000000
0.642944 0.742767 0.000000
0.678955 0.742371 0.000000
0.714325 0.741821 0.000000
0.748779 0.741302 0.000000
0.782440 0.740814 0.000000
0.815247 0.740479 0.000000
0.847168 0.740265 0.000000
0.878326 0.740112 0.000000
0.908691 0.740112 0.000000
0.938293 0.740173 0.000000
0.967163 0.740387 0.000000
0.994080 0.740692 0.000000
1.000000 0.741089 0.000000
1.000000 0.741516 0.000000
0.000000 0.771118 0.000000
0.000000 0.771057 0.000000
0.000000 0.771057 0.000000
0.000000 0.770996 0.000000
0.001099 0.770935 0.000000
0.031067 0.770966 0.000000
0.101898 0.771332 0.000000
0.163727 0.771881 0.000000
0.213531 0.772430 0.000000
0.258606 0.772949 0.000000
0.301086 0.773468 0.000000
0.342010 0.773926 0.000000
0.381958 0.774261 0.000000
0.421143 0.774567 0.000000
0.459808 0.774750 0.000000
0.497894 0.774841 0.000000
0.535583 0.774811 0.000000
0.572723 0.774689 0.000000
0.609436 0.774445 0.000000
0.645538 0.774109 0.000000
0.681000 0.773682 0.000000
0.715729 0.773193 0.000000
0.749725 0.772614 0.000000
0.782776 0.772034 0.000000
0.815033 0.771606 0.000000
0.846466 0.771240 0.000000
0.877136 0.770996 0.000000
0.907104 0.770874 0.000000
0.936340 0.770813 0.000000
0.964905 0.770874 0.000000
0.991760 0.771057 0.000000
1.000000 0.771301 0.000000
1.000000 0.771576 0.000000
0.000000 0.801636 0.000000
0.000000 0.801605 0.000000
0.000000 0.801575 0.000000
0.000732 0.801514 0.000000
0.018311 0.801483 0.000000
0.075714 0.801666 0.000000
0.135956 0.802063 0.000000
0.186493 0.802551 0.000000
0.231262 0.803009 0.000000
0.273254 0.803467 0.000000
0.313660 0.803864 0.000000
0.352936 0.804230 0.000000
0.391510 0.804535 0.000000
0.429535 0.804749 0.000000
0.467224 0.804901 0.000000
0.504456 0.804932 0.000000
0.541260 0.804871 0.000000
0.577637 0.804688 0.000000
0.613586 0.804443 0.000000
0.648987 0.804108 0.000000
0.683777 0.803680 0.000000
0.717896 0.803162 0.000000
0.751190 0.802643 0.000000
0.783691 0.802094 0.000000
0.815338 0.801514 0.000000
0.846252 0.801025 0.000000
0.876404 0.800720 0.000000
0.905975 0.800446 0.000000
0.934814 0.800293 0.000000
0.963074 0.800262 0.000000
0.989777 0.800293 0.000000
1.000000 0.800415 0.000000
1.000000 0.800507 0.000000
0.000000 0.830872 0.000000
0.001038 0.830780 0.000000
0.008942 0.830780 0.000000
0.020599 0.830780 0.000000
0.070007 0.830902 0.000000
0.123840 0.831207 0.000000
0.170471 0.831543 0.000000
0.212372 0.831940 0.000000
0.252258 0.832336 0.000000
0.290894 0.832703 0.000000
0.328766 0.833038 0.000000
0.366119 0.833344 0.000000
0.403107 0.833557 0.000000
0.439789 0.833710 0.000000
0.476257 0.833801 0.000000
0.512451 0.833801 0.000000
0.548218 0.833710 0.000000
0.583679 0.833527 0.000000
0.618744 0.833252 0.000000
0.653351 0.832886 0.000000
0.687286 0.832458 0.000000
0.720612 0.831970 0.000000
0.753235 0.831451 0.000000
0.785095 0.830902 0.000000
0.816193 0.830322 0.000000
0.846497 0.829803 0.000000
0.876160 0.829376 0.000000
0.905243 0.829041 0.000000
0.933685 0.828766 0.000000
0.961578 0.828644 0.000000
0.988129 0.828583 0.000000
1.000000 0.828552 0.000000
1.000000 0.828522 0.000000
0.015472 0.858917 0.000000
0.023346 0.858887 0.000000
0.054382 0.858948 0.000000
0.092987 0.859100 0.000000
0.131714 0.859314 0.000000
0.168396 0.859619 0.000000
0.204468 0.859894 0.000000
0.239929 0.860229 0.000000
0.275421 0.860535 0.000000
0.310822 0.860840 0.000000
0.346100 0.861084 0.000000
0.381317 0.861328 0.000000
0.416534 0.861481 0.000000
0.451691 0.861603 0.000000
0.486786 0.861633 0.000000
0.521729 0.861572 0.000000
0.556396 0.861450 0.000000
0.590790 0.861267 0.000000
0.624847 0.860962 0.000000
0.658478 0.860596 0.000000
0.691559 0.860168 0.000000
0.723999 0.859711 0.000000
0.755798 0.859192 0.000000
0.786957 0.858704 0.000000
0.817413 0.858154 0.000000
