滤镜资源/Professional Luts Collection/Lutify.me Professional/Contemporary Color Films/Cancrinite.cube
# Created by: Lutify.me
# Copyright: (c) Copyright Lutify.me 2015
# Website: https://lutify.me
#LUT size
LUT_3D_SIZE 5
#LUT data points
0.000000 0.000000 0.000000
0.218536 0.000000 0.000000
0.524139 0.000000 0.000000
0.837433 0.000000 0.000000
1.000000 0.000000 0.000000
0.000000 0.222961 0.000000
0.222046 0.227539 0.000000
0.528046 0.216797 0.000000
0.836365 0.182587 0.000000
1.000000 0.179962 0.000000
0.000000 0.524292 0.000000
0.193939 0.527252 0.000000
0.525970 0.530548 0.000000
0.824402 0.528320 0.000000
1.000000 0.535583 0.000000
0.000000 0.801636 0.000000
0.231262 0.803009 0.000000
0.541260 0.804871 0.000000
0.815338 0.801514 0.000000
1.000000 0.800507 0.000000
0.330841 1.000000 0.000000
0.424652 1.000000 0.000000
0.617554 1.000000 0.000000
0.831085 1.000000 0.000000
1.000000 1.000000 0.000000
0.000000 0.000000 0.223267
0.216431 0.000000 0.225281
0.524658 0.000000 0.221710
0.836182 0.000000 0.211639
1.000000 0.000000 0.196686
0.000000 0.224335 0.225311
0.226532 0.225342 0.225006
0.533997 0.210388 0.217438
0.838867 0.173950 0.204346
1.000000 0.171631 0.186920
0.000000 0.525177 0.216400
0.205444 0.525208 0.216614
0.528717 0.529083 0.202789
0.826202 0.526703 0.185181
1.000000 0.533600 0.166718
0.000000 0.801880 0.209839
0.242126 0.800690 0.210876
0.542786 0.802612 0.195221
0.813934 0.800446 0.180847
1.000000 0.799744 0.174622
0.337708 1.000000 0.266785
0.428955 1.000000 0.264435
0.616943 1.000000 0.255493
0.828064 1.000000 0.245361
1.000000 1.000000 0.246643
0.000000 0.000000 0.525421
0.186188 0.000000 0.527222
0.519623 0.000000 0.529358
0.827881 0.000000 0.526489
1.000000 0.000000 0.521881
0.000000 0.223572 0.526672
0.208130 0.221924 0.527100
0.527283 0.203979 0.529297
0.829956 0.167511 0.525726
1.000000 0.170929 0.520081
0.000000 0.525879 0.526001
0.199127 0.526062 0.525818
0.528320 0.525635 0.525238
0.824951 0.520691 0.519257
1.000000 0.527771 0.513275
0.000000 0.801971 0.527832
0.243347 0.800720 0.528137
0.544617 0.797302 0.529175
0.806702 0.797699 0.522308
1.000000 0.797394 0.517975
0.333771 1.000000 0.550537
0.426849 1.000000 0.551117
0.613190 1.000000 0.551971
0.818237 1.000000 0.546539
1.000000 1.000000 0.543518
0.000000 0.000000 0.807129
0.164368 0.000000 0.808105
0.521088 0.000000 0.811646
0.822113 0.000000 0.809998
1.000000 0.000000 0.805847
0.000000 0.218292 0.806305
0.197327 0.214874 0.806427
0.529175 0.194824 0.809204
0.822235 0.162872 0.808258
1.000000 0.183380 0.804108
0.000000 0.525208 0.801208
0.211914 0.524963 0.801239
0.534241 0.523621 0.800964
0.812897 0.519318 0.801819
1.000000 0.527985 0.797974
0.008026 0.800201 0.794983
0.267273 0.799255 0.794800
0.548676 0.796600 0.794312
0.798096 0.794281 0.793579
1.000000 0.792511 0.789551
0.342682 1.000000 0.796875
0.429657 1.000000 0.796875
0.609436 1.000000 0.797058
0.810394 1.000000 0.797729
1.000000 1.000000 0.792816
0.031097 0.000000 1.000000
0.287170 0.000000 1.000000
0.567047 0.000000 1.000000
0.836548 0.000000 1.000000
1.000000 0.000000 1.000000
0.110504 0.208130 1.000000
0.308167 0.203430 1.000000
0.573364 0.182526 1.000000
0.834930 0.158752 1.000000
1.000000 0.198151 1.000000
0.151611 0.523804 1.000000
0.323181 0.523193 1.000000
0.576080 0.522156 1.000000
0.821533 0.520660 1.000000
1.000000 0.532684 1.000000
0.229431 0.797455 1.000000
0.359161 0.796631 1.000000
0.580627 0.794556 1.000000
0.804413 0.793060 1.000000
1.000000 0.791656 1.000000
0.394287 1.000000 0.999603
0.464813 1.000000 0.999512
0.622711 1.000000 0.999207
0.811188 1.000000 0.998810
1.000000 0.999634 0.998596
