滤镜资源/Professional Luts Collection/Lutify.me Professional/Contemporary Color Films/Cancrinite.cube
# Created by: Lutify.me
# Copyright: (c) Copyright Lutify.me 2015
# Website: https://lutify.me
#LUT size
LUT_3D_SIZE 9
#LUT data points
0.000000 0.000000 0.000000
0.094513 0.000000 0.000000
0.218536 0.000000 0.000000
0.366669 0.000000 0.000000
0.524139 0.000000 0.000000
0.683075 0.000000 0.000000
0.837433 0.000000 0.000000
0.978546 0.000000 0.000000
1.000000 0.000000 0.000000
0.000000 0.092163 0.000000
0.092804 0.093994 0.000000
0.221802 0.089508 0.000000
0.370514 0.066528 0.000000
0.527039 0.011963 0.000000
0.684814 0.000000 0.000000
0.838013 0.000000 0.000000
0.978180 0.000000 0.000000
1.000000 0.000000 0.000000
0.000000 0.222961 0.000000
0.071991 0.224915 0.000000
0.222046 0.227539 0.000000
0.372498 0.225189 0.000000
0.528046 0.216797 0.000000
0.684601 0.201813 0.000000
0.836365 0.182587 0.000000
0.974945 0.169739 0.000000
1.000000 0.179962 0.000000
0.000000 0.372040 0.000000
0.006165 0.372559 0.000000
0.212097 0.376404 0.000000
0.371582 0.377808 0.000000
0.527466 0.376282 0.000000
0.682465 0.372498 0.000000
0.831573 0.367889 0.000000
0.967621 0.366974 0.000000
1.000000 0.375061 0.000000
0.000000 0.524292 0.000000
0.000000 0.524536 0.000000
0.193939 0.527252 0.000000
0.366821 0.530243 0.000000
0.525970 0.530548 0.000000
0.678955 0.529327 0.000000
0.824402 0.528320 0.000000
0.955994 0.529633 0.000000
1.000000 0.535583 0.000000
0.000000 0.671143 0.000000
0.000000 0.671143 0.000000
0.186188 0.672852 0.000000
0.366882 0.675568 0.000000
0.526611 0.676605 0.000000
0.677246 0.675537 0.000000
0.817139 0.674408 0.000000
0.943329 0.675079 0.000000
1.000000 0.677948 0.000000
0.000000 0.801636 0.000000
0.018311 0.801483 0.000000
0.231262 0.803009 0.000000
0.391510 0.804535 0.000000
0.541260 0.804871 0.000000
0.683777 0.803680 0.000000
0.815338 0.801514 0.000000
0.934814 0.800293 0.000000
1.000000 0.800507 0.000000
0.162659 0.912811 0.000000
0.222687 0.913239 0.000000
0.325439 0.913971 0.000000
0.447510 0.914459 0.000000
0.575409 0.914185 0.000000
0.701538 0.912994 0.000000
0.821014 0.911102 0.000000
0.932587 0.909119 0.000000
1.000000 0.907928 0.000000
0.330841 1.000000 0.000000
0.360565 1.000000 0.000000
0.424652 1.000000 0.000000
0.514526 1.000000 0.000000
0.617554 1.000000 0.000000
0.724701 1.000000 0.000000
0.831085 1.000000 0.000000
0.934448 1.000000 0.000031
1.000000 1.000000 0.000000
0.000000 0.000000 0.092987
0.091888 0.000000 0.093628
0.218689 0.000000 0.091736
0.367645 0.000000 0.087219
0.524963 0.000000 0.079224
0.683624 0.000000 0.065643
0.837616 0.000000 0.043396
0.978363 0.000000 0.014099
1.000000 0.000000 0.000763
0.000000 0.092621 0.092804
0.093445 0.092957 0.092773
0.225128 0.086334 0.089691
0.373077 0.061737 0.083893
0.528412 0.008087 0.074158
0.685394 0.000000 0.058441
0.838226 0.000000 0.033203
0.977997 0.000000 0.003632
1.000000 0.000000 0.000000
0.000000 0.223633 0.087952
0.077972 0.224274 0.087891
0.224976 0.226837 0.081360
0.375519 0.224060 0.071625
0.530670 0.214996 0.056671
0.686584 0.199371 0.034149
0.837585 0.179901 0.007233
0.975464 0.167023 0.000092
1.000000 0.177948 0.000000
0.000000 0.372345 0.065613
0.010651 0.372803 0.065033
0.215851 0.375641 0.055023
0.373688 0.377319 0.037659
0.529114 0.375671 0.019165
0.683746 0.371674 0.002777
0.832306 0.366974 0.000000
0.967682 0.366180 0.000000
1.000000 0.374359 0.000000
0.000000 0.524414 0.018280
0.000000 0.524628 0.017242
0.197571 0.527069 0.007660
0.368652 0.529938 0.000916
0.527130 0.530090 0.000000
0.679626 0.528839 0.000000
0.824585 0.527832 0.000000
0.955780 0.529175 0.000000
1.000000 0.535156 0.000000
0.000000 0.671173 0.000061
0.000000 0.671143 0.000000
0.189087 0.672821 0.000000
0.368317 0.675354 0.000000
0.527435 0.676270 0.000000
0.677612 0.675140 0.000000
0.817108 0.674042 0.000000
0.942902 0.674683 0.000000
1.000000 0.677612 0.000000
0.000000 0.801575 0.000000
0.020721 0.801422 0.000000
0.233154 0.802917 0.000000
0.392426 0.804321 0.000000
0.541687 0.804565 0.000000
0.683838 0.803314 0.000000
0.815033 0.801208 0.000000
0.934265 0.800018 0.000000
1.000000 0.800201 0.000000
0.165070 0.912628 0.006866
0.224396 0.913025 0.005096
0.326416 0.913696 0.002197
0.447937 0.914154 0.000305
0.575470 0.913849 0.000000
0.701172 0.912628 0.000000
0.820465 0.910828 0.000000
0.931885 0.908844 0.000000
1.000000 0.907684 0.000000
0.333954 1.000000 0.102295
0.363251 1.000000 0.099335
0.426605 1.000000 0.092102
0.515411 1.000000 0.079956
0.617493 1.000000 0.065460
0.724152 1.000000 0.051270
0.830322 1.000000 0.040497
0.933533 1.000000 0.039124
1.000000 1.000000 0.050385
0.000000 0.000000 0.223267
0.076324 0.000000 0.224060
0.216431 0.000000 0.225281
0.367371 0.000000 0.224243
0.524658 0.000000 0.221710
0.682861 0.000000 0.217468
0.836182 0.000000 0.211639
0.976379 0.000000 0.204498
1.000000 0.000000 0.196686
0.000000 0.092133 0.224457
0.082886 0.091553 0.224731
0.222961 0.083008 0.226044
0.372742 0.055939 0.224548
0.528137 0.004669 0.221283
0.684601 0.000000 0.216522
0.836761 0.000000 0.210205
0.976013 0.000000 0.202667
1.000000 0.000000 0.194519
0.000000 0.224335 0.225311
0.072021 0.224945 0.225342
0.226532 0.225342 0.225006
0.379364 0.220520 0.221893
0.533997 0.210388 0.217438
0.688934 0.194000 0.211548
0.838867 0.173950 0.204346
0.975769 0.160797 0.196014
1.000000 0.171631 0.186920
0.000000 0.373260 0.222992
0.011658 0.373627 0.222870
0.220886 0.373810 0.222992
0.376099 0.376068 0.217712
0.532349 0.374176 0.211334
0.687073 0.369293 0.203857
0.835114 0.363983 0.195496
0.969666 0.362885 0.186432
1.000000 0.370941 0.177277
0.000000 0.525177 0.216400
0.000000 0.525360 0.216278
0.205444 0.525208 0.216614
0.371704 0.527924 0.210846
0.528717 0.529083 0.202789
0.681213 0.527985 0.195007
0.826202 0.526703 0.185181
0.957001 0.527771 0.175232
1.000000 0.533600 0.166718
0.000000 0.671661 0.208649
0.000000 0.671661 0.208527
0.198517 0.671112 0.209198
0.372559 0.672821 0.203674
0.528625 0.674835 0.192780
0.677948 0.674255 0.184753
0.816986 0.673370 0.177429
0.942657 0.674072 0.168427
1.000000 0.676910 0.161957
0.000000 0.801880 0.209839
0.024261 0.801575 0.210052
0.242126 0.800690 0.210876
0.396759 0.801605 0.205261
0.542786 0.802612 0.195221
0.683472 0.802216 0.185211
0.813934 0.800446 0.180847
0.932922 0.799469 0.177277
1.000000 0.799744 0.174622
0.173126 0.911469 0.231171
0.232544 0.911102 0.231415
0.332916 0.910889 0.230133
0.451172 0.911285 0.225159
0.575989 0.911621 0.217438
0.700104 0.911224 0.209381
0.818726 0.909973 0.204102
0.929901 0.908203 0.204254
1.000000 0.907135 0.205811
0.337708 1.000000 0.266785
0.366791 1.000000 0.266235
0.428955 1.000000 0.264435
0.516418 1.000000 0.260742
0.616943 1.000000 0.255493
0.722473 1.000000 0.249847
0.828064 1.000000 0.245361
0.931183 1.000000 0.243774
1.000000 1.000000 0.246643
0.000000 0.000000 0.372284
0.013947 0.000000 0.372375
0.206024 0.000000 0.374756
0.364624 0.000000 0.375488
0.522491 0.000000 0.374573
0.680298 0.000000 0.372681
0.832733 0.000000 0.369659
0.972290 0.000000 0.366119
1.000000 0.000000 0.362549
0.000000 0.089813 0.373383
0.031860 0.087982 0.373444
0.214142 0.077789 0.375061
0.369659 0.046143 0.376007
0.525757 0.001831 0.374817
0.682068 0.000000 0.372559
0.833344 0.000000 0.369324
0.971863 0.000000 0.365601
1.000000 0.000000 0.361847
0.000000 0.224457 0.374390
0.034637 0.224640 0.374390
0.221710 0.223969 0.374756
0.375488 0.218201 0.375977
0.531219 0.207062 0.374420
0.686462 0.189880 0.371277
0.835815 0.169586 0.367340
0.972168 0.157074 0.362976
1.000000 0.169189 0.358704
0.000000 0.373657 0.374542
0.003204 0.373932 0.374451
0.218353 0.374329 0.374298
0.376129 0.374298 0.373993
0.534485 0.370514 0.370880
0.688538 0.365021 0.367096
0.835236 0.359650 0.362793
0.968384 0.358948 0.358307
1.000000 0.367126 0.354034
0.000000 0.525757 0.373169
0.000000 0.525940 0.373108
0.205048 0.525909 0.373047
0.374634 0.525696 0.373260
0.529358 0.527588 0.368530
0.682343 0.526245 0.363525
0.826782 0.524414 0.358551
0.956512 0.525269 0.354034
1.000000 0.531036 0.350311
0.000000 0.672180 0.371826
0.000000 0.672119 0.371796
0.200134 0.671539 0.372162
0.376648 0.670746 0.372589
0.529388 0.672638 0.368042
0.677277 0.672943 0.362732
0.815735 0.672241 0.358429
0.940979 0.672821 0.353943
1.000000 0.675537 0.351044
0.000000 0.802124 0.375244
0.025482 0.801819 0.375397
0.244324 0.800598 0.376221
0.400696 0.799286 0.376770
0.543671 0.799988 0.372986
0.681885 0.800507 0.366821
0.811310 0.799225 0.363831
0.929840 0.798462 0.361542
1.000000 0.798798 0.359833
0.173218 0.911499 0.388733
0.233215 0.910980 0.389099
0.335052 0.909912 0.389801
0.453644 0.908813 0.389832
0.575928 0.908966 0.386536
0.697662 0.909210 0.381531
0.815186 0.908661 0.377411
0.926025 0.907166 0.376862
1.000000 0.906219 0.377075
0.337158 1.000000 0.411346
0.366669 1.000000 0.411591
0.429901 1.000000 0.411896
0.516571 1.000000 0.411133
0.615356 1.000000 0.408539
0.719269 1.000000 0.404724
0.823975 1.000000 0.400970
0.926880 1.000000 0.398895
1.000000 1.000000 0.399902
0.000000 0.000000 0.525421
0.000000 0.000000 0.525391
0.186188 0.000000 0.527222
0.358368 0.000000 0.529297
0.519623 0.000000 0.529358
0.676849 0.000000 0.528168
0.827881 0.000000 0.526489
0.965820 0.000000 0.524231
1.000000 0.000000 0.521881
0.000000 0.083679 0.526093
0.000000 0.080658 0.526062
0.196960 0.068024 0.527222
0.363617 0.030457 0.529510
0.522797 0.000458 0.529480
0.678589 0.000000 0.528168
0.828430 0.000000 0.526337
0.965271 0.000000 0.523987
1.000000 0.000000 0.521545
0.000000 0.223572 0.526672
0.000061 0.223389 0.526611
0.208130 0.221924 0.527100
0.370453 0.215881 0.528748
0.527283 0.203979 0.529297
0.681702 0.187439 0.527954
0.829956 0.167511 0.525726
0.964905 0.156525 0.522949
1.000000 0.170929 0.520081
0.000000 0.373596 0.526611
0.000000 0.373749 0.526550
0.208588 0.373810 0.526703
0.373871 0.373077 0.526855
0.529694 0.368652 0.527985
0.683533 0.362549 0.526428
0.829620 0.357086 0.523560
0.961517 0.356781 0.520355
1.000000 0.365570 0.517181
0.000000 0.525879 0.526001
0.000000 0.525940 0.525940
0.199127 0.526062 0.525818
0.373322 0.526031 0.525574
0.528320 0.525635 0.525238
0.682098 0.522797 0.522400
0.824951 0.520691 0.519257
0.952911 0.521820 0.516174
1.000000 0.527771 0.513275
0.000000 0.672272 0.525452
0.000000 0.672180 0.525421
0.196960 0.671814 0.525360
0.376160 0.671082 0.525360
0.530304 0.670013 0.525665
0.675079 0.671234 0.521637
0.812988 0.670532 0.517883
0.937531 0.670776 0.514740
1.000000 0.673248 0.512512
0.000000 0.801971 0.527832
0.024109 0.801697 0.527863
0.243347 0.800720 0.528137
0.400665 0.799133 0.528595
0.544617 0.797302 0.529175
0.679047 0.798096 0.525574
0.806702 0.797699 0.522308
0.924896 0.797150 0.519897
1.000000 0.797394 0.517975
0.171356 0.911377 0.536255
0.231476 0.910919 0.536469
0.333618 0.909821 0.536865
0.453125 0.908051 0.537537
0.575531 0.906281 0.538025
0.694183 0.906525 0.535339
0.809753 0.906830 0.531372
0.920135 0.905792 0.529938
1.000000 0.905060 0.529266
0.333771 1.000000 0.550537
0.363373 1.000000 0.550690
0.426849 1.000000 0.551117
0.514557 1.000000 0.551849
0.613190 1.000000 0.551971
0.715149 1.000000 0.549866
0.818237 1.000000 0.546539
0.920624 1.000000 0.543762
1.000000 1.000000 0.543518
0.000000 0.000000 0.673828
0.000000 0.000000 0.673767
0.162964 0.000000 0.675018
0.352173 0.000000 0.677399
0.516968 0.000000 0.678528
0.674438 0.000000 0.677765
0.823212 0.000000 0.676239
0.958252 0.000000 0.674530
1.000000 0.000000 0.672485
0.000000 0.071655 0.674194
0.000000 0.067261 0.674103
0.176514 0.051331 0.674835
0.357819 0.011261 0.677307
0.520111 0.000000 0.678497
0.676147 0.000000 0.677612
0.823669 0.000000 0.675995
0.957642 0.000000 0.674225
1.000000 0.000000 0.672119
0.000000 0.221497 0.674072
0.000000 0.221008 0.674011
0.192230 0.218872 0.674347
0.366302 0.212799 0.675568
0.524750 0.199493 0.677429
0.678528 0.182953 0.676941
0.824127 0.166260 0.675354
0.956329 0.158905 0.673462
1.000000 0.176239 0.671173
0.000000 0.373108 0.673157
0.000000 0.373108 0.673065
0.198181 0.372681 0.673401
0.371796 0.371613 0.673523
0.527802 0.367310 0.675079
0.679230 0.361420 0.675201
0.822449 0.356995 0.673706
0.951996 0.357361 0.671570
1.000000 0.367004 0.669037
0.000000 0.525635 0.671539
0.000000 0.525635 0.671478
0.195129 0.525665 0.671448
0.372711 0.525391 0.671387
0.528198 0.524628 0.671326
0.676575 0.521423 0.672241
0.817230 0.519135 0.670685
0.943726 0.520355 0.668182
1.000000 0.526520 0.665527
0.000000 0.671844 0.669861
0.000000 0.671692 0.669830
0.198486 0.671417 0.669678
0.376801 0.670868 0.669464
0.530212 0.670074 0.669159
0.672577 0.669342 0.668793
0.809509 0.667511 0.666351
0.932281 0.667633 0.663940
1.000000 0.670166 0.661652
0.000000 0.801300 0.669861
0.035950 0.801025 0.669861
0.246246 0.800262 0.669800
0.401215 0.798981 0.669769
0.544128 0.797150 0.669830
0.677399 0.795258 0.670197
0.801239 0.795990 0.667023
0.919128 0.795441 0.664276
1.000000 0.795349 0.662140
0.176941 0.910797 0.673492
0.234894 0.910400 0.673523
0.334686 0.909454 0.673645
0.452393 0.907867 0.673859
0.573853 0.905762 0.674255
0.691864 0.903778 0.674835
0.803955 0.904510 0.672058
0.913330 0.904266 0.669617
1.000000 0.903687 0.667877
0.333038 1.000000 0.680664
0.362244 1.000000 0.680756
0.424683 1.000000 0.680969
0.511444 1.000000 0.681305
0.610077 1.000000 0.681946
0.711975 1.000000 0.682373
0.812775 1.000000 0.680359
0.913788 1.000000 0.677002
1.000000 1.000000 0.675537
0.000000 0.000000 0.807129
0.000000 0.000000 0.807037
0.164368 0.000000 0.808105
0.357117 0.000000 0.810272
0.521088 0.000000 0.811646
0.676544 0.000000 0.811615
0.822113 0.000000 0.809998
0.952942 0.000000 0.808044
1.000000 0.000000 0.805847
0.000000 0.051514 0.807159
0.000000 0.045929 0.807037
0.178284 0.026611 0.807770
0.362671 0.001251 0.809998
0.524109 0.000000 0.811371
0.678070 0.000000 0.811188
0.822449 0.000000 0.809540
0.952271 0.000000 0.807556
1.000000 0.000000 0.805359
0.000000 0.218292 0.806305
0.000000 0.217499 0.806183
0.197327 0.214874 0.806427
0.372406 0.208252 0.807404
0.529175 0.194824 0.809204
0.680206 0.176849 0.809723
0.822235 0.162872 0.808258
0.950134 0.162079 0.806366
1.000000 0.183380 0.804108
0.000000 0.372192 0.804321
0.000000 0.372070 0.804199
0.208405 0.371246 0.804626
0.379578 0.369934 0.804504
0.533020 0.365997 0.805664
0.680664 0.359680 0.806854
0.819580 0.356659 0.805756
0.944794 0.359528 0.803925
1.000000 0.370453 0.801666
0.000000 0.525208 0.801208
0.000000 0.525177 0.801117
0.211914 0.524963 0.801239
0.382080 0.524414 0.801239
0.534241 0.523621 0.800964
0.677795 0.520844 0.802246
0.812897 0.519318 0.801819
0.935394 0.521423 0.800171
1.000000 0.527985 0.797974
0.000000 0.671173 0.797546
0.001312 0.671051 0.797485
0.221863 0.670746 0.797363
0.387756 0.670166 0.797150
0.535919 0.669342 0.796906
0.674377 0.668518 0.796600
0.803680 0.666656 0.797211
0.923828 0.666565 0.795746
1.000000 0.669037 0.793549
0.008026 0.800201 0.794983
0.101044 0.799927 0.794922
0.267273 0.799255 0.794800
0.411530 0.798096 0.794586
0.548676 0.796600 0.794312
0.677917 0.795135 0.793976
0.798096 0.794281 0.793579
0.914978 0.792786 0.791595
1.000000 0.792511 0.789551
0.206299 0.909729 0.794739
0.256134 0.909393 0.794708
0.347290 0.908569 0.794647
0.458740 0.907227 0.794525
0.575714 0.905487 0.794464
0.691040 0.903625 0.794495
0.801636 0.902069 0.794739
0.907990 0.902771 0.792053
1.000000 0.902161 0.789612
0.342682 1.000000 0.796875
0.370209 1.000000 0.796875
0.429657 1.000000 0.796875
0.513245 1.000000 0.796936
0.609436 1.000000 0.797058
0.710052 1.000000 0.797363
0.810394 1.000000 0.797729
0.908752 1.000000 0.795319
1.000000 1.000000 0.792816
0.000000 0.000000 0.921021
0.000488 0.000000 0.920959
0.213745 0.000000 0.922394
0.382965 0.000000 0.924194
0.538269 0.000000 0.925476
0.687195 0.000000 0.925659
0.826874 0.000000 0.924561
0.952179 0.000000 0.922455
1.000000 0.000000 0.920013
0.000000 0.024445 0.920837
0.004913 0.017792 0.920746
0.224030 0.002838 0.921967
0.387848 0.000000 0.923859
0.540955 0.000000 0.925049
0.688416 0.000000 0.925140
0.826996 0.000000 0.923981
0.951355 0.000000 0.921844
1.000000 0.000000 0.919403
0.000000 0.214020 0.919556
0.030731 0.212799 0.919678
0.241669 0.209869 0.919647
0.397522 0.202362 0.920715
0.545868 0.189178 0.922272
0.690186 0.172058 0.923035
0.826263 0.158936 0.922302
0.948730 0.164856 0.920227
1.000000 0.190918 0.917877
0.000000 0.371002 0.916931
0.068298 0.370605 0.917114
0.253235 0.369629 0.917328
0.405151 0.368225 0.917053
0.549713 0.364441 0.918091
0.690125 0.359009 0.919312
0.822693 0.356171 0.919159
0.942657 0.361420 0.917267
1.000000 0.374481 0.915009
0.000000 0.524658 0.912964
0.084595 0.524475 0.913086
0.259460 0.524109 0.913208
0.408112 0.523438 0.913177
0.550720 0.522736 0.912750
0.686798 0.520752 0.913727
0.814972 0.519348 0.914368
0.932343 0.522827 0.912933
1.000000 0.530609 0.910919
0.003143 0.670441 0.908234
0.113159 0.670288 0.908234
0.270264 0.669922 0.908173
0.413391 0.669281 0.908051
0.551178 0.668427 0.907867
0.682526 0.667877 0.907410
0.804901 0.666626 0.908386
0.919769 0.667175 0.907898
1.000000 0.670105 0.906342
0.113403 0.798889 0.904175
0.192932 0.798645 0.904144
0.308258 0.798004 0.903992
0.434723 0.796967 0.903778
0.561615 0.795624 0.903473
0.683777 0.794403 0.903229
0.799438 0.793610 0.902985
0.910004 0.792023 0.903503
1.000000 0.791504 0.902313
0.256836 0.908295 0.901917
0.296295 0.907959 0.901917
0.374237 0.907257 0.901794
0.475067 0.906097 0.901642
0.584351 0.904663 0.901398
0.694550 0.903168 0.901154
0.801880 0.902008 0.900848
0.905548 0.901337 0.900513
1.000000 0.899750 0.898712
0.364410 1.000000 0.901428
0.389160 1.000000 0.901398
0.443695 1.000000 0.901337
0.521973 1.000000 0.901245
0.613739 1.000000 0.901154
0.711121 1.000000 0.901001
0.809723 1.000000 0.901001
0.907288 0.999542 0.901154
1.000000 1.000000 0.898560
0.031097 0.000000 1.000000
0.153534 0.000000 1.000000
0.287170 0.000000 1.000000
0.426270 0.000000 1.000000
0.567047 0.000000 1.000000
0.705627 0.000000 1.000000
0.836548 0.000000 1.000000
0.955353 0.000000 1.000000
1.000000 0.000000 1.000000
0.068634 0.002686 1.000000
0.167480 0.001282 1.000000
0.293854 0.000000 1.000000
0.430115 0.000000 1.000000
0.569183 0.000000 1.000000
0.706543 0.000000 1.000000
0.836334 0.000000 1.000000
0.954346 0.000000 1.000000
1.000000 0.000000 1.000000
0.110504 0.208130 1.000000
0.190643 0.206909 1.000000
0.308167 0.203430 1.000000
0.438477 0.195343 1.000000
0.573364 0.182526 1.000000
0.707611 0.167511 1.000000
0.834930 0.158752 1.000000
0.951233 0.168182 1.000000
1.000000 0.198151 1.000000
0.137482 0.369141 1.000000
0.206879 0.368744 1.000000
0.318085 0.367889 1.000000
0.445251 0.366333 1.000000
0.576324 0.362762 1.000000
0.706543 0.358612 1.000000
0.830353 0.357483 1.000000
0.944519 0.363281 1.000000
1.000000 0.378113 1.000000
0.151611 0.523804 1.000000
0.216278 0.523621 1.000000
0.323181 0.523193 1.000000
0.447388 0.522583 1.000000
0.576080 0.522156 1.000000
0.701935 0.520874 1.000000
0.821533 0.520660 1.000000
0.933533 0.524017 1.000000
1.000000 0.532684 1.000000
0.171509 0.669495 1.000000
0.230194 0.669342 1.000000
0.331116 0.668945 1.000000
0.450317 0.668335 1.000000
0.574310 0.667633 1.000000
0.695740 0.667572 1.000000
0.810730 0.667206 1.000000
0.920288 0.667572 1.000000
1.000000 0.671021 1.000000
0.229431 0.797455 1.000000
0.273956 0.797211 1.000000
0.359161 0.796631 1.000000
0.466400 0.795685 1.000000
0.580627 0.794556 1.000000
0.694336 0.793549 1.000000
0.804413 0.793060 1.000000
0.910065 0.791931 1.000000
1.000000 0.791656 1.000000
0.314301 0.906677 1.000000
0.345032 0.906433 1.000000
0.409668 0.905792 1.000000
0.498352 0.904785 1.000000
0.598572 0.903564 1.000000
0.702209 0.902344 0.999969
0.805054 0.901398 0.999969
0.905914 0.900696 0.999939
1.000000 0.898926 1.000000
0.394287 1.000000 0.999603
0.416046 1.000000 0.999573
0.464813 1.000000 0.999512
0.536652 1.000000 0.999359
0.622711 1.000000 0.999207
0.715729 1.000000 0.999054
0.811188 1.000000 0.998810
0.907104 0.999603 0.998596
1.000000 0.999634 0.998596
