滤镜资源/Professional Luts Collection/Lutify.me Professional/Contemporary Color Films/Carnelian.cube
# Created by: Lutify.me
# Copyright: (c) Copyright Lutify.me 2015
# Website: https://lutify.me
#LUT size
LUT_3D_SIZE 5
#LUT data points
0.000000 0.000000 0.000000
0.225922 0.000000 0.000000
0.522461 0.000000 0.000000
0.811981 0.000000 0.000000
1.000000 0.000000 0.000000
0.000000 0.230103 0.000000
0.228943 0.234009 0.000000
0.521332 0.226776 0.000000
0.808502 0.206848 0.000000
1.000000 0.199615 0.000000
0.000000 0.514069 0.000000
0.214966 0.517029 0.000000
0.516022 0.519440 0.000000
0.796631 0.517303 0.000000
1.000000 0.518982 0.000000
0.000000 0.779175 0.000000
0.236603 0.781006 0.000000
0.521454 0.783691 0.000000
0.788025 0.782043 0.000000
1.000000 0.780670 0.000000
0.240631 1.000000 0.000000
0.353271 1.000000 0.000000
0.563751 1.000000 0.000000
0.794128 1.000000 0.000000
1.000000 1.000000 0.000000
0.000000 0.000000 0.230499
0.224060 0.000000 0.232697
0.520355 0.000000 0.229279
0.808960 0.000000 0.220123
1.000000 0.000000 0.207184
0.000000 0.231232 0.231995
0.231720 0.231720 0.231720
0.525055 0.220947 0.224792
0.810028 0.199127 0.213928
1.000000 0.191223 0.199738
0.000000 0.514832 0.227417
0.221985 0.514526 0.227905
0.516815 0.517944 0.216461
0.797729 0.515625 0.202698
1.000000 0.516602 0.187500
0.000000 0.779572 0.226410
0.244293 0.778625 0.227539
0.522095 0.781372 0.215027
0.786743 0.781006 0.201111
1.000000 0.779907 0.191437
0.246735 1.000000 0.260254
0.358734 1.000000 0.259155
0.564392 1.000000 0.249725
0.792145 1.000000 0.235077
1.000000 1.000000 0.228699
0.000000 0.000000 0.516724
0.207764 0.000000 0.518860
0.513763 0.000000 0.520172
0.799866 0.000000 0.516876
1.000000 0.000000 0.511658
0.000000 0.230133 0.516785
0.221222 0.228882 0.517181
0.516998 0.216339 0.519135
0.800720 0.194275 0.515594
1.000000 0.187775 0.509583
0.000000 0.515106 0.515381
0.217163 0.515076 0.515167
0.514740 0.514709 0.514771
0.796661 0.509735 0.509216
1.000000 0.510315 0.503021
0.000000 0.779877 0.515961
0.242249 0.778961 0.516205
0.523438 0.776794 0.517059
0.781616 0.778473 0.509888
1.000000 0.777466 0.503754
0.239807 1.000000 0.528778
0.355621 1.000000 0.529297
0.563660 1.000000 0.530273
0.786224 1.000000 0.523926
1.000000 1.000000 0.517792
0.000000 0.000000 0.785553
0.199890 0.000000 0.787018
0.511871 0.000000 0.790070
0.793304 0.000000 0.788544
1.000000 0.000000 0.784668
0.000000 0.226166 0.784454
0.216522 0.224030 0.784698
0.515533 0.211121 0.787354
0.792633 0.191345 0.786926
1.000000 0.193542 0.783264
0.000000 0.514130 0.780396
0.222595 0.513885 0.780548
0.516876 0.512726 0.780518
0.785736 0.507782 0.781891
1.000000 0.508759 0.778473
0.000000 0.778656 0.776245
0.252350 0.778137 0.776154
0.524170 0.776611 0.775757
0.775269 0.775238 0.775269
1.000000 0.772125 0.770874
0.243073 1.000000 0.776886
0.354858 1.000000 0.776886
0.560059 1.000000 0.777039
0.782288 1.000000 0.777679
1.000000 1.000000 0.771790
0.000000 0.000000 1.000000
0.263855 0.000000 1.000000
0.534882 0.000000 1.000000
0.798462 0.000000 1.000000
1.000000 0.000000 1.000000
0.040039 0.219452 1.000000
0.276947 0.217041 1.000000
0.538422 0.204742 1.000000
0.796967 0.187653 1.000000
1.000000 0.198944 1.000000
0.078461 0.512482 1.000000
0.283875 0.511902 1.000000
0.539154 0.511047 1.000000
0.788330 0.507812 1.000000
1.000000 0.510620 1.000000
0.146820 0.776733 1.000000
0.305908 0.776276 1.000000
0.541168 0.774963 1.000000
0.777954 0.773712 1.000000
1.000000 0.770508 1.000000
0.282593 1.000000 1.000000
0.377411 1.000000 1.000000
0.566620 1.000000 1.000000
0.781464 1.000000 1.000000
0.999969 1.000000 0.999939
