滤镜资源/Professional Luts Collection/Lutify.me Professional/Contemporary Color Films/Carnelian.cube
# Created by: Lutify.me
# Copyright: (c) Copyright Lutify.me 2015
# Website: https://lutify.me
#LUT size
LUT_3D_SIZE 9
#LUT data points
0.000000 0.000000 0.000000
0.093597 0.000000 0.000000
0.225922 0.000000 0.000000
0.374023 0.000000 0.000000
0.522461 0.000000 0.000000
0.669098 0.000000 0.000000
0.811981 0.000000 0.000000
0.947968 0.000000 0.000000
1.000000 0.000000 0.000000
0.000000 0.093536 0.000000
0.093353 0.095551 0.000000
0.229462 0.091278 0.000000
0.376160 0.072937 0.000000
0.523285 0.038879 0.000000
0.669342 0.002747 0.000000
0.811798 0.000000 0.000000
0.947296 0.000000 0.000000
1.000000 0.000000 0.000000
0.000000 0.230103 0.000000
0.074646 0.231781 0.000000
0.228943 0.234009 0.000000
0.374878 0.232330 0.000000
0.521332 0.226776 0.000000
0.666748 0.217743 0.000000
0.808502 0.206848 0.000000
0.943115 0.198486 0.000000
1.000000 0.199615 0.000000
0.000000 0.372620 0.000000
0.040497 0.373108 0.000000
0.223206 0.376495 0.000000
0.372864 0.377380 0.000000
0.518524 0.376160 0.000000
0.662781 0.373566 0.000000
0.803162 0.370178 0.000000
0.936249 0.368195 0.000000
1.000000 0.370514 0.000000
0.000000 0.514069 0.000000
0.003662 0.514221 0.000000
0.214966 0.517029 0.000000
0.369385 0.519318 0.000000
0.516022 0.519440 0.000000
0.658447 0.518372 0.000000
0.796631 0.517303 0.000000
0.927338 0.517059 0.000000
1.000000 0.518982 0.000000
0.000000 0.651215 0.000000
0.002258 0.651245 0.000000
0.213440 0.653351 0.000000
0.368958 0.655701 0.000000
0.514984 0.656708 0.000000
0.655792 0.655975 0.000000
0.790588 0.654999 0.000000
0.918121 0.654846 0.000000
1.000000 0.655731 0.000000
0.000000 0.779175 0.000000
0.061432 0.779297 0.000000
0.236603 0.781006 0.000000
0.381531 0.782745 0.000000
0.521454 0.783691 0.000000
0.657684 0.783417 0.000000
0.788025 0.782043 0.000000
0.911469 0.780975 0.000000
1.000000 0.780670 0.000000
0.110291 0.896362 0.000000
0.181396 0.896942 0.000000
0.289948 0.898071 0.000000
0.412415 0.899261 0.000000
0.539459 0.899963 0.000000
0.666260 0.899902 0.000000
0.789703 0.899078 0.000000
0.908722 0.897705 0.000000
1.000000 0.896667 0.000000
0.240631 1.000000 0.000000
0.277893 1.000000 0.000000
0.353271 1.000000 0.000000
0.452820 1.000000 0.000000
0.563751 1.000000 0.000000
0.678711 1.000000 0.000000
0.794128 1.000000 0.000000
0.908325 1.000000 0.000000
1.000000 1.000000 0.000000
0.000000 0.000000 0.094177
0.091309 0.000000 0.094940
0.226501 0.000000 0.093445
0.374573 0.000000 0.089172
0.522552 0.000000 0.081726
0.668976 0.000000 0.069519
0.811584 0.000000 0.051544
0.947327 0.000000 0.028595
1.000000 0.000000 0.003876
0.000000 0.093964 0.094696
0.094513 0.094513 0.094513
0.233063 0.087921 0.091339
0.378235 0.068604 0.085663
0.524384 0.032990 0.076599
0.669678 0.001740 0.063080
0.811615 0.000000 0.043518
0.946808 0.000000 0.019531
1.000000 0.000000 0.002502
0.000000 0.230652 0.090149
0.081085 0.230988 0.090088
0.231354 0.233307 0.083832
0.377167 0.231201 0.075317
0.523285 0.225098 0.063080
0.668213 0.215576 0.046082
0.809479 0.204285 0.024933
0.943695 0.195740 0.003754
1.000000 0.196930 0.000183
0.000000 0.372894 0.076172
0.048065 0.372986 0.075958
0.225677 0.375549 0.067719
0.373993 0.376831 0.054749
0.519501 0.375580 0.041016
0.663666 0.372711 0.021179
0.803802 0.369141 0.003723
0.936615 0.367096 0.000244
1.000000 0.369293 0.000000
0.000000 0.514160 0.054382
0.005737 0.514282 0.054138
0.217285 0.516296 0.044800
0.370209 0.518768 0.024658
0.516449 0.518921 0.009186
0.658691 0.517944 0.002563
0.796722 0.516785 0.000153
0.927338 0.516510 0.000000
1.000000 0.518402 0.000000
0.000000 0.651245 0.033722
0.002960 0.651245 0.033478
0.215393 0.652893 0.020752
0.369690 0.655212 0.004150
0.515228 0.656311 0.000702
0.655823 0.655609 0.000000
0.790436 0.654633 0.000000
0.917847 0.654480 0.000000
1.000000 0.655365 0.000000
0.000000 0.779175 0.030792
0.065308 0.779114 0.030365
0.238281 0.780548 0.014954
0.382172 0.782288 0.003632
0.521576 0.783264 0.000244
0.657562 0.783051 0.000000
0.787659 0.781738 0.000000
0.911041 0.780731 0.000000
1.000000 0.780426 0.000000
0.114136 0.895966 0.062897
0.184662 0.896301 0.059326
0.291809 0.897247 0.048584
0.413300 0.898438 0.028046
0.539612 0.899292 0.006348
0.665955 0.899445 0.001831
0.789276 0.898743 0.000092
0.908203 0.897491 0.000000
1.000000 0.896454 0.000000
0.244507 1.000000 0.113770
0.281586 1.000000 0.111359
0.355896 1.000000 0.104828
0.454285 1.000000 0.092743
0.564117 1.000000 0.075562
0.678467 1.000000 0.056213
0.793610 1.000000 0.036591
0.907745 1.000000 0.022034
1.000000 1.000000 0.020569
0.000000 0.000000 0.230499
0.074982 0.000000 0.231384
0.224060 0.000000 0.232697
0.372437 0.000000 0.231750
0.520355 0.000000 0.229279
0.666534 0.000000 0.225311
0.808960 0.000000 0.220123
0.944397 0.000000 0.213959
1.000000 0.000000 0.207184
0.000000 0.093750 0.231720
0.084229 0.093262 0.231995
0.230286 0.084778 0.233185
0.376068 0.064270 0.231720
0.522339 0.027344 0.228516
0.667480 0.000946 0.224121
0.809113 0.000000 0.218750
0.944031 0.000000 0.212433
1.000000 0.000000 0.205200
0.000000 0.231232 0.231995
0.076630 0.231567 0.231934
0.231720 0.231720 0.231720
0.379303 0.227875 0.228729
0.525055 0.220947 0.224792
0.669373 0.210815 0.219849
0.810028 0.199127 0.213928
0.943695 0.190399 0.207184
1.000000 0.191223 0.199738
0.000000 0.373566 0.230530
0.046692 0.373688 0.230469
0.228699 0.373566 0.230682
0.374695 0.375580 0.226013
0.521149 0.374115 0.220703
0.665649 0.370483 0.214630
0.805634 0.366302 0.208099
0.938019 0.363892 0.200928
1.000000 0.365906 0.193451
0.000000 0.514832 0.227417
0.006012 0.514862 0.227356
0.221985 0.514526 0.227905
0.371521 0.516846 0.223114
0.516815 0.517944 0.216461
0.659332 0.517059 0.210419
0.797729 0.515625 0.202698
0.928406 0.514984 0.194916
1.000000 0.516602 0.187500
0.000000 0.651764 0.224457
0.003174 0.651733 0.224457
0.221100 0.651154 0.225250
0.372314 0.652771 0.220978
0.515381 0.654907 0.212158
0.655548 0.654785 0.205658
0.790161 0.653992 0.199799
0.917847 0.653809 0.192047
1.000000 0.654510 0.185181
0.000000 0.779572 0.226410
0.067474 0.779236 0.226837
0.244293 0.778625 0.227539
0.385406 0.779694 0.223419
0.522095 0.781372 0.215027
0.656921 0.781982 0.205994
0.786743 0.781006 0.201111
0.910095 0.780151 0.196777
1.000000 0.779907 0.191437
0.115448 0.895844 0.238831
0.188232 0.895538 0.239227
0.296570 0.895264 0.239014
0.416077 0.896057 0.235046
0.540192 0.897278 0.227783
0.665161 0.898071 0.219208
0.787964 0.897980 0.211975
0.906830 0.896881 0.209259
1.000000 0.895935 0.207428
0.246735 1.000000 0.260254
0.284424 1.000000 0.260315
0.358734 1.000000 0.259155
0.456024 1.000000 0.255676
0.564392 1.000000 0.249725
0.677582 1.000000 0.242401
0.792145 1.000000 0.235077
0.906189 1.000000 0.229767
1.000000 1.000000 0.228699
0.000000 0.000000 0.373962
0.032318 0.000000 0.374146
0.217651 0.000000 0.376526
0.369324 0.000000 0.376984
0.516907 0.000000 0.375824
0.662750 0.000000 0.373718
0.804749 0.000000 0.370667
0.939667 0.000000 0.367065
1.000000 0.000000 0.363220
0.000000 0.091492 0.374664
0.052338 0.089813 0.374817
0.224335 0.080353 0.376373
0.372467 0.058167 0.376984
0.518616 0.022491 0.375641
0.663635 0.000610 0.373291
0.804932 0.000000 0.370117
0.939301 0.000000 0.366394
1.000000 0.000000 0.362335
0.000000 0.231049 0.374664
0.056213 0.231049 0.374725
0.228516 0.230530 0.375000
0.374847 0.225922 0.376129
0.521149 0.218353 0.374603
0.665863 0.207581 0.371643
0.806458 0.195618 0.367950
0.939789 0.186890 0.363831
1.000000 0.188080 0.359528
0.000000 0.373657 0.374329
0.033508 0.373810 0.374237
0.226654 0.373932 0.374115
0.373810 0.373871 0.373840
0.521973 0.370728 0.371094
0.666077 0.366547 0.367676
0.805267 0.362244 0.363861
0.936859 0.359985 0.359741
1.000000 0.361969 0.355560
0.000000 0.515198 0.373383
0.003387 0.515259 0.373352
0.220917 0.515045 0.373383
0.373138 0.514679 0.373596
0.516327 0.516479 0.369385
0.659607 0.515381 0.364990
0.798065 0.513336 0.360504
0.928223 0.512390 0.356262
1.000000 0.513794 0.352325
0.000000 0.652161 0.372864
0.002441 0.652100 0.372803
0.220856 0.651520 0.373230
0.374756 0.650909 0.373627
0.515289 0.652832 0.369720
0.654510 0.653503 0.364716
0.789093 0.652832 0.360626
0.916809 0.652466 0.355957
1.000000 0.652924 0.352081
0.000000 0.779846 0.374969
0.064758 0.779541 0.375183
0.244324 0.778717 0.375824
0.387939 0.777863 0.376343
0.522614 0.778961 0.373138
0.655518 0.780396 0.367096
0.784790 0.779877 0.363342
0.908081 0.779205 0.360291
1.000000 0.778900 0.356720
0.111938 0.896088 0.382751
0.186554 0.895691 0.383057
0.296844 0.894928 0.383698
0.418121 0.894165 0.384033
0.540649 0.894897 0.381195
0.663666 0.896179 0.375824
0.785553 0.896698 0.370422
0.904297 0.895905 0.368134
1.000000 0.895111 0.366364
0.244232 1.000000 0.395966
0.282501 1.000000 0.396210
0.358643 1.000000 0.396637
0.456970 1.000000 0.396576
0.564301 1.000000 0.394043
0.675934 1.000000 0.389496
0.789612 1.000000 0.384186
0.903412 1.000000 0.379791
1.000000 1.000000 0.378418
0.000000 0.000000 0.516724
0.000916 0.000000 0.516693
0.207764 0.000000 0.518860
0.364868 0.000000 0.520508
0.513763 0.000000 0.520172
0.658813 0.000000 0.518768
0.799866 0.000000 0.516876
0.933746 0.000000 0.514404
1.000000 0.000000 0.511658
0.000000 0.085999 0.517090
0.007477 0.083466 0.517090
0.215240 0.073273 0.518341
0.367950 0.048370 0.520233
0.515259 0.012482 0.519928
0.659515 0.000214 0.518494
0.799988 0.000000 0.516510
0.933350 0.000000 0.514008
1.000000 0.000000 0.511139
0.000000 0.230133 0.516785
0.018402 0.229950 0.516785
0.221222 0.228882 0.517181
0.370972 0.224457 0.518707
0.516998 0.216339 0.519135
0.660675 0.206268 0.517792
0.800720 0.194275 0.515594
0.933380 0.185852 0.512726
1.000000 0.187775 0.509583
0.000000 0.373383 0.516083
0.008453 0.373444 0.516022
0.221161 0.373352 0.516205
0.372162 0.372772 0.516357
0.517029 0.369110 0.517426
0.660858 0.364380 0.515961
0.800049 0.359802 0.513275
0.931244 0.357513 0.510101
1.000000 0.359741 0.506775
0.000000 0.515106 0.515381
0.001526 0.515076 0.515289
0.217163 0.515076 0.515167
0.371735 0.514984 0.514984
0.514740 0.514709 0.514771
0.659119 0.512115 0.512146
0.796661 0.509735 0.509216
0.925842 0.508820 0.506134
1.000000 0.510315 0.503021
0.000000 0.652191 0.514832
0.001129 0.652130 0.514771
0.217896 0.651825 0.514740
0.373779 0.651245 0.514740
0.515808 0.650482 0.515015
0.652496 0.651917 0.511261
0.787292 0.651154 0.507568
0.914948 0.650299 0.504150
1.000000 0.650391 0.501251
0.000000 0.779877 0.515961
0.058838 0.779633 0.515991
0.242249 0.778961 0.516205
0.387146 0.777954 0.516571
0.523438 0.776794 0.517059
0.653534 0.778168 0.513733
0.781616 0.778473 0.509888
0.904999 0.777924 0.506897
1.000000 0.777466 0.503754
0.106445 0.896179 0.520569
0.182983 0.895844 0.520752
0.294556 0.895111 0.521088
0.417053 0.893982 0.521637
0.540924 0.892822 0.522125
0.661835 0.893707 0.519562
0.782043 0.894989 0.514862
0.900513 0.894653 0.512177
1.000000 0.893982 0.510162
0.239807 1.000000 0.528778
0.278687 1.000000 0.528931
0.355621 1.000000 0.529297
0.455139 1.000000 0.529877
0.563660 1.000000 0.530273
0.674103 1.000000 0.528137
0.786224 1.000000 0.523926
0.899475 1.000000 0.519684
1.000000 1.000000 0.517792
0.000000 0.000000 0.655457
0.000000 0.000000 0.655396
0.198212 0.000000 0.657135
0.360962 0.000000 0.659119
0.510986 0.000000 0.659882
0.655914 0.000000 0.658905
0.795441 0.000000 0.657318
0.927643 0.000000 0.655487
1.000000 0.000000 0.653259
0.000000 0.076599 0.655548
0.000000 0.073486 0.655457
0.206146 0.062622 0.656464
0.364166 0.037323 0.658508
0.512451 0.004242 0.659485
0.656586 0.000000 0.658569
0.795471 0.000000 0.656952
0.927185 0.000000 0.655090
1.000000 0.000000 0.652863
0.000000 0.228485 0.654877
0.001862 0.228149 0.654816
0.213837 0.226685 0.655212
0.368378 0.222504 0.656403
0.514252 0.213531 0.658081
0.657196 0.203583 0.657654
0.795288 0.193726 0.656158
0.926361 0.186859 0.654266
1.000000 0.190033 0.651886
0.000000 0.372772 0.653717
0.002045 0.372711 0.653625
0.216095 0.372284 0.654022
0.370789 0.371490 0.654144
0.514832 0.368164 0.655579
0.656525 0.363464 0.655853
0.793640 0.359528 0.654480
0.923615 0.357361 0.652435
1.000000 0.359863 0.649841
0.000000 0.514709 0.652252
0.000549 0.514679 0.652222
0.215149 0.514618 0.652222
0.370911 0.514343 0.652222
0.514221 0.513702 0.652222
0.653778 0.510773 0.653229
0.790100 0.508026 0.651825
0.918762 0.506927 0.649414
1.000000 0.508453 0.646637
0.000000 0.651764 0.651001
0.001617 0.651703 0.650970
0.217865 0.651489 0.650879
0.373260 0.651123 0.650696
0.515076 0.650635 0.650452
0.650208 0.650208 0.650208
0.785156 0.648132 0.647858
0.911743 0.647034 0.645355
1.000000 0.647095 0.642792
0.000000 0.779449 0.650757
0.061646 0.779297 0.650726
0.242126 0.778809 0.650665
0.386292 0.778046 0.650635
0.522491 0.776917 0.650665
0.652771 0.775696 0.650970
0.777924 0.776886 0.647705
0.901581 0.776215 0.644592
1.000000 0.775269 0.641815
0.107544 0.895905 0.652588
0.182922 0.895660 0.652618
0.293671 0.895050 0.652710
0.415619 0.894073 0.652832
0.539459 0.892761 0.653168
0.660950 0.891479 0.653656
0.778442 0.892792 0.650818
0.896179 0.893188 0.647522
1.000000 0.892670 0.644989
0.237305 1.000000 0.656616
0.276184 1.000000 0.656708
0.352966 1.000000 0.656891
0.452362 1.000000 0.657166
0.561249 1.000000 0.657654
0.672760 1.000000 0.658142
0.783264 1.000000 0.655975
0.895172 1.000000 0.651794
1.000000 1.000000 0.649170
0.000000 0.000000 0.785553
0.000000 0.000000 0.785492
0.199890 0.000000 0.787018
0.363007 0.000000 0.788940
0.511871 0.000000 0.790070
0.655487 0.000000 0.790009
0.793304 0.000000 0.788544
0.923004 0.000000 0.786682
1.000000 0.000000 0.784668
0.000000 0.063538 0.785431
0.000000 0.060272 0.785370
0.207489 0.048370 0.786255
0.366150 0.022278 0.788177
0.513306 0.001617 0.789520
0.656067 0.000000 0.789520
0.793274 0.000000 0.788086
0.922455 0.000000 0.786255
1.000000 0.000000 0.784241
0.000000 0.226166 0.784454
0.002533 0.225677 0.784424
0.216522 0.224030 0.784698
0.371246 0.219696 0.785614
0.515533 0.211121 0.787354
0.656586 0.199890 0.788086
0.792633 0.191345 0.786926
0.920959 0.188171 0.785248
1.000000 0.193542 0.783264
0.000000 0.371826 0.782684
0.004700 0.371674 0.782684
0.220978 0.371002 0.783112
0.374512 0.370117 0.783081
0.516846 0.367249 0.784210
0.655792 0.362122 0.785583
0.790344 0.358826 0.784882
0.917450 0.358398 0.783295
1.000000 0.361542 0.781342
0.000000 0.514130 0.780396
0.005890 0.514069 0.780334
0.222595 0.513885 0.780548
0.375214 0.513397 0.780640
0.516876 0.512726 0.780518
0.653168 0.510223 0.781860
0.785736 0.507782 0.781891
0.911713 0.507263 0.780487
1.000000 0.508759 0.778473
0.000000 0.651154 0.777985
0.017517 0.651093 0.777924
0.228394 0.650909 0.777893
0.378296 0.650513 0.777771
0.517365 0.649963 0.777649
0.650696 0.649323 0.777557
0.779694 0.647064 0.778351
0.904724 0.645599 0.777069
1.000000 0.645447 0.774841
0.000000 0.778656 0.776245
0.094086 0.778534 0.776245
0.252350 0.778137 0.776154
0.391022 0.777496 0.775970
0.524170 0.776611 0.775757
0.652435 0.775757 0.775513
0.775269 0.775238 0.775269
0.899048 0.773438 0.773163
1.000000 0.772125 0.770874
0.129211 0.895264 0.775848
0.195618 0.895050 0.775848
0.299835 0.894592 0.775787
0.418152 0.893799 0.775726
0.539612 0.892761 0.775635
0.659912 0.891602 0.775635
0.777252 0.890533 0.775909
0.892456 0.891724 0.772919
1.000000 0.891022 0.770020
0.243073 1.000000 0.776886
0.280365 1.000000 0.776886
0.354858 1.000000 0.776886
0.452423 1.000000 0.776947
0.560059 1.000000 0.777039
0.671112 1.000000 0.777313
0.782288 1.000000 0.777679
0.891937 1.000000 0.775085
1.000000 1.000000 0.771790
0.000000 0.000000 0.904846
0.009491 0.000000 0.904907
0.223450 0.000000 0.906403
0.376038 0.000000 0.908112
0.519928 0.000000 0.909332
0.659790 0.000000 0.909698
0.794464 0.000000 0.908936
0.921204 0.000000 0.907135
1.000000 0.000000 0.905029
0.000000 0.048035 0.904572
0.029572 0.044464 0.904541
0.229645 0.030579 0.905609
0.378906 0.006256 0.907288
0.521301 0.000214 0.908722
0.660248 0.000000 0.909180
0.794312 0.000000 0.908417
0.920502 0.000000 0.906647
1.000000 0.000000 0.904572
0.000000 0.223267 0.903381
0.056458 0.222443 0.903595
0.239075 0.220795 0.903595
0.384308 0.216339 0.904510
0.523773 0.208130 0.906097
0.660706 0.197540 0.907166
0.793427 0.188293 0.906982
0.918671 0.187958 0.905365
1.000000 0.197083 0.903381
0.000000 0.370667 0.901306
0.072906 0.370331 0.901520
0.244110 0.369598 0.901794
0.387970 0.368744 0.901672
0.525330 0.366089 0.902618
0.659882 0.361603 0.904083
0.790680 0.357849 0.904480
0.914734 0.358673 0.903168
1.000000 0.363617 0.901367
0.000000 0.513428 0.898499
0.081573 0.513275 0.898682
0.247009 0.512939 0.898865
0.388733 0.512390 0.898987
0.525360 0.511810 0.898743
0.657379 0.509918 0.899780
0.785614 0.507324 0.900909
0.908356 0.507507 0.900055
1.000000 0.510101 0.898468
0.000000 0.650482 0.895416
0.099335 0.650391 0.895477
0.253265 0.650116 0.895508
0.391510 0.649689 0.895508
0.525085 0.649078 0.895477
0.654724 0.648529 0.895264
0.779205 0.646881 0.896454
0.900574 0.645569 0.896423
1.000000 0.645782 0.895111
0.040161 0.777771 0.892792
0.150513 0.777618 0.892792
0.275238 0.777252 0.892731
0.403473 0.776642 0.892578
0.530792 0.775879 0.892426
0.655121 0.775116 0.892303
0.775604 0.774445 0.892181
0.894012 0.772369 0.893005
1.000000 0.770782 0.891815
0.170319 0.894318 0.891266
0.223297 0.894165 0.891235
0.316254 0.893738 0.891174
0.427307 0.893066 0.891052
0.544006 0.892242 0.890869
0.661224 0.891327 0.890686
0.776825 0.890625 0.890442
0.890198 0.890198 0.890198
1.000000 0.888336 0.888214
0.259064 1.000000 0.890747
0.293365 1.000000 0.890717
0.363342 1.000000 0.890656
0.456909 1.000000 0.890594
0.561707 1.000000 0.890503
0.670959 1.000000 0.890381
0.781311 1.000000 0.890350
0.891205 1.000000 0.890533
1.000000 1.000000 0.887634
0.000000 0.000000 1.000000
0.126617 0.000000 1.000000
0.263855 0.000000 1.000000
0.399475 0.000000 1.000000
0.534882 0.000000 1.000000
0.668701 0.000000 1.000000
0.798462 0.000000 1.000000
0.921539 0.000000 1.000000
1.000000 0.000000 1.000000
0.003540 0.029236 1.000000
0.136383 0.023926 1.000000
0.268311 0.009369 1.000000
0.401825 0.001953 1.000000
0.535980 0.000000 1.000000
0.669067 0.000000 1.000000
0.798187 0.000000 1.000000
0.920837 0.000000 1.000000
1.000000 0.000000 1.000000
0.040039 0.219452 1.000000
0.150360 0.218781 1.000000
0.276947 0.217041 1.000000
0.407013 0.212433 1.000000
0.538422 0.204742 1.000000
0.669373 0.195282 1.000000
0.796967 0.187653 1.000000
0.918701 0.187500 1.000000
1.000000 0.198944 1.000000
0.066010 0.369110 1.000000
0.160309 0.368744 1.000000
0.281555 0.368134 1.000000
0.410400 0.367310 1.000000
0.539734 0.364838 1.000000
0.668304 0.361145 1.000000
0.793823 0.358215 1.000000
0.914459 0.358612 1.000000
1.000000 0.364655 1.000000
0.078461 0.512482 1.000000
0.165985 0.512299 1.000000
0.283875 0.511902 1.000000
0.410645 0.511414 1.000000
0.539154 0.511047 1.000000
0.665375 0.509613 1.000000
0.788330 0.507812 1.000000
0.907684 0.507477 1.000000
1.000000 0.510620 1.000000
0.097290 0.649628 1.000000
0.175720 0.649506 1.000000
0.288666 0.649200 1.000000
0.412079 0.648743 1.000000
0.537659 0.648163 1.000000
0.661743 0.647888 1.000000
0.781860 0.646912 1.000000
0.899567 0.645386 1.000000
1.000000 0.645844 1.000000
0.146820 0.776733 1.000000
0.206604 0.776611 1.000000
0.305908 0.776276 1.000000
0.421417 0.775665 1.000000
0.541168 0.774963 1.000000
0.660522 0.774231 1.000000
0.777954 0.773712 1.000000
0.892944 0.772125 1.000000
1.000000 0.770508 1.000000
0.217255 0.893250 1.000000
0.258942 0.893097 1.000000
0.339233 0.892731 1.000000
0.441254 0.892151 1.000000
0.551910 0.891449 1.000000
0.665070 0.890686 1.000000
0.778046 0.890045 1.000000
0.890015 0.889435 1.000000
1.000000 0.887299 1.000000
0.282593 1.000000 1.000000
0.313019 1.000000 1.000000
0.377411 1.000000 1.000000
0.465729 1.000000 1.000000
0.566620 1.000000 1.000000
0.673035 1.000000 1.000000
0.781464 1.000000 1.000000
0.890564 1.000000 1.000000
0.999969 1.000000 0.999939
