滤镜资源/Professional Luts Collection/Lutify.me Professional/Contemporary Color Films/Carnelian.cube
# Created by: Lutify.me
# Copyright: (c) Copyright Lutify.me 2015
# Website: https://lutify.me
#LUT size
LUT_3D_SIZE 33
#LUT data points
0.000000 0.000000 0.000000
0.017548 0.000000 0.001099
0.039673 0.000000 0.000061
0.065613 0.000000 0.000000
0.093597 0.000000 0.000000
0.123901 0.000000 0.000000
0.156097 0.000000 0.000000
0.190186 0.000000 0.000000
0.225922 0.000000 0.000000
0.262543 0.000000 0.000000
0.299622 0.000000 0.000000
0.336823 0.000000 0.000000
0.374023 0.000000 0.000000
0.411224 0.000000 0.000000
0.448364 0.000000 0.000000
0.485474 0.000000 0.000000
0.522461 0.000000 0.000000
0.559326 0.000000 0.000000
0.596069 0.000000 0.000000
0.632690 0.000000 0.000000
0.669098 0.000000 0.000000
0.705261 0.000000 0.000000
0.741180 0.000000 0.000000
0.776764 0.000000 0.000000
0.811981 0.000000 0.000000
0.846771 0.000000 0.000000
0.881012 0.000000 0.000000
0.914795 0.000000 0.000000
0.947968 0.000000 0.000000
0.979462 0.000000 0.000000
0.999695 0.000000 0.000000
1.000000 0.000000 0.000000
1.000000 0.000000 0.000000
0.000000 0.017120 0.000000
0.017151 0.017151 0.000000
0.038940 0.017151 0.000031
0.065552 0.016418 0.000000
0.093994 0.015289 0.000000
0.124298 0.013397 0.000000
0.157013 0.009644 0.000000
0.191406 0.004211 0.000000
0.227020 0.000763 0.000000
0.263611 0.000031 0.000000
0.300690 0.000000 0.000000
0.337738 0.000000 0.000000
0.374786 0.000000 0.000000
0.411835 0.000000 0.000000
0.448883 0.000000 0.000000
0.485840 0.000000 0.000000
0.522736 0.000000 0.000000
0.559540 0.000000 0.000000
0.596222 0.000000 0.000000
0.632812 0.000000 0.000000
0.669220 0.000000 0.000000
0.705322 0.000000 0.000000
0.741180 0.000000 0.000000
0.776764 0.000000 0.000000
0.811981 0.000000 0.000000
0.846741 0.000000 0.000000
0.880951 0.000000 0.000000
0.914734 0.000000 0.000000
0.947815 0.000000 0.000000
0.979279 0.000000 0.000000
0.999695 0.000000 0.000000
1.000000 0.000000 0.000000
1.000000 0.000000 0.000000
0.000000 0.037842 0.000000
0.016418 0.037842 0.000000
0.038177 0.038239 0.000000
0.065002 0.038239 0.000000
0.094147 0.037445 0.000000
0.125000 0.035553 0.000000
0.157959 0.032471 0.000000
0.192383 0.027374 0.000000
0.228241 0.020569 0.000000
0.264771 0.012604 0.000000
0.301544 0.004211 0.000000
0.338501 0.000702 0.000000
0.375427 0.000061 0.000000
0.412323 0.000000 0.000000
0.449280 0.000000 0.000000
0.486206 0.000000 0.000000
0.523041 0.000000 0.000000
0.559784 0.000000 0.000000
0.596466 0.000000 0.000000
0.632965 0.000000 0.000000
0.669312 0.000000 0.000000
0.705414 0.000000 0.000000
0.741241 0.000000 0.000000
0.776764 0.000000 0.000000
0.811951 0.000000 0.000000
0.846710 0.000000 0.000000
0.880951 0.000000 0.000000
0.914673 0.000000 0.000000
0.947754 0.000000 0.000000
0.979187 0.000000 0.000000
0.999695 0.000000 0.000000
1.000000 0.000000 0.000000
1.000000 0.000000 0.000000
0.000000 0.063965 0.000000
0.014862 0.064453 0.000000
0.036285 0.065002 0.000000
0.064423 0.065521 0.000000
0.093628 0.065277 0.000000
0.125275 0.064484 0.000000
0.158478 0.062805 0.000000
0.193146 0.060150 0.000000
0.228882 0.055542 0.000000
0.265472 0.049591 0.000000
0.302338 0.041931 0.000000
0.339142 0.032837 0.000000
0.375977 0.023010 0.000000
0.412872 0.012543 0.000000
0.449768 0.004395 0.000000
0.486572 0.001068 0.000000
0.523346 0.000275 0.000000
0.560028 0.000000 0.000000
0.596649 0.000000 0.000000
0.633118 0.000000 0.000000
0.669403 0.000000 0.000000
0.705475 0.000000 0.000000
0.741272 0.000000 0.000000
0.776794 0.000000 0.000000
0.811920 0.000000 0.000000
0.846619 0.000000 0.000000
0.880829 0.000000 0.000000
0.914520 0.000000 0.000000
0.947571 0.000000 0.000000
0.979004 0.000000 0.000000
0.999664 0.000000 0.000000
1.000000 0.000000 0.000000
1.000000 0.000000 0.000000
0.000000 0.093536 0.000000
0.009949 0.094086 0.000000
0.032166 0.094482 0.000000
0.062012 0.095276 0.000000
0.093353 0.095551 0.000000
0.125000 0.095642 0.000000
0.158844 0.094849 0.000000
0.193665 0.093506 0.000000
0.229462 0.091278 0.000000
0.265930 0.088165 0.000000
0.302734 0.084015 0.000000
0.339447 0.078949 0.000000
0.376160 0.072937 0.000000
0.412933 0.065857 0.000000
0.449768 0.057587 0.000000
0.486572 0.048676 0.000000
0.523285 0.038879 0.000000
0.559967 0.027618 0.000000
0.596588 0.015411 0.000000
0.633087 0.006378 0.000000
0.669342 0.002747 0.000000
0.705414 0.001068 0.000000
0.741241 0.000000 0.000000
0.776703 0.000000 0.000000
0.811798 0.000000 0.000000
0.846466 0.000000 0.000000
0.880615 0.000000 0.000000
0.914307 0.000000 0.000000
0.947296 0.000000 0.000000
0.978729 0.000000 0.000000
0.999664 0.000000 0.000000
1.000000 0.000000 0.000000
1.000000 0.000000 0.000000
0.000000 0.125397 0.000000
0.002502 0.125732 0.000000
0.025452 0.126312 0.000000
0.057861 0.127197 0.000000
0.091064 0.128082 0.000000
0.124512 0.128387 0.000000
0.158752 0.128357 0.000000
0.193787 0.127838 0.000000
0.229858 0.126587 0.000000
0.266205 0.125000 0.000000
0.302826 0.122772 0.000000
0.339447 0.119904 0.000000
0.376038 0.116638 0.000000
0.412750 0.112793 0.000000
0.449554 0.108215 0.000000
0.486298 0.103058 0.000000
0.522949 0.097076 0.000000
0.559601 0.089966 0.000000
0.596191 0.082001 0.000000
0.632660 0.073151 0.000000
0.668915 0.064911 0.000000
0.704956 0.056244 0.000000
0.740723 0.046234 0.000000
0.776184 0.035492 0.000000
0.811249 0.024078 0.000000
0.845917 0.013794 0.000000
0.880005 0.007507 0.000000
0.913635 0.006073 0.000000
0.946594 0.005005 0.000000
0.978027 0.004333 0.000000
0.999603 0.003967 0.000000
1.000000 0.004028 0.000000
1.000000 0.004517 0.000000
0.000000 0.159485 0.000000
0.000244 0.159698 0.000000
0.015045 0.160095 0.000000
0.050629 0.160889 0.000000
0.087128 0.161926 0.000000
0.122620 0.162598 0.000000
0.158081 0.162903 0.000000
0.193634 0.162781 0.000000
0.229736 0.162354 0.000000
0.266205 0.161469 0.000000
0.302673 0.160309 0.000000
0.339172 0.158752 0.000000
0.375763 0.156830 0.000000
0.412384 0.154541 0.000000
0.449127 0.151764 0.000000
0.485840 0.148499 0.000000
0.522461 0.144897 0.000000
0.559082 0.140839 0.000000
0.595642 0.136230 0.000000
0.632050 0.131134 0.000000
0.668274 0.125549 0.000000
0.704285 0.119537 0.000000
0.740021 0.113007 0.000000
0.775452 0.106110 0.000000
0.810486 0.098877 0.000000
0.845062 0.091644 0.000000
0.879150 0.085541 0.000000
0.912720 0.081329 0.000000
0.945587 0.078094 0.000000
0.977112 0.075806 0.000000
0.999542 0.074646 0.000000
1.000000 0.075043 0.000000
1.000000 0.077026 0.000000
0.000000 0.194427 0.000000
0.000000 0.194733 0.000000
0.002808 0.194916 0.000000
0.040375 0.195587 0.000000
0.081360 0.196594 0.000000
0.119507 0.197601 0.000000
0.156494 0.198242 0.000000
0.193085 0.198364 0.000000
0.229431 0.198090 0.000000
0.265778 0.197754 0.000000
0.302307 0.197144 0.000000
0.338806 0.196259 0.000000
0.375366 0.195038 0.000000
0.411957 0.193542 0.000000
0.448639 0.191742 0.000000
0.485321 0.189545 0.000000
0.521912 0.187134 0.000000
0.558472 0.184387 0.000000
0.595001 0.181274 0.000000
0.631378 0.177887 0.000000
0.667572 0.174316 0.000000
0.703522 0.170532 0.000000
0.739197 0.166565 0.000000
0.774567 0.162537 0.000000
0.809509 0.158569 0.000000
0.844055 0.154663 0.000000
0.878082 0.151062 0.000000
0.911591 0.147858 0.000000
0.944427 0.145355 0.000000
0.976013 0.143768 0.000000
0.999481 0.143127 0.000000
1.000000 0.143555 0.000000
1.000000 0.145477 0.000000
0.000000 0.230103 0.000000
0.000000 0.230255 0.000000
0.000122 0.230408 0.000000
0.027161 0.230835 0.000000
0.074646 0.231781 0.000000
0.115784 0.232788 0.000000
0.154297 0.233643 0.000000
0.191956 0.234070 0.000000
0.228943 0.234009 0.000000
0.265381 0.233826 0.000000
0.301880 0.233521 0.000000
0.338348 0.233032 0.000000
0.374878 0.232330 0.000000
0.411499 0.231323 0.000000
0.448090 0.230103 0.000000
0.484772 0.228546 0.000000
0.521332 0.226776 0.000000
0.557861 0.224854 0.000000
0.594299 0.222687 0.000000
0.630615 0.220306 0.000000
0.666748 0.217743 0.000000
0.702667 0.215057 0.000000
0.738251 0.212311 0.000000
0.773590 0.209534 0.000000
0.808502 0.206848 0.000000
0.842957 0.204254 0.000000
0.876923 0.201935 0.000000
0.910339 0.199982 0.000000
0.943115 0.198486 0.000000
0.974731 0.197662 0.000000
0.999390 0.197479 0.000000
1.000000 0.198059 0.000000
1.000000 0.199615 0.000000
0.000000 0.265808 0.000000
0.000000 0.265961 0.000000
0.000000 0.266052 0.000000
0.014984 0.266266 0.000000
0.067108 0.267029 0.000000
0.111877 0.267975 0.000000
0.152069 0.268921 0.000000
0.190430 0.269592 0.000000
0.227997 0.269867 0.000000
0.264893 0.269836 0.000000
0.301361 0.269653 0.000000
0.337860 0.269379 0.000000
0.374390 0.268951 0.000000
0.410950 0.268341 0.000000
0.447540 0.267487 0.000000
0.484131 0.266449 0.000000
0.520660 0.265228 0.000000
0.557129 0.263794 0.000000
0.593536 0.262207 0.000000
0.629791 0.260437 0.000000
0.665833 0.258575 0.000000
0.701691 0.256592 0.000000
0.737244 0.254578 0.000000
0.772491 0.252563 0.000000
0.807343 0.250580 0.000000
0.841705 0.248779 0.000000
0.875610 0.247162 0.000000
0.908966 0.245819 0.000000
0.941620 0.244904 0.000000
0.973358 0.244476 0.000000
0.999298 0.244568 0.000000
1.000000 0.245209 0.000000
1.000000 0.246582 0.000000
0.000000 0.301453 0.000000
0.000000 0.301544 0.000000
0.000000 0.301636 0.000000
0.004547 0.301758 0.000000
0.058777 0.302368 0.000000
0.107300 0.303345 0.000000
0.149384 0.304230 0.000000
0.188599 0.304993 0.000000
0.226685 0.305511 0.000000
0.264008 0.305817 0.000000
0.300934 0.305725 0.000000
0.337402 0.305511 0.000000
0.373901 0.305237 0.000000
0.410461 0.304840 0.000000
0.446991 0.304291 0.000000
0.483521 0.303619 0.000000
0.519958 0.302795 0.000000
0.556366 0.301758 0.000000
0.592682 0.300568 0.000000
0.628876 0.299255 0.000000
0.664886 0.297852 0.000000
0.700653 0.296387 0.000000
0.736115 0.294861 0.000000
0.771271 0.293396 0.000000
0.806030 0.291901 0.000000
0.840332 0.290588 0.000000
0.874146 0.289429 0.000000
0.907410 0.288513 0.000000
0.939972 0.287903 0.000000
0.971771 0.287689 0.000000
0.999207 0.287933 0.000000
1.000000 0.288605 0.000000
1.000000 0.289917 0.000000
0.000000 0.337067 0.000000
0.000000 0.337097 0.000000
0.000000 0.337158 0.000000
0.001251 0.337311 0.000000
0.049377 0.337738 0.000000
0.102295 0.338623 0.000000
0.146088 0.339569 0.000000
0.186493 0.340363 0.000000
0.224976 0.341003 0.000000
0.262848 0.341461 0.000000
0.300079 0.341705 0.000000
0.336914 0.341553 0.000000
0.373413 0.341339 0.000000
0.409882 0.341064 0.000000
0.446411 0.340729 0.000000
0.482880 0.340240 0.000000
0.519257 0.339691 0.000000
0.555542 0.338959 0.000000
0.591827 0.338104 0.000000
0.627930 0.337158 0.000000
0.663849 0.336060 0.000000
0.699524 0.334961 0.000000
0.734924 0.333801 0.000000
0.769989 0.332672 0.000000
0.804626 0.331604 0.000000
0.838837 0.330627 0.000000
0.872528 0.329803 0.000000
0.905701 0.329132 0.000000
0.938171 0.328766 0.000000
0.970032 0.328735 0.000000
0.998871 0.329010 0.000000
1.000000 0.329742 0.000000
1.000000 0.330963 0.000000
0.000000 0.372620 0.000000
0.000000 0.372681 0.000000
0.000000 0.372742 0.000000
0.000305 0.372833 0.000000
0.040497 0.373108 0.000000
0.096375 0.373932 0.000000
0.142670 0.374847 0.000000
0.184021 0.375732 0.000000
0.223206 0.376495 0.000000
0.261383 0.377014 0.000000
0.298950 0.377411 0.000000
0.336121 0.377533 0.000000
0.372864 0.377380 0.000000
0.409363 0.377136 0.000000
0.445831 0.376862 0.000000
0.482239 0.376587 0.000000
0.518524 0.376160 0.000000
0.554779 0.375671 0.000000
0.590912 0.375061 0.000000
0.626953 0.374359 0.000000
0.662781 0.373566 0.000000
0.698364 0.372711 0.000000
0.733643 0.371826 0.000000
0.768616 0.371002 0.000000
0.803162 0.370178 0.000000
0.837219 0.369446 0.000000
0.870819 0.368866 0.000000
0.903870 0.368439 0.000000
0.936249 0.368195 0.000000
0.967987 0.368286 0.000000
0.997437 0.368683 0.000000
1.000000 0.369354 0.000000
1.000000 0.370514 0.000000
0.000000 0.408142 0.000000
0.000000 0.408234 0.000000
0.000000 0.408234 0.000000
0.000000 0.408325 0.000000
0.029663 0.408539 0.000000
0.089874 0.409271 0.000000
0.138672 0.410156 0.000000
0.181305 0.410980 0.000000
0.221222 0.411835 0.000000
0.259827 0.412445 0.000000
0.297668 0.412933 0.000000
0.335052 0.413239 0.000000
0.372101 0.413300 0.000000
0.408783 0.413147 0.000000
0.445282 0.412872 0.000000
0.481628 0.412628 0.000000
0.517792 0.412354 0.000000
0.553955 0.411987 0.000000
0.590057 0.411560 0.000000
0.625946 0.411041 0.000000
0.661682 0.410461 0.000000
0.697144 0.409821 0.000000
0.732330 0.409149 0.000000
0.767151 0.408539 0.000000
0.801575 0.407928 0.000000
0.835541 0.407349 0.000000
0.869019 0.406952 0.000000
0.901917 0.406677 0.000000
0.934174 0.406616 0.000000
0.965820 0.406738 0.000000
0.995270 0.407196 0.000000
1.000000 0.407837 0.000000
1.000000 0.408905 0.000000
0.000000 0.443665 0.000000
0.000000 0.443695 0.000000
0.000000 0.443726 0.000000
0.000000 0.443787 0.000000
0.018219 0.443909 0.000000
0.082489 0.444580 0.000000
0.134460 0.445404 0.000000
0.178345 0.446259 0.000000
0.219086 0.447052 0.000000
0.258148 0.447754 0.000000
0.296387 0.448334 0.000000
0.333984 0.448730 0.000000
0.371185 0.448975 0.000000
0.408112 0.448975 0.000000
0.444702 0.448792 0.000000
0.481018 0.448547 0.000000
0.517181 0.448273 0.000000
0.553192 0.448029 0.000000
0.589172 0.447693 0.000000
0.624969 0.447327 0.000000
0.660553 0.446899 0.000000
0.695923 0.446442 0.000000
0.730957 0.445953 0.000000
0.765656 0.445435 0.000000
0.799957 0.445007 0.000000
0.833801 0.444580 0.000000
0.867096 0.444305 0.000000
0.899872 0.444153 0.000000
0.931976 0.444183 0.000000
0.963562 0.444366 0.000000
0.993042 0.444794 0.000000
1.000000 0.445435 0.000000
1.000000 0.446381 0.000000
0.000000 0.479004 0.000000
0.000000 0.479034 0.000000
0.000000 0.479065 0.000000
0.000000 0.479095 0.000000
0.008148 0.479156 0.000000
0.074921 0.479706 0.000000
0.130188 0.480530 0.000000
0.175446 0.481354 0.000000
0.216949 0.482178 0.000000
0.256561 0.482880 0.000000
0.295074 0.483490 0.000000
0.332886 0.483978 0.000000
0.370270 0.484314 0.000000
0.407288 0.484497 0.000000
0.444061 0.484467 0.000000
0.480469 0.484283 0.000000
0.516571 0.483978 0.000000
0.552521 0.483734 0.000000
0.588348 0.483490 0.000000
0.624023 0.483215 0.000000
0.659454 0.482880 0.000000
0.694672 0.482544 0.000000
0.729584 0.482178 0.000000
0.764160 0.481781 0.000000
0.798309 0.481445 0.000000
0.831970 0.481171 0.000000
0.865112 0.480988 0.000000
0.897736 0.480896 0.000000
0.929688 0.480988 0.000000
0.961121 0.481201 0.000000
0.990723 0.481628 0.000000
1.000000 0.482239 0.000000
1.000000 0.483063 0.000000
0.000000 0.514069 0.000000
0.000000 0.514099 0.000000
0.000000 0.514130 0.000000
0.000000 0.514160 0.000000
0.003662 0.514221 0.000000
0.067902 0.514648 0.000000
0.125885 0.515442 0.000000
0.172791 0.516235 0.000000
0.214966 0.517029 0.000000
0.255035 0.517761 0.000000
0.293915 0.518402 0.000000
0.331879 0.518951 0.000000
0.369385 0.519318 0.000000
0.406494 0.519623 0.000000
0.443390 0.519714 0.000000
0.479919 0.519623 0.000000
0.516022 0.519440 0.000000
0.551910 0.519135 0.000000
0.587616 0.518890 0.000000
0.623169 0.518646 0.000000
0.658447 0.518372 0.000000
0.693481 0.518127 0.000000
0.728241 0.517822 0.000000
0.762665 0.517548 0.000000
0.796631 0.517303 0.000000
0.830109 0.517090 0.000000
0.863098 0.516968 0.000000
0.895538 0.516968 0.000000
0.927338 0.517059 0.000000
0.958649 0.517303 0.000000
0.988342 0.517731 0.000000
1.000000 0.518250 0.000000
1.000000 0.518982 0.000000
0.000000 0.548950 0.000000
0.000000 0.548950 0.000000
0.000000 0.548981 0.000000
0.000000 0.548981 0.000000
0.002594 0.549011 0.000000
0.063019 0.549377 0.000000
0.122284 0.550110 0.000000
0.170471 0.550842 0.000000
0.213409 0.551636 0.000000
0.253815 0.552368 0.000000
0.292938 0.553009 0.000000
0.331116 0.553589 0.000000
0.368683 0.554016 0.000000
0.405853 0.554382 0.000000
0.442749 0.554565 0.000000
0.479340 0.554596 0.000000
0.515564 0.554474 0.000000
0.551422 0.554230 0.000000
0.587006 0.553925 0.000000
0.622406 0.553711 0.000000
0.657501 0.553467 0.000000
0.692383 0.553223 0.000000
0.726929 0.553009 0.000000
0.761200 0.552765 0.000000
0.794952 0.552582 0.000000
0.828247 0.552460 0.000000
0.861053 0.552368 0.000000
0.893311 0.552399 0.000000
0.924988 0.552490 0.000000
0.956146 0.552734 0.000000
0.985901 0.553101 0.000000
1.000000 0.553589 0.000000
1.000000 0.554230 0.000000
0.000000 0.583496 0.000000
0.000000 0.583496 0.000000
0.000000 0.583496 0.000000
0.000000 0.583496 0.000000
0.001984 0.583527 0.000000
0.059418 0.583832 0.000000
0.119781 0.584473 0.000000
0.168976 0.585205 0.000000
0.212433 0.585938 0.000000
0.253113 0.586670 0.000000
0.292389 0.587311 0.000000
0.330627 0.587921 0.000000
0.368286 0.588379 0.000000
0.405426 0.588776 0.000000
0.442291 0.589050 0.000000
0.478882 0.589142 0.000000
0.515076 0.589142 0.000000
0.550995 0.588959 0.000000
0.586548 0.588684 0.000000
0.621765 0.588348 0.000000
0.656738 0.588135 0.000000
0.691406 0.587921 0.000000
0.725769 0.587708 0.000000
0.759796 0.587494 0.000000
0.793365 0.587341 0.000000
0.826477 0.587219 0.000000
0.859039 0.587189 0.000000
0.891113 0.587219 0.000000
0.922607 0.587341 0.000000
0.953613 0.587524 0.000000
0.983429 0.587830 0.000000
0.999969 0.588257 0.000000
1.000000 0.588837 0.000000
0.000000 0.617615 0.000000
0.000000 0.617615 0.000000
0.000000 0.617615 0.000000
0.000000 0.617615 0.000000
0.001862 0.617615 0.000000
0.058258 0.617889 0.000000
0.118896 0.618500 0.000000
0.168610 0.619202 0.000000
0.212311 0.619873 0.000000
0.253143 0.620575 0.000000
0.292480 0.621216 0.000000
0.330719 0.621796 0.000000
0.368286 0.622314 0.000000
0.405426 0.622711 0.000000
0.442200 0.622986 0.000000
0.478729 0.623169 0.000000
0.514862 0.623230 0.000000
0.550690 0.623169 0.000000
0.586243 0.622925 0.000000
0.621338 0.622650 0.000000
0.656158 0.622314 0.000000
0.690643 0.622040 0.000000
0.724792 0.621826 0.000000
0.758545 0.621643 0.000000
0.791901 0.621490 0.000000
0.824768 0.621368 0.000000
0.857117 0.621338 0.000000
0.888977 0.621368 0.000000
0.920319 0.621460 0.000000
0.951172 0.621613 0.000000
0.981018 0.621887 0.000000
0.999908 0.622192 0.000000
1.000000 0.622681 0.000000
0.000000 0.651215 0.000000
0.000000 0.651215 0.000000
0.000000 0.651245 0.000000
0.000000 0.651215 0.000000
0.002258 0.651245 0.000000
0.060394 0.651459 0.000000
0.120453 0.652039 0.000000
0.169861 0.652710 0.000000
0.213440 0.653351 0.000000
0.254181 0.653992 0.000000
0.293335 0.654602 0.000000
0.331512 0.655182 0.000000
0.368958 0.655701 0.000000
0.405975 0.656097 0.000000
0.442596 0.656403 0.000000
0.478943 0.656616 0.000000
0.514984 0.656708 0.000000
0.550690 0.656677 0.000000
0.586090 0.656586 0.000000
0.621124 0.656311 0.000000
0.655792 0.655975 0.000000
0.690063 0.655640 0.000000
0.723969 0.655396 0.000000
0.757477 0.655182 0.000000
0.790588 0.654999 0.000000
0.823181 0.654877 0.000000
0.855316 0.654785 0.000000
0.886932 0.654816 0.000000
0.918121 0.654846 0.000000
0.948853 0.654968 0.000000
0.978699 0.655151 0.000000
0.999817 0.655396 0.000000
1.000000 0.655731 0.000000
0.000000 0.684265 0.000000
0.000000 0.684265 0.000000
0.000000 0.684265 0.000000
0.000000 0.684265 0.000000
0.003540 0.684265 0.000000
0.066193 0.684509 0.000000
0.124878 0.685059 0.000000
0.173157 0.685669 0.000000
0.216187 0.686279 0.000000
0.256531 0.686890 0.000000
0.295349 0.687469 0.000000
0.333191 0.687988 0.000000
0.370422 0.688477 0.000000
0.407227 0.688904 0.000000
0.443634 0.689209 0.000000
0.479736 0.689453 0.000000
0.515503 0.689575 0.000000
0.551056 0.689575 0.000000
0.586304 0.689484 0.000000
0.621185 0.689331 0.000000
0.655670 0.689026 0.000000
0.689789 0.688660 0.000000
0.723450 0.688293 0.000000
0.756683 0.688019 0.000000
0.789490 0.687836 0.000000
0.821838 0.687653 0.000000
0.853699 0.687561 0.000000
0.885101 0.687500 0.000000
0.916107 0.687500 0.000000
0.946655 0.687561 0.000000
0.976532 0.687653 0.000000
0.999725 0.687836 0.000000
1.000000 0.688019 0.000000
0.000000 0.716705 0.000000
0.000000 0.716644 0.000000
0.000000 0.716675 0.000000
0.000000 0.716644 0.000000
0.010895 0.716644 0.000000
0.076050 0.716949 0.000000
0.132599 0.717438 0.000000
0.178925 0.718018 0.000000
0.220825 0.718567 0.000000
0.260437 0.719147 0.000000
0.298645 0.719696 0.000000
0.336060 0.720184 0.000000
0.372894 0.720642 0.000000
0.409363 0.721039 0.000000
0.445435 0.721375 0.000000
0.481232 0.721588 0.000000
0.516724 0.721710 0.000000
0.551971 0.721741 0.000000
0.586975 0.721680 0.000000
0.621613 0.721558 0.000000
0.655914 0.721313 0.000000
0.689819 0.720947 0.000000
0.723206 0.720581 0.000000
0.756195 0.720215 0.000000
0.788696 0.719910 0.000000
0.820740 0.719696 0.000000
0.852356 0.719513 0.000000
0.883514 0.719421 0.000000
0.914307 0.719391 0.000000
0.944702 0.719360 0.000000
0.974518 0.719391 0.000000
0.999664 0.719513 0.000000
1.000000 0.719574 0.000000
0.000000 0.748352 0.000000
0.000000 0.748322 0.000000
0.000000 0.748291 0.000000
0.000641 0.748291 0.000000
0.031860 0.748322 0.000000
0.092163 0.748657 0.000000
0.143738 0.749146 0.000000
0.187317 0.749664 0.000000
0.227631 0.750183 0.000000
0.266205 0.750702 0.000000
0.303650 0.751190 0.000000
0.340302 0.751678 0.000000
0.376526 0.752106 0.000000
0.412476 0.752472 0.000000
0.448151 0.752747 0.000000
0.483551 0.752960 0.000000
0.518677 0.753082 0.000000
0.553589 0.753143 0.000000
0.588257 0.753082 0.000000
0.622589 0.752960 0.000000
0.656555 0.752747 0.000000
0.690186 0.752472 0.000000
0.723358 0.752075 0.000000
0.756012 0.751678 0.000000
0.788177 0.751312 0.000000
0.819916 0.751038 0.000000
0.851257 0.750824 0.000000
0.882202 0.750641 0.000000
0.912750 0.750519 0.000000
0.942932 0.750488 0.000000
0.972778 0.750427 0.000000
0.999603 0.750458 0.000000
1.000000 0.750458 0.000000
0.000000 0.779175 0.000000
0.000000 0.779175 0.000000
0.000153 0.779114 0.000000
0.010864 0.779144 0.000000
0.061432 0.779297 0.000000
0.113312 0.779663 0.000000
0.157990 0.780090 0.000000
0.198242 0.780548 0.000000
0.236603 0.781006 0.000000
0.273743 0.781494 0.000000
0.310181 0.781952 0.000000
0.346039 0.782379 0.000000
0.381531 0.782745 0.000000
0.416809 0.783081 0.000000
0.451874 0.783386 0.000000
0.486786 0.783569 0.000000
0.521454 0.783691 0.000000
0.555878 0.783752 0.000000
0.590118 0.783722 0.000000
0.624054 0.783600 0.000000
0.657684 0.783417 0.000000
0.690918 0.783142 0.000000
0.723755 0.782837 0.000000
0.756134 0.782471 0.000000
0.788025 0.782043 0.000000
0.819427 0.781677 0.000000
0.850433 0.781403 0.000000
0.881165 0.781189 0.000000
0.911469 0.780975 0.000000
0.941437 0.780884 0.000000
0.971100 0.780823 0.000000
0.999329 0.780731 0.000000
1.000000 0.780670 0.000000
0.000000 0.809326 0.000000
0.001862 0.809296 0.000000
0.010101 0.809265 0.000000
0.044708 0.809357 0.000000
0.093506 0.809570 0.000000
0.136017 0.809937 0.000000
0.174896 0.810303 0.000000
0.211761 0.810730 0.000000
0.247772 0.811157 0.000000
0.283234 0.811584 0.000000
0.318298 0.811981 0.000000
0.353058 0.812378 0.000000
0.387695 0.812744 0.000000
0.422211 0.813049 0.000000
0.456635 0.813293 0.000000
0.490875 0.813477 0.000000
0.524933 0.813629 0.000000
0.558868 0.813690 0.000000
0.592590 0.813660 0.000000
0.626068 0.813538 0.000000
0.659210 0.813385 0.000000
0.692047 0.813141 0.000000
0.724518 0.812866 0.000000
0.756561 0.812531 0.000000
0.788086 0.812134 0.000000
0.819244 0.811737 0.000000
0.849915 0.811401 0.000000
0.880371 0.811096 0.000000
0.910461 0.810852 0.000000
0.940216 0.810699 0.000000
0.969666 0.810577 0.000000
0.998138 0.810455 0.000000
1.000000 0.810333 0.000000
0.008698 0.838776 0.000000
0.020508 0.838745 0.000000
0.051941 0.838806 0.000000
0.089447 0.838989 0.000000
0.125061 0.839264 0.000000
0.159241 0.839569 0.000000
0.193420 0.839905 0.000000
0.226990 0.840271 0.000000
0.260590 0.840668 0.000000
0.294250 0.841064 0.000000
0.327850 0.841400 0.000000
0.361420 0.841766 0.000000
0.394989 0.842102 0.000000
0.428619 0.842377 0.000000
0.462219 0.842621 0.000000
0.495728 0.842773 0.000000
0.529144 0.842926 0.000000
0.562469 0.842987 0.000000
0.595673 0.842957 0.000000
0.628571 0.842865 0.000000
0.661255 0.842712 0.000000
0.693542 0.842529 0.000000
0.725586 0.842285 0.000000
0.757172 0.841980 0.000000
0.788422 0.841614 0.000000
