滤镜资源/Professional Luts Collection/Lutify.me Professional/Contemporary Color Films/Cassiterite.cube
# Created by: Lutify.me
# Copyright: (c) Copyright Lutify.me 2015
# Website: https://lutify.me
#LUT size
LUT_3D_SIZE 9
#LUT data points
0.000000 0.000000 0.000000
0.081940 0.000000 0.000000
0.198639 0.000000 0.000000
0.351013 0.000000 0.000000
0.523834 0.000000 0.000000
0.700439 0.000000 0.000000
0.872681 0.000000 0.000000
1.000000 0.000000 0.000000
1.000000 0.000000 0.000000
0.000000 0.077942 0.000000
0.080109 0.078949 0.000000
0.203583 0.070526 0.000000
0.358093 0.024719 0.000000
0.529358 0.000000 0.000000
0.704010 0.000000 0.000000
0.874512 0.000000 0.000000
1.000000 0.000000 0.000000
1.000000 0.000000 0.000000
0.000000 0.203949 0.000000
0.048157 0.205597 0.000000
0.204590 0.207733 0.000000
0.364624 0.200958 0.000000
0.534912 0.181030 0.000000
0.707611 0.141418 0.000000
0.875854 0.076019 0.000000
1.000000 0.015503 0.000000
1.000000 0.013031 0.000000
0.000000 0.362823 0.000000
0.000000 0.363312 0.000000
0.183563 0.367096 0.000000
0.364075 0.367401 0.000000
0.536255 0.362091 0.000000
0.707550 0.351746 0.000000
0.872742 0.337799 0.000000
1.000000 0.326538 0.000000
1.000000 0.329956 0.000000
0.000000 0.528992 0.000000
0.000000 0.529053 0.000000
0.138489 0.531097 0.000000
0.354645 0.534332 0.000000
0.534332 0.532745 0.000000
0.704712 0.528107 0.000000
0.866119 0.522491 0.000000
0.999207 0.519226 0.000000
1.000000 0.523743 0.000000
0.000000 0.689606 0.000000
0.000000 0.689423 0.000000
0.091248 0.690247 0.000000
0.347565 0.693420 0.000000
0.532806 0.693634 0.000000
0.702393 0.690216 0.000000
0.858307 0.686035 0.000000
0.992950 0.683990 0.000000
1.000000 0.686401 0.000000
0.000000 0.831360 0.000000
0.000000 0.830872 0.000000
0.144165 0.831848 0.000000
0.371704 0.833496 0.000000
0.547943 0.832977 0.000000
0.709869 0.829712 0.000000
0.856537 0.824463 0.000000
0.982361 0.820679 0.000000
1.000000 0.819458 0.000000
0.033173 0.942932 0.000000
0.161591 0.943359 0.000000
0.304504 0.943909 0.000000
0.450653 0.943695 0.000000
0.597015 0.941833 0.000000
0.738342 0.938019 0.000000
0.867645 0.932953 0.000000
0.980438 0.928131 0.000000
1.000000 0.924774 0.000000
0.353699 1.000000 0.000000
0.385986 1.000000 0.000000
0.455719 1.000000 0.000000
0.553436 1.000000 0.000000
0.665009 1.000000 0.000000
0.778412 1.000000 0.000000
0.886230 1.000000 0.000000
0.983948 1.000000 0.000000
1.000000 1.000000 0.000000
0.000000 0.000000 0.076080
0.080383 0.000000 0.074402
0.200470 0.000000 0.069672
0.354004 0.000000 0.059967
0.526367 0.000000 0.043274
0.702423 0.000000 0.015564
0.874115 0.000000 0.000000
1.000000 0.000000 0.000000
1.000000 0.000000 0.000000
0.000000 0.077515 0.072449
0.082062 0.076782 0.070709
0.207947 0.065948 0.064941
0.361816 0.016907 0.053711
0.531891 0.000000 0.033081
0.705963 0.000000 0.004028
0.875916 0.000000 0.000000
1.000000 0.000000 0.000000
1.000000 0.000000 0.000000
0.000000 0.204193 0.058136
0.057037 0.204620 0.056641
0.209198 0.206482 0.043854
0.369049 0.198944 0.023712
0.538330 0.178070 0.002258
0.709961 0.137238 0.000000
0.877228 0.071075 0.000000
1.000000 0.014069 0.000000
1.000000 0.011597 0.000000
0.000000 0.362762 0.003662
0.000000 0.363159 0.002686
0.190094 0.366455 0.000214
0.367859 0.366425 0.000000
0.538940 0.360870 0.000000
0.709442 0.350311 0.000000
0.873901 0.336243 0.000000
1.000000 0.325043 0.000000
1.000000 0.328613 0.000000
0.000000 0.528778 0.000000
0.000000 0.528839 0.000000
0.147278 0.530914 0.000000
0.358368 0.533691 0.000000
0.536743 0.531891 0.000000
0.706299 0.527191 0.000000
0.867035 0.521545 0.000000
0.999237 0.518280 0.000000
1.000000 0.522919 0.000000
0.000000 0.689362 0.000000
0.000000 0.689148 0.000000
0.099609 0.690033 0.000000
0.350861 0.692963 0.000000
0.534760 0.692993 0.000000
0.703583 0.689453 0.000000
0.858856 0.685333 0.000000
0.992920 0.683289 0.000000
1.000000 0.685760 0.000000
0.000000 0.831055 0.000000
0.000000 0.830566 0.000000
0.152130 0.831543 0.000000
0.374207 0.833038 0.000000
0.549347 0.832397 0.000000
0.710602 0.829041 0.000000
0.856659 0.823822 0.000000
0.982056 0.820129 0.000000
1.000000 0.818848 0.000000
0.046326 0.942627 0.000000
0.166779 0.943024 0.000000
0.306946 0.943512 0.000000
0.452087 0.943207 0.000000
0.597687 0.941284 0.000000
0.738495 0.937408 0.000000
0.867371 0.932373 0.000000
0.979858 0.927551 0.000000
1.000000 0.924225 0.000000
0.355103 1.000000 0.000000
0.387115 1.000000 0.000000
0.456543 1.000000 0.000000
0.553833 1.000000 0.000000
0.664978 1.000000 0.000000
0.778015 1.000000 0.000000
0.885529 1.000000 0.000000
0.983307 1.000000 0.000000
1.000000 1.000000 0.000000
0.000000 0.000000 0.199463
0.064148 0.000000 0.198364
0.199982 0.000000 0.196686
0.357300 0.000000 0.192139
0.529572 0.000000 0.184998
0.704681 0.000000 0.174957
0.875214 0.000000 0.161224
1.000000 0.000000 0.143097
1.000000 0.000000 0.119690
0.000000 0.074646 0.198090
0.071106 0.072632 0.197327
0.208191 0.058167 0.196381
0.365173 0.006500 0.191528
0.534943 0.000000 0.183655
0.708038 0.000000 0.172546
0.876831 0.000000 0.157562
1.000000 0.000000 0.137817
1.000000 0.000000 0.112305
0.000000 0.204224 0.195312
0.051361 0.204437 0.194427
0.214020 0.203308 0.191742
0.376312 0.193176 0.184906
0.544495 0.170074 0.175110
0.714630 0.125336 0.161682
0.880280 0.055969 0.143921
1.000000 0.008942 0.120331
1.000000 0.005554 0.087646
0.000000 0.363464 0.182831
0.000000 0.363678 0.181946
0.200989 0.362946 0.180481
0.373779 0.363953 0.169006
0.544861 0.357910 0.155457
0.714813 0.346283 0.137512
0.878082 0.331360 0.113464
1.000000 0.319763 0.079315
1.000000 0.323547 0.048035
0.000000 0.529114 0.155243
0.000000 0.529083 0.154144
0.165588 0.528168 0.152893
0.364929 0.530945 0.136444
0.540802 0.529877 0.115265
0.709625 0.525146 0.087982
0.869629 0.519257 0.056763
0.999420 0.515778 0.021179
1.000000 0.520599 0.005676
0.000000 0.689240 0.104370
0.000000 0.689026 0.102875
0.119965 0.687958 0.100677
0.358307 0.690186 0.077972
0.538239 0.690948 0.044922
0.705597 0.687714 0.020172
0.859802 0.683685 0.005676
0.992920 0.681732 0.000000
1.000000 0.684265 0.000000
0.000000 0.830597 0.058868
0.000000 0.830109 0.057953
0.171753 0.829315 0.053528
0.380798 0.830475 0.023682
0.552216 0.830231 0.007904
0.711700 0.827301 0.000000
0.856506 0.822266 0.000000
0.981140 0.818726 0.000000
1.000000 0.817596 0.000000
0.081268 0.940674 0.064545
0.184753 0.940521 0.061493
0.316284 0.940552 0.048462
0.456665 0.940338 0.021088
0.599426 0.938873 0.010193
0.738464 0.935547 0.001038
0.866180 0.930908 0.000000
0.978271 0.926208 0.000000
1.000000 0.923035 0.000000
0.363770 1.000000 0.107361
0.394684 1.000000 0.104340
0.461609 1.000000 0.096680
0.556305 1.000000 0.082825
0.665253 1.000000 0.063843
0.776672 1.000000 0.041840
0.883392 1.000000 0.022888
0.981659 1.000000 0.026703
1.000000 1.000000 0.125519
0.000000 0.000000 0.355499
0.000336 0.000000 0.354004
0.185181 0.000000 0.353485
0.356506 0.000000 0.350739
0.530304 0.000000 0.346161
0.704987 0.000000 0.340057
0.874237 0.000000 0.332397
1.000000 0.000000 0.323578
1.000000 0.000000 0.314575
0.000000 0.067047 0.354340
0.004486 0.063385 0.353424
0.196533 0.042603 0.353027
0.364441 0.001068 0.350677
0.535614 0.000000 0.345947
0.708221 0.000000 0.339417
0.875793 0.000000 0.331299
1.000000 0.000000 0.322083
1.000000 0.000000 0.312866
0.000000 0.201752 0.352478
0.004608 0.201355 0.351746
0.208435 0.198669 0.350433
0.375061 0.186401 0.348816
0.544769 0.160614 0.343475
0.714844 0.110138 0.335846
0.879333 0.038055 0.326843
1.000000 0.003479 0.316895
1.000000 0.001282 0.306732
0.000000 0.362610 0.347168
0.000000 0.362610 0.346527
0.200439 0.362030 0.344910
0.377106 0.359894 0.341431
0.550110 0.351685 0.334503
0.718964 0.338898 0.326141
0.880524 0.323486 0.316376
1.000000 0.312103 0.305817
1.000000 0.316254 0.295166
0.000000 0.529144 0.336792
0.000000 0.529022 0.336212
0.170868 0.527863 0.335205
0.371552 0.526459 0.333221
0.544281 0.526581 0.323273
0.713165 0.521545 0.313110
0.872223 0.514984 0.302216
0.999603 0.511414 0.291168
1.000000 0.516418 0.281219
0.000000 0.689453 0.322876
0.000000 0.689148 0.322357
0.134796 0.687500 0.322205
0.367859 0.685669 0.320648
0.541748 0.687225 0.309265
0.707123 0.684906 0.298492
0.860260 0.681122 0.287903
0.992371 0.679199 0.276855
1.000000 0.681793 0.268677
0.000000 0.830627 0.312103
0.000000 0.830048 0.311798
0.188324 0.827545 0.312866
0.390900 0.825653 0.310852
0.555908 0.825867 0.300201
0.712067 0.824249 0.286865
0.855133 0.819794 0.278992
0.978851 0.816620 0.271454
1.000000 0.815582 0.266571
0.099060 0.939575 0.318848
0.198822 0.938599 0.319244
0.327881 0.936737 0.319305
0.463776 0.935455 0.315186
0.601654 0.934509 0.305878
0.737427 0.932281 0.294647
0.863281 0.928436 0.286255
0.974670 0.924133 0.283539
1.000000 0.921082 0.282349
0.371582 1.000000 0.342834
0.401978 1.000000 0.342346
0.467316 1.000000 0.340302
0.559052 1.000000 0.335632
0.664856 1.000000 0.328430
0.773804 1.000000 0.320343
0.879150 1.000000 0.313721
0.977600 1.000000 0.310852
1.000000 1.000000 0.341431
0.000000 0.000000 0.520111
0.000000 0.000000 0.518738
0.149139 0.000000 0.517578
0.349915 0.000000 0.516327
0.529205 0.000000 0.512482
0.703705 0.000000 0.507538
0.871460 0.000000 0.501770
1.000000 0.000000 0.495300
1.000000 0.000000 0.489014
0.000000 0.050690 0.518707
0.000000 0.043457 0.517670
0.167389 0.014374 0.516693
0.358490 0.000000 0.516022
0.534485 0.000000 0.512115
0.706848 0.000000 0.507080
0.872864 0.000000 0.501099
1.000000 0.000000 0.494415
1.000000 0.000000 0.488068
0.000000 0.196777 0.516052
0.000000 0.195709 0.515259
0.188995 0.191345 0.514038
0.370636 0.177124 0.513489
0.542542 0.149109 0.510315
0.712372 0.092438 0.505219
0.875641 0.021637 0.498749
1.000000 0.000000 0.491730
1.000000 0.000000 0.484955
0.000000 0.359955 0.511292
0.000000 0.359711 0.510681
0.189178 0.358582 0.509491
0.376007 0.355286 0.507599
0.547577 0.345886 0.505524
0.716675 0.331940 0.500061
0.877167 0.316223 0.493011
1.000000 0.305389 0.485535
1.000000 0.311127 0.478424
0.000000 0.527435 0.504272
0.000000 0.527222 0.503754
0.164429 0.526489 0.502502
0.373047 0.524872 0.500397
0.546295 0.522186 0.496552
0.715637 0.515533 0.489960
0.872650 0.508606 0.482880
0.999390 0.505402 0.475739
1.000000 0.510834 0.469055
0.000000 0.688385 0.495392
0.000000 0.688080 0.494965
0.135895 0.686798 0.494080
0.371857 0.684357 0.492920
0.545166 0.682190 0.490479
0.707275 0.681213 0.481995
0.859283 0.677429 0.474304
0.989838 0.675446 0.467407
1.000000 0.678162 0.462158
0.000000 0.829590 0.488983
0.000000 0.829010 0.488708
0.194153 0.826782 0.488678
0.396545 0.823456 0.488586
0.559998 0.820679 0.486481
0.711151 0.820160 0.477631
0.851654 0.816559 0.471466
0.974213 0.813721 0.466064
1.000000 0.812836 0.462555
0.110260 0.938507 0.492615
0.204803 0.937561 0.492767
0.332428 0.935272 0.493103
0.469238 0.931854 0.493286
0.604065 0.929382 0.490448
0.735107 0.927948 0.483215
0.858093 0.925201 0.476379
0.968170 0.921295 0.473755
1.000000 0.918488 0.472198
0.374329 1.000000 0.507172
0.404938 1.000000 0.507294
0.470764 1.000000 0.507477
0.561737 1.000000 0.506805
0.664062 1.000000 0.503265
0.769501 1.000000 0.497650
0.872650 1.000000 0.492004
0.970276 1.000000 0.488495
1.000000 1.000000 0.503784
0.000000 0.000000 0.680115
0.000000 0.000000 0.678864
0.092010 0.000000 0.677307
0.341400 0.000000 0.676544
0.527710 0.000000 0.673950
0.703033 0.000000 0.669098
0.868469 0.000000 0.663818
0.999847 0.000000 0.658234
1.000000 0.000000 0.652679
0.000000 0.018219 0.678528
0.000000 0.008148 0.677521
0.120789 0.000092 0.676270
0.350800 0.000000 0.675873
0.533112 0.000000 0.673279
0.706085 0.000000 0.668396
0.869720 0.000000 0.663055
0.999847 0.000000 0.657410
1.000000 0.000000 0.651825
0.000000 0.188629 0.675049
0.000000 0.186829 0.674255
0.160522 0.180786 0.672913
0.365540 0.164764 0.672089
0.541443 0.130066 0.670685
0.710815 0.072723 0.666199
0.871613 0.011383 0.660950
0.999786 0.000000 0.655212
1.000000 0.000000 0.649506
0.000000 0.355988 0.669495
0.000000 0.355469 0.668884
0.172943 0.353638 0.667969
0.374542 0.349731 0.666046
0.547089 0.339569 0.665314
0.713776 0.326263 0.661621
0.871643 0.310852 0.656555
0.999481 0.301239 0.650635
1.000000 0.309662 0.644806
0.000000 0.524475 0.662231
0.000000 0.524200 0.661713
0.160522 0.523315 0.660645
0.374481 0.521423 0.658905
0.547577 0.517853 0.656677
0.712311 0.510437 0.654266
0.867249 0.503265 0.648956
0.997986 0.500793 0.642914
1.000000 0.507111 0.637146
0.000000 0.685974 0.653748
0.000000 0.685577 0.653381
0.142639 0.684601 0.652374
0.374268 0.682739 0.650665
0.548309 0.679932 0.648376
0.707367 0.676941 0.644379
0.857605 0.672180 0.638641
0.985504 0.670349 0.633240
1.000000 0.673370 0.628357
0.000000 0.827301 0.646576
0.000000 0.826691 0.646271
0.203735 0.825043 0.645599
0.400330 0.822174 0.644531
0.563843 0.817993 0.643494
0.710785 0.815063 0.640625
0.847015 0.812866 0.634308
0.967682 0.810242 0.629211
1.000000 0.809387 0.625610
0.133331 0.936554 0.645599
0.216400 0.935730 0.645508
0.338196 0.933716 0.645264
0.472504 0.930237 0.644989
0.607056 0.925629 0.644775
0.733521 0.922699 0.642151
0.851746 0.921295 0.635773
0.960052 0.918060 0.632446
1.000000 0.915558 0.630005
0.378326 1.000000 0.651703
0.408173 1.000000 0.651733
0.472778 1.000000 0.651764
0.563049 1.000000 0.651886
0.664368 1.000000 0.651733
0.765686 1.000000 0.648895
0.865356 1.000000 0.643768
0.961548 1.000000 0.639343
1.000000 1.000000 0.646606
0.000000 0.000000 0.822571
0.000000 0.000000 0.821472
0.081604 0.000000 0.820129
0.345490 0.000000 0.819397
0.533508 0.000000 0.817169
0.707489 0.000000 0.813080
0.869202 0.000000 0.807434
0.999359 0.000000 0.801819
1.000000 0.000000 0.796204
0.000000 0.000000 0.820862
0.000000 0.000000 0.819916
0.109375 0.000000 0.818970
0.355286 0.000000 0.818329
0.538788 0.000000 0.816101
0.710358 0.000000 0.812012
0.870270 0.000000 0.806366
0.999359 0.000000 0.800781
1.000000 0.000000 0.795135
0.000000 0.176727 0.816589
0.000000 0.174194 0.815826
0.158020 0.166534 0.814423
0.371796 0.147247 0.813538
0.547546 0.104401 0.812347
0.714874 0.042542 0.808990
0.871490 0.004700 0.803619
0.999207 0.000000 0.798157
1.000000 0.000000 0.792572
0.000000 0.350861 0.809845
0.000000 0.350159 0.809235
0.182739 0.347717 0.808472
0.383972 0.343231 0.806427
0.554413 0.333069 0.805511
0.717590 0.318298 0.803284
0.870239 0.305603 0.798401
0.998749 0.299072 0.793243
1.000000 0.310913 0.787720
0.000000 0.521057 0.801025
0.000000 0.520660 0.800537
0.185547 0.519531 0.799683
0.387421 0.517242 0.798096
0.556702 0.513550 0.795746
0.715668 0.506104 0.794586
0.864044 0.500519 0.790436
0.992218 0.499054 0.785583
1.000000 0.506805 0.780243
0.000000 0.682800 0.790741
0.000000 0.682373 0.790344
0.187683 0.681366 0.789368
0.390991 0.679504 0.787750
0.557739 0.676758 0.785553
0.710999 0.673065 0.783325
0.853760 0.668152 0.780457
0.978455 0.666626 0.775696
1.000000 0.670197 0.770721
0.000000 0.824036 0.781006
0.017365 0.823456 0.780670
0.240387 0.822021 0.779877
0.415924 0.819550 0.778503
0.571625 0.816040 0.776642
0.715149 0.812012 0.774506
0.845123 0.809113 0.770599
0.962921 0.806061 0.766174
1.000000 0.805176 0.762207
0.190796 0.933594 0.775055
0.252960 0.932861 0.774811
0.359009 0.931122 0.774261
0.484131 0.928101 0.773346
0.612946 0.923920 0.772308
0.736359 0.919159 0.771423
0.848267 0.917084 0.768127
0.953583 0.914948 0.763672
1.000000 0.912567 0.760315
0.395172 1.000000 0.773651
0.422882 1.000000 0.773560
0.483398 1.000000 0.773254
0.569153 1.000000 0.772827
0.666840 1.000000 0.772430
0.766235 1.000000 0.772095
0.861450 1.000000 0.769165
0.954681 1.000000 0.764069
1.000000 1.000000 0.766693
0.000000 0.000000 0.935608
0.000000 0.000000 0.934692
0.169678 0.000000 0.934326
0.382233 0.000000 0.933380
0.558441 0.000000 0.931152
0.724457 0.000000 0.927338
0.879028 0.000000 0.921997
0.999603 0.000000 0.916016
1.000000 0.000000 0.910095
0.000000 0.000000 0.933777
0.000000 0.000000 0.933044
0.192169 0.000000 0.932861
0.391022 0.000000 0.931976
0.563263 0.000000 0.929779
0.726990 0.000000 0.925995
0.879883 0.000000 0.920685
0.999542 0.000000 0.914764
1.000000 0.000000 0.908905
0.000000 0.160828 0.929108
0.001312 0.157166 0.928650
0.227448 0.147400 0.927368
0.406799 0.122589 0.926575
0.571686 0.075562 0.925201
0.731018 0.015839 0.922211
0.880493 0.000000 0.917297
0.999359 0.000000 0.911560
1.000000 0.002136 0.905823
0.000000 0.345062 0.921509
0.015747 0.343933 0.921326
0.250305 0.341187 0.920288
0.419983 0.336090 0.918365
0.578766 0.325684 0.917297
0.733215 0.311340 0.915314
0.878296 0.299255 0.911163
0.998718 0.298096 0.905823
1.000000 0.313812 0.900299
0.000000 0.517395 0.911469
0.034454 0.516846 0.911224
0.259827 0.515503 0.910339
0.425598 0.513031 0.908722
0.581604 0.509277 0.906403
0.730835 0.502625 0.905182
0.870728 0.497345 0.902069
0.990692 0.498901 0.897308
1.000000 0.508514 0.892181
0.000000 0.679565 0.899597
0.059998 0.679138 0.899261
0.269135 0.678070 0.898346
0.430634 0.676117 0.896851
0.582306 0.673340 0.894806
0.725830 0.670044 0.892426
0.858337 0.665802 0.890778
0.975098 0.665771 0.886871
1.000000 0.670135 0.882355
0.041473 0.820343 0.887848
0.168732 0.819794 0.887543
0.310822 0.818420 0.886719
0.454041 0.816071 0.885376
0.594360 0.812866 0.883514
0.727325 0.809357 0.881348
0.848480 0.805847 0.879578
0.959869 0.802734 0.876678
1.000000 0.802155 0.872711
0.275452 0.929871 0.879089
0.318298 0.929230 0.878876
0.402954 0.927643 0.878235
0.511902 0.924957 0.877197
0.629120 0.921417 0.875763
0.744080 0.917542 0.874146
0.851654 0.913879 0.872528
0.952087 0.911957 0.868866
1.000000 0.909271 0.865326
0.430298 1.000000 0.873688
0.454376 1.000000 0.873474
0.507904 1.000000 0.873047
0.585541 1.000000 0.872314
0.676147 1.000000 0.871399
0.770752 1.000000 0.870483
0.863556 1.000000 0.869720
0.952271 1.000000 0.866028
1.000000 0.997864 0.874115
0.000000 0.000000 1.000000
0.130341 0.000000 1.000000
0.291992 0.000000 1.000000
0.447266 0.000000 1.000000
0.602264 0.000000 1.000000
0.754425 0.000000 1.000000
0.897675 0.000000 1.000000
1.000000 0.000000 1.000000
1.000000 0.000000 1.000000
0.014313 0.000000 1.000000
0.158264 0.000000 1.000000
0.304016 0.000000 1.000000
0.454193 0.000000 1.000000
0.606262 0.000000 1.000000
0.756439 0.000000 1.000000
0.898102 0.000000 1.000000
1.000000 0.000000 1.000000
1.000000 0.000000 1.000000
0.115479 0.138397 1.000000
0.201141 0.133728 1.000000
0.326660 0.119232 1.000000
0.467072 0.087494 1.000000
0.613342 0.042358 1.000000
0.759491 0.005432 1.000000
0.897827 0.000000 1.000000
1.000000 0.000000 1.000000
1.000000 0.006012 0.998291
0.160156 0.338013 1.000000
0.229797 0.336853 1.000000
0.344971 0.334167 1.000000
0.478638 0.328125 1.000000
0.619263 0.317657 1.000000
0.760437 0.304657 1.000000
0.894196 0.294769 1.000000
0.999634 0.297974 0.997925
1.000000 0.317688 0.992462
0.180023 0.513275 0.999969
0.243805 0.512756 0.999878
0.353546 0.511292 0.999634
0.484161 0.508942 0.998749
0.620880 0.505157 0.997253
0.756622 0.499420 0.995972
0.884705 0.495575 0.993469
0.995148 0.499023 0.989197
1.000000 0.510651 0.984192
0.197479 0.676147 0.989685
0.256836 0.675720 0.989349
0.361694 0.674591 0.988556
0.487549 0.672668 0.987183
0.619843 0.670166 0.985199
0.749542 0.667358 0.983032
0.870117 0.664398 0.981720
0.978424 0.665253 0.978577
1.000000 0.671021 0.974304
0.255402 0.816528 0.977386
0.301971 0.816010 0.977081
0.391663 0.814697 0.976349
0.505676 0.812469 0.975159
0.627625 0.809540 0.973511
0.747253 0.806488 0.971619
0.858551 0.803772 0.969818
0.961670 0.801178 0.968323
1.000000 0.801514 0.965027
0.364258 0.925720 0.967926
0.394897 0.925110 0.967651
0.460632 0.923645 0.967072
0.552002 0.921234 0.966095
0.654877 0.918152 0.964752
0.758850 0.914886 0.963165
0.858765 0.911957 0.961487
0.953766 0.908936 0.960236
1.000000 0.906281 0.957550
0.476074 1.000000 0.961334
0.496094 1.000000 0.961151
0.541840 1.000000 0.960693
0.609985 1.000000 0.959961
0.691864 1.000000 0.958923
0.779480 1.000000 0.957703
0.867706 1.000000 0.956360
0.954346 0.999664 0.955170
1.000000 1.000000 0.969452
