滤镜资源/Professional Luts Collection/Lutify.me Professional/Contemporary Color Films/Cassiterite.cube
# Created by: Lutify.me
# Copyright: (c) Copyright Lutify.me 2015
# Website: https://lutify.me
#LUT size
LUT_3D_SIZE 33
#LUT data points
0.000000 0.000000 0.000000
0.014862 0.000000 0.000793
0.033081 0.000000 0.000061
0.056366 0.000000 0.000000
0.081940 0.000000 0.000000
0.108307 0.000000 0.000000
0.136383 0.000000 0.000000
0.166321 0.000000 0.000000
0.198639 0.000000 0.000000
0.233582 0.000000 0.000000
0.270905 0.000000 0.000000
0.310150 0.000000 0.000000
0.351013 0.000000 0.000000
0.393127 0.000000 0.000000
0.436249 0.000000 0.000000
0.479889 0.000000 0.000000
0.523834 0.000000 0.000000
0.567963 0.000000 0.000000
0.612152 0.000000 0.000000
0.656372 0.000000 0.000000
0.700439 0.000000 0.000000
0.744202 0.000000 0.000000
0.787628 0.000000 0.000000
0.830536 0.000000 0.000000
0.872681 0.000000 0.000000
0.914032 0.000000 0.000000
0.954376 0.000000 0.000000
0.989410 0.000000 0.000000
1.000000 0.000000 0.000000
1.000000 0.000000 0.000000
1.000000 0.000000 0.000000
1.000000 0.000000 0.000000
1.000000 0.000000 0.000000
0.000000 0.014069 0.000000
0.014465 0.013672 0.000000
0.032288 0.013306 0.000031
0.056061 0.012573 0.000000
0.081726 0.011047 0.000000
0.108734 0.009064 0.000000
0.136993 0.006073 0.000000
0.167206 0.001953 0.000000
0.199738 0.000244 0.000000
0.234894 0.000000 0.000000
0.272308 0.000000 0.000000
0.311615 0.000000 0.000000
0.352448 0.000000 0.000000
0.394470 0.000000 0.000000
0.437500 0.000000 0.000000
0.481049 0.000000 0.000000
0.524872 0.000000 0.000000
0.568848 0.000000 0.000000
0.612976 0.000000 0.000000
0.657104 0.000000 0.000000
0.701111 0.000000 0.000000
0.744781 0.000000 0.000000
0.788086 0.000000 0.000000
0.830933 0.000000 0.000000
0.873077 0.000000 0.000000
0.914307 0.000000 0.000000
0.954559 0.000000 0.000000
0.989532 0.000000 0.000000
1.000000 0.000000 0.000000
1.000000 0.000000 0.000000
1.000000 0.000000 0.000000
1.000000 0.000000 0.000000
1.000000 0.000000 0.000000
0.000000 0.029999 0.000000
0.014038 0.029999 0.000000
0.031891 0.029999 0.000000
0.055969 0.029236 0.000000
0.081543 0.028412 0.000000
0.108612 0.026520 0.000000
0.137390 0.023499 0.000000
0.168060 0.018768 0.000000
0.201050 0.012024 0.000000
0.236359 0.003601 0.000000
0.273804 0.000397 0.000000
0.313110 0.000000 0.000000
0.353973 0.000000 0.000000
0.395996 0.000000 0.000000
0.438873 0.000000 0.000000
0.482300 0.000000 0.000000
0.526001 0.000000 0.000000
0.569916 0.000000 0.000000
0.613983 0.000000 0.000000
0.657990 0.000000 0.000000
0.701843 0.000000 0.000000
0.745453 0.000000 0.000000
0.788696 0.000000 0.000000
0.831390 0.000000 0.000000
0.873444 0.000000 0.000000
0.914642 0.000000 0.000000
0.954834 0.000000 0.000000
0.989685 0.000000 0.000000
1.000000 0.000000 0.000000
1.000000 0.000000 0.000000
1.000000 0.000000 0.000000
1.000000 0.000000 0.000000
1.000000 0.000000 0.000000
0.000000 0.052338 0.000000
0.012909 0.052887 0.000000
0.030396 0.052917 0.000000
0.054565 0.053192 0.000000
0.080872 0.052521 0.000000
0.108612 0.051270 0.000000
0.137695 0.048828 0.000000
0.168915 0.045044 0.000000
0.202209 0.039032 0.000000
0.237946 0.029755 0.000000
0.275665 0.017303 0.000000
0.315094 0.004456 0.000000
0.355988 0.000244 0.000000
0.397949 0.000000 0.000000
0.440735 0.000000 0.000000
0.483978 0.000000 0.000000
0.527527 0.000000 0.000000
0.571259 0.000000 0.000000
0.615173 0.000000 0.000000
0.659058 0.000000 0.000000
0.702820 0.000000 0.000000
0.746307 0.000000 0.000000
0.789398 0.000000 0.000000
0.832031 0.000000 0.000000
0.873932 0.000000 0.000000
0.915009 0.000000 0.000000
0.955109 0.000000 0.000000
0.989838 0.000000 0.000000
1.000000 0.000000 0.000000
1.000000 0.000000 0.000000
1.000000 0.000000 0.000000
1.000000 0.000000 0.000000
1.000000 0.000000 0.000000
0.000000 0.077942 0.000000
0.010223 0.078033 0.000000
0.027802 0.078461 0.000000
0.052948 0.078918 0.000000
0.080109 0.078949 0.000000
0.108093 0.078247 0.000000
0.138031 0.076843 0.000000
0.169708 0.074402 0.000000
0.203583 0.070526 0.000000
0.239563 0.064636 0.000000
0.277588 0.055542 0.000000
0.317139 0.042358 0.000000
0.358093 0.024719 0.000000
0.400116 0.007507 0.000000
0.442871 0.000641 0.000000
0.486023 0.000000 0.000000
0.529358 0.000000 0.000000
0.572937 0.000000 0.000000
0.616699 0.000000 0.000000
0.660431 0.000000 0.000000
0.704010 0.000000 0.000000
0.747345 0.000000 0.000000
0.790314 0.000000 0.000000
0.832764 0.000000 0.000000
0.874512 0.000000 0.000000
0.915466 0.000000 0.000000
0.955414 0.000000 0.000000
0.990021 0.000000 0.000000
1.000000 0.000000 0.000000
1.000000 0.000000 0.000000
1.000000 0.000000 0.000000
1.000000 0.000000 0.000000
1.000000 0.000000 0.000000
0.000000 0.105438 0.000000
0.005219 0.105469 0.000000
0.023407 0.105713 0.000000
0.049438 0.106415 0.000000
0.078003 0.107086 0.000000
0.107208 0.106934 0.000000
0.137970 0.106171 0.000000
0.170410 0.104767 0.000000
0.204865 0.102264 0.000000
0.241241 0.098633 0.000000
0.279449 0.093170 0.000000
0.319153 0.085266 0.000000
0.360077 0.074493 0.000000
0.402039 0.059601 0.000000
0.444794 0.039703 0.000000
0.487915 0.018250 0.000000
0.531219 0.004425 0.000000
0.574738 0.000366 0.000000
0.618378 0.000000 0.000000
0.661957 0.000000 0.000000
0.705353 0.000000 0.000000
0.748474 0.000000 0.000000
0.791290 0.000000 0.000000
0.833588 0.000000 0.000000
0.875183 0.000000 0.000000
0.915985 0.000000 0.000000
0.955750 0.000000 0.000000
0.990204 0.000000 0.000000
1.000000 0.000000 0.000000
1.000000 0.000000 0.000000
1.000000 0.000000 0.000000
1.000000 0.000000 0.000000
1.000000 0.000000 0.000000
0.000000 0.135468 0.000000
0.000732 0.135681 0.000000
0.013885 0.135864 0.000000
0.041962 0.136505 0.000000
0.073425 0.137360 0.000000
0.104584 0.137939 0.000000
0.137085 0.137787 0.000000
0.170288 0.137024 0.000000
0.205536 0.135773 0.000000
0.242615 0.133301 0.000000
0.281006 0.129913 0.000000
0.320892 0.125122 0.000000
0.361938 0.118591 0.000000
0.403870 0.110107 0.000000
0.446442 0.099030 0.000000
0.489441 0.084442 0.000000
0.532684 0.065613 0.000000
0.576111 0.044861 0.000000
0.619659 0.021851 0.000000
0.663147 0.006195 0.000000
0.706512 0.001099 0.000000
0.749634 0.000000 0.000000
0.792328 0.000000 0.000000
0.834473 0.000000 0.000000
0.875885 0.000000 0.000000
0.916504 0.000000 0.000000
0.956085 0.000000 0.000000
0.990356 0.000000 0.000000
1.000000 0.000000 0.000000
1.000000 0.000000 0.000000
1.000000 0.000000 0.000000
1.000000 0.000000 0.000000
1.000000 0.000000 0.000000
0.000000 0.168335 0.000000
0.000000 0.168549 0.000000
0.002045 0.168671 0.000000
0.027802 0.169220 0.000000
0.064331 0.170288 0.000000
0.099213 0.171265 0.000000
0.133881 0.171783 0.000000
0.169434 0.171509 0.000000
0.205597 0.170715 0.000000
0.243164 0.169495 0.000000
0.282196 0.167236 0.000000
0.322357 0.164154 0.000000
0.363525 0.160004 0.000000
0.405457 0.154572 0.000000
0.447937 0.147888 0.000000
0.490784 0.139526 0.000000
0.533875 0.129333 0.000000
0.577179 0.116608 0.000000
0.620544 0.100250 0.000000
0.663940 0.080841 0.000000
0.707184 0.062317 0.000000
0.750153 0.039581 0.000000
0.792725 0.018311 0.000000
0.834778 0.006989 0.000000
0.876099 0.001801 0.000000
0.916565 0.000000 0.000000
0.956085 0.000000 0.000000
0.990265 0.000000 0.000000
1.000000 0.000000 0.000000
1.000000 0.000000 0.000000
1.000000 0.000000 0.000000
1.000000 0.000000 0.000000
1.000000 0.000000 0.000000
0.000000 0.203949 0.000000
0.000000 0.204132 0.000000
0.000000 0.204254 0.000000
0.006714 0.204681 0.000000
0.048157 0.205597 0.000000
0.090332 0.206696 0.000000
0.128571 0.207672 0.000000
0.166443 0.208099 0.000000
0.204590 0.207733 0.000000
0.243134 0.206909 0.000000
0.282684 0.205688 0.000000
0.323273 0.203705 0.000000
0.364624 0.200958 0.000000
0.406647 0.197388 0.000000
0.449097 0.192963 0.000000
0.491913 0.187531 0.000000
0.534912 0.181030 0.000000
0.578064 0.173370 0.000000
0.621307 0.164429 0.000000
0.664520 0.153900 0.000000
0.707611 0.141418 0.000000
0.750427 0.126312 0.000000
0.792816 0.107513 0.000000
0.834717 0.091248 0.000000
0.875854 0.076019 0.000000
0.916138 0.059753 0.000000
0.955475 0.041260 0.000000
0.989624 0.023499 0.000000
1.000000 0.015503 0.000000
1.000000 0.013275 0.000000
1.000000 0.011932 0.000000
1.000000 0.011871 0.000000
1.000000 0.013031 0.000000
0.000000 0.241730 0.000000
0.000000 0.241974 0.000000
0.000000 0.242096 0.000000
0.000610 0.242371 0.000000
0.022583 0.242889 0.000000
0.075836 0.244110 0.000000
0.120209 0.245270 0.000000
0.161377 0.246094 0.000000
0.201904 0.246399 0.000000
0.242096 0.246063 0.000000
0.282532 0.245239 0.000000
0.323578 0.243896 0.000000
0.365265 0.242157 0.000000
0.407379 0.239746 0.000000
0.449921 0.236694 0.000000
0.492676 0.233032 0.000000
0.535645 0.228516 0.000000
0.578705 0.223358 0.000000
0.621826 0.217377 0.000000
0.664948 0.210541 0.000000
0.707855 0.202850 0.000000
0.750519 0.194214 0.000000
0.792725 0.184814 0.000000
0.834442 0.174377 0.000000
0.875397 0.163055 0.000000
0.915436 0.150940 0.000000
0.954529 0.137482 0.000000
0.988678 0.123474 0.000000
1.000000 0.114563 0.000000
1.000000 0.109680 0.000000
1.000000 0.107178 0.000000
1.000000 0.107391 0.000000
1.000000 0.110596 0.000000
0.000000 0.281219 0.000000
0.000000 0.281372 0.000000
0.000000 0.281525 0.000000
0.000000 0.281708 0.000000
0.003815 0.281982 0.000000
0.053009 0.282990 0.000000
0.108154 0.284271 0.000000
0.153931 0.285339 0.000000
0.197235 0.286102 0.000000
0.239655 0.286255 0.000000
0.281525 0.285828 0.000000
0.323273 0.284912 0.000000
0.365326 0.283630 0.000000
0.407715 0.282043 0.000000
0.450348 0.279877 0.000000
0.493134 0.277252 0.000000
0.536041 0.274170 0.000000
0.579102 0.270355 0.000000
0.622162 0.266052 0.000000
0.665161 0.261169 0.000000
0.707947 0.255798 0.000000
0.750427 0.249908 0.000000
0.792480 0.243561 0.000000
0.833954 0.236877 0.000000
0.874725 0.229889 0.000000
0.914551 0.222992 0.000000
0.953400 0.216309 0.000000
0.987579 0.210083 0.000000
1.000000 0.204773 0.000000
1.000000 0.201080 0.000000
1.000000 0.199524 0.000000
1.000000 0.200256 0.000000
1.000000 0.203644 0.000000
0.000000 0.321686 0.000000
0.000000 0.321808 0.000000
0.000000 0.321960 0.000000
0.000000 0.322144 0.000000
0.000000 0.322327 0.000000
0.022339 0.322876 0.000000
0.091034 0.324158 0.000000
0.144257 0.325409 0.000000
0.191101 0.326355 0.000000
0.235748 0.326904 0.000000
0.279388 0.326935 0.000000
0.322388 0.326324 0.000000
0.364960 0.325409 0.000000
0.407593 0.324188 0.000000
0.450409 0.322693 0.000000
0.493317 0.320770 0.000000
0.536255 0.318451 0.000000
0.579254 0.315704 0.000000
0.622314 0.312469 0.000000
0.665192 0.308838 0.000000
0.707855 0.304840 0.000000
0.750153 0.300507 0.000000
0.792023 0.295898 0.000000
0.833313 0.291107 0.000000
0.873840 0.286285 0.000000
0.913422 0.281525 0.000000
0.951996 0.277130 0.000000
0.986237 0.273193 0.000000
1.000000 0.270020 0.000000
1.000000 0.268066 0.000000
1.000000 0.267700 0.000000
1.000000 0.268921 0.000000
1.000000 0.271912 0.000000
0.000000 0.362823 0.000000
0.000000 0.362915 0.000000
0.000000 0.363068 0.000000
0.000000 0.363190 0.000000
0.000000 0.363312 0.000000
0.004150 0.363556 0.000000
0.067688 0.364594 0.000000
0.131958 0.365936 0.000000
0.183563 0.367096 0.000000
0.230835 0.367828 0.000000
0.276276 0.368225 0.000000
0.320587 0.368073 0.000000
0.364075 0.367401 0.000000
0.407135 0.366425 0.000000
0.450165 0.365234 0.000000
0.493225 0.363831 0.000000
0.536255 0.362091 0.000000
0.579254 0.359985 0.000000
0.622192 0.357574 0.000000
0.665039 0.354797 0.000000
0.707550 0.351746 0.000000
0.749725 0.348450 0.000000
0.791382 0.344971 0.000000
0.832428 0.341370 0.000000
0.872742 0.337799 0.000000
0.912079 0.334351 0.000000
0.950378 0.331238 0.000000
0.984650 0.328583 0.000000
1.000000 0.326538 0.000000
1.000000 0.325470 0.000000
1.000000 0.325684 0.000000
1.000000 0.327148 0.000000
1.000000 0.329956 0.000000
0.000000 0.404297 0.000000
0.000000 0.404358 0.000000
0.000000 0.404419 0.000000
0.000000 0.404541 0.000000
0.000000 0.404663 0.000000
0.000061 0.404755 0.000000
0.039673 0.405487 0.000000
0.116669 0.406769 0.000000
0.174713 0.407990 0.000000
0.225037 0.408936 0.000000
0.272369 0.409515 0.000000
0.317902 0.409729 0.000000
0.362457 0.409485 0.000000
0.406250 0.408752 0.000000
0.449677 0.407745 0.000000
0.492889 0.406586 0.000000
0.536011 0.405273 0.000000
0.579041 0.403625 0.000000
0.621979 0.401733 0.000000
0.664642 0.399628 0.000000
0.707062 0.397247 0.000000
0.749054 0.394684 0.000000
0.790527 0.391968 0.000000
0.831360 0.389221 0.000000
0.871368 0.386475 0.000000
0.910461 0.383911 0.000000
0.948456 0.381622 0.000000
0.982849 0.379761 0.000000
1.000000 0.378448 0.000000
1.000000 0.377899 0.000000
1.000000 0.378448 0.000000
1.000000 0.379974 0.000000
1.000000 0.382599 0.000000
0.000000 0.445953 0.000000
0.000000 0.445984 0.000000
0.000000 0.446014 0.000000
0.000000 0.446106 0.000000
0.000000 0.446167 0.000000
0.000000 0.446259 0.000000
0.014282 0.446625 0.000000
0.096710 0.447845 0.000000
0.164337 0.449066 0.000000
0.218384 0.450104 0.000000
0.267731 0.450897 0.000000
0.314667 0.451324 0.000000
0.360168 0.451385 0.000000
0.404877 0.451019 0.000000
0.448883 0.450226 0.000000
0.492371 0.449219 0.000000
0.535583 0.448059 0.000000
0.578613 0.446838 0.000000
0.621521 0.445312 0.000000
0.664154 0.443573 0.000000
0.706390 0.441711 0.000000
0.748230 0.439667 0.000000
0.789490 0.437561 0.000000
0.830048 0.435394 0.000000
0.869812 0.433289 0.000000
0.908600 0.431305 0.000000
0.946259 0.429565 0.000000
0.980774 0.428223 0.000000
0.999847 0.427368 0.000000
1.000000 0.427216 0.000000
1.000000 0.427948 0.000000
1.000000 0.429504 0.000000
1.000000 0.431946 0.000000
0.000000 0.487549 0.000000
0.000000 0.487579 0.000000
0.000000 0.487610 0.000000
0.000000 0.487671 0.000000
0.000000 0.487701 0.000000
0.000000 0.487762 0.000000
0.002197 0.487885 0.000000
0.074707 0.488922 0.000000
0.152222 0.490173 0.000000
0.210938 0.491241 0.000000
0.262543 0.492157 0.000000
0.310913 0.492767 0.000000
0.357513 0.493042 0.000000
0.402954 0.492981 0.000000
0.447662 0.492462 0.000000
0.491608 0.491638 0.000000
0.535004 0.490601 0.000000
0.578125 0.489471 0.000000
0.620941 0.488281 0.000000
0.663483 0.486877 0.000000
0.705566 0.485352 0.000000
0.747223 0.483704 0.000000
0.788269 0.481964 0.000000
0.828613 0.480255 0.000000
0.868042 0.478577 0.000000
0.906525 0.477051 0.000000
0.943817 0.475708 0.000000
0.978424 0.474701 0.000000
0.999542 0.474182 0.000000
1.000000 0.474243 0.000000
1.000000 0.475067 0.000000
1.000000 0.476593 0.000000
1.000000 0.478882 0.000000
0.000000 0.528992 0.000000
0.000000 0.528961 0.000000
0.000000 0.528992 0.000000
0.000000 0.529022 0.000000
0.000000 0.529053 0.000000
0.000000 0.529083 0.000000
0.000000 0.529114 0.000000
0.053864 0.529877 0.000000
0.138489 0.531097 0.000000
0.202759 0.532227 0.000000
0.257080 0.533173 0.000000
0.307007 0.533905 0.000000
0.354645 0.534332 0.000000
0.400848 0.534454 0.000000
0.446198 0.534241 0.000000
0.490631 0.533661 0.000000
0.534332 0.532745 0.000000
0.577515 0.531677 0.000000
0.620331 0.530579 0.000000
0.662781 0.529388 0.000000
0.704712 0.528107 0.000000
0.746124 0.526733 0.000000
0.786926 0.525299 0.000000
0.826965 0.523895 0.000000
0.866119 0.522491 0.000000
0.904236 0.521271 0.000000
0.941162 0.520264 0.000000
0.975861 0.519531 0.000000
0.999207 0.519226 0.000000
1.000000 0.519409 0.000000
1.000000 0.520264 0.000000
1.000000 0.521667 0.000000
1.000000 0.523743 0.000000
0.000000 0.570099 0.000000
0.000000 0.570068 0.000000
0.000000 0.570099 0.000000
0.000000 0.570099 0.000000
0.000000 0.570099 0.000000
0.000000 0.570068 0.000000
0.000000 0.570038 0.000000
0.030121 0.570618 0.000000
0.122894 0.571747 0.000000
0.194397 0.572906 0.000000
0.251587 0.573853 0.000000
0.303223 0.574615 0.000000
0.351868 0.575134 0.000000
0.398804 0.575439 0.000000
0.444580 0.575409 0.000000
0.489532 0.575012 0.000000
0.533630 0.574341 0.000000
0.576935 0.573364 0.000000
0.619720 0.572296 0.000000
0.662048 0.571198 0.000000
0.703827 0.570068 0.000000
0.745026 0.568848 0.000000
0.785522 0.567627 0.000000
0.825287 0.566406 0.000000
0.864105 0.565277 0.000000
0.901825 0.564240 0.000000
0.938354 0.563385 0.000000
0.973145 0.562866 0.000000
0.998840 0.562653 0.000000
1.000000 0.562927 0.000000
1.000000 0.563721 0.000000
1.000000 0.565033 0.000000
1.000000 0.566864 0.000000
0.000000 0.610718 0.000000
0.000000 0.610718 0.000000
0.000000 0.610718 0.000000
0.000000 0.610687 0.000000
0.000000 0.610657 0.000000
0.000000 0.610626 0.000000
0.000000 0.610535 0.000000
0.014252 0.610901 0.000000
0.105988 0.611969 0.000000
0.186523 0.613068 0.000000
0.246552 0.614044 0.000000
0.299744 0.614838 0.000000
0.349457 0.615417 0.000000
0.397003 0.615784 0.000000
0.443268 0.615875 0.000000
0.488495 0.615692 0.000000
0.532867 0.615143 0.000000
0.576508 0.614380 0.000000
0.619324 0.613342 0.000000
0.661499 0.612244 0.000000
0.703064 0.611145 0.000000
0.744019 0.610046 0.000000
0.784210 0.608948 0.000000
0.823608 0.607849 0.000000
0.862030 0.606842 0.000000
0.899353 0.605957 0.000000
0.935486 0.605225 0.000000
0.970184 0.604797 0.000000
0.998138 0.604645 0.000000
1.000000 0.604950 0.000000
1.000000 0.605621 0.000000
1.000000 0.606812 0.000000
1.000000 0.608429 0.000000
0.000000 0.650635 0.000000
0.000000 0.650635 0.000000
0.000000 0.650604 0.000000
0.000000 0.650574 0.000000
0.000000 0.650513 0.000000
0.000000 0.650452 0.000000
0.000000 0.650330 0.000000
0.008514 0.650604 0.000000
0.096130 0.651550 0.000000
0.179901 0.652588 0.000000
0.242798 0.653534 0.000000
0.297302 0.654327 0.000000
0.347809 0.654907 0.000000
0.395905 0.655304 0.000000
0.442505 0.655457 0.000000
0.488007 0.655334 0.000000
0.532501 0.654999 0.000000
0.576172 0.654358 0.000000
0.619110 0.653473 0.000000
0.661163 0.652374 0.000000
0.702545 0.651245 0.000000
0.743225 0.650146 0.000000
0.783081 0.649109 0.000000
0.822052 0.648102 0.000000
0.860046 0.647125 0.000000
0.896912 0.646332 0.000000
0.932556 0.645660 0.000000
0.966797 0.645233 0.000000
0.996216 0.645142 0.000000
1.000000 0.645355 0.000000
1.000000 0.645935 0.000000
1.000000 0.646912 0.000000
1.000000 0.648285 0.000000
0.000000 0.689606 0.000000
0.000000 0.689575 0.000000
0.000000 0.689545 0.000000
0.000000 0.689484 0.000000
0.000000 0.689423 0.000000
0.000000 0.689301 0.000000
0.000000 0.689178 0.000000
0.006409 0.689392 0.000000
0.091248 0.690247 0.000000
0.176117 0.691223 0.000000
0.240906 0.692108 0.000000
0.296478 0.692841 0.000000
0.347565 0.693420 0.000000
0.395966 0.693817 0.000000
0.442719 0.694000 0.000000
0.488251 0.693939 0.000000
0.532806 0.693634 0.000000
0.576447 0.693115 0.000000
0.619293 0.692352 0.000000
0.661285 0.691376 0.000000
0.702393 0.690216 0.000000
0.742706 0.689056 0.000000
0.782227 0.687988 0.000000
0.820770 0.686981 0.000000
0.858307 0.686035 0.000000
0.894653 0.685211 0.000000
0.929718 0.684570 0.000000
0.963379 0.684143 0.000000
0.992950 0.683990 0.000000
1.000000 0.684113 0.000000
1.000000 0.684570 0.000000
1.000000 0.685303 0.000000
1.000000 0.686401 0.000000
0.000000 0.727417 0.000000
0.000000 0.727386 0.000000
0.000000 0.727325 0.000000
0.000000 0.727234 0.000000
0.000000 0.727173 0.000000
0.000000 0.727020 0.000000
0.000000 0.726868 0.000000
0.006897 0.727051 0.000000
0.091766 0.727844 0.000000
0.176636 0.728760 0.000000
0.242157 0.729553 0.000000
0.297943 0.730255 0.000000
0.349152 0.730774 0.000000
0.397644 0.731140 0.000000
0.444336 0.731293 0.000000
0.489716 0.731262 0.000000
0.534058 0.731018 0.000000
0.577545 0.730530 0.000000
0.620148 0.729828 0.000000
0.661987 0.728912 0.000000
0.702850 0.727844 0.000000
0.742767 0.726624 0.000000
0.781830 0.725433 0.000000
0.819885 0.724365 0.000000
0.856873 0.723419 0.000000
0.892700 0.722565 0.000000
0.927155 0.721863 0.000000
0.960205 0.721375 0.000000
0.989716 0.721130 0.000000
1.000000 0.721161 0.000000
1.000000 0.721375 0.000000
1.000000 0.721893 0.000000
1.000000 0.722656 0.000000
0.000000 0.763824 0.000000
0.000000 0.763763 0.000000
0.000000 0.763702 0.000000
0.000000 0.763580 0.000000
0.000000 0.763489 0.000000
0.000000 0.763336 0.000000
0.000000 0.763153 0.000000
0.010406 0.763428 0.000000
0.099548 0.764160 0.000000
0.182983 0.764954 0.000000
0.247314 0.765656 0.000000
0.302551 0.766266 0.000000
0.353302 0.766724 0.000000
0.401428 0.767029 0.000000
0.447754 0.767151 0.000000
0.492798 0.767090 0.000000
0.536743 0.766846 0.000000
0.579865 0.766357 0.000000
0.622101 0.765686 0.000000
0.663483 0.764832 0.000000
0.704041 0.763763 0.000000
0.743622 0.762543 0.000000
0.782074 0.761322 0.000000
0.819580 0.760101 0.000000
0.856018 0.759033 0.000000
0.891144 0.758118 0.000000
0.924988 0.757355 0.000000
0.957428 0.756775 0.000000
0.986786 0.756409 0.000000
1.000000 0.756226 0.000000
1.000000 0.756256 0.000000
1.000000 0.756500 0.000000
1.000000 0.756958 0.000000
0.000000 0.798584 0.000000
0.000000 0.798492 0.000000
0.000000 0.798431 0.000000
0.000000 0.798309 0.000000
0.000000 0.798187 0.000000
0.000000 0.797974 0.000000
0.000000 0.797852 0.000000
0.025299 0.798248 0.000000
0.114594 0.798920 0.000000
0.196106 0.799622 0.000000
0.257416 0.800232 0.000000
0.310974 0.800720 0.000000
0.360657 0.801056 0.000000
0.407867 0.801270 0.000000
0.453522 0.801331 0.000000
0.497894 0.801208 0.000000
0.541260 0.800903 0.000000
0.583740 0.800385 0.000000
0.625488 0.799683 0.000000
0.666321 0.798828 0.000000
0.706238 0.797821 0.000000
0.745331 0.796600 0.000000
0.783295 0.795319 0.000000
0.820099 0.794006 0.000000
0.855804 0.792786 0.000000
0.890289 0.791748 0.000000
0.923401 0.790833 0.000000
0.955139 0.790161 0.000000
0.984253 0.789642 0.000000
0.999969 0.789276 0.000000
1.000000 0.789062 0.000000
1.000000 0.789032 0.000000
1.000000 0.789215 0.000000
0.000000 0.831360 0.000000
0.000000 0.831268 0.000000
0.000000 0.831177 0.000000
0.000000 0.831055 0.000000
0.000000 0.830872 0.000000
0.000000 0.830688 0.000000
0.003235 0.830750 0.000000
0.061462 0.831238 0.000000
0.144165 0.831848 0.000000
0.215912 0.832397 0.000000
0.272827 0.832855 0.000000
0.323853 0.833252 0.000000
0.371704 0.833496 0.000000
0.417542 0.833618 0.000000
0.462036 0.833557 0.000000
0.505493 0.833344 0.000000
0.547943 0.832977 0.000000
0.589600 0.832428 0.000000
0.630554 0.831665 0.000000
0.670654 0.830780 0.000000
0.709869 0.829712 0.000000
0.748199 0.828522 0.000000
0.785522 0.827179 0.000000
0.821625 0.825836 0.000000
0.856537 0.824463 0.000000
0.890198 0.823273 0.000000
0.922516 0.822266 0.000000
0.953583 0.821411 0.000000
0.982361 0.820679 0.000000
0.999786 0.820221 0.000000
1.000000 0.819824 0.000000
1.000000 0.819550 0.000000
1.000000 0.819458 0.000000
0.000000 0.861969 0.000000
0.000000 0.861877 0.000000
0.000000 0.861786 0.000000
0.000000 0.861633 0.000000
0.000000 0.861511 0.000000
0.001923 0.861481 0.000000
0.029938 0.861786 0.000000
0.108429 0.862274 0.000000
0.183380 0.862732 0.000000
0.242126 0.863129 0.000000
0.293518 0.863464 0.000000
0.341217 0.863708 0.000000
0.386658 0.863831 0.000000
0.430695 0.863831 0.000000
0.473663 0.863678 0.000000
0.515747 0.863403 0.000000
0.557037 0.862946 0.000000
0.597595 0.862335 0.000000
0.637512 0.861511 0.000000
0.676697 0.860565 0.000000
0.714996 0.859467 0.000000
0.752441 0.858276 0.000000
0.788879 0.856934 0.000000
0.824158 0.855560 0.000000
0.858185 0.854156 0.000000
0.890930 0.852875 0.000000
0.922424 0.851715 0.000000
0.952759 0.850739 0.000000
0.981049 0.849915 0.000000
0.999603 0.849243 0.000000
1.000000 0.848694 0.000000
1.000000 0.848236 0.000000
1.000000 0.847931 0.000000
0.000000 0.890442 0.000000
0.000000 0.890350 0.000000
0.000000 0.890289 0.000000
0.000000 0.890198 0.000000
0.008789 0.890228 0.000000
0.027740 0.890564 0.000000
0.098022 0.890869 0.000000
0.167175 0.891235 0.000000
0.223358 0.891602 0.000000
0.272766 0.891846 0.000000
0.318634 0.892059 0.000000
0.362610 0.892181 0.000000
0.405334 0.892212 0.000000
0.447113 0.892090 0.000000
0.488190 0.891846 0.000000
0.528625 0.891449 0.000000
0.568451 0.890930 0.000000
0.607727 0.890228 0.000000
0.646393 0.889404 0.000000
0.684387 0.888397 0.000000
0.721588 0.887299 0.000000
0.757935 0.886078 0.000000
0.793304 0.884735 0.000000
0.827576 0.883392 0.000000
0.860657 0.882019 0.000000
