滤镜资源/Professional Luts Collection/Lutify.me Professional/Contemporary Color Films/Cassiterite.cube
# Created by: Lutify.me
# Copyright: (c) Copyright Lutify.me 2015
# Website: https://lutify.me
#LUT size
LUT_3D_SIZE 5
#LUT data points
0.000000 0.000000 0.000000
0.198639 0.000000 0.000000
0.523834 0.000000 0.000000
0.872681 0.000000 0.000000
1.000000 0.000000 0.000000
0.000000 0.203949 0.000000
0.204590 0.207733 0.000000
0.534912 0.181030 0.000000
0.875854 0.076019 0.000000
1.000000 0.013031 0.000000
0.000000 0.528992 0.000000
0.138489 0.531097 0.000000
0.534332 0.532745 0.000000
0.866119 0.522491 0.000000
1.000000 0.523743 0.000000
0.000000 0.831360 0.000000
0.144165 0.831848 0.000000
0.547943 0.832977 0.000000
0.856537 0.824463 0.000000
1.000000 0.819458 0.000000
0.353699 1.000000 0.000000
0.455719 1.000000 0.000000
0.665009 1.000000 0.000000
0.886230 1.000000 0.000000
1.000000 1.000000 0.000000
0.000000 0.000000 0.199463
0.199982 0.000000 0.196686
0.529572 0.000000 0.184998
0.875214 0.000000 0.161224
1.000000 0.000000 0.119690
0.000000 0.204224 0.195312
0.214020 0.203308 0.191742
0.544495 0.170074 0.175110
0.880280 0.055969 0.143921
1.000000 0.005554 0.087646
0.000000 0.529114 0.155243
0.165588 0.528168 0.152893
0.540802 0.529877 0.115265
0.869629 0.519257 0.056763
1.000000 0.520599 0.005676
0.000000 0.830597 0.058868
0.171753 0.829315 0.053528
0.552216 0.830231 0.007904
0.856506 0.822266 0.000000
1.000000 0.817596 0.000000
0.363770 1.000000 0.107361
0.461609 1.000000 0.096680
0.665253 1.000000 0.063843
0.883392 1.000000 0.022888
1.000000 1.000000 0.125519
0.000000 0.000000 0.520111
0.149139 0.000000 0.517578
0.529205 0.000000 0.512482
0.871460 0.000000 0.501770
1.000000 0.000000 0.489014
0.000000 0.196777 0.516052
0.188995 0.191345 0.514038
0.542542 0.149109 0.510315
0.875641 0.021637 0.498749
1.000000 0.000000 0.484955
0.000000 0.527435 0.504272
0.164429 0.526489 0.502502
0.546295 0.522186 0.496552
0.872650 0.508606 0.482880
1.000000 0.510834 0.469055
0.000000 0.829590 0.488983
0.194153 0.826782 0.488678
0.559998 0.820679 0.486481
0.851654 0.816559 0.471466
1.000000 0.812836 0.462555
0.374329 1.000000 0.507172
0.470764 1.000000 0.507477
0.664062 1.000000 0.503265
0.872650 1.000000 0.492004
1.000000 1.000000 0.503784
0.000000 0.000000 0.822571
0.081604 0.000000 0.820129
0.533508 0.000000 0.817169
0.869202 0.000000 0.807434
1.000000 0.000000 0.796204
0.000000 0.176727 0.816589
0.158020 0.166534 0.814423
0.547546 0.104401 0.812347
0.871490 0.004700 0.803619
1.000000 0.000000 0.792572
0.000000 0.521057 0.801025
0.185547 0.519531 0.799683
0.556702 0.513550 0.795746
0.864044 0.500519 0.790436
1.000000 0.506805 0.780243
0.000000 0.824036 0.781006
0.240387 0.822021 0.779877
0.571625 0.816040 0.776642
0.845123 0.809113 0.770599
1.000000 0.805176 0.762207
0.395172 1.000000 0.773651
0.483398 1.000000 0.773254
0.666840 1.000000 0.772430
0.861450 1.000000 0.769165
1.000000 1.000000 0.766693
0.000000 0.000000 1.000000
0.291992 0.000000 1.000000
0.602264 0.000000 1.000000
0.897675 0.000000 1.000000
1.000000 0.000000 1.000000
0.115479 0.138397 1.000000
0.326660 0.119232 1.000000
0.613342 0.042358 1.000000
0.897827 0.000000 1.000000
1.000000 0.006012 0.998291
0.180023 0.513275 0.999969
0.353546 0.511292 0.999634
0.620880 0.505157 0.997253
0.884705 0.495575 0.993469
1.000000 0.510651 0.984192
0.255402 0.816528 0.977386
0.391663 0.814697 0.976349
0.627625 0.809540 0.973511
0.858551 0.803772 0.969818
1.000000 0.801514 0.965027
0.476074 1.000000 0.961334
0.541840 1.000000 0.960693
0.691864 1.000000 0.958923
0.867706 1.000000 0.956360
1.000000 1.000000 0.969452
