滤镜资源/Professional Luts Collection/Lutify.me Professional/Contemporary Color Films/Cavansite.cube
# Created by: Lutify.me
# Copyright: (c) Copyright Lutify.me 2015
# Website: https://lutify.me
#LUT size
LUT_3D_SIZE 9
#LUT data points
0.000000 0.000000 0.000000
0.096985 0.000000 0.000000
0.218597 0.000000 0.000000
0.365143 0.000000 0.000000
0.523315 0.000000 0.000000
0.680511 0.000000 0.000000
0.833618 0.000000 0.000000
0.978119 0.000000 0.000000
1.000000 0.000000 0.000000
0.000000 0.091156 0.000000
0.094818 0.091766 0.000000
0.221375 0.084259 0.000000
0.369507 0.051025 0.000000
0.526581 0.000549 0.000000
0.682373 0.000000 0.000000
0.834412 0.000000 0.000000
0.978088 0.000000 0.000000
1.000000 0.000000 0.000000
0.000000 0.217163 0.000000
0.075104 0.218750 0.000000
0.221344 0.219635 0.000000
0.372437 0.213623 0.000000
0.527893 0.199432 0.000000
0.682281 0.176361 0.000000
0.833221 0.142426 0.000000
0.976166 0.097229 0.000000
1.000000 0.069672 0.000000
0.000000 0.364288 0.000000
0.004700 0.364471 0.000000
0.209991 0.367645 0.000000
0.371246 0.366669 0.000000
0.526489 0.361755 0.000000
0.679810 0.353668 0.000000
0.829346 0.342865 0.000000
0.971344 0.331757 0.000000
1.000000 0.324890 0.000000
0.000000 0.512299 0.000000
0.000000 0.512115 0.000000
0.195801 0.514648 0.000000
0.367188 0.516083 0.000000
0.524475 0.513794 0.000000
0.676514 0.509369 0.000000
0.824005 0.503815 0.000000
0.963959 0.498260 0.000000
1.000000 0.495148 0.000000
0.000000 0.655609 0.000000
0.000000 0.655304 0.000000
0.188202 0.657379 0.000000
0.365265 0.659271 0.000000
0.523407 0.658875 0.000000
0.674347 0.655548 0.000000
0.818756 0.651428 0.000000
0.955109 0.647644 0.000000
1.000000 0.645172 0.000000
0.000000 0.789734 0.000000
0.000153 0.789703 0.000000
0.208984 0.791473 0.000000
0.376404 0.792908 0.000000
0.529388 0.792847 0.000000
0.676483 0.790680 0.000000
0.816620 0.786560 0.000000
0.947937 0.782654 0.000000
1.000000 0.779449 0.000000
0.010223 0.910828 0.000000
0.134674 0.911377 0.000000
0.273346 0.912354 0.000000
0.411926 0.913055 0.000000
0.550903 0.912750 0.000000
0.688171 0.911011 0.000000
0.820526 0.907776 0.000000
0.945587 0.903687 0.000000
1.000000 0.899933 0.000000
0.228546 1.000000 0.000000
0.271332 1.000000 0.000000
0.355560 1.000000 0.000000
0.464172 1.000000 0.000000
0.583954 1.000000 0.000000
0.706757 1.000000 0.000000
0.828247 1.000000 0.000000
0.946716 1.000000 0.000031
1.000000 1.000000 0.000000
0.000031 0.000000 0.089478
0.095398 0.000000 0.087158
0.219269 0.000000 0.082214
0.366669 0.000000 0.073059
0.524536 0.000000 0.058594
0.681427 0.000000 0.034668
0.834229 0.000000 0.003967
0.978363 0.000000 0.000000
1.000000 0.000000 0.000000
0.000000 0.090576 0.085114
0.096741 0.089478 0.083160
0.224854 0.079773 0.077362
0.372375 0.043365 0.067078
0.528198 0.000000 0.049988
0.683289 0.000000 0.022339
0.835022 0.000000 0.000549
0.978394 0.000000 0.000000
1.000000 0.000000 0.000000
0.000000 0.217316 0.073029
0.081909 0.217133 0.072021
0.224792 0.218201 0.060760
0.375732 0.211639 0.043732
0.530548 0.196686 0.018250
0.684235 0.172852 0.000610
0.834442 0.137939 0.000000
0.976685 0.092987 0.000000
1.000000 0.065430 0.000000
0.000000 0.364197 0.028076
0.010956 0.364075 0.026001
0.214478 0.366547 0.009277
0.373840 0.365601 0.001373
0.528320 0.360596 0.000000
0.681091 0.352264 0.000000
0.830017 0.341400 0.000000
0.971588 0.330231 0.000000
1.000000 0.323334 0.000000
0.000000 0.512024 0.000000
0.000000 0.511810 0.000000
0.200165 0.514191 0.000000
0.369415 0.515381 0.000000
0.525970 0.512909 0.000000
0.677429 0.508423 0.000000
0.824493 0.502838 0.000000
0.964111 0.497253 0.000000
1.000000 0.494202 0.000000
0.000000 0.655304 0.000000
0.000000 0.655029 0.000000
0.192108 0.657043 0.000000
0.367096 0.658722 0.000000
0.524506 0.658203 0.000000
0.674957 0.654846 0.000000
0.819031 0.650696 0.000000
0.955078 0.646912 0.000000
1.000000 0.644440 0.000000
0.000000 0.789459 0.000000
0.000610 0.789459 0.000000
0.211823 0.791138 0.000000
0.377747 0.792450 0.000000
0.530151 0.792297 0.000000
0.676910 0.790070 0.000000
0.816681 0.785950 0.000000
0.947784 0.782043 0.000000
1.000000 0.778870 0.000000
0.010895 0.910583 0.000000
0.138092 0.911102 0.000000
0.274841 0.912018 0.000000
0.412781 0.912659 0.000000
0.551331 0.912323 0.000000
0.688293 0.910492 0.000000
0.820435 0.907257 0.000000
0.945282 0.903168 0.000000
1.000000 0.899445 0.000000
0.229675 1.000000 0.000000
0.272491 1.000000 0.000000
0.356293 1.000000 0.000000
0.464630 1.000000 0.000000
0.584015 1.000000 0.000000
0.706696 1.000000 0.000000
0.828033 1.000000 0.000000
0.946289 1.000000 0.000000
1.000000 1.000000 0.000000
0.000000 0.000000 0.212891
0.084839 0.000000 0.211823
0.218445 0.000000 0.209534
0.368103 0.000000 0.204742
0.525543 0.000000 0.197937
0.681641 0.000000 0.188995
0.833832 0.000000 0.177399
0.977509 0.000000 0.162689
1.000000 0.000000 0.144470
0.000000 0.087402 0.210724
0.089996 0.085571 0.209778
0.224426 0.073120 0.208527
0.373840 0.030762 0.203613
0.529053 0.000000 0.196228
0.683441 0.000000 0.186646
0.834534 0.000000 0.174286
0.977448 0.000000 0.158752
1.000000 0.000000 0.139648
0.000000 0.216827 0.207001
0.079956 0.216644 0.206055
0.228424 0.215057 0.203369
0.380981 0.206329 0.196991
0.534637 0.190002 0.188385
0.687225 0.164612 0.177338
0.836517 0.126526 0.163452
0.977875 0.080688 0.146301
1.000000 0.048737 0.124725
0.000000 0.364532 0.196716
0.017273 0.364166 0.196045
0.222107 0.362976 0.194611
0.377472 0.363159 0.184967
0.532196 0.357788 0.174072
0.684906 0.348572 0.160797
0.833435 0.336792 0.144531
0.973969 0.325012 0.123962
1.000000 0.317688 0.097076
0.000000 0.512299 0.179077
0.000000 0.511963 0.178375
0.211304 0.510620 0.177612
0.373230 0.512543 0.165222
0.528198 0.510925 0.151581
0.679535 0.506500 0.135803
0.826630 0.500580 0.114075
0.966003 0.494598 0.085175
1.000000 0.491272 0.060028
0.000000 0.655396 0.153992
0.000000 0.654999 0.153290
0.204529 0.653870 0.152313
0.371796 0.655548 0.137665
0.526245 0.656128 0.113922
0.675964 0.653198 0.091736
0.819733 0.649170 0.070679
0.955688 0.645355 0.043274
1.000000 0.642761 0.015228
0.000000 0.789337 0.124207
0.001892 0.788574 0.124969
0.223602 0.788147 0.120728
0.382751 0.789368 0.100250
0.531921 0.789917 0.074982
0.677429 0.788422 0.046997
0.816650 0.784546 0.024841
0.947449 0.780823 0.010406
1.000000 0.777649 0.002991
0.037537 0.908936 0.106262
0.155243 0.908691 0.104279
0.284149 0.908905 0.095245
0.417480 0.909576 0.079895
0.553070 0.909760 0.054688
0.688477 0.908661 0.019562
0.819946 0.905914 0.008545
0.944489 0.901978 0.003265
1.000000 0.898346 0.000000
0.241852 1.000000 0.105621
0.282715 1.000000 0.101685
0.363312 1.000000 0.093750
0.468567 1.000000 0.079193
0.585541 1.000000 0.055817
0.706573 1.000000 0.021423
0.827148 1.000000 0.008789
0.945190 1.000000 0.001099
1.000000 1.000000 0.024323
0.000000 0.000000 0.357727
0.030914 0.000000 0.356445
0.210236 0.000000 0.355621
0.367340 0.000000 0.352295
0.524719 0.000000 0.347595
0.680237 0.000000 0.341644
0.831696 0.000000 0.334320
0.974976 0.000000 0.325836
1.000000 0.000000 0.316681
0.000000 0.080688 0.355865
0.049225 0.077362 0.354950
0.218048 0.061035 0.354340
0.372742 0.013611 0.351654
0.528046 0.000000 0.346863
0.681976 0.000000 0.340607
0.832367 0.000000 0.333038
0.974884 0.000000 0.324341
1.000000 0.000000 0.315033
0.000000 0.214111 0.352753
0.053589 0.213501 0.352112
0.226135 0.210724 0.350647
0.379303 0.200623 0.348846
0.533447 0.182800 0.343689
0.686005 0.155518 0.336639
0.834869 0.113312 0.328400
0.975891 0.068054 0.319214
1.000000 0.032196 0.309418
0.000000 0.363220 0.346985
0.008759 0.362915 0.346344
0.223358 0.361755 0.344757
0.379883 0.359314 0.341431
0.535492 0.352203 0.335236
0.687378 0.342163 0.327881
0.834900 0.329956 0.319427
0.974365 0.317932 0.310089
1.000000 0.310394 0.300110
0.000000 0.511810 0.338257
0.000000 0.511414 0.337769
0.215485 0.509857 0.336975
0.377533 0.508331 0.334930
0.529999 0.507874 0.326385
0.681732 0.503143 0.317719
0.828583 0.496521 0.308441
0.967194 0.490173 0.298645
1.000000 0.486664 0.288788
0.000000 0.655304 0.327637
0.000000 0.654816 0.327301
0.211151 0.652924 0.327454
0.378021 0.651550 0.325653
0.528168 0.652832 0.315887
0.676758 0.650604 0.306915
0.820312 0.646698 0.297485
0.955963 0.642670 0.287048
1.000000 0.639893 0.277374
0.000000 0.789337 0.317505
0.006317 0.788391 0.317963
0.231873 0.786621 0.318420
0.389679 0.785431 0.316345
0.534515 0.786255 0.307129
0.677734 0.785767 0.295044
0.816101 0.782318 0.286896
0.946533 0.778778 0.277893
1.000000 0.775604 0.269073
0.052185 0.908508 0.314209
0.163971 0.907806 0.314514
0.292694 0.906433 0.314636
0.423767 0.905701 0.311462
0.555664 0.906036 0.302795
0.688477 0.905762 0.290924
0.818726 0.903748 0.279694
0.942780 0.900085 0.273224
1.000000 0.896576 0.266571
0.248657 1.000000 0.317871
0.289825 1.000000 0.317841
0.370178 1.000000 0.316864
0.473206 1.000000 0.312744
0.587402 1.000000 0.304749
0.706116 1.000000 0.293915
0.825439 1.000000 0.282318
0.943146 1.000000 0.272736
1.000000 1.000000 0.286377
0.000000 0.000000 0.504578
0.000000 0.000000 0.503174
0.195984 0.000000 0.502563
0.365021 0.000000 0.500671
0.523804 0.000000 0.496521
0.678467 0.000000 0.491547
0.828857 0.000000 0.485779
0.971466 0.000000 0.479156
1.000000 0.000000 0.472198
0.000000 0.067749 0.502686
0.000916 0.062042 0.501709
0.207062 0.039032 0.500946
0.370636 0.001129 0.499756
0.527008 0.000000 0.495728
0.680145 0.000000 0.490753
0.829468 0.000000 0.484833
0.971375 0.000000 0.478149
1.000000 0.000000 0.471130
0.000000 0.209534 0.499176
0.006653 0.208374 0.498566
0.220093 0.204559 0.497162
0.377716 0.193420 0.496552
0.531219 0.175262 0.493225
0.683075 0.146423 0.488312
0.831299 0.099548 0.482117
0.972015 0.056152 0.475128
1.000000 0.018036 0.467865
0.000000 0.360321 0.493805
0.002350 0.359894 0.493225
0.221588 0.358398 0.492035
0.380188 0.355133 0.490204
0.533051 0.347198 0.488129
0.684937 0.336212 0.483002
0.832062 0.323578 0.476440
0.971313 0.311462 0.469238
1.000000 0.304260 0.461823
0.000000 0.509888 0.487030
0.000000 0.509460 0.486542
0.215210 0.508484 0.485352
0.379669 0.506592 0.483398
0.531616 0.503876 0.479767
0.683807 0.497681 0.473877
0.829437 0.490601 0.467346
0.966614 0.484192 0.460419
1.000000 0.480713 0.453278
0.000000 0.654114 0.479095
0.000000 0.653656 0.478760
0.213043 0.652344 0.477966
0.381714 0.650085 0.476898
0.530762 0.648376 0.474335
0.677094 0.647308 0.466644
0.820557 0.643188 0.459320
0.955505 0.638763 0.452118
1.000000 0.635742 0.445435
0.000000 0.788483 0.471832
0.010223 0.787689 0.471832
0.235382 0.786102 0.471649
0.394318 0.783569 0.471344
0.538269 0.781860 0.469086
0.677734 0.782257 0.460571
0.814850 0.779419 0.453918
0.944794 0.776001 0.447144
1.000000 0.772736 0.440887
0.062805 0.907959 0.468811
0.168823 0.907257 0.468903
0.296265 0.905640 0.469055
0.428619 0.903259 0.469025
0.559204 0.901794 0.466431
0.688446 0.901947 0.458923
0.816711 0.900879 0.450287
0.940094 0.897583 0.445221
1.000000 0.894165 0.440308
0.251373 1.000000 0.470398
0.292389 1.000000 0.470459
0.373260 1.000000 0.470642
0.477448 1.000000 0.470398
0.589783 1.000000 0.467285
0.705658 1.000000 0.460632
0.823029 1.000000 0.452240
0.940063 1.000000 0.444794
1.000000 1.000000 0.449188
0.000000 0.000000 0.647156
0.000000 0.000000 0.645935
0.183258 0.000000 0.645355
0.363068 0.000000 0.644073
0.523590 0.000000 0.641113
0.677734 0.000000 0.636322
0.826416 0.000000 0.631134
0.967682 0.000000 0.625458
1.000000 0.000000 0.619385
0.000000 0.042480 0.645355
0.000000 0.033600 0.644379
0.196991 0.007385 0.643646
0.368927 0.000000 0.642914
0.526733 0.000000 0.640198
0.679321 0.000000 0.635437
0.826996 0.000000 0.630219
0.967499 0.000000 0.624542
1.000000 0.000000 0.618530
0.000000 0.202545 0.641541
0.000000 0.200958 0.640961
0.214447 0.196259 0.639618
0.377167 0.184692 0.638885
0.530914 0.163513 0.637268
0.681458 0.134003 0.632996
0.827942 0.087463 0.627991
0.967468 0.043396 0.622314
1.000000 0.014526 0.616211
0.000000 0.356354 0.635925
0.000671 0.355713 0.635498
0.220184 0.353851 0.634583
0.381683 0.350372 0.632751
0.532990 0.341980 0.632050
0.682312 0.331635 0.628540
0.827820 0.318817 0.623779
0.965942 0.306641 0.617981
1.000000 0.300262 0.611755
0.000000 0.506805 0.629333
0.000000 0.506409 0.628876
0.218811 0.505371 0.627869
0.382355 0.503357 0.626282
0.532715 0.499878 0.624329
0.681061 0.492950 0.621979
0.825806 0.485382 0.617035
0.961853 0.479126 0.611084
1.000000 0.475922 0.604889
0.000000 0.651733 0.622009
0.000000 0.651337 0.621613
0.217804 0.650360 0.620697
0.383850 0.648651 0.619141
0.533661 0.646118 0.617065
0.677979 0.643341 0.613220
0.820923 0.638092 0.607727
0.954132 0.633423 0.602112
1.000000 0.630402 0.596375
0.000000 0.786591 0.614868
0.021179 0.786102 0.614594
0.240570 0.784851 0.613922
0.396973 0.782745 0.612885
0.541901 0.779602 0.611816
0.678589 0.777802 0.608765
0.813293 0.776062 0.602173
0.942780 0.772522 0.596069
1.000000 0.768951 0.590759
0.083679 0.906708 0.610260
0.177551 0.906128 0.610138
0.300446 0.904694 0.609833
0.431366 0.902344 0.609436
0.562683 0.899170 0.608978
0.689636 0.897430 0.606262
0.814392 0.897400 0.598907
0.936920 0.894623 0.593811
1.000000 0.891327 0.589050
0.255524 1.000000 0.608795
0.295685 1.000000 0.608826
0.375549 1.000000 0.608765
0.479279 1.000000 0.608704
0.592407 1.000000 0.608429
0.706207 1.000000 0.605652
0.820709 1.000000 0.599152
0.936523 1.000000 0.592010
1.000000 1.000000 0.591797
0.000000 0.000000 0.781067
0.000000 0.000000 0.780060
0.185455 0.000000 0.779755
0.367126 0.000000 0.778687
0.526825 0.000000 0.776337
0.679718 0.000000 0.772430
0.826233 0.000000 0.767151
0.964752 0.000000 0.761780
1.000000 0.000000 0.756104
0.000000 0.005737 0.779358
0.000000 0.001770 0.778503
0.199493 0.000000 0.778107
0.372864 0.000000 0.777466
0.529846 0.000000 0.775269
0.681213 0.000000 0.771393
0.826721 0.000000 0.766174
0.964508 0.000000 0.760834
1.000000 0.000000 0.755219
0.000000 0.192993 0.775299
0.000671 0.190857 0.774872
0.219238 0.185638 0.773529
0.382050 0.173035 0.772736
0.534241 0.150146 0.771576
0.683197 0.113220 0.768616
0.827087 0.072815 0.763733
0.963806 0.027863 0.758667
1.000000 0.012848 0.753113
0.000000 0.351379 0.769379
0.004578 0.350525 0.769135
0.228638 0.348419 0.768280
0.388184 0.344727 0.766449
0.537140 0.336639 0.765656
0.683929 0.324982 0.763794
0.826172 0.313904 0.759430
0.961334 0.302887 0.754639
1.000000 0.297760 0.749207
0.000000 0.503204 0.762268
0.006866 0.502747 0.761993
0.231720 0.501556 0.761169
0.390167 0.499298 0.759796
0.538208 0.495850 0.757751
0.682373 0.488800 0.756897
0.822937 0.482178 0.753235
0.956390 0.476013 0.748657
1.000000 0.473297 0.743317
0.000000 0.648621 0.754425
0.013062 0.648254 0.754089
0.235901 0.647278 0.753235
0.393188 0.645599 0.751831
0.539124 0.643127 0.749969
0.679749 0.639526 0.748047
0.818146 0.633759 0.745422
0.949524 0.628967 0.740723
1.000000 0.626099 0.735413
0.000000 0.783905 0.746613
0.077026 0.783478 0.746307
0.256989 0.782440 0.745575
0.404938 0.780640 0.744354
0.545990 0.778137 0.742615
0.682068 0.774994 0.740570
0.813354 0.772308 0.736603
0.941833 0.767944 0.731689
1.000000 0.764038 0.726837
0.126984 0.904602 0.740112
0.200470 0.904114 0.739899
0.312195 0.902954 0.739349
0.437744 0.900970 0.738434
0.566315 0.898102 0.737305
0.692963 0.894592 0.736298
0.813751 0.893311 0.732727
0.934509 0.891418 0.727142
1.000000 0.888062 0.722260
0.268890 1.000000 0.735596
0.306458 1.000000 0.735474
0.382660 1.000000 0.735138
0.483398 1.000000 0.734619
0.594757 1.000000 0.734070
0.708649 1.000000 0.733521
0.820526 1.000000 0.730408
0.933899 1.000000 0.723663
1.000000 1.000000 0.720734
0.000000 0.000000 0.901703
0.000366 0.000000 0.901459
0.217377 0.000000 0.901184
0.384766 0.000000 0.900146
0.538605 0.000000 0.898102
0.687347 0.000000 0.894745
0.830444 0.000000 0.890076
0.965149 0.000000 0.884583
1.000000 0.000000 0.878998
0.000000 0.000000 0.900085
0.007507 0.000000 0.899811
0.228760 0.000000 0.899658
0.389954 0.000000 0.898865
0.541351 0.000000 0.896912
0.688629 0.000000 0.893646
0.830841 0.000000 0.889008
0.964813 0.000000 0.883606
1.000000 0.000000 0.878082
0.000000 0.180634 0.896179
0.056305 0.178192 0.895752
0.247589 0.172241 0.894562
0.399231 0.158234 0.893799
0.545837 0.132996 0.892670
0.690460 0.090576 0.890350
0.830963 0.050659 0.886322
0.963623 0.014801 0.881165
1.000000 0.010864 0.875854
0.000000 0.345428 0.890137
0.088043 0.344543 0.889862
0.258484 0.342346 0.888916
0.406189 0.338379 0.887207
0.549286 0.330414 0.886353
0.691132 0.318878 0.884918
0.829651 0.306915 0.881683
0.960419 0.298859 0.876923
1.000000 0.295837 0.871918
0.000000 0.499084 0.882568
0.103943 0.498566 0.882324
0.264221 0.497253 0.881592
0.409241 0.494904 0.880219
0.550934 0.491486 0.878204
0.689789 0.485046 0.877380
0.825867 0.477875 0.875153
0.954498 0.473694 0.870911
1.000000 0.471985 0.866211
0.001404 0.645233 0.874054
0.119568 0.644836 0.873749
0.270844 0.643829 0.873016
0.412781 0.642090 0.871796
0.551666 0.639526 0.870087
0.687622 0.636169 0.868073
0.819946 0.630554 0.867004
0.946503 0.626648 0.863434
1.000000 0.624115 0.859039
0.054993 0.780640 0.865479
0.163483 0.780243 0.865234
0.291412 0.779236 0.864502
0.424652 0.777557 0.863312
0.557922 0.775177 0.861694
0.688690 0.772339 0.859772
0.815002 0.768677 0.858154
0.939453 0.763885 0.855316
1.000000 0.760010 0.850983
0.188721 0.901703 0.858063
0.242157 0.901276 0.857819
0.337494 0.900269 0.857239
0.452850 0.898529 0.856232
0.574921 0.896118 0.854858
0.697235 0.893311 0.853149
0.816864 0.890259 0.851288
0.934753 0.888000 0.847260
1.000000 0.883881 0.842804
0.295258 1.000000 0.851807
0.328766 1.000000 0.851624
0.398529 1.000000 0.851166
0.493256 1.000000 0.850403
0.600250 1.000000 0.849365
0.711761 1.000000 0.848236
0.823608 1.000000 0.847290
0.933472 1.000000 0.843262
1.000000 0.995850 0.850616
0.000000 0.000000 1.000000
0.121094 0.000000 1.000000
0.272217 0.000000 1.000000
0.416504 0.000000 1.000000
0.559723 0.000000 1.000000
0.701355 0.000000 1.000000
0.838959 0.000000 1.000000
0.968964 0.000000 0.997528
1.000000 0.000000 0.992035
0.000977 0.000000 1.000000
0.140289 0.000000 1.000000
0.280151 0.000000 1.000000
0.420807 0.000000 1.000000
0.562073 0.000000 1.000000
0.702454 0.000000 1.000000
0.839142 0.000000 1.000000
0.968475 0.000000 0.996552
1.000000 0.000000 0.991150
0.074646 0.165161 1.000000
0.170929 0.162720 1.000000
0.295654 0.155243 1.000000
0.429199 0.139191 1.000000
0.566223 0.109253 1.000000
0.703979 0.071472 1.000000
0.838959 0.025299 0.998627
0.966919 0.009918 0.994080
1.000000 0.007874 0.988831
0.109741 0.338654 1.000000
0.189026 0.337769 0.999908
0.306274 0.335602 0.999451
0.436005 0.331329 0.998383
0.569611 0.323395 0.997528
0.704437 0.312439 0.996277
0.837097 0.300812 0.993805
0.963226 0.293213 0.989838
1.000000 0.292969 0.984863
0.127960 0.494415 0.993652
0.199890 0.493866 0.993408
0.311951 0.492523 0.992676
0.439301 0.490265 0.991302
0.571045 0.486908 0.989502
0.702789 0.481049 0.988617
0.832611 0.474365 0.987091
0.956696 0.470215 0.983826
1.000000 0.470276 0.979248
0.144623 0.641418 0.985077
0.210815 0.641022 0.984833
0.318237 0.640015 0.984192
0.442078 0.638245 0.983063
0.571106 0.635773 0.981476
0.700195 0.632721 0.979553
0.825989 0.627869 0.978729
0.948029 0.623779 0.976471
1.000000 0.622589 0.972412
0.183990 0.777100 0.976410
0.238464 0.776703 0.976135
0.335236 0.775757 0.975525
0.452026 0.774109 0.974518
0.575531 0.771790 0.973114
0.699585 0.769043 0.971405
0.820831 0.765900 0.969696
0.939880 0.761108 0.968628
1.000000 0.758087 0.965179
0.254578 0.898254 0.968781
0.294220 0.897888 0.968567
0.373199 0.896912 0.967987
0.476349 0.895325 0.967072
0.589813 0.893127 0.965790
0.705902 0.890625 0.964203
0.821198 0.887939 0.962433
0.935486 0.884399 0.961090
1.000000 0.880157 0.958191
0.330841 1.000000 0.962280
0.359467 1.000000 0.962097
0.421539 1.000000 0.961639
0.508667 1.000000 0.960876
0.609650 1.000000 0.959747
0.716827 1.000000 0.958405
0.826202 1.000000 0.956757
0.936096 0.998138 0.955109
1.000000 0.999664 0.972656
