滤镜资源/Professional Luts Collection/Lutify.me Professional/Contemporary Color Films/Cavansite.cube
# Created by: Lutify.me
# Copyright: (c) Copyright Lutify.me 2015
# Website: https://lutify.me
#LUT size
LUT_3D_SIZE 33
#LUT data points
0.000000 0.000000 0.000000
0.019836 0.000000 0.000427
0.043335 0.000000 0.000031
0.069336 0.000000 0.000000
0.096985 0.000000 0.000000
0.125458 0.000000 0.000000
0.154968 0.000000 0.000000
0.185822 0.000000 0.000000
0.218597 0.000000 0.000000
0.252991 0.000000 0.000000
0.289154 0.000000 0.000000
0.326660 0.000000 0.000000
0.365143 0.000000 0.000000
0.404297 0.000000 0.000000
0.443939 0.000000 0.000000
0.483673 0.000000 0.000000
0.523315 0.000000 0.000000
0.562836 0.000000 0.000000
0.602203 0.000000 0.000000
0.641449 0.000000 0.000000
0.680511 0.000000 0.000000
0.719269 0.000000 0.000000
0.757751 0.000000 0.000000
0.795898 0.000000 0.000000
0.833618 0.000000 0.000000
0.870941 0.000000 0.000000
0.907684 0.000000 0.000000
0.943939 0.000000 0.000000
0.978119 0.000000 0.000000
0.999573 0.000000 0.000000
1.000000 0.000000 0.000000
1.000000 0.000000 0.000000
1.000000 0.000000 0.000000
0.000000 0.017914 0.000000
0.019043 0.017914 0.000000
0.042267 0.017517 0.000000
0.068848 0.016418 0.000000
0.096649 0.014648 0.000000
0.125549 0.012634 0.000000
0.155273 0.009186 0.000000
0.186493 0.004791 0.000000
0.219391 0.000946 0.000000
0.254059 0.000031 0.000000
0.290222 0.000000 0.000000
0.327698 0.000000 0.000000
0.366119 0.000000 0.000000
0.405212 0.000000 0.000000
0.444763 0.000000 0.000000
0.484436 0.000000 0.000000
0.523956 0.000000 0.000000
0.563385 0.000000 0.000000
0.602722 0.000000 0.000000
0.641937 0.000000 0.000000
0.680878 0.000000 0.000000
0.719604 0.000000 0.000000
0.757996 0.000000 0.000000
0.796112 0.000000 0.000000
0.833862 0.000000 0.000000
0.871063 0.000000 0.000000
0.907776 0.000000 0.000000
0.944000 0.000000 0.000000
0.978088 0.000000 0.000000
0.999573 0.000000 0.000000
1.000000 0.000000 0.000000
1.000000 0.000000 0.000000
1.000000 0.000000 0.000000
0.000000 0.038574 0.000000
0.018707 0.038940 0.000000
0.041229 0.038605 0.000000
0.068298 0.037903 0.000000
0.096558 0.036682 0.000000
0.125305 0.034668 0.000000
0.155518 0.031281 0.000000
0.186890 0.026489 0.000000
0.220093 0.020050 0.000000
0.254974 0.011536 0.000000
0.291229 0.002838 0.000000
0.328705 0.000122 0.000000
0.367126 0.000000 0.000000
0.406189 0.000000 0.000000
0.445648 0.000000 0.000000
0.485229 0.000000 0.000000
0.524658 0.000000 0.000000
0.564056 0.000000 0.000000
0.603333 0.000000 0.000000
0.642395 0.000000 0.000000
0.681274 0.000000 0.000000
0.719910 0.000000 0.000000
0.758270 0.000000 0.000000
0.796326 0.000000 0.000000
0.833984 0.000000 0.000000
0.871185 0.000000 0.000000
0.907867 0.000000 0.000000
0.944061 0.000000 0.000000
0.978119 0.000000 0.000000
0.999573 0.000000 0.000000
1.000000 0.000000 0.000000
1.000000 0.000000 0.000000
1.000000 0.000000 0.000000
0.000000 0.064178 0.000000
0.018219 0.064209 0.000000
0.040192 0.064697 0.000000
0.067444 0.064453 0.000000
0.095428 0.063843 0.000000
0.124969 0.062469 0.000000
0.155334 0.060242 0.000000
0.187256 0.056763 0.000000
0.220612 0.051727 0.000000
0.255829 0.044098 0.000000
0.292328 0.033447 0.000000
0.329895 0.020020 0.000000
0.368347 0.006378 0.000000
0.407440 0.000671 0.000000
0.446838 0.000000 0.000000
0.486267 0.000000 0.000000
0.525574 0.000000 0.000000
0.564819 0.000000 0.000000
0.604004 0.000000 0.000000
0.642975 0.000000 0.000000
0.681793 0.000000 0.000000
0.720367 0.000000 0.000000
0.758636 0.000000 0.000000
0.796631 0.000000 0.000000
0.834198 0.000000 0.000000
0.871338 0.000000 0.000000
0.907959 0.000000 0.000000
0.944092 0.000000 0.000000
0.978119 0.000000 0.000000
0.999573 0.000000 0.000000
1.000000 0.000000 0.000000
1.000000 0.000000 0.000000
1.000000 0.000000 0.000000
0.000000 0.091156 0.000000
0.015808 0.091492 0.000000
0.038269 0.091766 0.000000
0.066315 0.092133 0.000000
0.094818 0.091766 0.000000
0.124359 0.091248 0.000000
0.155365 0.089874 0.000000
0.187531 0.087585 0.000000
0.221375 0.084259 0.000000
0.256683 0.079529 0.000000
0.293365 0.072662 0.000000
0.330994 0.063446 0.000000
0.369507 0.051025 0.000000
0.408539 0.034637 0.000000
0.447906 0.016510 0.000000
0.487305 0.004517 0.000000
0.526581 0.000549 0.000000
0.565735 0.000000 0.000000
0.604797 0.000000 0.000000
0.643738 0.000000 0.000000
0.682373 0.000000 0.000000
0.720856 0.000000 0.000000
0.759033 0.000000 0.000000
0.796936 0.000000 0.000000
0.834412 0.000000 0.000000
0.871490 0.000000 0.000000
0.908051 0.000000 0.000000
0.944122 0.000000 0.000000
0.978088 0.000000 0.000000
0.999573 0.000000 0.000000
1.000000 0.000000 0.000000
1.000000 0.000000 0.000000
1.000000 0.000000 0.000000
0.000000 0.119843 0.000000
0.012115 0.119904 0.000000
0.034729 0.120209 0.000000
0.063812 0.120819 0.000000
0.093445 0.121124 0.000000
0.123444 0.120819 0.000000
0.155029 0.120026 0.000000
0.187653 0.118835 0.000000
0.221985 0.116547 0.000000
0.257538 0.113464 0.000000
0.294373 0.109131 0.000000
0.332031 0.103394 0.000000
0.370453 0.095917 0.000000
0.409454 0.086426 0.000000
0.448761 0.074310 0.000000
0.488037 0.059174 0.000000
0.527191 0.042511 0.000000
0.566284 0.023163 0.000000
0.605347 0.008301 0.000000
0.644226 0.001770 0.000000
0.682861 0.000000 0.000000
0.721252 0.000000 0.000000
0.759430 0.000000 0.000000
0.797241 0.000000 0.000000
0.834656 0.000000 0.000000
0.871643 0.000000 0.000000
0.908142 0.000000 0.000000
0.944153 0.000000 0.000000
0.978058 0.000000 0.000000
0.999573 0.000000 0.000000
1.000000 0.000000 0.000000
1.000000 0.000000 0.000000
1.000000 0.000000 0.000000
0.000000 0.150299 0.000000
0.004425 0.150421 0.000000
0.027618 0.150726 0.000000
0.059021 0.151398 0.000000
0.090088 0.152039 0.000000
0.121704 0.152283 0.000000
0.154388 0.151886 0.000000
0.187561 0.151093 0.000000
0.222260 0.149780 0.000000
0.258240 0.147705 0.000000
0.295135 0.144897 0.000000
0.332947 0.141205 0.000000
0.371368 0.136383 0.000000
0.410278 0.130493 0.000000
0.449402 0.123322 0.000000
0.488556 0.114807 0.000000
0.527618 0.104614 0.000000
0.566559 0.092224 0.000000
0.605499 0.077240 0.000000
0.644257 0.062561 0.000000
0.682831 0.045837 0.000000
0.721222 0.026276 0.000000
0.759308 0.010773 0.000000
0.797089 0.004517 0.000000
0.834473 0.001068 0.000000
0.871399 0.000000 0.000000
0.907898 0.000000 0.000000
0.943817 0.000000 0.000000
0.977753 0.000000 0.000000
0.999542 0.000000 0.000000
1.000000 0.000000 0.000000
1.000000 0.000000 0.000000
1.000000 0.000000 0.000000
0.000000 0.182831 0.000000
0.000580 0.182892 0.000000
0.015045 0.183167 0.000000
0.049774 0.183746 0.000000
0.084320 0.184601 0.000000
0.118164 0.185211 0.000000
0.152313 0.185364 0.000000
0.186920 0.184967 0.000000
0.222137 0.184021 0.000000
0.258362 0.182770 0.000000
0.295654 0.180908 0.000000
0.333588 0.178406 0.000000
0.372070 0.175079 0.000000
0.410919 0.171082 0.000000
0.449921 0.166473 0.000000
0.488892 0.160980 0.000000
0.527832 0.154694 0.000000
0.566711 0.147491 0.000000
0.605469 0.139221 0.000000
0.644165 0.129761 0.000000
0.682648 0.118835 0.000000
0.720886 0.105713 0.000000
0.758881 0.090851 0.000000
0.796600 0.078522 0.000000
0.833893 0.065399 0.000000
0.870758 0.050537 0.000000
0.907196 0.033356 0.000000
0.943085 0.017242 0.000000
0.977051 0.010590 0.000000
0.999481 0.007324 0.000000
1.000000 0.003937 0.000000
1.000000 0.001129 0.000000
1.000000 0.000000 0.000000
0.000000 0.217163 0.000000
0.000000 0.217255 0.000000
0.002594 0.217316 0.000000
0.033661 0.217865 0.000000
0.075104 0.218750 0.000000
0.112549 0.219574 0.000000
0.148621 0.220154 0.000000
0.184845 0.220215 0.000000
0.221344 0.219635 0.000000
0.258179 0.218781 0.000000
0.295746 0.217499 0.000000
0.333893 0.215790 0.000000
0.372437 0.213623 0.000000
0.411255 0.210785 0.000000
0.450134 0.207520 0.000000
0.489044 0.203735 0.000000
0.527893 0.199432 0.000000
0.566620 0.194550 0.000000
0.605316 0.189056 0.000000
0.643890 0.183014 0.000000
0.682281 0.176361 0.000000
0.720459 0.168976 0.000000
0.758362 0.160889 0.000000
0.795990 0.152039 0.000000
0.833221 0.142426 0.000000
0.870026 0.131653 0.000000
0.906342 0.119446 0.000000
0.942139 0.106476 0.000000
0.976166 0.097229 0.000000
0.999390 0.089264 0.000000
1.000000 0.081573 0.000000
1.000000 0.074799 0.000000
1.000000 0.069672 0.000000
0.000000 0.252930 0.000000
0.000000 0.253082 0.000000
0.000031 0.253082 0.000000
0.012756 0.253387 0.000000
0.061462 0.254181 0.000000
0.104523 0.255096 0.000000
0.143707 0.255859 0.000000
0.181671 0.256317 0.000000
0.219604 0.256256 0.000000
0.257355 0.255676 0.000000
0.295410 0.254791 0.000000
0.333771 0.253540 0.000000
0.372437 0.252014 0.000000
0.411255 0.250061 0.000000
0.450134 0.247681 0.000000
0.488953 0.244934 0.000000
0.527740 0.241760 0.000000
0.566406 0.238251 0.000000
0.604980 0.234314 0.000000
0.643494 0.229919 0.000000
0.681793 0.225189 0.000000
0.719910 0.220001 0.000000
0.757721 0.214508 0.000000
0.795288 0.208618 0.000000
0.832428 0.202423 0.000000
0.869141 0.196014 0.000000
0.905365 0.189362 0.000000
0.941071 0.182648 0.000000
0.975159 0.175995 0.000000
0.999268 0.169586 0.000000
1.000000 0.163788 0.000000
1.000000 0.158661 0.000000
1.000000 0.154785 0.000000
0.000000 0.289764 0.000000
0.000000 0.289795 0.000000
0.000000 0.289825 0.000000
0.002014 0.289948 0.000000
0.041870 0.290497 0.000000
0.093597 0.291534 0.000000
0.136993 0.292358 0.000000
0.177460 0.293030 0.000000
0.216827 0.293365 0.000000
0.255890 0.293182 0.000000
0.294769 0.292450 0.000000
0.333405 0.291534 0.000000
0.372192 0.290344 0.000000
0.411072 0.288910 0.000000
0.449921 0.287170 0.000000
0.488678 0.285126 0.000000
0.527374 0.282776 0.000000
0.566010 0.280029 0.000000
0.604584 0.277008 0.000000
0.643005 0.273682 0.000000
0.681213 0.270081 0.000000
0.719238 0.266144 0.000000
0.756989 0.261993 0.000000
0.794434 0.257629 0.000000
0.831482 0.253052 0.000000
0.868134 0.248413 0.000000
0.904236 0.243713 0.000000
0.939850 0.239105 0.000000
0.973999 0.234589 0.000000
0.999146 0.230438 0.000000
1.000000 0.226807 0.000000
1.000000 0.223816 0.000000
1.000000 0.221680 0.000000
0.000000 0.326965 0.000000
0.000000 0.326996 0.000000
0.000000 0.327026 0.000000
0.000000 0.327087 0.000000
0.018707 0.327393 0.000000
0.079865 0.328339 0.000000
0.129028 0.329254 0.000000
0.172394 0.330048 0.000000
0.213470 0.330505 0.000000
0.253754 0.330627 0.000000
0.293549 0.330383 0.000000
0.332825 0.329529 0.000000
0.371796 0.328583 0.000000
0.410706 0.327393 0.000000
0.449554 0.326080 0.000000
0.488312 0.324493 0.000000
0.526917 0.322632 0.000000
0.565491 0.320526 0.000000
0.604034 0.318115 0.000000
0.642395 0.315491 0.000000
0.680542 0.312622 0.000000
0.718506 0.309509 0.000000
0.756165 0.306213 0.000000
0.793518 0.302826 0.000000
0.830475 0.299286 0.000000
0.867004 0.295685 0.000000
0.903015 0.292114 0.000000
0.938507 0.288635 0.000000
0.972717 0.285248 0.000000
0.999023 0.282227 0.000000
1.000000 0.279541 0.000000
1.000000 0.277496 0.000000
1.000000 0.276031 0.000000
0.000000 0.364288 0.000000
0.000000 0.364349 0.000000
0.000000 0.364349 0.000000
0.000000 0.364410 0.000000
0.004700 0.364471 0.000000
0.063446 0.365234 0.000000
0.120300 0.366211 0.000000
0.166992 0.367035 0.000000
0.209991 0.367645 0.000000
0.251373 0.367981 0.000000
0.291992 0.367920 0.000000
0.331940 0.367523 0.000000
0.371246 0.366669 0.000000
0.410248 0.365631 0.000000
0.449097 0.364502 0.000000
0.487885 0.363220 0.000000
0.526489 0.361755 0.000000
0.565002 0.360077 0.000000
0.603424 0.358154 0.000000
0.641724 0.355988 0.000000
0.679810 0.353668 0.000000
0.717682 0.351135 0.000000
0.755249 0.348480 0.000000
0.792511 0.345703 0.000000
0.829346 0.342865 0.000000
0.865753 0.339996 0.000000
0.901672 0.337158 0.000000
0.937012 0.334412 0.000000
0.971344 0.331757 0.000000
0.998901 0.329407 0.000000
1.000000 0.327423 0.000000
1.000000 0.325897 0.000000
1.000000 0.324890 0.000000
0.000000 0.401581 0.000000
0.000000 0.401581 0.000000
0.000000 0.401581 0.000000
0.000000 0.401581 0.000000
0.000488 0.401611 0.000000
0.046967 0.402161 0.000000
0.110779 0.403107 0.000000
0.161316 0.403931 0.000000
0.206451 0.404633 0.000000
0.248962 0.405090 0.000000
0.290222 0.405273 0.000000
0.330688 0.405090 0.000000
0.370514 0.404572 0.000000
0.409698 0.403687 0.000000
0.448669 0.402649 0.000000
0.487396 0.401581 0.000000
0.525970 0.400330 0.000000
0.564423 0.398926 0.000000
0.602844 0.397339 0.000000
0.641022 0.395599 0.000000
0.679016 0.393677 0.000000
0.716797 0.391602 0.000000
0.754242 0.389404 0.000000
0.791382 0.387115 0.000000
0.828125 0.384766 0.000000
0.864410 0.382416 0.000000
0.900177 0.380066 0.000000
0.935394 0.377838 0.000000
0.969818 0.375732 0.000000
0.998749 0.373810 0.000000
1.000000 0.372253 0.000000
1.000000 0.371033 0.000000
1.000000 0.370331 0.000000
0.000000 0.438751 0.000000
0.000000 0.438690 0.000000
0.000000 0.438690 0.000000
0.000000 0.438690 0.000000
0.000000 0.438629 0.000000
0.030396 0.439056 0.000000
0.100616 0.439911 0.000000
0.155670 0.440765 0.000000
0.202759 0.441498 0.000000
0.246521 0.442047 0.000000
0.288422 0.442383 0.000000
0.329285 0.442383 0.000000
0.369415 0.442139 0.000000
0.409058 0.441528 0.000000
0.448151 0.440613 0.000000
0.486938 0.439575 0.000000
0.525482 0.438507 0.000000
0.563873 0.437317 0.000000
0.602173 0.436005 0.000000
0.640289 0.434509 0.000000
0.678192 0.432922 0.000000
0.715851 0.431152 0.000000
0.753204 0.429321 0.000000
0.790222 0.427399 0.000000
0.826813 0.425446 0.000000
0.862946 0.423431 0.000000
0.898590 0.421478 0.000000
0.933685 0.419586 0.000000
0.968079 0.417877 0.000000
0.998260 0.416321 0.000000
1.000000 0.415039 0.000000
1.000000 0.414062 0.000000
1.000000 0.413483 0.000000
0.000000 0.475677 0.000000
0.000000 0.475647 0.000000
0.000000 0.475616 0.000000
0.000000 0.475586 0.000000
0.000000 0.475494 0.000000
0.014679 0.475800 0.000000
0.090088 0.476562 0.000000
0.150238 0.477448 0.000000
0.199219 0.478180 0.000000
0.243988 0.478790 0.000000
0.286560 0.479218 0.000000
0.327850 0.479401 0.000000
0.368286 0.479309 0.000000
0.408142 0.478973 0.000000
0.447571 0.478302 0.000000
0.486420 0.477356 0.000000
0.524963 0.476318 0.000000
0.563354 0.475250 0.000000
0.601562 0.474091 0.000000
0.639557 0.472839 0.000000
0.677338 0.471466 0.000000
0.714874 0.469971 0.000000
0.752106 0.468384 0.000000
0.789001 0.466736 0.000000
0.825439 0.465057 0.000000
0.861420 0.463379 0.000000
0.896912 0.461731 0.000000
0.931824 0.460114 0.000000
0.966064 0.458649 0.000000
0.996887 0.457336 0.000000
1.000000 0.456268 0.000000
1.000000 0.455475 0.000000
1.000000 0.455048 0.000000
0.000000 0.512299 0.000000
0.000000 0.512268 0.000000
0.000000 0.512238 0.000000
0.000000 0.512207 0.000000
0.000000 0.512115 0.000000
0.006531 0.512299 0.000000
0.080048 0.513062 0.000000
0.144989 0.513885 0.000000
0.195801 0.514648 0.000000
0.241547 0.515259 0.000000
0.284821 0.515747 0.000000
0.326447 0.516052 0.000000
0.367188 0.516083 0.000000
0.407196 0.515930 0.000000
0.446869 0.515503 0.000000
0.485962 0.514740 0.000000
0.524475 0.513794 0.000000
0.562805 0.512756 0.000000
0.600983 0.511688 0.000000
0.638885 0.510559 0.000000
0.676514 0.509369 0.000000
0.713898 0.508057 0.000000
0.750977 0.506683 0.000000
0.787720 0.505249 0.000000
0.824005 0.503815 0.000000
0.859833 0.502350 0.000000
0.895172 0.500885 0.000000
0.929901 0.499542 0.000000
0.963959 0.498260 0.000000
0.994812 0.497162 0.000000
1.000000 0.496216 0.000000
1.000000 0.495544 0.000000
1.000000 0.495148 0.000000
0.000000 0.548676 0.000000
0.000000 0.548645 0.000000
0.000000 0.548615 0.000000
0.000000 0.548584 0.000000
0.000000 0.548492 0.000000
0.003906 0.548615 0.000000
0.072937 0.549316 0.000000
0.139984 0.550079 0.000000
0.192749 0.550812 0.000000
0.239410 0.551483 0.000000
0.283173 0.552002 0.000000
0.325226 0.552368 0.000000
0.366180 0.552521 0.000000
0.406403 0.552490 0.000000
0.446075 0.552216 0.000000
0.485382 0.551666 0.000000
0.524139 0.550873 0.000000
0.562408 0.549896 0.000000
0.600433 0.548859 0.000000
0.638245 0.547821 0.000000
0.675751 0.546692 0.000000
0.713013 0.545563 0.000000
0.749878 0.544342 0.000000
0.786469 0.543060 0.000000
0.822601 0.541779 0.000000
0.858215 0.540497 0.000000
0.893372 0.539215 0.000000
0.927917 0.538025 0.000000
0.961761 0.536896 0.000000
0.992676 0.535919 0.000000
1.000000 0.535126 0.000000
1.000000 0.534515 0.000000
1.000000 0.534149 0.000000
0.000000 0.584747 0.000000
0.000000 0.584747 0.000000
0.000000 0.584656 0.000000
0.000000 0.584595 0.000000
0.000000 0.584503 0.000000
0.002319 0.584625 0.000000
0.067230 0.585266 0.000000
0.135620 0.586029 0.000000
0.190186 0.586761 0.000000
0.237732 0.587402 0.000000
0.281921 0.587952 0.000000
0.324188 0.588348 0.000000
0.365387 0.588593 0.000000
0.405701 0.588654 0.000000
0.445526 0.588501 0.000000
0.484833 0.588104 0.000000
0.523682 0.587494 0.000000
0.562103 0.586639 0.000000
0.600098 0.585632 0.000000
0.637726 0.584595 0.000000
0.675110 0.583557 0.000000
0.712158 0.582489 0.000000
0.748901 0.581360 0.000000
0.785278 0.580231 0.000000
0.821198 0.579041 0.000000
0.856628 0.577911 0.000000
0.891541 0.576752 0.000000
0.925903 0.575714 0.000000
0.959534 0.574677 0.000000
0.990479 0.573822 0.000000
1.000000 0.573090 0.000000
1.000000 0.572540 0.000000
1.000000 0.572144 0.000000
0.000000 0.620422 0.000000
0.000000 0.620392 0.000000
0.000000 0.620331 0.000000
0.000000 0.620239 0.000000
0.000000 0.620148 0.000000
0.001312 0.620239 0.000000
0.063141 0.620880 0.000000
0.132629 0.621613 0.000000
0.188538 0.622284 0.000000
0.236664 0.622925 0.000000
0.281281 0.623474 0.000000
0.323761 0.623901 0.000000
0.364990 0.624207 0.000000
0.405396 0.624298 0.000000
0.445190 0.624237 0.000000
0.484558 0.623993 0.000000
0.523407 0.623505 0.000000
0.561829 0.622833 0.000000
0.599854 0.621918 0.000000
0.637390 0.620911 0.000000
0.674622 0.619843 0.000000
0.711487 0.618805 0.000000
0.748047 0.617767 0.000000
0.784210 0.616699 0.000000
0.819885 0.615601 0.000000
0.855103 0.614563 0.000000
0.889801 0.613495 0.000000
0.923889 0.612518 0.000000
0.957306 0.611603 0.000000
0.988281 0.610809 0.000000
1.000000 0.610107 0.000000
1.000000 0.609558 0.000000
1.000000 0.609161 0.000000
0.000000 0.655609 0.000000
0.000000 0.655548 0.000000
0.000000 0.655518 0.000000
0.000000 0.655426 0.000000
0.000000 0.655304 0.000000
0.001068 0.655426 0.000000
0.061737 0.656006 0.000000
0.131470 0.656738 0.000000
0.188202 0.657379 0.000000
0.236694 0.657959 0.000000
0.281403 0.658508 0.000000
0.324005 0.658936 0.000000
0.365265 0.659271 0.000000
0.405609 0.659424 0.000000
0.445343 0.659424 0.000000
0.484619 0.659241 0.000000
0.523407 0.658875 0.000000
0.561768 0.658325 0.000000
0.599762 0.657593 0.000000
0.637268 0.656647 0.000000
0.674347 0.655548 0.000000
0.710999 0.654510 0.000000
0.747314 0.653473 0.000000
0.783234 0.652496 0.000000
0.818756 0.651428 0.000000
0.853668 0.650421 0.000000
0.888123 0.649414 0.000000
0.921906 0.648529 0.000000
0.955109 0.647644 0.000000
0.986115 0.646881 0.000000
1.000000 0.646210 0.000000
1.000000 0.645660 0.000000
1.000000 0.645172 0.000000
0.000000 0.690186 0.000000
0.000000 0.690155 0.000000
0.000000 0.690094 0.000000
0.000000 0.690002 0.000000
0.000000 0.689911 0.000000
0.001709 0.690094 0.000000
0.063965 0.690643 0.000000
0.133148 0.691284 0.000000
0.189667 0.691925 0.000000
0.238098 0.692474 0.000000
0.282684 0.692993 0.000000
0.325165 0.693420 0.000000
0.366272 0.693726 0.000000
0.406525 0.693939 0.000000
0.446106 0.693970 0.000000
0.485168 0.693848 0.000000
0.523834 0.693573 0.000000
0.562073 0.693085 0.000000
0.599915 0.692474 0.000000
0.637360 0.691650 0.000000
0.674286 0.690674 0.000000
0.710815 0.689575 0.000000
0.746887 0.688507 0.000000
0.782532 0.687500 0.000000
0.817719 0.686493 0.000000
0.852417 0.685516 0.000000
0.886566 0.684570 0.000000
0.920074 0.683655 0.000000
0.952972 0.682831 0.000000
0.983978 0.682068 0.000000
0.999969 0.681396 0.000000
1.000000 0.680786 0.000000
1.000000 0.680237 0.000000
0.000000 0.724152 0.000000
0.000000 0.724091 0.000000
0.000000 0.724060 0.000000
0.000000 0.723938 0.000000
0.000000 0.723877 0.000000
0.003540 0.724152 0.000000
0.070435 0.724670 0.000000
0.138153 0.725250 0.000000
0.193481 0.725861 0.000000
0.241211 0.726379 0.000000
0.285339 0.726837 0.000000
0.327484 0.727264 0.000000
0.368317 0.727570 0.000000
0.408264 0.727753 0.000000
0.447601 0.727844 0.000000
0.486450 0.727753 0.000000
0.524841 0.727509 0.000000
0.562866 0.727112 0.000000
0.600555 0.726532 0.000000
0.637756 0.725830 0.000000
0.674561 0.724945 0.000000
0.710907 0.723907 0.000000
0.746704 0.722839 0.000000
0.782104 0.721741 0.000000
0.817017 0.720703 0.000000
0.851410 0.719757 0.000000
0.885193 0.718781 0.000000
0.918427 0.717896 0.000000
0.951050 0.717102 0.000000
0.981995 0.716309 0.000000
0.999908 0.715607 0.000000
1.000000 0.714966 0.000000
1.000000 0.714325 0.000000
0.000000 0.757355 0.000000
0.000000 0.757324 0.000000
0.000000 0.757263 0.000000
0.000000 0.757141 0.000000
0.000000 0.757172 0.000000
0.008209 0.757507 0.000000
0.081299 0.757996 0.000000
0.146820 0.758545 0.000000
0.199799 0.759064 0.000000
0.246429 0.759552 0.000000
0.289795 0.759979 0.000000
0.331238 0.760376 0.000000
0.371582 0.760651 0.000000
0.411133 0.760834 0.000000
0.450104 0.760895 0.000000
0.488556 0.760834 0.000000
0.526642 0.760620 0.000000
0.564331 0.760284 0.000000
0.601746 0.759766 0.000000
0.638733 0.759094 0.000000
0.675262 0.758301 0.000000
0.711365 0.757355 0.000000
0.746948 0.756287 0.000000
0.781982 0.755188 0.000000
0.816589 0.754120 0.000000
0.850647 0.753113 0.000000
0.884155 0.752106 0.000000
0.917053 0.751221 0.000000
0.949310 0.750366 0.000000
0.980225 0.749573 0.000000
0.999786 0.748810 0.000000
1.000000 0.748108 0.000000
1.000000 0.747406 0.000000
0.000000 0.789734 0.000000
0.000000 0.789642 0.000000
0.000000 0.789581 0.000000
0.000000 0.789520 0.000000
0.000153 0.789703 0.000000
0.024414 0.790070 0.000000
0.097076 0.790527 0.000000
0.159241 0.791016 0.000000
0.208984 0.791473 0.000000
0.253845 0.791901 0.000000
0.296143 0.792297 0.000000
0.336792 0.792633 0.000000
0.376404 0.792908 0.000000
0.415314 0.793060 0.000000
0.453796 0.793121 0.000000
0.491791 0.793030 0.000000
0.529388 0.792847 0.000000
0.566681 0.792511 0.000000
0.603638 0.792053 0.000000
0.640289 0.791412 0.000000
0.676483 0.790680 0.000000
0.712311 0.789795 0.000000
0.747589 0.788788 0.000000
0.782410 0.787689 0.000000
0.816620 0.786560 0.000000
0.850281 0.785461 0.000000
0.883392 0.784485 0.000000
0.915955 0.783569 0.000000
0.947937 0.782654 0.000000
0.978699 0.781830 0.000000
0.999664 0.781036 0.000000
1.000000 0.780243 0.000000
1.000000 0.779449 0.000000
0.000000 0.821136 0.000000
0.000000 0.821045 0.000000
0.000000 0.821045 0.000000
0.000000 0.821106 0.000000
0.005554 0.821381 0.000000
0.058319 0.821747 0.000000
0.122040 0.822144 0.000000
0.175446 0.822540 0.000000
0.221405 0.822968 0.000000
0.264008 0.823334 0.000000
0.304718 0.823700 0.000000
0.344177 0.823975 0.000000
0.382843 0.824219 0.000000
0.420959 0.824341 0.000000
0.458740 0.824371 0.000000
0.496155 0.824310 0.000000
0.533203 0.824097 0.000000
0.569946 0.823761 0.000000
0.606445 0.823334 0.000000
0.642609 0.822754 0.000000
0.678406 0.822052 0.000000
0.713806 0.821228 0.000000
0.748779 0.820251 0.000000
0.783234 0.819244 0.000000
0.817078 0.818085 0.000000
0.850342 0.816986 0.000000
0.883026 0.815948 0.000000
0.915222 0.814941 0.000000
0.946899 0.814056 0.000000
0.977478 0.813171 0.000000
0.999573 0.812317 0.000000
1.000000 0.811493 0.000000
1.000000 0.810638 0.000000
0.000000 0.851624 0.000000
0.000000 0.851624 0.000000
0.000000 0.851746 0.000000
0.004333 0.851929 0.000000
0.032501 0.852203 0.000000
0.094818 0.852509 0.000000
0.149200 0.852844 0.000000
0.194641 0.853210 0.000000
0.236603 0.853577 0.000000
0.276672 0.853882 0.000000
0.315460 0.854187 0.000000
0.353485 0.854431 0.000000
0.391022 0.854614 0.000000
0.428192 0.854706 0.000000
0.465088 0.854706 0.000000
0.501709 0.854614 0.000000
0.538055 0.854431 0.000000
0.574219 0.854095 0.000000
0.610138 0.853668 0.000000
0.645782 0.853119 0.000000
0.681091 0.852448 0.000000
0.715973 0.851685 0.000000
0.750458 0.850800 0.000000
0.784454 0.849823 0.000000
0.817902 0.848755 0.000000
