滤镜资源/Professional Luts Collection/Lutify.me Professional/Contemporary Color Films/Cavansite.cube
# Created by: Lutify.me
# Copyright: (c) Copyright Lutify.me 2015
# Website: https://lutify.me
#LUT size
LUT_3D_SIZE 5
#LUT data points
0.000000 0.000000 0.000000
0.218597 0.000000 0.000000
0.523315 0.000000 0.000000
0.833618 0.000000 0.000000
1.000000 0.000000 0.000000
0.000000 0.217163 0.000000
0.221344 0.219635 0.000000
0.527893 0.199432 0.000000
0.833221 0.142426 0.000000
1.000000 0.069672 0.000000
0.000000 0.512299 0.000000
0.195801 0.514648 0.000000
0.524475 0.513794 0.000000
0.824005 0.503815 0.000000
1.000000 0.495148 0.000000
0.000000 0.789734 0.000000
0.208984 0.791473 0.000000
0.529388 0.792847 0.000000
0.816620 0.786560 0.000000
1.000000 0.779449 0.000000
0.228546 1.000000 0.000000
0.355560 1.000000 0.000000
0.583954 1.000000 0.000000
0.828247 1.000000 0.000000
1.000000 1.000000 0.000000
0.000000 0.000000 0.212891
0.218445 0.000000 0.209534
0.525543 0.000000 0.197937
0.833832 0.000000 0.177399
1.000000 0.000000 0.144470
0.000000 0.216827 0.207001
0.228424 0.215057 0.203369
0.534637 0.190002 0.188385
0.836517 0.126526 0.163452
1.000000 0.048737 0.124725
0.000000 0.512299 0.179077
0.211304 0.510620 0.177612
0.528198 0.510925 0.151581
0.826630 0.500580 0.114075
1.000000 0.491272 0.060028
0.000000 0.789337 0.124207
0.223602 0.788147 0.120728
0.531921 0.789917 0.074982
0.816650 0.784546 0.024841
1.000000 0.777649 0.002991
0.241852 1.000000 0.105621
0.363312 1.000000 0.093750
0.585541 1.000000 0.055817
0.827148 1.000000 0.008789
1.000000 1.000000 0.024323
0.000000 0.000000 0.504578
0.195984 0.000000 0.502563
0.523804 0.000000 0.496521
0.828857 0.000000 0.485779
1.000000 0.000000 0.472198
0.000000 0.209534 0.499176
0.220093 0.204559 0.497162
0.531219 0.175262 0.493225
0.831299 0.099548 0.482117
1.000000 0.018036 0.467865
0.000000 0.509888 0.487030
0.215210 0.508484 0.485352
0.531616 0.503876 0.479767
0.829437 0.490601 0.467346
1.000000 0.480713 0.453278
0.000000 0.788483 0.471832
0.235382 0.786102 0.471649
0.538269 0.781860 0.469086
0.814850 0.779419 0.453918
1.000000 0.772736 0.440887
0.251373 1.000000 0.470398
0.373260 1.000000 0.470642
0.589783 1.000000 0.467285
0.823029 1.000000 0.452240
1.000000 1.000000 0.449188
0.000000 0.000000 0.781067
0.185455 0.000000 0.779755
0.526825 0.000000 0.776337
0.826233 0.000000 0.767151
1.000000 0.000000 0.756104
0.000000 0.192993 0.775299
0.219238 0.185638 0.773529
0.534241 0.150146 0.771576
0.827087 0.072815 0.763733
1.000000 0.012848 0.753113
0.000000 0.503204 0.762268
0.231720 0.501556 0.761169
0.538208 0.495850 0.757751
0.822937 0.482178 0.753235
1.000000 0.473297 0.743317
0.000000 0.783905 0.746613
0.256989 0.782440 0.745575
0.545990 0.778137 0.742615
0.813354 0.772308 0.736603
1.000000 0.764038 0.726837
0.268890 1.000000 0.735596
0.382660 1.000000 0.735138
0.594757 1.000000 0.734070
0.820526 1.000000 0.730408
1.000000 1.000000 0.720734
0.000000 0.000000 1.000000
0.272217 0.000000 1.000000
0.559723 0.000000 1.000000
0.838959 0.000000 1.000000
1.000000 0.000000 0.992035
0.074646 0.165161 1.000000
0.295654 0.155243 1.000000
0.566223 0.109253 1.000000
0.838959 0.025299 0.998627
1.000000 0.007874 0.988831
0.127960 0.494415 0.993652
0.311951 0.492523 0.992676
0.571045 0.486908 0.989502
0.832611 0.474365 0.987091
1.000000 0.470276 0.979248
0.183990 0.777100 0.976410
0.335236 0.775757 0.975525
0.575531 0.771790 0.973114
0.820831 0.765900 0.969696
1.000000 0.758087 0.965179
0.330841 1.000000 0.962280
0.421539 1.000000 0.961639
0.609650 1.000000 0.959747
0.826202 1.000000 0.956757
1.000000 0.999664 0.972656
