滤镜资源/Professional Luts Collection/Lutify.me Professional/Contemporary Color Films/Celestobarite.cube
# Created by: Lutify.me
# Copyright: (c) Copyright Lutify.me 2015
# Website: https://lutify.me
#LUT size
LUT_3D_SIZE 33
#LUT data points
0.000000 0.000000 0.000000
0.014099 0.000366 0.000000
0.030792 0.000031 0.000000
0.053833 0.000000 0.000000
0.078766 0.000000 0.000000
0.105042 0.000000 0.000000
0.133331 0.000000 0.000000
0.163605 0.000000 0.000000
0.196106 0.000000 0.000000
0.230499 0.000000 0.000000
0.266479 0.000000 0.000000
0.303619 0.000000 0.000000
0.341553 0.000000 0.000000
0.379852 0.000000 0.000000
0.418213 0.000000 0.000000
0.456421 0.000000 0.000000
0.494415 0.000000 0.000000
0.532135 0.000000 0.000000
0.569641 0.000000 0.000000
0.606873 0.000000 0.000000
0.643799 0.000000 0.000000
0.680359 0.000000 0.000000
0.716553 0.000000 0.000000
0.752289 0.000000 0.000000
0.787506 0.000000 0.000000
0.822205 0.000000 0.000000
0.856323 0.000000 0.000000
0.889832 0.000000 0.000000
0.922577 0.000000 0.000000
0.954529 0.000000 0.000000
0.984711 0.000000 0.000000
1.000000 0.000000 0.000000
1.000000 0.000000 0.000000
0.000000 0.015198 0.000000
0.015198 0.014862 0.000000
0.032288 0.014832 0.000000
0.054840 0.014465 0.000000
0.079895 0.014069 0.000000
0.106567 0.013031 0.000000
0.134613 0.011688 0.000000
0.165070 0.008820 0.000000
0.197693 0.004364 0.000000
0.232117 0.000885 0.000000
0.268066 0.000031 0.000000
0.305145 0.000000 0.000000
0.342987 0.000000 0.000000
0.381134 0.000000 0.000000
0.419373 0.000000 0.000000
0.457428 0.000000 0.000000
0.495239 0.000000 0.000000
0.532837 0.000000 0.000000
0.570251 0.000000 0.000000
0.607422 0.000000 0.000000
0.644257 0.000000 0.000000
0.680756 0.000000 0.000000
0.716827 0.000000 0.000000
0.752563 0.000000 0.000000
0.787781 0.000000 0.000000
0.822418 0.000000 0.000000
0.856445 0.000000 0.000000
0.889923 0.000000 0.000000
0.922607 0.000000 0.000000
0.954529 0.000000 0.000000
0.984680 0.000000 0.000000
1.000000 0.000000 0.000000
1.000000 0.000000 0.000000
0.000000 0.033569 0.000000
0.014099 0.033142 0.000000
0.033112 0.032349 0.000000
0.056610 0.032013 0.000000
0.081360 0.031891 0.000000
0.108032 0.031128 0.000000
0.136444 0.029633 0.000000
0.166992 0.026794 0.000000
0.199738 0.022827 0.000000
0.234039 0.017334 0.000000
0.269775 0.009521 0.000000
0.306732 0.002441 0.000000
0.344452 0.000122 0.000000
0.382446 0.000000 0.000000
0.420502 0.000000 0.000000
0.458435 0.000000 0.000000
0.496124 0.000000 0.000000
0.533630 0.000000 0.000000
0.570953 0.000000 0.000000
0.608002 0.000000 0.000000
0.644775 0.000000 0.000000
0.681183 0.000000 0.000000
0.717224 0.000000 0.000000
0.752838 0.000000 0.000000
0.787994 0.000000 0.000000
0.822601 0.000000 0.000000
0.856598 0.000000 0.000000
0.890015 0.000000 0.000000
0.922668 0.000000 0.000000
0.954559 0.000000 0.000000
0.984680 0.000000 0.000000
1.000000 0.000000 0.000000
1.000000 0.000000 0.000000
0.000000 0.058502 0.000000
0.012817 0.058197 0.000000
0.031555 0.057800 0.000000
0.056976 0.057220 0.000000
0.082916 0.056641 0.000000
0.110107 0.056274 0.000000
0.139008 0.055115 0.000000
0.169769 0.053070 0.000000
0.202393 0.050354 0.000000
0.236694 0.045685 0.000000
0.272369 0.039124 0.000000
0.309082 0.030518 0.000000
0.346497 0.020447 0.000000
0.384216 0.009583 0.000000
0.422058 0.002686 0.000000
0.459778 0.000397 0.000000
0.497284 0.000000 0.000000
0.534637 0.000000 0.000000
0.571838 0.000000 0.000000
0.608765 0.000000 0.000000
0.645447 0.000000 0.000000
0.681763 0.000000 0.000000
0.717712 0.000000 0.000000
0.753265 0.000000 0.000000
0.788330 0.000000 0.000000
0.822845 0.000000 0.000000
0.856781 0.000000 0.000000
0.890137 0.000000 0.000000
0.922760 0.000000 0.000000
0.954590 0.000000 0.000000
0.984680 0.000000 0.000000
1.000000 0.000000 0.000000
1.000000 0.000000 0.000000
0.000000 0.086151 0.000000
0.007874 0.085968 0.000000
0.028412 0.085541 0.000000
0.055115 0.084900 0.000000
0.083344 0.084442 0.000000
0.111664 0.084137 0.000000
0.141449 0.083374 0.000000
0.172668 0.082062 0.000000
0.205658 0.080200 0.000000
0.240082 0.077484 0.000000
0.275726 0.073761 0.000000
0.312164 0.068756 0.000000
0.349304 0.062286 0.000000
0.386719 0.054352 0.000000
0.424194 0.044891 0.000000
0.461578 0.034790 0.000000
0.498779 0.024323 0.000000
0.535889 0.013367 0.000000
0.572937 0.005493 0.000000
0.609741 0.002472 0.000000
0.646240 0.001190 0.000000
0.682465 0.000275 0.000000
0.718292 0.000000 0.000000
0.753723 0.000000 0.000000
0.788666 0.000000 0.000000
0.823151 0.000000 0.000000
0.856995 0.000000 0.000000
0.890320 0.000000 0.000000
0.922852 0.000000 0.000000
0.954620 0.000000 0.000000
0.984680 0.000000 0.000000
1.000000 0.000031 0.000000
1.000000 0.001190 0.000000
0.000000 0.116028 0.000000
0.000977 0.116028 0.000000
0.020111 0.115845 0.000000
0.050415 0.115326 0.000000
0.080933 0.114960 0.000000
0.111725 0.114471 0.000000
0.143066 0.114136 0.000000
0.175323 0.113312 0.000000
0.208832 0.112122 0.000000
0.243591 0.110352 0.000000
0.279205 0.108154 0.000000
0.315643 0.105225 0.000000
0.352570 0.101593 0.000000
0.389801 0.097198 0.000000
0.427002 0.092255 0.000000
0.464111 0.086548 0.000000
0.501038 0.080078 0.000000
0.537903 0.072968 0.000000
0.574615 0.065369 0.000000
0.611176 0.058807 0.000000
0.647430 0.052551 0.000000
0.683380 0.045929 0.000000
0.719055 0.039398 0.000000
0.754364 0.033356 0.000000
0.789185 0.028381 0.000000
0.823547 0.024567 0.000000
0.857300 0.022644 0.000000
0.890503 0.022247 0.000000
0.922974 0.023834 0.000000
0.954651 0.028564 0.000000
0.984619 0.035950 0.000000
1.000000 0.045807 0.000000
1.000000 0.057404 0.000000
0.000000 0.148773 0.000000
0.000000 0.148956 0.000000
0.006409 0.148987 0.000000
0.039093 0.148621 0.000000
0.075897 0.148071 0.000000
0.109680 0.147614 0.000000
0.143036 0.147369 0.000000
0.176849 0.146912 0.000000
0.211334 0.146118 0.000000
0.246674 0.144897 0.000000
0.282593 0.143463 0.000000
0.319092 0.141754 0.000000
0.355988 0.139557 0.000000
0.392975 0.137024 0.000000
0.429993 0.134125 0.000000
0.466888 0.131073 0.000000
0.503662 0.127686 0.000000
0.540314 0.124115 0.000000
0.576843 0.120270 0.000000
0.613159 0.116302 0.000000
0.649261 0.112335 0.000000
0.685059 0.108307 0.000000
0.720551 0.104492 0.000000
0.755676 0.100983 0.000000
0.790344 0.098206 0.000000
0.824554 0.095917 0.000000
0.858185 0.094849 0.000000
0.891266 0.095032 0.000000
0.923615 0.096649 0.000000
0.955231 0.100098 0.000000
0.985077 0.105225 0.000000
1.000000 0.112213 0.000000
1.000000 0.120758 0.000000
0.000000 0.183990 0.000000
0.000000 0.184082 0.000000
0.000763 0.184326 0.000000
0.020111 0.184143 0.000000
0.064850 0.183777 0.000000
0.104797 0.183075 0.000000
0.141083 0.182587 0.000000
0.176727 0.182281 0.000000
0.212738 0.181854 0.000000
0.248840 0.181061 0.000000
0.285461 0.180023 0.000000
0.322205 0.178802 0.000000
0.359161 0.177399 0.000000
0.396057 0.175842 0.000000
0.432922 0.174133 0.000000
0.469635 0.172241 0.000000
0.506256 0.170319 0.000000
0.542755 0.168274 0.000000
0.579132 0.166107 0.000000
0.615326 0.163940 0.000000
0.651245 0.161865 0.000000
0.686890 0.159790 0.000000
0.722260 0.157867 0.000000
0.757233 0.156250 0.000000
0.791779 0.154968 0.000000
0.825836 0.154083 0.000000
0.859375 0.153870 0.000000
0.892303 0.154419 0.000000
0.924530 0.155792 0.000000
0.956024 0.158264 0.000000
0.985748 0.161743 0.000000
1.000000 0.166473 0.000000
1.000000 0.172333 0.000000
0.000000 0.221069 0.000000
0.000000 0.221252 0.000000
0.000000 0.221344 0.000000
0.002960 0.221436 0.000000
0.046631 0.221100 0.000000
0.095764 0.220367 0.000000
0.136719 0.219757 0.000000
0.174988 0.219208 0.000000
0.212494 0.218872 0.000000
0.249969 0.218445 0.000000
0.287323 0.217651 0.000000
0.324615 0.216766 0.000000
0.361725 0.215820 0.000000
0.398712 0.214752 0.000000
0.435547 0.213623 0.000000
0.472260 0.212402 0.000000
0.508759 0.211182 0.000000
0.545135 0.209869 0.000000
0.581390 0.208527 0.000000
0.617462 0.207214 0.000000
0.653259 0.205963 0.000000
0.688812 0.204681 0.000000
0.724030 0.203491 0.000000
0.758881 0.202545 0.000000
0.793304 0.201904 0.000000
0.827209 0.201599 0.000000
0.860626 0.201721 0.000000
0.893402 0.202423 0.000000
0.925476 0.203796 0.000000
0.956848 0.205872 0.000000
0.986389 0.208740 0.000000
1.000000 0.212555 0.000000
1.000000 0.217133 0.000000
0.000000 0.259491 0.000000
0.000000 0.259613 0.000000
0.000000 0.259705 0.000000
0.000000 0.259827 0.000000
0.019989 0.259674 0.000000
0.081726 0.258942 0.000000
0.129669 0.258179 0.000000
0.171448 0.257538 0.000000
0.211121 0.256958 0.000000
0.249786 0.256592 0.000000
0.288177 0.256165 0.000000
0.326141 0.255432 0.000000
0.363647 0.254669 0.000000
0.400818 0.253876 0.000000
0.437805 0.252960 0.000000
0.474518 0.252075 0.000000
0.511047 0.251190 0.000000
0.547394 0.250275 0.000000
0.583557 0.249329 0.000000
0.619507 0.248413 0.000000
0.655243 0.247528 0.000000
0.690674 0.246704 0.000000
0.725769 0.245972 0.000000
0.760498 0.245392 0.000000
0.794800 0.245026 0.000000
0.828552 0.245026 0.000000
0.861816 0.245361 0.000000
0.894470 0.246094 0.000000
0.926422 0.247406 0.000000
0.957642 0.249268 0.000000
0.986969 0.251831 0.000000
1.000000 0.255096 0.000000
1.000000 0.259003 0.000000
0.000000 0.298615 0.000000
0.000000 0.298676 0.000000
0.000000 0.298767 0.000000
0.000000 0.298828 0.000000
0.003571 0.298798 0.000000
0.061188 0.298157 0.000000
0.119781 0.297272 0.000000
0.166321 0.296448 0.000000
0.208649 0.295715 0.000000
0.248810 0.295166 0.000000
0.288116 0.294739 0.000000
0.326813 0.294281 0.000000
0.364899 0.293610 0.000000
0.402466 0.292877 0.000000
0.439575 0.292114 0.000000
0.476440 0.291382 0.000000
0.513000 0.290649 0.000000
0.549377 0.289886 0.000000
0.585541 0.289124 0.000000
0.621460 0.288361 0.000000
0.657104 0.287720 0.000000
0.692444 0.287140 0.000000
0.727417 0.286682 0.000000
0.762024 0.286316 0.000000
0.796204 0.286133 0.000000
0.829834 0.286255 0.000000
0.862946 0.286682 0.000000
0.895447 0.287476 0.000000
0.927246 0.288696 0.000000
0.958313 0.290436 0.000000
0.987488 0.292725 0.000000
1.000000 0.295563 0.000000
1.000000 0.298950 0.000000
0.000000 0.337708 0.000000
0.000000 0.337799 0.000000
0.000000 0.337799 0.000000
0.000000 0.337860 0.000000
0.000092 0.337860 0.000000
0.036499 0.337372 0.000000
0.106934 0.336456 0.000000
0.159790 0.335510 0.000000
0.205078 0.334595 0.000000
0.247192 0.333801 0.000000
0.287506 0.333252 0.000000
0.326782 0.332764 0.000000
0.365448 0.332336 0.000000
0.403412 0.331665 0.000000
0.440918 0.330994 0.000000
0.477997 0.330292 0.000000
0.514648 0.329590 0.000000
0.551086 0.328918 0.000000
0.587311 0.328247 0.000000
0.623169 0.327637 0.000000
0.658783 0.327087 0.000000
0.694061 0.326630 0.000000
0.728943 0.326263 0.000000
0.763458 0.326050 0.000000
0.797485 0.325989 0.000000
0.831024 0.326141 0.000000
0.863983 0.326599 0.000000
0.896362 0.327393 0.000000
0.927979 0.328522 0.000000
0.958862 0.330139 0.000000
0.987915 0.332214 0.000000
1.000000 0.334717 0.000000
1.000000 0.337677 0.000000
0.000000 0.376678 0.000000
0.000000 0.376709 0.000000
0.000000 0.376709 0.000000
0.000000 0.376740 0.000000
0.000000 0.376678 0.000000
0.012299 0.376312 0.000000
0.091339 0.375397 0.000000
0.152039 0.374390 0.000000
0.200928 0.373352 0.000000
0.244873 0.372467 0.000000
0.286469 0.371704 0.000000
0.326385 0.371094 0.000000
0.365387 0.370636 0.000000
0.403870 0.370209 0.000000
0.441742 0.369568 0.000000
0.479065 0.368896 0.000000
0.515991 0.368256 0.000000
0.552521 0.367615 0.000000
0.588745 0.366974 0.000000
0.624664 0.366394 0.000000
0.660248 0.365906 0.000000
0.695465 0.365479 0.000000
0.730286 0.365173 0.000000
0.764709 0.364990 0.000000
0.798615 0.364990 0.000000
0.832031 0.365173 0.000000
0.864868 0.365601 0.000000
0.897095 0.366364 0.000000
0.928589 0.367401 0.000000
0.959320 0.368896 0.000000
0.988159 0.370758 0.000000
1.000000 0.373047 0.000000
1.000000 0.375702 0.000000
0.000000 0.415344 0.000000
0.000000 0.415344 0.000000
0.000000 0.415314 0.000000
0.000000 0.415283 0.000000
0.000000 0.415222 0.000000
0.002686 0.415009 0.000000
0.073730 0.414093 0.000000
0.143433 0.413025 0.000000
0.196136 0.411926 0.000000
0.242188 0.410950 0.000000
0.284851 0.410095 0.000000
0.325592 0.409332 0.000000
0.364990 0.408783 0.000000
0.403809 0.408325 0.000000
0.442108 0.407867 0.000000
0.479767 0.407257 0.000000
0.516876 0.406647 0.000000
0.553619 0.406006 0.000000
0.589935 0.405365 0.000000
0.625885 0.404816 0.000000
0.661469 0.404327 0.000000
0.696655 0.403931 0.000000
0.731445 0.403595 0.000000
0.765778 0.403442 0.000000
0.799591 0.403412 0.000000
0.832886 0.403564 0.000000
0.865570 0.403961 0.000000
0.897675 0.404633 0.000000
0.928986 0.405609 0.000000
0.959564 0.406952 0.000000
0.988251 0.408661 0.000000
1.000000 0.410675 0.000000
1.000000 0.413055 0.000000
0.000000 0.453705 0.000000
0.000000 0.453705 0.000000
0.000000 0.453674 0.000000
0.000000 0.453613 0.000000
0.000000 0.453522 0.000000
0.000458 0.453369 0.000000
0.058380 0.452484 0.000000
0.133728 0.451385 0.000000
0.190674 0.450287 0.000000
0.238800 0.449280 0.000000
0.282806 0.448334 0.000000
0.324402 0.447479 0.000000
0.364410 0.446777 0.000000
0.403503 0.446198 0.000000
0.442017 0.445740 0.000000
0.480042 0.445282 0.000000
0.517426 0.444733 0.000000
0.554291 0.444122 0.000000
0.590790 0.443481 0.000000
0.626862 0.442902 0.000000
0.662445 0.442413 0.000000
0.697632 0.441986 0.000000
0.732361 0.441650 0.000000
0.766632 0.441467 0.000000
0.800354 0.441406 0.000000
0.833527 0.441528 0.000000
0.866089 0.441833 0.000000
0.898041 0.442413 0.000000
0.929199 0.443298 0.000000
0.959625 0.444489 0.000000
0.988190 0.445984 0.000000
1.000000 0.447784 0.000000
1.000000 0.449921 0.000000
0.000000 0.491730 0.000000
0.000000 0.491699 0.000000
0.000000 0.491669 0.000000
0.000000 0.491608 0.000000
0.000000 0.491486 0.000000
0.000000 0.491333 0.000000
0.040253 0.490540 0.000000
0.122559 0.489471 0.000000
0.184601 0.488373 0.000000
0.235077 0.487305 0.000000
0.280365 0.486328 0.000000
0.322876 0.485382 0.000000
0.363617 0.484558 0.000000
0.403076 0.483887 0.000000
0.441833 0.483276 0.000000
0.479950 0.482880 0.000000
0.517609 0.482391 0.000000
0.554718 0.481842 0.000000
0.591309 0.481262 0.000000
0.627502 0.480652 0.000000
0.663147 0.480103 0.000000
0.698334 0.479645 0.000000
0.733063 0.479248 0.000000
0.767273 0.479034 0.000000
0.800903 0.478912 0.000000
0.833954 0.478973 0.000000
0.866425 0.479218 0.000000
0.898193 0.479706 0.000000
0.929230 0.480438 0.000000
0.959473 0.481506 0.000000
0.987915 0.482819 0.000000
1.000000 0.484406 0.000000
1.000000 0.486267 0.000000
0.000000 0.529327 0.000000
0.000000 0.529266 0.000000
0.000000 0.529236 0.000000
0.000000 0.529144 0.000000
0.000000 0.529053 0.000000
0.000000 0.528900 0.000000
0.020844 0.528198 0.000000
0.109894 0.527130 0.000000
0.178162 0.526031 0.000000
0.230988 0.524933 0.000000
0.277863 0.523895 0.000000
0.321259 0.522919 0.000000
0.362640 0.522003 0.000000
0.402557 0.521210 0.000000
0.441559 0.520538 0.000000
0.479858 0.519928 0.000000
0.517609 0.519531 0.000000
0.554871 0.519043 0.000000
0.591644 0.518524 0.000000
0.627899 0.517914 0.000000
0.663605 0.517365 0.000000
0.698822 0.516876 0.000000
0.733521 0.516449 0.000000
0.767670 0.516113 0.000000
0.801239 0.515930 0.000000
0.834198 0.515930 0.000000
0.866516 0.516083 0.000000
0.898163 0.516479 0.000000
0.929016 0.517059 0.000000
0.959106 0.517944 0.000000
0.987488 0.519135 0.000000
1.000000 0.520508 0.000000
1.000000 0.522125 0.000000
0.000000 0.566498 0.000000
0.000000 0.566437 0.000000
0.000000 0.566406 0.000000
0.000000 0.566315 0.000000
0.000000 0.566223 0.000000
0.000000 0.566071 0.000000
0.009857 0.565430 0.000000
0.096863 0.564392 0.000000
0.171722 0.563263 0.000000
0.226959 0.562195 0.000000
0.275177 0.561096 0.000000
0.319611 0.560059 0.000000
0.361664 0.559082 0.000000
0.402008 0.558197 0.000000
0.441254 0.557434 0.000000
0.479736 0.556763 0.000000
0.517548 0.556152 0.000000
0.554871 0.555695 0.000000
0.591736 0.555206 0.000000
0.628082 0.554688 0.000000
0.663849 0.554138 0.000000
0.699097 0.553589 0.000000
0.733734 0.553162 0.000000
0.767883 0.552765 0.000000
0.801361 0.552521 0.000000
0.834229 0.552399 0.000000
0.866394 0.552460 0.000000
0.897919 0.552734 0.000000
0.928589 0.553223 0.000000
0.958527 0.553925 0.000000
0.986847 0.554901 0.000000
1.000000 0.556122 0.000000
1.000000 0.557526 0.000000
0.000000 0.603210 0.000000
0.000000 0.603149 0.000000
0.000000 0.603088 0.000000
0.000000 0.602997 0.000000
0.000000 0.602905 0.000000
0.000000 0.602722 0.000000
0.005981 0.602142 0.000000
0.088196 0.601166 0.000000
0.165527 0.600037 0.000000
0.223267 0.598907 0.000000
0.272827 0.597839 0.000000
0.318024 0.596771 0.000000
0.360687 0.595734 0.000000
0.401520 0.594757 0.000000
0.441101 0.593903 0.000000
0.479706 0.593140 0.000000
0.517578 0.592438 0.000000
0.554901 0.591858 0.000000
0.591766 0.591400 0.000000
0.628143 0.590912 0.000000
0.663971 0.590363 0.000000
0.699188 0.589813 0.000000
0.733856 0.589325 0.000000
0.767883 0.588898 0.000000
0.801300 0.588562 0.000000
0.834076 0.588348 0.000000
0.866119 0.588318 0.000000
0.897461 0.588470 0.000000
0.927979 0.588837 0.000000
0.957794 0.589417 0.000000
0.986053 0.590179 0.000000
1.000000 0.591187 0.000000
1.000000 0.592407 0.000000
0.000000 0.639343 0.000000
0.000000 0.639313 0.000000
0.000000 0.639221 0.000000
0.000000 0.639130 0.000000
0.000000 0.639008 0.000000
0.000000 0.638824 0.000000
0.003479 0.638245 0.000000
0.081360 0.637299 0.000000
0.160370 0.636200 0.000000
0.220306 0.635101 0.000000
0.271027 0.633972 0.000000
0.316956 0.632874 0.000000
0.360046 0.631836 0.000000
0.401245 0.630798 0.000000
0.441101 0.629852 0.000000
0.479889 0.628937 0.000000
0.517853 0.628174 0.000000
0.555084 0.627502 0.000000
0.591888 0.626892 0.000000
0.628204 0.626434 0.000000
0.664032 0.625946 0.000000
0.699249 0.625397 0.000000
0.733826 0.624847 0.000000
0.767792 0.624390 0.000000
0.801086 0.623993 0.000000
0.833740 0.623718 0.000000
0.865692 0.623566 0.000000
0.896851 0.623596 0.000000
0.927216 0.623810 0.000000
0.956879 0.624207 0.000000
0.985107 0.624786 0.000000
1.000000 0.625610 0.000000
1.000000 0.626648 0.000000
0.000000 0.674805 0.000000
0.000000 0.674774 0.000000
0.000000 0.674683 0.000000
0.000000 0.674591 0.000000
0.000000 0.674469 0.000000
0.000000 0.674286 0.000000
0.001923 0.673676 0.000000
0.076843 0.672729 0.000000
0.157043 0.671661 0.000000
0.218658 0.670532 0.000000
0.270081 0.669434 0.000000
0.316589 0.668304 0.000000
0.360016 0.667206 0.000000
0.401459 0.666168 0.000000
0.441467 0.665161 0.000000
0.480377 0.664185 0.000000
0.518341 0.663300 0.000000
0.555603 0.662506 0.000000
0.592255 0.661804 0.000000
0.628387 0.661194 0.000000
0.664093 0.660736 0.000000
0.699249 0.660217 0.000000
0.733765 0.659668 0.000000
0.767670 0.659149 0.000000
0.800842 0.658691 0.000000
0.833313 0.658356 0.000000
0.865082 0.658112 0.000000
0.896088 0.658051 0.000000
0.926361 0.658112 0.000000
0.955902 0.658325 0.000000
0.984100 0.658722 0.000000
0.999969 0.659363 0.000000
1.000000 0.660156 0.000000
0.000000 0.709534 0.000000
0.000000 0.709473 0.000000
0.000000 0.709381 0.000000
0.000000 0.709290 0.000000
0.000000 0.709167 0.000000
0.000000 0.708984 0.000000
0.001892 0.708313 0.000000
0.076202 0.707367 0.000000
0.156464 0.706329 0.000000
0.218842 0.705231 0.000000
0.270538 0.704102 0.000000
0.317200 0.702972 0.000000
0.360809 0.701843 0.000000
0.402374 0.700745 0.000000
0.442413 0.699707 0.000000
0.481293 0.698669 0.000000
0.519257 0.697723 0.000000
0.556458 0.696838 0.000000
0.592987 0.696014 0.000000
0.628967 0.695312 0.000000
0.664398 0.694702 0.000000
0.699371 0.694183 0.000000
0.733795 0.693665 0.000000
0.767548 0.693115 0.000000
0.800598 0.692657 0.000000
0.832886 0.692200 0.000000
0.864471 0.691895 0.000000
0.895294 0.691681 0.000000
0.925385 0.691620 0.000000
0.954834 0.691711 0.000000
0.982971 0.691925 0.000000
0.999939 0.692322 0.000000
1.000000 0.692932 0.000000
0.000000 0.743408 0.000000
0.000000 0.743347 0.000000
0.000000 0.743286 0.000000
0.000000 0.743164 0.000000
0.000000 0.743042 0.000000
0.000000 0.742798 0.000000
0.003784 0.742065 0.000000
0.080475 0.741119 0.000000
0.159576 0.740082 0.000000
0.221344 0.739014 0.000000
0.272736 0.737915 0.000000
0.319275 0.736786 0.000000
0.362732 0.735626 0.000000
0.404205 0.734467 0.000000
0.444153 0.733398 0.000000
0.482971 0.732300 0.000000
0.520782 0.731293 0.000000
0.557800 0.730316 0.000000
0.594208 0.729401 0.000000
0.629944 0.728607 0.000000
0.665131 0.727875 0.000000
0.699829 0.727234 0.000000
0.734009 0.726715 0.000000
0.767548 0.726166 0.000000
0.800446 0.725616 0.000000
0.832520 0.725159 0.000000
0.863922 0.724731 0.000000
0.894562 0.724426 0.000000
0.924500 0.724243 0.000000
0.953796 0.724182 0.000000
0.981903 0.724243 0.000000
0.999878 0.724457 0.000000
1.000000 0.724823 0.000000
0.000000 0.776337 0.000000
0.000000 0.776306 0.000000
0.000000 0.776215 0.000000
0.000000 0.776123 0.000000
0.000000 0.775970 0.000000
0.000000 0.775574 0.000000
0.007507 0.774811 0.000000
0.090118 0.773895 0.000000
0.166962 0.772888 0.000000
0.226715 0.771820 0.000000
0.277191 0.770721 0.000000
0.323059 0.769592 0.000000
0.366150 0.768433 0.000000
0.407257 0.767273 0.000000
0.446960 0.766113 0.000000
0.485504 0.764984 0.000000
0.523071 0.763885 0.000000
0.559875 0.762878 0.000000
0.596008 0.761871 0.000000
0.631500 0.760956 0.000000
0.666382 0.760162 0.000000
0.700745 0.759399 0.000000
0.734589 0.758759 0.000000
0.767822 0.758209 0.000000
0.800446 0.757660 0.000000
0.832336 0.757111 0.000000
0.863464 0.756653 0.000000
0.893921 0.756256 0.000000
0.923676 0.755951 0.000000
0.952850 0.755737 0.000000
0.980927 0.755646 0.000000
0.999847 0.755615 0.000000
1.000000 0.755890 0.000000
0.000000 0.808228 0.000000
0.000000 0.808197 0.000000
0.000000 0.808075 0.000000
0.000000 0.807983 0.000000
0.000000 0.807770 0.000000
0.000000 0.807251 0.000000
0.019623 0.806458 0.000000
0.104614 0.805573 0.000000
0.178894 0.804596 0.000000
0.235291 0.803558 0.000000
0.284241 0.802429 0.000000
0.329010 0.801300 0.000000
0.371277 0.800140 0.000000
0.411804 0.798981 0.000000
0.450989 0.797791 0.000000
0.489136 0.796600 0.000000
0.526306 0.795471 0.000000
0.562744 0.794373 0.000000
0.598541 0.793304 0.000000
0.633698 0.792328 0.000000
0.668274 0.791412 0.000000
0.702209 0.790558 0.000000
0.735626 0.789795 0.000000
0.768463 0.789154 0.000000
0.800781 0.788605 0.000000
0.832367 0.788055 0.000000
0.863190 0.787537 0.000000
0.893463 0.787079 0.000000
0.923035 0.786652 0.000000
0.952026 0.786346 0.000000
0.980042 0.786133 0.000000
0.999817 0.786011 0.000000
1.000000 0.786072 0.000000
0.000000 0.839020 0.000000
0.000000 0.838928 0.000000
0.000000 0.838867 0.000000
0.000000 0.838684 0.000000
0.000000 0.838318 0.000000
0.001587 0.837708 0.000000
0.050873 0.836945 0.000000
0.129181 0.836060 0.000000
0.195099 0.835114 0.000000
0.247284 0.834106 0.000000
0.293884 0.833038 0.000000
0.337128 0.831879 0.000000
0.378265 0.830750 0.000000
0.417969 0.829559 0.000000
0.456451 0.828369 0.000000
0.493988 0.827179 0.000000
0.530640 0.826019 0.000000
0.566528 0.824860 0.000000
0.601868 0.823761 0.000000
0.636566 0.822693 0.000000
0.670715 0.821716 0.000000
0.704224 0.820801 0.000000
0.737183 0.819946 0.000000
0.769592 0.819244 0.000000
0.801392 0.818573 0.000000
0.832611 0.818054 0.000000
0.863220 0.817505 0.000000
0.893158 0.817017 0.000000
0.922546 0.816559 0.000000
0.951385 0.816132 0.000000
0.979279 0.815826 0.000000
0.999786 0.815582 0.000000
1.000000 0.815521 0.000000
0.000000 0.868744 0.000000
0.000000 0.868652 0.000000
0.000000 0.868530 0.000000
0.000000 0.868225 0.000000
0.000183 0.867706 0.000000
0.017029 0.867096 0.000000
0.090302 0.866364 0.000000
0.159393 0.865540 0.000000
0.214417 0.864624 0.000000
0.262177 0.863647 0.000000
0.306000 0.862579 0.000000
0.347351 0.861481 0.000000
0.387085 0.860321 0.000000
0.425629 0.859161 0.000000
0.463226 0.857941 0.000000
0.499939 0.856750 0.000000
0.535919 0.855591 0.000000
0.571259 0.854401 0.000000
0.605988 0.853271 0.000000
0.640167 0.852173 0.000000
0.673767 0.851135 0.000000
0.706787 0.850189 0.000000
0.739227 0.849274 0.000000
0.771118 0.848511 0.000000
0.802399 0.847748 0.000000
