滤镜资源/Professional Luts Collection/Lutify.me Professional/Contemporary Color Films/Celestobarite.cube
# Created by: Lutify.me
# Copyright: (c) Copyright Lutify.me 2015
# Website: https://lutify.me
#LUT size
LUT_3D_SIZE 5
#LUT data points
0.000000 0.000000 0.000000
0.196106 0.000000 0.000000
0.494415 0.000000 0.000000
0.787506 0.000000 0.000000
1.000000 0.000000 0.000000
0.000000 0.221069 0.000000
0.212494 0.218872 0.000000
0.508759 0.211182 0.000000
0.793304 0.201904 0.000000
1.000000 0.217133 0.000000
0.000000 0.529327 0.000000
0.178162 0.526031 0.000000
0.517609 0.519531 0.000000
0.801239 0.515930 0.000000
1.000000 0.522125 0.000000
0.000000 0.808228 0.000000
0.178894 0.804596 0.000000
0.526306 0.795471 0.000000
0.800781 0.788605 0.000000
1.000000 0.786072 0.000000
0.204193 1.000000 0.000000
0.349243 1.000000 0.000000
0.581696 1.000000 0.000000
0.813660 1.000000 0.000000
1.000000 1.000000 0.000000
0.000000 0.000793 0.205658
0.203583 0.000000 0.209106
0.501404 0.000000 0.212585
0.790985 0.000000 0.214020
1.000000 0.000000 0.213165
0.000000 0.216095 0.214386
0.219452 0.216888 0.213593
0.511078 0.212463 0.213684
0.793762 0.204712 0.212494
1.000000 0.221924 0.210754
0.000000 0.523438 0.193420
0.182098 0.525543 0.186157
0.520325 0.518219 0.190643
0.800018 0.515228 0.193085
1.000000 0.522858 0.193817
0.000000 0.803772 0.149750
0.175629 0.804413 0.139984
0.526337 0.795319 0.154846
0.799896 0.787659 0.164673
1.000000 0.785187 0.173065
0.192108 1.000000 0.154846
0.341522 1.000000 0.158630
0.578308 1.000000 0.174896
0.811584 1.000000 0.195465
1.000000 1.000000 0.207306
0.000000 0.000000 0.497986
0.195343 0.000000 0.500214
0.507568 0.000000 0.504761
0.792999 0.000000 0.507385
1.000000 0.000000 0.509430
0.000000 0.218781 0.505951
0.219757 0.221527 0.502563
0.515167 0.214813 0.506775
0.794891 0.208649 0.508392
1.000000 0.229034 0.509644
0.000000 0.516541 0.509949
0.201447 0.516296 0.509521
0.520599 0.515167 0.508270
0.794006 0.516510 0.508820
1.000000 0.526642 0.509674
0.000000 0.793182 0.505585
0.202332 0.794373 0.503510
0.520996 0.794556 0.497437
0.795471 0.785309 0.501862
1.000000 0.783600 0.506531
0.206970 1.000000 0.506775
0.337921 1.000000 0.504059
0.567505 1.000000 0.500916
0.804169 1.000000 0.507416
1.000000 1.000000 0.513153
0.000000 0.000000 0.766968
0.217468 0.000000 0.768433
0.520630 0.000000 0.772766
0.797485 0.000000 0.774841
1.000000 0.000000 0.775635
0.000000 0.223145 0.771545
0.240845 0.225708 0.768616
0.526855 0.219299 0.772491
0.798004 0.215393 0.774811
1.000000 0.242371 0.775421
0.000000 0.515686 0.778015
0.236877 0.516296 0.775421
0.533112 0.519653 0.770355
0.794403 0.520477 0.773590
1.000000 0.531830 0.774017
0.000000 0.787872 0.774536
0.252411 0.787048 0.774231
0.534851 0.784760 0.773376
0.790161 0.782257 0.772095
1.000000 0.784454 0.772705
0.261230 1.000000 0.772491
0.368408 1.000000 0.771973
0.570099 1.000000 0.769897
0.793335 1.000000 0.765320
1.000000 1.000000 0.768463
0.163574 0.000000 0.987335
0.319702 0.000000 0.989014
0.564606 0.000000 0.992126
0.816284 0.000000 0.994293
1.000000 0.000000 0.994446
0.188843 0.229736 0.987640
0.333313 0.229614 0.987640
0.568787 0.225067 0.990692
0.815430 0.225861 0.993378
1.000000 0.259338 0.993622
0.184967 0.519073 0.992828
0.338562 0.521118 0.989532
0.572693 0.524811 0.986633
0.808716 0.527100 0.989929
1.000000 0.539673 0.990936
0.202545 0.785065 0.993195
0.342865 0.784546 0.992218
0.572601 0.783630 0.989227
0.801300 0.785889 0.985138
1.000000 0.787842 0.987762
0.336426 1.000000 0.989655
0.419891 1.000000 0.989471
0.596497 1.000000 0.988922
0.801331 1.000000 0.988098
1.000000 1.000000 0.991760
