滤镜资源/Professional Luts Collection/Lutify.me Professional/Contemporary Color Films/Celestobarite.cube
# Created by: Lutify.me
# Copyright: (c) Copyright Lutify.me 2015
# Website: https://lutify.me
#LUT size
LUT_3D_SIZE 9
#LUT data points
0.000000 0.000000 0.000000
0.078766 0.000000 0.000000
0.196106 0.000000 0.000000
0.341553 0.000000 0.000000
0.494415 0.000000 0.000000
0.643799 0.000000 0.000000
0.787506 0.000000 0.000000
0.922577 0.000000 0.000000
1.000000 0.000000 0.000000
0.000000 0.086151 0.000000
0.083344 0.084442 0.000000
0.205658 0.080200 0.000000
0.349304 0.062286 0.000000
0.498779 0.024323 0.000000
0.646240 0.001190 0.000000
0.788666 0.000000 0.000000
0.922852 0.000000 0.000000
1.000000 0.001190 0.000000
0.000000 0.221069 0.000000
0.046631 0.221100 0.000000
0.212494 0.218872 0.000000
0.361725 0.215820 0.000000
0.508759 0.211182 0.000000
0.653259 0.205963 0.000000
0.793304 0.201904 0.000000
0.925476 0.203796 0.000000
1.000000 0.217133 0.000000
0.000000 0.376678 0.000000
0.000000 0.376678 0.000000
0.200928 0.373352 0.000000
0.365387 0.370636 0.000000
0.515991 0.368256 0.000000
0.660248 0.365906 0.000000
0.798615 0.364990 0.000000
0.928589 0.367401 0.000000
1.000000 0.375702 0.000000
0.000000 0.529327 0.000000
0.000000 0.529053 0.000000
0.178162 0.526031 0.000000
0.362640 0.522003 0.000000
0.517609 0.519531 0.000000
0.663605 0.517365 0.000000
0.801239 0.515930 0.000000
0.929016 0.517059 0.000000
1.000000 0.522125 0.000000
0.000000 0.674805 0.000000
0.000000 0.674469 0.000000
0.157043 0.671661 0.000000
0.360016 0.667206 0.000000
0.518341 0.663300 0.000000
0.664093 0.660736 0.000000
0.800842 0.658691 0.000000
0.926361 0.658112 0.000000
1.000000 0.660156 0.000000
0.000000 0.808228 0.000000
0.000000 0.807770 0.000000
0.178894 0.804596 0.000000
0.371277 0.800140 0.000000
0.526306 0.795471 0.000000
0.668274 0.791412 0.000000
0.800781 0.788605 0.000000
0.923035 0.786652 0.000000
1.000000 0.786072 0.000000
0.000000 0.925049 0.000000
0.062531 0.923767 0.000000
0.258453 0.920959 0.000000
0.409241 0.916931 0.000000
0.549164 0.912292 0.000000
0.681366 0.907806 0.000000
0.805420 0.904144 0.000000
0.922180 0.901794 0.000000
1.000000 0.900116 0.000000
0.204193 1.000000 0.000000
0.255676 1.000000 0.000000
0.349243 1.000000 0.000000
0.462677 1.000000 0.000000
0.581696 1.000000 0.000000
0.699524 1.000000 0.000000
0.813660 1.000000 0.000000
0.923828 1.000000 0.000000
1.000000 1.000000 0.000000
0.000000 0.000702 0.078979
0.080811 0.000000 0.080566
0.200317 0.000000 0.081329
0.345520 0.000000 0.081543
0.497314 0.000000 0.080078
0.645905 0.000000 0.075684
0.789032 0.000000 0.067505
0.923553 0.000000 0.054871
1.000000 0.000000 0.039886
0.000000 0.083374 0.082214
0.084717 0.083740 0.081940
0.208496 0.080292 0.081818
0.352386 0.062103 0.080841
0.501465 0.023651 0.077881
0.648254 0.001129 0.071991
0.790131 0.000000 0.062164
0.923798 0.000000 0.048309
1.000000 0.001556 0.033112
0.000000 0.218933 0.070099
0.052307 0.220459 0.066803
0.216583 0.218262 0.067291
0.363983 0.215393 0.065704
0.509918 0.211365 0.061188
0.653992 0.206421 0.052734
0.793854 0.202576 0.040253
0.925934 0.204346 0.025574
1.000000 0.217682 0.009277
0.000000 0.375458 0.015076
0.000000 0.375488 0.012604
0.205170 0.372925 0.013458
0.367950 0.370178 0.013031
0.517548 0.367859 0.008575
0.661285 0.365692 0.005585
0.799377 0.364929 0.002167
0.929016 0.367493 0.000641
1.000000 0.375824 0.000061
0.000000 0.528473 0.000000
0.000000 0.528198 0.000000
0.182220 0.525299 0.000000
0.364563 0.521515 0.000000
0.518799 0.519135 0.000000
0.664368 0.517059 0.000000
0.801666 0.515747 0.000000
0.929169 0.516968 0.000000
1.000000 0.522125 0.000000
0.000000 0.674103 0.000000
0.000000 0.673706 0.000000
0.160461 0.670959 0.000000
0.361298 0.666687 0.000000
0.519073 0.662903 0.000000
0.664459 0.660400 0.000000
0.800964 0.658447 0.000000
0.926208 0.657928 0.000000
1.000000 0.660034 0.000000
0.000000 0.807587 0.000000
0.000000 0.807068 0.000000
0.180817 0.803955 0.000000
0.371918 0.799622 0.000000
0.526611 0.795074 0.000000
0.668304 0.791077 0.000000
0.800568 0.788300 0.000000
0.922668 0.786438 0.000000
1.000000 0.785889 0.000000
0.000000 0.924408 0.000000
0.064362 0.923187 0.000000
0.258911 0.920441 0.000000
0.409363 0.916473 0.000000
0.549103 0.911926 0.000000
0.681152 0.907501 0.000000
0.805084 0.903900 0.000000
0.921661 0.901550 0.000000
1.000000 0.899902 0.000000
0.201080 1.000000 0.000000
0.253418 1.000000 0.000000
0.347687 1.000000 0.000000
0.461578 1.000000 0.000000
0.580902 1.000000 0.000000
0.698914 1.000000 0.000000
0.813110 1.000000 0.000000
0.923187 1.000000 0.000000
1.000000 1.000000 0.000000
0.000000 0.000793 0.205658
0.069794 0.000031 0.206696
0.203583 0.000000 0.209106
0.350830 0.000000 0.210938
0.501404 0.000000 0.212585
0.648865 0.000000 0.213715
0.790985 0.000000 0.214020
0.924591 0.000000 0.213684
1.000000 0.000000 0.213165
0.000000 0.084412 0.210266
0.078156 0.085541 0.209259
0.211975 0.079742 0.211487
0.357239 0.060455 0.212677
0.505249 0.022736 0.213654
0.650940 0.001282 0.214081
0.791931 0.000000 0.213928
0.924713 0.000000 0.213318
1.000000 0.002502 0.212616
0.000000 0.216095 0.214386
0.057159 0.216736 0.214203
0.219452 0.216888 0.213593
0.365601 0.215759 0.213776
0.511078 0.212463 0.213684
0.654602 0.208008 0.213226
0.793762 0.204712 0.212494
0.924988 0.207367 0.211609
1.000000 0.221924 0.210754
0.000000 0.370270 0.208679
0.000275 0.370453 0.208130
0.206818 0.372925 0.203583
0.370880 0.369141 0.205109
0.518066 0.367004 0.206421
0.659973 0.365875 0.207001
0.796875 0.366058 0.206787
0.925720 0.369415 0.206116
1.000000 0.378448 0.205078
0.000000 0.523438 0.193420
0.000000 0.523254 0.192749
0.182098 0.525543 0.186157
0.366364 0.521545 0.188568
0.520325 0.518219 0.190643
0.664368 0.516022 0.191437
0.800018 0.515228 0.193085
0.926239 0.517151 0.194031
1.000000 0.522858 0.193817
0.000000 0.669769 0.171295
0.000000 0.669464 0.170563
0.157959 0.671112 0.162537
0.360962 0.667328 0.165771
0.519928 0.662598 0.172058
0.664795 0.659637 0.173462
0.800232 0.657593 0.174561
0.924225 0.657257 0.177917
1.000000 0.659668 0.180115
0.000000 0.803772 0.149750
0.000000 0.803833 0.147644
0.175629 0.804413 0.139984
0.369904 0.800507 0.145447
0.526337 0.795319 0.154846
0.668182 0.790619 0.162720
0.799896 0.787659 0.164673
0.921265 0.785706 0.167969
1.000000 0.785187 0.173065
0.000000 0.923065 0.138458
0.052979 0.923096 0.135742
0.252411 0.921448 0.136780
0.405945 0.917664 0.144165
0.547577 0.912598 0.154968
0.680237 0.907501 0.165863
0.803986 0.903442 0.174011
0.920288 0.901001 0.177277
1.000000 0.899261 0.182068
0.192108 1.000000 0.154846
0.245483 1.000000 0.155609
0.341522 1.000000 0.158630
0.457520 1.000000 0.165314
0.578308 1.000000 0.174896
0.697113 1.000000 0.185547
0.811584 1.000000 0.195465
0.921631 1.000000 0.203217
1.000000 1.000000 0.207306
0.000000 0.000000 0.352386
0.019257 0.000000 0.352753
0.200195 0.000000 0.355438
0.354187 0.000000 0.357788
0.504517 0.000000 0.359528
0.651093 0.000000 0.361145
0.792206 0.000000 0.362396
0.924744 0.000000 0.363342
1.000000 0.000000 0.364227
0.000000 0.086609 0.355652
0.038452 0.086121 0.355469
0.209717 0.079468 0.356964
0.360229 0.057098 0.359283
0.508026 0.020905 0.360657
0.652985 0.001465 0.361847
0.793030 0.000000 0.362793
0.924774 0.000000 0.363556
1.000000 0.004089 0.364349
0.000000 0.216614 0.362213
0.030457 0.217133 0.361908
0.220337 0.219208 0.359039
0.367737 0.216919 0.361328
0.513245 0.213409 0.362122
0.656372 0.208984 0.362701
0.794769 0.206085 0.363098
0.925079 0.209351 0.363525
1.000000 0.224518 0.364014
0.000000 0.367767 0.363647
0.000427 0.367920 0.363464
0.212677 0.367950 0.363098
0.371429 0.367462 0.362366
0.516998 0.367310 0.362640
0.658813 0.367065 0.362793
0.795380 0.367737 0.362946
0.923584 0.371552 0.363220
1.000000 0.381134 0.363617
0.000000 0.518555 0.360413
0.000000 0.518463 0.360168
0.191650 0.519867 0.358582
0.364960 0.521088 0.354767
0.520966 0.516846 0.356476
0.663086 0.515015 0.358276
0.797180 0.515259 0.359619
0.922333 0.518036 0.360504
1.000000 0.524384 0.361053
0.000000 0.664154 0.354004
0.000000 0.663940 0.353760
0.169891 0.666168 0.350128
0.358643 0.666931 0.345764
0.519806 0.662079 0.348022
0.664490 0.658447 0.350159
0.798401 0.656464 0.351990
0.920837 0.656677 0.354584
1.000000 0.659637 0.356262
0.000000 0.798126 0.348297
0.000000 0.798340 0.347351
0.182861 0.800629 0.342224
0.366608 0.800171 0.338715
0.524689 0.795288 0.341309
0.667236 0.789825 0.346069
0.798279 0.786591 0.347931
0.918579 0.784668 0.350433
1.000000 0.784332 0.353607
0.000000 0.918091 0.345581
0.076202 0.918793 0.343506
0.251190 0.919342 0.340179
0.401611 0.917480 0.338959
0.544556 0.912781 0.342041
0.678162 0.907196 0.347443
0.801758 0.902649 0.352448
0.917694 0.900085 0.354492
1.000000 0.898376 0.357208
0.192810 1.000000 0.348846
0.242859 1.000000 0.347900
0.336151 1.000000 0.346558
0.451935 1.000000 0.347260
0.573883 1.000000 0.350616
0.693695 1.000000 0.355896
0.808624 1.000000 0.361725
0.918762 1.000000 0.366608
1.000000 1.000000 0.368866
0.000000 0.000000 0.497986
0.000000 0.000000 0.498230
0.195343 0.000000 0.500214
0.356689 0.000000 0.502991
0.507568 0.000000 0.504761
0.653198 0.000000 0.506134
0.792999 0.000000 0.507385
0.924164 0.000000 0.508423
1.000000 0.000000 0.509430
0.000000 0.086761 0.500122
0.002289 0.084717 0.500305
0.206543 0.076660 0.501160
0.362366 0.051941 0.503967
0.510803 0.016632 0.505554
0.654846 0.001617 0.506683
0.793671 0.000000 0.507751
0.924072 0.000061 0.508667
1.000000 0.009033 0.509552
0.000000 0.218781 0.505951
0.003784 0.218903 0.506012
0.219757 0.221527 0.502563
0.369751 0.219086 0.504944
0.515167 0.214813 0.506775
0.657501 0.210907 0.507660
0.794891 0.208649 0.508392
0.923981 0.212830 0.509003
1.000000 0.229034 0.509644
0.000000 0.367401 0.510315
0.000000 0.367462 0.510223
0.216187 0.367950 0.508209
0.374573 0.369720 0.505615
0.518372 0.368835 0.507751
0.659576 0.368347 0.508423
0.795319 0.369171 0.508789
0.922394 0.373322 0.509155
1.000000 0.383392 0.509644
0.000000 0.516541 0.509949
0.000000 0.516479 0.509827
0.201447 0.516296 0.509521
0.370148 0.515900 0.508972
0.520599 0.515167 0.508270
0.660492 0.515381 0.508606
0.794006 0.516510 0.508820
0.918396 0.519836 0.509155
1.000000 0.526642 0.509674
0.000000 0.660156 0.507721
0.000000 0.660004 0.507599
0.189148 0.660461 0.506989
0.363434 0.661133 0.505402
0.517273 0.661438 0.502045
0.663300 0.656982 0.503754
0.795013 0.655487 0.505737
0.915741 0.656677 0.507324
1.000000 0.660339 0.508423
0.000000 0.793182 0.505585
0.000000 0.793243 0.505219
0.202332 0.794373 0.503510
0.369293 0.795319 0.500641
0.520996 0.794556 0.497437
0.665161 0.789001 0.499786
0.795471 0.785309 0.501862
0.914429 0.783508 0.504120
1.000000 0.783600 0.506531
0.007599 0.912323 0.505127
0.116486 0.912842 0.504181
0.261810 0.913544 0.502106
0.400726 0.914001 0.498932
0.539703 0.912109 0.496948
0.674347 0.906830 0.499359
0.798279 0.901703 0.503418
0.913757 0.898956 0.505188
1.000000 0.897217 0.507385
0.206970 1.000000 0.506775
0.251953 1.000000 0.505920
0.337921 1.000000 0.504059
0.447327 1.000000 0.501495
0.567505 1.000000 0.500916
0.688293 1.000000 0.503326
0.804169 1.000000 0.507416
0.914581 1.000000 0.511414
1.000000 1.000000 0.513153
0.000000 0.000000 0.637695
0.000000 0.000000 0.637878
0.197693 0.000000 0.639404
0.361450 0.000000 0.642029
0.511719 0.000000 0.644165
0.656219 0.000000 0.645416
0.794220 0.000000 0.646332
0.923340 0.000000 0.647186
1.000000 0.000000 0.647919
0.000000 0.083374 0.639038
0.000610 0.080414 0.639160
0.209076 0.070648 0.639984
0.366760 0.045746 0.642639
0.514618 0.011261 0.644684
0.657654 0.001556 0.645721
0.794708 0.000000 0.646515
0.923157 0.001251 0.647308
1.000000 0.030029 0.647980
0.000000 0.221130 0.643860
0.003174 0.220978 0.643921
0.223358 0.223694 0.640656
0.374298 0.221466 0.642578
0.518616 0.216675 0.645050
0.659729 0.212799 0.646240
0.795319 0.212006 0.646942
0.922485 0.217712 0.647583
1.000000 0.235046 0.648102
0.000000 0.368225 0.648651
0.000153 0.368256 0.648621
0.223785 0.369965 0.645203
0.379913 0.372253 0.642761
0.521729 0.371307 0.645111
0.661102 0.370453 0.646606
0.795013 0.371704 0.647217
0.920319 0.376312 0.647644
1.000000 0.386932 0.648041
0.000000 0.515717 0.650391
0.000000 0.515656 0.650269
0.210785 0.515564 0.649170
0.377716 0.515717 0.647278
0.524445 0.517303 0.644775
0.661285 0.516998 0.646729
0.793243 0.518097 0.647217
0.916046 0.521637 0.647461
1.000000 0.528717 0.647736
0.000000 0.658325 0.648804
0.000000 0.658173 0.648682
0.205078 0.657806 0.648438
0.373718 0.657166 0.648010
0.522217 0.656250 0.647400
0.661987 0.655334 0.646698
0.790710 0.655823 0.647064
0.910339 0.657959 0.647339
1.000000 0.662079 0.647766
0.000000 0.789795 0.647186
0.012054 0.789673 0.647095
0.225800 0.789520 0.646790
0.381561 0.789124 0.646179
0.523834 0.788940 0.644684
0.661682 0.788147 0.641785
0.792206 0.783813 0.643524
0.909058 0.782501 0.645508
1.000000 0.783417 0.647034
0.054596 0.907410 0.647034
0.156921 0.907501 0.646759
0.280670 0.907562 0.646088
0.409790 0.907562 0.644714
0.539368 0.907593 0.642212
0.669128 0.906006 0.639740
0.794098 0.900787 0.641968
0.909180 0.897614 0.643799
1.000000 0.895996 0.645599
0.229980 1.000000 0.647766
0.270050 1.000000 0.647369
0.349030 1.000000 0.646362
0.451294 1.000000 0.644501
0.563873 1.000000 0.641785
0.681641 1.000000 0.640137
0.798645 1.000000 0.642059
0.909790 1.000000 0.645386
1.000000 1.000000 0.646790
0.000000 0.000000 0.766968
0.002563 0.000000 0.767090
0.217468 0.000000 0.768433
0.374084 0.000000 0.770691
0.520630 0.000000 0.772766
0.662170 0.000000 0.774200
0.797485 0.000000 0.774841
0.923706 0.000000 0.775269
1.000000 0.000000 0.775635
0.000000 0.076202 0.767700
0.018799 0.072876 0.767761
0.227173 0.061920 0.768799
0.378784 0.038452 0.771057
0.523102 0.008209 0.773010
0.663391 0.001587 0.774292
0.797791 0.000610 0.774872
0.923370 0.003448 0.775269
1.000000 0.053040 0.775604
0.000000 0.223145 0.771545
0.043030 0.222961 0.771515
0.240845 0.225708 0.768616
0.386169 0.223572 0.770203
0.526855 0.219299 0.772491
0.665039 0.215057 0.774200
0.798004 0.215393 0.774811
0.922272 0.223450 0.775146
1.000000 0.242371 0.775421
0.000000 0.369873 0.775818
0.033173 0.369995 0.775635
0.244476 0.372711 0.771484
0.392181 0.374817 0.769623
0.530151 0.374237 0.771545
0.666016 0.373016 0.773651
0.797058 0.374481 0.774414
0.919434 0.380219 0.774719
1.000000 0.391541 0.774902
0.000000 0.515686 0.778015
0.009644 0.515656 0.777863
0.236877 0.516296 0.775421
0.392517 0.517609 0.772461
0.533112 0.519653 0.770355
0.665833 0.519470 0.772491
0.794403 0.520477 0.773590
0.914459 0.524475 0.773895
1.000000 0.531830 0.774017
0.000000 0.657227 0.777161
0.007050 0.657074 0.777008
0.229919 0.656708 0.776306
0.387878 0.656158 0.775208
0.532166 0.655884 0.773346
0.666443 0.657288 0.770996
0.790894 0.657471 0.772614
0.908356 0.659637 0.772919
1.000000 0.663849 0.773041
0.000000 0.787872 0.774536
0.075134 0.787659 0.774414
0.252411 0.787048 0.774231
0.397430 0.786072 0.773865
0.534851 0.784760 0.773376
0.666107 0.783325 0.772766
0.790161 0.782257 0.772095
0.904053 0.782806 0.772461
1.000000 0.784454 0.772705
0.134369 0.903992 0.773071
0.201263 0.903778 0.773010
0.306641 0.903290 0.772827
0.426636 0.902496 0.772461
0.549500 0.901550 0.771790
0.670410 0.901001 0.770325
0.790131 0.900024 0.767883
0.905487 0.896240 0.769348
1.000000 0.894989 0.770935
0.261230 1.000000 0.772491
0.296509 1.000000 0.772369
0.368408 1.000000 0.771973
0.463928 1.000000 0.771240
0.570099 1.000000 0.769897
0.680176 1.000000 0.767548
0.793335 1.000000 0.765320
0.905731 1.000000 0.767029
1.000000 1.000000 0.768463
0.001709 0.000000 0.882080
0.115143 0.000000 0.882202
0.261078 0.000000 0.883636
0.400299 0.000000 0.885498
0.538330 0.000000 0.887329
0.674072 0.000000 0.888733
0.804871 0.000000 0.889496
0.926971 0.000000 0.889618
1.000000 0.000000 0.889679
0.006470 0.066620 0.882385
0.132111 0.063629 0.882416
0.268127 0.051239 0.883820
0.404114 0.031036 0.885651
0.540375 0.006531 0.887390
0.674988 0.002289 0.888702
0.805023 0.001831 0.889404
0.926483 0.008911 0.889496
1.000000 0.075012 0.889465
0.017548 0.225067 0.885468
0.149384 0.226776 0.883759
0.279724 0.227692 0.882843
0.410767 0.225525 0.884277
0.543732 0.222015 0.886261
0.676270 0.218719 0.887970
0.804779 0.219482 0.888916
0.924988 0.229797 0.889038
1.000000 0.250458 0.889008
0.011993 0.371918 0.889130
0.151093 0.373505 0.886902
0.285522 0.375977 0.883911
0.416534 0.377441 0.883057
0.546814 0.377075 0.884674
0.676788 0.376373 0.886658
0.803192 0.377747 0.887939
0.921600 0.384460 0.888123
1.000000 0.396790 0.888092
0.005737 0.516418 0.891266
0.140594 0.517090 0.889709
0.282166 0.518250 0.887146
0.418396 0.520203 0.884125
0.549377 0.522095 0.882782
0.676270 0.522400 0.884583
0.799744 0.523285 0.886292
0.915924 0.527710 0.886658
1.000000 0.535675 0.886658
0.005829 0.656525 0.890869
0.133575 0.656525 0.890106
0.277527 0.656464 0.888855
0.415497 0.656586 0.886932
0.549622 0.657501 0.884155
0.676361 0.659363 0.882263
0.795349 0.659882 0.884186
0.909088 0.662079 0.884979
1.000000 0.666504 0.885101
0.068146 0.786377 0.888428
0.167694 0.786163 0.888275
0.290924 0.785583 0.887848
0.420441 0.784668 0.887177
0.549988 0.783539 0.886108
0.676086 0.782837 0.884399
0.793945 0.783936 0.882355
0.904144 0.784210 0.883759
1.000000 0.785828 0.884033
0.200806 0.901794 0.885895
0.249176 0.901550 0.885834
0.338043 0.900909 0.885651
0.447418 0.899841 0.885376
0.563629 0.898468 0.884949
0.679901 0.897034 0.884460
0.793488 0.895782 0.883942
0.903809 0.894867 0.883301
1.000000 0.895142 0.883667
0.298981 1.000000 0.884338
0.329559 1.000000 0.884277
0.393860 1.000000 0.884155
0.482330 1.000000 0.883881
0.582855 1.000000 0.883484
0.688019 1.000000 0.882751
0.794159 1.000000 0.881287
0.902649 1.000000 0.878998
1.000000 1.000000 0.880219
0.163574 0.000000 0.987335
0.220612 0.000000 0.987885
0.319702 0.000000 0.989014
0.438416 0.000000 0.990540
0.564606 0.000000 0.992126
0.692017 0.000000 0.993469
0.816284 0.000000 0.994293
0.933136 0.000000 0.994598
1.000000 0.000000 0.994446
0.174316 0.056793 0.987457
0.228424 0.052582 0.987976
0.324402 0.042694 0.989075
0.441223 0.025238 0.990570
0.566040 0.006409 0.992065
0.692596 0.003510 0.993347
0.816193 0.004089 0.994141
0.932465 0.032654 0.994385
1.000000 0.099579 0.994232
0.188843 0.229736 0.987640
0.240936 0.230316 0.987213
0.333313 0.229614 0.987640
0.446625 0.227753 0.988953
0.568787 0.225067 0.990692
0.693390 0.223328 0.992279
0.815430 0.225861 0.993378
0.930573 0.237244 0.993805
1.000000 0.259338 0.993622
0.191467 0.376678 0.990082
0.245392 0.377777 0.988861
0.339630 0.379517 0.987244
0.451477 0.380249 0.987335
0.571167 0.380066 0.988800
0.693268 0.380188 0.990601
0.813110 0.382385 0.992004
0.926636 0.389282 0.992645
1.000000 0.402405 0.992523
0.184967 0.519073 0.992828
0.241119 0.519684 0.991699
0.338562 0.521118 0.989532
0.453796 0.523224 0.987091
0.572693 0.524811 0.986633
0.691895 0.525543 0.988190
0.808716 0.527100 0.989929
0.920319 0.531342 0.990906
1.000000 0.539673 0.990936
0.179657 0.656860 0.994019
0.236542 0.657013 0.993317
0.335022 0.657349 0.991821
0.451599 0.658142 0.989532
0.572815 0.659821 0.986755
0.690613 0.661774 0.985626
0.803467 0.662842 0.987305
0.912811 0.664825 0.988800
1.000000 0.669373 0.989105
0.202545 0.785065 0.993195
0.252106 0.784912 0.992920
0.342865 0.784546 0.992218
0.454407 0.783966 0.991028
0.572601 0.783630 0.989227
0.690063 0.784241 0.986725
0.801300 0.785889 0.985138
0.907288 0.786285 0.986938
1.000000 0.787842 0.987762
0.263977 0.899994 0.991516
0.300476 0.899780 0.991394
0.374359 0.899170 0.991180
0.472046 0.898224 0.990723
0.579987 0.897034 0.990051
0.690735 0.895905 0.989105
0.800751 0.895416 0.987579
0.906555 0.896362 0.985870
1.000000 0.896362 0.987213
0.336426 1.000000 0.989655
0.362640 1.000000 0.989594
0.419891 1.000000 0.989471
0.501404 1.000000 0.989227
0.596497 1.000000 0.988922
0.697876 1.000000 0.988556
0.801331 1.000000 0.988098
0.905243 1.000000 0.987610
1.000000 1.000000 0.991760
