滤镜资源/Professional Luts Collection/Lutify.me Professional/Contemporary Color Films/Chalcedony.cube
# Created by: Lutify.me
# Copyright: (c) Copyright Lutify.me 2015
# Website: https://lutify.me
#LUT size
LUT_3D_SIZE 33
#LUT data points
0.000000 0.000000 0.000000
0.040710 0.000000 0.003540
0.076874 0.000000 0.010040
0.110535 0.000000 0.016937
0.144226 0.000000 0.025208
0.176819 0.000000 0.035004
0.208618 0.000000 0.044861
0.240417 0.000275 0.053131
0.272522 0.003204 0.061493
0.304047 0.008789 0.069336
0.335052 0.016754 0.075623
0.365143 0.027252 0.081726
0.394409 0.040405 0.087341
0.422821 0.054626 0.092499
0.450348 0.068939 0.097595
0.477112 0.083069 0.102417
0.503082 0.097015 0.106750
0.528381 0.110596 0.110992
0.553070 0.123871 0.115173
0.577271 0.136871 0.119080
0.601044 0.149597 0.123016
0.624512 0.162109 0.126801
0.647858 0.174072 0.130280
0.671143 0.185760 0.133850
0.694489 0.196960 0.137421
0.718140 0.207733 0.140411
0.742157 0.217957 0.143707
0.766754 0.227631 0.146667
0.792145 0.236603 0.149475
0.818390 0.244995 0.152130
0.845703 0.252655 0.154327
0.874390 0.259430 0.156494
0.904480 0.265228 0.158356
0.001526 0.028717 0.036835
0.031403 0.025604 0.031342
0.063293 0.025604 0.033081
0.098022 0.027069 0.040497
0.132568 0.027893 0.047211
0.166504 0.029358 0.054230
0.201019 0.031403 0.060547
0.234833 0.034729 0.067322
0.267670 0.039459 0.073822
0.300049 0.045654 0.079285
0.331482 0.053284 0.084747
0.362000 0.062042 0.089783
0.391602 0.071533 0.094574
0.420319 0.082062 0.099030
0.448181 0.093048 0.103058
0.475189 0.104309 0.107178
0.501343 0.115692 0.111145
0.526825 0.127350 0.114929
0.551636 0.139099 0.118805
0.575989 0.150574 0.122528
0.599945 0.162048 0.125977
0.623505 0.173370 0.129517
0.646912 0.184448 0.133026
0.670319 0.195343 0.136261
0.693787 0.205811 0.139404
0.717499 0.215973 0.142609
0.741608 0.225647 0.145630
0.766296 0.234772 0.148407
0.791687 0.243408 0.151123
0.818054 0.251495 0.153473
0.845490 0.258759 0.155853
0.874207 0.265198 0.157715
0.904419 0.270721 0.159546
0.004181 0.059540 0.067535
0.034973 0.055389 0.062775
0.063721 0.053101 0.059814
0.093079 0.052856 0.062683
0.126099 0.055237 0.066528
0.160797 0.058472 0.070587
0.195526 0.061859 0.075653
0.229767 0.065704 0.080627
0.263428 0.070526 0.085022
0.296143 0.075775 0.089600
0.327942 0.081970 0.094055
0.358795 0.089203 0.098053
0.388733 0.096893 0.101868
0.417786 0.105286 0.105408
0.445923 0.114410 0.108795
0.473145 0.123932 0.112305
0.499512 0.133850 0.115875
0.525177 0.143921 0.119171
0.550232 0.154175 0.122498
0.574677 0.164581 0.125916
0.598724 0.174927 0.129211
0.622437 0.185272 0.132507
0.645966 0.195526 0.135834
0.669464 0.205536 0.138947
0.693024 0.215363 0.141937
0.716827 0.224854 0.144928
0.741028 0.233948 0.147614
0.765808 0.242645 0.150360
0.791351 0.250824 0.152924
0.817719 0.258484 0.155243
0.845276 0.265350 0.157471
0.874023 0.271484 0.159210
0.904327 0.276703 0.160828
0.008911 0.091766 0.097778
0.042358 0.088837 0.092682
0.069183 0.086182 0.088318
0.094360 0.082031 0.085175
0.121948 0.081696 0.085388
0.156219 0.085846 0.089020
0.190826 0.090454 0.092651
0.225189 0.095184 0.095581
0.258850 0.100128 0.098969
0.291901 0.105255 0.102295
0.324158 0.110870 0.104889
0.355347 0.117096 0.107849
0.385559 0.123749 0.110748
0.414825 0.130981 0.113525
0.443176 0.138641 0.116364
0.470642 0.146667 0.119110
0.497253 0.155090 0.121979
0.523102 0.163818 0.125031
0.548309 0.172791 0.127960
0.572937 0.181976 0.130798
0.597137 0.191193 0.133728
0.621033 0.200439 0.136597
0.644684 0.209686 0.139465
0.668335 0.218842 0.142334
0.692017 0.227844 0.145172
0.715912 0.236633 0.147949
0.740234 0.245026 0.150604
0.765167 0.253143 0.153107
0.790741 0.260803 0.155396
0.817261 0.267914 0.157745
0.844910 0.274323 0.159576
0.873810 0.280182 0.161499
0.904205 0.285034 0.162872
0.018402 0.126221 0.124817
0.051270 0.123901 0.120392
0.077362 0.120697 0.115051
0.101776 0.116028 0.108917
0.127625 0.113464 0.107788
0.154175 0.112976 0.107513
0.187683 0.118042 0.110077
0.221588 0.123322 0.111938
0.255157 0.128723 0.113953
0.288147 0.134094 0.115906
0.320435 0.139679 0.117645
0.351776 0.145355 0.119476
0.382172 0.151428 0.121338
0.411682 0.157776 0.123260
0.440247 0.164429 0.125427
0.467865 0.171478 0.127502
0.494629 0.178772 0.129608
0.520660 0.186340 0.132050
0.546051 0.194153 0.134491
0.570892 0.202148 0.136871
0.595276 0.210327 0.139404
0.619293 0.218567 0.141876
0.643127 0.226837 0.144409
0.666901 0.235077 0.146912
0.690735 0.243225 0.149414
0.714783 0.251190 0.151886
0.739258 0.258881 0.154358
0.764343 0.266327 0.156555
0.790039 0.273254 0.158691
0.816742 0.279846 0.160828
0.844482 0.285767 0.162476
0.873535 0.291077 0.164154
0.904083 0.295624 0.165558
0.033875 0.159149 0.146179
0.063110 0.156158 0.141327
0.085907 0.152954 0.135590
0.109558 0.148926 0.129913
0.136261 0.148285 0.127991
0.162292 0.147003 0.128235
0.187500 0.145508 0.126648
0.219910 0.150970 0.128113
0.252838 0.156555 0.129211
0.285400 0.162201 0.130096
0.317474 0.167786 0.131042
0.348663 0.173462 0.132019
0.379028 0.179138 0.133179
0.408569 0.184967 0.134277
0.437256 0.190979 0.135498
0.465027 0.197266 0.136993
0.491913 0.203766 0.138489
0.518097 0.210388 0.140167
0.543640 0.217255 0.142120
0.568634 0.224304 0.144073
0.593170 0.231567 0.146057
0.617371 0.238831 0.148193
0.641357 0.246155 0.150360
0.665283 0.253479 0.152527
0.689301 0.260773 0.154724
0.713531 0.267914 0.156830
0.738129 0.274933 0.158813
0.763367 0.281616 0.160889
0.789307 0.287903 0.162842
0.816132 0.293915 0.164490
0.844055 0.299286 0.166107
0.873291 0.304108 0.167511
0.903992 0.308197 0.168610
0.053436 0.189087 0.161316
0.076782 0.186615 0.157043
0.096344 0.184021 0.152527
0.118011 0.180481 0.146942
0.143524 0.180084 0.144714
0.171417 0.181732 0.145294
0.197571 0.181183 0.145508
0.220703 0.178680 0.143555
0.252197 0.184326 0.144196
0.284058 0.189941 0.144440
0.315460 0.195526 0.144714
0.346375 0.201141 0.144958
0.376495 0.206696 0.145386
0.405884 0.212219 0.145905
0.434479 0.217834 0.146606
0.462280 0.223511 0.147339
0.489258 0.229340 0.148285
0.515533 0.235321 0.149323
0.541199 0.241425 0.150696
0.566315 0.247650 0.152191
0.590973 0.254059 0.153656
0.615326 0.260529 0.155334
0.639465 0.267059 0.157166
0.663574 0.273590 0.158966
0.687744 0.280090 0.160767
0.712158 0.286469 0.162628
0.736969 0.292725 0.164337
0.762360 0.298767 0.166016
0.788483 0.304474 0.167633
0.815491 0.309845 0.169098
0.843628 0.314636 0.170349
0.873077 0.319031 0.171570
0.903931 0.322571 0.172485
0.073425 0.217682 0.172882
0.091827 0.215607 0.169312
0.108734 0.213440 0.165619
0.128052 0.210571 0.160950
0.152100 0.211487 0.159363
0.178864 0.213379 0.159210
0.206390 0.215210 0.160095
0.232574 0.215302 0.160889
0.253815 0.211853 0.158356
0.284210 0.217224 0.158417
0.314880 0.222839 0.158234
0.345093 0.228302 0.158020
0.374878 0.233673 0.157745
0.403900 0.239014 0.157776
0.432312 0.244324 0.157867
0.459961 0.249634 0.158173
0.486908 0.255005 0.158600
0.513184 0.260437 0.159241
0.538879 0.265961 0.160004
0.564056 0.271576 0.161041
0.588806 0.277313 0.162170
0.613281 0.283081 0.163391
0.637543 0.288910 0.164703
0.661804 0.294769 0.166107
0.686157 0.300537 0.167542
0.710724 0.306244 0.169067
0.735718 0.311859 0.170441
0.761322 0.317291 0.171783
0.787659 0.322357 0.173157
0.814911 0.327148 0.174347
0.843262 0.331451 0.175354
0.872894 0.335297 0.176147
0.903992 0.338440 0.176788
0.093201 0.245239 0.182495
0.107819 0.243591 0.179871
0.121979 0.241699 0.176483
0.140106 0.240631 0.173798
0.162476 0.242249 0.172760
0.187622 0.244354 0.172119
0.213928 0.246460 0.172272
0.240692 0.248138 0.173218
0.266785 0.248993 0.174500
0.286438 0.244659 0.171661
0.315613 0.249664 0.171356
0.345062 0.255005 0.170868
0.374176 0.260284 0.170349
0.402771 0.265411 0.169769
0.430786 0.270477 0.169434
0.458221 0.275513 0.169342
0.484985 0.280518 0.169342
0.511169 0.285553 0.169495
0.536804 0.290619 0.169861
0.561981 0.295746 0.170441
0.586792 0.300934 0.171173
0.611359 0.306122 0.171997
0.635742 0.311371 0.172943
0.660156 0.316589 0.173920
0.684631 0.321777 0.175018
0.709412 0.326904 0.176147
0.734589 0.331940 0.177124
0.760376 0.336761 0.178131
0.786896 0.341309 0.179169
0.814392 0.345551 0.180054
0.842957 0.349457 0.180756
0.872833 0.352814 0.181305
0.904205 0.355499 0.181641
0.112457 0.271942 0.191132
0.124390 0.270477 0.188751
0.136993 0.269806 0.186859
0.153900 0.270782 0.185791
0.174591 0.272491 0.185028
0.197571 0.274689 0.184357
0.222412 0.276703 0.183990
0.248108 0.278656 0.184113
0.274139 0.280304 0.184998
0.299774 0.281616 0.186707
0.318817 0.277344 0.184052
0.346252 0.281433 0.183258
0.374481 0.286438 0.182556
0.402466 0.291382 0.181915
0.430054 0.296234 0.181213
0.457092 0.301056 0.180725
0.483582 0.305756 0.180328
0.509583 0.310486 0.180145
0.535095 0.315186 0.180176
0.560242 0.319885 0.180298
0.585052 0.324646 0.180603
0.609680 0.329346 0.181000
0.634125 0.334106 0.181580
0.658630 0.338837 0.182220
0.683289 0.343506 0.182922
0.708191 0.348145 0.183655
0.733582 0.352661 0.184418
0.759552 0.356995 0.185059
0.786316 0.361084 0.185669
0.814026 0.364868 0.186340
0.842834 0.368317 0.186707
0.872986 0.371277 0.187012
0.904572 0.373657 0.187134
0.131531 0.298096 0.199310
0.142456 0.298340 0.198364
0.153992 0.298981 0.197693
0.169250 0.300354 0.197113
0.187805 0.302124 0.196442
0.208893 0.304138 0.195770
0.231903 0.306213 0.195129
0.256256 0.308136 0.194763
0.281281 0.309937 0.194977
0.306427 0.311523 0.195923
0.331421 0.312897 0.197693
0.350464 0.309296 0.195526
0.376038 0.312347 0.194397
0.403137 0.316956 0.193604
0.430084 0.321564 0.192780
0.456665 0.326111 0.192047
0.482788 0.330658 0.191467
0.508514 0.335083 0.190918
0.533844 0.339508 0.190582
0.558868 0.343872 0.190399
0.583649 0.348236 0.190338
0.608246 0.352631 0.190399
0.632751 0.356964 0.190613
0.657349 0.361298 0.190948
0.682129 0.365540 0.191315
0.707214 0.369720 0.191681
0.732758 0.373779 0.192047
0.758942 0.377716 0.192444
0.785919 0.381378 0.192810
0.813873 0.384796 0.193085
0.842926 0.387878 0.193176
0.873352 0.390442 0.193085
0.905212 0.392548 0.192902
0.152100 0.326233 0.209015
0.161652 0.327087 0.208710
0.171875 0.328033 0.208344
0.185394 0.329315 0.207855
0.201996 0.330933 0.207214
0.221222 0.332764 0.206512
0.242493 0.334717 0.205750
0.265228 0.336639 0.205231
0.289001 0.338470 0.204956
0.313324 0.340149 0.205170
0.337738 0.341644 0.206055
0.361877 0.343018 0.207764
0.381134 0.340240 0.206299
0.404938 0.342194 0.204987
0.431030 0.346436 0.204132
0.457001 0.350769 0.203217
0.482666 0.355042 0.202423
0.508026 0.359283 0.201721
0.533142 0.363434 0.201080
0.557983 0.367554 0.200592
0.582642 0.371613 0.200256
0.607208 0.375671 0.200073
0.631744 0.379700 0.199921
0.656372 0.383698 0.199921
0.681274 0.387634 0.199982
0.706482 0.391449 0.200043
0.732208 0.395172 0.200104
0.758575 0.398743 0.200165
0.785767 0.402069 0.200226
0.813965 0.405151 0.200073
0.843262 0.407867 0.199921
0.873962 0.410187 0.199615
0.906128 0.411957 0.199097
0.172943 0.354767 0.219025
0.181152 0.355530 0.218842
0.190216 0.356354 0.218475
0.201996 0.357483 0.218079
0.217041 0.358887 0.217438
0.234467 0.360565 0.216705
0.253998 0.362366 0.215973
0.275208 0.364227 0.215271
0.297516 0.366089 0.214783
0.320679 0.367798 0.214600
0.344299 0.369385 0.214874
0.367889 0.370789 0.215820
0.391266 0.372101 0.217438
0.410828 0.370117 0.216583
0.433044 0.371124 0.215149
0.458130 0.375000 0.214172
0.483276 0.379089 0.213257
0.508209 0.383087 0.212402
0.532990 0.387024 0.211609
0.557648 0.390930 0.210938
0.582123 0.394775 0.210327
0.606598 0.398590 0.209839
0.631104 0.402344 0.209473
0.655762 0.406067 0.209167
0.680725 0.409698 0.208893
0.706055 0.413269 0.208618
0.731934 0.416687 0.208374
0.758514 0.419952 0.208160
0.785950 0.423004 0.207855
0.814362 0.425812 0.207458
0.843933 0.428314 0.206940
0.874908 0.430328 0.206299
0.907379 0.431915 0.205536
0.193329 0.382446 0.228577
0.200562 0.383087 0.228424
0.208527 0.383789 0.228119
0.219055 0.384796 0.227814
0.232452 0.386047 0.227264
0.248291 0.387573 0.226501
0.266235 0.389252 0.225769
0.285858 0.390991 0.225037
0.306824 0.392792 0.224365
0.328735 0.394501 0.223938
0.351288 0.396149 0.223846
0.374146 0.397614 0.224243
0.397064 0.398987 0.225128
0.419769 0.400238 0.226746
0.439636 0.399048 0.226410
0.460358 0.399200 0.224854
0.484619 0.402740 0.223877
0.509094 0.406586 0.222931
0.533508 0.410339 0.222015
0.557831 0.414032 0.221161
0.582123 0.417664 0.220398
0.606445 0.421295 0.219604
0.630920 0.424835 0.218994
0.655579 0.428345 0.218475
0.680573 0.431763 0.217926
0.706024 0.435089 0.217377
0.732025 0.438263 0.216797
0.758789 0.441315 0.216309
0.786438 0.444153 0.215698
0.815094 0.446716 0.215057
0.844940 0.449005 0.214233
0.876221 0.450836 0.213226
0.908966 0.452240 0.212189
0.213348 0.409332 0.237793
0.219696 0.409882 0.237579
0.226746 0.410522 0.237427
0.236176 0.411377 0.237091
0.248230 0.412476 0.236572
0.262573 0.413818 0.235931
0.278992 0.415405 0.235229
0.297150 0.417053 0.234436
0.316742 0.418732 0.233734
0.337372 0.420441 0.233154
0.358856 0.422119 0.232727
0.380798 0.423645 0.232758
0.403046 0.425049 0.233124
0.425293 0.426361 0.234131
0.447418 0.427582 0.235657
0.467621 0.427216 0.235870
0.487030 0.426514 0.234161
0.510620 0.429779 0.233246
0.534576 0.433380 0.232239
0.558594 0.436890 0.231262
0.582642 0.440369 0.230347
0.606812 0.443817 0.229401
0.631195 0.447235 0.228516
0.655853 0.450562 0.227753
0.680847 0.453796 0.226990
0.706360 0.456940 0.226196
0.732513 0.459930 0.225403
0.759430 0.462799 0.224548
0.787262 0.465454 0.223724
0.816193 0.467865 0.222748
0.846313 0.469940 0.221619
0.877869 0.471680 0.220367
0.910950 0.472961 0.218994
0.232880 0.435455 0.246765
0.238525 0.435974 0.246552
0.244781 0.436493 0.246368
0.253265 0.437286 0.246033
0.264130 0.438232 0.245605
0.277161 0.439484 0.245056
0.292236 0.440887 0.244354
0.308929 0.442474 0.243652
0.327179 0.444061 0.242828
0.346588 0.445709 0.242188
0.366943 0.447357 0.241669
0.387909 0.448944 0.241333
0.409332 0.450409 0.241364
0.431030 0.451782 0.241791
0.452698 0.453064 0.242767
0.474274 0.454254 0.244232
0.494965 0.454742 0.244934
0.513184 0.453186 0.243134
0.536285 0.456238 0.242157
0.559937 0.459595 0.241089
0.583710 0.462921 0.240021
0.607727 0.466248 0.239044
0.631927 0.469513 0.237976
0.656525 0.472687 0.236969
0.681549 0.475800 0.236023
0.707153 0.478790 0.234985
0.733398 0.481720 0.233948
0.760468 0.484436 0.232849
0.788513 0.486938 0.231720
0.817657 0.489227 0.230469
0.848083 0.491211 0.229034
0.879944 0.492828 0.227539
0.913330 0.494049 0.225830
0.251831 0.460968 0.255371
0.256897 0.461395 0.255249
0.262451 0.461884 0.255035
0.270081 0.462585 0.254730
0.279938 0.463470 0.254333
0.291779 0.464569 0.253815
0.305603 0.465881 0.253174
0.321075 0.467316 0.252502
0.337982 0.468872 0.251770
0.356232 0.470459 0.251007
0.375488 0.472076 0.250366
0.395477 0.473633 0.249847
0.416016 0.475159 0.249634
0.436951 0.476624 0.249634
0.458160 0.477966 0.250122
0.479340 0.479187 0.251068
0.500519 0.480377 0.252533
0.521576 0.481476 0.253571
0.538971 0.479340 0.251709
0.561829 0.482208 0.250671
0.585297 0.485413 0.249573
0.609070 0.488586 0.248444
0.633148 0.491760 0.247284
0.657684 0.494843 0.246124
0.682709 0.497833 0.244934
0.708313 0.500732 0.243713
0.734680 0.503540 0.242401
0.761932 0.506195 0.241089
0.790192 0.508636 0.239685
0.819550 0.510834 0.238159
0.850250 0.512787 0.236450
0.882416 0.514313 0.234650
0.916138 0.515472 0.232635
0.270172 0.486023 0.263672
0.274719 0.486420 0.263580
0.279694 0.486877 0.263397
0.286560 0.487488 0.263184
0.295471 0.488312 0.262756
0.306335 0.489319 0.262268
0.319031 0.490509 0.261719
0.333344 0.491852 0.261047
0.349091 0.493286 0.260315
0.366150 0.494843 0.259552
0.384338 0.496429 0.258850
0.403320 0.498016 0.258179
0.423004 0.499542 0.257751
0.443176 0.501007 0.257538
0.463776 0.502441 0.257568
0.484558 0.503784 0.258057
0.505402 0.505035 0.259003
0.526276 0.506226 0.260437
0.547424 0.507507 0.261566
0.564636 0.505219 0.259888
0.587402 0.507965 0.258789
0.610901 0.511047 0.257629
0.634827 0.514099 0.256378
0.659241 0.517090 0.255066
0.684265 0.520050 0.253723
0.709930 0.522888 0.252289
0.736389 0.525635 0.250793
0.763794 0.528229 0.249237
0.792236 0.530640 0.247589
0.821838 0.532806 0.245789
0.852814 0.534729 0.243805
0.885284 0.536255 0.241699
0.919312 0.537384 0.239410
0.287781 0.510864 0.271698
0.291779 0.511200 0.271637
0.296356 0.511597 0.271454
0.302582 0.512177 0.271240
0.310730 0.512909 0.270874
0.320679 0.513824 0.270416
0.332367 0.514923 0.269928
0.345612 0.516205 0.269257
0.360321 0.517578 0.268555
0.376282 0.519073 0.267792
0.393402 0.520599 0.267059
0.411407 0.522186 0.266327
0.430206 0.523743 0.265747
0.449615 0.525269 0.265320
0.469574 0.526733 0.265106
0.489868 0.528198 0.265198
0.510376 0.529510 0.265594
0.531006 0.530792 0.266510
0.551849 0.532013 0.267883
0.572937 0.533325 0.268951
0.590424 0.531128 0.267609
0.613251 0.533691 0.266418
0.636932 0.536682 0.265076
0.661285 0.539642 0.263763
0.686218 0.542542 0.262207
0.711914 0.545349 0.260620
0.738495 0.548065 0.258972
0.766052 0.550659 0.257202
0.794647 0.553040 0.255280
0.824524 0.555237 0.253235
0.855774 0.557129 0.251038
0.888550 0.558685 0.248657
0.922913 0.559875 0.246063
0.304504 0.535583 0.279388
0.308136 0.535889 0.279297
0.312317 0.536255 0.279144
0.318024 0.536774 0.278931
0.325470 0.537476 0.278595
0.334625 0.538330 0.278198
0.345398 0.539368 0.277740
0.357697 0.540558 0.277130
0.371429 0.541870 0.276428
0.386444 0.543304 0.275696
0.402588 0.544800 0.274933
0.419647 0.546356 0.274170
0.437561 0.547943 0.273438
0.456268 0.549530 0.272858
0.475494 0.551056 0.272430
0.495239 0.552551 0.272217
0.515350 0.554016 0.272278
0.535767 0.555359 0.272644
0.556427 0.556671 0.273529
0.577271 0.557922 0.274780
0.598541 0.559296 0.275879
0.616760 0.557526 0.274811
0.639587 0.559723 0.273468
0.663696 0.562561 0.271973
0.688568 0.565430 0.270477
0.714294 0.568268 0.268707
0.740936 0.570953 0.266876
0.768646 0.573547 0.264893
0.797485 0.575989 0.262756
0.827576 0.578186 0.260468
0.859100 0.580139 0.257996
0.892151 0.581787 0.255432
0.926392 0.583008 0.253235
0.320343 0.560425 0.286713
0.323700 0.560699 0.286560
0.327484 0.561066 0.286438
0.332703 0.561523 0.286255
0.339569 0.562195 0.285950
0.348022 0.562988 0.285583
0.358032 0.563934 0.285156
0.369446 0.565063 0.284576
0.382324 0.566315 0.283966
0.396423 0.567688 0.283203
0.411652 0.569183 0.282440
0.427887 0.570709 0.281616
0.445007 0.572327 0.280853
0.462921 0.573944 0.280121
0.481537 0.575531 0.279541
0.500702 0.577148 0.279083
0.520355 0.578674 0.278839
0.540436 0.580139 0.278809
0.560913 0.581573 0.279205
0.581726 0.582947 0.279938
0.602783 0.584229 0.281128
0.624420 0.585632 0.282196
0.643890 0.584656 0.281464
0.666595 0.586212 0.279877
0.691284 0.588898 0.278229
0.717010 0.591736 0.276428
0.743744 0.594452 0.274414
0.771576 0.597107 0.272278
0.800598 0.599579 0.269928
0.830963 0.601868 0.267426
0.862793 0.603882 0.264679
0.895813 0.605591 0.262329
0.926086 0.606415 0.265991
0.335083 0.585571 0.293610
0.338226 0.585846 0.293457
0.341736 0.586182 0.293335
0.346527 0.586609 0.293182
0.352875 0.587219 0.292908
0.360718 0.587982 0.292572
0.370056 0.588898 0.292114
0.380768 0.589935 0.291626
0.392792 0.591156 0.290985
0.406097 0.592499 0.290283
0.420502 0.593964 0.289490
0.435944 0.595520 0.288696
0.452332 0.597107 0.287842
0.469543 0.598755 0.287018
0.487488 0.600433 0.286285
0.506134 0.602112 0.285645
0.525330 0.603760 0.285126
0.545044 0.605347 0.284821
0.565338 0.606903 0.284760
0.585999 0.608429 0.285034
0.607086 0.609833 0.285645
0.628632 0.611176 0.286804
0.650757 0.612640 0.287720
0.671783 0.612518 0.287415
0.694489 0.613403 0.285522
0.720001 0.615967 0.283630
0.746826 0.618774 0.281525
0.774811 0.621460 0.279236
0.804047 0.624023 0.276733
0.834625 0.626404 0.273987
0.866333 0.628418 0.271637
0.897614 0.629761 0.272095
0.920074 0.629486 0.287018
0.348694 0.611298 0.299927
0.351593 0.611572 0.299866
0.354858 0.611847 0.299744
0.359344 0.612274 0.299591
0.365265 0.612823 0.299347
0.372589 0.613525 0.299011
0.381317 0.614410 0.298584
0.391357 0.615417 0.298126
0.402710 0.616608 0.297516
0.415283 0.617920 0.296814
0.428955 0.619354 0.296082
0.443695 0.620911 0.295258
0.459381 0.622528 0.294403
0.475952 0.624207 0.293518
0.493317 0.625946 0.292633
0.511383 0.627686 0.291809
0.530151 0.629425 0.291077
0.549530 0.631165 0.290497
0.569519 0.632874 0.290100
0.590088 0.634521 0.289917
0.611176 0.636108 0.290070
0.632782 0.637634 0.290558
0.654968 0.639069 0.291595
0.677826 0.640564 0.292450
0.700623 0.641327 0.292480
0.723572 0.641541 0.290314
0.750153 0.644012 0.288055
0.778259 0.646820 0.285675
0.807709 0.649475 0.282990
0.838196 0.651825 0.280670
0.868805 0.653503 0.280212
0.894104 0.653290 0.289764
0.913361 0.652344 0.309052
0.361053 0.637817 0.305695
0.363739 0.638031 0.305634
0.366791 0.638336 0.305542
0.371033 0.638733 0.305389
0.376526 0.639282 0.305176
0.383392 0.639923 0.304871
0.391632 0.640778 0.304474
0.401123 0.641754 0.304047
0.411865 0.642883 0.303467
0.423798 0.644165 0.302765
0.436829 0.645599 0.302032
0.450928 0.647125 0.301239
0.466003 0.648773 0.300323
0.481964 0.650482 0.299408
0.498779 0.652283 0.298431
0.516357 0.654114 0.297485
0.534729 0.655975 0.296539
0.553772 0.657837 0.295715
0.573517 0.659698 0.295013
0.593872 0.661530 0.294495
0.614929 0.663269 0.294159
0.636627 0.664978 0.294159
0.659027 0.666595 0.294556
0.682007 0.668152 0.295349
0.705811 0.669708 0.296112
0.730377 0.671173 0.296387
0.753967 0.670837 0.293976
0.781921 0.673370 0.291473
0.811218 0.675903 0.289337
0.840729 0.677826 0.288818
0.867401 0.677979 0.294830
0.887634 0.676178 0.311890
0.906891 0.675110 0.330719
0.371918 0.665314 0.310760
0.374451 0.665527 0.310730
0.377258 0.665802 0.310669
0.381287 0.666168 0.310516
0.386475 0.666687 0.310333
0.392975 0.667328 0.310059
0.400757 0.668152 0.309692
0.409790 0.669098 0.309265
0.420013 0.670197 0.308716
0.431427 0.671478 0.308075
0.443970 0.672882 0.307343
0.457489 0.674438 0.306519
0.471985 0.676086 0.305603
0.487427 0.677856 0.304626
0.503784 0.679688 0.303558
0.520905 0.681610 0.302490
0.538849 0.683563 0.301422
0.557617 0.685547 0.300385
0.577087 0.687561 0.299438
0.597351 0.689575 0.298584
0.618347 0.691528 0.297882
0.640076 0.693451 0.297363
0.662598 0.695282 0.297150
0.685944 0.697052 0.297333
0.709991 0.698669 0.297882
0.734955 0.700348 0.298615
0.760895 0.701935 0.298767
0.785492 0.701324 0.297302
0.813538 0.702942 0.297058
0.840149 0.703247 0.301758
0.861328 0.700958 0.316650
0.881348 0.699005 0.333771
0.900635 0.697845 0.352264
0.381073 0.694061 0.315033
0.383484 0.694275 0.315002
0.386139 0.694550 0.314911
0.389923 0.694916 0.314850
0.394928 0.695374 0.314636
0.401123 0.696014 0.314392
0.408569 0.696777 0.314117
0.417145 0.697723 0.313721
0.426971 0.698822 0.313202
0.437958 0.700073 0.312531
0.450012 0.701447 0.311829
0.463043 0.703003 0.311005
0.477081 0.704712 0.310089
0.492065 0.706482 0.309082
0.508026 0.708405 0.307953
0.524811 0.710388 0.306763
0.542450 0.712463 0.305603
0.560913 0.714569 0.304382
0.580170 0.716736 0.303162
0.600281 0.718903 0.302002
0.621216 0.720947 0.301208
0.642883 0.722778 0.300995
0.665314 0.724518 0.300995
0.688568 0.726196 0.301361
0.712616 0.727753 0.302094
0.737366 0.729065 0.303619
0.763031 0.730438 0.305237
0.789856 0.731750 0.306305
0.813049 0.729279 0.309906
0.834778 0.726532 0.322632
0.855347 0.723877 0.338470
0.875336 0.721863 0.355408
0.894562 0.720612 0.373566
0.388123 0.724396 0.318451
0.390503 0.724548 0.318359
0.393127 0.724823 0.318298
0.396667 0.725159 0.318268
0.401459 0.725616 0.318115
0.407440 0.726227 0.317902
0.414673 0.726959 0.317596
0.423004 0.727844 0.317261
0.432587 0.728821 0.317017
0.443298 0.729950 0.316620
0.455078 0.731201 0.316162
0.467834 0.732605 0.315643
0.481567 0.734161 0.315002
0.496277 0.735809 0.314331
0.511841 0.737549 0.313599
0.528320 0.739441 0.312744
0.545624 0.741333 0.311981
0.563782 0.743317 0.311249
0.582733 0.745300 0.310516
0.602509 0.747345 0.309814
0.623077 0.749268 0.309387
0.644318 0.750763 0.309998
0.666077 0.751617 0.312195
0.688446 0.752350 0.314789
0.711365 0.752930 0.317810
