滤镜资源/Professional Luts Collection/Lutify.me Professional/Contemporary Color Films/Chalcedony.cube
# Created by: Lutify.me
# Copyright: (c) Copyright Lutify.me 2015
# Website: https://lutify.me
#LUT size
LUT_3D_SIZE 9
#LUT data points
0.000000 0.000000 0.000000
0.144226 0.000000 0.025208
0.272522 0.003204 0.061493
0.394409 0.040405 0.087341
0.503082 0.097015 0.106750
0.601044 0.149597 0.123016
0.694489 0.196960 0.137421
0.792145 0.236603 0.149475
0.904480 0.265228 0.158356
0.018402 0.126221 0.124817
0.127625 0.113464 0.107788
0.255157 0.128723 0.113953
0.382172 0.151428 0.121338
0.494629 0.178772 0.129608
0.595276 0.210327 0.139404
0.690735 0.243225 0.149414
0.790039 0.273254 0.158691
0.904083 0.295624 0.165558
0.093201 0.245239 0.182495
0.162476 0.242249 0.172760
0.266785 0.248993 0.174500
0.374176 0.260284 0.170349
0.484985 0.280518 0.169342
0.586792 0.300934 0.171173
0.684631 0.321777 0.175018
0.786896 0.341309 0.179169
0.904205 0.355499 0.181641
0.172943 0.354767 0.219025
0.217041 0.358887 0.217438
0.297516 0.366089 0.214783
0.391266 0.372101 0.217438
0.483276 0.379089 0.213257
0.582123 0.394775 0.210327
0.680725 0.409698 0.208893
0.785950 0.423004 0.207855
0.907379 0.431915 0.205536
0.251831 0.460968 0.255371
0.279938 0.463470 0.254333
0.337982 0.468872 0.251770
0.416016 0.475159 0.249634
0.500519 0.480377 0.252533
0.585297 0.485413 0.249573
0.682709 0.497833 0.244934
0.790192 0.508636 0.239685
0.916138 0.515472 0.232635
0.320343 0.560425 0.286713
0.339569 0.562195 0.285950
0.382324 0.566315 0.283966
0.445007 0.572327 0.280853
0.520355 0.578674 0.278839
0.602783 0.584229 0.281128
0.691284 0.588898 0.278229
0.800598 0.599579 0.269928
0.926086 0.606415 0.265991
0.371918 0.665314 0.310760
0.386475 0.666687 0.310333
0.420013 0.670197 0.308716
0.471985 0.676086 0.305603
0.538849 0.683563 0.301422
0.618347 0.691528 0.297882
0.709991 0.698669 0.297882
0.813538 0.702942 0.297058
0.900635 0.697845 0.352264
0.418488 0.775055 0.350555
0.430695 0.775330 0.352081
0.459106 0.776367 0.355133
0.502960 0.778687 0.359528
0.559723 0.782166 0.365295
0.627258 0.786133 0.373108
0.704987 0.789551 0.384460
0.792450 0.791107 0.402313
0.878601 0.787567 0.437500
0.532959 0.845367 0.487030
0.540070 0.845459 0.488647
0.558624 0.844727 0.493774
0.586853 0.845520 0.500397
0.623230 0.850159 0.505432
0.668854 0.860413 0.505341
0.729340 0.872314 0.505035
0.806305 0.884583 0.505432
0.896851 0.896088 0.509094
0.000000 0.000641 0.181305
0.035339 0.000427 0.202576
0.253693 0.013397 0.270233
0.425262 0.063812 0.269318
0.517273 0.109833 0.241150
0.598083 0.153259 0.227386
0.695465 0.199463 0.227386
0.795258 0.238708 0.227936
0.908936 0.266846 0.227539
0.000000 0.096619 0.221039
0.085297 0.114594 0.236603
0.275391 0.153595 0.270721
0.400208 0.166656 0.252350
0.493103 0.181885 0.233429
0.595673 0.212738 0.231506
0.693237 0.245331 0.231354
0.793945 0.275238 0.231537
0.908844 0.297119 0.230713
0.068756 0.270752 0.287872
0.159668 0.260315 0.279266
0.255493 0.252960 0.260193
0.371490 0.266022 0.251556
0.485474 0.284912 0.247070
0.589081 0.304382 0.244171
0.688141 0.324585 0.242615
0.791351 0.343536 0.241302
0.909363 0.357269 0.238983
0.175690 0.373108 0.289551
0.217743 0.366028 0.284485
0.293427 0.368896 0.278290
0.388153 0.376190 0.277649
0.483734 0.384247 0.270782
0.584229 0.399109 0.265686
0.684021 0.413239 0.261658
0.790161 0.425812 0.257874
0.912384 0.433990 0.252960
0.253235 0.464325 0.300354
0.281342 0.465912 0.300659
0.338135 0.471222 0.298859
0.415283 0.478363 0.295654
0.500366 0.484039 0.296448
0.586914 0.489624 0.291687
0.685364 0.501526 0.285645
0.793854 0.511658 0.279022
0.920685 0.517792 0.270874
0.322937 0.563141 0.320984
0.342163 0.564514 0.320862
0.384216 0.568451 0.319519
0.445984 0.574768 0.316376
0.521057 0.581604 0.313354
0.603912 0.587341 0.314270
0.693512 0.592316 0.310089
0.803711 0.602570 0.301086
0.917419 0.608185 0.311981
0.374664 0.667877 0.337311
0.389313 0.668976 0.337250
0.422699 0.672241 0.336304
0.474121 0.678070 0.333588
0.540436 0.685791 0.329285
0.619812 0.694031 0.325073
0.711639 0.701172 0.324646
0.812836 0.703674 0.327637
0.895050 0.698425 0.384186
0.429443 0.772614 0.379089
0.441406 0.772675 0.380768
0.468750 0.773407 0.384186
0.510864 0.775574 0.388672
0.565216 0.779236 0.394135
0.630310 0.783600 0.401123
0.705841 0.787598 0.411072
0.791321 0.789734 0.427094
0.875977 0.787201 0.460175
0.541931 0.844971 0.504456
0.548798 0.845062 0.505951
0.566833 0.844238 0.510895
0.592987 0.846527 0.515106
0.626984 0.853729 0.516266
0.672577 0.863861 0.516357
0.732849 0.875732 0.516052
0.809784 0.888031 0.516296
0.900238 0.899384 0.519714
0.000000 0.004761 0.318665
0.002441 0.007507 0.329926
0.181122 0.019562 0.343353
0.362335 0.068115 0.382721
0.523926 0.127930 0.390106
0.622955 0.173492 0.363434
0.711304 0.213867 0.343353
0.799225 0.246124 0.329926
0.915344 0.272766 0.324036
0.000000 0.122498 0.338867
0.064514 0.129822 0.347656
0.215363 0.136017 0.354156
0.385956 0.174133 0.384979
0.523590 0.206482 0.379089
0.620758 0.231934 0.356842
0.699707 0.254272 0.337189
0.799133 0.281342 0.330322
0.916138 0.302246 0.324463
0.012238 0.240021 0.351837
0.127045 0.247681 0.353027
0.253143 0.265106 0.358246
0.405121 0.298859 0.377899
0.504639 0.302124 0.356903
0.594513 0.311096 0.341736
0.694519 0.330353 0.337067
0.799011 0.348480 0.332123
0.918304 0.361359 0.326111
0.175598 0.399200 0.391174
0.231110 0.401306 0.389618
0.308594 0.391785 0.379517
0.388550 0.385681 0.363251
0.488556 0.394379 0.354828
0.590546 0.407166 0.348969
0.691559 0.419769 0.343506
0.798859 0.431061 0.337708
0.922272 0.438049 0.330658
0.262299 0.487396 0.377869
0.289429 0.482025 0.374939
0.343719 0.477844 0.372742
0.417511 0.485260 0.370514
0.502502 0.491943 0.368866
0.591827 0.498169 0.362183
0.692047 0.508820 0.355042
0.802185 0.517639 0.347351
0.917389 0.525452 0.350861
0.327637 0.572144 0.379028
0.347809 0.572449 0.380035
0.390686 0.574280 0.381378
0.450500 0.580170 0.379791
0.524048 0.587891 0.375885
0.607452 0.594116 0.374847
0.699158 0.599487 0.368927
0.810089 0.608612 0.360260
0.900757 0.614227 0.393188
0.379578 0.675446 0.386322
0.394958 0.675903 0.387024
0.429382 0.677704 0.388000
0.480103 0.682770 0.386902
0.545135 0.690277 0.383820
0.623383 0.698212 0.380493
0.713440 0.703979 0.381866
0.803589 0.701233 0.397858
0.885101 0.701263 0.445251
0.452881 0.769501 0.433655
0.463867 0.769440 0.435272
0.489441 0.769562 0.439026
0.528564 0.771027 0.444244
0.578491 0.774597 0.449738
0.638519 0.779602 0.455841
0.709137 0.784637 0.463806
0.790283 0.787964 0.476807
0.871643 0.787811 0.506714
0.553009 0.851837 0.531952
0.558868 0.852631 0.532379
0.575073 0.853180 0.534973
0.600708 0.855896 0.537964
0.635529 0.861969 0.540344
0.681091 0.871613 0.541199
0.741058 0.883453 0.541077
0.817749 0.895691 0.541107
0.908051 0.906738 0.544220
0.000000 0.021118 0.430237
0.039429 0.027069 0.436005
0.205292 0.045563 0.444550
0.332336 0.079559 0.451294
0.476715 0.130981 0.473358
0.615082 0.185791 0.478149
0.709015 0.224457 0.453613
0.805389 0.256836 0.433289
0.916016 0.279083 0.415558
0.000000 0.146973 0.441620
0.099670 0.150024 0.443939
0.232666 0.156342 0.449249
0.350739 0.169434 0.453400
0.490356 0.205231 0.473389
0.614319 0.241028 0.469879
0.708313 0.267181 0.448212
0.805237 0.290894 0.429535
0.913239 0.317566 0.418762
0.068481 0.266357 0.442352
0.156311 0.271301 0.443359
0.266785 0.280609 0.448669
0.374084 0.285522 0.452240
0.510468 0.315796 0.471069
0.612854 0.329437 0.455078
0.707001 0.342896 0.437744
0.806213 0.356232 0.423035
0.909912 0.387177 0.427765
0.164368 0.374573 0.447235
0.213348 0.378113 0.447021
0.297729 0.385559 0.446381
0.397003 0.398315 0.447845
0.511169 0.415070 0.450623
0.601257 0.416565 0.435333
0.702148 0.427643 0.429352
0.810211 0.437927 0.422791
0.902802 0.464783 0.437439
0.268768 0.502380 0.464905
0.299530 0.502655 0.462921
0.360504 0.503082 0.458588
0.429077 0.495911 0.450104
0.509491 0.502686 0.446930
0.601746 0.509064 0.438995
0.703430 0.517761 0.431946
0.811127 0.525757 0.427216
0.894104 0.546143 0.454681
0.336212 0.587433 0.448639
0.356506 0.587036 0.447723
0.400269 0.586761 0.448120
0.461548 0.588806 0.450684
0.531799 0.596405 0.448517
0.614746 0.603577 0.445709
0.708588 0.609070 0.438782
0.803589 0.615051 0.446350
0.884918 0.627136 0.481384
0.391876 0.685486 0.449036
0.407593 0.685516 0.449982
0.442932 0.685760 0.452362
0.495056 0.686920 0.456116
0.557098 0.691254 0.458588
0.628906 0.697510 0.459381
0.711090 0.701843 0.463379
0.795380 0.701843 0.478729
0.875824 0.708954 0.518860
0.486938 0.768768 0.500153
0.496521 0.768738 0.501495
0.519104 0.768799 0.504761
0.554657 0.769440 0.510193
0.599884 0.772034 0.516785
0.653473 0.777374 0.522980
0.717285 0.783630 0.529572
0.792755 0.789032 0.538971
0.880096 0.797943 0.555298
0.563477 0.866974 0.565979
0.569336 0.867706 0.566437
0.585785 0.868164 0.568756
0.612213 0.870209 0.572021
0.648499 0.874634 0.575867
0.694489 0.883087 0.578278
0.754059 0.894623 0.578888
0.830139 0.906830 0.578949
0.919983 0.917511 0.581879
0.037506 0.053162 0.523499
0.135986 0.060883 0.526581
0.249329 0.079010 0.531799
0.361755 0.107483 0.536652
0.467896 0.144684 0.539276
0.586456 0.190887 0.550903
0.705841 0.236115 0.547272
0.804321 0.265900 0.524353
0.910034 0.295441 0.505127
0.098663 0.168152 0.527405
0.169556 0.171234 0.528870
0.269348 0.177887 0.532684
0.374969 0.190155 0.536652
0.477295 0.210480 0.538483
0.594604 0.244659 0.550110
0.705353 0.276550 0.541229
0.804413 0.298431 0.520111
0.901215 0.335144 0.505646
0.157471 0.289917 0.524750
0.210785 0.293365 0.527588
0.296539 0.297058 0.529724
0.393311 0.302124 0.533112
0.491119 0.310760 0.535065
0.607391 0.335480 0.546387
0.704742 0.349304 0.529327
0.805145 0.361115 0.511261
0.883972 0.408844 0.509949
0.212769 0.396027 0.524017
0.251373 0.398560 0.523895
0.324158 0.403961 0.523621
0.414276 0.411926 0.526459
0.505707 0.415466 0.529022
0.610168 0.428345 0.529541
0.705688 0.433838 0.514496
0.798340 0.447906 0.504608
0.877838 0.501373 0.530487
0.274963 0.492798 0.525238
0.302521 0.494598 0.524841
0.359436 0.498688 0.523804
0.435638 0.504944 0.522186
0.521729 0.514252 0.521484
0.616913 0.519714 0.514832
0.714569 0.528137 0.510895
0.799713 0.546173 0.520050
0.877625 0.576050 0.546570
0.344086 0.594879 0.522675
0.363586 0.595123 0.521423
0.406677 0.595734 0.518463
0.468811 0.597290 0.514740
0.546844 0.606018 0.520782
0.625183 0.613495 0.519104
0.711792 0.617645 0.518829
0.796112 0.627747 0.533203
0.874969 0.647949 0.565186
0.411163 0.678955 0.512878
0.428619 0.679993 0.515045
0.469269 0.684937 0.522339
0.523590 0.690399 0.531342
0.579712 0.692017 0.536713
0.641479 0.698059 0.539825
0.714417 0.704254 0.542450
0.793732 0.708923 0.557159
0.879822 0.724121 0.587219
0.527618 0.771362 0.567719
0.536652 0.772034 0.569550
0.556305 0.772766 0.572510
0.586914 0.773712 0.576843
0.627502 0.775726 0.583282
0.675323 0.780762 0.590149
0.732605 0.789764 0.594208
0.806000 0.800049 0.596619
0.901672 0.816010 0.603180
0.578125 0.884827 0.610229
0.584015 0.885498 0.610687
0.600342 0.886047 0.612610
0.627106 0.887756 0.615753
0.664459 0.891113 0.620117
0.712097 0.897339 0.624878
0.771271 0.908051 0.627167
0.846252 0.920197 0.627777
0.935181 0.930511 0.630890
0.177765 0.091644 0.607971
0.222839 0.098297 0.609711
0.303375 0.114075 0.612915
0.398376 0.138977 0.616302
0.495331 0.170685 0.618530
0.590790 0.206940 0.618988
0.697266 0.245697 0.624176
0.806152 0.276428 0.608337
0.903046 0.320953 0.586304
0.201599 0.191376 0.607819
0.242249 0.194122 0.608978
0.317078 0.201080 0.611664
0.407745 0.213287 0.614807
0.501984 0.231476 0.616974
0.595825 0.255707 0.617371
0.702179 0.285736 0.622711
0.806396 0.307434 0.603943
0.895111 0.356750 0.584473
0.234161 0.309509 0.605194
0.269104 0.310791 0.606018
0.337311 0.314453 0.607208
0.421967 0.319916 0.609894
0.512390 0.327789 0.612518
0.604492 0.340057 0.613251
0.705353 0.357086 0.613434
0.807037 0.368469 0.594696
0.879791 0.425018 0.583496
0.270294 0.416138 0.599304
0.300079 0.417816 0.599304
0.361572 0.422241 0.600250
0.439575 0.426544 0.602722
0.524597 0.430328 0.605408
0.614899 0.435425 0.607056
0.707153 0.439484 0.598145
0.794281 0.458832 0.583801
0.863190 0.507629 0.589630
0.316040 0.511810 0.597900
0.339203 0.513184 0.597595
0.389160 0.516388 0.596893
0.458923 0.521301 0.595856
0.540741 0.528076 0.597290
0.625336 0.529633 0.598053
0.703033 0.530121 0.583435
0.780243 0.553284 0.585907
0.862549 0.595581 0.613281
0.363251 0.604462 0.597748
0.381439 0.605591 0.597382
0.422607 0.607605 0.595886
0.482910 0.608734 0.591644
0.552490 0.608307 0.585083
0.636658 0.623169 0.593842
0.718445 0.633057 0.599426
0.797180 0.650116 0.615082
0.889526 0.672363 0.636230
0.433594 0.682312 0.581116
0.448273 0.682068 0.581238
0.481415 0.681793 0.581970
0.530731 0.682526 0.584808
0.598083 0.695801 0.599945
0.663879 0.706604 0.613831
0.726074 0.714111 0.617401
0.803497 0.725128 0.631592
0.908844 0.744934 0.646057
0.537750 0.763977 0.610352
0.547089 0.765900 0.612732
0.569977 0.771637 0.619141
0.607147 0.781799 0.630005
0.653992 0.793365 0.642700
0.700226 0.798889 0.647827
0.756195 0.809143 0.651337
0.829559 0.820099 0.653107
0.926331 0.836090 0.662170
0.581543 0.898346 0.653107
0.590363 0.900208 0.655884
0.613312 0.903778 0.663208
0.645477 0.907745 0.670746
0.683411 0.910645 0.675049
0.732758 0.915039 0.681061
0.792694 0.923340 0.686676
0.865692 0.935303 0.688812
0.952820 0.945251 0.692505
0.269073 0.132996 0.695221
0.298920 0.138489 0.696228
0.359528 0.152069 0.698242
0.439301 0.173737 0.700562
0.526764 0.201294 0.702423
0.617493 0.232239 0.703339
0.712555 0.263977 0.702942
0.811859 0.288788 0.696594
0.895966 0.351135 0.665100
0.282440 0.217712 0.693146
0.310516 0.220673 0.693939
0.368469 0.227631 0.695801
0.445679 0.239655 0.698181
0.531281 0.256683 0.700287
0.621002 0.277740 0.701447
0.715698 0.301178 0.701263
0.812286 0.318359 0.692352
0.889160 0.383026 0.661560
0.302002 0.329163 0.689331
0.328125 0.330536 0.689758
0.382751 0.334320 0.690552
0.456177 0.340088 0.692627
0.539001 0.348145 0.695160
0.627411 0.358673 0.697052
0.721863 0.372070 0.697235
0.809326 0.381287 0.680878
0.875916 0.445648 0.656525
0.329163 0.436646 0.681915
0.352478 0.437988 0.682800
0.401642 0.440155 0.684357
0.470551 0.443878 0.685181
0.549530 0.449188 0.686462
0.634369 0.455963 0.687531
0.722961 0.466797 0.685699
0.791412 0.474365 0.662170
0.861847 0.523529 0.656464
0.365143 0.532410 0.677338
0.385834 0.533722 0.676605
0.433502 0.537628 0.673889
0.500732 0.545380 0.670105
0.570099 0.552338 0.671051
0.642548 0.557953 0.672485
0.718597 0.561829 0.671509
0.780273 0.564392 0.655121
0.866608 0.595673 0.665588
0.426056 0.621521 0.669678
0.442566 0.622437 0.668915
0.479492 0.624786 0.667419
0.532990 0.629333 0.666107
0.595673 0.636749 0.666534
0.661407 0.646332 0.670868
0.715820 0.639679 0.663513
0.789490 0.647552 0.665619
0.902191 0.667511 0.683167
0.479553 0.695404 0.659424
0.491272 0.695312 0.658966
0.518433 0.695312 0.658112
0.559814 0.696075 0.657715
0.610687 0.698914 0.659363
0.672241 0.710663 0.669373
0.749084 0.734894 0.691406
0.836548 0.751129 0.704559
0.939362 0.768188 0.722046
0.544952 0.773590 0.663849
0.551727 0.775055 0.664520
0.568390 0.778656 0.666229
0.597107 0.784821 0.669312
0.645874 0.797455 0.680573
0.714294 0.817169 0.702820
0.784607 0.832184 0.721252
0.856201 0.843018 0.725067
0.953339 0.858673 0.738525
0.555664 0.902985 0.689728
0.563080 0.904358 0.690979
0.585297 0.908020 0.696198
0.626556 0.915009 0.708191
0.685669 0.925415 0.728210
0.755676 0.936829 0.752899
0.817993 0.941864 0.761688
0.888336 0.952057 0.768036
0.971527 0.961792 0.772980
0.341858 0.178070 0.798340
0.364105 0.182953 0.798950
0.412445 0.194702 0.800201
0.480804 0.213318 0.801880
0.560333 0.237854 0.803253
0.646362 0.268036 0.802673
0.733490 0.315735 0.792603
0.820679 0.365173 0.780304
0.891022 0.399994 0.751678
0.349396 0.249817 0.795471
0.370941 0.252747 0.795959
0.417969 0.259644 0.797180
0.485016 0.271881 0.798615
0.563477 0.289948 0.799255
0.647400 0.320404 0.794159
0.731445 0.360474 0.784088
0.817261 0.399506 0.774536
0.885040 0.425964 0.746643
0.365387 0.356903 0.788086
0.386810 0.359528 0.787476
0.433411 0.366180 0.785767
0.498688 0.378021 0.782959
0.572784 0.395508 0.778778
0.649628 0.416840 0.774017
0.728485 0.440399 0.769196
0.811310 0.465088 0.764282
0.873352 0.478333 0.737610
0.426453 0.484192 0.759003
0.441986 0.485626 0.758911
0.477081 0.489288 0.758575
0.528839 0.495911 0.757477
0.590393 0.505432 0.756226
0.657166 0.516815 0.755798
0.728760 0.529602 0.755707
0.806549 0.543823 0.755249
0.861389 0.546082 0.730865
0.477966 0.577881 0.745209
0.492249 0.580231 0.744659
0.524750 0.586151 0.743713
0.568146 0.593109 0.744690
0.617218 0.598694 0.745758
0.673553 0.606049 0.747162
0.736389 0.613770 0.750214
0.805176 0.619934 0.750977
0.880371 0.603973 0.738953
0.525085 0.654297 0.742462
0.536163 0.655853 0.742462
0.561890 0.659790 0.742645
0.601013 0.666748 0.744019
0.649414 0.677063 0.748138
0.698883 0.684082 0.754028
0.756165 0.688812 0.759766
0.821747 0.681244 0.758270
0.911987 0.668274 0.754181
0.572784 0.727112 0.746490
0.581116 0.728271 0.747040
0.600800 0.731232 0.748627
0.629791 0.737091 0.752960
0.669403 0.745575 0.759949
0.720612 0.756378 0.769867
0.783264 0.766937 0.781097
0.845673 0.753021 0.772095
0.946411 0.752991 0.778412
0.575745 0.801392 0.749481
0.581787 0.802490 0.750183
0.596893 0.805237 0.751892
0.623138 0.809998 0.754974
0.661438 0.816833 0.759735
0.713226 0.825684 0.766602
0.789246 0.842651 0.785187
0.884003 0.869232 0.819550
0.979218 0.884460 0.842560
0.561310 0.916260 0.769226
0.568390 0.917511 0.770355
0.586090 0.920624 0.773163
0.617645 0.925812 0.778442
0.663910 0.933319 0.786804
0.728027 0.943329 0.800568
0.827484 0.959198 0.838165
0.915253 0.970398 0.870178
0.988159 0.979553 0.879028
0.443359 0.291565 0.883667
0.460266 0.299286 0.881653
0.497711 0.317719 0.876923
0.551270 0.346161 0.869873
0.613037 0.381744 0.861481
0.677856 0.420532 0.853027
0.744720 0.459534 0.845581
0.815125 0.496521 0.839752
0.890900 0.530945 0.835419
0.463989 0.362518 0.866760
0.478760 0.367737 0.865326
0.512207 0.380310 0.862122
0.561035 0.400574 0.857300
0.618683 0.427032 0.851532
0.680481 0.457367 0.845673
0.745270 0.489105 0.840515
0.814270 0.520294 0.836487
0.888977 0.550262 0.833679
0.500671 0.468079 0.842682
0.512482 0.470886 0.842133
0.539917 0.477875 0.840607
0.581329 0.489777 0.838257
0.631775 0.505829 0.835815
0.687714 0.525238 0.833649
0.748077 0.546661 0.832031
0.814209 0.568054 0.831757
0.897064 0.579315 0.839386
0.548096 0.569397 0.824127
0.557007 0.570892 0.824249
0.578094 0.574615 0.824371
0.611176 0.581207 0.824280
0.653290 0.590576 0.824158
0.701599 0.600098 0.826904
0.758026 0.607971 0.833344
0.826843 0.614716 0.841431
0.911011 0.620789 0.849701
0.585815 0.646057 0.826050
0.592896 0.647095 0.827271
0.609497 0.649078 0.829620
0.635925 0.651489 0.832611
0.672302 0.655029 0.836487
0.718353 0.659821 0.840973
0.774567 0.664703 0.847626
0.844299 0.668762 0.855804
0.929108 0.671753 0.863861
0.603882 0.704620 0.837402
0.610535 0.705811 0.838806
0.626953 0.708771 0.842224
0.654541 0.713715 0.848022
0.692657 0.719910 0.855194
0.737823 0.723602 0.860199
0.794586 0.727936 0.866119
0.865448 0.731110 0.874573
0.949310 0.727295 0.880371
0.623962 0.770966 0.852051
0.630096 0.772064 0.853302
0.645203 0.774841 0.856415
0.671204 0.779602 0.861877
0.708496 0.786438 0.870087
0.757812 0.795349 0.881653
0.817352 0.802246 0.891022
0.888611 0.806519 0.899384
0.970581 0.798523 0.903198
0.640533 0.852295 0.870514
0.646423 0.853394 0.871674
0.661102 0.856079 0.874634
0.686676 0.860748 0.879913
0.724091 0.867584 0.887970
0.774261 0.876617 0.899445
0.838165 0.888031 0.915405
0.912262 0.900024 0.932892
0.987793 0.892975 0.935486
0.613495 0.942932 0.883972
0.619843 0.943909 0.885071
0.635803 0.946198 0.887939
0.663971 0.950256 0.893188
0.706085 0.956116 0.901398
0.763611 0.963745 0.913391
0.836334 0.972839 0.930023
0.921448 0.983215 0.952881
0.999939 1.000000 0.999847
