滤镜资源/Professional Luts Collection/Lutify.me Professional/Contemporary Color Films/Chalcedony.cube
# Created by: Lutify.me
# Copyright: (c) Copyright Lutify.me 2015
# Website: https://lutify.me
#LUT size
LUT_3D_SIZE 5
#LUT data points
0.000000 0.000000 0.000000
0.272522 0.003204 0.061493
0.503082 0.097015 0.106750
0.694489 0.196960 0.137421
0.904480 0.265228 0.158356
0.093201 0.245239 0.182495
0.266785 0.248993 0.174500
0.484985 0.280518 0.169342
0.684631 0.321777 0.175018
0.904205 0.355499 0.181641
0.251831 0.460968 0.255371
0.337982 0.468872 0.251770
0.500519 0.480377 0.252533
0.682709 0.497833 0.244934
0.916138 0.515472 0.232635
0.371918 0.665314 0.310760
0.420013 0.670197 0.308716
0.538849 0.683563 0.301422
0.709991 0.698669 0.297882
0.900635 0.697845 0.352264
0.532959 0.845367 0.487030
0.558624 0.844727 0.493774
0.623230 0.850159 0.505432
0.729340 0.872314 0.505035
0.896851 0.896088 0.509094
0.000000 0.004761 0.318665
0.181122 0.019562 0.343353
0.523926 0.127930 0.390106
0.711304 0.213867 0.343353
0.915344 0.272766 0.324036
0.012238 0.240021 0.351837
0.253143 0.265106 0.358246
0.504639 0.302124 0.356903
0.694519 0.330353 0.337067
0.918304 0.361359 0.326111
0.262299 0.487396 0.377869
0.343719 0.477844 0.372742
0.502502 0.491943 0.368866
0.692047 0.508820 0.355042
0.917389 0.525452 0.350861
0.379578 0.675446 0.386322
0.429382 0.677704 0.388000
0.545135 0.690277 0.383820
0.713440 0.703979 0.381866
0.885101 0.701263 0.445251
0.553009 0.851837 0.531952
0.575073 0.853180 0.534973
0.635529 0.861969 0.540344
0.741058 0.883453 0.541077
0.908051 0.906738 0.544220
0.037506 0.053162 0.523499
0.249329 0.079010 0.531799
0.467896 0.144684 0.539276
0.705841 0.236115 0.547272
0.910034 0.295441 0.505127
0.157471 0.289917 0.524750
0.296539 0.297058 0.529724
0.491119 0.310760 0.535065
0.704742 0.349304 0.529327
0.883972 0.408844 0.509949
0.274963 0.492798 0.525238
0.359436 0.498688 0.523804
0.521729 0.514252 0.521484
0.714569 0.528137 0.510895
0.877625 0.576050 0.546570
0.411163 0.678955 0.512878
0.469269 0.684937 0.522339
0.579712 0.692017 0.536713
0.714417 0.704254 0.542450
0.879822 0.724121 0.587219
0.578125 0.884827 0.610229
0.600342 0.886047 0.612610
0.664459 0.891113 0.620117
0.771271 0.908051 0.627167
0.935181 0.930511 0.630890
0.269073 0.132996 0.695221
0.359528 0.152069 0.698242
0.526764 0.201294 0.702423
0.712555 0.263977 0.702942
0.895966 0.351135 0.665100
0.302002 0.329163 0.689331
0.382751 0.334320 0.690552
0.539001 0.348145 0.695160
0.721863 0.372070 0.697235
0.875916 0.445648 0.656525
0.365143 0.532410 0.677338
0.433502 0.537628 0.673889
0.570099 0.552338 0.671051
0.718597 0.561829 0.671509
0.866608 0.595673 0.665588
0.479553 0.695404 0.659424
0.518433 0.695312 0.658112
0.610687 0.698914 0.659363
0.749084 0.734894 0.691406
0.939362 0.768188 0.722046
0.555664 0.902985 0.689728
0.585297 0.908020 0.696198
0.685669 0.925415 0.728210
0.817993 0.941864 0.761688
0.971527 0.961792 0.772980
0.443359 0.291565 0.883667
0.497711 0.317719 0.876923
0.613037 0.381744 0.861481
0.744720 0.459534 0.845581
0.890900 0.530945 0.835419
0.500671 0.468079 0.842682
0.539917 0.477875 0.840607
0.631775 0.505829 0.835815
0.748077 0.546661 0.832031
0.897064 0.579315 0.839386
0.585815 0.646057 0.826050
0.609497 0.649078 0.829620
0.672302 0.655029 0.836487
0.774567 0.664703 0.847626
0.929108 0.671753 0.863861
0.623962 0.770966 0.852051
0.645203 0.774841 0.856415
0.708496 0.786438 0.870087
0.817352 0.802246 0.891022
0.970581 0.798523 0.903198
0.613495 0.942932 0.883972
0.635803 0.946198 0.887939
0.706085 0.956116 0.901398
0.836334 0.972839 0.930023
0.999939 1.000000 0.999847
