滤镜资源/Professional Luts Collection/Lutify.me Professional/Contemporary Color Films/Chlorite.cube
# Created by: Lutify.me
# Copyright: (c) Copyright Lutify.me 2015
# Website: https://lutify.me
#LUT size
LUT_3D_SIZE 9
#LUT data points
0.000000 0.000000 0.000000
0.085114 0.000000 0.000000
0.218170 0.000000 0.000000
0.390717 0.000000 0.000000
0.565582 0.000000 0.000000
0.728027 0.000000 0.000000
0.877502 0.000000 0.000000
0.999268 0.000000 0.000000
1.000000 0.000000 0.000000
0.000000 0.083954 0.000000
0.084076 0.087036 0.000000
0.225647 0.079956 0.000000
0.397675 0.035278 0.000000
0.568665 0.000031 0.000000
0.728516 0.000000 0.000000
0.876404 0.000000 0.000000
0.999054 0.000000 0.000000
1.000000 0.000000 0.000000
0.000000 0.229248 0.000000
0.044250 0.231842 0.000000
0.227173 0.237640 0.000000
0.399506 0.235443 0.000000
0.566040 0.228485 0.000000
0.723267 0.220306 0.000000
0.869537 0.215881 0.000000
0.997375 0.223053 0.000000
1.000000 0.249084 0.000000
0.000000 0.397186 0.000000
0.000000 0.397888 0.000000
0.217773 0.403625 0.000000
0.396759 0.406281 0.000000
0.559875 0.405548 0.000000
0.714539 0.404266 0.000000
0.858582 0.404144 0.000000
0.986328 0.408752 0.000000
1.000000 0.422180 0.000000
0.000000 0.553040 0.000000
0.000000 0.553223 0.000000
0.218933 0.557343 0.000000
0.395477 0.561676 0.000000
0.556091 0.562347 0.000000
0.706329 0.561676 0.000000
0.846313 0.562103 0.000000
0.972046 0.565125 0.000000
1.000000 0.572998 0.000000
0.000000 0.694427 0.000000
0.025665 0.694397 0.000000
0.242828 0.697968 0.000000
0.404907 0.701660 0.000000
0.557953 0.703308 0.000000
0.702637 0.702484 0.000000
0.836212 0.701752 0.000000
0.956207 0.703064 0.000000
1.000000 0.707062 0.000000
0.087738 0.817719 0.000000
0.178925 0.818970 0.000000
0.301605 0.821381 0.000000
0.436371 0.823700 0.000000
0.573792 0.824768 0.000000
0.707855 0.824097 0.000000
0.832703 0.822205 0.000000
0.945038 0.821320 0.000000
1.000000 0.822144 0.000000
0.276733 0.923004 0.000031
0.313934 0.923615 0.000000
0.390594 0.924744 0.000000
0.493652 0.925751 0.000000
0.608826 0.926025 0.000000
0.725983 0.925201 0.000000
0.837921 0.923492 0.000000
0.941315 0.921631 0.000000
1.000000 0.920685 0.000000
0.412964 1.000000 0.135406
0.435425 1.000000 0.132629
0.486542 1.000000 0.125580
0.562531 1.000000 0.113953
0.653809 1.000000 0.099365
0.751038 1.000000 0.085083
0.848297 1.000000 0.075897
0.942413 1.000000 0.077454
1.000000 1.000000 0.093842
0.000000 0.000000 0.094360
0.082916 0.000000 0.091675
0.221954 0.000000 0.088104
0.394501 0.000000 0.081787
0.567810 0.000000 0.071564
0.729218 0.000000 0.053680
0.877899 0.000000 0.024994
0.999268 0.000000 0.002106
1.000000 0.000000 0.000000
0.000000 0.085968 0.090637
0.085297 0.085968 0.090179
0.230896 0.075653 0.086365
0.401398 0.028290 0.078552
0.570740 0.000000 0.064728
0.729584 0.000000 0.041687
0.876709 0.000000 0.010162
0.999054 0.000000 0.000092
1.000000 0.000000 0.000000
0.000000 0.231995 0.082672
0.053528 0.232574 0.083527
0.231995 0.237122 0.073944
0.403687 0.234222 0.059265
0.568909 0.226562 0.036163
0.725067 0.218048 0.009155
0.870392 0.213623 0.000458
0.997467 0.221008 0.000000
1.000000 0.247650 0.000000
0.000000 0.398254 0.053864
0.000000 0.398865 0.053436
0.223267 0.403107 0.037811
0.399200 0.405792 0.013580
0.561340 0.404907 0.003113
0.715302 0.403442 0.000092
0.858643 0.403259 0.000000
0.985901 0.407898 0.000000
1.000000 0.421387 0.000000
0.000000 0.553467 0.020844
0.000000 0.553589 0.020782
0.222260 0.557434 0.005219
0.396973 0.561371 0.000427
0.556793 0.561859 0.000000
0.706451 0.561188 0.000000
0.845978 0.561554 0.000000
0.971313 0.564606 0.000000
1.000000 0.572510 0.000000
0.000000 0.694702 0.017822
0.030457 0.694641 0.018402
0.244385 0.697968 0.004517
0.405457 0.701447 0.000061
0.557983 0.702942 0.000000
0.702301 0.702118 0.000000
0.835571 0.701385 0.000000
0.955292 0.702698 0.000000
1.000000 0.706696 0.000000
0.090851 0.817749 0.068512
0.181519 0.818604 0.062500
0.303009 0.820801 0.042908
0.436737 0.823059 0.013947
0.573517 0.824219 0.003174
0.707245 0.823669 0.000519
0.831848 0.821869 0.000397
0.944061 0.821045 0.000519
1.000000 0.821930 0.000793
0.282104 0.921051 0.141632
0.318573 0.921539 0.138397
0.393616 0.922607 0.130096
0.494904 0.923920 0.115479
0.608734 0.924713 0.096100
0.725159 0.924408 0.077118
0.836853 0.923126 0.068695
0.940186 0.921387 0.074371
1.000000 0.920502 0.086060
0.414795 1.000000 0.213470
0.437195 1.000000 0.211670
0.487762 1.000000 0.207520
0.562897 1.000000 0.200409
0.653381 1.000000 0.191345
0.750122 1.000000 0.182556
0.847137 1.000000 0.176819
0.941193 1.000000 0.176483
1.000000 1.000000 0.183258
0.000000 0.000000 0.249146
0.030365 0.000000 0.247620
0.218781 0.000000 0.244385
0.398010 0.000000 0.240570
0.570099 0.000000 0.236511
0.730133 0.000000 0.231659
0.877686 0.000000 0.225433
0.999146 0.000000 0.217896
1.000000 0.000000 0.209900
0.000000 0.081085 0.247192
0.045044 0.078033 0.247833
0.229950 0.062042 0.244934
0.404694 0.009857 0.240845
0.572784 0.000000 0.236115
0.730347 0.000000 0.230408
0.876434 0.000000 0.223450
0.998932 0.000000 0.215729
1.000000 0.000000 0.208344
0.000000 0.234955 0.243042
0.019287 0.235718 0.242554
0.233887 0.235474 0.241455
0.408142 0.229919 0.237549
0.571930 0.221130 0.232330
0.726837 0.211975 0.225922
0.871277 0.207001 0.218628
0.997650 0.214294 0.210815
1.000000 0.240753 0.203278
0.000000 0.403809 0.238037
0.000000 0.404053 0.237762
0.230652 0.400604 0.240875
0.400940 0.404510 0.233765
0.563751 0.403442 0.226898
0.717987 0.401001 0.219360
0.861053 0.400024 0.211731
0.987518 0.404297 0.204224
1.000000 0.417633 0.198059
0.000000 0.558594 0.235413
0.000000 0.558563 0.235321
0.231354 0.554657 0.240936
0.398834 0.558594 0.233734
0.556732 0.560822 0.223938
0.706604 0.560364 0.217194
0.846527 0.560486 0.208893
0.971893 0.563171 0.201416
1.000000 0.570892 0.196930
0.000000 0.699066 0.238434
0.011810 0.698730 0.238831
0.253418 0.694916 0.245514
0.408661 0.697784 0.238953
0.557404 0.701080 0.226532
0.701080 0.701233 0.218781
0.834259 0.700745 0.213806
0.954163 0.702148 0.207672
1.000000 0.706085 0.205200
0.066101 0.820801 0.254120
0.184814 0.818481 0.258606
0.310913 0.817413 0.260162
0.440216 0.819336 0.253998
0.573273 0.821716 0.243195
0.705505 0.822418 0.232788
0.829681 0.821106 0.229340
0.941742 0.820526 0.228088
1.000000 0.821503 0.228149
0.286438 0.919708 0.289795
0.323730 0.919495 0.289948
0.398041 0.919739 0.288300
0.496887 0.920959 0.283020
0.608246 0.922363 0.274811
0.723145 0.922913 0.266144
0.834259 0.922272 0.260681
0.937408 0.920746 0.261566
1.000000 0.919983 0.264526
0.417664 1.000000 0.329437
0.439728 1.000000 0.328766
0.489441 1.000000 0.326752
0.563354 1.000000 0.322693
0.652283 1.000000 0.316711
0.747833 1.000000 0.310364
0.844238 1.000000 0.305450
0.938202 1.000000 0.303802
1.000000 1.000000 0.307098
0.000000 0.000000 0.421722
0.000000 0.000000 0.420532
0.197571 0.000000 0.417114
0.394318 0.000000 0.412964
0.568451 0.000000 0.408600
0.728363 0.000000 0.403809
0.875183 0.000000 0.398682
0.998779 0.000000 0.393311
1.000000 0.000000 0.388062
0.000000 0.068481 0.419556
0.000000 0.062836 0.418732
0.212585 0.035583 0.416840
0.401398 0.000641 0.412506
0.571075 0.000000 0.407867
0.728516 0.000000 0.402771
0.873962 0.000000 0.397430
0.998566 0.000000 0.392059
1.000000 0.000000 0.387177
0.000000 0.232452 0.411987
0.000000 0.232300 0.411346
0.221619 0.227631 0.413849
0.406067 0.221191 0.409210
0.570740 0.212524 0.404327
0.724976 0.203583 0.399445
0.868317 0.199249 0.394470
0.994446 0.207825 0.389526
1.000000 0.235901 0.384857
0.000000 0.404510 0.404724
0.000000 0.404449 0.404327
0.219788 0.403931 0.403351
0.400482 0.402832 0.401794
0.564819 0.399597 0.398132
0.718018 0.396454 0.393951
0.859802 0.395447 0.389374
0.985474 0.399994 0.384827
1.000000 0.413391 0.380676
0.000000 0.561920 0.399628
0.000000 0.561707 0.399384
0.221344 0.559326 0.399841
0.402191 0.555847 0.402344
0.555756 0.559357 0.396118
0.706085 0.558777 0.390930
0.845856 0.558228 0.385834
0.970398 0.560577 0.381561
1.000000 0.568268 0.378540
0.000000 0.703094 0.398438
0.001556 0.702667 0.398438
0.246948 0.698517 0.401672
0.412842 0.695190 0.405090
0.556824 0.698486 0.399384
0.698792 0.699951 0.392700
0.831635 0.699738 0.388702
0.951294 0.701019 0.384430
1.000000 0.704803 0.382263
0.027435 0.824677 0.405121
0.167938 0.822388 0.407440
0.309235 0.818939 0.411011
0.443970 0.816620 0.413391
0.573273 0.818604 0.408661
0.702637 0.820587 0.400848
0.825897 0.819977 0.397156
0.937531 0.819641 0.395386
1.000000 0.820648 0.394257
0.279541 0.922089 0.426575
0.320312 0.920929 0.427826
0.399689 0.918915 0.430054
0.499237 0.918060 0.430237
0.607727 0.919281 0.426056
0.719940 0.920685 0.419647
0.829742 0.920898 0.414368
0.932556 0.919800 0.413727
1.000000 0.919189 0.414612
0.417023 1.000000 0.454987
0.440063 1.000000 0.455536
0.490753 1.000000 0.455902
0.563751 1.000000 0.454651
0.650574 1.000000 0.451202
0.744080 1.000000 0.446289
0.839355 1.000000 0.441559
0.932983 1.000000 0.438934
1.000000 1.000000 0.440155
0.000000 0.000000 0.581390
0.000000 0.000000 0.580292
0.171204 0.000000 0.577179
0.388977 0.000000 0.572754
0.564850 0.000000 0.568329
0.724915 0.000000 0.563354
0.870941 0.000000 0.558014
0.997650 0.000000 0.552765
1.000000 0.000000 0.547852
0.000000 0.042816 0.579163
0.000000 0.031403 0.578308
0.191742 0.003723 0.576233
0.395935 0.000000 0.571747
0.567352 0.000000 0.567200
0.725006 0.000000 0.562134
0.869659 0.000000 0.556763
0.995819 0.000000 0.551575
1.000000 0.000000 0.546875
0.000000 0.225952 0.570648
0.000000 0.225037 0.569916
0.206421 0.217834 0.572723
0.400757 0.210785 0.568451
0.567688 0.200928 0.563660
0.722229 0.191345 0.558594
0.864624 0.187897 0.553589
0.989960 0.198730 0.548889
1.000000 0.229126 0.544556
0.000000 0.402069 0.560211
0.000000 0.401794 0.559753
0.207642 0.400421 0.560852
0.395325 0.396240 0.562103
0.562744 0.392914 0.557465
0.715363 0.390503 0.552948
0.855560 0.390381 0.548737
0.980255 0.395874 0.544739
1.000000 0.410095 0.541077
0.000000 0.561188 0.553558
0.000000 0.560883 0.553284
0.209015 0.560211 0.552582
0.395447 0.559082 0.551422
0.554596 0.557587 0.550110
0.705414 0.555420 0.546692
0.843445 0.554474 0.543304
0.966125 0.557007 0.540039
1.000000 0.564819 0.537109
0.000000 0.704315 0.549469
0.000000 0.703949 0.549286
0.231049 0.702087 0.549164
0.407440 0.699127 0.549530
0.558350 0.695587 0.551727
0.695679 0.698425 0.546356
0.828064 0.698212 0.542480
0.947021 0.699097 0.539093
1.000000 0.702667 0.536987
0.014099 0.827026 0.550568
0.141327 0.825653 0.551056
0.296722 0.823029 0.552155
0.440735 0.819031 0.554413
0.574768 0.815643 0.556976
0.699219 0.817963 0.552307
0.820435 0.818604 0.547821
0.931519 0.818481 0.545563
1.000000 0.819458 0.543732
0.263519 0.925751 0.561249
0.307159 0.924652 0.561920
0.391663 0.922119 0.563599
0.497894 0.918457 0.566315
0.607971 0.916229 0.567841
0.716309 0.917603 0.564240
0.823456 0.919037 0.558960
0.925659 0.918549 0.557007
1.000000 0.918152 0.556671
0.407715 1.000000 0.579407
0.432159 1.000000 0.580048
0.486176 1.000000 0.581635
0.562622 1.000000 0.583710
0.649109 1.000000 0.583923
0.739899 1.000000 0.580963
0.832916 1.000000 0.576538
0.925812 1.000000 0.572906
1.000000 1.000000 0.572601
0.000000 0.000000 0.729980
0.000000 0.000000 0.729034
0.154633 0.000000 0.726196
0.386017 0.000000 0.721985
0.562012 0.000000 0.717316
0.720886 0.000000 0.712494
0.865570 0.000000 0.707153
0.991547 0.000000 0.701721
1.000000 0.000000 0.696716
0.000000 0.003845 0.727905
0.000000 0.000793 0.727112
0.178711 0.000000 0.724823
0.392578 0.000000 0.720581
0.564240 0.000000 0.715973
0.720825 0.000000 0.711090
0.864197 0.000000 0.705811
0.989655 0.000000 0.700470
1.000000 0.000000 0.695526
0.000000 0.216095 0.719116
0.000000 0.214447 0.718536
0.195923 0.206055 0.721039
0.396942 0.198517 0.717194
0.564362 0.188751 0.712341
0.718384 0.178070 0.707550
0.859711 0.174591 0.702393
0.984161 0.188385 0.697388
1.000000 0.221649 0.692841
0.000000 0.397522 0.707336
0.000000 0.397095 0.706909
0.198822 0.393890 0.709961
0.392090 0.388977 0.710876
0.559509 0.385803 0.706421
0.712006 0.383057 0.701782
0.851105 0.383514 0.697052
0.974365 0.390381 0.692657
1.000000 0.405640 0.688660
0.000000 0.558655 0.697693
0.000000 0.558380 0.697388
0.206909 0.557617 0.697662
0.390961 0.555908 0.698090
0.550873 0.552002 0.698883
0.702362 0.549774 0.694519
0.838440 0.549835 0.690491
0.958740 0.553375 0.687012
1.000000 0.561798 0.683838
0.000000 0.702728 0.691498
0.000000 0.702393 0.691315
0.226593 0.701538 0.690796
0.400696 0.700165 0.689941
0.552887 0.698395 0.688782
0.692993 0.696716 0.687592
0.824646 0.695343 0.684692
0.941437 0.695984 0.682129
1.000000 0.699585 0.679810
0.011261 0.826935 0.688416
0.125854 0.826294 0.688293
0.285980 0.824829 0.688019
0.431549 0.822357 0.687744
0.570374 0.818726 0.688080
0.698425 0.814941 0.689972
0.814545 0.817078 0.685699
0.924988 0.817047 0.682892
1.000000 0.817688 0.680664
0.250244 0.927795 0.690765
0.294952 0.927063 0.690918
0.381042 0.925201 0.691223
0.489655 0.922058 0.692017
0.604767 0.917816 0.693848
0.714874 0.914612 0.695923
0.817291 0.916534 0.692322
0.918060 0.917206 0.688965
1.000000 0.917023 0.687439
0.395996 1.000000 0.698944
0.421082 1.000000 0.699249
0.476349 1.000000 0.700012
0.555359 1.000000 0.701477
0.645935 1.000000 0.703766
0.737396 1.000000 0.705109
0.827240 1.000000 0.702393
0.918152 1.000000 0.698090
1.000000 1.000000 0.696167
0.000000 0.000000 0.861237
0.000000 0.000000 0.860382
0.179321 0.000000 0.857697
0.395233 0.000000 0.853760
0.566162 0.000000 0.849091
0.720978 0.000000 0.844025
0.862213 0.000000 0.838745
0.985992 0.000000 0.833191
1.000000 0.000000 0.827881
0.000000 0.000000 0.859222
0.000000 0.000000 0.858582
0.198517 0.000000 0.855927
0.400909 0.000000 0.852051
0.567932 0.000000 0.847412
0.720673 0.000000 0.842407
0.860748 0.000000 0.837250
0.984070 0.000000 0.831818
1.000000 0.000000 0.826538
0.000000 0.203766 0.850250
0.000000 0.199829 0.851624
0.212769 0.192719 0.851807
0.404297 0.184937 0.848297
0.567657 0.175110 0.843628
0.718140 0.165833 0.838562
0.856415 0.163147 0.833618
0.978851 0.179657 0.828369
1.000000 0.216248 0.823364
0.000000 0.391724 0.837585
0.000000 0.390167 0.838959
0.215118 0.386200 0.841705
0.400024 0.381714 0.841492
0.562714 0.378723 0.837311
0.711670 0.376892 0.832397
0.847900 0.377502 0.827728
0.968536 0.385284 0.822876
1.000000 0.401550 0.818298
0.000000 0.555298 0.825500
0.000244 0.554779 0.826050
0.223480 0.553314 0.827332
0.397034 0.550385 0.828796
0.553894 0.546234 0.828918
0.701721 0.544434 0.824493
0.835358 0.544556 0.820129
0.953125 0.548981 0.815796
1.000000 0.558167 0.811859
0.000000 0.700134 0.815979
0.026794 0.699829 0.815948
0.248657 0.699066 0.815765
0.408295 0.697723 0.815430
0.553619 0.695648 0.815430
0.691254 0.692108 0.815857
0.821320 0.690857 0.811890
0.935394 0.692505 0.808411
1.000000 0.696686 0.805420
0.046112 0.824829 0.809723
0.164368 0.824402 0.809540
0.299072 0.823364 0.809143
0.435089 0.821686 0.808472
0.568115 0.819519 0.807526
0.694641 0.817261 0.806396
0.811279 0.815552 0.805420
0.920715 0.814697 0.802948
1.000000 0.815002 0.800873
0.260040 0.927429 0.806702
0.301361 0.926910 0.806610
0.382538 0.925659 0.806335
0.487091 0.923523 0.805969
0.599792 0.920624 0.805634
0.711517 0.917053 0.805878
0.815582 0.913910 0.807404
0.912231 0.915894 0.803772
1.000000 0.915741 0.801331
0.394135 1.000000 0.807404
0.418396 1.000000 0.807404
0.472137 1.000000 0.807434
0.549652 1.000000 0.807617
0.639984 1.000000 0.808197
0.734253 1.000000 0.809662
0.825500 1.000000 0.811310
0.912781 1.000000 0.808228
1.000000 1.000000 0.805359
0.000000 0.000000 0.970001
0.005859 0.000000 0.968933
0.250916 0.000000 0.966553
0.426483 0.000000 0.962982
0.583954 0.000000 0.958496
0.730438 0.000000 0.953430
0.865173 0.000000 0.948120
0.983978 0.000000 0.942780
1.000000 0.000000 0.937378
0.000000 0.000000 0.967957
0.019073 0.000000 0.966919
0.262054 0.000000 0.964630
0.430634 0.000000 0.961121
0.585052 0.000000 0.956696
0.729828 0.000000 0.951752
0.863556 0.000000 0.946564
0.981934 0.000000 0.941315
1.000000 0.000000 0.935974
0.000000 0.186737 0.961945
0.059204 0.183502 0.962158
0.269989 0.178558 0.960449
0.432495 0.170929 0.957153
0.584076 0.161469 0.952759
0.726898 0.153870 0.947815
0.858948 0.155731 0.942749
0.976685 0.176178 0.937744
1.000000 0.215332 0.932648
0.000000 0.383514 0.949341
0.080170 0.381775 0.950531
0.268799 0.378265 0.951782
0.428192 0.374939 0.950165
0.578674 0.372528 0.946198
0.719971 0.371490 0.941467
0.850006 0.373871 0.936615
0.966003 0.382477 0.931946
1.000000 0.399506 0.927185
0.000305 0.550629 0.934937
0.106476 0.549805 0.935730
0.273163 0.547852 0.937073
0.422791 0.544464 0.938507
0.569366 0.541016 0.937439
0.709167 0.539825 0.933167
0.836823 0.541077 0.928558
0.950470 0.545776 0.924347
1.000000 0.555359 0.920013
0.029694 0.697205 0.922241
0.156158 0.696838 0.922424
0.292816 0.695862 0.922699
0.430206 0.694061 0.923187
0.565338 0.691132 0.924072
0.697449 0.687622 0.923798
0.821716 0.687042 0.919739
0.932770 0.688782 0.915955
1.000000 0.693390 0.912231
0.177856 0.822052 0.912872
0.236694 0.821686 0.912781
0.337769 0.820770 0.912476
0.456451 0.819244 0.912018
0.578613 0.817261 0.911499
0.697205 0.814972 0.911285
0.810150 0.811920 0.911591
0.917999 0.811066 0.908325
1.000000 0.812012 0.905426
0.300049 0.925232 0.907440
0.334137 0.924835 0.907288
0.404785 0.923798 0.906982
0.499512 0.922150 0.906433
0.604309 0.920074 0.905731
0.710083 0.917847 0.904877
0.812500 0.915955 0.903900
0.909790 0.914612 0.903137
1.000000 0.913666 0.900879
0.407898 1.000000 0.904419
0.430054 1.000000 0.904327
0.479553 1.000000 0.904083
0.552063 1.000000 0.903748
0.638214 1.000000 0.903320
0.730042 1.000000 0.902985
0.822723 1.000000 0.903168
0.911987 1.000000 0.904419
0.998413 1.000000 0.903259
0.123993 0.000000 1.000000
0.210571 0.000000 1.000000
0.336700 0.000000 1.000000
0.474701 0.000000 1.000000
0.613708 0.000000 1.000000
0.748322 0.000000 1.000000
0.874054 0.000000 1.000000
0.985657 0.000000 1.000000
1.000000 0.000000 1.000000
0.145660 0.000000 1.000000
0.222473 0.000000 1.000000
0.342438 0.000000 1.000000
0.477051 0.000000 1.000000
0.613983 0.000000 1.000000
0.747314 0.000000 1.000000
0.872223 0.000000 1.000000
0.983490 0.000000 1.000000
1.000000 0.000000 1.000000
0.160614 0.169861 1.000000
0.230743 0.168060 1.000000
0.345551 0.163452 1.000000
0.477051 0.156311 1.000000
0.612061 0.148071 1.000000
0.743774 0.143555 1.000000
0.867188 0.151398 1.000000
0.977997 0.178253 1.000000
1.000000 0.219391 1.000000
0.165619 0.374542 1.000000
0.230743 0.373230 1.000000
0.341583 0.370880 1.000000
0.471863 0.368805 1.000000
0.605743 0.367096 1.000000
0.735962 0.367249 1.000000
0.857452 0.371521 1.000000
0.966919 0.382233 1.000000
1.000000 0.400146 1.000000
0.177185 0.544678 1.000000
0.236328 0.543854 1.000000
0.339569 0.541779 1.000000
0.463623 0.538605 1.000000
0.595245 0.536469 1.000000
0.723816 0.536041 1.000000
0.843109 0.538330 1.000000
0.950836 0.544373 1.000000
1.000000 0.554230 1.000000
0.206726 0.693298 1.000000
0.257446 0.692841 1.000000
0.350677 0.691620 1.000000
0.465240 0.689423 1.000000
0.587158 0.686249 1.000000
0.710144 0.683655 1.000000
0.826508 0.683746 1.000000
0.932556 0.686340 1.000000
1.000000 0.690918 1.000000
0.268311 0.819000 1.000000
0.306793 0.818634 1.000000
0.384003 0.817719 1.000000
0.484894 0.816132 1.000000
0.594757 0.813934 1.000000
0.705048 0.811096 1.000000
0.813232 0.808197 1.000000
0.917145 0.807709 1.000000
1.000000 0.808533 0.999847
0.353638 0.922302 0.998993
0.380829 0.921936 0.998901
0.439728 0.921051 0.998657
0.522614 0.919647 0.998260
0.617432 0.917877 0.997803
0.715546 0.915955 0.997345
0.812439 0.914062 0.997192
0.907806 0.911499 0.997559
1.000000 0.910309 0.994781
0.434692 1.000000 0.994781
0.453949 1.000000 0.994720
0.498016 1.000000 0.994476
0.564026 1.000000 0.994110
0.643890 1.000000 0.993561
0.730652 1.000000 0.992920
0.819550 1.000000 0.992157
0.908691 1.000000 0.991302
0.999634 1.000000 0.995239
