滤镜资源/Professional Luts Collection/Lutify.me Professional/Contemporary Color Films/Chlorite.cube
# Created by: Lutify.me
# Copyright: (c) Copyright Lutify.me 2015
# Website: https://lutify.me
#LUT size
LUT_3D_SIZE 33
#LUT data points
0.000000 0.000000 0.000000
0.015594 0.000000 0.001099
0.034302 0.000000 0.000061
0.058502 0.000000 0.000000
0.085114 0.000000 0.000000
0.114044 0.000000 0.000000
0.145538 0.000000 0.000000
0.180237 0.000000 0.000000
0.218170 0.000000 0.000000
0.258820 0.000000 0.000000
0.301636 0.000000 0.000000
0.345856 0.000000 0.000000
0.390717 0.000000 0.000000
0.435486 0.000000 0.000000
0.479675 0.000000 0.000000
0.523041 0.000000 0.000000
0.565582 0.000000 0.000000
0.607361 0.000000 0.000000
0.648346 0.000000 0.000000
0.688568 0.000000 0.000000
0.728027 0.000000 0.000000
0.766663 0.000000 0.000000
0.804474 0.000000 0.000000
0.841431 0.000000 0.000000
0.877502 0.000000 0.000000
0.912537 0.000000 0.000000
0.946594 0.000000 0.000000
0.978302 0.000000 0.000000
0.999268 0.000000 0.000000
1.000000 0.000000 0.000000
1.000000 0.000000 0.000000
1.000000 0.000000 0.000000
1.000000 0.000000 0.000000
0.000000 0.014465 0.000366
0.014465 0.014862 0.000000
0.033142 0.014496 0.000031
0.057922 0.014099 0.000000
0.085144 0.012970 0.000000
0.114807 0.010620 0.000000
0.146606 0.007141 0.000000
0.181702 0.001617 0.000000
0.219818 0.000092 0.000000
0.260681 0.000000 0.000000
0.303528 0.000000 0.000000
0.347656 0.000000 0.000000
0.392303 0.000000 0.000000
0.436798 0.000000 0.000000
0.480743 0.000000 0.000000
0.523895 0.000000 0.000000
0.566223 0.000000 0.000000
0.607819 0.000000 0.000000
0.648682 0.000000 0.000000
0.688843 0.000000 0.000000
0.728180 0.000000 0.000000
0.766724 0.000000 0.000000
0.804443 0.000000 0.000000
0.841370 0.000000 0.000000
0.877350 0.000000 0.000000
0.912354 0.000000 0.000000
0.946320 0.000000 0.000000
0.978088 0.000000 0.000000
0.999237 0.000000 0.000000
1.000000 0.000000 0.000000
1.000000 0.000000 0.000000
1.000000 0.000000 0.000000
1.000000 0.000000 0.000000
0.000000 0.031189 0.000366
0.014069 0.031982 0.000000
0.031982 0.032745 0.000000
0.057800 0.032379 0.000000
0.085510 0.031921 0.000000
0.115204 0.030029 0.000000
0.147888 0.026581 0.000000
0.183411 0.020660 0.000000
0.221802 0.012024 0.000000
0.262726 0.002625 0.000000
0.305511 0.000092 0.000000
0.349396 0.000000 0.000000
0.393829 0.000000 0.000000
0.438141 0.000000 0.000000
0.481842 0.000000 0.000000
0.524811 0.000000 0.000000
0.566956 0.000000 0.000000
0.608368 0.000000 0.000000
0.649139 0.000000 0.000000
0.689087 0.000000 0.000000
0.728302 0.000000 0.000000
0.766754 0.000000 0.000000
0.804413 0.000000 0.000000
0.841248 0.000000 0.000000
0.877167 0.000000 0.000000
0.912140 0.000000 0.000000
0.946075 0.000000 0.000000
0.977783 0.000000 0.000000
0.999176 0.000000 0.000000
1.000000 0.000000 0.000000
1.000000 0.000000 0.000000
1.000000 0.000000 0.000000
1.000000 0.000000 0.000000
0.000000 0.055969 0.000031
0.013214 0.056366 0.000000
0.030823 0.057526 0.000000
0.056885 0.058167 0.000000
0.084930 0.058136 0.000000
0.115662 0.057251 0.000000
0.148682 0.055115 0.000000
0.184906 0.050995 0.000000
0.223633 0.043823 0.000000
0.264832 0.032471 0.000000
0.307800 0.017761 0.000000
0.351654 0.004639 0.000000
0.395874 0.000336 0.000000
0.439880 0.000000 0.000000
0.483246 0.000000 0.000000
0.525879 0.000000 0.000000
0.567780 0.000000 0.000000
0.609009 0.000000 0.000000
0.649536 0.000000 0.000000
0.689362 0.000000 0.000000
0.728424 0.000000 0.000000
0.766754 0.000000 0.000000
0.804291 0.000000 0.000000
0.841034 0.000000 0.000000
0.876862 0.000000 0.000000
0.911774 0.000000 0.000000
0.945648 0.000000 0.000000
0.977386 0.000000 0.000000
0.999146 0.000000 0.000000
1.000000 0.000000 0.000000
1.000000 0.000000 0.000000
1.000000 0.000000 0.000000
1.000000 0.000000 0.000000
0.000000 0.083954 0.000000
0.008972 0.084351 0.000000
0.027161 0.085266 0.000000
0.054504 0.086365 0.000000
0.084076 0.087036 0.000000
0.115479 0.087036 0.000000
0.149719 0.085999 0.000000
0.186371 0.083801 0.000000
0.225647 0.079956 0.000000
0.266937 0.073761 0.000000
0.309845 0.064636 0.000000
0.353577 0.051910 0.000000
0.397675 0.035278 0.000000
0.441467 0.017517 0.000000
0.484650 0.005676 0.000000
0.527039 0.001007 0.000000
0.568665 0.000031 0.000000
0.609650 0.000000 0.000000
0.649994 0.000000 0.000000
0.689636 0.000000 0.000000
0.728516 0.000000 0.000000
0.766693 0.000000 0.000000
0.804108 0.000000 0.000000
0.840668 0.000000 0.000000
0.876404 0.000000 0.000000
0.911224 0.000000 0.000000
0.945038 0.000000 0.000000
0.976837 0.000000 0.000000
0.999054 0.000000 0.000000
1.000000 0.000000 0.000000
1.000000 0.000000 0.000000
1.000000 0.000000 0.000000
1.000000 0.000000 0.000000
0.000000 0.114990 0.000000
0.001434 0.115479 0.000000
0.020325 0.116211 0.000000
0.049622 0.117462 0.000000
0.081482 0.118958 0.000000
0.114807 0.119507 0.000000
0.149902 0.119507 0.000000
0.187408 0.118774 0.000000
0.227081 0.116882 0.000000
0.268677 0.113586 0.000000
0.311554 0.108856 0.000000
0.355103 0.102325 0.000000
0.398834 0.093811 0.000000
0.442322 0.083221 0.000000
0.485199 0.071014 0.000000
0.527405 0.059021 0.000000
0.568817 0.046234 0.000000
0.609650 0.031891 0.000000
0.649872 0.017517 0.000000
0.689362 0.008911 0.000000
0.728119 0.006317 0.000000
0.766144 0.004822 0.000000
0.803467 0.003540 0.000000
0.839935 0.002563 0.000000
0.875519 0.002014 0.000000
0.910217 0.001892 0.000000
0.943878 0.002411 0.000000
0.975739 0.003418 0.000000
0.998932 0.005035 0.000000
1.000000 0.007416 0.000000
1.000000 0.011536 0.000000
1.000000 0.035339 0.000000
1.000000 0.062439 0.000000
0.000000 0.150116 0.000000
0.000061 0.150635 0.000000
0.006439 0.151154 0.000000
0.038116 0.152283 0.000000
0.075073 0.154022 0.000000
0.111450 0.155609 0.000000
0.149200 0.156189 0.000000
0.187622 0.156189 0.000000
0.228027 0.155579 0.000000
0.269867 0.154022 0.000000
0.312653 0.151581 0.000000
0.356110 0.148132 0.000000
0.399567 0.143738 0.000000
0.442688 0.138580 0.000000
0.485168 0.132599 0.000000
0.527069 0.126068 0.000000
0.568298 0.118866 0.000000
0.608887 0.110992 0.000000
0.648895 0.102661 0.000000
0.688202 0.094696 0.000000
0.726837 0.089233 0.000000
0.764771 0.084747 0.000000
0.801971 0.080902 0.000000
0.838348 0.077881 0.000000
0.873871 0.076263 0.000000
0.908478 0.076019 0.000000
0.942078 0.077454 0.000000
0.974121 0.081238 0.000000
0.998718 0.087036 0.000000
1.000000 0.094696 0.000000
1.000000 0.104187 0.000000
1.000000 0.120300 0.000000
1.000000 0.138062 0.000000
0.000000 0.188477 0.000000
0.000000 0.188995 0.000000
0.000732 0.189392 0.000000
0.018311 0.190155 0.000000
0.062927 0.191925 0.000000
0.105408 0.193787 0.000000
0.145813 0.195374 0.000000
0.186768 0.195923 0.000000
0.227966 0.195831 0.000000
0.270264 0.195374 0.000000
0.313324 0.194275 0.000000
0.356659 0.192474 0.000000
0.399872 0.190125 0.000000
0.442596 0.187408 0.000000
0.484772 0.184357 0.000000
0.526337 0.180908 0.000000
0.567322 0.177368 0.000000
0.607727 0.173676 0.000000
0.647522 0.169891 0.000000
0.686676 0.166290 0.000000
0.725189 0.162903 0.000000
0.763000 0.159821 0.000000
0.800079 0.157257 0.000000
0.836365 0.155273 0.000000
0.871796 0.154297 0.000000
0.906342 0.154327 0.000000
0.939850 0.155701 0.000000
0.972198 0.158722 0.000000
0.998474 0.163208 0.000000
1.000000 0.169525 0.000000
1.000000 0.177521 0.000000
1.000000 0.187225 0.000000
1.000000 0.198242 0.000000
0.000000 0.229248 0.000000
0.000000 0.229675 0.000000
0.000000 0.230072 0.000000
0.002594 0.230682 0.000000
0.044250 0.231842 0.000000
0.095703 0.233917 0.000000
0.140472 0.235840 0.000000
0.183929 0.237183 0.000000
0.227173 0.237640 0.000000
0.270050 0.237518 0.000000
0.313324 0.237244 0.000000
0.356567 0.236511 0.000000
0.399506 0.235443 0.000000
0.441986 0.234009 0.000000
0.483887 0.232361 0.000000
0.525269 0.230499 0.000000
0.566040 0.228485 0.000000
0.606201 0.226379 0.000000
0.645874 0.224274 0.000000
0.684875 0.222229 0.000000
0.723267 0.220306 0.000000
0.760986 0.218536 0.000000
0.797974 0.217163 0.000000
0.834198 0.216187 0.000000
0.869537 0.215881 0.000000
0.903961 0.216278 0.000000
0.937408 0.217499 0.000000
0.969849 0.219788 0.000000
0.997375 0.223053 0.000000
1.000000 0.227631 0.000000
1.000000 0.233521 0.000000
1.000000 0.240753 0.000000
1.000000 0.249084 0.000000
0.000000 0.271484 0.000000
0.000000 0.271851 0.000000
0.000000 0.272156 0.000000
0.000000 0.272644 0.000000
0.018463 0.273315 0.000000
0.082001 0.275085 0.000000
0.133270 0.277252 0.000000
0.179932 0.278961 0.000000
0.224976 0.280090 0.000000
0.269257 0.280518 0.000000
0.312866 0.280396 0.000000
0.356049 0.280121 0.000000
0.398773 0.279694 0.000000
0.440979 0.279053 0.000000
0.482727 0.278137 0.000000
0.523895 0.277069 0.000000
0.564484 0.275879 0.000000
0.604523 0.274597 0.000000
0.644012 0.273285 0.000000
0.682953 0.271973 0.000000
0.721191 0.270752 0.000000
0.758820 0.269653 0.000000
0.795685 0.268860 0.000000
0.831818 0.268341 0.000000
0.867065 0.268280 0.000000
0.901367 0.268799 0.000000
0.934723 0.269928 0.000000
0.967041 0.271851 0.000000
0.995148 0.274567 0.000000
1.000000 0.278229 0.000000
1.000000 0.283081 0.000000
1.000000 0.288940 0.000000
1.000000 0.295746 0.000000
0.000000 0.314026 0.000000
0.000000 0.314331 0.000000
0.000000 0.314606 0.000000
0.000000 0.314972 0.000000
0.003998 0.315430 0.000000
0.064728 0.316681 0.000000
0.124908 0.318756 0.000000
0.175079 0.320648 0.000000
0.222260 0.322144 0.000000
0.267761 0.322998 0.000000
0.312225 0.323273 0.000000
0.355438 0.323090 0.000000
0.398010 0.322845 0.000000
0.440033 0.322571 0.000000
0.481537 0.322113 0.000000
0.522491 0.321533 0.000000
0.562866 0.320831 0.000000
0.602783 0.320007 0.000000
0.642120 0.319122 0.000000
0.680908 0.318268 0.000000
0.719055 0.317474 0.000000
0.756500 0.316803 0.000000
0.793243 0.316315 0.000000
0.829254 0.316101 0.000000
0.864349 0.316193 0.000000
0.898590 0.316711 0.000000
0.931763 0.317810 0.000000
0.963989 0.319458 0.000000
0.992432 0.321747 0.000000
1.000000 0.324890 0.000000
1.000000 0.328979 0.000000
1.000000 0.333893 0.000000
1.000000 0.339630 0.000000
0.000000 0.356018 0.000000
0.000000 0.356201 0.000000
0.000000 0.356415 0.000000
0.000000 0.356720 0.000000
0.000336 0.357056 0.000000
0.049133 0.357819 0.000000
0.116394 0.359741 0.000000
0.170685 0.361694 0.000000
0.219635 0.363251 0.000000
0.266205 0.364441 0.000000
0.311249 0.365082 0.000000
0.354889 0.365173 0.000000
0.397308 0.364990 0.000000
0.439117 0.364807 0.000000
0.480377 0.364594 0.000000
0.521149 0.364288 0.000000
0.561310 0.363861 0.000000
0.600983 0.363403 0.000000
0.640198 0.362823 0.000000
0.678802 0.362244 0.000000
0.716797 0.361725 0.000000
0.754120 0.361328 0.000000
0.790710 0.361023 0.000000
0.826538 0.360992 0.000000
0.861542 0.361176 0.000000
0.895599 0.361725 0.000000
0.928650 0.362732 0.000000
0.960724 0.364166 0.000000
0.989471 0.366211 0.000000
1.000000 0.368927 0.000000
1.000000 0.372437 0.000000
1.000000 0.376678 0.000000
1.000000 0.381653 0.000000
0.000000 0.397186 0.000000
0.000000 0.397308 0.000000
0.000000 0.397461 0.000000
0.000000 0.397705 0.000000
0.000000 0.397888 0.000000
0.035797 0.398346 0.000000
0.109406 0.400055 0.000000
0.167328 0.401978 0.000000
0.217773 0.403625 0.000000
0.264954 0.404907 0.000000
0.310242 0.405823 0.000000
0.354126 0.406250 0.000000
0.396759 0.406281 0.000000
0.438324 0.406097 0.000000
0.479431 0.405914 0.000000
0.519928 0.405762 0.000000
0.559875 0.405548 0.000000
0.599335 0.405273 0.000000
0.638306 0.404938 0.000000
0.676727 0.404572 0.000000
0.714539 0.404266 0.000000
0.751678 0.403992 0.000000
0.788086 0.403839 0.000000
0.823730 0.403900 0.000000
0.858582 0.404144 0.000000
0.892456 0.404694 0.000000
0.925354 0.405640 0.000000
0.957245 0.406952 0.000000
0.986328 0.408752 0.000000
1.000000 0.411133 0.000000
1.000000 0.414185 0.000000
1.000000 0.417847 0.000000
1.000000 0.422180 0.000000
0.000000 0.437439 0.000000
0.000000 0.437531 0.000000
0.000000 0.437622 0.000000
0.000000 0.437805 0.000000
0.000000 0.437988 0.000000
0.025787 0.438232 0.000000
0.103638 0.439697 0.000000
0.165314 0.441528 0.000000
0.216736 0.443176 0.000000
0.264252 0.444550 0.000000
0.309509 0.445618 0.000000
0.353363 0.446289 0.000000
0.396027 0.446655 0.000000
0.437744 0.446625 0.000000
0.478607 0.446381 0.000000
0.518860 0.446228 0.000000
0.558594 0.446106 0.000000
0.597778 0.445953 0.000000
0.636536 0.445740 0.000000
0.674713 0.445557 0.000000
0.712280 0.445343 0.000000
0.749237 0.445190 0.000000
0.785431 0.445129 0.000000
0.820892 0.445251 0.000000
0.855499 0.445526 0.000000
0.889191 0.446075 0.000000
0.921906 0.446930 0.000000
0.953613 0.448120 0.000000
0.983002 0.449738 0.000000
0.999847 0.451813 0.000000
1.000000 0.454468 0.000000
1.000000 0.457672 0.000000
1.000000 0.461456 0.000000
0.000000 0.476868 0.000000
0.000000 0.476929 0.000000
0.000000 0.476990 0.000000
0.000000 0.477112 0.000000
0.000000 0.477234 0.000000
0.021271 0.477448 0.000000
0.100800 0.478668 0.000000
0.164459 0.480377 0.000000
0.216431 0.481995 0.000000
0.263977 0.483398 0.000000
0.309174 0.484589 0.000000
0.352844 0.485413 0.000000
0.395447 0.485992 0.000000
0.437195 0.486206 0.000000
0.477997 0.486115 0.000000
0.518066 0.485840 0.000000
0.557465 0.485718 0.000000
0.596405 0.485596 0.000000
0.634888 0.485474 0.000000
0.672821 0.485321 0.000000
0.710114 0.485260 0.000000
0.746826 0.485168 0.000000
0.782806 0.485168 0.000000
0.818054 0.485291 0.000000
0.852386 0.485596 0.000000
0.885895 0.486084 0.000000
0.918365 0.486877 0.000000
0.949890 0.487946 0.000000
0.979553 0.489380 0.000000
0.999512 0.491241 0.000000
1.000000 0.493561 0.000000
1.000000 0.496368 0.000000
1.000000 0.499664 0.000000
0.000000 0.515411 0.000000
0.000000 0.515442 0.000000
0.000000 0.515503 0.000000
0.000000 0.515594 0.000000
0.000000 0.515656 0.000000
0.021271 0.515839 0.000000
0.101227 0.516937 0.000000
0.165314 0.518524 0.000000
0.217133 0.520081 0.000000
0.264435 0.521484 0.000000
0.309357 0.522675 0.000000
0.352783 0.523651 0.000000
0.395203 0.524292 0.000000
0.436737 0.524719 0.000000
0.477570 0.524841 0.000000
0.517456 0.524689 0.000000
0.556641 0.524414 0.000000
0.595276 0.524292 0.000000
0.633453 0.524170 0.000000
0.671082 0.524078 0.000000
0.708130 0.524017 0.000000
0.744537 0.523987 0.000000
0.780273 0.524017 0.000000
0.815247 0.524139 0.000000
0.849335 0.524445 0.000000
0.882538 0.524902 0.000000
0.914795 0.525574 0.000000
0.946045 0.526550 0.000000
0.975983 0.527832 0.000000
0.999176 0.529510 0.000000
1.000000 0.531555 0.000000
1.000000 0.533997 0.000000
1.000000 0.536865 0.000000
0.000000 0.553040 0.000000
0.000000 0.553101 0.000000
0.000000 0.553131 0.000000
0.000000 0.553192 0.000000
0.000000 0.553223 0.000000
0.026886 0.553345 0.000000
0.104248 0.554413 0.000000
0.167755 0.555878 0.000000
0.218933 0.557343 0.000000
0.265808 0.558716 0.000000
0.310364 0.559906 0.000000
0.353424 0.560913 0.000000
0.395477 0.561676 0.000000
0.436676 0.562225 0.000000
0.477264 0.562500 0.000000
0.517120 0.562500 0.000000
0.556091 0.562347 0.000000
0.594482 0.562042 0.000000
0.632324 0.561890 0.000000
0.669647 0.561768 0.000000
0.706329 0.561676 0.000000
0.742401 0.561676 0.000000
0.777832 0.561707 0.000000
0.812500 0.561829 0.000000
0.846313 0.562103 0.000000
0.879242 0.562500 0.000000
0.911224 0.563141 0.000000
0.942200 0.563995 0.000000
0.972046 0.565125 0.000000
0.997742 0.566620 0.000000
1.000000 0.568390 0.000000
1.000000 0.570496 0.000000
1.000000 0.572998 0.000000
0.000000 0.589874 0.000000
0.000000 0.589874 0.000000
0.000000 0.589905 0.000000
0.000000 0.589935 0.000000
0.000000 0.589966 0.000000
0.038513 0.590027 0.000000
0.110931 0.591095 0.000000
0.172058 0.592438 0.000000
0.222137 0.593842 0.000000
0.268280 0.595154 0.000000
0.312256 0.596313 0.000000
0.354797 0.597290 0.000000
0.396393 0.598114 0.000000
0.437256 0.598755 0.000000
0.477386 0.599152 0.000000
0.517029 0.599304 0.000000
0.555878 0.599243 0.000000
0.593994 0.598999 0.000000
0.631531 0.598663 0.000000
0.668457 0.598480 0.000000
0.704803 0.598389 0.000000
0.740540 0.598328 0.000000
0.775604 0.598389 0.000000
0.809967 0.598419 0.000000
0.843445 0.598694 0.000000
0.876038 0.599030 0.000000
0.907684 0.599579 0.000000
0.938385 0.600342 0.000000
0.967926 0.601318 0.000000
0.994568 0.602600 0.000000
1.000000 0.604156 0.000000
1.000000 0.605988 0.000000
1.000000 0.608124 0.000000
0.000000 0.625732 0.000000
0.000000 0.625732 0.000000
0.000000 0.625763 0.000000
0.000000 0.625763 0.000000
0.001038 0.625763 0.000000
0.054016 0.625916 0.000000
0.121429 0.626923 0.000000
0.178528 0.628204 0.000000
0.227051 0.629486 0.000000
0.272156 0.630707 0.000000
0.315277 0.631836 0.000000
0.357147 0.632812 0.000000
0.398132 0.633636 0.000000
0.438446 0.634308 0.000000
0.478210 0.634766 0.000000
0.517365 0.635040 0.000000
0.555969 0.635071 0.000000
0.593872 0.634949 0.000000
0.631134 0.634644 0.000000
0.667694 0.634308 0.000000
0.703644 0.634125 0.000000
0.738983 0.634003 0.000000
0.773651 0.633972 0.000000
0.807617 0.634003 0.000000
0.840759 0.634155 0.000000
0.872986 0.634460 0.000000
0.904297 0.634918 0.000000
0.934631 0.635559 0.000000
0.963867 0.636414 0.000000
0.990631 0.637512 0.000000
1.000000 0.638794 0.000000
1.000000 0.640381 0.000000
1.000000 0.642242 0.000000
0.000000 0.660614 0.000000
0.000000 0.660614 0.000000
0.000000 0.660614 0.000000
0.000000 0.660614 0.000000
0.005188 0.660583 0.000000
0.072174 0.660858 0.000000
0.134827 0.661835 0.000000
0.187408 0.663055 0.000000
0.233887 0.664215 0.000000
0.277557 0.665375 0.000000
0.319672 0.666412 0.000000
0.360657 0.667358 0.000000
0.400879 0.668182 0.000000
0.440552 0.668854 0.000000
0.479736 0.669342 0.000000
0.518433 0.669647 0.000000
0.556580 0.669769 0.000000
0.594147 0.669708 0.000000
0.631104 0.669525 0.000000
0.667358 0.669189 0.000000
0.702911 0.668823 0.000000
0.737854 0.668610 0.000000
0.772064 0.668488 0.000000
0.805573 0.668488 0.000000
0.838318 0.668518 0.000000
0.870148 0.668762 0.000000
0.901062 0.669098 0.000000
0.931030 0.669586 0.000000
0.959930 0.670349 0.000000
0.986847 0.671265 0.000000
0.999969 0.672363 0.000000
1.000000 0.673676 0.000000
1.000000 0.675232 0.000000
0.000000 0.694427 0.000000
0.000000 0.694458 0.000000
0.000000 0.694427 0.000000
0.000458 0.694427 0.000000
0.025665 0.694397 0.000000
0.092834 0.694824 0.000000
0.150879 0.695801 0.000000
0.198730 0.696899 0.000000
0.242828 0.697968 0.000000
0.284851 0.699005 0.000000
0.325592 0.699982 0.000000
0.365540 0.700867 0.000000
0.404907 0.701660 0.000000
0.443756 0.702332 0.000000
0.482239 0.702820 0.000000
0.520325 0.703125 0.000000
0.557953 0.703308 0.000000
0.595062 0.703308 0.000000
0.631561 0.703186 0.000000
0.667450 0.702911 0.000000
0.702637 0.702484 0.000000
0.737091 0.702118 0.000000
0.770905 0.701874 0.000000
0.803955 0.701782 0.000000
0.836212 0.701752 0.000000
0.867615 0.701843 0.000000
0.898102 0.702087 0.000000
0.927643 0.702484 0.000000
0.956207 0.703064 0.000000
0.983215 0.703827 0.000000
0.999878 0.704742 0.000000
1.000000 0.705811 0.000000
1.000000 0.707062 0.000000
0.000000 0.727112 0.000000
0.000000 0.727112 0.000000
0.000183 0.727081 0.000000
0.012360 0.727051 0.000000
0.063721 0.727142 0.000000
0.120331 0.727783 0.000000
0.169403 0.728668 0.000000
0.212708 0.729645 0.000000
0.253998 0.730621 0.000000
0.294037 0.731567 0.000000
0.333282 0.732452 0.000000
0.371979 0.733276 0.000000
0.410278 0.734009 0.000000
0.448273 0.734619 0.000000
0.485901 0.735107 0.000000
0.523224 0.735443 0.000000
0.560181 0.735626 0.000000
0.596741 0.735657 0.000000
0.632690 0.735565 0.000000
0.668121 0.735321 0.000000
0.702881 0.734985 0.000000
0.736908 0.734528 0.000000
0.770203 0.734131 0.000000
0.802734 0.733917 0.000000
0.834503 0.733795 0.000000
0.865448 0.733765 0.000000
0.895447 0.733887 0.000000
0.924591 0.734131 0.000000
0.952759 0.734589 0.000000
0.979797 0.735138 0.000000
0.999634 0.735870 0.000000
1.000000 0.736694 0.000000
1.000000 0.737671 0.000000
0.000000 0.758575 0.000000
0.004944 0.758575 0.000000
0.017151 0.758545 0.000000
0.051117 0.758575 0.000000
0.103546 0.758911 0.000000
0.149017 0.759583 0.000000
0.190125 0.760437 0.000000
0.229248 0.761261 0.000000
0.267578 0.762115 0.000000
0.305420 0.762970 0.000000
0.342865 0.763794 0.000000
0.380157 0.764526 0.000000
0.417236 0.765198 0.000000
0.454163 0.765747 0.000000
0.490875 0.766174 0.000000
0.527374 0.766479 0.000000
0.563477 0.766693 0.000000
0.599304 0.766724 0.000000
0.634674 0.766632 0.000000
0.669464 0.766418 0.000000
0.703735 0.766083 0.000000
0.737305 0.765656 0.000000
0.770050 0.765198 0.000000
0.802094 0.764801 0.000000
0.833313 0.764526 0.000000
0.863739 0.764435 0.000000
0.893280 0.764404 0.000000
0.921936 0.764526 0.000000
0.949738 0.764801 0.000000
0.976685 0.765167 0.000000
0.999298 0.765717 0.000000
1.000000 0.766327 0.000000
1.000000 0.767029 0.000000
0.020020 0.788757 0.000000
0.038116 0.788788 0.000000
0.069763 0.788818 0.000000
0.107544 0.789093 0.000000
0.143036 0.789612 0.000000
0.177917 0.790222 0.000000
0.212952 0.790955 0.000000
0.248108 0.791687 0.000000
0.283447 0.792419 0.000000
0.318970 0.793182 0.000000
0.354553 0.793884 0.000000
0.390167 0.794556 0.000000
0.425873 0.795135 0.000000
0.461578 0.795624 0.000000
0.497223 0.795990 0.000000
0.532745 0.796265 0.000000
0.568024 0.796417 0.000000
0.602966 0.796448 0.000000
0.637604 0.796326 0.000000
0.671753 0.796143 0.000000
0.705353 0.795807 0.000000
0.738342 0.795410 0.000000
0.770599 0.794922 0.000000
0.802032 0.794434 0.000000
0.832703 0.794006 0.000000
0.862549 0.793762 0.000000
0.891571 0.793610 0.000000
0.919739 0.793610 0.000000
0.947144 0.793732 0.000000
0.973724 0.793915 0.000000
0.998169 0.794281 0.000000
1.000000 0.794678 0.000000
1.000000 0.795197 0.000000
0.087738 0.817719 0.000000
0.109711 0.817871 0.000000
0.129333 0.818115 0.000000
0.152527 0.818481 0.000000
0.178925 0.818970 0.000000
0.207520 0.819489 0.000000
0.237762 0.820099 0.000000
0.269257 0.820740 0.000000
0.301605 0.821381 0.000000
0.334656 0.822021 0.000000
0.368286 0.822632 0.000000
0.402191 0.823181 0.000000
0.436371 0.823700 0.000000
0.470703 0.824127 0.000000
0.505157 0.824432 0.000000
0.539581 0.824646 0.000000
0.573792 0.824768 0.000000
0.607849 0.824768 0.000000
0.641602 0.824646 0.000000
0.674988 0.824402 0.000000
0.707855 0.824097 0.000000
0.740173 0.823669 0.000000
0.771790 0.823212 0.000000
0.802643 0.822723 0.000000
0.832703 0.822205 0.000000
0.861938 0.821777 0.000000
0.890350 0.821533 0.000000
0.918091 0.821381 0.000000
0.945038 0.821320 0.000000
0.971252 0.821442 0.000000
0.995697 0.821564 0.000000
1.000000 0.821838 0.000000
1.000000 0.822144 0.000000
0.148346 0.845856 0.000000
0.161499 0.846039 0.000000
0.175110 0.846252 0.000000
0.192627 0.846558 0.000000
0.213928 0.846954 0.000000
0.237823 0.847412 0.000000
0.264252 0.847900 0.000000
0.292389 0.848419 0.000000
0.321899 0.848969 0.000000
0.352539 0.849518 0.000000
0.384003 0.850037 0.000000
0.416077 0.850525 0.000000
0.448608 0.850922 0.000000
0.481476 0.851288 0.000000
0.514587 0.851532 0.000000
0.547821 0.851715 0.000000
0.580933 0.851807 0.000000
0.613892 0.851746 0.000000
0.646759 0.851593 0.000000
0.679230 0.851349 0.000000
0.711243 0.851044 0.000000
0.742737 0.850616 0.000000
0.773651 0.850159 0.000000
0.803864 0.849670 0.000000
0.833282 0.849152 0.000000
0.861877 0.848633 0.000000
0.889740 0.848236 0.000000
0.916931 0.847992 0.000000
0.943451 0.847809 0.000000
0.969269 0.847778 0.000000
0.993500 0.847809 0.000000
1.000000 0.847900 0.000000
1.000000 0.848083 0.000000
0.195709 0.872711 0.000000
0.205627 0.872894 0.000000
0.216217 0.873077 0.000000
0.230316 0.873322 0.000000
0.248047 0.873657 0.000000
0.268524 0.874023 0.000000
0.291809 0.874420 0.000000
0.316956 0.874847 0.000000
0.343811 0.875336 0.000000
0.372131 0.875763 0.000000
0.401459 0.876221 0.000000
0.431610 0.876587 0.000000
0.462433 0.876953 0.000000
0.493774 0.877228 0.000000
0.525452 0.877411 0.000000
0.557312 0.877533 0.000000
0.589233 0.877594 0.000000
0.621124 0.877533 0.000000
0.652893 0.877350 0.000000
0.684418 0.877106 0.000000
0.715515 0.876770 0.000000
0.746124 0.876343 0.000000
0.776215 0.875885 0.000000
0.805634 0.875427 0.000000
0.834381 0.874908 0.000000
