滤镜资源/Professional Luts Collection/Lutify.me Professional/Contemporary Color Films/Chlorite.cube
# Created by: Lutify.me
# Copyright: (c) Copyright Lutify.me 2015
# Website: https://lutify.me
#LUT size
LUT_3D_SIZE 5
#LUT data points
0.000000 0.000000 0.000000
0.218170 0.000000 0.000000
0.565582 0.000000 0.000000
0.877502 0.000000 0.000000
1.000000 0.000000 0.000000
0.000000 0.229248 0.000000
0.227173 0.237640 0.000000
0.566040 0.228485 0.000000
0.869537 0.215881 0.000000
1.000000 0.249084 0.000000
0.000000 0.553040 0.000000
0.218933 0.557343 0.000000
0.556091 0.562347 0.000000
0.846313 0.562103 0.000000
1.000000 0.572998 0.000000
0.087738 0.817719 0.000000
0.301605 0.821381 0.000000
0.573792 0.824768 0.000000
0.832703 0.822205 0.000000
1.000000 0.822144 0.000000
0.412964 1.000000 0.135406
0.486542 1.000000 0.125580
0.653809 1.000000 0.099365
0.848297 1.000000 0.075897
1.000000 1.000000 0.093842
0.000000 0.000000 0.249146
0.218781 0.000000 0.244385
0.570099 0.000000 0.236511
0.877686 0.000000 0.225433
1.000000 0.000000 0.209900
0.000000 0.234955 0.243042
0.233887 0.235474 0.241455
0.571930 0.221130 0.232330
0.871277 0.207001 0.218628
1.000000 0.240753 0.203278
0.000000 0.558594 0.235413
0.231354 0.554657 0.240936
0.556732 0.560822 0.223938
0.846527 0.560486 0.208893
1.000000 0.570892 0.196930
0.066101 0.820801 0.254120
0.310913 0.817413 0.260162
0.573273 0.821716 0.243195
0.829681 0.821106 0.229340
1.000000 0.821503 0.228149
0.417664 1.000000 0.329437
0.489441 1.000000 0.326752
0.652283 1.000000 0.316711
0.844238 1.000000 0.305450
1.000000 1.000000 0.307098
0.000000 0.000000 0.581390
0.171204 0.000000 0.577179
0.564850 0.000000 0.568329
0.870941 0.000000 0.558014
1.000000 0.000000 0.547852
0.000000 0.225952 0.570648
0.206421 0.217834 0.572723
0.567688 0.200928 0.563660
0.864624 0.187897 0.553589
1.000000 0.229126 0.544556
0.000000 0.561188 0.553558
0.209015 0.560211 0.552582
0.554596 0.557587 0.550110
0.843445 0.554474 0.543304
1.000000 0.564819 0.537109
0.014099 0.827026 0.550568
0.296722 0.823029 0.552155
0.574768 0.815643 0.556976
0.820435 0.818604 0.547821
1.000000 0.819458 0.543732
0.407715 1.000000 0.579407
0.486176 1.000000 0.581635
0.649109 1.000000 0.583923
0.832916 1.000000 0.576538
1.000000 1.000000 0.572601
0.000000 0.000000 0.861237
0.179321 0.000000 0.857697
0.566162 0.000000 0.849091
0.862213 0.000000 0.838745
1.000000 0.000000 0.827881
0.000000 0.203766 0.850250
0.212769 0.192719 0.851807
0.567657 0.175110 0.843628
0.856415 0.163147 0.833618
1.000000 0.216248 0.823364
0.000000 0.555298 0.825500
0.223480 0.553314 0.827332
0.553894 0.546234 0.828918
0.835358 0.544556 0.820129
1.000000 0.558167 0.811859
0.046112 0.824829 0.809723
0.299072 0.823364 0.809143
0.568115 0.819519 0.807526
0.811279 0.815552 0.805420
1.000000 0.815002 0.800873
0.394135 1.000000 0.807404
0.472137 1.000000 0.807434
0.639984 1.000000 0.808197
0.825500 1.000000 0.811310
1.000000 1.000000 0.805359
0.123993 0.000000 1.000000
0.336700 0.000000 1.000000
0.613708 0.000000 1.000000
0.874054 0.000000 1.000000
1.000000 0.000000 1.000000
0.160614 0.169861 1.000000
0.345551 0.163452 1.000000
0.612061 0.148071 1.000000
0.867188 0.151398 1.000000
1.000000 0.219391 1.000000
0.177185 0.544678 1.000000
0.339569 0.541779 1.000000
0.595245 0.536469 1.000000
0.843109 0.538330 1.000000
1.000000 0.554230 1.000000
0.268311 0.819000 1.000000
0.384003 0.817719 1.000000
0.594757 0.813934 1.000000
0.813232 0.808197 1.000000
1.000000 0.808533 0.999847
0.434692 1.000000 0.994781
0.498016 1.000000 0.994476
0.643890 1.000000 0.993561
0.819550 1.000000 0.992157
0.999634 1.000000 0.995239
