滤镜资源/Professional Luts Collection/Lutify.me Professional/Contemporary Color Films/Chrysotile.cube
# Created by: Lutify.me
# Copyright: (c) Copyright Lutify.me 2015
# Website: https://lutify.me
#LUT size
LUT_3D_SIZE 5
#LUT data points
0.000000 0.000000 0.000000
0.183685 0.000000 0.000000
0.513092 0.000000 0.000000
0.846954 0.000000 0.000000
1.000000 0.000000 0.000000
0.000000 0.211121 0.000000
0.197662 0.209564 0.000000
0.529694 0.189423 0.000000
0.851440 0.143433 0.000000
1.000000 0.141174 0.000000
0.000000 0.555664 0.000000
0.081268 0.553253 0.000000
0.533173 0.544342 0.000000
0.853363 0.535919 0.000000
1.000000 0.541534 0.000000
0.000000 0.860413 0.000000
0.028656 0.856903 0.000000
0.535522 0.845551 0.000000
0.843872 0.834442 0.000000
1.000000 0.830505 0.000000
0.281586 1.000000 0.000000
0.411896 1.000000 0.000000
0.643494 1.000000 0.000000
0.872620 1.000000 0.000000
1.000000 1.000000 0.000000
0.000000 0.000000 0.204437
0.186981 0.000000 0.203217
0.521332 0.000000 0.199371
0.850494 0.000000 0.190826
1.000000 0.000000 0.174744
0.000000 0.204620 0.207397
0.204071 0.204071 0.204071
0.533356 0.185303 0.197235
0.852203 0.138763 0.183899
1.000000 0.140686 0.164764
0.000000 0.549408 0.160217
0.095215 0.549316 0.151825
0.536591 0.540497 0.146027
0.851990 0.532745 0.130707
1.000000 0.539825 0.103760
0.000000 0.855347 0.051788
0.028320 0.853882 0.038147
0.535278 0.842987 0.047852
0.841583 0.831573 0.046387
1.000000 0.828003 0.044708
0.271698 1.000000 0.110870
0.405151 1.000000 0.114990
0.639404 1.000000 0.134155
0.868164 1.000000 0.156097
1.000000 1.000000 0.245026
0.000000 0.000000 0.541443
0.099945 0.000000 0.540375
0.519714 0.000000 0.537537
0.848907 0.000000 0.532898
1.000000 0.000000 0.527863
0.000000 0.194763 0.544769
0.155151 0.192047 0.541534
0.531891 0.166840 0.537659
0.850006 0.112640 0.531952
1.000000 0.126282 0.526581
0.000000 0.537079 0.538483
0.078674 0.535919 0.536621
0.531372 0.531250 0.531342
0.841064 0.527679 0.526672
1.000000 0.538422 0.522186
0.000000 0.842102 0.523254
0.030975 0.840942 0.521240
0.524811 0.836823 0.514557
0.830933 0.824524 0.514648
1.000000 0.822235 0.515320
0.260773 1.000000 0.534363
0.390930 1.000000 0.532593
0.624023 1.000000 0.530762
0.852173 1.000000 0.535370
1.000000 1.000000 0.556702
0.000000 0.000000 0.846832
0.012573 0.000000 0.845673
0.516541 0.000000 0.842438
0.843445 0.000000 0.837311
1.000000 0.000000 0.831085
0.000000 0.176086 0.846893
0.088501 0.169464 0.844269
0.528290 0.137451 0.840576
0.844055 0.084473 0.835022
1.000000 0.114471 0.828705
0.000000 0.526367 0.841278
0.067535 0.525391 0.838898
0.529877 0.523285 0.832001
0.834198 0.520447 0.826874
1.000000 0.535400 0.821167
0.000000 0.829956 0.825226
0.075073 0.828094 0.824066
0.525696 0.822693 0.820740
0.815918 0.815826 0.815857
1.000000 0.817963 0.813263
0.283539 1.000000 0.819427
0.400391 1.000000 0.818665
0.614288 1.000000 0.816315
0.828522 1.000000 0.812286
1.000000 1.000000 0.816498
0.000000 0.000000 1.000000
0.246368 0.000000 1.000000
0.575836 0.000000 1.000000
0.865906 0.000000 1.000000
1.000000 0.000000 1.000000
0.000000 0.146545 1.000000
0.279175 0.135956 1.000000
0.584045 0.096893 1.000000
0.864868 0.066742 1.000000
1.000000 0.134460 1.000000
0.000000 0.518738 1.000000
0.289032 0.518616 1.000000
0.584320 0.516998 1.000000
0.851532 0.517303 1.000000
1.000000 0.537292 1.000000
0.012085 0.819946 1.000000
0.296783 0.818298 1.000000
0.578400 0.814178 1.000000
0.826202 0.811401 1.000000
1.000000 0.815460 1.000000
0.420044 1.000000 1.000000
0.492981 1.000000 1.000000
0.653320 1.000000 1.000000
0.831818 1.000000 1.000000
0.999969 1.000000 0.999939
