滤镜资源/Professional Luts Collection/Lutify.me Professional/Contemporary Color Films/Chrysoprase.cube
# Created by: Lutify.me
# Copyright: (c) Copyright Lutify.me 2015
# Website: https://lutify.me
#LUT size
LUT_3D_SIZE 33
#LUT data points
0.000000 0.000000 0.000000
0.010101 0.000000 0.000793
0.023010 0.000000 0.000061
0.041443 0.000000 0.000000
0.063965 0.000000 0.000000
0.088257 0.000000 0.000000
0.114624 0.000000 0.000000
0.143250 0.000000 0.000000
0.175018 0.000000 0.000000
0.209564 0.000000 0.000000
0.246704 0.000000 0.000000
0.286133 0.000000 0.000000
0.327454 0.000000 0.000000
0.370239 0.000000 0.000000
0.414215 0.000000 0.000000
0.459076 0.000000 0.000000
0.504425 0.000000 0.000000
0.550140 0.000000 0.000000
0.596191 0.000000 0.000000
0.642395 0.000000 0.000000
0.688599 0.000000 0.000000
0.734650 0.000000 0.000000
0.780396 0.000000 0.000000
0.825745 0.000000 0.000000
0.870361 0.000000 0.000000
0.914154 0.000000 0.000000
0.956909 0.000000 0.000000
0.993225 0.000000 0.000000
1.000000 0.000000 0.000000
1.000000 0.000000 0.000000
1.000000 0.000000 0.000000
1.000000 0.000000 0.000000
1.000000 0.000000 0.000000
0.000000 0.011322 0.000000
0.010468 0.010498 0.000000
0.022675 0.010071 0.000031
0.041748 0.009644 0.000000
0.064484 0.008575 0.000000
0.089050 0.007355 0.000000
0.115417 0.005157 0.000000
0.144379 0.001495 0.000000
0.176331 0.000153 0.000000
0.211121 0.000000 0.000000
0.248352 0.000000 0.000000
0.287781 0.000000 0.000000
0.329041 0.000000 0.000000
0.371735 0.000000 0.000000
0.415680 0.000000 0.000000
0.460419 0.000000 0.000000
0.505615 0.000000 0.000000
0.551208 0.000000 0.000000
0.597137 0.000000 0.000000
0.643280 0.000000 0.000000
0.689362 0.000000 0.000000
0.735352 0.000000 0.000000
0.780975 0.000000 0.000000
0.826233 0.000000 0.000000
0.870819 0.000000 0.000000
0.914490 0.000000 0.000000
0.957153 0.000000 0.000000
0.993378 0.000000 0.000000
1.000000 0.000000 0.000000
1.000000 0.000000 0.000000
1.000000 0.000000 0.000000
1.000000 0.000000 0.000000
1.000000 0.000000 0.000000
0.000000 0.024597 0.000000
0.008881 0.024200 0.000000
0.022644 0.023407 0.000000
0.042084 0.022675 0.000000
0.065033 0.021851 0.000000
0.089935 0.020355 0.000000
0.116669 0.018097 0.000000
0.145935 0.014343 0.000000
0.178162 0.008301 0.000000
0.212891 0.001801 0.000000
0.250183 0.000061 0.000000
0.289581 0.000000 0.000000
0.330780 0.000000 0.000000
0.373413 0.000000 0.000000
0.417236 0.000000 0.000000
0.461853 0.000000 0.000000
0.506897 0.000000 0.000000
0.552429 0.000000 0.000000
0.598267 0.000000 0.000000
0.644257 0.000000 0.000000
0.690247 0.000000 0.000000
0.736145 0.000000 0.000000
0.781708 0.000000 0.000000
0.826782 0.000000 0.000000
0.871277 0.000000 0.000000
0.914886 0.000000 0.000000
0.957489 0.000000 0.000000
0.993591 0.000000 0.000000
1.000000 0.000000 0.000000
1.000000 0.000000 0.000000
1.000000 0.000000 0.000000
1.000000 0.000000 0.000000
1.000000 0.000000 0.000000
0.000000 0.045319 0.000000
0.006226 0.044678 0.000000
0.020020 0.044250 0.000000
0.041077 0.043182 0.000000
0.065094 0.042450 0.000000
0.090912 0.041046 0.000000
0.118347 0.038910 0.000000
0.147980 0.035461 0.000000
0.180389 0.029816 0.000000
0.215424 0.021637 0.000000
0.252747 0.010651 0.000000
0.292084 0.002289 0.000000
0.333160 0.000031 0.000000
0.375732 0.000000 0.000000
0.419342 0.000000 0.000000
0.463745 0.000000 0.000000
0.508667 0.000000 0.000000
0.554016 0.000000 0.000000
0.599670 0.000000 0.000000
0.645538 0.000000 0.000000
0.691406 0.000000 0.000000
0.737152 0.000000 0.000000
0.782562 0.000000 0.000000
0.827606 0.000000 0.000000
0.871887 0.000000 0.000000
0.915405 0.000000 0.000000
0.957855 0.000000 0.000000
0.993835 0.000000 0.000000
1.000000 0.000000 0.000000
1.000000 0.000000 0.000000
1.000000 0.000000 0.000000
1.000000 0.000000 0.000000
1.000000 0.000000 0.000000
0.000000 0.070099 0.000000
0.000946 0.069824 0.000000
0.015686 0.069519 0.000000
0.037689 0.068573 0.000000
0.064240 0.067749 0.000000
0.091125 0.066925 0.000000
0.119873 0.065155 0.000000
0.150421 0.062866 0.000000
0.183319 0.058838 0.000000
0.218506 0.052917 0.000000
0.255981 0.043945 0.000000
0.295227 0.031158 0.000000
0.336121 0.015228 0.000000
0.378479 0.003754 0.000000
0.421936 0.000183 0.000000
0.466095 0.000000 0.000000
0.510803 0.000000 0.000000
0.555969 0.000000 0.000000
0.601471 0.000000 0.000000
0.647156 0.000000 0.000000
0.692841 0.000000 0.000000
0.738403 0.000000 0.000000
0.783691 0.000000 0.000000
0.828522 0.000000 0.000000
0.872681 0.000000 0.000000
0.916046 0.000000 0.000000
0.958344 0.000000 0.000000
0.994171 0.000000 0.000000
1.000000 0.000000 0.000000
1.000000 0.000000 0.000000
1.000000 0.000000 0.000000
1.000000 0.000000 0.000000
1.000000 0.000000 0.000000
0.000000 0.097717 0.000000
0.000061 0.097565 0.000000
0.006195 0.097626 0.000000
0.029999 0.096924 0.000000
0.059845 0.096283 0.000000
0.089569 0.095520 0.000000
0.120331 0.094482 0.000000
0.152161 0.092865 0.000000
0.186066 0.090179 0.000000
0.221832 0.086487 0.000000
0.259521 0.080872 0.000000
0.298920 0.073090 0.000000
0.339752 0.062164 0.000000
0.381866 0.046967 0.000000
0.425079 0.027527 0.000000
0.468933 0.009552 0.000000
0.513306 0.001221 0.000000
0.558228 0.000000 0.000000
0.603546 0.000000 0.000000
0.649048 0.000000 0.000000
0.694519 0.000000 0.000000
0.739868 0.000000 0.000000
0.784973 0.000000 0.000000
0.829620 0.000000 0.000000
0.873596 0.000000 0.000000
0.916748 0.000000 0.000000
0.958893 0.000000 0.000000
0.994476 0.000000 0.000000
1.000000 0.000000 0.000000
1.000000 0.000000 0.000000
1.000000 0.000000 0.000000
1.000000 0.000000 0.000000
1.000000 0.000000 0.000000
0.000000 0.129120 0.000000
0.000000 0.129211 0.000000
0.000702 0.129364 0.000000
0.014435 0.129059 0.000000
0.049896 0.128387 0.000000
0.084717 0.127625 0.000000
0.118500 0.126831 0.000000
0.152679 0.125763 0.000000
0.187836 0.124207 0.000000
0.224609 0.121460 0.000000
0.262817 0.117950 0.000000
0.302521 0.113159 0.000000
0.343567 0.106720 0.000000
0.385681 0.098053 0.000000
0.428650 0.086609 0.000000
0.472321 0.071014 0.000000
0.516479 0.051819 0.000000
0.561096 0.030212 0.000000
0.606049 0.011566 0.000000
0.651184 0.002228 0.000000
0.696411 0.000000 0.000000
0.741516 0.000000 0.000000
0.786377 0.000000 0.000000
0.830811 0.000000 0.000000
0.874573 0.000000 0.000000
0.917511 0.000000 0.000000
0.959442 0.000000 0.000000
0.994812 0.000000 0.000000
1.000000 0.000000 0.000000
1.000000 0.000000 0.000000
1.000000 0.000000 0.000000
1.000000 0.000000 0.000000
1.000000 0.000000 0.000000
0.000000 0.164032 0.000000
0.000000 0.164154 0.000000
0.000000 0.164368 0.000000
0.001709 0.164368 0.000000
0.028290 0.164001 0.000000
0.073730 0.163269 0.000000
0.112946 0.162445 0.000000
0.150513 0.161591 0.000000
0.187958 0.160553 0.000000
0.226074 0.158813 0.000000
0.265411 0.156311 0.000000
0.305725 0.153015 0.000000
0.347076 0.148804 0.000000
0.389313 0.143311 0.000000
0.432312 0.136505 0.000000
0.475861 0.127899 0.000000
0.519897 0.117126 0.000000
0.564331 0.103210 0.000000
0.609070 0.085205 0.000000
0.653961 0.066589 0.000000
0.698853 0.045563 0.000000
0.743652 0.022949 0.000000
0.788147 0.007690 0.000000
0.832214 0.002380 0.000000
0.875671 0.000000 0.000000
0.918304 0.000000 0.000000
0.959991 0.000000 0.000000
0.995087 0.000000 0.000000
1.000000 0.000000 0.000000
1.000000 0.000000 0.000000
1.000000 0.000000 0.000000
1.000000 0.000000 0.000000
1.000000 0.000000 0.000000
0.000000 0.202179 0.000000
0.000000 0.202362 0.000000
0.000000 0.202515 0.000000
0.000000 0.202606 0.000000
0.003479 0.202698 0.000000
0.051727 0.201996 0.000000
0.102142 0.201141 0.000000
0.144836 0.200195 0.000000
0.185547 0.199249 0.000000
0.225922 0.198212 0.000000
0.266602 0.196411 0.000000
0.307953 0.194031 0.000000
0.349884 0.191132 0.000000
0.392456 0.187378 0.000000
0.435608 0.182770 0.000000
0.479248 0.177216 0.000000
0.523224 0.170502 0.000000
0.567535 0.162567 0.000000
0.612152 0.153015 0.000000
0.656891 0.141663 0.000000
0.701569 0.127838 0.000000
0.746155 0.110168 0.000000
0.790405 0.091583 0.000000
0.834229 0.075958 0.000000
0.877380 0.058289 0.000000
0.919708 0.037750 0.000000
0.961060 0.018707 0.000000
0.995728 0.013062 0.000000
1.000000 0.009430 0.000000
1.000000 0.005981 0.000000
1.000000 0.004120 0.000000
1.000000 0.004150 0.000000
1.000000 0.006561 0.000000
0.000000 0.243103 0.000000
0.000000 0.243256 0.000000
0.000000 0.243286 0.000000
0.000000 0.243530 0.000000
0.000000 0.243622 0.000000
0.014252 0.243256 0.000000
0.082550 0.242401 0.000000
0.134796 0.241364 0.000000
0.180054 0.240387 0.000000
0.223297 0.239441 0.000000
0.265961 0.238312 0.000000
0.308685 0.236542 0.000000
0.351593 0.234314 0.000000
0.394714 0.231628 0.000000
0.438263 0.228302 0.000000
0.482086 0.224365 0.000000
0.526154 0.219727 0.000000
0.570496 0.214386 0.000000
0.615021 0.208160 0.000000
0.659698 0.200958 0.000000
0.704254 0.192841 0.000000
0.748627 0.183594 0.000000
0.792664 0.173401 0.000000
0.836304 0.161865 0.000000
0.879211 0.148956 0.000000
0.921265 0.134277 0.000000
0.962311 0.117950 0.000000
0.996552 0.108704 0.000000
1.000000 0.101318 0.000000
1.000000 0.095398 0.000000
1.000000 0.092438 0.000000
1.000000 0.093140 0.000000
1.000000 0.098328 0.000000
0.000000 0.286011 0.000000
0.000000 0.286133 0.000000
0.000000 0.286163 0.000000
0.000000 0.286316 0.000000
0.000000 0.286407 0.000000
0.001648 0.286438 0.000000
0.046234 0.285645 0.000000
0.117584 0.284607 0.000000
0.170776 0.283478 0.000000
0.218079 0.282410 0.000000
0.263397 0.281372 0.000000
0.307739 0.280212 0.000000
0.351959 0.278473 0.000000
0.395966 0.276398 0.000000
0.440063 0.273865 0.000000
0.484253 0.270905 0.000000
0.528534 0.267487 0.000000
0.573029 0.263519 0.000000
0.617615 0.259003 0.000000
0.662201 0.253937 0.000000
0.706696 0.248260 0.000000
0.750946 0.242096 0.000000
0.794800 0.235474 0.000000
0.838165 0.228485 0.000000
0.880859 0.221100 0.000000
0.922668 0.213684 0.000000
0.963379 0.206573 0.000000
0.997131 0.199982 0.000000
1.000000 0.194427 0.000000
1.000000 0.190430 0.000000
1.000000 0.188782 0.000000
1.000000 0.190216 0.000000
1.000000 0.195160 0.000000
0.000000 0.330292 0.000000
0.000000 0.330414 0.000000
0.000000 0.330444 0.000000
0.000000 0.330597 0.000000
0.000000 0.330688 0.000000
0.000000 0.330719 0.000000
0.008698 0.330292 0.000000
0.089386 0.329163 0.000000
0.156372 0.327942 0.000000
0.209808 0.326752 0.000000
0.258423 0.325653 0.000000
0.305145 0.324463 0.000000
0.350739 0.323303 0.000000
0.395905 0.321594 0.000000
0.440826 0.319611 0.000000
0.485626 0.317230 0.000000
0.530304 0.314545 0.000000
0.574982 0.311432 0.000000
0.619720 0.307953 0.000000
0.664337 0.304138 0.000000
0.708771 0.299957 0.000000
0.752930 0.295410 0.000000
0.796661 0.290619 0.000000
0.839813 0.285736 0.000000
0.882263 0.280792 0.000000
0.923798 0.275879 0.000000
0.964142 0.271393 0.000000
0.997375 0.267487 0.000000
1.000000 0.264465 0.000000
1.000000 0.262634 0.000000
1.000000 0.262421 0.000000
1.000000 0.264282 0.000000
1.000000 0.268463 0.000000
0.000000 0.375641 0.000000
0.000000 0.375702 0.000000
0.000000 0.375732 0.000000
0.000000 0.375854 0.000000
0.000000 0.375854 0.000000
0.000000 0.375854 0.000000
0.000305 0.375702 0.000000
0.044647 0.374695 0.000000
0.135040 0.373383 0.000000
0.197754 0.372070 0.000000
0.251160 0.370819 0.000000
0.300537 0.369629 0.000000
0.347992 0.368439 0.000000
0.394501 0.367188 0.000000
0.440491 0.365540 0.000000
0.486023 0.363617 0.000000
0.531281 0.361389 0.000000
0.576294 0.358887 0.000000
0.621216 0.356079 0.000000
0.665955 0.353058 0.000000
0.710419 0.349762 0.000000
0.754517 0.346283 0.000000
0.798126 0.342621 0.000000
0.841125 0.338989 0.000000
0.883331 0.335327 0.000000
0.924622 0.331909 0.000000
0.964630 0.328827 0.000000
0.997406 0.326324 0.000000
1.000000 0.324463 0.000000
1.000000 0.323639 0.000000
1.000000 0.324158 0.000000
1.000000 0.326202 0.000000
1.000000 0.330139 0.000000
0.000000 0.421600 0.000000
0.000000 0.421600 0.000000
0.000000 0.421631 0.000000
0.000000 0.421692 0.000000
0.000000 0.421692 0.000000
0.000000 0.421661 0.000000
0.000000 0.421600 0.000000
0.009491 0.420837 0.000000
0.101959 0.419495 0.000000
0.181152 0.418091 0.000000
0.240967 0.416718 0.000000
0.293976 0.415405 0.000000
0.343719 0.414154 0.000000
0.391693 0.412964 0.000000
0.438904 0.411682 0.000000
0.485382 0.410095 0.000000
0.531311 0.408234 0.000000
0.576813 0.406097 0.000000
0.622101 0.403748 0.000000
0.666992 0.401245 0.000000
0.711517 0.398560 0.000000
0.755615 0.395752 0.000000
0.799133 0.392883 0.000000
0.841980 0.390015 0.000000
0.883972 0.387238 0.000000
0.924988 0.384644 0.000000
0.964783 0.382446 0.000000
0.997437 0.380768 0.000000
1.000000 0.379700 0.000000
1.000000 0.379456 0.000000
1.000000 0.380341 0.000000
1.000000 0.382446 0.000000
1.000000 0.386200 0.000000
0.000000 0.468018 0.000000
0.000000 0.467987 0.000000
0.000000 0.467987 0.000000
0.000000 0.468018 0.000000
0.000000 0.467957 0.000000
0.000000 0.467926 0.000000
0.000000 0.467804 0.000000
0.000275 0.467377 0.000000
0.056488 0.466064 0.000000
0.158112 0.464539 0.000000
0.227478 0.463135 0.000000
0.285187 0.461700 0.000000
0.337799 0.460358 0.000000
0.387695 0.459106 0.000000
0.436096 0.457886 0.000000
0.483673 0.456604 0.000000
0.530396 0.455017 0.000000
0.576508 0.453217 0.000000
0.622192 0.451172 0.000000
0.667389 0.449005 0.000000
0.712036 0.446747 0.000000
0.756165 0.444366 0.000000
0.799622 0.442017 0.000000
0.842346 0.439697 0.000000
0.884155 0.437469 0.000000
0.924927 0.435455 0.000000
0.964508 0.433777 0.000000
0.997223 0.432617 0.000000
1.000000 0.432007 0.000000
1.000000 0.432159 0.000000
1.000000 0.433228 0.000000
1.000000 0.435394 0.000000
1.000000 0.438965 0.000000
0.000000 0.514557 0.000000
0.000000 0.514557 0.000000
0.000000 0.514557 0.000000
0.000000 0.514526 0.000000
0.000000 0.514435 0.000000
0.000000 0.514343 0.000000
0.000000 0.514221 0.000000
0.000000 0.513947 0.000000
0.017670 0.512817 0.000000
0.123962 0.511261 0.000000
0.209839 0.509766 0.000000
0.273865 0.508270 0.000000
0.330170 0.506805 0.000000
0.382385 0.505463 0.000000
0.432343 0.504120 0.000000
0.480865 0.502899 0.000000
0.528564 0.501556 0.000000
0.575378 0.500031 0.000000
0.621521 0.498260 0.000000
0.667084 0.496338 0.000000
0.711914 0.494324 0.000000
0.756104 0.492279 0.000000
0.799561 0.490265 0.000000
0.842194 0.488281 0.000000
0.883820 0.486450 0.000000
0.924347 0.484833 0.000000
0.963593 0.483521 0.000000
0.996429 0.482666 0.000000
1.000000 0.482330 0.000000
1.000000 0.482697 0.000000
1.000000 0.483856 0.000000
1.000000 0.486084 0.000000
1.000000 0.489441 0.000000
0.000000 0.561066 0.000000
0.000000 0.561035 0.000000
0.000000 0.561005 0.000000
0.000000 0.560944 0.000000
0.000000 0.560852 0.000000
0.000000 0.560760 0.000000
0.000000 0.560577 0.000000
0.000000 0.560364 0.000000
0.001953 0.559479 0.000000
0.080658 0.557953 0.000000
0.187286 0.556335 0.000000
0.260010 0.554779 0.000000
0.320740 0.553223 0.000000
0.375732 0.551758 0.000000
0.427582 0.550354 0.000000
0.477417 0.548950 0.000000
0.525818 0.547729 0.000000
0.573456 0.546356 0.000000
0.620178 0.544830 0.000000
0.666046 0.543152 0.000000
0.711182 0.541290 0.000000
0.755493 0.539490 0.000000
0.798950 0.537659 0.000000
0.841522 0.535919 0.000000
0.882996 0.534302 0.000000
0.923248 0.532928 0.000000
0.962189 0.531830 0.000000
0.995026 0.531158 0.000000
1.000000 0.531006 0.000000
1.000000 0.531464 0.000000
1.000000 0.532684 0.000000
1.000000 0.534821 0.000000
1.000000 0.537994 0.000000
0.000000 0.607330 0.000000
0.000000 0.607269 0.000000
0.000000 0.607269 0.000000
0.000000 0.607178 0.000000
0.000000 0.607086 0.000000
0.000000 0.606934 0.000000
0.000000 0.606750 0.000000
0.000000 0.606476 0.000000
0.000000 0.605835 0.000000
0.036407 0.604370 0.000000
0.157135 0.602692 0.000000
0.243469 0.601013 0.000000
0.309753 0.599396 0.000000
0.368011 0.597839 0.000000
0.421967 0.596344 0.000000
0.473267 0.594849 0.000000
0.522705 0.593414 0.000000
0.570862 0.592133 0.000000
0.618164 0.590790 0.000000
0.664551 0.589264 0.000000
0.709869 0.587616 0.000000
0.754333 0.585907 0.000000
0.797821 0.584259 0.000000
0.840332 0.582611 0.000000
0.881622 0.581146 0.000000
0.921661 0.579895 0.000000
0.960297 0.578949 0.000000
0.993256 0.578369 0.000000
1.000000 0.578278 0.000000
1.000000 0.578735 0.000000
1.000000 0.579956 0.000000
1.000000 0.581970 0.000000
1.000000 0.584961 0.000000
0.000000 0.653168 0.000000
0.000000 0.653107 0.000000
0.000000 0.653076 0.000000
0.000000 0.652954 0.000000
0.000000 0.652832 0.000000
0.000000 0.652649 0.000000
0.000000 0.652435 0.000000
0.000000 0.652130 0.000000
0.000000 0.651642 0.000000
0.007507 0.650269 0.000000
0.116089 0.648529 0.000000
0.224121 0.646820 0.000000
0.297394 0.645111 0.000000
0.359406 0.643463 0.000000
0.415771 0.641815 0.000000
0.468658 0.640228 0.000000
0.519196 0.638733 0.000000
0.568115 0.637268 0.000000
0.615784 0.635925 0.000000
0.662506 0.634552 0.000000
0.708191 0.633026 0.000000
0.752777 0.631439 0.000000
0.796295 0.629852 0.000000
0.838684 0.628326 0.000000
0.879852 0.626953 0.000000
0.919617 0.625763 0.000000
0.957977 0.624817 0.000000
0.991058 0.624268 0.000000
1.000000 0.624176 0.000000
1.000000 0.624634 0.000000
1.000000 0.625763 0.000000
1.000000 0.627655 0.000000
1.000000 0.630402 0.000000
0.000000 0.698212 0.000000
0.000000 0.698181 0.000000
0.000000 0.698090 0.000000
0.000000 0.697968 0.000000
0.000000 0.697815 0.000000
0.000000 0.697601 0.000000
0.000000 0.697357 0.000000
0.000000 0.697052 0.000000
0.000000 0.696594 0.000000
0.000000 0.695312 0.000000
0.083496 0.693573 0.000000
0.202301 0.691772 0.000000
0.284271 0.690002 0.000000
0.350494 0.688263 0.000000
0.409332 0.686523 0.000000
0.463898 0.684814 0.000000
0.515594 0.683167 0.000000
0.565216 0.681641 0.000000
0.613403 0.680145 0.000000
0.660339 0.678741 0.000000
0.706238 0.677338 0.000000
0.750977 0.675812 0.000000
0.794495 0.674316 0.000000
0.836792 0.672821 0.000000
0.877716 0.671448 0.000000
0.917236 0.670288 0.000000
0.955231 0.669373 0.000000
0.988525 0.668762 0.000000
1.000000 0.668610 0.000000
1.000000 0.669006 0.000000
1.000000 0.669983 0.000000
1.000000 0.671692 0.000000
1.000000 0.674194 0.000000
0.000000 0.742218 0.000000
0.000000 0.742188 0.000000
0.000000 0.742096 0.000000
0.000000 0.741943 0.000000
0.000000 0.741760 0.000000
0.000000 0.741516 0.000000
0.000000 0.741241 0.000000
0.000000 0.740906 0.000000
0.000000 0.740417 0.000000
0.000000 0.739227 0.000000
0.051910 0.737457 0.000000
0.177704 0.735626 0.000000
0.271393 0.733765 0.000000
0.341888 0.731934 0.000000
0.403290 0.730103 0.000000
0.459473 0.728302 0.000000
0.512299 0.726532 0.000000
0.562683 0.724854 0.000000
0.611237 0.723236 0.000000
0.658356 0.721710 0.000000
0.704315 0.720245 0.000000
0.749084 0.718811 0.000000
0.792572 0.717346 0.000000
0.834717 0.715881 0.000000
0.875458 0.714508 0.000000
0.914612 0.713287 0.000000
0.952240 0.712341 0.000000
0.985687 0.711670 0.000000
1.000000 0.711426 0.000000
1.000000 0.711670 0.000000
1.000000 0.712524 0.000000
1.000000 0.714020 0.000000
1.000000 0.716217 0.000000
0.000000 0.784912 0.000000
0.000000 0.784851 0.000000
0.000000 0.784729 0.000000
0.000000 0.784576 0.000000
0.000000 0.784363 0.000000
0.000000 0.784119 0.000000
0.000000 0.783783 0.000000
0.000000 0.783356 0.000000
0.000000 0.782867 0.000000
0.000000 0.781708 0.000000
0.028503 0.779938 0.000000
0.149689 0.778015 0.000000
0.259949 0.776123 0.000000
0.334747 0.774200 0.000000
0.398346 0.772278 0.000000
0.456024 0.770386 0.000000
0.509735 0.768524 0.000000
0.560760 0.766693 0.000000
0.609711 0.764893 0.000000
0.656982 0.763245 0.000000
0.702820 0.761658 0.000000
0.747437 0.760162 0.000000
0.790802 0.758698 0.000000
0.832733 0.757233 0.000000
0.873169 0.755859 0.000000
0.911987 0.754608 0.000000
0.949127 0.753540 0.000000
0.982727 0.752777 0.000000
0.999939 0.752411 0.000000
1.000000 0.752502 0.000000
1.000000 0.753174 0.000000
1.000000 0.754425 0.000000
1.000000 0.756287 0.000000
0.000000 0.825958 0.000000
0.000000 0.825836 0.000000
0.000000 0.825745 0.000000
0.000000 0.825562 0.000000
0.000000 0.825317 0.000000
0.000000 0.825012 0.000000
0.000000 0.824646 0.000000
0.000000 0.824188 0.000000
0.000000 0.823639 0.000000
0.000000 0.822418 0.000000
0.020630 0.820618 0.000000
0.136932 0.818665 0.000000
0.251892 0.816711 0.000000
0.330139 0.814728 0.000000
0.395569 0.812714 0.000000
0.454254 0.810730 0.000000
0.508636 0.808746 0.000000
0.560028 0.806793 0.000000
0.609192 0.804871 0.000000
0.656464 0.803070 0.000000
0.702209 0.801300 0.000000
0.746552 0.799622 0.000000
0.789520 0.798126 0.000000
0.831116 0.796631 0.000000
0.871185 0.795166 0.000000
0.909576 0.793884 0.000000
0.946198 0.792725 0.000000
0.979767 0.791840 0.000000
0.999664 0.791321 0.000000
1.000000 0.791229 0.000000
1.000000 0.791656 0.000000
1.000000 0.792664 0.000000
1.000000 0.794159 0.000000
0.000000 0.864990 0.000000
0.000000 0.864868 0.000000
0.000000 0.864746 0.000000
0.000000 0.864532 0.000000
0.000000 0.864288 0.000000
0.000000 0.863983 0.000000
0.000000 0.863556 0.000000
0.000000 0.863037 0.000000
0.000000 0.862396 0.000000
0.000000 0.861023 0.000000
0.020020 0.859192 0.000000
0.134430 0.857239 0.000000
0.249664 0.855225 0.000000
0.329620 0.853180 0.000000
0.395874 0.851074 0.000000
0.455017 0.848999 0.000000
0.509613 0.846893 0.000000
0.561066 0.844818 0.000000
0.610199 0.842773 0.000000
0.657349 0.840790 0.000000
0.702759 0.838898 0.000000
0.746674 0.837036 0.000000
0.789185 0.835327 0.000000
0.830261 0.833771 0.000000
0.869781 0.832275 0.000000
0.907623 0.830841 0.000000
0.943634 0.829590 0.000000
0.976990 0.828583 0.000000
0.999268 0.827850 0.000000
1.000000 0.827545 0.000000
1.000000 0.827728 0.000000
1.000000 0.828461 0.000000
1.000000 0.829559 0.000000
0.000000 0.901672 0.000000
0.000000 0.901520 0.000000
0.000000 0.901367 0.000000
0.000000 0.901154 0.000000
0.000000 0.900879 0.000000
0.000000 0.900513 0.000000
0.000000 0.900055 0.000000
0.000000 0.899506 0.000000
0.000000 0.898682 0.000000
0.000000 0.897156 0.000000
0.024139 0.895264 0.000000
0.141693 0.893280 0.000000
0.255615 0.891205 0.000000
0.334747 0.889130 0.000000
0.400482 0.886963 0.000000
0.459259 0.884766 0.000000
0.513489 0.882599 0.000000
0.564575 0.880402 0.000000
0.613312 0.878204 0.000000
0.660004 0.876099 0.000000
0.704956 0.873993 0.000000
0.748291 0.872009 0.000000
0.790161 0.870117 0.000000
0.830505 0.868347 0.000000
0.869324 0.866699 0.000000
0.906494 0.865173 0.000000
0.941711 0.863800 0.000000
0.974762 0.862610 0.000000
0.998901 0.861694 0.000000
1.000000 0.861145 0.000000
1.000000 0.861084 0.000000
1.000000 0.861450 0.000000
1.000000 0.862152 0.000000
0.000000 0.935608 0.000000
0.000000 0.935455 0.000000
0.000000 0.935272 0.000000
0.000000 0.935059 0.000000
0.000000 0.934723 0.000000
0.000000 0.934326 0.000000
0.000000 0.933807 0.000000
0.000000 0.933167 0.000000
0.000000 0.932037 0.000000
0.000000 0.930389 0.000000
0.045319 0.928467 0.000000
0.159027 0.926453 0.000000
0.271271 0.924377 0.000000
0.346588 0.922211 0.000000
0.410400 0.919983 0.000000
0.467834 0.917725 0.000000
0.521057 0.915436 0.000000
0.571259 0.913116 0.000000
0.619171 0.910828 0.000000
0.665100 0.908539 0.000000
0.709259 0.906311 0.000000
0.751831 0.904114 0.000000
0.792847 0.902008 0.000000
0.832397 0.900024 0.000000
0.870270 0.898224 0.000000
0.906525 0.896545 0.000000
0.940857 0.895020 0.000000
0.973206 0.893646 0.000000
0.998627 0.892517 0.000000
1.000000 0.891724 0.000000
1.000000 0.891388 0.000000
1.000000 0.891388 0.000000
1.000000 0.891663 0.000000
0.000000 0.966400 0.000000
0.000000 0.966278 0.000000
0.000000 0.966064 0.000000
0.000000 0.965820 0.000000
0.000000 0.965454 0.000000
0.000000 0.965027 0.000000
0.000000 0.964386 0.000000
0.000000 0.963501 0.000000
0.000000 0.962097 0.000000
0.006317 0.960327 0.000000
0.094513 0.958405 0.000000
0.205719 0.956390 0.000000
0.296661 0.954254 0.000000
0.365906 0.952057 0.000000
0.426331 0.949768 0.000000
0.481476 0.947418 0.000000
0.532928 0.945038 0.000000
0.581726 0.942627 0.000000
0.628387 0.940155 0.000000
0.673157 0.937744 0.000000
0.716248 0.935333 0.000000
0.757751 0.932983 0.000000
0.797760 0.930664 0.000000
0.836212 0.928528 0.000000
0.873016 0.926483 0.000000
