滤镜资源/Professional Luts Collection/Lutify.me Professional/Contemporary Color Films/Chrysotile.cube
# Created by: Lutify.me
# Copyright: (c) Copyright Lutify.me 2015
# Website: https://lutify.me
#LUT size
LUT_3D_SIZE 9
#LUT data points
0.000000 0.000000 0.000000
0.068451 0.000000 0.000000
0.183685 0.000000 0.000000
0.339508 0.000000 0.000000
0.513092 0.000000 0.000000
0.684021 0.000000 0.000000
0.846954 0.000000 0.000000
0.993011 0.000000 0.000000
1.000000 0.000000 0.000000
0.000000 0.074554 0.000000
0.070343 0.072906 0.000000
0.193176 0.065338 0.000000
0.348541 0.025696 0.000000
0.518860 0.000000 0.000000
0.687225 0.000000 0.000000
0.848297 0.000000 0.000000
0.993011 0.000000 0.000000
1.000000 0.000000 0.000000
0.000000 0.211121 0.000000
0.008026 0.211823 0.000000
0.197662 0.209564 0.000000
0.362518 0.203247 0.000000
0.529694 0.189423 0.000000
0.693848 0.168793 0.000000
0.851440 0.143433 0.000000
0.993317 0.124054 0.000000
1.000000 0.141174 0.000000
0.000000 0.383362 0.000000
0.000000 0.383575 0.000000
0.164246 0.381409 0.000000
0.363190 0.377594 0.000000
0.535797 0.372589 0.000000
0.699524 0.366089 0.000000
0.854675 0.360077 0.000000
0.993378 0.358459 0.000000
1.000000 0.367462 0.000000
0.000000 0.555664 0.000000
0.000000 0.555328 0.000000
0.081268 0.553253 0.000000
0.350739 0.548431 0.000000
0.533173 0.544342 0.000000
0.699585 0.539886 0.000000
0.853363 0.535919 0.000000
0.989410 0.535278 0.000000
1.000000 0.541534 0.000000
0.000000 0.717377 0.000000
0.000000 0.716888 0.000000
0.012451 0.714783 0.000000
0.335907 0.709625 0.000000
0.528412 0.704407 0.000000
0.695709 0.699890 0.000000
0.847839 0.695892 0.000000
0.981079 0.693909 0.000000
1.000000 0.697174 0.000000
0.000000 0.860413 0.000000
0.000000 0.859741 0.000000
0.028656 0.856903 0.000000
0.346344 0.851593 0.000000
0.535522 0.845551 0.000000
0.698029 0.839539 0.000000
0.843872 0.834442 0.000000
0.971191 0.830780 0.000000
1.000000 0.830505 0.000000
0.000000 0.973083 0.000000
0.008087 0.971588 0.000000
0.227722 0.968170 0.000000
0.415436 0.962952 0.000000
0.575073 0.956451 0.000000
0.720764 0.949432 0.000000
0.852692 0.942780 0.000000
0.967316 0.937805 0.000000
1.000000 0.934814 0.000000
0.281586 1.000000 0.000000
0.325378 1.000000 0.000000
0.411896 1.000000 0.000000
0.523254 1.000000 0.000000
0.643494 1.000000 0.000000
0.762390 1.000000 0.000000
0.872620 1.000000 0.000000
0.967773 1.000000 0.000031
1.000000 1.000000 0.000000
0.000000 0.000000 0.072449
0.068054 0.000000 0.071228
0.187347 0.000000 0.069366
0.343719 0.000000 0.065033
0.516235 0.000000 0.056427
0.686218 0.000000 0.039795
0.848358 0.000000 0.013336
0.993622 0.000000 0.000031
1.000000 0.000000 0.000000
0.000000 0.071381 0.071930
0.070618 0.070618 0.070618
0.196136 0.062927 0.068146
0.352264 0.021362 0.062225
0.521881 0.000000 0.050659
0.689301 0.000000 0.029114
0.849609 0.000000 0.002777
0.993561 0.000000 0.000000
1.000000 0.000000 0.000000
0.000000 0.208954 0.051849
0.014282 0.209991 0.048157
0.202271 0.208008 0.043732
0.365631 0.201599 0.033356
0.531647 0.188049 0.015686
0.695251 0.167328 0.001404
0.852448 0.141541 0.000000
0.993774 0.121918 0.000000
1.000000 0.140015 0.000000
0.000000 0.381866 0.000031
0.000000 0.382050 0.000000
0.171204 0.379944 0.000000
0.366638 0.376312 0.000000
0.537903 0.371368 0.000000
0.700897 0.364960 0.000000
0.855438 0.359070 0.000000
0.993591 0.357635 0.000000
1.000000 0.366730 0.000000
0.000000 0.554230 0.000000
0.000000 0.553925 0.000000
0.090790 0.551758 0.000000
0.353760 0.547211 0.000000
0.534882 0.543182 0.000000
0.700500 0.538849 0.000000
0.853729 0.535004 0.000000
0.989319 0.534454 0.000000
1.000000 0.540894 0.000000
0.000000 0.716064 0.000000
0.000000 0.715546 0.000000
0.014862 0.713440 0.000000
0.338135 0.708435 0.000000
0.529449 0.703369 0.000000
0.696136 0.698914 0.000000
0.847748 0.694977 0.000000
0.980621 0.693115 0.000000
1.000000 0.696442 0.000000
0.000000 0.859161 0.000000
0.000000 0.858490 0.000000
0.031128 0.855652 0.000000
0.347473 0.850464 0.000000
0.535858 0.844543 0.000000
0.697906 0.838623 0.000000
0.843353 0.833588 0.000000
0.970306 0.830048 0.000000
1.000000 0.829803 0.000000
0.000000 0.971924 0.000000
0.008331 0.970459 0.000000
0.228455 0.967102 0.000000
0.415527 0.961945 0.000000
0.574799 0.955536 0.000000
0.720215 0.948547 0.000000
0.851837 0.941986 0.000000
0.966095 0.937073 0.000000
1.000000 0.934143 0.000000
0.278931 1.000000 0.000000
0.323273 1.000000 0.000000
0.410400 1.000000 0.000000
0.522125 1.000000 0.000000
0.642426 1.000000 0.000000
0.761353 1.000000 0.000031
0.871490 1.000000 0.000000
0.966644 1.000000 0.000000
1.000000 1.000000 0.015533
0.000000 0.000000 0.204437
0.035278 0.000000 0.204010
0.186981 0.000000 0.203217
0.349457 0.000000 0.201630
0.521332 0.000000 0.199371
0.689758 0.000000 0.195984
0.850494 0.000000 0.190826
0.994415 0.000000 0.183594
1.000000 0.000000 0.174744
0.000000 0.067169 0.206818
0.044678 0.066223 0.205902
0.197357 0.054504 0.204865
0.357971 0.009186 0.202728
0.526703 0.000000 0.199768
0.692688 0.000000 0.195404
0.851624 0.000000 0.189331
0.994263 0.000000 0.181366
1.000000 0.000000 0.172028
0.000000 0.204620 0.207397
0.005127 0.205078 0.206512
0.204071 0.204071 0.204071
0.368042 0.198608 0.201385
0.533356 0.185303 0.197235
0.696045 0.164551 0.191376
0.852203 0.138763 0.183899
0.992706 0.119965 0.174774
1.000000 0.140686 0.164764
0.000000 0.376617 0.193451
0.000000 0.376770 0.192078
0.174286 0.377594 0.187042
0.370331 0.373138 0.184845
0.538971 0.368317 0.181122
0.699951 0.362793 0.175415
0.853180 0.357727 0.167267
0.990753 0.357086 0.157227
1.000000 0.367035 0.145081
0.000000 0.549408 0.160217
0.000000 0.549103 0.158539
0.095215 0.549316 0.151825
0.356506 0.545166 0.149628
0.536591 0.540497 0.146027
0.700470 0.536102 0.138763
0.851990 0.532745 0.130707
0.986603 0.532837 0.119659
1.000000 0.539825 0.103760
0.000000 0.711823 0.100128
0.000000 0.711334 0.098175
0.015045 0.710999 0.090668
0.338745 0.706940 0.089355
0.530182 0.701263 0.090454
0.695984 0.696594 0.084961
0.846375 0.692657 0.077576
0.978210 0.691101 0.072327
1.000000 0.694763 0.064911
0.000000 0.855347 0.051788
0.000000 0.854675 0.049683
0.028320 0.853882 0.038147
0.345947 0.849274 0.040924
0.535278 0.842987 0.047852
0.696991 0.836639 0.051300
0.841583 0.831573 0.046387
0.967438 0.828094 0.043945
1.000000 0.828003 0.044708
0.000000 0.969330 0.045105
0.005920 0.968781 0.041199
0.222137 0.966217 0.041626
0.412354 0.961182 0.049194
0.572784 0.954407 0.059540
0.718323 0.946991 0.068878
0.849335 0.940216 0.075287
0.962860 0.935333 0.078400
1.000000 0.932465 0.085571
0.271698 1.000000 0.110870
0.316833 1.000000 0.111725
0.405151 1.000000 0.114990
0.518311 1.000000 0.123108
0.639404 1.000000 0.134155
0.758392 1.000000 0.145844
0.868164 1.000000 0.156097
0.963684 1.000000 0.191345
1.000000 1.000000 0.245026
0.000000 0.000000 0.371735
0.000000 0.000000 0.371460
0.162872 0.000000 0.370789
0.347473 0.000000 0.369629
0.522827 0.000000 0.367950
0.691223 0.000000 0.365906
0.850891 0.000000 0.363464
0.993591 0.000000 0.360565
1.000000 0.000000 0.357422
0.000000 0.059204 0.373688
0.000000 0.055481 0.373322
0.177277 0.037140 0.372131
0.356354 0.001129 0.370789
0.528046 0.000000 0.368713
0.693970 0.000000 0.366241
0.851929 0.000000 0.363342
0.993378 0.000000 0.360138
1.000000 0.000000 0.356812
0.000000 0.200104 0.376740
0.000000 0.200043 0.376190
0.189972 0.199188 0.373169
0.367432 0.191956 0.371277
0.534668 0.177887 0.368591
0.697021 0.156219 0.365631
0.852112 0.128784 0.362305
0.991455 0.110565 0.358765
1.000000 0.134796 0.355377
0.000000 0.371155 0.373688
0.000000 0.371155 0.373016
0.167572 0.370514 0.371246
0.368134 0.368195 0.368225
0.536346 0.364990 0.365723
0.697327 0.360229 0.362671
0.849915 0.355682 0.359161
0.987000 0.355743 0.355499
1.000000 0.366913 0.352051
0.000000 0.542786 0.363708
0.000000 0.542511 0.362976
0.095764 0.542236 0.360809
0.352875 0.541687 0.356110
0.535553 0.536346 0.354767
0.697693 0.532318 0.353149
0.847382 0.529968 0.350769
0.981293 0.531036 0.347748
1.000000 0.538910 0.344391
0.000000 0.705139 0.349243
0.000000 0.704712 0.348541
0.016968 0.704529 0.345734
0.334503 0.703796 0.340515
0.528412 0.698273 0.339752
0.693878 0.693024 0.338806
0.842560 0.689270 0.337158
0.972900 0.688293 0.336212
1.000000 0.692596 0.334137
0.000000 0.848938 0.336670
0.000000 0.848297 0.336090
0.028992 0.848297 0.332306
0.340576 0.846497 0.327972
0.531860 0.840607 0.328125
0.694061 0.833679 0.330078
0.837616 0.828430 0.329437
0.961792 0.825134 0.329498
1.000000 0.825348 0.330170
0.000000 0.963531 0.337189
0.005524 0.963379 0.335602
0.216187 0.962280 0.333008
0.406128 0.958740 0.331543
0.568085 0.952179 0.333344
0.714081 0.944427 0.336945
0.844299 0.937378 0.340118
0.956665 0.932617 0.341492
1.000000 0.929871 0.344055
0.263977 1.000000 0.357208
0.308960 1.000000 0.356812
0.397583 1.000000 0.356415
0.511444 1.000000 0.357361
0.633453 1.000000 0.360138
0.752594 1.000000 0.364075
0.861816 1.000000 0.368317
0.957916 1.000000 0.377594
1.000000 1.000000 0.406708
0.000000 0.000000 0.541443
0.000000 0.000000 0.541138
0.099945 0.000000 0.540375
0.337372 0.000000 0.539154
0.519714 0.000000 0.537537
0.689667 0.000000 0.535370
0.848907 0.000000 0.532898
0.990692 0.000000 0.530334
1.000000 0.000000 0.527863
0.000000 0.042084 0.542511
0.000000 0.033997 0.542175
0.128510 0.008575 0.541138
0.346924 0.000000 0.539734
0.524933 0.000000 0.537872
0.692322 0.000000 0.535492
0.849823 0.000000 0.532776
0.990387 0.000000 0.530060
1.000000 0.000000 0.527496
0.000000 0.194763 0.544769
0.000000 0.194000 0.544312
0.155151 0.192047 0.541534
0.359161 0.183319 0.539825
0.531891 0.166840 0.537659
0.695557 0.142883 0.534851
0.850006 0.112640 0.531952
0.988373 0.101898 0.529114
1.000000 0.126282 0.526581
0.000000 0.365967 0.544159
0.000000 0.365814 0.543579
0.140320 0.365051 0.541412
0.361542 0.363708 0.537720
0.534332 0.359924 0.535461
0.695831 0.355316 0.532623
0.847382 0.351379 0.529846
0.983368 0.352295 0.527161
1.000000 0.364899 0.524780
0.000000 0.537079 0.538483
0.000000 0.536743 0.537933
0.078674 0.535919 0.536621
0.348938 0.534149 0.534363
0.531372 0.531250 0.531342
0.692078 0.529083 0.529114
0.841064 0.527679 0.526672
0.974548 0.529541 0.524231
1.000000 0.538422 0.522186
0.000000 0.698639 0.530243
0.000000 0.698212 0.529785
0.015320 0.697388 0.528503
0.332031 0.696198 0.526031
0.522308 0.694336 0.521790
0.689392 0.688629 0.520874
0.835785 0.685364 0.520203
0.963776 0.685547 0.519226
1.000000 0.690704 0.517883
0.000000 0.842102 0.523254
0.000000 0.841522 0.522827
0.030975 0.840942 0.521240
0.337280 0.839630 0.518341
0.524811 0.836823 0.514557
0.688446 0.830017 0.514587
0.830933 0.824524 0.514648
0.952850 0.821564 0.514893
1.000000 0.822235 0.515320
0.000000 0.956421 0.523590
0.006348 0.956146 0.522858
0.215454 0.955139 0.521271
0.400208 0.953003 0.518707
0.560028 0.948639 0.516510
0.706787 0.941101 0.517609
0.836365 0.933777 0.519928
0.947205 0.929108 0.520752
1.000000 0.926575 0.522278
0.260773 1.000000 0.534363
0.304596 1.000000 0.533813
0.390930 1.000000 0.532593
0.502502 1.000000 0.531006
0.624023 1.000000 0.530762
0.743469 1.000000 0.532593
0.852173 1.000000 0.535370
0.948578 1.000000 0.538116
1.000000 1.000000 0.556702
0.000000 0.000000 0.702484
0.000000 0.000000 0.702179
0.024048 0.000000 0.701385
0.324921 0.000000 0.700134
0.515228 0.000000 0.698364
0.686646 0.000000 0.696198
0.845337 0.000000 0.693573
0.986115 0.000000 0.690704
1.000000 0.000000 0.688080
0.000000 0.009949 0.702911
0.000000 0.002625 0.702545
0.064819 0.000000 0.701599
0.335083 0.000000 0.700226
0.520325 0.000000 0.698334
0.689209 0.000000 0.696014
0.846130 0.000000 0.693207
0.985687 0.000000 0.690308
1.000000 0.000000 0.687622
0.000000 0.187012 0.704132
0.000000 0.185516 0.703705
0.102570 0.182098 0.701324
0.348541 0.171967 0.699615
0.527313 0.153870 0.697540
0.692413 0.125946 0.695007
0.846344 0.097473 0.692047
0.983643 0.091553 0.689056
1.000000 0.117920 0.686401
0.000000 0.360718 0.703613
0.000000 0.360321 0.703125
0.099335 0.359772 0.700684
0.353058 0.358582 0.697174
0.530243 0.354553 0.695038
0.692902 0.349304 0.692535
0.843781 0.345734 0.689545
0.978394 0.348083 0.686676
1.000000 0.362366 0.684174
0.000000 0.531555 0.699524
0.000000 0.531189 0.699036
0.052216 0.530334 0.697540
0.343750 0.528839 0.694702
0.527771 0.527283 0.690857
0.689362 0.524902 0.688507
0.836945 0.524170 0.685730
0.968048 0.527008 0.683289
1.000000 0.536926 0.681213
0.000000 0.692902 0.692261
0.000000 0.692505 0.691864
0.012634 0.691467 0.690826
0.329895 0.689575 0.689056
0.519867 0.686890 0.686676
0.683746 0.683746 0.683777
0.827209 0.682434 0.681885
0.952942 0.683777 0.680054
1.000000 0.689819 0.678589
0.000000 0.835693 0.685547
0.000000 0.835144 0.685181
0.038239 0.833954 0.684296
0.338654 0.831909 0.682800
0.521606 0.829132 0.680481
0.680481 0.825897 0.676910
0.822571 0.820160 0.676483
0.941223 0.817932 0.676544
1.000000 0.819458 0.676361
0.000000 0.949280 0.683746
0.009369 0.948761 0.683411
0.221039 0.947418 0.682617
0.400024 0.945038 0.681122
0.554382 0.941742 0.678802
0.697235 0.937103 0.676178
0.826416 0.929932 0.676880
0.935455 0.925232 0.677521
1.000000 0.922943 0.678314
0.264160 1.000000 0.688904
0.306488 1.000000 0.688629
0.390137 1.000000 0.687805
0.498016 1.000000 0.686401
0.614929 1.000000 0.684387
0.731842 1.000000 0.683075
0.840149 1.000000 0.684174
0.936127 1.000000 0.686066
1.000000 1.000000 0.695526
0.000000 0.000000 0.846832
0.000000 0.000000 0.846527
0.012573 0.000000 0.845673
0.323212 0.000000 0.844330
0.516541 0.000000 0.842438
0.687073 0.000000 0.840088
0.843445 0.000000 0.837311
0.981750 0.000000 0.834137
1.000000 0.000000 0.831085
0.000000 0.000000 0.846710
0.000000 0.000000 0.846344
0.038086 0.000000 0.845459
0.333405 0.000000 0.844055
0.521423 0.000000 0.842072
0.689423 0.000000 0.839569
0.844055 0.000000 0.836700
0.981201 0.000000 0.833527
1.000000 0.000000 0.830444
0.000000 0.176086 0.846893
0.000000 0.173889 0.846497
0.088501 0.169464 0.844269
0.347473 0.157715 0.842651
0.528290 0.137451 0.840576
0.692352 0.105652 0.837982
0.844055 0.084473 0.835022
0.979034 0.081818 0.831787
1.000000 0.114471 0.828705
0.000000 0.355347 0.845581
0.000000 0.354828 0.845154
0.096222 0.354462 0.842468
0.354095 0.353058 0.839325
0.531647 0.348907 0.837250
0.692749 0.343933 0.834656
0.841309 0.340576 0.831757
0.973572 0.344330 0.828552
1.000000 0.360779 0.825592
0.000000 0.526367 0.841278
0.000000 0.526001 0.840820
0.067535 0.525391 0.838898
0.348938 0.524506 0.835541
0.529877 0.523285 0.832001
0.688995 0.521179 0.829590
0.834198 0.520447 0.826874
0.962097 0.524231 0.823853
1.000000 0.535400 0.821167
0.000000 0.687469 0.833801
0.000000 0.687073 0.833405
0.024445 0.686066 0.832214
0.337494 0.684296 0.830139
0.523499 0.682037 0.827118
0.683014 0.680359 0.823303
0.823914 0.679291 0.820923
0.945923 0.681580 0.818420
1.000000 0.688507 0.816406
0.000000 0.829956 0.825226
0.000000 0.829437 0.824890
0.075073 0.828094 0.824066
0.348419 0.825836 0.822662
0.525696 0.822693 0.820740
0.679443 0.819061 0.818390
0.815918 0.815826 0.815857
0.929779 0.815552 0.814453
1.000000 0.817963 0.813263
0.000000 0.942780 0.819855
0.019318 0.942139 0.819611
0.243988 0.940552 0.819000
0.409912 0.937866 0.817932
0.557892 0.934174 0.816437
0.693878 0.930054 0.814453
0.816803 0.926178 0.811768
0.924225 0.921448 0.811676
1.000000 0.919647 0.811890
0.283539 1.000000 0.819427
0.322357 1.000000 0.819214
0.400391 1.000000 0.818665
0.502838 1.000000 0.817719
0.614288 1.000000 0.816315
0.724548 1.000000 0.814362
0.828522 1.000000 0.812286
0.924316 1.000000 0.812653
1.000000 1.000000 0.816498
0.000000 0.000000 0.964203
0.000000 0.000000 0.963837
0.088104 0.000000 0.963013
0.353394 0.000000 0.961548
0.535278 0.000000 0.959503
0.698975 0.000000 0.956909
0.849243 0.000000 0.953827
0.981812 0.000000 0.950378
1.000000 0.000000 0.946869
0.000000 0.000000 0.963623
0.000000 0.000000 0.963257
0.114960 0.000000 0.962402
0.362244 0.000000 0.960876
0.539612 0.000000 0.958771
0.700928 0.000000 0.956116
0.849701 0.000000 0.952972
0.981079 0.000000 0.949524
1.000000 0.000000 0.945984
0.000000 0.162079 0.962830
0.000000 0.159485 0.962402
0.157227 0.154358 0.960297
0.375000 0.140717 0.958740
0.545837 0.117249 0.956573
0.703369 0.091003 0.953827
0.849304 0.073364 0.950653
0.978638 0.077362 0.947205
1.000000 0.119019 0.943695
0.000000 0.350037 0.960419
0.000000 0.349548 0.959869
0.175964 0.349762 0.956665
0.382477 0.347656 0.954315
0.549194 0.343628 0.952179
0.703461 0.339264 0.949493
0.846008 0.337280 0.946381
0.972656 0.342804 0.943054
1.000000 0.361725 0.939636
0.000000 0.521942 0.955048
0.000000 0.521606 0.954529
0.164978 0.521515 0.951843
0.381073 0.520966 0.948547
0.547913 0.519745 0.945526
0.699341 0.518127 0.942993
0.838226 0.518250 0.940063
0.960358 0.522919 0.936920
1.000000 0.535309 0.933746
0.000000 0.682709 0.946442
0.000000 0.682312 0.945953
0.143219 0.681458 0.944336
0.373871 0.680084 0.941864
0.543030 0.678589 0.938385
0.692810 0.677521 0.934814
0.826904 0.677155 0.932251
0.943268 0.679871 0.929535
1.000000 0.687531 0.926758
0.000000 0.824738 0.936066
0.000000 0.824249 0.935669
0.179016 0.822968 0.934723
0.382751 0.820801 0.933167
0.544067 0.817963 0.930908
0.688934 0.814972 0.927948
0.817322 0.813324 0.924561
0.926270 0.813477 0.922455
1.000000 0.816528 0.920410
0.021698 0.937012 0.927307
0.150970 0.936401 0.927032
0.296967 0.934845 0.926392
0.437469 0.932220 0.925293
0.573334 0.928589 0.923767
0.701050 0.924469 0.921967
0.816437 0.920715 0.920013
0.918060 0.918121 0.918060
1.000000 0.917633 0.916992
0.328644 1.000000 0.922333
0.360840 1.000000 0.922119
0.428802 1.000000 0.921631
0.521576 1.000000 0.920807
0.624786 1.000000 0.919647
0.727905 1.000000 0.918213
0.825226 1.000000 0.916504
0.916534 1.000000 0.914276
1.000000 1.000000 0.914856
0.000000 0.000000 1.000000
0.002045 0.000000 1.000000
0.246368 0.000000 1.000000
0.417938 0.000000 1.000000
0.575836 0.000000 1.000000
0.725861 0.000000 1.000000
0.865906 0.000000 1.000000
0.988892 0.000000 1.000000
1.000000 0.000000 1.000000
0.000000 0.000000 1.000000
0.036591 0.000000 1.000000
0.259796 0.000000 1.000000
0.424438 0.000000 1.000000
0.579163 0.000000 1.000000
0.727264 0.000000 1.000000
0.865906 0.000000 1.000000
0.987946 0.000000 1.000000
1.000000 0.000000 1.000000
0.000000 0.146545 1.000000
0.102753 0.143829 1.000000
0.279175 0.135956 1.000000
0.434113 0.120056 1.000000
0.584045 0.096893 1.000000
0.728882 0.078125 1.000000
0.864868 0.066742 1.000000
0.984955 0.080261 1.000000
1.000000 0.134460 1.000000
0.000000 0.346222 1.000000
0.131073 0.346191 1.000000
0.291046 0.345367 1.000000
0.440247 0.342682 1.000000
0.586456 0.338989 1.000000
0.727966 0.335724 1.000000
0.860626 0.335785 1.000000
0.978149 0.344238 1.000000
1.000000 0.365906 1.000000
0.000000 0.518738 1.000000
0.122589 0.518768 1.000000
0.289032 0.518616 1.000000
0.440125 0.518188 1.000000
0.584320 0.516998 1.000000
0.722748 0.516022 1.000000
0.851532 0.517303 1.000000
0.964752 0.523621 1.000000
1.000000 0.537292 1.000000
0.000000 0.678772 1.000000
0.103271 0.678497 1.000000
0.281311 0.677856 1.000000
0.434509 0.676910 1.000000
0.579285 0.676056 1.000000
0.714539 0.675415 1.000000
0.838348 0.675873 1.000000
0.946136 0.679718 1.000000
1.000000 0.687958 1.000000
0.012085 0.819946 1.000000
0.149597 0.819458 1.000000
0.296783 0.818298 1.000000
0.439941 0.816437 1.000000
0.578400 0.814178 1.000000
0.709015 0.812164 1.000000
0.826202 0.811401 1.000000
0.927704 0.812286 1.000000
1.000000 0.815460 1.000000
0.227814 0.931610 1.000000
0.276733 0.931000 1.000000
0.368103 0.929565 1.000000
0.481201 0.927094 1.000000
0.600342 0.923859 1.000000
0.716187 0.920319 1.000000
0.822754 0.917450 1.000000
0.918060 0.916138 1.000000
1.000000 0.915771 1.000000
0.420044 1.000000 1.000000
0.442535 1.000000 1.000000
0.492981 1.000000 1.000000
0.566711 1.000000 1.000000
0.653320 1.000000 1.000000
0.743469 1.000000 1.000000
0.831818 1.000000 1.000000
0.916901 1.000000 1.000000
0.999969 1.000000 0.999939
