滤镜资源/Professional Luts Collection/Lutify.me Professional/Contemporary Color Films/Chrysoprase.cube
# Created by: Lutify.me
# Copyright: (c) Copyright Lutify.me 2015
# Website: https://lutify.me
#LUT size
LUT_3D_SIZE 9
#LUT data points
0.000000 0.000000 0.000000
0.063965 0.000000 0.000000
0.175018 0.000000 0.000000
0.327454 0.000000 0.000000
0.504425 0.000000 0.000000
0.688599 0.000000 0.000000
0.870361 0.000000 0.000000
1.000000 0.000000 0.000000
1.000000 0.000000 0.000000
0.000000 0.070099 0.000000
0.064240 0.067749 0.000000
0.183319 0.058838 0.000000
0.336121 0.015228 0.000000
0.510803 0.000000 0.000000
0.692841 0.000000 0.000000
0.872681 0.000000 0.000000
1.000000 0.000000 0.000000
1.000000 0.000000 0.000000
0.000000 0.202179 0.000000
0.003479 0.202698 0.000000
0.185547 0.199249 0.000000
0.349884 0.191132 0.000000
0.523224 0.170502 0.000000
0.701569 0.127838 0.000000
0.877380 0.058289 0.000000
1.000000 0.009430 0.000000
1.000000 0.006561 0.000000
0.000000 0.375641 0.000000
0.000000 0.375854 0.000000
0.135040 0.373383 0.000000
0.347992 0.368439 0.000000
0.531281 0.361389 0.000000
0.710419 0.349762 0.000000
0.883331 0.335327 0.000000
1.000000 0.324463 0.000000
1.000000 0.330139 0.000000
0.000000 0.561066 0.000000
0.000000 0.560852 0.000000
0.001953 0.559479 0.000000
0.320740 0.553223 0.000000
0.525818 0.547729 0.000000
0.711182 0.541290 0.000000
0.882996 0.534302 0.000000
1.000000 0.531006 0.000000
1.000000 0.537994 0.000000
0.000000 0.742218 0.000000
0.000000 0.741760 0.000000
0.000000 0.740417 0.000000
0.271393 0.733765 0.000000
0.512299 0.726532 0.000000
0.704315 0.720245 0.000000
0.875458 0.714508 0.000000
1.000000 0.711426 0.000000
1.000000 0.716217 0.000000
0.000000 0.901672 0.000000
0.000000 0.900879 0.000000
0.000000 0.898682 0.000000
0.255615 0.891205 0.000000
0.513489 0.882599 0.000000
0.704956 0.873993 0.000000
0.869324 0.866699 0.000000
0.998901 0.861694 0.000000
1.000000 0.862152 0.000000
0.000000 1.000000 0.000000
0.000000 1.000000 0.000000
0.038727 0.999878 0.000000
0.371216 0.999054 0.000000
0.570862 0.992340 0.000000
0.738953 0.983124 0.000000
0.884125 0.973328 0.000000
0.998444 0.965973 0.000000
1.000000 0.962250 0.000000
0.325897 1.000000 0.000000
0.366821 1.000000 0.000000
0.450928 1.000000 0.000000
0.562683 1.000000 0.000000
0.685211 1.000000 0.000000
0.805603 1.000000 0.000000
0.912323 1.000000 0.000000
0.995209 1.000000 0.000000
1.000000 1.000000 0.000000
0.000000 0.000000 0.064423
0.061829 0.000000 0.064514
0.177002 0.000000 0.062256
0.330688 0.000000 0.055939
0.507233 0.000000 0.043091
0.690857 0.000000 0.019653
0.871948 0.000000 0.000397
1.000000 0.000000 0.000000
1.000000 0.000000 0.000000
0.000000 0.065063 0.065033
0.064209 0.064484 0.063416
0.185791 0.055603 0.060028
0.339600 0.010315 0.051697
0.513672 0.000000 0.035309
0.695099 0.000000 0.008453
0.874237 0.000000 0.000000
1.000000 0.000000 0.000000
1.000000 0.000000 0.000000
0.000000 0.199005 0.041260
0.004761 0.200073 0.036438
0.190033 0.197144 0.030914
0.353119 0.188843 0.017853
0.525604 0.168152 0.002441
0.703522 0.124329 0.000000
0.878815 0.053650 0.000000
1.000000 0.007782 0.000000
1.000000 0.005157 0.000000
0.000000 0.373749 0.000000
0.000000 0.373901 0.000000
0.143799 0.371460 0.000000
0.351898 0.366821 0.000000
0.533905 0.359680 0.000000
0.712280 0.348083 0.000000
0.884491 0.333740 0.000000
1.000000 0.323059 0.000000
1.000000 0.328918 0.000000
0.000000 0.559326 0.000000
0.000000 0.559113 0.000000
0.003723 0.557587 0.000000
0.325012 0.551636 0.000000
0.528290 0.546234 0.000000
0.712677 0.539917 0.000000
0.883728 0.533020 0.000000
1.000000 0.529877 0.000000
1.000000 0.537079 0.000000
0.000000 0.740601 0.000000
0.000000 0.740112 0.000000
0.000000 0.738739 0.000000
0.276276 0.732208 0.000000
0.514374 0.725159 0.000000
0.705414 0.718964 0.000000
0.875793 0.713318 0.000000
1.000000 0.710358 0.000000
1.000000 0.715302 0.000000
0.000000 0.900085 0.000000
0.000000 0.899292 0.000000
0.000000 0.897064 0.000000
0.259979 0.889709 0.000000
0.514954 0.881226 0.000000
0.705536 0.872772 0.000000
0.869232 0.865570 0.000000
0.998840 0.860657 0.000000
1.000000 0.861237 0.000000
0.000000 1.000000 0.000000
0.000000 1.000000 0.000000
0.040680 0.999725 0.000000
0.372803 0.998688 0.000000
0.571381 0.991211 0.000000
0.738861 0.981995 0.000000
0.883453 0.972229 0.000000
0.997681 0.964996 0.000000
1.000000 0.961334 0.000000
0.325500 1.000000 0.000000
0.366577 1.000000 0.000000
0.450684 1.000000 0.000000
0.562347 1.000000 0.000000
0.684753 1.000000 0.000000
0.805023 1.000000 0.000000
0.911469 1.000000 0.000000
0.994202 1.000000 0.000000
1.000000 1.000000 0.000061
0.000000 0.000000 0.187927
0.034668 0.000000 0.188141
0.174744 0.000000 0.189575
0.333679 0.000000 0.188202
0.510468 0.000000 0.184387
0.693207 0.000000 0.177826
0.873108 0.000000 0.167938
1.000000 0.000000 0.154266
1.000000 0.000000 0.136871
0.000000 0.061981 0.191376
0.042786 0.061981 0.190094
0.184692 0.049500 0.191010
0.342590 0.004456 0.189056
0.516785 0.000000 0.184326
0.697357 0.000000 0.176636
0.875336 0.000000 0.165497
1.000000 0.000000 0.150421
1.000000 0.000000 0.131439
0.000000 0.192505 0.193695
0.003418 0.193024 0.192749
0.191193 0.192108 0.190063
0.355743 0.184265 0.185730
0.528320 0.162994 0.178833
0.705597 0.116669 0.168854
0.879852 0.044067 0.155151
1.000000 0.004761 0.137024
1.000000 0.003662 0.113464
0.000000 0.365417 0.175964
0.000000 0.365692 0.174225
0.147064 0.368317 0.165985
0.356628 0.362640 0.162384
0.536316 0.355499 0.154572
0.712738 0.344635 0.142487
0.883514 0.330963 0.124329
1.000000 0.321075 0.097382
1.000000 0.328186 0.067139
0.000000 0.552307 0.116882
0.000000 0.552124 0.113708
0.006439 0.553375 0.100159
0.329803 0.548981 0.091766
0.531769 0.542755 0.082764
0.714203 0.536316 0.063934
0.883301 0.529907 0.041016
1.000000 0.527374 0.018066
1.000000 0.535217 0.003174
0.000000 0.735077 0.007111
0.000000 0.734619 0.005920
0.000000 0.733704 0.003021
0.280823 0.729797 0.001495
0.517273 0.722321 0.001343
0.706818 0.715881 0.000000
0.875519 0.710327 0.000000
1.000000 0.707733 0.000000
1.000000 0.713043 0.000000
0.000000 0.895447 0.000000
0.000000 0.894653 0.000000
0.000000 0.893280 0.000000
0.263885 0.887207 0.000000
0.516632 0.878632 0.000000
0.705963 0.869965 0.000000
0.868195 0.862854 0.000000
0.998413 0.858124 0.000000
1.000000 0.858978 0.000000
0.000000 0.999847 0.000000
0.000000 0.999725 0.000000
0.039734 0.999451 0.000000
0.372650 0.997589 0.000000
0.571136 0.989258 0.000000
0.737885 0.979492 0.000000
0.881226 0.969666 0.000000
0.994598 0.962555 0.000000
1.000000 0.959045 0.000000
0.322876 1.000000 0.074646
0.364319 1.000000 0.075073
0.448639 1.000000 0.076660
0.560669 1.000000 0.080872
0.683044 1.000000 0.089691
0.802979 1.000000 0.105469
0.908783 1.000000 0.138580
0.991425 1.000000 0.185486
1.000000 1.000000 0.236237
0.000000 0.000000 0.350464
0.000000 0.000000 0.350372
0.150238 0.000000 0.352112
0.330109 0.000000 0.353363
0.510040 0.000000 0.352203
0.692902 0.000000 0.349548
0.871704 0.000000 0.345306
1.000000 0.000000 0.339905
1.000000 0.000000 0.334473
0.000000 0.057220 0.353210
0.000000 0.054352 0.353088
0.164429 0.037567 0.353455
0.339478 0.000488 0.354645
0.516418 0.000000 0.353027
0.696991 0.000000 0.349884
0.873871 0.000000 0.345093
1.000000 0.000000 0.339233
1.000000 0.000000 0.333466
0.000000 0.188202 0.359741
0.000000 0.188324 0.359314
0.178436 0.189148 0.354645
0.352173 0.179382 0.355591
0.527466 0.155792 0.353210
0.705170 0.104309 0.348755
0.878357 0.031189 0.342926
1.000000 0.001434 0.336243
1.000000 0.002289 0.329590
0.000000 0.358032 0.358734
0.000000 0.358276 0.358002
0.144592 0.358032 0.356049
0.354431 0.355865 0.352600
0.534912 0.350067 0.348297
0.711700 0.339630 0.342560
0.881592 0.326294 0.335663
1.000000 0.317291 0.328064
1.000000 0.326538 0.320618
0.000000 0.541809 0.345306
0.000000 0.541779 0.344360
0.013031 0.542328 0.341370
0.326691 0.544312 0.332855
0.532562 0.537079 0.330353
0.713013 0.530853 0.325714
0.879700 0.525513 0.319550
1.000000 0.524170 0.312134
1.000000 0.533264 0.303894
0.000000 0.723785 0.319214
0.000000 0.723419 0.318115
0.000000 0.722870 0.314850
0.277832 0.725586 0.302368
0.517395 0.718353 0.300201
0.706299 0.710968 0.297638
0.872559 0.705536 0.291809
0.999725 0.703613 0.286591
1.000000 0.709778 0.279419
0.000000 0.884216 0.289185
0.000000 0.883514 0.288177
0.000000 0.883057 0.283173
0.258667 0.883667 0.269745
0.514526 0.875610 0.269318
0.704285 0.865875 0.271698
0.864655 0.858429 0.268951
0.994324 0.854004 0.265869
1.000000 0.855255 0.263580
0.000000 0.997772 0.282745
0.000000 0.998016 0.278625
0.038605 0.998474 0.269012
0.366333 0.995026 0.265656
0.567169 0.986633 0.269196
0.734192 0.975769 0.275238
0.875916 0.965515 0.279724
0.988159 0.958618 0.281311
1.000000 0.955383 0.284851
0.313477 1.000000 0.346039
0.356079 1.000000 0.346130
0.442200 1.000000 0.346313
0.555298 1.000000 0.347229
0.678223 1.000000 0.349640
0.798004 1.000000 0.355194
0.903015 1.000000 0.366119
0.985718 1.000000 0.384552
1.000000 1.000000 0.411011
0.000000 0.000000 0.526154
0.000000 0.000000 0.526062
0.070740 0.000000 0.526489
0.315491 0.000000 0.529358
0.505737 0.000000 0.529663
0.689819 0.000000 0.528137
0.867462 0.000000 0.525848
1.000000 0.000000 0.522675
1.000000 0.000000 0.519592
0.000000 0.044861 0.527893
0.000000 0.038544 0.527740
0.100006 0.015015 0.527649
0.325928 0.000000 0.530365
0.512207 0.000000 0.530304
0.693848 0.000000 0.528503
0.869568 0.000000 0.525909
1.000000 0.000000 0.522522
1.000000 0.000000 0.519257
0.000000 0.184570 0.533691
0.000000 0.184082 0.533417
0.131744 0.183960 0.529419
0.341187 0.173126 0.530396
0.522583 0.146149 0.530823
0.701050 0.091278 0.528717
0.873383 0.020081 0.525482
1.000000 0.000000 0.521545
1.000000 0.003723 0.517853
0.000000 0.352631 0.537964
0.000000 0.352661 0.537415
0.099609 0.352570 0.534637
0.348053 0.353058 0.528778
0.529480 0.346191 0.529510
0.707153 0.334778 0.526978
0.876526 0.321136 0.522797
1.000000 0.312866 0.518066
1.000000 0.324707 0.513763
0.000000 0.534515 0.533478
0.000000 0.534393 0.532867
0.004608 0.533997 0.531342
0.326172 0.532623 0.528778
0.527802 0.529663 0.525085
0.707397 0.525299 0.521057
0.873230 0.520966 0.516327
0.999939 0.520691 0.511566
1.000000 0.531494 0.507385
0.000000 0.713684 0.522614
0.000000 0.713379 0.522003
0.000000 0.712616 0.520447
0.282654 0.713135 0.516571
0.510376 0.712708 0.508942
0.702026 0.704559 0.507233
0.865448 0.699707 0.504486
0.997925 0.699127 0.501465
1.000000 0.706421 0.497986
0.000000 0.872925 0.510773
0.000000 0.872284 0.510223
0.000000 0.871429 0.508270
0.263794 0.872375 0.502075
0.506409 0.870178 0.494568
0.698486 0.860565 0.494293
0.857117 0.852692 0.493866
0.984894 0.848785 0.492737
1.000000 0.850708 0.491852
0.000000 0.987976 0.510345
0.000000 0.988190 0.508789
0.062988 0.988586 0.504730
0.361572 0.987396 0.499054
0.557953 0.981934 0.495209
0.726105 0.970764 0.497101
0.866333 0.960114 0.500305
0.976837 0.953522 0.501343
1.000000 0.950623 0.503174
0.291382 1.000000 0.533203
0.337097 1.000000 0.533051
0.427429 1.000000 0.532837
0.543732 1.000000 0.532684
0.668243 1.000000 0.533234
0.788422 1.000000 0.535675
0.892792 1.000000 0.541809
0.975128 1.000000 0.553619
1.000000 1.000000 0.572235
0.000000 0.000000 0.699768
0.000000 0.000000 0.699646
0.000000 0.000000 0.699341
0.292419 0.000000 0.702118
0.497955 0.000000 0.703735
0.685944 0.000000 0.702972
0.862122 0.000000 0.700897
0.999969 0.000000 0.698578
1.000000 0.000000 0.695984
0.000000 0.018036 0.700623
0.000000 0.008881 0.700439
0.007294 0.000153 0.700043
0.304443 0.000000 0.702759
0.504700 0.000000 0.704071
0.689972 0.000000 0.703033
0.864075 0.000000 0.700806
1.000000 0.000000 0.698334
1.000000 0.000000 0.695648
0.000000 0.179047 0.704956
0.000000 0.177765 0.704712
0.039276 0.175110 0.702240
0.324005 0.163879 0.701630
0.515778 0.131500 0.703552
0.696686 0.073730 0.702667
0.867218 0.012817 0.700287
1.000000 0.000000 0.697510
1.000000 0.007446 0.694672
0.000000 0.348328 0.709564
0.000000 0.348145 0.709198
0.026184 0.348145 0.706573
0.335480 0.349609 0.699951
0.524078 0.342529 0.701141
0.701630 0.330719 0.700867
0.868561 0.318329 0.698517
0.999878 0.311646 0.695404
1.000000 0.327454 0.692230
0.000000 0.528564 0.709137
0.000000 0.528412 0.708649
0.000000 0.527893 0.707123
0.319458 0.527039 0.702606
0.525452 0.527100 0.696533
0.700653 0.522278 0.696960
0.864471 0.517731 0.694427
0.998993 0.518066 0.690887
1.000000 0.530579 0.687592
0.000000 0.706512 0.701630
0.000000 0.706207 0.701141
0.000000 0.705322 0.699921
0.284363 0.703583 0.697876
0.511261 0.700775 0.694977
0.694794 0.697296 0.691345
0.854736 0.694550 0.687988
0.987885 0.695526 0.684570
1.000000 0.704224 0.681854
0.000000 0.863525 0.693176
0.000000 0.862946 0.692749
0.000000 0.861603 0.691681
0.278137 0.859924 0.689667
0.506195 0.857574 0.686188
0.688080 0.854523 0.679993
0.846313 0.846252 0.679291
0.969879 0.843292 0.678314
1.000000 0.846222 0.677307
0.000000 0.978363 0.691711
0.000000 0.978027 0.691193
0.098694 0.976929 0.689819
0.370728 0.974579 0.687378
0.552307 0.971191 0.683197
0.713715 0.964844 0.678833
0.853088 0.954224 0.680115
0.960114 0.947784 0.681030
1.000000 0.945343 0.681885
0.276093 1.000000 0.700958
0.321075 1.000000 0.700439
0.409790 1.000000 0.699036
0.525757 1.000000 0.697113
0.652252 1.000000 0.695831
0.773651 1.000000 0.695984
0.877991 1.000000 0.698914
0.960480 1.000000 0.706482
1.000000 1.000000 0.720337
0.000000 0.000000 0.855530
0.000000 0.000000 0.855347
0.000000 0.000000 0.854889
0.279541 0.000000 0.857025
0.496857 0.000000 0.858856
0.686249 0.000000 0.858856
0.860260 0.000000 0.856750
0.999329 0.000000 0.854004
1.000000 0.000000 0.851105
0.000000 0.000000 0.855621
0.000000 0.000000 0.855438
0.000000 0.000000 0.854950
0.293060 0.000000 0.857147
0.503693 0.000000 0.858765
0.690155 0.000000 0.858521
0.862061 0.000000 0.856262
0.999359 0.000000 0.853485
1.000000 0.000000 0.850494
0.000000 0.170410 0.858276
0.000000 0.168304 0.858002
0.009552 0.163483 0.856232
0.316315 0.150085 0.855042
0.515625 0.111206 0.856903
0.696777 0.049835 0.857117
0.864655 0.007263 0.854858
0.999298 0.000000 0.852020
1.000000 0.012054 0.848938
0.000000 0.344543 0.861511
0.000000 0.344116 0.861176
0.012085 0.343994 0.858551
0.332886 0.345551 0.851959
0.525879 0.338318 0.852722
0.701752 0.325623 0.853638
0.864838 0.314697 0.851715
0.998901 0.312378 0.848938
1.000000 0.332977 0.845856
0.000000 0.523804 0.861145
0.000000 0.523590 0.860718
0.000000 0.523224 0.858765
0.325470 0.523926 0.852325
0.529419 0.524658 0.846710
0.700958 0.520203 0.847534
0.858978 0.516602 0.846344
0.993103 0.518677 0.843781
1.000000 0.533630 0.840790
0.000000 0.700592 0.854584
0.000000 0.700256 0.854126
0.000000 0.699341 0.852844
0.295868 0.697601 0.849792
0.519135 0.695496 0.845306
0.696503 0.695129 0.839386
0.847168 0.692688 0.839294
0.975555 0.694092 0.837006
1.000000 0.703949 0.834290
0.000000 0.856537 0.844208
0.000000 0.855957 0.843811
0.000000 0.854462 0.842804
0.299744 0.851837 0.841125
0.517242 0.848114 0.838776
0.690247 0.843689 0.835999
0.837006 0.839996 0.832855
0.953583 0.839264 0.830566
1.000000 0.843384 0.828705
0.000000 0.969818 0.838226
0.001404 0.969055 0.837952
0.167755 0.967102 0.837250
0.394165 0.963654 0.835968
0.563354 0.958954 0.834137
0.711121 0.953766 0.831421
0.839813 0.948792 0.827362
0.943390 0.942322 0.827515
1.000000 0.940460 0.827454
0.313080 1.000000 0.840302
0.352173 1.000000 0.840057
0.431885 1.000000 0.839386
0.537018 1.000000 0.838196
0.650848 1.000000 0.836212
0.761261 1.000000 0.833221
0.861206 1.000000 0.830688
0.945007 1.000000 0.834045
1.000000 1.000000 0.843964
0.000000 0.000000 0.974121
0.000000 0.000000 0.973907
0.003082 0.000000 0.973480
0.317108 0.000000 0.975555
0.521606 0.000000 0.976837
0.703339 0.000000 0.976624
0.870087 0.000000 0.974609
0.999451 0.000000 0.971100
1.000000 0.000000 0.967377
0.000000 0.000000 0.973663
0.000000 0.000000 0.973389
0.023285 0.000000 0.973175
0.329346 0.000000 0.975128
0.528015 0.000000 0.976227
0.706909 0.000000 0.975830
0.871643 0.000000 0.973694
0.999481 0.000000 0.970154
1.000000 0.000000 0.966431
0.000000 0.158203 0.974579
0.000000 0.155396 0.974243
0.084534 0.150513 0.971436
0.351837 0.130432 0.971832
0.539795 0.084839 0.973175
0.713196 0.024506 0.973206
0.873749 0.001312 0.971161
0.999359 0.000000 0.967590
1.000000 0.016663 0.963837
0.000000 0.340790 0.975800
0.000000 0.340210 0.975433
0.113129 0.341827 0.970398
0.370789 0.341278 0.966431
0.550812 0.333405 0.967041
0.717987 0.321289 0.967560
0.873108 0.310913 0.966125
0.998810 0.313721 0.962738
1.000000 0.339844 0.958984
0.000000 0.520508 0.973480
0.000000 0.520203 0.973053
0.090576 0.520966 0.968781
0.372894 0.522400 0.962494
0.555786 0.522583 0.958374
0.717377 0.518677 0.958710
0.866241 0.515442 0.958130
0.990967 0.520477 0.955109
1.000000 0.538269 0.951599
0.000000 0.695984 0.965210
0.000000 0.695648 0.964783
0.030792 0.694885 0.962372
0.356415 0.693909 0.958252
0.550598 0.693268 0.952515
0.712921 0.693756 0.947357
0.853119 0.692108 0.947418
0.970520 0.695343 0.945343
1.000000 0.706818 0.942444
0.000000 0.850922 0.952271
0.000000 0.850342 0.951843
0.054840 0.848816 0.950592
0.359344 0.846283 0.948547
0.547638 0.842804 0.945526
0.707581 0.839355 0.941345
0.842010 0.838501 0.936279
0.946228 0.838593 0.935730
1.000000 0.843201 0.933807
0.018494 0.962982 0.940765
0.061188 0.962158 0.940460
0.276917 0.960052 0.939667
0.441467 0.956482 0.938354
0.590881 0.951569 0.936523
0.726288 0.945953 0.934387
0.842041 0.940948 0.932220
0.934692 0.938110 0.930084
1.000000 0.937469 0.928741
0.378723 1.000000 0.935638
0.409882 1.000000 0.935394
0.476257 1.000000 0.934814
0.568268 1.000000 0.933838
0.670593 1.000000 0.932526
0.769867 1.000000 0.930939
0.857727 1.000000 0.928894
0.934387 1.000000 0.926178
0.999939 1.000000 0.931915
0.000000 0.000000 1.000000
0.000000 0.000000 1.000000
0.222534 0.000000 1.000000
0.410095 0.000000 1.000000
0.580597 0.000000 1.000000
0.744171 0.000000 1.000000
0.896973 0.000000 1.000000
1.000000 0.000000 1.000000
1.000000 0.000000 1.000000
0.000000 0.000000 1.000000
0.001617 0.000000 1.000000
0.240692 0.000000 1.000000
0.419098 0.000000 1.000000
0.585907 0.000000 1.000000
0.747162 0.000000 1.000000
0.897980 0.000000 1.000000
1.000000 0.000000 1.000000
1.000000 0.000000 1.000000
0.000000 0.141998 1.000000
0.076782 0.141754 1.000000
0.273346 0.130127 1.000000
0.436310 0.099670 1.000000
0.595825 0.057800 1.000000
0.752228 0.010895 1.000000
0.899139 0.000000 1.000000
1.000000 0.000214 1.000000
1.000000 0.037933 1.000000
0.000000 0.338867 1.000000
0.128113 0.340088 1.000000
0.299255 0.340485 1.000000
0.452850 0.336426 1.000000
0.605286 0.327789 1.000000
0.755646 0.316742 1.000000
0.897003 0.309387 1.000000
1.000000 0.317108 1.000000
1.000000 0.348724 1.000000
0.000000 0.519165 1.000000
0.115540 0.519836 1.000000
0.300079 0.520935 1.000000
0.459717 0.522156 1.000000
0.609314 0.520966 1.000000
0.753571 0.517365 1.000000
0.888214 0.515808 1.000000
0.997986 0.523132 1.000000
1.000000 0.543732 1.000000
0.000000 0.692932 1.000000
0.051636 0.692810 1.000000
0.281860 0.692474 1.000000
0.451141 0.692200 1.000000
0.606537 0.692749 1.000000
0.747009 0.693054 1.000000
0.872681 0.692444 1.000000
0.976837 0.697052 1.000000
1.000000 0.710266 1.000000
0.000000 0.846130 1.000000
0.094574 0.845551 1.000000
0.291199 0.844208 1.000000
0.452606 0.841980 1.000000
0.603149 0.839325 1.000000
0.741302 0.837585 1.000000
0.858124 0.838013 1.000000
0.950012 0.839172 1.000000
1.000000 0.844696 1.000000
0.242157 0.956970 1.000000
0.294250 0.956146 1.000000
0.391022 0.954163 1.000000
0.510071 0.950806 1.000000
0.634247 0.946320 1.000000
0.752228 0.941467 1.000000
0.854492 0.937775 0.999847
0.937073 0.936981 0.997162
1.000000 0.936859 0.996948
0.458740 1.000000 1.000000
0.482300 1.000000 1.000000
0.535095 1.000000 1.000000
0.611694 1.000000 1.000000
0.699524 1.000000 0.999573
0.786407 1.000000 0.998169
0.865417 1.000000 0.996704
0.934937 1.000000 0.995361
0.999756 1.000000 0.997101
