滤镜资源/Professional Luts Collection/Lutify.me Professional/Contemporary Color Films/Chrysocolla.cube
# Created by: Lutify.me
# Copyright: (c) Copyright Lutify.me 2015
# Website: https://lutify.me
#LUT size
LUT_3D_SIZE 33
#LUT data points
0.000000 0.000000 0.000000
0.009644 0.000000 0.000397
0.020752 0.000000 0.000427
0.038116 0.000000 0.000793
0.060272 0.000000 0.000702
0.084473 0.000000 0.000122
0.111023 0.000000 0.000000
0.140259 0.000000 0.000000
0.173096 0.000000 0.000000
0.209015 0.000000 0.000000
0.248047 0.000000 0.000000
0.289673 0.000000 0.000000
0.333435 0.000000 0.000000
0.378937 0.000000 0.000000
0.425873 0.000000 0.000000
0.473755 0.000000 0.000000
0.521606 0.000000 0.000000
0.569153 0.000000 0.000000
0.616730 0.000000 0.000000
0.664459 0.000000 0.000000
0.712341 0.000000 0.000000
0.760010 0.000000 0.000000
0.807343 0.000000 0.000000
0.854370 0.000000 0.000000
0.900757 0.000000 0.000000
0.946289 0.000000 0.000000
0.985779 0.000000 0.000000
1.000000 0.000000 0.000000
1.000000 0.000000 0.000000
1.000000 0.000000 0.000000
1.000000 0.000000 0.000000
1.000000 0.000000 0.000000
1.000000 0.000000 0.000000
0.000000 0.009308 0.000000
0.008484 0.009247 0.000000
0.019989 0.008484 0.000000
0.038055 0.007751 0.000000
0.060303 0.006592 0.000031
0.084747 0.004730 0.000031
0.111603 0.001617 0.000000
0.141388 0.000214 0.000000
0.174438 0.000000 0.000000
0.210663 0.000000 0.000000
0.249756 0.000000 0.000000
0.291412 0.000000 0.000000
0.335114 0.000000 0.000000
0.380524 0.000000 0.000000
0.427368 0.000000 0.000000
0.475128 0.000000 0.000000
0.523376 0.000000 0.000000
0.571320 0.000000 0.000000
0.618896 0.000000 0.000000
0.666534 0.000000 0.000000
0.714111 0.000000 0.000000
0.761627 0.000000 0.000000
0.808929 0.000000 0.000000
0.855804 0.000000 0.000000
0.902100 0.000000 0.000000
0.947510 0.000000 0.000000
0.986603 0.000000 0.000000
1.000000 0.000000 0.000000
1.000000 0.000000 0.000000
1.000000 0.000000 0.000000
1.000000 0.000000 0.000000
1.000000 0.000000 0.000000
1.000000 0.000000 0.000000
0.000000 0.021820 0.000000
0.006989 0.021057 0.000000
0.019501 0.020355 0.000000
0.037628 0.019562 0.000000
0.060120 0.018372 0.000000
0.085297 0.016174 0.000000
0.112640 0.013092 0.000000
0.142731 0.008057 0.000000
0.176086 0.001556 0.000000
0.212402 0.000031 0.000000
0.251556 0.000000 0.000000
0.293182 0.000000 0.000000
0.336884 0.000000 0.000000
0.382202 0.000000 0.000000
0.428925 0.000000 0.000000
0.476593 0.000000 0.000000
0.524841 0.000000 0.000000
0.573334 0.000000 0.000000
0.621246 0.000000 0.000000
0.668701 0.000000 0.000000
0.716125 0.000000 0.000000
0.763519 0.000000 0.000000
0.810699 0.000000 0.000000
0.857391 0.000000 0.000000
0.903503 0.000000 0.000000
0.948883 0.000000 0.000000
0.987640 0.000000 0.000000
1.000000 0.000000 0.000000
1.000000 0.000000 0.000000
1.000000 0.000000 0.000000
1.000000 0.000000 0.000000
1.000000 0.000000 0.000000
1.000000 0.000000 0.000000
0.000000 0.040405 0.000000
0.003876 0.040009 0.000000
0.016144 0.039246 0.000000
0.035706 0.038452 0.000000
0.059692 0.037018 0.000000
0.085846 0.035065 0.000000
0.113770 0.032196 0.000000
0.144470 0.027374 0.000000
0.178009 0.019928 0.000000
0.214691 0.009155 0.000000
0.253998 0.001648 0.000000
0.295593 0.000000 0.000000
0.339233 0.000000 0.000000
0.384491 0.000000 0.000000
0.431061 0.000000 0.000000
0.478546 0.000000 0.000000
0.526581 0.000000 0.000000
0.575134 0.000000 0.000000
0.623718 0.000000 0.000000
0.671570 0.000000 0.000000
0.718781 0.000000 0.000000
0.765961 0.000000 0.000000
0.812866 0.000000 0.000000
0.859436 0.000000 0.000000
0.905365 0.000000 0.000000
0.950562 0.000000 0.000000
0.988953 0.000000 0.000000
1.000000 0.000000 0.000000
1.000000 0.000000 0.000000
1.000000 0.000000 0.000000
1.000000 0.000000 0.000000
1.000000 0.000000 0.000000
1.000000 0.000000 0.000000
0.000000 0.064728 0.000000
0.000366 0.064453 0.000000
0.010620 0.064148 0.000000
0.030670 0.063354 0.000000
0.057404 0.062256 0.000000
0.085297 0.061035 0.000000
0.114655 0.058594 0.000000
0.146301 0.054749 0.000000
0.180542 0.049072 0.000000
0.217590 0.039917 0.000000
0.257019 0.026550 0.000000
0.298523 0.010132 0.000000
0.342072 0.001678 0.000000
0.387177 0.000000 0.000000
0.433594 0.000000 0.000000
0.480865 0.000000 0.000000
0.528687 0.000000 0.000000
0.577026 0.000000 0.000000
0.625793 0.000000 0.000000
0.674408 0.000000 0.000000
0.722076 0.000000 0.000000
0.768982 0.000000 0.000000
0.815704 0.000000 0.000000
0.862030 0.000000 0.000000
0.907745 0.000000 0.000000
0.952759 0.000000 0.000000
0.990601 0.000000 0.000000
1.000000 0.000000 0.000000
1.000000 0.000000 0.000000
1.000000 0.000000 0.000000
1.000000 0.000000 0.000000
1.000000 0.000000 0.000000
1.000000 0.000000 0.000000
0.000000 0.092316 0.000000
0.000000 0.092468 0.000000
0.001007 0.092224 0.000000
0.021423 0.091675 0.000000
0.051117 0.091156 0.000000
0.082275 0.090149 0.000000
0.114227 0.088531 0.000000
0.147308 0.086060 0.000000
0.182831 0.082031 0.000000
0.220367 0.076355 0.000000
0.260223 0.067719 0.000000
0.301880 0.055145 0.000000
0.345337 0.036163 0.000000
0.390289 0.014557 0.000000
0.436493 0.002625 0.000000
0.483490 0.000000 0.000000
0.531036 0.000000 0.000000
0.579193 0.000000 0.000000
0.627747 0.000000 0.000000
0.676453 0.000000 0.000000
0.724945 0.000000 0.000000
0.772430 0.000000 0.000000
0.819000 0.000000 0.000000
0.865112 0.000000 0.000000
0.910645 0.000000 0.000000
0.955414 0.000000 0.000000
0.992523 0.000000 0.000000
1.000000 0.000000 0.000000
1.000000 0.000000 0.000000
1.000000 0.000000 0.000000
1.000000 0.000000 0.000000
1.000000 0.000000 0.000000
1.000000 0.000000 0.000000
0.000000 0.124298 0.000000
0.000000 0.124329 0.000000
0.000000 0.124329 0.000000
0.003662 0.124115 0.000000
0.036743 0.123657 0.000000
0.074799 0.122925 0.000000
0.110626 0.121948 0.000000
0.146606 0.120270 0.000000
0.183655 0.117615 0.000000
0.222565 0.113708 0.000000
0.262939 0.108246 0.000000
0.305054 0.100739 0.000000
0.348724 0.090057 0.000000
0.393677 0.074890 0.000000
0.439667 0.054016 0.000000
0.486450 0.028717 0.000000
0.533783 0.009003 0.000000
0.581635 0.001099 0.000000
0.629852 0.000000 0.000000
0.678284 0.000000 0.000000
0.726776 0.000000 0.000000
0.775055 0.000000 0.000000
0.822357 0.000000 0.000000
0.868500 0.000000 0.000000
0.913788 0.000000 0.000000
0.958374 0.000000 0.000000
0.994781 0.000000 0.000000
1.000000 0.000000 0.000000
1.000000 0.000000 0.000000
1.000000 0.000000 0.000000
1.000000 0.000000 0.000000
1.000000 0.000000 0.000000
1.000000 0.000000 0.000000
0.000000 0.160095 0.000000
0.000000 0.160156 0.000000
0.000000 0.160217 0.000000
0.000244 0.160217 0.000000
0.010468 0.160156 0.000000
0.058960 0.159485 0.000000
0.102142 0.158691 0.000000
0.142548 0.157501 0.000000
0.182465 0.155640 0.000000
0.222961 0.153015 0.000000
0.264648 0.149292 0.000000
0.307556 0.144135 0.000000
0.351624 0.137421 0.000000
0.396759 0.128601 0.000000
0.442780 0.117096 0.000000
0.489471 0.101624 0.000000
0.536682 0.080353 0.000000
0.584320 0.056366 0.000000
0.632324 0.028870 0.000000
0.680481 0.008484 0.000000
0.728668 0.001282 0.000000
0.776672 0.000000 0.000000
0.824341 0.000000 0.000000
0.871277 0.000000 0.000000
0.917023 0.000000 0.000000
0.961151 0.000000 0.000000
0.996338 0.000000 0.000000
1.000000 0.000000 0.000000
1.000000 0.000000 0.000000
1.000000 0.000000 0.000000
1.000000 0.000000 0.000000
1.000000 0.000000 0.000000
1.000000 0.000000 0.000000
0.000000 0.199493 0.000000
0.000000 0.199615 0.000000
0.000000 0.199707 0.000000
0.000000 0.199799 0.000000
0.001068 0.199860 0.000000
0.025879 0.199432 0.000000
0.086090 0.198700 0.000000
0.133850 0.197662 0.000000
0.177948 0.196289 0.000000
0.221191 0.194458 0.000000
0.264618 0.191803 0.000000
0.308746 0.188110 0.000000
0.353546 0.183441 0.000000
0.399139 0.177460 0.000000
0.445374 0.170074 0.000000
0.492157 0.160858 0.000000
0.539337 0.149414 0.000000
0.586884 0.135010 0.000000
0.634735 0.116089 0.000000
0.682709 0.091644 0.000000
0.730682 0.068268 0.000000
0.778503 0.040253 0.000000
0.825928 0.016205 0.000000
0.872894 0.005096 0.000000
0.919067 0.000000 0.000000
0.963226 0.000000 0.000000
0.997070 0.000000 0.000000
1.000000 0.000000 0.000000
1.000000 0.000000 0.000000
1.000000 0.000000 0.000000
1.000000 0.000000 0.000000
1.000000 0.000000 0.000000
1.000000 0.000000 0.000000
0.000000 0.241974 0.000000
0.000000 0.242126 0.000000
0.000000 0.242157 0.000000
0.000000 0.242279 0.000000
0.000000 0.242249 0.000000
0.003143 0.242126 0.000000
0.054810 0.241486 0.000000
0.118591 0.240540 0.000000
0.169373 0.239380 0.000000
0.216370 0.237915 0.000000
0.262360 0.236053 0.000000
0.308167 0.233307 0.000000
0.354126 0.229828 0.000000
0.400360 0.225494 0.000000
0.447113 0.220154 0.000000
0.494110 0.213837 0.000000
0.541443 0.206207 0.000000
0.589020 0.197174 0.000000
0.636810 0.186340 0.000000
0.684723 0.173401 0.000000
0.732544 0.157898 0.000000
0.780151 0.138245 0.000000
0.827423 0.112854 0.000000
0.874146 0.092377 0.000000
0.920135 0.070068 0.000000
0.964203 0.045410 0.000000
0.997284 0.022034 0.000000
1.000000 0.013977 0.000000
1.000000 0.006836 0.000000
1.000000 0.000153 0.000000
1.000000 0.000000 0.000000
1.000000 0.000000 0.000000
1.000000 0.000000 0.000000
0.000000 0.286804 0.000000
0.000000 0.286896 0.000000
0.000000 0.286896 0.000000
0.000000 0.286957 0.000000
0.000000 0.286987 0.000000
0.000000 0.286957 0.000000
0.009155 0.286499 0.000000
0.091400 0.285614 0.000000
0.154938 0.284546 0.000000
0.207855 0.283203 0.000000
0.257385 0.281616 0.000000
0.305359 0.279663 0.000000
0.352966 0.276947 0.000000
0.400330 0.273621 0.000000
0.447723 0.269562 0.000000
0.495209 0.264801 0.000000
0.542725 0.259308 0.000000
0.590546 0.252716 0.000000
0.638458 0.245209 0.000000
0.686310 0.236511 0.000000
0.734039 0.226685 0.000000
0.781525 0.215515 0.000000
0.828613 0.202881 0.000000
0.875122 0.188599 0.000000
0.920837 0.172150 0.000000
0.964661 0.152771 0.000000
0.997345 0.130219 0.000000
1.000000 0.117035 0.000000
1.000000 0.104675 0.000000
1.000000 0.092987 0.000000
1.000000 0.086639 0.000000
1.000000 0.083496 0.000000
1.000000 0.084900 0.000000
0.000000 0.333221 0.000000
0.000000 0.333313 0.000000
0.000000 0.333313 0.000000
0.000000 0.333405 0.000000
0.000000 0.333374 0.000000
0.000000 0.333344 0.000000
0.000427 0.333038 0.000000
0.042206 0.332245 0.000000
0.131989 0.331177 0.000000
0.194702 0.329865 0.000000
0.249146 0.328430 0.000000
0.300262 0.326721 0.000000
0.349792 0.324738 0.000000
0.398621 0.322021 0.000000
0.447021 0.318787 0.000000
0.495239 0.314972 0.000000
0.543274 0.310608 0.000000
0.591309 0.305634 0.000000
0.639404 0.299835 0.000000
0.687347 0.293427 0.000000
0.735077 0.286285 0.000000
0.782501 0.278442 0.000000
0.829407 0.269836 0.000000
0.875732 0.260651 0.000000
0.921204 0.250916 0.000000
0.964783 0.240753 0.000000
0.997345 0.230560 0.000000
1.000000 0.220612 0.000000
1.000000 0.211212 0.000000
1.000000 0.203278 0.000000
1.000000 0.197449 0.000000
1.000000 0.195038 0.000000
1.000000 0.197327 0.000000
0.000000 0.380859 0.000000
0.000000 0.380920 0.000000
0.000000 0.380951 0.000000
0.000000 0.380981 0.000000
0.000000 0.380890 0.000000
0.000000 0.380798 0.000000
0.000000 0.380524 0.000000
0.007019 0.379883 0.000000
0.094421 0.378845 0.000000
0.175537 0.377563 0.000000
0.237274 0.376160 0.000000
0.292480 0.374542 0.000000
0.344543 0.372742 0.000000
0.395111 0.370667 0.000000
0.444885 0.367981 0.000000
0.494049 0.364838 0.000000
0.542786 0.361298 0.000000
0.591278 0.357239 0.000000
0.639587 0.352661 0.000000
0.687714 0.347565 0.000000
0.735504 0.342010 0.000000
0.782898 0.335999 0.000000
0.829712 0.329590 0.000000
0.875854 0.322876 0.000000
0.921112 0.315948 0.000000
0.964569 0.308990 0.000000
0.997314 0.302246 0.000000
1.000000 0.296021 0.000000
1.000000 0.290527 0.000000
1.000000 0.286224 0.000000
1.000000 0.283661 0.000000
1.000000 0.283295 0.000000
1.000000 0.285797 0.000000
0.000000 0.429230 0.000000
0.000000 0.429199 0.000000
0.000000 0.429199 0.000000
0.000000 0.429199 0.000000
0.000000 0.429138 0.000000
0.000000 0.428955 0.000000
0.000000 0.428741 0.000000
0.000000 0.428223 0.000000
0.039856 0.427155 0.000000
0.147858 0.425934 0.000000
0.221008 0.424530 0.000000
0.281708 0.422974 0.000000
0.337067 0.421295 0.000000
0.389801 0.419434 0.000000
0.441162 0.417236 0.000000
0.491516 0.414642 0.000000
0.541107 0.411591 0.000000
0.590240 0.408173 0.000000
0.639008 0.404388 0.000000
0.687347 0.400208 0.000000
0.735260 0.395691 0.000000
0.782654 0.390869 0.000000
0.829407 0.385803 0.000000
0.875397 0.380554 0.000000
0.920441 0.375275 0.000000
0.963928 0.370056 0.000000
0.997162 0.365143 0.000000
1.000000 0.360718 0.000000
1.000000 0.357086 0.000000
1.000000 0.354340 0.000000
1.000000 0.353027 0.000000
1.000000 0.353455 0.000000
1.000000 0.356049 0.000000
0.000000 0.478058 0.000000
0.000000 0.478027 0.000000
0.000000 0.477997 0.000000
0.000000 0.477905 0.000000
0.000000 0.477814 0.000000
0.000000 0.477631 0.000000
0.000000 0.477386 0.000000
0.000000 0.476990 0.000000
0.007416 0.475983 0.000000
0.103455 0.474701 0.000000
0.199005 0.473358 0.000000
0.267456 0.471832 0.000000
0.327179 0.470184 0.000000
0.382629 0.468414 0.000000
0.435791 0.466492 0.000000
0.487610 0.464264 0.000000
0.538269 0.461670 0.000000
0.588104 0.458740 0.000000
0.637451 0.455505 0.000000
0.686157 0.451904 0.000000
0.734253 0.448120 0.000000
0.781738 0.444061 0.000000
0.828491 0.439911 0.000000
0.874359 0.435638 0.000000
0.919220 0.431396 0.000000
0.962799 0.427338 0.000000
0.996918 0.423492 0.000000
1.000000 0.420166 0.000000
1.000000 0.417542 0.000000
1.000000 0.415771 0.000000
1.000000 0.415161 0.000000
1.000000 0.415985 0.000000
1.000000 0.418610 0.000000
0.000000 0.527100 0.000000
0.000000 0.527039 0.000000
0.000000 0.526978 0.000000
0.000000 0.526886 0.000000
0.000000 0.526703 0.000000
0.000000 0.526520 0.000000
0.000000 0.526215 0.000000
0.000000 0.525818 0.000000
0.000000 0.525024 0.000000
0.048431 0.523743 0.000000
0.168488 0.522369 0.000000
0.249115 0.520874 0.000000
0.314606 0.519226 0.000000
0.373505 0.517548 0.000000
0.428986 0.515625 0.000000
0.482239 0.513641 0.000000
0.534180 0.511414 0.000000
0.584991 0.508850 0.000000
0.634888 0.506012 0.000000
0.684082 0.502869 0.000000
0.732483 0.499542 0.000000
0.780060 0.496094 0.000000
0.826843 0.492493 0.000000
0.872650 0.488922 0.000000
0.917328 0.485352 0.000000
0.960754 0.481995 0.000000
0.995941 0.478943 0.000000
1.000000 0.476349 0.000000
1.000000 0.474335 0.000000
1.000000 0.473145 0.000000
1.000000 0.472961 0.000000
1.000000 0.474030 0.000000
1.000000 0.476624 0.000000
0.000000 0.576019 0.000000
0.000000 0.575928 0.000000
0.000000 0.575867 0.000000
0.000000 0.575745 0.000000
0.000000 0.575562 0.000000
0.000000 0.575348 0.000000
0.000000 0.575012 0.000000
0.000000 0.574554 0.000000
0.000000 0.573914 0.000000
0.010681 0.572693 0.000000
0.122009 0.571289 0.000000
0.226044 0.569763 0.000000
0.299194 0.568146 0.000000
0.362396 0.566467 0.000000
0.420685 0.564606 0.000000
0.475830 0.562622 0.000000
0.528931 0.560638 0.000000
0.580780 0.558350 0.000000
0.631500 0.555817 0.000000
0.681183 0.553040 0.000000
0.729919 0.550049 0.000000
0.777710 0.546967 0.000000
0.824493 0.543854 0.000000
0.870270 0.540680 0.000000
0.914825 0.537598 0.000000
0.958008 0.534729 0.000000
0.993774 0.532135 0.000000
1.000000 0.530029 0.000000
1.000000 0.528442 0.000000
1.000000 0.527588 0.000000
1.000000 0.527679 0.000000
1.000000 0.528870 0.000000
1.000000 0.531372 0.000000
0.000000 0.624695 0.000000
0.000000 0.624573 0.000000
0.000000 0.624512 0.000000
0.000000 0.624359 0.000000
0.000000 0.624146 0.000000
0.000000 0.623901 0.000000
0.000000 0.623535 0.000000
0.000000 0.623047 0.000000
0.000000 0.622467 0.000000
0.000000 0.621368 0.000000
0.068237 0.619934 0.000000
0.196198 0.618347 0.000000
0.280914 0.616730 0.000000
0.349457 0.615021 0.000000
0.410889 0.613220 0.000000
0.468292 0.611267 0.000000
0.522919 0.609222 0.000000
0.575745 0.607117 0.000000
0.627258 0.604828 0.000000
0.677551 0.602325 0.000000
0.726654 0.599640 0.000000
0.774689 0.596832 0.000000
0.821564 0.593994 0.000000
0.867310 0.591125 0.000000
0.911713 0.588409 0.000000
0.954681 0.585846 0.000000
0.990936 0.583588 0.000000
1.000000 0.581726 0.000000
1.000000 0.580383 0.000000
1.000000 0.579773 0.000000
1.000000 0.579987 0.000000
1.000000 0.581207 0.000000
1.000000 0.583618 0.000000
0.000000 0.672852 0.000000
0.000000 0.672760 0.000000
0.000000 0.672638 0.000000
0.000000 0.672455 0.000000
0.000000 0.672241 0.000000
0.000000 0.671936 0.000000
0.000000 0.671570 0.000000
0.000000 0.671082 0.000000
0.000000 0.670471 0.000000
0.000000 0.669464 0.000000
0.027771 0.668030 0.000000
0.153748 0.666443 0.000000
0.259369 0.664764 0.000000
0.334778 0.663025 0.000000
0.400055 0.661194 0.000000
0.459869 0.659241 0.000000
0.516205 0.657196 0.000000
0.570190 0.655090 0.000000
0.622437 0.652954 0.000000
0.673340 0.650635 0.000000
0.722870 0.648163 0.000000
0.771149 0.645569 0.000000
0.818146 0.642883 0.000000
0.863831 0.640289 0.000000
0.908081 0.637756 0.000000
0.950806 0.635406 0.000000
0.987671 0.633331 0.000000
1.000000 0.631653 0.000000
1.000000 0.630463 0.000000
1.000000 0.629974 0.000000
1.000000 0.630219 0.000000
1.000000 0.631378 0.000000
1.000000 0.633636 0.000000
0.000000 0.720154 0.000000
0.000000 0.720032 0.000000
0.000000 0.719910 0.000000
0.000000 0.719727 0.000000
0.000000 0.719482 0.000000
0.000000 0.719147 0.000000
0.000000 0.718750 0.000000
0.000000 0.718231 0.000000
0.000000 0.717621 0.000000
0.000000 0.716675 0.000000
0.005280 0.715210 0.000000
0.109253 0.713593 0.000000
0.234619 0.711884 0.000000
0.318878 0.710114 0.000000
0.388519 0.708221 0.000000
0.451080 0.706268 0.000000
0.509186 0.704193 0.000000
0.564331 0.702057 0.000000
0.617432 0.699890 0.000000
0.668793 0.697693 0.000000
0.718750 0.695374 0.000000
0.767242 0.692902 0.000000
0.814331 0.690399 0.000000
0.859955 0.687897 0.000000
0.904022 0.685516 0.000000
0.946503 0.683319 0.000000
0.984070 0.681335 0.000000
1.000000 0.679718 0.000000
1.000000 0.678619 0.000000
1.000000 0.678131 0.000000
1.000000 0.678345 0.000000
1.000000 0.679413 0.000000
1.000000 0.681488 0.000000
0.000000 0.766296 0.000000
0.000000 0.766205 0.000000
0.000000 0.766052 0.000000
0.000000 0.765839 0.000000
0.000000 0.765564 0.000000
0.000000 0.765228 0.000000
0.000000 0.764771 0.000000
0.000000 0.764252 0.000000
0.000000 0.763550 0.000000
0.000000 0.762634 0.000000
0.000000 0.761169 0.000000
0.070526 0.759521 0.000000
0.206512 0.757782 0.000000
0.302582 0.755920 0.000000
0.377014 0.754028 0.000000
0.442322 0.752014 0.000000
0.502319 0.749908 0.000000
0.558716 0.747711 0.000000
0.612488 0.745514 0.000000
0.664368 0.743256 0.000000
0.714539 0.740967 0.000000
0.763245 0.738647 0.000000
0.810364 0.736237 0.000000
0.855896 0.733826 0.000000
0.899811 0.731506 0.000000
0.941956 0.729340 0.000000
0.980072 0.727448 0.000000
0.999878 0.725861 0.000000
1.000000 0.724731 0.000000
1.000000 0.724213 0.000000
1.000000 0.724335 0.000000
1.000000 0.725250 0.000000
1.000000 0.727081 0.000000
0.000000 0.810974 0.000000
0.000000 0.810883 0.000000
0.000000 0.810699 0.000000
0.000000 0.810486 0.000000
0.000000 0.810211 0.000000
0.000000 0.809814 0.000000
0.000000 0.809326 0.000000
0.000000 0.808746 0.000000
0.000000 0.808014 0.000000
0.000000 0.807068 0.000000
0.000000 0.805603 0.000000
0.039642 0.803925 0.000000
0.172668 0.802094 0.000000
0.287048 0.800232 0.000000
0.366547 0.798218 0.000000
0.434509 0.796173 0.000000
0.496124 0.794006 0.000000
0.553680 0.791748 0.000000
0.608185 0.789490 0.000000
0.660431 0.787201 0.000000
0.710815 0.784821 0.000000
0.759491 0.782501 0.000000
0.806549 0.780182 0.000000
0.851929 0.777832 0.000000
0.895569 0.775513 0.000000
0.937378 0.773376 0.000000
0.975922 0.771454 0.000000
0.999420 0.769836 0.000000
1.000000 0.768677 0.000000
1.000000 0.768036 0.000000
1.000000 0.768036 0.000000
1.000000 0.768768 0.000000
1.000000 0.770264 0.000000
0.000000 0.853851 0.000000
0.000000 0.853699 0.000000
0.000000 0.853546 0.000000
0.000000 0.853302 0.000000
0.000000 0.852966 0.000000
0.000000 0.852570 0.000000
0.000000 0.852051 0.000000
0.000000 0.851410 0.000000
0.000000 0.850647 0.000000
0.000000 0.849640 0.000000
0.000000 0.848145 0.000000
0.023346 0.846375 0.000000
0.147247 0.844543 0.000000
0.274109 0.842590 0.000000
0.358307 0.840546 0.000000
0.428650 0.838379 0.000000
0.491577 0.836151 0.000000
0.549957 0.833862 0.000000
0.605011 0.831482 0.000000
0.657501 0.829102 0.000000
0.707886 0.826691 0.000000
0.756470 0.824249 0.000000
0.803284 0.821899 0.000000
0.848419 0.819580 0.000000
0.891693 0.817261 0.000000
0.933014 0.815094 0.000000
0.971893 0.813141 0.000000
0.998718 0.811432 0.000000
1.000000 0.810181 0.000000
1.000000 0.809387 0.000000
1.000000 0.809235 0.000000
1.000000 0.809753 0.000000
1.000000 0.810883 0.000000
0.000000 0.894531 0.000000
0.000000 0.894379 0.000000
0.000000 0.894196 0.000000
0.000000 0.893951 0.000000
0.000000 0.893585 0.000000
0.000000 0.893127 0.000000
0.000000 0.892578 0.000000
0.000000 0.891876 0.000000
0.000000 0.891052 0.000000
0.000000 0.889954 0.000000
0.000000 0.888397 0.000000
0.019409 0.886597 0.000000
0.138428 0.884674 0.000000
0.266235 0.882690 0.000000
0.353882 0.880554 0.000000
0.425690 0.878326 0.000000
0.489502 0.876007 0.000000
0.548309 0.873627 0.000000
0.603638 0.871155 0.000000
0.656158 0.868652 0.000000
0.706360 0.866150 0.000000
0.754669 0.863617 0.000000
0.801086 0.861145 0.000000
0.845703 0.858734 0.000000
0.888489 0.856415 0.000000
0.929230 0.854218 0.000000
0.967926 0.852142 0.000000
0.997894 0.850372 0.000000
1.000000 0.848938 0.000000
1.000000 0.847992 0.000000
1.000000 0.847626 0.000000
1.000000 0.847870 0.000000
1.000000 0.848633 0.000000
0.000000 0.932587 0.000000
0.000000 0.932434 0.000000
0.000000 0.932220 0.000000
0.000000 0.931946 0.000000
0.000000 0.931549 0.000000
0.000000 0.931061 0.000000
0.000000 0.930450 0.000000
0.000000 0.929718 0.000000
0.000000 0.928833 0.000000
0.000000 0.927582 0.000000
0.000000 0.925934 0.000000
0.021240 0.924072 0.000000
0.139679 0.922119 0.000000
0.266846 0.920044 0.000000
0.355164 0.917847 0.000000
0.427246 0.915497 0.000000
0.490997 0.913116 0.000000
0.549683 0.910645 0.000000
0.604767 0.908081 0.000000
0.656952 0.905457 0.000000
0.706787 0.902832 0.000000
0.754547 0.900177 0.000000
0.800415 0.897583 0.000000
0.844360 0.895081 0.000000
0.886414 0.892609 0.000000
0.926483 0.890289 0.000000
0.964325 0.888153 0.000000
0.995941 0.886230 0.000000
1.000000 0.884613 0.000000
1.000000 0.883484 0.000000
1.000000 0.882874 0.000000
1.000000 0.882782 0.000000
1.000000 0.883148 0.000000
0.000000 0.967682 0.000000
0.000000 0.967468 0.000000
0.000000 0.967255 0.000000
0.000000 0.966919 0.000000
0.000000 0.966492 0.000000
0.000000 0.965973 0.000000
0.000000 0.965332 0.000000
0.000000 0.964539 0.000000
0.000000 0.963531 0.000000
0.000000 0.962067 0.000000
0.000000 0.960358 0.000000
0.031921 0.958496 0.000000
0.153442 0.956451 0.000000
0.278107 0.954285 0.000000
0.363739 0.951996 0.000000
0.434387 0.949615 0.000000
0.497131 0.947113 0.000000
0.554932 0.944519 0.000000
0.609222 0.941833 0.000000
0.660736 0.939087 0.000000
0.709778 0.936310 0.000000
0.756744 0.933533 0.000000
0.801758 0.930786 0.000000
0.844849 0.928101 0.000000
0.885986 0.925507 0.000000
0.925079 0.923065 0.000000
0.962067 0.920746 0.000000
0.993164 0.918671 0.000000
1.000000 0.916901 0.000000
1.000000 0.915527 0.000000
1.000000 0.914642 0.000000
1.000000 0.914154 0.000000
1.000000 0.914093 0.000000
0.000000 0.994934 0.000000
0.000000 0.994720 0.000000
0.000000 0.994568 0.000000
0.000000 0.994293 0.000000
0.000000 0.993927 0.000000
0.000000 0.993500 0.000000
0.000000 0.992920 0.000000
0.000000 0.992249 0.000000
0.000000 0.991333 0.000000
0.000000 0.990082 0.000000
0.001129 0.988647 0.000000
0.063202 0.987122 0.000000
0.183441 0.985413 0.000000
0.301086 0.983582 0.000000
0.380615 0.981598 0.000000
0.448090 0.979553 0.000000
0.508759 0.977386 0.000000
0.564972 0.974792 0.000000
0.617859 0.971985 0.000000
0.668060 0.969116 0.000000
0.716003 0.966187 0.000000
0.761810 0.963287 0.000000
0.805725 0.960358 0.000000
0.847717 0.957489 0.000000
0.887695 0.954712 0.000000
