滤镜资源/Professional Luts Collection/Lutify.me Professional/Contemporary Color Films/Chrysocolla.cube
# Created by: Lutify.me
# Copyright: (c) Copyright Lutify.me 2015
# Website: https://lutify.me
#LUT size
LUT_3D_SIZE 9
#LUT data points
0.000000 0.000000 0.000000
0.060272 0.000000 0.000702
0.173096 0.000000 0.000000
0.333435 0.000000 0.000000
0.521606 0.000000 0.000000
0.712341 0.000000 0.000000
0.900757 0.000000 0.000000
1.000000 0.000000 0.000000
1.000000 0.000000 0.000000
0.000000 0.064728 0.000000
0.057404 0.062256 0.000000
0.180542 0.049072 0.000000
0.342072 0.001678 0.000000
0.528687 0.000000 0.000000
0.722076 0.000000 0.000000
0.907745 0.000000 0.000000
1.000000 0.000000 0.000000
1.000000 0.000000 0.000000
0.000000 0.199493 0.000000
0.001068 0.199860 0.000000
0.177948 0.196289 0.000000
0.353546 0.183441 0.000000
0.539337 0.149414 0.000000
0.730682 0.068268 0.000000
0.919067 0.000000 0.000000
1.000000 0.000000 0.000000
1.000000 0.000000 0.000000
0.000000 0.380859 0.000000
0.000000 0.380890 0.000000
0.094421 0.378845 0.000000
0.344543 0.372742 0.000000
0.542786 0.361298 0.000000
0.735504 0.342010 0.000000
0.921112 0.315948 0.000000
1.000000 0.290527 0.000000
1.000000 0.285797 0.000000
0.000000 0.576019 0.000000
0.000000 0.575562 0.000000
0.000000 0.573914 0.000000
0.299194 0.568146 0.000000
0.528931 0.560638 0.000000
0.729919 0.550049 0.000000
0.914825 0.537598 0.000000
1.000000 0.528442 0.000000
1.000000 0.531372 0.000000
0.000000 0.766296 0.000000
0.000000 0.765564 0.000000
0.000000 0.763550 0.000000
0.206512 0.757782 0.000000
0.502319 0.749908 0.000000
0.714539 0.740967 0.000000
0.899811 0.731506 0.000000
1.000000 0.724731 0.000000
1.000000 0.727081 0.000000
0.000000 0.932587 0.000000
0.000000 0.931549 0.000000
0.000000 0.928833 0.000000
0.139679 0.922119 0.000000
0.490997 0.913116 0.000000
0.706787 0.902832 0.000000
0.886414 0.892609 0.000000
1.000000 0.884613 0.000000
1.000000 0.883148 0.000000
0.000000 1.000000 0.000000
0.000000 1.000000 0.000000
0.000000 1.000000 0.000000
0.303589 1.000000 0.000000
0.550201 1.000000 0.000000
0.739319 1.000000 0.000000
0.898132 0.998871 0.000000
1.000000 0.990936 0.000000
1.000000 0.985687 0.000000
0.332214 1.000000 0.000000
0.372925 1.000000 0.000000
0.456848 1.000000 0.000000
0.568695 1.000000 0.000000
0.691467 1.000000 0.000000
0.811920 1.000000 0.000000
0.918060 1.000000 0.000000
0.998566 1.000000 0.000000
1.000000 1.000000 0.000000
0.000000 0.000000 0.060547
0.055756 0.000000 0.058990
0.174133 0.000000 0.053131
0.336212 0.000000 0.040131
0.524811 0.000000 0.017273
0.721558 0.000000 0.000031
0.915527 0.000000 0.000000
1.000000 0.000000 0.000000
1.000000 0.000000 0.000000
0.000000 0.058838 0.057983
0.056213 0.057312 0.055206
0.183075 0.042572 0.048065
0.345245 0.000244 0.032104
0.531281 0.000000 0.006592
0.725616 0.000000 0.000000
0.917450 0.000000 0.000000
1.000000 0.000000 0.000000
1.000000 0.000000 0.000000
0.000000 0.195648 0.024078
0.001617 0.196167 0.018341
0.182953 0.192841 0.007996
0.357056 0.179535 0.001160
0.541840 0.144470 0.000000
0.732574 0.060242 0.000000
0.920258 0.000000 0.000000
1.000000 0.000000 0.000000
1.000000 0.000000 0.000000
0.000000 0.378235 0.000000
0.000000 0.378174 0.000000
0.108215 0.376007 0.000000
0.348907 0.370026 0.000000
0.545502 0.358429 0.000000
0.737274 0.339020 0.000000
0.921997 0.312775 0.000000
1.000000 0.287231 0.000000
1.000000 0.282654 0.000000
0.000000 0.573517 0.000000
0.000000 0.573029 0.000000
0.000000 0.571350 0.000000
0.304626 0.565674 0.000000
0.531647 0.558167 0.000000
0.731415 0.547638 0.000000
0.915436 0.535278 0.000000
1.000000 0.526245 0.000000
1.000000 0.529449 0.000000
0.000000 0.763977 0.000000
0.000000 0.763214 0.000000
0.000000 0.761230 0.000000
0.214905 0.755463 0.000000
0.504761 0.747681 0.000000
0.715698 0.738831 0.000000
0.900055 0.729462 0.000000
1.000000 0.722809 0.000000
1.000000 0.725311 0.000000
0.000000 0.930359 0.000000
0.000000 0.929352 0.000000
0.000000 0.926636 0.000000
0.145996 0.919952 0.000000
0.492859 0.911011 0.000000
0.707397 0.900818 0.000000
0.886139 0.890717 0.000000
1.000000 0.882843 0.000000
1.000000 0.881470 0.000000
0.000000 1.000000 0.000000
0.000000 1.000000 0.000000
0.000000 1.000000 0.000000
0.306366 1.000000 0.000000
0.550873 1.000000 0.000000
0.739136 1.000000 0.000000
0.897247 0.998169 0.000000
1.000000 0.989441 0.000000
1.000000 0.984283 0.000000
0.332489 1.000000 0.000000
0.373260 1.000000 0.000000
0.457062 1.000000 0.000000
0.568726 1.000000 0.000000
0.691223 1.000000 0.000000
0.811462 1.000000 0.000000
0.917267 1.000000 0.000000
0.997528 1.000000 0.000000
1.000000 1.000000 0.000000
0.000000 0.000000 0.187500
0.014313 0.000000 0.186462
0.167786 0.000000 0.185974
0.337250 0.000000 0.179962
0.526672 0.000000 0.169586
0.722687 0.000000 0.154205
0.915497 0.000000 0.132080
1.000000 0.000000 0.098938
1.000000 0.000000 0.058105
0.000000 0.051178 0.188721
0.022522 0.049500 0.186890
0.178528 0.028595 0.185852
0.346649 0.000000 0.179382
0.533173 0.000000 0.167908
0.726685 0.000000 0.150909
0.917358 0.000000 0.126495
1.000000 0.000000 0.088989
1.000000 0.000000 0.046082
0.000000 0.186584 0.186676
0.000549 0.186676 0.184906
0.182465 0.184174 0.179993
0.359131 0.170319 0.170868
0.544006 0.132172 0.156464
0.733917 0.040527 0.135406
0.920441 0.000000 0.104187
1.000000 0.000000 0.058228
1.000000 0.000000 0.009552
0.000000 0.368469 0.157806
0.000000 0.368439 0.154938
0.115082 0.369629 0.144043
0.353485 0.362976 0.132111
0.547821 0.351105 0.112457
0.737701 0.331879 0.079041
0.920898 0.305664 0.034058
1.000000 0.280243 0.002228
1.000000 0.276794 0.000000
0.000000 0.565338 0.056458
0.000000 0.564880 0.050842
0.000000 0.564636 0.033081
0.310852 0.560120 0.018585
0.535065 0.552216 0.006409
0.732697 0.541595 0.000244
0.914703 0.529572 0.000000
1.000000 0.521027 0.000000
1.000000 0.524872 0.000000
0.000000 0.757385 0.000000
0.000000 0.756653 0.000000
0.000000 0.754730 0.000000
0.224884 0.750366 0.000000
0.507965 0.742493 0.000000
0.716766 0.733643 0.000000
0.899261 0.724396 0.000000
1.000000 0.718109 0.000000
1.000000 0.721069 0.000000
0.000000 0.924652 0.000000
0.000000 0.923584 0.000000
0.000000 0.921082 0.000000
0.153412 0.915039 0.000000
0.495117 0.906189 0.000000
0.707520 0.896057 0.000000
0.884491 0.886108 0.000000
1.000000 0.878510 0.000000
1.000000 0.877472 0.000000
0.000000 1.000000 0.000000
0.000000 1.000000 0.000000
0.000000 1.000000 0.000000
0.308868 1.000000 0.000000
0.550903 1.000000 0.000000
0.737671 0.999725 0.000000
0.894257 0.994476 0.000000
1.000000 0.985809 0.000031
1.000000 0.980682 0.000000
0.331543 1.000000 0.060364
0.372437 1.000000 0.061279
0.456116 1.000000 0.064056
0.567780 1.000000 0.069122
0.690063 1.000000 0.078827
0.809753 1.000000 0.097260
0.914764 1.000000 0.128052
0.994720 1.000000 0.178802
1.000000 1.000000 0.230469
0.000000 0.000000 0.359253
0.000000 0.000000 0.358307
0.124756 0.000000 0.358185
0.327179 0.000000 0.356628
0.522125 0.000000 0.350311
0.719086 0.000000 0.341370
0.911102 0.000000 0.329803
1.000000 0.000000 0.316467
1.000000 0.000000 0.302887
0.000000 0.037079 0.360229
0.000000 0.031433 0.359375
0.143463 0.006531 0.358368
0.337708 0.000000 0.356689
0.528992 0.000000 0.350037
0.723236 0.000000 0.340546
0.913055 0.000000 0.328430
1.000000 0.000000 0.314514
1.000000 0.000000 0.300446
0.000000 0.176849 0.362946
0.000000 0.176422 0.361816
0.158569 0.174652 0.356018
0.350952 0.156799 0.354279
0.539978 0.111115 0.346863
0.730743 0.017426 0.336060
0.916321 0.000000 0.322815
1.000000 0.000000 0.307861
1.000000 0.000000 0.292511
0.000000 0.357086 0.355713
0.000000 0.356964 0.354279
0.099213 0.355713 0.350647
0.348206 0.351257 0.344269
0.544647 0.339905 0.334900
0.734924 0.320465 0.322693
0.917114 0.293640 0.307983
1.000000 0.268219 0.291504
1.000000 0.267303 0.274536
0.000000 0.551880 0.332092
0.000000 0.551514 0.330444
0.000000 0.550903 0.325897
0.306976 0.550995 0.314636
0.534241 0.542450 0.305298
0.730164 0.531891 0.293213
0.909882 0.520691 0.278198
1.000000 0.513214 0.260620
1.000000 0.518524 0.241394
0.000000 0.743713 0.289154
0.000000 0.743042 0.287323
0.000000 0.741394 0.282501
0.222900 0.742279 0.266479
0.507294 0.734497 0.256378
0.714966 0.725189 0.243225
0.894897 0.716156 0.226379
1.000000 0.710602 0.208160
1.000000 0.714539 0.186462
0.000000 0.911499 0.232727
0.000000 0.910522 0.230682
0.000000 0.908447 0.224518
0.150360 0.907745 0.203613
0.493011 0.899200 0.193024
0.704620 0.888580 0.180939
0.879425 0.878632 0.160370
1.000000 0.871460 0.138641
1.000000 0.870972 0.128601
0.000000 1.000000 0.201477
0.000000 1.000000 0.197845
0.000000 1.000000 0.179718
0.303619 1.000000 0.168884
0.546753 1.000000 0.162415
0.732758 0.998199 0.156342
0.887268 0.988342 0.148834
0.999359 0.979462 0.144135
1.000000 0.974426 0.144592
0.325226 1.000000 0.342743
0.366760 1.000000 0.342896
0.451630 1.000000 0.343384
0.563812 1.000000 0.344635
0.686127 1.000000 0.347595
0.805328 1.000000 0.353699
0.909180 1.000000 0.365143
0.988953 1.000000 0.383789
1.000000 1.000000 0.409912
0.000000 0.000000 0.546265
0.000000 0.000000 0.545410
0.004395 0.000000 0.543854
0.298492 0.000000 0.544769
0.510254 0.000000 0.541321
0.710449 0.000000 0.534393
0.902161 0.000000 0.526031
1.000000 0.000000 0.516602
1.000000 0.000000 0.507507
0.000000 0.010834 0.546478
0.000000 0.003510 0.545624
0.023987 0.000000 0.543976
0.311432 0.000000 0.544769
0.517700 0.000000 0.540894
0.714813 0.000000 0.533783
0.904144 0.000000 0.525146
1.000000 0.000000 0.515472
1.000000 0.000000 0.506226
0.000000 0.165070 0.548553
0.000000 0.163635 0.547638
0.064758 0.159882 0.542816
0.329468 0.138733 0.541595
0.528870 0.076996 0.538574
0.721893 0.003693 0.531250
0.907166 0.000000 0.522095
1.000000 0.000000 0.512024
1.000000 0.000000 0.502411
0.000000 0.345978 0.547150
0.000000 0.345642 0.546051
0.019135 0.344208 0.542236
0.333527 0.341644 0.534332
0.533783 0.328278 0.532043
0.726227 0.306946 0.524506
0.908295 0.278564 0.514587
1.000000 0.252655 0.503815
1.000000 0.255188 0.493744
0.000000 0.539917 0.535278
0.000000 0.539490 0.534149
0.000000 0.538208 0.531311
0.298767 0.535187 0.526550
0.525421 0.529572 0.519562
0.721710 0.520325 0.510742
0.900543 0.509949 0.500549
1.000000 0.503632 0.489960
1.000000 0.510925 0.480286
0.000000 0.729858 0.514954
0.000000 0.729279 0.513855
0.000000 0.727661 0.511078
0.221039 0.726562 0.505188
0.498108 0.723785 0.494965
0.707794 0.714172 0.487396
0.885223 0.705658 0.479095
1.000000 0.701477 0.470520
1.000000 0.706696 0.462189
0.000000 0.897003 0.492310
0.000000 0.896088 0.491302
0.000000 0.894012 0.488586
0.149139 0.893463 0.480591
0.483429 0.889191 0.470703
0.696289 0.878754 0.464905
0.869080 0.868896 0.458557
0.999084 0.862396 0.452759
1.000000 0.862762 0.448120
0.000000 1.000000 0.483398
0.000000 1.000000 0.482056
0.000000 1.000000 0.476990
0.294922 0.999878 0.469910
0.536224 0.998962 0.463989
0.722351 0.990967 0.461212
0.874725 0.979614 0.459167
0.991150 0.970825 0.457001
1.000000 0.966278 0.456818
0.308594 1.000000 0.532867
0.352295 1.000000 0.532806
0.440033 1.000000 0.532776
0.554413 1.000000 0.532928
0.677612 1.000000 0.533936
0.796661 1.000000 0.536865
0.899261 1.000000 0.543457
0.978424 1.000000 0.555542
1.000000 1.000000 0.573944
0.000000 0.000000 0.730927
0.000000 0.000000 0.730103
0.000000 0.000000 0.728058
0.249969 0.000000 0.728882
0.491302 0.000000 0.727753
0.699005 0.000000 0.722534
0.890594 0.000000 0.715088
1.000000 0.000000 0.707153
1.000000 0.000000 0.699402
0.000000 0.000000 0.730438
0.000000 0.000000 0.729584
0.000000 0.000000 0.727570
0.267456 0.000000 0.728546
0.499573 0.000000 0.727051
0.703644 0.000000 0.721619
0.892639 0.000000 0.714081
1.000000 0.000000 0.706085
1.000000 0.000000 0.698273
0.000000 0.148438 0.731110
0.000000 0.145630 0.730255
0.000000 0.137299 0.727081
0.294128 0.110931 0.724335
0.512512 0.035065 0.723816
0.710815 0.000000 0.718750
0.895386 0.000000 0.711182
1.000000 0.000000 0.703094
1.000000 0.000000 0.695282
0.000000 0.334656 0.730225
0.000000 0.333954 0.729340
0.000000 0.332153 0.726044
0.305908 0.330170 0.717682
0.520172 0.316101 0.716461
0.714630 0.292419 0.712555
0.895050 0.264038 0.705261
1.000000 0.238831 0.697113
1.000000 0.247894 0.689209
0.000000 0.528381 0.722992
0.000000 0.527893 0.722046
0.000000 0.526459 0.719574
0.277069 0.523743 0.713409
0.516479 0.520538 0.704987
0.709473 0.510284 0.702301
0.887054 0.499634 0.695190
1.000000 0.494110 0.686920
1.000000 0.503815 0.679352
0.000000 0.717926 0.707642
0.000000 0.717316 0.706787
0.000000 0.715698 0.704529
0.206726 0.712555 0.700714
0.492920 0.707703 0.695374
0.696106 0.701569 0.688507
0.870697 0.694855 0.681091
0.999786 0.692352 0.673584
1.000000 0.699341 0.667175
0.000000 0.883545 0.690918
0.000000 0.882660 0.690125
0.000000 0.880524 0.688171
0.153076 0.877533 0.684631
0.477783 0.873199 0.679047
0.682831 0.867554 0.670624
0.854248 0.857880 0.665375
0.986603 0.852478 0.660767
1.000000 0.854004 0.656982
0.000000 0.998474 0.682739
0.000000 0.998169 0.682007
0.001587 0.996918 0.679932
0.298279 0.993774 0.676331
0.526367 0.989075 0.670685
0.707184 0.980957 0.664673
0.857452 0.969299 0.662170
0.971161 0.961121 0.660126
1.000000 0.957245 0.659180
0.279724 1.000000 0.699707
0.327606 1.000000 0.699524
0.420776 1.000000 0.699036
0.538940 1.000000 0.698334
0.664093 1.000000 0.697906
0.783386 1.000000 0.698608
0.885040 1.000000 0.702087
0.963501 1.000000 0.710114
1.000000 1.000000 0.723938
0.000000 0.000000 0.895599
0.000000 0.000000 0.894775
0.000000 0.000000 0.892761
0.200043 0.000000 0.893036
0.478210 0.000000 0.892578
0.691315 0.000000 0.888947
0.882233 0.000000 0.882080
1.000000 0.000000 0.874268
1.000000 0.000000 0.866638
0.000000 0.000000 0.894470
0.000000 0.000000 0.893646
0.000000 0.000000 0.891724
0.225006 0.000000 0.892181
0.487122 0.000000 0.891449
0.696045 0.000000 0.887665
0.884216 0.000000 0.880737
1.000000 0.000000 0.872925
1.000000 0.000000 0.865295
0.000000 0.123749 0.893555
0.000000 0.118805 0.892731
0.000000 0.104126 0.890350
0.263184 0.066620 0.887115
0.502167 0.004425 0.886932
0.703674 0.000000 0.883789
0.886810 0.000000 0.877014
1.000000 0.000000 0.869324
1.000000 0.000000 0.861786
0.000000 0.323059 0.891418
0.000000 0.321991 0.890594
0.000000 0.319580 0.887543
0.285156 0.317322 0.879303
0.513428 0.302429 0.877838
0.708160 0.276093 0.875977
0.885712 0.247040 0.869965
1.000000 0.226410 0.862640
1.000000 0.244537 0.855347
0.000000 0.517761 0.884338
0.000000 0.517181 0.883484
0.000000 0.515656 0.880951
0.267609 0.514221 0.873199
0.513336 0.511597 0.865387
0.703918 0.501648 0.863739
0.876251 0.491486 0.859039
1.000000 0.488129 0.852295
1.000000 0.501251 0.845581
0.000000 0.707092 0.870239
0.000000 0.706451 0.869385
0.000000 0.704773 0.867279
0.204132 0.701660 0.862854
0.494415 0.697357 0.856445
0.693085 0.693878 0.848083
0.858185 0.687286 0.845184
0.994293 0.685547 0.839233
1.000000 0.694214 0.833374
0.000000 0.872192 0.852234
0.000000 0.871307 0.851501
0.000000 0.869141 0.849701
0.171692 0.865295 0.846680
0.484070 0.859772 0.842468
0.680511 0.853149 0.837372
0.840637 0.847168 0.831543
0.966156 0.843903 0.826477
1.000000 0.846863 0.822205
0.000000 0.988434 0.839874
0.000000 0.987518 0.839325
0.012329 0.985168 0.837952
0.320740 0.980713 0.835602
0.533081 0.974213 0.832275
0.700653 0.966827 0.827820
0.840668 0.959381 0.822235
0.949554 0.951904 0.819672
1.000000 0.948761 0.817841
0.251617 1.000000 0.838989
0.303894 1.000000 0.838623
0.401978 1.000000 0.837738
0.523224 1.000000 0.836243
0.649567 1.000000 0.834473
0.768616 1.000000 0.833069
0.869568 1.000000 0.833496
0.948273 1.000000 0.837799
1.000000 1.000000 0.848022
0.000000 0.000000 1.000000
0.000000 0.000000 1.000000
0.000000 0.000000 1.000000
0.233765 0.000000 1.000000
0.497589 0.000000 1.000000
0.704010 0.000000 0.999878
0.887939 0.000000 0.999207
1.000000 0.000000 0.995789
1.000000 0.000000 0.988434
0.000000 0.000000 1.000000
0.000000 0.000000 1.000000
0.000000 0.000000 1.000000
0.256439 0.000000 1.000000
0.506317 0.000000 1.000000
0.708527 0.000000 0.999695
0.889801 0.000000 0.998993
1.000000 0.000000 0.994232
1.000000 0.000000 0.986908
0.000000 0.084930 1.000000
0.000000 0.077637 1.000000
0.000000 0.062592 0.999664
0.293640 0.015106 0.999481
0.521698 0.000000 0.999451
0.716125 0.000000 0.999146
0.892090 0.000000 0.997131
1.000000 0.000000 0.990173
1.000000 0.000000 0.982910
0.000000 0.311707 0.999695
0.000000 0.310333 0.999603
0.001038 0.309113 0.999115
0.320801 0.304199 0.996460
0.534790 0.287567 0.995300
0.720978 0.260559 0.993622
0.890472 0.229828 0.989349
1.000000 0.216095 0.982697
1.000000 0.245483 0.975189
0.000000 0.509155 0.998230
0.000000 0.508453 0.997833
0.000000 0.507812 0.994324
0.318542 0.506958 0.987732
0.537537 0.503723 0.982056
0.717743 0.494324 0.980225
0.880341 0.484406 0.976776
0.999878 0.484650 0.970062
1.000000 0.501831 0.963074
0.000000 0.698212 0.985077
0.000000 0.697571 0.984375
0.000000 0.696045 0.981537
0.285278 0.693512 0.976257
0.525360 0.690552 0.968872
0.707733 0.688019 0.961395
0.861206 0.682404 0.959198
0.986816 0.682739 0.954041
1.000000 0.693665 0.948242
0.000000 0.862885 0.964508
0.000000 0.862030 0.963806
0.000000 0.859863 0.961884
0.274170 0.856110 0.958618
0.515503 0.850922 0.954010
0.696289 0.845215 0.947968
0.843323 0.841827 0.940826
0.955048 0.839691 0.938141
1.000000 0.843414 0.933899
0.000000 0.978973 0.946381
0.000000 0.977844 0.945862
0.102600 0.975067 0.944427
0.380676 0.970337 0.942108
0.562164 0.963776 0.938904
0.714630 0.956146 0.935150
0.840271 0.949188 0.931305
0.937531 0.944855 0.927460
1.000000 0.942871 0.924591
0.301300 1.000000 0.936676
0.344147 1.000000 0.936249
0.429291 1.000000 0.935181
0.538940 1.000000 0.933441
0.654999 1.000000 0.931091
0.763947 1.000000 0.928284
0.859375 1.000000 0.925751
0.939087 1.000000 0.926331
0.999725 1.000000 0.933624
0.000000 0.000000 1.000000
0.000000 0.000000 1.000000
0.158783 0.000000 1.000000
0.391846 0.000000 1.000000
0.576447 0.000000 1.000000
0.749176 0.000000 1.000000
0.910217 0.000000 1.000000
1.000000 0.000000 1.000000
1.000000 0.000000 1.000000
0.000000 0.000000 1.000000
0.000000 0.000000 1.000000
0.186646 0.000000 1.000000
0.402008 0.000000 1.000000
0.582245 0.000000 1.000000
0.752533 0.000000 1.000000
0.911713 0.000000 1.000000
1.000000 0.000000 1.000000
1.000000 0.000000 1.000000
0.000000 0.088867 1.000000
0.000000 0.082794 1.000000
0.226196 0.064117 1.000000
0.419250 0.019806 1.000000
0.592407 0.000000 1.000000
0.758240 0.000000 1.000000
0.913696 0.000000 1.000000
1.000000 0.000000 1.000000
1.000000 0.000000 1.000000
0.000000 0.320068 1.000000
0.001495 0.318542 1.000000
0.252319 0.314301 1.000000
0.432648 0.306000 1.000000
0.600372 0.291779 1.000000
0.761536 0.270966 1.000000
0.912323 0.245087 1.000000
1.000000 0.224457 1.000000
1.000000 0.252960 1.000000
0.000000 0.512573 1.000000
0.000000 0.511902 1.000000
0.250916 0.509949 1.000000
0.432556 0.506165 1.000000
0.598785 0.500061 1.000000
0.756744 0.491394 1.000000
0.902557 0.482178 1.000000
1.000000 0.483917 1.000000
1.000000 0.505066 1.000000
0.000000 0.694824 1.000000
0.000000 0.694275 1.000000
0.221954 0.692749 1.000000
0.417572 0.689911 1.000000
0.588257 0.686432 1.000000
0.744507 0.683868 1.000000
0.881348 0.679657 1.000000
0.991730 0.681824 1.000000
1.000000 0.695068 1.000000
0.000000 0.854218 1.000000
0.000000 0.853607 1.000000
0.209686 0.851959 1.000000
0.407990 0.848907 1.000000
0.578949 0.844513 1.000000
0.732910 0.840546 1.000000
0.859955 0.838745 1.000000
0.957397 0.837952 1.000000
1.000000 0.842896 1.000000
0.062286 0.969116 1.000000
0.178406 0.968353 1.000000
0.317230 0.966370 1.000000
0.467621 0.962036 1.000000
0.611969 0.956024 1.000000
0.742767 0.949341 1.000000
0.852509 0.943787 0.998932
0.938446 0.941376 0.994659
1.000000 0.940002 0.993073
0.409241 1.000000 1.000000
0.438171 1.000000 1.000000
0.501343 1.000000 1.000000
0.589386 1.000000 0.998901
0.687256 1.000000 0.996704
0.781281 1.000000 0.994293
0.864014 1.000000 0.991821
0.934814 1.000000 0.989502
0.999634 1.000000 0.994354
