滤镜资源/Professional Luts Collection/Lutify.me Professional/Contemporary Color Films/Chrysoprase.cube
# Created by: Lutify.me
# Copyright: (c) Copyright Lutify.me 2015
# Website: https://lutify.me
#LUT size
LUT_3D_SIZE 5
#LUT data points
0.000000 0.000000 0.000000
0.175018 0.000000 0.000000
0.504425 0.000000 0.000000
0.870361 0.000000 0.000000
1.000000 0.000000 0.000000
0.000000 0.202179 0.000000
0.185547 0.199249 0.000000
0.523224 0.170502 0.000000
0.877380 0.058289 0.000000
1.000000 0.006561 0.000000
0.000000 0.561066 0.000000
0.001953 0.559479 0.000000
0.525818 0.547729 0.000000
0.882996 0.534302 0.000000
1.000000 0.537994 0.000000
0.000000 0.901672 0.000000
0.000000 0.898682 0.000000
0.513489 0.882599 0.000000
0.869324 0.866699 0.000000
1.000000 0.862152 0.000000
0.325897 1.000000 0.000000
0.450928 1.000000 0.000000
0.685211 1.000000 0.000000
0.912323 1.000000 0.000000
1.000000 1.000000 0.000000
0.000000 0.000000 0.187927
0.174744 0.000000 0.189575
0.510468 0.000000 0.184387
0.873108 0.000000 0.167938
1.000000 0.000000 0.136871
0.000000 0.192505 0.193695
0.191193 0.192108 0.190063
0.528320 0.162994 0.178833
0.879852 0.044067 0.155151
1.000000 0.003662 0.113464
0.000000 0.552307 0.116882
0.006439 0.553375 0.100159
0.531769 0.542755 0.082764
0.883301 0.529907 0.041016
1.000000 0.535217 0.003174
0.000000 0.895447 0.000000
0.000000 0.893280 0.000000
0.516632 0.878632 0.000000
0.868195 0.862854 0.000000
1.000000 0.858978 0.000000
0.322876 1.000000 0.074646
0.448639 1.000000 0.076660
0.683044 1.000000 0.089691
0.908783 1.000000 0.138580
1.000000 1.000000 0.236237
0.000000 0.000000 0.526154
0.070740 0.000000 0.526489
0.505737 0.000000 0.529663
0.867462 0.000000 0.525848
1.000000 0.000000 0.519592
0.000000 0.184570 0.533691
0.131744 0.183960 0.529419
0.522583 0.146149 0.530823
0.873383 0.020081 0.525482
1.000000 0.003723 0.517853
0.000000 0.534515 0.533478
0.004608 0.533997 0.531342
0.527802 0.529663 0.525085
0.873230 0.520966 0.516327
1.000000 0.531494 0.507385
0.000000 0.872925 0.510773
0.000000 0.871429 0.508270
0.506409 0.870178 0.494568
0.857117 0.852692 0.493866
1.000000 0.850708 0.491852
0.291382 1.000000 0.533203
0.427429 1.000000 0.532837
0.668243 1.000000 0.533234
0.892792 1.000000 0.541809
1.000000 1.000000 0.572235
0.000000 0.000000 0.855530
0.000000 0.000000 0.854889
0.496857 0.000000 0.858856
0.860260 0.000000 0.856750
1.000000 0.000000 0.851105
0.000000 0.170410 0.858276
0.009552 0.163483 0.856232
0.515625 0.111206 0.856903
0.864655 0.007263 0.854858
1.000000 0.012054 0.848938
0.000000 0.523804 0.861145
0.000000 0.523224 0.858765
0.529419 0.524658 0.846710
0.858978 0.516602 0.846344
1.000000 0.533630 0.840790
0.000000 0.856537 0.844208
0.000000 0.854462 0.842804
0.517242 0.848114 0.838776
0.837006 0.839996 0.832855
1.000000 0.843384 0.828705
0.313080 1.000000 0.840302
0.431885 1.000000 0.839386
0.650848 1.000000 0.836212
0.861206 1.000000 0.830688
1.000000 1.000000 0.843964
0.000000 0.000000 1.000000
0.222534 0.000000 1.000000
0.580597 0.000000 1.000000
0.896973 0.000000 1.000000
1.000000 0.000000 1.000000
0.000000 0.141998 1.000000
0.273346 0.130127 1.000000
0.595825 0.057800 1.000000
0.899139 0.000000 1.000000
1.000000 0.037933 1.000000
0.000000 0.519165 1.000000
0.300079 0.520935 1.000000
0.609314 0.520966 1.000000
0.888214 0.515808 1.000000
1.000000 0.543732 1.000000
0.000000 0.846130 1.000000
0.291199 0.844208 1.000000
0.603149 0.839325 1.000000
0.858124 0.838013 1.000000
1.000000 0.844696 1.000000
0.458740 1.000000 1.000000
0.535095 1.000000 1.000000
0.699524 1.000000 0.999573
0.865417 1.000000 0.996704
0.999756 1.000000 0.997101
