滤镜资源/Professional Luts Collection/Lutify.me Professional/Contemporary Color Films/Chrysocolla.cube
# Created by: Lutify.me
# Copyright: (c) Copyright Lutify.me 2015
# Website: https://lutify.me
#LUT size
LUT_3D_SIZE 5
#LUT data points
0.000000 0.000000 0.000000
0.173096 0.000000 0.000000
0.521606 0.000000 0.000000
0.900757 0.000000 0.000000
1.000000 0.000000 0.000000
0.000000 0.199493 0.000000
0.177948 0.196289 0.000000
0.539337 0.149414 0.000000
0.919067 0.000000 0.000000
1.000000 0.000000 0.000000
0.000000 0.576019 0.000000
0.000000 0.573914 0.000000
0.528931 0.560638 0.000000
0.914825 0.537598 0.000000
1.000000 0.531372 0.000000
0.000000 0.932587 0.000000
0.000000 0.928833 0.000000
0.490997 0.913116 0.000000
0.886414 0.892609 0.000000
1.000000 0.883148 0.000000
0.332214 1.000000 0.000000
0.456848 1.000000 0.000000
0.691467 1.000000 0.000000
0.918060 1.000000 0.000000
1.000000 1.000000 0.000000
0.000000 0.000000 0.187500
0.167786 0.000000 0.185974
0.526672 0.000000 0.169586
0.915497 0.000000 0.132080
1.000000 0.000000 0.058105
0.000000 0.186584 0.186676
0.182465 0.184174 0.179993
0.544006 0.132172 0.156464
0.920441 0.000000 0.104187
1.000000 0.000000 0.009552
0.000000 0.565338 0.056458
0.000000 0.564636 0.033081
0.535065 0.552216 0.006409
0.914703 0.529572 0.000000
1.000000 0.524872 0.000000
0.000000 0.924652 0.000000
0.000000 0.921082 0.000000
0.495117 0.906189 0.000000
0.884491 0.886108 0.000000
1.000000 0.877472 0.000000
0.331543 1.000000 0.060364
0.456116 1.000000 0.064056
0.690063 1.000000 0.078827
0.914764 1.000000 0.128052
1.000000 1.000000 0.230469
0.000000 0.000000 0.546265
0.004395 0.000000 0.543854
0.510254 0.000000 0.541321
0.902161 0.000000 0.526031
1.000000 0.000000 0.507507
0.000000 0.165070 0.548553
0.064758 0.159882 0.542816
0.528870 0.076996 0.538574
0.907166 0.000000 0.522095
1.000000 0.000000 0.502411
0.000000 0.539917 0.535278
0.000000 0.538208 0.531311
0.525421 0.529572 0.519562
0.900543 0.509949 0.500549
1.000000 0.510925 0.480286
0.000000 0.897003 0.492310
0.000000 0.894012 0.488586
0.483429 0.889191 0.470703
0.869080 0.868896 0.458557
1.000000 0.862762 0.448120
0.308594 1.000000 0.532867
0.440033 1.000000 0.532776
0.677612 1.000000 0.533936
0.899261 1.000000 0.543457
1.000000 1.000000 0.573944
0.000000 0.000000 0.895599
0.000000 0.000000 0.892761
0.478210 0.000000 0.892578
0.882233 0.000000 0.882080
1.000000 0.000000 0.866638
0.000000 0.123749 0.893555
0.000000 0.104126 0.890350
0.502167 0.004425 0.886932
0.886810 0.000000 0.877014
1.000000 0.000000 0.861786
0.000000 0.517761 0.884338
0.000000 0.515656 0.880951
0.513336 0.511597 0.865387
0.876251 0.491486 0.859039
1.000000 0.501251 0.845581
0.000000 0.872192 0.852234
0.000000 0.869141 0.849701
0.484070 0.859772 0.842468
0.840637 0.847168 0.831543
1.000000 0.846863 0.822205
0.251617 1.000000 0.838989
0.401978 1.000000 0.837738
0.649567 1.000000 0.834473
0.869568 1.000000 0.833496
1.000000 1.000000 0.848022
0.000000 0.000000 1.000000
0.158783 0.000000 1.000000
0.576447 0.000000 1.000000
0.910217 0.000000 1.000000
1.000000 0.000000 1.000000
0.000000 0.088867 1.000000
0.226196 0.064117 1.000000
0.592407 0.000000 1.000000
0.913696 0.000000 1.000000
1.000000 0.000000 1.000000
0.000000 0.512573 1.000000
0.250916 0.509949 1.000000
0.598785 0.500061 1.000000
0.902557 0.482178 1.000000
1.000000 0.505066 1.000000
0.000000 0.854218 1.000000
0.209686 0.851959 1.000000
0.578949 0.844513 1.000000
0.859955 0.838745 1.000000
1.000000 0.842896 1.000000
0.409241 1.000000 1.000000
0.501343 1.000000 1.000000
0.687256 1.000000 0.996704
0.864014 1.000000 0.991821
0.999634 1.000000 0.994354
