滤镜资源/Professional Luts Collection/Lutify.me Professional/Contemporary Color Films/Chrysotile.cube
# Created by: Lutify.me
# Copyright: (c) Copyright Lutify.me 2015
# Website: https://lutify.me
#LUT size
LUT_3D_SIZE 33
#LUT data points
0.000000 0.000000 0.000000
0.011322 0.000000 0.001099
0.024994 0.000000 0.000061
0.045624 0.000000 0.000000
0.068451 0.000000 0.000000
0.093628 0.000000 0.000000
0.120972 0.000000 0.000000
0.150726 0.000000 0.000000
0.183685 0.000000 0.000000
0.219330 0.000000 0.000000
0.257538 0.000000 0.000000
0.297729 0.000000 0.000000
0.339508 0.000000 0.000000
0.382355 0.000000 0.000000
0.425842 0.000000 0.000000
0.469543 0.000000 0.000000
0.513092 0.000000 0.000000
0.556335 0.000000 0.000000
0.599274 0.000000 0.000000
0.641876 0.000000 0.000000
0.684021 0.000000 0.000000
0.725677 0.000000 0.000000
0.766785 0.000000 0.000000
0.807251 0.000000 0.000000
0.846954 0.000000 0.000000
0.885834 0.000000 0.000000
0.923798 0.000000 0.000000
0.960724 0.000000 0.000000
0.993011 0.000000 0.000000
1.000000 0.000000 0.000000
1.000000 0.000000 0.000000
1.000000 0.000000 0.000000
1.000000 0.000000 0.000000
0.000000 0.012115 0.000000
0.011322 0.011688 0.000000
0.025330 0.011322 0.000031
0.045715 0.010895 0.000000
0.069153 0.010132 0.000000
0.094696 0.008636 0.000000
0.122040 0.006378 0.000000
0.152130 0.002716 0.000000
0.185242 0.000427 0.000000
0.221100 0.000000 0.000000
0.259338 0.000000 0.000000
0.299561 0.000000 0.000000
0.341217 0.000000 0.000000
0.383911 0.000000 0.000000
0.427307 0.000000 0.000000
0.470856 0.000000 0.000000
0.514160 0.000000 0.000000
0.557251 0.000000 0.000000
0.600098 0.000000 0.000000
0.642609 0.000000 0.000000
0.684662 0.000000 0.000000
0.726227 0.000000 0.000000
0.767181 0.000000 0.000000
0.807587 0.000000 0.000000
0.847260 0.000000 0.000000
0.886017 0.000000 0.000000
0.923889 0.000000 0.000000
0.960785 0.000000 0.000000
0.993011 0.000000 0.000000
1.000000 0.000000 0.000000
1.000000 0.000000 0.000000
1.000000 0.000000 0.000000
1.000000 0.000000 0.000000
0.000000 0.026550 0.000000
0.010468 0.026154 0.000000
0.025665 0.025757 0.000000
0.046387 0.025024 0.000000
0.070129 0.024231 0.000000
0.095520 0.023346 0.000000
0.123627 0.021149 0.000000
0.153961 0.017181 0.000000
0.187256 0.011627 0.000000
0.223114 0.003967 0.000000
0.261292 0.000549 0.000000
0.301392 0.000000 0.000000
0.343018 0.000000 0.000000
0.385590 0.000000 0.000000
0.428833 0.000000 0.000000
0.472229 0.000000 0.000000
0.515381 0.000000 0.000000
0.558350 0.000000 0.000000
0.601074 0.000000 0.000000
0.643402 0.000000 0.000000
0.685303 0.000000 0.000000
0.726776 0.000000 0.000000
0.767700 0.000000 0.000000
0.807953 0.000000 0.000000
0.847504 0.000000 0.000000
0.886261 0.000000 0.000000
0.924042 0.000000 0.000000
0.960876 0.000000 0.000000
0.993073 0.000000 0.000000
1.000000 0.000000 0.000000
1.000000 0.000000 0.000000
1.000000 0.000000 0.000000
1.000000 0.000000 0.000000
0.000000 0.048462 0.000000
0.008118 0.048401 0.000000
0.023438 0.047760 0.000000
0.045746 0.047394 0.000000
0.070709 0.046692 0.000000
0.097290 0.045349 0.000000
0.125610 0.043640 0.000000
0.156403 0.040436 0.000000
0.189819 0.035156 0.000000
0.225891 0.026978 0.000000
0.264069 0.016083 0.000000
0.304047 0.004486 0.000000
0.345459 0.000366 0.000000
0.387848 0.000000 0.000000
0.430878 0.000000 0.000000
0.473969 0.000000 0.000000
0.516937 0.000000 0.000000
0.559692 0.000000 0.000000
0.602234 0.000000 0.000000
0.644409 0.000000 0.000000
0.686188 0.000000 0.000000
0.727539 0.000000 0.000000
0.768280 0.000000 0.000000
0.808472 0.000000 0.000000
0.847870 0.000000 0.000000
0.886475 0.000000 0.000000
0.924164 0.000000 0.000000
0.960907 0.000000 0.000000
0.993042 0.000000 0.000000
1.000000 0.000000 0.000000
1.000000 0.000000 0.000000
1.000000 0.000000 0.000000
1.000000 0.000000 0.000000
0.000000 0.074554 0.000000
0.002747 0.074554 0.000000
0.019165 0.074097 0.000000
0.042816 0.073608 0.000000
0.070343 0.072906 0.000000
0.097931 0.072357 0.000000
0.127777 0.070892 0.000000
0.159271 0.068695 0.000000
0.193176 0.065338 0.000000
0.229401 0.060150 0.000000
0.267578 0.052216 0.000000
0.307404 0.040802 0.000000
0.348541 0.025696 0.000000
0.390625 0.010101 0.000000
0.433319 0.001709 0.000000
0.476166 0.000000 0.000000
0.518860 0.000000 0.000000
0.561371 0.000000 0.000000
0.603668 0.000000 0.000000
0.645660 0.000000 0.000000
0.687225 0.000000 0.000000
0.728394 0.000000 0.000000
0.769012 0.000000 0.000000
0.809021 0.000000 0.000000
0.848297 0.000000 0.000000
0.886780 0.000000 0.000000
0.924347 0.000000 0.000000
0.960999 0.000000 0.000000
0.993011 0.000000 0.000000
1.000000 0.000000 0.000000
1.000000 0.000000 0.000000
1.000000 0.000000 0.000000
1.000000 0.000000 0.000000
0.000000 0.103394 0.000000
0.000275 0.103546 0.000000
0.009552 0.103210 0.000000
0.035736 0.103119 0.000000
0.066681 0.102570 0.000000
0.097015 0.102020 0.000000
0.128571 0.101288 0.000000
0.161530 0.099915 0.000000
0.196289 0.097656 0.000000
0.232941 0.094391 0.000000
0.271423 0.089813 0.000000
0.311249 0.083221 0.000000
0.352234 0.074219 0.000000
0.394073 0.062347 0.000000
0.436432 0.047028 0.000000
0.478851 0.029785 0.000000
0.521118 0.012543 0.000000
0.563293 0.003265 0.000000
0.605316 0.000732 0.000000
0.647064 0.000000 0.000000
0.688416 0.000000 0.000000
0.729340 0.000000 0.000000
0.769775 0.000000 0.000000
0.809631 0.000000 0.000000
0.848755 0.000000 0.000000
0.887085 0.000000 0.000000
0.924530 0.000000 0.000000
0.960999 0.000000 0.000000
0.992920 0.000000 0.000000
1.000000 0.000000 0.000000
1.000000 0.000000 0.000000
1.000000 0.000000 0.000000
1.000000 0.000000 0.000000
0.000000 0.136047 0.000000
0.000000 0.136169 0.000000
0.001129 0.136261 0.000000
0.020020 0.136230 0.000000
0.057556 0.135773 0.000000
0.093018 0.135254 0.000000
0.127502 0.134796 0.000000
0.162445 0.134003 0.000000
0.198547 0.132599 0.000000
0.236176 0.130371 0.000000
0.275055 0.127441 0.000000
0.315063 0.123627 0.000000
0.356079 0.118347 0.000000
0.397827 0.111603 0.000000
0.439911 0.103333 0.000000
0.482025 0.093140 0.000000
0.523987 0.080444 0.000000
0.565796 0.066345 0.000000
0.607483 0.052856 0.000000
0.648865 0.036560 0.000000
0.689911 0.019623 0.000000
0.730560 0.008698 0.000000
0.770691 0.004700 0.000000
0.810303 0.001617 0.000000
0.849243 0.000000 0.000000
0.887390 0.000000 0.000000
0.924652 0.000000 0.000000
0.960968 0.000000 0.000000
0.992767 0.000000 0.000000
1.000000 0.000000 0.000000
1.000000 0.000000 0.000000
1.000000 0.000000 0.000000
1.000000 0.000000 0.000000
0.000000 0.172058 0.000000
0.000000 0.172241 0.000000
0.000000 0.172394 0.000000
0.002411 0.172516 0.000000
0.038391 0.172363 0.000000
0.083618 0.171875 0.000000
0.122955 0.171387 0.000000
0.161072 0.170898 0.000000
0.199280 0.170013 0.000000
0.238068 0.168579 0.000000
0.277893 0.166595 0.000000
0.318420 0.164001 0.000000
0.359650 0.160645 0.000000
0.401398 0.156494 0.000000
0.443329 0.151550 0.000000
0.485199 0.145782 0.000000
0.526917 0.139191 0.000000
0.568512 0.131592 0.000000
0.609924 0.122864 0.000000
0.651062 0.112793 0.000000
0.691864 0.101166 0.000000
0.732269 0.089417 0.000000
0.772186 0.080353 0.000000
0.811554 0.071167 0.000000
0.850220 0.062012 0.000000
0.888153 0.053223 0.000000
0.925232 0.044891 0.000000
0.961334 0.037659 0.000000
0.992981 0.032806 0.000000
1.000000 0.031647 0.000000
1.000000 0.034363 0.000000
1.000000 0.042236 0.000000
1.000000 0.054565 0.000000
0.000000 0.211121 0.000000
0.000000 0.211334 0.000000
0.000000 0.211487 0.000000
0.000000 0.211700 0.000000
0.008026 0.211823 0.000000
0.065613 0.211365 0.000000
0.114014 0.210846 0.000000
0.156708 0.210236 0.000000
0.197662 0.209564 0.000000
0.238495 0.208710 0.000000
0.279449 0.207336 0.000000
0.320862 0.205475 0.000000
0.362518 0.203247 0.000000
0.404419 0.200439 0.000000
0.446320 0.197235 0.000000
0.488098 0.193573 0.000000
0.529694 0.189423 0.000000
0.571075 0.184906 0.000000
0.612305 0.179932 0.000000
0.653229 0.174530 0.000000
0.693848 0.168793 0.000000
0.734070 0.162659 0.000000
0.773773 0.156281 0.000000
0.812958 0.149750 0.000000
0.851440 0.143433 0.000000
0.889160 0.137207 0.000000
0.926025 0.131470 0.000000
0.961945 0.126892 0.000000
0.993317 0.124054 0.000000
1.000000 0.123749 0.000000
1.000000 0.126068 0.000000
1.000000 0.131897 0.000000
1.000000 0.141174 0.000000
0.000000 0.252563 0.000000
0.000000 0.252747 0.000000
0.000000 0.252899 0.000000
0.000000 0.253082 0.000000
0.000671 0.253265 0.000000
0.032562 0.252991 0.000000
0.098877 0.252411 0.000000
0.148712 0.251770 0.000000
0.193573 0.251099 0.000000
0.236816 0.250366 0.000000
0.279541 0.249573 0.000000
0.322052 0.248138 0.000000
0.364441 0.246490 0.000000
0.406616 0.244507 0.000000
0.448700 0.242188 0.000000
0.490479 0.239685 0.000000
0.532013 0.236877 0.000000
0.573303 0.233856 0.000000
0.614410 0.230621 0.000000
0.655243 0.227051 0.000000
0.695679 0.223358 0.000000
0.735718 0.219543 0.000000
0.775238 0.215729 0.000000
0.814240 0.211945 0.000000
0.852539 0.208344 0.000000
0.890076 0.205170 0.000000
0.926727 0.202515 0.000000
0.962463 0.200714 0.000000
0.993622 0.199921 0.000000
1.000000 0.200470 0.000000
1.000000 0.202423 0.000000
1.000000 0.206238 0.000000
1.000000 0.211945 0.000000
0.000000 0.295563 0.000000
0.000000 0.295685 0.000000
0.000000 0.295807 0.000000
0.000000 0.295990 0.000000
0.000000 0.296112 0.000000
0.005249 0.296112 0.000000
0.072968 0.295532 0.000000
0.136139 0.294739 0.000000
0.186737 0.294006 0.000000
0.233185 0.293243 0.000000
0.277954 0.292480 0.000000
0.321808 0.291626 0.000000
0.365112 0.290283 0.000000
0.407898 0.288757 0.000000
0.450256 0.286987 0.000000
0.492218 0.285065 0.000000
0.533783 0.283051 0.000000
0.575134 0.280792 0.000000
0.616180 0.278381 0.000000
0.656921 0.275848 0.000000
0.697266 0.273163 0.000000
0.737183 0.270508 0.000000
0.776550 0.267853 0.000000
0.815369 0.265289 0.000000
0.853485 0.262878 0.000000
0.890808 0.260834 0.000000
0.927277 0.259247 0.000000
0.962769 0.258331 0.000000
0.993744 0.258118 0.000000
1.000000 0.259003 0.000000
1.000000 0.260864 0.000000
1.000000 0.264038 0.000000
1.000000 0.268707 0.000000
0.000000 0.339355 0.000000
0.000000 0.339478 0.000000
0.000000 0.339539 0.000000
0.000000 0.339661 0.000000
0.000000 0.339783 0.000000
0.000061 0.339844 0.000000
0.034058 0.339355 0.000000
0.117798 0.338531 0.000000
0.176880 0.337646 0.000000
0.227600 0.336731 0.000000
0.274841 0.335907 0.000000
0.320312 0.335052 0.000000
0.364624 0.334167 0.000000
0.408142 0.332886 0.000000
0.450989 0.331451 0.000000
0.493317 0.329834 0.000000
0.535065 0.328186 0.000000
0.576477 0.326385 0.000000
0.617584 0.324432 0.000000
0.658264 0.322449 0.000000
0.698547 0.320435 0.000000
0.738373 0.318359 0.000000
0.777618 0.316345 0.000000
0.816254 0.314484 0.000000
0.854218 0.312775 0.000000
0.891357 0.311371 0.000000
0.927612 0.310333 0.000000
0.962891 0.309906 0.000000
0.993683 0.309998 0.000000
1.000000 0.311005 0.000000
1.000000 0.312775 0.000000
1.000000 0.315643 0.000000
1.000000 0.319702 0.000000
0.000000 0.383362 0.000000
0.000000 0.383453 0.000000
0.000000 0.383484 0.000000
0.000000 0.383545 0.000000
0.000000 0.383575 0.000000
0.000000 0.383606 0.000000
0.007935 0.383270 0.000000
0.090912 0.382385 0.000000
0.164246 0.381409 0.000000
0.220306 0.380402 0.000000
0.270569 0.379425 0.000000
0.317749 0.378448 0.000000
0.363190 0.377594 0.000000
0.407562 0.376648 0.000000
0.450989 0.375427 0.000000
0.493683 0.374054 0.000000
0.535797 0.372589 0.000000
0.577393 0.371063 0.000000
0.618561 0.369446 0.000000
0.659271 0.367737 0.000000
0.699524 0.366089 0.000000
0.739258 0.364410 0.000000
0.778381 0.362793 0.000000
0.816895 0.361359 0.000000
0.854675 0.360077 0.000000
0.891632 0.359039 0.000000
0.927673 0.358368 0.000000
0.962738 0.358154 0.000000
0.993378 0.358459 0.000000
1.000000 0.359467 0.000000
1.000000 0.361206 0.000000
1.000000 0.363800 0.000000
1.000000 0.367462 0.000000
0.000000 0.427124 0.000000
0.000000 0.427124 0.000000
0.000000 0.427155 0.000000
0.000000 0.427185 0.000000
0.000000 0.427155 0.000000
0.000000 0.427124 0.000000
0.000610 0.426910 0.000000
0.060608 0.426056 0.000000
0.148285 0.424957 0.000000
0.211487 0.423889 0.000000
0.265167 0.422791 0.000000
0.314331 0.421722 0.000000
0.360931 0.420776 0.000000
0.406067 0.419922 0.000000
0.450287 0.418884 0.000000
0.493469 0.417755 0.000000
0.535919 0.416412 0.000000
0.577759 0.415070 0.000000
0.619110 0.413635 0.000000
0.659882 0.412170 0.000000
0.700134 0.410706 0.000000
0.739807 0.409271 0.000000
0.778839 0.407928 0.000000
0.817200 0.406738 0.000000
0.854828 0.405670 0.000000
0.891602 0.404907 0.000000
0.927460 0.404419 0.000000
0.962280 0.404358 0.000000
0.992828 0.404755 0.000000
1.000000 0.405731 0.000000
1.000000 0.407379 0.000000
1.000000 0.409760 0.000000
1.000000 0.413025 0.000000
0.000000 0.470520 0.000000
0.000000 0.470490 0.000000
0.000000 0.470459 0.000000
0.000000 0.470459 0.000000
0.000000 0.470398 0.000000
0.000000 0.470276 0.000000
0.000000 0.470093 0.000000
0.027405 0.469330 0.000000
0.128174 0.468201 0.000000
0.200989 0.467041 0.000000
0.258698 0.465912 0.000000
0.310120 0.464783 0.000000
0.358093 0.463745 0.000000
0.404053 0.462769 0.000000
0.448822 0.461853 0.000000
0.492615 0.460876 0.000000
0.535522 0.459747 0.000000
0.577606 0.458496 0.000000
0.619141 0.457184 0.000000
0.660065 0.455841 0.000000
0.700317 0.454559 0.000000
0.739990 0.453217 0.000000
0.778961 0.452057 0.000000
0.817230 0.451019 0.000000
0.854675 0.450104 0.000000
0.891266 0.449432 0.000000
0.926910 0.449066 0.000000
0.961517 0.449066 0.000000
0.991974 0.449493 0.000000
1.000000 0.450409 0.000000
1.000000 0.451965 0.000000
1.000000 0.454132 0.000000
1.000000 0.457092 0.000000
0.000000 0.513367 0.000000
0.000000 0.513367 0.000000
0.000000 0.513336 0.000000
0.000000 0.513275 0.000000
0.000000 0.513153 0.000000
0.000000 0.513031 0.000000
0.000000 0.512787 0.000000
0.008514 0.512115 0.000000
0.102417 0.510986 0.000000
0.189026 0.509796 0.000000
0.251221 0.508606 0.000000
0.305084 0.507477 0.000000
0.354645 0.506317 0.000000
0.401672 0.505310 0.000000
0.447021 0.504303 0.000000
0.491211 0.503387 0.000000
0.534546 0.502411 0.000000
0.577057 0.501312 0.000000
0.618744 0.500092 0.000000
0.659790 0.498840 0.000000
0.700134 0.497620 0.000000
0.739807 0.496429 0.000000
0.778717 0.495270 0.000000
0.816895 0.494293 0.000000
0.854187 0.493500 0.000000
0.890594 0.492889 0.000000
0.926025 0.492554 0.000000
0.960419 0.492554 0.000000
0.990875 0.492950 0.000000
1.000000 0.493805 0.000000
1.000000 0.495209 0.000000
1.000000 0.497223 0.000000
1.000000 0.499908 0.000000
0.000000 0.555664 0.000000
0.000000 0.555603 0.000000
0.000000 0.555573 0.000000
0.000000 0.555450 0.000000
0.000000 0.555328 0.000000
0.000000 0.555176 0.000000
0.000000 0.554962 0.000000
0.001587 0.554352 0.000000
0.081268 0.553253 0.000000
0.175140 0.552002 0.000000
0.242981 0.550781 0.000000
0.299530 0.549622 0.000000
0.350739 0.548431 0.000000
0.398773 0.547333 0.000000
0.444977 0.546265 0.000000
0.489594 0.545258 0.000000
0.533173 0.544342 0.000000
0.575989 0.543335 0.000000
0.617981 0.542236 0.000000
0.659180 0.541077 0.000000
0.699585 0.539886 0.000000
0.739258 0.538757 0.000000
0.778137 0.537659 0.000000
0.816193 0.536713 0.000000
0.853363 0.535919 0.000000
0.889618 0.535339 0.000000
0.924835 0.534973 0.000000
0.958954 0.534943 0.000000
0.989410 0.535278 0.000000
1.000000 0.536011 0.000000
1.000000 0.537292 0.000000
1.000000 0.539093 0.000000
1.000000 0.541534 0.000000
0.000000 0.597321 0.000000
0.000000 0.597260 0.000000
0.000000 0.597198 0.000000
0.000000 0.597076 0.000000
0.000000 0.596924 0.000000
0.000000 0.596741 0.000000
0.000000 0.596527 0.000000
0.000000 0.595947 0.000000
0.058014 0.594879 0.000000
0.159454 0.593628 0.000000
0.234009 0.592377 0.000000
0.293579 0.591156 0.000000
0.346558 0.589935 0.000000
0.395813 0.588776 0.000000
0.442657 0.587646 0.000000
0.487885 0.586548 0.000000
0.531738 0.585510 0.000000
0.574707 0.584595 0.000000
0.616913 0.583557 0.000000
0.658264 0.582489 0.000000
0.698761 0.581390 0.000000
0.738403 0.580261 0.000000
0.777252 0.579193 0.000000
0.815277 0.578217 0.000000
0.852264 0.577423 0.000000
0.888306 0.576813 0.000000
0.923309 0.576416 0.000000
0.957184 0.576324 0.000000
0.987701 0.576569 0.000000
1.000000 0.577209 0.000000
1.000000 0.578308 0.000000
1.000000 0.579926 0.000000
1.000000 0.582123 0.000000
0.000000 0.638275 0.000000
0.000000 0.638184 0.000000
0.000000 0.638123 0.000000
0.000000 0.638000 0.000000
0.000000 0.637817 0.000000
0.000000 0.637604 0.000000
0.000000 0.637360 0.000000
0.000000 0.636841 0.000000
0.032593 0.635773 0.000000
0.141388 0.634552 0.000000
0.225006 0.633270 0.000000
0.287598 0.632050 0.000000
0.342407 0.630768 0.000000
0.392761 0.629547 0.000000
0.440430 0.628326 0.000000
0.486145 0.627197 0.000000
0.530365 0.626068 0.000000
0.573486 0.625031 0.000000
0.615753 0.624054 0.000000
0.657196 0.623047 0.000000
0.697754 0.621948 0.000000
0.737396 0.620880 0.000000
0.776184 0.619812 0.000000
0.814056 0.618835 0.000000
0.850922 0.618011 0.000000
0.886780 0.617371 0.000000
0.921539 0.616882 0.000000
0.955170 0.616699 0.000000
0.985718 0.616852 0.000000
1.000000 0.617340 0.000000
1.000000 0.618286 0.000000
1.000000 0.619720 0.000000
1.000000 0.621674 0.000000
0.000000 0.678314 0.000000
0.000000 0.678253 0.000000
0.000000 0.678131 0.000000
0.000000 0.678040 0.000000
0.000000 0.677856 0.000000
0.000000 0.677612 0.000000
0.000000 0.677338 0.000000
0.000000 0.676880 0.000000
0.017212 0.675812 0.000000
0.122772 0.674591 0.000000
0.216644 0.673279 0.000000
0.282257 0.672028 0.000000
0.338654 0.670746 0.000000
0.390106 0.669434 0.000000
0.438446 0.668182 0.000000
0.484650 0.666931 0.000000
0.529175 0.665741 0.000000
0.572418 0.664612 0.000000
0.614716 0.663513 0.000000
0.656097 0.662537 0.000000
0.696686 0.661530 0.000000
0.736298 0.660431 0.000000
0.774963 0.659393 0.000000
0.812714 0.658417 0.000000
0.849396 0.657532 0.000000
0.885010 0.656830 0.000000
0.919556 0.656281 0.000000
0.952881 0.655975 0.000000
0.983490 0.656006 0.000000
0.999939 0.656342 0.000000
1.000000 0.657104 0.000000
1.000000 0.658356 0.000000
1.000000 0.660065 0.000000
0.000000 0.717377 0.000000
0.000000 0.717316 0.000000
0.000000 0.717194 0.000000
0.000000 0.717072 0.000000
0.000000 0.716888 0.000000
0.000000 0.716614 0.000000
0.000000 0.716339 0.000000
0.000000 0.715881 0.000000
0.012451 0.714783 0.000000
0.113586 0.713531 0.000000
0.209625 0.712250 0.000000
0.278107 0.710938 0.000000
0.335907 0.709625 0.000000
0.388214 0.708282 0.000000
0.437073 0.706970 0.000000
0.483643 0.705658 0.000000
0.528412 0.704407 0.000000
0.571777 0.703156 0.000000
0.614014 0.702026 0.000000
0.655273 0.700928 0.000000
0.695709 0.699890 0.000000
0.735260 0.698853 0.000000
0.773804 0.697815 0.000000
0.811340 0.696808 0.000000
0.847839 0.695892 0.000000
0.883179 0.695068 0.000000
0.917419 0.694458 0.000000
0.950409 0.694061 0.000000
0.981079 0.693909 0.000000
0.999725 0.694153 0.000000
1.000000 0.694702 0.000000
1.000000 0.695770 0.000000
1.000000 0.697174 0.000000
0.000000 0.755280 0.000000
0.000000 0.755188 0.000000
0.000000 0.755066 0.000000
0.000000 0.754944 0.000000
0.000000 0.754761 0.000000
0.000000 0.754486 0.000000
0.000000 0.754181 0.000000
0.000000 0.753632 0.000000
0.010345 0.752563 0.000000
0.108856 0.751312 0.000000
0.205597 0.750000 0.000000
0.275818 0.748688 0.000000
0.334595 0.747314 0.000000
0.387543 0.745972 0.000000
0.436737 0.744598 0.000000
0.483429 0.743256 0.000000
0.528320 0.741913 0.000000
0.571686 0.740570 0.000000
0.613861 0.739319 0.000000
0.654968 0.738129 0.000000
0.695129 0.737000 0.000000
0.734436 0.735931 0.000000
0.772797 0.734924 0.000000
0.810089 0.733887 0.000000
0.846313 0.732880 0.000000
0.881409 0.732056 0.000000
0.915283 0.731323 0.000000
0.947937 0.730804 0.000000
0.978577 0.730560 0.000000
0.999481 0.730591 0.000000
1.000000 0.730957 0.000000
1.000000 0.731781 0.000000
1.000000 0.732910 0.000000
0.000000 0.791870 0.000000
0.000000 0.791779 0.000000
0.000000 0.791687 0.000000
0.000000 0.791504 0.000000
0.000000 0.791290 0.000000
0.000000 0.791016 0.000000
0.000000 0.790680 0.000000
0.000000 0.790009 0.000000
0.010956 0.788940 0.000000
0.109070 0.787720 0.000000
0.205597 0.786407 0.000000
0.276520 0.785065 0.000000
0.335449 0.783691 0.000000
0.388519 0.782288 0.000000
0.437805 0.780853 0.000000
0.484528 0.779449 0.000000
0.529236 0.778046 0.000000
0.572479 0.776642 0.000000
0.614471 0.775299 0.000000
0.655304 0.774017 0.000000
0.695160 0.772766 0.000000
0.734131 0.771576 0.000000
0.772125 0.770508 0.000000
0.809143 0.769440 0.000000
0.845062 0.768433 0.000000
0.879761 0.767517 0.000000
0.913269 0.766724 0.000000
0.945496 0.766052 0.000000
0.976074 0.765656 0.000000
0.999207 0.765533 0.000000
1.000000 0.765717 0.000000
1.000000 0.766327 0.000000
1.000000 0.767181 0.000000
0.000000 0.826996 0.000000
0.000000 0.826874 0.000000
0.000000 0.826782 0.000000
0.000000 0.826599 0.000000
0.000000 0.826355 0.000000
0.000000 0.826080 0.000000
0.000000 0.825684 0.000000
0.000000 0.824921 0.000000
0.014679 0.823792 0.000000
0.116333 0.822571 0.000000
0.211304 0.821289 0.000000
0.280853 0.819946 0.000000
0.339203 0.818512 0.000000
0.391754 0.817078 0.000000
0.440704 0.815613 0.000000
0.487061 0.814148 0.000000
0.531525 0.812653 0.000000
0.574432 0.811188 0.000000
0.616150 0.809753 0.000000
0.656616 0.808350 0.000000
0.696045 0.807037 0.000000
0.734558 0.805725 0.000000
0.772095 0.804535 0.000000
0.808655 0.803436 0.000000
0.844147 0.802368 0.000000
0.878479 0.801361 0.000000
0.911499 0.800446 0.000000
0.943268 0.799713 0.000000
0.973602 0.799164 0.000000
0.998749 0.798859 0.000000
1.000000 0.798828 0.000000
1.000000 0.799194 0.000000
1.000000 0.799774 0.000000
0.000000 0.860413 0.000000
0.000000 0.860291 0.000000
0.000000 0.860168 0.000000
0.000000 0.859955 0.000000
0.000000 0.859741 0.000000
0.000000 0.859406 0.000000
0.000000 0.858917 0.000000
0.000000 0.858002 0.000000
0.028656 0.856903 0.000000
0.130127 0.855652 0.000000
0.223297 0.854370 0.000000
0.289734 0.852997 0.000000
0.346344 0.851593 0.000000
0.397827 0.850128 0.000000
0.445984 0.848633 0.000000
0.491699 0.847107 0.000000
0.535522 0.845551 0.000000
0.577911 0.844025 0.000000
0.619049 0.842499 0.000000
0.659058 0.841003 0.000000
0.698029 0.839539 0.000000
0.735931 0.838135 0.000000
0.772888 0.836823 0.000000
0.808929 0.835602 0.000000
0.843872 0.834442 0.000000
0.877655 0.833374 0.000000
0.910187 0.832367 0.000000
0.941437 0.831482 0.000000
0.971191 0.830780 0.000000
0.997375 0.830353 0.000000
1.000000 0.830078 0.000000
1.000000 0.830200 0.000000
1.000000 0.830505 0.000000
0.000000 0.891907 0.000000
0.000000 0.891815 0.000000
0.000000 0.891693 0.000000
0.000000 0.891449 0.000000
0.000000 0.891205 0.000000
0.000000 0.890808 0.000000
0.000000 0.890106 0.000000
0.002594 0.889130 0.000000
0.063873 0.888000 0.000000
0.159271 0.886810 0.000000
0.241608 0.885498 0.000000
0.303345 0.884155 0.000000
0.357452 0.882721 0.000000
0.407196 0.881226 0.000000
0.454041 0.879669 0.000000
0.498718 0.878082 0.000000
0.541656 0.876526 0.000000
0.583221 0.874908 0.000000
0.623657 0.873291 0.000000
0.662994 0.871704 0.000000
0.701294 0.870148 0.000000
0.738586 0.868622 0.000000
0.774872 0.867188 0.000000
0.810181 0.865814 0.000000
0.844482 0.864532 0.000000
0.877625 0.863373 0.000000
0.909515 0.862305 0.000000
0.940125 0.861298 0.000000
0.969269 0.860474 0.000000
0.995117 0.859802 0.000000
1.000000 0.859406 0.000000
1.000000 0.859222 0.000000
1.000000 0.859253 0.000000
0.000000 0.921326 0.000000
0.000000 0.921204 0.000000
0.000000 0.921082 0.000000
0.000000 0.920807 0.000000
0.000000 0.920502 0.000000
0.000000 0.919922 0.000000
0.000000 0.919067 0.000000
0.023529 0.918060 0.000000
0.110840 0.916992 0.000000
0.198547 0.915802 0.000000
0.265778 0.914520 0.000000
0.321960 0.913147 0.000000
0.372772 0.911713 0.000000
0.420197 0.910187 0.000000
0.465240 0.908600 0.000000
0.508484 0.906982 0.000000
0.550232 0.905334 0.000000
0.590759 0.903656 0.000000
0.630249 0.901978 0.000000
0.668701 0.900269 0.000000
0.706146 0.898621 0.000000
0.742615 0.897034 0.000000
0.778168 0.895447 0.000000
0.812683 0.893951 0.000000
0.846161 0.892548 0.000000
