滤镜资源/Lutify.me Free 3D LUTs Package/Capture One/Mac/Lutify.me JPG Styles/25%/LM-JPG-Hiddenite-25.costyle
<?xml version="1.0"?>
<SL Engine="1000">
	<E K="ICCProfile" V="LM-JPG-Hiddenite-25.icm" />
	<E K="Name" V="LM-JPG-Hiddenite" />
	<E K="StyleSource" V="Styles" />
	<E K="UUID" V="1D23087B-9232-4771-832D-1B9C32BAECB3" />
</SL>
