滤镜资源/Lutify.me Free 3D LUTs Package/Capture One/Mac/Lutify.me JPG Styles/25%/LM-JPG-Howlite-25.costyle
<?xml version="1.0"?>
<SL Engine="1000">
	<E K="ICCProfile" V="LM-JPG-Howlite-25.icm" />
	<E K="Name" V="LM-JPG-Howlite" />
	<E K="StyleSource" V="Styles" />
	<E K="UUID" V="4192733B-DB8A-4C7E-9F85-4E07C183C33C" />
</SL>
