滤镜资源/Lutify.me Free 3D LUTs Package/Capture One/Mac/Lutify.me JPG Styles/25%/LM-JPG-Hilutite-25.costyle
<?xml version="1.0"?>
<SL Engine="1000">
	<E K="ICCProfile" V="LM-JPG-Hilutite-25.icm" />
	<E K="Name" V="LM-JPG-Hilutite" />
	<E K="StyleSource" V="Styles" />
	<E K="UUID" V="385F803D-323B-4324-9155-CDDB44C3D11C" />
</SL>
