滤镜资源/Lutify.me Free 3D LUTs Package/Capture One/Windows/Lutify.me Raw Styles/50%/LM-RAW-Hilutite-50.costyle
<?xml version="1.0"?>
<SL Engine="1000">
	<E K="ICCProfile" V="LM-RAW-Hilutite-50.icm" />
	<E K="Name" V="LM-RAW-Hilutite" />
	<E K="StyleSource" V="Styles" />
	<E K="UUID" V="2899007E-080A-81FB-953F-CF2AC6201161" />
</SL>
