滤镜资源/Lutify.me Free 3D LUTs Package/Capture One/Windows/Lutify.me Raw Styles/50%/LM-RAW-Hiddenite-50.costyle
<?xml version="1.0"?>
<SL Engine="1000">
	<E K="ICCProfile" V="LM-RAW-Hiddenite-50.icm" />
	<E K="Name" V="LM-RAW-Hiddenite" />
	<E K="StyleSource" V="Styles" />
	<E K="UUID" V="3C821EEE-9DEA-801A-9262-36868CC720C9" />
</SL>
