滤镜资源/Lutify.me Free 3D LUTs Package/3D LUTs/Color Grading LUTs/Standard (Rec709 and DCI P3) LUTs/Hackmanite - Rec709.cube
# Created by: Lutify.me
# Copyright: (c) Copyright Lutify.me 2016, G.T. Colord LTD
# Website: https://lutify.me
# Contact: help@lutify.me
LUT_3D_SIZE 9
0.000000 0.000000 0.000000
0.117188 0.000000 0.000000
0.203369 0.000000 0.000000
0.321289 0.000000 0.000000
0.457642 0.000000 0.000000
0.595551 0.000000 0.000000
0.731476 0.000000 0.000000
0.866058 0.000000 0.000000
1.000000 0.000000 0.000000
0.000000 0.086365 0.000000
0.117188 0.086365 0.000000
0.203369 0.086365 0.000000
0.321289 0.086365 0.000000
0.457642 0.086365 0.000000
0.595551 0.086365 0.000000
0.731476 0.086365 0.000000
0.866058 0.086365 0.000000
1.000000 0.086365 0.000000
0.000000 0.188934 0.000000
0.117188 0.188934 0.000000
0.203369 0.188934 0.000000
0.321289 0.188934 0.000000
0.457642 0.188934 0.000000
0.595551 0.188934 0.000000
0.731476 0.188934 0.000000
0.866058 0.188934 0.000000
1.000000 0.188934 0.000000
0.000000 0.317291 0.000000
0.117188 0.317291 0.000000
0.203369 0.317291 0.000000
0.321289 0.317291 0.000000
0.457642 0.317291 0.000000
0.595551 0.317291 0.000000
0.731476 0.317291 0.000000
0.866058 0.317291 0.000000
1.000000 0.317291 0.000000
0.000000 0.451874 0.000000
0.117188 0.451874 0.000000
0.203369 0.451874 0.000000
0.321289 0.451874 0.000000
0.457642 0.451874 0.000000
0.595551 0.451874 0.000000
0.731476 0.451874 0.000000
0.866058 0.451874 0.000000
1.000000 0.451874 0.000000
0.000000 0.588013 0.000000
0.117188 0.588013 0.000000
0.203369 0.588013 0.000000
0.321289 0.588013 0.000000
0.457642 0.588013 0.000000
0.595551 0.588013 0.000000
0.731476 0.588013 0.000000
0.866058 0.588013 0.000000
1.000000 0.588013 0.000000
0.000000 0.724915 0.000000
0.117188 0.724915 0.000000
0.203369 0.724915 0.000000
0.321289 0.724915 0.000000
0.457642 0.724915 0.000000
0.595551 0.724915 0.000000
0.731476 0.724915 0.000000
0.866058 0.724915 0.000000
1.000000 0.724915 0.000000
0.000000 0.862305 0.000000
0.117188 0.862305 0.000000
0.203369 0.862305 0.000000
0.321289 0.862305 0.000000
0.457642 0.862305 0.000000
0.595551 0.862305 0.000000
0.731476 0.862305 0.000000
0.866058 0.862305 0.000000
1.000000 0.862305 0.000000
0.000000 1.000000 0.000000
0.117188 1.000000 0.000000
0.203369 1.000000 0.000000
0.321289 1.000000 0.000000
0.457642 1.000000 0.000000
0.595551 1.000000 0.000000
0.731476 1.000000 0.000000
0.866058 1.000000 0.000000
1.000000 1.000000 0.000000
0.000000 0.000000 0.216888
0.117188 0.000000 0.216888
0.203369 0.000000 0.216888
0.321289 0.000000 0.216888
0.457642 0.000000 0.216888
0.595551 0.000000 0.216888
0.731476 0.000000 0.216888
0.866058 0.000000 0.216888
1.000000 0.000000 0.216888
0.000000 0.086365 0.216888
0.117188 0.086365 0.216888
0.203369 0.086365 0.216888
0.321289 0.086365 0.216888
0.457642 0.086365 0.216888
0.595551 0.086365 0.216888
0.731476 0.086365 0.216888
0.866058 0.086365 0.216888
1.000000 0.086365 0.216888
0.000000 0.188934 0.216888
0.117188 0.188934 0.216888
0.203369 0.188934 0.216888
0.321289 0.188934 0.216888
0.457642 0.188934 0.216888
0.595551 0.188934 0.216888
0.731476 0.188934 0.216888
0.866058 0.188934 0.216888
1.000000 0.188934 0.216888
0.000000 0.317291 0.216888
0.117188 0.317291 0.216888
0.203369 0.317291 0.216888
0.321289 0.317291 0.216888
0.457642 0.317291 0.216888
0.595551 0.317291 0.216888
0.731476 0.317291 0.216888
0.866058 0.317291 0.216888
1.000000 0.317291 0.216888
0.000000 0.451874 0.216888
0.117188 0.451874 0.216888
0.203369 0.451874 0.216888
0.321289 0.451874 0.216888
0.457642 0.451874 0.216888
0.595551 0.451874 0.216888
0.731476 0.451874 0.216888
0.866058 0.451874 0.216888
1.000000 0.451874 0.216888
0.000000 0.588013 0.216888
0.117188 0.588013 0.216888
0.203369 0.588013 0.216888
0.321289 0.588013 0.216888
0.457642 0.588013 0.216888
0.595551 0.588013 0.216888
0.731476 0.588013 0.216888
0.866058 0.588013 0.216888
1.000000 0.588013 0.216888
0.000000 0.724915 0.216888
0.117188 0.724915 0.216888
0.203369 0.724915 0.216888
0.321289 0.724915 0.216888
0.457642 0.724915 0.216888
0.595551 0.724915 0.216888
0.731476 0.724915 0.216888
0.866058 0.724915 0.216888
1.000000 0.724915 0.216888
0.000000 0.862305 0.216888
0.117188 0.862305 0.216888
0.203369 0.862305 0.216888
0.321289 0.862305 0.216888
0.457642 0.862305 0.216888
0.595551 0.862305 0.216888
0.731476 0.862305 0.216888
0.866058 0.862305 0.216888
1.000000 0.862305 0.216888
0.000000 1.000000 0.216888
0.117188 1.000000 0.216888
0.203369 1.000000 0.216888
0.321289 1.000000 0.216888
0.457642 1.000000 0.216888
0.595551 1.000000 0.216888
0.731476 1.000000 0.216888
0.866058 1.000000 0.216888
1.000000 1.000000 0.216888
0.000000 0.000000 0.294312
0.117188 0.000000 0.294312
0.203369 0.000000 0.294312
0.321289 0.000000 0.294312
0.457642 0.000000 0.294312
0.595551 0.000000 0.294312
0.731476 0.000000 0.294312
0.866058 0.000000 0.294312
1.000000 0.000000 0.294312
0.000000 0.086365 0.294312
0.117188 0.086365 0.294312
0.203369 0.086365 0.294312
0.321289 0.086365 0.294312
0.457642 0.086365 0.294312
0.595551 0.086365 0.294312
0.731476 0.086365 0.294312
0.866058 0.086365 0.294312
1.000000 0.086365 0.294312
0.000000 0.188934 0.294312
0.117188 0.188934 0.294312
0.203369 0.188934 0.294312
0.321289 0.188934 0.294312
0.457642 0.188934 0.294312
0.595551 0.188934 0.294312
0.731476 0.188934 0.294312
0.866058 0.188934 0.294312
1.000000 0.188934 0.294312
0.000000 0.317291 0.294312
0.117188 0.317291 0.294312
0.203369 0.317291 0.294312
0.321289 0.317291 0.294312
0.457642 0.317291 0.294312
0.595551 0.317291 0.294312
0.731476 0.317291 0.294312
0.866058 0.317291 0.294312
1.000000 0.317291 0.294312
0.000000 0.451874 0.294312
0.117188 0.451874 0.294312
0.203369 0.451874 0.294312
0.321289 0.451874 0.294312
0.457642 0.451874 0.294312
0.595551 0.451874 0.294312
0.731476 0.451874 0.294312
0.866058 0.451874 0.294312
1.000000 0.451874 0.294312
0.000000 0.588013 0.294312
0.117188 0.588013 0.294312
0.203369 0.588013 0.294312
0.321289 0.588013 0.294312
0.457642 0.588013 0.294312
0.595551 0.588013 0.294312
0.731476 0.588013 0.294312
0.866058 0.588013 0.294312
1.000000 0.588013 0.294312
0.000000 0.724915 0.294312
0.117188 0.724915 0.294312
0.203369 0.724915 0.294312
0.321289 0.724915 0.294312
0.457642 0.724915 0.294312
0.595551 0.724915 0.294312
0.731476 0.724915 0.294312
0.866058 0.724915 0.294312
1.000000 0.724915 0.294312
0.000000 0.862305 0.294312
0.117188 0.862305 0.294312
0.203369 0.862305 0.294312
0.321289 0.862305 0.294312
0.457642 0.862305 0.294312
0.595551 0.862305 0.294312
0.731476 0.862305 0.294312
0.866058 0.862305 0.294312
1.000000 0.862305 0.294312
0.000000 1.000000 0.294312
0.117188 1.000000 0.294312
0.203369 1.000000 0.294312
0.321289 1.000000 0.294312
0.457642 1.000000 0.294312
0.595551 1.000000 0.294312
0.731476 1.000000 0.294312
0.866058 1.000000 0.294312
1.000000 1.000000 0.294312
0.000000 0.000000 0.392456
0.117188 0.000000 0.392456
0.203369 0.000000 0.392456
0.321289 0.000000 0.392456
0.457642 0.000000 0.392456
0.595551 0.000000 0.392456
0.731476 0.000000 0.392456
0.866058 0.000000 0.392456
1.000000 0.000000 0.392456
0.000000 0.086365 0.392456
0.117188 0.086365 0.392456
0.203369 0.086365 0.392456
0.321289 0.086365 0.392456
0.457642 0.086365 0.392456
0.595551 0.086365 0.392456
0.731476 0.086365 0.392456
0.866058 0.086365 0.392456
1.000000 0.086365 0.392456
0.000000 0.188934 0.392456
0.117188 0.188934 0.392456
0.203369 0.188934 0.392456
0.321289 0.188934 0.392456
0.457642 0.188934 0.392456
0.595551 0.188934 0.392456
0.731476 0.188934 0.392456
0.866058 0.188934 0.392456
1.000000 0.188934 0.392456
0.000000 0.317291 0.392456
0.117188 0.317291 0.392456
0.203369 0.317291 0.392456
0.321289 0.317291 0.392456
0.457642 0.317291 0.392456
0.595551 0.317291 0.392456
0.731476 0.317291 0.392456
0.866058 0.317291 0.392456
1.000000 0.317291 0.392456
0.000000 0.451874 0.392456
0.117188 0.451874 0.392456
0.203369 0.451874 0.392456
0.321289 0.451874 0.392456
0.457642 0.451874 0.392456
0.595551 0.451874 0.392456
0.731476 0.451874 0.392456
0.866058 0.451874 0.392456
1.000000 0.451874 0.392456
0.000000 0.588013 0.392456
0.117188 0.588013 0.392456
0.203369 0.588013 0.392456
0.321289 0.588013 0.392456
0.457642 0.588013 0.392456
0.595551 0.588013 0.392456
0.731476 0.588013 0.392456
0.866058 0.588013 0.392456
1.000000 0.588013 0.392456
0.000000 0.724915 0.392456
0.117188 0.724915 0.392456
0.203369 0.724915 0.392456
0.321289 0.724915 0.392456
0.457642 0.724915 0.392456
0.595551 0.724915 0.392456
0.731476 0.724915 0.392456
0.866058 0.724915 0.392456
1.000000 0.724915 0.392456
0.000000 0.862305 0.392456
0.117188 0.862305 0.392456
0.203369 0.862305 0.392456
0.321289 0.862305 0.392456
0.457642 0.862305 0.392456
0.595551 0.862305 0.392456
0.731476 0.862305 0.392456
0.866058 0.862305 0.392456
1.000000 0.862305 0.392456
0.000000 1.000000 0.392456
0.117188 1.000000 0.392456
0.203369 1.000000 0.392456
0.321289 1.000000 0.392456
0.457642 1.000000 0.392456
0.595551 1.000000 0.392456
0.731476 1.000000 0.392456
0.866058 1.000000 0.392456
1.000000 1.000000 0.392456
0.000000 0.000000 0.501221
0.117188 0.000000 0.501221
0.203369 0.000000 0.501221
0.321289 0.000000 0.501221
0.457642 0.000000 0.501221
0.595551 0.000000 0.501221
0.731476 0.000000 0.501221
0.866058 0.000000 0.501221
1.000000 0.000000 0.501221
0.000000 0.086365 0.501221
0.117188 0.086365 0.501221
0.203369 0.086365 0.501221
0.321289 0.086365 0.501221
0.457642 0.086365 0.501221
0.595551 0.086365 0.501221
0.731476 0.086365 0.501221
0.866058 0.086365 0.501221
1.000000 0.086365 0.501221
0.000000 0.188934 0.501221
0.117188 0.188934 0.501221
0.203369 0.188934 0.501221
0.321289 0.188934 0.501221
0.457642 0.188934 0.501221
0.595551 0.188934 0.501221
0.731476 0.188934 0.501221
0.866058 0.188934 0.501221
1.000000 0.188934 0.501221
0.000000 0.317291 0.501221
0.117188 0.317291 0.501221
0.203369 0.317291 0.501221
0.321289 0.317291 0.501221
0.457642 0.317291 0.501221
0.595551 0.317291 0.501221
0.731476 0.317291 0.501221
0.866058 0.317291 0.501221
1.000000 0.317291 0.501221
0.000000 0.451874 0.501221
0.117188 0.451874 0.501221
0.203369 0.451874 0.501221
0.321289 0.451874 0.501221
0.457642 0.451874 0.501221
0.595551 0.451874 0.501221
0.731476 0.451874 0.501221
0.866058 0.451874 0.501221
1.000000 0.451874 0.501221
0.000000 0.588013 0.501221
0.117188 0.588013 0.501221
0.203369 0.588013 0.501221
0.321289 0.588013 0.501221
0.457642 0.588013 0.501221
0.595551 0.588013 0.501221
0.731476 0.588013 0.501221
0.866058 0.588013 0.501221
1.000000 0.588013 0.501221
0.000000 0.724915 0.501221
0.117188 0.724915 0.501221
0.203369 0.724915 0.501221
0.321289 0.724915 0.501221
0.457642 0.724915 0.501221
0.595551 0.724915 0.501221
0.731476 0.724915 0.501221
0.866058 0.724915 0.501221
1.000000 0.724915 0.501221
0.000000 0.862305 0.501221
0.117188 0.862305 0.501221
0.203369 0.862305 0.501221
0.321289 0.862305 0.501221
0.457642 0.862305 0.501221
0.595551 0.862305 0.501221
0.731476 0.862305 0.501221
0.866058 0.862305 0.501221
1.000000 0.862305 0.501221
0.000000 1.000000 0.501221
0.117188 1.000000 0.501221
0.203369 1.000000 0.501221
0.321289 1.000000 0.501221
0.457642 1.000000 0.501221
0.595551 1.000000 0.501221
0.731476 1.000000 0.501221
0.866058 1.000000 0.501221
1.000000 1.000000 0.501221
0.000000 0.000000 0.618500
0.117188 0.000000 0.618500
0.203369 0.000000 0.618500
0.321289 0.000000 0.618500
0.457642 0.000000 0.618500
0.595551 0.000000 0.618500
0.731476 0.000000 0.618500
0.866058 0.000000 0.618500
1.000000 0.000000 0.618500
0.000000 0.086365 0.618500
0.117188 0.086365 0.618500
0.203369 0.086365 0.618500
0.321289 0.086365 0.618500
0.457642 0.086365 0.618500
0.595551 0.086365 0.618500
0.731476 0.086365 0.618500
0.866058 0.086365 0.618500
1.000000 0.086365 0.618500
0.000000 0.188934 0.618500
0.117188 0.188934 0.618500
0.203369 0.188934 0.618500
0.321289 0.188934 0.618500
0.457642 0.188934 0.618500
0.595551 0.188934 0.618500
0.731476 0.188934 0.618500
0.866058 0.188934 0.618500
1.000000 0.188934 0.618500
0.000000 0.317291 0.618500
0.117188 0.317291 0.618500
0.203369 0.317291 0.618500
0.321289 0.317291 0.618500
0.457642 0.317291 0.618500
0.595551 0.317291 0.618500
0.731476 0.317291 0.618500
0.866058 0.317291 0.618500
1.000000 0.317291 0.618500
0.000000 0.451874 0.618500
0.117188 0.451874 0.618500
0.203369 0.451874 0.618500
0.321289 0.451874 0.618500
0.457642 0.451874 0.618500
0.595551 0.451874 0.618500
0.731476 0.451874 0.618500
0.866058 0.451874 0.618500
1.000000 0.451874 0.618500
0.000000 0.588013 0.618500
0.117188 0.588013 0.618500
0.203369 0.588013 0.618500
0.321289 0.588013 0.618500
0.457642 0.588013 0.618500
0.595551 0.588013 0.618500
0.731476 0.588013 0.618500
0.866058 0.588013 0.618500
1.000000 0.588013 0.618500
0.000000 0.724915 0.618500
0.117188 0.724915 0.618500
0.203369 0.724915 0.618500
0.321289 0.724915 0.618500
0.457642 0.724915 0.618500
0.595551 0.724915 0.618500
0.731476 0.724915 0.618500
0.866058 0.724915 0.618500
1.000000 0.724915 0.618500
0.000000 0.862305 0.618500
0.117188 0.862305 0.618500
0.203369 0.862305 0.618500
0.321289 0.862305 0.618500
0.457642 0.862305 0.618500
0.595551 0.862305 0.618500
0.731476 0.862305 0.618500
0.866058 0.862305 0.618500
1.000000 0.862305 0.618500
0.000000 1.000000 0.618500
0.117188 1.000000 0.618500
0.203369 1.000000 0.618500
0.321289 1.000000 0.618500
0.457642 1.000000 0.618500
0.595551 1.000000 0.618500
0.731476 1.000000 0.618500
0.866058 1.000000 0.618500
1.000000 1.000000 0.618500
0.000000 0.000000 0.742126
0.117188 0.000000 0.742126
0.203369 0.000000 0.742126
0.321289 0.000000 0.742126
0.457642 0.000000 0.742126
0.595551 0.000000 0.742126
0.731476 0.000000 0.742126
0.866058 0.000000 0.742126
1.000000 0.000000 0.742126
0.000000 0.086365 0.742126
0.117188 0.086365 0.742126
0.203369 0.086365 0.742126
0.321289 0.086365 0.742126
0.457642 0.086365 0.742126
0.595551 0.086365 0.742126
0.731476 0.086365 0.742126
0.866058 0.086365 0.742126
1.000000 0.086365 0.742126
0.000000 0.188934 0.742126
0.117188 0.188934 0.742126
0.203369 0.188934 0.742126
0.321289 0.188934 0.742126
0.457642 0.188934 0.742126
0.595551 0.188934 0.742126
0.731476 0.188934 0.742126
0.866058 0.188934 0.742126
1.000000 0.188934 0.742126
0.000000 0.317291 0.742126
0.117188 0.317291 0.742126
0.203369 0.317291 0.742126
0.321289 0.317291 0.742126
0.457642 0.317291 0.742126
0.595551 0.317291 0.742126
0.731476 0.317291 0.742126
0.866058 0.317291 0.742126
1.000000 0.317291 0.742126
0.000000 0.451874 0.742126
0.117188 0.451874 0.742126
0.203369 0.451874 0.742126
0.321289 0.451874 0.742126
0.457642 0.451874 0.742126
0.595551 0.451874 0.742126
0.731476 0.451874 0.742126
0.866058 0.451874 0.742126
1.000000 0.451874 0.742126
0.000000 0.588013 0.742126
0.117188 0.588013 0.742126
0.203369 0.588013 0.742126
0.321289 0.588013 0.742126
0.457642 0.588013 0.742126
0.595551 0.588013 0.742126
0.731476 0.588013 0.742126
0.866058 0.588013 0.742126
1.000000 0.588013 0.742126
0.000000 0.724915 0.742126
0.117188 0.724915 0.742126
0.203369 0.724915 0.742126
0.321289 0.724915 0.742126
0.457642 0.724915 0.742126
0.595551 0.724915 0.742126
0.731476 0.724915 0.742126
0.866058 0.724915 0.742126
1.000000 0.724915 0.742126
0.000000 0.862305 0.742126
0.117188 0.862305 0.742126
0.203369 0.862305 0.742126
0.321289 0.862305 0.742126
0.457642 0.862305 0.742126
0.595551 0.862305 0.742126
0.731476 0.862305 0.742126
0.866058 0.862305 0.742126
1.000000 0.862305 0.742126
0.000000 1.000000 0.742126
0.117188 1.000000 0.742126
0.203369 1.000000 0.742126
0.321289 1.000000 0.742126
0.457642 1.000000 0.742126
0.595551 1.000000 0.742126
0.731476 1.000000 0.742126
0.866058 1.000000 0.742126
1.000000 1.000000 0.742126
0.000000 0.000000 0.869995
0.117188 0.000000 0.869995
0.203369 0.000000 0.869995
0.321289 0.000000 0.869995
0.457642 0.000000 0.869995
0.595551 0.000000 0.869995
0.731476 0.000000 0.869995
0.866058 0.000000 0.869995
1.000000 0.000000 0.869995
0.000000 0.086365 0.869995
0.117188 0.086365 0.869995
0.203369 0.086365 0.869995
0.321289 0.086365 0.869995
0.457642 0.086365 0.869995
0.595551 0.086365 0.869995
0.731476 0.086365 0.869995
0.866058 0.086365 0.869995
1.000000 0.086365 0.869995
0.000000 0.188934 0.869995
0.117188 0.188934 0.869995
0.203369 0.188934 0.869995
0.321289 0.188934 0.869995
0.457642 0.188934 0.869995
0.595551 0.188934 0.869995
0.731476 0.188934 0.869995
0.866058 0.188934 0.869995
1.000000 0.188934 0.869995
0.000000 0.317291 0.869995
0.117188 0.317291 0.869995
0.203369 0.317291 0.869995
0.321289 0.317291 0.869995
0.457642 0.317291 0.869995
0.595551 0.317291 0.869995
0.731476 0.317291 0.869995
0.866058 0.317291 0.869995
1.000000 0.317291 0.869995
0.000000 0.451874 0.869995
0.117188 0.451874 0.869995
0.203369 0.451874 0.869995
0.321289 0.451874 0.869995
0.457642 0.451874 0.869995
0.595551 0.451874 0.869995
0.731476 0.451874 0.869995
0.866058 0.451874 0.869995
1.000000 0.451874 0.869995
0.000000 0.588013 0.869995
0.117188 0.588013 0.869995
0.203369 0.588013 0.869995
0.321289 0.588013 0.869995
0.457642 0.588013 0.869995
0.595551 0.588013 0.869995
0.731476 0.588013 0.869995
0.866058 0.588013 0.869995
1.000000 0.588013 0.869995
0.000000 0.724915 0.869995
0.117188 0.724915 0.869995
0.203369 0.724915 0.869995
0.321289 0.724915 0.869995
0.457642 0.724915 0.869995
0.595551 0.724915 0.869995
0.731476 0.724915 0.869995
0.866058 0.724915 0.869995
1.000000 0.724915 0.869995
0.000000 0.862305 0.869995
0.117188 0.862305 0.869995
0.203369 0.862305 0.869995
0.321289 0.862305 0.869995
0.457642 0.862305 0.869995
0.595551 0.862305 0.869995
0.731476 0.862305 0.869995
0.866058 0.862305 0.869995
1.000000 0.862305 0.869995
0.000000 1.000000 0.869995
0.117188 1.000000 0.869995
0.203369 1.000000 0.869995
0.321289 1.000000 0.869995
0.457642 1.000000 0.869995
0.595551 1.000000 0.869995
0.731476 1.000000 0.869995
0.866058 1.000000 0.869995
1.000000 1.000000 0.869995
0.000000 0.000000 1.000000
0.117188 0.000000 1.000000
0.203369 0.000000 1.000000
0.321289 0.000000 1.000000
0.457642 0.000000 1.000000
0.595551 0.000000 1.000000
0.731476 0.000000 1.000000
0.866058 0.000000 1.000000
1.000000 0.000000 1.000000
0.000000 0.086365 1.000000
0.117188 0.086365 1.000000
0.203369 0.086365 1.000000
0.321289 0.086365 1.000000
0.457642 0.086365 1.000000
0.595551 0.086365 1.000000
0.731476 0.086365 1.000000
0.866058 0.086365 1.000000
1.000000 0.086365 1.000000
0.000000 0.188934 1.000000
0.117188 0.188934 1.000000
0.203369 0.188934 1.000000
0.321289 0.188934 1.000000
0.457642 0.188934 1.000000
0.595551 0.188934 1.000000
0.731476 0.188934 1.000000
0.866058 0.188934 1.000000
1.000000 0.188934 1.000000
0.000000 0.317291 1.000000
0.117188 0.317291 1.000000
0.203369 0.317291 1.000000
0.321289 0.317291 1.000000
0.457642 0.317291 1.000000
0.595551 0.317291 1.000000
0.731476 0.317291 1.000000
0.866058 0.317291 1.000000
1.000000 0.317291 1.000000
0.000000 0.451874 1.000000
0.117188 0.451874 1.000000
0.203369 0.451874 1.000000
0.321289 0.451874 1.000000
0.457642 0.451874 1.000000
0.595551 0.451874 1.000000
0.731476 0.451874 1.000000
0.866058 0.451874 1.000000
1.000000 0.451874 1.000000
0.000000 0.588013 1.000000
0.117188 0.588013 1.000000
0.203369 0.588013 1.000000
0.321289 0.588013 1.000000
0.457642 0.588013 1.000000
0.595551 0.588013 1.000000
0.731476 0.588013 1.000000
0.866058 0.588013 1.000000
1.000000 0.588013 1.000000
0.000000 0.724915 1.000000
0.117188 0.724915 1.000000
0.203369 0.724915 1.000000
0.321289 0.724915 1.000000
0.457642 0.724915 1.000000
0.595551 0.724915 1.000000
0.731476 0.724915 1.000000
0.866058 0.724915 1.000000
1.000000 0.724915 1.000000
0.000000 0.862305 1.000000
0.117188 0.862305 1.000000
0.203369 0.862305 1.000000
0.321289 0.862305 1.000000
0.457642 0.862305 1.000000
0.595551 0.862305 1.000000
0.731476 0.862305 1.000000
0.866058 0.862305 1.000000
1.000000 0.862305 1.000000
0.000000 1.000000 1.000000
0.117188 1.000000 1.000000
0.203369 1.000000 1.000000
0.321289 1.000000 1.000000
0.457642 1.000000 1.000000
0.595551 1.000000 1.000000
0.731476 1.000000 1.000000
0.866058 1.000000 1.000000
1.000000 1.000000 1.000000
