滤镜资源/Lutify.me Free 3D LUTs Package/3D LUTs/Color Grading LUTs/Standard (Rec709 and DCI P3) LUTs/Hackmanite - Rec709.cube
# Created by: Lutify.me
# Copyright: (c) Copyright Lutify.me 2016, G.T. Colord LTD
# Website: https://lutify.me
# Contact: help@lutify.me
LUT_3D_SIZE 33
0.000000 0.000000 0.000000
0.033142 0.000000 0.000000
0.064728 0.000000 0.000000
0.093201 0.000000 0.000000
0.117188 0.000000 0.000000
0.137634 0.000000 0.000000
0.157379 0.000000 0.000000
0.179047 0.000000 0.000000
0.203369 0.000000 0.000000
0.230072 0.000000 0.000000
0.258820 0.000000 0.000000
0.289337 0.000000 0.000000
0.321289 0.000000 0.000000
0.354431 0.000000 0.000000
0.388397 0.000000 0.000000
0.422913 0.000000 0.000000
0.457642 0.000000 0.000000
0.492340 0.000000 0.000000
0.526886 0.000000 0.000000
0.561310 0.000000 0.000000
0.595551 0.000000 0.000000
0.629700 0.000000 0.000000
0.663727 0.000000 0.000000
0.697632 0.000000 0.000000
0.731476 0.000000 0.000000
0.765228 0.000000 0.000000
0.798889 0.000000 0.000000
0.832489 0.000000 0.000000
0.866058 0.000000 0.000000
0.899597 0.000000 0.000000
0.933075 0.000000 0.000000
0.966553 0.000000 0.000000
1.000000 0.000000 0.000000
0.000000 0.021088 0.000000
0.033142 0.021088 0.000000
0.064728 0.021088 0.000000
0.093201 0.021088 0.000000
0.117188 0.021088 0.000000
0.137634 0.021088 0.000000
0.157379 0.021088 0.000000
0.179047 0.021088 0.000000
0.203369 0.021088 0.000000
0.230072 0.021088 0.000000
0.258820 0.021088 0.000000
0.289337 0.021088 0.000000
0.321289 0.021088 0.000000
0.354431 0.021088 0.000000
0.388397 0.021088 0.000000
0.422913 0.021088 0.000000
0.457642 0.021088 0.000000
0.492340 0.021088 0.000000
0.526886 0.021088 0.000000
0.561310 0.021088 0.000000
0.595551 0.021088 0.000000
0.629700 0.021088 0.000000
0.663727 0.021088 0.000000
0.697632 0.021088 0.000000
0.731476 0.021088 0.000000
0.765228 0.021088 0.000000
0.798889 0.021088 0.000000
0.832489 0.021088 0.000000
0.866058 0.021088 0.000000
0.899597 0.021088 0.000000
0.933075 0.021088 0.000000
0.966553 0.021088 0.000000
1.000000 0.021088 0.000000
0.000000 0.042389 0.000000
0.033142 0.042389 0.000000
0.064728 0.042389 0.000000
0.093201 0.042389 0.000000
0.117188 0.042389 0.000000
0.137634 0.042389 0.000000
0.157379 0.042389 0.000000
0.179047 0.042389 0.000000
0.203369 0.042389 0.000000
0.230072 0.042389 0.000000
0.258820 0.042389 0.000000
0.289337 0.042389 0.000000
0.321289 0.042389 0.000000
0.354431 0.042389 0.000000
0.388397 0.042389 0.000000
0.422913 0.042389 0.000000
0.457642 0.042389 0.000000
0.492340 0.042389 0.000000
0.526886 0.042389 0.000000
0.561310 0.042389 0.000000
0.595551 0.042389 0.000000
0.629700 0.042389 0.000000
0.663727 0.042389 0.000000
0.697632 0.042389 0.000000
0.731476 0.042389 0.000000
0.765228 0.042389 0.000000
0.798889 0.042389 0.000000
0.832489 0.042389 0.000000
0.866058 0.042389 0.000000
0.899597 0.042389 0.000000
0.933075 0.042389 0.000000
0.966553 0.042389 0.000000
1.000000 0.042389 0.000000
0.000000 0.064087 0.000000
0.033142 0.064087 0.000000
0.064728 0.064087 0.000000
0.093201 0.064087 0.000000
0.117188 0.064087 0.000000
0.137634 0.064087 0.000000
0.157379 0.064087 0.000000
0.179047 0.064087 0.000000
0.203369 0.064087 0.000000
0.230072 0.064087 0.000000
0.258820 0.064087 0.000000
0.289337 0.064087 0.000000
0.321289 0.064087 0.000000
0.354431 0.064087 0.000000
0.388397 0.064087 0.000000
0.422913 0.064087 0.000000
0.457642 0.064087 0.000000
0.492340 0.064087 0.000000
0.526886 0.064087 0.000000
0.561310 0.064087 0.000000
0.595551 0.064087 0.000000
0.629700 0.064087 0.000000
0.663727 0.064087 0.000000
0.697632 0.064087 0.000000
0.731476 0.064087 0.000000
0.765228 0.064087 0.000000
0.798889 0.064087 0.000000
0.832489 0.064087 0.000000
0.866058 0.064087 0.000000
0.899597 0.064087 0.000000
0.933075 0.064087 0.000000
0.966553 0.064087 0.000000
1.000000 0.064087 0.000000
0.000000 0.086365 0.000000
0.033142 0.086365 0.000000
0.064728 0.086365 0.000000
0.093201 0.086365 0.000000
0.117188 0.086365 0.000000
0.137634 0.086365 0.000000
0.157379 0.086365 0.000000
0.179047 0.086365 0.000000
0.203369 0.086365 0.000000
0.230072 0.086365 0.000000
0.258820 0.086365 0.000000
0.289337 0.086365 0.000000
0.321289 0.086365 0.000000
0.354431 0.086365 0.000000
0.388397 0.086365 0.000000
0.422913 0.086365 0.000000
0.457642 0.086365 0.000000
0.492340 0.086365 0.000000
0.526886 0.086365 0.000000
0.561310 0.086365 0.000000
0.595551 0.086365 0.000000
0.629700 0.086365 0.000000
0.663727 0.086365 0.000000
0.697632 0.086365 0.000000
0.731476 0.086365 0.000000
0.765228 0.086365 0.000000
0.798889 0.086365 0.000000
0.832489 0.086365 0.000000
0.866058 0.086365 0.000000
0.899597 0.086365 0.000000
0.933075 0.086365 0.000000
0.966553 0.086365 0.000000
1.000000 0.086365 0.000000
0.000000 0.109436 0.000000
0.033142 0.109436 0.000000
0.064728 0.109436 0.000000
0.093201 0.109436 0.000000
0.117188 0.109436 0.000000
0.137634 0.109436 0.000000
0.157379 0.109436 0.000000
0.179047 0.109436 0.000000
0.203369 0.109436 0.000000
0.230072 0.109436 0.000000
0.258820 0.109436 0.000000
0.289337 0.109436 0.000000
0.321289 0.109436 0.000000
0.354431 0.109436 0.000000
0.388397 0.109436 0.000000
0.422913 0.109436 0.000000
0.457642 0.109436 0.000000
0.492340 0.109436 0.000000
0.526886 0.109436 0.000000
0.561310 0.109436 0.000000
0.595551 0.109436 0.000000
0.629700 0.109436 0.000000
0.663727 0.109436 0.000000
0.697632 0.109436 0.000000
0.731476 0.109436 0.000000
0.765228 0.109436 0.000000
0.798889 0.109436 0.000000
0.832489 0.109436 0.000000
0.866058 0.109436 0.000000
0.899597 0.109436 0.000000
0.933075 0.109436 0.000000
0.966553 0.109436 0.000000
1.000000 0.109436 0.000000
0.000000 0.133759 0.000000
0.033142 0.133759 0.000000
0.064728 0.133759 0.000000
0.093201 0.133759 0.000000
0.117188 0.133759 0.000000
0.137634 0.133759 0.000000
0.157379 0.133759 0.000000
0.179047 0.133759 0.000000
0.203369 0.133759 0.000000
0.230072 0.133759 0.000000
0.258820 0.133759 0.000000
0.289337 0.133759 0.000000
0.321289 0.133759 0.000000
0.354431 0.133759 0.000000
0.388397 0.133759 0.000000
0.422913 0.133759 0.000000
0.457642 0.133759 0.000000
0.492340 0.133759 0.000000
0.526886 0.133759 0.000000
0.561310 0.133759 0.000000
0.595551 0.133759 0.000000
0.629700 0.133759 0.000000
0.663727 0.133759 0.000000
0.697632 0.133759 0.000000
0.731476 0.133759 0.000000
0.765228 0.133759 0.000000
0.798889 0.133759 0.000000
0.832489 0.133759 0.000000
0.866058 0.133759 0.000000
0.899597 0.133759 0.000000
0.933075 0.133759 0.000000
0.966553 0.133759 0.000000
1.000000 0.133759 0.000000
0.000000 0.160126 0.000000
0.033142 0.160126 0.000000
0.064728 0.160126 0.000000
0.093201 0.160126 0.000000
0.117188 0.160126 0.000000
0.137634 0.160126 0.000000
0.157379 0.160126 0.000000
0.179047 0.160126 0.000000
0.203369 0.160126 0.000000
0.230072 0.160126 0.000000
0.258820 0.160126 0.000000
0.289337 0.160126 0.000000
0.321289 0.160126 0.000000
0.354431 0.160126 0.000000
0.388397 0.160126 0.000000
0.422913 0.160126 0.000000
0.457642 0.160126 0.000000
0.492340 0.160126 0.000000
0.526886 0.160126 0.000000
0.561310 0.160126 0.000000
0.595551 0.160126 0.000000
0.629700 0.160126 0.000000
0.663727 0.160126 0.000000
0.697632 0.160126 0.000000
0.731476 0.160126 0.000000
0.765228 0.160126 0.000000
0.798889 0.160126 0.000000
0.832489 0.160126 0.000000
0.866058 0.160126 0.000000
0.899597 0.160126 0.000000
0.933075 0.160126 0.000000
0.966553 0.160126 0.000000
1.000000 0.160126 0.000000
0.000000 0.188934 0.000000
0.033142 0.188934 0.000000
0.064728 0.188934 0.000000
0.093201 0.188934 0.000000
0.117188 0.188934 0.000000
0.137634 0.188934 0.000000
0.157379 0.188934 0.000000
0.179047 0.188934 0.000000
0.203369 0.188934 0.000000
0.230072 0.188934 0.000000
0.258820 0.188934 0.000000
0.289337 0.188934 0.000000
0.321289 0.188934 0.000000
0.354431 0.188934 0.000000
0.388397 0.188934 0.000000
0.422913 0.188934 0.000000
0.457642 0.188934 0.000000
0.492340 0.188934 0.000000
0.526886 0.188934 0.000000
0.561310 0.188934 0.000000
0.595551 0.188934 0.000000
0.629700 0.188934 0.000000
0.663727 0.188934 0.000000
0.697632 0.188934 0.000000
0.731476 0.188934 0.000000
0.765228 0.188934 0.000000
0.798889 0.188934 0.000000
0.832489 0.188934 0.000000
0.866058 0.188934 0.000000
0.899597 0.188934 0.000000
0.933075 0.188934 0.000000
0.966553 0.188934 0.000000
1.000000 0.188934 0.000000
0.000000 0.219635 0.000000
0.033142 0.219635 0.000000
0.064728 0.219635 0.000000
0.093201 0.219635 0.000000
0.117188 0.219635 0.000000
0.137634 0.219635 0.000000
0.157379 0.219635 0.000000
0.179047 0.219635 0.000000
0.203369 0.219635 0.000000
0.230072 0.219635 0.000000
0.258820 0.219635 0.000000
0.289337 0.219635 0.000000
0.321289 0.219635 0.000000
0.354431 0.219635 0.000000
0.388397 0.219635 0.000000
0.422913 0.219635 0.000000
0.457642 0.219635 0.000000
0.492340 0.219635 0.000000
0.526886 0.219635 0.000000
0.561310 0.219635 0.000000
0.595551 0.219635 0.000000
0.629700 0.219635 0.000000
0.663727 0.219635 0.000000
0.697632 0.219635 0.000000
0.731476 0.219635 0.000000
0.765228 0.219635 0.000000
0.798889 0.219635 0.000000
0.832489 0.219635 0.000000
0.866058 0.219635 0.000000
0.899597 0.219635 0.000000
0.933075 0.219635 0.000000
0.966553 0.219635 0.000000
1.000000 0.219635 0.000000
0.000000 0.251587 0.000000
0.033142 0.251587 0.000000
0.064728 0.251587 0.000000
0.093201 0.251587 0.000000
0.117188 0.251587 0.000000
0.137634 0.251587 0.000000
0.157379 0.251587 0.000000
0.179047 0.251587 0.000000
0.203369 0.251587 0.000000
0.230072 0.251587 0.000000
0.258820 0.251587 0.000000
0.289337 0.251587 0.000000
0.321289 0.251587 0.000000
0.354431 0.251587 0.000000
0.388397 0.251587 0.000000
0.422913 0.251587 0.000000
0.457642 0.251587 0.000000
0.492340 0.251587 0.000000
0.526886 0.251587 0.000000
0.561310 0.251587 0.000000
0.595551 0.251587 0.000000
0.629700 0.251587 0.000000
0.663727 0.251587 0.000000
0.697632 0.251587 0.000000
0.731476 0.251587 0.000000
0.765228 0.251587 0.000000
0.798889 0.251587 0.000000
0.832489 0.251587 0.000000
0.866058 0.251587 0.000000
0.899597 0.251587 0.000000
0.933075 0.251587 0.000000
0.966553 0.251587 0.000000
1.000000 0.251587 0.000000
0.000000 0.284241 0.000000
0.033142 0.284241 0.000000
0.064728 0.284241 0.000000
0.093201 0.284241 0.000000
0.117188 0.284241 0.000000
0.137634 0.284241 0.000000
0.157379 0.284241 0.000000
0.179047 0.284241 0.000000
0.203369 0.284241 0.000000
0.230072 0.284241 0.000000
0.258820 0.284241 0.000000
0.289337 0.284241 0.000000
0.321289 0.284241 0.000000
0.354431 0.284241 0.000000
0.388397 0.284241 0.000000
0.422913 0.284241 0.000000
0.457642 0.284241 0.000000
0.492340 0.284241 0.000000
0.526886 0.284241 0.000000
0.561310 0.284241 0.000000
0.595551 0.284241 0.000000
0.629700 0.284241 0.000000
0.663727 0.284241 0.000000
0.697632 0.284241 0.000000
0.731476 0.284241 0.000000
0.765228 0.284241 0.000000
0.798889 0.284241 0.000000
0.832489 0.284241 0.000000
0.866058 0.284241 0.000000
0.899597 0.284241 0.000000
0.933075 0.284241 0.000000
0.966553 0.284241 0.000000
1.000000 0.284241 0.000000
0.000000 0.317291 0.000000
0.033142 0.317291 0.000000
0.064728 0.317291 0.000000
0.093201 0.317291 0.000000
0.117188 0.317291 0.000000
0.137634 0.317291 0.000000
0.157379 0.317291 0.000000
0.179047 0.317291 0.000000
0.203369 0.317291 0.000000
0.230072 0.317291 0.000000
0.258820 0.317291 0.000000
0.289337 0.317291 0.000000
0.321289 0.317291 0.000000
0.354431 0.317291 0.000000
0.388397 0.317291 0.000000
0.422913 0.317291 0.000000
0.457642 0.317291 0.000000
0.492340 0.317291 0.000000
0.526886 0.317291 0.000000
0.561310 0.317291 0.000000
0.595551 0.317291 0.000000
0.629700 0.317291 0.000000
0.663727 0.317291 0.000000
0.697632 0.317291 0.000000
0.731476 0.317291 0.000000
0.765228 0.317291 0.000000
0.798889 0.317291 0.000000
0.832489 0.317291 0.000000
0.866058 0.317291 0.000000
0.899597 0.317291 0.000000
0.933075 0.317291 0.000000
0.966553 0.317291 0.000000
1.000000 0.317291 0.000000
0.000000 0.350647 0.000000
0.033142 0.350647 0.000000
0.064728 0.350647 0.000000
0.093201 0.350647 0.000000
0.117188 0.350647 0.000000
0.137634 0.350647 0.000000
0.157379 0.350647 0.000000
0.179047 0.350647 0.000000
0.203369 0.350647 0.000000
0.230072 0.350647 0.000000
0.258820 0.350647 0.000000
0.289337 0.350647 0.000000
0.321289 0.350647 0.000000
0.354431 0.350647 0.000000
0.388397 0.350647 0.000000
0.422913 0.350647 0.000000
0.457642 0.350647 0.000000
0.492340 0.350647 0.000000
0.526886 0.350647 0.000000
0.561310 0.350647 0.000000
0.595551 0.350647 0.000000
0.629700 0.350647 0.000000
0.663727 0.350647 0.000000
0.697632 0.350647 0.000000
0.731476 0.350647 0.000000
0.765228 0.350647 0.000000
0.798889 0.350647 0.000000
0.832489 0.350647 0.000000
0.866058 0.350647 0.000000
0.899597 0.350647 0.000000
0.933075 0.350647 0.000000
0.966553 0.350647 0.000000
1.000000 0.350647 0.000000
0.000000 0.384247 0.000000
0.033142 0.384247 0.000000
0.064728 0.384247 0.000000
0.093201 0.384247 0.000000
0.117188 0.384247 0.000000
0.137634 0.384247 0.000000
0.157379 0.384247 0.000000
0.179047 0.384247 0.000000
0.203369 0.384247 0.000000
0.230072 0.384247 0.000000
0.258820 0.384247 0.000000
0.289337 0.384247 0.000000
0.321289 0.384247 0.000000
0.354431 0.384247 0.000000
0.388397 0.384247 0.000000
0.422913 0.384247 0.000000
0.457642 0.384247 0.000000
0.492340 0.384247 0.000000
0.526886 0.384247 0.000000
0.561310 0.384247 0.000000
0.595551 0.384247 0.000000
0.629700 0.384247 0.000000
0.663727 0.384247 0.000000
0.697632 0.384247 0.000000
0.731476 0.384247 0.000000
0.765228 0.384247 0.000000
0.798889 0.384247 0.000000
0.832489 0.384247 0.000000
0.866058 0.384247 0.000000
0.899597 0.384247 0.000000
0.933075 0.384247 0.000000
0.966553 0.384247 0.000000
1.000000 0.384247 0.000000
0.000000 0.418030 0.000000
0.033142 0.418030 0.000000
0.064728 0.418030 0.000000
0.093201 0.418030 0.000000
0.117188 0.418030 0.000000
0.137634 0.418030 0.000000
0.157379 0.418030 0.000000
0.179047 0.418030 0.000000
0.203369 0.418030 0.000000
0.230072 0.418030 0.000000
0.258820 0.418030 0.000000
0.289337 0.418030 0.000000
0.321289 0.418030 0.000000
0.354431 0.418030 0.000000
0.388397 0.418030 0.000000
0.422913 0.418030 0.000000
0.457642 0.418030 0.000000
0.492340 0.418030 0.000000
0.526886 0.418030 0.000000
0.561310 0.418030 0.000000
0.595551 0.418030 0.000000
0.629700 0.418030 0.000000
0.663727 0.418030 0.000000
0.697632 0.418030 0.000000
0.731476 0.418030 0.000000
0.765228 0.418030 0.000000
0.798889 0.418030 0.000000
0.832489 0.418030 0.000000
0.866058 0.418030 0.000000
0.899597 0.418030 0.000000
0.933075 0.418030 0.000000
0.966553 0.418030 0.000000
1.000000 0.418030 0.000000
0.000000 0.451874 0.000000
0.033142 0.451874 0.000000
0.064728 0.451874 0.000000
0.093201 0.451874 0.000000
0.117188 0.451874 0.000000
0.137634 0.451874 0.000000
0.157379 0.451874 0.000000
0.179047 0.451874 0.000000
0.203369 0.451874 0.000000
0.230072 0.451874 0.000000
0.258820 0.451874 0.000000
0.289337 0.451874 0.000000
0.321289 0.451874 0.000000
0.354431 0.451874 0.000000
0.388397 0.451874 0.000000
0.422913 0.451874 0.000000
0.457642 0.451874 0.000000
0.492340 0.451874 0.000000
0.526886 0.451874 0.000000
0.561310 0.451874 0.000000
0.595551 0.451874 0.000000
0.629700 0.451874 0.000000
0.663727 0.451874 0.000000
0.697632 0.451874 0.000000
0.731476 0.451874 0.000000
0.765228 0.451874 0.000000
0.798889 0.451874 0.000000
0.832489 0.451874 0.000000
0.866058 0.451874 0.000000
0.899597 0.451874 0.000000
0.933075 0.451874 0.000000
0.966553 0.451874 0.000000
1.000000 0.451874 0.000000
0.000000 0.485840 0.000000
0.033142 0.485840 0.000000
0.064728 0.485840 0.000000
0.093201 0.485840 0.000000
0.117188 0.485840 0.000000
0.137634 0.485840 0.000000
0.157379 0.485840 0.000000
0.179047 0.485840 0.000000
0.203369 0.485840 0.000000
0.230072 0.485840 0.000000
0.258820 0.485840 0.000000
0.289337 0.485840 0.000000
0.321289 0.485840 0.000000
0.354431 0.485840 0.000000
0.388397 0.485840 0.000000
0.422913 0.485840 0.000000
0.457642 0.485840 0.000000
0.492340 0.485840 0.000000
0.526886 0.485840 0.000000
0.561310 0.485840 0.000000
0.595551 0.485840 0.000000
0.629700 0.485840 0.000000
0.663727 0.485840 0.000000
0.697632 0.485840 0.000000
0.731476 0.485840 0.000000
0.765228 0.485840 0.000000
0.798889 0.485840 0.000000
0.832489 0.485840 0.000000
0.866058 0.485840 0.000000
0.899597 0.485840 0.000000
0.933075 0.485840 0.000000
0.966553 0.485840 0.000000
1.000000 0.485840 0.000000
0.000000 0.519836 0.000000
0.033142 0.519836 0.000000
0.064728 0.519836 0.000000
0.093201 0.519836 0.000000
0.117188 0.519836 0.000000
0.137634 0.519836 0.000000
0.157379 0.519836 0.000000
0.179047 0.519836 0.000000
0.203369 0.519836 0.000000
0.230072 0.519836 0.000000
0.258820 0.519836 0.000000
0.289337 0.519836 0.000000
0.321289 0.519836 0.000000
0.354431 0.519836 0.000000
0.388397 0.519836 0.000000
0.422913 0.519836 0.000000
0.457642 0.519836 0.000000
0.492340 0.519836 0.000000
0.526886 0.519836 0.000000
0.561310 0.519836 0.000000
0.595551 0.519836 0.000000
0.629700 0.519836 0.000000
0.663727 0.519836 0.000000
0.697632 0.519836 0.000000
0.731476 0.519836 0.000000
0.765228 0.519836 0.000000
0.798889 0.519836 0.000000
0.832489 0.519836 0.000000
0.866058 0.519836 0.000000
0.899597 0.519836 0.000000
0.933075 0.519836 0.000000
0.966553 0.519836 0.000000
1.000000 0.519836 0.000000
0.000000 0.553894 0.000000
0.033142 0.553894 0.000000
0.064728 0.553894 0.000000
0.093201 0.553894 0.000000
0.117188 0.553894 0.000000
0.137634 0.553894 0.000000
0.157379 0.553894 0.000000
0.179047 0.553894 0.000000
0.203369 0.553894 0.000000
0.230072 0.553894 0.000000
0.258820 0.553894 0.000000
0.289337 0.553894 0.000000
0.321289 0.553894 0.000000
0.354431 0.553894 0.000000
0.388397 0.553894 0.000000
0.422913 0.553894 0.000000
0.457642 0.553894 0.000000
0.492340 0.553894 0.000000
0.526886 0.553894 0.000000
0.561310 0.553894 0.000000
0.595551 0.553894 0.000000
0.629700 0.553894 0.000000
0.663727 0.553894 0.000000
0.697632 0.553894 0.000000
0.731476 0.553894 0.000000
0.765228 0.553894 0.000000
0.798889 0.553894 0.000000
0.832489 0.553894 0.000000
0.866058 0.553894 0.000000
0.899597 0.553894 0.000000
0.933075 0.553894 0.000000
0.966553 0.553894 0.000000
1.000000 0.553894 0.000000
0.000000 0.588013 0.000000
0.033142 0.588013 0.000000
0.064728 0.588013 0.000000
0.093201 0.588013 0.000000
0.117188 0.588013 0.000000
0.137634 0.588013 0.000000
0.157379 0.588013 0.000000
0.179047 0.588013 0.000000
0.203369 0.588013 0.000000
0.230072 0.588013 0.000000
0.258820 0.588013 0.000000
0.289337 0.588013 0.000000
0.321289 0.588013 0.000000
0.354431 0.588013 0.000000
0.388397 0.588013 0.000000
0.422913 0.588013 0.000000
0.457642 0.588013 0.000000
0.492340 0.588013 0.000000
0.526886 0.588013 0.000000
0.561310 0.588013 0.000000
0.595551 0.588013 0.000000
0.629700 0.588013 0.000000
0.663727 0.588013 0.000000
0.697632 0.588013 0.000000
0.731476 0.588013 0.000000
0.765228 0.588013 0.000000
0.798889 0.588013 0.000000
0.832489 0.588013 0.000000
0.866058 0.588013 0.000000
0.899597 0.588013 0.000000
0.933075 0.588013 0.000000
0.966553 0.588013 0.000000
1.000000 0.588013 0.000000
0.000000 0.622162 0.000000
0.033142 0.622162 0.000000
0.064728 0.622162 0.000000
0.093201 0.622162 0.000000
0.117188 0.622162 0.000000
0.137634 0.622162 0.000000
0.157379 0.622162 0.000000
0.179047 0.622162 0.000000
0.203369 0.622162 0.000000
0.230072 0.622162 0.000000
0.258820 0.622162 0.000000
0.289337 0.622162 0.000000
0.321289 0.622162 0.000000
0.354431 0.622162 0.000000
0.388397 0.622162 0.000000
0.422913 0.622162 0.000000
0.457642 0.622162 0.000000
0.492340 0.622162 0.000000
0.526886 0.622162 0.000000
0.561310 0.622162 0.000000
0.595551 0.622162 0.000000
0.629700 0.622162 0.000000
0.663727 0.622162 0.000000
0.697632 0.622162 0.000000
0.731476 0.622162 0.000000
0.765228 0.622162 0.000000
0.798889 0.622162 0.000000
0.832489 0.622162 0.000000
0.866058 0.622162 0.000000
0.899597 0.622162 0.000000
0.933075 0.622162 0.000000
0.966553 0.622162 0.000000
1.000000 0.622162 0.000000
0.000000 0.656372 0.000000
0.033142 0.656372 0.000000
0.064728 0.656372 0.000000
0.093201 0.656372 0.000000
0.117188 0.656372 0.000000
0.137634 0.656372 0.000000
0.157379 0.656372 0.000000
0.179047 0.656372 0.000000
0.203369 0.656372 0.000000
0.230072 0.656372 0.000000
0.258820 0.656372 0.000000
0.289337 0.656372 0.000000
0.321289 0.656372 0.000000
0.354431 0.656372 0.000000
0.388397 0.656372 0.000000
0.422913 0.656372 0.000000
0.457642 0.656372 0.000000
0.492340 0.656372 0.000000
0.526886 0.656372 0.000000
0.561310 0.656372 0.000000
0.595551 0.656372 0.000000
0.629700 0.656372 0.000000
0.663727 0.656372 0.000000
0.697632 0.656372 0.000000
0.731476 0.656372 0.000000
0.765228 0.656372 0.000000
0.798889 0.656372 0.000000
0.832489 0.656372 0.000000
0.866058 0.656372 0.000000
0.899597 0.656372 0.000000
0.933075 0.656372 0.000000
0.966553 0.656372 0.000000
1.000000 0.656372 0.000000
0.000000 0.690613 0.000000
0.033142 0.690613 0.000000
0.064728 0.690613 0.000000
0.093201 0.690613 0.000000
0.117188 0.690613 0.000000
0.137634 0.690613 0.000000
0.157379 0.690613 0.000000
0.179047 0.690613 0.000000
0.203369 0.690613 0.000000
0.230072 0.690613 0.000000
0.258820 0.690613 0.000000
0.289337 0.690613 0.000000
0.321289 0.690613 0.000000
0.354431 0.690613 0.000000
0.388397 0.690613 0.000000
0.422913 0.690613 0.000000
0.457642 0.690613 0.000000
0.492340 0.690613 0.000000
0.526886 0.690613 0.000000
0.561310 0.690613 0.000000
0.595551 0.690613 0.000000
0.629700 0.690613 0.000000
0.663727 0.690613 0.000000
0.697632 0.690613 0.000000
0.731476 0.690613 0.000000
0.765228 0.690613 0.000000
0.798889 0.690613 0.000000
0.832489 0.690613 0.000000
0.866058 0.690613 0.000000
0.899597 0.690613 0.000000
0.933075 0.690613 0.000000
0.966553 0.690613 0.000000
1.000000 0.690613 0.000000
0.000000 0.724915 0.000000
0.033142 0.724915 0.000000
0.064728 0.724915 0.000000
0.093201 0.724915 0.000000
0.117188 0.724915 0.000000
0.137634 0.724915 0.000000
0.157379 0.724915 0.000000
0.179047 0.724915 0.000000
0.203369 0.724915 0.000000
0.230072 0.724915 0.000000
0.258820 0.724915 0.000000
0.289337 0.724915 0.000000
0.321289 0.724915 0.000000
0.354431 0.724915 0.000000
0.388397 0.724915 0.000000
0.422913 0.724915 0.000000
0.457642 0.724915 0.000000
0.492340 0.724915 0.000000
0.526886 0.724915 0.000000
0.561310 0.724915 0.000000
0.595551 0.724915 0.000000
0.629700 0.724915 0.000000
0.663727 0.724915 0.000000
0.697632 0.724915 0.000000
0.731476 0.724915 0.000000
0.765228 0.724915 0.000000
0.798889 0.724915 0.000000
0.832489 0.724915 0.000000
0.866058 0.724915 0.000000
0.899597 0.724915 0.000000
0.933075 0.724915 0.000000
0.966553 0.724915 0.000000
1.000000 0.724915 0.000000
0.000000 0.759216 0.000000
0.033142 0.759216 0.000000
0.064728 0.759216 0.000000
0.093201 0.759216 0.000000
0.117188 0.759216 0.000000
0.137634 0.759216 0.000000
0.157379 0.759216 0.000000
0.179047 0.759216 0.000000
0.203369 0.759216 0.000000
0.230072 0.759216 0.000000
0.258820 0.759216 0.000000
0.289337 0.759216 0.000000
0.321289 0.759216 0.000000
0.354431 0.759216 0.000000
0.388397 0.759216 0.000000
0.422913 0.759216 0.000000
0.457642 0.759216 0.000000
0.492340 0.759216 0.000000
0.526886 0.759216 0.000000
0.561310 0.759216 0.000000
0.595551 0.759216 0.000000
0.629700 0.759216 0.000000
0.663727 0.759216 0.000000
0.697632 0.759216 0.000000
0.731476 0.759216 0.000000
0.765228 0.759216 0.000000
0.798889 0.759216 0.000000
0.832489 0.759216 0.000000
0.866058 0.759216 0.000000
0.899597 0.759216 0.000000
0.933075 0.759216 0.000000
0.966553 0.759216 0.000000
1.000000 0.759216 0.000000
0.000000 0.793549 0.000000
0.033142 0.793549 0.000000
0.064728 0.793549 0.000000
0.093201 0.793549 0.000000
0.117188 0.793549 0.000000
0.137634 0.793549 0.000000
0.157379 0.793549 0.000000
0.179047 0.793549 0.000000
0.203369 0.793549 0.000000
0.230072 0.793549 0.000000
0.258820 0.793549 0.000000
0.289337 0.793549 0.000000
0.321289 0.793549 0.000000
0.354431 0.793549 0.000000
0.388397 0.793549 0.000000
0.422913 0.793549 0.000000
0.457642 0.793549 0.000000
0.492340 0.793549 0.000000
0.526886 0.793549 0.000000
0.561310 0.793549 0.000000
0.595551 0.793549 0.000000
0.629700 0.793549 0.000000
0.663727 0.793549 0.000000
0.697632 0.793549 0.000000
0.731476 0.793549 0.000000
