滤镜资源/Lutify.me Free 3D LUTs Package/3D LUTs/Color Grading LUTs/Standard (Rec709 and DCI P3) LUTs/Hackmanite - Rec709.cube
# Created by: Lutify.me
# Copyright: (c) Copyright Lutify.me 2016, G.T. Colord LTD
# Website: https://lutify.me
# Contact: help@lutify.me
LUT_3D_SIZE 5
0.000000 0.000000 0.000000
0.203369 0.000000 0.000000
0.457642 0.000000 0.000000
0.731476 0.000000 0.000000
1.000000 0.000000 0.000000
0.000000 0.188934 0.000000
0.203369 0.188934 0.000000
0.457642 0.188934 0.000000
0.731476 0.188934 0.000000
1.000000 0.188934 0.000000
0.000000 0.451874 0.000000
0.203369 0.451874 0.000000
0.457642 0.451874 0.000000
0.731476 0.451874 0.000000
1.000000 0.451874 0.000000
0.000000 0.724915 0.000000
0.203369 0.724915 0.000000
0.457642 0.724915 0.000000
0.731476 0.724915 0.000000
1.000000 0.724915 0.000000
0.000000 1.000000 0.000000
0.203369 1.000000 0.000000
0.457642 1.000000 0.000000
0.731476 1.000000 0.000000
1.000000 1.000000 0.000000
0.000000 0.000000 0.294312
0.203369 0.000000 0.294312
0.457642 0.000000 0.294312
0.731476 0.000000 0.294312
1.000000 0.000000 0.294312
0.000000 0.188934 0.294312
0.203369 0.188934 0.294312
0.457642 0.188934 0.294312
0.731476 0.188934 0.294312
1.000000 0.188934 0.294312
0.000000 0.451874 0.294312
0.203369 0.451874 0.294312
0.457642 0.451874 0.294312
0.731476 0.451874 0.294312
1.000000 0.451874 0.294312
0.000000 0.724915 0.294312
0.203369 0.724915 0.294312
0.457642 0.724915 0.294312
0.731476 0.724915 0.294312
1.000000 0.724915 0.294312
0.000000 1.000000 0.294312
0.203369 1.000000 0.294312
0.457642 1.000000 0.294312
0.731476 1.000000 0.294312
1.000000 1.000000 0.294312
0.000000 0.000000 0.501221
0.203369 0.000000 0.501221
0.457642 0.000000 0.501221
0.731476 0.000000 0.501221
1.000000 0.000000 0.501221
0.000000 0.188934 0.501221
0.203369 0.188934 0.501221
0.457642 0.188934 0.501221
0.731476 0.188934 0.501221
1.000000 0.188934 0.501221
0.000000 0.451874 0.501221
0.203369 0.451874 0.501221
0.457642 0.451874 0.501221
0.731476 0.451874 0.501221
1.000000 0.451874 0.501221
0.000000 0.724915 0.501221
0.203369 0.724915 0.501221
0.457642 0.724915 0.501221
0.731476 0.724915 0.501221
1.000000 0.724915 0.501221
0.000000 1.000000 0.501221
0.203369 1.000000 0.501221
0.457642 1.000000 0.501221
0.731476 1.000000 0.501221
1.000000 1.000000 0.501221
0.000000 0.000000 0.742126
0.203369 0.000000 0.742126
0.457642 0.000000 0.742126
0.731476 0.000000 0.742126
1.000000 0.000000 0.742126
0.000000 0.188934 0.742126
0.203369 0.188934 0.742126
0.457642 0.188934 0.742126
0.731476 0.188934 0.742126
1.000000 0.188934 0.742126
0.000000 0.451874 0.742126
0.203369 0.451874 0.742126
0.457642 0.451874 0.742126
0.731476 0.451874 0.742126
1.000000 0.451874 0.742126
0.000000 0.724915 0.742126
0.203369 0.724915 0.742126
0.457642 0.724915 0.742126
0.731476 0.724915 0.742126
1.000000 0.724915 0.742126
0.000000 1.000000 0.742126
0.203369 1.000000 0.742126
0.457642 1.000000 0.742126
0.731476 1.000000 0.742126
1.000000 1.000000 0.742126
0.000000 0.000000 1.000000
0.203369 0.000000 1.000000
0.457642 0.000000 1.000000
0.731476 0.000000 1.000000
1.000000 0.000000 1.000000
0.000000 0.188934 1.000000
0.203369 0.188934 1.000000
0.457642 0.188934 1.000000
0.731476 0.188934 1.000000
1.000000 0.188934 1.000000
0.000000 0.451874 1.000000
0.203369 0.451874 1.000000
0.457642 0.451874 1.000000
0.731476 0.451874 1.000000
1.000000 0.451874 1.000000
0.000000 0.724915 1.000000
0.203369 0.724915 1.000000
0.457642 0.724915 1.000000
0.731476 0.724915 1.000000
1.000000 0.724915 1.000000
0.000000 1.000000 1.000000
0.203369 1.000000 1.000000
0.457642 1.000000 1.000000
0.731476 1.000000 1.000000
1.000000 1.000000 1.000000
