滤镜资源/Lutify.me Free 3D LUTs Package/3D LUTs/Color Grading LUTs/Standard (Rec709 and DCI P3) LUTs/Heulandite - Rec709.cube
# Created by: Lutify.me
# Copyright: (c) Copyright Lutify.me 2016, G.T. Colord LTD
# Website: https://lutify.me
# Contact: help@lutify.me
LUT_3D_SIZE 9
0.012207 0.008179 0.009064
0.111816 0.013672 0.000000
0.274872 0.023376 0.000031
0.413574 0.025635 0.000000
0.501495 0.026703 0.000000
0.563629 0.027924 0.000000
0.622040 0.030060 0.000000
0.675903 0.032501 0.000000
0.734650 0.037323 0.000031
0.039459 0.084198 0.038544
0.096069 0.069977 0.020966
0.206665 0.079926 0.000000
0.333984 0.095001 0.000031
0.434357 0.092590 0.000031
0.507355 0.083496 0.000031
0.560455 0.077881 0.000031
0.625641 0.076996 0.000000
0.681519 0.082397 0.000031
0.082123 0.192139 0.099487
0.128082 0.184601 0.094360
0.252808 0.168182 0.006104
0.381165 0.188538 0.000031
0.480377 0.207581 0.000000
0.563690 0.223206 0.000000
0.619080 0.232483 0.000031
0.678040 0.241516 0.000000
0.741943 0.251251 0.000000
0.134888 0.295105 0.152344
0.144958 0.297607 0.142731
0.278198 0.285431 0.141602
0.413391 0.283508 0.010651
0.527466 0.306976 0.004547
0.612854 0.325317 0.001678
0.685059 0.340027 0.000000
0.743073 0.351044 0.000031
0.808411 0.364563 0.000031
0.168427 0.386169 0.187073
0.174194 0.391174 0.178528
0.297699 0.390350 0.189240
0.415710 0.391876 0.138245
0.540924 0.391968 0.019897
0.631561 0.411346 0.008606
0.717896 0.431427 0.006317
0.781830 0.442474 0.002228
0.863281 0.468506 0.061981
0.183380 0.459900 0.203033
0.186798 0.472015 0.194122
0.296967 0.489471 0.198090
0.422760 0.475098 0.177368
0.534363 0.486145 0.086517
0.627747 0.487366 0.028778
0.728943 0.505798 0.020416
0.802704 0.517059 0.007355
0.881531 0.553101 0.123657
0.185944 0.540039 0.205383
0.186432 0.557526 0.193848
0.285828 0.584442 0.188995
0.423737 0.562256 0.177582
0.536957 0.566864 0.118103
0.622711 0.570679 0.060211
0.725525 0.579071 0.033630
0.814178 0.588501 0.029510
0.884918 0.621765 0.133820
0.171295 0.632507 0.190887
0.166382 0.659332 0.170715
0.265656 0.688446 0.157562
0.418976 0.671509 0.142151
0.533966 0.653015 0.106384
0.623535 0.661194 0.063110
0.723297 0.669769 0.044434
0.815735 0.675629 0.038208
0.878113 0.697540 0.161469
0.132233 0.741699 0.164978
0.136780 0.762573 0.146545
0.256409 0.789185 0.114594
0.416748 0.768280 0.090698
0.534149 0.744537 0.062775
0.621918 0.743866 0.038422
0.723511 0.757874 0.021149
0.822174 0.770111 0.041138
0.876556 0.786102 0.144257
0.000031 0.021301 0.028625
0.085938 0.028992 0.075623
0.291382 0.014648 0.045715
0.446564 0.002350 0.023499
0.558136 0.002991 0.012329
0.624481 0.003387 0.005829
0.684814 0.005951 0.002777
0.741364 0.009827 0.001526
0.801086 0.013977 0.000305
0.000031 0.076996 0.071259
0.054291 0.082458 0.087097
0.201080 0.090088 0.068970
0.358643 0.083405 0.035522
0.477051 0.057526 0.001312
0.557495 0.046967 0.000000
0.620819 0.044861 0.000000
0.696960 0.043732 0.000000
0.760132 0.048431 0.000000
0.043274 0.186829 0.124786
0.090179 0.188080 0.128693
0.234863 0.182922 0.102173
0.381775 0.178925 0.010376
0.472443 0.194702 0.000031
0.553253 0.210022 0.000000
0.616302 0.219513 0.000000
0.679657 0.228516 0.000031
0.747986 0.240143 0.000000
0.116669 0.298279 0.180115
0.138062 0.300354 0.181458
0.261749 0.293121 0.174530
0.404633 0.292419 0.073944
0.521942 0.302124 0.004517
0.607239 0.319824 0.001678
0.684875 0.336426 0.000031
0.744537 0.348450 0.000000
0.811676 0.362823 0.000000
0.159485 0.394958 0.218811
0.173615 0.398804 0.216003
0.271057 0.415649 0.207611
0.407196 0.401703 0.172913
0.535828 0.399719 0.049347
0.626678 0.413452 0.011627
0.717682 0.433380 0.006317
0.784393 0.445465 0.002258
0.867554 0.475037 0.077881
0.175873 0.475067 0.235931
0.188904 0.485504 0.232788
0.257202 0.512817 0.215118
0.411865 0.489746 0.202850
0.530090 0.500641 0.130676
0.623932 0.498932 0.056976
0.727112 0.512299 0.030457
0.804291 0.523773 0.015656
0.883453 0.560669 0.136902
0.177185 0.556885 0.241974
0.187317 0.572968 0.235992
0.235077 0.600281 0.211334
0.411804 0.588989 0.198822
0.531647 0.581604 0.149109
0.620056 0.587616 0.105011
0.724243 0.593750 0.067657
0.816132 0.601257 0.057434
0.886597 0.632324 0.150024
0.158875 0.654175 0.237823
0.164917 0.678589 0.226501
0.203796 0.706512 0.203186
0.403687 0.704620 0.180298
0.529236 0.674347 0.144623
0.621124 0.678558 0.107452
0.722351 0.686859 0.087738
0.818695 0.692413 0.078735
0.880463 0.710022 0.180878
0.118530 0.760315 0.230865
0.126892 0.780426 0.220703
0.199371 0.806061 0.203949
0.404877 0.815063 0.180359
0.540192 0.787628 0.153015
0.625122 0.770203 0.129089
0.727478 0.781982 0.099304
0.827850 0.792908 0.108521
0.883942 0.805542 0.194763
0.000000 0.049896 0.065002
0.001373 0.080231 0.115326
0.221405 0.067413 0.185608
0.413422 0.053802 0.175232
0.559875 0.033386 0.148560
0.631073 0.016541 0.130859
0.698700 0.003479 0.115173
0.768585 0.003784 0.102173
0.837189 0.004272 0.094574
0.000031 0.092590 0.107025
0.006104 0.103241 0.127075
0.166168 0.122559 0.175110
0.362640 0.118286 0.168701
0.504700 0.103516 0.145447
0.624817 0.079559 0.127228
0.700653 0.064667 0.116211
0.785339 0.046570 0.105011
0.867401 0.035034 0.097015
0.000031 0.187531 0.179749
0.000031 0.192657 0.186218
0.169647 0.220764 0.233429
0.359070 0.235565 0.217926
0.499359 0.239197 0.196960
0.610992 0.237823 0.177734
0.695435 0.235962 0.164093
0.770569 0.235443 0.155060
0.852509 0.238312 0.147827
0.023682 0.305359 0.234039
0.055023 0.309479 0.238708
0.198608 0.333771 0.265442
0.385681 0.337646 0.248627
0.529083 0.351318 0.211548
0.628662 0.359589 0.182281
0.720642 0.368225 0.158081
0.792938 0.373230 0.145203
0.870819 0.385498 0.151337
0.093323 0.407837 0.276764
0.116669 0.413544 0.279816
0.195190 0.438812 0.292725
0.396118 0.434662 0.280975
0.538910 0.449463 0.252502
0.638641 0.462585 0.220093
0.736938 0.476440 0.192261
0.811554 0.484619 0.174805
0.882141 0.504608 0.201508
0.127319 0.493866 0.298523
0.147705 0.506042 0.300629
0.185394 0.532623 0.306458
0.397491 0.547424 0.295654
0.533722 0.536865 0.264038
0.636261 0.543701 0.256775
0.742279 0.558960 0.226196
0.821899 0.569550 0.209229
0.894318 0.587402 0.235809
0.138397 0.575806 0.309570
0.154694 0.593994 0.310516
0.181976 0.619843 0.312927
0.386200 0.649200 0.296936
0.533234 0.617188 0.281036
0.630402 0.627350 0.261017
0.739899 0.637054 0.257935
0.833496 0.647614 0.242371
0.902161 0.662354 0.253387
0.124969 0.676880 0.312927
0.138000 0.700470 0.312531
0.160675 0.725342 0.313293
0.372772 0.755157 0.296265
0.539429 0.733337 0.284363
0.631287 0.717163 0.273651
0.737762 0.728607 0.269318
0.838623 0.734833 0.270294
0.902283 0.745667 0.319672
0.087860 0.778290 0.311371
0.103699 0.798523 0.312866
0.139374 0.824799 0.317078
0.376373 0.856049 0.304626
0.545898 0.847382 0.297089
0.642273 0.825775 0.291992
0.742676 0.823700 0.284058
0.846893 0.835571 0.288757
0.907990 0.846100 0.361664
0.000031 0.081970 0.103638
0.000031 0.107330 0.140839
0.168396 0.144745 0.292664
0.346832 0.112549 0.285400
0.503876 0.095642 0.285004
0.588654 0.090118 0.273773
0.671875 0.080872 0.260376
0.757050 0.059540 0.247040
0.833405 0.040680 0.237518
0.000031 0.114624 0.137299
0.000031 0.126465 0.157959
0.073853 0.169067 0.228699
0.304657 0.160553 0.279388
0.455750 0.145416 0.284760
0.594269 0.127655 0.273926
0.683716 0.111664 0.264465
0.778473 0.092682 0.255249
0.865326 0.077911 0.246704
0.000031 0.203400 0.219116
0.000031 0.204742 0.222198
0.111664 0.242065 0.278015
0.321075 0.263000 0.324890
0.500397 0.256897 0.315338
0.628357 0.254608 0.297028
0.728180 0.248749 0.287140
0.814514 0.243134 0.278290
0.909241 0.238525 0.269623
0.000031 0.301331 0.291046
0.000000 0.303925 0.293304
0.088196 0.342957 0.336121
0.317322 0.376373 0.393188
0.515350 0.387573 0.364227
0.626190 0.395599 0.354401
0.733551 0.400452 0.339783
0.811829 0.401581 0.328979
0.892181 0.409546 0.325897
0.000031 0.403015 0.332581
0.013184 0.418060 0.339874
0.074768 0.439484 0.352570
0.362305 0.481720 0.403015
0.531738 0.484894 0.387360
0.638855 0.499939 0.372620
0.743347 0.513824 0.352631
0.821411 0.521606 0.338135
0.899017 0.533020 0.339233
0.041840 0.499359 0.355255
0.068573 0.514435 0.362488
0.102661 0.538605 0.372681
0.363647 0.577667 0.414703
0.535278 0.569305 0.398773
0.641449 0.578369 0.401581
0.749512 0.595734 0.381409
0.833679 0.605560 0.364410
0.909393 0.617004 0.363281
0.068054 0.583069 0.371063
0.089600 0.602783 0.376770
0.112305 0.627777 0.382629
0.355011 0.666565 0.416931
0.540161 0.669891 0.407349
0.637817 0.660004 0.398865
0.749878 0.671112 0.405975
0.845490 0.684082 0.390442
0.916687 0.695618 0.388092
0.066681 0.689575 0.378143
0.084564 0.710205 0.381500
0.105316 0.733917 0.385406
0.345184 0.769440 0.417053
0.538177 0.784332 0.409241
0.641907 0.757385 0.407501
0.747589 0.759705 0.402527
0.851593 0.767090 0.415039
0.921692 0.776276 0.434662
0.036499 0.789551 0.379761
0.058289 0.809448 0.384155
0.082306 0.834259 0.388885
0.351593 0.871521 0.422424
0.539062 0.898895 0.417694
0.652374 0.875092 0.417358
0.751617 0.854858 0.416138
0.858429 0.866638 0.412811
0.925476 0.876526 0.482758
0.000000 0.107971 0.135193
0.000031 0.133942 0.172791
0.078247 0.193939 0.282227
0.339844 0.155273 0.337677
0.459015 0.142670 0.364777
0.540985 0.129730 0.368103
0.620819 0.118713 0.366211
0.709930 0.111938 0.362183
0.791504 0.102539 0.359375
0.000031 0.135773 0.164337
0.000031 0.151367 0.189758
0.047180 0.191101 0.249969
0.284485 0.203033 0.356140
0.415314 0.180328 0.374420
0.536835 0.163086 0.385284
0.623291 0.151184 0.386993
0.717316 0.141113 0.386597
0.815277 0.127594 0.384125
0.000031 0.219849 0.248199
0.000000 0.222992 0.253571
0.089966 0.262878 0.313110
0.253967 0.303070 0.439728
0.439209 0.292542 0.420868
0.571869 0.285797 0.427795
0.689117 0.271698 0.423553
0.789429 0.259857 0.414734
0.901764 0.247406 0.403656
0.000031 0.315094 0.334442
0.000000 0.319153 0.339905
0.015839 0.358551 0.395325
0.281464 0.397064 0.442505
0.486572 0.404938 0.481140
0.627869 0.403748 0.469025
0.757721 0.402954 0.447571
0.845581 0.401154 0.436951
0.940979 0.400024 0.427765
0.000031 0.400848 0.393005
0.000000 0.409241 0.399353
0.000031 0.444183 0.429749
0.294800 0.489685 0.491852
0.480408 0.522064 0.535156
0.638977 0.526428 0.494812
0.754181 0.536194 0.488983
0.839844 0.540527 0.479034
0.924042 0.545410 0.470428
0.000031 0.480347 0.419128
0.000031 0.508240 0.433411
0.011688 0.538757 0.447021
0.299377 0.580017 0.491760
0.531036 0.612793 0.525208
0.644836 0.606750 0.517517
0.755890 0.623871 0.503662
0.841553 0.633545 0.491364
0.921326 0.641174 0.479279
0.000031 0.573334 0.434479
0.007172 0.604279 0.443329
0.041382 0.628876 0.451874
0.296844 0.672882 0.499268
0.529724 0.706207 0.525909
0.645294 0.689392 0.523865
0.759430 0.699921 0.530731
0.853363 0.714752 0.519165
0.930511 0.722778 0.505096
0.000031 0.693390 0.447083
0.022369 0.713867 0.453888
0.050507 0.736511 0.461517
0.290924 0.777832 0.505127
0.525696 0.808197 0.531616
0.651031 0.803009 0.530090
0.757172 0.787628 0.529816
0.862305 0.795166 0.541443
0.937958 0.803741 0.538727
0.000031 0.786560 0.457245
0.008850 0.815155 0.460632
0.038513 0.840546 0.468323
0.305145 0.884338 0.517822
0.526154 0.913849 0.539795
0.653442 0.923737 0.538666
0.766174 0.898895 0.539154
0.869049 0.896423 0.539429
0.941589 0.903442 0.594482
0.000031 0.132294 0.164948
0.000031 0.159332 0.204071
0.060303 0.213684 0.293091
0.307861 0.215759 0.396332
0.451447 0.171326 0.417664
0.510681 0.165680 0.427307
0.584717 0.155212 0.432343
0.675476 0.137665 0.436249
0.753571 0.129639 0.439026
0.000031 0.155060 0.188751
0.000031 0.174530 0.219330
0.038910 0.211823 0.275299
0.213440 0.249268 0.444580
0.413513 0.209625 0.416504
0.512848 0.191681 0.447998
0.586639 0.181061 0.453766
0.678986 0.162903 0.461273
0.775848 0.150818 0.465485
0.000000 0.232849 0.268829
0.000031 0.239624 0.279480
0.089081 0.280762 0.339844
0.202545 0.330444 0.450928
0.430695 0.310150 0.468567
0.537476 0.309814 0.493134
0.640411 0.299591 0.501617
0.740204 0.284821 0.504730
0.849426 0.270599 0.503357
0.000031 0.324646 0.360474
0.000000 0.331451 0.369537
0.026367 0.371338 0.435699
0.264282 0.414246 0.481567
0.455963 0.424469 0.599182
0.581512 0.425812 0.550964
0.715637 0.419189 0.552734
0.818390 0.411316 0.545074
0.932159 0.401550 0.533569
0.000031 0.409302 0.431519
0.000031 0.420349 0.443176
0.000031 0.443573 0.469360
0.271545 0.500549 0.555969
0.472961 0.537720 0.584534
0.621368 0.537170 0.598541
0.771912 0.535675 0.580475
0.868134 0.537109 0.565491
0.963135 0.537872 0.554901
0.000031 0.487244 0.474640
0.000000 0.500916 0.484283
0.000031 0.529327 0.506592
0.274872 0.584625 0.571075
0.502777 0.613831 0.609070
0.633118 0.633392 0.632233
0.765808 0.641083 0.600464
0.858093 0.646301 0.594086
0.943756 0.650024 0.585052
0.000031 0.562775 0.492004
0.000031 0.591187 0.507477
0.000031 0.626038 0.523651
0.259583 0.669525 0.563629
0.508636 0.710205 0.610016
0.651978 0.724670 0.621429
0.767578 0.721985 0.625031
0.861694 0.734894 0.611969
0.942596 0.742126 0.598175
0.000031 0.668121 0.503540
0.000031 0.699738 0.513550
0.005188 0.733093 0.522491
0.255951 0.776978 0.569366
0.511688 0.814484 0.617554
0.649750 0.828033 0.626862
0.766205 0.808289 0.629456
0.870911 0.815491 0.638519
0.950348 0.824738 0.626343
0.000031 0.772644 0.515167
0.000031 0.805756 0.522491
0.004578 0.841980 0.529785
0.273132 0.887054 0.580841
0.517944 0.922852 0.629761
0.648743 0.939301 0.633026
0.775848 0.933228 0.634949
0.877350 0.917572 0.637390
0.953949 0.922546 0.680359
0.000031 0.157227 0.195984
0.000031 0.184998 0.236877
0.053528 0.235168 0.316437
0.232422 0.262146 0.493561
0.436981 0.222168 0.449890
0.511475 0.194153 0.480957
0.567322 0.184357 0.498230
0.640350 0.176697 0.502594
0.719055 0.159851 0.511688
0.000031 0.177490 0.217468
0.000031 0.200775 0.253357
0.035889 0.236542 0.307220
0.151886 0.289581 0.443970
0.393402 0.264008 0.475830
0.515350 0.220428 0.500000
0.576324 0.205719 0.520325
0.644012 0.198944 0.526978
0.736938 0.180481 0.538452
0.000031 0.248016 0.291901
0.000031 0.263000 0.316559
0.086243 0.302094 0.372101
0.176361 0.353210 0.475067
0.407166 0.334595 0.609558
0.538055 0.321136 0.546234
0.616394 0.318329 0.566986
0.696167 0.310333 0.574554
0.802612 0.294189 0.583893
0.000000 0.336853 0.388428
0.000000 0.345398 0.400543
0.052216 0.388885 0.474976
0.252014 0.433563 0.524597
0.416321 0.449249 0.670807
0.573273 0.440796 0.605011
0.674316 0.440430 0.624237
0.767639 0.433136 0.629547
0.881012 0.418304 0.631348
0.000000 0.421509 0.471191
0.000000 0.432495 0.484955
0.000031 0.456360 0.518799
0.258484 0.517731 0.603149
0.451294 0.554321 0.642181
0.616180 0.548126 0.676758
0.726929 0.553925 0.670380
0.837494 0.546692 0.667389
0.951355 0.539886 0.654602
0.000000 0.499451 0.526703
0.000000 0.511383 0.537903
0.000000 0.532257 0.558716
0.261597 0.595734 0.648865
0.476959 0.625519 0.675446
0.623535 0.646057 0.702759
0.768799 0.643463 0.695038
0.880646 0.642761 0.675049
0.971710 0.645447 0.664551
0.000031 0.572784 0.556427
0.000000 0.588165 0.566467
0.000031 0.621033 0.590851
0.262726 0.674988 0.647827
0.490356 0.706940 0.680969
0.638397 0.726624 0.703247
0.775482 0.740509 0.707428
0.872162 0.749146 0.696411
0.960022 0.753113 0.686981
0.000031 0.663391 0.567688
0.000031 0.692078 0.582428
0.000031 0.724823 0.596191
0.240631 0.772125 0.635742
0.488739 0.811981 0.680115
0.644653 0.832214 0.709412
0.779297 0.833313 0.716156
0.879791 0.832764 0.721405
0.959656 0.842224 0.708099
0.000031 0.758820 0.572632
0.000031 0.792480 0.583527
0.000031 0.830872 0.593536
0.256805 0.887878 0.644592
0.494995 0.925385 0.690216
0.647705 0.946655 0.719818
0.780090 0.962189 0.721283
0.885193 0.934082 0.724579
0.964752 0.938110 0.755798
0.000031 0.185272 0.231628
0.000031 0.213745 0.275146
0.054291 0.259430 0.346954
0.180786 0.298706 0.499207
0.420654 0.273224 0.504333
0.501801 0.239563 0.514923
0.570404 0.213257 0.545471
0.636200 0.198914 0.568939
0.695282 0.191650 0.577850
0.000031 0.207916 0.258057
0.000427 0.231049 0.293701
0.040802 0.265991 0.346832
0.124695 0.319519 0.457611
0.350250 0.303589 0.622070
0.495483 0.282898 0.537140
0.580139 0.238831 0.574310
0.647705 0.221100 0.598663
0.716949 0.208496 0.614777
0.000031 0.271332 0.326874
0.000031 0.297791 0.373230
0.085907 0.328857 0.413452
0.163666 0.378082 0.513977
0.343536 0.376831 0.692200
0.531189 0.352631 0.611176
0.614563 0.333252 0.625488
0.687469 0.323517 0.649170
0.764587 0.315216 0.662659
0.000000 0.355042 0.425476
0.000000 0.364166 0.440643
0.081268 0.414459 0.518127
0.243134 0.459229 0.580597
0.386536 0.475525 0.731659
0.576050 0.451172 0.741608
0.666565 0.455597 0.689270
0.743896 0.448822 0.710541
0.827209 0.442566 0.719604
0.000031 0.438538 0.520813
0.000000 0.447968 0.535400
0.002838 0.496368 0.622162
0.261139 0.543152 0.663910
0.434113 0.574432 0.716400
0.588715 0.565338 0.826202
0.716309 0.570068 0.741699
0.796143 0.566132 0.759308
0.890747 0.561920 0.763275
0.000031 0.514893 0.588928
0.000031 0.525208 0.601410
0.000031 0.551208 0.639221
0.261688 0.614929 0.724854
0.455017 0.647949 0.746948
0.610352 0.662811 0.790649
0.747223 0.661438 0.773956
0.830414 0.662231 0.785156
0.939575 0.654816 0.785858
0.000000 0.587769 0.629089
0.000031 0.600372 0.639557
0.000031 0.629211 0.669769
0.256500 0.691864 0.755157
0.471436 0.718689 0.782776
0.616241 0.741394 0.793732
0.776947 0.752167 0.818573
0.876678 0.753113 0.807892
0.980286 0.752533 0.792633
0.000000 0.675262 0.652679
0.000031 0.694336 0.666199
0.000031 0.727692 0.690552
0.259613 0.779449 0.744415
0.475128 0.808289 0.774048
0.622833 0.827332 0.792969
0.779388 0.849121 0.816925
0.888947 0.854248 0.820221
0.973572 0.861237 0.808990
0.000031 0.766541 0.657623
0.000031 0.795959 0.672363
0.000031 0.829346 0.686005
0.247284 0.885651 0.729340
0.470337 0.923248 0.767670
0.624573 0.948578 0.796936
0.781494 0.969177 0.827728
0.898590 0.964203 0.829437
0.978027 0.957214 0.847900
0.000031 0.220154 0.277283
0.007904 0.248444 0.321289
0.058807 0.289917 0.389008
0.145447 0.333069 0.508972
0.388306 0.308838 0.655121
0.486389 0.299988 0.567963
0.555939 0.270691 0.580841
0.640961 0.227448 0.621490
0.700714 0.209412 0.642914
0.000031 0.244812 0.307861
0.010468 0.266327 0.340759
0.050873 0.301788 0.397980
0.120178 0.347992 0.496887
0.306671 0.345612 0.692017
0.494873 0.319580 0.633514
0.560944 0.302582 0.610016
0.652924 0.249268 0.651337
0.722473 0.226532 0.674774
0.000031 0.303772 0.378052
0.037384 0.330261 0.416656
0.095490 0.360992 0.464508
0.161926 0.405090 0.562897
0.322174 0.406219 0.743073
0.529846 0.374817 0.738312
0.602814 0.367706 0.671204
0.685608 0.341248 0.698242
0.767487 0.326050 0.725677
0.000000 0.377136 0.468262
0.000031 0.406738 0.517548
0.121552 0.443237 0.565216
0.243256 0.485291 0.639648
0.375000 0.494507 0.796600
0.564545 0.466736 0.866180
0.671539 0.463928 0.758789
0.736908 0.463531 0.759277
0.826202 0.446747 0.788788
0.000000 0.455200 0.565674
0.000000 0.466400 0.582428
0.083740 0.526123 0.675323
0.289246 0.568695 0.719086
0.432983 0.590729 0.792114
0.578217 0.579956 0.917236
0.728760 0.572235 0.839050
0.788727 0.579285 0.813660
0.872833 0.571686 0.835846
0.000000 0.528656 0.644440
0.000000 0.537903 0.658081
0.031860 0.597046 0.754150
0.288300 0.640137 0.787811
0.436340 0.669342 0.821167
0.610352 0.675812 0.869720
0.757080 0.664673 0.896881
0.824768 0.672577 0.848480
0.905029 0.670258 0.867249
0.000000 0.601593 0.692963
0.000000 0.613190 0.705322
0.000031 0.654938 0.768219
0.288452 0.710449 0.834747
0.452148 0.739471 0.855591
0.603577 0.762299 0.865814
0.760864 0.766174 0.927032
0.857635 0.766937 0.879883
0.935333 0.768616 0.892242
0.000000 0.688019 0.724091
0.000000 0.703644 0.738068
0.000031 0.745819 0.784515
0.280457 0.797607 0.852509
0.466553 0.818390 0.878082
0.615234 0.836212 0.893982
0.763031 0.859253 0.904144
0.890076 0.863647 0.920563
0.978638 0.864838 0.916168
0.000000 0.780823 0.740021
0.000031 0.806702 0.758240
0.000031 0.847687 0.786652
0.299805 0.895386 0.836365
0.472443 0.921326 0.861389
0.613617 0.942505 0.881470
0.763763 0.964386 0.904175
0.898071 0.978851 0.929108
0.991425 0.974945 0.937347
