滤镜资源/Lutify.me Free 3D LUTs Package/3D LUTs/Color Grading LUTs/Standard (Rec709 and DCI P3) LUTs/Heulandite - Rec709.cube
# Created by: Lutify.me
# Copyright: (c) Copyright Lutify.me 2016, G.T. Colord LTD
# Website: https://lutify.me
# Contact: help@lutify.me
LUT_3D_SIZE 33
0.012207 0.008179 0.009064
0.023499 0.008484 0.007812
0.042816 0.009430 0.004944
0.072998 0.011200 0.002960
0.111816 0.013672 0.000000
0.152405 0.017578 0.000031
0.195740 0.020569 0.000031
0.236725 0.022308 0.000000
0.274872 0.023376 0.000031
0.310120 0.023346 0.000031
0.344818 0.024200 0.000031
0.379730 0.024933 0.000000
0.413574 0.025635 0.000000
0.442322 0.026123 0.000000
0.463776 0.026611 0.000000
0.483307 0.026794 0.000000
0.501495 0.026703 0.000000
0.518036 0.026978 0.000031
0.533722 0.027252 0.000031
0.548828 0.027588 0.000000
0.563629 0.027924 0.000000
0.578522 0.028259 0.000000
0.593384 0.028717 0.000031
0.608185 0.029419 0.000031
0.622040 0.030060 0.000000
0.636383 0.030457 0.000000
0.649200 0.031067 0.000000
0.662445 0.031708 0.000000
0.675903 0.032501 0.000000
0.689880 0.033539 0.000031
0.704315 0.034729 0.000000
0.719818 0.035889 0.000031
0.734650 0.037323 0.000031
0.018524 0.018036 0.011963
0.028687 0.018097 0.009033
0.041779 0.018585 0.005463
0.062531 0.018829 0.003571
0.088745 0.019897 0.001526
0.121613 0.022186 0.000000
0.153961 0.025177 0.000000
0.189026 0.027679 0.000000
0.222717 0.029388 0.000031
0.255920 0.030670 0.000000
0.286926 0.031311 0.000000
0.320496 0.031860 0.000000
0.354248 0.031494 0.000000
0.388763 0.031342 0.000031
0.421906 0.030945 0.000031
0.450623 0.031494 0.000031
0.473724 0.032043 0.000000
0.494080 0.031982 0.000031
0.511078 0.032227 0.000031
0.527252 0.032562 0.000000
0.543060 0.033020 0.000000
0.559326 0.033356 0.000031
0.575104 0.033722 0.000031
0.590851 0.034363 0.000031
0.606903 0.035156 0.000031
0.622528 0.035706 0.000000
0.640533 0.036469 0.000031
0.654877 0.037292 0.000031
0.669220 0.038086 0.000031
0.683472 0.039215 0.000000
0.698029 0.040375 0.000000
0.713257 0.041626 0.000000
0.727783 0.043213 0.000031
0.025391 0.033203 0.015808
0.037628 0.030396 0.013397
0.050140 0.030518 0.008636
0.063873 0.030548 0.006012
0.084930 0.030975 0.002502
0.111237 0.031891 0.000031
0.139771 0.035126 0.000031
0.168121 0.038055 0.000000
0.198090 0.040436 0.000000
0.230042 0.042542 0.000031
0.262085 0.043823 0.000000
0.292175 0.043884 0.000031
0.319427 0.043213 0.000000
0.347382 0.041718 0.000000
0.379211 0.040558 0.000000
0.412323 0.039673 0.000000
0.444458 0.040405 0.000031
0.470428 0.039612 0.000000
0.491425 0.039124 0.000000
0.509125 0.039154 0.000000
0.525848 0.039429 0.000031
0.543640 0.039276 0.000000
0.561066 0.039337 0.000031
0.578217 0.039520 0.000000
0.595398 0.040009 0.000031
0.612640 0.040680 0.000000
0.630951 0.041473 0.000031
0.649017 0.042664 0.000031
0.664124 0.043610 0.000000
0.678711 0.044739 0.000000
0.693237 0.046021 0.000000
0.707947 0.047394 0.000031
0.722260 0.049042 0.000031
0.031982 0.058197 0.024933
0.043549 0.051178 0.023102
0.055817 0.049347 0.021667
0.070465 0.047729 0.012299
0.090759 0.047791 0.006775
0.115753 0.048401 0.001495
0.143219 0.051758 0.000000
0.171234 0.055176 0.000000
0.199554 0.058655 0.000000
0.231140 0.061951 0.000000
0.264252 0.064575 0.000000
0.296783 0.066681 0.000031
0.324768 0.066162 0.000031
0.350769 0.065338 0.000000
0.375427 0.063232 0.000000
0.399445 0.059723 0.000031
0.423798 0.056946 0.000031
0.449524 0.054688 0.000031
0.472290 0.052826 0.000031
0.491791 0.051636 0.000000
0.508148 0.050903 0.000031
0.525574 0.050293 0.000000
0.544708 0.049469 0.000000
0.563934 0.048767 0.000031
0.582214 0.048645 0.000031
0.600677 0.048859 0.000031
0.618835 0.049561 0.000000
0.636932 0.050690 0.000000
0.655701 0.051697 0.000000
0.670288 0.052887 0.000031
0.684601 0.054169 0.000031
0.698120 0.055939 0.000031
0.712006 0.057526 0.000000
0.039459 0.084198 0.038544
0.052643 0.080170 0.036957
0.064453 0.072906 0.034058
0.077118 0.071289 0.030579
0.096069 0.069977 0.020966
0.123230 0.069366 0.006836
0.155365 0.071289 0.000031
0.181335 0.075409 0.000000
0.206665 0.079926 0.000000
0.235077 0.085175 0.000000
0.268036 0.089264 0.000000
0.301910 0.092590 0.000031
0.333984 0.095001 0.000031
0.361053 0.095642 0.000000
0.386566 0.095703 0.000000
0.410919 0.095306 0.000000
0.434357 0.092590 0.000031
0.457245 0.090546 0.000000
0.477203 0.087372 0.000000
0.493591 0.084991 0.000031
0.507355 0.083496 0.000031
0.519775 0.082245 0.000031
0.533020 0.080292 0.000000
0.546021 0.078949 0.000031
0.560455 0.077881 0.000031
0.576202 0.077240 0.000000
0.591675 0.076691 0.000000
0.608185 0.076904 0.000000
0.625641 0.076996 0.000000
0.641174 0.077209 0.000031
0.654633 0.078979 0.000031
0.668274 0.080475 0.000031
0.681519 0.082397 0.000031
0.047943 0.111298 0.052643
0.059723 0.109100 0.050903
0.073914 0.103424 0.049469
0.085632 0.096802 0.046967
0.102448 0.095428 0.042419
0.128601 0.093445 0.025116
0.164001 0.092743 0.004089
0.194061 0.095612 0.000031
0.220428 0.099884 0.000000
0.248779 0.105286 0.000031
0.278168 0.110840 0.000000
0.308899 0.116669 0.000000
0.339783 0.120941 0.000000
0.368958 0.123596 0.000000
0.394165 0.125000 0.000000
0.419189 0.126312 0.000031
0.443512 0.127106 0.000000
0.467377 0.127716 0.000031
0.490356 0.127869 0.000000
0.510864 0.127625 0.000031
0.526031 0.126892 0.000000
0.539490 0.126434 0.000000
0.552399 0.126099 0.000000
0.565765 0.125580 0.000031
0.579041 0.125122 0.000000
0.593109 0.124390 0.000000
0.607574 0.124023 0.000031
0.622833 0.123474 0.000000
0.639038 0.122925 0.000000
0.654663 0.123077 0.000000
0.668915 0.124146 0.000031
0.682281 0.126129 0.000031
0.696014 0.127991 0.000031
0.057831 0.138702 0.068542
0.066711 0.136597 0.065948
0.080597 0.135040 0.064362
0.095306 0.128418 0.063507
0.111816 0.121368 0.060669
0.134521 0.120575 0.053467
0.170074 0.117096 0.017456
0.204987 0.117249 0.000793
0.233246 0.121216 0.000671
0.262451 0.126221 0.000000
0.292023 0.131531 0.000000
0.322571 0.137268 0.000000
0.354034 0.143311 0.000000
0.381042 0.148041 0.000031
0.403473 0.151611 0.000000
0.426239 0.154449 0.000031
0.450470 0.156311 0.000031
0.474091 0.158325 0.000000
0.497345 0.159943 0.000031
0.519531 0.161224 0.000031
0.539001 0.162262 0.000031
0.552734 0.162750 0.000000
0.566132 0.163269 0.000031
0.579956 0.163849 0.000031
0.594086 0.164490 0.000031
0.608612 0.165070 0.000000
0.623779 0.166168 0.000031
0.639648 0.167084 0.000000
0.656616 0.168182 0.000031
0.673859 0.169617 0.000000
0.689209 0.171112 0.000000
0.702759 0.172943 0.000000
0.716095 0.175018 0.000031
0.068878 0.165497 0.084229
0.075226 0.163818 0.081512
0.086761 0.162445 0.079041
0.101715 0.160522 0.078430
0.121521 0.152100 0.079498
0.143463 0.147614 0.073181
0.175171 0.147186 0.060577
0.211517 0.142639 0.012665
0.244812 0.144196 0.002136
0.275604 0.148743 0.000793
0.305786 0.153717 0.000031
0.336609 0.159515 0.000000
0.367737 0.165466 0.000000
0.396576 0.170898 0.000000
0.420410 0.175110 0.000000
0.442444 0.179108 0.000031
0.464111 0.182526 0.000000
0.485138 0.186096 0.000031
0.506012 0.189636 0.000000
0.526855 0.192841 0.000031
0.547028 0.194733 0.000000
0.563782 0.196167 0.000031
0.577637 0.197327 0.000031
0.591309 0.198486 0.000000
0.605316 0.199646 0.000000
0.619995 0.201019 0.000000
0.635254 0.202576 0.000031
0.651154 0.204315 0.000031
0.667755 0.206055 0.000000
0.684845 0.208191 0.000031
0.701752 0.210052 0.000031
0.716370 0.212158 0.000000
0.729797 0.214355 0.000000
0.082123 0.192139 0.099487
0.086914 0.190674 0.097076
0.094269 0.189728 0.093750
0.106262 0.189331 0.091522
0.128082 0.184601 0.094360
0.152405 0.174927 0.094513
0.182983 0.175354 0.085663
0.217529 0.173157 0.059479
0.252808 0.168182 0.006104
0.286560 0.171936 0.002563
0.318268 0.176727 0.000946
0.349396 0.182678 0.000977
0.381165 0.188538 0.000031
0.410797 0.194458 0.000000
0.436035 0.199280 0.000000
0.459106 0.203430 0.000000
0.480377 0.207581 0.000000
0.501587 0.211731 0.000000
0.522705 0.215698 0.000031
0.543457 0.219604 0.000031
0.563690 0.223206 0.000000
0.579529 0.225952 0.000000
0.593781 0.228333 0.000000
0.606262 0.230316 0.000031
0.619080 0.232483 0.000031
0.632050 0.234711 0.000000
0.645905 0.237183 0.000000
0.661713 0.239288 0.000031
0.678040 0.241516 0.000000
0.695068 0.244049 0.000031
0.712524 0.246490 0.000000
0.728149 0.248871 0.000000
0.741943 0.251251 0.000000
0.096863 0.219086 0.114288
0.100311 0.217834 0.111969
0.104706 0.217224 0.108490
0.111359 0.217407 0.104340
0.131897 0.216400 0.107330
0.160553 0.207581 0.110565
0.192444 0.201813 0.105591
0.223419 0.202637 0.093445
0.258789 0.198395 0.050781
0.294037 0.195709 0.008179
0.328064 0.199921 0.002899
0.360962 0.205627 0.001068
0.392639 0.212158 0.001099
0.423004 0.218475 0.001160
0.450775 0.223877 0.000031
0.474243 0.228455 0.000031
0.495697 0.232727 0.000000
0.516998 0.237183 0.000000
0.538025 0.241577 0.000031
0.558899 0.245880 0.000000
0.579376 0.250244 0.000031
0.598297 0.254028 0.000000
0.614105 0.256836 0.000031
0.626587 0.258972 0.000000
0.639404 0.261322 0.000031
0.652954 0.263672 0.000000
0.666656 0.266266 0.000000
0.681305 0.268951 0.000000
0.696075 0.271912 0.000031
0.711578 0.275177 0.000000
0.727692 0.278412 0.000031
0.743286 0.281647 0.000031
0.756531 0.284454 0.000031
0.110962 0.245819 0.128174
0.113892 0.245087 0.125732
0.116333 0.244995 0.122314
0.119904 0.245453 0.117767
0.135162 0.244720 0.119446
0.165588 0.240662 0.124298
0.200256 0.229462 0.125488
0.231934 0.230286 0.115814
0.263702 0.230377 0.097839
0.299255 0.224152 0.040344
0.334717 0.224030 0.008820
0.369568 0.229004 0.003326
0.402008 0.235626 0.003479
0.434082 0.241974 0.001251
0.462250 0.247986 0.001282
0.486389 0.253235 0.001343
0.508026 0.257782 0.001373
0.529999 0.261902 0.000031
0.551270 0.266205 0.000000
0.571899 0.270874 0.000000
0.592834 0.275574 0.000000
0.613007 0.280029 0.000031
0.631042 0.283783 0.000000
0.643585 0.286133 0.000031
0.656494 0.288513 0.000031
0.670013 0.290833 0.000000
0.683899 0.293549 0.000031
0.698669 0.296295 0.000031
0.713684 0.299347 0.000031
0.729553 0.302429 0.000000
0.745483 0.305756 0.000000
0.761780 0.309113 0.000031
0.776215 0.312103 0.000000
0.123627 0.271240 0.141083
0.125854 0.271118 0.138336
0.127197 0.271393 0.134583
0.128815 0.272369 0.131073
0.139862 0.272247 0.131134
0.167572 0.272888 0.135742
0.208405 0.262421 0.140533
0.240143 0.257080 0.135559
0.270844 0.259369 0.125641
0.303284 0.258820 0.100006
0.338715 0.251007 0.031433
0.374664 0.253143 0.008667
0.409943 0.258881 0.003693
0.442108 0.266022 0.003906
0.471893 0.272705 0.004059
0.497498 0.277435 0.001434
0.518982 0.281952 0.001434
0.540619 0.286591 0.001495
0.561310 0.291260 0.001526
0.582214 0.295868 0.001556
0.603851 0.300171 0.000031
0.625275 0.304840 0.000000
0.644867 0.309235 0.000031
0.658417 0.311859 0.000000
0.671600 0.314331 0.000000
0.685028 0.316772 0.000031
0.699005 0.319489 0.000031
0.713898 0.322266 0.000000
0.728882 0.325287 0.000000
0.744904 0.328430 0.000000
0.761017 0.331635 0.000000
0.777069 0.335236 0.000000
0.792969 0.338409 0.000031
0.134888 0.295105 0.152344
0.136627 0.295227 0.149536
0.137848 0.295654 0.146118
0.139343 0.296631 0.142944
0.144958 0.297607 0.142731
0.168549 0.299194 0.145813
0.213104 0.293915 0.152863
0.247162 0.283966 0.153076
0.278198 0.285431 0.141602
0.308685 0.288300 0.131012
0.341278 0.287262 0.099457
0.377014 0.280151 0.032959
0.413391 0.283508 0.010651
0.448944 0.289520 0.004120
0.480194 0.296753 0.004303
0.505554 0.302338 0.004425
0.527466 0.306976 0.004547
0.549927 0.311096 0.001587
0.570831 0.315826 0.001617
0.591827 0.320526 0.001648
0.612854 0.325317 0.001678
0.634125 0.330292 0.001740
0.655121 0.334839 0.001770
0.671326 0.337494 0.000061
0.685059 0.340027 0.000000
0.698547 0.342438 0.000000
0.712738 0.345245 0.000031
0.727722 0.348053 0.000000
0.743073 0.351044 0.000031
0.758850 0.354401 0.000000
0.775238 0.357727 0.000000
0.791656 0.361237 0.000031
0.808411 0.364563 0.000031
0.144714 0.318237 0.162262
0.146088 0.318634 0.159637
0.147186 0.319244 0.156799
0.148621 0.320251 0.153809
0.153320 0.321381 0.153046
0.169647 0.324188 0.154541
0.214600 0.323883 0.162109
0.253540 0.314117 0.165375
0.284515 0.310059 0.160248
0.314392 0.313293 0.145691
0.345093 0.315796 0.130768
0.377899 0.312958 0.085907
0.414703 0.308685 0.033752
0.450317 0.312714 0.012726
0.483856 0.319611 0.009125
0.511993 0.324982 0.004669
0.534363 0.329834 0.004791
0.555908 0.334747 0.004913
0.577179 0.339569 0.005005
0.598938 0.344238 0.003448
0.620544 0.348938 0.001801
0.641907 0.353912 0.001831
0.663269 0.358887 0.001862
0.680939 0.362457 0.001862
0.695953 0.365356 0.001892
0.709534 0.367981 0.001923
0.724091 0.370789 0.001984
0.739288 0.373718 0.002014
0.755463 0.376251 0.000000
0.771576 0.379578 0.000000
0.788055 0.383057 0.000000
0.805145 0.386444 0.000000
0.832672 0.389313 0.000000
0.153595 0.341156 0.171417
0.154755 0.341705 0.169006
0.155884 0.342377 0.166351
0.157227 0.343536 0.163910
0.160706 0.345032 0.162506
0.174713 0.348145 0.162659
0.216034 0.352203 0.169739
0.257446 0.342926 0.174530
0.289398 0.334381 0.173767
0.319977 0.336578 0.162537
0.349426 0.340027 0.150665
0.380066 0.341309 0.123535
0.412781 0.337006 0.069794
0.449371 0.333893 0.023682
0.484680 0.340210 0.014648
0.513275 0.346100 0.011627
0.538116 0.350861 0.007355
0.560913 0.355621 0.005127
0.582367 0.360718 0.005219
0.603577 0.365814 0.005341
0.624878 0.371124 0.005493
0.646637 0.376495 0.005554
0.669525 0.380859 0.001892
0.689850 0.385712 0.001953
0.705383 0.388916 0.002014
0.719696 0.391510 0.002014
0.734131 0.394348 0.002014
0.749756 0.397461 0.002075
0.765808 0.400543 0.002075
0.781769 0.404144 0.002136
0.798553 0.407562 0.002167
0.816315 0.410553 0.000031
0.853394 0.414368 0.007935
0.161560 0.363800 0.179871
0.162537 0.364349 0.177429
0.163666 0.365173 0.175018
0.164917 0.366364 0.172729
0.167938 0.368469 0.171173
0.179016 0.372009 0.169830
0.217255 0.376862 0.176331
0.259796 0.370972 0.181610
0.294556 0.362640 0.182587
0.324005 0.359131 0.176147
0.353790 0.362762 0.160706
0.382874 0.366302 0.147095
0.413879 0.366943 0.114502
0.446838 0.362335 0.058319
0.482056 0.360840 0.021851
0.514404 0.366547 0.017151
0.539673 0.372040 0.014374
0.562500 0.376770 0.012054
0.585266 0.381287 0.007874
0.607544 0.386200 0.005524
0.629303 0.391479 0.005646
0.650970 0.396912 0.005798
0.673401 0.402374 0.005890
0.694702 0.407532 0.006012
0.711639 0.411224 0.006073
0.727600 0.413208 0.002075
0.742340 0.416138 0.002106
0.758118 0.419067 0.002136
0.774506 0.422272 0.002167
0.790833 0.425568 0.002167
0.807495 0.429016 0.002197
0.824768 0.432587 0.002258
0.859467 0.442230 0.034241
0.168427 0.386169 0.187073
0.169312 0.386749 0.184692
0.170258 0.387543 0.182404
0.171387 0.388794 0.180237
0.174194 0.391174 0.178528
0.183380 0.395538 0.176208
0.218109 0.400726 0.181763
0.259857 0.398743 0.186798
0.297699 0.390350 0.189240
0.327423 0.383148 0.186584
0.357666 0.385193 0.175629
0.386597 0.388916 0.156036
0.415710 0.391876 0.138245
0.446960 0.391083 0.097595
0.479004 0.386932 0.044495
0.510162 0.387482 0.025116
0.540924 0.391968 0.019897
0.563904 0.396851 0.017365
0.586487 0.401794 0.015076
0.608673 0.406616 0.012817
0.631561 0.411346 0.008606
0.654388 0.416290 0.005951
0.677094 0.421875 0.006104
0.699738 0.427460 0.006195
0.717896 0.431427 0.006317
0.732880 0.434357 0.006378
0.747864 0.437073 0.006439
0.764801 0.439728 0.004364
0.781830 0.442474 0.002228
0.798126 0.445648 0.002258
0.815155 0.449005 0.002289
0.832581 0.452515 0.002289
0.863281 0.468506 0.061981
0.173157 0.404816 0.192169
0.174133 0.406250 0.190125
0.175079 0.407349 0.187958
0.176208 0.409241 0.185883
0.178406 0.412903 0.184021
0.185303 0.418060 0.180847
0.217316 0.423920 0.186066
0.259583 0.425323 0.191132
0.299103 0.417267 0.193787
0.331055 0.410339 0.192413
0.359772 0.406586 0.185608
0.389801 0.410828 0.170197
0.418365 0.414581 0.150879
0.447754 0.416626 0.125732
0.478760 0.415314 0.083282
0.507782 0.411621 0.037140
0.536316 0.412903 0.026184
0.563019 0.416412 0.025452
0.587280 0.420685 0.020081
0.609802 0.425690 0.017822
0.632355 0.430725 0.015594
0.654938 0.435760 0.013214
0.679657 0.440277 0.006714
0.703674 0.445953 0.006409
0.723175 0.450226 0.006500
0.738678 0.453217 0.006561
0.753723 0.456055 0.006653
0.769653 0.459137 0.006714
0.786377 0.462433 0.006805
0.803375 0.465607 0.006897
0.822113 0.468079 0.002350
0.839325 0.471527 0.002380
0.868652 0.491669 0.083221
0.177429 0.423218 0.196808
0.178345 0.424866 0.194702
0.179260 0.426392 0.192596
0.180267 0.428680 0.190643
0.181946 0.433258 0.188446
0.187042 0.439209 0.184418
0.216064 0.445679 0.188629
0.258026 0.450806 0.193420
0.299072 0.442871 0.196625
0.333160 0.436188 0.196960
0.361725 0.429718 0.192108
0.391418 0.431641 0.180206
0.421021 0.435822 0.161438
0.449310 0.439484 0.144135
0.478607 0.440826 0.111786
0.507507 0.438843 0.071533
0.535034 0.437012 0.039307
0.558807 0.437134 0.025726
0.584167 0.440277 0.026520
0.610107 0.444336 0.024750
0.633209 0.449066 0.020538
0.656006 0.454346 0.018127
0.679565 0.459503 0.015808
0.704346 0.464966 0.013336
0.726685 0.468445 0.006653
0.743713 0.471863 0.006744
0.759460 0.474670 0.006866
0.775391 0.477631 0.006897
0.792145 0.480835 0.006989
0.809174 0.484100 0.007080
0.826569 0.487488 0.007202
0.848999 0.490814 0.007294
0.873840 0.513458 0.101807
0.180573 0.441498 0.200134
0.181488 0.443298 0.198029
0.182312 0.445038 0.195984
0.183380 0.447479 0.194031
0.185059 0.452667 0.191925
0.188263 0.459198 0.187195
0.215057 0.465881 0.190521
0.255859 0.471954 0.194763
0.298523 0.466583 0.198303
0.333771 0.460480 0.198883
0.364197 0.454651 0.195526
0.392090 0.451324 0.186737
0.422485 0.456238 0.171722
0.451508 0.460266 0.148773
0.479889 0.463440 0.130585
0.507355 0.463715 0.097290
0.534485 0.462158 0.062653
0.557739 0.460846 0.040283
0.581116 0.461090 0.026917
0.605438 0.463684 0.027710
0.631866 0.467926 0.028503
0.656860 0.472260 0.023071
0.680481 0.477661 0.020599
0.705292 0.483154 0.018066
0.727234 0.487549 0.015839
0.746368 0.491211 0.013458
0.764221 0.492828 0.006989
0.780518 0.495758 0.007080
0.797699 0.498932 0.007202
0.814972 0.502228 0.007263
0.832336 0.505432 0.007355
0.854950 0.511902 0.022552
0.878510 0.534119 0.116394
0.183380 0.459900 0.203033
0.184113 0.461761 0.200867
0.184875 0.463715 0.198700
0.185699 0.466400 0.196594
0.186798 0.472015 0.194122
0.188965 0.478882 0.188812
0.213867 0.485565 0.191711
0.253479 0.491882 0.195343
0.296967 0.489471 0.198090
0.333191 0.483765 0.198883
0.365265 0.478027 0.196747
0.393097 0.472717 0.190399
0.422760 0.475098 0.177368
0.452515 0.479797 0.158630
0.481201 0.483765 0.133331
0.507690 0.486115 0.116730
0.534363 0.486145 0.086517
0.556976 0.484375 0.058868
0.579803 0.483551 0.038300
0.603241 0.484497 0.028381
0.627747 0.487366 0.028778
0.653839 0.491089 0.029694
0.680817 0.495483 0.027557
0.706177 0.500824 0.022919
0.728943 0.505798 0.020416
0.749603 0.509796 0.018219
0.766296 0.512482 0.016174
0.783264 0.515106 0.014099
0.802704 0.517059 0.007355
0.820068 0.520294 0.007446
0.837982 0.523499 0.007507
0.859619 0.533386 0.040344
0.881531 0.553101 0.123657
0.185272 0.478790 0.204895
0.185974 0.480652 0.202820
0.186707 0.483002 0.200745
0.187561 0.485962 0.198700
0.188324 0.491943 0.195953
0.189514 0.498962 0.190033
0.211731 0.505676 0.191650
0.251251 0.512054 0.194977
0.295502 0.511963 0.197998
0.332550 0.506134 0.198608
0.365234 0.500885 0.195923
0.394501 0.495575 0.190918
0.422455 0.492981 0.181000
0.452942 0.498199 0.165466
0.482117 0.502533 0.143677
0.508881 0.505646 0.120544
0.534454 0.507233 0.102264
0.556335 0.507019 0.079773
0.579071 0.505981 0.055786
0.601715 0.505432 0.035034
0.625977 0.507599 0.031067
0.650635 0.510498 0.030029
0.676666 0.513794 0.030884
0.705505 0.518799 0.031738
0.730499 0.523468 0.024963
0.752441 0.527954 0.022675
0.769623 0.531006 0.020691
0.786987 0.533783 0.018768
0.804688 0.536652 0.016541
0.823242 0.539459 0.014374
0.843292 0.541595 0.007721
0.864594 0.554779 0.057861
0.881866 0.571350 0.128815
0.186371 0.498230 0.206024
0.186890 0.500092 0.203705
0.187439 0.502808 0.201447
0.188049 0.506134 0.199219
0.188690 0.512329 0.196350
0.189728 0.519562 0.190948
0.209381 0.526398 0.191040
0.247681 0.532837 0.193604
0.293243 0.534760 0.196228
0.330811 0.529236 0.196259
0.364960 0.523743 0.195099
0.394989 0.518768 0.189728
0.422333 0.513367 0.182251
0.452362 0.516144 0.168335
0.482208 0.520874 0.149872
0.509583 0.524414 0.127197
0.535187 0.527069 0.108856
0.556427 0.527588 0.093079
0.578369 0.527740 0.072662
0.601135 0.527588 0.052338
0.624207 0.528076 0.035583
0.648834 0.530396 0.031677
0.674347 0.533508 0.031219
0.701080 0.536926 0.032043
0.729126 0.541626 0.032898
0.755249 0.545685 0.027222
0.772858 0.548889 0.025177
0.790161 0.551941 0.023102
0.808502 0.555115 0.021057
0.826965 0.557892 0.018951
0.845825 0.560822 0.016724
0.869263 0.575073 0.071228
0.883759 0.588531 0.128418
0.186920 0.518585 0.206421
0.187286 0.520386 0.204041
0.187653 0.523621 0.201508
0.187866 0.528229 0.198914
0.188019 0.534332 0.195557
0.188446 0.541473 0.190002
0.205109 0.548279 0.189423
0.243378 0.554840 0.191498
0.289459 0.559448 0.192657
0.328461 0.553375 0.193359
0.363220 0.548035 0.191284
0.394958 0.542664 0.187805
0.423187 0.537476 0.180145
0.451141 0.534821 0.169037
0.481812 0.539825 0.153412
0.510101 0.543762 0.134552
0.536346 0.546753 0.112061
0.556641 0.547791 0.098236
0.578094 0.548615 0.085327
0.600372 0.548859 0.066071
0.623505 0.549164 0.048920
0.647217 0.550354 0.036926
0.672455 0.552582 0.031464
0.699249 0.555969 0.032379
0.726074 0.559143 0.033325
0.754089 0.563385 0.034149
0.774353 0.566010 0.034271
0.792969 0.568298 0.027374
0.811096 0.571442 0.025208
0.829987 0.574646 0.022980
0.848969 0.577820 0.020782
0.870361 0.592957 0.080719
0.885620 0.604401 0.127319
0.185944 0.540039 0.205383
0.186249 0.542358 0.202850
0.186493 0.546082 0.200195
0.186676 0.551300 0.197540
0.186432 0.557526 0.193848
0.186279 0.564484 0.188232
0.200745 0.571228 0.186462
0.238983 0.577728 0.187866
0.285828 0.584442 0.188995
0.325104 0.578705 0.188202
0.361328 0.572784 0.187164
0.393677 0.567688 0.182861
0.423737 0.562256 0.177582
0.450684 0.556671 0.167969
0.480774 0.559052 0.153656
0.509735 0.563354 0.136932
0.536957 0.566864 0.118103
0.557800 0.568085 0.100006
0.578308 0.569214 0.088165
0.599976 0.570251 0.077667
0.622711 0.570679 0.060211
0.646484 0.571472 0.046326
0.671204 0.573242 0.037262
0.697632 0.575714 0.032654
0.725525 0.579071 0.033630
0.752686 0.582092 0.034485
0.773041 0.584076 0.035156
0.793579 0.586365 0.035736
0.814178 0.588501 0.029510
0.833069 0.591705 0.027313
0.851990 0.594971 0.024963
0.872192 0.609711 0.083984
0.884918 0.621765 0.133820
0.184143 0.562744 0.203278
0.184143 0.565430 0.200439
0.183990 0.569702 0.197449
0.183655 0.575806 0.194275
0.183350 0.582153 0.190460
0.183014 0.588867 0.184998
0.195190 0.595459 0.182281
0.232819 0.601990 0.182892
0.281097 0.608734 0.183258
0.321411 0.604889 0.182831
0.358795 0.598663 0.181641
0.392242 0.593292 0.177368
0.422974 0.587921 0.171143
0.451294 0.582458 0.162720
0.479126 0.579071 0.151245
0.508911 0.583435 0.136536
0.536804 0.587219 0.120087
0.558167 0.588867 0.104980
0.579132 0.590179 0.087921
0.600189 0.591400 0.077667
0.622192 0.592651 0.069519
0.645844 0.593506 0.055450
0.670502 0.594818 0.044312
0.696594 0.596863 0.036652
0.724243 0.599548 0.033997
0.753448 0.602936 0.034973
0.772827 0.604156 0.035522
0.791901 0.605194 0.036224
0.813538 0.607635 0.036896
0.835114 0.610260 0.036987
0.855377 0.612762 0.029358
0.874634 0.626984 0.086487
0.884003 0.639526 0.141144
0.181427 0.585388 0.200256
0.180664 0.591187 0.196411
0.180145 0.595673 0.193024
0.179260 0.602020 0.189178
0.178741 0.608154 0.185242
0.178406 0.614594 0.180206
0.188690 0.621185 0.176636
0.226593 0.627716 0.176483
0.276184 0.634460 0.176147
0.317749 0.632141 0.175323
0.355347 0.626221 0.173004
0.389893 0.620483 0.168549
0.422211 0.614563 0.164124
0.451721 0.608826 0.156281
0.478699 0.602905 0.146606
0.507782 0.604370 0.133453
0.536285 0.608337 0.118896
0.558105 0.610291 0.106171
0.579559 0.611938 0.091736
0.600769 0.613251 0.075500
0.622437 0.614563 0.065735
0.645294 0.616272 0.062439
0.670013 0.617584 0.051270
0.695953 0.619354 0.042389
0.723724 0.621704 0.036438
