滤镜资源/Lutify.me Free 3D LUTs Package/3D LUTs/Color Grading LUTs/Standard (Rec709 and DCI P3) LUTs/Heulandite - Rec709.cube
# Created by: Lutify.me
# Copyright: (c) Copyright Lutify.me 2016, G.T. Colord LTD
# Website: https://lutify.me
# Contact: help@lutify.me
LUT_3D_SIZE 5
0.012207 0.008179 0.009064
0.274872 0.023376 0.000031
0.501495 0.026703 0.000000
0.622040 0.030060 0.000000
0.734650 0.037323 0.000031
0.082123 0.192139 0.099487
0.252808 0.168182 0.006104
0.480377 0.207581 0.000000
0.619080 0.232483 0.000031
0.741943 0.251251 0.000000
0.168427 0.386169 0.187073
0.297699 0.390350 0.189240
0.540924 0.391968 0.019897
0.717896 0.431427 0.006317
0.863281 0.468506 0.061981
0.185944 0.540039 0.205383
0.285828 0.584442 0.188995
0.536957 0.566864 0.118103
0.725525 0.579071 0.033630
0.884918 0.621765 0.133820
0.132233 0.741699 0.164978
0.256409 0.789185 0.114594
0.534149 0.744537 0.062775
0.723511 0.757874 0.021149
0.876556 0.786102 0.144257
0.000000 0.049896 0.065002
0.221405 0.067413 0.185608
0.559875 0.033386 0.148560
0.698700 0.003479 0.115173
0.837189 0.004272 0.094574
0.000031 0.187531 0.179749
0.169647 0.220764 0.233429
0.499359 0.239197 0.196960
0.695435 0.235962 0.164093
0.852509 0.238312 0.147827
0.093323 0.407837 0.276764
0.195190 0.438812 0.292725
0.538910 0.449463 0.252502
0.736938 0.476440 0.192261
0.882141 0.504608 0.201508
0.138397 0.575806 0.309570
0.181976 0.619843 0.312927
0.533234 0.617188 0.281036
0.739899 0.637054 0.257935
0.902161 0.662354 0.253387
0.087860 0.778290 0.311371
0.139374 0.824799 0.317078
0.545898 0.847382 0.297089
0.742676 0.823700 0.284058
0.907990 0.846100 0.361664
0.000000 0.107971 0.135193
0.078247 0.193939 0.282227
0.459015 0.142670 0.364777
0.620819 0.118713 0.366211
0.791504 0.102539 0.359375
0.000031 0.219849 0.248199
0.089966 0.262878 0.313110
0.439209 0.292542 0.420868
0.689117 0.271698 0.423553
0.901764 0.247406 0.403656
0.000031 0.400848 0.393005
0.000031 0.444183 0.429749
0.480408 0.522064 0.535156
0.754181 0.536194 0.488983
0.924042 0.545410 0.470428
0.000031 0.573334 0.434479
0.041382 0.628876 0.451874
0.529724 0.706207 0.525909
0.759430 0.699921 0.530731
0.930511 0.722778 0.505096
0.000031 0.786560 0.457245
0.038513 0.840546 0.468323
0.526154 0.913849 0.539795
0.766174 0.898895 0.539154
0.941589 0.903442 0.594482
0.000031 0.157227 0.195984
0.053528 0.235168 0.316437
0.436981 0.222168 0.449890
0.567322 0.184357 0.498230
0.719055 0.159851 0.511688
0.000031 0.248016 0.291901
0.086243 0.302094 0.372101
0.407166 0.334595 0.609558
0.616394 0.318329 0.566986
0.802612 0.294189 0.583893
0.000000 0.421509 0.471191
0.000031 0.456360 0.518799
0.451294 0.554321 0.642181
0.726929 0.553925 0.670380
0.951355 0.539886 0.654602
0.000031 0.572784 0.556427
0.000031 0.621033 0.590851
0.490356 0.706940 0.680969
0.775482 0.740509 0.707428
0.960022 0.753113 0.686981
0.000031 0.758820 0.572632
0.000031 0.830872 0.593536
0.494995 0.925385 0.690216
0.780090 0.962189 0.721283
0.964752 0.938110 0.755798
0.000031 0.220154 0.277283
0.058807 0.289917 0.389008
0.388306 0.308838 0.655121
0.555939 0.270691 0.580841
0.700714 0.209412 0.642914
0.000031 0.303772 0.378052
0.095490 0.360992 0.464508
0.322174 0.406219 0.743073
0.602814 0.367706 0.671204
0.767487 0.326050 0.725677
0.000000 0.455200 0.565674
0.083740 0.526123 0.675323
0.432983 0.590729 0.792114
0.728760 0.572235 0.839050
0.872833 0.571686 0.835846
0.000000 0.601593 0.692963
0.000031 0.654938 0.768219
0.452148 0.739471 0.855591
0.760864 0.766174 0.927032
0.935333 0.768616 0.892242
0.000000 0.780823 0.740021
0.000031 0.847687 0.786652
0.472443 0.921326 0.861389
0.763763 0.964386 0.904175
0.991425 0.974945 0.937347
