滤镜资源/Lutify.me Free 3D LUTs Package/3D LUTs/Color Grading LUTs/Standard (Rec709 and DCI P3) LUTs/Hiddenite - Rec709.cube
# Created by: Lutify.me
# Copyright: (c) Copyright Lutify.me 2016, G.T. Colord LTD
# Website: https://lutify.me
# Contact: help@lutify.me
LUT_3D_SIZE 33
0.000000 0.000000 0.000000
0.003906 0.003906 0.005737
0.007874 0.007874 0.011566
0.016663 0.010010 0.015228
0.028931 0.010864 0.017975
0.042053 0.011719 0.020477
0.056122 0.012665 0.023285
0.071411 0.013519 0.026245
0.088043 0.014526 0.029358
0.106018 0.015533 0.032654
0.125275 0.016510 0.036102
0.145966 0.017548 0.039642
0.167908 0.018646 0.043396
0.191101 0.019714 0.047058
0.214111 0.021667 0.049744
0.237976 0.023621 0.052673
0.262756 0.025604 0.055695
0.288300 0.027588 0.058716
0.314484 0.029602 0.061981
0.341064 0.031525 0.065125
0.368011 0.033508 0.068695
0.395233 0.035461 0.072418
0.422607 0.037354 0.076141
0.450317 0.039307 0.079926
0.478119 0.041260 0.083923
0.506012 0.043182 0.087860
0.534149 0.045166 0.091858
0.562378 0.047150 0.096161
0.590759 0.049133 0.100250
0.619293 0.051086 0.104614
0.647919 0.053070 0.108856
0.676697 0.055084 0.113251
0.705536 0.057098 0.117706
0.007660 0.007660 0.011627
0.011566 0.011566 0.017517
0.015533 0.015533 0.023407
0.026794 0.016602 0.025940
0.039459 0.017365 0.028412
0.052490 0.018311 0.031219
0.066956 0.019104 0.033997
0.082367 0.020081 0.037140
0.098541 0.021606 0.039276
0.115845 0.023224 0.041779
0.134491 0.024933 0.044250
0.154449 0.026825 0.046478
0.175201 0.028717 0.049194
0.198120 0.030426 0.052185
0.221558 0.032257 0.055054
0.246124 0.034088 0.058197
0.271698 0.035767 0.061676
0.298248 0.037506 0.065186
0.324982 0.039337 0.068695
0.352539 0.041077 0.072357
0.380035 0.042877 0.076263
0.408478 0.044464 0.080566
0.436432 0.046234 0.084686
0.465149 0.047882 0.089050
0.492981 0.049866 0.093140
0.521027 0.051880 0.097229
0.549164 0.053864 0.101501
0.577545 0.055817 0.105835
0.605988 0.057892 0.110138
0.634583 0.059937 0.114471
0.663330 0.062012 0.118866
0.692169 0.064026 0.123566
0.721130 0.066162 0.127991
0.015442 0.015442 0.023560
0.018799 0.019714 0.028900
0.023468 0.023773 0.032684
0.034515 0.025269 0.033997
0.046448 0.026642 0.035645
0.058777 0.028107 0.037567
0.072235 0.029755 0.039246
0.086761 0.031555 0.041077
0.103088 0.033112 0.043304
0.120239 0.035004 0.045593
0.139526 0.036560 0.048126
0.159302 0.038696 0.050293
0.180878 0.040344 0.053406
0.203705 0.042145 0.056305
0.227448 0.044067 0.059265
0.252106 0.045990 0.062378
0.277435 0.047913 0.065674
0.304108 0.049683 0.069214
0.330933 0.051544 0.072723
0.358917 0.053162 0.076691
0.386536 0.055084 0.080658
0.414642 0.056824 0.084747
0.443024 0.058533 0.089111
0.471893 0.060150 0.093628
0.500732 0.061798 0.098541
0.529938 0.063477 0.103180
0.559113 0.065125 0.108032
0.588928 0.066620 0.113464
0.618347 0.068329 0.118378
0.648743 0.069733 0.123993
0.678558 0.071381 0.129150
0.707794 0.073364 0.134155
0.736847 0.075531 0.138885
0.016754 0.028168 0.028534
0.019562 0.032990 0.033112
0.026733 0.035980 0.036072
0.037750 0.037476 0.037628
0.049133 0.039215 0.039124
0.061951 0.040649 0.040802
0.075500 0.042328 0.042694
0.090454 0.044006 0.044556
0.106873 0.045654 0.046722
0.124268 0.047638 0.049042
0.143036 0.049500 0.051453
0.163330 0.051514 0.053619
0.184937 0.053345 0.056763
0.207611 0.055389 0.059479
0.231598 0.057251 0.062469
0.256378 0.059174 0.065582
0.281921 0.061188 0.068970
0.308350 0.063171 0.072357
0.335510 0.065094 0.076050
0.362671 0.067169 0.079529
0.390411 0.069031 0.083557
0.418945 0.070770 0.087921
0.447174 0.072662 0.092224
0.476166 0.074341 0.096832
0.504852 0.076141 0.101624
0.534119 0.077881 0.106262
0.563629 0.079468 0.111450
0.593231 0.081116 0.116699
0.622742 0.082916 0.121735
0.653015 0.084473 0.127136
0.683014 0.086182 0.132538
0.713562 0.087677 0.138336
0.743958 0.089325 0.144104
0.017426 0.042145 0.032867
0.020081 0.047089 0.037384
0.029572 0.049133 0.039551
0.040588 0.050720 0.041260
0.052673 0.052185 0.042847
0.065063 0.053986 0.044434
0.079010 0.055603 0.046265
0.093842 0.057434 0.048309
0.110199 0.059326 0.050507
0.127991 0.061188 0.052551
0.146973 0.063293 0.054932
0.167450 0.065186 0.057526
0.189117 0.067261 0.060211
0.211761 0.069397 0.062805
0.235809 0.071381 0.065979
0.260651 0.073486 0.068909
0.286499 0.075562 0.072418
0.312622 0.077759 0.075592
0.339722 0.079803 0.079285
0.366913 0.081940 0.082916
0.394989 0.083954 0.086945
0.422791 0.086029 0.091187
0.451050 0.087982 0.095490
0.479614 0.090027 0.099823
0.508148 0.092041 0.104309
0.537109 0.093964 0.109131
0.566345 0.095886 0.113739
0.595612 0.097809 0.118805
0.625336 0.099670 0.123962
0.654633 0.101746 0.128906
0.684906 0.103455 0.134460
0.714874 0.105316 0.139771
0.745209 0.107086 0.145447
0.018158 0.057037 0.037659
0.022675 0.061218 0.041840
0.032684 0.063141 0.043640
0.043762 0.064789 0.045349
0.055939 0.066315 0.046906
0.068512 0.068176 0.048431
0.082336 0.070007 0.050232
0.097382 0.071930 0.052307
0.114105 0.073761 0.054413
0.131927 0.075836 0.056610
0.151367 0.077789 0.059082
0.171875 0.079987 0.061676
0.193542 0.082123 0.064270
0.216400 0.084442 0.066925
0.240326 0.086639 0.069977
0.265442 0.088806 0.073029
0.290894 0.091156 0.076202
0.317383 0.093445 0.079620
0.344391 0.095642 0.083252
0.371948 0.097900 0.086914
0.399353 0.100128 0.090790
0.427490 0.102264 0.095245
0.455750 0.104401 0.099579
0.483917 0.106720 0.103577
0.512421 0.108917 0.108124
0.541412 0.110931 0.112885
0.570221 0.113220 0.117188
0.599548 0.115295 0.122284
0.628632 0.117523 0.126984
0.658112 0.119629 0.132172
0.688019 0.121613 0.137390
0.717499 0.123840 0.142303
0.747559 0.125793 0.147888
0.018982 0.072998 0.043396
0.025543 0.076416 0.046539
0.035645 0.078491 0.048431
0.046997 0.080170 0.049805
0.058960 0.081879 0.051392
0.071899 0.083679 0.053162
0.085876 0.085571 0.054962
0.101379 0.087524 0.056885
0.118103 0.089630 0.058899
0.136047 0.091827 0.061249
0.155579 0.093994 0.063385
0.176392 0.096191 0.065979
0.198334 0.098480 0.068634
0.221283 0.100800 0.071686
0.245422 0.103210 0.074371
0.270355 0.105560 0.077789
0.296021 0.108093 0.080627
0.322418 0.110504 0.084412
0.349457 0.112915 0.088013
0.377014 0.115173 0.091766
0.404633 0.117554 0.095795
0.432648 0.119965 0.099701
0.460785 0.122314 0.103912
0.489075 0.124664 0.108185
0.517548 0.127045 0.112671
0.546417 0.129333 0.117157
0.575012 0.131714 0.121765
0.604065 0.134033 0.126434
0.633301 0.136353 0.131226
0.662659 0.138672 0.136108
0.692108 0.140991 0.141205
0.721619 0.143311 0.146393
0.751495 0.145508 0.151520
0.019745 0.090515 0.049316
0.028717 0.093048 0.051514
0.038635 0.095428 0.053375
0.050140 0.097198 0.054718
0.062256 0.098938 0.056305
0.075531 0.100739 0.058136
0.089600 0.102905 0.059906
0.105225 0.104919 0.061981
0.122375 0.107056 0.063904
0.140472 0.109344 0.066254
0.160156 0.111633 0.068634
0.181030 0.114105 0.070953
0.202972 0.116486 0.073822
0.226318 0.118896 0.076782
0.250549 0.121429 0.079498
0.275482 0.123993 0.082825
0.301300 0.126556 0.085999
0.327850 0.129089 0.089661
0.354889 0.131622 0.093323
0.382507 0.134125 0.097107
0.410095 0.136658 0.101074
0.437988 0.139282 0.104858
0.466156 0.141785 0.109039
0.494385 0.144287 0.113281
0.523010 0.146759 0.117798
0.551636 0.149353 0.122162
0.580414 0.151794 0.126831
0.609406 0.154297 0.131439
0.638458 0.156799 0.136139
0.667847 0.159180 0.140991
0.697083 0.161774 0.145874
0.726654 0.164124 0.151093
0.756317 0.166656 0.156219
0.022705 0.108765 0.054871
0.031586 0.111603 0.057068
0.041901 0.113800 0.058807
0.053467 0.115692 0.060333
0.066071 0.117401 0.061859
0.079041 0.119537 0.063660
0.093689 0.121552 0.065460
0.109375 0.123810 0.067352
0.126556 0.126129 0.069458
0.145020 0.128448 0.071930
0.164917 0.130890 0.074036
0.186066 0.133392 0.076691
0.208221 0.135956 0.079376
0.231232 0.138611 0.082367
0.255737 0.141266 0.085236
0.280914 0.143890 0.088623
0.306946 0.146484 0.091980
0.333588 0.149231 0.095703
0.360565 0.151917 0.099335
0.388214 0.154602 0.102997
0.415894 0.157227 0.106964
0.443756 0.160034 0.110718
0.471954 0.162659 0.114899
0.500153 0.165314 0.119110
0.528656 0.167969 0.123596
0.557343 0.170654 0.127869
0.586121 0.173279 0.132507
0.615082 0.175873 0.137115
0.644287 0.178528 0.141846
0.673401 0.181213 0.146515
0.702759 0.183746 0.151489
0.732086 0.186432 0.156494
0.761719 0.189087 0.161560
0.026154 0.128448 0.060547
0.035065 0.131409 0.062836
0.045197 0.133850 0.064941
0.056641 0.135895 0.066589
0.069489 0.137695 0.067902
0.083191 0.139648 0.069733
0.097748 0.141815 0.071686
0.113678 0.144287 0.073547
0.131195 0.146545 0.075836
0.149780 0.149109 0.077820
0.169769 0.151611 0.080383
0.190948 0.154327 0.083069
0.213379 0.156921 0.085815
0.236694 0.159760 0.088593
0.261078 0.162537 0.091827
0.286469 0.165222 0.095337
0.312622 0.168091 0.098419
0.339294 0.170929 0.102081
0.366486 0.173798 0.105530
0.393982 0.176514 0.109619
0.421906 0.179321 0.113403
0.449890 0.182190 0.117340
0.478027 0.184967 0.121552
0.506287 0.187805 0.125641
0.534821 0.190643 0.129913
0.563477 0.193329 0.134399
0.592224 0.196167 0.138977
0.621124 0.199036 0.143311
0.650208 0.201752 0.148071
0.679413 0.204559 0.152802
0.708649 0.207336 0.157715
0.738159 0.210052 0.162689
0.767731 0.212860 0.167633
0.029633 0.149597 0.067383
0.038239 0.152863 0.069824
0.048279 0.155579 0.071777
0.060486 0.157318 0.073090
0.073212 0.159424 0.075012
0.086914 0.161530 0.076569
0.101929 0.163727 0.078400
0.118042 0.166168 0.080597
0.135742 0.168610 0.082581
0.154510 0.171265 0.085083
0.174591 0.173920 0.087708
0.196014 0.176758 0.090179
0.218628 0.179474 0.093018
0.242218 0.182251 0.095978
0.266785 0.185150 0.099182
0.292267 0.188110 0.102325
0.318359 0.191132 0.105774
0.345184 0.194092 0.109253
0.372589 0.196991 0.112915
0.400146 0.200012 0.116516
0.428009 0.202911 0.120514
0.456024 0.205902 0.124420
0.484131 0.208862 0.128296
0.512543 0.211792 0.132690
0.541077 0.214691 0.136871
0.569794 0.217590 0.141205
0.598450 0.220581 0.145630
0.627563 0.223389 0.150269
0.656586 0.226349 0.155029
0.685699 0.229279 0.159790
0.715118 0.232208 0.164490
0.744385 0.235107 0.169403
0.773956 0.237976 0.174347
0.033081 0.172150 0.074707
0.041229 0.175964 0.077423
0.051666 0.178619 0.079407
0.063995 0.180420 0.080902
0.076996 0.182556 0.082397
0.090820 0.184723 0.084320
0.105743 0.187195 0.086212
0.122559 0.189575 0.088043
0.140259 0.192139 0.090363
0.159393 0.194794 0.092743
0.179565 0.197723 0.095093
0.201263 0.200531 0.097839
0.224030 0.203400 0.100677
0.247803 0.206360 0.103638
0.272644 0.209351 0.106720
0.298126 0.212433 0.109924
0.324432 0.215515 0.113251
0.351349 0.218628 0.116669
0.378845 0.221649 0.120636
0.406342 0.224792 0.124329
0.434326 0.227814 0.128326
0.462372 0.230957 0.132019
0.490631 0.234009 0.136139
0.519043 0.237030 0.140289
0.547546 0.240051 0.144562
0.576294 0.243164 0.148834
0.605072 0.246185 0.153381
0.634003 0.249176 0.157837
0.663177 0.252228 0.162445
0.692322 0.255341 0.167084
0.721649 0.258331 0.171997
0.750977 0.261414 0.176758
0.780457 0.264343 0.181763
0.036774 0.196198 0.082581
0.044495 0.200348 0.085571
0.055084 0.203033 0.087616
0.067505 0.205017 0.088989
0.080719 0.207153 0.090607
0.095062 0.209259 0.092194
0.110168 0.211823 0.094269
0.127045 0.214355 0.096313
0.144958 0.217041 0.098511
0.164337 0.219818 0.100800
0.184967 0.222687 0.103363
0.206726 0.225677 0.105988
0.229614 0.228668 0.108795
0.253662 0.231689 0.111908
0.278503 0.234863 0.114990
0.304199 0.238007 0.118195
0.330688 0.241211 0.121552
0.357666 0.244446 0.125153
0.385162 0.247650 0.128784
0.412994 0.250793 0.132660
0.440765 0.254059 0.136292
0.468933 0.257263 0.140259
0.497131 0.260468 0.144226
0.525665 0.263550 0.148438
0.554291 0.266754 0.152618
0.583008 0.269897 0.157013
0.611816 0.273041 0.161316
0.640747 0.276184 0.165741
0.669861 0.279358 0.170288
0.699097 0.282501 0.175110
0.728394 0.285645 0.179810
0.757812 0.288788 0.184753
0.787354 0.291901 0.189636
0.040405 0.221527 0.090607
0.047791 0.226105 0.093903
0.058441 0.228973 0.095947
0.071106 0.231018 0.097351
0.084534 0.233093 0.099060
0.098999 0.235321 0.100647
0.114807 0.237701 0.102539
0.131592 0.240387 0.104736
0.149994 0.243103 0.106995
0.169434 0.246063 0.109406
0.190216 0.248993 0.112030
0.212128 0.251984 0.114716
0.235199 0.255157 0.117554
0.259460 0.258331 0.120483
0.284485 0.261597 0.123718
0.310486 0.264801 0.126892
0.336792 0.268188 0.130310
0.363983 0.271484 0.133820
0.391571 0.274841 0.137451
0.419434 0.278076 0.141052
0.447479 0.281403 0.144989
0.475647 0.284637 0.149048
0.503906 0.287903 0.153076
0.532379 0.291229 0.157043
0.561005 0.294495 0.161316
0.589752 0.297729 0.165680
0.618591 0.301056 0.169861
0.647705 0.304260 0.174469
0.676727 0.307526 0.178955
0.706055 0.310730 0.183746
0.735382 0.313965 0.188446
0.764648 0.317230 0.193115
0.794159 0.320465 0.198120
0.044220 0.248108 0.099213
0.050934 0.253326 0.102875
0.061798 0.256134 0.104828
0.074890 0.257996 0.106354
0.088623 0.260162 0.107971
0.103119 0.262604 0.109680
0.119202 0.265015 0.111572
0.136414 0.267609 0.113770
0.154816 0.270599 0.115936
0.174652 0.273407 0.118439
0.195618 0.276520 0.121033
0.217865 0.279572 0.123749
0.241119 0.282806 0.126617
0.265228 0.286133 0.129578
0.290527 0.289429 0.132721
0.316589 0.292786 0.136017
0.343353 0.296143 0.139435
0.370605 0.299561 0.143097
0.398224 0.302917 0.146729
0.426086 0.306366 0.150330
0.454132 0.309753 0.154236
0.482269 0.313202 0.158112
0.510712 0.316559 0.162170
0.539215 0.319946 0.166290
0.567963 0.323242 0.170410
0.596680 0.326569 0.174683
0.625610 0.329956 0.179077
0.654724 0.333282 0.183533
0.683868 0.336670 0.188049
0.713043 0.339935 0.192719
0.742462 0.343292 0.197418
0.771729 0.346619 0.202209
0.801270 0.349915 0.207031
0.048004 0.275757 0.107849
0.054932 0.281067 0.111725
0.065063 0.284515 0.114227
0.078186 0.286469 0.115601
0.092377 0.288544 0.117157
0.107635 0.290771 0.118805
0.123779 0.293304 0.120850
0.141235 0.295959 0.122955
0.159943 0.298828 0.125427
0.179840 0.301941 0.127716
0.201080 0.304993 0.130402
0.223389 0.308197 0.133179
0.247009 0.311493 0.136139
0.271454 0.314850 0.139099
0.296753 0.318207 0.142303
0.322876 0.321655 0.145508
0.349792 0.325104 0.149048
0.377106 0.328583 0.152557
0.404755 0.332123 0.156189
0.432800 0.335541 0.160065
0.460907 0.339050 0.163757
0.489166 0.342499 0.167755
0.517639 0.345947 0.171814
0.546234 0.349426 0.175842
0.574890 0.352844 0.180054
0.603668 0.356262 0.184387
0.632721 0.359711 0.188568
0.661743 0.363159 0.193085
0.690918 0.366516 0.197754
0.720123 0.369934 0.202209
0.749451 0.373352 0.206970
0.778992 0.376801 0.211670
0.808563 0.380066 0.216583
0.051941 0.304352 0.117157
0.057709 0.310516 0.121552
0.068695 0.313599 0.123810
0.082092 0.315643 0.125244
0.096588 0.317657 0.126770
0.112061 0.319794 0.128571
0.128479 0.322357 0.130463
0.146210 0.325073 0.132629
0.165131 0.328003 0.135071
0.185272 0.331177 0.137573
0.206543 0.334351 0.140320
0.229218 0.337555 0.143158
0.252838 0.340912 0.146057
0.277557 0.344299 0.149078
0.303101 0.347778 0.152222
0.329346 0.351257 0.155579
0.356232 0.354858 0.159088
0.383698 0.358398 0.162628
0.411469 0.361938 0.166260
0.439575 0.365509 0.169952
0.467651 0.369080 0.173828
0.496124 0.372528 0.177765
0.524536 0.376129 0.181763
0.553223 0.379669 0.185822
0.581909 0.383148 0.190063
0.610748 0.386627 0.194305
0.639801 0.390167 0.198639
0.668793 0.393646 0.203064
0.698059 0.397125 0.207550
0.727386 0.400543 0.212128
0.756866 0.403961 0.216888
0.786224 0.407410 0.221619
0.815735 0.410858 0.226440
0.055939 0.333740 0.126801
0.060699 0.340820 0.131897
0.072174 0.343658 0.133942
0.085785 0.345642 0.135406
0.100677 0.347626 0.136871
0.116272 0.349915 0.138611
0.132935 0.352448 0.140625
0.151154 0.355103 0.142792
0.170227 0.358124 0.145142
0.190613 0.361145 0.147766
0.212219 0.364410 0.150391
0.235107 0.367676 0.153107
0.258911 0.371063 0.156067
0.283600 0.374542 0.159332
0.309265 0.378052 0.162537
0.335693 0.381592 0.165924
0.362823 0.385223 0.169312
0.390350 0.388855 0.172852
0.418182 0.392365 0.176697
0.446259 0.396088 0.180359
0.474609 0.399658 0.184235
0.502991 0.403259 0.188080
0.531555 0.406891 0.192139
0.560181 0.410370 0.196198
0.589050 0.413971 0.200317
0.617950 0.417542 0.204681
0.646973 0.421021 0.209045
0.676025 0.424561 0.213379
0.705353 0.428070 0.218018
0.734589 0.431610 0.222504
0.764038 0.435150 0.227112
0.793518 0.438599 0.231934
0.822998 0.442108 0.236664
0.059967 0.363708 0.136658
0.064575 0.371002 0.141937
0.075562 0.374329 0.144379
0.089417 0.376343 0.145874
0.104706 0.378143 0.147247
0.120697 0.380371 0.148834
0.137634 0.382904 0.150940
0.156036 0.385620 0.153107
0.175232 0.388672 0.155609
0.196075 0.391663 0.158112
0.217865 0.394928 0.160797
0.240936 0.398254 0.163696
0.264801 0.401733 0.166626
0.289886 0.405151 0.169861
0.315704 0.408691 0.173065
0.342102 0.412415 0.176483
0.369293 0.415985 0.180023
0.397034 0.419739 0.183502
0.424927 0.423309 0.187286
0.453094 0.427002 0.191040
0.481415 0.430634 0.194794
0.509857 0.434235 0.198822
0.538452 0.437866 0.202820
0.567169 0.441498 0.206818
0.596008 0.445068 0.211182
0.625000 0.448700 0.215393
0.654053 0.452332 0.219666
0.683228 0.455841 0.224152
0.712555 0.459473 0.228607
0.741913 0.463043 0.233124
0.771271 0.466553 0.237793
0.800842 0.470093 0.242493
0.830383 0.473724 0.247345
0.064026 0.394043 0.146698
0.068695 0.401550 0.152161
0.078888 0.405579 0.155182
0.093140 0.407379 0.156586
0.108582 0.409241 0.158051
0.124786 0.411530 0.159698
0.142303 0.413910 0.161652
0.160950 0.416595 0.163879
0.180542 0.419525 0.166290
0.201508 0.422577 0.168793
0.223480 0.425934 0.171631
0.246735 0.429230 0.174561
0.270874 0.432678 0.177551
0.296082 0.436157 0.180664
0.322021 0.439758 0.183899
0.348602 0.443451 0.187317
0.375946 0.447083 0.190887
0.403717 0.450806 0.194519
0.431763 0.454437 0.198212
0.459900 0.458221 0.201935
0.488220 0.461853 0.205841
0.516785 0.465485 0.209900
0.545502 0.469147 0.213959
0.574219 0.472870 0.217957
0.603180 0.476501 0.222198
0.632172 0.480103 0.226379
0.661255 0.483734 0.230621
0.690399 0.487396 0.235107
0.719757 0.490967 0.239502
0.749176 0.494568 0.244171
0.778625 0.498230 0.248779
0.808136 0.501801 0.253357
0.837646 0.505432 0.258148
0.068176 0.424835 0.157043
0.072906 0.432281 0.162720
0.082092 0.437042 0.166321
0.096130 0.439270 0.167999
0.112244 0.440826 0.169128
0.129608 0.442535 0.170685
0.147003 0.445068 0.172577
0.165833 0.447754 0.174805
0.185791 0.450653 0.177155
0.206818 0.453796 0.179840
0.229218 0.457031 0.182434
0.252533 0.460480 0.185425
0.277008 0.463837 0.188416
0.302185 0.467377 0.191742
0.328339 0.471039 0.195068
0.355255 0.474640 0.198547
0.382477 0.478394 0.202118
0.410278 0.482147 0.205719
0.438385 0.485809 0.209473
0.466644 0.489563 0.213196
0.495178 0.493256 0.217163
0.523682 0.496979 0.220917
0.552460 0.500702 0.225037
0.581238 0.504456 0.229095
0.610107 0.508087 0.233337
0.639252 0.511749 0.237579
0.668335 0.515442 0.241913
0.697601 0.519165 0.246246
0.726898 0.522736 0.250732
0.756348 0.526398 0.255188
0.785919 0.529999 0.259888
0.815338 0.533661 0.264587
0.845032 0.537292 0.269318
0.072418 0.455719 0.167694
0.077179 0.463318 0.173401
0.085236 0.468903 0.177734
0.099121 0.471283 0.179504
0.116180 0.472473 0.180450
0.133636 0.474213 0.181854
0.151611 0.476532 0.183777
0.170776 0.479126 0.185913
0.190948 0.482086 0.188416
0.212372 0.485138 0.190948
0.234955 0.488342 0.193726
0.258362 0.491821 0.196686
0.283020 0.495300 0.199829
0.308441 0.498779 0.203033
0.334686 0.502411 0.206360
0.361481 0.506165 0.209808
0.389038 0.509857 0.213287
0.417023 0.513641 0.216980
0.445099 0.517303 0.220795
0.473480 0.521088 0.224701
0.502045 0.524902 0.228455
0.530609 0.528625 0.232513
0.559387 0.532379 0.236542
0.588226 0.536072 0.240570
0.617249 0.539764 0.244873
0.646240 0.543579 0.249054
0.675507 0.547150 0.253296
0.704773 0.550934 0.257782
0.734070 0.554657 0.262177
0.763611 0.558289 0.266693
0.792999 0.561981 0.271271
0.822601 0.565643 0.275940
0.852356 0.569275 0.280823
0.076691 0.486938 0.178497
0.081543 0.494507 0.184387
0.088409 0.501007 0.189392
0.102753 0.503204 0.191162
0.119873 0.504395 0.192108
0.137817 0.505890 0.193390
0.156281 0.508179 0.195251
0.175720 0.510773 0.197479
0.196228 0.513672 0.199738
0.217865 0.516724 0.202423
0.240479 0.520020 0.205292
0.264221 0.523407 0.208191
0.289062 0.526825 0.211273
0.314575 0.530457 0.214569
0.340973 0.534088 0.217926
0.368011 0.537842 0.221375
0.395508 0.541534 0.225006
0.423553 0.545319 0.228699
0.451874 0.549103 0.232452
0.480225 0.552856 0.236206
0.508850 0.556641 0.240173
0.537476 0.560425 0.244049
0.566345 0.564148 0.248108
0.595215 0.567963 0.252319
0.624207 0.571655 0.256439
0.653381 0.575439 0.260681
0.682617 0.579224 0.265015
0.711945 0.582947 0.269440
0.741272 0.586639 0.273895
0.770752 0.590393 0.278442
0.800385 0.594116 0.282928
0.829926 0.597778 0.287628
0.859619 0.601440 0.292297
0.080963 0.518250 0.189514
0.085907 0.525879 0.195557
0.091370 0.533508 0.201538
0.106018 0.535522 0.203094
0.123901 0.536407 0.203827
0.142273 0.537842 0.205078
0.160828 0.540131 0.206940
0.180786 0.542572 0.208984
0.201355 0.545502 0.211426
0.223236 0.548523 0.214081
0.246155 0.551788 0.216797
0.270142 0.555145 0.219788
0.295074 0.558655 0.222961
0.320831 0.562225 0.226318
0.347290 0.565918 0.229706
0.374512 0.569550 0.233185
0.402100 0.573364 0.236847
0.430145 0.577240 0.240417
0.458496 0.580994 0.244263
0.487030 0.584778 0.248077
0.515625 0.588531 0.252075
0.544342 0.592438 0.255981
0.573242 0.596191 0.260071
0.602173 0.599976 0.264160
0.631195 0.603760 0.268341
0.660522 0.607513 0.272614
0.689758 0.611298 0.277008
0.718964 0.615082 0.281250
0.748474 0.618774 0.285797
0.777985 0.622589 0.290253
0.807587 0.626373 0.294800
0.837219 0.630066 0.299561
0.866821 0.633820 0.304077
0.085358 0.549744 0.200806
0.090393 0.557434 0.206879
0.095581 0.565277 0.213074
0.109100 0.568237 0.215454
0.127167 0.569061 0.216034
0.146271 0.570221 0.217163
0.165497 0.572235 0.218842
0.185577 0.574738 0.220917
0.206573 0.577515 0.223389
0.228668 0.580505 0.225922
0.251862 0.583710 0.228729
0.276001 0.587067 0.231781
0.300995 0.590576 0.234924
0.326965 0.594208 0.238190
0.353668 0.597839 0.241577
0.380920 0.601624 0.245117
0.408691 0.605347 0.248779
0.436829 0.609192 0.252441
0.465210 0.613068 0.256317
0.493774 0.616882 0.260162
0.522369 0.620697 0.264099
0.551239 0.624512 0.268036
0.580200 0.628357 0.272156
0.609192 0.632172 0.276215
0.638245 0.635956 0.280548
0.667480 0.639832 0.284698
0.696808 0.643555 0.288971
0.726105 0.647339 0.293365
0.755646 0.651123 0.297852
0.785248 0.654907 0.302307
0.814697 0.658722 0.306854
0.844391 0.662476 0.311462
0.874084 0.666138 0.316223
0.089874 0.581543 0.212250
0.094971 0.589264 0.218414
0.100220 0.597076 0.224731
0.111969 0.601227 0.228180
0.130768 0.601715 0.228546
0.150391 0.602600 0.229431
0.170105 0.604523 0.230957
0.190704 0.606750 0.232910
0.211792 0.609650 0.235382
0.234222 0.612610 0.237946
0.257507 0.615875 0.240845
0.281799 0.619293 0.243896
0.307159 0.622742 0.247040
0.333160 0.626343 0.250275
0.359894 0.630035 0.253754
0.387329 0.633789 0.257294
0.415222 0.637512 0.260895
0.443451 0.641357 0.264618
0.471863 0.645203 0.268402
0.500427 0.649109 0.272491
0.529236 0.652924 0.276306
0.558075 0.656708 0.280334
0.587006 0.660583 0.284393
0.616150 0.664459 0.288574
0.645294 0.668304 0.292725
0.674530 0.672089 0.296997
0.703857 0.675934 0.301270
0.733215 0.679749 0.305603
0.762878 0.683594 0.310089
0.792480 0.687347 0.314606
0.822021 0.691101 0.319092
0.851654 0.694946 0.323669
0.881317 0.698730 0.328339
0.094360 0.613373 0.223938
0.099548 0.621155 0.230225
0.104950 0.629089 0.236664
0.115173 0.634186 0.240814
0.134644 0.634369 0.241058
0.154388 0.635376 0.241882
0.174652 0.636993 0.243286
0.195282 0.639374 0.245422
0.217072 0.642029 0.247650
0.239471 0.645020 0.250275
0.263184 0.648163 0.253113
0.287720 0.651520 0.256134
0.313202 0.655029 0.259308
0.339355 0.658630 0.262604
0.366302 0.662262 0.266083
0.393860 0.666016 0.269562
0.421692 0.669830 0.273254
0.450012 0.673676 0.277008
0.478485 0.677582 0.280853
0.507202 0.681427 0.284882
0.536011 0.685333 0.288727
0.564880 0.689148 0.292786
0.593872 0.693085 0.296844
0.623016 0.696899 0.300995
0.652252 0.700714 0.305176
