滤镜资源/Lutify.me Free 3D LUTs Package/3D LUTs/Color Grading LUTs/Standard (Rec709 and DCI P3) LUTs/Hilutite - Rec709.cube
# Created by: Lutify.me
# Copyright: (c) Copyright Lutify.me 2016, G.T. Colord LTD
# Website: https://lutify.me
# Contact: help@lutify.me
LUT_3D_SIZE 33
0.000000 0.000000 0.008636
0.000000 0.000000 0.008270
0.000000 0.000000 0.004822
0.000000 0.000000 0.003693
0.034363 0.000000 0.000275
0.070282 0.000000 0.000000
0.104889 0.000000 0.000000
0.138885 0.000000 0.000031
0.170349 0.000000 0.000000
0.202332 0.000000 0.000000
0.235779 0.000000 0.000000
0.269653 0.000000 0.000000
0.301941 0.000000 0.000000
0.333954 0.000000 0.000000
0.364594 0.000000 0.000000
0.395111 0.000000 0.000000
0.425049 0.000000 0.000000
0.453857 0.000000 0.000000
0.484497 0.000000 0.000000
0.513702 0.000000 0.000000
0.542358 0.000000 0.000000
0.570007 0.000000 0.000000
0.597229 0.000031 0.000031
0.621063 0.000000 0.000000
0.643402 0.000000 0.000000
0.664093 0.000000 0.000000
0.683594 0.000000 0.000000
0.702271 0.000000 0.000000
0.719696 0.000000 0.000000
0.736511 0.000000 0.000000
0.752838 0.000000 0.000000
0.767578 0.000000 0.000000
0.782135 0.000000 0.000000
0.000000 0.000000 0.015656
0.000000 0.000000 0.008209
0.000000 0.000000 0.003815
0.000000 0.000000 0.002289
0.027191 0.000000 0.000153
0.057648 0.000000 0.000000
0.085480 0.000000 0.000000
0.113739 0.000000 0.000000
0.141754 0.000000 0.000000
0.167053 0.000000 0.000000
0.195496 0.000000 0.000000
0.222382 0.000000 0.000000
0.249176 0.000031 0.000092
0.277191 0.000000 0.000000
0.309143 0.000000 0.000000
0.339203 0.000000 0.000000
0.368439 0.000000 0.000000
0.403320 0.000000 0.000000
0.435028 0.000000 0.000000
0.470337 0.000000 0.000000
0.504974 0.000000 0.000000
0.534454 0.000000 0.000000
0.563538 0.000000 0.000000
0.591644 0.000000 0.000000
0.616089 0.000000 0.000000
0.642487 0.000000 0.000000
0.664886 0.000000 0.000000
0.686493 0.000000 0.000000
0.706451 0.000000 0.000000
0.724213 0.000000 0.000000
0.741211 0.000000 0.000000
0.756836 0.000031 0.000031
0.771454 0.000000 0.000000
0.000000 0.005005 0.022614
0.000000 0.000183 0.015472
0.000000 0.000000 0.006744
0.005737 0.000000 0.003021
0.031921 0.000000 0.000000
0.056366 0.000824 0.000000
0.082275 0.002563 0.000000
0.106537 0.004547 0.000000
0.131104 0.005768 0.000000
0.155975 0.006561 0.000000
0.180664 0.007202 0.000000
0.203796 0.007660 0.000031
0.226807 0.008026 0.000000
0.251465 0.008087 0.000031
0.279236 0.007782 0.000000
0.308411 0.007141 0.000000
0.335510 0.005981 0.000000
0.364532 0.004913 0.000031
0.395325 0.003876 0.000000
0.429993 0.002106 0.000000
0.463745 0.001007 0.000000
0.497833 0.000000 0.000000
0.527283 0.000275 0.000031
0.556763 0.000153 0.000031
0.583954 0.000885 0.000031
0.611450 0.001068 0.000031
0.637665 0.001556 0.000000
0.662384 0.002441 0.000031
0.684845 0.003723 0.000031
0.705414 0.004822 0.000000
0.723633 0.006042 0.000031
0.739685 0.007599 0.000000
0.754913 0.009247 0.000031
0.000000 0.026123 0.032379
0.000000 0.020294 0.028717
0.000000 0.018219 0.019379
0.018799 0.017303 0.009003
0.046967 0.015808 0.000000
0.067810 0.017975 0.000000
0.091766 0.020172 0.000031
0.115692 0.021942 0.000000
0.139832 0.023804 0.000000
0.163696 0.025635 0.000031
0.187927 0.027039 0.000000
0.211517 0.028351 0.000031
0.233826 0.029053 0.000000
0.256226 0.029510 0.000031
0.280426 0.030334 0.000000
0.305664 0.029480 0.000000
0.331665 0.029022 0.000031
0.355988 0.028259 0.000000
0.381897 0.027496 0.000000
0.410004 0.026367 0.000031
0.439880 0.025238 0.000000
0.469727 0.024353 0.000031
0.499451 0.023651 0.000000
0.526794 0.023193 0.000031
0.552856 0.023376 0.000031
0.579224 0.023193 0.000000
0.605316 0.023224 0.000031
0.629852 0.023712 0.000031
0.652954 0.024384 0.000000
0.674866 0.025055 0.000000
0.695190 0.026184 0.000061
0.712738 0.027710 0.000031
0.727905 0.029846 0.000000
0.000000 0.051483 0.048859
0.000000 0.046967 0.046356
0.003662 0.044067 0.042328
0.030762 0.042603 0.029449
0.061737 0.039551 0.007599
0.087646 0.038452 0.000000
0.109619 0.040863 0.000000
0.130829 0.043640 0.000000
0.151489 0.046478 0.000000
0.174530 0.048737 0.000000
0.198608 0.051147 0.000000
0.223267 0.053436 0.000031
0.246368 0.055206 0.000000
0.269897 0.056488 0.000031
0.294189 0.057892 0.000000
0.319641 0.058929 0.000000
0.345306 0.058899 0.000031
0.368896 0.059174 0.000000
0.392029 0.058777 0.000000
0.416077 0.058807 0.000000
0.440796 0.058746 0.000000
0.465576 0.058014 0.000031
0.491089 0.058075 0.000031
0.515808 0.058197 0.000031
0.539307 0.058197 0.000000
0.562286 0.059357 0.000061
0.584442 0.059937 0.000000
0.606262 0.060699 0.000031
0.627747 0.062286 0.000061
0.648224 0.063171 0.000031
0.668427 0.065308 0.000031
0.687042 0.067444 0.000031
0.703613 0.070099 0.000031
0.000000 0.077850 0.066071
0.000000 0.076904 0.063965
0.019714 0.070801 0.061279
0.044128 0.069855 0.056793
0.073700 0.067505 0.033966
0.105377 0.062714 0.005005
0.129761 0.062744 0.000000
0.150940 0.065186 0.000031
0.171875 0.067932 0.000031
0.193024 0.071259 0.000000
0.214203 0.074554 0.000031
0.236206 0.078247 0.000000
0.258850 0.080841 0.000000
0.282288 0.083344 0.000031
0.306732 0.085541 0.000031
0.332733 0.087402 0.000000
0.359833 0.089172 0.000031
0.385651 0.090881 0.000031
0.411194 0.092468 0.000000
0.436340 0.093872 0.000031
0.462433 0.095428 0.000031
0.488342 0.097412 0.000000
0.514282 0.098816 0.000000
0.539246 0.100464 0.000031
0.562744 0.102203 0.000000
0.584564 0.104370 0.000031
0.606110 0.106567 0.000031
0.627045 0.108887 0.000031
0.647949 0.111511 0.000000
0.668304 0.114258 0.000031
0.688232 0.117493 0.000031
0.707336 0.120392 0.000031
0.725586 0.123688 0.000031
0.000000 0.105621 0.084656
0.014465 0.106995 0.082581
0.037567 0.100586 0.081299
0.060944 0.098236 0.079315
0.088043 0.096985 0.067993
0.117859 0.092346 0.033875
0.149719 0.086975 0.000916
0.171204 0.088440 0.000031
0.192566 0.090820 0.000000
0.213562 0.093750 0.000031
0.234619 0.096924 0.000000
0.256622 0.100830 0.000031
0.278229 0.104279 0.000000
0.299835 0.107758 0.000000
0.321747 0.111572 0.000031
0.345673 0.114929 0.000000
0.373108 0.117767 0.000000
0.400879 0.120392 0.000031
0.426788 0.122772 0.000031
0.452087 0.125153 0.000000
0.477692 0.127380 0.000031
0.503693 0.130127 0.000031
0.529663 0.132690 0.000031
0.555634 0.135254 0.000031
0.580505 0.138336 0.000031
0.602417 0.140900 0.000000
0.623657 0.143768 0.000031
0.644287 0.146637 0.000031
0.664459 0.149750 0.000031
0.684479 0.152588 0.000031
0.703888 0.155884 0.000031
0.722534 0.158966 0.000031
0.740601 0.162354 0.000000
0.008911 0.133575 0.103180
0.030853 0.135498 0.100067
0.056519 0.131744 0.100494
0.078674 0.125885 0.098572
0.103699 0.125641 0.094330
0.131042 0.124146 0.076233
0.162506 0.116394 0.027496
0.190613 0.112823 0.000031
0.211365 0.114532 0.000031
0.233093 0.117126 0.000000
0.254669 0.120026 0.000031
0.277283 0.123718 0.000031
0.299347 0.127167 0.000000
0.321625 0.130981 0.000000
0.344452 0.134369 0.000000
0.368500 0.138275 0.000000
0.393707 0.142181 0.000031
0.419830 0.146484 0.000000
0.444977 0.150360 0.000031
0.467834 0.153534 0.000031
0.491882 0.156982 0.000031
0.517303 0.159668 0.000031
0.543030 0.162964 0.000031
0.568115 0.166168 0.000031
0.593445 0.169525 0.000031
0.615723 0.172577 0.000000
0.636230 0.175690 0.000031
0.656555 0.178589 0.000031
0.676331 0.181824 0.000031
0.695587 0.185120 0.000031
0.714508 0.188385 0.000000
0.732635 0.191589 0.000031
0.750519 0.195160 0.000031
0.028992 0.161224 0.121490
0.046448 0.164062 0.117432
0.073212 0.162689 0.118896
0.097198 0.154755 0.118744
0.121033 0.153778 0.116089
0.145264 0.153015 0.108643
0.173370 0.150696 0.081177
0.203674 0.141541 0.024048
0.229919 0.139069 0.000031
0.251190 0.140961 0.000031
0.273987 0.143646 0.000031
0.297180 0.146912 0.000000
0.320068 0.150330 0.000000
0.343292 0.153961 0.000000
0.366577 0.157684 0.000000
0.391357 0.161682 0.000031
0.417023 0.165558 0.000000
0.444397 0.169891 0.000000
0.470490 0.174164 0.000031
0.493805 0.177734 0.000031
0.517090 0.181427 0.000031
0.540588 0.185028 0.000000
0.563477 0.188904 0.000031
0.586395 0.192993 0.000000
0.609467 0.196869 0.000000
0.630554 0.200775 0.000031
0.650452 0.204681 0.000000
0.669128 0.207947 0.000000
0.687073 0.211700 0.000031
0.705444 0.215118 0.000031
0.723877 0.218658 0.000061
0.741272 0.222046 0.000000
0.758484 0.225739 0.000000
0.049713 0.189331 0.138367
0.066010 0.192413 0.134186
0.091461 0.192780 0.135986
0.117126 0.184967 0.136719
0.138702 0.181061 0.134491
0.161926 0.181091 0.131287
0.186707 0.180389 0.119751
0.213501 0.177307 0.086731
0.242218 0.167755 0.023560
0.267120 0.165527 0.000031
0.291473 0.167969 0.000031
0.316223 0.170959 0.000031
0.340393 0.174316 0.000031
0.364349 0.177673 0.000031
0.388336 0.181183 0.000031
0.413300 0.184998 0.000031
0.439941 0.189240 0.000000
0.467224 0.193695 0.000000
0.493896 0.197784 0.000031
0.518036 0.201599 0.000000
0.540710 0.205566 0.000031
0.563507 0.209259 0.000031
0.586426 0.213348 0.000031
0.608734 0.217438 0.000000
0.630920 0.221558 0.000031
0.652710 0.225647 0.000000
0.672180 0.229614 0.000031
0.690216 0.233063 0.000031
0.707794 0.236938 0.000031
0.724915 0.240509 0.000000
0.741516 0.244415 0.000031
0.757904 0.248322 0.000000
0.773438 0.252075 0.000000
0.069061 0.217590 0.153900
0.083527 0.220398 0.150391
0.108887 0.221619 0.152283
0.134644 0.215515 0.153534
0.155579 0.208130 0.152313
0.177490 0.208405 0.148438
0.200653 0.208252 0.143280
0.225128 0.207092 0.127075
0.251648 0.203430 0.090454
0.279846 0.193268 0.019440
0.307068 0.192566 0.000031
0.333130 0.195129 0.000031
0.357910 0.197937 0.000031
0.383240 0.201477 0.000031
0.408234 0.205017 0.000031
0.433838 0.208771 0.000031
0.460541 0.212830 0.000000
0.487976 0.217316 0.000031
0.514740 0.221680 0.000000
0.539276 0.225800 0.000000
0.561981 0.229675 0.000000
0.584442 0.233429 0.000000
0.606598 0.237549 0.000031
0.628113 0.242004 0.000031
0.649811 0.245911 0.000031
0.671234 0.250427 0.000061
0.691132 0.254822 0.000031
0.708466 0.258423 0.000000
0.725647 0.262238 0.000061
0.742035 0.266327 0.000031
0.758118 0.270050 0.000031
0.773682 0.274109 0.000031
0.789154 0.278046 0.000031
0.087891 0.246277 0.168274
0.101715 0.249359 0.165619
0.125458 0.250885 0.167114
0.150970 0.246368 0.168915
0.173004 0.239166 0.168488
0.192657 0.235565 0.165070
0.214203 0.236359 0.163483
0.236572 0.235779 0.152802
0.261169 0.234222 0.135742
0.288666 0.230286 0.093903
0.315918 0.220703 0.024628
0.346497 0.219788 0.000763
0.372803 0.222565 0.000031
0.399536 0.225830 0.000031
0.425262 0.229156 0.000031
0.451385 0.232880 0.000031
0.478668 0.237122 0.000031
0.506165 0.241486 0.000031
0.532654 0.245789 0.000031
0.557709 0.250305 0.000031
0.580017 0.254181 0.000000
0.602112 0.258118 0.000000
0.623779 0.262238 0.000000
0.645294 0.266571 0.000000
0.666382 0.270874 0.000000
0.686768 0.275482 0.000000
0.706360 0.279877 0.000000
0.724640 0.284119 0.000000
0.741028 0.288025 0.000031
0.756836 0.292175 0.000031
0.772461 0.295929 0.000031
0.787445 0.300110 0.000031
0.802307 0.304199 0.000000
0.105560 0.277283 0.181030
0.119965 0.280090 0.179321
0.141907 0.281860 0.180542
0.166199 0.279083 0.182739
0.188721 0.272125 0.183716
0.207306 0.264709 0.181366
0.227203 0.264557 0.176117
0.248688 0.265564 0.173920
0.270874 0.264709 0.161499
0.295959 0.263214 0.142609
0.325073 0.258850 0.099213
0.353241 0.250000 0.029968
0.382874 0.249359 0.007782
0.411957 0.251068 0.000031
0.439331 0.254547 0.000031
0.466400 0.258270 0.000031
0.493958 0.262573 0.000031
0.521210 0.266998 0.000031
0.548035 0.271790 0.000031
0.573669 0.276093 0.000031
0.596130 0.280182 0.000031
0.617859 0.284393 0.000031
0.638947 0.288452 0.000031
0.660248 0.292938 0.000031
0.681030 0.297485 0.000031
0.700562 0.301727 0.000031
0.720001 0.306549 0.000000
0.738251 0.311096 0.000031
0.754425 0.315002 0.000061
0.770264 0.319153 0.000061
0.784912 0.323303 0.000031
0.799835 0.327484 0.000000
0.817566 0.331360 0.000031
0.122620 0.309357 0.192780
0.136292 0.312317 0.191071
0.156616 0.314240 0.191895
0.180115 0.312805 0.194275
0.202271 0.306152 0.195770
0.221954 0.299225 0.194885
0.239594 0.293823 0.190704
0.259979 0.294830 0.184937
0.281342 0.295685 0.181519
0.304840 0.295319 0.167938
0.329651 0.293671 0.147491
0.360107 0.289032 0.107208
0.387512 0.280273 0.039185
0.417816 0.279572 0.013611
0.448181 0.281219 0.002075
0.477142 0.284607 0.000031
0.505310 0.288696 0.000031
0.533447 0.293579 0.000031
0.560516 0.298340 0.000031
0.586792 0.303009 0.000031
0.608826 0.307129 0.000031
0.630005 0.311340 0.000031
0.651062 0.315552 0.000031
0.672394 0.320129 0.000031
0.692719 0.324768 0.000031
0.712494 0.329315 0.000031
0.732086 0.334259 0.000031
0.750122 0.339020 0.000031
0.766449 0.343201 0.000031
0.781799 0.347382 0.000031
0.795868 0.351715 0.000031
0.810242 0.355682 0.000000
0.831024 0.359741 0.000031
0.135468 0.342163 0.201233
0.150330 0.344940 0.200470
0.169556 0.346985 0.201141
0.191864 0.347076 0.203186
0.213135 0.340515 0.204865
0.233337 0.333710 0.205170
0.251434 0.326874 0.203033
0.270264 0.324127 0.197205
0.290833 0.325226 0.189911
0.313263 0.326355 0.185608
0.337189 0.326233 0.170807
0.362762 0.324646 0.147949
0.389038 0.319885 0.113190
0.419067 0.311798 0.052338
0.449829 0.309235 0.018829
0.481140 0.311798 0.006989
0.512390 0.315338 0.001587
0.541351 0.319885 0.000031
0.568848 0.324585 0.000031
0.595093 0.329376 0.000031
0.617950 0.333862 0.000031
0.639557 0.338409 0.000031
0.660767 0.342682 0.000031
0.681641 0.347351 0.000031
0.701324 0.351898 0.000031
0.720734 0.356689 0.000031
0.740204 0.361633 0.000031
0.758942 0.366699 0.000031
0.774841 0.371002 0.000031
0.790253 0.375275 0.000031
0.804810 0.379456 0.000031
0.819366 0.383911 0.000031
0.841736 0.388214 0.000031
0.146729 0.376892 0.207581
0.162109 0.379333 0.207733
0.180450 0.381622 0.208435
0.201660 0.383118 0.210419
0.222260 0.376923 0.211792
0.242676 0.370087 0.212677
0.262085 0.363220 0.211975
0.279785 0.356110 0.208527
0.299835 0.355347 0.201050
0.321411 0.356659 0.191833
0.343842 0.358032 0.186249
0.368713 0.358063 0.170654
0.392609 0.356476 0.148407
0.418549 0.352722 0.116608
0.445679 0.344666 0.063660
0.478180 0.340637 0.026428
0.512207 0.342865 0.013550
0.543304 0.347260 0.007965
0.574005 0.351837 0.002411
0.601349 0.356476 0.000031
0.623627 0.360565 0.000031
0.645599 0.364777 0.000031
0.667206 0.369476 0.000031
0.687927 0.374390 0.000031
0.708374 0.379120 0.000031
0.728180 0.384186 0.000031
0.747620 0.389343 0.000031
0.766602 0.394348 0.000031
0.781586 0.398834 0.000031
0.796661 0.403412 0.000031
0.811462 0.407532 0.000031
0.825653 0.412048 0.000031
0.849030 0.416046 0.000031
0.157654 0.413757 0.213165
0.172577 0.416412 0.212952
0.190338 0.418365 0.213837
0.209808 0.420105 0.215393
0.229828 0.415405 0.216949
0.250031 0.408630 0.217438
0.270081 0.401550 0.217377
0.289032 0.394562 0.214996
0.306732 0.387115 0.210571
0.329010 0.388519 0.202057
0.351196 0.389832 0.190979
0.374084 0.391083 0.180817
0.397400 0.391052 0.169128
0.421204 0.389709 0.147339
0.447083 0.386261 0.117584
0.474548 0.379791 0.073547
0.504456 0.374176 0.031342
0.540009 0.376068 0.021851
0.572754 0.379517 0.013367
0.601410 0.384521 0.009155
0.626617 0.388916 0.005280
0.650269 0.392670 0.001373
0.672394 0.397308 0.000031
0.692352 0.401489 0.000031
0.712921 0.406464 0.000031
0.732910 0.411743 0.000031
0.752502 0.416687 0.000031
0.771088 0.422119 0.000031
0.787720 0.426971 0.000031
0.803741 0.431549 0.000031
0.818390 0.436188 0.000031
0.832092 0.440063 0.000031
0.856262 0.445099 0.000031
0.165375 0.453033 0.216431
0.179108 0.455414 0.215790
0.197327 0.457397 0.216888
0.216278 0.459229 0.218170
0.236084 0.455963 0.219574
0.255951 0.449493 0.220123
0.276154 0.442413 0.219849
0.296204 0.435791 0.218414
0.315735 0.428192 0.215454
0.334808 0.421875 0.209564
0.357361 0.423340 0.200562
0.379639 0.424469 0.188416
0.401703 0.425293 0.174469
0.424988 0.425690 0.166595
0.449463 0.424866 0.146118
0.475494 0.422211 0.117676
0.503601 0.417267 0.081177
0.531647 0.411194 0.038788
0.563721 0.411499 0.025726
0.596985 0.414764 0.021515
0.625366 0.417908 0.014923
0.649597 0.422302 0.011047
0.673035 0.426849 0.007019
0.695251 0.431213 0.004669
0.717834 0.435730 0.000610
0.737732 0.440582 0.000031
0.756134 0.445129 0.000031
0.774963 0.450500 0.000031
0.792297 0.455353 0.000031
0.808014 0.460052 0.000031
0.822693 0.464417 0.000031
0.837158 0.468903 0.000031
0.864197 0.475189 0.000031
0.171204 0.493744 0.217102
0.185211 0.496002 0.216461
0.202332 0.497833 0.217621
0.221039 0.499664 0.218567
0.240265 0.498474 0.219116
0.260132 0.492035 0.219482
0.280914 0.485016 0.220123
0.301514 0.478088 0.219116
0.321808 0.470673 0.216522
0.341461 0.463165 0.212036
0.361145 0.457642 0.205750
0.383911 0.459320 0.196716
0.406464 0.460266 0.184387
0.429016 0.460968 0.169495
0.452576 0.461517 0.158325
0.477661 0.461273 0.142151
0.503967 0.459106 0.115417
0.532471 0.455383 0.083984
0.559814 0.450226 0.047333
0.588257 0.449127 0.030609
0.615784 0.450531 0.025604
0.643066 0.453674 0.024414
0.670135 0.457153 0.022980
0.694427 0.461212 0.014526
0.716949 0.465820 0.010437
0.738190 0.470673 0.008148
0.759491 0.475433 0.003937
0.780121 0.480011 0.000031
0.796143 0.484619 0.000031
0.812103 0.488739 0.000031
0.827087 0.493134 0.000031
0.841492 0.497192 0.000031
0.864410 0.506775 0.012238
0.174164 0.535095 0.215393
0.188965 0.537292 0.215240
0.205933 0.539215 0.215942
0.224030 0.541107 0.216492
0.243225 0.541534 0.216827
0.263000 0.534882 0.217072
0.283783 0.528137 0.216736
0.304993 0.521210 0.215820
0.326111 0.514099 0.213898
0.346619 0.506653 0.210449
0.366150 0.499084 0.205688
0.385803 0.494141 0.199677
0.409302 0.495361 0.190155
0.432556 0.496338 0.177704
0.456421 0.496918 0.162506
0.480164 0.497284 0.143372
0.505890 0.497559 0.135254
0.532928 0.495880 0.110382
0.560303 0.493530 0.084656
0.586792 0.489624 0.055359
0.611481 0.487610 0.036255
0.636230 0.488403 0.031342
0.661469 0.490173 0.028778
0.688324 0.493103 0.025879
0.714630 0.496643 0.024628
0.737671 0.500854 0.018097
0.758850 0.505463 0.013824
0.779846 0.510376 0.009644
0.798096 0.514832 0.007233
0.815277 0.519165 0.005066
0.831879 0.522858 0.000824
0.845093 0.526337 0.000031
0.865448 0.537781 0.023987
0.176086 0.573090 0.211853
0.191864 0.575287 0.212189
0.209045 0.577240 0.212646
0.226807 0.578979 0.212860
0.245728 0.579895 0.212830
0.265564 0.573822 0.212952
0.286346 0.567169 0.212494
0.307770 0.560333 0.211304
0.329437 0.553314 0.209625
0.349396 0.546051 0.206879
0.369965 0.538605 0.202942
0.389130 0.531097 0.198029
0.410095 0.527222 0.190063
0.434570 0.528534 0.180267
0.459290 0.529541 0.167969
0.484192 0.530212 0.152435
0.508789 0.530518 0.133057
0.534637 0.530853 0.125488
0.560486 0.529694 0.103729
0.586761 0.527924 0.082581
0.610626 0.525269 0.060089
0.634216 0.523468 0.042755
0.658295 0.523621 0.034241
0.682556 0.525238 0.031708
0.707001 0.527161 0.030579
0.731720 0.530029 0.029266
0.756561 0.534180 0.027832
0.779175 0.537811 0.019318
0.797791 0.542572 0.017120
0.815826 0.546783 0.012634
0.831512 0.550903 0.010498
0.846832 0.554382 0.008575
0.864044 0.566956 0.040192
0.178192 0.609802 0.207367
0.194183 0.611725 0.207550
0.210846 0.613434 0.207581
0.228912 0.615601 0.207611
0.247894 0.616791 0.207184
0.267670 0.610474 0.207214
0.288544 0.603882 0.206696
0.309143 0.597809 0.204620
0.331207 0.590851 0.202423
0.351593 0.583893 0.200073
0.371857 0.576447 0.196747
0.392120 0.569275 0.192535
0.412109 0.561554 0.186737
0.434967 0.558990 0.178192
0.460480 0.560364 0.168091
0.486115 0.561432 0.155457
0.511963 0.562225 0.140381
0.537659 0.562256 0.120605
0.562592 0.562469 0.110474
0.586853 0.561768 0.097382
0.610229 0.560333 0.079407
0.633911 0.558533 0.061157
0.657288 0.557098 0.045685
0.680878 0.557007 0.036224
0.704315 0.558563 0.032806
0.727600 0.560516 0.033569
0.750671 0.562622 0.032196
0.774261 0.566071 0.030792
0.796844 0.569519 0.029266
0.815674 0.572968 0.022278
0.832245 0.576843 0.018097
0.847412 0.580475 0.015991
0.865021 0.593475 0.050140
0.178711 0.645721 0.201752
0.195221 0.647552 0.201630
0.212494 0.649292 0.201447
0.230377 0.650848 0.201050
0.249146 0.652435 0.200500
0.269226 0.646362 0.200287
0.289642 0.640350 0.198486
0.310394 0.633759 0.197510
0.331573 0.627045 0.195892
0.352173 0.620148 0.193726
0.373352 0.613007 0.190613
0.394012 0.606079 0.185211
0.415070 0.598389 0.180298
0.435455 0.590698 0.174011
0.460754 0.589508 0.164185
0.487122 0.590942 0.153412
0.513947 0.591919 0.140808
0.540527 0.592651 0.125519
0.565430 0.592621 0.108337
0.587585 0.592194 0.095215
0.610413 0.591858 0.090240
0.633698 0.590851 0.074768
0.657257 0.589752 0.059967
0.680359 0.588806 0.046814
0.703430 0.588806 0.037445
0.726410 0.590149 0.033966
0.748840 0.592102 0.034760
0.770477 0.594055 0.035400
0.791321 0.596008 0.033783
0.812012 0.599426 0.034515
0.831177 0.602142 0.032806
0.848236 0.604919 0.023224
0.865143 0.617889 0.061371
0.179169 0.680176 0.194458
0.195831 0.681732 0.194153
0.213440 0.683716 0.193695
0.231445 0.685303 0.193115
0.250214 0.686218 0.192322
0.270142 0.680206 0.191925
0.289886 0.674561 0.190216
0.310638 0.668335 0.189209
0.331573 0.661621 0.187775
0.352142 0.655243 0.184601
0.373779 0.648285 0.181915
0.395660 0.640961 0.178375
0.417999 0.633453 0.174042
0.438843 0.625793 0.166962
0.460541 0.618317 0.159668
0.488007 0.619171 0.149536
0.515259 0.620331 0.138885
0.542206 0.621124 0.126007
0.567627 0.621979 0.112457
0.590088 0.621552 0.097778
0.611877 0.620575 0.080872
0.634430 0.620972 0.083557
0.657410 0.620270 0.070160
0.680725 0.619568 0.057648
0.703613 0.619324 0.047150
0.725983 0.619476 0.038910
0.748199 0.620697 0.035645
0.770020 0.622681 0.035767
0.790375 0.624359 0.036530
0.809357 0.625916 0.037079
0.826477 0.627380 0.037811
0.845367 0.630493 0.036407
0.866547 0.641235 0.068878
0.179749 0.713348 0.186005
0.196686 0.714874 0.185303
0.214447 0.716431 0.184723
0.232910 0.718201 0.183868
0.251556 0.718475 0.182922
0.271149 0.712494 0.182678
0.290161 0.706940 0.181030
0.310638 0.700836 0.180237
0.331665 0.694305 0.179077
0.352570 0.688263 0.175964
0.374878 0.681152 0.173645
0.396881 0.674835 0.169067
0.419617 0.667542 0.165070
0.442413 0.659912 0.160278
0.464966 0.651764 0.154297
0.488770 0.647095 0.145538
0.516785 0.648102 0.135315
0.543640 0.648834 0.124023
0.568939 0.649384 0.112732
0.591675 0.649414 0.100830
0.614105 0.648987 0.086700
0.636047 0.648590 0.071106
0.658539 0.648804 0.072357
0.681122 0.648621 0.064575
0.703979 0.648468 0.054443
0.726776 0.648560 0.046570
0.748566 0.648926 0.039978
0.770020 0.650116 0.037048
0.790375 0.651520 0.036987
0.809509 0.653259 0.037506
0.826355 0.654358 0.038269
0.842834 0.655670 0.039215
0.863190 0.665924 0.083282
0.180176 0.744537 0.176300
0.197327 0.746002 0.175598
0.215088 0.747345 0.174988
0.233124 0.748505 0.174225
0.251221 0.748291 0.173157
0.270935 0.742584 0.173035
0.290100 0.737274 0.171265
0.310699 0.731354 0.170654
0.331329 0.725677 0.167908
0.353546 0.719238 0.166534
0.376251 0.712585 0.164581
0.398773 0.706238 0.160583
0.422363 0.699158 0.157196
0.445953 0.691895 0.152924
0.468689 0.684418 0.146271
0.491547 0.676605 0.140503
0.518677 0.674652 0.131805
0.544220 0.675629 0.123596
0.570526 0.676422 0.114594
0.593781 0.676910 0.105621
0.616638 0.677002 0.095367
0.639557 0.677185 0.084534
0.662048 0.677246 0.073303
0.684418 0.677856 0.074402
0.707245 0.678528 0.074799
0.729736 0.678864 0.068207
0.751465 0.679230 0.061920
0.772736 0.680054 0.057892
0.792725 0.680939 0.055481
0.811829 0.682495 0.055084
0.828583 0.683502 0.055847
0.845123 0.684509 0.056305
0.863251 0.691772 0.093109
0.180695 0.773834 0.166626
0.198059 0.774933 0.165802
0.216003 0.776001 0.164978
0.233704 0.777222 0.164093
0.251740 0.776245 0.162964
0.271179 0.770782 0.162842
0.290588 0.765900 0.161102
0.311401 0.759827 0.160370
0.332275 0.754364 0.157806
0.354736 0.748230 0.156769
0.377228 0.742340 0.153320
0.401031 0.735504 0.151031
0.425446 0.728821 0.148438
0.449158 0.722260 0.143585
0.473389 0.714966 0.139648
0.496307 0.707794 0.133331
0.520172 0.700684 0.127991
0.546509 0.701080 0.121277
0.571686 0.701904 0.114502
0.595764 0.702484 0.107788
0.619049 0.703094 0.100281
0.642548 0.703613 0.092133
0.665405 0.704437 0.084534
0.687958 0.704834 0.076263
0.710480 0.705841 0.078094
