滤镜资源/Lutify.me Free 3D LUTs Package/3D LUTs/Color Grading LUTs/Standard (Rec709 and DCI P3) LUTs/Howlite - Rec709.cube
# Created by: Lutify.me
# Copyright: (c) Copyright Lutify.me 2016, G.T. Colord LTD
# Website: https://lutify.me
# Contact: help@lutify.me
LUT_3D_SIZE 5
0.000000 0.000000 0.000000
0.201050 0.004211 0.004211
0.486084 0.010132 0.010132
0.739746 0.015442 0.015442
0.953522 0.019928 0.019928
0.000000 0.196930 0.000000
0.210815 0.196930 0.000031
0.498535 0.200317 0.012634
0.747467 0.207062 0.023163
0.961182 0.211517 0.027588
0.000000 0.503693 0.000000
0.210907 0.503662 0.000031
0.509796 0.503693 0.000000
0.772034 0.504089 0.008331
0.987427 0.506592 0.018677
0.000000 0.771393 0.000000
0.210968 0.771362 0.000031
0.509796 0.771393 0.000000
0.775757 0.771393 0.000031
0.999908 0.771423 0.000031
0.000000 1.000000 0.000000
0.210968 0.999939 0.000031
0.509766 1.000000 0.000000
0.775879 0.999969 0.000031
1.000000 1.000000 0.000000
0.000000 0.000000 0.310028
0.196228 0.012543 0.282593
0.466919 0.024841 0.293701
0.728119 0.025024 0.306030
0.947968 0.026093 0.311920
0.000000 0.196960 0.310028
0.210846 0.196930 0.310028
0.491241 0.206482 0.309448
0.749725 0.209290 0.314850
0.963501 0.213745 0.319366
0.000000 0.503693 0.309998
0.210846 0.503693 0.309998
0.509796 0.503693 0.310028
0.766724 0.506287 0.320953
0.976929 0.511688 0.330078
0.000000 0.771393 0.309998
0.210846 0.771393 0.310059
0.509857 0.771393 0.310028
0.775818 0.771393 0.310028
0.997498 0.771576 0.315613
0.000000 1.000000 0.310059
0.210846 1.000000 0.310059
0.509796 1.000000 0.310028
0.775879 1.000000 0.310211
1.000000 1.000000 0.310028
0.000000 0.000000 0.567139
0.207886 0.004425 0.551636
0.463776 0.033630 0.512146
0.700714 0.046112 0.524597
0.917816 0.046722 0.540741
0.000000 0.196899 0.567139
0.210846 0.196930 0.567139
0.481995 0.217957 0.530334
0.726013 0.226257 0.545807
0.945007 0.226624 0.557739
0.000031 0.503693 0.567078
0.210815 0.503693 0.567108
0.509796 0.503693 0.567139
0.763641 0.509583 0.568817
0.977386 0.514038 0.573303
0.000000 0.771393 0.567047
0.210876 0.771423 0.567108
0.509796 0.771393 0.567139
0.775818 0.771393 0.567139
0.993561 0.773010 0.575928
0.000000 1.000000 0.567139
0.210968 1.000000 0.567169
0.509796 1.000000 0.567108
0.775818 0.999969 0.567108
1.000000 1.000000 0.567139
0.000000 0.000000 0.790619
0.210815 0.000031 0.790649
0.477112 0.029053 0.723938
0.704529 0.049988 0.717072
0.904205 0.060455 0.727478
0.000031 0.196899 0.790649
0.210846 0.196930 0.790619
0.497223 0.209961 0.754944
0.722687 0.234253 0.735168
0.922363 0.244781 0.745697
0.000031 0.503693 0.790497
0.210846 0.503693 0.790619
0.509796 0.503693 0.790619
0.750977 0.521362 0.763458
0.960510 0.526245 0.777313
0.000031 0.771362 0.790649
0.210846 0.771362 0.790619
0.509796 0.771423 0.790619
0.775818 0.771393 0.790619
0.989502 0.776062 0.793976
0.000000 1.000000 0.790527
0.210846 1.000000 0.790588
0.509918 1.000000 0.790619
0.775818 1.000000 0.790588
1.000000 1.000000 0.790619
0.000000 0.000000 1.000000
0.210907 0.000031 0.999817
0.490479 0.020538 0.942413
0.708191 0.053528 0.897278
0.907806 0.064056 0.907806
0.000031 0.196991 0.999725
0.210846 0.196930 1.000000
0.504730 0.204041 0.975739
0.730072 0.234772 0.921783
0.925934 0.248352 0.925934
0.000000 0.503662 1.000000
0.210846 0.503693 1.000000
0.509827 0.503754 1.000000
0.763641 0.515930 0.967651
0.954224 0.535461 0.954224
0.000031 0.771393 0.999878
0.210999 0.771332 1.000000
0.509766 0.771393 0.999969
0.775787 0.771393 1.000000
0.978943 0.786041 0.978943
0.000000 1.000000 1.000000
0.210846 1.000000 1.000000
0.509796 1.000000 1.000000
0.775818 1.000000 1.000000
1.000000 1.000000 1.000000
