滤镜资源/Lutify.me Free 3D LUTs Package/3D LUTs/Color Grading LUTs/Standard (Rec709 and DCI P3) LUTs/Howlite - Rec709.cube
# Created by: Lutify.me
# Copyright: (c) Copyright Lutify.me 2016, G.T. Colord LTD
# Website: https://lutify.me
# Contact: help@lutify.me
LUT_3D_SIZE 33
0.000000 0.000000 0.000000
0.030090 0.000610 0.000610
0.059265 0.001221 0.001221
0.086426 0.001801 0.001801
0.110291 0.002289 0.002289
0.131592 0.002747 0.002747
0.152466 0.003174 0.003174
0.175354 0.003662 0.003662
0.201050 0.004211 0.004211
0.229706 0.004791 0.004791
0.261322 0.005463 0.005463
0.295624 0.006195 0.006195
0.332123 0.006927 0.006927
0.370239 0.007751 0.007751
0.409149 0.008545 0.008545
0.447968 0.009338 0.009338
0.486084 0.010132 0.010132
0.522949 0.010925 0.010925
0.558228 0.011688 0.011688
0.591766 0.012360 0.012360
0.623596 0.013031 0.013031
0.654053 0.013672 0.013672
0.683380 0.014282 0.014282
0.711884 0.014893 0.014893
0.739746 0.015442 0.015442
0.767273 0.016022 0.016022
0.794464 0.016602 0.016602
0.821381 0.017151 0.017151
0.848083 0.017731 0.017731
0.874573 0.018250 0.018250
0.900970 0.018829 0.018829
0.927246 0.019348 0.019348
0.953522 0.019928 0.019928
0.000000 0.021912 0.000000
0.031525 0.021912 0.000183
0.060516 0.022461 0.001740
0.087311 0.023132 0.002686
0.111176 0.023621 0.003174
0.132446 0.024048 0.003601
0.153351 0.024506 0.004059
0.176208 0.024963 0.004517
0.201874 0.025513 0.005035
0.230560 0.026123 0.005646
0.262207 0.026764 0.006348
0.296478 0.027466 0.007050
0.332977 0.028259 0.007782
0.371063 0.029022 0.008575
0.410034 0.029877 0.009430
0.448853 0.030670 0.010223
0.486969 0.031464 0.011017
0.523773 0.032257 0.011749
0.559082 0.032959 0.012543
0.592590 0.033691 0.013184
0.624451 0.034302 0.013885
0.654877 0.034973 0.014496
0.684265 0.035583 0.015167
0.712738 0.036163 0.015747
0.740601 0.036804 0.016296
0.768097 0.037384 0.016846
0.795288 0.037933 0.017426
0.822266 0.038452 0.018036
0.848907 0.039032 0.018555
0.875427 0.039581 0.019104
0.901825 0.040131 0.019684
0.928162 0.040649 0.020264
0.954346 0.041260 0.020752
0.000000 0.044006 0.000000
0.031586 0.044006 0.000000
0.062012 0.044006 0.000336
0.089325 0.044342 0.001862
0.112885 0.044861 0.003082
0.133850 0.045349 0.003937
0.154541 0.045868 0.004608
0.177094 0.046478 0.005402
0.202759 0.046997 0.005920
0.231445 0.047607 0.006531
0.263031 0.048279 0.007172
0.297333 0.048950 0.007904
0.333893 0.049744 0.008698
0.371979 0.050568 0.009491
0.410889 0.051361 0.010284
0.449707 0.052185 0.011078
0.487793 0.052979 0.011841
0.524628 0.053741 0.012604
0.559906 0.054474 0.013367
0.593506 0.055115 0.014099
0.625305 0.055878 0.014740
0.655762 0.056488 0.015381
0.685150 0.057068 0.016052
0.713623 0.057648 0.016632
0.741516 0.058228 0.017212
0.769012 0.058838 0.017761
0.796234 0.059387 0.018372
0.823151 0.059967 0.018921
0.849762 0.060547 0.019409
0.876251 0.061127 0.019928
0.902649 0.061646 0.020508
0.929016 0.062134 0.021118
0.955292 0.062714 0.021698
0.000000 0.066528 0.000000
0.031586 0.066528 0.000000
0.062164 0.066528 0.000000
0.090546 0.066528 0.000275
0.114746 0.066711 0.001770
0.135986 0.067047 0.002838
0.156799 0.067413 0.003754
0.179352 0.067963 0.004791
0.204498 0.068634 0.006012
0.232819 0.069336 0.006958
0.263916 0.070160 0.008057
0.298218 0.070892 0.008789
0.334747 0.071625 0.009552
0.372803 0.072449 0.010315
0.411743 0.073242 0.011139
0.450623 0.074097 0.011993
0.488708 0.074921 0.012756
0.525543 0.075653 0.013519
0.560852 0.076355 0.014313
0.594391 0.077087 0.014984
0.626160 0.077759 0.015594
0.656677 0.078369 0.016296
0.686005 0.078979 0.016907
0.714478 0.079590 0.017487
0.742401 0.080170 0.018097
0.769836 0.080750 0.018585
0.797089 0.081329 0.019226
0.824036 0.081848 0.019806
0.850708 0.082397 0.020355
0.877228 0.083008 0.020905
0.903625 0.083496 0.021484
0.929901 0.084076 0.022003
0.956055 0.084686 0.022461
0.000000 0.089630 0.000000
0.031586 0.089630 0.000000
0.062164 0.089630 0.000000
0.090637 0.089630 0.000000
0.115692 0.089630 0.000000
0.137299 0.089691 0.001465
0.158539 0.089905 0.002380
0.181244 0.090271 0.003815
0.206818 0.090790 0.005035
0.235016 0.091431 0.006348
0.266449 0.092133 0.007385
0.299774 0.093140 0.009125
0.335632 0.094116 0.010437
0.373718 0.094940 0.011230
0.412659 0.095764 0.012054
0.451508 0.096527 0.012878
0.489624 0.097321 0.013672
0.526489 0.098083 0.014465
0.561737 0.098846 0.015198
0.595215 0.099548 0.015808
0.627136 0.100189 0.016571
0.657593 0.100861 0.017212
0.686920 0.101471 0.017822
0.715363 0.102081 0.018372
0.743286 0.102631 0.018982
0.770813 0.103210 0.019562
0.797943 0.103821 0.020081
0.824921 0.104340 0.020691
0.851562 0.104919 0.021210
0.878143 0.105438 0.021820
0.904419 0.106049 0.022278
0.930725 0.106598 0.022827
0.957062 0.107117 0.023468
0.000000 0.113617 0.000000
0.031586 0.113617 0.000000
0.062164 0.113617 0.000000
0.090637 0.113617 0.000000
0.115692 0.113617 0.000000
0.138000 0.113617 0.000000
0.159760 0.113647 0.000458
0.182648 0.113770 0.002350
0.208649 0.114075 0.003571
0.237335 0.114532 0.004913
0.268707 0.115173 0.006439
0.302399 0.115967 0.008118
0.338684 0.116791 0.009399
0.375427 0.117981 0.011414
0.414490 0.118774 0.012207
0.452423 0.119904 0.013794
0.490540 0.120667 0.014587
0.527374 0.121490 0.015350
0.562653 0.122192 0.016113
0.596191 0.122864 0.016785
0.627991 0.123566 0.017426
0.658539 0.124146 0.018158
0.687866 0.124786 0.018768
0.716339 0.125366 0.019348
0.744202 0.126007 0.019897
0.771759 0.126526 0.020508
0.798859 0.127167 0.020996
0.825867 0.127655 0.021637
0.852570 0.128235 0.022217
0.879089 0.128754 0.022766
0.905365 0.129395 0.023224
0.931671 0.129944 0.023773
0.958038 0.130432 0.024445
0.000000 0.138947 0.000000
0.031586 0.138947 0.000000
0.062195 0.138916 0.000031
0.090637 0.138947 0.000000
0.115692 0.138977 0.000031
0.138000 0.138947 0.000000
0.159912 0.138947 0.000000
0.183899 0.138947 0.000000
0.210083 0.139008 0.001709
0.238892 0.139282 0.003632
0.270599 0.139740 0.005127
0.304749 0.140381 0.006836
0.340729 0.141174 0.008728
0.378632 0.141968 0.010071
0.417206 0.142883 0.011566
0.455383 0.143860 0.013092
0.492645 0.144928 0.014709
0.528351 0.146088 0.016327
0.563660 0.146820 0.017120
0.597198 0.147522 0.017792
0.629059 0.148193 0.018494
0.659454 0.148834 0.019073
0.688843 0.149445 0.019745
0.717346 0.150024 0.020355
0.745178 0.150665 0.020874
0.772736 0.151154 0.021484
0.799927 0.151764 0.022064
0.826782 0.152344 0.022552
0.853485 0.152863 0.023132
0.880096 0.153381 0.023773
0.906464 0.153961 0.024323
0.932739 0.154510 0.024841
0.958954 0.155060 0.025360
0.000000 0.166473 0.000000
0.031586 0.166473 0.000000
0.062195 0.166473 0.000000
0.090637 0.166473 0.000000
0.115723 0.166473 0.000000
0.137970 0.166473 0.000000
0.159943 0.166473 0.000000
0.183899 0.166473 0.000000
0.210846 0.166473 0.000000
0.240387 0.166504 0.001373
0.272217 0.166718 0.003510
0.306793 0.167145 0.005249
0.343201 0.167786 0.007111
0.380798 0.168518 0.009216
0.419647 0.169312 0.010651
0.458130 0.170166 0.012177
0.495636 0.171143 0.013733
0.531738 0.172119 0.015442
0.565918 0.173187 0.017090
0.599579 0.173859 0.017761
0.630066 0.174988 0.019501
0.660583 0.175598 0.020203
0.689972 0.176208 0.020874
0.718414 0.176788 0.021423
0.746277 0.177399 0.021973
0.773865 0.177948 0.022614
0.801025 0.178497 0.023163
0.827850 0.179138 0.023621
0.854523 0.179657 0.024170
0.881165 0.180176 0.024841
0.907440 0.180786 0.025299
0.933838 0.181305 0.025940
0.960022 0.181885 0.026428
0.000000 0.196930 0.000000
0.031586 0.196930 0.000000
0.062164 0.196930 0.000000
0.090637 0.196930 0.000000
0.115692 0.196930 0.000000
0.138000 0.196930 0.000000
0.159912 0.196930 0.000000
0.183899 0.196930 0.000000
0.210815 0.196930 0.000031
0.240936 0.196930 0.000031
0.273773 0.196930 0.000793
0.308441 0.197144 0.003265
0.345337 0.197510 0.005188
0.383423 0.198029 0.007294
0.421906 0.198822 0.009552
0.460663 0.199524 0.011047
0.498535 0.200317 0.012634
0.534821 0.201202 0.014252
0.569336 0.202118 0.015930
0.601929 0.203125 0.017700
0.634003 0.203674 0.018341
0.663177 0.204742 0.020111
0.692657 0.205292 0.020752
0.721191 0.205841 0.021301
0.747467 0.207062 0.023163
0.775055 0.207581 0.023804
0.802185 0.208160 0.024323
0.829132 0.208679 0.024902
0.855774 0.209290 0.025421
0.882355 0.209808 0.026031
0.908630 0.210419 0.026489
0.935059 0.210907 0.027161
0.961182 0.211517 0.027588
0.000000 0.230255 0.000000
0.031586 0.230255 0.000000
0.062164 0.230255 0.000000
0.090637 0.230286 0.000031
0.115692 0.230255 0.000000
0.138000 0.230255 0.000000
0.159943 0.230255 0.000000
0.183868 0.230255 0.000000
0.210846 0.230255 0.000000
0.240906 0.230255 0.000000
0.274078 0.230255 0.000031
0.310028 0.230255 0.000000
0.347046 0.230408 0.002808
0.385620 0.230682 0.004913
0.424622 0.231201 0.007233
0.463074 0.231873 0.009766
0.501160 0.232544 0.011292
0.537750 0.233276 0.012878
0.572571 0.234039 0.014587
0.605408 0.234924 0.016327
0.636383 0.235809 0.018158
0.667114 0.236359 0.018677
0.695282 0.237335 0.020569
0.723938 0.237823 0.021118
0.751923 0.238403 0.021576
0.777985 0.239441 0.023590
0.805237 0.239990 0.024109
0.832245 0.240540 0.024658
0.857147 0.241669 0.026794
0.883636 0.242218 0.027313
0.910004 0.242798 0.027863
0.936279 0.243378 0.028381
0.962555 0.243896 0.028961
0.000000 0.266266 0.000000
0.031586 0.266266 0.000000
0.062134 0.266266 0.000000
0.090607 0.266266 0.000000
0.115723 0.266235 0.000031
0.138000 0.266266 0.000000
0.159912 0.266266 0.000000
0.183899 0.266266 0.000000
0.210846 0.266296 0.000031
0.240906 0.266266 0.000000
0.274048 0.266296 0.000000
0.310028 0.266266 0.000000
0.348328 0.266266 0.000000
0.387390 0.266327 0.002136
0.426849 0.266602 0.004456
0.465820 0.266998 0.007019
0.503571 0.267609 0.009705
0.540405 0.268219 0.011261
0.575562 0.268860 0.013000
0.608734 0.269562 0.014801
0.639862 0.270386 0.016541
0.670807 0.270813 0.017029
0.699158 0.271637 0.018860
0.727997 0.272125 0.019348
0.754700 0.273041 0.021301
0.782501 0.273468 0.021820
0.808197 0.274506 0.023834
0.835327 0.275024 0.024384
0.862152 0.275482 0.024872
0.886932 0.276642 0.027008
0.913391 0.277130 0.027557
0.939789 0.277618 0.028107
0.966003 0.278229 0.028503
0.000000 0.304321 0.000000
0.031586 0.304321 0.000000
0.062195 0.304321 0.000000
0.090637 0.304321 0.000000
0.115692 0.304321 0.000000
0.137970 0.304321 0.000000
0.159912 0.304352 0.000031
0.183899 0.304321 0.000000
0.210846 0.304321 0.000000
0.240875 0.304321 0.000000
0.274078 0.304321 0.000000
0.309998 0.304321 0.000031
0.348328 0.304352 0.000000
0.388275 0.304291 0.000000
0.428650 0.304352 0.001221
0.467499 0.304565 0.005035
0.506348 0.304871 0.006500
0.542847 0.305420 0.009399
0.578217 0.305878 0.011078
0.611603 0.306519 0.012817
0.643097 0.307098 0.014648
0.674255 0.307495 0.015106
0.702881 0.308167 0.016968
0.730438 0.308990 0.018890
0.758759 0.309418 0.019318
0.785217 0.310242 0.021393
0.812714 0.310669 0.021820
0.838287 0.311646 0.023987
0.865265 0.312073 0.024506
0.891937 0.312561 0.024872
0.916687 0.313599 0.027161
0.943085 0.314117 0.027588
0.969452 0.314636 0.028046
0.000000 0.343719 0.000000
0.031555 0.343719 0.000000
0.062195 0.343719 0.000000
0.090637 0.343719 0.000000
0.115723 0.343719 0.000000
0.138031 0.343719 0.000000
0.159943 0.343689 0.000031
0.183868 0.343719 0.000000
0.210876 0.343719 0.000000
0.240936 0.343719 0.000000
0.274078 0.343689 0.000031
0.310059 0.343719 0.000000
0.348328 0.343750 0.000000
0.388275 0.343719 0.000000
0.429108 0.343719 0.000000
0.469330 0.343750 0.001343
0.507965 0.343872 0.004150
0.545624 0.344086 0.005768
0.580566 0.344543 0.008881
0.614227 0.344971 0.010590
0.645996 0.345459 0.012451
0.676239 0.345978 0.014404
0.706238 0.346313 0.014740
0.734039 0.346985 0.016663
0.761169 0.347687 0.018677
0.789154 0.348083 0.019043
0.816833 0.348450 0.019440
0.842682 0.349182 0.021637
0.869720 0.349609 0.022003
0.894928 0.350555 0.024261
0.921600 0.350952 0.024689
0.948181 0.351410 0.025085
0.972778 0.352417 0.027466
0.000000 0.383942 0.000000
0.031586 0.383942 0.000000
0.062134 0.383942 0.000000
0.090637 0.383942 0.000000
0.115662 0.383942 0.000000
0.138000 0.383972 0.000031
0.159912 0.383942 0.000000
0.183899 0.383942 0.000000
0.210846 0.383972 0.000031
0.240906 0.383942 0.000000
0.274078 0.383942 0.000000
0.310028 0.383972 0.000031
0.348328 0.383942 0.000000
0.388306 0.383942 0.000031
0.429108 0.383942 0.000000
0.469818 0.383911 0.000000
0.509766 0.383942 0.000031
0.547241 0.383972 0.003082
0.583313 0.384155 0.004761
0.616577 0.384521 0.008087
0.648560 0.384888 0.009888
0.678955 0.385284 0.011780
0.709198 0.385498 0.012085
0.737274 0.386078 0.014038
0.764679 0.386566 0.016144
0.792877 0.386871 0.016479
0.819305 0.387512 0.018646
0.846680 0.387939 0.018921
0.872406 0.388611 0.021210
0.899353 0.389069 0.021515
0.924530 0.389801 0.023926
0.951202 0.390228 0.024323
0.975891 0.391205 0.026672
0.000000 0.424347 0.000000
0.031586 0.424347 0.000000
0.062164 0.424347 0.000000
0.090637 0.424347 0.000000
0.115723 0.424347 0.000000
0.138000 0.424347 0.000000
0.159973 0.424316 0.000031
0.183899 0.424347 0.000000
0.210815 0.424347 0.000000
0.240875 0.424347 0.000000
0.274017 0.424347 0.000000
0.310089 0.424347 0.000000
0.348297 0.424347 0.000000
0.388306 0.424347 0.000000
0.429047 0.424347 0.000031
0.469788 0.424377 0.000031
0.509857 0.424347 0.000061
0.548431 0.424316 0.000000
0.584778 0.424347 0.001648
0.619141 0.424469 0.003387
0.650726 0.424713 0.006958
0.681427 0.424957 0.008881
0.711823 0.425140 0.009125
0.740204 0.425507 0.011139
0.767853 0.425934 0.013245
0.794891 0.426422 0.015350
0.822815 0.426727 0.015656
0.848999 0.427338 0.017853
0.876343 0.427582 0.018219
0.901947 0.428314 0.020538
0.928772 0.428680 0.020782
0.954041 0.429382 0.023346
0.980682 0.429749 0.023651
0.000000 0.464417 0.000000
0.031647 0.464417 0.000000
0.062134 0.464417 0.000000
0.090607 0.464417 0.000000
0.115662 0.464417 0.000000
0.138000 0.464417 0.000000
0.159882 0.464417 0.000000
0.183899 0.464417 0.000000
0.210907 0.464417 0.000000
0.240936 0.464417 0.000000
0.274048 0.464417 0.000000
0.310028 0.464447 0.000031
0.348328 0.464417 0.000000
0.388245 0.464447 0.000031
0.429138 0.464386 0.000031
0.469818 0.464417 0.000000
0.509827 0.464386 0.000031
0.548401 0.464447 0.000031
0.585449 0.464386 0.000031
0.620636 0.464417 0.000031
0.653259 0.464478 0.001831
0.683563 0.464600 0.005646
0.713165 0.464783 0.007660
0.742676 0.464935 0.007782
0.770538 0.465240 0.009888
0.797882 0.465607 0.012054
0.824738 0.466034 0.014343
0.852448 0.466248 0.014587
0.878479 0.466827 0.016876
0.905701 0.467041 0.017120
0.931274 0.467651 0.019623
0.958191 0.467957 0.019897
0.983398 0.468689 0.022461
0.000000 0.503693 0.000000
0.031616 0.503693 0.000000
0.062256 0.503632 0.000031
0.090637 0.503693 0.000000
0.115723 0.503693 0.000000
0.137970 0.503693 0.000000
0.159851 0.503693 0.000000
0.183838 0.503693 0.000000
0.210907 0.503662 0.000031
0.240906 0.503693 0.000000
0.274109 0.503662 0.000031
0.309998 0.503693 0.000000
0.348389 0.503662 0.000031
0.388214 0.503693 0.000000
0.429077 0.503723 0.000031
0.469879 0.503693 0.000000
0.509796 0.503693 0.000000
0.548401 0.503693 0.000031
0.585449 0.503693 0.000031
0.620636 0.503662 0.000031
0.653961 0.503723 0.000031
0.685181 0.503693 0.001923
0.715088 0.503815 0.003967
0.743866 0.503937 0.006073
0.772034 0.504089 0.008331
0.800507 0.504242 0.008392
0.827637 0.504547 0.010712
0.854248 0.504913 0.013031
0.881744 0.505127 0.013184
0.907837 0.505554 0.015686
0.933563 0.506073 0.018219
0.960419 0.506409 0.018341
0.987427 0.506592 0.018677
0.000000 0.541840 0.000000
0.031647 0.541779 0.000031
0.062164 0.541840 0.000000
0.090607 0.541840 0.000000
0.115784 0.541779 0.000031
0.137970 0.541840 0.000000
0.159943 0.541840 0.000000
0.183899 0.541870 0.000031
0.210876 0.541840 0.000000
0.240906 0.541840 0.000000
0.274109 0.541840 0.000000
0.310089 0.541840 0.000000
0.348297 0.541840 0.000000
0.388275 0.541870 0.000031
0.429138 0.541840 0.000000
0.469849 0.541809 0.000031
0.509796 0.541809 0.000031
0.548401 0.541840 0.000031
0.585419 0.541840 0.000000
0.620605 0.541809 0.000000
0.653961 0.541870 0.000031
0.685852 0.541870 0.000031
0.716675 0.541870 0.000031
0.745758 0.541870 0.002136
0.774017 0.541931 0.004272
0.801819 0.542053 0.006561
0.830048 0.542175 0.006622
0.857056 0.542389 0.009094
0.883545 0.542694 0.011505
0.909637 0.543121 0.013885
0.936859 0.543304 0.014130
0.962616 0.543701 0.016724
0.989655 0.543945 0.016998
0.000000 0.578735 0.000000
0.031647 0.578735 0.000000
0.062164 0.578735 0.000000
0.090576 0.578735 0.000000
0.115723 0.578735 0.000000
0.138031 0.578735 0.000000
0.159973 0.578705 0.000031
0.183990 0.578705 0.000031
0.210815 0.578735 0.000000
0.240906 0.578735 0.000000
0.274109 0.578705 0.000031
0.309998 0.578735 0.000000
0.348297 0.578735 0.000000
0.388275 0.578735 0.000000
0.429108 0.578735 0.000000
0.469818 0.578766 0.000031
0.509796 0.578735 0.000000
0.548462 0.578705 0.000031
0.585449 0.578735 0.000031
0.620575 0.578766 0.000031
0.653961 0.578766 0.000031
0.685913 0.578735 0.000031
0.716736 0.578674 0.000031
0.746582 0.578705 0.000031
0.775879 0.578705 0.000061
0.803802 0.578766 0.002258
0.831329 0.578827 0.004639
0.858337 0.579010 0.007019
0.886139 0.579071 0.007172
0.912598 0.579315 0.009705
0.938599 0.579651 0.012177
0.965790 0.579834 0.012299
0.991516 0.580231 0.014954
0.000000 0.614105 0.000000
0.031647 0.614105 0.000000
0.062256 0.614044 0.000031
0.090729 0.614044 0.000031
0.115784 0.614044 0.000031
0.137970 0.614136 0.000031
0.160004 0.614075 0.000031
0.183960 0.614105 0.000000
0.210815 0.614136 0.000031
0.240936 0.614075 0.000031
0.274078 0.614105 0.000000
0.310059 0.614105 0.000000
0.348297 0.614105 0.000000
0.388306 0.614105 0.000000
0.429108 0.614105 0.000000
0.469879 0.614075 0.000031
0.509766 0.614105 0.000000
0.548431 0.614105 0.000000
0.585480 0.614105 0.000000
0.620605 0.614105 0.000000
0.654022 0.614105 0.000031
0.685944 0.614105 0.000000
0.716644 0.614105 0.000031
0.746582 0.614075 0.000031
0.775818 0.614075 0.000000
0.804657 0.614105 0.000031
0.832306 0.614075 0.002380
0.860504 0.614136 0.002441
0.887390 0.614197 0.004944
0.914001 0.614349 0.007507
0.940216 0.614594 0.010101
0.967438 0.614777 0.010162
0.993469 0.615021 0.013000
0.000000 0.647858 0.000000
0.031677 0.647797 0.000031
0.062164 0.647858 0.000000
0.090637 0.647858 0.000000
0.115662 0.647888 0.000031
0.137939 0.647888 0.000031
0.159912 0.647858 0.000000
0.183990 0.647827 0.000031
0.210846 0.647858 0.000000
0.240906 0.647888 0.000031
0.274109 0.647858 0.000000
0.309998 0.647858 0.000000
0.348328 0.647888 0.000031
0.388306 0.647827 0.000031
0.429108 0.647858 0.000000
0.469788 0.647888 0.000031
0.509766 0.647858 0.000000
0.548401 0.647888 0.000031
0.585388 0.647858 0.000000
0.620636 0.647827 0.000031
0.653931 0.647858 0.000031
0.685913 0.647888 0.000031
0.716644 0.647888 0.000031
0.746490 0.647888 0.000031
0.775879 0.647827 0.000061
0.804657 0.647888 0.000031
0.833160 0.647858 0.000031
0.861328 0.647888 0.000031
0.888428 0.647919 0.002502
0.915192 0.647919 0.005127
0.942749 0.647949 0.005249
0.968933 0.648193 0.007843
0.994995 0.648438 0.010620
0.000000 0.680176 0.000000
0.031555 0.680176 0.000000
0.062134 0.680206 0.000031
0.090698 0.680115 0.000031
0.115753 0.680176 0.000000
0.138000 0.680176 0.000000
0.159912 0.680176 0.000000
0.183838 0.680176 0.000000
0.210938 0.680145 0.000031
0.240936 0.680176 0.000000
0.273987 0.680176 0.000000
0.310028 0.680176 0.000000
0.348389 0.680176 0.000000
0.388245 0.680176 0.000000
0.429108 0.680176 0.000000
0.469788 0.680176 0.000000
0.509796 0.680176 0.000000
0.548492 0.680176 0.000000
0.585358 0.680176 0.000000
0.620575 0.680176 0.000000
0.653931 0.680176 0.000000
0.685883 0.680176 0.000031
0.716736 0.680176 0.000031
0.746521 0.680176 0.000031
0.775818 0.680176 0.000000
0.804718 0.680176 0.000031
0.833160 0.680206 0.000031
0.861420 0.680145 0.000000
0.889435 0.680115 0.000031
0.917297 0.680145 0.000061
0.943817 0.680267 0.002625
0.970276 0.680298 0.005402
0.996521 0.680450 0.008240
0.000000 0.711365 0.000000
0.031616 0.711365 0.000000
0.062164 0.711365 0.000000
0.090698 0.711304 0.000031
0.115692 0.711395 0.000031
0.138092 0.711304 0.000031
0.159973 0.711304 0.000031
0.183960 0.711334 0.000031
0.210846 0.711365 0.000000
0.240906 0.711395 0.000031
0.274048 0.711365 0.000000
0.309998 0.711365 0.000000
0.348389 0.711365 0.000000
0.388336 0.711334 0.000031
0.429138 0.711365 0.000000
0.469788 0.711365 0.000000
0.509766 0.711395 0.000031
0.548462 0.711365 0.000000
0.585449 0.711365 0.000000
0.620575 0.711395 0.000031
0.654022 0.711334 0.000031
0.685974 0.711334 0.000031
0.716766 0.711334 0.000061
0.746552 0.711365 0.000000
0.775787 0.711395 0.000031
0.804688 0.711365 0.000000
0.833221 0.711365 0.000031
0.861450 0.711304 0.000031
0.889404 0.711365 0.000000
0.917206 0.711395 0.000031
0.944855 0.711395 0.000031
0.971497 0.711365 0.002808
0.998871 0.711426 0.002777
0.000000 0.741699 0.000000
0.031525 0.741730 0.000031
0.062134 0.741730 0.000031
0.090759 0.741638 0.000031
0.115753 0.741638 0.000031
0.138000 0.741730 0.000031
0.159882 0.741699 0.000000
0.184021 0.741638 0.000031
0.210815 0.741730 0.000031
0.240845 0.741699 0.000000
0.274017 0.741730 0.000031
0.310028 0.741730 0.000031
0.348389 0.741669 0.000031
0.388275 0.741730 0.000031
0.429169 0.741669 0.000031
0.469910 0.741669 0.000031
0.509735 0.741699 0.000000
0.548492 0.741669 0.000031
0.585419 0.741699 0.000000
0.620575 0.741730 0.000031
0.654053 0.741699 0.000000
0.685913 0.741699 0.000000
0.716705 0.741699 0.000000
0.746613 0.741699 0.000061
0.775787 0.741699 0.000031
0.804718 0.741669 0.000031
0.833191 0.741669 0.000000
0.861389 0.741730 0.000031
0.889374 0.741730 0.000031
0.917236 0.741669 0.000000
0.944916 0.741669 0.000031
0.972473 0.741699 0.000000
1.000000 0.741699 0.000000
0.000000 0.771393 0.000000
0.031647 0.771393 0.000000
0.062134 0.771393 0.000000
0.090607 0.771423 0.000031
0.115631 0.771393 0.000000
0.138031 0.771393 0.000000
0.159882 0.771393 0.000000
0.183838 0.771423 0.000031
0.210968 0.771362 0.000031
0.240875 0.771393 0.000000
0.274017 0.771393 0.000000
0.310028 0.771423 0.000031
0.348419 0.771362 0.000031
0.388336 0.771393 0.000000
0.429199 0.771362 0.000031
0.469879 0.771362 0.000031
0.509796 0.771393 0.000000
0.548401 0.771393 0.000000
0.585510 0.771362 0.000031
0.620575 0.771423 0.000031
0.654053 0.771393 0.000000
0.685913 0.771423 0.000031
0.716736 0.771362 0.000031
0.746552 0.771423 0.000031
0.775757 0.771393 0.000031
0.804626 0.771423 0.000031
0.833191 0.771362 0.000000
0.861420 0.771393 0.000000
0.889343 0.771423 0.000031
0.917206 0.771423 0.000031
0.944855 0.771393 0.000031
0.972473 0.771393 0.000000
0.999908 0.771423 0.000031
0.000000 0.800690 0.000000
0.031708 0.800629 0.000031
0.062164 0.800690 0.000000
0.090729 0.800629 0.000031
0.115723 0.800690 0.000000
0.138000 0.800690 0.000000
0.159912 0.800690 0.000000
0.183990 0.800629 0.000031
0.210968 0.800659 0.000031
0.240875 0.800720 0.000031
0.274109 0.800659 0.000031
0.310028 0.800690 0.000000
0.348358 0.800690 0.000000
0.388214 0.800690 0.000000
0.429108 0.800720 0.000031
0.469757 0.800720 0.000031
0.509827 0.800690 0.000000
0.548523 0.800659 0.000031
0.585480 0.800659 0.000031
0.620667 0.800659 0.000031
0.654083 0.800659 0.000031
0.685944 0.800690 0.000000
0.716675 0.800720 0.000031
0.746552 0.800690 0.000000
0.775848 0.800690 0.000000
0.804657 0.800720 0.000031
0.833221 0.800690 0.000031
0.861450 0.800659 0.000031
0.889435 0.800629 0.000031
0.917175 0.800720 0.000031
0.944885 0.800720 0.000000
0.972534 0.800629 0.000061
0.999969 0.800751 0.000031
0.000000 0.829712 0.000000
0.031586 0.829712 0.000000
0.062195 0.829712 0.000000
0.090576 0.829742 0.000031
0.115662 0.829712 0.000000
0.137939 0.829712 0.000000
0.159851 0.829742 0.000031
0.183960 0.829651 0.000031
0.210907 0.829651 0.000031
0.240875 0.829742 0.000031
0.274078 0.829712 0.000000
0.310120 0.829681 0.000031
0.348419 0.829681 0.000031
0.388306 0.829681 0.000031
0.429077 0.829742 0.000031
0.469788 0.829742 0.000031
0.509857 0.829681 0.000031
0.548370 0.829742 0.000031
0.585419 0.829712 0.000000
0.620667 0.829681 0.000031
0.654083 0.829681 0.000031
0.685883 0.829712 0.000000
0.716675 0.829712 0.000000
0.746490 0.829742 0.000031
0.775818 0.829712 0.000000
