滤镜资源/Lutify.me Free 3D LUTs Package/3D LUTs/Color Grading LUTs/Standard (Rec709 and DCI P3) LUTs/Howlite - Rec709.cube
# Created by: Lutify.me
# Copyright: (c) Copyright Lutify.me 2016, G.T. Colord LTD
# Website: https://lutify.me
# Contact: help@lutify.me
LUT_3D_SIZE 9
0.000000 0.000000 0.000000
0.110291 0.002289 0.002289
0.201050 0.004211 0.004211
0.332123 0.006927 0.006927
0.486084 0.010132 0.010132
0.623596 0.013031 0.013031
0.739746 0.015442 0.015442
0.848083 0.017731 0.017731
0.953522 0.019928 0.019928
0.000000 0.089630 0.000000
0.115692 0.089630 0.000000
0.206818 0.090790 0.005035
0.335632 0.094116 0.010437
0.489624 0.097321 0.013672
0.627136 0.100189 0.016571
0.743286 0.102631 0.018982
0.851562 0.104919 0.021210
0.957062 0.107117 0.023468
0.000000 0.196930 0.000000
0.115692 0.196930 0.000000
0.210815 0.196930 0.000031
0.345337 0.197510 0.005188
0.498535 0.200317 0.012634
0.634003 0.203674 0.018341
0.747467 0.207062 0.023163
0.855774 0.209290 0.025421
0.961182 0.211517 0.027588
0.000000 0.343719 0.000000
0.115723 0.343719 0.000000
0.210876 0.343719 0.000000
0.348328 0.343750 0.000000
0.507965 0.343872 0.004150
0.645996 0.345459 0.012451
0.761169 0.347687 0.018677
0.869720 0.349609 0.022003
0.972778 0.352417 0.027466
0.000000 0.503693 0.000000
0.115723 0.503693 0.000000
0.210907 0.503662 0.000031
0.348389 0.503662 0.000031
0.509796 0.503693 0.000000
0.653961 0.503723 0.000031
0.772034 0.504089 0.008331
0.881744 0.505127 0.013184
0.987427 0.506592 0.018677
0.000000 0.647858 0.000000
0.115662 0.647888 0.000031
0.210846 0.647858 0.000000
0.348328 0.647888 0.000031
0.509766 0.647858 0.000000
0.653931 0.647858 0.000031
0.775879 0.647827 0.000061
0.888428 0.647919 0.002502
0.994995 0.648438 0.010620
0.000000 0.771393 0.000000
0.115631 0.771393 0.000000
0.210968 0.771362 0.000031
0.348419 0.771362 0.000031
0.509796 0.771393 0.000000
0.654053 0.771393 0.000000
0.775757 0.771393 0.000031
0.889343 0.771423 0.000031
0.999908 0.771423 0.000031
0.000000 0.887024 0.000000
0.115662 0.887054 0.000031
0.210968 0.886963 0.000031
0.348267 0.887054 0.000031
0.509766 0.887024 0.000000
0.653992 0.887024 0.000000
0.775757 0.887054 0.000031
0.889404 0.887024 0.000000
1.000000 0.886993 0.000214
0.000000 1.000000 0.000000
0.115753 0.999939 0.000031
0.210968 0.999939 0.000031
0.348389 0.999969 0.000031
0.509766 1.000000 0.000000
0.654053 1.000000 0.000000
0.775879 0.999969 0.000031
0.889404 1.000000 0.000000
1.000000 1.000000 0.000000
0.000000 0.000000 0.173553
0.107727 0.006958 0.158142
0.190765 0.012878 0.159332
0.322876 0.014008 0.167908
0.482117 0.014130 0.173401
0.623138 0.015137 0.176483
0.741028 0.016724 0.178711
0.849335 0.018982 0.180969
0.954773 0.021179 0.183228
0.000000 0.089630 0.173553
0.115570 0.089905 0.172516
0.199615 0.096405 0.167877
0.334229 0.096741 0.173798
0.490906 0.098633 0.176971
0.628357 0.101471 0.179810
0.744537 0.103912 0.182281
0.852844 0.106171 0.184570
0.958282 0.108368 0.186798
0.000000 0.196930 0.173553
0.115692 0.196930 0.173553
0.210663 0.196960 0.173950
0.341125 0.199768 0.177948
0.495056 0.203003 0.181152
0.632629 0.205872 0.184082
0.748718 0.208282 0.186462
0.857025 0.210571 0.188721
0.962494 0.212769 0.190918
0.000000 0.343719 0.173523
0.115692 0.343719 0.173523
0.210846 0.343719 0.173553
0.348328 0.343719 0.173553
0.505585 0.344696 0.179840
0.641998 0.347504 0.185944
0.755768 0.350616 0.191132
0.862762 0.353363 0.194458
0.968292 0.355530 0.196716
0.000000 0.503693 0.173523
0.115692 0.503693 0.173584
0.210846 0.503662 0.173523
0.348297 0.503693 0.173553
0.509766 0.503693 0.173523
0.652863 0.503784 0.176178
0.769623 0.504913 0.183838
0.877472 0.506805 0.189575
0.982056 0.508972 0.194336
0.000000 0.647858 0.173523
0.115692 0.647858 0.173523
0.210846 0.647858 0.173553
0.348297 0.647858 0.173553
0.509796 0.647827 0.173523
0.653992 0.647888 0.173553
0.775787 0.647858 0.173523
0.886810 0.648102 0.179352
0.992981 0.649139 0.185913
0.000000 0.771393 0.173645
0.115692 0.771393 0.173492
0.210876 0.771362 0.173523
0.348297 0.771423 0.173584
0.509827 0.771393 0.173553
0.654022 0.771362 0.173523
0.775818 0.771393 0.173553
0.889374 0.771393 0.173523
0.999146 0.771423 0.175934
0.000000 0.887024 0.173462
0.115692 0.887024 0.173492
0.210815 0.887024 0.173553
0.348267 0.887024 0.173553
0.509766 0.887054 0.173584
0.653961 0.887024 0.173553
0.775848 0.886993 0.173523
0.889435 0.886993 0.173584
1.000000 0.887024 0.173553
0.000031 0.999939 0.173615
0.115692 1.000000 0.173553
0.210876 1.000000 0.173553
0.348389 1.000000 0.173676
0.509796 1.000000 0.173676
0.653961 1.000000 0.173553
0.775848 1.000000 0.173553
0.889404 0.999969 0.173523
1.000000 1.000000 0.173553
0.000000 0.000000 0.310028
0.114044 0.002441 0.301575
0.196228 0.012543 0.282593
0.315552 0.021637 0.283264
0.466919 0.024841 0.293701
0.607635 0.025177 0.301331
0.728119 0.025024 0.306030
0.838806 0.025848 0.309265
0.947968 0.026093 0.311920
0.000000 0.089630 0.310028
0.115692 0.089661 0.310059
0.205414 0.095093 0.295685
0.323792 0.105530 0.291504
0.478180 0.107239 0.301849
0.619232 0.107788 0.307556
0.738434 0.108521 0.310913
0.849640 0.109222 0.313293
0.956879 0.110504 0.315491
0.000000 0.196960 0.310028
0.115692 0.196930 0.310028
0.210846 0.196930 0.310028
0.333710 0.205963 0.301392
0.491241 0.206482 0.309448
0.632385 0.207458 0.312653
0.749725 0.209290 0.314850
0.858063 0.211578 0.317169
0.963501 0.213745 0.319366
0.000000 0.343719 0.310059
0.115692 0.343719 0.310028
0.210846 0.343719 0.310028
0.348328 0.343719 0.310028
0.501801 0.346771 0.315308
0.639374 0.349670 0.318237
0.755493 0.352081 0.320648
0.863800 0.354340 0.322906
0.969269 0.356567 0.325104
0.000000 0.503693 0.309998
0.115692 0.503693 0.310059
0.210846 0.503693 0.309998
0.348328 0.503693 0.310028
0.509796 0.503693 0.310028
0.651031 0.504242 0.315125
0.766724 0.506287 0.320953
0.873505 0.508850 0.325806
0.976929 0.511688 0.330078
0.000000 0.647858 0.309998
0.115692 0.647858 0.310059
0.210846 0.647858 0.310059
0.348297 0.647858 0.310028
0.509796 0.647858 0.310028
0.653992 0.647858 0.310028
0.775299 0.647858 0.311340
0.884613 0.648682 0.318817
0.989990 0.650299 0.324280
0.000000 0.771393 0.309998
0.115692 0.771393 0.310028
0.210846 0.771393 0.310059
0.348328 0.771393 0.310028
0.509857 0.771393 0.310028
0.654022 0.771393 0.310028
0.775818 0.771393 0.310028
0.889374 0.771393 0.309998
0.997498 0.771576 0.315613
0.000000 0.887024 0.310120
0.115692 0.887024 0.310028
0.210846 0.887024 0.310059
0.348358 0.887024 0.310028
0.509766 0.887024 0.310028
0.654022 0.887024 0.310028
0.775848 0.886993 0.309998
0.889435 0.887024 0.310059
1.000000 0.886993 0.310211
0.000000 1.000000 0.310059
0.115814 1.000000 0.310089
0.210846 1.000000 0.310059
0.348267 1.000000 0.310028
0.509796 1.000000 0.310028
0.653992 1.000000 0.310028
0.775879 1.000000 0.310211
0.889343 1.000000 0.310028
1.000000 1.000000 0.310028
0.000000 0.000000 0.440277
0.115662 0.000000 0.440277
0.203888 0.007812 0.417145
0.317841 0.023895 0.395386
0.461609 0.031464 0.402893
0.594818 0.035339 0.411926
0.712067 0.036255 0.419708
0.824371 0.035706 0.426178
0.931305 0.036774 0.430542
0.000000 0.089661 0.440277
0.115662 0.089630 0.440277
0.209595 0.091675 0.432739
0.327179 0.106873 0.405457
0.469879 0.115356 0.411194
0.605255 0.118042 0.420776
0.724060 0.118286 0.427826
0.836456 0.117920 0.432983
0.943878 0.118866 0.436707
0.000000 0.196930 0.440277
0.115692 0.196930 0.440277
0.210846 0.196930 0.440277
0.339355 0.205109 0.420898
0.479736 0.215759 0.421082
0.618469 0.216766 0.430664
0.737366 0.217285 0.435944
0.850037 0.217072 0.439453
0.956085 0.218903 0.442261
0.000031 0.343719 0.440216
0.115662 0.343719 0.440247
0.210846 0.343719 0.440277
0.348328 0.343719 0.440277
0.496185 0.351532 0.435608
0.637848 0.351807 0.440857
0.756470 0.353058 0.443176
0.864746 0.355286 0.445465
0.970184 0.357483 0.447693
0.000000 0.503693 0.440247
0.115662 0.503662 0.440277
0.210846 0.503693 0.440277
0.348328 0.503693 0.440277
0.509796 0.503693 0.440277
0.647430 0.505920 0.446228
0.762695 0.508636 0.449432
0.871033 0.510895 0.451721
0.976471 0.513123 0.453918
0.000031 0.647797 0.440308
0.115692 0.647858 0.440247
0.210846 0.647858 0.440247
0.348328 0.647858 0.440247
0.509796 0.647858 0.440277
0.653992 0.647827 0.440277
0.773621 0.648163 0.444641
0.881897 0.649780 0.450317
0.986328 0.652039 0.455017
0.000000 0.771393 0.440308
0.115692 0.771393 0.440338
0.210846 0.771393 0.440216
0.348328 0.771393 0.440247
0.509796 0.771393 0.440277
0.654022 0.771393 0.440277
0.775818 0.771393 0.440277
0.888947 0.771423 0.441559
0.995422 0.772156 0.448822
0.000000 0.887024 0.440277
0.115692 0.887024 0.440338
0.210846 0.887024 0.440308
0.348358 0.887054 0.440277
0.509796 0.887054 0.440308
0.653931 0.887024 0.440277
0.775818 0.887054 0.440308
0.889404 0.886993 0.440277
1.000000 0.886993 0.440277
0.000122 1.000000 0.440277
0.115692 1.000000 0.440186
0.210846 1.000000 0.440308
0.348328 1.000000 0.440277
0.509827 1.000000 0.440277
0.653992 1.000000 0.440277
0.775848 1.000000 0.440430
0.889435 1.000000 0.440277
1.000000 1.000000 0.440277
0.000000 0.000000 0.567139
0.115723 0.000031 0.566956
0.207886 0.004425 0.551636
0.328522 0.018250 0.523346
0.463776 0.033630 0.512146
0.592224 0.040405 0.518921
0.700714 0.046112 0.524597
0.812805 0.045013 0.534637
0.917816 0.046722 0.540741
0.000031 0.089630 0.567169
0.115723 0.089600 0.567108
0.210846 0.089600 0.567108
0.336761 0.101318 0.535919
0.472015 0.117523 0.520416
0.600464 0.124298 0.527222
0.712311 0.127991 0.534546
0.822021 0.128479 0.542633
0.931488 0.127808 0.549255
0.000000 0.196899 0.567139
0.115692 0.196930 0.567139
0.210846 0.196930 0.567139
0.345245 0.200958 0.553802
0.481995 0.217957 0.530334
0.610352 0.224701 0.537109
0.726013 0.226257 0.545807
0.835632 0.227020 0.552429
0.945007 0.226624 0.557739
0.000031 0.343689 0.567169
0.115692 0.343719 0.567139
0.210815 0.343719 0.567108
0.348328 0.343750 0.567169
0.496185 0.354767 0.545013
0.623871 0.362091 0.550568
0.744354 0.361206 0.559326
0.854492 0.362091 0.563690
0.964325 0.361877 0.566895
0.000031 0.503693 0.567078
0.115723 0.503693 0.567169
0.210815 0.503693 0.567108
0.348328 0.503662 0.567139
0.509796 0.503693 0.567139
0.644012 0.508972 0.565979
0.763641 0.509583 0.568817
0.871948 0.511841 0.571106
0.977386 0.514038 0.573303
0.000000 0.647858 0.567200
0.115692 0.647858 0.567169
0.210846 0.647858 0.567078
0.348328 0.647858 0.567139
0.509796 0.647858 0.567139
0.653992 0.647858 0.567139
0.771210 0.649231 0.572327
0.877563 0.652069 0.576691
0.983032 0.654297 0.578918
0.000000 0.771393 0.567047
0.115692 0.771393 0.567139
0.210876 0.771423 0.567108
0.348328 0.771393 0.567078
0.509796 0.771393 0.567139
0.653992 0.771393 0.567139
0.775818 0.771393 0.567139
0.887787 0.771606 0.570557
0.993561 0.773010 0.575928
0.000000 0.887024 0.567169
0.115692 0.887024 0.567078
0.210846 0.887024 0.567108
0.348328 0.887024 0.567169
0.509796 0.887024 0.567169
0.653992 0.887024 0.567139
0.775818 0.887024 0.567139
0.889404 0.887054 0.567139
0.999542 0.887024 0.568359
0.000000 1.000000 0.567139
0.115692 1.000000 0.567139
0.210968 1.000000 0.567169
0.348328 1.000000 0.567078
0.509796 1.000000 0.567108
0.653992 1.000000 0.567139
0.775818 0.999969 0.567108
0.889404 1.000000 0.567322
1.000000 1.000000 0.567139
0.000000 0.000000 0.682831
0.115692 0.000000 0.682831
0.209747 0.002167 0.674316
0.335083 0.014038 0.643524
0.466858 0.034729 0.613525
0.594208 0.042389 0.618530
0.702698 0.048096 0.624237
0.803864 0.053436 0.629639
0.907227 0.055664 0.637177
0.000031 0.089691 0.682678
0.115692 0.089630 0.682831
0.210846 0.089630 0.682831
0.341980 0.097473 0.658234
0.477600 0.116547 0.626343
0.602478 0.126282 0.626801
0.710968 0.131989 0.632507
0.812134 0.137329 0.637817
0.919556 0.137207 0.647003
0.000031 0.196899 0.682861
0.115692 0.196960 0.682831
0.210815 0.196930 0.682831
0.347473 0.198456 0.676758
0.489716 0.214783 0.641846
0.612366 0.226715 0.636688
0.720856 0.232422 0.642395
0.825378 0.235687 0.649445
0.932434 0.236023 0.657349
0.000031 0.343719 0.682770
0.115692 0.343750 0.682831
0.210846 0.343719 0.682831
0.348328 0.343689 0.682800
0.504272 0.349854 0.665131
0.625885 0.364075 0.650208
0.734406 0.369812 0.655975
0.842285 0.371216 0.663910
0.952179 0.370239 0.670868
0.000031 0.503662 0.682861
0.115723 0.503693 0.682861
0.210876 0.503693 0.682861
0.348328 0.503662 0.682831
0.509827 0.503693 0.682831
0.640625 0.513794 0.664948
0.751129 0.518341 0.671570
0.863007 0.517975 0.678192
0.970551 0.518829 0.681824
0.000031 0.647858 0.682861
0.115723 0.647827 0.682861
0.210876 0.647827 0.682861
0.348328 0.647888 0.682831
0.509796 0.647858 0.682831
0.653992 0.647858 0.682831
0.769470 0.651001 0.683380
0.878418 0.652924 0.685577
0.983917 0.655151 0.687805
0.000000 0.771393 0.682892
0.115692 0.771393 0.682861
0.210846 0.771393 0.682861
0.348328 0.771393 0.682861
0.509796 0.771393 0.682800
0.653992 0.771393 0.682831
0.775818 0.771393 0.682831
0.885437 0.772491 0.687744
0.989380 0.775085 0.692047
0.000000 0.887024 0.682800
0.115692 0.887024 0.682892
0.210846 0.887024 0.682831
0.348358 0.887054 0.682800
0.509796 0.887024 0.682831
0.653992 0.887024 0.682831
0.775818 0.887024 0.682831
0.889404 0.887024 0.682831
0.998413 0.887207 0.686188
0.000000 1.000000 0.682861
0.115692 1.000000 0.682861
0.210846 1.000000 0.682861
0.348328 1.000000 0.682770
0.509796 1.000000 0.682861
0.653992 1.000000 0.682800
0.775818 1.000000 0.682831
0.889435 1.000000 0.682831
1.000000 1.000000 0.682831
0.000000 0.000000 0.790619
0.115662 0.000031 0.790649
0.210815 0.000031 0.790649
0.339783 0.010437 0.757812
0.477112 0.029053 0.723938
0.596039 0.044250 0.711334
0.704529 0.049988 0.717072
0.805695 0.055267 0.722321
0.904205 0.060455 0.727478
0.000031 0.089600 0.790649
0.115662 0.089661 0.790649
0.210815 0.089661 0.790649
0.345123 0.094452 0.773529
0.486908 0.111084 0.738129
0.604340 0.128113 0.719574
0.712860 0.133820 0.725281
0.813965 0.139160 0.730591
0.912476 0.144348 0.735809
0.000031 0.196899 0.790649
0.115692 0.196930 0.790619
0.210846 0.196930 0.790619
0.348389 0.196930 0.790619
0.497223 0.209961 0.754944
0.614166 0.228577 0.729492
0.722687 0.234253 0.735168
0.823883 0.239594 0.740570
0.922363 0.244781 0.745697
0.000031 0.343750 0.790527
0.115662 0.343719 0.790588
0.210815 0.343719 0.790588
0.348297 0.343719 0.790619
0.507416 0.347198 0.778381
0.631042 0.363159 0.748962
0.736206 0.371643 0.748718
0.837402 0.376984 0.754120
0.939117 0.380249 0.760773
0.000031 0.503693 0.790497
0.115662 0.503723 0.790588
0.210846 0.503693 0.790619
0.348328 0.503723 0.790619
0.509796 0.503693 0.790619
0.647980 0.509979 0.773376
0.750977 0.521362 0.763458
0.852142 0.526703 0.768799
0.960510 0.526245 0.777313
0.000031 0.647827 0.790649
0.115631 0.647858 0.790558
0.210876 0.647827 0.790649
0.348328 0.647858 0.790619
0.509766 0.647858 0.790588
0.653992 0.647858 0.790619
0.764252 0.656311 0.776764
0.869629 0.659210 0.783569
0.977448 0.659698 0.788544
0.000031 0.771362 0.790649
0.115723 0.771362 0.790649
0.210846 0.771362 0.790619
0.348328 0.771393 0.790619
0.509796 0.771423 0.790619
0.653992 0.771393 0.790619
0.775818 0.771393 0.790619
0.884033 0.773865 0.791809
0.989502 0.776062 0.793976
0.000000 0.887024 0.790649
0.115692 0.887024 0.790619
0.210846 0.887024 0.790619
0.348328 0.887024 0.790619
0.509796 0.887024 0.790588
0.653992 0.887024 0.790588
0.775818 0.887024 0.790619
0.889404 0.887024 0.790619
0.996490 0.887939 0.795288
0.000000 1.000000 0.790527
0.115692 1.000000 0.790588
0.210846 1.000000 0.790588
0.348328 1.000000 0.790619
0.509918 1.000000 0.790619
0.653992 1.000000 0.790588
0.775818 1.000000 0.790588
0.889374 1.000000 0.790619
1.000000 1.000000 0.790619
0.000000 0.000000 0.895874
0.115692 0.000000 0.895874
0.210846 0.000000 0.895874
0.342712 0.007904 0.868774
0.484589 0.024536 0.832916
0.600616 0.043732 0.806610
0.706329 0.051758 0.807648
0.807495 0.057129 0.813019
0.906006 0.062256 0.818268
0.000000 0.089661 0.895874
0.115631 0.089661 0.895905
0.210846 0.089600 0.895844
0.346497 0.092896 0.883392
0.492981 0.107208 0.847321
0.612091 0.124908 0.820923
0.714600 0.135651 0.815918
0.815735 0.140961 0.821228
0.914276 0.146149 0.826508
0.000061 0.196899 0.895935
0.115631 0.196960 0.895813
0.210907 0.196899 0.895844
0.348297 0.196930 0.895874
0.501404 0.206940 0.864929
0.624603 0.222809 0.837128
0.724457 0.236084 0.825806
0.825653 0.241394 0.831116
0.924164 0.246582 0.836334
0.000031 0.343750 0.895599
0.115692 0.343689 0.895874
0.210907 0.343689 0.895935
0.348297 0.343719 0.895874
0.509125 0.345001 0.890686
0.639343 0.358124 0.858521
0.738007 0.373474 0.839355
0.839203 0.378784 0.844666
0.937714 0.383972 0.849854
0.000031 0.503693 0.895813
0.115692 0.503693 0.895874
0.210846 0.503693 0.895874
0.348328 0.503662 0.895874
0.509796 0.503662 0.895844
0.651581 0.507141 0.884003
0.755676 0.520752 0.859314
0.853943 0.528534 0.859436
0.952454 0.533691 0.864624
0.000000 0.647858 0.895874
0.115692 0.647888 0.895874
0.210846 0.647858 0.895874
0.348297 0.647858 0.895844
0.509796 0.647888 0.895874
0.653961 0.647858 0.895874
0.770966 0.653015 0.881653
0.867249 0.663452 0.872711
0.967438 0.667572 0.878784
0.000000 0.771423 0.895874
0.115753 0.771362 0.895935
0.210785 0.771393 0.895813
0.348328 0.771423 0.895874
0.509796 0.771362 0.895874
0.653992 0.771393 0.895874
0.775818 0.771393 0.895874
0.878662 0.779083 0.884125
0.981720 0.781677 0.890594
0.000031 0.887024 0.895782
0.115662 0.887085 0.895844
0.210846 0.887024 0.895874
0.348328 0.887054 0.895874
0.509796 0.887024 0.895874
0.653992 0.887024 0.895874
0.775818 0.887024 0.895874
0.889404 0.887024 0.895844
0.994781 0.889313 0.897583
0.000000 1.000000 0.895996
0.115692 1.000000 0.895935
0.210815 0.999969 0.895935
0.348328 1.000000 0.895935
0.509796 1.000000 0.895874
0.653992 1.000000 0.895844
0.775818 1.000000 0.895905
0.889404 1.000000 0.895874
1.000000 1.000000 0.895874
0.000000 0.000000 1.000000
0.115723 0.000031 0.999786
0.210907 0.000031 0.999817
0.344696 0.005829 0.978485
0.490479 0.020538 0.942413
0.611938 0.037079 0.915985
0.708191 0.053528 0.897278
0.809296 0.058868 0.902618
0.907806 0.064056 0.907806
0.000061 0.089661 1.000000
0.115631 0.089630 1.000000
0.210815 0.089691 1.000000
0.347687 0.091003 0.994263
0.497620 0.103790 0.957275
0.620575 0.120178 0.927429
0.717834 0.136261 0.907928
0.817535 0.142792 0.910919
0.916077 0.147949 0.916077
0.000031 0.196991 0.999725
0.115753 0.196930 1.000000
0.210846 0.196930 1.000000
0.348328 0.196991 1.000000
0.504730 0.204041 0.975739
0.631348 0.218964 0.943604
0.730072 0.234772 0.921783
0.827454 0.243164 0.920746
0.925934 0.248352 0.925934
0.000031 0.343719 0.999908
0.115753 0.343750 1.000000
0.210815 0.343750 0.999969
0.348358 0.343719 1.000000
0.509857 0.343689 0.999969
0.644318 0.354706 0.967407
0.747070 0.368958 0.943207
0.841003 0.380554 0.934296
0.939484 0.385742 0.939484
0.000000 0.503662 1.000000
0.115784 0.503693 1.000000
0.210846 0.503693 1.000000
0.348267 0.503693 0.999939
0.509827 0.503754 1.000000
0.653381 0.504883 0.995361
0.763641 0.515930 0.967651
0.855713 0.530304 0.949066
0.954224 0.535461 0.954224
0.000031 0.647919 0.999939
0.115662 0.647858 0.999969
0.210938 0.647827 1.000000
0.348297 0.647888 0.999969
0.509766 0.647888 0.999969
0.653961 0.647858 1.000000
0.774200 0.650269 0.991394
0.872101 0.662628 0.967987
0.967560 0.670441 0.967560
0.000031 0.771393 0.999878
0.115692 0.771362 1.000000
0.210999 0.771332 1.000000
0.348328 0.771362 1.000000
0.509766 0.771393 0.999969
0.653992 0.771423 1.000000
0.775787 0.771393 1.000000
0.884888 0.776123 0.986877
0.978943 0.786041 0.978943
0.000122 0.886963 1.000000
0.115662 0.887054 0.999969
0.210785 0.887024 0.999939
0.348328 0.887054 1.000000
0.509796 0.887024 1.000000
0.653961 0.887024 0.999969
0.775818 0.887024 1.000000
0.889404 0.887024 1.000000
0.989594 0.894257 0.989594
0.000000 1.000000 1.000000
0.115692 1.000000 1.000000
0.210846 1.000000 1.000000
0.348328 1.000000 1.000000
0.509796 1.000000 1.000000
0.653992 1.000000 1.000000
0.775818 1.000000 1.000000
0.889404 1.000000 1.000000
1.000000 1.000000 1.000000
