滤镜资源/Lutify.me Free 3D LUTs Package/3D LUTs/Color Grading LUTs/Standard (Rec709 and DCI P3) LUTs/Hypersthene - Rec709.cube
# Created by: Lutify.me
# Copyright: (c) Copyright Lutify.me 2016, G.T. Colord LTD
# Website: https://lutify.me
# Contact: help@lutify.me
LUT_3D_SIZE 33
0.000000 0.000000 0.000000
0.015533 0.000000 0.000000
0.030792 0.000000 0.000000
0.046783 0.000000 0.000000
0.063599 0.001190 0.000000
0.081390 0.005219 0.000000
0.100861 0.009125 0.000000
0.122345 0.013153 0.000000
0.145172 0.017395 0.000000
0.169434 0.021667 0.000000
0.194733 0.026398 0.000000
0.220459 0.031158 0.000000
0.246399 0.036041 0.000000
0.272217 0.040527 0.000000
0.297882 0.045380 0.000000
0.323364 0.050140 0.000000
0.348816 0.054932 0.000000
0.374359 0.059418 0.000000
0.400208 0.064270 0.000092
0.426514 0.069489 0.000397
0.453400 0.074738 0.000671
0.481018 0.080078 0.000977
0.508850 0.085327 0.001312
0.537262 0.090790 0.001587
0.565887 0.096344 0.001892
0.594543 0.102020 0.002228
0.623505 0.107605 0.002533
0.652649 0.113312 0.002899
0.681763 0.118988 0.003204
0.710968 0.124451 0.003540
0.740204 0.130066 0.003876
0.769165 0.135712 0.004242
0.798401 0.141388 0.004547
0.002472 0.001465 0.000000
0.020630 0.004181 0.000000
0.036102 0.007233 0.000000
0.052826 0.013000 0.000000
0.069824 0.017548 0.000000
0.087799 0.020782 0.000000
0.106934 0.024078 0.000000
0.127716 0.027832 0.000000
0.149841 0.031982 0.000000
0.173248 0.036041 0.000000
0.197754 0.040558 0.000000
0.222870 0.045258 0.000000
0.248596 0.050140 0.000000
0.274414 0.054749 0.000000
0.299957 0.059601 0.000153
0.325195 0.064545 0.000397
0.350372 0.069458 0.000641
0.375580 0.074158 0.000885
0.401337 0.079163 0.001190
0.427643 0.084412 0.001495
0.454590 0.089630 0.001740
0.482178 0.094940 0.002106
0.510223 0.100098 0.002411
0.538391 0.105621 0.002686
0.567017 0.111237 0.002991
0.595886 0.116760 0.003326
0.624695 0.122406 0.003693
0.653809 0.128113 0.004059
0.682953 0.133759 0.004364
0.712067 0.139191 0.004639
0.741272 0.144806 0.004944
0.770508 0.150452 0.005280
0.799744 0.156250 0.005615
0.004578 0.016113 0.000000
0.024017 0.022675 0.000000
0.042175 0.021149 0.000000
0.058105 0.021790 0.000000
0.076141 0.027527 0.000000
0.095215 0.033691 0.000000
0.115906 0.040436 0.000000
0.137543 0.046051 0.000000
0.159637 0.049530 0.000000
0.183075 0.053650 0.000000
0.207550 0.057678 0.000000
0.232117 0.062195 0.000183
0.256775 0.066864 0.000488
0.281464 0.071564 0.000793
0.306000 0.075989 0.001099
0.330170 0.080688 0.001373
0.354523 0.085358 0.001740
0.378906 0.089844 0.001953
0.403778 0.094635 0.002319
0.429077 0.099518 0.002594
0.455963 0.104797 0.002930
0.483398 0.110138 0.003235
0.511383 0.115326 0.003479
0.539520 0.120850 0.003784
0.568176 0.126404 0.004120
0.597107 0.131989 0.004517
0.626129 0.137543 0.004822
0.655121 0.143311 0.005066
0.684082 0.148926 0.005463
0.713257 0.154510 0.005798
0.742401 0.159943 0.006042
0.771759 0.165680 0.006500
0.800934 0.171387 0.007019
0.006653 0.031677 0.001465
0.023315 0.035797 0.002014
0.049805 0.045074 0.001160
0.064514 0.038971 0.001404
0.081238 0.037567 0.001404
0.100250 0.043274 0.001068
0.120758 0.049652 0.001068
0.143158 0.056763 0.000793
0.166931 0.064453 0.000702
0.192017 0.072632 0.000977
0.216980 0.077484 0.000854
0.241638 0.081665 0.001160
0.266083 0.085754 0.001434
0.290771 0.090271 0.001709
0.315308 0.094727 0.002045
0.339722 0.099304 0.002350
0.363739 0.103546 0.002594
0.388123 0.108154 0.002899
0.413055 0.112823 0.003265
0.438507 0.117401 0.003571
0.464478 0.122406 0.003876
0.490875 0.127411 0.004211
0.517700 0.132538 0.004486
0.545227 0.137848 0.004883
0.572662 0.142914 0.005219
0.600586 0.148346 0.005554
0.628326 0.153534 0.006012
0.656433 0.159119 0.006256
0.685486 0.164703 0.006561
0.714722 0.170441 0.006989
0.743652 0.175903 0.007263
0.772827 0.181427 0.007721
0.802155 0.187134 0.008240
0.008636 0.047882 0.003265
0.024170 0.049530 0.004333
0.047729 0.060272 0.003693
0.074615 0.066467 0.002869
0.087616 0.058167 0.003418
0.104828 0.054596 0.003876
0.125488 0.060303 0.003052
0.147461 0.067291 0.003082
0.171204 0.074677 0.002625
0.196564 0.082794 0.002563
0.222870 0.091125 0.002411
0.250061 0.099670 0.002167
0.276215 0.107086 0.002411
0.300842 0.111237 0.002716
0.325165 0.115479 0.003021
0.349548 0.119446 0.003296
0.373840 0.123810 0.003571
0.397949 0.128174 0.003876
0.422821 0.132477 0.004211
0.448181 0.137207 0.004517
0.474243 0.142059 0.004883
0.500641 0.146973 0.005219
0.527710 0.151733 0.005493
0.554962 0.156860 0.005920
0.582642 0.162140 0.006226
0.610352 0.167419 0.006592
0.638336 0.172760 0.006897
0.666138 0.177948 0.007294
0.694366 0.183197 0.007660
0.722321 0.188538 0.008057
0.750549 0.193970 0.008698
0.778839 0.199371 0.008972
0.806793 0.204651 0.009369
0.011169 0.065308 0.005249
0.026123 0.066437 0.006348
0.046600 0.074921 0.006226
0.074463 0.086334 0.005493
0.100250 0.089233 0.004852
0.112274 0.078674 0.005463
0.130463 0.072632 0.006042
0.152496 0.078857 0.005341
0.175964 0.086060 0.005371
0.201202 0.093750 0.004883
0.227356 0.102234 0.004700
0.254364 0.110657 0.004517
0.280884 0.119324 0.004822
0.307922 0.127838 0.004517
0.334229 0.136749 0.004730
0.360077 0.142303 0.004395
0.384369 0.146332 0.004700
0.408813 0.150513 0.005005
0.433594 0.154572 0.005249
0.459076 0.159088 0.005646
0.484955 0.163666 0.005890
0.511383 0.168457 0.006287
0.538300 0.173157 0.006622
0.565674 0.178131 0.006927
0.593140 0.183228 0.007324
0.621002 0.188385 0.007629
0.648743 0.193512 0.007996
0.676880 0.198517 0.008392
0.704926 0.203888 0.008789
0.733063 0.209198 0.009369
0.761292 0.214630 0.009644
0.789276 0.219727 0.010101
0.817535 0.225250 0.010498
0.013733 0.083832 0.007385
0.028748 0.085297 0.008514
0.046570 0.090759 0.008850
0.071686 0.102020 0.008270
0.102814 0.112946 0.007233
0.127533 0.114044 0.007111
0.138672 0.100708 0.007843
0.159027 0.094513 0.008362
0.181519 0.098846 0.007965
0.206390 0.106293 0.007935
0.232605 0.114197 0.007324
0.259216 0.122498 0.007172
0.286041 0.131073 0.006927
0.312988 0.139648 0.006531
0.340088 0.147949 0.006165
0.366333 0.156525 0.006470
0.393097 0.165070 0.005890
0.418579 0.173920 0.007019
0.444885 0.179535 0.006439
0.470337 0.183441 0.006775
0.496338 0.187958 0.007111
0.522919 0.192535 0.007385
0.549835 0.197235 0.007721
0.576996 0.201813 0.008057
0.604706 0.206665 0.008392
0.632385 0.211731 0.008789
0.660339 0.216766 0.009125
0.688171 0.221924 0.009491
0.716248 0.226776 0.010071
0.744476 0.231964 0.010468
0.772491 0.237152 0.010864
0.800751 0.242523 0.011200
0.828918 0.247650 0.011597
0.016327 0.104248 0.009766
0.031586 0.105438 0.010864
0.047272 0.108215 0.011566
0.070221 0.119171 0.011200
0.098969 0.131195 0.010284
0.131287 0.139893 0.009399
0.156891 0.140625 0.009491
0.166962 0.124634 0.010315
0.189606 0.118652 0.010956
0.212311 0.120300 0.010986
0.238251 0.127838 0.010284
0.264709 0.135986 0.010132
0.291351 0.144165 0.010010
0.318756 0.152466 0.008881
0.345001 0.160889 0.009247
0.371704 0.169220 0.008759
0.398438 0.177490 0.008209
0.423828 0.186432 0.009369
0.451538 0.195038 0.008789
0.478851 0.203979 0.009125
0.506989 0.213257 0.009399
0.535187 0.219604 0.008636
0.562317 0.223785 0.009003
0.589539 0.228363 0.009399
0.617218 0.233063 0.009705
0.644836 0.237854 0.010040
0.672882 0.242554 0.010498
0.700653 0.247437 0.011047
0.728790 0.252380 0.011353
0.757019 0.257538 0.011719
0.785034 0.262360 0.012177
0.813171 0.267578 0.012451
0.841187 0.272522 0.012848
0.019348 0.126312 0.012299
0.034576 0.127686 0.013428
0.049774 0.128937 0.014587
0.070129 0.138031 0.014069
0.096680 0.149811 0.013947
0.128693 0.162445 0.012726
0.161957 0.169006 0.011536
0.187439 0.168549 0.012115
0.197693 0.150818 0.013092
0.222260 0.144653 0.013702
0.244934 0.143097 0.013702
0.271088 0.150818 0.013580
0.297607 0.158813 0.013336
0.324585 0.167053 0.012268
0.351196 0.175232 0.011841
0.377106 0.183472 0.012268
0.404053 0.191711 0.011749
0.430756 0.200256 0.011139
0.457245 0.208649 0.011444
0.484863 0.217621 0.011810
0.513550 0.226471 0.011047
0.542236 0.236237 0.011383
0.571320 0.245605 0.011688
0.600769 0.255341 0.011993
0.630707 0.262543 0.011139
0.658325 0.266815 0.011688
0.686340 0.271362 0.012085
0.714447 0.276123 0.012329
0.742432 0.280914 0.012848
0.770569 0.285919 0.013153
0.798584 0.290527 0.013580
0.826782 0.295502 0.013885
0.854980 0.300354 0.014221
0.022614 0.150116 0.015106
0.037598 0.151306 0.016235
0.052948 0.152466 0.017365
0.071075 0.158112 0.017853
0.095123 0.169708 0.017029
0.124786 0.182404 0.016174
0.160797 0.196167 0.015137
0.194427 0.200287 0.014374
0.219513 0.197754 0.015045
0.229919 0.178802 0.016083
0.256744 0.173187 0.016602
0.278015 0.167572 0.017426
0.304840 0.175079 0.016327
0.331299 0.182922 0.016052
0.357666 0.190857 0.015686
0.384003 0.198761 0.015137
0.410461 0.206848 0.014648
0.436432 0.215454 0.015045
0.463898 0.223724 0.014313
0.491089 0.232574 0.014771
0.519958 0.241425 0.014008
0.549408 0.250488 0.013123
0.578552 0.259827 0.013672
0.608002 0.269684 0.014008
0.637848 0.279510 0.014343
0.667725 0.289276 0.014740
0.697815 0.299286 0.015076
0.728851 0.307678 0.013947
0.757050 0.312378 0.014252
0.784973 0.316895 0.014679
0.813202 0.321533 0.015015
0.841370 0.326141 0.015381
0.869476 0.330902 0.015778
0.026001 0.174835 0.018005
0.040924 0.175964 0.019104
0.056305 0.177124 0.020233
0.072235 0.179199 0.021393
0.095154 0.190796 0.020416
0.122772 0.203278 0.019989
0.155792 0.217041 0.018829
0.195404 0.231110 0.017578
0.228729 0.232788 0.017334
0.252991 0.228394 0.018066
0.263580 0.208069 0.019135
0.292511 0.203400 0.019714
0.312469 0.193665 0.020538
0.338257 0.200043 0.020233
0.364716 0.207672 0.019836
0.390961 0.215546 0.019623
0.417114 0.223633 0.019043
0.443512 0.231476 0.018402
0.470673 0.239685 0.017792
0.498718 0.248199 0.016968
0.526642 0.257233 0.017395
0.554901 0.266266 0.017761
0.584930 0.275391 0.016907
0.614288 0.285187 0.017273
0.645172 0.294647 0.016266
0.673859 0.304810 0.018036
0.705139 0.314301 0.016876
0.735596 0.324493 0.017212
0.765778 0.334167 0.017609
0.797668 0.344208 0.016296
0.828003 0.353973 0.016632
0.856476 0.359406 0.016907
0.884796 0.364014 0.017334
0.029449 0.200378 0.020996
0.044373 0.201477 0.022064
0.059723 0.202667 0.023224
0.075348 0.203857 0.024384
0.095703 0.212341 0.024017
0.122162 0.224701 0.024414
0.152893 0.238312 0.022888
0.189880 0.253143 0.021423
0.230896 0.264832 0.020020
0.264740 0.266418 0.020508
0.287415 0.258942 0.021210
0.297852 0.238159 0.022583
0.328522 0.234711 0.023102
0.348663 0.224731 0.023895
0.372223 0.225311 0.023590
0.398499 0.233063 0.023102
0.424652 0.240570 0.022491
0.451019 0.248352 0.021820
0.477966 0.256439 0.021088
0.504944 0.265137 0.021576
0.533539 0.273651 0.020752
0.562805 0.282440 0.019836
0.590973 0.292419 0.021667
0.621246 0.301483 0.020721
0.651764 0.310516 0.019562
0.681641 0.320465 0.020050
0.711609 0.330048 0.020386
0.741760 0.340088 0.020813
0.771881 0.349762 0.021118
0.803772 0.359741 0.019836
0.834259 0.369781 0.020203
0.864502 0.379700 0.020569
0.896637 0.389252 0.019012
0.032928 0.225830 0.024048
0.047882 0.227020 0.025391
0.063232 0.228424 0.026520
0.078796 0.229645 0.027710
0.097290 0.233948 0.028839
0.121521 0.246613 0.027374
0.151428 0.259918 0.027527
0.186096 0.274719 0.025940
0.227264 0.290253 0.025116
0.268127 0.298462 0.023560
0.302094 0.300323 0.023895
0.322205 0.289825 0.024719
0.332306 0.268555 0.025818
0.363647 0.265717 0.026337
0.384644 0.256165 0.027100
0.405792 0.250885 0.027924
0.431732 0.258453 0.027283
0.458710 0.266083 0.025421
0.484863 0.273987 0.025940
0.512390 0.282196 0.025146
0.540192 0.290833 0.025665
0.569122 0.299744 0.024780
0.598633 0.308441 0.023865
0.627808 0.317810 0.024292
0.658600 0.327271 0.023224
0.688354 0.336670 0.023621
0.718445 0.346680 0.024078
0.748322 0.356171 0.024445
0.779877 0.365692 0.023193
0.811584 0.375427 0.021820
0.841949 0.385040 0.022186
0.872192 0.395050 0.022461
0.902618 0.405182 0.022858
0.036438 0.251648 0.027344
0.051361 0.252808 0.028473
0.066711 0.253967 0.029572
0.082275 0.255219 0.030762
0.098969 0.256561 0.031982
0.122131 0.268372 0.031219
0.150726 0.281647 0.031311
0.183624 0.296173 0.030487
0.222198 0.312012 0.028595
0.267426 0.328857 0.027557
0.307098 0.332733 0.025818
0.339874 0.333923 0.027008
0.356995 0.320679 0.027954
0.366699 0.299194 0.029053
0.397766 0.296173 0.029541
0.420746 0.287659 0.030273
0.440308 0.278473 0.031097
0.465637 0.283875 0.030487
0.492554 0.291534 0.029694
0.519928 0.299469 0.028931
0.548309 0.307983 0.028015
0.576385 0.316803 0.028595
0.605774 0.325287 0.027557
0.634949 0.334747 0.028046
0.665283 0.343781 0.026947
0.695129 0.353302 0.027435
0.725983 0.362732 0.026154
0.756378 0.372406 0.026581
0.787628 0.381836 0.025208
0.817932 0.391785 0.025604
0.848053 0.401642 0.025909
0.878265 0.411316 0.026337
0.908752 0.421692 0.026764
0.039948 0.277069 0.030365
0.054810 0.278442 0.031464
0.070129 0.279633 0.032623
0.085724 0.280823 0.033783
0.102478 0.282135 0.035034
0.123535 0.290009 0.035187
0.150146 0.303406 0.034241
0.181702 0.317963 0.033234
0.218567 0.333588 0.032196
0.261688 0.350494 0.031097
0.307556 0.364410 0.029907
0.345673 0.366516 0.029083
0.377869 0.367676 0.030182
0.391510 0.351044 0.031158
0.400848 0.329407 0.032318
0.431763 0.326569 0.032806
0.456390 0.319366 0.033447
0.476288 0.309692 0.034302
0.499542 0.309814 0.035034
0.526978 0.317535 0.034210
0.555511 0.325256 0.031830
0.583771 0.333923 0.032410
0.613129 0.342712 0.031403
0.642151 0.351776 0.031921
0.672485 0.360718 0.030762
0.702057 0.370300 0.031311
0.732910 0.379425 0.030060
0.762756 0.389130 0.030518
0.793976 0.398315 0.029144
0.824463 0.407990 0.029572
0.854553 0.417694 0.029968
0.886200 0.427338 0.028351
0.914917 0.437714 0.030853
0.043365 0.302551 0.033386
0.058228 0.303711 0.034515
0.073578 0.304840 0.035645
0.089172 0.306091 0.036835
0.105865 0.307648 0.038086
0.124268 0.311737 0.038269
0.150696 0.324951 0.038208
0.180969 0.339417 0.037109
0.216217 0.355011 0.035980
0.257019 0.371826 0.034760
0.303406 0.389130 0.033356
0.347107 0.398132 0.032166
0.383789 0.400146 0.032318
0.415680 0.401123 0.033264
0.425903 0.381348 0.034393
0.434814 0.359558 0.035522
0.465607 0.356750 0.036011
0.492340 0.350616 0.036652
0.512329 0.340515 0.037476
0.534454 0.335083 0.038330
0.562469 0.343384 0.037354
0.591248 0.351593 0.036377
0.620483 0.359924 0.035370
0.649200 0.368927 0.035980
0.679352 0.377686 0.034821
0.710052 0.386658 0.033539
0.739838 0.396088 0.034088
0.769684 0.405884 0.034546
0.800690 0.414825 0.033081
0.831970 0.424194 0.031647
0.862427 0.433868 0.032043
0.892639 0.443878 0.032501
0.922791 0.453552 0.032959
0.046814 0.327698 0.036438
0.061676 0.329102 0.037537
0.077026 0.330261 0.038666
0.092590 0.331451 0.039825
0.109283 0.332733 0.041077
0.126984 0.334106 0.042450
0.152069 0.346313 0.042389
0.180847 0.360809 0.041168
0.215454 0.376068 0.041107
0.254395 0.392822 0.039734
0.298279 0.410095 0.038361
0.346558 0.428375 0.035461
0.386902 0.431671 0.035553
0.421692 0.433441 0.035553
0.453064 0.434235 0.036346
0.460114 0.411438 0.037598
0.468658 0.389404 0.038727
0.499542 0.386597 0.039185
0.528351 0.381775 0.039825
0.549103 0.370972 0.040680
0.570251 0.361176 0.041595
0.598724 0.369110 0.040588
0.626892 0.377686 0.041229
0.656494 0.386261 0.040161
0.686584 0.395020 0.038971
0.716827 0.403595 0.037659
0.746552 0.413147 0.038208
0.776367 0.422577 0.038879
0.807434 0.431793 0.037354
0.838654 0.440765 0.035797
0.868774 0.450470 0.036255
0.900330 0.459839 0.034576
0.930481 0.469208 0.035034
0.050293 0.353149 0.039429
0.065186 0.354279 0.040527
0.080475 0.355469 0.041718
0.096008 0.356903 0.042877
0.112671 0.358185 0.044128
0.130371 0.359558 0.045471
0.152618 0.367981 0.045471
0.181366 0.382172 0.045349
0.214081 0.397675 0.043945
0.251617 0.414490 0.042450
0.294250 0.431458 0.042297
0.340454 0.449066 0.040588
0.387360 0.463074 0.038910
0.426727 0.465607 0.037445
0.459442 0.466980 0.038788
0.490509 0.467712 0.039520
0.494446 0.442169 0.040863
0.502625 0.419617 0.041992
0.534088 0.416473 0.042480
0.565063 0.412384 0.043060
0.586243 0.401550 0.043915
0.607758 0.391174 0.044861
0.634460 0.395508 0.045563
0.663910 0.403778 0.044464
0.693848 0.412079 0.043243
0.723328 0.421783 0.043915
0.753693 0.430389 0.042511
0.783386 0.439667 0.043182
0.814209 0.448700 0.041687
0.845367 0.457489 0.040100
0.875366 0.467163 0.040588
0.906647 0.476379 0.038910
0.936798 0.486145 0.039459
0.053772 0.378967 0.042511
0.068604 0.380127 0.043640
0.083893 0.381317 0.044800
0.099457 0.382507 0.045959
0.116150 0.383759 0.047211
0.133820 0.385376 0.048553
0.154419 0.389679 0.049896
0.181641 0.404144 0.048401
0.213226 0.419708 0.046814
0.250031 0.436127 0.046600
0.291229 0.453033 0.046417
0.335541 0.470673 0.044617
0.383331 0.488770 0.042664
0.427094 0.497131 0.042450
0.465271 0.499420 0.040710
0.497040 0.501068 0.042114
0.527802 0.501404 0.042694
0.529236 0.473328 0.044098
0.537201 0.450134 0.045288
0.569672 0.447144 0.045776
0.602356 0.443542 0.046356
0.624115 0.432434 0.047241
0.645966 0.421967 0.048218
0.672241 0.421631 0.047058
0.701355 0.430237 0.047760
0.731506 0.438782 0.046356
0.761017 0.448151 0.047058
0.791565 0.456818 0.045593
0.822357 0.465668 0.044006
0.852295 0.475250 0.044586
0.883514 0.484131 0.042908
0.913422 0.493500 0.043396
0.943420 0.503113 0.043945
0.057404 0.405243 0.045715
0.072174 0.406433 0.046814
0.087585 0.407806 0.047974
0.103119 0.409027 0.049164
0.119720 0.410278 0.050385
0.137390 0.411621 0.051727
0.156250 0.413086 0.053192
0.183105 0.426453 0.052979
0.214386 0.441589 0.052704
0.249115 0.458313 0.051025
0.288727 0.475128 0.050751
0.331543 0.493011 0.048828
0.377533 0.510925 0.046753
0.426605 0.529175 0.044586
0.466461 0.532349 0.044312
0.502899 0.534241 0.044037
0.534821 0.535889 0.045410
0.563385 0.534454 0.045990
0.565063 0.505676 0.047394
0.572723 0.481232 0.048615
0.605743 0.478271 0.049164
0.639557 0.475128 0.049774
0.662567 0.464020 0.050598
0.684723 0.453308 0.051514
0.709167 0.448944 0.052460
0.739197 0.457306 0.051086
0.768646 0.466217 0.051758
0.799988 0.474487 0.048035
0.829834 0.483887 0.048706
0.859589 0.493042 0.049316
0.890411 0.501709 0.047577
0.920258 0.511261 0.048157
0.950134 0.520538 0.048706
0.061066 0.432312 0.048981
0.075897 0.433441 0.050079
0.091187 0.434601 0.051208
0.106720 0.436066 0.052399
0.123444 0.437347 0.053650
0.141022 0.438751 0.055023
0.159821 0.440125 0.056396
0.183960 0.449707 0.056183
0.214600 0.464935 0.055939
0.248260 0.481445 0.054077
0.286713 0.498230 0.053680
0.328522 0.515686 0.053284
0.372833 0.533630 0.051147
0.420013 0.551788 0.048767
0.466888 0.566010 0.048187
0.505707 0.567932 0.047760
0.540649 0.569855 0.047394
0.572510 0.571472 0.048767
0.600006 0.567871 0.049377
0.601471 0.538544 0.050842
0.609009 0.513428 0.052155
0.642700 0.510315 0.052643
0.677032 0.506927 0.053223
0.701721 0.496826 0.054108
0.724152 0.485809 0.055023
0.747253 0.476410 0.056030
0.777252 0.484680 0.054443
0.806854 0.493958 0.055176
0.837433 0.502533 0.053558
0.867035 0.511627 0.054199
0.897980 0.520447 0.052521
0.927765 0.529724 0.053101
0.958710 0.538635 0.051208
0.064819 0.459930 0.052277
0.079590 0.461060 0.053406
0.094940 0.462219 0.054535
0.110443 0.463501 0.055695
0.127136 0.464966 0.057007
0.144775 0.466309 0.058319
0.163544 0.467773 0.059723
0.186035 0.472900 0.061188
0.214691 0.488342 0.059235
0.248627 0.504547 0.058868
0.285095 0.522034 0.056763
0.325592 0.539246 0.056274
0.368805 0.556885 0.055695
0.414398 0.574249 0.055023
0.461731 0.592377 0.052429
0.506409 0.602234 0.051788
0.544617 0.604279 0.051361
0.578766 0.606293 0.050842
0.611267 0.607849 0.052155
0.637390 0.602142 0.052826
0.638885 0.572083 0.054291
0.646027 0.546295 0.055695
0.680328 0.542908 0.056244
0.715057 0.539734 0.056793
0.741486 0.530457 0.057617
0.764313 0.518951 0.058594
0.786896 0.508606 0.059509
0.814941 0.513336 0.060303
0.845306 0.521515 0.058685
0.875000 0.530701 0.059387
0.906616 0.538879 0.055115
0.935364 0.548615 0.058228
0.966370 0.557373 0.056396
0.068634 0.487976 0.055664
0.083435 0.489136 0.056824
0.098694 0.490295 0.057953
0.114258 0.491516 0.059143
0.130859 0.493042 0.060394
0.148529 0.494385 0.061707
0.167419 0.495850 0.063141
0.187927 0.497467 0.064728
0.216400 0.511932 0.064240
0.249237 0.528290 0.063843
0.285553 0.545166 0.063354
0.324005 0.562714 0.061035
0.365082 0.580811 0.058594
0.409607 0.598267 0.057892
0.455719 0.615906 0.057068
0.503876 0.633209 0.056183
0.545380 0.639130 0.055542
0.584381 0.641754 0.052917
0.617462 0.643341 0.054321
0.650635 0.644684 0.055603
0.675354 0.636963 0.056396
0.676910 0.606476 0.057922
0.683716 0.579437 0.059296
0.718384 0.576263 0.059845
0.753510 0.572968 0.060486
0.781891 0.564758 0.061188
0.804504 0.552948 0.062164
0.827454 0.542480 0.063080
0.853546 0.541473 0.064026
0.883942 0.549713 0.062225
0.914429 0.558258 0.060303
0.944397 0.567627 0.061005
0.974182 0.576752 0.061707
0.072418 0.516510 0.059143
0.087189 0.517670 0.060272
0.102509 0.518799 0.061401
0.118103 0.520020 0.062592
0.134674 0.521515 0.063843
0.152222 0.522858 0.065186
0.171204 0.524323 0.066620
0.191620 0.525879 0.068146
0.217438 0.536530 0.067749
0.249481 0.552612 0.067230
0.284912 0.569427 0.066681
0.323059 0.586853 0.066132
0.362854 0.604584 0.063507
0.405731 0.622253 0.062714
0.450439 0.639557 0.061920
0.497131 0.657806 0.058929
0.545807 0.674347 0.059967
0.584381 0.677155 0.057159
0.623962 0.679321 0.056458
0.657227 0.680786 0.057892
0.690857 0.682068 0.059143
0.713867 0.672211 0.059998
0.715393 0.640991 0.061554
0.721771 0.613190 0.062958
0.756897 0.609985 0.063599
0.792175 0.606415 0.064117
0.822418 0.599731 0.064850
0.845367 0.587677 0.065796
0.868073 0.576782 0.066772
0.893158 0.569885 0.065033
0.922607 0.578278 0.065765
0.953369 0.586761 0.063782
0.983246 0.596222 0.064758
0.076294 0.545227 0.062622
0.091095 0.546387 0.063751
0.106445 0.547516 0.064850
0.121796 0.548889 0.066040
0.138519 0.550232 0.067291
0.156158 0.551605 0.068665
0.175018 0.553040 0.070068
0.195526 0.554596 0.071594
0.220001 0.560577 0.073151
0.249756 0.577209 0.070709
0.285675 0.593567 0.071991
0.321808 0.611237 0.069427
0.361206 0.628845 0.068665
0.403046 0.646179 0.067841
0.445831 0.664368 0.064789
0.491577 0.681122 0.065948
0.538574 0.699280 0.062653
0.585052 0.712891 0.061615
0.624481 0.715027 0.060852
0.663513 0.717102 0.060028
0.697601 0.718628 0.061523
0.731964 0.720032 0.062714
0.752747 0.707489 0.063690
0.754303 0.675903 0.065247
0.760284 0.647339 0.066681
0.795563 0.644073 0.067230
0.831024 0.640594 0.067841
0.863342 0.635010 0.068695
0.886047 0.622955 0.069672
0.909180 0.611725 0.070679
0.931946 0.601166 0.071716
0.961639 0.607330 0.069672
0.991394 0.616577 0.070404
0.080231 0.574158 0.066101
0.095306 0.575317 0.067261
0.110199 0.576477 0.068390
0.126038 0.577942 0.069580
0.142365 0.579254 0.070862
0.160156 0.580536 0.072144
0.179108 0.582001 0.073608
0.199402 0.583588 0.075165
0.221313 0.585510 0.077057
0.251801 0.601562 0.076416
0.285675 0.618347 0.075684
0.320770 0.636230 0.072723
0.360535 0.653015 0.074005
0.399933 0.671143 0.070984
0.442383 0.688538 0.069977
0.486816 0.705292 0.071106
0.532104 0.723389 0.067719
0.580475 0.741058 0.066498
0.625183 0.750854 0.065430
0.665527 0.753082 0.064636
0.704132 0.755310 0.063660
0.738739 0.756989 0.065216
0.773712 0.757996 0.066284
0.791901 0.742737 0.067383
0.793701 0.710876 0.068939
0.799011 0.681641 0.070648
0.834442 0.678284 0.071228
0.870209 0.675079 0.071777
0.904510 0.670685 0.072388
0.927307 0.658569 0.073364
0.950439 0.647156 0.074402
0.973145 0.636261 0.075348
0.999603 0.636444 0.076233
0.084137 0.603363 0.069672
0.099182 0.604462 0.070770
0.114166 0.605835 0.071930
0.130096 0.607086 0.073120
0.146362 0.608368 0.074402
0.163971 0.609711 0.075867
0.182983 0.611176 0.077423
0.203186 0.612976 0.078949
0.225067 0.614624 0.080597
0.252869 0.626373 0.079987
0.285980 0.643433 0.079224
0.321320 0.660492 0.078461
0.359222 0.678131 0.077545
0.398529 0.695404 0.076569
0.439362 0.712921 0.075531
0.482208 0.730194 0.074432
0.526794 0.747559 0.073242
0.573303 0.765228 0.071960
0.623169 0.783051 0.070404
0.665924 0.789825 0.066864
0.707397 0.791626 0.068390
0.745422 0.793823 0.067444
0.780701 0.795410 0.069000
0.815857 0.796387 0.070160
0.831512 0.778259 0.071350
