滤镜资源/Lutify.me Free 3D LUTs Package/3D LUTs/Color Grading LUTs/Standard (Rec709 and DCI P3) LUTs/Hypersthene - Rec709.cube
# Created by: Lutify.me
# Copyright: (c) Copyright Lutify.me 2016, G.T. Colord LTD
# Website: https://lutify.me
# Contact: help@lutify.me
LUT_3D_SIZE 9
0.000000 0.000000 0.000000
0.063599 0.001190 0.000000
0.145172 0.017395 0.000000
0.246399 0.036041 0.000000
0.348816 0.054932 0.000000
0.453400 0.074738 0.000671
0.565887 0.096344 0.001892
0.681763 0.118988 0.003204
0.798401 0.141388 0.004547
0.008636 0.047882 0.003265
0.087616 0.058167 0.003418
0.171204 0.074677 0.002625
0.276215 0.107086 0.002411
0.373840 0.123810 0.003571
0.474243 0.142059 0.004883
0.582642 0.162140 0.006226
0.694366 0.183197 0.007660
0.806793 0.204651 0.009369
0.019348 0.126312 0.012299
0.096680 0.149811 0.013947
0.197693 0.150818 0.013092
0.297607 0.158813 0.013336
0.404053 0.191711 0.011749
0.513550 0.226471 0.011047
0.630707 0.262543 0.011139
0.742432 0.280914 0.012848
0.854980 0.300354 0.014221
0.032928 0.225830 0.024048
0.097290 0.233948 0.028839
0.227264 0.290253 0.025116
0.332306 0.268555 0.025818
0.431732 0.258453 0.027283
0.540192 0.290833 0.025665
0.658600 0.327271 0.023224
0.779877 0.365692 0.023193
0.902618 0.405182 0.022858
0.046814 0.327698 0.036438
0.109283 0.332733 0.041077
0.215454 0.376068 0.041107
0.386902 0.431671 0.035553
0.468658 0.389404 0.038727
0.570251 0.361176 0.041595
0.686584 0.395020 0.038971
0.807434 0.431793 0.037354
0.930481 0.469208 0.035034
0.061066 0.432312 0.048981
0.123444 0.437347 0.053650
0.214600 0.464935 0.055939
0.372833 0.533630 0.051147
0.540649 0.569855 0.047394
0.609009 0.513428 0.052155
0.724152 0.485809 0.055023
0.837433 0.502533 0.053558
0.958710 0.538635 0.051208
0.076294 0.545227 0.062622
0.138519 0.550232 0.067291
0.220001 0.560577 0.073151
0.361206 0.628845 0.068665
0.538574 0.699280 0.062653
0.697601 0.718628 0.061523
0.760284 0.647339 0.066681
0.886047 0.622955 0.069672
0.991394 0.616577 0.070404
0.092316 0.661804 0.077026
0.154449 0.666840 0.081757
0.233002 0.673126 0.087799
0.358612 0.727661 0.086578
0.518066 0.796936 0.081726
0.708496 0.864655 0.075958
0.865692 0.872681 0.076752
0.916351 0.785583 0.082062
1.000000 0.754669 0.113068
0.108215 0.779510 0.091431
0.170197 0.784454 0.096069
0.248932 0.790802 0.102142
0.360168 0.827606 0.103210
0.508514 0.896454 0.099945
0.684662 0.968933 0.092804
0.868652 1.000000 0.109283
1.000000 1.000000 0.119507
1.000000 0.905273 0.126068
0.000000 0.000000 0.058563
0.050537 0.000000 0.045319
0.143311 0.000000 0.039795
0.241364 0.000000 0.015503
0.350067 0.001038 0.000366
0.454254 0.021515 0.001495
0.566711 0.043335 0.002716
0.682587 0.065948 0.003998
0.799469 0.088715 0.005341
0.002869 0.026642 0.036438
0.086121 0.066315 0.064056
0.166901 0.082550 0.064880
0.266968 0.101746 0.066040
0.368256 0.121216 0.067200
0.472412 0.141174 0.068390
0.584625 0.162720 0.069672
0.700623 0.185211 0.071014
0.817261 0.207611 0.072723
0.016571 0.113556 0.056671
0.095795 0.144470 0.074463
0.197021 0.157776 0.074158
0.298248 0.176880 0.073608
0.405243 0.210602 0.072479
0.508972 0.234192 0.073730
0.617004 0.252991 0.075195
0.728668 0.273132 0.076935
0.841370 0.293884 0.078369
0.034302 0.227173 0.070709
0.109070 0.243958 0.086365
0.210388 0.277588 0.087738
0.331604 0.275726 0.087067
0.432526 0.275574 0.086884
0.541168 0.308746 0.085663
0.659119 0.345795 0.084900
0.780731 0.384766 0.084930
0.902466 0.421906 0.084717
0.048096 0.329193 0.082947
0.122620 0.345673 0.098877
0.208069 0.363922 0.102600
0.374664 0.430664 0.097778
0.467957 0.396576 0.100128
0.570343 0.378052 0.101501
0.687195 0.412415 0.099487
0.808167 0.449402 0.098267
0.930145 0.488373 0.098206
0.062256 0.433472 0.095795
0.136688 0.450226 0.111542
0.215454 0.456512 0.117554
0.357849 0.520782 0.114594
0.532349 0.569458 0.108917
0.608276 0.520355 0.113678
0.720001 0.490967 0.116730
0.837891 0.519379 0.113525
0.958649 0.556824 0.113739
0.077728 0.546326 0.109406
0.152069 0.563110 0.125336
0.230713 0.569427 0.131348
0.352631 0.616058 0.132202
0.519836 0.685730 0.127808
0.689362 0.718109 0.123138
0.759583 0.654175 0.128326
0.881958 0.627655 0.131500
0.992188 0.632935 0.129608
0.093475 0.663147 0.123810
0.167786 0.679657 0.139832
0.246460 0.685913 0.145844
0.353638 0.715363 0.148346
0.505432 0.783997 0.146912
0.691711 0.856781 0.139771
0.857147 0.872009 0.138458
0.915649 0.792786 0.143768
1.000000 0.760559 0.173065
0.109467 0.780548 0.138306
0.183685 0.797333 0.154327
0.262085 0.803589 0.160309
0.360748 0.814941 0.167633
0.499207 0.883881 0.162750
0.669281 0.955200 0.159607
0.857391 1.000000 0.170197
1.000000 1.000000 0.179504
1.000000 0.913361 0.186035
0.000000 0.000000 0.145020
0.059204 0.000000 0.132996
0.109344 0.000000 0.108643
0.220306 0.000000 0.116241
0.339752 0.000000 0.099609
0.452911 0.000000 0.068542
0.565826 0.000000 0.031372
0.683502 0.000000 0.011841
0.800598 0.015930 0.006439
0.000000 0.041229 0.127808
0.084656 0.063446 0.157257
0.153473 0.062378 0.138672
0.267944 0.066132 0.124268
0.371033 0.071045 0.093597
0.474670 0.073120 0.074097
0.586884 0.094757 0.075409
0.702698 0.117340 0.077026
0.819519 0.139740 0.078400
0.006409 0.075836 0.089905
0.090729 0.121307 0.124939
0.194672 0.169373 0.158417
0.292816 0.189056 0.159454
0.393768 0.208405 0.160645
0.498077 0.228302 0.161896
0.610260 0.249908 0.163269
0.725983 0.272095 0.164642
0.842834 0.294647 0.166107
0.021240 0.176392 0.118622
0.107666 0.231293 0.149933
0.206268 0.268097 0.171967
0.330963 0.285156 0.171417
0.433014 0.299896 0.170898
0.542664 0.334076 0.169586
0.659851 0.370575 0.170013
0.771484 0.389191 0.171539
0.884094 0.408844 0.173126
0.040649 0.300629 0.143097
0.126129 0.349182 0.164734
0.219849 0.369751 0.184357
0.350372 0.415192 0.185089
0.467255 0.405914 0.184570
0.570679 0.401367 0.185181
0.687347 0.436798 0.184021
0.808777 0.474731 0.183167
0.930908 0.514069 0.183350
0.060455 0.424805 0.159546
0.140167 0.453400 0.177490
0.233856 0.474182 0.197113
0.343842 0.503723 0.200562
0.515289 0.568085 0.194672
0.607574 0.529907 0.198181
0.717590 0.508057 0.201538
0.838409 0.543182 0.197571
0.959412 0.580750 0.197998
0.079834 0.548645 0.174255
0.155518 0.566223 0.191223
0.248901 0.586761 0.211212
0.347198 0.599457 0.217041
0.497467 0.668854 0.213013
0.677795 0.717194 0.207977
0.758545 0.663605 0.213165
0.876099 0.634460 0.216278
0.991760 0.656647 0.214935
0.095825 0.665222 0.188538
0.171143 0.682983 0.205750
0.264679 0.703522 0.225586
0.360992 0.711212 0.233032
0.490540 0.767303 0.231293
0.665833 0.838776 0.228088
0.845764 0.871246 0.223114
0.914703 0.801971 0.228516
1.000000 0.768707 0.255249
0.111603 0.782867 0.203217
0.187103 0.800323 0.220184
0.280365 0.821106 0.240082
0.376617 0.828735 0.247498
0.491638 0.866974 0.249573
0.649048 0.938110 0.245300
0.843994 1.000000 0.256134
0.995850 1.000000 0.261719
1.000000 0.924805 0.268311
0.000000 0.000000 0.260437
0.077942 0.000000 0.259155
0.118073 0.000000 0.225800
0.175079 0.000000 0.186951
0.293915 0.000000 0.221375
0.409729 0.000000 0.207275
0.543945 0.000000 0.188446
0.687775 0.000000 0.157684
0.807068 0.000000 0.117035
0.000000 0.057922 0.257812
0.080261 0.059021 0.281006
0.159088 0.058319 0.261047
0.221436 0.058197 0.221436
0.334229 0.058624 0.232758
0.462524 0.063629 0.215637
0.596466 0.068909 0.186371
0.709015 0.074585 0.149231
0.821014 0.079620 0.113281
0.000000 0.094635 0.211731
0.082092 0.137299 0.251007
0.193207 0.165314 0.282196
0.272430 0.164185 0.253906
0.387909 0.167542 0.247101
0.504700 0.171997 0.217896
0.613220 0.176422 0.186340
0.729126 0.183411 0.173370
0.845978 0.206299 0.174835
0.011047 0.136292 0.159302
0.094971 0.181183 0.194214
0.200806 0.238525 0.239075
0.328278 0.299896 0.283569
0.427490 0.319641 0.284729
0.531738 0.339447 0.285980
0.643768 0.360809 0.287354
0.759460 0.383118 0.288788
0.876221 0.405212 0.290192
0.020386 0.236877 0.194550
0.108887 0.278076 0.222961
0.217010 0.348602 0.267029
0.340332 0.400909 0.297668
0.465973 0.418335 0.297028
0.571381 0.432983 0.296600
0.688995 0.470032 0.296143
0.809845 0.506378 0.295807
0.922394 0.525146 0.297302
0.041840 0.352081 0.221741
0.128784 0.406616 0.253784
0.237122 0.473022 0.285156
0.354218 0.504974 0.310486
0.484802 0.550507 0.311279
0.606323 0.542328 0.310760
0.718292 0.538849 0.311554
0.839447 0.575104 0.308960
0.961029 0.613739 0.309418
0.063446 0.489532 0.249329
0.150726 0.541718 0.275391
0.254059 0.591644 0.299316
0.369507 0.617737 0.324402
0.479553 0.645630 0.329102
0.655304 0.715149 0.322968
0.757538 0.676117 0.325531
0.871918 0.652130 0.327332
0.992218 0.687836 0.326599
0.088409 0.628937 0.271698
0.172180 0.679626 0.291718
0.269623 0.708405 0.313660
0.384949 0.734467 0.339111
0.483917 0.744720 0.346588
0.635956 0.816376 0.340851
0.830170 0.869934 0.335754
0.913574 0.814362 0.341156
1.000000 0.780182 0.364624
0.109711 0.767975 0.289062
0.189850 0.803284 0.306366
0.285522 0.825684 0.328369
0.400757 0.851746 0.353699
0.498169 0.859558 0.361328
0.630463 0.915009 0.361603
0.817841 0.993134 0.354309
0.984802 1.000000 0.371124
1.000000 0.939697 0.377686
0.000000 0.000000 0.380646
0.080200 0.000000 0.380676
0.140991 0.000000 0.357147
0.183228 0.000000 0.315735
0.239685 0.000000 0.266785
0.381714 0.000000 0.335571
0.483215 0.000000 0.310150
0.622040 0.000000 0.299774
0.768066 0.000000 0.278656
0.000000 0.060486 0.380646
0.075653 0.054382 0.410126
0.176239 0.053162 0.402802
0.227600 0.053589 0.355347
0.287964 0.053467 0.305023
0.425568 0.050537 0.355438
0.539795 0.057312 0.327759
0.682068 0.061890 0.306732
0.823273 0.066498 0.277496
0.000000 0.116760 0.345062
0.073700 0.150696 0.399536
0.188538 0.160645 0.411285
0.279572 0.159973 0.384064
0.339386 0.159821 0.338104
0.459137 0.159515 0.359070
0.593994 0.164459 0.340942
0.733154 0.169830 0.312164
0.855347 0.175385 0.275665
0.006012 0.156433 0.287750
0.087708 0.201599 0.323212
0.191772 0.256500 0.370667
0.326660 0.295593 0.412659
0.404175 0.294159 0.380127
0.524628 0.296753 0.376709
0.650543 0.302002 0.345306
0.762268 0.306854 0.312408
0.879028 0.313263 0.298523
0.015472 0.197174 0.230652
0.099548 0.242249 0.265747
0.205078 0.299133 0.310730
0.334320 0.368927 0.365967
0.463745 0.433197 0.413910
0.566376 0.453278 0.415100
0.678345 0.474518 0.416473
0.794006 0.496735 0.417969
0.910706 0.518890 0.419464
0.018768 0.312378 0.283569
0.106842 0.349823 0.308655
0.217926 0.397278 0.340912
0.351166 0.481720 0.395782
0.476624 0.536957 0.428314
0.605133 0.555115 0.427765
0.718994 0.571594 0.427460
0.840851 0.609833 0.426208
0.961548 0.645142 0.426697
0.044403 0.408783 0.295715
0.131470 0.464813 0.333221
0.238953 0.534363 0.375336
0.372406 0.616089 0.415649
0.491547 0.649658 0.442291
0.622803 0.694153 0.443115
0.756317 0.688934 0.442657
0.872040 0.684021 0.443481
0.993286 0.720947 0.442139
0.067230 0.553528 0.333649
0.152039 0.607605 0.364594
0.261169 0.674683 0.399170
0.389862 0.739044 0.430267
0.507294 0.766266 0.457001
0.618561 0.792480 0.461914
0.807281 0.867737 0.455688
0.912170 0.827301 0.458313
1.000000 0.797363 0.478302
0.090057 0.696350 0.362427
0.174652 0.749146 0.388275
0.282410 0.814240 0.416656
0.405457 0.856354 0.444855
0.522797 0.883514 0.471619
0.623688 0.892548 0.479462
0.787659 0.968933 0.475555
0.973206 1.000000 0.484894
1.000000 0.955170 0.491455
0.000000 0.000000 0.504089
0.080109 0.000000 0.504120
0.161041 0.000000 0.491852
0.210419 0.000000 0.450531
0.251312 0.000000 0.405914
0.307098 0.000000 0.349701
0.475983 0.000000 0.439148
0.574036 0.000000 0.423096
0.701630 0.000000 0.408020
0.000000 0.060425 0.504089
0.070953 0.049622 0.542999
0.181122 0.048187 0.541351
0.250275 0.048096 0.500366
0.295105 0.048248 0.452698
0.357239 0.048462 0.391571
0.526276 0.042664 0.473724
0.620789 0.048767 0.436584
0.765594 0.054169 0.423096
0.000000 0.135010 0.484192
0.067719 0.151886 0.539917
0.183807 0.155945 0.544006
0.298431 0.154327 0.529602
0.348663 0.154877 0.481232
0.408569 0.154968 0.425049
0.560791 0.149994 0.485962
0.674683 0.157135 0.454437
0.818817 0.162109 0.434509
0.000000 0.181396 0.423615
0.075500 0.222015 0.470337
0.183136 0.271484 0.521362
0.321899 0.290619 0.545319
0.415100 0.289856 0.518066
0.473694 0.289886 0.467468
0.602783 0.289124 0.490143
0.743256 0.294434 0.471497
0.882965 0.299988 0.442322
0.012573 0.219025 0.361420
0.096497 0.263977 0.399628
0.198273 0.321198 0.445068
0.325104 0.388763 0.503235
0.461639 0.428802 0.546692
0.540253 0.427551 0.510803
0.670258 0.430756 0.508636
0.800568 0.435547 0.475922
0.912781 0.440186 0.442383
0.020294 0.260284 0.304382
0.104004 0.305145 0.339539
0.209717 0.361908 0.384613
0.339081 0.431671 0.440094
0.469421 0.502411 0.496338
0.602844 0.569946 0.547791
0.713684 0.591400 0.549133
0.829437 0.613586 0.550629
0.945892 0.635651 0.552094
0.023682 0.395142 0.372742
0.107513 0.431580 0.400238
0.217499 0.478882 0.432434
0.352081 0.536896 0.472321
0.487274 0.624512 0.529175
0.617340 0.682312 0.563324
0.755035 0.702026 0.562927
0.872803 0.717590 0.562500
0.995697 0.755768 0.561066
0.044891 0.482239 0.378448
0.130890 0.523285 0.406708
0.240356 0.594971 0.455597
0.375488 0.680542 0.509186
0.509338 0.763367 0.549652
0.632996 0.798859 0.577850
0.773438 0.845764 0.578918
0.911011 0.840424 0.578308
1.000000 0.831085 0.592560
0.069733 0.615112 0.413513
0.156891 0.670441 0.449036
0.265106 0.739380 0.490204
0.396729 0.821808 0.532684
0.527008 0.887482 0.564575
0.648499 0.916046 0.592773
0.768372 0.945496 0.596893
0.954590 1.000000 0.604370
1.000000 0.971100 0.608215
0.000000 0.000000 0.638336
0.080261 0.000000 0.638336
0.180634 0.000000 0.638367
0.235138 0.000000 0.597443
0.280518 0.000000 0.555328
0.323669 0.000000 0.503326
0.379425 0.000000 0.439148
0.553619 0.000000 0.532135
0.672119 0.000000 0.553650
0.000000 0.060455 0.638214
0.065674 0.044495 0.687195
0.175781 0.043030 0.685730
0.269775 0.042389 0.657532
0.322693 0.042786 0.609253
0.368805 0.042786 0.557190
0.431580 0.043213 0.485443
0.617889 0.037415 0.582031
0.721008 0.046906 0.571747
0.000000 0.152161 0.635315
0.062561 0.146667 0.684296
0.178619 0.150818 0.688171
0.313232 0.148773 0.686401
0.373260 0.148895 0.639038
0.419342 0.149414 0.589539
0.482544 0.149780 0.518768
0.663605 0.143372 0.610657
0.757416 0.151672 0.577881
0.000000 0.205475 0.573273
0.066345 0.238983 0.633392
0.174866 0.280396 0.684631
0.316772 0.285400 0.689484
0.434784 0.283997 0.676636
0.487366 0.284637 0.626068
0.547760 0.284882 0.561676
0.707977 0.279541 0.630066
0.819489 0.286102 0.596405
0.000000 0.247375 0.516144
0.081024 0.290802 0.554718
0.185577 0.344116 0.603485
0.315460 0.404907 0.668091
0.456482 0.423645 0.690918
0.555115 0.422638 0.664429
0.614655 0.422699 0.605560
0.751404 0.421478 0.634277
0.890137 0.426758 0.615021
0.017151 0.283875 0.442932
0.100739 0.329559 0.483002
0.206360 0.386810 0.531830
0.331543 0.456635 0.587616
0.459503 0.524475 0.647278
0.600128 0.565063 0.692444
0.682770 0.563751 0.650055
0.818604 0.566010 0.652893
0.954010 0.570862 0.621002
0.025146 0.328217 0.384338
0.109039 0.372803 0.419861
0.214722 0.429749 0.464783
0.343781 0.499390 0.520386
0.474335 0.569916 0.576843
0.608643 0.642578 0.635010
0.752960 0.717407 0.693390
0.867889 0.739716 0.694855
0.984161 0.761749 0.696320
0.028931 0.478302 0.465912
0.112396 0.517090 0.495850
0.218018 0.563507 0.530945
0.351837 0.621429 0.571686
0.487061 0.680023 0.611938
0.626007 0.767853 0.670135
0.768555 0.834106 0.709442
0.909729 0.854706 0.708984
1.000000 0.869019 0.718201
0.044342 0.567596 0.477905
0.132263 0.604858 0.503082
0.242767 0.651886 0.536133
0.375214 0.735291 0.593933
0.509125 0.822449 0.648193
0.649231 0.908142 0.692596
0.783966 0.951477 0.724365
0.927948 0.998962 0.725586
1.000000 0.988159 0.735016
0.000000 0.000000 0.777863
0.080139 0.000000 0.777863
0.180786 0.000000 0.777863
0.258087 0.000000 0.749756
0.307892 0.000000 0.707733
0.351837 0.000000 0.664093
0.400513 0.000000 0.602020
0.453247 0.000000 0.532104
0.628845 0.000000 0.625763
0.000000 0.060547 0.777557
0.060150 0.039124 0.837097
0.170380 0.037689 0.835693
0.288330 0.035950 0.823303
0.346100 0.036377 0.773956
0.396179 0.037079 0.723755
0.448334 0.037262 0.660400
0.507904 0.037842 0.582520
0.687439 0.047882 0.671509
0.000000 0.155151 0.777863
0.057251 0.141113 0.834290
0.173309 0.145233 0.838135
0.307831 0.143402 0.836334
0.394196 0.142578 0.804504
0.447937 0.143799 0.752350
0.497803 0.143799 0.695343
0.558777 0.144165 0.616150
0.738281 0.152344 0.705383
0.000000 0.226532 0.730591
0.055817 0.253174 0.808441
0.169556 0.275085 0.834564
0.311493 0.280090 0.839417
0.447540 0.278351 0.837677
0.512451 0.278412 0.790222
0.562469 0.278870 0.736938
0.623840 0.279266 0.658875
0.802979 0.284515 0.748932
0.000000 0.273804 0.667145
0.067871 0.311981 0.722656
0.173889 0.362061 0.774658
0.307526 0.412750 0.835754
0.450867 0.418274 0.840912
0.574829 0.416931 0.827820
0.632019 0.417206 0.774445
0.690857 0.417633 0.703064
0.851166 0.420380 0.775848
0.004028 0.314697 0.610260
0.085938 0.358795 0.646179
0.190125 0.414185 0.693268
0.317627 0.479706 0.753784
0.448853 0.540680 0.819824
0.594757 0.559692 0.842346
0.701477 0.558807 0.813995
0.759277 0.559021 0.748291
0.899963 0.559845 0.784790
0.022339 0.351318 0.523468
0.105804 0.397766 0.563660
0.211304 0.455841 0.614532
0.340424 0.526062 0.675415
0.466553 0.597046 0.732178
0.598175 0.666901 0.793945
0.749725 0.712769 0.843994
0.832947 0.711487 0.796844
0.970306 0.713867 0.803833
0.030426 0.398346 0.467346
0.114227 0.442871 0.502930
0.219696 0.499420 0.548187
0.348846 0.569153 0.603912
0.479431 0.639587 0.660461
0.613892 0.712433 0.718658
0.758514 0.790527 0.781891
0.907806 0.869934 0.845001
1.000000 0.894806 0.851715
0.034607 0.550079 0.550446
0.117828 0.594147 0.585663
0.223114 0.649567 0.629883
0.352234 0.706604 0.673462
0.484314 0.764740 0.715027
0.625549 0.825378 0.757080
0.776398 0.915863 0.818359
0.923950 0.988037 0.861053
1.000000 1.000000 0.866791
0.000000 0.000000 0.919189
0.080322 0.000000 0.919006
0.180664 0.000000 0.919189
0.280029 0.000000 0.903900
0.333099 0.000000 0.861908
0.381500 0.000000 0.818115
0.426208 0.000000 0.771088
0.478516 0.000000 0.699249
0.527832 0.000000 0.625763
0.000000 0.060364 0.919189
0.060852 0.039917 0.951996
0.167572 0.039978 0.951996
0.298187 0.039886 0.951965
0.364014 0.041138 0.911774
0.419098 0.042542 0.866882
0.469757 0.044006 0.818359
0.525787 0.046051 0.749084
0.580841 0.048401 0.672058
0.000000 0.155060 0.919189
0.060974 0.140137 0.951813
0.172974 0.145630 0.956940
0.303650 0.145599 0.956909
0.410828 0.146088 0.941681
0.469391 0.147522 0.896576
0.522430 0.148926 0.847839
0.576538 0.150818 0.784668
0.632263 0.153229 0.706390
0.000000 0.246094 0.889679
0.060852 0.267487 0.951813
0.173370 0.272827 0.956848
0.310242 0.279694 0.963257
0.442078 0.279694 0.963257
0.531158 0.280548 0.934753
0.588928 0.282043 0.886078
0.640198 0.283722 0.830597
0.697632 0.286133 0.750580
0.000000 0.298370 0.825226
0.062775 0.330719 0.886688
0.174042 0.378448 0.931702
0.310425 0.409698 0.963074
0.449310 0.416779 0.969757
0.584991 0.416779 0.969757
0.655762 0.418121 0.925354
0.707123 0.419647 0.874969
0.765137 0.422028 0.796082
0.000000 0.342224 0.763885
0.071655 0.383240 0.812805
0.177460 0.436188 0.862030
0.311737 0.498199 0.918396
0.448914 0.550049 0.969391
0.592041 0.557587 0.976471
0.720673 0.557861 0.965485
0.779022 0.559387 0.915131
0.834381 0.561584 0.842682
0.013641 0.384979 0.698486
0.093872 0.429352 0.734467
0.195496 0.485352 0.781189
0.323486 0.553925 0.838684
0.452789 0.620300 0.898895
0.592285 0.684479 0.958923
0.746124 0.709381 0.984039
0.854401 0.710144 0.958954
0.908661 0.711670 0.892975
0.027527 0.419556 0.602234
0.111115 0.466248 0.642181
0.216583 0.525238 0.693298
0.345367 0.596466 0.755951
0.475800 0.667755 0.819000
0.605682 0.740540 0.877625
0.747559 0.816589 0.944153
0.904968 0.866455 0.991608
0.985718 0.866638 0.944916
0.035736 0.468933 0.551544
0.119171 0.513428 0.586975
0.224792 0.569855 0.632355
0.354004 0.639557 0.688080
0.484528 0.709869 0.744659
0.618988 0.782654 0.803253
0.763702 0.860931 0.866516
0.912933 0.941589 0.931671
1.000000 1.000000 1.000000
