滤镜资源/Lutify.me Free 3D LUTs Package/3D LUTs/Color Grading LUTs/Standard (Rec709 and DCI P3) LUTs/Hypersthene - Rec709.cube
# Created by: Lutify.me
# Copyright: (c) Copyright Lutify.me 2016, G.T. Colord LTD
# Website: https://lutify.me
# Contact: help@lutify.me
LUT_3D_SIZE 5
0.000000 0.000000 0.000000
0.145172 0.017395 0.000000
0.348816 0.054932 0.000000
0.565887 0.096344 0.001892
0.798401 0.141388 0.004547
0.019348 0.126312 0.012299
0.197693 0.150818 0.013092
0.404053 0.191711 0.011749
0.630707 0.262543 0.011139
0.854980 0.300354 0.014221
0.046814 0.327698 0.036438
0.215454 0.376068 0.041107
0.468658 0.389404 0.038727
0.686584 0.395020 0.038971
0.930481 0.469208 0.035034
0.076294 0.545227 0.062622
0.220001 0.560577 0.073151
0.538574 0.699280 0.062653
0.760284 0.647339 0.066681
0.991394 0.616577 0.070404
0.108215 0.779510 0.091431
0.248932 0.790802 0.102142
0.508514 0.896454 0.099945
0.868652 1.000000 0.109283
1.000000 0.905273 0.126068
0.000000 0.000000 0.145020
0.109344 0.000000 0.108643
0.339752 0.000000 0.099609
0.565826 0.000000 0.031372
0.800598 0.015930 0.006439
0.006409 0.075836 0.089905
0.194672 0.169373 0.158417
0.393768 0.208405 0.160645
0.610260 0.249908 0.163269
0.842834 0.294647 0.166107
0.040649 0.300629 0.143097
0.219849 0.369751 0.184357
0.467255 0.405914 0.184570
0.687347 0.436798 0.184021
0.930908 0.514069 0.183350
0.079834 0.548645 0.174255
0.248901 0.586761 0.211212
0.497467 0.668854 0.213013
0.758545 0.663605 0.213165
0.991760 0.656647 0.214935
0.111603 0.782867 0.203217
0.280365 0.821106 0.240082
0.491638 0.866974 0.249573
0.843994 1.000000 0.256134
1.000000 0.924805 0.268311
0.000000 0.000000 0.380646
0.140991 0.000000 0.357147
0.239685 0.000000 0.266785
0.483215 0.000000 0.310150
0.768066 0.000000 0.278656
0.000000 0.116760 0.345062
0.188538 0.160645 0.411285
0.339386 0.159821 0.338104
0.593994 0.164459 0.340942
0.855347 0.175385 0.275665
0.015472 0.197174 0.230652
0.205078 0.299133 0.310730
0.463745 0.433197 0.413910
0.678345 0.474518 0.416473
0.910706 0.518890 0.419464
0.044403 0.408783 0.295715
0.238953 0.534363 0.375336
0.491547 0.649658 0.442291
0.756317 0.688934 0.442657
0.993286 0.720947 0.442139
0.090057 0.696350 0.362427
0.282410 0.814240 0.416656
0.522797 0.883514 0.471619
0.787659 0.968933 0.475555
1.000000 0.955170 0.491455
0.000000 0.000000 0.638336
0.180634 0.000000 0.638367
0.280518 0.000000 0.555328
0.379425 0.000000 0.439148
0.672119 0.000000 0.553650
0.000000 0.152161 0.635315
0.178619 0.150818 0.688171
0.373260 0.148895 0.639038
0.482544 0.149780 0.518768
0.757416 0.151672 0.577881
0.000000 0.247375 0.516144
0.185577 0.344116 0.603485
0.456482 0.423645 0.690918
0.614655 0.422699 0.605560
0.890137 0.426758 0.615021
0.025146 0.328217 0.384338
0.214722 0.429749 0.464783
0.474335 0.569916 0.576843
0.752960 0.717407 0.693390
0.984161 0.761749 0.696320
0.044342 0.567596 0.477905
0.242767 0.651886 0.536133
0.509125 0.822449 0.648193
0.783966 0.951477 0.724365
1.000000 0.988159 0.735016
0.000000 0.000000 0.919189
0.180664 0.000000 0.919189
0.333099 0.000000 0.861908
0.426208 0.000000 0.771088
0.527832 0.000000 0.625763
0.000000 0.155060 0.919189
0.172974 0.145630 0.956940
0.410828 0.146088 0.941681
0.522430 0.148926 0.847839
0.632263 0.153229 0.706390
0.000000 0.298370 0.825226
0.174042 0.378448 0.931702
0.449310 0.416779 0.969757
0.655762 0.418121 0.925354
0.765137 0.422028 0.796082
0.013641 0.384979 0.698486
0.195496 0.485352 0.781189
0.452789 0.620300 0.898895
0.746124 0.709381 0.984039
0.908661 0.711670 0.892975
0.035736 0.468933 0.551544
0.224792 0.569855 0.632355
0.484528 0.709869 0.744659
0.763702 0.860931 0.866516
1.000000 1.000000 1.000000
