滤镜资源/vsco 137 3dl+cube/VSCO 137 3dl/VSCO E2 Essence.3dl
#Generated by Picture Instruments - Look Converter
3DMESH
Mesh 4 10
0 64 128 192 256 320 384 448 512 576 640 704 768 832 896 960 1023
4 0 4
4 0 48
28 12 96
0 16 152
28 24 208
4 40 272
0 64 336
24 88 404
0 116 480
28 140 552
8 168 628
44 192 704
188 224 752
288 268 824
388 312 864
500 372 920
592 444 964
0 28 16
4 40 60
24 48 108
0 60 160
24 64 204
8 80 276
0 104 332
28 120 404
0 144 476
28 160 544
8 184 620
76 212 696
196 240 756
288 284 820
384 324 864
488 376 912
588 452 960
4 92 44
0 92 76
28 100 112
0 112 164
28 124 220
8 140 272
0 152 344
28 168 408
0 188 484
28 208 544
12 228 628
100 240 696
204 268 764
296 304 824
392 344 868
484 404 912
580 464 960
4 164 56
0 164 92
28 164 120
0 176 176
28 184 216
8 200 292
0 216 352
28 236 416
4 244 488
28 248 552
12 264 624
124 288 712
220 316 764
296 340 824
388 380 872
488 428 916
576 488 960
8 240 88
4 244 116
32 236 140
0 248 180
28 252 224
12 268 284
0 276 352
28 288 412
4 312 484
72 324 552
84 328 628
100 332 704
192 352 760
276 380 816
368 412 868
468 452 916
568 512 956
12 328 120
0 320 132
28 320 160
0 324 196
28 324 240
12 336 292
0 344 356
28 348 420
0 360 488
32 376 556
92 392 632
180 416 708
228 420 760
268 428 816
352 452 872
448 496 916
548 556 964
12 392 140
0 396 160
32 388 180
4 396 216
32 396 248
12 392 300
0 416 372
32 420 436
4 432 500
32 432 552
16 444 628
88 464 704
200 484 760
300 508 820
368 524 868
436 552 916
512 584 956
16 472 172
0 476 184
32 472 196
0 476 236
32 480 264
16 472 324
0 476 372
32 488 432
0 500 508
32 504 564
20 512 632
0 524 692
48 536 748
192 560 812
296 584 860
416 612 900
512 652 952
16 548 200
0 548 212
32 548 224
0 548 260
32 548 296
20 548 340
0 556 392
32 548 440
0 560 504
32 572 572
20 576 648
0 588 700
32 600 760
4 612 808
176 628 852
316 656 912
444 688 964
20 620 228
0 620 236
32 620 252
0 624 288
32 620 316
20 620 372
0 628 416
32 620 456
4 624 524
32 640 600
20 648 648
0 656 716
32 660 760
0 672 812
28 684 860
144 704 900
296 728 952
20 688 264
0 700 280
32 692 288
0 700 328
32 696 360
20 696 404
0 696 440
32 696 488
20 700 544
32 696 596
24 712 664
4 720 720
32 716 760
4 732 812
32 744 868
24 760 904
0 780 952
24 756 320
0 760 320
36 764 336
4 764 372
32 760 396
24 756 432
0 764 476
32 760 516
64 760 564
88 760 608
32 760 668
4 768 720
32 772 760
0 784 820
32 788 856
28 800 904
0 824 952
28 816 376
4 820 376
36 820 388
8 816 420
36 816 436
28 812 468
12 820 512
36 812 540
76 816 588
144 816 632
128 816 676
12 816 736
36 820 776
4 832 820
32 836 864
32 852 912
0 872 952
148 864 444
148 872 448
164 868 456
160 868 468
188 868 492
192 868 520
172 872 556
124 864 572
84 868 616
152 868 656
200 872 696
168 864 740
72 872 788
44 876 824
36 880 860
32 888 916
0 916 964
348 912 524
356 912 532
364 908 536
352 908 548
340 904 540
344 908 576
308 908 596
260 912 612
128 912 636
152 912 668
208 912 712
232 916 756
216 904 788
164 916 840
144 920 868
40 924 916
0 952 960
508 940 608
504 952 604
508 948 612
500 952 624
492 944 628
468 948 636
440 948 648
384 948 660
272 952 676
124 956 696
176 956 740
228 956 772
248 952 808
216 956 852
196 960 888
152 968 920
8 988 976
624 976 676
620 976 680
616 976 684
608 980 688
604 976 688
580 972 700
552 980 712
492 976 712
388 984 720
128 976 720
52 980 744
68 996 780
184 992 820
168 992 864
108 988 896
148 984 932
36 996 972
28 4 4
20 4 44
20 16 96
0 20 156
4 32 208
0 48 272
0 68 336
0 88 404
0 116 476
4 144 548
4 168 624
112 200 696
220 236 760
316 268 824
400 320 868
504 372 920
592 436 960
12 40 16
8 40 64
8 44 112
0 56 164
0 72 220
0 88 280
0 108 340
0 128 412
0 152 476
0 168 552
48 196 640
144 220 708
232 252 772
316 284 820
408 328 872
500 384 916
596 448 960
0 96 36
0 96 76
0 104 120
4 120 168
4 128 224
4 140 276
0 156 344
4 168 408
0 192 488
12 208 560
76 224 624
156 252 700
236 272 764
316 304 820
404 352 876
496 396 916
600 468 956
4 168 56
0 168 96
0 172 128
0 184 176
0 192 228
0 200 284
0 216 352
0 232 416
0 240 484
28 248 556
96 276 636
164 296 708
232 312 764
320 336 820
404 380 872
496 432 924
588 492 960
0 244 72
0 248 116
0 248 148
0 248 180
0 260 236
0 268 288
0 280 356
0 288 424
52 308 496
112 324 556
120 324 632
148 336 704
232 356 768
312 384 824
396 408 876
484 464 924
580 524 956
0 320 100
0 320 132
0 328 168
0 324 196
4 324 240
4 332 296
0 344 356
0 352 424
4 364 492
44 380 552
132 400 636
212 416 696
240 420 764
280 432 816
356 456 868
456 500 916
560 556 960
0 400 136
0 404 164
0 400 184
4 396 216
0 400 252
0 404 304
0 416 372
4 424 432
4 432 496
0 440 568
4 452 636
136 468 700
236 484 760
312 512 816
368 520 864
440 548 920
536 592 968
0 472 160
0 476 184
0 476 208
0 476 240
0 476 284
0 480 324
0 476 372
0 492 444
4 504 516
4 508 580
0 508 636
0 524 696
112 544 756
232 560 816
332 592 872
440 616 912
520 648 952
0 548 184
0 548 212
4 548 232
0 548 260
0 552 300
0 560 344
0 556 388
4 556 440
0 568 512
0 572 580
0 580 644
0 588 696
4 604 752
32 616 812
208 632 860
320 656 912
444 692 956
0 624 216
4 624 244
0 624 256
0 624 288
0 624 324
4 628 364
0 632 416
68 628 464
64 624 520
4 632 588
0 648 652
0 656 716
0 660 764
0 672 812
0 680 860
164 704 904
332 736 956
0 692 256
0 700 280
0 696 304
0 700 328
0 704 364
0 696 404
0 696 440
56 696 496
104 696 544
68 700 596
4 712 664
0 716 716
0 720 768
4 732 812
0 744 860
4 760 912
60 776 952
0 760 308
0 760 328
0 764 348
4 764 372
0 764 400
8 760 444
4 760 480
56 760 516
124 764 564
136 760 616
56 764 676
0 776 728
4 780 776
0 780 820
0 792 868
0 808 912
0 824 952
8 820 368
8 820 376
8 820 396
16 820 424
8 820 444
52 820 472
80 820 512
84 816 544
132 820 584
172 816 628
164 816 676
72 820 732
16 824 776
8 836 820
0 844 868
0 852 908
0 868 956
140 868 436
176 868 448
192 872 464
204 868 476
216 868 492
220 868 520
204 864 544
160 872 576
140 868 616
180 868 656
228 868 700
204 868 740
128 868 788
116 876 828
8 880 864
4 896 920
0 912 956
348 912 516
376 908 532
368 912 536
368 908 544
360 904 560
360 908 576
332 912 604
276 916 616
172 916 640
188 912 680
236 916 720
260 916 760
232 908 800
196 920 840
172 916 876
56 928 920
4 948 960
508 948 600
516 944 608
524 952 624
516 948 628
508 952 636
472 948 636
452 948 648
404 948 664
308 956 680
168 960 708
196 960 736
248 960 776
264 952 804
240 956 852
216 960 888
188 968 932
16 984 976
620 976 676
628 972 684
624 980 688
616 980 688
612 976 696
588 976 704
560 984 708
512 976 720
420 984 720
208 988 732
24 992 744
120 996 784
204 996 820
204 996 864
152 996 900
176 992 932
48 996 976
88 8 4
80 8 48
72 20 92
72 28 144
52 40 204
32 52 268
16 76 332
12 96 404
36 124 476
88 152 556
128 172 620
192 200 696
272 228 756
356 268 820
436 324 868
528 372 924
616 448 952
80 44 8
76 40 64
64 56 112
72 72 160
64 84 216
52 100 276
44 112 336
56 132 412
72 152 476
112 172 552
152 196 632
224 224 704
276 252 772
360 288 824
436 332 876
528 388 924
620 456 960
40 108 28
48 108 72
64 112 124
56 120 168
56 128 224
64 148 284
76 156 352
92 176 420
116 192 484
128 212 552
176 228 624
236 256 716
296 280 776
368 316 828
440 352 880
532 404 920
616 472 956
0 172 52
0 172 80
8 180 132
16 184 176
16 196 232
60 204 284
80 216 348
84 228 416
120 236 488
152 256 556
184 276 636
228 288 700
284 316 772
356 344 816
428 380 868
520 432 920
612 492 956
0 248 76
0 248 112
0 248 148
4 256 192
0 264 240
0 268 292
16 284 352
88 292 416
148 312 488
160 316 560
172 320 636
224 340 708
276 360 772
340 380 812
424 412 876
508 464 920
588 524 956
0 320 96
0 324 124
4 332 172
0 328 204
0 328 240
4 332 300
4 344 360
24 360 428
92 364 496
156 380 568
212 400 640
248 408 704
264 416 764
328 432 828
408 464 876
488 496 920
572 552 960
0 396 120
0 400 144
0 400 184
4 404 220
0 404 256
24 400 308
4 416 360
4 424 428
48 428 492
76 440 564
124 456 636
208 472 700
276 488 760
344 508 812
388 516 864
452 544 912
552 592 960
0 472 148
0 484 168
0 484 208
0 476 244
0 480 288
52 476 328
76 476 376
32 496 444
44 496 500
68 504 572
60 516 636
84 528 696
192 540 760
288 560 812
364 584 864
468 616 912
544 648 956
0 548 172
0 552 196
0 552 236
4 552 272
4 556 304
60 552 348
120 552 392
120 556 448
80 564 512
60 580 588
52 588 644
56 588 704
52 600 756
152 616 808
268 632 872
376 664 920
476 684 952
4 628 212
4 628 224
0 628 260
0 624 284
4 628 328
56 624 372
116 628 416
152 624 464
152 628 520
88 644 584
60 644 648
40 656 704
28 660 760
12 672 808
12 684 856
216 704 908
368 728 952
4 696 256
0 696 264
0 696 304
0 700 324
0 700 360
20 700 396
112 700 444
148 704 496
176 700 548
160 700 596
92 708 660
60 716 708
12 720 768
4 732 812
4 740 860
0 756 908
156 776 952
0 764 300
0 760 308
0 764 348
4 764 368
8 760 392
56 760 440
112 760 480
144 760 520
184 760 568
196 764 620
152 768 672
112 772 728
52 776 768
8 784 816
0 792 868
0 808 912
4 828 956
4 820 360
8 820 372
12 820 396
80 816 416
120 816 448
156 820 476
176 816 512
168 820 560
192 816 584
220 816 636
220 816 680
156 824 740
136 824 788
80 836 828
0 840 864
4 852 916
4 868 956
144 872 428
180 868 440
236 872 460
264 868 476
276 868 508
268 872 520
264 864 552
232 872 584
196 868 612
232 868 656
264 868 700
252 864 736
196 868 784
196 872 828
140 888 872
52 896 916
4 908 960
348 912 512
364 908 520
392 912 536
400 912 548
396 912 564
392 908 584
372 908 600
320 912 620
240 912 648
236 916 676
276 916 720
300 916 756
284 912 796
240 916 840
228 924 880
156 932 924
24 948 960
508 948 600
520 948 604
540 944 624
524 944 628
524 952 640
496 948 644
476 948 656
428 956 672
344 956 688
220 960 704
248 960 736
292 956 776
304 952 808
280 956 852
252 960 892
232 968 924
48 980 964
620 980 672
632 980 684
636 976 688
632 976 688
624 980 700
600 976 708
572 972 716
520 980 720
444 980 728
272 984 740
128 996 756
196 996 792
252 988 824
252 988 860
212 992 904
224 992 940
48 996 972
164 4 0
156 12 44
160 20 88
144 32 144
148 52 200
156 68 268
164 88 332
176 108 404
188 136 476
220 156 544
248 180 620
288 204 692
344 240 764
408 276 820
476 324 864
560 376 920
648 448 960
164 32 4
156 52 56
156 60 104
144 76 156
168 96 216
164 104 268
180 120 332
192 140 404
200 164 480
228 184 548
272 200 632
300 224 696
344 252 764
412 288 824
492 332 872
568 392 924
