滤镜资源/vsco 137 3dl+cube/VSCO 137 3dl/VSCO A2 Analog.3dl
#Generated by Picture Instruments - Look Converter
3DMESH
Mesh 4 10
0 64 128 192 256 320 384 448 512 576 640 704 768 832 896 960 1023
8 40 72
16 76 136
36 108 188
24 132 256
44 148 340
32 184 432
40 220 544
60 256 616
52 292 704
60 308 772
52 344 824
44 360 880
52 376 916
28 400 964
44 412 976
16 428 988
4 436 1012
8 64 88
20 92 124
40 116 180
28 140 248
44 164 316
32 192 412
40 232 508
60 272 612
52 308 692
64 324 752
52 352 812
44 372 872
52 388 916
32 404 968
40 420 984
20 440 988
4 444 1012
4 96 100
16 116 132
36 132 172
32 160 236
44 184 304
28 216 388
40 256 496
56 292 584
44 328 672
68 352 740
56 376 792
52 392 852
56 404 904
36 420 952
44 440 984
20 456 984
0 464 1008
4 144 112
4 140 132
28 156 176
24 192 236
44 220 292
40 244 380
36 280 476
56 324 572
48 348 656
68 376 724
56 400 784
48 424 840
60 436 896
36 456 940
48 464 980
20 480 984
12 492 1008
0 168 112
0 184 132
28 204 180
0 224 236
36 248 296
24 280 368
40 316 456
60 344 540
56 384 636
72 412 700
60 440 756
60 452 820
68 472 868
48 488 916
56 500 964
32 520 980
16 524 1004
4 216 108
0 220 128
24 252 180
0 288 236
28 304 300
8 324 376
24 360 448
56 392 532
60 432 620
76 452 684
64 476 740
68 500 808
76 516 852
64 540 896
64 552 948
52 572 976
40 580 1000
4 268 116
0 272 128
24 288 172
0 344 228
28 380 296
8 400 380
4 412 456
40 452 540
56 488 620
72 504 672
72 532 736
80 552 788
84 568 836
76 596 888
76 608 932
68 624 968
60 636 984
8 344 128
0 348 132
24 348 152
0 380 212
24 428 272
12 472 360
0 492 456
28 496 536
8 528 616
44 564 676
64 596 736
76 616 788
96 632 828
88 652 880
104 672 920
100 688 956
96 692 980
8 420 128
0 424 128
24 420 156
0 436 208
24 468 260
12 528 348
0 576 456
28 580 532
0 584 608
28 600 676
24 628 740
36 664 796
68 692 836
92 712 888
112 720 920
112 736 952
112 752 980
8 480 144
0 484 144
24 480 164
0 500 208
24 508 256
12 552 336
0 616 436
28 644 536
0 652 620
28 652 676
16 664 740
8 688 800
40 712 844
44 744 892
96 764 928
120 776 968
124 792 984
8 536 176
0 532 168
24 532 176
0 540 212
24 556 264
12 580 328
0 632 416
28 688 524
0 708 620
28 712 680
20 708 744
0 724 792
28 736 840
8 760 888
48 792 932
88 812 972
116 828 988
12 588 200
0 588 196
24 584 192
0 588 228
24 596 264
16 612 324
0 644 396
28 708 504
0 744 600
28 756 668
20 760 732
0 760 780
28 768 832
0 788 884
32 804 928
40 828 964
60 844 984
12 620 216
0 624 216
24 624 208
0 628 240
24 628 276
16 644 324
0 664 388
24 712 476
0 780 588
28 800 664
20 808 736
0 800 784
28 800 832
0 808 876
28 824 920
28 844 968
28 860 984
16 664 248
0 660 240
24 656 232
0 664 256
24 664 284
16 672 336
0 696 384
24 724 460
0 780 568
28 824 656
20 836 728
0 840 788
28 840 836
0 844 876
28 844 920
28 860 964
20 872 984
16 696 268
0 700 268
24 700 268
0 700 272
24 692 296
16 704 340
0 720 392
20 736 444
0 784 552
28 840 632
24 864 716
0 876 780
28 872 824
0 872 868
28 876 912
24 880 956
20 888 976
20 732 304
0 732 292
24 728 288
0 732 292
20 732 312
16 736 356
0 752 396
24 760 452
4 784 536
28 832 624
32 884 712
20 892 776
40 900 828
20 900 872
36 900 912
32 900 952
28 908 980
20 760 324
0 760 316
24 752 312
0 756 312
20 756 332
16 756 364
4 764 400
24 772 460
4 788 536
28 828 612
32 880 696
28 904 764
40 912 820
32 920 872
40 912 912
52 912 944
40 916 972
16 40 80
24 80 136
28 108 196
32 132 260
36 156 340
40 184 440
48 224 536
52 260 624
56 296 704
56 316 768
60 344 824
48 360 872
44 380 924
36 404 964
28 416 980
20 428 1012
8 440 1012
20 68 84
32 96 136
28 120 184
36 148 256
40 172 336
40 200 424
52 244 528
56 276 616
60 308 696
64 336 760
60 356 828
52 372 876
52 392 928
40 408 972
28 428 996
20 436 1012
8 448 1016
12 100 100
28 116 136
32 140 188
40 168 244
40 184 308
40 220 400
44 256 488
52 292 588
60 332 680
60 352 744
64 376 804
60 392 856
52 408 904
40 424 952
32 440 992
12 456 1012
4 468 1012
4 136 108
8 148 144
16 164 176
36 196 240
44 220 308
40 252 380
48 284 472
52 324 572
64 356 660
64 380 724
64 404 788
60 428 840
56 436 884
40 456 940
36 472 980
24 480 996
12 492 1008
0 168 104
4 200 156
4 212 192
0 224 236
24 252 300
40 292 380
52 324 464
56 356 556
64 392 644
68 412 700
68 440 768
68 456 824
64 480 876
64 492 924
52 504 968
32 524 996
28 532 1008
0 216 112
0 228 140
0 260 188
0 288 236
0 308 304
4 324 372
36 368 456
52 396 540
64 428 620
72 460 684
76 488 752
72 504 808
76 524 852
68 536 896
68 556 948
56 568 980
44 580 996
0 280 120
0 292 152
0 304 176
0 344 232
4 380 304
0 400 384
0 416 456
20 452 540
56 488 616
76 512 684
80 532 740
88 552 796
84 572 840
84 592 888
84 612 932
80 632 972
76 640 992
0 348 124
4 364 152
0 364 176
0 392 224
0 432 284
0 476 372
0 500 468
0 504 544
12 536 624
40 572 688
72 592 740
84 620 792
92 636 840
100 656 880
104 676 928
108 688 968
108 696 976
0 420 128
0 432 148
0 432 168
0 440 212
0 472 272
0 524 352
0 572 448
0 588 540
0 588 612
0 608 684
12 632 744
32 664 796
76 688 840
100 712 884
112 728 928
116 748 960
120 756 980
0 488 152
0 500 160
0 500 184
0 500 220
0 520 272
0 552 336
0 616 432
0 656 544
0 652 620
0 656 680
0 668 740
12 696 800
20 720 848
48 744 892
92 768 932
116 784 964
132 792 988
0 536 172
0 548 180
0 544 192
4 548 228
0 564 280
0 584 332
0 632 416
0 692 528
0 708 620
0 716 684
4 720 740
0 724 792
0 740 844
20 768 892
40 792 936
96 812 972
128 832 988
0 588 196
0 592 200
0 596 200
0 600 236
0 604 284
0 620 336
0 652 408
0 704 508
0 752 608
0 764 680
0 760 740
0 764 784
0 776 840
0 788 888
16 808 932
40 832 972
96 848 988
0 632 220
0 636 224
0 636 220
0 636 256
0 640 288
0 648 336
4 668 396
0 720 488
0 776 592
4 800 672
0 808 736
0 808 784
0 804 828
0 812 884
4 832 928
24 844 968
36 864 984
0 672 248
0 672 248
0 672 248
0 672 272
0 676 304
0 684 340
0 696 388
0 724 472
0 780 572
0 824 660
0 844 736
0 844 792
4 844 840
0 844 876
0 848 924
16 864 972
20 872 980
0 708 272
0 712 280
0 708 272
0 708 280
0 708 316
0 712 352
0 720 404
0 744 468
0 788 560
0 840 652
8 868 720
4 876 788
8 876 840
8 880 880
8 876 920
12 880 960
24 892 980
4 740 304
0 740 304
0 748 312
0 748 308
0 744 332
0 744 364
4 756 404
0 768 460
4 784 536
4 832 628
20 876 716
24 896 780
24 900 828
24 904 872
20 900 908
24 904 952
28 904 980
12 772 332
8 772 332
4 768 328
0 764 324
4 768 344
8 764 380
4 768 420
4 780 472
8 792 540
12 828 624
28 876 696
32 908 768
32 912 820
36 920 872
32 924 908
44 916 948
44 916 972
44 40 84
48 80 140
48 108 204
44 132 268
52 156 344
56 184 436
64 224 532
64 264 628
72 300 708
72 324 772
68 348 824
68 364 876
60 388 920
52 400 964
36 420 980
32 432 1012
12 436 1012
44 64 88
52 96 136
56 120 192
52 144 264
44 172 340
52 200 420
68 244 524
68 280 616
72 312 700
72 336 760
72 360 824
68 380 876
60 392 932
52 408 972
36 428 988
32 444 1023
16 448 1016
36 92 92
52 120 144
60 140 196
52 168 244
52 196 320
60 228 416
60 264 504
72 300 604
76 336 684
76 364 756
76 380 804
76 400 868
68 416 916
60 428 960
44 448 996
28 460 1012
20 472 1012
20 132 104
28 152 148
32 168 184
52 196 240
52 224 312
48 252 384
60 280 480
60 324 572
72 356 656
80 388 732
80 408 792
80 428 844
72 448 896
68 460 944
52 476 980
36 484 996
24 492 1012
12 168 104
12 192 148
24 216 208
24 232 244
44 264 308
52 292 380
60 324 468
64 356 552
76 392 640
76 420 712
76 440 768
84 468 828
80 488 880
76 492 924
68 508 976
48 528 992
32 532 1000
0 216 112
4 232 152
4 272 208
8 288 248
0 304 304
12 332 380
56 376 460
68 404 556
80 432 636
80 468 696
88 488 752
92 508 812
92 528 856
88 540 904
80 564 948
68 568 980
64 584 996
4 276 116
0 296 148
0 320 196
0 340 244
0 376 304
0 400 384
4 416 464
32 460 548
72 492 620
88 520 688
96 548 740
96 560 800
96 584 836
100 596 888
96 616 932
100 632 968
96 644 992
0 356 124
0 368 156
0 388 200
4 396 232
0 432 292
0 476 372
0 500 468
0 512 548
12 536 624
44 568 688
88 604 752
96 624 796
108 640 836
112 660 884
116 680 920
120 688 964
120 700 988
4 424 132
0 436 164
0 456 204
4 456 232
0 480 288
0 528 364
0 576 460
4 592 548
0 592 624
0 612 688
20 640 752
56 664 800
92 692 840
116 712 888
128 732 928
136 748 968
136 756 976
0 496 152
0 504 164
0 516 212
0 512 232
0 524 280
0 552 344
0 608 436
0 648 532
0 660 624
0 660 680
4 672 744
8 696 796
32 724 852
80 744 888
116 772 928
144 784 968
148 800 984
0 544 176
0 556 184
0 564 228
0 564 244
0 572 284
0 584 340
0 632 420
0 696 524
0 716 624
0 716 684
4 720 740
0 724 788
4 748 852
24 772 896
48 792 932
116 820 976
152 832 988
0 592 196
0 600 204
0 608 248
0 608 256
0 616 296
0 628 344
0 648 412
0 708 516
0 752 612
0 764 680
0 760 744
0 764 796
0 768 844
4 788 892
24 812 936
56 836 972
120 852 984
0 636 224
0 640 232
4 648 264
4 648 268
0 648 308
0 656 352
0 684 408
0 720 496
0 768 596
4 796 672
0 808 744
0 804 796
0 808 840
0 820 888
16 832 932
36 844 972
72 868 988
0 672 252
0 684 256
4 692 280
0 688 284
0 692 324
0 692 364
0 700 412
0 728 480
0 784 584
4 824 668
4 840 736
8 848 792
8 848 836
4 844 880
8 856 932
24 864 968
40 876 984
4 712 280
4 716 280
12 720 300
0 716 300
0 724 332
0 724 368
0 728 416
0 744 472
0 780 568
8 832 652
20 868 724
24 876 784
16 880 836
24 876 880
20 876 924
24 884 964
32 888 976
16 744 308
20 752 312
20 760 328
8 748 324
8 756 352
4 756 384
8 756 424
0 768 484
8 792 556
16 836 632
36 876 720
36 896 784
32 896 828
40 896 876
40 900 920
32 904 960
36 904 976
28 776 336
40 784 336
36 784 348
20 780 340
20 776 360
20 772 400
24 776 440
16 788 492
16 796 556
20 824 624
44 876 704
72 900 776
76 908 828
80 916 876
72 920 924
84 920 960
88 920 976
84 52 92
84 64 136
88 88 188
84 116 256
76 144 344
68 180 436
76 224 536
88 268 620
88 300 704
92 328 764
92 348 824
88 368 876
88 388 920
72 412 968
68 424 980
52 440 1012
40 444 1012
84 80 96
84 92 136
88 112 196
88 140 260
72 172 340
76 204 428
80 240 524
88 276 616
96 316 704
96 344 768
92 364 820
92 380 876
80 396 920
80 416 976
64 432 996
56 448 1008
