滤镜资源/vsco 137 3dl+cube/VSCO 137 3dl/VSCOX FP2 Fuji Pro 160s.3dl
#Generated by Picture Instruments - Look Converter
3DMESH
Mesh 4 10
0 64 128 192 256 320 384 448 512 576 640 704 768 832 896 960 1023
96 16 0
100 12 4
108 20 52
108 16 136
116 20 232
112 24 328
120 28 416
136 36 476
136 40 540
152 52 576
164 72 608
172 84 640
200 104 680
224 132 708
260 172 740
304 232 788
352 304 836
96 36 0
100 40 8
112 40 52
112 44 132
120 44 224
116 44 324
128 48 412
144 52 488
148 68 548
164 72 580
168 92 624
180 104 656
212 124 684
232 152 728
268 192 756
308 248 800
364 324 844
92 92 4
100 88 4
116 84 52
116 88 132
128 88 236
132 92 324
136 96 428
156 100 496
156 108 556
176 124 600
188 136 640
200 148 668
224 168 704
248 196 744
284 236 780
320 300 816
368 360 852
76 188 4
84 180 4
104 172 44
108 172 124
128 176 224
136 172 344
156 172 444
172 176 516
180 188 580
196 196 624
204 208 664
216 220 700
244 240 732
260 268 768
300 308 808
336 364 840
384 424 880
60 300 8
64 312 4
88 296 32
96 292 116
124 276 212
136 280 324
156 284 432
184 280 524
180 292 592
212 300 652
220 304 688
240 316 720
264 328 760
276 356 800
324 388 828
352 432 864
404 492 904
32 428 12
48 424 4
76 416 28
92 416 96
120 408 204
140 408 328
160 404 436
188 396 524
204 400 604
224 404 660
240 412 712
256 416 748
276 428 780
296 452 824
340 476 856
372 520 892
428 576 924
28 524 12
36 532 0
64 528 20
80 524 80
112 524 184
136 520 312
168 516 428
200 516 532
212 516 620
236 508 676
256 524 724
272 524 776
296 532 812
328 556 856
356 564 876
396 600 912
436 636 936
20 604 16
24 612 0
56 612 8
68 616 64
108 620 156
140 612 288
172 612 412
204 608 528
224 616 612
256 608 680
272 612 744
288 612 780
316 616 824
336 632 868
376 648 900
412 672 924
452 692 952
24 676 16
20 684 0
56 680 8
72 688 48
112 684 156
140 696 276
180 700 404
212 696 512
232 692 612
264 700 680
288 700 752
304 700 800
336 696 840
352 708 884
388 716 916
424 728 944
472 752 972
28 712 16
32 724 4
60 724 4
72 740 52
120 732 140
152 744 276
188 748 404
228 756 520
248 760 612
280 756 688
300 760 756
320 760 804
348 760 848
372 764 896
408 764 932
444 776 960
484 788 972
36 748 20
40 768 0
72 772 8
92 776 48
136 784 148
172 796 276
196 804 388
240 804 508
260 816 604
288 812 684
320 820 752
336 820 812
364 816 856
388 816 904
424 824 936
460 828 964
500 836 988
56 784 20
60 796 0
88 804 4
112 812 40
152 820 136
188 832 256
216 840 384
256 852 504
280 856 592
308 860 672
332 864 756
352 868 808
384 868 852
416 872 908
444 860 944
484 868 972
520 876 992
84 820 24
92 828 0
120 828 4
144 848 56
176 852 144
212 860 260
248 880 388
292 888 508
308 896 604
340 904 680
360 908 748
384 912 808
412 908 860
436 908 908
472 908 944
504 904 976
544 912 992
128 852 24
136 856 0
160 860 12
176 876 64
220 884 160
256 900 288
288 912 396
316 924 508
344 932 600
372 936 680
392 948 748
416 948 808
448 952 864
464 948 912
496 948 948
536 948 984
564 948 1000
188 880 28
200 888 4
224 892 32
248 908 104
272 912 184
308 928 292
332 940 404
368 952 512
392 964 616
416 968 684
436 972 752
456 976 812
480 984 860
504 980 908
544 980 952
572 980 984
604 976 1000
268 912 32
276 912 28
300 920 68
316 932 140
348 944 232
368 956 344
400 968 440
432 972 540
448 988 628
472 996 708
492 1000 764
504 1004 820
532 1004 864
552 1008 912
580 1008 952
612 1004 984
644 1004 1012
368 940 72
368 940 88
384 948 140
408 960 212
428 968 304
452 972 404
476 984 504
500 992 600
516 996 672
544 996 732
552 1004 776
564 1012 820
588 1008 872
608 1012 916
628 1008 948
660 1008 980
684 1008 1004
116 12 0
124 16 4
128 16 52
132 20 136
128 24 232
136 20 328
136 32 420
148 40 488
160 48 544
168 56 580
180 72 612
192 88 648
216 104 676
244 136 716
272 176 748
320 232 796
368 296 828
120 40 4
124 44 8
128 44 56
128 44 132
132 44 248
144 48 340
148 56 428
160 64 500
168 64 548
176 80 588
192 96 632
208 108 664
224 132 696
248 156 732
280 196 768
328 252 800
380 324 844
116 88 0
120 92 4
132 96 56
132 96 132
144 96 232
148 92 336
152 100 432
168 104 504
180 116 568
196 124 612
204 136 644
220 148 676
240 168 712
260 196 744
300 244 784
336 292 820
388 372 860
100 188 0
104 180 4
116 180 44
128 180 128
144 176 236
164 172 344
168 176 436
184 184 524
196 188 584
212 196 624
220 212 668
240 228 704
252 236 728
276 268 768
308 312 804
352 364 840
400 424 880
80 304 0
88 312 4
104 304 44
120 292 124
144 288 232
164 288 344
184 288 452
196 292 536
216 300 612
228 300 656
240 304 692
256 316 728
276 336 768
304 360 800
332 388 832
368 444 872
420 500 904
60 424 0
68 428 4
80 432 24
104 424 96
144 416 212
156 400 320
180 404 444
204 408 540
224 404 608
240 420 672
256 420 716
268 424 752
288 432 788
320 452 832
348 480 856
388 520 892
436 572 924
44 540 0
52 540 4
68 536 20
104 536 84
124 528 192
160 528 324
188 524 444
212 520 536
232 524 616
256 524 688
268 520 740
292 528 780
316 536 816
332 548 852
368 564 884
408 600 916
452 640 944
32 612 4
48 612 0
60 620 4
100 620 76
124 620 180
160 620 304
188 620 436
220 616 548
248 612 632
268 612 696
284 616 740
312 620 792
328 624 836
356 628 872
388 652 904
420 668 924
464 692 952
32 676 0
44 684 0
64 688 4
92 688 56
128 692 160
164 696 276
192 700 400
228 700 524
248 704 612
276 704 692
296 700 756
324 700 800
340 700 844
368 708 884
400 720 916
436 728 940
480 752 964
44 724 0
56 724 0
80 736 0
100 740 52
136 744 152
172 748 280
204 760 408
240 760 524
264 760 608
292 764 688
312 760 760
336 764 804
364 764 852
388 768 896
420 772 924
456 780 956
496 796 972
48 756 0
60 772 0
84 772 0
124 784 52
148 792 144
184 800 264
220 808 404
248 812 520
280 820 616
308 816 692
332 824 764
348 824 808
380 824 860
404 824 904
436 828 932
476 828 964
508 840 984
68 792 0
80 796 4
100 804 0
136 812 48
172 824 156
208 832 268
244 844 404
268 852 512
296 856 612
324 864 688
348 864 760
380 872 820
400 872 864
420 868 908
452 864 940
488 872 972
532 876 992
104 824 0
116 832 0
136 840 8
168 848 60
192 860 148
224 868 260
260 880 384
300 888 516
320 900 612
344 900 676
376 904 752
396 904 808
420 912 860
452 912 912
480 916 948
508 904 972
556 912 996
140 856 0
152 860 0
176 864 16
204 880 76
232 888 168
264 904 280
292 908 388
332 928 516
360 936 608
384 940 684
404 948 756
432 948 808
452 948 860
480 952 912
508 948 956
536 952 976
572 948 996
204 888 0
216 892 8
236 896 32
260 908 108
288 916 196
324 932 308
352 948 424
380 956 528
404 968 616
428 972 696
452 976 756
468 976 816
492 980 868
520 984 916
544 980 952
576 984 980
616 980 1004
284 920 16
292 916 36
320 928 80
344 936 152
372 952 248
384 956 340
416 972 452
440 984 544
460 988 628
488 1000 708
500 1004 768
516 1004 816
536 1008 864
560 1008 912
588 1004 952
616 1004 984
644 1004 1008
376 940 68
384 944 96
400 956 144
420 964 220
440 972 308
464 972 400
488 984 500
512 992 596
532 996 672
548 1000 732
564 1012 784
576 1016 820
596 1012 876
612 1012 912
640 1012 952
668 1008 984
692 1008 1000
152 16 0
156 20 4
164 20 52
172 16 140
168 24 232
172 28 336
180 28 416
188 44 496
200 48 544
216 60 588
220 72 616
232 88 644
252 112 680
288 140 716
312 184 756
352 228 792
404 308 828
164 44 0
168 36 12
164 44 60
172 44 144
176 48 244
184 48 344
192 56 428
196 64 504
208 76 556
216 84 596
232 96 640
248 108 668
264 136 700
288 164 732
324 200 764
364 256 804
416 332 840
152 96 0
164 96 16
172 96 60
172 92 136
184 96 244
196 100 356
204 100 444
208 112 512
224 120 568
232 128 612
240 144 652
260 160 688
280 176 720
308 212 756
332 248 780
372 300 824
420 368 860
140 184 4
148 188 4
156 188 48
176 184 132
188 188 244
196 176 344
212 184 440
224 184 528
232 196 584
248 204 636
260 216 672
272 228 696
296 248 740
320 276 776
344 312 804
388 364 844
432 424 876
120 304 0
128 312 4
144 304 44
168 300 128
188 292 240
204 288 352
224 292 460
236 284 536
248 292 612
264 300 656
280 312 700
296 324 736
316 340 772
332 356 796
368 388 840
408 444 872
448 500 896
100 424 0
112 428 4
124 436 36
148 424 112
176 408 216
204 404 348
224 408 456
244 404 552
272 408 636
280 420 684
296 416 724
312 428 756
328 440 796
352 452 832
388 488 868
420 516 896
456 568 920
80 536 0
92 536 0
112 544 24
136 544 88
168 532 196
200 532 332
224 520 444
244 524 548
268 524 628
292 520 684
312 532 740
332 536 780
348 540 820
368 548 856
396 568 888
440 596 912
480 640 936
76 620 0
84 628 0
104 628 12
132 624 80
168 624 192
200 624 316
236 624 444
264 620 556
276 620 624
304 620 700
320 620 752
340 616 792
364 624 840
388 632 876
412 640 900
452 664 928
492 696 956
76 684 0
84 692 0
104 696 12
140 696 68
172 696 184
204 700 300
240 704 432
272 708 544
292 708 628
312 700 704
336 700 768
356 696 808
376 704 848
404 708 884
432 716 916
472 732 948
508 752 968
84 732 4
88 728 0
112 736 8
136 740 56
180 748 156
208 748 280
248 760 412
272 756 532
300 764 620
324 760 696
348 760 764
368 764 808
396 760 852
416 764 892
444 768 924
480 780 952
520 796 972
92 768 0
104 776 0
128 784 4
156 788 56
184 796 148
216 800 268
256 812 404
288 816 536
316 820 624
336 820 692
360 816 760
380 824 808
412 820 860
436 824 904
468 824 932
500 828 968
536 836 984
108 800 0
120 800 0
144 808 8
176 820 60
212 832 160
240 844 276
272 848 404
312 860 532
336 864 620
356 864 696
384 868 760
404 872 824
432 868 868
452 864 908
488 868 940
520 872 972
556 872 988
144 828 0
152 832 0
168 840 8
196 852 68
236 860 160
268 876 288
304 884 420
340 896 524
360 900 612
384 908 696
404 904 756
432 912 820
456 912 872
484 916 916
504 904 944
544 904 984
568 904 992
184 864 4
196 864 0
212 872 20
240 880 80
272 892 180
304 908 276
332 920 400
364 924 516
388 932 616
412 940 692
432 944 764
456 948 808
480 948 864
508 952 916
532 952 956
568 948 984
600 948 1000
244 892 4
256 896 8
268 904 40
292 912 108
324 920 212
352 936 316
380 944 428
404 952 532
432 968 628
456 972 704
480 980 768
496 980 816
520 980 868
540 984 912
568 980 952
596 980 984
628 980 1000
320 920 16
328 924 44
356 932 92
368 944 156
392 948 248
416 964 356
444 968 464
472 984 560
492 988 648
508 996 716
524 1004 776
544 1008 816
560 1008 872
584 1004 920
612 1004 960
636 1008 988
660 1004 1004
412 948 76
416 948 104
428 952 152
452 968 220
472 976 316
500 980 416
516 988 524
540 996 604
552 996 680
572 1000 740
584 1016 792
600 1012 836
620 1016 884
636 1012 920
652 1012 960
680 1008 984
708 1008 1004
224 20 4
224 20 4
220 20 44
232 24 136
224 24 224
232 24 328
240 32 416
248 48 492
260 52 540
264 60 588
272 80 616
280 96 656
304 112 680
332 144 720
356 180 744
408 236 796
444 312 836
220 40 0
228 44 12
232 44 60
236 48 140
240 44 244
240 48 336
252 56 424
260 68 500
260 76 552
280 92 600
292 100 636
296 112 668
316 136 700
344 164 728
380 208 768
408 268 804
