滤镜资源/vsco 137 3dl+cube/VSCO 137 3dl/VSCO Q8 Alchemy.3dl
#Generated by Picture Instruments - Look Converter
3DMESH
Mesh 4 10
0 64 128 192 256 320 384 448 512 576 640 704 768 832 896 960 1023
20 112 52
28 116 76
48 120 112
32 132 168
44 136 220
8 148 304
0 156 400
32 168 480
0 180 580
36 188 660
12 204 732
60 220 812
192 236 864
296 260 920
404 300 948
508 368 984
608 448 1012
8 148 56
0 152 80
36 156 120
12 164 164
36 164 220
8 176 308
0 180 392
36 184 484
4 200 584
36 208 652
12 220 732
72 232 808
196 256 868
304 276 928
400 316 956
500 372 984
612 456 1012
4 184 68
0 184 92
36 192 124
0 196 176
32 196 240
12 208 312
4 216 404
32 220 488
4 232 584
36 248 664
12 252 748
92 256 808
216 280 868
312 304 924
416 340 964
524 404 984
616 476 1012
8 228 76
0 228 100
32 232 136
0 240 196
32 244 252
8 252 332
4 260 428
36 268 508
0 272 596
36 280 668
12 288 744
124 304 820
244 324 872
324 340 928
432 380 960
536 436 984
628 516 1012
8 276 100
0 288 128
32 288 156
0 296 212
32 296 272
12 312 348
0 316 436
36 316 508
0 332 604
36 332 672
16 340 752
140 352 816
252 368 868
344 392 920
448 428 960
540 484 984
640 552 1012
12 344 128
4 344 144
28 348 180
0 360 236
32 364 300
12 380 380
0 380 452
36 384 520
0 384 604
36 392 680
36 404 756
180 420 824
280 432 872
372 452 920
472 484 964
572 532 988
660 604 1012
12 412 152
0 420 172
32 424 212
0 436 264
32 444 324
16 456 404
0 456 484
36 460 560
0 464 640
36 452 688
52 468 764
192 480 824
304 496 872
400 524 924
488 544 960
580 584 988
664 640 1008
16 496 184
0 500 208
32 508 236
0 512 292
32 528 352
20 536 432
0 540 504
36 544 572
0 548 648
36 544 708
80 544 760
192 548 820
304 560 868
396 580 916
484 608 952
588 644 984
672 688 1012
16 580 224
0 584 244
32 592 264
0 596 328
36 600 384
20 620 460
0 636 540
36 628 592
0 624 672
36 620 720
144 624 780
236 628 832
320 632 876
392 632 920
488 656 952
580 688 988
680 724 1012
20 656 280
0 664 288
32 668 312
0 676 368
32 676 416
24 684 488
0 700 560
36 704 620
0 708 692
104 704 744
208 696 796
284 700 836
356 692 880
420 700 928
492 712 952
592 728 992
664 760 1008
24 728 332
0 744 340
36 740 360
0 748 416
36 748 456
24 752 524
0 756 580
36 764 640
56 776 708
204 776 756
276 768 808
340 768 852
392 756 884
448 756 924
524 768 964
600 780 988
676 804 1012
28 804 400
8 808 408
44 804 420
8 804 456
40 808 492
44 808 552
108 820 604
156 824 668
188 832 720
272 832 768
336 832 812
388 820 852
444 820 888
492 820 932
540 816 952
616 824 992
684 840 1012
216 856 476
184 860 472
200 864 488
220 860 516
240 860 540
252 864 584
276 872 636
284 872 684
300 880 740
340 884 784
396 888 840
440 876 868
488 868 896
528 868 936
580 864 964
644 868 988
704 876 1012
404 904 552
384 904 556
384 904 556
380 904 576
404 908 604
404 908 644
392 912 680
384 908 704
376 920 752
408 924 800
444 920 844
496 924 888
536 916 912
572 908 936
616 908 964
676 904 996
736 916 1012
540 940 632
544 944 640
540 944 644
540 944 656
524 944 664
532 940 692
516 944 712
496 948 736
464 956 776
472 956 808
492 964 852
532 964 892
572 956 928
612 956 952
652 948 972
708 940 1000
768 944 1008
672 972 720
660 972 724
656 972 720
660 976 736
656 976 736
648 976 756
624 980 768
608 980 780
564 984 800
544 988 828
560 988 868
576 992 908
608 992 932
644 992 972
688 984 976
736 968 1000
796 972 1008
764 996 796
756 1000 796
756 1000 796
752 1004 804
748 1004 808
736 996 820
724 1004 828
704 1000 836
668 1004 848
620 1000 856
612 1008 880
636 1016 912
660 1008 940
688 1012 968
724 1008 992
772 996 1004
820 1000 1008
52 120 48
60 124 72
64 128 112
68 136 160
60 140 224
40 152 300
12 160 392
0 168 488
0 180 580
0 192 664
4 200 736
116 216 808
216 236 868
308 264 912
408 304 956
512 364 1008
608 444 1008
40 144 48
48 148 72
44 156 116
52 164 168
52 172 232
36 176 316
4 184 404
0 188 496
4 200 584
0 208 668
28 224 748
144 236 820
232 252 876
316 276 924
416 320 968
520 376 1008
620 460 1016
36 184 72
32 180 84
32 196 124
32 204 180
32 200 232
20 212 316
4 220 400
0 224 488
4 232 584
0 248 672
36 252 736
136 260 812
236 280 872
328 304 920
424 344 960
520 396 1000
628 484 1012
12 228 84
0 228 100
4 240 140
0 240 192
4 248 252
0 256 328
0 260 412
4 264 512
0 272 596
4 280 672
68 292 756
160 308 820
248 316 868
348 340 928
444 380 964
544 436 1000
628 512 1008
0 272 100
0 288 128
0 292 164
0 292 208
0 296 276
0 312 348
0 316 440
0 324 528
0 328 616
4 332 684
80 340 756
180 352 824
284 376 880
372 396 924
460 428 968
564 484 1004
652 552 1012
4 340 128
4 344 148
0 352 184
0 364 232
0 368 300
0 372 376
0 380 452
0 384 524
4 388 612
0 396 680
112 412 768
204 416 816
296 432 872
384 456 920
468 484 960
568 532 992
664 600 1012
0 424 168
4 424 180
0 420 208
0 436 264
0 448 324
4 456 404
0 460 480
0 464 556
0 460 628
0 464 700
112 472 768
228 484 828
320 500 880
400 520 920
492 548 960
592 592 1000
684 648 1012
4 496 200
0 504 208
0 508 244
4 516 296
0 520 360
4 540 436
0 544 512
0 552 580
0 548 656
8 548 720
132 536 768
228 552 824
324 560 880
408 580 920
508 608 956
600 644 1000
680 688 1012
4 584 244
0 584 240
0 592 272
0 596 324
0 604 384
0 616 460
0 628 528
0 632 600
0 632 668
52 624 728
168 624 776
256 624 828
324 628 876
408 640 924
500 652 960
584 684 988
680 724 1012
4 664 288
0 664 288
0 672 320
0 672 360
0 680 416
0 688 484
0 700 556
0 708 624
4 712 688
128 692 744
228 700 788
300 696 836
364 696 880
432 700 920
492 704 952
588 728 992
676 768 1012
0 732 336
0 744 344
0 744 368
0 744 408
4 752 460
4 756 516
4 760 576
8 768 644
128 780 716
224 776 756
296 772 812
348 764 848
400 764 888
460 764 924
524 764 960
592 776 992
676 796 1012
16 804 408
8 804 404
12 804 420
8 808 456
64 816 504
128 820 556
164 824 612
184 824 664
228 832 724
292 836 780
360 832 824
408 820 860
452 824 900
492 812 928
552 816 960
624 828 992
688 840 1012
268 860 476
252 856 488
232 860 496
252 864 524
268 864 552
288 868 588
292 868 636
292 872 684
316 876 736
344 880 788
404 884 832
456 876 872
492 872 896
536 864 932
588 868 964
644 868 992
712 880 1012
420 900 556
408 904 556
404 908 568
408 908 588
408 904 608
416 908 636
400 912 668
400 916 712
388 920 756
416 924 804
456 924 848
500 928 888
540 916 916
580 908 940
620 904 968
676 904 996
736 916 1012
556 940 636
560 944 644
540 940 644
536 944 660
528 940 668
540 944 696
524 952 724
504 952 744
468 952 772
480 956 812
500 956 860
528 960 892
580 960 932
616 948 956
652 944 972
708 944 996
764 944 1008
680 972 732
668 972 728
668 976 736
668 980 740
656 984 744
636 976 752
636 984 772
612 976 784
576 984 800
552 992 832
560 988 860
576 992 904
616 992 936
644 992 972
688 984 976
736 972 1004
796 972 1012
764 996 804
760 996 800
756 1000 796
752 1004 804
752 1004 804
744 1000 824
724 1004 832
708 1000 832
680 1004 844
636 1004 860
620 1012 876
636 1016 912
656 1012 940
688 1012 968
720 1012 996
764 1000 1004
820 1000 1008
100 120 52
100 124 60
112 132 104
116 140 156
108 144 212
112 156 292
104 160 388
80 168 480
88 180 580
100 192 664
124 200 736
184 216 808
260 236 860
348 260 916
436 304 956
528 356 1000
632 448 1012
100 152 36
96 152 72
100 156 108
108 164 164
112 168 220
112 180 308
96 184 392
92 196 492
84 196 580
100 212 668
136 220 744
200 232 816
268 256 876
352 280 924
444 320 968
544 376 1008
632 460 1012
84 184 52
92 188 88
96 196 128
96 196 172
100 208 236
100 212 324
88 220 412
84 224 504
88 232 592
96 240 672
144 248 740
216 260 820
292 284 880
372 308 928
452 344 964
544 404 1004
644 484 1012
76 220 80
84 228 100
80 236 136
88 240 188
84 252 260
80 252 324
68 256 412
64 264 512
76 272 588
112 280 672
156 296 752
220 300 816
288 320 872
376 348 924
460 380 964
564 436 996
648 512 1012
80 276 104
72 284 124
60 288 156
52 296 204
52 304 272
44 308 348
28 316 424
28 316 516
48 324 608
104 336 684
168 344 756
240 356 820
312 376 876
392 396 920
480 424 964
576 484 1004
652 544 1008
60 336 132
52 340 152
4 352 184
8 356 232
4 364 300
4 372 372
4 380 452
0 384 540
52 388 616
116 404 696
184 408 764
260 420 820
332 432 880
424 460 924
500 488 964
584 536 1000
668 596 1008
24 416 164
24 412 184
4 420 204
4 436 256
4 444 320
0 452 400
0 456 480
0 464 556
24 460 628
108 464 696
192 480 768
272 488 824
352 500 876
432 520 920
508 544 956
592 592 992
684 644 1008
4 496 200
4 508 220
0 516 248
0 516 284
0 524 356
4 540 432
4 544 512
0 552 580
20 544 644
124 544 708
208 544 768
280 552 828
360 564 880
444 580 924
516 604 956
604 644 992
696 696 1012
4 584 252
4 584 268
0 592 272
4 596 324
0 604 388
0 616 452
0 624 532
0 636 604
60 636 668
164 628 736
244 628 784
300 616 832
360 632 876
436 640 920
516 660 964
616 696 996
680 728 1008
4 664 304
4 660 308
0 664 320
0 672 356
0 680 416
0 688 480
12 700 548
4 708 620
120 708 688
208 708 740
276 704 792
336 700 832
392 696 876
444 696 912
512 708 956
600 732 992
684 764 1008
88 736 356
16 736 364
4 740 372
8 748 400
8 752 452
56 756 508
120 764 576
140 776 648
208 780 708
268 776 756
324 764 804
372 768 840
424 760 888
476 764 920
536 772 956
604 780 992
688 804 1012
196 796 412
180 800 420
132 808 436
128 808 460
172 816 492
212 820 552
232 816 604
248 824 664
268 828 728
328 836 780
384 832 820
432 828 860
468 820 892
512 816 928
564 820 964
632 824 992
696 840 1008
340 860 492
328 860 496
292 856 496
292 860 516
312 860 548
332 864 596
340 872 640
332 872 688
344 880 728
380 884 792
428 884 836
472 876 872
516 872 904
556 868 940
592 864 964
652 868 996
716 876 1012
464 904 572
456 900 568
440 904 572
440 904 588
448 908 620
440 908 640
440 912 672
428 916 712
420 916 756
436 920 800
468 924 844
508 924 876
552 916 912
588 912 936
636 912 968
688 912 996
748 912 1012
588 940 652
572 944 648
568 944 652
560 940 660
564 940 680
556 948 704
540 944 720
516 952 744
492 952 772
492 956 816
516 956 856
552 968 896
592 960 928
624 952 952
668 948 972
708 940 996
772 948 1012
688 976 728
688 976 732
684 976 736
668 972 736
668 980 744
652 976 756
644 984 776
624 984 792
588 988 804
556 992 828
576 988 864
592 992 900
620 992 932
660 988 964
700 984 980
740 976 1000
796 976 1012
776 996 804
768 1000 808
768 1000 804
760 1004 808
760 1004 812
752 1000 816
736 1004 836
720 1000 840
684 1000 844
644 1004 864
628 1012 876
648 1012 912
668 1012 944
692 1016 968
724 1008 996
768 996 1004
828 996 1008
144 128 44
148 136 56
164 136 88
168 144 144
172 148 208
180 156 292
188 160 380
188 168 480
184 180 576
204 188 656
228 196 728
264 220 800
320 236 864
392 260 916
464 296 952
556 364 1004
652 448 1012
144 152 40
144 156 64
156 164 104
164 168 152
184 176 224
180 176 296
184 188 388
188 188 484
188 200 580
208 204 664
236 216 744
276 228 812
324 248 864
396 276 928
480 320 964
568 380 1004
