滤镜资源/vsco 137 3dl+cube/VSCO 137 3dl/VSCOX KP4 Kodak Portra 400.3dl
#Generated by Picture Instruments - Look Converter
3DMESH
Mesh 4 10
0 64 128 192 256 320 384 448 512 576 640 704 768 832 896 960 1023
36 32 32
44 32 56
56 40 88
72 48 176
92 60 272
108 76 388
132 92 496
144 112 572
148 132 628
156 160 672
148 196 704
144 232 736
140 276 760
132 348 796
128 432 824
124 548 868
136 644 892
40 36 28
40 48 52
60 52 88
64 60 164
92 68 264
104 88 380
120 108 484
136 128 572
144 156 636
148 180 676
152 212 712
140 248 736
144 292 772
128 368 804
128 452 832
128 552 872
140 652 892
40 56 36
44 64 60
52 76 92
64 88 168
88 104 272
100 120 372
112 144 496
128 168 580
128 188 644
136 224 684
132 252 720
136 284 748
128 336 784
124 408 820
124 492 844
132 584 876
140 672 896
32 100 44
36 108 68
44 120 96
56 140 172
80 156 268
84 176 392
100 200 504
112 224 580
116 248 648
124 280 696
124 316 732
120 356 772
124 404 800
120 460 832
124 540 852
136 624 880
160 704 908
24 160 56
28 172 76
44 188 108
40 212 180
60 220 264
64 252 376
80 276 488
92 296 580
96 332 660
100 364 712
108 388 748
108 424 776
116 468 808
112 520 836
124 588 872
136 664 888
172 732 912
16 248 80
12 252 96
32 276 120
28 300 192
48 316 276
52 336 392
64 360 500
76 380 592
84 416 680
92 436 724
88 472 760
92 504 796
108 536 820
108 584 860
132 644 884
156 704 900
192 764 916
12 332 120
4 348 124
28 372 156
12 392 212
40 408 288
40 432 392
48 452 508
64 476 604
68 504 684
84 512 732
88 552 776
92 576 808
112 608 836
116 656 872
140 692 888
172 740 904
204 784 916
8 420 140
0 436 148
24 452 176
8 480 228
36 500 292
32 508 396
44 528 504
64 544 596
60 568 680
80 592 728
84 612 780
96 636 816
116 660 840
120 692 876
152 732 892
188 768 904
224 800 920
12 504 168
4 520 184
28 532 200
8 552 240
36 568 304
36 588 408
40 608 512
60 620 600
60 632 676
80 660 736
88 672 784
100 692 820
124 708 852
136 740 876
168 764 896
208 796 912
256 824 920
16 564 192
0 580 200
28 592 212
12 612 260
40 620 312
36 636 404
44 652 508
68 668 608
72 684 684
88 700 744
96 716 784
116 732 828
136 748 856
152 768 880
184 792 896
228 816 912
276 840 924
16 624 208
0 636 212
32 652 232
20 664 268
48 676 328
48 688 416
48 700 504
72 716 600
80 732 676
100 740 736
116 760 796
132 768 824
152 780 852
172 800 884
212 816 908
256 840 920
312 852 920
20 676 228
12 680 232
36 692 240
28 704 276
48 716 320
64 724 408
72 740 508
96 752 596
100 764 668
120 776 732
132 792 792
148 800 824
172 808 844
204 824 880
236 832 900
284 848 912
340 864 916
28 716 236
24 728 240
44 732 256
52 740 280
76 752 336
80 756 408
100 772 504
120 784 588
128 796 664
152 808 728
168 816 780
184 828 824
212 836 852
232 852 880
280 856 900
328 864 912
380 876 928
48 756 248
48 764 248
72 768 256
76 780 292
104 784 340
116 788 420
136 804 504
156 816 592
164 828 660
188 832 716
208 844 772
224 856 816
260 864 848
280 872 876
324 876 896
376 888 916
428 896 920
88 788 248
100 796 248
112 804 256
124 808 288
144 812 344
168 820 408
180 836 496
208 840 576
228 852 652
248 860 704
268 868 768
280 876 804
312 880 836
340 888 872
388 896 888
432 900 908
488 904 924
156 824 244
160 828 248
176 828 260
192 840 300
224 844 352
244 852 428
256 860 496
284 872 580
296 880 648
324 880 704
344 888 760
356 892 792
388 896 828
424 908 864
460 912 888
512 916 908
560 920 928
248 852 240
252 852 252
276 856 268
288 864 312
312 868 368
336 876 448
356 880 520
380 884 600
392 900 664
416 900 708
428 904 756
452 908 792
476 916 824
504 920 864
540 924 892
584 928 908
620 924 916
48 40 40
52 40 64
68 52 104
88 60 188
108 64 284
124 80 396
144 92 496
160 116 584
164 136 632
172 168 680
172 196 704
156 232 728
156 280 764
148 348 792
144 440 828
140 540 864
156 640 888
44 48 44
56 60 64
72 64 108
84 76 180
108 84 292
124 100 404
140 120 500
156 140 584
156 160 640
160 184 684
164 216 716
164 260 752
156 312 780
148 372 804
144 456 836
144 556 876
164 656 892
44 76 48
56 72 60
68 88 112
76 100 180
92 112 276
116 128 396
128 148 496
140 172 588
148 196 648
152 228 688
148 256 728
152 288 756
148 344 780
144 404 816
136 492 848
140 580 872
168 672 896
40 116 52
44 116 68
48 136 104
72 152 180
88 164 280
104 180 392
112 200 496
132 232 596
132 252 652
140 288 700
140 320 740
136 356 772
136 392 796
136 464 828
140 544 864
148 628 884
184 696 904
32 172 68
40 184 80
44 204 124
60 216 188
72 232 280
80 260 396
96 284 516
108 308 600
112 340 668
124 360 712
128 392 756
124 428 784
132 476 820
136 532 840
136 596 872
156 664 884
196 732 908
20 248 84
28 264 100
32 292 128
40 308 192
56 328 292
68 336 392
76 364 500
92 392 600
104 420 676
104 448 728
116 476 772
120 504 800
124 544 824
132 588 860
148 644 876
176 700 896
208 756 912
16 348 116
12 360 132
24 376 152
32 396 212
40 416 300
56 436 400
68 464 516
76 480 604
88 504 676
100 532 740
104 548 776
112 580 816
128 608 836
136 644 864
156 692 888
184 744 904
240 788 920
8 428 144
8 440 156
12 460 176
28 488 232
36 500 300
52 516 408
60 536 512
76 552 616
88 580 692
92 596 748
108 616 784
116 636 820
128 668 844
152 696 876
172 740 888
204 772 908
252 800 920
0 508 172
4 524 184
12 544 204
24 556 240
36 572 312
48 592 400
60 604 508
76 624 604
84 640 680
96 656 736
108 672 788
124 692 824
136 716 848
160 740 872
184 764 896
224 796 904
280 820 916
4 572 180
8 580 196
16 600 220
24 616 256
44 628 312
52 640 408
68 660 512
80 676 608
96 688 680
104 700 736
120 716 784
132 736 828
152 748 852
176 772 876
200 792 896
244 812 912
304 840 924
8 628 200
12 644 212
20 656 236
36 672 264
52 684 324
64 696 412
72 708 512
92 716 600
104 732 680
124 744 744
136 764 788
148 768 820
172 784 856
200 800 880
228 816 896
276 836 912
332 856 928
20 676 224
24 684 228
32 696 240
44 712 272
68 720 336
84 732 420
96 740 516
112 752 600
120 764 676
140 776 740
160 792 792
180 800 824
200 812 852
224 820 884
256 836 896
304 856 916
364 864 920
36 724 236
40 732 244
52 740 252
72 752 284
84 756 328
100 764 408
112 776 500
136 788 600
156 796 668
164 808 724
180 816 780
204 824 816
232 840 848
260 852 884
300 860 900
340 868 912
392 876 924
64 764 240
64 768 244
84 776 260
100 780 288
116 792 340
136 796 412
144 808 496
172 816 592
192 828 660
212 836 720
228 848 776
244 852 808
276 864 852
304 868 880
348 880 896
392 888 912
440 896 916
100 800 236
120 800 244
124 808 260
144 812 292
164 816 340
188 828 412
212 840 508
232 848 584
248 856 656
268 860 716
284 868 768
304 876 804
332 884 844
368 892 876
404 900 892
448 900 908
500 904 920
172 828 240
176 832 244
200 836 260
224 848 292
248 852 352
256 852 420
276 864 500
300 868 584
320 880 644
352 884 716
356 888 756
384 896 792
404 904 828
436 908 868
472 912 888
524 916 912
568 920 920
264 856 240
272 860 244
292 864 264
312 872 308
328 876 360
356 872 444
372 880 520
400 888 596
408 892 656
432 896 712
452 908 756
468 912 792
488 916 824
520 920 864
552 924 888
592 924 900
628 924 916
76 52 52
84 56 72
96 60 120
124 72 200
144 80 292
168 92 408
180 108 500
192 124 588
204 148 640
208 176 676
204 200 704
204 236 728
196 280 760
196 356 792
184 444 824
180 540 856
204 644 888
80 52 52
80 64 76
96 76 116
116 84 188
144 96 308
164 104 416
180 120 508
192 144 588
196 168 644
204 196 684
200 228 712
196 264 744
188 308 772
184 380 800
184 464 832
188 564 868
204 656 892
80 80 60
80 88 80
96 100 124
116 112 196
140 124 300
156 144 416
172 156 512
184 184 592
192 208 656
188 236 696
192 264 728
188 304 756
188 356 780
180 420 816
180 492 836
188 588 872
208 672 896
68 120 56
80 132 76
92 144 120
104 164 192
124 176 296
140 196 404
160 216 500
164 236 588
172 260 648
180 292 704
180 328 744
176 360 764
180 404 796
180 468 824
180 536 848
196 628 880
224 700 896
68 188 68
72 204 88
80 212 128
92 232 196
112 248 292
124 272 408
140 288 512
152 308 600
152 340 668
160 368 712
168 400 752
164 436 776
168 484 808
176 524 828
184 596 864
200 668 896
236 728 896
52 268 84
60 280 104
64 304 144
84 316 204
100 332 292
112 352 408
124 380 516
132 404 612
148 424 684
152 460 724
156 476 768
160 508 792
164 544 824
176 600 856
192 648 872
212 700 900
248 756 908
44 352 112
48 372 124
60 392 160
68 416 212
84 428 296
100 444 408
104 456 508
120 484 612
132 508 676
140 532 728
148 560 776
164 588 808
164 608 836
180 652 860
200 692 884
228 740 904
276 780 916
40 440 136
40 456 156
52 472 180
60 488 224
76 504 304
92 524 412
108 544 516
124 560 624
124 576 680
136 596 732
148 620 780
160 644 816
172 664 844
196 696 872
212 732 892
244 764 912
296 804 916
32 520 164
40 528 172
52 552 196
64 572 240
84 580 320
88 600 412
108 612 520
116 628 616
132 648 688
136 660 744
156 684 796
168 692 824
180 720 852
204 744 876
228 768 900
272 800 912
320 820 916
40 588 184
44 592 192
52 604 208
68 624 244
84 636 316
96 644 408
112 664 504
120 676 612
140 688 680
148 704 740
168 716 792
180 732 820
200 752 856
220 772 876
248 792 900
292 812 912
348 840 924
40 640 196
48 648 204
64 664 228
80 676 256
92 684 316
104 696 400
124 708 508
136 724 604
148 736 680
160 748 736
180 760 788
196 768 816
216 784 848
248 804 880
272 820 900
312 832 912
372 848 920
52 680 212
60 688 220
68 708 236
92 716 264
112 728 328
120 736 408
140 744 508
152 756 596
164 772 672
180 784 732
200 796 776
232 800 828
236 816 852
268 828 880
304 840 900
344 856 916
404 864 928
68 728 216
80 736 232
92 740 240
108 752 272
128 760 324
140 772 412
168 780 500
176 792 592
200 800 668
208 812 728
228 820 772
256 832 820
272 844 852
304 852 876
336 856 900
380 872 916
436 876 920
96 772 220
104 776 236
120 780 244
140 792 276
160 800 328
176 804 400
200 812 488
212 824 580
236 832 656
256 844 728
268 852 764
288 852 808
312 860 840
344 872 876
384 876 896
428 888 920
480 892 920
140 808 224
144 804 232
160 812 248
184 816 280
208 828 328
228 836 408
252 844 492
268 848 572
288 856 652
312 864 708
328 876 760
356 880 808
376 888 836
404 888 872
440 900 896
480 904 912
536 908 928
208 836 224
220 840 232
244 844 248
252 848 284
276 852 348
288 860 416
320 868 500
340 876 584
364 884 660
376 888 708
400 892 760
428 896 800
444 904 828
476 908 864
508 916 892
548 916 912
584 916 924
300 860 224
312 868 236
324 868 256
352 876 300
368 880 368
392 880 448
412 888 528
432 892 600
448 896 660
468 904 708
480 912 756
504 912 796
524 916 828
556 924 860
576 920 888
616 924 904
656 924 916
128 64 60
128 64 80
152 76 116
176 80 192
200 84 288
228 96 400
248 116 496
260 132 576
264 156 624
272 176 668
264 208 700
260 240 720
256 288 748
256 356 780
236 440 812
248 544 852
264 648 884
124 72 56
140 76 72
156 84 124
180 100 196
208 104 300
224 112 400
244 128 500
260 148 580
260 176 636
264 200 676
268 228 704
256 264 732
248 308 760
244 380 796
248 468 824
248 564 856
