滤镜资源/vsco 137 3dl+cube/VSCO 137 3dl/VSCO 2 Legacy.3dl
#Generated by Picture Instruments - Look Converter
3DMESH
Mesh 4 10
0 64 128 192 256 320 384 448 512 576 640 704 768 832 896 960 1023
168 168 168
168 168 168
168 168 168
172 172 172
180 180 180
196 196 196
224 224 224
256 256 256
292 292 292
324 324 324
356 356 356
384 384 384
404 404 404
428 428 428
444 444 444
460 460 460
472 472 472
164 164 164
164 164 164
164 164 164
164 164 164
172 172 172
188 188 188
216 216 216
256 256 256
288 288 288
316 316 316
348 348 348
376 376 376
400 400 400
424 424 424
444 444 444
460 460 460
472 472 472
164 164 164
164 164 164
164 164 164
164 164 164
172 172 172
188 188 188
220 220 220
252 252 252
288 288 288
320 320 320
352 352 352
376 376 376
404 404 404
424 424 424
444 444 444
460 460 460
468 468 468
180 180 180
172 172 172
172 172 172
176 176 176
184 184 184
200 200 200
228 228 228
264 264 264
292 292 292
328 328 328
356 356 356
384 384 384
408 408 408
428 428 428
448 448 448
464 464 464
476 476 476
204 204 204
204 204 204
200 200 200
204 204 204
204 204 204
228 228 228
248 248 248
276 276 276
308 308 308
344 344 344
368 368 368
396 396 396
420 420 420
436 436 436
456 456 456
472 472 472
484 484 484
252 252 252
252 252 252
252 252 252
252 252 252
260 260 260
272 272 272
284 284 284
316 316 316
348 348 348
372 372 372
396 396 396
416 416 416
440 440 440
460 460 460
476 476 476
492 492 492
508 508 508
320 320 320
324 324 324
316 316 316
324 324 324
324 324 324
340 340 340
348 348 348
376 376 376
396 396 396
416 416 416
444 444 444
460 460 460
480 480 480
504 504 504
516 516 516
532 532 532
536 536 536
396 396 396
400 400 400
396 396 396
400 400 400
408 408 408
408 408 408
424 424 424
440 440 440
456 456 456
476 476 476
496 496 496
512 512 512
532 532 532
544 544 544
564 564 564
576 576 576
584 584 584
472 472 472
472 472 472
472 472 472
472 472 472
476 476 476
484 484 484
496 496 496
508 508 508
512 512 512
532 532 532
552 552 552
568 568 568
584 584 584
596 596 596
616 616 616
624 624 624
628 628 628
540 540 540
540 540 540
540 540 540
544 544 544
540 540 540
544 544 544
560 560 560
568 568 568
580 580 580
600 600 600
608 608 608
620 620 620
636 636 636
648 648 648
660 660 660
672 672 672
676 676 676
596 596 596
600 600 600
600 600 600
600 600 600
600 600 600
604 604 604
612 612 612
620 620 620
636 636 636
648 648 648
664 664 664
680 680 680
684 684 684
696 696 696
708 708 708
720 720 720
720 720 720
652 652 652
648 648 648
652 652 652
652 652 652
652 652 652
652 652 652
660 660 660
668 668 668
680 680 680
696 696 696
704 704 704
716 716 716
732 732 732
740 740 740
744 744 744
756 756 756
760 760 760
696 696 696
696 696 696
692 692 692
692 692 692
696 696 696
696 696 696
704 704 704
712 712 712
724 724 724
740 740 740
748 748 748
756 756 756
772 772 772
780 780 780
784 784 784
796 796 796
796 796 796
736 736 736
732 732 732
732 732 732
732 732 732
732 732 732
736 736 736
744 744 744
748 748 748
764 764 764
768 768 768
784 784 784
792 792 792
804 804 804
808 808 808
820 820 820
824 824 824
828 828 828
764 764 764
772 772 772
772 772 772
768 768 768
764 764 764
768 768 768
776 776 776
784 784 784
796 796 796
800 800 800
812 812 812
824 824 824
832 832 832
840 840 840
844 844 844
856 856 856
860 860 860
796 796 796
796 796 796
796 796 796
796 796 796
796 796 796
800 800 800
804 804 804
816 816 816
820 820 820
832 832 832
840 840 840
848 848 848
856 856 856
868 868 868
876 876 876
880 880 880
888 888 888
820 820 820
820 820 820
816 816 816
820 820 820
820 820 820
824 824 824
828 828 828
836 836 836
844 844 844
852 852 852
860 860 860
872 872 872
880 880 880
888 888 888
896 896 896
904 904 904
904 904 904
168 168 168
164 164 164
164 164 164
168 168 168
176 176 176
196 196 196
220 220 220
256 256 256
288 288 288
324 324 324
352 352 352
380 380 380
404 404 404
424 424 424
444 444 444
460 460 460
468 468 468
164 164 164
160 160 160
160 160 160
164 164 164
172 172 172
192 192 192
220 220 220
252 252 252
288 288 288
324 324 324
352 352 352
380 380 380
400 400 400
424 424 424
444 444 444
460 460 460
472 472 472
164 164 164
160 160 160
160 160 160
164 164 164
172 172 172
188 188 188
216 216 216
244 244 244
288 288 288
324 324 324
348 348 348
376 376 376
400 400 400
424 424 424
444 444 444
460 460 460
472 472 472
176 176 176
172 172 172
172 172 172
176 176 176
184 184 184
196 196 196
220 220 220
256 256 256
296 296 296
324 324 324
356 356 356
384 384 384
404 404 404
428 428 428
444 444 444
464 464 464
472 472 472
200 200 200
200 200 200
200 200 200
204 204 204
208 208 208
224 224 224
248 248 248
280 280 280
316 316 316
340 340 340
372 372 372
396 396 396
420 420 420
440 440 440
456 456 456
472 472 472
484 484 484
248 248 248
252 252 252
256 256 256
248 248 248
260 260 260
264 264 264
288 288 288
320 320 320
340 340 340
368 368 368
400 400 400
420 420 420
440 440 440
460 460 460
476 476 476
488 488 488
504 504 504
328 328 328
328 328 328
320 320 320
324 324 324
324 324 324
336 336 336
352 352 352
376 376 376
388 388 388
420 420 420
440 440 440
460 460 460
484 484 484
500 500 500
512 512 512
528 528 528
536 536 536
400 400 400
400 400 400
400 400 400
396 396 396
404 404 404
412 412 412
420 420 420
436 436 436
460 460 460
476 476 476
488 488 488
512 512 512
528 528 528
544 544 544
560 560 560
572 572 572
584 584 584
472 472 472
476 476 476
472 472 472
472 472 472
472 472 472
484 484 484
492 492 492
504 504 504
520 520 520
536 536 536
556 556 556
572 572 572
584 584 584
600 600 600
608 608 608
628 628 628
632 632 632
540 540 540
540 540 540
540 540 540
540 540 540
540 540 540
548 548 548
560 560 560
568 568 568
576 576 576
588 588 588
612 612 612
620 620 620
636 636 636
648 648 648
660 660 660
668 668 668
676 676 676
596 596 596
600 600 600
600 600 600
600 600 600
604 604 604
604 604 604
616 616 616
620 620 620
636 636 636
644 644 644
664 664 664
672 672 672
688 688 688
696 696 696
708 708 708
712 712 712
720 720 720
652 652 652
648 648 648
648 648 648
652 652 652
652 652 652
656 656 656
664 664 664
668 668 668
684 684 684
692 692 692
708 708 708
720 720 720
732 732 732
736 736 736
748 748 748
760 760 760
760 760 760
696 696 696
696 696 696
692 692 692
696 696 696
696 696 696
696 696 696
704 704 704
712 712 712
720 720 720
736 736 736
744 744 744
756 756 756
768 768 768
780 780 780
788 788 788
792 792 792
796 796 796
732 732 732
732 732 732
732 732 732
732 732 732
732 732 732
736 736 736
744 744 744
748 748 748
760 760 760
768 768 768
784 784 784
796 796 796
800 800 800
808 808 808
820 820 820
824 824 824
832 832 832
764 764 764
768 768 768
768 768 768
764 764 764
764 764 764
768 768 768
776 776 776
784 784 784
792 792 792
800 800 800
812 812 812
824 824 824
832 832 832
840 840 840
848 848 848
856 856 856
856 856 856
796 796 796
796 796 796
800 800 800
800 800 800
800 800 800
796 796 796
804 804 804
812 812 812
820 820 820
832 832 832
840 840 840
848 848 848
860 860 860
868 868 868
876 876 876
880 880 880
884 884 884
820 820 820
820 820 820
820 820 820
820 820 820
820 820 820
824 824 824
828 828 828
836 836 836
844 844 844
852 852 852
864 864 864
872 872 872
880 880 880
888 888 888
896 896 896
904 904 904
904 904 904
168 168 168
164 164 164
164 164 164
168 168 168
176 176 176
192 192 192
216 216 216
256 256 256
288 288 288
324 324 324
348 348 348
376 376 376
404 404 404
424 424 424
444 444 444
460 460 460
472 472 472
164 164 164
160 160 160
160 160 160
164 164 164
172 172 172
188 188 188
220 220 220
252 252 252
288 288 288
320 320 320
352 352 352
380 380 380
404 404 404
424 424 424
444 444 444
460 460 460
472 472 472
164 164 164
160 160 160
160 160 160
164 164 164
172 172 172
192 192 192
220 220 220
252 252 252
288 288 288
324 324 324
352 352 352
380 380 380
404 404 404
424 424 424
440 440 440
460 460 460
472 472 472
172 172 172
172 172 172
172 172 172
176 176 176
184 184 184
200 200 200
224 224 224
260 260 260
288 288 288
324 324 324
356 356 356
380 380 380
408 408 408
428 428 428
448 448 448
464 464 464
476 476 476
200 200 200
204 204 204
196 196 196
204 204 204
208 208 208
220 220 220
248 248 248
272 272 272
312 312 312
340 340 340
368 368 368
396 396 396
416 416 416
436 436 436
456 456 456
472 472 472
484 484 484
252 252 252
248 248 248
256 256 256
248 248 248
252 252 252
264 264 264
284 284 284
316 316 316
344 344 344
372 372 372
400 400 400
424 424 424
440 440 440
460 460 460
476 476 476
492 492 492
500 500 500
324 324 324
324 324 324
328 328 328
328 328 328
320 320 320
336 336 336
340 340 340
376 376 376
400 400 400
416 416 416
440 440 440
464 464 464
480 480 480
496 496 496
512 512 512
528 528 528
536 536 536
400 400 400
408 408 408
404 404 404
396 396 396
400 400 400
408 408 408
424 424 424
428 428 428
460 460 460
480 480 480
496 496 496
516 516 516
532 532 532
544 544 544
556 556 556
568 568 568
580 580 580
472 472 472
476 476 476
476 476 476
472 472 472
472 472 472
480 480 480
488 488 488
504 504 504
520 520 520
540 540 540
556 556 556
568 568 568
588 588 588
596 596 596
608 608 608
628 628 628
628 628 628
544 544 544
540 540 540
540 540 540
544 544 544
540 540 540
548 548 548
556 556 556
564 564 564
576 576 576
592 592 592
608 608 608
624 624 624
640 640 640
652 652 652
660 660 660
668 668 668
676 676 676
596 596 596
596 596 596
596 596 596
600 600 600
600 600 600
604 604 604
612 612 612
624 624 624
636 636 636
644 644 644
652 652 652
672 672 672
684 684 684
696 696 696
708 708 708
712 712 712
720 720 720
644 644 644
648 648 648
648 648 648
648 648 648
652 652 652
656 656 656
664 664 664
672 672 672
688 688 688
692 692 692
704 704 704
720 720 720
728 728 728
736 736 736
748 748 748
756 756 756
768 768 768
696 696 696
692 692 692
692 692 692
692 692 692
700 700 700
700 700 700
704 704 704
716 716 716
724 724 724
736 736 736
744 744 744
760 760 760
772 772 772
780 780 780
784 784 784
796 796 796
796 796 796
732 732 732
732 732 732
732 732 732
732 732 732
740 740 740
736 736 736
740 740 740
748 748 748
760 760 760
772 772 772
780 780 780
796 796 796
804 804 804
812 812 812
824 824 824
828 828 828
828 828 828
764 764 764
764 764 764
764 764 764
764 764 764
764 764 764
772 772 772
772 772 772
780 780 780
792 792 792
804 804 804
812 812 812
824 824 824
836 836 836
840 840 840
848 848 848
856 856 856
860 860 860
796 796 796
796 796 796
800 800 800
796 796 796
796 796 796
800 800 800
804 804 804
812 812 812
820 820 820
828 828 828
840 840 840
848 848 848
860 860 860
868 868 868
876 876 876
880 880 880
884 884 884
820 820 820
820 820 820
820 820 820
820 820 820
820 820 820
820 820 820
828 828 828
836 836 836
844 844 844
852 852 852
864 864 864
872 872 872
880 880 880
888 888 888
896 896 896
904 904 904
904 904 904
172 172 172
168 168 168
168 168 168
172 172 172
180 180 180
196 196 196
216 216 216
256 256 256
284 284 284
320 320 320
352 352 352
376 376 376
404 404 404
428 428 428
444 444 444
460 460 460
472 472 472
164 164 164
164 164 164
164 164 164
168 168 168
176 176 176
192 192 192
216 216 216
252 252 252
288 288 288
324 324 324
356 356 356
376 376 376
404 404 404
428 428 428
444 444 444
460 460 460
