滤镜资源/vsco 137 3dl+cube/VSCO 137 3dl/VSCO J5 Minimalist.3dl
#Generated by Picture Instruments - Look Converter
3DMESH
Mesh 4 10
0 64 128 192 256 320 384 448 512 576 640 704 768 832 896 960 1023
0 0 0
8 0 20
32 8 44
24 4 76
44 12 104
40 32 144
48 52 192
56 56 252
44 80 332
52 104 416
32 128 492
28 160 568
36 196 624
20 232 684
32 276 732
24 332 780
28 400 816
0 0 12
0 0 20
28 12 48
24 24 72
48 36 104
44 48 144
48 64 196
56 80 260
52 96 340
52 116 412
32 144 488
24 168 560
36 204 628
12 248 684
32 280 732
24 332 768
36 408 820
12 44 36
12 52 48
32 44 60
16 56 84
36 60 112
36 80 148
48 92 204
56 108 264
48 124 336
48 148 412
36 168 496
28 188 568
36 228 628
16 264 688
32 300 736
20 356 772
44 416 820
8 96 64
12 92 72
28 84 72
20 92 100
36 100 120
44 112 164
44 128 216
52 148 280
48 164 352
48 180 420
28 204 500
24 228 572
36 256 632
16 284 688
32 328 732
24 372 776
64 448 824
24 148 100
16 152 108
32 148 116
24 144 128
40 140 132
40 152 176
40 164 220
48 184 276
44 204 352
48 216 428
32 244 500
20 268 568
36 292 628
16 328 688
36 356 728
24 404 772
96 476 824
20 212 132
20 208 132
36 208 144
16 208 164
32 204 176
28 204 200
32 212 240
48 224 288
44 240 356
48 256 432
24 284 504
24 312 576
36 336 628
16 364 696
36 392 736
28 436 784
124 516 828
28 276 172
28 276 176
36 276 180
28 276 204
40 272 212
28 268 240
32 268 272
44 276 320
40 292 380
44 304 444
36 328 516
24 356 580
40 376 640
24 408 692
36 432 740
32 472 772
28 516 812
28 352 208
24 352 220
40 348 220
20 348 240
36 352 252
28 344 284
24 340 308
32 336 336
36 344 400
48 364 460
28 376 520
24 404 588
40 420 640
32 448 692
36 468 732
36 504 772
36 536 816
32 424 244
24 428 260
40 424 264
16 424 280
36 424 300
20 428 332
20 420 360
36 412 384
20 408 428
36 416 480
28 432 540
20 448 600
36 476 648
32 496 692
44 516 736
40 540 772
40 560 816
36 508 292
28 504 296
40 504 300
28 512 328
40 508 344
24 504 384
12 500 408
32 488 432
12 484 472
32 488 508
20 496 552
16 504 612
40 520 648
28 540 704
48 560 740
56 584 780
52 604 816
40 572 332
36 580 344
44 580 344
28 584 372
40 580 388
24 580 420
12 572 444
32 568 480
8 560 512
32 556 548
24 556 588
12 572 632
36 572 668
36 592 708
48 604 748
56 636 784
64 648 816
64 652 384
52 656 392
60 660 396
44 660 412
48 656 436
28 660 464
16 656 496
32 648 520
8 648 560
32 636 584
24 628 612
12 628 648
32 636 676
28 648 716
44 652 744
68 668 784
84 684 808
80 724 436
72 728 440
80 724 436
60 728 464
56 724 476
36 720 504
16 724 528
36 716 556
8 708 592
32 704 624
28 700 652
12 692 668
32 684 696
16 692 728
40 700 756
60 712 792
84 724 816
104 776 480
96 780 488
92 780 488
84 776 504
72 780 512
60 780 548
44 780 572
44 776 596
16 768 620
32 764 644
28 752 668
8 748 696
32 740 716
12 740 740
36 740 768
56 752 804
76 760 828
120 820 536
112 832 536
112 824 540
100 824 556
92 820 564
84 820 584
68 828 604
64 824 624
44 824 644
40 812 664
36 800 700
12 800 720
36 788 740
20 788 760
36 780 780
48 788 804
72 796 828
132 856 596
124 860 604
120 856 596
120 860 612
112 856 616
112 852 624
96 860 640
100 852 652
84 860 672
76 852 692
56 844 720
44 840 740
52 836 756
44 836 780
48 824 796
52 816 812
76 824 836
204 888 660
200 888 664
196 884 660
156 884 664
120 876 664
120 876 672
116 876 688
116 876 684
108 876 700
108 876 704
84 872 720
80 872 752
76 864 772
72 864 796
84 860 812
84 844 824
84 844 836
44 0 8
44 4 28
52 0 48
52 0 84
64 16 112
56 28 144
48 52 196
56 60 260
44 80 332
36 104 408
36 128 488
28 160 568
20 196 624
20 232 684
16 280 736
16 332 776
48 396 820
40 0 4
44 8 36
52 12 56
52 36 88
64 44 120
56 56 156
56 64 204
48 80 272
52 96 340
44 120 416
32 140 504
20 176 568
20 212 632
12 248 684
16 288 736
20 340 776
64 412 828
40 48 20
40 48 48
48 56 60
52 64 92
56 72 124
60 84 160
60 96 208
52 108 276
48 124 336
40 148 416
32 172 496
24 192 572
20 224 632
16 260 684
16 300 736
16 348 776
76 424 824
20 96 64
16 96 72
28 104 88
36 100 104
48 108 136
56 120 172
60 128 220
56 148 288
48 164 352
36 184 424
28 204 500
28 232 572
20 252 628
16 284 688
16 332 732
16 376 780
104 444 824
24 148 100
16 156 112
20 152 120
36 152 128
36 148 148
40 160 184
52 172 232
52 184 300
56 204 360
44 216 428
32 244 504
24 272 576
24 296 644
20 328 696
16 356 740
16 408 780
128 480 824
20 208 124
20 208 132
20 216 148
16 208 164
28 208 176
28 204 200
36 212 240
44 228 304
44 240 360
48 264 432
28 284 512
24 312 576
28 336 636
16 364 696
20 396 736
24 440 776
152 512 828
28 284 168
28 284 176
20 276 184
28 276 204
24 276 216
24 272 240
32 268 272
36 276 316
40 292 376
36 308 444
32 332 516
24 356 580
28 376 640
28 408 692
16 432 732
28 472 780
100 536 828
24 352 208
24 352 220
28 356 224
24 352 244
24 352 260
24 344 284
24 340 308
24 340 344
32 352 404
40 364 472
24 376 524
24 404 588
28 424 640
32 444 696
20 476 736
28 504 780
36 536 812
28 424 244
24 428 260
24 424 260
20 428 284
16 428 308
20 428 332
16 420 356
24 412 388
16 416 428
20 420 484
24 432 544
24 448 596
28 472 644
32 496 692
32 520 740
40 548 780
40 564 816
32 508 292
28 504 296
24 504 304
28 504 324
24 508 348
16 508 376
8 504 412
8 496 444
12 484 472
12 480 504
12 492 552
16 504 612
28 524 652
28 548 708
40 564 740
48 584 780
48 604 816
48 576 336
36 580 344
40 584 352
28 584 368
28 588 396
12 584 416
16 584 448
12 572 484
12 564 516
12 560 544
12 560 592
8 568 628
24 576 672
36 592 708
40 608 744
52 628 784
64 648 816
60 656 384
52 656 388
48 660 396
44 660 412
36 660 440
20 660 464
16 656 496
12 644 520
8 648 560
16 640 588
8 628 616
12 628 652
12 636 680
24 644 712
36 656 748
64 676 792
84 684 808
76 728 428
72 728 436
72 724 444
64 732 468
52 724 480
36 724 512
24 728 528
12 720 564
8 712 592
8 704 616
12 696 652
12 692 672
8 688 700
16 692 728
28 704 768
52 712 792
84 724 816
92 784 488
96 780 488
88 784 496
84 784 508
68 784 516
56 784 548
40 780 564
28 780 600
16 772 624
12 764 648
12 756 680
12 748 696
12 744 720
16 744 744
20 744 768
52 756 804
76 760 828
112 824 532
112 832 536
108 824 540
96 820 552
88 824 568
80 824 584
64 828 608
56 828 632
48 824 644
24 816 668
16 808 700
12 800 720
16 792 740
16 788 760
16 780 780
40 788 804
72 796 828
128 856 596
128 856 596
124 864 612
128 860 616
108 864 628
108 856 624
96 860 644
92 860 656
88 860 676
72 856 696
52 848 724
44 840 740
44 840 760
44 836 780
40 824 800
44 820 816
72 820 832
216 888 656
212 888 656
208 888 672
188 884 676
136 884 668
112 876 680
116 876 688
108 876 696
108 876 700
104 876 708
88 876 724
80 872 752
72 868 776
72 864 796
80 864 816
76 848 824
84 844 836
64 0 16
72 4 28
80 0 52
100 4 84
92 16 120
104 36 160
104 52 208
100 72 288
96 92 352
72 108 432
52 132 488
28 164 556
24 192 624
16 236 680
16 280 736
20 336 780
128 412 824
80 16 12
76 20 28
92 20 64
92 28 88
108 52 128
108 64 176
104 80 228
100 92 296
92 104 364
80 124 436
56 148 512
28 176 572
20 212 632
12 244 684
16 288 736
24 352 784
132 424 828
76 40 16
84 52 36
92 60 64
92 72 104
104 88 144
108 96 184
100 104 236
100 116 308
96 136 376
84 152 448
60 172 508
36 200 580
24 228 640
16 264 688
16 300 736
24 360 788
144 444 828
76 96 32
80 104 56
76 112 84
84 108 112
92 120 144
100 128 192
96 144 248
92 156 308
92 172 376
80 188 456
64 212 520
32 232 572
24 256 624
12 292 684
16 328 728
32 392 792
164 460 832
68 152 76
60 164 96
64 168 116
72 172 140
76 164 160
84 176 200
92 188 256
92 196 316
92 216 384
76 236 452
64 252 520
36 276 584
24 296 640
24 324 684
16 356 740
52 424 796
172 484 824
36 212 124
44 216 132
48 228 152
60 232 176
68 228 192
68 220 216
80 232 260
84 244 324
88 264 396
80 284 460
68 296 524
40 312 588
28 336 636
16 368 700
24 400 744
68 456 792
188 516 828
28 276 168
28 276 176
28 280 180
40 292 196
52 296 232
60 292 256
56 284 276
64 296 332
72 304 396
68 328 464
56 336 520
28 360 580
28 376 636
28 408 696
16 436 736
28 472 780
168 552 828
24 352 204
24 356 220
28 360 228
24 356 240
28 356 264
44 360 296
48 356 324
44 356 356
44 352 408
48 364 468
28 380 524
24 400 584
28 424 640
36 452 696
16 472 732
28 504 776
40 548 812
28 424 244
24 428 252
28 432 264
20 428 284
16 428 308
20 428 332
32 428 364
32 424 396
20 420 436
24 424 488
28 436 544
24 448 604
24 476 652
32 492 700
28 520 744
40 548 784
40 560 812
32 512 292
28 504 296
24 504 304
20 508 324
24 508 344
16 508 376
12 504 404
16 496 440
8 492 476
16 484 504
8 496 556
16 504 604
28 524 652
32 540 704
40 564 740
48 584 780
48 604 816
48 580 332
40 584 344
36 584 352
32 584 368
20 584 388
12 584 412
16 584 448
12 580 488
12 572 524
8 560 544
8 556 580
8 568 620
24 576 672
36 592 708
40 608 744
52 628 780
68 648 812
60 656 384
52 656 392
48 660 400
44 660 412
40 664 436
24 664 468
12 664 496
8 652 524
8 648 560
12 640 588
8 628 612
12 628 648
12 636 680
24 644 712
36 656 748
64 672 788
80 688 816
76 728 428
72 728 444
68 720 444
60 728 464
48 724 480
36 724 512
16 728 536
12 720 564
8 708 592
8 704 616
12 696 652
12 692 680
8 688 708
20 696 740
24 700 764
56 716 796
84 724 816
92 784 488
92 780 488
88 784 496
84 784 508
76 784 520
56 784 548
44 784 568
28 780 600
16 776 624
12 764 648
12 752 672
12 748 700
12 744 720
16 744 744
24 748 772
52 756 800
80 764 832
112 824 528
108 828 532
108 824 540
92 828 556
88 824 572
80 824 588
72 828 604
52 824 620
52 824 648
24 816 668
16 808 700
16 796 728
20 796 744
20 788 760
20 784 784
40 788 804
72 796 828
128 860 592
128 860 596
132 860 608
116 860 612
112 864 624
104 860 624
96 860 648
92 856 664
84 856 676
72 856 696
52 848 724
44 840 740
44 840 760
40 832 776
40 824 800
44 820 816
68 820 832
240 888 656
244 892 668
244 892 672
236 892 676
200 892 684
120 880 676
108 876 688
108 876 696
96 876 696
100 872 704
88 876 724
80 872 752
72 868 776
72 864 796
76 856 816
76 848 824
84 844 836
112 4 24
108 0 40
120 8 52
128 8 72
136 8 112
144 28 160
152 52 212
148 84 288
140 100 356
128 124 444
112 152 520
96 180 588
80 212 648
60 252 704
52 288 748
96 352 796
208 432 832
108 24 20
108 36 44
120 40 60
128 32 88
148 40 128
148 60 172
156 84 232
152 100 292
140 124 384
136 144 468
116 168 532
100 192 596
76 220 648
64 264 704
64 308 752
104 368 796
