滤镜资源/vsco 137 3dl+cube/VSCO 137 3dl/VSCO A9 Minimalist.3dl
#Generated by Picture Instruments - Look Converter
3DMESH
Mesh 4 10
0 64 128 192 256 320 384 448 512 576 640 704 768 832 896 960 1023
104 92 108
104 100 120
108 100 132
104 104 160
116 104 184
116 112 224
120 120 276
128 124 340
124 132 412
136 140 484
132 160 560
140 176 632
152 192 696
160 220 760
176 236 808
188 260 852
212 280 892
104 108 108
104 104 124
112 104 128
112 116 156
116 116 176
120 124 224
116 128 280
132 136 340
132 148 416
140 160 476
144 176 552
152 192 636
164 212 700
168 240 768
184 252 808
196 280 844
216 300 884
108 124 120
108 120 128
112 120 136
112 128 156
120 128 176
116 140 220
120 148 280
132 156 336
132 168 416
144 188 500
152 208 576
156 228 648
164 244 716
168 272 772
184 284 816
200 300 852
208 316 892
108 156 124
108 156 136
112 144 144
112 140 164
120 148 180
124 156 224
128 168 284
144 188 352
136 204 432
152 216 504
152 248 588
156 276 676
176 296 740
172 308 784
192 324 820
200 336 860
220 348 888
116 176 140
112 188 148
104 192 164
108 180 180
120 172 188
124 180 236
132 196 280
140 220 340
144 240 436
160 272 520
156 300 596
168 324 680
180 348 744
180 364 800
196 372 828
204 372 856
220 384 892
120 228 152
112 228 160
116 236 184
108 244 204
116 228 224
116 220 260
128 232 292
140 252 348
152 284 436
160 312 520
172 352 604
168 384 688
188 404 748
184 416 796
200 420 836
212 424 868
228 428 896
128 280 168
120 292 176
116 296 192
104 308 232
108 308 260
108 292 288
120 288 324
136 304 380
152 336 456
164 356 520
176 400 612
176 432 688
192 456 748
192 472 800
208 472 836
216 468 864
224 472 896
132 356 192
124 356 200
124 368 216
112 384 248
112 396 288
112 388 336
116 372 368
132 376 408
144 384 472
164 416 536
176 448 612
184 488 688
196 500 748
196 516 804
204 520 836
216 524 864
232 524 896
136 432 220
132 436 232
132 440 244
116 456 276
120 472 324
112 492 380
120 480 420
120 460 452
128 460 504
152 476 572
160 504 644
184 532 700
200 552 752
204 568 808
208 568 836
208 568 864
208 556 892
144 508 252
140 516 264
140 524 284
124 544 324
120 556 356
112 564 424
108 572 472
120 560 512
120 552 552
136 552 608
144 564 660
160 588 720
184 596 768
196 612 812
216 616 840
220 616 872
220 608 892
144 580 292
144 600 312
144 604 324
128 616 364
132 628 400
116 640 452
104 648 508
112 656 564
116 644 608
120 636 640
132 632 696
148 648 744
164 656 780
172 656 824
196 652 848
216 652 868
224 652 896
152 656 336
144 668 348
148 672 372
136 680 404
136 688 432
124 700 484
108 720 548
108 728 592
100 728 644
104 712 680
108 700 720
120 700 760
136 708 800
140 712 836
164 700 852
180 696 876
188 692 896
152 716 376
152 724 396
148 728 408
140 736 444
140 744 472
128 752 516
116 772 572
112 784 624
104 796 680
104 792 724
108 776 752
108 764 784
116 756 808
124 756 848
136 748 864
136 736 884
144 736 900
156 768 420
148 772 436
156 776 452
144 784 484
140 792 512
132 808 556
120 820 604
116 828 640
100 844 700
108 840 740
112 832 780
108 820 812
112 808 832
116 800 860
124 792 876
136 780 900
136 772 908
156 808 468
156 820 480
160 820 496
152 832 528
144 832 544
140 840 580
124 856 620
120 860 648
116 872 696
108 880 744
104 880 788
104 876 824
120 856 844
116 844 864
120 832 884
128 820 904
128 812 920
224 836 520
224 840 540
228 844 552
224 852 580
208 860 596
172 872 620
144 884 644
132 888 672
116 896 708
116 908 752
108 912 792
100 912 832
108 900 852
108 892 872
128 876 892
132 860 908
128 848 924
344 856 580
332 864 592
332 864 604
324 876 620
304 880 636
264 884 656
204 900 676
140 912 696
124 920 720
128 924 744
120 936 784
100 944 824
112 932 852
108 924 880
124 912 900
132 892 908
128 880 924
120 92 100
116 100 124
120 96 144
116 104 164
124 108 188
128 112 224
124 120 276
136 128 344
140 140 420
148 148 484
148 160 560
152 172 632
164 192 700
172 212 752
180 236 812
200 260 852
216 280 892
116 108 100
116 112 132
120 112 140
124 120 164
128 120 188
128 124 232
132 136 288
140 140 356
140 152 420
148 160 492
152 176 572
160 192 644
172 208 708
176 236 768
192 252 816
208 276 860
224 304 884
116 128 112
124 128 136
124 124 144
120 128 160
128 132 188
132 144 236
132 156 280
140 156 344
144 168 420
156 188 504
156 200 572
164 224 644
176 244 712
180 268 768
196 284 816
208 304 856
224 328 896
128 152 124
120 156 140
120 152 148
124 144 172
128 152 196
136 164 228
140 172 284
140 184 356
152 204 436
156 220 512
160 248 596
168 272 664
176 292 724
184 308 788
204 328 820
216 340 864
236 352 888
120 180 136
116 188 148
116 192 168
124 184 188
128 180 204
128 184 240
144 204 292
148 216 372
152 248 448
160 272 520
172 296 600
176 328 680
184 352 748
192 364 804
204 364 832
220 376 868
232 392 892
124 224 152
116 232 164
116 248 184
116 244 200
124 236 232
132 228 256
132 232 296
144 256 352
156 288 436
168 320 524
176 360 616
180 384 684
192 408 752
196 416 800
212 420 840
224 424 868
240 432 892
132 284 172
124 296 180
116 300 196
120 308 228
120 312 264
128 296 296
132 296 328
144 304 376
160 332 444
176 364 532
184 404 612
192 440 688
196 460 756
200 468 800
216 472 840
228 476 872
244 480 900
136 352 192
132 360 204
132 372 224
116 388 252
124 396 296
120 392 336
128 376 376
136 376 420
152 392 476
172 420 552
184 452 616
192 488 692
204 508 760
212 524 808
216 528 848
228 520 868
248 528 896
144 436 216
140 440 236
128 452 248
120 460 276
120 472 320
120 492 372
128 484 424
132 468 456
140 468 512
152 484 568
172 508 636
196 532 700
204 552 752
216 572 804
224 568 844
220 572 872
220 560 892
144 508 248
144 520 264
140 532 288
132 536 312
120 552 360
124 564 416
120 580 476
128 568 516
136 552 556
144 548 604
156 572 660
172 588 720
188 604 764
208 620 812
224 620 844
232 616 876
232 612 896
156 584 296
144 600 312
140 604 328
132 616 360
128 628 404
116 640 456
112 656 516
116 660 560
128 648 608
132 636 652
144 640 696
152 648 744
164 652 788
180 656 824
200 656 848
228 656 876
240 652 888
156 656 336
148 660 344
144 668 372
140 684 408
132 692 448
124 708 496
112 724 552
104 724 600
112 728 648
116 712 684
116 704 724
132 708 768
140 708 804
160 708 836
172 704 860
192 696 876
212 692 900
156 716 376
156 720 396
148 724 412
148 740 448
140 744 480
128 760 516
120 772 572
112 784 628
104 796 680
104 788 716
104 772 756
116 768 788
120 756 816
124 756 848
132 748 868
136 736 884
144 736 900
164 772 424
156 772 440
152 780 456
144 784 484
140 792 520
136 808 560
124 812 600
120 832 648
108 844 700
100 844 748
104 836 780
108 820 812
120 812 832
116 800 860
124 792 880
136 780 900
140 776 912
164 804 460
168 820 484
160 820 500
152 828 524
140 832 548
136 844 584
124 856 628
124 860 660
116 872 696
108 880 748
100 880 796
104 876 824
108 856 844
120 844 868
120 832 888
132 824 912
136 812 916
244 832 520
248 840 540
248 852 564
252 852 588
240 860 604
188 868 616
144 880 652
128 892 676
120 896 700
112 912 748
108 912 796
108 912 828
108 900 852
116 892 876
120 880 892
128 860 908
132 852 924
364 856 580
352 860 588
356 868 612
348 876 628
332 880 640
288 884 656
220 896 680
140 908 692
136 920 724
128 928 748
108 940 784
108 944 824
108 936 852
116 928 884
116 916 904
128 892 912
132 880 924
140 100 108
144 100 120
144 100 148
140 96 172
136 100 192
136 112 232
152 116 284
152 128 344
156 136 416
164 144 488
168 156 556
172 168 628
180 184 700
192 200 760
196 228 812
216 252 852
232 276 896
140 108 104
144 108 128
136 120 148
136 120 172
140 124 200
144 128 240
144 136 288
152 144 348
156 148 424
168 156 496
172 172 568
180 188 644
184 208 712
200 224 764
208 252 816
224 272 860
240 300 888
136 132 112
136 128 124
136 132 152
136 132 168
144 136 196
144 148 244
152 156 300
156 160 356
164 176 444
164 184 496
176 204 576
184 220 652
188 240 716
200 260 780
216 280 816
232 300 856
244 328 892
136 148 124
144 156 140
140 156 156
144 156 172
140 160 204
148 168 240
156 172 288
152 188 364
164 204 432
172 224 512
180 248 596
184 268 656
196 288 724
208 308 772
216 328 816
236 344 860
252 356 888
136 188 140
148 192 156
140 192 168
136 184 184
144 184 212
148 188 240
160 208 292
160 220 360
168 248 448
172 272 520
188 296 604
196 332 684
204 348 740
212 356 788
220 372 832
240 388 868
252 396 892
144 232 164
148 228 168
144 244 184
136 248 208
140 228 232
148 232 260
156 240 308
164 264 372
176 296 456
188 328 536
192 360 616
204 388 692
204 408 752
216 420 804
228 428 840
240 428 872
260 440 896
144 284 176
156 288 188
148 296 200
144 316 232
140 316 268
140 304 300
148 292 328
160 312 384
172 340 452
188 372 532
196 412 620
212 448 696
216 464 756
224 476 808
232 480 840
244 480 872
268 484 896
144 356 196
148 368 204
144 376 228
148 384 248
136 396 292
140 396 340
144 384 376
156 380 428
168 392 472
188 424 544
204 460 628
216 492 704
220 516 760
228 528 808
228 528 844
248 528 868
272 532 896
144 432 220
144 440 240
140 452 252
144 460 284
148 476 324
140 488 376
144 488 424
148 472 464
160 476 520
176 488 580
188 520 648
216 532 704
228 564 760
240 576 812
240 576 844
248 572 876
248 568 892
148 520 256
148 516 268
144 528 292
136 540 320
136 552 356
144 560 412
144 576 472
140 568 512
148 556 556
156 556 608
176 568 664
188 592 716
208 608 772
228 616 808
248 620 840
252 620 872
256 616 900
156 588 292
152 600 316
148 608 332
144 616 364
132 624 396
132 640 452
132 656 508
136 664 568
132 656 612
140 636 648
156 636 692
172 644 740
188 652 796
208 664 820
232 668 852
248 660 876
260 660 896
160 656 336
156 660 356
152 672 376
148 680 404
136 692 444
124 712 488
124 720 540
124 728 608
128 732 652
128 716 688
132 708 732
156 708 768
160 708 804
180 712 832
196 704 860
216 696 880
232 696 888
168 716 380
160 724 400
152 724 412
152 740 448
140 748 484
132 764 528
124 776 576
112 784 628
108 788 680
112 788 724
112 776 760
116 764 792
140 760 824
144 760 848
160 748 872
168 740 888
168 736 900
168 764 420
164 768 440
160 780 460
152 788 484
148 800 528
140 808 552
132 816 596
116 828 644
108 840 700
112 844 752
104 836 776
108 820 804
120 812 832
124 800 860
128 796 884
140 788 900
140 768 908
172 808 464
168 812 472
172 820 504
184 824 528
184 828 560
164 836 584
136 856 624
128 860 656
112 872 700
112 884 752
104 880 796
112 872 824
112 860 848
120 844 864
124 840 888
132 824 912
140 816 920
276 832 524
280 836 548
280 848 564
272 852 572
268 852 600
224 868 620
184 876 640
132 888 676
132 900 716
112 912 748
112 912 796
112 908 836
112 904 860
116 888 872
124 872 888
132 860 908
132 852 924
396 852 584
388 860 600
388 864 612
380 872 628
372 880 648
332 884 664
256 892 672
176 908 700
132 920 724
124 924 748
112 940 784
112 944 832
112 932 860
116 924 884
124 912 904
132 892 912
132 880 924
172 100 100
180 100 120
180 100 152
172 100 180
172 100 208
172 104 252
168 112 296
172 120 356
180 136 416
188 140 488
196 156 560
196 168 632
204 180 696
208 200 756
220 220 808
236 240 852
248 268 896
168 116 100
168 112 116
176 116 152
168 116 176
168 120 216
164 128 256
168 132 300
176 136 352
180 148 424
188 160 496
196 172 576
200 180 636
208 196 704
220 220 760
228 236 820
240 272 864
