滤镜资源/vsco 137 3dl+cube/VSCO 137 3dl/VSCO G3 Portraits.3dl
#Generated by Picture Instruments - Look Converter
3DMESH
Mesh 4 10
0 64 128 192 256 320 384 448 512 576 640 704 768 832 896 960 1023
0 0 0
0 0 28
28 8 72
0 8 132
28 12 188
0 12 268
0 16 348
32 28 416
4 28 492
36 32 556
12 36 608
8 40 668
36 44 696
12 48 736
32 48 760
4 48 804
0 48 836
4 20 12
0 32 32
24 36 72
0 36 120
32 40 176
0 44 260
0 48 336
32 56 412
0 68 484
36 64 540
4 72 608
0 68 660
32 72 688
0 76 728
36 72 752
4 76 788
0 80 828
16 56 36
0 56 44
24 68 76
0 76 124
28 76 184
4 84 252
0 88 332
36 92 400
0 104 476
32 108 536
4 112 600
0 104 644
32 108 680
0 116 724
32 112 748
4 124 784
0 124 820
12 100 60
12 92 72
24 100 84
0 116 124
28 120 180
0 132 256
4 136 328
36 148 396
4 148 468
36 152 524
4 156 584
0 160 632
36 160 668
0 160 704
32 164 736
8 176 764
0 176 800
28 156 92
24 156 112
32 156 116
0 168 128
28 184 176
4 196 248
0 200 324
32 204 388
4 220 468
32 220 524
8 224 576
0 224 628
32 228 656
0 228 696
32 232 716
8 240 752
4 236 788
36 224 132
40 220 140
44 212 164
12 228 180
28 240 172
8 256 240
0 276 324
28 280 388
0 288 468
32 284 528
12 296 588
0 304 632
32 300 660
0 308 688
32 308 728
12 312 760
0 316 792
52 292 172
52 292 192
52 284 208
40 284 232
32 308 236
8 324 240
0 328 300
28 360 392
0 368 476
32 368 528
12 380 584
0 380 628
32 376 660
0 392 700
32 384 720
12 388 756
0 392 784
64 368 208
60 368 232
68 364 248
52 360 280
44 368 292
16 396 296
0 408 304
24 412 356
0 444 456
28 448 520
12 456 580
0 460 624
32 464 656
0 472 692
32 476 720
16 480 756
0 476 784
72 436 252
76 436 272
76 432 288
68 424 320
56 420 340
32 452 352
4 476 364
28 484 356
0 488 428
24 520 520
16 532 580
0 536 628
28 540 660
0 544 696
32 540 724
20 548 752
0 548 784
88 496 288
84 500 312
84 496 328
76 488 356
72 480 384
44 496 396
16 524 404
28 536 392
0 548 424
28 552 492
20 584 572
0 604 624
28 604 660
4 612 700
28 608 728
20 612 764
0 616 792
96 548 316
96 544 336
100 544 356
84 532 388
80 524 412
60 536 432
32 564 440
32 584 440
0 600 448
28 604 476
16 608 536
0 636 608
28 656 664
0 664 696
28 664 724
20 668 756
0 672 788
108 584 336
100 584 356
108 584 376
92 576 412
92 568 440
72 572 460
36 596 468
32 620 476
0 640 480
24 644 480
20 648 532
0 648 576
24 664 620
0 696 684
28 704 720
24 712 760
0 712 784
108 616 356
108 616 380
112 620 400
100 612 436
92 596 448
80 596 488
48 624 496
40 644 500
0 676 504
28 680 504
20 688 528
0 684 572
28 680 612
0 700 652
28 728 704
24 748 756
4 752 788
120 648 376
116 644 396
120 644 420
104 640 452
100 628 476
80 620 508
56 644 512
44 672 516
4 696 528
24 704 520
20 716 532
0 716 572
24 716 600
4 716 636
24 728 680
24 756 740
0 780 788
120 672 384
120 680 412
124 676 432
108 672 464
104 652 484
88 648 520
64 672 540
52 688 540
12 720 552
24 736 548
20 736 544
4 752 572
24 744 596
0 748 628
28 744 660
24 756 708
0 788 768
128 700 404
124 704 424
124 704 452
112 700 480
112 688 508
96 672 540
72 696 560
60 716 560
20 740 572
24 764 568
24 764 572
4 776 572
28 776 592
0 780 636
24 780 664
24 776 700
0 796 740
132 728 416
124 732 440
124 728 460
116 716 496
112 712 520
104 692 564
80 712 572
60 732 584
28 760 600
36 780 596
24 784 592
0 796 588
24 800 592
0 812 628
24 812 660
32 808 692
20 808 716
20 8 0
32 0 36
20 0 76
12 0 132
12 0 200
4 0 268
0 0 348
0 0 432
0 8 504
0 12 568
8 20 624
8 24 668
8 24 700
12 24 740
16 28 776
0 24 816
0 24 844
8 28 4
20 32 36
16 32 80
20 40 136
16 36 204
16 44 284
16 48 356
16 48 436
8 56 504
12 56 576
8 60 640
8 60 680
8 60 724
4 60 748
8 64 792
4 68 824
4 68 856
8 56 20
28 60 52
20 72 80
20 84 136
16 80 196
16 80 268
8 88 344
8 88 424
4 96 496
8 100 568
8 100 620
4 104 672
8 100 712
4 104 740
8 108 780
4 104 816
0 108 848
16 104 48
36 108 76
28 108 92
16 128 132
16 128 196
12 136 268
12 136 340
12 144 416
8 144 492
4 152 560
4 156 616
0 160 664
4 152 700
0 156 736
4 160 768
4 160 812
0 160 836
28 152 72
48 168 120
44 160 136
20 172 136
20 196 192
12 204 264
8 204 344
12 208 420
4 224 492
4 216 552
4 216 608
0 224 656
0 224 696
0 224 724
0 224 760
0 236 784
0 232 820
36 220 108
52 228 144
52 232 168
40 232 188
16 252 196
16 264 256
12 288 340
8 292 416
8 296 488
4 304 556
4 308 612
0 300 652
0 304 688
0 308 720
0 308 752
0 308 788
0 312 816
48 304 160
72 304 196
72 300 212
56 288 240
36 312 252
12 336 252
12 352 316
12 376 412
0 380 484
0 380 552
4 388 608
0 388 660
0 392 700
0 388 724
0 396 756
0 396 788
0 396 816
64 372 192
76 376 232
84 376 256
72 368 284
52 376 300
36 396 312
12 420 316
8 428 384
8 464 492
4 472 560
4 468 608
4 476 656
0 476 688
0 480 724
0 488 756
0 484 784
0 480 812
76 436 232
92 440 272
92 444 300
84 436 328
72 428 348
56 456 368
28 480 368
8 500 376
8 508 440
0 544 548
4 552 608
0 556 660
0 560 692
4 556 724
0 560 756
0 568 784
0 568 816
88 500 272
104 504 312
108 504 336
96 496 364
88 488 392
68 504 408
40 532 412
20 552 420
4 572 436
4 572 500
0 612 588
0 628 652
0 636 696
0 632 724
0 632 752
0 636 788
0 636 816
96 544 296
112 556 344
116 556 364
108 552 396
96 540 428
76 540 440
56 568 452
28 596 456
12 616 464
4 636 500
4 636 564
0 652 624
0 688 692
0 688 720
0 688 752
0 696 788
0 696 816
100 584 316
124 596 356
120 596 384
116 584 420
104 572 444
92 572 476
68 600 476
40 624 484
12 652 492
0 676 504
0 680 552
0 684 604
0 700 652
4 724 716
4 732 756
0 736 788
0 740 816
108 620 340
124 624 376
128 628 408
120 620 436
116 612 464
96 600 496
68 628 504
48 648 512
24 676 512
8 696 520
0 716 548
0 720 596
0 720 628
0 724 676
0 756 732
0 772 780
0 776 812
112 648 356
128 652 396
136 656 424
128 648 456
120 632 480
104 628 512
80 644 524
56 676 532
36 700 540
12 724 540
0 752 552
4 748 592
0 744 632
0 748 664
0 760 708
0 788 768
0 812 812
120 676 376
136 684 412
132 684 440
136 676 468
124 668 500
112 652 532
92 676 552
68 700 560
36 720 556
24 740 564
0 764 568
0 776 588
0 776 624
0 776 656
0 776 692
0 788 736
0 820 796
124 704 384
140 708 424
144 712 460
136 712 488
128 696 516
116 684 544
100 696 568
72 720 576
52 740 580
28 772 584
8 784 584
0 800 592
0 804 620
4 812 652
0 808 692
0 812 724
0 820 764
128 732 400
140 736 432
144 732 460
144 732 504
128 720 532
120 704 568
104 716 588
84 736 596
56 756 600
36 780 608
12 804 612
0 816 604
0 836 620
0 840 644
0 836 684
24 832 716
20 832 744
52 16 0
56 0 0
84 4 88
60 0 148
40 0 204
36 0 276
32 0 356
24 0 440
24 0 508
20 0 580
16 8 628
20 12 672
16 12 708
16 12 744
20 16 780
8 4 820
4 0 852
52 32 0
52 32 32
56 36 84
52 36 132
44 28 200
36 32 280
32 36 360
24 32 432
28 40 516
28 32 580
24 36 640
20 36 688
24 48 728
24 44 760
24 44 792
20 44 824
16 48 860
28 60 8
44 68 48
52 76 84
52 80 136
52 80 200
48 88 280
44 88 364
40 88 440
44 92 516
40 96 580
40 96 640
40 100 688
40 108 728
36 104 756
40 100 792
32 108 828
32 108 860
16 100 32
48 108 64
56 116 96
56 132 136
52 136 200
48 136 268
40 140 348
40 144 424
36 148 496
40 148 568
32 156 624
40 152 672
32 156 704
36 156 740
32 156 780
32 160 824
32 156 844
28 152 60
60 172 104
72 172 140
60 176 156
52 204 200
48 204 272
44 204 348
44 208 416
36 216 496
36 220 556
32 224 616
28 228 668
32 232 704
32 220 732
32 220 772
28 232 804
28 228 828
40 224 100
68 236 136
88 244 180
76 236 196
52 252 208
52 272 268
44 288 352
40 292 420
40 292 504
36 304 560
32 304 616
32 300 664
24 304 696
32 308 732
32 308 764
28 304 804
20 304 824
52 292 140
88 308 180
100 312 220
96 304 244
76 316 268
48 336 264
48 348 320
40 380 416
36 380 488
40 388 560
36 396 612
32 396 664
28 392 696
28 392 736
32 396 764
24 400 800
24 400 824
64 372 184
96 380 224
112 388 264
108 376 288
92 376 312
72 396 320
52 424 328
40 432 388
36 464 488
32 472 556
36 476 620
28 480 660
28 480 700
32 488 732
24 484 760
24 484 800
24 484 832
76 440 224
104 444 256
120 448 300
116 444 336
112 436 360
84 456 372
64 480 384
40 508 384
40 516 456
32 552 560
36 560 624
28 552 664
24 564 704
32 564 740
32 564 772
28 576 804
24 564 824
88 500 260
116 508 296
136 508 336
124 508 372
120 496 396
100 508 416
80 528 424
52 552 432
32 580 452
36 580 512
32 616 596
28 632 656
28 636 696
24 632 732
28 632 756
24 640 800
24 640 824
96 548 284
124 556 324
140 564 368
140 556 400
124 544 428
116 544 448
88 568 460
64 596 468
44 616 472
32 636 508
36 640 564
32 660 632
28 692 700
32 696 736
32 696 768
20 700 796
24 700 832
100 588 304
136 596 344
152 600 392
152 596 424
136 588 456
124 580 484
96 604 488
80 628 500
56 656 504
36 676 512
32 684 560
28 688 608
24 700 660
28 736 720
32 740 764
28 748 800
28 748 828
104 616 324
140 632 368
156 632 412
152 632 444
148 620 476
136 604 508
108 632 516
80 652 524
64 680 528
40 696 532
32 724 564
28 724 608
32 728 644
32 740 688
32 768 752
24 784 796
24 784 824
116 648 340
140 656 376
156 660 420
160 656 456
148 656 496
136 636 520
120 656 540
92 676 544
68 700 548
48 724 552
28 744 560
24 752 596
24 756 636
28 752 668
28 764 716
24 800 780
24 812 824
116 672 352
148 688 396
160 688 440
164 688 472
156 684 508
140 664 540
128 672 564
100 696 568
76 728 572
52 744 576
40 764 576
28 788 600
24 788 632
24 788 672
32 784 708
28 804 752
24 824 804
120 700 372
160 712 416
176 720 468
168 716 488
164 704 524
148 692 552
132 696 580
104 728 592
88 752 592
56 772 600
48 792 596
32 812 604
20 816 632
24 816 660
24 824 700
28 816 736
24 832 772
128 728 384
160 736 432
172 740 468
168 744 496
164 728 540
152 716 572
136 716 604
112 740 612
92 764 616
72 788 624
48 808 616
32 820 620
24 844 632
24 852 660
24 848 692
32 844 732
32 844 752
96 24 0
100 8 8
104 8 24
140 8 132
128 0 216
100 0 288
80 0 368
76 0 444
68 0 512
60 0 576
56 12 640
52 12 684
52 12 724
52 12 756
48 12 784
44 0 820
44 0 860
92 44 0
96 44 28
96 40 44
128 40 152
112 32 220
84 36 284
76 32 368
72 32 444
64 36 516
60 24 584
56 28 648
48 28 692
40 32 728
48 24 760
48 24 804
36 28 836
