滤镜资源/vsco 137 3dl+cube/VSCO 137 3dl/VSCO N3 New Modern.3dl
#Generated by Picture Instruments - Look Converter
3DMESH
Mesh 4 10
0 64 128 192 256 320 384 448 512 576 640 704 768 832 896 960 1023
20 64 20
24 64 40
40 68 68
24 68 124
40 72 244
32 76 384
32 76 500
48 76 576
36 80 644
48 72 696
44 88 732
40 88 772
56 80 796
44 92 824
60 88 848
48 92 864
40 92 876
20 96 20
20 92 44
44 100 76
28 96 120
44 100 228
32 100 372
32 104 496
48 104 580
32 112 656
52 104 696
40 112 744
44 108 784
56 112 808
48 116 840
60 108 856
48 116 864
48 116 880
24 136 28
28 140 44
44 136 72
24 136 120
44 136 236
36 140 372
36 148 500
48 144 580
40 148 652
56 148 700
40 156 744
44 148 784
64 148 816
52 156 836
64 156 856
60 164 872
60 164 888
28 216 28
24 212 44
44 204 68
24 208 128
44 204 240
28 212 392
36 220 508
48 224 596
40 224 656
56 220 712
48 224 748
48 228 792
60 224 820
52 224 844
68 224 864
68 228 880
68 228 892
28 320 28
24 324 40
48 312 68
28 320 132
48 308 228
36 324 368
32 328 492
52 324 584
36 336 648
56 332 708
48 324 744
52 328 796
64 324 816
60 328 844
76 324 860
68 328 876
68 328 896
36 444 28
28 436 44
48 436 72
28 440 132
48 436 232
36 440 372
28 440 492
52 436 580
44 440 656
56 436 720
52 436 760
52 436 800
64 432 816
60 436 852
76 428 864
76 428 876
76 432 896
36 536 36
32 536 44
52 536 76
28 536 128
48 532 236
36 536 368
28 540 492
48 532 592
36 536 664
56 524 712
56 532 756
48 524 800
68 520 820
64 528 852
80 520 864
88 516 888
88 516 896
40 604 36
32 612 40
48 612 68
32 616 124
48 612 224
40 612 352
32 616 476
48 612 576
40 608 648
52 604 704
52 608 752
56 604 796
68 596 820
68 596 848
80 596 868
84 592 880
92 592 896
40 672 32
36 672 48
48 672 72
32 672 120
48 668 220
40 676 360
36 676 476
48 672 560
36 672 640
52 668 704
52 660 760
52 660 796
72 660 824
76 660 852
80 652 864
84 648 884
96 648 892
40 720 40
32 728 56
52 724 76
40 728 128
52 724 216
48 724 344
36 728 472
52 724 564
40 724 636
48 720 704
48 712 748
48 716 792
68 708 824
68 708 856
80 700 864
88 700 884
96 700 892
40 768 40
36 772 52
56 768 72
40 772 124
52 764 208
44 768 340
36 768 448
52 768 544
36 772 624
52 768 688
48 768 748
44 768 788
64 752 820
64 760 852
76 752 864
80 752 880
96 748 892
48 804 44
36 808 52
52 808 80
44 808 120
52 808 196
48 804 312
44 812 432
56 808 536
40 812 608
56 808 668
48 808 728
40 808 780
60 804 820
60 804 848
76 792 868
80 792 884
88 792 896
44 836 40
44 844 52
56 836 72
40 840 112
56 840 192
52 840 300
44 840 420
56 840 512
40 840 596
56 844 660
52 840 716
40 844 772
52 832 804
52 836 840
68 832 856
76 828 884
76 828 892
44 868 40
44 864 48
56 864 72
44 872 112
60 868 180
56 864 300
44 872 408
56 868 504
48 868 580
56 868 644
52 868 708
40 872 760
56 864 804
40 864 832
60 856 856
72 860 880
72 856 892
48 884 44
44 892 56
60 888 68
44 892 112
60 888 180
56 892 272
44 896 384
60 888 484
52 896 580
64 892 640
56 892 696
44 892 748
60 884 788
48 888 824
56 888 848
64 888 876
64 888 892
56 908 44
44 912 52
60 908 72
44 912 112
60 908 176
60 908 280
52 912 380
60 904 476
48 912 564
60 908 628
60 904 688
52 912 740
60 908 776
48 912 816
56 908 848
56 904 872
52 904 888
56 916 44
44 920 52
60 916 72
44 920 112
60 916 172
64 916 276
56 924 380
72 920 480
56 924 564
68 920 624
60 920 680
52 924 732
60 924 776
48 920 816
56 920 836
68 916 868
56 916 876
52 68 20
48 68 44
56 68 72
52 68 124
56 72 240
52 72 380
56 76 504
56 80 584
60 80 648
64 80 704
60 84 736
60 84 772
68 88 804
64 92 832
68 92 848
72 88 876
72 92 884
52 96 24
56 96 44
48 100 72
52 104 132
56 104 248
64 104 396
60 104 504
68 108 588
64 112 656
64 112 704
72 116 748
76 120 784
76 120 816
72 116 840
72 120 856
80 128 876
84 128 888
56 140 28
52 136 48
56 136 76
56 148 132
56 148 236
56 144 380
56 152 496
60 152 588
68 156 656
68 164 708
72 160 748
72 164 780
80 168 808
80 168 836
88 168 860
84 172 880
88 176 888
52 220 28
52 212 44
52 216 72
56 216 132
56 220 244
56 220 380
60 216 500
64 224 592
68 228 656
72 232 712
76 240 752
76 248 788
80 236 812
88 240 844
92 248 864
96 248 876
100 252 888
56 320 20
56 332 48
60 324 76
56 316 136
60 320 248
56 328 380
64 328 508
72 332 596
68 344 660
72 340 716
84 340 756
80 344 788
92 340 824
96 344 844
96 340 864
104 352 884
108 352 896
56 440 28
56 444 48
60 456 72
60 448 132
64 448 248
60 436 376
64 444 504
68 444 592
72 444 656
72 452 716
80 456 760
88 448 792
88 444 820
96 444 848
108 448 868
116 448 880
116 448 892
56 548 28
68 544 48
60 544 80
60 540 136
64 544 244
56 540 376
64 544 500
60 540 584
68 540 652
72 536 716
80 540 760
88 532 796
104 532 828
104 536 852
108 536 872
120 536 884
128 532 888
60 616 28
60 616 52
64 616 76
68 616 140
64 620 236
68 620 380
68 616 492
64 612 588
72 616 664
76 608 720
80 604 764
92 604 800
96 604 824
104 600 852
120 604 872
132 600 892
136 600 892
64 676 28
60 672 52
64 676 80
68 676 136
72 676 236
68 684 356
60 676 476
68 676 572
68 676 648
72 676 704
76 672 752
88 668 796
96 668 828
108 660 852
120 660 872
124 660 888
144 660 892
64 728 36
68 728 60
72 728 88
68 724 136
68 728 228
68 728 356
68 732 480
72 736 568
68 732 636
68 724 700
72 720 752
84 720 796
96 720 832
108 720 848
112 712 872
132 712 884
156 708 896
60 772 32
68 768 52
68 768 84
68 772 136
72 776 228
72 772 344
68 772 464
68 776 556
68 772 632
68 768 688
72 768 748
80 764 788
88 760 824
104 760 848
112 760 868
128 752 888
148 752 892
68 808 28
72 808 56
68 812 84
76 808 140
72 808 232
72 812 344
72 812 456
72 808 544
68 812 616
76 808 680
72 812 736
76 808 784
84 808 820
92 800 844
104 796 868
124 796 892
136 792 896
64 844 40
72 844 52
72 844 84
76 844 136
76 840 216
76 844 324
72 844 432
72 844 536
80 844 612
76 844 668
72 844 716
72 844 772
76 844 808
84 840 840
96 836 868
112 832 884
116 832 892
64 872 36
72 868 56
72 872 88
80 872 128
76 872 208
80 868 320
76 868 424
80 868 524
84 868 592
80 872 660
80 876 708
76 872 764
76 872 804
76 864 840
92 868 860
96 860 884
112 860 896
68 888 36
76 892 60
72 892 88
80 888 136
84 896 216
76 892 312
80 896 428
88 896 516
84 896 592
80 896 648
84 896 704
80 892 752
80 892 792
84 888 836
76 888 856
84 884 880
100 884 892
68 908 36
80 912 64
76 908 88
84 908 132
88 916 208
84 912 304
80 912 408
88 912 500
92 912 580
84 912 644
88 916 688
84 912 748
84 912 784
80 908 816
84 908 844
80 912 872
80 904 888
68 924 40
80 920 64
76 920 88
84 924 132
84 924 208
88 920 304
84 924 408
92 920 500
92 924 580
92 924 640
88 924 688
84 924 736
88 928 780
84 928 816
84 924 844
84 916 860
84 916 884
80 72 24
80 72 40
84 68 76
92 68 124
92 76 232
92 76 372
92 72 488
96 80 588
92 76 652
100 80 704
96 84 736
92 92 768
96 92 804
96 92 832
96 96 848
104 96 876
100 96 888
84 92 20
88 100 48
88 100 76
92 100 132
100 104 248
100 112 384
100 108 504
100 112 588
104 112 652
100 116 712
108 116 756
108 116 788
108 124 816
112 124 840
116 124 856
116 128 876
120 132 888
88 136 28
92 136 52
100 144 80
96 144 140
96 152 252
100 148 392
100 152 512
108 160 596
116 164 660
120 168 708
120 168 756
124 176 792
128 176 816
128 184 840
128 180 860
136 188 872
136 192 884
92 212 28
88 216 44
92 220 76
100 216 140
100 232 252
100 224 384
104 228 500
108 236 596
116 240 656
120 240 712
128 256 756
128 252 784
136 252 812
144 256 840
148 264 864
152 268 876
152 268 884
100 320 28
96 332 52
96 328 76
100 328 140
104 332 256
100 332 388
112 340 512
112 336 588
116 348 660
128 352 716
132 352 760
140 364 792
148 368 824
156 356 836
156 356 860
164 372 876
168 372 888
92 440 28
104 448 48
104 460 84
104 448 144
100 448 260
104 448 388
108 448 512
116 456 596
124 452 668
128 460 716
140 460 760
144 460 788
148 460 816
164 464 848
176 464 864
180 464 880
184 464 892
92 536 28
104 540 52
104 548 88
104 552 144
108 548 256
112 548 384
104 544 496
104 544 588
116 544 656
132 548 712
136 552 756
152 548 800
164 544 824
172 544 848
180 548 864
192 544 880
208 544 892
96 616 32
104 620 56
104 620 84
108 616 148
100 620 252
108 616 384
104 616 500
108 616 592
112 616 656
128 616 716
136 616 764
156 616 796
168 616 824
184 612 848
188 612 868
196 608 888
220 608 888
100 676 28
104 676 52
108 680 88
108 676 148
116 680 264
108 680 372
112 676 492
112 680 580
112 676 652
120 676 712
136 672 756
152 664 796
160 668 824
184 672 852
196 668 868
216 668 888
220 668 896
96 728 40
100 732 48
116 732 92
116 728 144
112 728 248
112 732 368
120 736 480
112 728 564
116 728 640
116 728 700
128 728 748
148 720 792
160 724 824
172 716 852
192 720 868
212 712 884
244 712 896
100 772 32
108 776 60
120 776 100
124 776 152
120 776 244
124 776 364
120 776 480
120 780 568
124 776 636
120 772 700
120 772 744
136 768 788
152 768 824
176 764 852
192 768 868
200 764 888
232 760 888
100 808 32
104 812 60
116 808 96
120 808 160
124 816 256
124 816 360
120 812 468
124 812 556
120 816 628
128 812 688
120 812 740
124 808 784
136 804 820
164 804 844
180 800 864
200 804 888
224 804 892
96 840 40
108 844 60
120 844 96
124 840 164
128 844 248
128 848 364
132 848 468
124 848 556
128 844 620
120 848 676
128 844 732
128 844 776
132 840 820
148 840 840
164 840 868
184 836 876
192 832 892
96 872 40
112 868 60
124 868 100
132 872 164
132 876 248
132 868 352
136 868 456
132 868 536
140 868 608
140 868 672
132 868 716
132 872 768
132 872 808
132 872 840
148 868 868
168 872 884
184 864 896
104 896 48
108 892 60
124 892 108
136 892 164
144 896 260
136 896 352
140 896 444
140 896 540
136 892 608
140 892 664
144 896 716
140 896 760
136 896 800
132 892 828
132 888 860
152 892 884
164 892 884
104 908 44
116 912 68
132 912 108
136 912 168
140 912 252
140 912 348
148 912 448
148 916 532
152 912 600
144 912 660
144 916 704
148 916 748
144 912 800
144 908 828
140 912 852
136 908 872
148 908 884
104 924 44
116 924 68
132 920 112
136 924 172
144 924 252
148 924 360
152 920 456
156 924 536
152 920 600
156 920 660
148 924 700
148 928 748
144 928 792
148 928 820
144 924 852
144 920 868
144 920 884
116 68 20
128 68 40
140 72 60
152 72 124
160 76 236
156 76 368
160 80 488
156 76 584
160 84 652
160 80 708
156 88 732
148 92 776
148 92 804
156 96 828
144 100 852
152 96 876
152 96 888
120 96 24
132 100 36
148 96 68
156 104 128
168 104 244
164 104 376
168 108 500
168 112 588
164 120 652
172 112 708
172 116 752
172 120 784
164 124 808
172 128 836
176 128 856
180 136 872
