滤镜资源/vsco 137 3dl+cube/VSCO 137 3dl/VSCO Q7 Alchemy.3dl
#Generated by Picture Instruments - Look Converter
3DMESH
Mesh 4 10
0 64 128 192 256 320 384 448 512 576 640 704 768 832 896 960 1023
12 40 68
16 36 92
28 40 116
20 48 148
36 48 184
32 56 244
48 56 300
84 56 360
128 52 440
204 44 508
260 36 572
340 20 644
424 20 692
508 24 764
588 40 816
676 148 888
736 256 940
4 60 88
4 60 104
24 64 120
12 68 156
32 72 188
28 80 244
44 80 300
96 80 368
136 88 440
196 76 504
256 72 568
336 56 640
428 48 696
512 48 764
592 80 816
668 172 880
736 280 940
4 84 104
0 88 116
24 92 128
0 104 160
24 108 200
8 108 252
24 120 316
72 120 376
128 124 444
188 128 508
256 128 576
332 120 640
424 112 704
508 128 768
588 160 816
664 224 884
724 308 936
4 128 124
0 132 132
24 132 144
0 140 172
24 148 212
4 156 264
0 164 332
36 172 392
100 180 456
176 180 520
244 188 580
332 184 648
416 192 708
488 200 768
576 232 824
648 284 884
716 364 944
4 180 144
4 192 160
24 188 172
0 192 200
24 196 224
8 216 276
0 220 332
24 228 384
0 236 452
120 252 516
212 252 580
300 256 644
388 264 700
468 276 768
548 300 820
628 344 876
692 416 940
8 260 180
4 260 188
24 256 196
0 260 228
24 268 248
12 276 304
0 292 348
24 296 400
0 304 456
28 308 520
120 320 584
260 340 644
344 340 696
428 352 756
528 372 820
604 416 880
672 476 940
12 340 212
4 340 220
28 344 232
4 348 264
24 348 280
12 356 328
4 368 376
24 372 416
0 380 476
24 380 520
12 388 576
136 396 640
280 408 696
384 432 768
480 448 812
564 476 872
632 520 932
12 428 240
0 432 260
24 428 268
0 436 296
28 444 320
16 436 356
0 440 388
28 448 440
4 460 492
28 456 532
12 464 576
0 468 628
152 472 684
256 476 744
380 504 804
492 532 868
580 572 936
16 512 292
0 520 296
28 516 304
0 516 336
28 516 356
16 524 396
0 528 432
28 528 456
0 528 508
28 528 548
16 536 592
0 540 644
64 548 684
164 548 736
280 552 800
380 572 860
516 616 932
16 588 336
4 592 344
28 592 356
0 600 380
24 596 396
20 592 432
0 596 468
28 592 492
0 604 528
28 600 572
20 604 616
0 608 656
32 608 692
116 616 752
196 616 796
320 628 864
420 656 928
20 656 384
0 664 400
28 660 404
0 664 428
28 656 448
20 660 476
0 660 492
28 660 532
0 664 564
28 664 596
24 660 640
0 664 672
28 660 708
88 672 760
172 676 816
264 696 872
368 716 932
20 720 448
0 720 452
28 716 456
0 724 472
28 720 488
24 720 516
0 716 536
28 716 564
4 720 592
28 712 616
24 712 648
0 716 680
32 716 720
64 720 772
136 724 808
228 740 872
352 760 932
24 776 496
0 776 508
28 772 512
0 776 520
28 776 536
24 768 548
0 772 576
28 768 592
0 764 620
28 768 648
24 768 684
0 760 700
68 760 740
88 768 784
144 772 828
232 788 884
344 816 944
24 828 564
0 832 564
28 824 568
0 820 576
28 824 580
28 824 600
0 824 624
28 812 632
0 820 656
28 812 672
24 812 704
4 816 740
72 808 764
136 808 796
172 816 840
252 832 896
348 856 956
28 868 616
0 872 628
28 876 628
0 876 636
28 864 636
28 872 648
0 868 664
28 868 668
4 872 700
28 860 704
28 856 736
0 864 768
32 856 780
120 852 820
200 860 860
260 876 904
360 896 968
40 920 688
20 924 688
40 920 684
20 920 696
40 920 700
36 916 708
16 920 716
32 916 716
0 916 736
28 916 752
28 912 772
0 912 800
28 912 824
0 912 852
184 904 880
280 912 924
380 944 992
328 964 748
316 968 752
316 964 744
308 964 756
292 964 760
280 956 768
228 964 772
124 956 780
40 952 784
48 944 796
28 956 808
0 960 836
28 960 856
0 964 896
40 952 916
280 952 944
392 972 992
44 36 68
40 40 88
44 40 112
56 48 152
56 48 188
68 52 244
84 52 304
112 52 368
160 48 448
220 40 508
284 24 576
356 20 640
440 20 704
524 24 768
604 36 824
684 136 892
744 248 936
20 64 80
24 68 104
32 72 132
36 72 156
48 76 200
60 80 256
88 84 316
124 84 384
164 80 444
216 72 508
292 64 580
364 52 648
452 40 712
524 40 760
604 88 828
680 172 888
744 280 948
0 92 104
8 96 116
16 96 144
16 108 164
24 108 204
44 116 256
68 116 320
108 120 376
160 124 444
220 124 516
280 124 576
356 116 648
436 112 704
516 124 764
600 156 828
676 216 888
736 312 940
0 136 120
0 136 132
0 140 152
0 144 180
0 156 220
0 164 264
16 164 324
68 172 392
136 180 464
204 180 520
268 188 588
344 192 644
420 184 704
508 200 768
592 232 824
664 284 884
724 356 940
0 188 144
0 192 160
0 192 180
0 192 200
4 200 240
0 216 280
0 228 340
4 232 400
56 244 464
156 252 524
248 252 592
324 264 652
408 264 708
496 280 772
568 296 828
636 344 884
700 412 940
4 264 172
0 260 188
0 272 200
0 268 228
0 272 260
0 280 300
0 292 344
0 300 408
0 304 456
32 316 516
168 328 584
276 336 644
356 348 700
444 356 764
528 380 824
608 416 880
672 472 940
4 348 216
0 356 228
0 348 240
4 348 260
0 352 288
0 364 328
0 368 380
4 376 428
0 384 476
0 384 524
52 396 584
176 396 644
304 420 708
388 428 760
480 444 816
568 476 884
648 532 940
0 436 244
0 432 256
0 436 268
0 444 300
0 440 328
0 444 364
0 444 400
0 456 444
0 460 496
0 468 540
4 460 584
64 468 636
188 476 692
284 480 756
416 512 820
516 532 876
592 576 936
4 520 292
0 520 292
0 516 312
0 524 340
0 520 360
0 528 392
0 528 432
0 528 464
0 536 512
0 536 556
0 540 596
0 540 640
108 544 692
200 548 744
296 556 804
388 572 872
516 620 932
0 592 340
4 592 344
0 596 356
0 592 376
0 600 408
0 596 432
0 596 468
4 600 492
0 604 528
0 596 572
0 608 612
0 608 656
80 608 704
148 616 752
204 616 796
320 632 864
436 660 932
0 660 388
0 664 400
0 664 408
0 664 424
0 668 452
0 660 476
0 664 500
4 660 536
0 664 564
0 660 592
0 664 640
0 664 672
64 664 712
124 672 760
184 672 812
260 688 872
372 716 928
0 724 448
0 724 448
0 720 456
0 720 480
0 720 496
0 720 520
0 716 540
0 712 560
4 720 592
0 716 620
0 716 648
48 716 688
80 720 728
108 720 768
164 728 816
256 744 884
364 764 936
0 780 496
0 776 508
0 776 516
4 780 524
0 780 540
0 776 564
0 772 576
0 768 596
0 764 620
0 768 652
0 772 680
44 764 708
116 768 748
132 772 780
164 780 828
240 784 884
356 816 948
0 832 560
0 832 564
0 828 572
0 824 580
0 824 588
0 828 604
0 820 616
0 816 636
0 820 656
0 816 676
4 820 712
4 816 740
104 812 764
160 812 800
184 816 840
252 836 892
352 856 952
0 880 620
0 872 628
0 872 624
0 876 636
0 868 640
0 876 648
0 868 664
0 868 680
0 868 696
0 864 716
4 860 740
0 864 768
8 856 792
160 860 824
212 860 856
264 876 908
372 900 968
24 920 688
24 920 688
44 924 688
40 924 696
36 924 704
0 920 700
16 920 716
8 920 728
0 916 736
0 920 756
0 916 776
0 912 800
0 916 832
0 912 852
180 908 880
288 916 924
380 936 984
324 968 748
324 964 748
328 968 756
320 968 752
308 968 760
292 964 768
248 964 768
168 960 780
44 956 788
40 952 800
0 964 816
0 960 832
0 964 864
0 964 896
16 960 908
272 960 936
396 972 992
80 44 72
80 48 96
80 48 116
104 44 152
104 48 196
120 44 244
148 48 304
172 48 376
216 32 448
272 24 516
316 20 572
384 20 640
464 20 704
548 24 768
620 36 828
696 132 884
756 256 940
80 72 80
72 68 104
72 72 120
92 68 160
104 76 208
120 84 256
140 76 316
176 76 384
212 72 448
268 64 520
324 52 584
404 36 652
472 24 712
556 36 768
628 88 832
700 176 888
752 284 944
36 100 96
48 100 112
64 108 140
64 108 164
84 116 220
108 116 268
128 120 332
160 120 388
220 116 460
256 120 520
324 120 588
400 116 656
480 112 716
552 124 772
624 152 832
688 224 892
744 316 944
0 148 116
0 152 132
24 152 160
48 152 188
40 164 228
56 168 276
96 172 332
136 176 396
192 176 452
252 180 528
308 188 592
372 188 648
448 188 708
532 204 772
600 232 828
680 288 892
736 364 936
0 200 144
4 212 160
0 208 184
4 208 212
0 216 244
0 228 288
16 236 336
64 228 404
140 248 468
212 256 528
288 260 592
356 268 648
432 272 712
508 276 764
588 300 832
660 348 884
712 416 944
4 276 172
0 276 188
0 284 208
0 280 236
0 280 264
0 292 308
4 300 360
0 308 408
48 316 472
128 324 532
236 332 588
320 340 656
392 348 708
484 364 772
560 384 828
632 408 884
680 468 932
0 352 212
0 356 220
0 360 248
0 368 268
0 364 296
0 372 332
0 376 376
0 384 432
0 388 480
48 396 528
128 404 584
224 404 644
332 420 704
424 432 756
512 448 820
580 480 880
656 528 940
0 448 248
0 452 264
0 448 276
0 448 292
0 448 328
0 452 364
0 452 400
0 464 448
0 468 496
4 468 536
72 472 596
148 472 636
240 476 700
320 484 756
432 512 816
528 536 876
616 576 936
0 524 292
0 524 300
0 524 316
0 524 340
4 532 368
4 528 396
0 532 428
0 536 472
0 540 516
0 544 560
20 544 608
116 544 648
168 548 692
248 552 748
336 556 812
432 580 884
540 616 932
0 600 344
0 600 344
0 596 356
0 600 380
0 604 408
0 600 432
4 608 468
4 600 496
0 604 524
4 604 580
0 604 616
88 608 656
152 612 700
188 616 744
240 620 796
348 632 864
460 656 928
0 664 392
0 664 392
4 668 412
0 668 424
0 668 452
0 668 476
0 664 504
0 664 536
0 672 564
0 668 596
48 660 632
92 664 672
148 668 716
180 668 760
220 680 816
288 692 868
400 712 932
0 724 448
0 724 448
0 728 456
0 724 472
0 724 500
0 728 520
0 720 544
0 720 564
4 716 596
0 720 628
84 720 656
144 716 688
140 716 724
168 720 768
204 728 816
276 740 880
376 772 936
0 780 496
4 780 512
0 776 516
4 780 524
0 780 540
0 776 564
0 776 588
4 772 608
0 764 620
0 772 656
4 772 688
140 764 708
176 764 740
184 772 788
204 772 832
272 788 888
376 812 944
0 832 564
0 832 564
0 828 572
0 832 584
0 824 592
0 828 604
0 824 620
0 824 632
0 816 656
0 816 676
0 816 708
40 812 740
152 812 764
208 812 800
224 820 848
280 840 896
372 852 956
8 880 624
8 880 628
4 876 628
4 872 636
8 876 648
8 872 656
4 868 664
0 868 680
0 868 696
0 868 720
4 860 740
0 864 768
60 860 792
196 856 816
248 864 856
292 880 912
376 896 960
136 928 684
140 920 692
160 924 692
136 924 696
136 920 704
104 916 708
60 924 720
8 920 728
0 916 736
0 920 756
0 916 776
0 912 800
0 912 832
60 912 856
236 904 888
308 912 924
388 936 984
360 968 748
360 968 752
356 964 752
352 968 756
340 964 760
328 960 768
284 960 780
204 960 780
44 956 788
40 952 800
0 964 816
0 960 836
0 964 864
4 968 896
76 960 916
304 956 940
408 972 988
140 48 76
136 52 96
136 56 112
140 52 148
164 48 188
204 32 252
224 32 320
252 24 388
284 16 452
332 0 516
384 16 580
440 20 640
512 20 704
580 24 764
648 32 828
720 140 884
780 268 944
132 76 80
132 72 100
128 76 124
132 80 156
176 76 204
200 68 264
220 68 328
252 60 388
280 64 456
332 48 520
392 28 592
452 16 648
508 4 708
580 20 768
660 92 836
720 184 892
