滤镜资源/vsco 137 3dl+cube/VSCO 137 3dl/VSCO E8 Essence.3dl
#Generated by Picture Instruments - Look Converter
3DMESH
Mesh 4 10
0 64 128 192 256 320 384 448 512 576 640 704 768 832 896 960 1023
132 196 240
132 196 236
140 192 236
136 200 252
140 200 260
136 200 280
136 208 316
148 204 340
144 216 388
156 216 428
164 228 480
184 240 552
220 248 616
268 268 704
340 300 776
436 352 856
540 424 912
132 204 240
132 204 244
136 200 248
132 200 260
136 204 268
132 208 284
132 212 312
140 212 352
140 224 396
156 224 432
156 240 480
184 244 556
220 256 624
268 276 708
336 300 776
428 352 844
548 436 912
132 204 240
132 204 240
136 208 244
132 208 264
128 212 268
120 220 296
120 220 332
128 224 356
132 232 400
148 236 444
160 248 496
176 260 560
220 272 640
260 292 716
332 316 780
424 372 856
532 440 908
116 224 244
116 224 252
124 224 252
116 228 264
120 228 276
96 236 300
100 240 340
108 252 376
116 252 412
132 256 452
144 268 504
160 280 576
204 292 652
248 312 720
328 336 788
416 388 856
532 468 916
88 256 256
92 260 260
104 252 264
100 260 280
100 260 288
84 268 316
68 276 352
72 276 380
64 292 424
88 296 468
96 296 516
120 304 588
172 316 652
220 336 724
300 360 784
400 404 852
524 492 912
24 308 264
36 308 268
60 304 280
56 312 300
60 308 316
56 312 336
36 312 364
44 312 396
4 324 440
36 328 480
36 336 536
52 344 604
96 352 660
176 372 728
272 392 796
384 444 860
516 528 920
12 360 288
0 368 300
32 364 304
0 372 324
32 368 340
12 376 368
0 372 388
32 368 424
0 376 464
32 372 492
12 388 548
4 396 616
32 400 680
96 416 740
220 432 804
348 476 868
480 548 912
12 444 316
0 448 328
32 444 340
0 452 364
32 456 368
12 456 408
4 448 436
32 440 444
0 440 492
36 436 528
12 444 572
0 448 628
28 452 672
0 460 744
108 480 800
280 516 864
440 588 920
16 536 368
4 540 368
32 532 376
0 540 400
32 532 412
12 544 452
0 552 484
32 532 500
0 516 528
32 512 560
16 516 612
0 516 652
32 524 704
0 520 752
28 532 808
196 568 868
392 628 928
16 628 408
0 632 420
32 628 420
0 636 444
32 628 460
20 632 500
4 636 536
36 632 560
4 616 588
36 596 612
20 596 652
0 592 688
32 588 724
0 596 780
28 600 816
24 620 864
284 672 920
20 704 464
4 716 476
36 712 480
8 712 504
36 712 520
48 712 548
92 704 568
136 708 608
140 712 644
88 688 656
116 676 684
96 672 724
52 660 752
0 664 796
36 668 836
144 692 884
280 732 924
172 780 540
176 780 548
212 784 552
216 784 568
244 780 588
260 780 612
276 780 636
296 780 660
304 784 696
300 776 716
268 756 724
252 744 748
244 744 780
228 744 812
212 740 848
256 756 888
360 796 932
372 844 632
368 844 628
376 840 632
384 840 656
396 832 656
388 836 668
400 836 700
404 836 712
404 840 732
424 840 760
404 832 784
368 812 784
356 804 800
340 808 836
336 808 864
360 824 904
424 844 940
504 884 708
496 880 704
496 880 708
496 880 712
508 880 724
500 880 736
500 884 752
492 884 756
484 888 776
496 884 800
500 884 816
476 880 836
456 864 832
432 856 856
436 860 880
452 872 916
508 896 952
596 920 776
604 924 772
604 920 780
604 924 784
596 916 780
596 916 792
588 916 800
580 920 804
564 924 824
564 920 828
568 924 852
572 920 868
552 924 876
528 904 884
520 900 900
532 908 924
572 932 964
688 952 832
684 952 832
684 952 836
684 952 836
676 948 832
676 948 840
668 952 840
656 952 840
632 956 856
624 956 864
632 952 872
628 956 888
636 956 900
612 952 916
596 940 916
604 944 940
640 968 976
752 968 872
744 972 876
748 972 872
744 972 876
744 972 872
736 976 884
728 976 880
716 972 880
700 972 884
680 976 888
668 976 896
672 976 908
680 976 924
672 976 932
668 976 944
660 968 948
688 980 976
144 196 240
132 196 236
136 200 240
140 204 256
140 200 260
144 204 284
144 204 312
148 208 348
152 212 388
164 220 432
176 228 480
196 240 552
236 252 628
280 268 700
352 300 776
444 348 856
544 424 908
136 200 236
132 204 240
136 200 244
136 204 256
140 208 268
140 204 288
140 212 316
144 212 360
152 224 396
160 228 436
176 240 496
200 244 556
232 260 632
276 280 704
352 308 788
440 356 856
548 436 916
132 204 240
136 208 240
136 208 244
136 212 260
128 212 268
128 220 296
128 224 328
132 228 356
144 232 404
152 240 444
172 248 496
188 264 560
220 272 632
268 288 708
340 320 780
428 364 856
548 448 916
116 224 244
124 228 248
124 224 252
124 228 268
120 236 284
112 236 304
112 244 336
112 248 368
128 256 412
144 264 460
152 268 512
180 284 576
212 288 640
264 308 720
336 340 792
432 388 860
532 460 908
100 260 252
104 264 256
108 260 264
108 264 284
104 260 296
92 272 316
88 272 348
88 280 388
88 292 428
104 288 472
120 296 524
148 312 592
188 316 664
248 336 732
320 360 796
412 412 860
532 492 912
44 304 268
60 308 276
60 312 284
72 312 296
72 312 320
76 312 332
68 316 368
52 324 400
32 324 436
48 336 480
64 344 544
84 348 604
124 356 672
196 368 728
280 392 792
388 436 860
520 520 920
4 372 300
0 376 300
4 368 304
8 372 328
16 372 344
12 376 364
28 372 392
12 372 416
0 372 456
0 376 504
4 388 552
4 396 612
32 400 676
120 412 740
228 432 800
368 480 872
508 560 924
4 448 320
0 448 328
0 448 344
0 452 364
4 452 380
4 456 404
0 452 436
0 440 448
0 440 496
0 448 536
4 444 584
0 448 632
0 460 688
0 460 744
148 488 812
312 516 868
448 584 920
0 540 364
4 540 368
4 536 380
0 540 400
4 540 416
0 544 448
0 544 480
0 532 504
0 524 532
0 516 564
0 520 608
0 516 656
0 516 704
0 520 752
4 536 808
192 568 868
388 628 924
0 628 408
0 632 420
0 632 428
0 628 440
0 632 464
4 632 500
12 636 532
12 636 568
4 616 588
0 596 600
8 596 644
0 592 688
4 596 732
4 596 772
0 596 816
48 620 864
320 680 924
0 708 464
4 716 476
8 716 488
8 716 500
32 716 524
96 712 552
140 712 576
164 712 612
172 708 648
120 692 656
144 680 692
120 672 728
92 668 752
44 664 792
36 676 836
152 696 888
276 728 920
192 780 540
196 776 552
220 784 560
236 780 572
256 780 592
276 784 616
292 780 636
296 780 656
312 784 696
308 776 716
272 760 728
268 748 756
260 748 788
224 740 812
224 740 852
268 760 900
360 792 936
376 840 632
384 844 632
388 840 640
400 840 652
400 840 660
404 840 676
408 840 696
408 836 712
416 840 736
420 840 760
404 832 776
376 816 788
360 808 812
352 808 840
348 812 864
360 816 904
432 852 944
504 880 708
504 884 712
504 880 712
504 884 716
512 880 732
508 884 740
500 884 748
496 884 764
496 888 780
496 884 796
508 888 820
488 880 836
452 864 832
440 860 856
440 864 880
452 868 920
504 892 952
600 920 772
604 924 776
600 916 780
604 924 784
600 916 780
604 916 796
592 916 800
584 920 808
568 920 820
564 924 832
576 920 856
580 924 872
552 916 872
528 908 884
516 900 900
532 908 928
576 928 964
684 952 832
684 952 832
688 956 836
688 956 836
688 956 844
676 948 836
668 952 840
660 948 844
644 956 860
632 960 868
632 956 880
632 956 888
636 956 904
612 952 912
596 944 924
600 948 940
636 964 972
748 972 876
748 972 876
748 972 876
748 972 872
748 972 880
740 972 884
728 972 880
720 976 888
704 972 884
680 976 896
676 976 900
680 980 912
688 980 932
680 980 932
664 980 948
664 972 956
696 980 976
144 200 236
144 200 232
136 200 240
148 200 244
148 204 264
152 204 284
156 204 308
160 208 344
172 216 384
184 224 436
188 232 480
216 240 540
252 252 616
308 268 700
364 300 776
452 344 852
564 424 912
144 204 240
144 204 248
144 204 244
148 208 252
152 208 272
156 208 292
156 212 316
160 216 356
168 224 396
184 228 440
196 236 488
224 244 556
248 260 632
300 280 708
368 304 784
456 356 856
564 436 916
140 208 240
140 212 244
144 212 244
144 212 260
148 216 276
144 220 300
152 224 332
156 228 364
168 236 404
176 244 448
196 248 496
216 264 564
252 276 644
296 292 716
364 320 784
456 368 860
564 444 916
128 228 240
128 224 244
136 228 252
132 232 268
132 236 284
136 236 308
136 244 340
140 248 372
156 260 412
172 264 460
180 268 512
208 284 572
240 296 644
288 308 716
348 340 784
448 384 856
556 464 912
104 256 248
108 260 256
116 260 268
128 260 276
120 260 296
116 272 320
112 276 344
120 276 384
124 284 432
144 288 472
160 300 524
180 316 588
212 324 660
268 332 716
344 364 796
436 412 860
540 488 908
52 308 264
76 308 272
96 316 292
100 312 296
104 312 312
108 312 340
100 316 364
88 324 404
88 324 444
96 336 488
112 336 544
136 348 608
176 356 668
240 372 736
316 404 804
416 440 864
524 516 916
0 372 288
12 368 296
48 368 312
60 380 328
80 372 348
84 372 372
84 368 388
68 372 424
56 380 452
44 376 496
24 388 556
60 396 620
100 400 676
168 408 740
264 436 804
376 476 864
508 560 920
0 448 320
4 452 328
0 456 344
4 452 360
24 456 384
44 452 404
48 456 432
60 444 460
40 440 492
12 444 528
0 444 584
0 448 632
0 460 688
80 464 748
180 480 804
328 520 864
484 596 924
0 540 360
4 540 364
4 536 376
0 540 400
4 544 412
0 544 444
20 548 480
8 536 508
40 520 524
4 524 580
0 520 612
0 508 660
0 516 704
0 520 752
56 532 812
256 576 876
400 624 920
0 632 412
0 632 420
0 632 428
4 632 444
4 628 468
20 636 492
68 636 524
80 636 568
52 620 588
76 604 608
60 596 648
16 592 684
8 596 724
4 596 772
4 600 820
128 620 868
352 672 928
4 716 468
4 712 472
12 716 488
76 712 496
116 716 524
160 712 552
196 712 576
212 716 620
232 720 648
180 700 672
180 672 684
172 676 724
144 668 756
120 668 792
112 676 840
168 688 880
300 732 928
228 776 540
240 776 544
260 784 564
276 780 568
296 780 596
312 780 616
316 780 640
332 784 664
332 784 692
336 776 716
304 764 728
300 748 752
276 740 784
260 744 808
252 748 848
288 760 896
372 796 936
400 836 628
404 840 636
400 836 636
416 840 648
420 840 664
428 840 680
424 840 696
428 840 716
420 840 736
432 840 760
424 836 780
388 816 792
376 804 812
360 808 840
340 804 868
368 816 904
440 848 944
516 880 708
512 884 712
520 884 712
520 880 720
528 888 736
524 880 740
516 884 752
508 884 760
508 888 784
508 884 796
512 884 812
500 880 832
472 868 840
460 856 856
452 864 884
460 872 912
508 888 952
608 920 776
608 920 776
608 920 776
608 916 780
608 920 784
608 916 792
604 916 800
588 924 812
580 920 820
568 924 828
588 924 852
588 928 868
564 924 880
544 904 880
532 900 900
540 912 932
572 928 956
688 952 832
696 952 836
692 956 836
692 948 832
684 952 840
676 948 836
680 952 844
668 952 848
652 956 860
628 956 864
636 952 880
644 956 892
640 952 904
620 948 908
604 940 924
600 948 940
636 964 972
752 972 876
752 972 876
752 972 876
752 972 876
748 968 880
740 972 884
740 976 880
728 972 884
712 972 892
688 980 892
680 976 900
680 980 912
688 980 932
680 980 936
668 972 944
664 972 956
696 980 976
156 200 236
156 200 236
156 200 236
152 200 244
156 200 260
168 204 280
180 208 312
184 212 344
204 212 388
212 224 428
224 232 480
252 240 544
288 248 612
328 272 696
392 296 772
480 344 852
580 432 912
152 200 236
156 204 244
160 200 244
152 204 252
168 208 268
164 212 284
180 212 316
184 216 348
200 220 400
208 228 436
232 240 492
256 244 552
284 256 620
332 276 704
400 308 776
480 356 856
