滤镜资源/vsco 137 3dl+cube/VSCO 137 3dl/VSCO X6 Bw Tone.3dl
#Generated by Picture Instruments - Look Converter
3DMESH
Mesh 4 10
0 64 128 192 256 320 384 448 512 576 640 704 768 832 896 960 1023
0 0 0
8 8 8
8 12 12
16 20 20
24 28 24
32 36 36
40 44 52
44 52 60
56 60 68
64 68 76
68 76 92
80 80 96
88 96 108
100 100 116
108 116 128
120 124 148
132 136 156
12 12 12
20 20 20
24 28 28
32 36 36
40 44 52
48 52 56
56 60 68
60 68 76
72 76 88
80 80 96
88 96 108
100 100 120
108 116 128
124 128 148
128 132 156
144 148 172
156 156 180
28 28 28
32 36 36
36 44 52
48 52 56
56 60 68
64 68 76
72 76 92
80 80 96
92 96 112
100 100 116
108 116 128
120 120 140
132 136 156
148 152 172
156 160 184
172 176 200
180 184 216
36 44 52
48 52 60
56 60 68
64 64 76
72 72 88
80 80 96
92 96 112
104 104 120
112 116 132
124 124 144
132 136 160
148 152 172
156 160 184
176 176 200
184 188 220
196 208 232
208 216 248
52 60 68
64 64 76
72 76 88
80 80 96
88 88 104
100 100 116
112 116 132
120 124 148
136 140 160
144 148 172
156 160 184
172 180 200
184 188 216
196 208 232
212 220 252
232 236 268
236 248 284
68 76 88
84 80 100
88 96 108
100 100 120
108 116 128
124 124 144
136 140 156
144 148 172
160 160 184
172 176 200
184 188 220
196 208 236
208 224 252
232 236 268
236 252 288
256 264 304
272 284 320
88 96 108
100 100 120
108 116 128
124 124 144
132 136 160
144 148 172
160 160 184
172 176 200
184 188 220
196 204 236
212 224 252
236 236 268
236 252 284
260 268 304
268 284 320
292 300 340
304 312 352
108 116 128
124 128 148
132 136 160
148 152 172
156 160 180
172 176 200
184 188 216
196 208 232
212 220 252
232 236 268
240 252 288
256 268 304
268 284 320
292 300 340
304 316 360
324 332 376
336 344 388
132 136 156
148 152 172
156 160 184
176 176 200
184 188 220
204 208 240
212 224 252
232 236 268
236 248 284
252 268 304
272 284 320
292 300 340
308 324 356
324 332 376
336 348 392
356 364 412
372 380 428
156 160 184
172 176 200
184 188 220
208 208 240
212 224 252
232 236 268
240 252 284
256 264 304
272 284 320
288 304 340
308 316 356
324 332 380
336 348 392
356 364 412
376 384 432
392 400 448
400 412 460
184 188 216
196 204 232
212 224 248
232 236 268
240 248 288
256 268 304
272 284 320
288 304 340
308 316 356
320 332 380
344 352 396
360 368 416
372 384 428
388 400 448
412 416 472
428 440 488
436 452 496
212 224 252
232 236 268
244 252 292
256 268 304
272 284 320
292 304 340
308 316 356
320 332 380
340 348 392
352 364 412
376 384 432
388 400 448
408 420 472
428 444 488
436 448 500
456 468 516
472 488 532
240 248 288
256 264 300
272 280 320
292 300 340
308 320 356
320 328 376
340 348 396
352 364 412
376 384 432
392 404 448
412 420 468
424 436 484
436 452 504
460 468 516
472 492 536
492 508 552
508 524 568
276 288 324
292 300 340
308 316 356
324 332 380
336 348 396
360 368 416
380 388 436
388 400 448
404 416 464
420 440 480
440 456 500
460 472 524
476 496 536
492 508 552
508 528 572
528 544 588
540 556 604
308 320 356
324 332 376
344 352 396
360 368 416
368 380 428
388 400 448
404 416 468
420 440 484
444 460 508
456 468 520
476 492 536
492 504 552
508 528 568
528 544 588
540 556 608
564 580 624
576 592 636
344 352 400
356 364 412
372 384 432
392 400 448
404 416 464
424 436 484
440 452 504
456 468 516
476 492 536
488 504 556
512 528 572
528 544 588
544 556 608
564 580 624
576 596 636
596 612 656
612 628 672
372 380 428
384 396 444
400 412 460
420 436 480
432 448 496
452 464 512
472 476 532
488 500 552
504 524 564
524 536 580
536 552 596
560 576 620
576 592 636
592 608 652
604 624 664
624 640 684
632 652 696
12 12 12
24 24 24
32 36 36
40 44 48
44 52 60
52 56 64
64 68 76
68 68 88
80 84 96
92 88 100
100 100 116
104 112 124
116 120 144
132 132 156
140 144 168
156 160 180
168 168 192
20 20 20
32 36 36
40 40 40
48 52 56
56 60 68
64 68 76
72 76 84
80 80 100
88 92 108
104 100 116
112 116 132
124 124 144
136 140 160
144 148 168
156 156 180
168 176 196
180 180 208
32 36 36
44 48 52
56 60 64
64 68 76
72 76 84
84 80 92
88 92 108
100 104 120
112 116 132
124 128 148
132 136 152
144 148 168
160 160 184
172 176 196
188 188 216
192 204 232
204 212 244
48 52 60
60 60 72
72 76 84
80 80 96
92 96 112
100 100 116
108 112 128
120 124 140
136 140 156
148 152 172
160 160 184
172 180 200
180 184 216
192 204 228
212 224 252
236 236 268
236 248 276
64 68 76
80 80 96
92 96 108
100 96 116
108 112 128
124 128 144
136 140 156
148 152 172
160 160 184
176 176 200
184 188 216
192 204 228
212 220 252
236 236 268
236 248 280
252 264 300
264 276 312
84 80 100
96 96 116
108 108 128
120 120 140
136 140 160
144 148 164
156 160 180
168 176 196
188 188 216
196 208 232
212 224 252
232 232 264
236 248 284
252 260 296
268 280 316
292 300 340
300 312 348
104 100 120
124 124 144
132 132 152
144 148 168
160 160 184
176 176 200
184 188 216
192 204 232
208 216 248
232 236 268
240 252 280
256 268 300
272 284 320
288 300 336
304 316 352
324 332 380
336 344 388
124 128 148
144 148 168
160 160 184
176 176 200
180 184 216
196 208 232
212 220 252
236 236 268
240 252 284
256 264 300
268 280 316
288 296 336
308 316 356
324 332 376
344 352 400
352 360 408
368 376 424
148 152 172
172 176 196
180 184 212
200 200 228
208 216 248
232 236 268
236 248 280
252 264 300
268 280 316
288 296 336
304 312 352
324 332 376
336 344 388
352 360 408
372 380 428
388 396 444
400 412 460
176 176 200
200 200 228
212 224 252
228 232 264
236 248 284
256 264 300
272 284 320
292 300 340
304 316 352
320 328 372
336 344 392
356 364 412
376 384 432
388 400 448
404 412 464
420 432 480
436 448 500
196 208 232
228 232 264
240 252 280
256 264 300
272 284 320
288 296 336
308 316 356
320 328 376
340 348 392
356 364 412
380 388 436
388 396 444
404 416 464
424 436 484
440 456 504
456 468 520
468 484 532
232 236 268
252 260 296
268 280 316
292 300 340
308 316 356
324 332 376
340 348 392
352 360 408
372 380 428
388 400 448
404 416 468
428 440 488
444 460 508
456 464 512
472 488 536
492 504 552
504 520 564
256 264 304
288 300 336
308 316 356
324 332 376
336 344 388
352 360 408
372 380 428
392 400 448
404 416 464
420 436 480
436 448 500
456 472 516
476 492 536
492 508 556
512 528 572
524 540 584
536 552 600
292 304 340
320 328 372
340 348 396
356 364 412
376 384 432
392 400 448
404 412 460
420 436 480
440 452 504
460 468 516
476 492 540
492 504 552
512 528 572
528 544 588
544 560 604
564 580 624
576 592 636
324 332 380
360 368 416
372 380 428
392 400 448
400 412 460
424 440 484
440 452 504
460 472 524
472 488 536
492 508 552
512 528 572
524 540 584
544 560 604
568 584 628
576 592 636
592 608 652
608 624 668
356 364 412
384 396 444
400 412 464
424 440 484
444 460 508
456 464 512
472 488 536
492 504 552
512 528 572
528 544 588
540 556 600
560 576 620
576 592 636
596 612 656
612 628 672
628 644 688
636 652 696
388 396 444
412 424 472
432 444 496
456 464 512
468 484 528
484 488 544
504 516 560
524 536 580
532 548 600
552 568 608
572 588 632
588 604 648
604 620 664
620 636 680
636 656 700
640 668 708
652 676 720
20 20 20
32 40 48
52 56 60
60 68 76
64 72 84
76 76 96
88 88 108
96 96 116
108 108 128
124 128 144
128 136 152
140 144 168
152 156 180
172 176 200
184 188 216
192 196 228
204 212 244
28 32 32
40 44 44
60 64 68
72 76 84
80 80 100
92 92 112
96 96 116
112 108 128
120 120 140
132 136 152
144 148 164
160 164 184
172 172 196
184 184 216
192 204 228
208 216 248
224 228 260
40 44 48
56 60 68
76 76 84
80 76 92
92 92 112
100 100 116
112 116 132
124 128 144
136 140 160
144 148 168
160 164 184
176 180 200
188 188 216
196 208 236
208 220 248
232 232 264
232 244 280
56 60 68
68 68 80
88 92 104
100 100 120
112 116 132
120 120 144
132 136 152
144 148 168
156 156 180
176 180 200
184 188 216
192 204 232
208 216 248
232 236 268
236 248 280
256 268 300
264 276 312
72 76 88
92 92 108
108 112 128
124 124 144
136 140 156
148 152 168
160 160 184
168 176 196
180 184 216
196 208 232
212 220 252
236 236 268
240 252 284
252 260 296
268 280 316
292 300 340
300 308 348
92 96 112
112 116 132
136 136 156
148 152 172
156 156 180
172 176 196
184 188 216
196 208 232
212 220 252
236 236 268
240 252 280
256 268 304
268 280 316
292 300 340
308 316 364
320 328 372
332 340 384
112 116 132
132 136 152
156 160 180
168 176 196
184 184 212
196 208 232
208 220 248
232 232 264
236 248 284
256 264 300
272 284 316
292 300 340
304 316 352
320 328 372
336 344 392
352 360 408
372 380 428
136 140 160
160 164 184
184 188 216
200 200 232
208 216 248
236 236 268
240 252 280
256 268 300
268 280 316
288 300 336
308 316 356
324 332 380
340 348 392
356 364 412
372 380 428
388 396 444
404 412 464
160 164 184
184 188 220
208 216 248
232 236 268
240 252 284
252 260 296
272 284 320
292 300 340
308 316 356
324 332 376
340 348 392
352 360 408
372 380 428
388 400 448
408 416 464
424 436 488
432 448 496
192 192 220
208 216 248
236 248 284
252 264 300
268 280 316
288 300 336
308 316 356
320 328 372
336 344 388
352 360 408
372 380 428
384 396 444
404 416 464
420 436 480
440 448 500
456 468 520
472 488 532
212 224 252
240 252 280
268 280 316
292 300 340
304 316 352
320 328 372
340 348 396
356 364 412
376 384 432
384 396 444
404 412 460
420 432 480
440 452 504
460 468 516
476 492 540
488 500 552
504 520 568
240 248 280
268 280 316
304 312 352
324 332 380
340 348 392
356 364 412
372 380 428
392 400 448
400 412 460
424 436 484
440 452 504
460 472 524
472 488 532
492 508 552
512 528 572
528 544 588
540 556 604
272 284 320
308 316 356
336 344 388
352 360 408
376 384 432
392 400 448
404 416 464
424 440 484
436 452 500
456 464 512
476 492 540
492 504 552
516 532 576
532 548 592
540 556 604
560 576 620
572 588 632
308 320 356
336 344 392
372 380 428
392 400 448
404 416 464
424 432 480
440 452 500
456 464 512
476 492 536
492 508 556
508 524 568
524 540 584
544 560 604
564 580 624
580 596 640
596 612 656
604 620 664
344 352 400
372 380 428
404 412 460
424 440 484
440 452 504
460 468 516
476 492 536
488 500 548
508 524 568
528 544 588
544 560 608
564 580 624
580 596 640
596 612 656
612 628 672
628 644 688
636 656 700
376 384 432
408 416 464
444 456 508
452 464 516
476 492 536
488 504 552
512 528 572
528 544 588
548 564 612
560 576 620
580 596 640
596 612 656
608 624 668
628 644 688
644 664 708
656 672 716
656 680 724
404 412 460
436 452 500
464 480 528
484 496 544
504 520 564
520 532 580
540 552 600
560 572 616
572 588 628
588 600 648
604 620 664
620 636 680
640 656 700
644 672 712
656 680 724
672 700 740
680 708 744
28 32 32
40 48 56
60 68 80
84 92 104
96 96 112
108 112 128
120 124 144
132 136 156
144 144 164
156 160 180
168 172 196
180 184 212
192 204 232
212 224 248
224 228 260
236 248 284
248 260 296
40 44 52
52 56 60
76 80 88
100 96 112
112 116 132
120 124 140
132 132 156
144 144 168
156 160 180
172 176 196
188 188 220
192 204 232
212 212 244
232 232 264
240 252 288
256 268 304
