滤镜资源/vsco 137 3dl+cube/VSCO 137 3dl/VSCO SE1 Street Etiquette.3dl
#Generated by Picture Instruments - Look Converter
3DMESH
Mesh 4 10
0 64 128 192 256 320 384 448 512 576 640 704 768 832 896 960 1023
100 160 164
96 160 164
96 160 168
92 160 184
96 160 200
84 164 208
84 168 236
84 164 264
68 172 296
48 168 328
12 172 376
4 172 432
16 176 484
4 180 564
20 188 628
8 204 720
0 220 784
104 168 172
100 172 172
108 172 180
100 172 196
104 172 200
104 176 220
96 176 244
88 172 272
76 180 304
64 180 340
28 180 384
0 180 432
16 176 488
4 180 568
16 188 632
8 200 708
0 224 792
120 192 184
124 196 192
120 192 192
108 196 204
116 196 224
112 200 240
100 196 268
96 192 296
88 192 328
72 192 360
32 196 400
4 192 452
12 192 508
4 188 572
16 184 636
4 200 716
0 220 780
148 228 208
144 232 212
152 228 212
140 232 220
128 228 232
120 228 256
120 228 284
112 228 328
92 224 348
80 220 388
40 220 428
0 220 476
16 216 536
0 208 588
16 204 652
4 200 716
0 224 788
180 276 236
188 276 248
188 276 244
180 276 256
164 272 260
152 280 284
136 276 308
132 268 336
116 272 380
108 272 412
64 264 456
12 256 504
16 248 552
0 244 608
20 232 664
8 224 724
0 224 792
232 348 276
232 348 284
236 344 288
236 352 296
236 348 308
208 352 328
180 348 348
168 340 380
144 332 412
136 332 448
120 324 492
92 316 536
20 308 572
0 296 632
16 284 676
12 268 740
4 256 804
308 436 336
308 432 344
316 436 348
312 436 352
320 436 372
296 440 372
264 440 396
232 428 424
212 420 460
192 400 480
184 404 516
160 392 564
128 388 600
44 380 656
20 348 700
12 328 748
0 308 808
396 524 412
396 524 412
396 524 416
404 532 432
412 532 440
396 528 456
376 532 464
348 524 480
312 516 504
292 500 524
268 488 556
236 480 588
220 468 620
176 456 668
108 444 712
24 420 756
0 376 816
488 612 500
488 612 500
492 612 500
492 608 500
500 608 508
500 616 524
488 612 532
464 608 536
428 600 552
408 592 576
376 580 596
348 572 624
320 556 660
284 536 684
240 524 724
152 500 760
16 460 820
576 668 568
576 668 576
576 668 572
576 672 584
576 672 584
576 672 584
576 672 596
564 672 592
548 676 608
516 664 620
492 664 644
468 652 668
440 636 680
400 624 712
352 600 740
292 580 784
224 568 824
636 720 636
644 724 644
648 720 640
648 720 644
648 720 648
652 724 652
640 720 656
640 724 652
636 724 664
616 728 680
596 720 688
576 712 704
536 700 716
508 692 744
472 680 768
412 668 800
376 656 836
708 764 700
708 768 700
704 768 700
712 768 700
712 764 704
708 768 700
708 768 708
708 764 712
704 768 716
696 768 720
684 768 724
656 764 740
644 764 752
616 760 768
588 744 788
556 740 820
508 736 856
756 808 748
756 808 752
756 808 748
760 808 748
764 804 752
760 804 752
764 804 752
760 804 760
760 808 768
748 808 764
748 808 772
736 808 772
704 800 784
688 800 796
672 796 812
652 796 836
636 796 868
804 844 800
808 840 796
808 836 792
800 840 796
808 836 796
804 840 796
808 840 804
804 840 804
804 844 808
804 840 804
796 840 808
792 840 812
776 840 816
748 840 824
744 840 836
728 836 856
724 840 888
840 876 832
848 876 836
844 876 840
844 876 844
840 872 836
844 868 840
844 872 840
844 868 836
848 876 844
840 868 840
836 872 844
832 876 844
828 876 852
816 876 848
800 872 864
788 876 876
788 880 896
876 896 868
876 896 868
876 896 864
876 896 872
876 896 872
872 896 868
876 896 872
872 896 872
876 904 876
872 900 876
876 900 876
868 904 876
868 904 876
868 904 884
856 896 884
844 900 896
844 916 916
900 920 892
900 920 896
900 920 892
900 920 896
900 916 896
896 920 900
896 920 900
896 920 900
896 920 900
896 920 900
896 920 896
896 924 908
896 924 908
896 920 904
888 920 912
884 924 908
880 924 924
108 164 160
100 164 168
104 164 172
100 160 188
96 160 196
96 164 212
88 168 236
88 168 264
72 168 296
64 172 336
28 168 372
4 172 432
4 176 488
8 180 564
4 188 632
0 200 716
0 216 780
112 172 168
108 176 172
108 172 184
104 172 192
108 172 208
104 172 228
100 176 244
96 176 272
84 180 308
72 180 352
40 180 388
0 180 444
0 176 496
4 180 572
0 188 644
0 204 716
0 220 792
124 196 180
124 196 192
128 200 200
120 200 208
124 200 224
120 196 236
108 196 264
108 196 292
96 192 328
76 192 364
52 192 404
4 192 456
0 192 512
4 188 572
0 184 644
0 200 716
0 224 788
148 232 208
148 232 212
156 232 220
148 232 224
136 228 236
128 228 256
128 228 284
116 224 316
104 228 356
92 220 392
56 224 432
8 220 480
0 212 536
0 208 588
0 204 660
0 200 724
0 224 792
184 272 236
192 280 252
196 280 252
180 276 256
176 272 264
156 276 292
148 276 312
144 272 348
132 276 388
108 268 420
80 260 464
24 260 512
4 256 564
0 248 612
0 236 668
4 224 732
0 224 792
232 348 284
236 344 284
244 352 300
244 352 308
236 356 308
208 344 324
188 352 352
176 344 384
160 340 416
160 340 456
136 336 492
96 320 536
20 312 580
0 300 628
0 288 688
0 276 744
0 256 804
316 444 344
316 440 352
312 436 348
320 436 364
320 444 372
308 440 380
272 440 400
252 432 428
224 420 460
208 412 488
184 400 528
172 400 572
144 392 612
64 376 648
4 348 700
0 328 752
0 308 812
408 528 416
404 528 420
400 528 424
408 528 432
404 528 440
404 532 452
388 536 464
352 528 484
320 520 508
292 500 532
264 484 560
248 480 592
224 468 624
188 460 672
112 440 712
4 408 768
0 384 820
492 612 500
492 612 500
492 612 500
492 608 508
496 612 520
500 612 528
492 612 528
472 612 544
440 604 560
408 596 580
388 580 604
356 572 628
324 556 656
292 540 688
244 524 724
172 508 776
32 472 820
576 668 572
576 668 576
572 672 576
576 668 576
580 672 588
580 668 592
580 676 596
568 672 608
552 676 608
512 664 616
492 664 648
468 652 668
448 640 688
408 624 712
352 600 740
308 588 784
224 568 832
644 724 636
644 724 644
648 720 644
652 720 640
648 728 648
652 724 652
648 724 660
648 716 656
636 724 664
628 724 676
592 720 684
576 712 700
548 708 720
516 696 740
472 684 764
412 660 796
384 656 840
712 768 700
700 764 696
712 768 700
712 768 704
712 768 700
708 768 708
712 764 708
708 768 712
704 768 716
696 768 724
676 772 728
652 760 740
644 764 756
612 756 768
584 740 788
544 740 824
508 736 856
760 808 752
756 808 752
760 808 752
764 812 756
760 808 752
764 804 752
760 808 756
760 808 760
760 808 768
756 808 768
744 804 768
736 804 776
708 808 784
700 808 804
676 800 816
648 792 832
632 796 872
808 840 796
808 836 796
808 840 796
804 840 796
804 840 796
804 836 792
804 840 800
804 844 808
804 844 808
800 844 808
800 844 808
796 844 812
780 840 812
756 844 824
744 840 836
728 836 856
724 844 884
844 872 832
848 876 840
844 872 840
844 872 840
844 872 840
844 872 840
844 872 840
844 872 840
844 872 840
844 872 840
836 876 844
832 876 844
828 880 852
812 872 848
800 872 868
796 872 876
792 880 896
876 896 868
876 896 868
880 900 872
880 900 876
880 900 876
876 896 872
876 896 872
876 896 872
876 904 876
880 908 880
876 900 876
872 904 876
868 908 876
868 904 884
856 896 884
844 900 900
844 912 912
900 920 896
900 920 896
900 920 892
900 920 896
900 920 896
900 920 896
896 920 900
896 920 900
896 920 900
900 916 900
896 920 904
900 924 908
900 924 908
896 920 904
884 924 912
884 924 912
880 924 924
116 164 164
112 168 172
112 164 172
116 168 188
108 168 196
108 168 212
104 164 232
100 168 268
96 172 296
84 168 332
60 172 380
16 172 428
4 176 488
8 180 564
4 188 636
0 200 716
0 224 792
128 180 172
124 180 176
124 180 184
124 176 200
116 176 212
116 180 232
116 176 252
108 180 280
100 176 312
92 176 348
68 180 392
28 176 436
0 180 504
0 180 576
0 184 644
0 200 716
0 224 792
136 200 180
136 204 188
136 204 196
132 200 208
132 200 228
128 196 244
128 200 272
120 200 300
104 200 328
96 200 364
80 196 412
28 192 456
0 188 524
0 188 580
0 180 644
0 200 720
0 220 792
152 232 204
160 236 216
160 236 224
160 232 228
152 240 248
144 236 260
144 228 288
128 232 320
120 228 352
108 228 388
84 224 436
48 224 472
4 216 528
0 212 588
0 204 656
0 196 732
0 224 792
192 284 236
200 284 248
200 284 256
200 280 264
184 280 272
168 284 292
160 276 320
156 272 348
148 276 384
128 272 424
108 264 472
72 264 508
12 260 560
4 244 612
0 236 672
4 224 732
0 224 792
244 352 284
248 352 292
252 360 304
252 356 304
244 352 308
224 352 324
204 348 356
188 344 384
176 340 420
172 336 460
156 332 496
116 316 536
68 312 592
0 296 632
0 284 692
0 268 744
0 252 792
316 436 340
320 440 352
320 440 352
336 444 368
328 444 376
320 448 388
288 432 400
264 432 432
236 428 460
220 416 492
220 416 528
200 404 568
172 392 608
96 368 652
8 352 704
0 336 756
0 312 808
412 528 424
412 536 428
416 532 432
416 532 440
416 532 444
416 536 456
396 536 464
360 532 484
336 524 508
308 504 536
288 496 564
268 480 592
240 472 632
216 460 672
148 436 716
16 404 764
0 376 820
492 608 500
496 608 500
500 612 504
504 612 512
508 612 524
500 608 524
500 608 532
476 608 544
448 608 560
420 596 584
396 584 608
364 564 624
328 552 656
304 548 692
260 520 728
172 500 772
32 464 816
584 672 572
580 668 568
576 672 576
580 672 580
584 668 588
584 668 592
580 676 604
576 672 608
560 676 612
528 672 624
500 664 652
480 652 668
456 640 692
412 620 708
368 600 744
324 584 788
240 564 836
648 720 640
648 720 640
652 720 644
652 720 640
648 720 644
656 724 652
652 724 660
652 724 660
644 728 668
628 724 676
596 720 684
580 716 704
556 704 720
524 692 740
484 684 768
428 660 796
384 652 836
708 764 696
708 764 696
712 768 700
712 768 700
712 768 700
712 772 712
708 768 708
708 768 708
708 764 716
696 768 724
680 772 724
660 764 736
640 760 752
620 760 768
596 748 792
548 736 820
512 732 856
760 808 752
760 808 752
760 808 752
760 808 752
760 808 752
760 808 756
760 808 760
760 808 760
760 808 764
756 808 768
744 804 768
736 804 784
712 804 788
700 808 804
672 800 812
648 792 836
632 792 864
808 836 796
808 840 796
808 840 796
804 840 796
804 844 800
804 844 800
804 844 808
804 844 808
804 844 808
800 844 808
800 844 808
792 840 808
784 844 816
760 840 824
748 844 840
732 840 860
716 840 876
844 872 836
844 872 840
844 872 840
844 872 840
840 872 840
844 872 840
844 872 840
844 872 840
844 872 840
848 876 844
836 876 840
836 880 848
832 884 856
820 872 856
800 872 868
792 872 876
792 884 900
876 896 868
876 896 868
880 900 872
876 896 868
876 896 872
876 896 872
876 896 868
876 896 872
876 904 876
876 904 872
876 904 876
868 904 876
868 908 876
860 900 880
852 896 888
840 900 900
840 912 912
900 920 896
900 920 896
900 920 896
900 920 896
900 920 896
896 920 900
896 920 900
896 920 900
900 920 900
900 916 904
900 924 908
896 924 904
900 924 908
892 920 904
884 924 912
884 924 912
880 924 924
136 168 164
128 168 172
128 172 180
132 172 192
132 172 204
124 172 220
124 176 236
124 168 268
120 172 300
112 176 340
96 172 380
72 172 428
8 172 488
8 180 564
8 180 632
0 200 716
0 224 792
144 176 172
144 180 180
140 188 192
140 180 200
140 184 216
140 180 228
132 180 252
136 180 280
124 180 312
116 184 352
104 180 396
80 184 448
32 176 504
0 176 572
0 180 648
0 200 720
