滤镜资源/vsco 137 3dl+cube/VSCO 137 3dl/VSCO K3 Analog.3dl
#Generated by Picture Instruments - Look Converter
3DMESH
Mesh 4 10
0 64 128 192 256 320 384 448 512 576 640 704 768 832 896 960 1023
16 12 16
16 20 44
36 24 76
16 36 108
36 32 152
12 40 196
12 44 252
36 56 328
20 80 436
36 100 540
20 124 636
24 152 728
40 164 800
28 180 864
48 192 908
32 196 952
32 200 968
16 64 32
16 60 56
40 56 76
16 64 112
36 60 144
16 64 200
16 72 248
36 76 336
20 88 440
40 104 536
20 128 636
20 144 728
44 160 800
28 180 872
44 184 912
36 196 948
32 200 968
20 104 56
16 92 56
36 80 72
12 84 108
36 92 152
16 92 200
16 104 264
40 100 344
16 112 448
40 124 540
24 148 644
28 152 732
40 168 812
28 180 872
44 188 916
28 200 952
28 200 968
16 168 60
16 160 80
40 144 92
12 136 124
36 128 156
16 136 224
16 144 280
40 152 364
16 160 456
40 172 556
20 188 652
16 200 748
40 204 820
24 212 872
48 212 928
32 220 952
28 220 976
20 244 92
20 240 100
44 224 116
12 216 136
40 192 164
16 192 224
12 200 292
40 208 364
16 232 472
40 240 560
16 252 656
16 260 748
40 272 816
16 276 876
40 276 916
24 284 952
16 284 976
20 340 120
20 324 128
44 312 140
16 312 164
44 296 192
16 276 244
12 272 312
40 272 384
16 288 488
40 296 576
20 316 664
16 332 760
44 344 824
16 356 884
40 356 928
20 360 960
20 372 988
24 428 152
16 428 160
44 416 176
16 408 196
44 392 224
20 372 268
12 352 324
40 352 420
16 360 508
40 368 592
20 388 676
16 404 772
40 412 836
16 432 900
40 424 940
24 436 972
12 440 992
28 520 184
16 516 196
44 508 200
16 504 228
44 492 248
24 468 284
16 448 344
44 440 432
8 436 512
40 444 592
24 464 684
8 476 768
40 480 832
16 496 904
44 504 940
24 508 972
16 508 996
40 592 216
28 592 224
48 584 232
24 580 256
44 564 268
28 560 312
20 544 368
36 520 424
12 516 528
40 520 604
24 528 704
12 540 784
40 548 856
16 556 904
40 564 944
28 568 972
12 572 996
76 668 244
60 668 252
72 660 256
60 656 280
52 640 292
28 632 332
16 616 380
40 588 440
16 580 520
40 588 632
28 592 704
12 600 788
40 608 856
16 616 912
40 620 948
28 624 980
12 632 996
116 720 280
104 728 284
108 716 288
80 720 304
80 708 312
44 696 356
12 676 396
40 668 460
16 656 528
36 644 620
28 664 724
16 672 800
40 664 860
16 672 912
40 680 956
32 688 984
16 688 1008
164 788 312
152 784 316
156 780 324
148 780 332
132 768 348
104 760 384
64 748 424
44 736 476
16 724 536
44 712 608
28 724 712
16 736 788
40 732 856
16 740 920
40 728 948
32 740 984
16 744 1008
208 832 344
200 836 344
200 832 340
184 828 364
176 824 376
156 820 404
128 808 432
96 800 492
24 792 548
44 776 616
32 776 704
16 788 800
40 792 856
16 800 916
40 800 960
36 796 988
12 800 1004
256 880 384
252 888 384
256 876 380
232 880 396
236 868 404
208 864 428
180 856 460
148 852 504
100 852 568
56 840 624
36 836 704
12 832 780
40 848 852
16 856 904
40 852 944
36 864 980
16 864 1004
308 924 416
304 928 420
304 924 416
296 920 432
284 912 432
264 908 452
248 900 480
224 896 512
184 896 576
148 892 628
104 888 692
56 888 768
44 888 824
20 904 888
44 908 944
40 920 980
20 920 1004
356 960 448
344 964 444
340 956 440
340 956 452
336 948 460
320 940 480
284 936 492
276 932 532
236 928 584
212 928 644
184 932 708
144 932 768
140 932 820
108 940 872
100 936 908
124 960 968
108 964 1004
380 980 468
372 980 464
380 972 468
368 980 476
368 972 476
356 956 504
328 948 508
312 952 548
292 952 600
268 952 656
240 956 708
212 960 768
204 960 820
172 964 864
176 964 900
176 964 932
164 968 964
52 16 12
36 16 48
36 16 80
24 20 108
16 28 152
20 32 200
16 36 252
12 56 336
16 72 436
16 100 544
28 128 636
24 148 720
28 164 800
28 180 864
32 196 912
28 200 964
28 200 968
44 52 20
36 48 52
40 60 80
40 56 116
32 60 156
32 60 212
24 72 256
20 76 348
20 84 440
20 108 544
16 128 648
24 148 744
24 160 808
28 180 872
32 192 924
28 200 968
28 200 968
48 100 40
44 100 56
40 92 80
40 92 116
32 92 160
32 104 216
20 100 256
16 108 340
16 112 448
20 128 548
20 140 644
28 156 736
20 168 808
32 184 876
32 192 924
32 196 960
32 196 968
44 164 64
32 156 76
40 148 96
40 136 120
32 132 164
28 144 224
24 144 272
16 160 356
16 160 456
16 180 556
20 196 656
20 204 748
24 200 816
24 212 876
28 220 928
24 220 964
24 220 972
44 236 84
32 248 100
36 228 116
40 208 136
24 192 164
28 192 228
24 200 300
12 208 384
16 232 476
12 240 564
16 248 656
20 264 756
12 276 824
20 276 888
16 276 928
20 284 960
16 284 976
32 332 112
32 328 136
32 324 148
32 316 168
32 296 196
28 268 244
20 268 312
16 276 388
16 288 488
16 308 576
12 324 672
16 332 748
16 348 828
16 352 888
12 360 932
16 368 968
12 368 980
32 428 144
28 428 164
28 420 172
28 408 200
24 396 224
24 376 272
20 352 328
16 352 408
12 356 496
12 380 592
12 392 680
16 404 768
12 412 836
16 428 896
16 428 936
12 440 984
12 440 992
32 520 180
24 512 196
20 512 208
24 500 220
20 492 252
20 476 292
16 448 344
16 440 436
12 440 528
16 456 616
16 460 692
12 476 772
16 488 844
16 496 904
12 508 948
16 504 984
16 504 996
48 592 208
40 596 224
40 592 240
32 580 248
28 568 276
16 560 316
12 540 364
8 524 428
12 524 528
16 524 616
20 524 700
16 540 780
16 548 848
16 556 904
16 568 952
16 576 988
16 576 1000
84 664 244
68 668 252
68 660 264
64 652 280
44 644 300
28 632 332
12 616 380
20 604 448
12 584 520
16 584 624
12 596 704
12 600 788
12 616 860
16 620 916
12 624 952
16 628 988
12 632 996
116 724 268
112 724 284
104 728 292
92 720 308
84 716 324
52 700 356
20 684 404
12 672 464
12 660 528
16 648 616
12 668 724
16 668 796
12 668 860
20 676 916
16 684 956
12 692 996
12 692 1004
156 784 304
156 784 316
152 784 328
148 780 332
128 768 356
100 764 380
64 748 424
20 732 476
12 724 540
12 716 624
12 728 724
12 732 800
16 740 868
8 736 912
12 740 956
16 744 996
16 744 1008
208 840 336
200 836 344
196 832 352
188 832 368
172 824 380
160 820 404
132 808 432
96 800 492
24 792 548
12 776 616
16 772 704
16 796 796
16 796 864
12 800 912
16 804 956
16 792 988
12 800 1004
260 884 376
252 888 384
248 880 384
240 880 392
228 872 408
212 864 428
180 860 456
148 852 504
100 852 568
44 844 632
20 844 704
16 840 772
12 860 860
12 856 908
12 856 948
16 868 988
16 864 1000
308 928 412
304 928 420
300 924 416
300 920 424
280 916 436
260 908 448
240 896 484
216 896 520
188 896 576
140 896 632
92 888 708
52 892 768
28 892 832
24 908 896
20 912 948
24 924 988
16 924 1004
348 960 444
344 964 444
344 960 456
340 956 456
332 952 464
312 940 472
284 932 496
268 936 536
244 932 580
216 936 644
176 936 704
148 936 768
132 932 824
112 936 868
96 936 908
116 964 972
100 964 1000
372 980 464
372 980 464
372 976 472
368 980 476
356 972 476
352 960 500
328 948 508
308 956 548
292 952 596
268 952 652
236 960 704
212 960 768
196 964 820
176 964 864
168 968 904
172 968 932
160 968 964
80 16 16
72 20 44
68 20 80
68 16 112
44 24 160
28 28 200
16 36 256
16 52 344
20 80 444
16 100 548
24 124 632
24 148 720
28 164 796
28 180 860
32 196 912
32 200 960
32 200 968
76 48 24
72 48 48
72 56 76
68 48 116
48 44 160
36 48 212
32 52 264
20 64 344
20 80 444
20 108 548
16 128 644
20 144 736
24 160 812
28 176 872
32 192 924
28 200 964
28 200 968
80 92 36
72 92 56
76 92 80
64 92 112
60 92 152
52 100 216
40 104 268
20 100 352
20 116 460
20 128 548
20 140 644
20 152 748
20 168 812
24 184 880
32 192 924
28 196 964
28 196 968
72 156 56
72 148 76
68 148 96
64 136 120
60 136 168
52 144 220
40 148 272
20 156 360
16 168 452
16 180 556
20 196 656
20 196 740
28 204 820
24 212 876
24 220 924
28 224 968
28 224 972
72 224 76
64 236 100
60 228 116
60 220 140
60 204 176
48 192 232
36 200 292
16 208 372
20 228 468
12 244 564
16 248 656
16 272 756
16 280 828
16 276 876
16 276 928
20 280 972
16 284 976
64 324 108
60 324 128
52 332 148
52 312 168
48 288 192
48 264 248
36 264 316
20 280 396
16 292 496
16 312 584
12 324 668
12 336 756
12 352 836
16 360 900
16 364 940
12 360 972
12 368 984
56 420 136
48 420 160
44 420 168
44 416 196
52 400 220
36 376 272
28 352 320
20 356 416
16 364 500
12 380 592
12 396 684
16 412 772
16 420 836
16 428 896
12 432 940
12 440 976
12 440 992
52 508 172
40 512 184
32 520 204
36 504 228
32 496 256
24 472 296
20 452 348
16 440 436
12 444 516
12 452 600
16 468 700
12 476 772
16 488 848
12 496 900
12 504 944
16 504 984
12 516 992
68 584 200
60 592 216
52 592 240
48 584 256
36 572 280
20 560 316
20 544 364
12 528 432
12 520 532
12 524 620
16 532 712
16 536 788
20 548 860
12 560 904
16 568 952
16 580 992
12 576 996
96 664 240
92 660 252
80 660 272
72 652 284
56 644 304
40 636 336
16 624 380
16 600 444
12 584 520
12 592 624
12 596 704
12 600 788
12 608 856
16 624 916
12 624 948
12 636 992
12 636 1000
120 720 264
120 728 280
112 728 296
108 720 304
88 712 324
60 700 360
28 688 404
12 676 464
16 668 536
12 652 612
12 660 712
16 668 792
12 668 860
12 680 920
16 684 960
12 692 992
12 692 1008
160 776 304
160 776 312
152 784 324
144 776 340
140 772 352
112 764 384
76 748 424
24 736 480
12 724 540
12 716 624
16 728 724
16 732 800
12 736 860
12 740 920
12 740 960
12 744 996
12 744 1008
208 836 336
204 836 344
196 832 352
188 832 368
180 828 376
160 820 404
132 812 444
96 800 496
24 784 544
12 776 620
12 776 704
16 796 804
16 796 868
12 800 912
16 800 956
12 800 996
12 800 1004
256 880 364
248 880 376
248 880 384
244 880 396
232 876 412
212 864 428
184 864 460
156 856 508
108 848 560
52 848 632
20 840 700
16 832 772
16 860 856
12 864 904
16 868 948
16 868 988
16 864 1004
308 928 408
300 928 416
300 924 416
296 924 420
284 920 436
260 908 448
252 904 480
212 892 516
180 896 580
140 892 636
92 888 708
64 892 772
32 888 832
32 904 892
20 912 948
24 924 988
24 920 996
348 960 436
344 964 444
344 960 456
340 960 452
332 952 464
312 940 472
288 932 500
264 936 540
236 936 584
212 928 640
176 936 704
144 932 772
128 936 832
112 936 868
100 940 912
116 964 972
108 964 996
380 980 460
376 984 464
372 976 472
364 976 472
356 972 476
352 960 500
324 952 516
308 952 552
292 952 600
264 956 656
236 960 708
204 960 768
192 964 828
184 968 868
164 964 900
172 968 932
164 968 964
116 24 12
108 20 44
108 24 72
108 20 116
92 28 160
68 32 208
44 40 264
16 56 356
16 76 448
16 100 548
24 120 640
24 144 728
24 172 800
28 180 860
28 192 908
36 200 960
32 200 968
116 56 20
112 48 40
112 52 84
112 48 120
96 44 160
72 44 208
48 44 264
24 60 352
20 80 456
20 104 552
16 128 652
20 144 736
24 160 812
28 180 872
32 192 924
28 200 968
