滤镜资源/vsco 137 3dl+cube/VSCO 137 3dl/VSCO 1 Legacy.3dl
#Generated by Picture Instruments - Look Converter
3DMESH
Mesh 4 10
0 64 128 192 256 320 384 448 512 576 640 704 768 832 896 960 1023
20 20 20
24 24 24
36 36 36
52 52 52
72 72 72
100 100 100
136 136 136
180 180 180
224 224 224
268 268 268
312 312 312
352 352 352
380 380 380
408 408 408
424 424 424
440 440 440
448 448 448
40 40 40
44 44 44
52 52 52
68 68 68
84 84 84
108 108 108
140 140 140
184 184 184
228 228 228
268 268 268
308 308 308
352 352 352
380 380 380
408 408 408
428 428 428
444 444 444
452 452 452
68 68 68
72 72 72
76 76 76
88 88 88
100 100 100
120 120 120
156 156 156
192 192 192
232 232 232
276 276 276
320 320 320
352 352 352
388 388 388
412 412 412
432 432 432
448 448 448
456 456 456
108 108 108
104 104 104
108 108 108
116 116 116
128 128 128
148 148 148
176 176 176
212 212 212
244 244 244
288 288 288
328 328 328
368 368 368
396 396 396
416 416 416
440 440 440
452 452 452
460 460 460
148 148 148
148 148 148
148 148 148
156 156 156
156 156 156
180 180 180
200 200 200
228 228 228
264 264 264
308 308 308
340 340 340
376 376 376
408 408 408
428 428 428
448 448 448
460 460 460
472 472 472
200 200 200
204 204 204
204 204 204
204 204 204
216 216 216
228 228 228
240 240 240
268 268 268
300 300 300
332 332 332
368 368 368
396 396 396
424 424 424
444 444 444
464 464 464
480 480 480
488 488 488
264 264 264
268 268 268
260 260 260
272 272 272
272 272 272
292 292 292
296 296 296
324 324 324
344 344 344
372 372 372
404 404 404
432 432 432
456 456 456
484 484 484
496 496 496
508 508 508
512 512 512
340 340 340
340 340 340
340 340 340
344 344 344
352 352 352
352 352 352
368 368 368
384 384 384
400 400 400
424 424 424
452 452 452
476 476 476
500 500 500
516 516 516
536 536 536
544 544 544
552 552 552
420 420 420
424 424 424
420 420 420
424 424 424
424 424 424
440 440 440
440 440 440
452 452 452
460 460 460
484 484 484
508 508 508
528 528 528
552 552 552
564 564 564
584 584 584
592 592 592
596 596 596
504 504 504
504 504 504
504 504 504
504 504 504
504 504 504
508 508 508
520 520 520
528 528 528
540 540 540
560 560 560
572 572 572
592 592 592
608 608 608
624 624 624
636 636 636
648 648 648
648 648 648
572 572 572
580 580 580
576 576 576
576 576 576
584 584 584
580 580 580
584 584 584
596 596 596
608 608 608
624 624 624
640 640 640
664 664 664
668 668 668
684 684 684
696 696 696
704 704 704
704 704 704
640 640 640
644 644 644
648 648 648
644 644 644
644 644 644
644 644 644
652 652 652
660 660 660
668 668 668
688 688 688
696 696 696
712 712 712
728 728 728
736 736 736
740 740 740
752 752 752
756 756 756
700 700 700
696 696 696
696 696 696
696 696 696
700 700 700
696 696 696
704 704 704
712 712 712
720 720 720
740 740 740
748 748 748
760 760 760
780 780 780
784 784 784
792 792 792
800 800 800
800 800 800
744 744 744
740 740 740
736 736 736
736 736 736
740 740 740
744 744 744
748 748 748
752 752 752
764 764 764
772 772 772
788 788 788
800 800 800
812 812 812
820 820 820
828 828 828
836 836 836
836 836 836
768 768 768
776 776 776
776 776 776
772 772 772
772 772 772
776 776 776
780 780 780
784 784 784
800 800 800
804 804 804
816 816 816
828 828 828
840 840 840
848 848 848
856 856 856
864 864 864
864 864 864
796 796 796
796 796 796
796 796 796
800 800 800
800 800 800
804 804 804
804 804 804
812 812 812
820 820 820
828 828 828
840 840 840
852 852 852
864 864 864
872 872 872
880 880 880
884 884 884
892 892 892
816 816 816
816 816 816
816 816 816
816 816 816
816 816 816
820 820 820
824 824 824
828 828 828
836 836 836
848 848 848
852 852 852
872 872 872
880 880 880
888 888 888
896 896 896
900 900 900
904 904 904
24 24 24
32 32 32
40 40 40
52 52 52
72 72 72
104 104 104
140 140 140
180 180 180
224 224 224
268 268 268
312 312 312
352 352 352
384 384 384
408 408 408
428 428 428
440 440 440
448 448 448
44 44 44
52 52 52
60 60 60
72 72 72
92 92 92
112 112 112
148 148 148
188 188 188
228 228 228
276 276 276
316 316 316
356 356 356
384 384 384
412 412 412
428 428 428
444 444 444
452 452 452
72 72 72
76 76 76
80 80 80
92 92 92
104 104 104
124 124 124
156 156 156
188 188 188
236 236 236
284 284 284
316 316 316
356 356 356
384 384 384
412 412 412
432 432 432
448 448 448
456 456 456
108 108 108
108 108 108
116 116 116
120 120 120
132 132 132
144 144 144
172 172 172
208 208 208
248 248 248
288 288 288
328 328 328
364 364 364
392 392 392
420 420 420
436 436 436
452 452 452
460 460 460
148 148 148
152 152 152
152 152 152
156 156 156
164 164 164
184 184 184
204 204 204
232 232 232
272 272 272
308 308 308
348 348 348
380 380 380
408 408 408
432 432 432
448 448 448
460 460 460
472 472 472
200 200 200
204 204 204
208 208 208
208 208 208
216 216 216
220 220 220
244 244 244
272 272 272
300 300 300
328 328 328
368 368 368
396 396 396
424 424 424
448 448 448
464 464 464
476 476 476
488 488 488
272 272 272
276 276 276
272 272 272
272 272 272
272 272 272
288 288 288
304 304 304
324 324 324
340 340 340
376 376 376
404 404 404
436 436 436
460 460 460
480 480 480
492 492 492
508 508 508
516 516 516
340 340 340
344 344 344
344 344 344
340 340 340
348 348 348
356 356 356
364 364 364
376 376 376
408 408 408
428 428 428
444 444 444
476 476 476
496 496 496
516 516 516
536 536 536
544 544 544
552 552 552
424 424 424
424 424 424
420 420 420
424 424 424
424 424 424
436 436 436
440 440 440
452 452 452
464 464 464
488 488 488
512 512 512
536 536 536
548 548 548
572 572 572
580 580 580
596 596 596
600 600 600
500 500 500
504 504 504
504 504 504
504 504 504
504 504 504
512 512 512
524 524 524
528 528 528
532 532 532
548 548 548
576 576 576
592 592 592
608 608 608
624 624 624
636 636 636
644 644 644
652 652 652
572 572 572
580 580 580
580 580 580
576 576 576
584 584 584
584 584 584
592 592 592
596 596 596
608 608 608
620 620 620
644 644 644
656 656 656
672 672 672
684 684 684
696 696 696
700 700 700
708 708 708
644 644 644
640 640 640
644 644 644
644 644 644
644 644 644
652 652 652
656 656 656
656 656 656
672 672 672
684 684 684
704 704 704
716 716 716
728 728 728
736 736 736
744 744 744
756 756 756
756 756 756
696 696 696
696 696 696
696 696 696
700 700 700
700 700 700
700 700 700
704 704 704
712 712 712
716 716 716
732 732 732
748 748 748
760 760 760
772 772 772
788 788 788
792 792 792
796 796 796
800 800 800
740 740 740
736 736 736
736 736 736
740 740 740
740 740 740
744 744 744
748 748 748
752 752 752
760 760 760
772 772 772
788 788 788
800 800 800
808 808 808
820 820 820
828 828 828
836 836 836
840 840 840
768 768 768
776 776 776
772 772 772
772 772 772
772 772 772
776 776 776
780 780 780
784 784 784
792 792 792
804 804 804
816 816 816
828 828 828
840 840 840
848 848 848
856 856 856
864 864 864
864 864 864
796 796 796
796 796 796
800 800 800
804 804 804
800 800 800
800 800 800
804 804 804
812 812 812
820 820 820
832 832 832
840 840 840
852 852 852
864 864 864
872 872 872
880 880 880
884 884 884
888 888 888
816 816 816
816 816 816
816 816 816
816 816 816
816 816 816
820 820 820
820 820 820
828 828 828
836 836 836
848 848 848
860 860 860
868 868 868
880 880 880
888 888 888
896 896 896
900 900 900
904 904 904
32 32 32
40 40 40
48 48 48
64 64 64
80 80 80
104 104 104
132 132 132
180 180 180
224 224 224
268 268 268
304 304 304
348 348 348
384 384 384
408 408 408
428 428 428
444 444 444
452 452 452
52 52 52
56 56 56
68 68 68
76 76 76
92 92 92
116 116 116
152 152 152
188 188 188
228 228 228
272 272 272
316 316 316
356 356 356
388 388 388
412 412 412
428 428 428
444 444 444
452 452 452
76 76 76
80 80 80
88 88 88
96 96 96
112 112 112
136 136 136
160 160 160
200 200 200
236 236 236
280 280 280
324 324 324
360 360 360
392 392 392
412 412 412
432 432 432
448 448 448
456 456 456
108 108 108
112 112 112
116 116 116
124 124 124
136 136 136
152 152 152
176 176 176
212 212 212
240 240 240
288 288 288
332 332 332
364 364 364
392 392 392
420 420 420
440 440 440
452 452 452
464 464 464
148 148 148
156 156 156
152 152 152
164 164 164
168 168 168
180 180 180
204 204 204
228 228 228
272 272 272
308 308 308
344 344 344
380 380 380
408 408 408
428 428 428
452 452 452
464 464 464
472 472 472
204 204 204
204 204 204
212 212 212
208 208 208
212 212 212
220 220 220
244 244 244
272 272 272
300 300 300
336 336 336
372 372 372
404 404 404
424 424 424
452 452 452
464 464 464
480 480 480
488 488 488
268 268 268
272 272 272
276 276 276
276 276 276
272 272 272
288 288 288
292 292 292
324 324 324
348 348 348
372 372 372
404 404 404
436 436 436
460 460 460
480 480 480
492 492 492
508 508 508
516 516 516
344 344 344
352 352 352
348 348 348
340 340 340
348 348 348
356 356 356
368 368 368
376 376 376
404 404 404
432 432 432
452 452 452
480 480 480
500 500 500
516 516 516
532 532 532
544 544 544
552 552 552
420 420 420
428 428 428
428 428 428
424 424 424
420 420 420
432 432 432
440 440 440
452 452 452
468 468 468
496 496 496
512 512 512
528 528 528
556 556 556
568 568 568
580 580 580
596 596 596
596 596 596
508 508 508
500 500 500
504 504 504
504 504 504
504 504 504
508 508 508
520 520 520
520 520 520
536 536 536
552 552 552
572 572 572
596 596 596
612 612 612
628 628 628
636 636 636
644 644 644
652 652 652
576 576 576
572 572 572
576 576 576
580 580 580
580 580 580
584 584 584
588 588 588
600 600 600
616 616 616
620 620 620
632 632 632
652 652 652
672 672 672
684 684 684
696 696 696
700 700 700
704 704 704
636 636 636
640 640 640
644 644 644
644 644 644
648 648 648
652 652 652
656 656 656
660 660 660
676 676 676
684 684 684
696 696 696
720 720 720
728 728 728
736 736 736
748 748 748
756 756 756
764 764 764
700 700 700
696 696 696
700 700 700
700 700 700
704 704 704
704 704 704
708 708 708
716 716 716
724 724 724
732 732 732
748 748 748
764 764 764
780 780 780
788 788 788
792 792 792
800 800 800
800 800 800
740 740 740
740 740 740
740 740 740
740 740 740
748 748 748
744 744 744
748 748 748
752 752 752
764 764 764
772 772 772
788 788 788
804 804 804
816 816 816
824 824 824
832 832 832
836 836 836
836 836 836
768 768 768
772 772 772
772 772 772
772 772 772
772 772 772
776 776 776
776 776 776
784 784 784
792 792 792
808 808 808
816 816 816
832 832 832
844 844 844
848 848 848
856 856 856
864 864 864
868 868 868
796 796 796
796 796 796
804 804 804
800 800 800
800 800 800
804 804 804
804 804 804
812 812 812
820 820 820
828 828 828
840 840 840
852 852 852
864 864 864
876 876 876
880 880 880
884 884 884
888 888 888
816 816 816
816 816 816
816 816 816
816 816 816
820 820 820
820 820 820
824 824 824
832 832 832
836 836 836
848 848 848
860 860 860
868 868 868
880 880 880
888 888 888
896 896 896
904 904 904
904 904 904
48 48 48
56 56 56
60 60 60
72 72 72
88 88 88
112 112 112
140 140 140
184 184 184
220 220 220
268 268 268
312 312 312
348 348 348
380 380 380
408 408 408
428 428 428
444 444 444
452 452 452
68 68 68
68 68 68
76 76 76
84 84 84
104 104 104
124 124 124
148 148 148
188 188 188
232 232 232
280 280 280
324 324 324
352 352 352
388 388 388
412 412 412
432 432 432
448 448 448
