滤镜资源/vsco 137 3dl+cube/VSCO 137 3dl/VSCO E7 Essence.3dl
#Generated by Picture Instruments - Look Converter
3DMESH
Mesh 4 10
0 64 128 192 256 320 384 448 512 576 640 704 768 832 896 960 1023
80 116 136
80 112 140
84 112 144
72 116 172
72 116 208
20 116 276
0 116 372
32 116 448
0 124 540
36 132 624
8 148 692
12 168 748
140 196 788
268 244 828
380 304 856
492 400 888
580 476 916
76 124 132
76 120 148
76 128 152
64 128 180
56 124 216
8 132 280
0 132 360
32 136 456
0 144 544
36 152 616
8 164 684
0 192 748
136 216 796
272 268 828
380 324 860
488 408 892
584 492 912
68 140 140
68 136 144
76 140 160
48 148 184
44 148 224
8 156 288
0 164 376
32 164 464
0 176 556
36 188 624
8 212 692
0 228 752
136 256 792
272 308 832
396 364 860
496 440 884
588 508 908
40 180 140
44 176 152
44 172 172
12 176 196
32 184 244
8 204 308
4 220 396
32 228 476
0 236 556
36 232 628
8 260 692
0 288 748
132 320 796
272 356 832
404 412 864
508 480 884
604 556 912
8 236 148
4 244 172
32 236 184
0 248 224
32 236 256
8 256 316
0 276 400
36 296 472
0 320 556
32 336 624
12 348 696
4 360 752
88 376 788
268 424 824
404 468 860
508 532 880
612 592 904
8 336 164
4 332 180
32 328 208
0 340 248
32 336 300
12 340 360
0 352 424
32 372 488
0 392 568
36 408 636
12 428 696
0 452 752
148 472 792
312 512 820
424 536 852
532 584 884
640 648 908
12 440 180
0 440 204
36 444 240
0 448 280
36 456 332
12 460 396
0 456 460
36 464 528
0 476 592
36 488 640
16 508 700
4 524 752
76 544 784
300 576 824
432 600 852
564 652 880
644 688 896
16 556 216
4 556 240
36 556 268
0 560 312
40 568 368
16 568 432
0 568 496
36 556 540
0 560 604
40 564 656
20 580 700
0 596 748
36 612 776
228 628 820
380 648 840
512 676 876
624 716 904
20 652 272
0 656 296
36 652 328
4 656 364
36 656 408
20 668 468
0 676 536
36 668 572
0 648 624
36 648 664
24 652 712
0 656 752
44 668 784
204 680 816
352 696 840
484 720 876
580 736 900
24 732 344
0 736 364
40 728 384
12 732 424
36 728 448
24 728 508
0 740 560
36 740 608
0 736 648
36 720 680
24 716 716
8 720 756
192 720 784
296 728 820
388 740 848
464 756 872
548 776 900
24 788 412
92 792 440
164 780 460
140 792 488
104 784 512
36 784 548
8 792 576
44 792 620
8 796 672
40 780 700
32 772 732
196 776 772
292 772 792
360 776 824
440 788 852
504 796 872
556 808 900
360 832 508
372 832 520
416 832 540
404 828 548
392 824 564
364 836 592
324 836 616
276 836 644
176 844 684
108 840 716
212 828 748
308 820 768
392 820 800
440 824 832
488 824 852
544 828 876
592 836 904
540 860 588
540 860 596
568 860 604
556 860 616
556 860 620
536 860 640
520 864 660
484 868 676
440 876 704
400 876 736
380 876 764
416 860 784
468 856 800
504 852 828
548 852 860
584 856 880
624 860 900
672 892 660
668 888 656
680 884 664
676 884 668
672 888 676
656 888 692
644 888 704
620 892 712
576 900 728
552 896 756
512 900 776
504 900 804
536 888 812
564 880 836
600 880 856
628 888 888
656 888 908
756 904 708
756 912 708
760 908 712
768 912 728
748 904 720
744 908 724
732 912 740
716 912 740
684 920 756
660 920 768
624 924 792
584 924 812
600 920 836
620 916 848
644 904 864
664 912 880
688 912 908
820 924 756
816 924 764
824 928 760
824 928 768
820 924 764
812 924 768
800 932 772
784 928 772
756 932 780
724 940 792
704 940 804
676 944 828
652 944 844
668 944 864
680 932 868
704 932 892
712 940 908
864 936 792
872 940 796
868 940 796
868 940 796
868 936 804
856 944 812
848 944 804
832 940 808
812 944 812
780 948 808
756 952 816
736 956 836
712 956 848
692 964 872
708 956 888
736 948 892
732 956 908
84 112 132
88 116 136
88 112 152
88 116 172
84 116 216
64 116 272
12 120 356
0 116 452
0 120 548
0 132 620
4 140 692
36 168 748
180 196 792
292 248 832
396 308 860
504 392 892
588 476 912
88 124 136
84 124 144
80 124 156
84 124 180
68 124 216
44 128 288
0 128 372
0 140 468
0 144 548
0 152 628
0 168 704
48 188 756
192 228 800
296 268 836
400 328 864
508 408 900
592 492 916
92 136 140
80 140 144
80 136 156
64 144 184
52 148 232
8 156 288
0 156 368
0 168 464
0 176 552
0 188 632
0 204 696
4 224 748
176 256 796
292 304 828
404 364 864
508 432 892
604 516 912
64 176 144
60 168 148
52 176 176
40 176 196
4 188 244
0 204 304
0 204 380
0 220 472
0 224 552
0 236 632
0 264 700
0 288 760
164 312 796
308 360 836
412 416 868
516 484 888
604 548 908
20 228 148
4 240 164
4 240 188
4 240 216
4 236 264
0 260 324
0 280 408
0 292 480
0 316 568
0 324 628
4 340 708
0 356 756
164 384 800
312 432 832
420 468 860
528 536 892
620 596 904
0 328 160
0 328 172
0 332 204
0 332 244
0 344 300
0 332 348
0 352 424
0 372 496
0 392 572
0 412 636
4 440 700
0 452 748
180 472 792
328 508 824
420 536 856
536 584 888
632 644 904
0 440 180
4 448 204
4 444 232
0 448 272
0 448 328
0 460 396
0 452 456
0 460 520
0 472 584
0 492 648
0 512 700
4 524 748
144 544 796
300 568 820
444 600 852
576 652 880
656 692 904
0 548 212
0 552 232
0 556 268
0 560 312
0 564 364
0 568 432
0 568 496
0 560 548
0 568 608
0 572 660
0 580 704
0 596 752
4 612 788
272 624 828
416 656 852
536 684 884
632 716 900
0 652 272
0 652 288
4 656 324
4 656 364
0 656 404
0 664 460
0 668 528
0 660 580
0 648 624
0 652 672
0 652 712
0 656 748
88 672 780
240 684 816
364 696 844
484 724 872
584 736 900
0 736 344
0 732 352
8 728 388
8 728 424
4 732 452
4 736 504
0 740 556
0 744 612
0 736 648
0 716 680
0 720 712
32 720 756
220 720 788
316 732 824
392 744 848
468 760 880
560 776 904
64 788 416
108 792 436
196 784 456
196 784 484
180 792 512
112 788 544
20 796 580
12 796 624
12 796 672
4 792 700
56 772 732
212 768 768
312 772 796
384 780 824
440 788 848
512 792 876
564 804 900
368 828 496
364 832 508
408 828 536
416 828 552
408 828 572
384 832 592
348 836 624
284 836 648
216 844 688
148 844 720
252 828 744
340 820 772
404 824 800
444 816 824
492 820 852
556 828 884
596 832 904
536 864 588
548 864 592
564 860 600
576 864 616
560 864 628
556 864 640
528 868 656
492 868 676
452 872 704
404 876 732
380 872 764
424 860 788
472 852 808
520 860 832
552 856 860
588 852 880
632 864 904
664 888 652
668 888 656
684 884 664
684 888 668
680 888 680
668 884 688
644 892 696
616 896 712
584 892 728
552 900 748
520 904 776
516 900 804
540 892 820
572 884 836
600 888 860
628 888 880
652 888 904
752 908 700
756 912 704
764 908 712
764 908 716
756 908 724
752 908 732
736 908 736
712 912 744
684 920 756
656 916 772
628 920 792
592 928 816
604 924 832
628 912 848
644 904 864
668 908 884
692 908 908
816 928 756
816 924 764
824 928 764
824 928 768
828 924 772
812 928 768
800 932 768
784 932 780
764 936 784
728 936 796
704 940 804
680 940 824
660 948 848
668 944 864
684 936 872
700 932 892
712 932 904
868 936 788
872 940 796
868 940 792
868 940 796
868 940 804
864 940 812
844 944 804
840 940 808
820 944 812
784 952 816
756 952 816
736 956 828
716 956 852
700 964 876
704 960 884
732 948 892
732 956 904
96 120 136
100 108 136
96 116 148
108 112 164
112 112 200
112 112 264
104 112 352
72 112 448
44 120 544
44 124 628
92 140 684
156 164 744
244 188 784
348 244 832
428 308 860
516 384 892
604 480 916
100 124 136
100 120 140
96 124 156
104 120 168
112 124 208
104 128 280
84 132 360
52 136 452
12 136 544
16 148 632
80 164 696
172 184 756
252 220 796
344 264 836
432 328 868
528 404 896
612 496 916
100 136 136
100 136 140
104 136 160
100 144 180
92 144 228
84 152 288
48 156 376
0 164 468
4 168 556
0 184 632
48 196 696
160 224 756
260 260 796
356 308 836
436 364 868
528 440 896
620 520 912
96 164 144
100 168 156
96 168 164
88 172 196
60 184 240
32 196 296
4 204 376
0 208 464
4 216 552
0 236 628
0 260 700
108 280 748
240 312 792
348 360 836
436 412 860
540 484 892
624 552 908
88 220 156
72 236 164
68 236 180
32 240 216
8 236 252
4 256 320
0 276 396
0 280 476
4 304 564
0 320 632
0 332 704
72 356 756
232 392 796
340 420 824
456 468 864
552 532 888
632 592 904
0 320 164
4 324 180
0 332 204
0 332 236
0 336 292
0 332 348
4 352 420
0 368 500
4 396 576
0 412 644
0 428 704
92 444 752
252 476 796
360 500 828
464 540 860
560 584 888
644 636 904
0 432 184
4 436 200
0 440 228
0 444 268
4 452 324
0 460 392
0 436 440
4 456 520
4 472 584
0 492 648
4 516 696
8 528 740
208 544 788
348 572 824
476 604 852
580 648 880
664 680 904
0 548 220
0 552 240
0 556 260
0 552 300
0 560 364
4 568 424
4 564 488
0 552 544
4 560 604
0 568 656
0 584 708
0 596 744
144 608 788
324 628 820
436 652 852
552 684 880
664 724 900
4 644 276
4 648 284
0 652 312
0 652 356
0 652 408
0 660 456
0 668 528
0 660 580
0 648 624
0 652 676
4 656 716
4 656 752
172 668 784
288 680 820
412 700 852
520 720 876
592 740 896
16 732 344
8 728 348
8 728 376
12 728 412
8 728 452
8 732 500
16 740 552
4 744 608
0 732 644
0 716 676
0 716 716
144 716 756
260 720 784
336 728 820
416 740 844
492 756 876
576 772 900
188 788 420
200 784 432
212 788 452
264 784 480
244 788 512
220 788 540
148 788 580
36 796 624
28 800 668
8 788 704
140 772 728
252 776 760
344 772 796
408 776 820
472 792 852
524 792 876
584 804 904
384 828 496
396 828 504
412 828 528
448 824 552
440 828 564
432 832 596
392 836 624
348 836 652
276 840 688
224 840 720
288 828 744
368 816 768
416 820 796
468 820 824
512 824 856
560 828 876
612 840 904
560 860 584
564 864 596
556 864 596
588 860 616
584 860 628
572 864 644
552 860 660
516 864 680
468 868 700
428 876 740
408 872 768
452 856 780
496 856 808
532 856 832
560 856 860
604 860 884
636 860 904
672 884 648
676 888 656
684 884 660
692 884 668
696 888 680
684 884 692
656 888 700
636 892 712
600 892 724
580 900 752
536 900 776
524 896 800
552 892 820
592 884 840
612 888 860
640 892 880
668 888 904
760 904 700
756 904 700
764 908 712
768 904 716
772 908 724
760 908 732
748 912 736
720 916 748
696 920 756
668 916 768
636 924 788
608 924 812
616 924 836
628 912 844
656 908 868
676 912 888
700 916 904
816 928 756
820 924 756
824 928 760
828 928 768
828 924 772
816 924 768
812 932 780
796 932 784
764 936 784
736 940 792
716 944 808
692 944 824
664 944 844
676 944 864
688 936 872
704 932 888
716 936 900
868 936 788
864 936 788
868 940 792
868 940 796
868 940 804
868 936 808
852 940 808
840 944 812
824 944 816
792 948 816
764 952 820
748 952 828
716 960 852
704 960 872
708 956 884
732 948 892
736 960 900
124 120 136
120 120 136
124 116 148
120 116 156
144 112 192
164 108 256
180 112 344
180 112 440
188 112 536
200 116 616
232 120 680
276 148 736
336 184 788
404 236 828
472 304 856
552 388 896
632 480 912
116 124 136
124 120 136
128 120 144
132 124 168
152 124 208
164 120 264
172 120 348
172 128 448
168 132 544
192 140 620
236 152 692
276 172 752
328 208 792
404 264 832
484 332 872
560 408 896
