滤镜资源/vsco 137 3dl+cube/VSCO 137 3dl/VSCO E5 Essence.3dl
#Generated by Picture Instruments - Look Converter
3DMESH
Mesh 4 10
0 64 128 192 256 320 384 448 512 576 640 704 768 832 896 960 1023
96 128 132
96 124 132
108 128 140
100 132 168
108 136 204
100 152 244
104 164 300
116 184 356
128 204 416
156 228 476
180 264 540
232 300 608
288 340 676
348 388 740
440 456 796
564 544 852
680 640 884
100 132 132
92 136 140
96 136 148
100 144 180
104 148 208
100 164 252
104 176 308
128 196 360
136 220 428
160 240 480
184 268 540
228 300 612
280 344 668
356 400 748
440 456 796
544 544 844
676 640 884
88 144 136
92 148 144
96 148 160
92 160 188
104 172 224
104 184 260
120 208 324
128 220 376
140 244 436
168 268 488
196 292 552
232 316 616
288 360 676
352 408 744
444 468 800
556 556 848
668 644 884
68 184 144
84 184 160
88 184 176
84 196 200
92 204 240
92 220 288
104 240 336
136 260 396
156 280 456
180 300 504
200 320 560
240 352 632
292 384 684
352 428 756
440 488 804
556 564 852
672 656 884
48 232 164
64 240 180
76 240 196
48 248 228
76 240 256
84 264 304
88 280 348
100 292 392
136 316 456
180 336 508
212 360 564
252 388 632
288 412 688
340 448 752
428 500 800
536 572 844
672 668 888
8 300 188
32 304 204
56 304 228
24 316 260
32 316 292
60 316 332
80 328 376
104 336 412
108 356 468
152 364 512
192 392 572
244 424 632
296 448 692
360 484 748
440 536 804
544 596 848
672 680 892
12 368 224
4 372 240
36 376 256
4 384 300
32 388 324
12 392 372
52 396 412
96 392 444
116 408 492
152 412 524
156 432 576
208 456 636
264 476 692
328 520 756
420 560 804
548 628 856
660 692 884
16 452 272
0 456 284
32 452 296
0 460 328
36 464 364
12 468 408
4 476 444
84 464 476
124 464 520
164 468 552
176 480 592
184 496 640
216 516 688
280 548 748
368 588 800
496 644 848
632 708 888
16 528 312
0 532 328
52 528 344
52 532 372
72 536 404
40 544 444
12 556 492
68 540 508
140 528 548
184 532 584
200 536 628
208 548 660
224 560 708
240 580 756
320 612 792
456 664 848
624 732 896
20 600 356
52 600 372
124 600 396
136 608 424
148 604 448
148 608 488
116 620 524
88 612 560
172 604 588
212 600 624
224 600 656
236 600 696
252 608 724
268 624 768
312 648 804
408 692 852
572 748 892
100 664 420
148 676 436
204 672 452
212 676 480
220 672 496
224 672 528
200 680 556
192 684 592
180 688 636
252 668 656
268 660 688
280 660 716
288 660 740
300 672 780
356 700 820
452 732 856
572 780 892
232 732 484
252 732 496
300 732 508
304 736 528
308 736 544
308 736 576
296 744 604
280 740 628
260 744 660
268 740 692
304 728 708
324 720 740
340 716 764
352 724 800
396 732 824
476 768 860
604 812 896
356 784 552
368 788 564
392 788 572
404 788 588
404 792 600
392 788 612
388 792 636
372 792 660
352 792 696
348 796 720
352 792 748
376 776 760
392 768 784
408 776 812
448 780 832
524 808 868
636 844 900
484 832 628
484 836 632
504 832 636
508 832 648
516 832 664
512 836 680
488 840 696
476 836 704
440 844 724
432 844 748
416 840 776
424 832 792
456 820 808
464 812 824
512 824 844
576 848 884
676 884 912
596 868 688
600 876 700
608 872 700
624 876 720
612 868 712
612 872 728
596 872 732
576 872 748
540 884 760
524 880 772
512 880 800
504 884 816
512 876 828
528 864 840
568 860 856
624 884 888
716 908 924
692 908 756
696 912 760
704 908 756
712 912 772
712 908 768
696 908 776
688 912 784
672 916 780
640 916 792
612 920 796
604 920 820
588 920 832
588 924 844
596 916 864
624 908 872
676 916 900
760 944 940
776 936 804
772 936 804
780 940 804
784 940 808
784 936 812
776 940 820
768 944 824
744 940 824
724 944 828
688 948 832
672 948 836
668 956 848
660 956 864
664 960 884
684 952 904
720 944 916
776 968 940
104 124 132
100 124 132
112 128 148
108 136 168
116 136 200
116 148 244
120 164 296
132 180 356
144 208 420
168 232 480
204 260 540
236 296 608
296 336 668
360 392 736
460 460 800
560 540 852
672 628 876
96 132 128
100 136 140
104 140 152
108 148 176
112 152 216
120 164 256
132 180 316
148 200 372
152 224 428
180 244 484
208 276 552
244 312 616
308 352 692
368 400 752
456 460 804
564 548 848
684 640 888
100 144 136
104 148 144
112 156 164
104 160 184
112 176 228
120 188 268
128 204 320
136 220 376
164 244 440
180 264 492
208 288 552
248 324 620
300 356 680
360 404 744
456 472 804
556 544 848
676 644 888
76 184 136
92 184 156
100 192 176
100 196 200
108 208 244
112 220 284
132 232 336
144 256 388
172 276 452
184 296 504
216 320 568
248 348 628
296 380 684
356 428 748
448 484 804
564 568 856
672 648 884
60 228 152
80 244 180
88 240 196
84 244 224
96 244 256
100 260 300
116 280 352
128 296 400
156 316 460
192 340 512
228 364 572
260 388 636
300 416 700
360 456 760
444 504 808
556 584 856
676 668 884
0 300 172
48 300 200
72 312 224
72 312 252
52 320 304
96 316 324
104 328 376
120 344 420
136 356 468
164 372 512
208 400 572
252 420 632
304 448 696
368 488 748
440 528 804
540 592 848
668 676 888
0 376 220
8 384 240
60 380 260
60 388 292
40 388 332
24 396 372
92 396 416
112 400 444
140 404 492
164 416 528
180 436 576
220 456 636
280 480 700
340 516 756
428 556 800
548 628 852
676 704 896
0 452 256
4 456 276
56 456 300
72 460 332
60 468 372
4 476 412
40 476 452
116 464 480
156 464 528
176 472 564
192 476 596
196 500 648
228 516 688
296 544 752
392 588 808
516 640 852
644 708 888
0 532 308
0 528 320
80 528 348
100 536 372
108 540 404
100 548 444
32 548 484
100 548 516
168 532 556
192 536 588
216 536 620
220 548 660
232 560 708
248 576 756
332 612 800
452 664 848
612 724 892
4 600 360
60 604 372
144 604 396
156 604 420
172 604 448
172 612 484
148 620 528
132 624 564
188 604 588
224 596 612
236 600 656
248 604 692
264 608 724
284 628 772
316 648 808
408 696 848
584 756 896
104 668 412
148 676 432
208 672 456
232 672 476
240 676 496
232 676 524
232 684 564
208 688 596
204 684 636
248 668 652
280 660 684
288 660 708
300 660 744
312 672 784
356 692 816
440 732 856
568 776 892
232 732 480
248 736 492
292 740 508
312 736 532
316 736 552
320 736 580
312 740 608
284 744 628
276 744 664
272 744 700
316 724 716
336 716 744
348 720 768
356 724 800
396 736 832
492 776 872
604 812 896
348 788 552
368 792 564
388 792 576
420 792 596
416 792 604
412 788 624
400 792 640
380 792 672
364 796 700
344 796 728
348 800 748
384 776 764
400 772 784
416 772 812
452 788 844
520 804 868
644 852 908
476 840 624
484 836 632
504 836 640
524 836 652
524 836 664
516 836 680
496 836 692
480 836 704
456 844 728
436 844 752
428 844 780
436 836 800
460 820 800
476 820 824
508 824 848
572 848 884
676 880 912
592 876 692
604 876 700
600 872 700
620 868 712
620 868 724
612 872 732
596 872 736
580 876 752
540 876 756
528 880 776
516 880 796
504 884 816
516 876 832
540 864 844
568 864 856
628 880 892
724 912 928
692 908 752
696 912 760
712 912 764
712 912 772
720 912 776
700 908 776
696 908 784
676 912 784
644 912 792
616 924 804
600 924 816
596 920 836
592 920 856
600 920 868
624 908 876
672 920 896
756 940 936
772 936 804
772 936 804
780 940 808
784 940 808
784 936 816
784 944 824
768 944 824
752 944 828
732 944 832
696 952 832
676 956 836
668 956 848
660 960 872
664 960 884
684 952 904
720 944 916
776 968 936
112 128 132
112 124 136
116 128 144
124 132 160
136 140 196
144 148 244
156 164 300
168 188 368
184 212 420
208 240 488
228 268 536
260 300 600
316 340 672
384 392 740
472 460 796
568 540 844
696 644 884
120 136 132
120 132 136
124 136 152
128 148 172
140 156 216
148 164 256
160 184 312
172 200 368
188 228 432
208 248 484
236 276 552
272 312 616
320 356 688
384 400 744
472 468 804
576 548 848
696 644 880
120 148 132
128 148 144
128 152 164
132 164 184
144 172 228
156 192 276
168 200 324
180 228 384
200 244 448
212 272 492
244 296 552
280 324 624
324 372 692
396 420 752
468 476 800
576 560 856
688 648 884
108 180 136
120 180 148
132 188 176
132 196 200
132 216 244
144 220 284
168 240 340
176 260 392
192 272 452
220 296 504
248 320 568
272 344 620
320 380 688
384 428 744
456 488 804
572 568 856
692 660 892
104 228 156
108 236 172
124 244 196
128 248 228
140 256 268
144 268 308
148 280 356
168 296 404
196 320 460
224 340 520
256 356 568
276 388 640
316 416 696
372 452 752
460 512 808
572 584 860
680 656 884
68 296 180
76 304 192
116 308 224
128 312 256
116 316 296
136 320 332
148 332 380
160 344 428
172 356 468
208 380 532
244 400 576
284 424 636
328 456 700
384 492 756
460 536 816
560 600 860
672 676 888
4 372 212
32 372 224
104 380 256
124 388 292
116 392 324
108 400 372
144 392 404
160 400 452
180 404 488
196 420 536
212 436 580
256 464 644
296 488 696
364 516 756
444 560 804
556 624 852
676 696 892
0 456 248
4 460 272
92 464 308
140 460 332
128 468 368
112 472 408
120 476 452
168 468 492
188 468 516
208 472 560
224 480 604
228 496 644
260 520 696
324 544 748
404 584 804
524 644 852
672 720 892
0 532 300
4 528 308
108 536 344
164 536 376
168 540 404
160 544 448
132 548 488
160 548 528
212 536 552
232 540 596
244 540 632
244 548 668
252 560 716
268 580 752
356 612 808
488 672 860
616 724 888
12 604 356
68 600 364
148 604 392
204 608 420
212 608 452
220 608 488
200 616 520
180 620 568
216 608 592
256 604 620
264 600 656
272 604 692
284 612 724
296 624 760
324 652 804
424 692 852
600 752 892
124 672 412
160 672 420
212 676 448
264 676 476
272 676 500
268 676 524
264 680 564
248 688 596
240 692 632
284 672 656
300 660 680
312 664 708
316 668 748
328 672 780
372 700 816
444 732 852
580 784 892
232 736 472
252 736 484
292 740 504
336 740 528
348 736 552
348 744 580
336 744 608
320 740 632
304 748 668
304 740 700
340 724 716
356 720 740
356 716 764
372 724 796
408 736 836
488 772 868
608 816 900
352 788 540
368 792 556
388 788 568
428 788 588
440 788 604
432 796 624
424 792 644
404 792 672
380 792 692
364 800 728
372 796 744
400 780 764
412 772 792
436 776 816
452 780 840
536 808 876
648 852 908
476 840 624
488 840 624
504 832 636
528 836 652
540 840 668
528 836 676
520 840 692
496 840 708
468 836 728
460 844 752
440 844 780
444 836 792
468 824 804
484 816 824
520 828 852
580 852 884
684 880 916
588 872 684
596 872 692
604 876 700
620 872 712
632 872 724
620 872 736
612 872 732
588 872 748
556 884 752
540 880 776
524 884 800
524 884 820
528 880 836
552 868 840
580 864 860
628 880 892
716 908 924
692 908 752
700 912 756
712 912 764
712 912 764
720 912 776
712 908 780
704 908 788
684 912 784
652 920 800
620 920 804
612 924 820
604 924 832
600 924 856
608 916 868
636 904 880
672 920 896
748 936 932
772 936 800
776 936 804
780 940 808
784 940 808
792 940 820
792 940 820
772 940 820
760 940 828
736 944 832
700 948 828
684 956 840
680 956 856
668 956 872
672 960 888
688 948 904
724 944 912
772 968 936
136 128 128
140 132 136
152 132 144
144 132 160
160 144 188
180 160 240
192 168 292
212 192 360
228 220 416
244 236 480
268 268 536
308 300 604
352 340 668
408 396 740
488 460 792
588 540 844
708 648 884
148 136 128
148 136 128
156 140 152
152 144 172
172 160 204
180 168 248
204 188 308
216 204 360
228 232 428
256 256 488
288 284 548
312 312 608
352 356 676
416 404 744
500 472 800
592 552 848
