滤镜资源/vsco 137 3dl+cube/VSCO 137 3dl/VSCO K1 Analog.3dl
#Generated by Picture Instruments - Look Converter
3DMESH
Mesh 4 10
0 64 128 192 256 320 384 448 512 576 640 704 768 832 896 960 1023
0 0 4
0 0 12
24 4 44
0 0 100
24 4 172
0 0 260
0 0 356
24 8 440
0 8 540
32 16 616
20 28 676
20 28 728
36 36 764
20 32 796
36 36 820
4 32 836
0 32 860
0 24 4
0 20 24
24 20 44
0 8 92
24 16 172
0 8 260
0 12 352
28 16 444
0 16 540
32 24 608
0 24 672
4 32 732
36 32 764
0 32 804
32 36 820
4 36 840
0 40 856
0 80 32
0 76 36
24 64 60
0 52 104
28 36 168
4 36 252
0 40 348
28 40 436
0 44 532
32 48 604
0 52 668
0 56 724
32 56 764
0 60 800
32 56 816
4 64 832
0 60 856
4 184 56
0 176 68
32 160 84
0 152 128
24 120 180
4 100 260
4 88 352
28 88 440
0 88 524
32 88 600
8 92 664
0 96 724
32 92 760
4 96 788
32 96 812
4 100 836
0 100 848
8 284 96
0 288 108
32 276 120
4 268 172
32 244 216
8 216 276
4 180 352
32 160 432
4 156 520
32 144 596
8 140 656
0 140 708
32 140 748
0 140 780
28 140 808
8 144 820
0 144 844
12 404 132
0 400 144
32 392 164
0 380 204
36 368 256
12 352 332
0 308 368
32 268 444
4 248 532
32 224 604
8 216 664
4 212 716
32 204 740
0 200 780
28 192 796
8 192 816
0 200 840
12 508 172
0 508 184
36 500 204
0 496 240
32 476 288
12 464 356
0 456 428
32 392 480
0 356 560
32 316 612
12 316 676
0 300 728
28 292 756
0 292 796
28 284 820
12 284 828
0 280 844
16 608 212
0 604 212
36 596 232
0 592 272
36 584 320
16 568 384
0 556 456
36 544 528
0 484 572
32 436 632
12 408 692
0 392 740
32 380 772
4 376 812
28 372 828
12 368 848
0 360 860
20 688 244
0 692 252
36 684 268
4 676 308
36 668 352
20 656 416
0 648 488
32 632 548
0 604 616
28 552 648
16 512 712
0 488 764
28 472 792
0 460 824
28 452 840
16 444 856
0 440 876
20 752 276
0 756 280
36 752 296
0 752 336
36 736 384
20 728 436
0 720 504
32 700 572
0 696 652
32 656 688
20 612 728
0 584 780
28 560 808
0 544 840
24 532 852
16 516 872
0 512 888
20 812 300
0 816 312
36 808 328
0 800 356
32 788 400
24 784 464
0 776 520
32 768 592
0 764 664
32 748 736
24 700 752
0 672 800
28 640 820
0 624 852
28 608 872
20 596 884
4 592 900
20 856 320
0 860 332
36 856 340
0 852 372
32 840 408
24 836 476
0 828 540
32 820 600
0 808 672
32 804 740
24 796 796
0 748 804
28 720 840
0 700 868
28 676 884
20 668 900
0 656 920
28 896 344
0 900 348
36 892 360
0 888 392
32 884 428
24 876 484
0 872 548
32 856 612
4 848 688
32 848 752
24 848 816
0 824 844
28 784 852
0 760 876
28 740 896
28 728 912
0 716 928
28 932 360
0 928 364
32 924 372
0 920 408
32 916 448
24 908 500
0 908 564
32 896 620
0 884 700
32 880 764
28 876 820
0 884 872
32 844 880
0 820 892
28 800 904
24 780 924
0 768 936
28 952 372
0 964 380
28 956 388
0 956 424
28 944 452
28 936 512
0 936 568
32 928 624
0 924 704
32 908 756
28 912 828
0 912 876
32 908 900
4 876 912
32 852 916
24 832 928
0 820 944
28 976 388
0 984 396
28 980 404
0 976 432
28 972 472
32 964 532
4 968 580
32 956 628
0 952 712
32 940 772
28 940 828
0 948 880
32 940 916
0 932 944
28 896 936
28 880 940
0 864 964
28 992 400
0 1004 404
28 996 404
0 996 444
28 992 476
36 972 532
24 976 592
36 968 648
20 968 720
32 956 776
28 956 828
0 960 880
28 956 916
0 960 956
28 940 956
40 912 952
28 892 956
8 0 0
4 0 12
20 4 40
24 12 104
20 8 176
8 0 268
8 0 372
0 0 456
0 0 544
0 4 616
20 24 680
16 24 728
20 28 764
16 32 796
20 28 824
0 24 848
0 28 856
8 20 0
16 20 20
12 16 44
12 12 100
8 12 184
4 4 272
4 4 372
0 12 468
0 16 544
0 20 620
4 20 688
0 24 736
0 32 776
0 32 804
0 36 832
4 36 848
0 40 860
16 80 24
12 80 32
12 68 56
12 60 108
4 44 176
4 40 260
0 40 352
4 36 452
0 44 540
0 48 616
0 44 676
0 48 724
0 52 764
0 56 796
0 56 820
0 60 840
0 60 864
8 180 52
12 176 64
8 168 88
8 156 132
8 128 180
4 108 264
4 84 348
4 88 440
0 88 532
0 88 608
0 96 668
0 96 728
0 92 756
4 96 796
0 96 816
0 100 840
0 100 852
16 288 84
12 292 104
8 276 120
8 260 168
12 248 224
8 212 276
4 180 364
0 156 452
4 152 532
4 140 596
4 140 668
0 140 712
0 144 756
4 144 792
0 140 812
0 144 828
0 144 844
12 404 124
4 400 136
8 396 160
8 384 200
8 372 256
8 348 320
8 308 376
0 272 452
4 248 536
4 232 612
0 220 676
4 212 716
0 208 752
0 200 780
4 196 804
0 192 824
0 192 836
8 512 164
8 508 180
4 504 196
4 492 240
4 484 296
12 468 360
4 456 432
0 404 472
0 360 552
0 332 628
0 312 688
4 304 736
0 292 760
4 284 796
4 280 820
4 276 840
0 276 848
4 608 204
4 608 212
8 604 232
4 596 276
8 584 324
8 572 388
4 552 456
8 544 532
4 480 584
0 436 648
0 404 696
0 392 744
4 384 780
4 376 812
4 372 832
0 364 848
0 360 860
8 688 236
4 688 248
4 684 268
4 676 308
4 668 352
8 660 420
0 640 476
4 628 552
0 612 616
0 560 660
0 516 720
0 492 760
0 472 792
4 464 828
0 456 844
0 452 864
0 448 876
4 756 260
4 752 272
4 756 300
0 752 328
4 740 376
4 728 436
0 724 504
4 708 580
0 696 644
4 660 684
4 624 736
4 588 784
0 564 812
0 552 836
0 532 856
0 524 876
0 512 888
0 812 288
4 816 304
4 812 324
4 804 352
4 796 404
0 792 460
4 780 524
0 768 596
0 760 664
4 760 736
0 700 756
0 668 796
0 648 828
0 628 856
0 612 876
0 596 892
0 592 900
4 860 312
4 860 332
4 856 344
4 852 368
4 840 420
4 836 480
0 824 540
4 820 604
8 808 680
4 804 744
4 796 800
4 744 804
0 720 844
0 692 868
0 676 888
4 668 904
0 656 920
0 900 332
0 896 348
0 896 360
4 892 396
4 884 432
4 880 488
4 872 544
4 864 624
4 852 684
4 848 756
4 844 816
4 820 844
4 784 856
4 764 876
0 748 900
0 728 920
0 716 928
4 928 352
0 928 360
0 924 380
0 920 404
0 920 448
0 912 500
0 904 552
0 900 624
0 884 700
0 884 772
0 888 816
0 884 872
0 848 876
0 820 888
0 804 908
0 784 928
0 768 936
0 956 360
0 964 380
0 952 392
0 956 424
0 944 456
0 940 512
0 936 568
4 928 644
0 924 704
0 912 768
0 912 828
0 916 880
0 908 908
4 876 912
0 852 916
0 840 940
0 820 944
0 980 376
0 984 392
0 992 408
0 984 436
0 976 472
0 968 520
0 964 576
4 956 636
0 952 712
0 944 780
0 940 828
0 948 880
0 944 920
0 932 944
0 900 940
0 884 948
0 864 964
0 1000 388
0 1000 400
0 996 408
0 996 444
0 992 472
20 980 532
24 976 588
20 972 644
20 968 716
20 964 780
0 964 832
0 960 880
0 960 920
0 964 948
0 944 960
24 920 960
24 892 960
36 4 0
36 4 4
44 0 44
56 12 96
56 24 172
56 24 264
48 16 356
28 8 464
24 8 552
4 0 636
20 20 680
20 20 732
16 20 764
20 24 800
16 24 824
0 16 852
0 16 864
40 20 4
36 16 16
40 20 48
48 28 100
56 36 176
44 24 268
28 20 364
16 8 460
12 8 552
0 4 636
0 8 692
0 16 740
0 24 780
0 24 808
0 28 828
0 28 852
0 28 868
28 68 8
32 68 24
40 68 52
36 56 96
32 48 180
28 48 268
16 40 368
12 36 464
4 40 552
0 36 632
0 40 688
0 44 744
4 52 776
0 52 808
0 56 824
0 60 848
0 56 860
36 172 60
44 164 68
36 164 84
44 156 128
36 132 180
28 108 260
24 92 352
16 88 448
4 84 536
0 80 624
0 88 676
0 88 732
0 88 764
0 92 792
0 92 820
0 92 844
0 92 860
40 280 88
40 284 88
32 276 116
36 268 164
36 256 224
32 212 272
24 188 356
12 156 444
8 148 532
4 136 616
0 132 672
0 144 728
0 144 764
0 132 784
0 140 812
0 144 836
0 140 848
36 392 116
36 392 120
32 400 164
32 380 196
32 360 252
32 348 320
28 304 372
20 264 464
12 240 548
4 228 624
0 216 680
0 204 724
0 204 760
0 192 784
0 188 804
0 192 832
0 192 840
24 504 152
28 508 160
28 504 192
24 496 236
24 480 288
24 468 352
24 448 416
20 400 472
12 360 556
4 332 628
0 320 692
4 304 736
4 288 768
4 284 800
4 280 820
4 276 840
4 276 852
28 608 188
20 608 204
24 608 236
20 596 268
16 580 320
20 572 388
24 552 452
24 544 528
16 484 568
12 444 636
4 412 704
0 396 756
4 384 788
0 372 812
0 368 832
0 364 856
0 356 868
24 692 224
20 692 232
16 688 264
16 680 296
16 668 356
16 660 412
16 644 480
20 636 556
16 616 620
12 556 668
8 516 732
0 484 764
0 468 800
4 464 828
0 452 852
0 452 868
0 440 876
16 756 252
20 760 264
12 752 288
16 748 328
16 740 372
16 728 432
16 724 500
12 708 568
16 696 640
16 668 688
8 620 732
4 588 784
0 564 812
0 544 840
0 536 864
0 520 880
0 512 888
16 812 284
16 812 288
12 808 316
12 808 352
16 796 400
8 792 448
8 780 516
12 768 592
8 760 664
8 756 732
12 704 752
8 668 792
4 644 828
4 628 856
0 616 880
0 600 896
0 584 904
8 860 304
8 860 308
8 852 336
12 852 368
8 848 412
12 840 476
12 828 536
12 820 604
12 808 672
16 804 744
8 800 804
12 748 808
4 724 844
0 700 872
0 684 892
0 668 904
0 660 920
12 896 320
12 896 328
8 892 356
12 892 384
4 888 428
8 880 488
8 868 544
8 860 620
8 848 684
12 848 756
8 844 812
8 816 844
8 788 860
4 764 884
0 744 900
0 728 920
0 720 924
4 932 340
4 928 348
8 932 372
8 924 400
4 924 448
4 916 496
4 908 556
4 896 620
4 888 696
4 884 764
8 884 816
8 880 868
8 852 876
8 820 892
4 808 912
0 792 932
0 768 944
4 964 352
4 956 368
4 956 388
4 952 416
4 948 456
0 940 504
4 936 564
4 924 624
0 924 700
4 916 768
0 912 824
0 916 876
0 912 908
4 876 908
4 856 920
0 840 940
0 828 952
4 988 368
4 980 368
0 988 404
0 976 420
4 976 472
4 972 516
0 960 572
4 952 648
0 948 708
4 944 780
4 944 832
4 940 880
0 944 920
0 924 940
0 900 940
0 876 944
0 868 956
4 1000 376
4 1000 380
4 1000 408
0 996 432
4 996 476
24 980 528
24 980 588
20 972 652
24 964 720
24 960 780
4 960 836
4 964 884
0 964 928
0 964 956
4 940 960
28 916 960
28 896 960
80 12 0
80 8 12
84 4 28
100 0 96
100 8 164
116 24 252
128 48 356
112 48 452
88 40 548
68 28 624
56 32 688
36 24 740
24 20 780
24 20 812
20 16 832
4 0 856
0 0 876
76 24 12
80 24 20
88 20 36
96 20 100
116 28 172
112 44 260
120 64 356
100 56 456
72 36 552
52 24 624
40 16 704
16 4 752
4 4 788
0 4 820
4 8 848
0 20 864
