滤镜资源/vsco 137 3dl+cube/VSCO 137 3dl/VSCO B5Bw Moody.3dl
#Generated by Picture Instruments - Look Converter
3DMESH
Mesh 4 10
0 64 128 192 256 320 384 448 512 576 640 704 768 832 896 960 1023
84 84 84
84 84 84
84 84 84
84 84 84
88 88 88
88 88 88
88 88 88
88 88 88
88 88 88
88 88 88
88 88 88
92 92 92
92 92 92
92 92 92
92 92 92
96 96 96
96 96 96
88 88 88
88 88 88
88 88 88
88 88 88
88 88 88
92 92 92
92 92 92
92 92 92
92 92 92
92 92 92
96 96 96
96 96 96
96 96 96
96 96 96
100 100 100
100 100 100
100 100 100
92 92 92
92 92 92
92 92 92
92 92 92
92 92 92
96 96 96
96 96 96
96 96 96
96 96 96
100 100 100
100 100 100
100 100 100
104 104 104
104 104 104
104 104 104
108 108 108
108 108 108
96 96 96
96 96 96
96 96 96
100 100 100
100 100 100
100 100 100
100 100 100
104 104 104
104 104 104
108 108 108
108 108 108
108 108 108
112 112 112
112 112 112
116 116 116
120 120 120
120 120 120
100 100 100
104 104 104
104 104 104
104 104 104
108 108 108
108 108 108
112 112 112
112 112 112
116 116 116
116 116 116
120 120 120
120 120 120
124 124 124
128 128 128
128 128 128
132 132 132
132 132 132
108 108 108
112 112 112
112 112 112
116 116 116
116 116 116
120 120 120
124 124 124
124 124 124
128 128 128
132 132 132
136 136 136
136 136 136
140 140 140
144 144 144
148 148 148
152 152 152
160 160 160
120 120 120
124 124 124
128 128 128
128 128 128
132 132 132
136 136 136
140 140 140
144 144 144
148 148 148
152 152 152
156 156 156
160 160 160
164 164 164
172 172 172
176 176 176
180 180 180
184 184 184
136 136 136
140 140 140
144 144 144
148 148 148
156 156 156
156 156 156
160 160 160
168 168 168
172 172 172
176 176 176
184 184 184
192 192 192
196 196 196
204 204 204
216 216 216
224 224 224
224 224 224
160 160 160
164 164 164
168 168 168
176 176 176
180 180 180
188 188 188
196 196 196
200 200 200
204 204 204
216 216 216
224 224 224
232 232 232
244 244 244
248 248 248
256 256 256
268 268 268
272 272 272
188 188 188
196 196 196
204 204 204
212 212 212
216 216 216
224 224 224
232 232 232
244 244 244
252 252 252
264 264 264
272 272 272
280 280 280
292 292 292
304 304 304
316 316 316
324 324 324
332 332 332
228 228 228
236 236 236
244 244 244
260 260 260
268 268 268
280 280 280
284 284 284
296 296 296
308 308 308
320 320 320
332 332 332
348 348 348
352 352 352
364 364 364
380 380 380
392 392 392
400 400 400
284 284 284
292 292 292
304 304 304
312 312 312
320 320 320
332 332 332
348 348 348
360 360 360
368 368 368
380 380 380
396 396 396
408 408 408
428 428 428
440 440 440
444 444 444
464 464 464
472 472 472
340 340 340
352 352 352
364 364 364
376 376 376
392 392 392
396 396 396
416 416 416
428 428 428
440 440 440
460 460 460
472 472 472
480 480 480
496 496 496
508 508 508
520 520 520
532 532 532
540 540 540
412 412 412
420 420 420
432 432 432
444 444 444
460 460 460
472 472 472
488 488 488
500 500 500
512 512 512
524 524 524
536 536 536
552 552 552
564 564 564
572 572 572
588 588 588
600 600 600
608 608 608
476 476 476
496 496 496
508 508 508
520 520 520
520 520 520
540 540 540
556 556 556
568 568 568
584 584 584
592 592 592
604 604 604
616 616 616
628 628 628
640 640 640
648 648 648
660 660 660
668 668 668
548 548 548
560 560 560
572 572 572
584 584 584
596 596 596
608 608 608
620 620 620
632 632 632
644 644 644
652 652 652
664 664 664
676 676 676
684 684 684
696 696 696
704 704 704
712 712 712
720 720 720
604 604 604
616 616 616
628 628 628
640 640 640
648 648 648
660 660 660
672 672 672
680 680 680
692 692 692
700 700 700
704 704 704
720 720 720
728 728 728
736 736 736
744 744 744
752 752 752
756 756 756
84 84 84
84 84 84
88 88 88
88 88 88
88 88 88
88 88 88
88 88 88
88 88 88
92 92 92
92 92 92
92 92 92
92 92 92
92 92 92
96 96 96
96 96 96
96 96 96
96 96 96
88 88 88
88 88 88
92 92 92
92 92 92
92 92 92
92 92 92
92 92 92
96 96 96
96 96 96
96 96 96
96 96 96
100 100 100
100 100 100
100 100 100
100 100 100
104 104 104
104 104 104
92 92 92
92 92 92
96 96 96
96 96 96
96 96 96
96 96 96
100 100 100
100 100 100
100 100 100
104 104 104
104 104 104
104 104 104
108 108 108
108 108 108
112 112 112
112 112 112
112 112 112
96 96 96
100 100 100
100 100 100
100 100 100
104 104 104
104 104 104
104 104 104
108 108 108
108 108 108
112 112 112
112 112 112
116 116 116
116 116 116
120 120 120
124 124 124
124 124 124
124 124 124
104 104 104
108 108 108
108 108 108
108 108 108
112 112 112
112 112 112
116 116 116
120 120 120
120 120 120
124 124 124
128 128 128
128 128 128
132 132 132
136 136 136
140 140 140
144 144 144
144 144 144
116 116 116
116 116 116
120 120 120
120 120 120
124 124 124
128 128 128
132 132 132
132 132 132
136 136 136
140 140 140
144 144 144
148 148 148
152 152 152
156 156 156
160 160 160
168 168 168
168 168 168
128 128 128
132 132 132
136 136 136
136 136 136
140 140 140
144 144 144
148 148 148
152 152 152
160 160 160
164 164 164
168 168 168
176 176 176
180 180 180
184 184 184
192 192 192
200 200 200
204 204 204
148 148 148
152 152 152
156 156 156
160 160 160
164 164 164
172 172 172
176 176 176
184 184 184
188 188 188
196 196 196
200 200 200
208 208 208
216 216 216
224 224 224
236 236 236
244 244 244
248 248 248
172 172 172
180 180 180
184 184 184
192 192 192
196 196 196
208 208 208
212 212 212
220 220 220
228 228 228
236 236 236
244 244 244
256 256 256
264 264 264
276 276 276
284 284 284
296 296 296
308 308 308
208 208 208
216 216 216
224 224 224
228 228 228
240 240 240
248 248 248
260 260 260
272 272 272
276 276 276
284 284 284
296 296 296
312 312 312
324 324 324
336 336 336
340 340 340
356 356 356
364 364 364
248 248 248
260 260 260
272 272 272
284 284 284
296 296 296
304 304 304
316 316 316
324 324 324
336 336 336
348 348 348
364 364 364
372 372 372
388 388 388
400 400 400
412 412 412
424 424 424
432 432 432
308 308 308
316 316 316
332 332 332
340 340 340
352 352 352
364 364 364
380 380 380
388 388 388
404 404 404
416 416 416
428 428 428
448 448 448
460 460 460
464 464 464
480 480 480
496 496 496
504 504 504
372 372 372
384 384 384
400 400 400
412 412 412
420 420 420
436 436 436
444 444 444
460 460 460
476 476 476
484 484 484
496 496 496
512 512 512
528 528 528
544 544 544
556 556 556
560 560 560
572 572 572
440 440 440
452 452 452
464 464 464
484 484 484
492 492 492
504 504 504
512 512 512
532 532 532
544 544 544
556 556 556
572 572 572
584 584 584
592 592 592
604 604 604
616 616 616
628 628 628
636 636 636
508 508 508
528 528 528
536 536 536
548 548 548
556 556 556
572 572 572
584 584 584
600 600 600
608 608 608
620 620 620
632 632 632
644 644 644
652 652 652
668 668 668
672 672 672
684 684 684
692 692 692
576 576 576
588 588 588
600 600 600
616 616 616
632 632 632
632 632 632
644 644 644
656 656 656
668 668 668
684 684 684
688 688 688
696 696 696
708 708 708
716 716 716
724 724 724
740 740 740
740 740 740
632 632 632
644 644 644
652 652 652
668 668 668
672 672 672
684 684 684
692 692 692
708 708 708
712 712 712
720 720 720
728 728 728
740 740 740
748 748 748
756 756 756
768 768 768
772 772 772
776 776 776
88 88 88
88 88 88
88 88 88
88 88 88
88 88 88
92 92 92
92 92 92
92 92 92
92 92 92
92 92 92
96 96 96
96 96 96
96 96 96
96 96 96
100 100 100
100 100 100
100 100 100
92 92 92
92 92 92
92 92 92
92 92 92
92 92 92
96 96 96
96 96 96
96 96 96
96 96 96
100 100 100
100 100 100
100 100 100
104 104 104
104 104 104
104 104 104
108 108 108
108 108 108
96 96 96
96 96 96
96 96 96
100 100 100
100 100 100
100 100 100
104 104 104
104 104 104
104 104 104
108 108 108
108 108 108
108 108 108
112 112 112
112 112 112
116 116 116
120 120 120
120 120 120
100 100 100
104 104 104
104 104 104
104 104 104
108 108 108
108 108 108
112 112 112
112 112 112
116 116 116
116 116 116
120 120 120
120 120 120
124 124 124
128 128 128
132 132 132
132 132 132
132 132 132
108 108 108
112 112 112
112 112 112
116 116 116
116 116 116
120 120 120
124 124 124
124 124 124
128 128 128
132 132 132
136 136 136
136 136 136
140 140 140
144 144 144
148 148 148
152 152 152
156 156 156
120 120 120
124 124 124
128 128 128
128 128 128
132 132 132
136 136 136
140 140 140
144 144 144
148 148 148
152 152 152
156 156 156
160 160 160
164 164 164
172 172 172
176 176 176
180 180 180
184 184 184
136 136 136
140 140 140
144 144 144
148 148 148
152 152 152
156 156 156
160 160 160
168 168 168
172 172 172
180 180 180
188 188 188
196 196 196
196 196 196
204 204 204
212 212 212
220 220 220
224 224 224
160 160 160
164 164 164
172 172 172
176 176 176
180 180 180
188 188 188
192 192 192
200 200 200
208 208 208
216 216 216
224 224 224
232 232 232
240 240 240
248 248 248
256 256 256
268 268 268
272 272 272
188 188 188
196 196 196
204 204 204
208 208 208
216 216 216
224 224 224
236 236 236
244 244 244
252 252 252
260 260 260
272 272 272
276 276 276
292 292 292
304 304 304
316 316 316
328 328 328
328 328 328
232 232 232
236 236 236
248 248 248
256 256 256
264 264 264
276 276 276
288 288 288
292 292 292
308 308 308
320 320 320
332 332 332
340 340 340
352 352 352
360 360 360
380 380 380
392 392 392
400 400 400
280 280 280
288 288 288
300 300 300
316 316 316
320 320 320
336 336 336
348 348 348
360 360 360
376 376 376
384 384 384
392 392 392
404 404 404
420 420 420
440 440 440
452 452 452
456 456 456
468 468 468
336 336 336
348 348 348
364 364 364
376 376 376
392 392 392
404 404 404
412 412 412
424 424 424
440 440 440
452 452 452
464 464 464
484 484 484
492 492 492
504 504 504
516 516 516
532 532 532
544 544 544
404 404 404
416 416 416
428 428 428
444 444 444
456 456 456
472 472 472
484 484 484
496 496 496
504 504 504
524 524 524
536 536 536
548 548 548
564 564 564
576 576 576
580 580 580
592 592 592
604 604 604
476 476 476
488 488 488
500 500 500
520 520 520
532 532 532
540 540 540
552 552 552
564 564 564
576 576 576
592 592 592
600 600 600
612 612 612
624 624 624
640 640 640
652 652 652
660 660 660
660 660 660
548 548 548
556 556 556
568 568 568
580 580 580
596 596 596
604 604 604
616 616 616
624 624 624
640 640 640
652 652 652
660 660 660
676 676 676
684 684 684
692 692 692
700 700 700
712 712 712
720 720 720
608 608 608
620 620 620
636 636 636
644 644 644
656 656 656
660 660 660
676 676 676
684 684 684
700 700 700
704 704 704
716 716 716
724 724 724
732 732 732
740 740 740
752 752 752
756 756 756
760 760 760
664 664 664
676 676 676
680 680 680
692 692 692
700 700 700
712 712 712
724 724 724
732 732 732
736 736 736
748 748 748
756 756 756
760 760 760
772 772 772
780 780 780
784 784 784
792 792 792
800 800 800
88 88 88
88 88 88
92 92 92
92 92 92
92 92 92
92 92 92
92 92 92
96 96 96
96 96 96
96 96 96
96 96 96
100 100 100
100 100 100
100 100 100
104 104 104
104 104 104
104 104 104
92 92 92
92 92 92
96 96 96
96 96 96
96 96 96
96 96 96
100 100 100
100 100 100
100 100 100
104 104 104
104 104 104
104 104 104
108 108 108
108 108 108
112 112 112
112 112 112
