滤镜资源/vsco 137 3dl+cube/VSCO 137 3dl/VSCO NC1 Neocha.3dl
#Generated by Picture Instruments - Look Converter
3DMESH
Mesh 4 10
0 64 128 192 256 320 384 448 512 576 640 704 768 832 896 960 1023
0 0 0
4 0 16
32 8 52
0 0 104
32 8 156
0 8 216
4 8 280
36 16 328
16 20 404
40 24 472
32 40 536
40 40 612
52 48 668
48 48 736
64 56 792
52 56 860
56 60 908
0 32 0
0 28 32
32 32 72
0 24 132
32 32 176
8 28 228
12 28 288
40 36 340
16 44 412
40 48 472
28 56 536
36 60 604
56 60 668
52 64 744
60 68 788
60 80 852
60 80 896
4 76 0
0 76 32
32 72 84
4 72 136
32 64 188
8 64 232
12 68 296
40 72 356
24 80 424
44 84 488
36 84 548
36 84 612
56 84 672
48 92 740
64 100 792
60 108 848
60 108 892
4 140 0
0 124 40
32 116 76
4 120 136
36 116 188
8 120 256
16 116 316
40 120 376
20 120 428
44 120 492
36 124 560
40 124 632
56 128 688
52 132 748
64 136 804
60 140 852
68 140 900
4 196 4
4 192 40
32 180 88
0 180 136
36 176 192
12 176 244
12 172 312
40 172 364
28 176 440
44 172 504
40 172 564
44 172 632
64 176 684
60 180 748
68 180 804
64 188 848
72 188 900
8 268 4
0 256 40
32 240 88
4 240 136
32 240 192
12 248 256
20 240 312
40 228 368
32 236 444
48 228 504
44 232 572
48 228 640
64 232 688
64 236 752
72 232 804
80 240 860
80 244 908
8 340 8
4 328 52
32 316 92
8 312 140
36 304 188
20 304 248
16 308 312
44 304 376
32 296 444
48 288 500
44 296 564
56 292 640
64 292 692
64 300 756
76 296 812
80 300 860
84 300 904
12 416 8
0 408 44
36 396 92
4 392 136
36 388 192
20 384 244
28 380 304
44 376 368
36 376 440
56 372 508
56 372 564
60 368 632
72 364 692
76 364 752
92 372 808
92 376 856
96 372 908
12 492 12
0 484 48
32 476 92
8 468 144
40 460 188
24 460 252
28 460 308
48 456 360
44 456 436
56 452 500
56 448 568
68 444 636
76 444 692
84 440 752
96 436 808
100 444 860
108 444 912
16 572 16
4 564 56
36 552 104
16 552 152
40 536 200
36 528 252
32 532 308
56 532 368
48 532 440
68 536 520
72 528 580
80 528 640
88 524 700
96 524 764
116 520 824
124 516 864
128 524 904
24 644 32
16 640 80
44 632 124
32 624 168
52 620 216
44 616 272
44 608 320
68 612 384
64 612 452
80 612 524
80 616 592
96 616 660
108 600 716
112 600 776
128 600 832
136 608 876
144 608 916
36 728 64
36 720 104
52 716 144
44 708 188
64 704 236
56 696 280
68 692 340
76 692 400
84 696 464
96 692 528
100 696 596
104 692 664
124 692 728
132 688 792
144 680 832
156 688 880
168 684 924
60 800 92
56 796 128
72 788 164
68 788 212
80 780 252
84 768 304
88 768 360
104 768 420
104 764 484
120 772 548
128 768 616
124 768 680
140 768 744
148 768 804
168 760 856
180 760 904
188 760 936
88 876 128
80 868 160
96 860 192
96 852 228
104 852 276
104 844 336
112 848 384
124 844 436
128 844 508
140 840 560
148 840 632
152 840 692
164 844 752
160 844 820
188 844 876
204 840 916
212 840 944
112 932 164
112 928 192
132 924 224
128 924 260
132 912 296
140 912 348
140 916 408
160 912 460
164 916 528
172 908 576
176 908 644
184 912 708
196 908 764
200 912 832
212 908 888
228 916 924
240 912 960
152 972 200
156 968 232
164 968 256
164 968 296
172 972 328
180 964 384
180 968 432
192 956 484
200 960 548
212 956 600
220 956 656
220 964 720
236 960 784
240 964 844
256 960 896
256 964 940
272 960 968
188 992 232
184 996 260
192 992 292
200 1000 320
208 988 360
220 980 416
220 988 460
228 980 512
236 984 572
244 980 628
244 984 672
256 992 736
268 988 788
272 988 860
284 984 908
300 988 940
300 988 964
24 0 0
20 0 20
28 0 64
20 4 120
24 0 172
16 4 228
20 12 288
24 12 348
36 20 420
36 24 492
44 32 564
48 36 616
52 36 688
52 44 748
60 48 820
60 48 884
60 48 916
28 32 0
36 32 36
24 32 84
24 32 144
32 32 192
32 36 252
32 40 300
40 40 364
40 44 424
48 44 496
52 52 564
56 56 632
60 64 696
64 64 748
64 72 816
68 72 872
72 76 912
24 84 0
28 84 40
36 84 96
36 80 152
32 76 200
32 76 256
32 76 308
36 76 368
48 80 436
48 84 504
52 88 564
56 92 624
60 92 688
64 100 744
72 104 804
76 104 864
76 104 900
16 152 0
24 140 36
32 132 100
32 136 156
32 128 212
36 124 264
32 120 324
40 128 384
48 124 444
56 128 512
56 128 580
60 136 640
68 128 692
68 128 760
72 136 808
76 144 864
80 144 904
12 216 0
28 208 44
28 196 100
32 188 152
36 184 204
36 184 264
40 188 328
48 184 392
48 184 456
56 176 516
56 176 576
60 176 640
68 180 700
72 180 760
76 184 812
84 188 864
84 188 904
12 292 0
20 280 32
24 268 96
32 260 152
32 256 204
36 248 264
40 248 324
44 244 388
52 244 452
56 244 516
64 240 584
64 232 644
68 236 700
76 240 760
84 240 820
88 240 864
96 244 908
12 368 0
24 352 40
28 340 100
28 328 156
32 324 200
40 324 260
40 324 324
44 316 384
52 312 448
64 308 520
68 300 580
72 296 648
76 296 704
80 300 760
80 300 816
92 304 876
96 304 912
12 440 0
16 424 36
24 412 92
36 408 152
32 400 200
48 392 260
48 396 320
48 392 388
64 388 464
68 380 520
72 372 580
72 376 640
80 372 704
88 372 760
92 380 824
100 368 872
108 372 916
8 516 4
20 504 32
28 488 96
36 480 148
40 476 204
48 476 252
44 472 312
52 468 376
60 464 448
72 464 516
80 456 580
88 456 644
88 444 700
100 448 756
104 444 820
120 456 872
120 456 912
4 596 0
24 584 44
36 564 104
32 556 156
48 552 204
52 544 260
56 548 316
68 548 380
72 548 452
76 540 520
80 540 584
92 540 652
100 536 716
108 536 772
116 524 828
136 528 876
140 532 912
8 668 4
36 656 60
48 644 124
52 636 176
56 632 220
56 624 264
64 624 332
72 620 388
80 628 460
88 624 532
92 624 604
104 620 664
120 612 728
128 612 784
136 608 836
148 608 880
156 612 912
28 748 32
48 732 80
60 720 144
64 716 192
72 708 240
80 704 292
84 704 352
92 696 408
96 700 472
108 700 544
112 704 616
116 700 676
132 700 740
140 684 788
152 680 844
168 692 896
184 688 924
52 824 68
68 804 108
80 796 164
84 792 212
92 784 256
96 780 308
104 780 364
108 772 428
120 776 492
128 772 548
136 776 616
140 772 684
148 772 748
164 780 812
176 776 864
184 760 904
200 764 940
76 880 96
96 876 140
104 868 192
108 864 232
116 856 280
120 852 332
124 848 380
136 848 448
144 848 516
152 844 572
160 848 636
168 852 696
172 852 764
176 852 824
196 852 876
212 848 920
220 848 948
104 940 140
124 936 180
132 924 224
132 928 260
144 912 300
148 916 356
156 920 416
164 916 476
168 912 528
176 912 584
184 908 648
196 912 708
204 916 776
212 916 840
220 908 892
236 916 936
252 912 960
148 980 180
156 972 212
168 972 252
172 972 292
180 972 336
180 964 376
188 968 436
196 960 488
208 964 548
216 964 604
220 956 660
224 964 720
240 964 780
244 964 840
256 960 896
268 964 944
280 960 968
176 1004 208
192 1004 244
200 1000 280
204 996 316
212 1000 356
224 988 416
232 988 468
236 984 520
244 984 580
252 984 628
260 988 672
260 988 736
272 992 800
280 988 856
288 988 904
300 992 936
304 992 968
60 0 0
68 0 28
64 0 76
68 0 132
52 4 180
56 4 232
60 12 292
56 16 364
60 16 436
64 20 508
68 32 568
68 32 628
76 36 696
76 40 772
80 48 832
76 44 888
80 44 924
80 32 0
80 32 28
68 28 84
72 28 140
72 32 200
64 36 256
60 40 308
68 36 380
68 40 448
80 48 520
80 48 584
80 52 652
76 56 712
80 56 776
84 64 840
88 64 896
88 64 932
80 92 8
76 76 48
88 80 88
68 80 156
72 80 212
68 80 276
72 80 332
76 80 400
80 84 464
80 80 520
84 84 580
92 88 652
92 96 712
88 92 772
100 96 836
96 104 884
96 100 920
64 156 4
68 152 44
76 148 100
96 148 176
80 140 232
80 132 284
76 132 336
80 132 392
80 132 460
84 128 528
88 136 596
88 132 640
92 132 704
96 140 768
100 140 820
100 144 876
100 140 908
72 224 8
60 224 40
72 208 96
76 208 176
84 208 232
80 200 292
80 188 344
80 180 396
80 184 472
88 184 536
92 184 592
96 188 652
100 188 712
100 180 764
100 180 824
112 192 876
108 192 908
52 304 0
60 300 40
64 288 96
64 272 168
68 268 220
80 268 292
80 260 344
80 252 404
88 248 472
88 248 536
96 248 596
100 244 656
96 244 712
104 244 776
108 244 836
116 244 880
112 244 908
44 376 4
52 376 24
64 356 92
68 348 160
68 336 216
68 340 272
72 328 336
80 324 396
84 316 460
92 316 528
92 320 588
104 312 652
108 308 712
108 304 768
112 304 824
116 304 872
124 308 920
44 464 4
40 464 20
60 440 88
64 420 152
68 412 216
72 404 268
72 404 328
88 404 404
80 400 456
88 396 524
96 384 592
108 388 656
108 384 716
112 384 776
116 380 824
124 376 876
128 376 916
36 540 0
40 532 12
56 508 88
64 492 156
72 492 216
68 484 260
80 480 328
80 480 392
88 484 460
96 472 528
104 468 600
116 460 656
116 460 720
120 460 780
132 456 836
140 464 888
140 456 912
36 620 0
40 608 16
64 588 92
64 572 152
76 564 216
80 560 264
84 564 332
84 552 388
96 552 456
100 552 528
108 548 592
116 548 656
128 540 720
136 536 784
144 540 836
152 536 884
164 536 912
32 688 4
48 680 36
68 664 104
84 652 168
84 640 224
84 644 280
100 636 336
100 636 400
108 640 476
112 632 536
116 624 600
128 624 668
144 620 732
156 624 792
164 624 844
168 616 888
176 616 916
44 756 16
60 748 64
80 744 128
92 732 188
100 724 248
108 724 300
108 712 356
120 712 420
124 712 484
128 704 552
140 708 612
140 704 680
148 704 740
164 700 796
180 700 852
188 692 900
200 696 928
60 828 48
76 824 92
96 804 144
104 800 212
116 796 260
120 792 320
128 788 372
132 784 436
140 780 488
144 784 556
160 776 620
160 776 688
168 780 760
184 780 820
192 772 864
208 768 912
216 768 940
88 888 92
92 888 112
116 880 164
132 868 228
136 872 288
144 860 332
152 860 388
152 860 448
168 856 516
176 852 576
176 852 636
188 856 696
192 848 756
200 852 828
212 856 880
232 852 924
236 848 944
108 944 136
124 940 152
148 932 204
156 928 260
168 928 308
168 924 360
176 924 412
184 916 472
192 920 528
204 916 596
208 916 652
220 920 712
228 916 772
232 916 836
232 920 888
252 916 932
272 916 952
148 976 180
160 976 188
188 972 232
196 972 292
196 968 332
196 968 380
216 968 444
224 964 496
232 964 556
232 960 604
240 964 668
248 960 728
256 960 784
268 964 856
276 968 908
276 960 936
292 964 960
180 1008 212
192 1008 220
220 1000 256
224 1000 316
236 1000 360
252 988 416
252 988 472
264 984 528
260 984 576
272 984 632
276 992 676
284 992 736
296 992 808
304 992 860
300 988 908
320 992 940
320 992 964
128 0 0
120 0 24
116 4 72
116 0 136
108 0 188
112 0 240
104 8 300
104 8 368
108 12 440
112 24 520
104 32 576
104 36 640
108 36 708
108 44 776
108 40 836
116 40 896
116 44 936
124 20 0
124 28 32
128 32 80
124 28 148
120 24 204
116 32 256
112 36 320
116 32 380
112 48 464
116 44 532
116 52 600
116 48 656
116 56 724
120 56 788
120 60 860
116 68 908
