滤镜资源/vsco 137 3dl+cube/VSCO 137 3dl/VSCOX V3 Valence.3dl
#Generated by Picture Instruments - Look Converter
3DMESH
Mesh 4 10
0 64 128 192 256 320 384 448 512 576 640 704 768 832 896 960 1023
0 0 0
0 0 100
20 4 176
4 0 260
24 8 320
8 8 392
12 12 464
36 16 528
24 24 600
44 32 648
44 52 692
52 60 748
76 76 800
72 88 848
96 104 892
100 116 940
108 120 972
4 124 0
4 120 112
28 120 188
4 112 248
28 116 316
12 120 384
16 124 460
40 128 520
20 140 580
44 132 628
40 140 676
48 144 736
68 148 776
72 160 840
92 156 872
96 172 920
104 172 968
4 216 4
4 204 120
28 196 188
4 196 260
32 196 320
12 192 384
4 196 440
36 188 504
20 192 556
44 196 608
40 204 660
44 196 720
68 196 764
68 204 820
88 212 872
92 216 900
100 216 952
8 296 8
4 280 120
28 272 192
0 260 260
28 256 312
12 256 376
8 256 436
36 256 484
12 252 540
44 248 596
36 256 648
40 256 700
64 256 752
64 252 804
80 260 852
84 264 900
84 264 952
12 352 12
4 352 108
32 336 192
4 328 260
28 316 304
12 312 364
8 312 428
36 308 468
16 316 528
44 312 572
28 312 628
36 308 684
56 304 736
60 308 796
72 308 848
68 312 908
68 308 956
16 416 12
4 412 108
32 400 188
8 392 260
28 384 308
12 376 368
4 368 424
36 364 472
12 368 528
44 356 568
32 360 616
28 360 684
48 360 736
44 364 804
56 356 864
48 360 928
44 356 976
20 480 16
8 476 112
32 464 192
12 460 260
32 448 312
12 440 372
0 428 420
32 420 476
4 424 528
40 412 580
20 416 636
20 412 708
44 412 760
28 416 828
48 408 884
32 412 940
28 404 984
20 544 24
8 544 108
32 532 180
8 524 244
32 520 304
16 504 364
4 500 428
32 484 476
4 480 528
32 472 584
20 472 648
4 468 716
36 468 768
12 464 832
40 468 896
24 468 948
12 460 992
20 616 20
8 612 104
36 600 180
8 592 244
36 576 312
20 576 364
4 568 424
32 548 476
4 540 532
36 536 596
20 532 656
8 532 724
36 536 784
8 528 848
36 524 900
24 528 952
4 528 996
24 672 28
8 664 112
36 652 180
16 648 244
36 636 308
24 632 376
4 628 432
36 612 480
4 612 548
32 596 600
24 600 660
4 596 732
36 596 784
4 592 852
32 592 908
24 588 960
4 588 992
28 720 24
12 712 108
40 700 176
16 704 248
40 700 308
28 696 380
12 684 432
36 684 488
4 676 552
32 672 612
24 664 676
4 664 736
36 656 792
4 660 860
36 652 916
24 652 964
4 652 996
28 768 24
20 768 104
44 760 172
24 764 240
44 760 304
36 756 368
24 752 436
40 748 492
8 744 552
36 732 604
24 728 668
4 728 724
36 720 780
4 724 848
36 712 900
28 712 952
4 708 988
28 816 28
20 812 100
44 808 168
24 812 236
44 808 296
36 800 356
24 808 428
40 796 484
20 796 540
40 788 592
28 788 660
4 780 720
36 776 776
4 780 840
36 772 896
28 768 948
4 768 980
28 868 28
16 864 88
44 860 160
24 852 228
44 852 284
40 848 364
28 856 416
48 848 472
20 844 536
40 836 596
28 840 652
4 836 716
36 832 772
4 828 824
36 828 884
28 828 936
4 824 976
32 904 32
20 908 88
44 908 152
28 904 228
48 900 276
44 904 352
32 904 408
52 900 468
36 900 548
48 892 592
36 888 652
12 888 712
40 888 768
4 892 824
36 884 872
32 880 928
8 884 976
48 952 48
36 956 112
56 956 172
48 956 240
60 952 296
60 952 368
52 960 420
64 948 484
56 952 552
60 944 604
48 944 668
20 944 728
44 944 772
8 948 840
36 940 888
32 940 936
4 944 980
68 988 72
64 992 136
76 988 188
72 992 252
80 988 312
92 972 384
88 980 436
96 976 504
80 980 568
88 972 632
64 976 680
36 988 732
44 984 776
8 988 840
36 980 888
44 972 932
32 976 980
112 0 0
96 0 112
112 0 184
116 4 264
104 12 324
104 8 392
104 16 460
104 20 524
112 28 592
108 40 644
108 52 684
104 68 740
112 80 792
112 92 840
120 104 892
132 108 940
132 116 972
124 128 4
124 120 120
92 108 172
92 104 236
100 104 308
108 112 388
104 112 464
120 120 520
104 124 580
112 116 636
112 128 688
120 128 740
124 128 788
128 136 844
128 140 888
136 152 940
136 152 968
128 220 0
108 196 104
100 176 176
92 188 244
104 184 304
100 188 368
96 192 436
96 192 496
104 192 552
104 196 604
104 192 660
108 192 708
124 196 764
116 200 816
132 204 868
132 208 912
132 212 956
120 296 4
100 264 116
96 252 176
96 240 240
88 248 304
92 248 360
100 248 424
92 252 476
96 252 536
96 248 592
104 256 644
104 256 700
108 252 748
112 256 796
124 260 856
128 260 904
128 260 952
120 352 4
100 340 112
100 320 184
92 312 248
88 300 304
88 304 360
88 304 416
100 304 468
96 308 524
96 308 572
96 308 632
96 308 684
104 304 736
116 308 788
116 304 848
112 308 916
116 308 956
116 420 12
100 404 100
96 396 180
96 384 248
100 376 308
92 364 360
84 364 412
92 364 464
96 360 520
88 360 560
92 360 616
100 360 672
92 360 736
100 360 788
104 356 864
112 356 920
100 356 972
112 484 16
104 476 108
104 460 180
92 452 252
100 444 312
88 432 364
92 424 412
80 416 464
84 420 524
88 416 568
92 408 628
88 412 688
96 408 752
88 408 808
92 408 872
96 404 932
96 404 984
108 544 12
104 544 104
108 532 188
104 516 256
92 508 312
92 496 372
88 492 420
92 476 476
80 472 532
80 468 584
88 468 644
76 468 704
84 468 768
88 460 828
88 468 896
84 456 948
84 456 988
112 616 24
108 616 108
100 600 184
100 588 248
100 576 304
96 568 372
80 556 420
88 548 472
84 532 524
80 528 588
84 528 644
80 524 712
76 524 768
88 524 836
92 524 900
76 528 952
84 524 980
104 676 12
100 668 108
112 656 176
96 644 240
100 636 304
100 628 372
84 628 428
92 616 488
84 608 536
88 592 592
76 596 652
76 596 716
88 592 780
84 596 840
80 592 900
88 592 952
88 584 984
108 716 8
92 712 104
104 700 168
104 700 244
104 704 308
96 692 372
92 692 428
84 684 492
92 676 548
88 668 600
88 664 660
76 656 724
84 660 788
84 656 848
80 652 904
80 656 960
80 652 984
100 768 8
96 768 100
100 764 172
108 760 244
104 756 312
108 752 376
100 752 436
100 744 496
84 740 552
96 732 604
84 724 660
80 720 720
80 716 780
80 712 836
80 708 896
76 708 952
76 708 980
104 816 28
96 816 92
104 808 172
100 812 236
100 808 300
104 808 364
92 804 416
100 800 492
96 796 536
84 784 596
84 784 652
80 780 712
84 772 768
80 776 828
80 772 884
80 764 940
72 764 972
96 864 20
88 860 96
96 856 160
96 856 224
100 856 288
104 856 356
100 852 416
96 852 476
96 844 536
92 836 596
84 844 652
80 840 708
80 828 764
84 828 824
76 828 880
80 824 936
80 820 968
100 908 20
96 908 100
96 904 160
104 908 228
108 904 292
100 900 352
100 900 416
104 900 476
96 900 540
100 892 592
88 888 652
84 888 708
84 888 768
84 884 824
80 880 876
76 884 928
76 884 968
104 960 36
104 960 100
104 960 172
112 960 232
120 952 304
120 948 360
112 948 420
112 948 484
116 948 548
108 948 608
100 940 668
88 944 720
84 944 772
84 944 832
84 940 876
88 944 936
76 940 972
108 996 60
116 992 116
116 992 188
128 992 252
120 992 308
124 980 376
132 984 444
140 984 504
128 976 564
116 980 628
108 984 672
96 988 724
88 988 772
88 984 832
88 988 884
84 984 928
84 984 972
196 0 0
196 0 112
192 0 192
196 4 256
184 8 320
184 12 388
184 16 460
180 36 524
176 40 588
176 48 636
160 60 680
160 76 728
168 88 784
168 96 832
164 112 880
172 116 928
176 128 968
220 136 12
180 108 108
164 108 164
172 100 240
176 108 304
180 120 380
176 112 448
176 120 516
168 120 568
172 124 620
172 120 672
176 128 728
172 132 788
172 136 836
176 144 892
172 152 924
176 156 964
216 220 0
192 196 124
200 204 200
172 188 244
168 172 292
168 172 364
168 176 428
168 176 492
172 176 552
164 176 604
168 176 664
176 176 720
176 188 776
176 184 828
176 188 872
180 192 920
180 196 964
200 292 0
188 272 96
176 252 180
172 244 244
156 236 284
156 232 344
160 236 408
160 240 464
160 244 520
168 244 580
160 252 628
164 244 688
168 252 740
172 248 788
172 252 840
168 252 908
168 248 944
204 356 4
192 344 104
164 308 172
164 304 232
164 288 288
156 292 348
160 296 404
156 292 452
156 296 512
156 300 560
160 300 620
156 304 672
160 308 728
164 300 780
160 304 844
168 300 904
164 300 948
192 412 12
192 408 116
176 384 184
164 372 236
160 356 288
156 348 348
152 352 404
156 352 464
156 356 508
152 356 560
152 352 604
156 352 672
152 356 728
156 356 800
164 352 856
160 348 916
156 348 960
188 480 12
184 472 112
180 452 176
172 444 240
168 432 304
164 420 348
156 404 400
152 408 460
156 412 508
148 404 556
156 412 616
160 412 680
156 408 736
152 404 800
156 404 864
152 404 920
152 396 968
196 548 20
184 548 112
176 532 188
176 508 244
160 496 304
168 492 356
156 480 412
160 472 468
148 468 512
148 464 568
152 460 628
148 460 692
156 460 756
156 460 824
152 460 876
152 460 932
156 452 980
188 620 24
188 612 120
180 600 184
176 572 248
172 560 308
156 556 364
156 548 412
152 536 468
156 524 520
152 528 584
152 524 644
148 520 708
144 524 764
152 524 828
156 520 888
152 524 948
152 520 976
184 676 20
184 668 96
176 656 184
168 632 240
168 628 304
168 624 368
160 616 420
152 604 476
156 596 528
156 588 580
152 592 644
148 588 704
152 588 768
152 584 824
152 584 884
152 580 940
156 580 972
176 716 0
172 712 100
172 704 184
172 692 240
164 692 300
168 692 368
168 680 428
152 684 488
160 676 544
152 660 592
152 652 648
152 652 708
148 648 776
152 648 832
152 652 892
148 644 940
148 644 980
168 764 4
168 764 100
164 764 176
168 756 240
176 756 304
168 752 372
168 748 432
164 740 484
160 736 548
160 724 600
152 716 656
152 716 712
144 712 768
152 712 836
152 708 888
148 700 936
148 700 972
172 812 12
164 812 108
164 808 168
164 808 240
168 800 292
164 804 364
168 796 424
160 796 484
156 788 540
152 784 596
152 772 652
152 768 712
156 772 764
148 768 824
152 756 880
144 756 932
144 756 968
164 860 24
168 860 88
160 860 160
168 852 228
160 852 292
164 852 352
164 848 412
160 844 472
160 840 532
164 836 592
144 832 644
144 832 692
148 824 756
156 820 816
144 824 864
148 824 924
148 816 972
172 908 20
164 912 96
160 904 164
164 904 224
164 900 284
164 900 348
164 896 412
164 892 472
160 896 544
160 888 596
156 888 648
152 888 704
152 884 764
152 880 816
148 884 872
148 880 920
144 880 964
168 960 44
168 960 112
164 956 168
164 952 232
168 956 300
168 944 356
172 952 424
172 948 496
172 948 556
160 944 608
160 936 660
156 936 712
148 936 776
152 936 832
156 940 884
152 936 928
148 936 964
168 996 68
168 992 120
164 996 180
176 992 244
176 992 308
180 980 376
184 980 452
180 980 508
180 976 568
176 976 628
164 984 672
156 984 720
156 980 776
156 980 832
156 976 876
152 980 928
152 980 964
280 4 4
272 8 108
268 8 180
264 4 264
252 4 324
264 8 396
256 16 460
252 28 516
240 44 572
236 56 620
232 68 668
224 84 720
224 96 768
224 108 816
220 120 864
220 120 924
220 128 960
304 140 4
256 116 104
248 108 176
240 108 236
252 108 308
240 108 368
248 112 440
244 116 504
232 124 560
232 120 616
236 124 664
220 128 716
224 136 772
220 140 824
228 148 876
220 160 928
