滤镜资源/vsco 137 3dl+cube/VSCO 137 3dl/VSCO P8 Instant.3dl
#Generated by Picture Instruments - Look Converter
3DMESH
Mesh 4 10
0 64 128 192 256 320 384 448 512 576 640 704 768 832 896 960 1023
104 160 224
100 160 228
104 160 220
100 164 236
108 164 256
96 172 280
96 180 312
104 184 344
108 192 392
132 196 444
168 208 492
228 216 548
300 220 596
392 224 648
496 224 696
608 248 760
680 288 816
100 160 228
100 168 228
96 164 224
88 168 244
88 176 260
88 180 280
80 188 308
84 200 344
84 204 392
104 212 436
132 224 492
188 228 552
264 236 596
364 244 652
464 244 692
560 268 756
652 308 808
100 168 224
100 172 228
100 172 228
88 176 244
80 184 264
68 188 280
56 200 316
48 204 352
28 212 396
32 224 440
60 236 500
128 248 548
216 252 604
316 268 652
424 272 700
528 296 756
600 328 808
96 184 224
88 184 232
96 188 232
88 196 252
80 200 256
60 208 292
20 220 316
24 224 352
4 232 404
20 236 448
12 248 496
8 260 560
88 272 604
204 284 656
320 292 700
440 308 756
544 344 812
92 204 228
88 212 236
104 216 244
88 220 260
84 224 268
64 228 288
24 240 324
24 248 344
0 260 396
20 268 448
12 276 492
0 280 548
20 284 592
16 296 644
92 300 696
260 320 744
404 348 804
88 248 240
88 252 248
96 260 252
104 260 268
92 256 276
76 256 296
40 268 324
24 280 356
0 292 404
24 304 444
16 316 492
0 324 544
20 332 588
0 332 640
20 328 692
16 328 744
120 348 812
88 276 256
88 284 260
96 292 260
116 304 284
116 304 292
92 304 308
60 304 332
28 316 368
0 332 420
24 340 456
16 348 492
0 368 548
20 380 584
0 392 636
20 388 684
16 392 740
4 396 800
84 324 260
92 332 272
104 340 268
120 356 292
168 368 312
140 364 336
108 364 352
68 360 376
20 372 416
20 380 456
16 396 500
0 408 540
20 416 576
0 436 620
20 444 668
20 468 724
0 480 792
104 388 276
108 392 280
120 396 284
132 408 300
200 424 328
220 448 360
176 440 380
148 424 400
84 416 424
40 428 460
20 440 508
0 456 548
24 468 580
0 476 616
20 496 660
20 524 720
0 552 792
156 460 292
160 464 296
172 464 296
196 484 324
244 496 340
320 516 392
288 512 416
232 504 432
212 492 452
152 480 480
84 488 516
4 500 552
24 516 584
0 524 624
24 540 664
20 568 728
0 604 784
220 520 316
232 532 320
248 536 324
260 548 344
284 560 360
364 572 404
396 568 440
364 576 460
308 564 484
292 548 500
208 544 528
124 556 556
28 552 592
0 568 632
24 588 664
24 616 724
0 652 784
320 596 344
328 600 348
348 608 356
352 612 372
376 624 392
416 628 424
476 644 468
476 640 484
424 636 512
368 620 524
360 608 548
280 604 564
148 608 596
20 620 632
24 620 664
24 656 724
0 700 784
448 676 392
448 680 392
456 684 396
468 688 412
480 692 424
488 692 444
536 704 488
576 708 516
532 700 536
484 692 556
428 684 572
408 664 588
316 652 608
144 660 636
32 676 672
24 700 732
0 732 792
560 744 444
560 740 448
560 748 452
560 740 452
572 752 472
576 760 492
596 756 516
628 764 548
620 756 560
572 748 572
508 736 584
460 728 608
428 708 616
316 700 640
128 708 676
32 732 728
4 768 796
660 804 508
660 804 516
664 808 508
664 804 520
660 800 520
664 808 536
664 808 544
676 808 572
692 812 600
660 804 604
604 788 616
532 780 632
496 768 644
452 756 664
328 752 680
168 772 732
116 800 792
736 848 564
732 848 572
732 848 568
732 848 572
732 852 580
720 852 584
716 856 588
724 852 600
732 852 628
728 848 640
692 848 656
632 840 672
560 828 680
516 812 688
480 800 712
380 812 744
368 832 804
800 896 628
804 892 632
804 892 632
804 892 632
804 892 636
800 892 648
788 896 648
788 896 660
792 896 680
796 892 692
760 892 696
728 892 712
660 880 720
588 876 744
560 860 752
524 848 772
496 852 808
100 160 228
100 160 228
100 160 228
108 168 240
112 168 260
108 172 284
124 180 316
128 188 352
144 200 400
176 208 452
220 216 508
268 216 556
360 220 604
448 220 652
544 228 704
644 252 760
708 304 808
104 168 228
100 168 228
100 168 232
100 172 244
108 176 268
108 184 288
112 196 324
120 200 356
128 208 400
156 224 456
200 224 512
272 232 564
348 240 612
428 244 660
524 252 716
620 276 760
696 332 816
100 172 224
100 168 228
100 172 236
96 180 248
88 184 268
88 196 284
88 204 320
92 212 360
104 224 412
108 232 456
152 244 508
216 256 564
300 260 600
388 268 664
488 280 708
584 300 760
660 352 816
96 184 228
96 184 228
100 192 240
92 196 248
92 204 268
72 216 292
52 220 324
32 232 360
16 236 408
20 248 456
56 256 500
120 268 556
220 280 612
316 292 660
420 304 712
524 324 760
608 364 812
92 204 228
96 216 240
96 220 252
100 224 264
96 220 268
80 236 292
40 244 328
4 260 364
0 272 408
4 276 460
0 280 512
4 284 556
72 292 608
168 308 660
280 316 704
384 336 760
508 368 812
88 236 240
96 248 244
100 260 256
108 264 268
100 264 288
92 260 300
60 276 332
16 292 364
0 300 416
0 312 456
0 328 508
0 328 552
0 328 600
0 328 648
20 328 696
112 340 748
292 360 808
96 280 260
96 284 264
100 288 264
120 304 280
128 312 296
100 316 312
88 308 340
44 324 372
0 340 416
4 352 460
0 364 504
0 368 548
0 380 596
0 388 640
0 388 692
0 388 752
0 384 808
100 324 264
104 328 272
108 344 280
128 352 292
176 368 320
152 372 336
128 368 360
104 364 392
56 384 428
4 392 468
0 404 516
0 416 552
0 428 596
0 440 632
0 448 688
0 460 744
0 464 792
116 388 276
124 392 284
132 400 288
148 416 304
200 432 332
236 440 360
196 436 380
176 436 404
136 432 436
92 436 472
20 452 512
4 460 548
0 476 592
0 488 628
0 500 676
4 528 728
0 548 788
164 456 292
168 460 296
188 468 304
200 480 320
236 492 340
312 512 388
308 516 416
256 508 440
236 496 456
192 488 484
152 500 516
40 508 560
0 520 600
0 536 632
0 548 672
0 572 724
0 612 784
236 524 312
248 532 316
256 540 328
280 552 348
312 564 368
364 576 408
420 584 448
376 580 460
324 568 488
316 564 504
260 552 528
192 560 564
32 568 600
0 580 632
0 592 680
0 620 732
0 644 784
340 604 348
332 600 348
352 608 356
368 616 372
384 624 392
428 636 432
488 648 464
480 640 488
440 640 516
388 628 532
376 612 540
304 612 568
216 616 600
24 620 636
0 636 680
4 672 740
0 696 792
452 672 388
456 676 388
460 680 400
476 688 416
480 692 428
496 696 456
540 704 488
584 708 520
544 704 540
492 696 552
440 684 572
420 664 584
356 660 608
232 672 648
36 684 680
0 704 736
0 736 796
560 744 444
564 740 448
564 748 452
572 748 460
576 748 472
584 756 488
592 756 508
632 760 548
628 764 568
580 752 584
520 744 592
468 728 612
448 712 620
352 708 644
204 720 688
28 740 736
4 768 796
656 800 504
664 808 512
660 804 516
660 800 520
660 800 524
660 808 540
668 812 552
684 812 572
696 812 592
672 804 604
608 800 616
544 784 636
496 772 652
464 760 668
364 760 700
236 776 736
176 804 796
736 852 568
736 852 576
744 856 580
740 856 580
744 860 592
732 852 588
728 860 592
736 860 612
744 860 628
736 860 652
700 852 652
644 840 664
568 828 684
532 820 688
496 804 712
420 816 756
400 836 808
808 896 640
808 896 636
812 896 640
812 900 640
804 896 644
804 896 652
800 896 656
796 896 668
800 896 676
800 896 696
772 896 704
736 896 712
668 888 720
596 880 740
568 864 748
540 848 764
524 856 816
108 164 224
112 164 220
104 164 232
120 168 244
120 172 256
128 176 284
152 188 320
172 192 364
196 200 404
236 208 460
276 216 504
336 216 556
416 220 604
516 224 660
604 236 704
676 260 760
744 320 808
104 168 224
104 168 224
104 172 232
120 172 244
124 184 268
136 192 296
148 200 316
164 212 364
184 220 404
220 224 464
268 232 512
340 236 572
408 244 616
504 244 664
588 260 716
668 296 768
732 356 816
104 176 224
112 176 224
108 176 236
112 184 248
108 196 272
128 208 296
132 212 332
152 224 368
176 236 416
200 248 468
248 252 516
316 264 568
400 272 620
484 276 664
564 292 716
648 320 764
708 376 812
100 188 224
104 192 232
112 192 244
112 196 248
104 212 272
100 216 292
104 228 332
100 240 368
124 248 416
164 264 480
192 276 520
248 280 568
328 296 612
420 308 668
512 320 712
604 352 768
676 396 816
96 208 228
104 220 236
108 220 248
116 228 260
112 228 276
96 244 296
84 252 328
56 264 372
44 276 424
44 280 472
80 292 516
144 296 564
216 308 612
320 320 652
428 336 712
520 360 768
600 404 808
100 248 244
104 248 248
112 260 256
132 264 272
116 268 284
112 268 304
104 288 336
64 300 380
12 312 428
0 324 468
0 328 512
12 332 568
36 332 608
120 340 664
232 344 716
360 360 760
456 388 812
108 280 256
116 288 264
124 296 264
132 312 280
148 320 296
136 320 324
120 316 340
100 336 384
56 348 428
8 356 472
4 372 512
0 380 556
0 380 596
4 380 644
8 380 696
24 384 756
140 392 812
120 328 264
124 340 264
136 344 276
144 356 292
184 368 312
180 376 336
164 380 368
156 380 392
124 388 436
80 400 480
24 416 520
0 424 564
0 436 600
0 440 644
0 444 688
0 452 748
0 456 808
140 388 276
148 392 284
160 404 292
172 416 308
212 432 328
256 448 360
228 444 388
216 440 412
192 440 436
172 456 488
104 460 528
8 472 560
0 480 596
0 492 636
0 500 680
4 528 740
0 536 800
192 464 292
192 460 296
208 464 304
220 476 320
248 492 340
320 508 384
336 524 412
292 512 440
280 512 464
252 504 492
224 512 524
156 524 568
40 528 596
4 540 636
0 552 672
0 572 728
0 604 800
260 532 316
268 536 324
276 540 332
304 552 348
320 560 368
372 576 400
440 588 448
412 588 468
372 588 488
352 568 512
312 560 532
268 568 564
156 576 604
8 584 636
0 600 680
0 620 732
0 656 796
348 600 344
364 604 352
372 608 364
388 620 380
412 624 400
440 644 432
500 648 468
508 652 500
464 648 512
416 636 536
408 624 548
356 616 576
288 616 604
140 624 644
0 640 680
4 672 740
4 700 800
464 672 388
468 676 400
468 676 400
480 688 420
496 688 432
508 700 460
552 704 492
592 712 524
560 704 536
508 700 556
464 688 572
456 672 592
388 668 612
296 672 652
80 688 684
0 712 740
0 736 796
568 740 444
572 744 448
576 748 456
580 744 460
588 756 476
592 752 488
600 756 512
632 760 544
640 760 568
596 752 580
544 744 596
496 728 608
484 720 624
408 712 648
296 724 692
68 752 748
8 776 800
660 796 504
664 800 508
668 804 512
668 800 520
676 804 532
664 808 536
668 808 552
672 804 564
696 812 592
680 804 608
624 800 620
564 792 640
524 780 656
500 764 664
412 768 696
312 784 748
280 804 800
744 856 568
744 856 576
748 860 584
744 856 580
744 852 588
732 852 588
732 856 600
736 860 612
744 860 628
740 856 652
704 856 656
660 844 672
580 836 688
544 824 696
520 816 728
444 816 756
444 832 804
812 900 640
816 900 640
816 900 644
816 900 640
816 896 648
808 900 656
800 896 660
800 892 672
804 892 676
804 892 696
780 896 704
740 896 712
676 892 728
608 880 744
580 864 752
564 856 776
560 860 812
120 164 220
128 168 224
132 164 228
132 168 244
148 168 264
164 180 284
184 188 324
208 196 356
244 200 412
284 212 460
344 220 504
408 220 560
496 224 612
584 228 656
652 244 704
728 280 760
780 352 808
128 168 220
132 172 228
132 172 236
136 180 248
156 180 264
168 196 292
188 200 324
212 212 360
244 220 416
292 228 464
348 236 524
408 236 568
484 244 620
568 252 664
652 276 716
720 320 768
