滤镜资源/vsco 137 3dl+cube/VSCO 137 3dl/VSCO S6 Warm.3dl
#Generated by Picture Instruments - Look Converter
3DMESH
Mesh 4 10
0 64 128 192 256 320 384 448 512 576 640 704 768 832 896 960 1023
24 40 32
24 36 40
40 40 48
28 48 72
52 64 112
56 96 192
80 128 300
108 164 392
124 196 476
140 216 548
152 244 608
172 268 676
184 284 712
184 292 744
196 300 772
204 308 784
204 308 796
24 52 32
32 52 44
36 52 56
36 64 88
56 80 136
64 112 220
92 148 324
116 184 420
136 212 496
156 228 564
160 256 628
176 280 684
192 288 728
196 308 760
204 312 780
204 320 788
204 320 792
32 84 40
28 80 48
44 80 64
32 84 100
56 104 148
76 140 228
100 176 344
128 208 436
140 236 508
160 252 572
164 280 632
184 300 696
196 312 736
200 324 760
204 332 780
204 340 784
208 344 796
40 132 48
36 132 52
48 128 60
36 128 96
56 132 148
72 164 244
100 212 352
128 248 436
140 268 508
160 292 564
168 312 632
184 332 692
196 340 732
196 356 760
204 364 772
212 372 784
204 372 792
44 200 64
48 216 64
56 212 80
52 208 108
60 204 152
60 212 240
80 240 336
112 272 432
128 312 508
148 332 576
168 360 628
184 384 684
196 396 728
196 404 760
208 412 776
208 424 788
212 428 792
64 320 68
64 320 72
72 320 88
64 324 116
68 320 160
68 316 240
72 316 340
88 336 440
112 364 516
136 384 584
148 412 644
164 432 700
184 448 740
184 464 768
192 468 788
192 480 804
192 484 812
80 424 84
80 428 88
88 436 104
80 436 124
84 432 168
80 432 248
76 432 352
88 428 448
96 444 532
112 448 596
128 468 664
140 492 720
160 504 764
164 520 792
172 528 808
176 540 820
176 540 828
92 516 96
92 524 96
96 528 104
92 524 132
100 532 176
88 524 244
92 520 348
96 516 436
92 516 520
108 520 588
112 524 664
124 548 728
144 560 768
148 576 804
156 580 824
156 592 836
160 592 848
104 584 108
100 592 100
104 588 112
100 596 132
100 592 172
100 592 244
100 596 340
100 592 428
92 584 512
104 588 580
112 596 652
120 600 732
128 604 776
132 616 816
144 620 832
140 628 840
140 628 852
112 640 112
108 652 108
112 656 116
108 664 140
112 656 172
116 656 240
108 656 328
112 652 428
104 652 516
112 652 584
112 652 648
112 652 720
128 656 768
124 660 812
132 668 836
132 672 852
128 668 860
120 696 112
116 704 112
124 716 120
112 716 140
120 712 168
116 716 236
116 712 320
120 720 424
112 712 508
124 712 580
120 708 652
116 712 712
128 712 760
124 716 808
132 720 832
128 728 848
124 724 860
124 748 116
124 756 116
120 768 124
124 768 144
124 768 164
128 768 224
124 764 316
124 764 416
124 768 504
132 764 572
128 760 640
124 764 708
132 764 764
120 768 796
132 768 832
132 772 852
128 772 856
136 788 124
128 800 120
128 808 124
128 808 144
128 808 176
128 808 228
132 808 320
132 804 420
136 804 512
140 808 584
140 808 648
132 800 708
132 804 756
124 808 800
128 808 820
132 808 848
128 808 860
140 832 132
132 832 120
140 840 128
132 840 152
140 840 176
144 836 248
132 840 336
140 836 432
140 840 524
144 836 592
148 836 656
140 840 724
144 836 768
136 836 804
136 836 828
136 840 848
136 840 856
152 856 132
144 860 132
144 864 140
144 864 160
148 860 184
148 860 256
140 860 340
148 860 436
140 864 540
160 860 600
160 860 672
148 864 728
160 860 776
160 860 812
144 860 832
148 860 856
144 860 864
164 876 136
156 880 136
160 880 148
160 884 172
164 880 212
168 880 288
160 876 376
160 872 472
156 880 560
164 876 624
184 876 700
176 880 752
180 876 788
180 876 824
184 876 848
168 884 864
168 880 868
180 880 136
180 884 148
188 884 168
188 884 196
188 888 256
196 880 348
192 884 432
192 880 516
184 880 584
184 880 648
224 888 720
224 892 768
232 888 808
224 892 832
232 892 852
236 888 864
208 888 868
44 40 40
36 44 48
48 52 56
52 56 80
60 72 128
76 92 212
96 132 316
120 172 412
140 200 488
152 220 552
168 248 624
180 268 680
188 284 720
200 296 752
204 300 776
212 300 792
208 304 792
48 60 44
48 60 44
48 64 64
60 72 92
68 96 156
100 124 244
116 160 352
140 192 444
148 220 508
168 240 580
184 268 648
196 288 696
208 300 744
212 308 768
212 316 788
224 320 796
224 324 800
52 84 40
48 92 56
60 96 72
60 100 112
72 112 156
100 152 248
120 188 348
140 216 444
160 244 520
172 268 580
184 280 640
200 304 704
212 316 736
216 328 768
220 336 784
224 340 792
228 344 800
56 144 48
56 140 60
64 148 76
64 144 108
68 148 168
88 180 252
116 216 352
140 256 440
156 280 520
176 300 580
188 328 652
200 344 696
208 348 736
216 360 764
224 372 788
232 380 796
232 380 796
68 212 56
68 228 64
76 228 88
76 224 112
76 220 172
80 228 256
104 256 360
132 292 452
144 320 516
168 344 580
184 372 644
192 392 692
208 404 736
216 416 764
224 420 784
224 432 796
228 436 796
80 324 72
80 328 80
88 344 96
88 332 120
84 336 172
84 320 248
84 328 352
108 348 452
124 372 520
152 396 596
164 420 656
180 444 700
192 456 740
200 468 772
208 480 792
212 488 804
212 492 812
96 440 84
100 444 92
100 444 104
96 440 132
96 444 176
96 436 256
100 444 360
96 440 444
108 448 532
128 456 600
148 480 672
160 496 720
172 516 764
180 528 796
188 536 812
196 540 824
196 548 832
108 524 92
104 524 96
112 532 108
108 528 132
104 528 176
112 532 252
108 528 352
108 528 456
112 524 536
120 532 608
132 536 676
140 552 732
156 564 768
164 580 808
168 588 820
180 592 840
180 600 852
116 588 100
112 592 104
112 600 116
116 600 132
120 596 176
120 604 244
112 596 340
112 596 440
116 592 520
120 592 584
124 596 656
136 604 728
144 608 784
144 616 812
156 628 836
152 640 848
152 640 852
116 644 104
120 660 108
124 660 116
120 664 136
124 660 176
124 656 236
128 664 340
120 660 432
124 660 512
128 652 588
124 656 644
132 660 720
136 664 780
144 672 816
144 668 832
140 672 856
140 672 864
132 700 108
132 712 112
132 716 120
128 720 140
128 720 168
128 720 228
132 720 328
128 720 424
136 716 512
132 716 576
136 716 652
128 716 708
140 716 768
144 720 812
140 724 836
140 728 856
136 728 860
136 748 120
140 756 116
136 768 128
136 772 148
140 772 180
136 768 232
136 772 324
144 768 424
140 768 508
144 768 580
140 760 644
136 764 712
136 768 760
140 764 800
140 772 828
140 776 856
140 772 860
148 796 120
148 804 128
140 812 136
140 816 148
140 812 176
148 808 232
144 812 312
144 808 424
156 812 516
148 804 576
148 804 644
148 808 704
140 808 760
144 812 804
144 812 832
140 816 848
140 816 868
152 828 124
148 836 124
148 840 132
148 848 156
152 844 184
152 840 236
144 840 320
152 844 432
152 840 524
160 844 596
160 840 660
168 840 720
164 840 772
152 840 808
144 844 832
144 840 856
148 840 860
168 860 128
160 864 132
160 860 144
156 868 164
164 864 192
156 868 256
164 868 356
160 868 460
160 860 540
176 868 608
180 864 676
176 864 732
172 860 788
172 860 820
164 868 844
164 864 856
168 864 864
180 876 128
180 872 136
180 876 144
184 884 176
184 884 224
184 884 284
180 880 384
176 884 480
180 880 560
184 884 628
204 880 700
208 884 752
204 884 796
208 880 832
208 884 856
188 884 868
196 880 876
200 884 132
212 884 148
216 884 160
228 892 204
220 892 256
220 888 340
220 892 440
224 884 516
208 888 588
212 888 648
256 892 716
260 892 768
264 892 808
260 896 836
268 892 856
272 896 868
244 896 876
72 48 40
72 48 44
72 44 60
72 52 88
76 64 128
80 84 212
96 112 308
128 156 412
140 180 488
160 204 556
168 228 608
184 248 676
192 256 716
200 272 756
204 280 776
212 280 792
212 280 792
84 60 48
88 64 56
84 68 76
88 68 96
88 84 156
96 112 248
128 144 352
148 176 444
160 196 512
176 224 580
192 244 648
204 260 704
212 280 736
216 284 764
220 292 780
224 296 792
228 300 804
84 88 48
96 92 56
104 100 80
96 104 112
112 124 176
136 156 268
160 184 372
180 216 460
192 240 528
200 264 592
216 284 656
228 300 708
240 316 748
240 324 776
248 332 792
252 332 800
252 336 804
84 140 52
100 144 64
96 152 76
112 148 120
112 160 172
132 188 256
156 224 356
172 252 444
200 280 524
212 300 592
220 328 656
232 340 704
244 356 744
256 364 768
256 372 792
260 384 808
264 384 808
104 216 60
108 228 68
104 232 88
108 232 120
116 232 168
112 228 260
144 264 360
168 296 448
184 328 512
200 356 584
220 372 648
232 396 704
240 408 744
248 412 764
256 420 788
260 432 800
264 436 800
116 328 72
116 332 80
120 340 92
120 340 128
120 332 172
120 328 256
124 332 368
148 356 460
168 380 532
188 404 596
200 428 656
220 448 708
232 464 748
236 476 768
248 484 800
252 496 812
252 504 816
124 436 84
128 436 96
132 448 108
140 452 132
132 448 180
132 444 260
132 440 352
132 444 448
148 444 536
168 464 604
184 488 664
200 508 728
212 524 764
220 536 792
228 540 812
228 552 828
232 556 832
132 524 88
140 528 96
144 536 112
140 532 136
144 536 184
148 532 260
144 528 356
148 528 456
140 524 524
152 532 604
160 540 676
180 560 736
188 572 776
200 584 804
204 592 828
212 604 848
216 604 848
140 588 96
144 592 104
144 596 116
152 600 136
160 604 184
144 604 248
148 600 340
148 596 444
144 596 524
148 596 600
160 600 676
168 600 736
176 612 788
184 624 812
188 632 836
188 640 852
188 640 860
152 648 104
148 652 104
148 660 120
152 664 136
152 664 172
160 660 236
156 664 328
152 660 432
152 656 512
156 656 584
156 656 652
156 656 716
168 660 776
168 668 808
176 672 840
172 676 860
172 676 868
156 700 108
156 708 112
156 716 120
156 720 136
160 720 172
160 720 232
160 724 324
156 724 428
164 720 512
164 712 576
160 716 652
160 712 708
164 716 772
168 720 804
168 728 840
164 728 860
164 728 868
164 748 120
164 756 116
160 768 128
164 768 152
168 768 176
164 772 232
164 772 328
168 768 424
168 772 512
176 768 584
172 764 648
172 764 716
160 768 764
168 768 804
168 772 836
164 776 852
168 776 868
180 796 120
172 804 120
164 808 128
168 808 152
176 812 184
176 812 240
172 812 324
176 812 432
176 808 512
180 808 584
180 808 644
184 808 716
176 808 772
172 816 804
168 812 836
168 816 852
164 816 860
176 828 124
180 836 124
176 844 136
180 844 152
180 852 188
180 848 240
184 844 324
176 844 428
188 844 516
192 840 592
188 844 656
192 844 716
196 840 764
184 844 804
176 848 836
172 852 864
176 848 864
196 860 132
192 860 132
192 860 140
196 868 160
200 872 200
196 868 260
192 868 352
188 864 444
188 868 536
208 864 612
212 868 680
216 868 732
212 868 784
212 868 820
196 864 840
192 864 860
196 864 872
216 872 128
212 876 132
220 876 152
216 880 176
224 884 224
220 884 288
220 884 388
220 888 484
220 888 564
220 884 632
248 884 704
252 888 756
248 888 800
248 888 832
252 888 860
220 888 872
232 884 876
240 884 132
256 880 140
264 884 168
264 888 196
264 896 260
268 896 348
264 892 440
264 892 524
256 892 584
252 892 660
304 900 724
312 900 776
308 904 820
312 904 840
312 904 864
316 904 880
292 896 880
124 52 52
128 56 56
136 52 68
124 52 84
124 52 132
120 72 212
124 96 308
140 124 404
148 140 488
160 164 552
172 188 612
180 204 668
192 220 716
196 228 748
196 236 768
212 240 792
212 236 792
152 72 60
152 72 60
164 76 80
156 72 112
160 76 164
156 96 248
156 120 344
168 148 436
168 168 512
180 176 576
192 196 648
196 212 696
212 232 736
212 236 764
220 236 780
224 248 792
