滤镜资源/vsco 137 3dl+cube/VSCO 137 3dl/VSCO Q4 Alchemy.3dl
#Generated by Picture Instruments - Look Converter
3DMESH
Mesh 4 10
0 64 128 192 256 320 384 448 512 576 640 704 768 832 896 960 1023
16 0 24
16 0 56
32 16 112
0 8 188
32 24 260
0 24 356
4 40 448
28 60 512
4 88 588
24 116 652
4 152 704
4 204 768
132 248 828
268 308 888
400 376 932
532 456 980
644 536 1008
12 16 48
4 20 80
36 32 128
0 36 200
32 44 272
0 60 364
0 72 452
28 92 520
0 124 588
28 144 644
4 180 704
0 224 772
148 264 828
280 324 892
400 380 936
516 456 968
640 544 1008
0 60 76
0 64 108
36 72 156
0 80 220
32 88 292
0 104 376
0 128 460
32 144 528
0 168 600
28 200 656
8 232 712
0 260 768
176 296 836
292 348 888
412 408 936
528 480 976
636 552 1008
4 128 124
0 132 148
32 140 188
0 148 256
32 152 320
4 164 404
0 184 472
28 212 540
0 232 604
28 256 656
8 288 720
64 316 780
204 348 840
300 384 892
416 444 932
528 504 980
640 580 1004
4 208 172
4 228 204
32 228 228
0 248 292
32 240 352
4 248 412
0 252 488
28 272 540
0 304 608
32 328 660
12 348 716
80 372 776
204 400 832
304 436 888
404 476 928
516 532 972
632 604 1004
4 320 236
0 324 256
32 328 284
0 344 336
32 348 384
8 352 456
0 348 512
32 348 556
0 364 608
32 376 664
12 408 720
84 436 780
196 456 828
296 488 888
404 524 932
516 576 976
636 644 1008
12 420 300
0 420 312
32 432 340
0 436 376
36 448 420
12 456 476
0 456 536
32 448 580
0 448 632
32 436 668
12 460 720
4 488 780
180 508 832
284 536 892
392 564 936
500 608 976
604 664 996
12 520 364
0 520 376
32 520 384
4 528 424
32 540 456
12 544 508
4 548 564
32 536 600
0 532 648
32 528 684
12 532 724
0 536 772
84 552 820
220 580 884
340 604 928
460 644 964
580 696 1004
16 596 420
0 600 432
36 596 436
4 608 476
32 612 496
16 628 544
0 632 584
32 628 628
4 616 672
32 604 704
16 608 744
0 608 784
32 616 828
136 624 872
288 644 920
416 680 964
560 736 1000
20 672 480
0 676 488
32 676 488
0 688 528
32 684 544
20 688 576
0 696 616
32 700 652
4 696 696
32 688 736
20 680 760
0 680 804
32 684 840
68 684 884
204 688 920
372 716 964
500 764 996
20 736 528
0 744 544
32 740 544
4 752 572
32 752 584
20 752 620
0 760 636
32 768 672
4 772 720
32 760 752
24 752 788
0 756 828
36 740 856
16 740 896
208 752 936
328 772 968
468 808 1000
20 808 592
0 816 596
32 816 604
0 816 612
28 816 624
24 816 656
4 824 676
32 824 704
0 836 740
32 828 772
24 824 800
0 816 840
32 812 864
12 808 908
180 808 928
316 824 972
460 860 1000
24 872 640
0 876 648
32 872 644
0 872 656
32 872 672
24 872 692
0 880 712
32 880 732
0 888 764
32 888 796
24 884 824
0 880 860
32 864 884
72 868 908
216 868 940
336 884 976
464 904 992
40 920 708
12 924 704
36 920 708
8 920 712
40 920 724
28 924 740
8 932 752
32 928 764
0 936 788
32 932 816
24 936 852
0 932 876
36 920 900
164 912 924
272 920 952
372 932 980
500 952 996
252 960 760
268 964 768
268 964 768
260 968 780
224 960 772
212 960 788
140 964 788
48 968 800
20 980 824
32 968 840
32 972 872
0 976 896
88 972 916
236 968 948
336 960 964
416 968 980
540 988 1000
484 992 828
472 992 824
476 992 824
468 992 832
456 1000 832
436 996 836
396 1000 848
340 1000 856
184 1008 868
40 1000 872
36 1000 896
12 1012 916
184 1004 940
312 1008 964
408 996 972
492 1000 988
612 1012 1000
628 1008 888
628 1012 884
620 1008 880
616 1012 888
604 1008 892
588 1004 896
556 1008 900
516 1004 900
428 1004 908
280 1000 908
204 1004 916
216 1012 940
276 1004 956
384 1012 972
480 1004 984
556 1004 988
664 1012 1000
40 0 24
36 4 64
24 8 104
0 12 180
0 20 264
0 24 360
4 40 444
0 60 516
4 84 592
0 116 652
0 156 708
4 200 772
160 252 832
296 308 888
400 372 936
536 452 984
644 532 1008
32 20 40
28 20 80
16 32 132
4 40 204
0 44 284
0 60 376
0 72 452
0 100 532
0 124 592
0 152 652
0 184 720
8 228 776
192 276 844
300 324 892
412 388 936
532 460 984
648 544 1008
12 56 76
16 64 104
4 72 160
0 84 224
0 96 304
0 108 384
0 128 460
0 148 528
0 168 600
0 204 660
4 224 720
56 260 776
196 300 832
312 348 884
424 408 944
536 472 980
648 564 1004
4 128 124
4 132 148
4 144 192
4 152 260
0 152 324
4 172 404
0 188 468
0 212 540
0 232 604
0 260 660
0 288 720
108 320 784
208 344 832
316 392 892
424 444 944
536 508 980
636 576 1008
4 216 176
0 232 208
0 236 244
4 240 288
4 244 360
0 248 424
0 256 492
0 280 552
0 308 612
0 324 672
0 348 724
120 376 788
232 408 836
324 444 892
424 476 940
528 540 984
640 608 1008
4 320 236
0 324 260
0 340 288
4 348 336
0 352 392
4 352 452
0 356 516
0 356 560
0 364 608
0 392 668
0 420 720
116 436 772
212 464 836
308 492 888
408 528 936
520 572 976
632 640 1004
4 428 308
0 432 324
0 428 340
4 440 384
4 452 428
0 460 476
4 460 536
0 448 584
0 448 624
4 452 676
0 464 724
68 492 784
200 516 840
292 536 884
392 572 932
508 612 976
624 672 1004
0 520 360
0 520 376
0 520 396
4 528 428
4 540 468
0 548 512
4 548 564
0 548 612
0 532 648
0 532 688
0 524 728
0 536 772
120 560 828
252 580 888
364 620 936
480 648 976
588 700 1008
0 596 420
0 596 432
4 604 452
4 608 476
0 616 504
0 628 544
0 628 580
0 632 632
0 624 672
0 616 708
0 608 748
0 608 784
4 608 824
160 624 876
300 644 928
424 684 968
560 732 996
0 676 480
0 676 488
4 676 500
0 680 524
0 684 548
0 688 580
0 696 616
4 708 656
0 696 692
0 688 728
0 680 764
0 680 804
0 684 844
112 688 884
212 684 920
368 720 968
520 768 1000
4 740 528
0 744 544
0 752 548
4 752 572
0 756 588
0 760 616
0 760 640
0 772 680
4 772 720
0 768 752
4 756 792
4 748 824
0 744 864
72 748 896
204 748 924
324 772 972
464 800 1000
0 812 592
0 812 592
0 816 604
0 816 612
0 816 636
0 824 660
0 828 680
0 828 708
0 836 740
0 828 780
0 828 812
0 816 844
0 816 872
68 808 912
200 812 936
332 832 976
464 856 1000
0 876 644
0 876 648
0 872 652
4 872 664
0 876 676
0 876 696
0 880 716
0 884 740
0 888 764
0 892 800
0 888 828
0 880 864
4 872 888
124 868 916
236 872 948
332 880 972
476 912 1000
12 924 704
12 924 700
12 924 712
16 924 720
16 924 728
8 924 736
4 928 752
4 928 772
0 936 788
0 936 820
0 936 852
0 932 872
52 928 904
192 920 928
268 924 948
368 932 984
500 952 996
280 960 760
284 968 772
272 964 768
268 964 780
244 964 776
244 964 792
172 968 796
20 968 808
16 972 824
0 972 840
0 980 876
0 976 896
132 968 928
268 964 948
332 964 960
424 972 988
544 992 996
488 996 828
484 996 824
492 1000 836
488 996 836
480 1000 844
432 996 836
412 996 848
348 1000 856
236 1004 860
48 1008 876
16 1008 896
20 1012 916
192 1008 940
316 1004 964
404 1000 972
496 1004 992
604 1012 996
636 1012 888
632 1012 884
624 1012 888
624 1012 888
612 1012 892
596 1008 896
564 1008 904
524 1004 904
452 1004 908
312 1004 908
228 1012 924
232 1012 940
288 1016 956
392 1016 976
484 1016 984
556 1008 992
664 1012 1000
64 0 32
64 8 56
56 8 112
36 12 176
0 20 260
0 24 352
0 40 444
0 60 516
0 88 588
0 120 660
4 160 708
68 200 772
200 252 832
328 312 888
432 376 936
536 448 980
660 540 1008
72 24 28
64 24 72
60 32 124
40 40 200
4 48 288
0 68 372
0 84 452
0 100 532
0 132 592
0 156 660
0 192 720
112 232 776
220 272 840
332 328 900
436 388 940
548 468 984
664 548 1008
44 56 68
52 64 108
52 76 156
20 84 224
0 96 304
0 116 388
4 132 468
0 152 540
0 176 604
0 204 664
8 232 728
144 268 784
248 312 844
344 360 900
444 412 944
556 484 984
664 560 1008
0 120 116
0 132 148
4 148 196
0 156 252
0 164 332
0 176 408
0 200 472
0 216 544
0 232 604
4 264 672
68 292 720
156 320 776
252 348 836
340 392 888
436 444 940
552 512 984
660 584 1004
0 212 164
4 228 204
0 236 244
0 248 292
0 252 360
0 256 424
0 264 488
0 284 548
0 308 612
4 328 676
92 356 724
180 380 780
264 408 840
344 440 892
440 480 940
548 540 984
644 604 1004
4 320 236
0 320 264
4 340 304
0 352 332
0 352 392
0 352 456
4 360 516
0 364 568
4 380 628
0 404 676
88 416 732
184 440 784
252 464 840
352 496 892
440 536 944
544 572 976
640 636 1000
0 420 308
4 424 328
0 428 348
0 448 384
4 452 428
4 464 480
0 456 532
0 460 584
0 448 624
4 452 668
4 476 724
136 496 784
236 520 832
320 540 880
416 572 932
516 608 972
636 668 1004
0 520 368
4 528 392
0 532 408
0 528 428
4 540 468
4 552 512
0 556 568
0 548 612
0 540 648
0 532 688
0 536 732
52 544 776
184 564 836
288 584 884
380 612 932
492 648 980
612 704 1008
0 596 428
0 600 440
0 604 452
0 608 476
0 616 504
0 620 540
4 632 584
0 632 632
4 620 676
0 616 712
0 608 752
4 600 788
96 612 832
220 624 884
340 652 932
456 692 976
568 732 996
0 680 488
0 672 496
4 676 500
0 680 524
0 680 548
0 688 580
0 696 616
0 696 652
0 704 696
0 688 728
0 688 768
0 680 804
52 684 844
152 680 880
252 684 924
392 720 972
532 768 996
0 744 536
0 744 544
0 752 552
4 752 572
0 756 588
0 760 616
0 764 648
0 772 680
0 772 720
0 768 744
0 752 788
4 748 820
8 748 860
148 748 896
236 752 928
336 764 964
484 808 996
0 808 588
0 812 592
0 816 604
0 816 612
0 816 636
0 824 660
4 824 676
0 828 708
0 836 740
4 832 780
0 828 812
0 816 844
0 808 872
148 808 904
232 812 940
344 824 976
472 860 996
0 876 644
0 876 648
0 872 656
4 872 664
0 880 680
0 876 700
0 880 720
4 888 744
0 884 768
0 892 800
0 888 828
4 876 864
84 872 896
176 868 916
256 868 948
360 876 972
484 908 1000
20 920 700
20 920 704
16 920 708
20 920 716
28 924 724
12 924 740
12 928 752
8 928 772
0 928 792
0 936 820
0 936 852
0 932 872
124 928 908
232 920 924
304 924 952
396 932 984
516 948 1000
324 964 768
312 960 768
312 964 768
312 960 776
304 964 784
288 964 792
244 964 792
136 968 808
24 972 816
4 976 844
0 980 876
8 976 896
180 972 920
292 968 944
356 964 960
440 972 984
556 988 1000
512 992 828
512 992 828
512 996 836
496 992 836
488 996 844
460 996 840
436 1000 852
376 1000 852
280 1008 868
56 1012 876
64 1012 892
72 1008 916
240 1012 948
352 1008 960
432 996 976
500 1000 992
604 1012 996
648 1012 884
640 1012 884
640 1012 892
636 1012 888
624 1012 896
604 1008 900
580 1008 900
544 1004 904
472 1008 904
352 1004 908
264 1012 924
268 1012 936
320 1012 960
420 1012 976
488 1016 984
564 1008 992
664 1008 996
100 0 32
100 8 56
104 12 104
108 12 172
80 16 256
40 24 356
4 36 448
4 68 524
0 92 596
4 128 660
84 164 712
176 208 776
272 256 828
368 312 888
464 376 936
572 456 980
676 540 1008
120 12 24
112 28 68
104 36 120
112 40 196
100 48 288
56 60 368
4 80 452
4 100 528
0 132 600
44 160 656
132 200 720
196 236 780
280 276 840
372 332 888
476 396 940
576 472 984
