滤镜资源/vsco 137 3dl+cube/VSCO 137 3dl/VSCO E6 Essence.3dl
#Generated by Picture Instruments - Look Converter
3DMESH
Mesh 4 10
0 64 128 192 256 320 384 448 512 576 640 704 768 832 896 960 1023
24 96 120
12 100 128
40 108 144
12 112 164
28 116 192
4 128 236
0 136 288
32 148 340
0 164 420
32 180 500
8 200 584
0 232 660
28 260 724
112 320 792
276 388 844
424 492 896
544 588 932
12 116 128
20 116 140
36 120 144
16 128 172
32 132 200
0 140 244
0 148 300
32 160 356
0 180 436
36 196 496
4 220 580
0 244 660
32 272 732
120 332 804
268 392 840
408 488 888
544 588 924
4 136 140
4 136 148
36 136 156
0 144 180
32 152 208
4 160 256
0 176 312
32 180 364
4 200 444
32 216 516
8 244 588
0 268 664
28 300 736
132 352 796
284 416 848
420 508 892
540 600 924
4 172 144
4 172 160
28 168 168
0 172 196
32 180 228
4 192 268
4 204 328
32 224 388
0 236 456
32 248 520
8 276 600
4 308 676
32 336 740
136 380 800
292 444 852
432 528 892
556 616 932
4 216 168
0 220 180
32 216 192
0 220 224
32 216 232
4 236 280
0 248 332
32 256 380
0 284 460
32 308 528
8 320 604
0 344 676
32 368 736
124 420 796
284 472 848
420 552 888
560 636 924
8 288 188
0 280 204
32 284 224
0 288 252
32 284 276
8 292 312
0 304 360
32 312 400
0 328 472
32 340 532
12 376 604
0 404 680
28 432 736
108 460 796
296 512 852
436 584 892
572 656 932
8 364 216
4 364 232
32 368 248
0 372 288
32 372 324
8 372 356
0 372 388
32 384 444
0 396 504
32 396 540
12 416 604
0 448 680
32 476 740
160 524 804
316 556 848
436 616 896
556 668 920
12 456 248
0 460 260
32 460 284
0 460 324
32 468 364
12 464 400
4 468 440
32 468 472
0 468 528
32 476 564
12 488 624
0 496 672
32 516 724
36 548 788
256 588 844
432 640 888
556 696 924
12 548 292
4 548 312
32 552 328
0 556 364
36 556 408
16 560 460
0 568 512
36 556 528
0 548 572
32 552 600
16 560 648
4 560 700
32 572 736
0 584 780
192 612 836
380 660 884
544 716 924
16 628 356
0 632 360
36 628 380
0 632 420
36 632 456
16 632 508
4 628 556
112 636 588
36 632 612
44 620 648
20 624 676
12 624 716
44 628 756
92 640 796
184 652 836
348 680 888
512 724 916
16 688 416
0 696 428
36 692 436
0 696 476
36 692 508
24 692 560
116 692 592
252 692 636
284 696 672
260 684 684
252 684 712
256 688 752
244 684 780
252 692 812
308 704 848
404 724 892
512 756 924
24 740 492
8 740 500
44 740 508
12 740 532
92 740 564
184 740 600
264 740 636
340 744 672
392 744 712
408 744 728
388 732 740
380 732 772
380 732 792
384 736 828
404 740 856
468 756 888
568 788 928
208 784 564
224 788 572
248 784 584
268 784 604
312 780 624
332 780 648
384 780 676
424 780 712
464 784 740
516 784 768
508 784 788
480 772 792
476 768 812
476 776 840
496 780 872
544 792 904
616 816 936
412 820 644
404 816 648
412 816 652
416 816 664
448 816 680
460 820 708
476 820 728
500 816 748
524 820 776
564 816 792
596 816 820
580 816 832
564 808 840
548 804 856
572 816 880
608 824 912
672 848 940
532 848 708
540 856 728
548 852 724
548 856 736
548 848 736
556 848 752
564 848 772
580 848 788
588 856 808
608 848 824
640 848 844
660 848 864
644 848 868
624 844 872
636 844 892
664 852 912
716 872 948
640 876 780
640 876 780
640 876 784
644 876 792
648 876 796
652 876 808
648 880 816
656 880 820
652 884 840
664 884 848
684 876 868
716 880 884
720 872 892
708 880 900
700 876 908
716 876 928
764 900 952
720 904 836
724 908 840
724 908 836
724 908 844
724 904 844
724 904 848
724 904 860
720 904 864
716 904 872
720 904 876
724 904 884
748 908 904
768 900 912
768 900 920
756 904 924
756 900 932
792 916 952
44 100 120
24 100 132
28 112 144
28 116 164
16 120 196
0 128 236
0 140 292
0 148 356
0 168 428
0 184 504
0 208 580
4 236 656
4 272 732
148 316 800
288 388 844
424 484 900
544 576 928
32 116 132
32 120 140
24 124 152
24 128 176
16 132 204
0 140 248
0 156 304
0 164 368
0 180 440
4 200 508
0 216 588
0 248 668
8 284 744
148 328 804
292 404 852
424 492 900
548 592 928
20 136 140
16 136 148
24 144 164
16 148 188
12 160 216
0 160 256
0 176 308
0 184 372
4 200 444
0 224 520
0 244 596
0 268 664
0 304 736
152 352 796
296 424 856
424 500 888
548 608 928
0 176 140
0 176 156
8 176 172
8 176 196
0 184 228
0 196 272
4 204 324
4 220 388
0 236 456
0 256 532
0 276 596
4 308 676
0 332 740
164 384 808
300 448 856
440 528 904
560 612 928
4 216 160
0 228 184
0 224 200
0 220 220
4 224 240
4 240 292
0 248 336
0 260 404
0 288 480
4 308 540
0 316 612
0 344 676
8 380 752
176 424 808
300 480 852
440 560 900
560 636 920
0 288 184
0 288 200
0 296 220
0 292 248
4 288 276
0 292 316
0 308 364
0 316 416
0 324 460
0 356 536
0 384 612
0 404 676
4 432 744
144 464 796
296 512 844
432 584 892
568 652 928
0 372 212
0 372 232
0 372 252
0 372 284
0 376 328
0 376 364
0 376 400
0 388 448
0 392 500
0 408 552
0 420 608
0 452 684
0 480 740
180 516 796
308 560 844
440 612 900
572 676 928
0 464 248
4 464 264
0 460 288
0 468 324
0 464 360
0 468 416
0 472 448
0 468 488
0 472 536
0 484 580
4 484 624
0 500 680
0 516 736
100 548 800
292 596 848
452 644 888
564 692 924
0 548 292
4 548 312
0 552 328
0 556 360
0 556 412
0 564 456
0 560 500
4 560 532
4 552 568
0 552 608
4 556 652
4 560 696
4 568 736
0 584 776
216 616 840
388 664 888
548 712 920
0 632 352
4 628 360
0 632 388
0 632 420
0 632 452
0 636 508
16 636 556
148 636 600
100 632 612
76 624 644
68 628 676
68 624 724
84 632 756
132 640 796
192 648 836
348 684 884
528 732 924
0 688 408
0 696 428
0 696 440
0 696 476
12 696 512
8 696 556
152 696 600
256 696 644
300 696 676
276 684 684
264 684 720
256 680 744
260 688 776
268 692 812
308 704 852
396 720 888
504 752 924
8 744 488
4 740 492
12 744 512
12 740 532
124 744 564
216 744 608
288 740 644
340 744 676
408 740 716
420 744 736
396 736 748
388 732 776
388 736 804
380 732 828
404 744 860
480 764 900
572 784 924
224 788 564
232 788 576
256 788 584
296 792 608
312 788 624
352 780 652
392 784 680
420 780 712
464 784 740
508 780 768
500 780 784
488 772 796
484 772 820
484 780 840
504 784 876
540 792 900
624 816 940
408 816 640
408 820 652
420 820 660
436 816 672
444 816 680
464 816 700
476 820 724
500 816 752
524 820 776
556 820 796
604 824 828
584 820 836
560 808 840
560 804 860
576 812 884
608 824 912
668 844 936
536 852 716
544 852 728
540 848 724
544 852 732
548 848 740
564 852 756
572 852 772
576 852 788
588 852 804
604 852 820
640 852 844
660 848 860
640 844 868
632 840 872
636 840 892
668 856 920
720 868 948
640 880 784
644 880 784
652 884 788
652 880 796
660 884 800
648 876 800
652 876 812
656 880 824
652 884 840
668 888 856
684 884 864
716 880 884
724 880 896
708 880 900
696 876 912
716 876 928
764 896 952
724 908 832
724 908 840
724 908 840
724 908 840
724 904 848
724 904 848
724 904 856
716 904 868
720 904 872
720 904 880
728 904 888
748 908 904
768 900 912
768 900 920
756 908 932
756 900 932
792 916 952
64 104 124
72 104 132
56 108 148
52 116 164
44 120 188
36 132 244
12 140 292
0 156 360
0 168 428
0 188 508
0 204 580
4 232 660
48 268 732
200 320 792
312 396 852
428 484 896
560 588 928
72 120 124
64 116 140
56 120 156
60 128 176
52 136 204
40 148 256
20 152 300
0 164 368
4 184 440
0 204 512
4 220 588
0 248 668
64 284 736
204 336 800
320 404 852
440 496 896
564 592 924
52 144 128
48 144 140
56 148 168
52 152 188
44 156 220
32 168 268
16 180 316
0 188 380
4 208 460
0 224 520
0 244 596
4 272 680
96 316 744
216 364 812
324 424 856
448 516 896
564 600 924
24 176 140
24 172 156
32 180 180
52 176 200
36 192 236
28 200 280
16 212 332
4 220 388
0 236 452
0 256 532
0 280 600
4 300 672
80 336 740
208 384 796
320 452 856
452 532 900
572 616 928
0 220 156
4 224 172
0 228 200
28 228 220
36 228 252
4 244 292
4 248 340
4 268 404
0 288 468
0 304 544
0 320 616
4 352 688
76 384 744
204 420 800
328 484 852
460 564 900
560 632 920
0 288 172
0 288 188
4 300 224
4 296 248
16 288 280
0 292 316
0 308 364
0 320 416
0 332 484
0 360 548
0 384 612
0 404 684
52 432 752
212 476 808
340 528 860
460 584 896
564 648 924
0 368 200
4 368 220
0 372 248
4 384 288
4 376 324
0 384 368
0 380 392
0 388 448
0 400 496
4 408 552
0 432 612
0 456 680
76 488 744
220 520 796
332 564 848
448 612 892
576 672 928
4 464 236
0 472 256
0 476 292
0 468 316
0 472 364
4 476 420
4 472 452
0 476 492
0 480 532
4 484 576
0 488 628
0 496 680
0 524 740
168 552 800
312 588 840
464 644 884
584 700 924
0 556 284
0 556 292
0 556 324
0 560 364
4 560 416
4 560 460
0 560 504
8 564 532
4 560 572
4 564 620
4 564 660
4 560 700
4 568 736
8 584 788
256 620 844
432 668 892
552 708 916
0 636 340
4 632 352
0 632 380
0 636 408
0 636 452
0 636 504
64 640 556
180 640 600
168 636 624
152 632 648
136 628 676
132 628 716
140 632 760
160 640 796
216 648 840
368 688 884
536 728 920
0 696 404
0 692 416
0 696 436
4 696 472
4 692 508
40 696 548
188 692 596
280 696 644
336 700 668
304 688 688
284 680 708
284 680 748
280 684 776
288 692 812
328 708 852
400 720 884
520 752 924
4 740 480
4 740 488
12 744 512
72 744 532
168 740 568
244 748 608
300 740 640
356 740 672
416 740 716
436 744 732
408 732 748
404 732 776
396 728 804
400 736 828
428 744 860
476 760 896
580 784 932
252 788 560
264 788 568
264 788 580
308 788 600
336 788 628
372 784 656
408 780 684
436 784 712
476 784 740
520 780 772
516 780 788
496 772 800
492 772 824
496 780 844
496 780 872
548 796 904
624 820 928
420 816 644
420 816 644
432 816 656
444 820 668
468 824 688
472 820 704
492 820 728
508 820 756
532 816 776
568 820 800
604 816 824
588 816 832
568 812 844
568 808 860
580 816 884
612 832 912
672 844 936
540 852 716
540 852 712
548 852 724
552 848 728
560 848 740
572 848 756
580 848 768
580 852 784
588 852 800
616 852 824
648 852 848
668 852 864
652 848 872
640 840 880
644 844 896
668 852 920
720 868 944
648 876 784
648 876 784
652 880 788
648 876 788
656 876 796
656 876 804
660 880 820
660 880 824
660 884 840
672 880 852
680 876 864
716 880 880
724 880 892
708 880 900
700 872 912
716 876 928
764 896 948
728 908 832
728 908 836
728 908 840
728 908 840
728 904 848
732 908 852
732 904 860
728 908 868
720 904 872
724 900 880
728 904 888
748 908 904
772 904 916
768 904 924
756 904 932
760 900 932
792 912 952
100 104 120
104 108 132
100 108 144
88 116 172
88 124 192
84 132 244
80 144 296
64 160 360
44 168 432
24 188 508
28 204 576
80 236 668
160 276 736
252 328 800
352 396 848
464 488 892
576 596 928
100 120 120
100 124 132
96 124 156
96 128 184
96 140 212
88 148 252
88 160 304
72 168 364
52 184 444
44 208 520
48 224 596
88 252 668
160 284 736
252 340 808
364 408 856
472 500 900
