滤镜资源/vsco 137 3dl+cube/VSCO 137 3dl/VSCO B2Bw Classic.3dl
#Generated by Picture Instruments - Look Converter
3DMESH
Mesh 4 10
0 64 128 192 256 320 384 448 512 576 640 704 768 832 896 960 1023
200 200 200
200 200 200
200 200 200
200 200 200
200 200 200
200 200 200
200 200 200
200 200 200
200 200 200
200 200 200
200 200 200
200 200 200
200 200 200
200 200 200
200 200 200
200 200 200
200 200 200
204 204 204
204 204 204
204 204 204
200 200 200
200 200 200
200 200 200
200 200 200
200 200 200
200 200 200
200 200 200
200 200 200
200 200 200
200 200 200
200 200 200
200 200 200
200 200 200
200 200 200
204 204 204
208 208 208
208 208 208
208 208 208
208 208 208
204 204 204
204 204 204
204 204 204
200 200 200
200 200 200
200 200 200
200 200 200
200 200 200
200 200 200
200 200 200
200 200 200
200 200 200
208 208 208
212 212 212
212 212 212
216 216 216
212 212 212
212 212 212
212 212 212
208 208 208
208 208 208
204 204 204
204 204 204
204 204 204
200 200 200
200 200 200
200 200 200
200 200 200
200 200 200
212 212 212
216 216 216
220 220 220
224 224 224
228 228 228
224 224 224
220 220 220
216 216 216
216 216 216
212 212 212
212 212 212
208 208 208
208 208 208
208 208 208
204 204 204
204 204 204
204 204 204
220 220 220
224 224 224
228 228 228
232 232 232
240 240 240
244 244 244
240 240 240
232 232 232
228 228 228
224 224 224
220 220 220
220 220 220
216 216 216
212 212 212
212 212 212
212 212 212
208 208 208
228 228 228
232 232 232
240 240 240
244 244 244
252 252 252
264 264 264
276 276 276
264 264 264
256 256 256
248 248 248
244 244 244
236 236 236
232 232 232
228 228 228
224 224 224
220 220 220
216 216 216
240 240 240
244 244 244
252 252 252
264 264 264
276 276 276
288 288 288
300 300 300
312 312 312
304 304 304
292 292 292
284 284 284
272 272 272
260 260 260
252 252 252
248 248 248
244 244 244
236 236 236
252 252 252
264 264 264
276 276 276
288 288 288
300 300 300
316 316 316
332 332 332
344 344 344
356 356 356
352 352 352
336 336 336
324 324 324
312 312 312
300 300 300
288 288 288
280 280 280
264 264 264
276 276 276
288 288 288
300 300 300
316 316 316
328 328 328
344 344 344
360 360 360
376 376 376
396 396 396
416 416 416
404 404 404
388 388 388
372 372 372
356 356 356
344 344 344
328 328 328
320 320 320
300 300 300
312 312 312
328 328 328
344 344 344
360 360 360
376 376 376
396 396 396
416 416 416
432 432 432
456 456 456
476 476 476
464 464 464
440 440 440
424 424 424
412 412 412
392 392 392
380 380 380
328 328 328
344 344 344
364 364 364
376 376 376
396 396 396
416 416 416
432 432 432
452 452 452
476 476 476
496 496 496
516 516 516
536 536 536
528 528 528
508 508 508
484 484 484
468 468 468
452 452 452
360 360 360
376 376 376
396 396 396
416 416 416
432 432 432
448 448 448
476 476 476
496 496 496
516 516 516
540 540 540
564 564 564
580 580 580
600 600 600
588 588 588
568 568 568
552 552 552
536 536 536
400 400 400
416 416 416
432 432 432
452 452 452
476 476 476
500 500 500
520 520 520
536 536 536
560 560 560
580 580 580
600 600 600
624 624 624
644 644 644
660 660 660
648 648 648
632 632 632
616 616 616
436 436 436
456 456 456
476 476 476
500 500 500
512 512 512
536 536 536
560 560 560
580 580 580
604 604 604
620 620 620
640 640 640
660 660 660
680 680 680
696 696 696
712 712 712
700 700 700
688 688 688
480 480 480
496 496 496
516 516 516
536 536 536
560 560 560
580 580 580
600 600 600
620 620 620
640 640 640
660 660 660
680 680 680
696 696 696
712 712 712
728 728 728
740 740 740
752 752 752
748 748 748
512 512 512
532 532 532
556 556 556
576 576 576
596 596 596
612 612 612
632 632 632
656 656 656
676 676 676
692 692 692
704 704 704
724 724 724
736 736 736
748 748 748
760 760 760
772 772 772
780 780 780
200 200 200
204 204 204
204 204 204
204 204 204
200 200 200
200 200 200
200 200 200
200 200 200
200 200 200
200 200 200
200 200 200
200 200 200
200 200 200
200 200 200
200 200 200
200 200 200
200 200 200
204 204 204
208 208 208
204 204 204
204 204 204
204 204 204
204 204 204
200 200 200
200 200 200
200 200 200
200 200 200
200 200 200
200 200 200
200 200 200
200 200 200
200 200 200
200 200 200
200 200 200
208 208 208
212 212 212
212 212 212
212 212 212
208 208 208
208 208 208
208 208 208
204 204 204
204 204 204
204 204 204
200 200 200
200 200 200
200 200 200
200 200 200
200 200 200
200 200 200
200 200 200
208 208 208
216 216 216
220 220 220
224 224 224
220 220 220
216 216 216
216 216 216
212 212 212
212 212 212
208 208 208
208 208 208
208 208 208
204 204 204
204 204 204
204 204 204
200 200 200
200 200 200
212 212 212
224 224 224
228 228 228
232 232 232
236 236 236
232 232 232
228 228 228
224 224 224
220 220 220
220 220 220
216 216 216
212 212 212
212 212 212
208 208 208
208 208 208
208 208 208
204 204 204
220 220 220
232 232 232
240 240 240
244 244 244
252 252 252
260 260 260
256 256 256
248 248 248
240 240 240
240 240 240
232 232 232
228 228 228
224 224 224
220 220 220
216 216 216
216 216 216
212 212 212
228 228 228
244 244 244
252 252 252
260 260 260
276 276 276
288 288 288
300 300 300
288 288 288
276 276 276
268 268 268
260 260 260
252 252 252
244 244 244
240 240 240
232 232 232
228 228 228
224 224 224
240 240 240
260 260 260
276 276 276
288 288 288
296 296 296
312 312 312
328 328 328
344 344 344
332 332 332
316 316 316
300 300 300
292 292 292
284 284 284
272 272 272
268 268 268
256 256 256
248 248 248
256 256 256
284 284 284
296 296 296
312 312 312
324 324 324
344 344 344
356 356 356
372 372 372
392 392 392
380 380 380
364 364 364
356 356 356
336 336 336
324 324 324
312 312 312
304 304 304
292 292 292
276 276 276
308 308 308
328 328 328
340 340 340
356 356 356
376 376 376
396 396 396
416 416 416
428 428 428
444 444 444
436 436 436
420 420 420
408 408 408
392 392 392
372 372 372
360 360 360
348 348 348
300 300 300
340 340 340
360 360 360
376 376 376
396 396 396
412 412 412
432 432 432
448 448 448
472 472 472
496 496 496
516 516 516
496 496 496
480 480 480
464 464 464
444 444 444
428 428 428
416 416 416
332 332 332
372 372 372
392 392 392
412 412 412
432 432 432
452 452 452
476 476 476
492 492 492
512 512 512
536 536 536
560 560 560
580 580 580
568 568 568
540 540 540
520 520 520
504 504 504
492 492 492
364 364 364
408 408 408
432 432 432
452 452 452
472 472 472
492 492 492
512 512 512
536 536 536
560 560 560
576 576 576
596 596 596
616 616 616
640 640 640
628 628 628
612 612 612
584 584 584
572 572 572
400 400 400
448 448 448
472 472 472
496 496 496
516 516 516
536 536 536
556 556 556
576 576 576
600 600 600
620 620 620
640 640 640
660 660 660
680 680 680
696 696 696
680 680 680
664 664 664
652 652 652
440 440 440
500 500 500
512 512 512
536 536 536
556 556 556
580 580 580
600 600 600
624 624 624
636 636 636
660 660 660
680 680 680
692 692 692
712 712 712
732 732 732
736 736 736
728 728 728
716 716 716
484 484 484
528 528 528
556 556 556
580 580 580
604 604 604
616 616 616
636 636 636
656 656 656
680 680 680
696 696 696
708 708 708
728 728 728
736 736 736
752 752 752
764 764 764
776 776 776
768 768 768
516 516 516
564 564 564
592 592 592
616 616 616
632 632 632
648 648 648
672 672 672
692 692 692
704 704 704
720 720 720
732 732 732
744 744 744
756 756 756
768 768 768
784 784 784
792 792 792
800 800 800
200 200 200
208 208 208
212 212 212
212 212 212
208 208 208
208 208 208
208 208 208
204 204 204
204 204 204
204 204 204
200 200 200
200 200 200
200 200 200
200 200 200
200 200 200
200 200 200
200 200 200
204 204 204
208 208 208
216 216 216
212 212 212
212 212 212
212 212 212
208 208 208
208 208 208
204 204 204
204 204 204
204 204 204
200 200 200
200 200 200
200 200 200
200 200 200
200 200 200
200 200 200
208 208 208
212 212 212
220 220 220
216 216 216
216 216 216
212 212 212
212 212 212
208 208 208
208 208 208
204 204 204
204 204 204
204 204 204
204 204 204
200 200 200
200 200 200
200 200 200
200 200 200
208 208 208
216 216 216
228 228 228
232 232 232
228 228 228
224 224 224
220 220 220
216 216 216
216 216 216
212 212 212
212 212 212
208 208 208
208 208 208
208 208 208
204 204 204
204 204 204
204 204 204
216 216 216
224 224 224
236 236 236
244 244 244
252 252 252
248 248 248
240 240 240
236 236 236
232 232 232
224 224 224
224 224 224
220 220 220
216 216 216
216 216 216
212 212 212
212 212 212
208 208 208
220 220 220
232 232 232
252 252 252
264 264 264
272 272 272
284 284 284
276 276 276
268 268 268
256 256 256
256 256 256
244 244 244
236 236 236
232 232 232
228 228 228
224 224 224
220 220 220
220 220 220
228 228 228
244 244 244
272 272 272
284 284 284
296 296 296
312 312 312
324 324 324
316 316 316
304 304 304
296 296 296
284 284 284
276 276 276
264 264 264
256 256 256
248 248 248
240 240 240
236 236 236
240 240 240
264 264 264
300 300 300
312 312 312
324 324 324
344 344 344
360 360 360
376 376 376
364 364 364
348 348 348
336 336 336
324 324 324
308 308 308
300 300 300
288 288 288
276 276 276
268 268 268
256 256 256
288 288 288
324 324 324
344 344 344
360 360 360
372 372 372
396 396 396
416 416 416
432 432 432
416 416 416
400 400 400
380 380 380
372 372 372
356 356 356
344 344 344
332 332 332
316 316 316
284 284 284
312 312 312
356 356 356
372 372 372
392 392 392
412 412 412
432 432 432
448 448 448
472 472 472
492 492 492
480 480 480
460 460 460
448 448 448
428 428 428
412 412 412
396 396 396
384 384 384
304 304 304
348 348 348
392 392 392
416 416 416
428 428 428
448 448 448
472 472 472
496 496 496
516 516 516
532 532 532
552 552 552
540 540 540
524 524 524
508 508 508
492 492 492
468 468 468
452 452 452
336 336 336
376 376 376
428 428 428
452 452 452
476 476 476
496 496 496
512 512 512
536 536 536
556 556 556
580 580 580
600 600 600
620 620 620
604 604 604
588 588 588
568 568 568
552 552 552
540 540 540
368 368 368
420 420 420
468 468 468
492 492 492
516 516 516
536 536 536
560 560 560
580 580 580
596 596 596
616 616 616
640 640 640
660 660 660
680 680 680
668 668 668
644 644 644
628 628 628
612 612 612
404 404 404
452 452 452
508 508 508
536 536 536
560 560 560
576 576 576
596 596 596
616 616 616
640 640 640
660 660 660
676 676 676
692 692 692
712 712 712
728 728 728
716 716 716
704 704 704
684 684 684
444 444 444
496 496 496
552 552 552
580 580 580
600 600 600
620 620 620
640 640 640
656 656 656
676 676 676
696 696 696
712 712 712
728 728 728
740 740 740
752 752 752
764 764 764
756 756 756
748 748 748
488 488 488
544 544 544
604 604 604
616 616 616
640 640 640
656 656 656
680 680 680
696 696 696
716 716 716
724 724 724
740 740 740
752 752 752
764 764 764
776 776 776
788 788 788
800 800 800
788 788 788
520 520 520
580 580 580
628 628 628
652 652 652
672 672 672
688 688 688
708 708 708
724 724 724
732 732 732
748 748 748
760 760 760
768 768 768
784 784 784
796 796 796
800 800 800
808 808 808
816 816 816
200 200 200
208 208 208
216 216 216
224 224 224
224 224 224
220 220 220
216 216 216
216 216 216
212 212 212
212 212 212
208 208 208
208 208 208
208 208 208
204 204 204
204 204 204
204 204 204
200 200 200
204 204 204
208 208 208
216 216 216
232 232 232
228 228 228
224 224 224
220 220 220
216 216 216
216 216 216
212 212 212
212 212 212
208 208 208
208 208 208
208 208 208
204 204 204
204 204 204
