滤镜资源/vsco 137 3dl+cube/VSCO 137 3dl/VSCO Q1 Alchemy.3dl
#Generated by Picture Instruments - Look Converter
3DMESH
Mesh 4 10
0 64 128 192 256 320 384 448 512 576 640 704 768 832 896 960 1023
0 28 32
0 32 76
32 40 116
4 48 192
28 56 252
0 72 336
0 84 428
32 92 500
0 108 592
32 128 668
8 152 736
4 180 808
104 208 852
260 260 916
380 320 948
488 408 984
568 488 1016
0 64 52
0 68 84
32 76 136
0 84 200
28 88 260
4 104 336
0 112 428
28 120 504
0 148 596
32 156 660
12 180 736
0 204 808
128 232 864
272 284 924
384 332 960
476 412 984
576 500 1016
4 104 80
0 112 108
28 124 148
0 128 208
28 140 268
4 148 348
4 164 436
32 176 508
0 188 600
32 208 664
12 228 736
0 244 804
160 272 860
288 320 916
400 372 960
492 444 984
568 516 1008
8 172 96
0 180 132
28 180 164
0 192 228
28 204 292
8 220 368
0 236 452
32 252 528
0 248 604
32 264 676
16 284 744
12 308 816
200 340 868
300 368 920
404 416 960
500 476 988
588 552 1012
8 244 124
0 260 148
32 264 184
0 276 248
28 284 308
8 304 380
0 312 456
32 328 524
0 352 608
32 360 680
12 356 740
44 376 808
212 396 864
312 428 920
408 468 956
500 520 980
588 584 1012
8 348 152
4 352 176
32 356 212
4 368 268
32 380 324
12 396 404
0 400 472
36 412 540
0 424 616
36 432 684
84 456 752
204 472 812
256 472 856
332 496 912
428 528 960
516 572 988
608 636 1012
12 444 184
0 448 204
32 452 232
0 464 292
32 480 352
16 488 424
0 500 496
36 504 564
0 508 640
32 508 684
88 528 752
224 536 812
324 556 860
404 580 920
452 588 956
524 620 988
604 664 1012
16 536 220
4 536 232
32 536 256
0 548 316
32 564 368
20 568 444
0 584 512
36 584 572
0 588 644
36 588 696
128 592 752
220 600 808
320 616 856
392 636 912
480 660 944
556 688 988
624 712 1012
20 612 256
0 620 276
32 616 292
0 628 344
32 632 396
20 644 476
0 656 540
36 660 600
0 660 660
96 660 712
200 664 768
268 668 824
336 676 860
392 684 908
476 700 952
552 724 980
644 756 1012
20 688 304
0 696 316
32 692 336
0 700 388
32 700 436
24 700 500
4 716 556
36 716 616
116 724 684
212 724 728
268 724 780
312 728 828
368 728 876
408 736 912
472 744 952
548 764 984
628 784 1012
24 748 356
4 752 368
36 752 380
4 756 424
36 760 468
60 764 528
116 772 580
172 776 636
228 780 700
288 780 756
328 780 800
372 788 848
404 780 872
444 784 920
500 796 956
564 812 988
632 824 1012
120 808 416
68 808 420
128 808 436
152 812 468
196 816 500
220 812 548
256 820 608
276 824 660
288 828 716
344 824 764
380 832 804
412 828 848
448 832 880
484 836 920
524 832 948
572 840 988
644 852 1012
316 852 484
292 856 492
300 856 496
304 860 520
336 856 548
332 860 584
348 860 640
348 868 680
356 872 736
392 880 780
428 880 828
456 876 868
488 872 888
516 872 932
556 868 960
612 876 992
668 884 1012
444 896 560
428 896 556
428 896 564
424 896 580
432 900 600
440 900 644
428 908 672
424 904 704
404 912 752
420 916 796
456 916 840
488 920 884
528 912 916
548 908 936
588 908 964
632 912 992
696 920 1012
544 932 632
544 936 636
544 936 640
536 944 656
528 936 660
532 936 688
520 944 716
500 944 732
468 952 772
468 952 804
488 952 852
512 952 884
556 952 920
584 948 952
616 944 968
672 944 1000
732 948 1008
648 964 716
640 968 716
636 972 712
636 972 724
632 968 732
628 968 752
608 976 764
588 976 780
544 984 796
516 984 824
532 988 864
552 988 904
584 992 928
612 988 964
648 980 980
700 972 1004
772 980 1012
740 996 788
728 996 788
728 1004 788
724 1004 796
720 1000 796
708 1000 812
696 1004 824
672 1000 828
640 1000 840
588 1000 848
576 1008 868
596 1016 908
620 1008 932
648 1016 972
688 1008 996
736 1000 1004
792 1000 1008
0 32 28
0 32 68
0 40 120
4 48 184
0 56 256
0 68 340
0 80 424
4 92 512
0 108 592
0 128 664
0 152 736
0 176 804
156 212 864
292 256 916
392 320 960
492 396 1004
572 488 1016
0 64 48
0 72 84
0 76 132
0 84 200
0 88 264
0 104 348
4 116 436
0 128 524
0 140 596
4 160 676
0 176 752
8 204 808
192 240 872
296 280 924
396 336 964
492 408 1000
584 500 1016
0 104 80
0 112 100
0 124 148
0 140 212
4 148 276
0 148 348
0 160 432
0 176 516
0 188 600
0 208 676
0 228 744
28 252 812
200 276 868
312 316 916
404 372 964
496 436 1000
580 520 1012
4 176 100
0 176 128
0 184 168
0 200 228
4 212 292
0 220 364
0 232 444
4 240 528
0 248 604
0 268 680
0 288 748
88 312 812
220 332 868
320 364 916
420 420 964
508 476 1000
588 544 1008
0 248 124
0 260 152
0 268 192
0 276 248
0 292 312
0 304 384
0 316 464
0 328 544
0 356 616
0 356 684
4 360 756
120 380 812
252 408 876
344 432 924
420 468 964
512 524 1000
600 584 1012
4 340 164
4 348 176
0 368 212
4 368 268
4 388 336
0 396 408
0 404 468
0 416 548
0 424 612
4 444 676
148 460 752
216 468 804
264 472 864
344 496 916
428 524 960
516 568 992
604 628 1012
4 448 200
0 456 208
0 456 240
0 464 292
4 476 356
0 488 428
0 500 500
0 500 564
0 508 628
4 516 692
148 524 760
252 540 816
344 560 872
404 572 912
448 584 956
532 624 992
620 672 1012
4 536 228
4 536 232
4 544 272
0 556 320
0 564 380
0 572 448
0 584 524
0 588 588
4 592 656
72 592 712
172 592 760
252 604 812
336 616 864
416 636 912
496 664 956
568 684 1000
628 712 1012
4 620 276
0 620 276
0 620 300
0 628 344
0 636 404
0 652 468
0 656 540
4 660 600
4 664 664
140 664 720
224 668 768
284 664 820
336 672 864
408 684 904
476 700 948
556 732 984
640 760 1012
0 684 320
0 692 320
0 688 344
0 696 380
0 696 432
4 704 488
16 724 564
84 724 628
164 728 684
220 724 732
280 724 776
324 728 828
376 728 868
424 740 916
476 744 948
552 764 988
632 792 1008
4 744 364
8 752 372
8 756 388
8 756 424
44 760 472
120 768 524
176 768 580
200 780 644
260 784 704
300 780 752
344 784 800
372 780 836
412 780 880
452 788 924
500 792 948
560 808 988
628 820 1008
200 808 424
168 804 424
168 808 436
192 808 468
232 816 516
260 812 556
276 824 604
288 824 664
308 832 716
356 832 764
392 828 816
420 828 852
452 832 888
488 832 920
528 836 960
584 848 992
652 856 1012
348 856 492
328 852 488
320 860 504
340 860 524
344 860 556
352 860 584
360 860 636
356 868 680
368 872 736
388 872 784
428 876 828
460 876 864
496 872 896
524 872 932
556 876 960
612 880 988
672 888 1012
456 896 556
444 900 564
436 896 564
440 900 588
444 900 604
440 904 636
440 904 668
424 904 700
420 912 756
432 916 800
460 920 836
496 924 884
528 912 912
556 908 940
584 908 964
644 916 996
700 916 1008
556 936 628
560 936 640
540 932 644
540 940 652
532 940 668
540 936 688
524 940 712
504 944 740
472 948 772
472 948 812
488 952 852
520 956 888
560 956 928
592 948 956
620 944 972
668 948 1004
732 948 1008
656 968 716
652 968 720
656 972 724
648 976 732
644 976 736
624 972 744
616 980 764
592 976 776
556 980 800
532 988 828
536 988 860
548 988 896
584 992 932
612 992 964
656 980 984
704 976 1004
764 976 1012
744 996 796
736 1000 788
736 1000 788
724 1004 796
724 1004 804
712 1000 812
696 1004 824
680 1004 832
648 1000 840
600 1000 848
584 1016 872
596 1016 908
616 1016 936
644 1016 964
688 1016 992
736 1000 1004
792 1000 1008
24 32 32
28 40 56
24 44 108
8 56 180
4 64 248
0 68 332
0 80 420
4 96 508
0 108 592
0 128 664
0 148 732
88 172 800
224 208 860
340 260 916
416 328 960
496 396 996
588 492 1012
20 68 28
16 72 76
8 76 128
0 84 188
4 96 264
0 108 344
0 112 428
0 128 508
0 140 596
4 160 676
0 180 752
144 200 816
244 236 868
344 284 920
428 340 964
512 420 1004
592 508 1016
0 108 60
4 112 100
4 124 144
4 132 208
0 144 276
4 152 356
4 164 444
0 176 524
4 192 604
0 208 676
24 220 748
168 248 820
272 280 872
356 324 916
436 372 964
520 444 1004
592 520 1012
0 164 92
0 172 124
0 184 164
4 196 220
0 212 292
0 220 364
0 224 444
0 236 524
4 256 604
0 268 680
84 292 748
172 304 808
268 332 860
360 364 916
436 412 956
524 484 1000
604 552 1008
0 240 124
0 260 156
0 268 192
0 284 244
0 292 308
0 308 380
0 320 452
0 324 528
4 340 608
4 344 684
112 360 756
212 380 812
296 404 872
368 420 916
452 464 964
532 524 1000
604 584 1008
0 340 164
0 344 176
0 364 216
0 376 264
4 384 332
0 396 408
4 404 472
0 416 556
8 428 628
136 448 696
220 460 756
252 460 812
300 472 872
392 496 924
468 532 964
544 568 1000
612 624 1012
4 440 196
0 440 212
0 456 240
0 468 284
0 476 348
0 488 420
0 496 488
0 504 556
4 508 624
116 512 692
216 532 752
300 544 812
372 560 868
416 568 912
472 588 956
544 624 988
628 668 1012
0 532 232
0 540 256
4 548 280
0 552 308
0 564 372
0 572 440
0 580 512
4 584 580
64 588 644
160 588 704
236 596 764
304 604 816
372 620 864
440 636 912
508 656 952
568 680 988
636 712 1012
0 612 276
4 616 292
0 624 304
0 628 340
4 640 404
0 648 472
8 652 536
68 660 604
156 668 660
228 668 720
280 664 776
320 664 820
372 676 868
436 688 912
504 700 956
580 728 992
652 752 1012
20 692 328
8 684 336
4 692 344
4 692 380
0 696 428
80 708 488
140 716 556
168 724 616
232 728 680
280 728 728
316 728 780
356 724 824
400 728 868
436 736 904
492 748 952
568 764 988
648 792 1012
192 752 380
164 752 384
96 752 388
116 756 420
148 756 468
200 760 516
236 772 584
260 784 640
300 784 700
336 780 752
368 780 796
400 780 836
436 780 884
468 788 916
512 796 956
564 808 988
652 824 1012
292 800 432
276 800 428
248 808 444
248 808 464
280 812 504
300 820 556
312 816 608
328 828 656
340 828 720
388 828 768
416 832 816
448 828 852
460 832 884
500 828 928
532 836 960
584 840 992
660 860 1012
396 856 500
388 852 500
364 852 504
360 856 524
376 856 548
388 864 596
392 860 636
388 864 688
392 868 728
412 876 784
456 876 832
476 872 864
508 872 900
532 872 932
564 872 960
620 880 992
684 888 1012
492 896 576
488 900 568
476 896 572
468 900 588
468 900 612
468 900 636
464 904 672
448 904 704
436 912 748
448 916 796
468 916 836
504 920 872
540 916 912
564 912 936
600 912 968
652 916 996
712 916 1012
584 936 640
572 936 648
568 932 648
560 936 652
552 940 676
552 940 688
548 944 712
516 940 736
492 944 768
488 952 816
500 952 856
532 956 888
568 956 928
592 952 948
628 944 976
672 944 1000
736 948 1012
676 972 724
664 968 720
664 976 728
656 972 732
648 976 736
632 976 744
620 976 768
600 980 780
572 988 804
536 988 828
544 988 864
560 988 900
592 992 936
624 992 968
664 980 988
708 972 1004
768 976 1012
752 996 800
748 1000 800
748 1000 796
736 1004 800
724 1000 804
720 1000 816
712 1004 828
684 1000 832
660 1000 844
608 1004 848
596 1016 876
612 1012 908
624 1016 940
660 1012 968
688 1008 992
744 1004 1004
796 1004 1012
76 40 32
80 48 60
88 48 92
88 48 156
84 56 240
72 68 324
52 76 408
40 88 504
56 108 584
100 124 668
156 144 732
228 168 796
312 208 860
388 256 912
456 320 956
532 396 992
608 492 1012
80 72 28
84 76 64
92 84 116
100 88 180
100 92 252
84 100 332
76 116 420
72 128 508
88 144 596
132 152 672
196 172 748
248 196 808
320 232 864
396 276 920
476 344 964
544 416 1000
