滤镜资源/vsco 137 3dl+cube/VSCO 137 3dl/VSCO M4 Fade.3dl
#Generated by Picture Instruments - Look Converter
3DMESH
Mesh 4 10
0 64 128 192 256 320 384 448 512 576 640 704 768 832 896 960 1023
188 140 88
188 144 88
188 144 92
192 148 116
200 148 164
164 160 280
132 176 392
112 200 484
84 216 576
76 232 628
56 244 656
44 252 704
44 256 744
24 268 788
44 272 820
28 280 852
24 280 876
184 152 84
184 152 84
192 148 88
184 152 112
196 164 164
168 168 264
144 184 372
124 216 484
108 240 576
96 248 624
76 256 664
64 264 704
60 272 748
40 280 792
48 288 820
32 300 852
28 300 880
188 164 92
188 164 88
192 164 100
188 168 124
196 176 172
176 188 264
160 224 388
152 240 476
128 264 572
124 276 628
108 284 668
96 288 700
84 300 752
72 312 800
64 316 828
44 320 852
36 320 876
196 204 104
196 204 104
200 200 108
192 200 132
204 208 176
184 224 276
172 248 388
160 276 492
136 288 568
132 300 632
112 308 660
108 316 704
100 324 748
80 332 792
76 336 828
52 348 852
44 352 876
204 248 116
204 252 124
204 244 124
200 248 144
208 248 192
188 260 260
172 288 368
160 308 468
136 328 560
136 344 624
120 344 660
116 356 696
108 364 744
88 372 788
80 376 824
64 384 856
48 388 880
208 300 136
208 300 136
212 296 136
208 304 160
216 304 204
188 304 268
172 328 364
164 356 464
148 380 564
136 384 624
128 396 664
116 400 696
112 408 740
92 416 788
88 424 828
80 428 860
64 436 880
224 356 156
220 360 152
224 360 164
220 360 184
220 364 224
200 364 276
180 368 360
168 404 480
144 428 560
148 436 620
136 448 652
124 452 696
120 464 744
108 476 792
100 472 828
96 484 852
80 484 872
232 428 180
228 432 180
236 428 180
232 432 204
236 436 236
212 432 296
192 436 364
176 452 452
156 476 556
148 488 612
140 504 648
136 516 692
132 524 732
120 540 784
120 548 816
104 556 848
96 556 872
248 504 208
248 504 200
252 504 208
248 508 228
252 504 268
224 508 308
200 516 384
188 508 452
164 528 548
156 548 604
148 560 652
140 568 688
140 588 736
128 592 780
128 604 816
116 612 848
112 616 876
264 580 228
260 584 228
264 580 232
256 588 252
264 584 288
228 588 324
212 592 392
200 588 464
172 588 536
172 604 600
160 616 644
152 632 684
148 636 732
136 660 780
136 660 816
132 672 844
124 680 876
272 648 252
272 656 244
276 652 252
268 660 272
280 660 304
240 664 348
220 656 400
204 660 468
184 664 548
176 660 588
172 660 624
164 684 668
156 696 728
144 712 776
148 724 816
140 732 852
128 732 868
288 724 268
284 728 268
292 724 268
280 724 288
288 724 316
256 724 352
232 732 416
216 728 480
196 728 544
192 724 588
188 728 624
172 728 656
168 728 700
156 764 772
160 764 816
152 780 836
140 784 872
300 776 284
296 780 280
300 776 284
292 780 304
300 780 336
260 780 368
240 784 428
228 788 488
208 784 560
204 784 600
196 780 636
188 788 664
180 784 700
164 784 744
160 796 788
160 824 836
148 824 868
304 820 292
300 816 292
308 820 296
300 824 312
312 820 340
268 824 376
244 824 428
232 824 496
216 824 564
208 820 608
200 828 632
192 824 668
188 824 712
176 824 748
176 824 780
164 824 812
156 844 848
312 848 304
304 860 300
308 856 304
304 856 320
308 856 352
268 856 372
248 856 424
236 856 492
216 860 560
212 852 604
212 856 640
196 860 668
200 856 704
184 856 744
180 856 776
172 856 808
160 856 824
312 876 304
308 880 304
312 876 308
308 880 328
312 880 356
276 876 384
256 880 432
244 880 504
224 880 572
220 876 612
212 880 640
200 880 676
204 880 704
184 884 748
192 880 780
180 880 804
176 880 828
316 892 316
312 892 312
312 896 312
312 896 332
316 900 356
280 896 388
256 896 440
244 896 512
228 900 576
220 896 616
216 900 640
204 900 672
200 900 704
188 900 748
192 900 780
184 896 808
176 896 828
196 140 80
192 140 80
200 144 92
200 152 116
204 156 160
172 164 264
128 164 384
104 188 488
84 212 576
68 228 636
56 236 664
44 248 700
32 252 744
28 268 784
28 268 824
24 272 860
24 276 872
192 148 80
192 148 80
196 152 92
196 160 120
204 168 172
168 172 272
140 184 392
120 204 500
104 232 572
92 240 640
80 248 672
68 260 712
48 264 752
36 276 792
32 284 832
32 292 860
28 292 880
196 164 92
196 164 92
196 164 96
200 172 128
200 176 168
180 188 268
160 216 372
148 236 480
124 260 572
112 272 628
108 276 668
92 284 700
80 292 752
64 300 792
52 308 828
44 312 856
40 320 876
208 204 100
204 200 96
204 200 104
200 204 132
208 208 184
196 220 264
176 244 368
168 276 484
144 288 572
132 304 628
124 316 668
124 320 712
104 320 752
88 336 796
84 340 828
72 352 856
56 352 876
212 248 116
212 248 116
212 244 132
208 244 144
208 248 196
196 256 260
184 288 376
164 308 492
148 336 568
136 336 628
128 348 664
124 356 700
116 364 752
100 372 792
88 376 828
76 384 856
64 388 880
216 300 128
216 300 136
220 300 144
216 304 164
220 308 204
200 300 260
184 332 364
168 356 472
156 376 560
140 392 620
136 400 664
128 404 696
120 412 748
112 420 788
100 428 820
92 432 852
80 432 880
228 364 156
224 364 156
228 360 164
232 360 184
228 368 224
208 368 280
184 364 360
172 400 468
160 428 556
148 440 620
144 444 652
136 452 700
124 460 748
116 472 784
108 476 824
104 488 852
96 488 880
236 428 172
232 428 180
240 432 188
236 436 204
236 436 248
216 436 292
196 436 372
180 452 472
168 484 560
156 492 616
148 496 652
144 516 696
136 528 736
132 540 788
124 552 824
112 552 852
108 552 876
252 504 196
252 504 200
252 504 208
252 504 228
252 504 260
232 520 312
208 512 380
184 516 452
168 536 544
164 552 608
160 560 648
156 568 684
144 584 732
136 592 784
128 604 820
128 616 852
124 624 880
268 580 220
268 580 228
268 580 224
264 584 252
264 584 280
236 588 328
220 592 396
200 596 468
180 592 532
168 600 596
168 616 640
160 632 688
152 640 736
144 656 780
140 668 816
140 672 848
136 680 880
280 652 244
280 656 248
280 656 256
280 660 276
284 668 304
244 664 336
232 664 408
212 668 480
192 668 548
188 664 592
176 664 628
168 672 672
160 700 728
156 712 780
152 720 820
148 732 852
140 732 868
292 724 268
288 724 268
292 724 268
292 728 284
288 728 324
256 732 356
236 728 416
220 724 484
204 732 552
196 728 600
192 728 628
184 728 664
176 732 704
164 764 776
156 772 816
156 784 852
148 788 868
300 776 280
296 780 280
300 776 284
300 780 296
300 780 332
268 784 364
244 784 420
228 784 492
220 788 556
204 784 600
204 784 632
196 784 660
188 784 704
176 784 740
164 804 788
164 820 840
156 828 864
308 820 292
312 816 296
308 816 300
308 820 312
304 824 344
276 828 376
256 828 424
240 828 500
220 824 556
216 824 608
208 832 636
204 828 668
192 824 704
188 828 748
176 828 776
168 824 804
164 840 840
312 848 300
308 860 296
316 856 304
308 856 320
316 856 356
276 860 380
256 856 436
240 860 504
228 864 564
216 860 608
216 856 644
204 860 668
196 860 720
192 856 752
192 856 784
180 860 804
172 860 824
320 880 304
320 880 304
320 884 316
316 884 324
316 884 360
284 880 384
268 880 444
248 880 512
236 884 572
228 884 616
216 880 636
212 880 676
204 884 708
196 884 744
188 880 776
184 884 808
180 884 824
320 892 308
320 892 308
320 896 316
316 896 324
316 896 360
284 900 388
268 900 444
248 900 512
236 900 572
228 900 616
220 900 640
216 904 672
208 900 708
200 900 748
192 900 780
192 900 808
184 900 828
208 148 84
208 148 80
212 152 92
212 152 108
212 156 160
200 168 256
152 168 376
108 180 488
84 200 572
64 212 632
52 224 660
40 232 696
32 240 744
24 248 788
24 256 824
24 264 860
20 264 876
204 156 88
208 156 84
204 152 92
212 164 116
212 168 168
196 172 260
148 176 380
116 196 492
100 216 580
84 228 636
72 232 664
64 244 704
48 256 752
36 260 800
32 268 832
28 280 860
28 284 880
208 168 96
208 168 92
208 164 100
212 172 120
216 180 168
192 188 276
164 196 396
140 224 496
132 240 580
116 252 628
104 264 672
92 268 704
84 284 756
68 288 800
52 300 832
40 300 852
36 308 876
208 192 92
212 196 96
216 200 108
216 204 124
220 212 180
208 220 264
196 248 372
180 268 480
172 292 572
160 304 640
148 316 668
136 316 704
128 324 748
120 336 792
108 340 824
100 344 856
88 344 880
220 244 116
220 252 112
224 248 128
220 244 148
220 248 192
212 260 268
196 288 376
184 308 484
172 324 568
160 340 632
152 348 664
144 360 704
136 368 756
124 368 788
116 376 824
108 380 860
96 380 872
228 296 132
228 296 128
228 304 144
232 304 168
228 304 204
216 304 272
204 332 368
188 360 488
176 376 568
164 388 628
152 392 660
152 400 696
136 408 748
132 416 792
120 420 828
112 428 856
104 432 872
236 360 152
236 356 156
236 356 160
240 364 176
236 364 220
216 372 280
204 368 356
188 404 468
176 428 560
172 436 620
164 448 656
160 452 700
152 464 744
136 468 788
132 476 828
124 480 856
120 484 876
248 428 176
248 436 180
248 436 180
248 432 200
248 436 244
228 436 296
212 436 372
192 456 468
180 480 552
180 496 616
168 504 656
168 516 692
160 528 748
152 536 788
140 544 820
132 548 848
132 552 880
264 504 200
264 504 200
268 508 212
268 504 224
264 512 268
240 516 308
220 512 380
208 512 456
192 536 552
180 556 612
180 568 652
172 564 688
160 580 744
160 596 784
152 604 820
148 620 856
140 620 868
280 588 228
276 584 224
276 584 228
280 584 252
276 584 284
252 588 324
232 592 392
216 588 464
204 588 532
188 608 604
180 616 644
176 632 684
176 644 736
164 656 776
164 668 816
156 672 852
152 676 876
292 660 248
288 660 244
292 656 256
292 656 268
292 664 304
268 664 340
248 664 404
220 672 476
216 668 544
200 664 588
192 664 628
188 680 668
180 704 728
176 716 780
172 724 820
164 732 844
160 736 872
300 720 260
304 720 268
300 724 272
304 724 288
300 728 324
272 736 364
256 732 420
240 732 488
220 732 548
212 732 600
208 736 632
196 736 664
188 732 700
184 768 780
184 772 824
176 780 848
168 792 872
312 780 276
316 776 276
312 776 284
312 780 300
308 784 336
276 788 368
264 788 432
244 788 500
232 780 552
220 788 608
216 788 636
208 788 668
200 784 708
196 788 748
188 796 792
176 824 844
172 828 868
316 820 288
320 820 288
320 820 300
316 824 308
316 828 340
288 828 376
264 828 432
252 828 500
240 828 568
228 824 608
216 828 628
216 824 668
208 828 704
204 824 744
188 832 784
188 836 808
180 844 852
324 848 300
328 848 300
324 856 304
324 852 316
324 860 352
284 860 384
268 860 432
256 860 504
240 860 568
232 860 612
232 860 640
224 864 672
212 860 716
208 856 748
204 860 784
192 860 808
192 860 828
328 880 308
332 880 312
328 880 312
332 880 320
332 884 364
292 880 388
276 880 444
260 884 516
248 884 576
236 880 616
232 884 644
224 884 676
216 888 712
208 884 748
204 884 788
200 884 812
192 880 828
328 892 308
332 896 312
332 900 316
332 896 324
332 896 364
292 904 392
276 900 448
260 900 524
252 900 576
240 900 620
236 904 648
228 900 676
220 904 716
216 900 752
208 904 788
204 900 812
200 900 828
236 152 76
236 156 80
240 156 88
240 160 112
240 152 148
240 172 252
192 168 368
144 172 480
92 180 572
68 188 632
52 196 656
36 204 700
32 216 748
28 224 788
20 236 820
20 240 860
20 240 876
240 160 84
240 164 88
240 164 96
240 164 112
244 168 160
240 180 256
196 180 372
148 184 484
104 192 572
80 200 636
72 212 668
60 216 708
44 232 752
32 240 792
28 244 824
28 256 860
