滤镜资源/vsco 137 3dl+cube/VSCO 137 3dl/VSCO KK2 Krochet Kids.3dl
#Generated by Picture Instruments - Look Converter
3DMESH
Mesh 4 10
0 64 128 192 256 320 384 448 512 576 640 704 768 832 896 960 1023
32 12 16
36 16 52
60 16 88
56 16 140
64 16 180
52 20 236
44 20 288
40 16 360
16 20 436
36 20 516
20 24 588
16 24 656
32 24 704
16 20 752
32 24 796
4 24 840
0 48 868
32 56 12
28 52 52
52 52 88
52 44 136
64 40 176
52 44 236
40 36 296
44 36 376
16 36 456
36 32 516
8 36 588
4 32 656
32 28 712
0 28 760
28 28 796
4 32 836
0 60 872
36 104 20
40 104 48
44 84 80
40 80 132
48 76 180
36 76 236
24 64 316
36 64 392
8 60 468
32 56 540
8 56 600
0 52 664
28 48 716
0 40 764
28 40 804
4 48 836
0 76 872
48 164 20
40 164 44
48 144 72
16 128 120
36 104 180
28 104 252
20 104 320
32 96 400
0 88 472
32 84 544
8 84 608
0 76 672
28 72 720
0 68 764
28 64 800
8 64 836
0 88 876
52 224 24
44 232 40
48 220 72
20 192 100
28 164 164
8 156 248
4 152 324
32 140 396
0 144 480
28 136 544
8 132 604
0 120 664
28 112 708
0 116 760
28 116 804
8 120 832
0 128 872
56 304 28
48 304 48
44 292 72
28 276 112
40 232 152
4 224 240
0 220 332
32 208 400
4 204 484
32 196 544
8 192 612
0 196 668
28 192 708
0 192 756
28 192 800
8 196 832
0 204 872
44 376 44
36 376 56
52 360 76
36 352 124
44 312 168
20 296 228
4 300 332
28 288 420
0 284 496
32 268 552
12 280 612
0 276 672
32 276 720
4 284 768
28 268 800
12 272 832
0 276 864
48 448 48
44 452 68
56 436 88
44 424 144
52 400 196
28 368 256
12 372 324
28 368 416
0 364 500
28 360 556
12 364 612
0 360 668
28 352 712
0 356 756
28 364 792
12 360 824
0 348 860
56 516 60
56 520 80
56 508 112
52 496 172
56 464 224
40 448 280
20 448 352
32 440 424
0 436 504
28 436 568
16 440 632
0 432 676
28 436 716
0 436 760
28 432 796
16 436 824
4 428 864
60 576 92
56 572 112
68 560 148
56 552 208
64 528 256
52 508 316
28 512 372
36 508 440
0 516 520
28 508 588
16 504 636
0 504 688
28 500 728
0 504 764
28 504 792
20 496 828
0 496 860
68 624 128
68 620 152
68 616 184
60 600 236
68 576 280
60 564 336
40 568 392
40 572 452
4 572 524
32 572 592
20 568 648
0 564 692
32 560 728
0 564 772
28 564 800
20 560 840
0 560 864
72 668 176
68 668 192
72 656 232
64 648 260
72 628 296
64 612 356
40 616 420
44 616 472
12 620 536
32 624 596
20 624 644
0 620 692
28 620 736
0 624 780
28 612 804
24 620 844
0 620 872
80 704 224
76 704 236
76 696 268
68 688 300
76 672 336
68 660 388
48 656 436
48 660 484
24 668 552
32 672 604
20 676 664
0 672 704
28 668 744
0 668 780
28 668 816
20 668 844
0 668 876
80 732 276
76 732 288
80 720 308
72 712 340
76 696 372
64 692 416
48 700 464
52 700 508
24 708 556
36 708 608
28 716 664
0 712 708
28 712 752
0 712 788
28 712 824
24 708 852
0 708 880
76 748 320
76 748 348
80 740 372
72 740 408
68 732 416
56 736 456
48 736 496
52 736 524
28 744 568
40 744 612
28 748 660
4 756 712
28 748 744
0 752 780
28 748 820
24 748 852
0 748 888
116 780 404
116 784 420
116 780 440
108 784 468
96 772 484
68 776 512
48 776 536
48 772 556
32 772 588
44 776 628
32 780 664
8 788 720
28 788 748
0 792 792
28 788 824
24 784 856
0 788 888
232 828 456
232 832 472
236 828 492
232 832 512
208 824 524
168 812 552
104 808 568
52 792 600
36 800 612
44 800 636
32 804 668
8 816 712
28 816 748
0 820 792
28 816 828
36 808 856
24 808 880
88 16 16
92 16 56
88 12 100
84 20 140
88 20 184
68 20 228
52 16 288
44 20 364
28 20 440
20 16 516
20 24 580
24 24 652
24 24 704
20 20 752
20 20 800
12 24 852
4 48 868
84 60 20
88 56 60
88 56 92
96 60 132
96 52 196
84 52 244
56 48 308
40 40 380
24 40 460
20 36 532
16 36 604
12 32 664
16 28 716
8 28 764
12 24 812
8 32 848
8 64 872
76 104 20
80 104 48
88 100 84
96 100 136
96 96 184
80 88 236
60 80 304
32 68 384
16 60 468
12 60 548
16 56 604
12 52 664
8 44 716
8 40 760
12 36 812
8 48 844
8 76 872
72 168 20
72 164 52
80 160 80
72 140 128
72 128 180
72 124 240
56 112 304
36 108 392
16 100 476
12 88 548
8 92 616
8 80 672
12 76 720
8 68 768
12 68 808
12 64 844
8 84 876
76 228 24
68 232 48
72 228 88
68 196 124
48 176 172
40 172 248
40 168 324
40 156 404
16 156 476
8 144 544
12 132 612
8 120 668
8 116 720
8 116 768
16 116 808
12 128 840
8 132 872
68 296 28
60 304 44
52 304 80
48 276 120
44 240 164
24 228 240
16 224 324
20 224 400
20 216 472
16 216 544
12 212 616
12 200 668
12 200 712
12 192 752
8 200 796
12 200 844
12 212 872
60 388 36
52 384 56
52 368 80
44 352 120
40 316 176
20 304 236
8 300 336
12 300 416
12 292 484
12 284 552
8 280 612
12 284 672
8 284 716
12 280 760
12 276 800
8 280 836
8 280 868
56 448 48
56 452 64
60 444 100
52 424 148
44 400 200
40 376 260
16 372 332
12 376 432
12 364 508
12 364 572
12 360 624
8 360 672
12 360 724
8 360 764
8 368 800
12 356 840
12 352 868
68 516 56
64 520 76
68 512 124
68 496 176
56 468 228
52 456 288
28 448 348
12 456 436
12 448 508
4 440 576
8 436 628
12 436 680
12 436 724
8 436 764
8 436 796
8 436 828
8 428 860
68 572 80
68 576 116
72 572 152
72 556 200
64 532 252
56 516 312
44 516 376
20 520 444
8 520 516
8 508 576
8 508 640
8 508 684
8 504 732
8 512 772
8 508 796
16 504 832
12 504 860
80 628 120
80 624 152
76 616 196
76 608 236
68 588 284
68 572 340
52 568 392
36 572 464
20 576 532
12 576 592
12 572 652
8 568 688
8 564 736
8 564 772
12 564 800
8 568 832
8 560 860
84 672 168
84 668 192
80 660 228
76 648 272
76 628 312
68 616 356
52 616 420
44 620 472
28 628 540
16 628 600
8 628 656
8 628 700
12 624 744
8 624 780
12 624 820
8 620 844
8 620 876
88 708 220
84 704 240
84 700 264
84 692 308
80 668 344
72 664 384
56 660 436
48 664 496
36 668 552
20 672 608
12 680 664
8 676 704
12 672 744
16 676 788
12 676 828
12 672 848
8 672 876
92 736 264
84 736 288
80 724 312
88 716 348
80 700 380
72 704 420
60 700 464
48 704 508
40 712 564
28 712 616
20 720 672
12 724 716
8 712 744
8 712 788
8 712 820
12 716 856
12 716 884
92 752 328
88 748 356
84 744 376
80 740 412
72 732 436
64 740 472
56 736 500
48 740 536
44 744 576
36 752 620
24 748 668
12 756 716
8 752 752
8 752 788
8 752 824
8 752 864
8 752 884
140 788 400
144 788 420
152 792 448
156 792 476
140 788 496
88 780 512
60 776 540
48 776 564
44 780 596
36 780 628
32 784 672
16 792 716
16 788 752
12 792 792
12 792 824
12 784 860
8 792 884
252 840 460
256 840 472
268 840 492
276 836 520
256 832 528
208 820 556
140 808 572
72 804 604
44 804 616
44 804 640
32 804 672
20 816 712
16 820 752
12 820 792
12 820 828
28 812 856
28 812 884
156 20 28
160 20 56
156 12 100
156 24 156
144 28 200
136 28 248
116 28 300
80 32 352
56 20 424
44 20 504
36 20 576
32 20 644
28 24 704
32 20 756
28 20 804
24 20 844
20 44 868
168 64 24
148 60 56
144 60 100
152 68 144
160 68 200
148 72 248
124 60 304
96 60 372
60 52 444
44 44 524
28 36 604
28 32 664
24 28 716
28 28 764
20 24 804
20 32 848
20 64 876
144 104 12
144 104 48
148 108 96
148 112 140
160 108 200
144 112 256
124 104 316
88 88 380
72 84 460
40 68 532
28 60 612
24 52 676
20 44 720
24 36 772
24 40 812
20 44 852
20 76 876
124 156 24
140 156 56
136 156 88
144 156 128
148 156 188
140 148 244
120 140 304
88 128 380
68 120 456
52 112 540
24 100 604
24 80 668
20 80 716
24 68 764
20 68 804
24 64 844
16 88 872
136 220 40
144 224 68
136 224 100
140 216 144
128 204 184
116 196 252
100 184 316
84 172 384
72 176 468
56 164 540
28 144 600
24 136 664
24 124 720
24 116 764
24 116 800
20 128 844
16 132 868
132 292 56
136 296 72
128 312 116
128 296 156
112 264 188
92 252 248
84 244 324
80 244 412
68 236 476
56 236 544
36 232 604
24 216 668
20 200 724
20 200 764
20 204 804
20 204 848
20 212 868
112 372 52
116 380 80
108 384 112
96 368 156
100 336 200
84 320 260
64 308 332
56 312 412
56 312 480
48 308 544
40 308 604
24 300 664
24 288 712
20 288 768
24 284 808
24 288 836
20 288 864
80 452 56
80 460 76
68 452 112
68 428 164
76 400 216
72 384 272
48 380 348
40 384 432
40 376 500
36 380 564
28 372 620
20 372 672
20 372 724
24 368 764
20 368 804
24 360 832
24 356 860
76 520 60
80 520 80
76 516 128
72 500 180
72 464 244
60 452 304
36 452 368
20 452 444
28 456 516
20 448 580
24 448 632
20 440 684
20 436 728
24 440 768
24 436 800
20 444 836
20 424 860
84 584 84
88 576 108
84 572 152
84 556 204
76 532 256
72 520 312
52 516 384
36 520 456
20 520 516
24 516 584
20 516 640
20 512 692
24 512 732
24 512 768
20 512 804
24 504 832
24 496 864
88 624 116
88 624 144
88 624 196
84 608 240
84 592 288
76 572 336
60 568 396
44 580 472
28 580 536
20 580 592
20 568 648
24 572 696
24 572 736
24 572 772
20 572 808
20 568 836
20 564 864
88 668 160
96 668 188
92 660 232
92 652 272
92 632 316
84 620 360
64 616 416
52 628 480
36 628 544
28 628 604
16 632 656
24 624 704
20 628 744
20 624 784
24 624 816
20 624 848
20 620 872
100 708 216
96 704 244
96 696 268
92 684 308
96 672 348
80 660 392
72 664 448
60 668 500
44 672 548
32 676 608
24 680 668
24 672 708
24 672 748
24 676 792
16 672 820
20 672 852
20 668 880
108 744 268
100 736 292
96 724 316
96 716 360
84 708 392
84 700 432
72 704 468
56 708 512
48 712 572
40 716 616
28 720 672
24 720 708
24 720 748
24 716 788
24 716 828
28 720 864
24 712 884
104 756 336
108 752 356
112 748 388
116 748 420
108 748 452
88 744 480
72 740 516
60 740 536
56 744 576
48 752 624
36 756 672
28 764 716
24 764 760
24 752 784
20 752 828
20 752 860
20 752 888
172 796 404
184 796 420
200 800 456
196 800 476
188 796 496
140 784 520
108 784 544
60 780 576
60 784 604
52 780 632
40 788 676
32 788 720
28 788 764
20 792 796
20 792 828
20 788 856
20 788 888
284 848 464
300 852 480
308 852 504
316 848 528
316 844 540
276 828 564
204 820 580
120 812 608
56 804 628
52 800 640
44 812 680
32 816 720
28 820 760
24 820 796
20 820 832
32 816 856
32 812 888
236 32 28
228 32 52
236 28 96
220 20 144
224 32 216
224 40 276
192 44 332
160 40 380
120 40 436
100 40 500
72 28 552
44 24 624
44 20 692
40 20 748
40 24 796
36 12 840
36 36 868
248 68 32
228 72 64
224 60 100
220 64 140
232 76 208
220 76 268
212 84 336
176 76 384
124 72 452
108 68 512
84 56 568
52 44 640
40 36 704
40 28 760
40 24 812
40 24 844
