滤镜资源/vsco 137 3dl+cube/VSCO 137 3dl/VSCO P3 Instant.3dl
#Generated by Picture Instruments - Look Converter
3DMESH
Mesh 4 10
0 64 128 192 256 320 384 448 512 576 640 704 768 832 896 960 1023
92 92 40
100 96 56
112 104 80
112 116 88
112 124 112
108 132 140
120 152 188
128 164 208
128 192 268
132 204 300
116 240 336
116 272 376
120 296 396
112 312 420
116 340 456
152 384 512
156 412 544
84 96 44
88 104 64
108 104 76
104 120 92
104 128 104
104 136 128
120 152 176
124 172 212
124 196 272
124 216 300
124 244 336
116 276 372
124 300 396
124 320 424
144 356 472
160 396 512
160 424 540
84 96 44
80 108 60
92 120 76
100 124 96
96 132 104
104 144 128
112 160 168
116 176 208
120 204 268
120 232 304
120 256 336
116 288 372
120 324 400
128 348 432
152 412 496
168 436 536
160 440 544
76 100 36
80 108 56
76 116 68
80 132 92
96 140 108
100 152 132
112 164 168
112 192 208
112 212 264
120 244 308
116 272 344
116 308 384
128 332 408
136 360 444
152 420 500
164 440 540
160 452 548
88 120 48
76 116 52
80 120 76
80 132 92
92 140 104
96 156 124
104 176 172
116 196 204
112 232 260
108 256 304
112 284 344
112 308 380
128 344 412
136 368 440
144 420 492
164 448 532
168 464 556
80 132 44
76 136 60
72 136 76
68 144 84
76 148 112
88 164 136
104 184 172
108 208 200
108 240 256
108 272 304
108 296 340
116 332 392
132 352 408
128 384 448
148 432 500
208 480 564
236 524 604
60 148 48
68 156 64
76 160 84
64 164 88
68 168 112
72 184 136
92 212 172
104 232 208
104 256 256
108 280 304
104 312 344
116 352 396
136 376 424
132 400 448
148 444 500
228 520 568
288 572 620
68 176 52
68 172 68
72 176 84
68 188 96
72 196 116
64 212 136
80 236 180
92 244 200
100 264 260
108 292 300
112 328 348
112 368 392
124 392 416
124 412 440
156 460 500
212 524 560
272 580 600
72 208 52
72 204 72
68 204 88
56 216 100
68 224 120
64 244 148
60 268 176
76 272 208
80 288 264
100 312 304
96 348 352
96 384 392
112 408 416
124 432 448
156 476 500
200 532 552
248 580 596
64 252 60
56 252 76
56 252 88
52 264 104
56 272 124
48 284 156
40 304 184
56 312 220
72 336 280
80 352 312
76 372 348
92 404 396
108 432 420
132 456 456
160 508 500
208 552 556
232 576 580
48 312 80
56 316 92
60 320 100
52 320 124
48 332 144
32 336 160
32 348 188
40 352 228
44 376 280
60 396 316
68 404 360
68 424 392
112 456 424
132 488 464
180 536 516
224 576 556
244 600 580
40 372 100
48 380 112
60 396 116
44 388 140
40 384 156
36 384 188
28 392 208
44 384 240
32 412 288
56 432 324
48 444 368
52 452 396
76 480 424
116 516 468
172 556 520
228 596 560
252 620 588
32 420 116
40 428 132
52 436 132
36 432 152
40 428 180
24 424 192
24 432 220
40 424 256
24 440 296
40 464 340
52 488 388
56 500 416
64 512 436
92 532 472
160 580 520
224 612 564
252 632 592
32 436 108
36 476 136
48 496 156
28 488 172
32 480 192
24 476 212
16 480 248
32 480 280
20 496 324
32 504 364
44 532 404
48 552 436
72 560 456
76 572 488
120 596 520
192 640 568
244 664 600
28 484 124
20 504 144
40 532 168
32 540 180
28 516 200
20 512 220
8 532 280
28 544 352
20 544 396
32 548 388
36 564 416
44 588 448
64 592 456
72 612 500
88 616 532
156 652 572
216 680 600
20 516 132
8 524 148
28 524 164
8 528 184
28 536 208
20 536 236
8 544 280
24 576 368
8 576 432
32 572 384
32 588 436
40 600 464
72 616 468
76 640 520
96 652 548
136 672 584
196 700 608
16 560 144
0 560 160
24 560 176
0 564 196
24 564 220
20 568 244
8 576 280
24 580 316
8 592 364
32 604 384
28 608 420
40 600 464
72 608 476
84 664 524
112 676 560
148 692 592
184 700 608
112 96 44
112 104 60
124 112 72
120 120 96
120 128 116
128 144 148
136 156 184
144 172 228
160 204 276
160 228 320
164 256 348
160 280 392
152 308 412
152 324 436
152 352 476
184 396 524
192 420 552
112 104 40
120 116 60
116 120 76
116 124 100
116 132 116
124 144 136
136 164 184
148 184 228
152 204 276
152 232 316
156 264 352
164 292 396
156 316 412
156 332 432
164 368 480
188 408 524
196 432 552
104 104 40
112 112 56
120 128 72
108 128 100
116 140 116
116 148 136
124 168 172
132 188 216
148 220 280
152 240 316
156 272 352
156 300 388
152 328 416
152 352 436
172 412 500
184 432 532
192 444 552
100 108 32
100 120 60
100 136 72
96 140 96
104 148 112
116 156 140
120 172 176
128 196 216
140 228 272
148 256 312
152 288 352
152 316 388
152 336 412
152 364 444
168 424 504
192 448 540
200 460 552
112 128 40
104 136 64
96 140 72
100 148 100
104 152 116
112 168 136
124 192 180
132 216 220
132 244 268
144 272 316
148 296 348
144 324 392
148 352 420
152 380 448
164 432 496
196 460 544
204 468 556
104 148 44
100 152 56
96 152 76
92 156 88
96 164 116
104 168 136
116 196 180
124 220 212
132 252 264
136 280 312
140 312 348
148 336 384
140 364 416
148 388 444
168 436 496
264 472 564
264 508 584
92 164 52
92 176 64
92 180 84
88 184 100
88 188 120
92 196 140
104 216 176
120 236 212
124 264 264
140 296 312
144 332 352
144 364 396
148 380 420
144 400 444
172 452 504
284 528 580
376 584 648
96 188 56
88 196 72
92 200 88
92 204 104
84 216 120
92 220 148
92 248 180
108 252 220
128 280 272
144 316 324
152 348 360
148 384 396
144 404 424
152 424 448
180 480 508
256 540 572
332 596 624
100 220 64
92 228 68
84 228 96
88 236 108
80 252 132
84 260 152
76 276 184
92 288 228
108 304 276
128 336 324
152 372 368
148 408 404
148 424 424
148 452 456
184 492 508
232 540 556
288 588 592
84 260 64
80 272 88
76 280 104
68 280 116
76 292 136
76 304 160
68 320 196
80 332 240
88 344 284
116 364 328
128 400 368
144 436 412
152 460 436
164 480 460
188 516 516
244 560 560
280 592 580
68 320 88
72 332 96
72 336 108
72 344 132
64 348 160
60 356 172
56 364 204
60 376 244
64 392 288
76 404 332
108 428 372
128 452 404
148 480 448
160 504 468
204 548 528
248 588 564
280 608 584
52 380 104
60 388 120
64 396 128
68 400 144
56 400 168
56 400 192
52 412 220
56 412 252
52 432 296
60 444 340
80 460 384
108 488 424
140 512 448
168 528 472
212 576 532
260 612 572
288 628 596
44 424 120
52 428 136
68 440 148
60 440 160
56 436 184
48 440 200
44 448 232
48 448 260
52 456 304
48 476 348
64 496 388
84 512 424
116 532 448
160 556 488
208 592 532
256 620 572
284 644 592
36 448 116
44 468 136
56 496 160
56 496 184
40 488 200
36 488 216
36 488 252
44 500 288
48 508 332
52 524 376
60 548 412
72 564 444
108 568 460
144 584 492
196 616 536
248 652 580
284 672 596
28 496 124
36 512 156
56 548 176
64 540 184
36 532 204
20 532 244
20 540 280
28 552 328
36 556 364
44 568 388
56 580 424
64 592 448
92 604 464
144 628 512
180 644 544
228 672 584
272 692 604
24 528 132
24 532 156
20 544 176
28 540 184
32 552 216
24 548 248
24 556 284
20 584 360
24 588 408
44 588 388
52 604 424
68 612 452
92 616 464
124 652 520
172 672 556
240 700 596
256 708 612
16 568 148
16 572 168
12 576 184
16 576 204
16 580 224
24 580 252
24 592 284
32 600 320
16 600 352
36 620 392
48 628 424
64 600 444
96 612 464
124 668 528
188 696 564
232 712 596
268 720 616
132 96 40
148 116 60
144 120 80
160 128 96
148 136 116
160 152 156
164 164 196
168 188 236
176 204 280
180 232 324
180 260 348
192 292 392
200 320 416
232 344 440
240 372 468
256 404 516
272 440 548
128 108 44
132 120 60
148 132 84
144 136 100
144 152 128
160 160 152
160 172 192
164 196 232
172 216 280
184 240 328
184 268 360
200 304 392
200 332 420
228 360 444
236 384 472
272 424 524
276 456 552
124 116 40
144 132 60
152 136 80
144 144 96
144 156 132
148 168 156
160 184 196
160 204 236
168 224 276
172 248 320
188 288 360
200 324 400
216 356 432
236 380 456
240 420 492
272 452 536
276 472 556
124 124 40
136 128 56
136 144 80
140 152 96
136 168 128
144 172 148
152 192 188
152 208 224
164 236 276
168 272 324
180 300 360
188 328 396
208 360 424
236 396 456
244 436 500
272 468 548
284 480 556
128 140 44
128 148 64
124 148 80
124 168 96
132 176 132
140 188 152
148 208 180
148 224 224
160 252 276
168 284 324
176 312 356
188 348 400
204 380 436
228 400 456
252 452 504
276 480 544
284 488 552
136 152 44
124 168 64
124 172 84
124 176 100
124 180 128
132 192 152
140 216 184
148 232 220
152 260 272
168 300 328
172 328 360
180 360 396
200 384 424
224 420 456
260 460 512
336 484 564
312 508 564
124 176 56
116 184 64
116 192 88
116 196 100
112 200 120
116 208 148
132 228 180
136 248 220
148 268 272
164 308 316
176 340 360
188 376 400
204 400 424
216 424 452
244 472 500
352 532 580
412 568 616
120 208 68
120 212 76
124 224 92
112 224 108
112 232 132
112 236 148
124 260 188
136 272 228
144 292 276
168 328 328
176 368 368
188 400 408
204 428 432
232 456 460
244 492 500
312 540 560
432 612 640
120 228 72
116 248 84
116 252 104
108 260 120
108 268 144
108 276 164
108 292 196
128 308 240
148 324 284
160 360 340
180 392 376
184 416 412
208 448 436
240 480 464
276 524 524
320 568 564
364 604 600
112 280 76
112 288 92
100 300 112
100 304 120
100 312 148
104 320 168
104 340 204
116 348 248
140 372 304
156 396 356
164 412 380
188 448 416
220 480 440
240 508 472
280 552 520
316 584 568
356 612 592
88 336 96
92 344 112
96 348 120
96 356 144
96 360 160
92 372 184
88 380 216
92 400 256
108 416 300
136 432 348
144 440 384
172 468 416
216 508 452
256 536 484
292 580 536
316 612 568
348 632 592
72 388 116
84 396 120
80 408 140
92 404 144
84 412 176
84 420 204
84 428 232
88 440 268
92 448 308
112 472 360
140 492 396
160 500 424
188 528 456
256 564 492
292 600 540
328 632 576
348 648 596
60 424 128
76 436 132
84 444 156
84 448 164
76 448 188
72 452 204
72 460 240
80 476 280
84 480 312
92 500 360
124 520 400
144 536 436
164 548 456
224 576 496
296 620 544
332 648 580
352 664 596
52 464 132
60 476 144
72 496 160
80 496 176
72 496 200
64 500 228
68 504 256
68 512 292
80 528 328
88 540 372
104 560 404
140 576 444
156 576 460
196 600 492
256 632 548
328 672 584
356 680 600
48 512 140
52 520 152
64 540 180
96 540 184
64 540 216
36 544 248
40 556 292
44 560 316
52 572 348
80 584 388
100 600 424
128 608 448
160 616 460
188 632 508
236 656 552
304 688 592
356 704 612
36 536 140
40 544 160
44 552 180
56 544 180
48 564 216
44 564 256
24 572 308
44 596 344
40 596 376
76 604 388
96 616 420
116 616 440
148 632 460
196 668 524
240 684 560
288 708 596
332 716 612
24 576 152
32 584 172
32 588 192
32 588 204
40 600 240
44 600 264
48 608 300
56 620 332
20 612 344
76 640 392
92 652 432
92 592 408
136 612 436
232 692 528
256 712 572
288 724 600
320 732 612
160 104 44
164 120 64
172 132 80
176 140 96
180 152 128
184 160 156
184 176 204
200 188 240
212 216 292
232 240 320
248 276 364
256 312 396
272 344 420
288 368 452
292 384 480
292 416 516
304 444 552
152 116 40
156 124 56
172 136 84
160 148 104
172 160 136
172 164 152
180 180 196
196 200 232
216 232 292
236 256 324
268 292 364
268 324 392
272 348 416
280 372 448
284 400 480
304 428 520
