滤镜资源/vsco 137 3dl+cube/VSCO 137 3dl/VSCO 10 Legacy.3dl
#Generated by Picture Instruments - Look Converter
3DMESH
Mesh 4 10
0 64 128 192 256 320 384 448 512 576 640 704 768 832 896 960 1023
104 24 32
108 24 32
104 28 28
100 28 44
108 24 76
100 32 124
104 24 212
108 28 296
108 28 412
104 28 528
100 32 584
96 36 636
100 36 676
96 36 736
104 40 776
104 40 836
104 36 884
104 28 28
108 28 32
104 28 36
104 28 48
112 24 68
100 32 124
100 28 200
104 32 300
100 32 408
108 32 488
100 32 568
104 36 648
108 36 688
108 40 744
108 36 780
108 44 836
108 44 892
104 32 28
108 36 28
108 32 32
104 36 52
108 32 76
104 36 124
100 36 208
108 32 308
100 44 408
104 40 500
100 44 576
104 44 644
112 40 708
104 44 748
112 44 800
100 56 832
104 56 884
108 60 20
100 56 28
104 52 36
104 56 52
104 52 80
100 56 136
100 56 232
104 64 328
104 60 412
108 68 508
104 68 588
104 68 664
112 68 712
108 68 760
112 76 804
108 84 844
108 84 912
100 96 28
100 96 28
104 92 36
104 96 68
100 88 80
108 96 148
100 92 224
108 104 320
96 104 424
108 108 520
108 104 604
104 112 652
108 116 708
108 116 752
112 124 796
108 124 848
112 132 908
100 164 40
104 160 36
112 164 52
100 164 72
108 160 92
112 164 172
108 160 240
116 164 344
104 172 444
112 172 532
104 172 616
112 180 668
112 184 700
112 192 748
116 196 796
112 208 844
116 212 900
108 260 48
112 264 52
108 248 64
116 264 84
120 260 124
108 272 188
112 256 256
112 280 356
112 268 444
120 272 528
116 276 612
120 280 668
120 280 712
112 300 764
132 304 808
124 312 856
120 316 904
116 376 60
116 376 56
120 372 76
120 380 104
116 392 128
112 380 192
112 388 284
116 388 388
124 396 456
124 384 552
124 396 612
120 396 672
124 404 712
128 404 756
132 420 812
140 420 856
140 424 916
124 492 80
128 500 88
132 488 104
124 492 132
128 492 160
124 500 232
124 500 316
136 496 412
132 496 480
140 496 572
144 500 632
132 504 688
140 508 724
136 516 764
152 520 808
148 524 864
152 524 912
144 584 104
148 588 116
152 584 132
140 584 152
148 584 196
152 580 280
144 588 356
152 584 428
148 584 512
148 588 592
152 588 636
156 592 700
164 592 724
168 596 784
168 596 832
176 596 880
168 600 920
168 648 132
164 652 148
176 648 152
160 648 188
172 648 232
172 648 312
168 652 392
168 648 456
172 652 536
176 656 592
184 648 652
184 660 700
184 652 732
192 660 780
196 656 832
208 660 880
208 660 924
200 700 176
204 700 184
208 696 200
200 700 236
200 708 272
208 704 340
200 700 412
212 700 484
208 700 556
220 704 620
216 708 660
216 704 700
228 708 752
228 712 788
232 700 832
236 708 872
236 708 924
248 752 228
244 756 228
244 752 244
244 756 296
248 756 320
244 748 372
248 752 440
260 756 504
244 756 576
264 756 632
260 756 668
264 760 712
276 760 752
276 764 804
284 760 836
288 768 884
284 760 932
292 808 280
292 808 288
296 800 304
292 800 328
304 804 372
296 808 436
296 800 488
304 808 524
304 816 604
312 800 652
312 808 688
324 816 728
320 808 768
320 808 812
332 808 844
340 816 892
340 816 948
352 856 336
348 864 344
360 864 372
352 860 396
348 856 420
352 860 472
356 856 532
356 864 572
364 860 632
364 864 660
364 856 700
368 864 740
372 864 776
380 864 816
380 860 864
388 864 900
392 864 956
408 912 388
408 916 392
416 916 412
412 920 456
412 916 488
412 920 532
408 912 564
420 920 612
416 912 656
428 916 668
424 916 724
420 916 756
432 920 792
432 916 836
444 916 876
444 920 920
448 920 980
456 960 448
460 964 452
452 960 456
456 964 492
456 960 508
464 956 568
464 960 600
464 956 640
468 956 672
468 956 708
464 960 732
468 964 760
476 960 804
480 964 848
480 964 880
492 968 932
492 964 964
108 24 32
108 24 32
100 28 32
100 28 44
104 24 76
104 32 120
100 28 204
104 28 312
108 28 416
100 24 508
100 32 580
96 32 644
100 36 696
104 32 740
104 36 792
108 40 836
108 40 888
108 28 32
108 28 32
104 28 44
104 28 52
96 32 72
104 32 124
104 32 216
100 28 312
104 32 424
104 28 524
100 28 592
104 36 656
104 32 696
108 40 740
104 40 796
112 44 848
112 44 892
108 36 28
108 36 28
108 32 40
104 36 56
104 40 80
96 40 128
104 40 212
104 36 308
100 44 408
100 40 532
100 40 592
104 44 648
104 48 692
108 52 744
104 52 792
104 60 836
108 60 896
108 60 20
100 56 28
100 52 48
104 52 60
96 56 80
104 56 128
100 60 212
104 60 328
104 60 432
104 60 528
108 72 604
108 72 664
108 72 704
108 76 760
112 80 800
112 80 848
112 84 892
100 96 36
100 96 32
100 92 48
104 92 76
100 92 84
104 100 148
108 96 232
108 100 340
108 112 428
104 104 540
104 112 612
108 116 660
112 112 724
112 116 772
116 116 804
116 124 864
116 132 900
108 160 36
104 160 36
104 164 56
104 160 76
108 168 104
108 156 160
104 160 252
108 172 352
112 176 436
108 180 524
108 184 612
120 188 668
108 184 704
116 188 768
120 192 816
124 196 852
124 208 912
104 268 40
112 272 52
112 264 60
108 260 76
112 260 124
112 264 188
116 264 280
112 272 368
116 272 460
116 280 552
124 276 620
116 280 656
124 292 720
124 300 752
132 296 804
120 308 852
124 308 908
128 384 64
124 384 64
124 380 84
120 376 88
120 384 140
124 392 208
124 380 268
124 384 384
128 396 496
128 392 552
124 396 616
128 396 664
132 404 712
136 408 756
132 420 808
140 412 856
144 424 908
132 492 76
128 500 88
124 492 108
132 488 120
136 488 168
132 500 244
136 504 308
124 500 408
136 500 496
136 500 568
140 504 616
144 508 684
144 512 720
148 516 772
148 512 816
160 528 872
160 532 908
148 584 104
152 588 108
152 584 124
152 588 148
152 584 196
152 580 276
152 592 356
156 588 436
156 580 516
156 584 564
160 596 636
164 592 688
160 592 724
176 596 768
180 600 820
180 596 864
184 596 916
172 644 132
176 652 144
176 644 160
172 648 188
180 656 232
176 648 308
176 656 392
176 644 476
180 652 536
180 656 584
188 660 656
196 656 696
196 652 740
200 660 788
204 656 824
200 656 872
212 660 916
204 704 180
204 696 184
208 696 204
204 700 224
208 704 272
208 704 368
216 704 424
212 700 484
220 704 560
216 704 624
224 708 668
228 708 712
240 712 752
232 708 788
240 708 836
244 708 900
244 708 924
252 760 212
248 752 224
260 752 264
256 756 304
252 752 352
256 752 384
260 752 456
264 748 528
264 744 588
272 752 640
272 748 676
272 752 720
284 752 760
284 760 804
296 760 848
296 752 892
300 752 936
296 808 268
300 804 276
300 804 320
308 804 340
304 808 400
304 804 432
308 800 484
312 800 548
312 796 600
324 800 656
324 808 688
332 812 728
340 808 768
332 808 808
344 808 856
348 808 908
356 808 948
360 860 332
364 868 348
356 856 352
360 856 396
356 856 448
372 852 484
364 852 532
376 856 592
368 856 628
372 864 672
380 860 712
380 864 748
388 860 784
392 864 832
396 860 868
400 856 908
404 856 948
416 916 392
416 916 396
416 924 420
424 920 460
424 912 488
420 904 508
416 908 560
428 912 612
428 912 648
428 920 684
428 912 716
432 916 756
444 916 804
440 920 836
444 916 868
448 920 920
452 920 968
460 964 452
464 964 456
460 960 464
464 964 492
468 960 516
468 956 560
464 956 584
472 964 628
472 956 668
476 964 696
472 964 720
476 968 764
480 960 796
488 964 836
492 964 880
496 968 928
504 968 964
108 24 32
104 28 28
100 28 36
100 24 56
100 28 72
104 32 120
100 24 204
108 28 312
108 24 420
108 24 524
100 32 584
104 32 644
104 36 692
108 36 740
108 36 780
116 44 836
116 44 892
108 28 32
108 24 32
104 28 36
104 28 48
100 28 72
104 32 120
104 32 208
108 32 316
112 28 424
104 28 520
104 32 596
104 36 652
112 36 700
112 40 748
112 40 792
116 40 844
120 44 892
108 36 28
104 32 36
108 32 32
112 36 52
104 36 80
100 40 140
104 40 216
108 36 320
108 36 428
100 40 516
108 44 600
112 44 664
112 44 716
108 48 756
116 56 800
112 60 860
116 60 900
108 52 20
104 52 32
108 52 40
108 52 56
104 60 92
108 52 136
108 56 220
104 60 324
104 60 412
112 64 512
108 64 596
108 68 656
112 76 700
112 76 744
112 76 800
124 80 856
124 80 908
112 92 36
108 100 36
108 92 40
112 100 60
112 100 96
112 96 144
112 100 228
104 100 328
112 108 440
112 108 536
112 108 600
116 116 652
120 116 720
120 120 760
120 120 808
120 132 856
120 132 900
116 160 36
116 160 40
108 168 56
104 160 68
108 160 112
116 152 160
116 164 236
112 172 348
120 176 456
116 176 532
116 184 600
120 188 660
120 180 700
124 196 760
132 196 804
132 208 856
132 208 900
112 264 44
116 268 60
120 272 68
120 268 76
116 248 124
116 268 192
116 252 252
120 276 360
124 284 476
124 272 536
128 284 600
128 288 668
128 284 708
132 292 760
144 300 804
136 308 848
140 308 900
136 388 60
132 396 68
128 384 80
128 372 100
132 384 132
124 384 208
132 392 300
128 376 372
136 396 468
136 392 552
136 396 632
132 404 680
144 412 720
140 412 760
140 412 800
156 420 856
156 424 912
148 496 72
140 500 88
144 496 108
152 492 136
148 488 168
140 500 236
144 496 324
148 496 412
148 500 500
152 508 580
156 504 636
156 492 684
160 508 732
152 508 780
168 508 824
164 528 876
172 520 908
160 592 108
160 580 116
164 580 136
172 588 156
160 584 196
168 588 276
172 584 352
168 584 436
168 580 512
172 584 588
172 588 640
176 592 696
184 592 724
184 600 772
192 600 820
196 600 868
200 600 912
184 648 132
188 644 144
188 644 172
192 652 196
192 652 232
192 648 316
192 652 396
200 656 476
200 652 548
204 648 592
204 652 652
204 656 692
212 652 736
224 656 780
220 660 816
228 660 872
236 660 924
224 696 168
224 700 184
224 700 208
224 704 232
236 700 280
228 704 348
236 704 428
232 708 492
240 704 564
240 700 628
232 704 660
248 716 708
252 712 748
260 712 796
256 712 832
272 708 884
280 716 932
272 756 224
268 756 232
272 756 260
268 756 288
280 756 340
272 760 388
280 756 448
276 748 512
280 756 584
280 752 636
284 756 676
288 760 720
304 764 764
304 764 800
308 760 848
312 764 892
312 760 932
320 808 276
320 808 284
324 808 308
324 808 344
328 812 388
324 812 432
328 804 484
324 800 544
332 808 604
340 808 656
328 808 684
348 808 732
352 816 768
360 816 808
356 816 852
364 816 904
364 804 948
380 856 336
376 864 344
384 860 364
376 860 396
380 856 432
388 864 496
380 856 540
380 856 584
380 860 624
384 868 676
392 864 708
396 864 732
400 868 776
404 868 824
412 868 868
420 868 908
420 864 952
432 908 388
428 920 408
440 924 432
432 916 448
432 916 484
436 916 520
436 912 560
440 916 608
444 920 644
436 916 684
444 920 712
448 916 744
460 924 800
456 924 836
460 924 880
464 916 916
468 916 956
480 960 448
476 960 452
484 960 468
476 960 488
476 964 516
476 956 552
492 960 600
488 964 632
492 956 664
492 964 700
484 964 720
488 964 756
496 964 800
492 964 840
504 960 884
508 968 932
516 964 956
112 24 24
112 24 24
108 28 36
108 28 48
108 28 72
120 28 132
108 28 188
112 24 300
112 28 392
108 28 504
108 36 572
112 32 636
116 32 700
116 36 744
120 32 788
132 40 832
132 40 892
112 24 20
112 24 24
112 28 36
112 28 48
112 28 76
112 28 132
112 32 188
112 32 292
116 28 416
112 28 520
116 32 596
116 36 644
120 36 700
120 40 756
128 44 800
128 44 856
