滤镜资源/vsco 137 3dl+cube/VSCO 137 3dl/VSCO B1Bw Classic.3dl
#Generated by Picture Instruments - Look Converter
3DMESH
Mesh 4 10
0 64 128 192 256 320 384 448 512 576 640 704 768 832 896 960 1023
44 44 44
52 52 52
56 56 56
64 64 64
72 72 72
76 76 76
84 84 84
92 92 92
100 100 100
112 112 112
120 120 120
128 128 128
140 140 140
152 152 152
164 164 164
176 176 176
188 188 188
56 56 56
64 64 64
72 72 72
76 76 76
84 84 84
92 92 92
100 100 100
112 112 112
120 120 120
128 128 128
140 140 140
152 152 152
164 164 164
176 176 176
188 188 188
208 208 208
216 216 216
72 72 72
76 76 76
84 84 84
92 92 92
100 100 100
108 108 108
120 120 120
128 128 128
140 140 140
152 152 152
164 164 164
172 172 172
192 192 192
208 208 208
220 220 220
240 240 240
252 252 252
84 84 84
92 92 92
100 100 100
112 112 112
120 120 120
128 128 128
140 140 140
156 156 156
164 164 164
176 176 176
192 192 192
208 208 208
220 220 220
236 236 236
256 256 256
272 272 272
288 288 288
100 100 100
112 112 112
120 120 120
128 128 128
136 136 136
152 152 152
164 164 164
176 176 176
192 192 192
208 208 208
220 220 220
240 240 240
256 256 256
272 272 272
292 292 292
312 312 312
328 328 328
120 120 120
128 128 128
140 140 140
152 152 152
164 164 164
176 176 176
192 192 192
208 208 208
220 220 220
240 240 240
256 256 256
272 272 272
292 292 292
312 312 312
332 332 332
348 348 348
368 368 368
140 140 140
152 152 152
164 164 164
176 176 176
192 192 192
208 208 208
220 220 220
240 240 240
256 256 256
272 272 272
292 292 292
312 312 312
332 332 332
352 352 352
368 368 368
392 392 392
408 408 408
164 164 164
176 176 176
192 192 192
208 208 208
220 220 220
240 240 240
256 256 256
272 272 272
292 292 292
312 312 312
332 332 332
348 348 348
368 368 368
392 392 392
416 416 416
436 436 436
448 448 448
192 192 192
208 208 208
220 220 220
240 240 240
256 256 256
276 276 276
296 296 296
312 312 312
328 328 328
348 348 348
368 368 368
392 392 392
416 416 416
432 432 432
452 452 452
472 472 472
488 488 488
220 220 220
240 240 240
256 256 256
276 276 276
292 292 292
312 312 312
332 332 332
348 348 348
368 368 368
396 396 396
412 412 412
432 432 432
452 452 452
472 472 472
492 492 492
512 512 512
528 528 528
256 256 256
272 272 272
292 292 292
312 312 312
332 332 332
352 352 352
368 368 368
392 392 392
412 412 412
436 436 436
456 456 456
476 476 476
492 492 492
512 512 512
536 536 536
556 556 556
568 568 568
292 292 292
312 312 312
336 336 336
348 348 348
368 368 368
392 392 392
412 412 412
432 432 432
452 452 452
472 472 472
492 492 492
512 512 512
536 536 536
556 556 556
568 568 568
592 592 592
604 604 604
332 332 332
348 348 348
368 368 368
392 392 392
412 412 412
428 428 428
452 452 452
472 472 472
492 492 492
516 516 516
536 536 536
552 552 552
572 572 572
592 592 592
608 608 608
628 628 628
640 640 640
372 372 372
392 392 392
412 412 412
432 432 432
452 452 452
476 476 476
496 496 496
512 512 512
532 532 532
552 552 552
572 572 572
596 596 596
612 612 612
628 628 628
644 644 644
660 660 660
672 672 672
416 416 416
436 436 436
456 456 456
476 476 476
488 488 488
512 512 512
532 532 532
552 552 552
576 576 576
592 592 592
608 608 608
628 628 628
644 644 644
660 660 660
676 676 676
692 692 692
704 704 704
456 456 456
472 472 472
492 492 492
512 512 512
532 532 532
552 552 552
572 572 572
592 592 592
608 608 608
628 628 628
644 644 644
660 660 660
676 676 676
692 692 692
708 708 708
724 724 724
736 736 736
488 488 488
508 508 508
528 528 528
548 548 548
568 568 568
584 584 584
604 604 604
624 624 624
640 640 640
656 656 656
668 668 668
688 688 688
704 704 704
720 720 720
732 732 732
744 744 744
752 752 752
48 48 48
68 68 68
76 76 76
84 84 84
92 92 92
96 96 96
108 108 108
116 116 116
124 124 124
136 136 136
152 152 152
160 160 160
172 172 172
188 188 188
204 204 204
216 216 216
232 232 232
60 60 60
76 76 76
84 84 84
92 92 92
100 100 100
112 112 112
120 120 120
128 128 128
136 136 136
152 152 152
164 164 164
176 176 176
192 192 192
204 204 204
216 216 216
236 236 236
248 248 248
72 72 72
88 88 88
100 100 100
112 112 112
120 120 120
128 128 128
136 136 136
148 148 148
164 164 164
176 176 176
188 188 188
204 204 204
220 220 220
236 236 236
252 252 252
268 268 268
284 284 284
88 88 88
108 108 108
120 120 120
128 128 128
140 140 140
152 152 152
160 160 160
172 172 172
192 192 192
204 204 204
220 220 220
240 240 240
252 252 252
268 268 268
288 288 288
308 308 308
324 324 324
104 104 104
128 128 128
140 140 140
148 148 148
160 160 160
176 176 176
192 192 192
208 208 208
220 220 220
236 236 236
252 252 252
268 268 268
292 292 292
312 312 312
328 328 328
344 344 344
360 360 360
120 120 120
148 148 148
160 160 160
172 172 172
192 192 192
204 204 204
216 216 216
236 236 236
256 256 256
272 272 272
292 292 292
308 308 308
328 328 328
344 344 344
364 364 364
392 392 392
400 400 400
144 144 144
176 176 176
188 188 188
204 204 204
220 220 220
236 236 236
256 256 256
268 268 268
288 288 288
308 308 308
328 328 328
348 348 348
368 368 368
384 384 384
404 404 404
432 432 432
448 448 448
168 168 168
204 204 204
220 220 220
240 240 240
252 252 252
272 272 272
288 288 288
312 312 312
332 332 332
348 348 348
364 364 364
388 388 388
408 408 408
432 432 432
456 456 456
468 468 468
484 484 484
192 192 192
232 232 232
252 252 252
268 268 268
288 288 288
312 312 312
328 328 328
344 344 344
364 364 364
388 388 388
408 408 408
432 432 432
448 448 448
468 468 468
488 488 488
508 508 508
528 528 528
224 224 224
268 268 268
292 292 292
308 308 308
328 328 328
348 348 348
368 368 368
392 392 392
408 408 408
428 428 428
448 448 448
472 472 472
492 492 492
512 512 512
528 528 528
548 548 548
568 568 568
260 260 260
304 304 304
328 328 328
348 348 348
368 368 368
388 388 388
408 408 408
428 428 428
452 452 452
472 472 472
496 496 496
508 508 508
532 532 532
552 552 552
572 572 572
592 592 592
600 600 600
296 296 296
340 340 340
364 364 364
388 388 388
412 412 412
432 432 432
452 452 452
468 468 468
488 488 488
512 512 512
532 532 532
556 556 556
576 576 576
588 588 588
604 604 604
624 624 624
640 640 640
332 332 332
384 384 384
412 412 412
432 432 432
448 448 448
468 468 468
488 488 488
512 512 512
532 532 532
548 548 548
568 568 568
588 588 588
608 608 608
628 628 628
644 644 644
656 656 656
668 668 668
372 372 372
424 424 424
452 452 452
472 472 472
492 492 492
512 512 512
528 528 528
548 548 548
572 572 572
592 592 592
608 608 608
628 628 628
644 644 644
660 660 660
676 676 676
692 692 692
704 704 704
416 416 416
476 476 476
488 488 488
512 512 512
528 528 528
552 552 552
572 572 572
596 596 596
604 604 604
628 628 628
644 644 644
656 656 656
676 676 676
696 696 696
704 704 704
720 720 720
732 732 732
460 460 460
504 504 504
528 528 528
552 552 552
576 576 576
588 588 588
604 604 604
624 624 624
644 644 644
660 660 660
672 672 672
692 692 692
704 704 704
724 724 724
736 736 736
748 748 748
752 752 752
492 492 492
536 536 536
564 564 564
588 588 588
600 600 600
616 616 616
636 636 636
656 656 656
668 668 668
684 684 684
700 700 700
716 716 716
728 728 728
740 740 740
756 756 756
764 764 764
772 772 772
48 48 48
72 72 72
96 96 96
112 112 112
116 116 116
124 124 124
136 136 136
148 148 148
160 160 160
176 176 176
188 188 188
200 200 200
216 216 216
240 240 240
252 252 252
264 264 264
284 284 284
60 60 60
80 80 80
108 108 108
116 116 116
128 128 128
140 140 140
148 148 148
160 160 160
172 172 172
188 188 188
204 204 204
220 220 220
232 232 232
252 252 252
268 268 268
288 288 288
304 304 304
72 72 72
96 96 96
120 120 120
124 124 124
140 140 140
152 152 152
164 164 164
176 176 176
192 192 192
204 204 204
220 220 220
240 240 240
256 256 256
272 272 272
288 288 288
308 308 308
324 324 324
88 88 88
108 108 108
136 136 136
152 152 152
164 164 164
172 172 172
188 188 188
204 204 204
216 216 216
240 240 240
256 256 256
268 268 268
288 288 288
312 312 312
328 328 328
348 348 348
360 360 360
104 104 104
132 132 132
160 160 160
176 176 176
192 192 192
204 204 204
220 220 220
236 236 236
252 252 252
272 272 272
288 288 288
312 312 312
332 332 332
344 344 344
364 364 364
388 388 388
404 404 404
124 124 124
156 156 156
192 192 192
208 208 208
216 216 216
236 236 236
252 252 252
272 272 272
292 292 292
312 312 312
328 328 328
348 348 348
364 364 364
392 392 392
416 416 416
428 428 428
440 440 440
144 144 144
176 176 176
216 216 216
236 236 236
252 252 252
272 272 272
288 288 288
308 308 308
328 328 328
348 348 348
368 368 368
392 392 392
408 408 408
428 428 428
448 448 448
468 468 468
488 488 488
168 168 168
208 208 208
256 256 256
268 268 268
288 288 288
308 308 308
328 328 328
348 348 348
364 364 364
388 388 388
408 408 408
432 432 432
452 452 452
472 472 472
488 488 488
508 508 508
528 528 528
196 196 196
240 240 240
288 288 288
308 308 308
332 332 332
344 344 344
368 368 368
388 388 388
412 412 412
432 432 432
452 452 452
468 468 468
488 488 488
512 512 512
532 532 532
556 556 556
560 560 560
232 232 232
268 268 268
324 324 324
344 344 344
364 364 364
388 388 388
412 412 412
428 428 428
448 448 448
468 468 468
488 488 488
508 508 508
532 532 532
548 548 548
568 568 568
588 588 588
604 604 604
264 264 264
312 312 312
364 364 364
392 392 392
404 404 404
428 428 428
452 452 452
472 472 472
492 492 492
508 508 508
528 528 528
548 548 548
572 572 572
592 592 592
608 608 608
624 624 624
640 640 640
300 300 300
348 348 348
404 404 404
432 432 432
452 452 452
472 472 472
488 488 488
512 512 512
528 528 528
552 552 552
572 572 572
596 596 596
604 604 604
628 628 628
644 644 644
660 660 660
672 672 672
336 336 336
396 396 396
444 444 444
468 468 468
492 492 492
512 512 512
532 532 532
552 552 552
568 568 568
588 588 588
608 608 608
628 628 628
648 648 648
664 664 664
672 672 672
688 688 688
700 700 700
376 376 376
432 432 432
484 484 484
512 512 512
532 532 532
548 548 548
568 568 568
588 588 588
608 608 608
628 628 628
640 640 640
656 656 656
676 676 676
692 692 692
708 708 708
724 724 724
728 728 728
424 424 424
472 472 472
528 528 528
552 552 552
572 572 572
592 592 592
608 608 608
624 624 624
640 640 640
660 660 660
676 676 676
692 692 692
708 708 708
724 724 724
736 736 736
748 748 748
756 756 756
464 464 464
520 520 520
576 576 576
588 588 588
608 608 608
624 624 624
644 644 644
660 660 660
680 680 680
688 688 688
708 708 708
724 724 724
732 732 732
748 748 748
764 764 764
772 772 772
776 776 776
496 496 496
552 552 552
596 596 596
620 620 620
636 636 636
652 652 652
672 672 672
688 688 688
700 700 700
716 716 716
728 728 728
740 740 740
756 756 756
768 768 768
776 776 776
788 788 788
796 796 796
52 52 52
72 72 72
100 100 100
136 136 136
148 148 148
160 160 160
172 172 172
188 188 188
204 204 204
216 216 216
236 236 236
252 252 252
268 268 268
292 292 292
304 304 304
328 328 328
340 340 340
64 64 64
80 80 80
112 112 112
148 148 148
164 164 164
172 172 172
188 188 188
204 204 204
216 216 216
236 236 236
256 256 256
268 268 268
284 284 284
308 308 308
332 332 332
348 348 348
