滤镜资源/vsco 137 3dl+cube/VSCO 137 3dl/VSCO Q5 Alchemy.3dl
#Generated by Picture Instruments - Look Converter
3DMESH
Mesh 4 10
0 64 128 192 256 320 384 448 512 576 640 704 768 832 896 960 1023
16 32 32
20 32 44
36 32 68
32 36 104
44 40 140
24 44 212
12 52 284
20 56 360
0 60 444
44 64 528
120 72 600
208 80 676
300 92 728
396 120 800
484 172 852
588 248 916
648 344 960
16 52 40
20 52 52
36 56 76
20 60 112
36 64 148
20 68 212
0 80 284
24 76 368
0 92 456
40 92 516
112 104 596
204 112 668
296 120 732
396 144 796
480 188 848
572 260 904
652 356 964
8 72 52
12 80 64
32 80 84
12 96 124
28 100 160
4 100 224
4 116 300
24 120 376
0 128 460
32 144 528
108 152 604
192 152 668
296 164 740
384 192 796
476 228 852
568 296 900
632 376 952
4 120 68
0 116 84
20 116 96
4 128 132
24 140 172
4 156 240
0 164 320
28 176 392
0 184 464
28 188 540
68 200 604
180 216 684
280 228 744
368 248 800
460 284 852
548 344 908
624 420 960
4 168 96
4 180 112
24 176 124
0 184 164
24 188 192
8 208 248
0 224 316
24 236 384
0 256 464
24 260 536
12 264 604
104 276 672
220 292 736
328 316 792
424 348 848
520 388 900
596 460 956
8 252 124
0 244 136
24 248 160
0 256 188
24 260 224
8 276 288
4 292 340
28 304 400
4 320 476
28 328 536
12 340 608
0 352 676
132 368 732
252 384 788
380 408 848
484 448 904
572 512 964
8 328 164
4 328 180
28 340 196
4 340 236
28 336 260
12 352 312
4 368 372
28 380 432
0 392 492
28 396 536
12 412 596
4 424 676
28 436 736
152 456 792
304 468 844
428 504 904
520 548 944
12 420 208
4 424 228
28 420 232
0 428 276
28 432 308
12 428 344
0 436 396
28 444 452
0 464 516
28 468 552
16 480 612
0 496 664
28 504 716
4 520 776
140 532 836
308 552 892
452 592 952
12 504 264
0 504 272
28 504 292
0 508 320
28 504 356
16 508 400
0 524 440
28 516 476
0 528 532
28 536 576
20 544 632
0 560 684
28 568 728
0 576 768
32 588 828
196 604 888
372 632 952
16 572 320
0 584 328
28 580 348
0 584 380
28 576 400
16 580 440
0 580 480
28 584 512
4 588 560
28 600 604
20 604 648
0 616 692
28 616 732
0 632 784
28 636 824
28 656 888
268 676 944
20 640 384
0 644 396
32 644 408
0 648 436
28 640 460
20 640 496
0 644 520
28 644 552
0 648 596
28 652 628
20 656 672
0 664 712
32 660 748
0 672 800
28 688 844
32 704 892
236 728 952
20 700 460
0 708 468
28 708 472
0 708 492
28 700 508
20 700 544
4 704 572
32 696 596
0 700 632
28 696 660
20 700 688
0 700 720
28 704 760
0 720 804
32 720 844
24 740 896
252 768 956
24 752 520
0 752 532
28 748 536
4 756 552
28 752 560
24 744 592
0 752 612
28 744 632
0 748 664
28 740 688
24 748 720
4 744 744
28 744 776
0 756 820
32 760 860
28 776 912
248 800 964
24 796 596
0 804 592
28 800 592
0 796 604
28 792 616
24 796 640
0 796 660
28 792 668
0 792 692
28 792 712
24 788 736
0 792 772
28 784 796
0 792 824
28 796 868
88 816 920
284 844 976
24 844 644
0 852 660
28 848 656
0 848 668
28 840 668
24 836 684
0 844 704
28 840 704
4 844 732
28 832 748
28 832 772
0 840 796
28 828 820
0 836 852
32 836 880
140 856 928
296 884 988
40 892 712
20 896 716
40 892 716
16 900 720
36 896 724
32 888 736
8 892 748
28 892 748
0 892 768
28 884 776
28 888 804
0 892 832
28 888 848
0 888 876
28 880 900
184 896 944
324 928 996
296 944 768
292 944 768
288 944 776
268 948 780
264 944 784
228 940 788
152 940 792
44 936 796
28 944 808
44 940 816
28 936 828
0 944 856
28 948 880
0 948 916
28 940 932
168 936 956
332 960 996
48 28 24
44 36 48
60 36 72
64 40 104
60 44 152
64 44 208
56 48 284
48 52 368
56 56 452
100 64 520
164 68 600
236 76 668
316 88 736
408 116 804
500 168 852
596 240 908
656 340 956
36 56 28
36 56 56
44 56 76
48 64 116
56 64 164
52 68 220
48 76 296
52 80 384
56 84 452
100 96 532
168 100 612
244 108 680
332 120 744
416 140 800
500 188 860
584 264 916
660 360 964
12 84 40
24 84 64
40 88 96
36 96 124
36 104 168
36 112 232
24 116 300
28 120 384
48 128 464
84 140 540
144 140 600
232 156 680
316 164 732
400 188 796
492 228 860
576 288 916
644 384 956
0 128 64
0 128 88
16 124 104
12 132 140
8 148 180
0 156 236
0 164 308
4 172 396
0 180 468
44 192 540
120 204 616
204 216 684
296 220 732
392 248 800
472 284 852
564 344 912
628 412 952
0 180 92
0 184 116
0 184 136
0 184 156
0 196 204
0 216 260
0 228 324
0 240 396
0 256 476
4 260 544
48 268 620
156 284 680
260 300 748
360 320 804
448 340 852
532 396 912
608 464 956
0 252 124
0 260 136
0 260 164
0 260 188
0 268 228
0 280 280
0 292 340
0 308 404
0 324 468
0 336 536
0 348 608
12 352 676
164 368 740
288 384 800
392 408 840
492 448 904
576 508 956
0 340 168
0 344 180
0 340 200
0 340 236
0 348 272
0 356 312
0 372 372
4 384 428
0 392 492
0 408 548
0 420 604
0 432 676
16 436 732
176 444 792
308 472 848
432 508 904
544 560 960
0 428 212
4 424 228
0 428 248
0 428 276
0 428 312
0 432 352
0 444 404
0 452 460
0 464 516
0 480 572
0 484 616
0 500 672
4 508 732
4 520 780
188 540 848
344 548 900
468 592 956
4 512 268
4 508 276
0 508 296
0 508 320
0 512 360
0 520 400
0 520 432
0 524 484
0 536 536
0 540 584
0 552 628
0 560 684
0 564 728
0 576 768
8 592 832
204 612 892
372 636 948
0 584 328
0 584 328
0 588 348
0 580 376
0 588 404
0 588 444
0 584 480
0 592 520
4 588 560
0 596 600
0 608 648
0 616 692
0 620 736
0 636 788
0 640 832
60 660 888
300 680 948
4 644 388
0 644 396
0 644 412
0 648 436
0 648 472
0 648 492
0 648 524
0 644 556
4 652 600
0 656 628
0 660 676
0 664 712
0 664 752
0 676 800
0 684 844
0 700 896
236 724 948
0 704 456
0 700 456
0 708 476
0 708 492
0 704 516
0 704 544
4 704 576
4 696 596
0 700 632
0 700 660
0 704 692
0 704 728
0 708 768
0 716 804
0 728 848
20 744 908
260 768 964
0 756 524
0 752 528
0 752 540
4 752 556
0 752 572
0 748 592
0 752 608
0 748 640
0 748 664
0 744 692
0 744 720
0 748 748
0 744 784
0 756 824
0 768 860
60 780 912
276 800 964
0 804 588
0 804 592
0 800 592
0 800 608
0 796 620
0 800 640
0 788 652
0 796 672
0 792 692
0 792 720
4 792 752
0 792 772
0 784 796
0 792 828
0 800 872
124 820 920
288 844 968
0 848 648
0 852 660
0 844 656
0 844 664
0 840 672
0 844 688
0 844 704
0 840 712
0 840 724
0 836 748
4 836 780
0 840 796
0 832 824
4 832 852
36 836 884
168 860 932
308 884 984
20 896 712
20 896 716
40 900 720
40 900 720
36 900 736
0 892 732
16 896 752
0 896 752
0 892 764
0 896 788
0 892 808
0 892 832
0 892 852
0 892 876
12 884 904
204 900 944
332 928 992
308 948 772
300 944 772
300 944 776
296 948 780
280 948 784
244 944 788
188 940 800
40 940 804
28 944 808
32 944 824
0 948 840
0 944 856
0 952 888
0 948 908
0 944 932
172 940 956
340 960 996
80 32 28
80 40 52
80 36 72
112 36 108
112 40 152
120 44 220
124 40 292
128 48 376
148 48 460
180 56 532
216 56 596
284 64 668
360 80 736
444 112 796
524 164 856
608 232 908
676 344 956
76 60 36
84 60 52
84 64 76
104 64 120
112 64 164
112 72 232
120 72 304
128 80 388
136 84 460
172 84 540
224 92 604
296 96 680
364 116 752
452 144 804
524 188 856
608 264 920
668 364 964
52 92 48
60 88 60
80 96 92
80 96 120
92 104 180
100 108 248
104 112 320
116 120 388
140 124 476
160 136 544
216 144 608
292 152 684
364 168 752
444 192 804
520 224 860
604 296 920
664 384 964
4 132 60
20 136 76
52 140 112
72 144 144
60 160 192
64 160 252
72 172 324
68 176 396
104 180 476
148 196 548
192 208 616
260 216 680
340 224 744
420 248 796
500 284 856
584 344 912
652 420 956
0 188 88
0 196 104
4 192 140
36 200 168
20 212 212
4 224 268
4 232 328
4 244 404
8 256 480
76 260 552
144 272 620
216 284 684
300 300 748
392 312 800
480 340 856
552 396 908
620 464 952
0 260 124
0 268 132
0 272 172
0 276 196
0 272 232
0 284 284
0 300 356
0 312 416
4 332 484
4 340 552
28 348 616
144 356 688
232 368 736
344 388 804
436 412 852
524 448 904
588 504 952
0 348 160
0 344 180
0 348 200
0 360 240
0 352 276
0 364 320
0 372 368
0 384 428
0 400 496
0 408 548
0 424 608
8 432 668
120 440 736
244 448 788
356 468 848
460 508 908
560 556 948
0 436 208
0 444 232
0 440 252
0 440 272
0 440 320
0 440 356
0 448 412
0 460 464
0 472 512
0 480 568
0 488 620
0 500 672
0 508 732
128 520 788
236 524 840
376 548 900
512 596 956
4 512 260
0 516 280
0 512 300
0 520 328
0 520 368
0 520 404
0 524 452
4 528 492
0 540 540
0 544 592
0 556 636
0 560 684
0 572 732
4 576 776
116 588 836
280 612 908
400 628 952
0 592 328
4 588 332
0 588 348
0 584 380
4 592 408
0 592 448
0 592 488
0 592 520
0 592 560
0 604 608
0 608 648
0 616 696
4 624 736
0 628 788
0 640 832
144 660 884
336 676 948
0 648 392
0 648 400
0 652 416
0 656 436
0 648 472
0 648 504
0 648 532
0 652 564
0 652 600
0 656 632
0 660 668
0 664 708
0 664 752
0 676 796
0 692 844
84 700 892
280 728 948
0 704 456
0 708 460
0 708 476
0 704 492
0 708 516
4 708 548
4 704 580
0 704 604
0 700 632
0 700 660
0 704 692
0 708 732
0 708 768
0 712 808
0 728 848
104 744 904
288 768 964
4 760 528
0 756 528
0 752 540
4 752 556
0 756 572
0 748 592
0 752 620
0 744 648
0 740 660
0 744 692
0 744 720
0 744 748
0 752 788
4 756 820
0 764 868
136 780 912
308 800 964
0 804 588
0 800 592
0 800 592
0 800 608
0 800 624
0 800 640
0 796 656
0 792 680
0 788 692
0 792 720
4 792 752
0 792 772
0 792 796
4 792 828
48 804 876
176 824 928
316 840 980
0 848 648
0 844 656
0 844 656
0 844 664
0 848 680
0 844 688
0 844 704
4 840 712
0 840 724
0 840 752
4 836 780
0 844 804
0 840 828
16 832 852
128 844 892
208 860 936
328 884 984
20 896 712
24 896 712
48 900 724
28 900 724
16 896 728
0 892 732
16 892 748
8 896 752
0 892 768
0 896 788
0 892 804
0 892 832
0 892 852
0 892 880
120 888 912
236 900 944
340 924 992
336 948 772
328 948 772
336 948 780
324 948 776
308 944 784
284 944 792
236 940 800
108 944 804
36 944 816
32 944 824
0 948 836
0 944 864
0 952 888
0 952 916
12 940 924
220 940 964
356 960 996
144 32 28
140 32 48
144 44 68
148 44 96
168 36 160
200 20 224
208 24 300
224 28 380
236 32 468
264 28 540
300 32 608
356 40 676
420 60 744
492 92 800
556 160 856
636 240 908
704 348 964
140 56 32
136 60 44
140 64 80
148 68 112
188 60 172
192 56 240
208 60 312
220 68 392
228 76 472
268 76 544
312 80 620
356 84 684
420 108 748
492 136 800
572 192 864
636 264 912
