滤镜资源/vsco 137 3dl+cube/VSCO 137 3dl/VSCO C4Chromatic.3dl
#Generated by Picture Instruments - Look Converter
3DMESH
Mesh 4 10
0 64 128 192 256 320 384 448 512 576 640 704 768 832 896 960 1023
52 48 104
48 52 112
52 48 120
52 52 144
60 48 168
56 56 208
60 60 252
64 64 296
64 72 340
76 76 384
72 84 424
72 88 464
80 92 500
76 92 524
84 92 556
84 92 580
84 92 604
52 68 116
52 68 124
56 72 136
56 72 152
64 72 176
56 80 216
60 84 264
72 84 312
76 92 356
80 96 392
76 104 436
76 104 472
88 104 508
84 108 540
92 104 564
88 112 592
92 112 624
64 108 136
64 108 144
68 108 156
64 108 172
72 112 200
64 116 240
72 120 284
76 120 324
72 128 372
80 136 416
80 140 452
80 136 492
92 132 528
88 136 560
96 136 588
92 144 612
96 144 636
68 148 152
72 152 168
76 148 168
72 152 192
76 164 228
76 172 268
80 168 308
84 172 356
84 176 404
92 176 444
92 176 480
92 184 520
96 184 552
96 184 584
104 188 612
100 184 640
100 184 660
80 192 180
80 200 188
88 200 200
88 208 224
88 216 252
84 232 292
84 236 340
100 236 380
88 244 428
104 240 472
100 236 508
96 236 544
108 236 584
104 240 612
112 236 640
108 248 668
108 248 692
84 260 216
84 260 220
88 260 232
84 272 256
92 284 288
88 296 328
96 308 372
104 308 408
100 304 464
108 308 500
108 308 540
108 312 584
116 308 612
112 304 648
124 300 672
116 308 696
116 308 732
100 316 244
96 324 256
104 328 264
92 336 288
104 348 316
100 360 364
100 376 412
108 384 460
112 384 496
112 376 532
120 380 580
116 384 616
124 380 644
120 392 684
128 380 704
128 376 728
128 376 748
108 388 272
100 388 280
104 392 292
100 404 320
112 416 356
108 428 400
108 440 452
116 456 488
120 456 540
124 456 572
124 464 612
120 456 644
132 456 684
128 456 704
132 456 728
132 456 752
132 452 772
116 448 308
112 456 320
120 460 324
116 468 360
116 476 384
112 496 428
120 508 484
128 520 528
124 532 572
132 540 616
136 536 656
132 532 688
140 536 716
132 528 740
140 528 764
144 528 784
136 528 812
120 516 340
124 520 356
128 524 360
120 536 388
128 540 420
132 556 472
128 568 520
136 580 564
136 592 612
144 604 660
140 604 684
144 608 724
144 604 748
144 604 776
152 604 800
148 596 816
148 600 840
136 568 376
132 580 388
136 580 392
132 592 420
136 600 456
136 612 504
136 620 544
144 632 592
140 644 644
144 660 684
148 672 732
152 672 760
156 664 784
156 668 816
160 668 828
160 672 844
156 668 860
136 624 404
140 628 416
148 636 436
144 640 456
148 648 480
148 656 528
136 676 576
152 684 620
148 696 672
156 708 708
160 716 752
152 728 792
164 728 816
156 732 832
160 728 844
164 728 868
160 728 880
148 668 436
148 672 448
152 676 456
148 684 484
156 688 512
152 704 560
148 716 608
164 728 652
152 736 700
160 756 732
160 760 772
164 772 816
172 776 832
164 784 856
168 776 864
164 784 884
160 784 896
156 712 468
152 712 472
164 712 484
156 724 512
164 728 540
160 740 588
156 756 636
164 764 668
156 772 720
164 788 756
168 792 796
168 808 832
172 812 848
176 820 872
180 824 884
180 820 900
164 828 916
168 736 488
164 748 500
168 752 512
160 756 536
164 760 556
168 776 604
164 788 652
172 796 688
164 812 740
168 816 776
172 828 812
168 836 844
176 844 860
172 856 884
176 856 896
180 860 908
168 860 916
172 768 516
160 776 520
176 776 540
172 784 556
172 792 580
180 800 628
176 812 668
176 828 708
176 836 760
184 848 796
176 856 832
176 864 856
176 876 876
172 888 892
184 892 904
176 892 916
176 896 916
180 788 536
176 796 540
176 800 556
172 808 576
176 812 604
180 824 640
176 836 684
184 844 724
180 860 776
184 868 812
180 872 840
176 892 860
176 900 880
176 904 900
184 912 912
184 912 912
184 916 916
56 44 100
56 48 112
56 48 124
56 48 144
60 56 176
56 60 212
60 60 256
64 72 296
68 76 340
72 76 388
72 84 424
72 88 464
80 92 500
76 92 524
88 100 556
88 96 588
88 96 600
64 72 116
64 68 124
64 68 136
64 72 152
64 76 184
64 76 224
64 84 268
72 88 312
76 92 352
72 100 404
80 100 444
84 100 476
84 108 512
88 112 544
88 108 572
92 108 600
92 108 616
72 104 136
72 108 148
80 108 156
76 116 176
72 112 196
72 120 236
72 120 280
76 120 328
76 124 372
84 132 420
80 132 452
88 136 496
88 136 528
88 136 560
96 140 592
92 136 612
96 140 632
80 152 152
80 148 160
88 156 180
84 160 200
88 164 228
80 168 268
76 164 304
84 172 360
84 176 404
92 176 448
88 184 484
96 188 524
92 176 548
96 184 584
100 188 616
104 188 644
100 184 660
84 192 176
88 200 188
92 204 204
96 204 224
88 216 252
92 232 296
88 232 344
88 236 388
92 240 428
100 236 472
96 236 512
104 240 556
104 240 588
108 244 624
108 240 648
108 248 672
108 248 692
84 256 204
88 256 220
92 268 228
92 276 248
96 288 284
92 296 324
100 308 376
104 308 416
100 304 464
108 316 500
104 316 540
112 312 580
112 312 616
112 304 648
116 304 672
120 304 700
120 304 720
100 320 240
96 328 260
100 332 264
104 340 284
108 348 324
100 364 364
104 380 416
108 384 452
108 384 492
112 380 536
120 384 584
120 384 612
124 380 644
120 384 680
124 384 704
124 380 732
124 380 752
112 384 272
108 392 280
108 396 296
104 408 320
108 412 356
112 428 404
116 444 456
120 460 500
124 460 544
124 460 580
124 456 604
128 460 648
128 460 680
128 456 704
128 456 736
136 456 756
136 452 772
120 452 312
120 456 320
112 460 328
116 468 360
116 480 392
120 500 436
120 504 476
124 524 528
132 532 572
128 540 620
136 536 652
132 532 688
144 532 724
140 532 744
136 528 764
140 532 796
140 528 812
128 520 340
124 520 356
124 524 368
124 532 392
120 540 420
128 556 472
132 568 520
136 588 568
140 592 608
140 604 656
140 608 692
144 608 724
148 608 748
148 608 780
148 604 804
148 600 820
148 600 840
132 572 372
132 580 388
136 580 400
132 588 420
132 604 460
136 608 500
140 624 548
140 636 596
140 644 644
144 664 684
152 668 728
152 672 760
156 668 788
156 668 808
156 668 828
152 668 848
152 668 860
136 624 408
140 628 416
144 632 428
144 640 452
140 656 488
148 664 532
140 680 580
148 684 628
148 696 672
156 708 716
156 724 760
156 724 792
160 732 816
160 728 832
160 728 844
164 732 868
164 732 880
140 672 436
148 672 448
148 680 460
152 688 488
152 692 512
152 704 552
160 720 604
160 728 656
152 736 700
156 748 736
160 760 776
164 772 816
168 780 836
172 780 856
164 780 872
164 780 880
164 780 892
156 708 460
152 712 476
156 716 488
160 724 512
156 732 544
156 744 588
164 752 628
160 768 676
164 776 724
160 792 764
168 796 800
164 808 832
172 816 852
176 820 872
172 828 884
172 824 904
168 824 912
164 740 488
164 748 500
160 748 512
156 752 532
164 764 572
164 776 612
164 788 656
168 796 700
164 812 740
172 820 788
172 828 816
168 836 844
176 844 860
176 860 888
176 864 904
176 860 908
176 864 920
168 772 516
160 776 520
164 784 536
172 784 556
168 800 588
176 800 624
176 812 664
172 828 712
176 836 760
176 856 804
172 856 824
176 864 856
172 876 876
172 888 888
180 896 912
180 896 920
180 896 920
176 792 536
176 796 540
172 804 556
172 808 572
172 812 608
176 824 644
176 836 684
180 848 728
180 860 768
180 872 812
172 884 840
176 892 860
172 904 884
176 904 900
180 916 916
188 916 920
184 916 916
64 48 104
64 44 112
68 48 128
68 52 144
60 52 164
60 56 208
64 60 252
68 68 300
76 68 340
80 80 384
80 84 424
76 88 460
84 88 496
84 92 524
84 96 552
92 100 592
92 96 604
76 72 120
76 72 124
76 76 136
72 76 152
68 76 184
72 80 224
72 80 268
76 84 308
76 92 352
76 100 396
84 100 440
88 104 480
88 108 508
92 108 544
92 112 572
96 112 604
96 112 616
88 108 136
96 104 144
92 112 156
92 112 176
84 112 200
80 120 240
80 120 280
80 128 332
80 128 372
88 128 420
84 136 460
88 136 496
96 136 532
96 140 564
96 140 592
100 140 612
100 140 636
96 148 152
104 152 164
108 152 180
104 164 200
104 176 232
96 168 268
88 172 308
84 172 352
92 172 400
92 176 448
92 188 488
100 180 520
96 184 552
100 188 584
104 188 612
108 184 640
108 184 660
108 192 184
112 204 192
108 200 204
112 216 228
112 228 264
112 236 300
104 240 344
96 236 384
100 236 428
104 240 476
100 240 516
108 244 552
108 244 584
108 240 612
112 244 648
112 244 672
112 244 688
112 256 208
116 260 216
108 272 232
112 272 248
116 284 288
116 296 332
112 308 380
112 308 416
104 312 464
112 312 504
108 312 540
112 312 576
112 312 620
120 308 652
116 304 672
120 304 700
120 304 720
112 316 240
120 324 248
112 332 268
116 340 284
112 348 320
116 364 368
116 376 412
116 388 456
116 388 496
120 384 532
120 388 580
124 388 620
124 380 648
128 380 680
124 384 704
128 376 728
128 376 748
120 388 272
120 392 280
120 404 300
120 404 324
116 416 352
116 432 408
116 440 452
124 460 500
128 460 532
128 460 576
132 464 612
128 460 648
128 460 680
132 452 704
132 456 732
136 456 756
136 448 776
136 456 308
124 452 312
124 464 332
124 472 356
120 488 388
120 492 428
128 508 480
128 524 532
132 536 576
132 536 624
140 540 660
136 524 684
144 532 724
140 528 744
144 528 768
144 532 796
144 528 812
132 516 336
136 520 348
128 524 368
124 532 392
120 540 420
132 552 468
132 572 520
132 580 560
140 592 608
144 604 660
144 612 696
144 608 720
144 604 748
148 604 776
148 604 804
156 600 820
156 596 840
132 572 372
140 580 384
136 580 400
132 592 420
136 604 456
140 612 500
140 624 548
140 640 600
148 656 644
152 660 684
152 664 724
156 676 760
160 668 788
160 668 812
160 676 828
156 672 852
156 668 860
140 624 404
144 628 412
144 632 428
144 640 456
144 652 492
148 664 532
148 676 576
148 688 628
148 696 668
156 704 716
156 716 756
164 728 792
160 732 812
164 732 836
164 728 848
168 732 868
164 732 880
148 668 432
148 672 444
148 680 460
148 684 484
156 696 520
156 708 564
156 720 612
160 728 656
156 740 692
168 752 740
168 756 776
168 776 816
172 776 836
168 780 856
168 780 872
172 780 884
172 780 892
156 708 464
160 712 472
156 716 488
160 724 512
156 732 540
160 744 580
164 752 628
160 768 668
168 780 720
164 788 764
168 792 792
168 804 824
172 816 848
176 820 868
172 828 884
172 824 904
172 824 916
164 740 492
160 744 496
164 748 516
168 756 536
164 764 568
164 776 612
172 784 648
172 800 692
168 812 740
172 820 788
176 832 820
168 844 844
180 848 864
176 852 884
176 864 896
180 860 908
180 860 916
164 768 512
164 772 520
164 784 540
172 784 560
164 796 584
176 800 624
176 816 672
176 824 720
176 840 764
176 848 800
180 856 828
176 864 856
180 872 872
172 888 888
184 892 912
180 896 920
180 896 916
176 792 536
168 796 540
172 804 560
172 808 576
172 812 608
176 824 648
176 836 688
184 844 728
180 860 768
180 872 812
180 880 840
180 896 864
180 900 884
176 904 900
184 916 916
188 916 920
188 916 912
100 48 104
96 48 112
92 48 124
92 52 144
88 48 164
80 52 204
72 64 252
76 64 296
80 68 336
80 72 380
84 84 428
84 84 456
84 88 496
92 92 524
92 96 556
96 92 584
96 92 604
104 64 108
104 72 124
108 76 132
100 72 152
100 76 176
92 76 216
84 80 260
84 84 308
84 96 356
88 92 396
88 96 440
92 104 476
96 108 512
96 100 540
100 108 572
100 108 600
