滤镜资源/vsco 137 3dl+cube/VSCO 137 3dl/VSCO A6 Analog.3dl
#Generated by Picture Instruments - Look Converter
3DMESH
Mesh 4 10
0 64 128 192 256 320 384 448 512 576 640 704 768 832 896 960 1023
28 40 52
24 48 64
40 40 76
20 48 100
28 52 144
0 60 204
0 60 276
24 72 348
0 80 424
28 92 504
4 116 576
4 140 660
28 168 724
4 216 800
68 272 860
284 360 928
416 440 972
24 56 56
28 56 68
40 52 80
24 60 104
28 64 144
0 68 204
0 76 280
24 88 352
0 104 440
28 108 496
4 132 568
0 156 656
28 188 728
0 236 804
100 284 864
280 364 920
420 452 976
28 72 68
24 80 72
36 76 88
20 84 116
28 92 156
0 100 216
0 112 300
24 124 364
4 136 444
28 152 512
8 176 584
0 196 660
28 224 740
0 272 804
152 316 864
304 392 924
424 468 964
8 116 64
8 120 84
24 120 100
4 128 132
24 132 176
4 144 240
0 156 308
24 172 384
0 184 448
28 200 520
8 224 588
0 248 672
28 280 740
0 308 812
192 356 864
324 424 920
444 500 968
8 176 80
4 188 92
28 184 108
0 204 152
28 200 196
8 212 256
0 216 320
24 236 372
0 256 460
28 272 528
8 284 592
4 308 672
32 332 740
104 368 808
224 404 860
340 464 920
452 540 964
4 276 84
0 272 100
28 276 128
4 292 176
24 300 224
8 300 288
0 300 348
28 304 404
4 320 472
28 332 528
12 356 608
28 376 680
100 396 736
172 432 808
276 464 868
368 516 916
484 584 972
8 364 108
0 368 124
28 372 156
4 380 204
28 392 260
12 400 320
0 400 384
28 392 440
0 404 504
32 400 548
92 420 608
124 436 676
172 460 744
220 496 812
292 516 868
384 564 920
484 616 964
12 456 144
0 464 164
28 464 184
0 476 244
32 488 288
16 496 344
0 496 408
28 492 468
0 488 524
68 484 572
124 492 628
168 508 688
220 516 740
248 540 804
304 568 856
384 596 916
472 652 960
16 548 200
0 548 212
28 548 232
0 556 280
32 564 324
24 576 380
12 588 440
28 584 496
0 572 544
112 572 596
176 572 652
212 576 704
264 588 756
292 600 808
336 620 860
392 648 908
472 688 968
20 624 256
4 632 268
36 628 288
40 640 324
140 636 372
148 644 420
120 648 468
48 660 524
96 660 580
192 648 636
232 648 680
264 648 728
292 652 768
328 660 824
372 676 872
432 704 920
496 736 960
144 692 320
160 704 328
184 700 348
204 704 384
260 708 424
260 712 472
248 712 508
244 720 556
208 732 612
248 724 664
284 716 708
316 720 752
340 712 796
372 716 840
412 732 888
464 756 924
524 780 968
288 760 396
292 764 404
316 764 420
320 764 440
336 760 472
364 768 516
356 776 556
348 780 592
332 780 640
324 788 684
340 784 728
368 776 768
396 776 804
416 780 848
436 780 888
488 800 928
552 824 968
404 816 472
400 816 480
412 824 488
420 820 520
436 820 540
456 820 576
452 828 608
444 828 636
428 832 680
420 844 724
412 844 764
424 840 800
444 832 828
460 828 864
488 832 900
528 844 944
584 868 976
508 868 560
508 868 564
516 872 572
508 864 584
528 868 608
536 868 636
536 876 668
524 872 680
508 880 716
496 880 748
488 884 788
484 884 828
496 880 852
512 876 884
536 876 912
564 888 948
616 904 976
600 904 640
604 912 648
608 908 656
608 912 672
604 908 668
616 912 700
624 908 728
608 916 728
584 920 760
572 916 780
564 920 816
552 924 852
556 928 872
564 928 900
580 920 924
608 928 952
660 936 984
680 948 732
684 948 728
692 948 732
688 948 740
688 944 752
684 944 764
692 952 780
688 948 796
660 956 804
636 952 812
632 956 836
624 964 864
616 968 896
616 968 924
624 964 932
652 960 968
696 968 992
752 976 800
752 972 804
752 976 800
752 972 812
752 972 812
756 976 824
752 976 836
752 976 844
732 984 852
700 980 852
684 980 860
684 988 888
676 988 908
668 996 932
680 992 952
688 992 972
724 992 992
44 44 56
40 44 60
36 44 80
28 52 104
20 52 144
0 60 208
0 60 280
0 72 360
0 76 428
4 96 508
0 116 576
0 136 652
0 172 728
4 216 800
108 272 864
288 348 928
416 436 968
40 56 48
36 60 72
36 56 84
36 60 104
16 68 160
0 72 220
0 76 288
0 88 372
0 96 436
0 116 512
4 132 592
0 160 664
4 200 740
0 236 808
136 292 872
300 364 928
424 452 968
32 76 60
36 80 76
36 84 92
28 88 120
16 92 164
4 104 220
0 112 296
0 124 372
4 136 444
0 156 516
0 172 588
0 196 660
0 224 732
0 264 804
164 324 868
304 384 924
432 472 972
20 116 68
16 120 76
16 124 104
12 128 136
8 136 176
0 144 228
0 156 304
4 176 380
0 188 452
0 204 520
0 228 600
0 252 668
0 276 744
48 312 808
208 364 868
328 428 924
448 496 968
4 180 76
4 192 84
0 192 120
0 200 148
0 204 208
0 216 260
0 220 328
0 236 392
0 256 464
0 268 532
0 288 600
4 308 676
24 344 748
152 376 812
244 404 872
352 468 924
464 540 972
0 268 88
0 272 100
0 288 132
4 292 176
0 304 232
4 296 284
0 304 352
4 312 412
0 316 464
24 344 532
56 360 604
76 380 680
128 396 736
192 428 808
268 468 868
372 516 924
480 576 964
4 368 112
4 372 128
0 376 156
4 380 204
0 396 264
0 400 320
0 400 384
0 400 436
0 400 496
80 408 552
124 420 612
152 440 680
188 460 744
228 488 808
292 516 864
392 564 924
504 624 972
0 460 148
0 464 164
0 472 192
0 476 244
0 484 288
4 496 344
4 500 412
0 492 468
20 488 532
116 492 584
156 492 632
192 508 688
232 524 748
264 544 812
316 572 868
392 604 916
484 652 964
0 552 200
0 548 212
0 552 240
0 556 276
12 560 328
16 576 384
4 588 436
4 584 500
60 580 556
148 572 604
196 576 652
236 572 700
264 588 756
300 600 812
344 620 864
400 652 916
472 692 964
8 624 256
4 632 268
48 632 288
84 632 320
164 640 372
176 644 424
160 656 472
116 664 532
140 664 584
188 652 628
244 648 676
276 648 732
304 652 772
332 664 820
372 676 868
428 704 924
500 740 964
168 696 316
184 704 328
204 704 352
228 708 380
264 712 424
280 712 460
272 720 516
256 724 564
232 732 612
260 724 660
296 716 708
324 716 752
344 716 792
376 720 836
412 728 880
456 752 924
520 776 964
304 760 392
296 756 396
316 764 420
332 764 444
348 768 476
380 772 520
368 780 560
356 776 592
348 784 648
324 792 692
356 784 740
376 780 776
404 780 812
424 776 856
448 780 892
492 804 936
556 824 968
408 816 472
412 820 480
416 820 492
428 824 524
440 820 540
460 820 580
464 828 612
448 828 640
440 832 680
428 840 720
416 844 756
424 840 796
448 828 828
472 832 868
492 840 908
524 844 936
584 864 972
512 864 560
512 868 564
516 868 576
520 872 592
528 868 612
536 868 636
540 868 664
532 872 688
516 876 712
504 884 752
500 888 792
492 888 820
500 876 852
516 880 884
532 880 912
564 888 948
620 904 976
600 908 648
604 912 648
604 908 656
608 912 668
604 904 676
612 912 700
628 912 732
612 916 740
588 920 756
576 916 780
568 920 816
552 928 848
556 924 880
564 924 904
576 920 924
612 924 952
660 936 984
684 948 724
684 948 728
692 952 736
692 952 744
692 948 760
684 944 760
692 952 780
692 948 792
668 952 804
648 956 824
632 956 836
628 964 864
620 964 896
624 964 924
628 960 936
652 964 964
692 964 992
752 976 800
752 972 804
752 972 804
752 972 812
752 976 812
756 976 824
756 976 836
756 976 852
732 984 852
708 980 856
692 988 868
684 988 888
680 988 908
672 992 932
676 992 948
692 988 972
728 988 992
52 48 60
56 44 56
60 48 76
56 52 108
44 52 152
20 56 212
0 60 276
0 64 356
0 76 436
4 96 508
0 112 572
0 136 652
0 172 728
4 216 796
164 276 872
308 348 924
440 436 968
60 60 52
56 56 64
52 56 80
56 64 112
48 64 156
24 72 224
0 76 288
0 84 368
0 96 440
0 116 516
4 132 588
0 164 664
0 196 740
0 236 812
188 288 880
324 368 932
444 456 968
60 76 56
60 76 68
60 84 92
60 84 120
56 92 168
28 100 236
0 108 304
0 124 376
0 136 456
0 152 512
0 172 588
0 200 676
4 232 744
68 276 812
208 316 868
336 388 932
448 472 976
52 112 68
56 116 80
56 128 96
52 132 140
52 144 188
44 152 236
16 160 312
4 176 380
0 188 456
0 208 528
0 228 600
0 244 664
0 276 732
120 312 804
232 356 864
356 428 932
460 500 972
32 176 76
36 188 88
36 192 116
28 204 156
28 208 204
28 216 268
40 228 324
28 232 392
28 252 464
16 268 532
20 292 608
60 312 676
108 340 744
172 364 804
268 408 872
376 468 928
468 532 964
0 268 88
0 272 104
0 284 140
4 288 176
4 300 228
0 296 288
16 300 356
48 312 416
88 328 480
108 348 548
120 364 608
144 380 680
172 404 748
232 436 812
304 468 876
388 512 928
480 572 960
0 364 112
4 364 132
0 376 164
4 388 208
0 392 252
4 408 320
4 392 380
36 400 436
100 404 492
144 408 552
172 432 608
196 444 680
220 460 748
260 484 808
324 524 864
404 564 928
508 620 964
0 460 148
4 464 176
0 476 200
4 476 236
20 480 292
4 496 348
8 500 412
28 496 476
104 488 520
168 488 572
196 496 636
232 508 688
256 524 752
288 544 808
328 568 864
404 608 920
516 660 972
0 544 196
4 548 208
4 556 244
56 556 280
136 564 336
108 568 384
72 580 440
68 588 500
152 580 556
204 572 608
236 576 660
260 572 708
296 584 760
320 596 808
356 620 868
428 656 920
484 688 960
100 632 260
104 628 268
132 628 292
160 636 328
204 640 372
220 640 420
216 652 476
176 656 528
196 664 584
236 652 636
276 652 680
304 648 724
324 648 772
348 660 820
384 676 864
440 700 916
508 740 968
220 696 316
224 696 332
244 704 348
264 708 384
276 708 420
308 712 464
308 716 512
292 724 564
272 732 608
292 728 660
320 712 708
344 712 748
364 720 792
388 720 840
424 736 880
464 752 920
532 784 964
316 760 396
324 756 396
340 764 424
352 768 440
368 768 476
400 772 528
388 776 556
388 780 600
364 788 644
352 792 692
368 788 744
400 780 780
412 776 812
432 780 856
456 784 892
500 800 928
564 828 972
424 820 480
428 820 476
428 816 488
440 824 520
456 820 540
472 824 580
480 828 612
464 828 644
444 832 668
436 840 720
428 844 760
448 840 800
464 832 836
476 832 872
500 832 908
532 844 940
596 868 976
520 864 556
524 868 564
524 868 576
536 868 592
540 872 616
548 872 636
560 872 672
540 876 692
524 880 712
516 884 752
508 884 792
504 888 820
512 880 852
524 880 888
544 884 916
576 888 944
632 904 976
608 908 640
612 908 648
616 904 656
616 908 668
620 912 684
624 912 704
632 912 724
620 916 736
596 916 756
580 920 780
576 924 816
576 928 852
564 928 872
576 924 896
588 920 928
612 924 952
660 936 980
696 948 728
692 948 732
700 952 736
692 944 740
692 944 760
696 944 764
692 952 780
700 948 800
676 956 808
644 956 820
640 956 840
632 964 868
628 964 896
628 964 920
632 964 948
656 960 968
692 964 988
760 972 796
756 972 796
760 972 804
756 972 804
760 976 816
760 972 824
760 980 840
760 976 848
744 976 856
716 984 860
696 988 868
692 988 892
688 988 912
680 996 932
680 992 956
692 988 968
728 988 992
88 52 52
84 52 64
92 44 76
88 48 108
92 52 148
80 52 212
56 56 284
8 64 368
0 76 444
0 88 508
0 112 576
0 136 656
4 168 728
88 212 796
216 272 860
344 344 924
464 436 972
88 60 48
88 60 64
92 56 76
92 64 116
96 68 160
80 72 220
68 76 300
28 88 364
0 96 444
0 116 516
4 132 592
0 156 660
4 188 732
116 232 808
248 288 876
360 364 932
