滤镜资源/vsco 137 3dl+cube/VSCO 137 3dl/VSCO C5Chromatic.3dl
#Generated by Picture Instruments - Look Converter
3DMESH
Mesh 4 10
0 64 128 192 256 320 384 448 512 576 640 704 768 832 896 960 1023
124 104 76
124 104 76
128 108 80
128 104 88
132 100 100
132 104 120
136 112 148
140 108 184
136 116 220
140 120 264
136 120 304
144 128 360
144 124 400
144 124 440
152 124 480
152 128 516
152 128 548
124 116 76
124 116 80
128 112 84
128 116 100
136 116 104
128 120 120
136 124 152
144 116 192
140 128 236
148 128 272
148 132 324
144 132 368
156 128 416
152 136 464
156 136 492
152 136 528
156 136 564
132 132 84
132 132 84
140 132 92
136 132 104
140 136 116
136 140 132
140 140 172
148 140 204
144 140 256
148 144 296
152 148 344
148 144 392
164 148 440
160 148 484
160 148 528
160 148 556
160 148 584
140 160 96
140 156 100
152 156 104
140 160 112
148 164 128
148 172 160
148 168 196
152 172 236
152 172 284
156 172 332
152 172 380
160 180 436
160 176 480
160 176 516
164 180 556
172 184 588
168 180 616
152 184 112
144 188 112
152 188 120
148 196 132
160 200 144
152 220 176
152 220 212
156 216 256
160 224 316
164 220 364
168 220 416
164 220 472
172 220 512
172 224 560
176 220 596
172 224 624
172 224 664
148 240 120
148 236 128
156 240 132
152 252 156
156 260 176
164 276 212
164 288 256
168 284 296
168 284 356
168 288 412
172 284 456
172 288 508
176 284 556
176 288 604
180 284 636
180 284 660
180 284 700
164 296 140
160 304 148
168 304 152
156 312 172
172 328 200
172 344 244
168 364 296
176 372 352
172 376 400
176 364 452
180 372 512
176 372 560
188 368 600
184 372 640
192 368 664
188 372 696
188 372 724
168 376 160
172 380 172
172 384 184
160 392 200
176 416 236
176 428 280
176 440 336
184 460 396
180 472 456
192 464 504
188 468 556
184 468 604
192 460 644
192 464 676
200 460 700
200 464 728
196 460 752
180 460 192
176 468 204
188 468 212
180 480 236
180 488 268
180 512 320
184 528 384
196 540 444
192 552 504
196 560 560
196 556 608
200 560 652
204 556 688
196 556 716
208 552 740
204 548 756
204 548 784
188 540 220
184 540 224
192 544 248
184 560 276
192 564 304
192 584 372
192 596 428
200 612 492
200 624 560
208 636 616
204 636 648
204 636 692
208 636 720
204 632 752
212 632 768
216 624 796
208 628 804
200 600 260
192 604 260
204 608 284
196 624 312
200 632 344
204 644 408
196 652 468
204 668 532
204 676 600
212 688 652
216 700 692
212 700 732
220 700 756
216 696 780
224 704 800
220 700 816
220 700 832
200 656 288
204 660 300
212 664 320
208 668 348
212 680 384
208 688 444
204 704 516
216 708 572
212 728 636
220 736 680
220 740 720
220 756 760
228 752 780
224 756 804
232 748 820
228 748 832
220 748 848
212 700 320
212 704 340
220 704 352
212 712 388
216 724 428
220 728 476
216 740 548
224 752 608
216 760 660
224 772 704
228 776 748
224 784 792
232 792 800
232 796 824
236 792 836
228 792 844
228 792 860
220 732 360
216 740 372
224 740 388
220 744 416
228 752 460
224 764 516
220 772 580
224 780 636
228 796 692
228 800 732
232 812 764
232 820 804
236 820 820
232 836 840
240 828 848
240 824 856
236 828 876
228 764 392
224 772 404
232 772 420
232 780 456
232 780 484
232 788 544
232 804 604
236 808 652
232 824 712
232 824 748
240 832 780
240 840 816
236 848 824
240 856 848
240 860 856
244 860 872
240 860 872
240 788 428
236 788 436
236 792 448
232 800 484
236 804 520
240 812 572
240 824 624
244 828 676
244 844 728
240 848 768
244 856 796
236 864 820
244 868 840
232 880 856
244 884 864
244 888 880
240 888 880
244 804 456
236 812 460
244 808 476
240 820 508
244 816 540
248 824 592
244 836 644
248 848 692
244 852 744
252 860 784
248 868 800
240 876 828
244 884 840
240 892 860
244 896 868
252 896 880
248 896 872
128 100 68
124 104 76
124 104 76
128 104 88
132 108 96
128 108 120
136 112 144
140 112 184
136 116 220
144 120 264
144 120 312
144 128 360
148 124 400
144 124 440
148 128 476
152 124 520
152 124 548
132 112 80
136 116 84
136 116 92
136 116 100
132 120 108
136 116 124
136 124 152
140 124 192
144 124 236
148 128 284
144 132 332
148 128 376
152 132 424
152 136 464
152 136 504
160 136 536
160 136 564
144 132 88
140 132 88
144 132 92
144 136 108
140 136 120
140 140 132
140 140 164
144 140 208
144 140 256
148 148 304
148 148 348
156 144 396
160 148 444
160 148 480
156 148 524
164 152 560
164 152 592
152 160 92
152 160 104
152 160 100
152 164 112
152 164 136
148 168 160
148 172 188
148 168 232
156 176 284
152 176 332
160 180 384
160 180 436
160 176 476
160 176 516
168 176 560
168 184 592
168 184 620
156 184 104
152 192 116
156 196 116
156 192 132
160 200 148
156 216 176
156 220 220
160 216 268
160 224 320
160 220 368
164 220 424
164 220 472
168 224 524
172 224 564
172 216 592
172 228 636
172 228 664
160 232 120
156 240 124
156 248 136
164 252 152
160 264 172
164 268 208
164 288 256
168 284 300
168 284 352
172 292 412
176 292 468
172 284 508
180 284 564
180 284 604
176 288 636
184 280 664
180 280 692
168 308 140
164 308 144
164 308 152
168 320 172
164 328 204
168 348 244
168 364 296
176 372 348
176 372 396
180 376 460
184 368 508
184 368 556
184 372 604
188 368 636
188 372 672
192 368 700
192 368 720
176 380 168
172 380 168
168 388 184
164 400 200
172 408 236
172 424 288
176 440 336
180 460 400
192 472 460
188 468 512
188 460 560
192 464 604
196 460 644
192 464 676
196 460 708
196 456 732
196 456 744
184 460 188
180 464 204
180 468 212
180 480 236
184 492 268
184 508 320
188 524 380
192 544 444
196 556 508
192 560 564
196 556 604
200 560 648
200 552 684
204 552 716
200 552 740
204 556 764
204 552 788
192 536 220
184 540 224
188 548 248
184 552 272
184 568 304
192 584 368
196 600 432
196 612 496
200 628 556
208 632 612
204 644 652
204 636 688
208 636 720
208 636 756
208 636 768
212 632 796
212 632 808
196 604 260
192 604 260
200 612 280
200 616 312
196 632 352
196 640 408
200 656 472
200 668 536
204 680 604
212 688 652
212 700 692
212 700 732
216 700 756
220 704 780
216 704 804
216 704 820
216 704 832
204 656 288
208 664 304
212 664 320
208 676 352
204 680 392
208 696 452
208 704 516
208 716 568
212 728 636
220 736 684
216 748 724
224 756 772
228 756 792
220 752 800
224 752 820
228 748 832
224 748 852
208 700 320
212 704 340
216 704 356
216 720 392
220 720 428
216 732 480
220 740 540
220 756 616
216 760 660
220 768 708
228 780 748
228 784 784
224 796 804
232 796 824
232 800 840
228 792 848
228 792 860
216 736 360
216 740 372
220 744 384
220 744 416
216 756 464
224 764 516
228 772 572
224 780 636
228 796 692
224 800 736
232 812 772
232 820 800
232 824 820
232 836 840
232 832 852
232 828 860
232 828 876
228 760 384
224 772 404
224 772 416
228 776 452
232 780 492
228 792 548
228 804 608
232 812 664
228 820 708
232 832 752
232 836 792
240 840 816
236 852 832
240 856 848
236 860 860
240 864 876
240 864 876
232 792 420
236 788 436
232 800 456
232 800 484
236 812 524
240 812 572
240 824 628
240 832 684
244 844 728
244 852 772
236 860 804
240 868 820
244 868 844
240 880 860
240 884 868
240 888 880
240 888 880
236 808 444
236 812 460
236 808 476
240 820 508
240 820 540
244 828 592
244 836 644
244 848 692
244 860 740
248 864 776
244 876 808
244 884 828
244 888 848
240 892 860
244 896 872
248 900 872
248 900 872
136 104 72
140 104 72
132 104 80
140 108 92
136 104 96
132 108 116
136 112 144
140 112 184
140 112 220
144 120 264
144 120 312
148 124 356
148 124 400
148 128 444
148 128 476
156 128 524
156 124 548
144 112 76
148 112 80
148 116 88
144 116 96
140 120 104
140 120 128
144 120 148
140 124 192
148 128 236
148 128 284
144 132 332
152 132 372
152 132 420
156 136 464
156 136 496
160 132 536
164 132 564
156 132 84
156 132 88
160 136 96
160 136 100
152 140 124
148 140 140
144 140 172
148 140 208
152 144 256
156 144 304
152 144 348
156 144 396
160 148 448
168 152 488
164 148 520
172 148 564
168 148 592
168 152 92
172 156 96
172 156 100
172 164 112
172 176 136
160 172 152
156 168 188
156 172 232
160 172 284
156 172 332
160 184 384
164 176 432
164 180 480
168 176 520
168 180 552
172 176 588
172 176 624
176 188 104
172 196 108
172 192 116
180 200 128
176 212 152
180 220 180
168 216 216
164 212 260
160 220 320
160 220 368
168 216 424
168 220 472
172 232 524
172 224 556
172 224 596
180 224 636
180 224 656
176 236 124
176 236 128
180 248 136
180 252 152
180 260 168
184 272 204
180 284 260
176 284 304
168 284 356
176 292 412
172 288 464
176 284 508
180 288 564
180 284 604
180 284 640
188 276 664
188 276 684
184 296 140
180 300 140
180 312 152
184 320 168
180 328 200
184 348 240
180 360 292
180 376 352
184 372 392
180 376 452
184 376 512
188 372 560
184 372 600
188 372 636
188 372 672
192 368 696
192 368 724
180 380 160
184 388 168
184 392 180
180 396 204
180 412 240
176 424 280
180 444 340
188 464 404
192 472 456
188 468 504
192 464 560
196 468 604
196 460 644
200 460 676
204 460 704
200 460 736
200 456 748
200 460 184
188 464 192
188 468 208
184 480 232
188 496 272
188 508 316
192 528 380
192 544 448
200 560 516
196 564 568
200 560 612
204 552 652
208 556 688
208 556 720
208 552 740
212 552 764
212 548 784
200 540 224
200 540 224
192 548 244
192 556 272
188 564 304
196 580 368
196 600 424
200 612 492
200 628 556
212 636 616
212 640 652
204 636 688
216 632 720
212 636 748
216 636 772
216 632 796
216 628 804
196 604 252
200 608 264
200 608 280
200 616 308
200 632 352
200 640 408
204 660 472
204 672 540
208 688 600
212 688 652
216 700 692
220 704 732
224 704 760
220 700 780
224 700 804
220 700 820
220 696 828
204 656 288
208 656 296
212 664 320
208 676 348
208 680 388
208 696 452
212 708 512
212 716 576
216 728 632
220 736 684
220 744 728
228 756 768
228 748 784
232 752 804
232 748 820
232 752 832
232 752 848
212 700 320
212 700 336
216 704 356
208 716 384
220 720 428
216 732 484
216 740 544
220 752 616
224 764 664
224 772 712
228 776 748
236 788 788
232 792 804
236 800 828
232 792 836
236 796 852
236 792 856
216 736 356
224 740 368
220 744 384
220 744 416
216 756 464
224 764 512
224 772 572
228 784 640
232 792 692
228 800 736
236 812 772
240 820 800
236 824 820
236 832 836
236 836 852
236 832 864
236 832 868
228 760 384
224 764 396
224 772 416
228 772 444
236 784 496
228 792 548
236 800 604
232 812 660
228 820 708
236 828 756
236 836 792
240 848 812
244 856 836
244 852 848
240 864 864
244 860 876
244 864 880
228 788 424
232 788 436
232 800 456
232 800 484
236 808 520
240 812 572
236 824 632
244 836 684
244 840 736
244 848 768
236 860 804
244 864 820
248 872 848
244 880 856
244 884 868
248 892 884
248 892 880
236 804 444
240 808 460
240 812 480
240 820 508
240 820 540
244 828 592
248 840 648
244 848 700
244 860 740
248 864 784
248 876 808
252 880 828
248 892 852
252 896 864
244 896 872
252 900 872
252 896 872
164 104 72
164 104 76
160 104 80
156 104 88
152 104 96
148 104 116
140 112 140
144 112 180
144 112 220
148 116 264
152 120 304
148 124 356
156 128 400
156 128 440
160 124 480
164 124 516
160 124 544
172 112 76
172 112 80
172 112 80
168 116 96
164 120 100
160 116 120
148 124 152
148 124 184
152 128 232
156 128 280
152 128 328
160 132 372
156 128 412
160 132 456
160 132 496
168 136 536
