滤镜资源/vsco 137 3dl+cube/VSCO 137 3dl/VSCO LV1 Levis.3dl
#Generated by Picture Instruments - Look Converter
3DMESH
Mesh 4 10
0 64 128 192 256 320 384 448 512 576 640 704 768 832 896 960 1023
72 76 76
80 76 96
80 76 120
76 80 148
84 80 196
76 80 252
80 80 316
76 72 392
72 72 464
80 76 544
68 76 596
72 80 652
76 76 688
76 76 732
80 76 752
76 72 780
76 72 776
80 92 76
76 92 100
76 92 124
80 92 152
80 88 192
76 88 256
76 88 324
80 76 388
72 84 456
80 80 532
72 76 588
76 76 652
80 76 688
72 76 732
80 72 760
76 72 780
76 72 728
84 108 84
76 108 100
80 108 128
76 104 156
80 100 204
76 100 260
72 96 308
80 92 364
72 92 440
80 84 508
72 88 580
76 80 640
80 76 696
72 76 732
80 72 760
76 72 780
76 76 740
84 140 88
88 136 104
84 140 128
76 144 168
80 132 216
76 124 276
76 112 312
80 108 376
76 104 440
84 92 512
76 92 576
80 92 652
80 84 696
76 80 736
80 72 760
76 80 784
76 80 736
96 180 100
88 176 104
88 172 128
76 192 168
80 180 220
76 172 272
80 152 324
84 140 380
72 132 448
80 120 520
72 108 576
76 100 644
80 96 692
76 88 740
80 80 764
76 84 788
72 84 748
108 248 112
96 236 116
108 228 128
100 232 164
88 256 212
76 252 288
76 228 340
80 200 400
76 180 476
80 156 544
76 144 600
72 128 648
80 116 692
76 108 740
76 96 764
72 92 784
72 92 796
116 316 124
116 316 128
116 312 140
116 312 176
116 316 216
96 344 276
72 360 364
80 316 436
72 276 504
80 236 556
72 216 620
76 188 676
76 168 708
72 160 752
80 140 772
72 132 792
72 132 792
136 396 140
132 400 140
140 396 148
128 400 172
132 404 220
124 404 272
104 436 348
84 452 444
76 416 520
80 376 576
76 348 628
76 320 688
80 292 720
72 276 752
80 268 780
76 252 804
76 252 796
144 464 152
144 468 148
148 464 152
140 472 180
148 468 228
144 476 284
124 492 344
108 516 420
80 536 528
80 508 588
80 468 656
76 444 700
84 424 736
76 400 764
80 384 788
76 372 812
72 372 804
156 528 156
156 528 152
160 524 164
152 528 196
156 524 232
156 528 284
144 544 348
124 564 412
96 596 516
80 612 616
80 584 668
76 556 720
76 536 744
76 516 784
80 496 800
84 476 816
72 488 812
164 576 168
160 580 164
164 576 168
160 576 196
168 576 236
160 580 288
160 584 348
148 604 416
116 640 504
92 664 604
76 676 680
76 652 732
84 620 756
76 600 792
80 588 808
76 576 828
76 580 812
172 616 176
172 620 172
176 624 176
168 624 200
172 620 240
172 620 296
172 624 352
160 640 416
140 668 500
112 700 580
92 720 664
72 736 736
76 716 768
72 696 800
80 672 820
80 660 828
72 668 824
176 656 180
176 664 176
176 656 168
172 656 204
180 656 244
180 656 304
172 664 360
176 672 420
140 700 500
124 732 580
100 756 664
80 776 732
80 772 776
76 760 812
80 748 824
80 736 836
76 728 848
176 688 184
176 692 180
180 688 176
172 684 208
184 688 248
180 684 308
184 688 376
176 696 420
152 724 500
132 752 572
108 776 652
84 796 720
88 804 776
72 816 816
76 800 832
76 788 844
72 780 848
184 704 184
184 708 180
188 708 184
180 708 212
188 704 252
184 700 304
184 712 364
184 716 420
156 744 496
144 768 568
124 788 644
96 812 708
88 820 760
76 836 804
84 836 836
76 828 844
76 820 856
184 724 188
184 728 184
188 724 180
188 728 208
192 724 252
188 720 312
184 724 364
192 724 420
160 752 496
144 780 568
120 796 640
104 824 700
96 832 748
80 852 804
80 852 828
80 856 848
72 856 852
184 724 188
184 728 184
188 724 188
188 732 212
192 724 252
188 724 316
188 728 372
192 732 432
164 756 500
144 780 568
120 800 640
104 824 700
96 836 744
84 852 796
84 856 824
84 856 840
76 856 856
88 80 76
92 76 100
92 76 124
88 80 152
92 76 192
92 80 248
84 76 312
84 76 392
84 76 472
80 72 548
80 76 608
72 76 660
72 76 696
68 80 732
68 76 744
76 72 784
76 72 780
88 92 76
88 92 96
88 92 120
92 92 152
92 88 200
84 84 264
84 88 324
80 84 400
80 84 472
76 80 552
76 76 616
76 80 684
80 76 724
72 76 744
72 76 772
76 80 792
72 76 736
92 108 84
92 108 96
96 112 132
88 112 160
88 100 204
88 100 256
76 100 320
76 92 400
76 88 476
72 84 552
76 84 620
76 80 672
80 76 720
76 80 744
76 80 776
76 80 796
76 76 760
100 140 88
100 140 100
92 144 128
84 144 172
84 136 212
88 124 272
80 116 324
80 108 404
80 104 476
76 96 556
72 92 620
80 84 676
72 80 704
76 80 748
76 80 784
76 80 796
76 76 756
104 184 100
104 188 112
104 184 132
92 192 168
84 188 232
80 172 284
76 148 348
80 140 428
72 124 488
72 112 560
76 104 624
76 92 676
76 92 724
76 88 752
76 80 784
76 76 796
72 80 760
112 252 112
112 256 120
112 260 140
112 256 164
96 280 228
80 272 304
76 240 372
80 208 436
76 172 508
76 160 580
72 136 636
72 120 680
76 112 724
76 104 760
76 92 784
80 88 804
76 88 804
124 344 128
120 348 128
120 344 148
124 344 176
120 348 224
104 372 296
80 392 396
72 340 460
72 292 528
72 248 596
72 216 652
76 184 700
72 164 740
72 148 764
76 132 788
72 124 804
72 124 800
140 424 136
140 424 144
144 428 156
140 428 188
140 428 224
132 432 284
100 464 376
76 488 488
72 436 556
76 388 620
76 352 672
76 324 720
76 300 748
72 272 772
76 268 796
76 244 816
76 244 804
148 492 152
152 488 152
152 496 164
148 492 184
148 496 228
144 504 280
132 516 352
100 552 452
80 568 560
72 536 636
76 492 688
76 460 736
76 428 760
76 404 784
72 388 808
76 380 820
72 384 816
164 552 156
156 556 164
156 552 164
160 552 188
160 560 232
160 560 288
156 564 356
128 600 444
96 632 548
72 644 652
76 612 704
72 584 740
76 552 772
72 536 792
72 512 812
76 492 832
72 496 824
164 596 164
164 604 168
164 604 168
168 604 192
168 608 236
164 608 292
168 612 360
148 636 436
108 668 528
88 696 632
72 712 720
72 672 752
76 652 780
72 628 804
72 604 820
72 588 836
72 592 824
176 644 172
172 636 176
176 644 180
176 640 192
172 648 240
176 648 296
172 652 360
164 664 432
128 696 516
104 728 616
84 752 700
72 760 764
72 744 800
68 712 812
72 684 828
76 672 844
72 680 832
180 676 180
180 676 180
180 676 180
180 680 196
176 680 240
176 680 296
176 684 356
168 700 440
144 728 516
120 752 604
100 780 688
84 796 756
72 800 800
72 788 828
76 764 836
76 748 852
76 740 856
184 700 184
184 700 184
184 700 184
180 696 196
180 696 240
184 704 296
188 704 364
188 712 432
148 740 508
128 776 600
104 796 680
92 816 740
84 832 796
72 828 832
72 812 840
76 800 852
76 792 856
188 712 184
188 712 184
188 712 184
184 716 200
188 716 244
184 720 296
184 724 364
184 724 436
156 752 508
140 788 588
112 812 672
100 824 732
92 840 784
76 848 820
76 852 844
76 844 856
76 832 864
184 728 184
184 728 184
184 728 184
188 728 204
184 728 244
188 732 292
184 732 356
188 740 424
160 760 496
144 792 584
120 816 656
104 832 716
92 848 764
84 860 812
76 864 840
76 868 864
76 860 864
184 728 184
184 728 184
184 728 192
188 732 212
184 732 256
188 732 312
192 732 376
188 740 432
164 760 500
148 788 580
120 812 644
104 828 704
92 848 756
84 856 796
76 864 832
76 872 852
76 868 860
104 84 84
108 80 96
108 80 132
104 76 156
104 76 188
104 80 248
100 76 312
92 76 396
92 72 468
84 72 544
80 76 604
76 76 652
76 76 700
76 76 728
72 80 756
76 72 780
76 72 780
112 88 76
108 92 96
100 92 124
112 92 160
104 92 200
100 88 260
100 88 320
92 84 400
92 80 476
84 80 552
88 80 620
80 76 676
76 72 692
72 72 752
76 72 780
76 80 792
72 72 744
112 108 80
116 116 100
108 112 132
104 112 164
108 108 212
100 104 276
100 100 336
88 96 412
84 88 492
84 84 560
84 84 624
80 76 684
84 80 728
76 76 764
72 72 784
76 76 804
76 76 760
116 140 92
116 136 104
112 140 124
112 148 172
104 140 216
100 124 268
96 116 336
88 108 408
88 100 492
84 96 568
84 96 624
76 84 684
76 84 728
76 76 764
76 80 792
76 76 804
72 76 764
120 184 100
120 188 108
120 184 128
116 192 168
104 196 228
96 176 288
96 160 352
92 144 416
88 124 488
80 112 564
84 108 620
76 96 692
76 88 736
76 84 764
80 84 796
80 80 812
76 80 768
124 252 104
128 256 124
124 260 136
124 260 172
112 272 232
96 276 312
92 240 376
92 204 452
88 172 520
88 160 592
80 132 640
80 120 700
76 108 736
72 100 772
76 88 796
80 88 816
80 84 816
136 348 124
136 344 132
136 344 144
136 348 176
136 348 228
116 372 296
88 376 380
84 340 464
84 296 528
80 248 600
80 224 656
80 192 708
80 160 744
72 148 768
80 132 792
72 120 816
72 120 808
144 432 140
144 432 144
148 432 160
144 428 180
140 428 228
136 432 284
112 460 376
88 488 492
84 440 552
80 392 616
80 356 676
80 328 724
76 300 748
76 276 784
76 260 804
76 236 816
76 244 816
152 496 152
152 496 156
152 496 164
156 492 188
152 500 236
152 500 284
136 520 356
104 556 456
84 572 572
80 532 640
76 488 696
80 448 732
76 436 772
72 412 796
76 388 812
72 384 828
72 380 812
168 556 160
164 556 168
168 556 168
164 560 188
160 560 232
164 560 284
156 572 352
128 596 440
100 632 540
84 652 656
80 616 704
76 588 744
76 552 772
72 536 796
72 512 816
76 488 840
76 496 832
168 600 168
168 608 172
172 604 176
168 604 192
172 608 236
168 608 284
168 612 360
152 640 436
120 672 532
96 704 636
76 704 712
80 680 760
76 652 784
72 632 812
76 616 828
72 592 840
72 604 828
176 644 172
176 644 176
176 644 180
172 648 192
172 648 240
176 648 288
168 652 360
168 668 436
136 700 520
104 732 616
88 756 708
72 756 768
72 744 800
72 724 816
76 700 836
76 684 852
72 692 844
180 676 180
180 676 176
180 676 180
176 680 196
176 680 240
176 680 300
176 680 364
168 696 444
144 728 524
120 760 608
96 780 696
80 796 764
76 804 804
76 792 828
76 768 840
72 756 856
72 744 860
184 700 184
180 700 184
184 700 184
180 700 196
180 704 240
184 704 296
188 704 364
188 712 432
156 744 516
124 776 604
108 800 680
92 816 740
84 828 800
72 836 832
76 824 844
76 812 860
76 800 860
188 712 184
184 712 184
188 712 184
188 720 208
188 716 244
184 720 296
188 724 364
184 724 424
160 760 508
136 788 596
112 812 676
96 828 724
92 840 788
76 856 824
80 856 848
76 848 864
76 840 864
188 732 188
188 732 188
188 732 188
188 728 204
192 732 248
188 736 304
184 732 364
192 736 436
168 768 512
140 796 592
116 824 664
104 840 724
96 848 776
80 864 812
76 868 848
72 868 864
72 864 864
188 732 188
188 732 188
188 732 196
188 736 216
192 732 256
188 736 324
192 732 388
192 736 444
168 768 512
144 788 588
116 820 648
104 836 712
96 848 764
80 864 800
76 868 836
72 872 852
72 872 864
136 88 84
128 80 100
136 80 120
132 84 156
132 80 200
132 80 256
124 76 316
116 76 388
100 72 460
100 76 532
96 76 604
84 80 648
84 76 696
80 76 724
76 76 756
76 72 780
76 72 780
140 92 84
136 100 96
136 92 124
148 96 164
140 88 208
124 88 260
120 84 316
112 80 392
104 84 476
100 80 548
92 80 620
84 76 672
84 76 712
80 76 752
76 72 776
76 76 792
