滤镜资源/vsco 137 3dl+cube/VSCO 137 3dl/VSCO S1 Clean.3dl
#Generated by Picture Instruments - Look Converter
3DMESH
Mesh 4 10
0 64 128 192 256 320 384 448 512 576 640 704 768 832 896 960 1023
164 104 132
164 108 156
172 104 180
160 96 220
164 92 276
144 88 352
140 80 436
140 68 504
128 60 568
124 56 636
108 52 688
104 48 740
100 44 788
92 40 848
96 36 892
80 24 948
72 16 1004
168 136 136
168 132 160
172 132 184
164 128 216
164 124 260
144 120 324
136 112 416
132 100 492
120 100 560
120 88 616
108 84 672
104 80 720
108 64 760
96 68 820
96 60 860
84 56 908
80 48 960
168 164 136
168 168 156
168 168 180
164 164 212
160 160 252
152 156 320
140 156 404
132 144 472
124 140 544
124 136 604
116 132 648
104 124 700
112 108 748
96 112 796
100 108 844
92 104 888
84 100 940
172 232 140
168 228 164
172 220 184
160 220 216
164 220 272
148 216 336
140 212 416
140 204 488
124 200 552
124 188 612
116 192 664
112 188 724
108 176 764
100 172 812
96 168 860
92 168 904
80 160 952
168 308 140
168 308 160
176 300 192
164 300 232
164 288 276
152 292 356
144 288 432
144 284 504
132 288 576
132 276 632
116 268 684
108 260 736
112 256 796
96 252 848
96 244 892
88 244 940
80 236 1000
176 400 140
176 388 160
180 384 192
172 388 240
172 384 292
164 380 368
156 384 448
160 376 516
144 368 588
140 364 652
132 356 708
124 352 760
124 352 804
112 348 856
112 336 912
100 336 964
96 336 1008
184 472 156
184 476 176
192 472 208
180 472 248
176 468 304
172 468 384
168 464 460
168 460 540
156 460 612
152 448 656
144 452 720
132 448 776
136 440 824
124 444 880
124 436 928
116 428 972
116 428 1008
196 548 160
192 548 172
188 548 200
180 548 256
188 548 312
180 544 388
176 544 468
172 540 540
160 540 604
160 536 668
152 536 724
140 532 776
144 528 824
132 524 880
128 520 928
116 520 972
132 508 1008
192 612 152
192 612 180
192 608 208
180 612 248
188 612 312
180 612 388
176 612 472
172 608 536
160 608 608
164 600 668
152 600 728
144 596 780
144 592 832
136 592 880
132 584 932
128 584 980
136 580 1012
192 672 160
184 672 176
188 672 208
180 676 252
184 668 308
180 668 388
172 668 468
176 668 540
164 668 608
168 660 672
156 660 728
148 664 784
148 656 824
132 656 880
132 648 932
128 644 980
132 644 1008
188 724 156
188 724 176
188 720 204
180 720 248
180 716 308
172 720 384
168 724 460
168 720 536
160 724 604
156 716 664
156 716 728
144 716 780
144 708 828
132 704 880
132 704 932
120 700 976
136 696 1012
188 772 148
184 776 176
184 772 200
176 772 244
184 772 300
176 768 368
164 776 456
164 772 532
156 776 600
160 768 664
152 768 716
140 764 768
140 760 820
132 760 876
128 756 916
124 752 968
132 748 1008
184 820 156
180 820 172
184 820 196
168 824 240
176 816 300
172 812 372
160 820 452
164 820 528
152 820 592
152 820 656
152 816 720
140 816 772
140 808 820
128 812 872
132 808 920
124 808 972
124 804 1008
180 864 144
172 872 168
176 868 200
168 860 232
172 868 292
168 864 380
156 872 452
160 872 524
152 868 592
148 864 652
148 868 708
136 864 760
136 864 816
124 860 868
124 860 912
116 860 976
116 856 1008
172 916 152
168 924 164
176 920 192
164 924 236
168 912 288
160 912 368
156 924 440
160 920 516
144 928 588
148 920 648
136 912 708
132 920 760
132 916 808
120 912 856
120 908 912
112 912 956
112 908 1008
168 968 144
168 972 164
172 968 192
164 972 236
164 968 284
160 968 364
152 972 440
152 972 508
144 972 588
144 972 640
140 972 708
128 972 756
128 968 800
120 968 856
116 968 908
116 964 964
108 964 1012
168 996 136
168 1012 160
172 1000 188
160 1012 228
164 1004 284
160 988 368
156 992 444
160 992 520
152 996 596
152 992 644
144 996 700
128 1012 748
128 1000 800
120 1012 848
116 1000 900
128 996 956
108 996 996
192 104 132
188 108 160
192 108 184
192 100 220
188 100 272
180 88 348
172 84 436
168 72 504
164 68 576
156 60 636
144 56 684
132 52 740
128 48 784
124 44 836
120 40 880
120 28 936
112 20 984
192 136 140
192 136 156
188 132 188
180 128 224
180 124 276
172 120 356
164 108 432
164 100 504
156 96 564
148 84 624
140 84 684
136 76 744
132 72 784
124 64 836
120 56 892
108 52 944
108 40 996
192 168 132
184 172 152
184 172 184
176 172 220
176 160 268
172 156 336
160 148 408
156 140 488
152 140 556
148 136 620
136 124 672
140 120 724
124 108 776
120 108 832
116 100 888
112 92 936
104 92 984
192 228 132
184 228 152
184 232 180
188 228 220
184 224 280
172 216 344
168 204 416
160 204 500
152 196 560
152 192 620
144 192 680
132 188 732
132 168 780
124 168 832
116 160 880
116 156 944
104 152 988
196 300 136
196 308 160
196 300 192
192 300 232
192 292 292
184 296 352
172 296 436
168 284 512
164 284 580
160 276 636
156 268 692
140 264 748
132 260 800
128 252 848
124 240 908
116 244 952
116 240 1008
200 384 136
204 384 164
200 396 192
200 384 236
200 384 296
192 380 364
184 380 444
188 380 524
180 368 588
168 372 648
168 368 708
156 356 756
152 352 800
148 348 856
140 344 908
136 340 968
132 332 1012
216 476 148
212 476 172
216 472 200
212 468 248
212 472 304
208 472 384
200 464 464
192 464 524
192 464 596
184 456 668
176 448 716
172 444 776
168 440 820
156 436 872
156 436 924
148 432 984
148 424 1012
220 552 148
216 548 172
216 552 204
216 548 252
212 544 308
208 544 384
208 540 468
200 544 540
192 536 616
188 532 672
184 528 728
172 528 776
168 520 824
160 520 884
160 524 936
148 512 992
156 508 1008
220 612 152
224 612 172
220 612 212
220 612 256
216 608 308
208 616 380
208 612 468
196 612 532
200 608 608
192 608 668
180 600 724
180 600 780
172 596 828
172 588 884
160 584 932
156 588 984
168 584 1012
216 676 148
216 672 176
220 672 204
216 668 252
212 672 308
208 668 384
204 668 464
200 668 540
196 664 604
192 664 664
184 664 724
180 660 780
172 656 828
164 656 884
160 648 928
156 644 984
168 640 1012
216 724 144
208 720 172
208 724 204
216 716 248
208 724 308
200 720 380
200 724 460
196 720 532
188 716 604
188 720 664
188 716 720
172 712 772
168 712 824
168 708 880
156 704 928
156 700 980
160 696 1008
208 776 144
208 764 168
212 768 204
204 772 244
200 768 304
196 768 384
196 776 460
196 768 536
184 772 608
184 768 660
176 768 720
180 764 776
164 764 820
160 760 876
156 752 928
152 752 980
160 744 1008
204 820 140
208 820 168
212 816 196
204 820 240
204 816 296
200 820 368
192 820 452
188 820 528
188 816 596
172 820 652
176 816 712
172 812 764
168 816 816
156 812 872
156 808 924
148 800 972
156 796 1008
196 868 132
200 864 168
204 864 200
200 864 240
196 868 296
196 868 368
196 868 448
184 872 524
180 868 588
176 864 652
172 868 712
168 868 764
156 864 816
156 860 864
148 860 916
148 856 968
152 852 1008
200 920 132
196 920 164
196 916 192
196 916 232
196 912 292
188 920 368
184 920 448
184 920 524
176 920 584
172 920 648
164 920 704
160 912 756
164 916 812
156 916 864
148 908 916
140 912 960
140 904 1012
200 968 132
196 968 160
196 972 188
192 968 236
196 972 292
188 968 360
180 968 444
184 968 512
180 972 580
172 976 648
164 968 696
156 972 752
156 968 804
156 968 852
148 964 904
152 964 960
140 960 1012
200 1008 132
188 1012 152
192 1008 188
192 1008 228
192 1012 284
188 996 360
184 996 444
184 992 516
180 996 580
172 992 652
164 1012 692
156 1012 752
156 1012 796
152 1012 852
148 1012 904
148 1000 948
140 996 996
224 108 140
224 104 152
220 108 180
228 104 216
224 104 272
228 92 340
224 88 420
212 76 504
204 68 572
204 60 640
188 64 672
180 56 720
180 48 764
180 48 820
168 44 868
168 32 920
164 24 964
224 132 140
228 128 156
228 128 188
232 128 224
228 124 284
216 124 348
212 112 424
204 108 500
200 100 564
192 92 628
188 84 688
184 80 740
180 72 792
172 64 848
168 56 896
156 52 952
156 48 1004
224 164 136
220 168 148
228 172 184
228 172 220
216 164 280
216 160 356
208 156 428
200 144 496
200 140 568
188 136 624
184 124 680
180 116 736
176 112 792
168 104 836
160 96 888
152 92 944
148 88 992
220 220 132
224 224 140
216 228 176
224 228 224
224 224 272
216 220 344
212 216 424
204 204 496
200 196 560
192 192 624
184 196 680
176 180 728
176 172 780
172 168 832
160 164 884
152 156 948
152 148 996
236 296 132
232 304 152
232 296 192
228 304 232
232 300 284
224 296 352
220 292 436
212 280 508
204 280 576
200 276 640
192 268 692
188 268 736
184 268 792
176 248 840
172 240 896
168 244 956
160 236 1000
236 384 132
240 384 156
236 392 192
240 388 240
244 380 300
240 376 372
236 376 448
224 372 524
224 368 600
212 368 652
208 360 708
204 352 756
196 348 808
184 344 852
188 336 916
180 332 968
172 332 1004
248 468 140
252 468 164
252 472 200
260 476 244
252 472 304
248 464 380
244 460 456
236 468 536
232 460 596
232 452 656
224 452 716
212 448 768
208 440 820
204 440 868
200 432 924
192 432 972
196 424 1008
252 544 140
252 544 168
248 544 204
256 548 248
256 548 316
252 540 388
252 540 468
248 544 540
240 540 604
236 532 664
228 532 728
220 524 776
216 524 828
216 520 880
208 516 924
200 516 984
204 504 1012
256 608 148
252 612 172
256 608 212
260 612 252
256 608 316
252 612 388
252 612 464
244 608 536
244 604 608
236 604 680
228 596 728
224 592 780
220 588 832
220 588 880
208 584 928
200 584 988
204 580 1008
252 672 148
252 668 164
256 668 200
252 664 244
256 668 304
252 664 384
244 668 460
244 664 536
240 664 604
232 660 668
228 660 724
228 656 776
220 652 816
204 648 876
204 648 928
204 644 984
212 636 1008
244 724 144
252 716 168
248 716 200
256 716 252
248 716 304
244 720 376
244 716 460
236 724 536
236 720 604
228 712 664
224 712 716
224 708 768
216 708 824
216 704 876
208 704 932
196 704 976
208 696 1008
240 768 144
244 764 168
248 764 200
252 768 240
244 772 308
240 768 372
240 772 460
236 768 528
232 772 596
228 764 664
220 768 720
220 764 772
212 764 820
208 756 868
200 756 920
200 756 976
204 748 1008
240 816 136
244 812 168
240 812 196
248 812 236
240 816 304
240 816 376
236 816 452
232 816 532
228 816 592
220 816 656
224 812 720
216 816 764
212 812 820
208 812 872
200 800 920
192 800 972
196 796 1008
240 864 136
236 860 152
240 860 188
248 860 236
236 868 296
240 864 368
236 864 444
232 868 520
228 864 584
224 868 652
216 860 708
212 860 760
204 860 804
204 856 860
196 860 912
192 856 968
192 844 1012
236 912 136
232 916 160
232 912 192
236 916 236
244 912 296
236 916 368
232 916 448
224 916 516
224 920 592
212 912 648
216 912 712
212 920 760
208 912 804
208 912 860
200 912 912
188 908 960
184 908 1008
236 964 132
228 960 156
232 968 192
236 964 236
232 960 288
232 960 364
228 968 444
224 968 524
220 968 588
216 964 652
208 968 700
204 964 756
200 964 804
200 964 856
196 960 912
192 960 964
184 960 1000
236 1004 132
228 1004 152
228 1004 188
236 1008 232
228 1008 284
232 992 364
228 992 444
228 996 524
216 992 584
216 992 648
204 1012 696
204 1012 752
196 1012 804
196 1008 852
192 1008 904
192 1000 956
184 1000 996
280 108 140
272 108 156
276 104 184
276 104 228
284 104 276
284 100 344
280 88 432
276 84 512
264 80 572
264 68 632
252 64 676
244 64 724
240 60 776
240 52 816
228 48 868
232 40 932
228 32 972
272 136 136
284 128 152
284 128 192
280 128 232
288 128 288
276 128 352
272 116 428
268 112 500
260 108 572
256 100 628
252 88 688
244 84 736
240 76 788
232 72 836
232 64 892
224 64 948
