滤镜资源/vsco 137 3dl+cube/VSCO 137 3dl/VSCOX KP1 Kodak Portra 160.3dl
#Generated by Picture Instruments - Look Converter
3DMESH
Mesh 4 10
0 64 128 192 256 320 384 448 512 576 640 704 768 832 896 960 1023
32 4 0
28 4 4
44 8 40
36 12 100
48 20 188
44 40 292
52 68 412
68 96 500
64 124 576
80 168 628
88 208 684
100 256 724
112 300 764
128 376 804
156 456 832
196 556 880
244 640 908
28 12 0
32 16 0
44 20 32
36 24 88
48 28 172
44 56 288
52 80 388
64 112 500
72 148 588
84 180 632
88 220 684
100 268 728
120 320 768
132 396 820
160 476 844
196 564 884
252 648 908
36 32 0
40 36 8
48 36 36
48 44 96
52 60 180
44 84 280
56 112 408
72 148 508
76 184 588
88 228 648
100 264 704
104 304 744
120 364 780
144 436 828
168 512 860
208 596 892
268 668 908
40 88 16
36 88 32
48 88 48
44 100 96
56 116 180
56 140 296
64 176 416
72 216 516
76 252 600
96 292 660
108 328 712
112 376 768
136 424 804
152 484 848
184 556 876
228 624 904
284 692 920
40 172 48
44 180 60
56 172 72
48 192 112
60 196 188
60 224 288
64 260 412
76 288 512
84 336 604
100 372 684
108 404 736
124 444 776
144 488 816
160 540 852
200 604 884
244 664 908
304 724 916
28 284 92
36 280 96
52 288 104
48 300 144
60 308 212
68 332 312
72 356 420
84 384 528
96 420 632
108 452 700
116 484 756
140 516 804
160 552 832
180 600 872
224 648 896
276 700 912
340 748 936
28 384 132
32 392 136
56 392 144
52 400 176
64 408 232
72 428 332
80 448 444
96 476 552
104 504 648
124 524 712
140 552 768
152 584 816
184 616 852
212 664 888
256 692 904
304 732 920
364 768 928
32 468 160
24 476 168
48 480 176
48 488 200
68 500 252
76 508 336
80 524 440
104 544 552
112 564 644
136 588 712
156 612 780
168 636 820
204 660 856
232 692 888
276 728 908
328 760 924
392 792 936
24 536 188
24 548 192
48 552 196
48 556 224
68 564 264
80 576 352
96 596 460
120 604 552
132 620 652
152 644 724
176 660 784
192 692 828
228 708 860
256 728 896
300 756 912
364 784 924
424 812 932
24 580 208
24 592 208
44 596 212
56 608 236
72 608 272
88 620 360
104 636 456
128 648 564
148 668 652
172 688 728
196 704 784
224 724 836
256 740 868
288 760 896
336 780 916
388 804 928
452 824 936
28 616 220
28 628 216
48 640 224
56 648 244
84 656 280
104 664 360
124 676 456
148 692 560
172 708 656
196 724 728
224 744 796
252 756 832
280 768 864
316 788 896
380 804 924
432 824 928
492 836 940
28 656 228
28 660 224
56 668 228
64 680 252
92 684 288
120 696 360
152 712 460
180 724 560
196 740 644
224 752 716
260 768 784
284 780 828
324 792 864
360 808 900
408 816 916
468 840 936
528 852 936
36 684 236
44 692 232
64 696 236
84 708 256
120 716 296
144 724 364
176 744 460
204 752 556
236 768 644
276 784 724
304 800 784
332 812 832
368 820 864
404 836 896
460 844 920
512 856 928
568 868 940
60 712 236
60 716 240
84 724 236
104 732 256
148 744 288
184 756 376
228 772 464
264 784 548
284 800 644
320 812 716
356 824 776
388 836 828
428 844 860
460 856 896
508 868 920
560 880 932
616 884 940
92 736 240
108 748 236
136 756 236
168 760 256
204 768 296
244 780 364
288 800 448
328 808 540
364 824 640
396 836 704
432 848 768
460 856 816
496 872 856
528 876 896
584 884 916
624 896 928
672 896 940
164 764 228
172 772 224
216 776 228
248 788 252
292 800 296
340 812 380
376 828 460
420 840 552
452 856 640
488 864 712
516 872 776
544 884 816
584 888 856
620 900 892
652 904 912
688 908 936
732 920 944
272 792 212
288 804 212
328 808 216
360 820 252
408 828 312
448 840 392
484 852 480
532 864 584
556 876 656
584 884 724
608 892 776
632 896 820
656 904 856
684 916 896
716 916 916
748 920 936
780 924 944
36 0 0
36 4 8
40 12 36
44 16 104
44 24 196
48 40 308
52 64 424
64 96 512
76 132 584
84 168 644
96 204 680
112 252 724
120 304 756
136 380 800
168 456 840
204 552 876
260 632 904
36 16 0
36 20 4
44 16 32
40 28 92
48 36 200
56 60 316
64 88 428
72 116 520
84 148 584
92 184 648
100 232 700
112 280 732
128 332 776
144 400 820
172 480 848
208 572 880
272 652 912
48 32 4
44 40 12
44 40 44
56 52 104
52 64 184
56 88 292
68 116 404
76 152 512
88 192 596
96 228 660
108 268 708
116 312 744
132 372 784
148 428 820
180 516 864
220 592 888
288 668 912
48 92 24
48 92 28
44 96 48
56 104 104
60 120 188
60 144 300
72 168 404
80 216 524
92 252 604
104 292 668
116 336 724
124 376 764
144 416 796
160 488 844
196 556 876
244 632 900
304 692 916
44 176 52
48 184 56
56 184 80
56 184 116
64 200 196
68 232 300
80 268 432
88 296 536
100 344 628
112 372 684
124 404 740
136 448 784
160 496 824
184 552 860
212 608 888
264 668 908
324 724 916
36 284 88
40 284 96
52 296 112
60 300 148
68 316 224
72 320 312
84 356 424
92 388 540
108 420 628
124 460 700
140 488 752
144 520 792
168 552 832
200 596 868
236 652 896
292 700 912
356 752 932
36 392 136
40 400 136
48 400 144
60 408 184
68 412 240
80 432 336
92 456 448
100 472 548
116 504 636
140 532 720
152 560 772
168 592 816
196 616 852
224 652 880
260 688 908
316 732 920
388 772 936
28 468 160
32 476 164
48 484 176
60 492 208
68 500 256
84 512 344
100 532 456
120 548 564
136 576 668
152 596 728
172 616 776
188 640 824
212 668 860
248 700 884
296 732 908
348 764 924
408 792 928
28 540 180
32 544 188
44 556 204
60 564 228
72 568 268
92 576 352
104 592 452
128 608 556
144 628 652
164 652 720
188 668 784
212 688 824
240 708 864
268 736 892
320 760 912
376 784 924
444 812 936
28 584 200
28 588 208
48 600 212
64 608 232
80 616 276
100 624 360
120 644 456
144 656 564
160 668 648
184 688 720
208 708 784
236 724 832
276 744 864
312 768 896
348 780 916
404 808 928
480 824 936
24 624 216
32 632 216
48 644 224
68 652 244
92 660 280
112 668 360
140 680 460
164 696 564
188 712 656
212 728 728
248 744 792
264 756 828
300 776 860
344 792 896
392 804 920
444 828 932
504 844 940
32 660 220
36 664 228
56 672 232
76 684 252
108 688 292
132 704 368
168 712 468
188 728 560
212 744 652
248 760 724
280 772 788
312 788 836
344 804 872
376 808 896
428 828 916
488 840 936
548 860 936
44 684 232
48 692 228
76 704 236
100 712 260
128 720 288
164 728 356
188 740 452
232 760 556
264 772 648
288 788 712
316 800 784
348 812 824
388 824 860
432 836 896
476 848 916
520 860 936
580 872 944
60 716 240
72 716 236
96 728 232
132 740 256
168 748 296
200 760 360
236 772 448
276 784 552
312 800 648
344 812 720
372 828 776
412 840 824
444 848 864
488 856 896
528 864 916
576 880 936
624 888 944
96 740 220
124 748 228
140 752 236
184 760 248
220 776 292
268 784 364
308 804 468
352 820 556
384 828 636
420 844 716
452 852 772
480 860 820
516 868 864
556 880 900
588 888 916
636 896 936
680 896 944
168 768 216
184 772 216
228 784 220
276 796 244
324 808 300
352 816 372
392 832 456
432 840 552
464 856 636
516 868 720
528 872 772
560 884 812
592 892 852
628 900 896
660 904 920
704 916 936
728 916 944
284 800 200
300 804 204
340 816 220
380 824 244
420 832 304
460 844 388
504 856 484
544 868 576
564 876 652
592 888 724
624 896 780
640 900 816
668 908 852
696 912 896
728 924 920
752 924 932
784 924 948
44 8 0
48 4 0
48 12 44
60 20 112
56 28 204
64 48 316
72 72 420
84 104 528
96 132 592
108 172 648
124 208 684
132 248 720
144 304 752
172 380 800
200 464 840
240 552 876
300 640 904
48 24 0
48 20 4
56 24 40
56 28 112
68 44 212
68 64 324
80 92 432
88 120 528
104 156 596
112 188 652
120 228 696
140 276 732
152 328 772
176 396 812
208 484 852
248 572 888
308 652 904
56 44 0
60 40 12
60 48 44
64 52 104
68 72 200
76 92 324
88 124 440
100 156 528
112 196 612
116 232 660
132 268 704
144 320 752
168 380 788
188 444 828
216 512 852
256 592 888
316 668 904
56 96 20
60 96 28
64 104 56
68 112 112
80 128 200
88 152 308
100 176 424
108 212 532
116 248 608
132 296 672
144 336 728
152 372 752
176 428 796
196 484 836
232 556 872
280 628 896
340 692 912
56 180 52
64 188 60
68 192 80
76 200 124
96 216 216
96 236 316
108 268 436
120 296 540
128 336 624
144 376 688
160 412 744
176 456 780
196 504 816
216 540 848
248 608 876
304 668 908
364 724 924
56 292 92
56 296 96
68 308 116
80 308 152
92 308 224
100 332 332
116 364 444
128 396 556
148 424 644
160 460 704
168 488 756
192 520 800
204 560 832
244 612 872
280 660 892
328 700 912
384 748 920
44 392 128
52 400 136
68 404 144
84 416 184
100 416 240
112 440 344
120 452 444
136 480 556
156 508 644
172 536 708
192 564 776
212 592 808
228 616 840
264 652 876
304 696 900
356 732 920
420 772 928
52 480 160
48 484 164
68 492 184
84 492 196
96 504 260
116 516 348
132 532 460
156 556 572
164 576 652
192 596 716
208 624 784
228 648 828
256 668 852
296 696 892
328 732 904
380 764 924
452 796 932
40 548 184
48 548 188
64 560 200
84 564 216
112 576 276
124 584 360
148 604 464
164 620 572
188 632 656
208 652 728
232 676 792
256 688 824
284 716 864
324 736 892
364 764 912
420 788 928
480 812 932
44 596 204
48 596 200
68 604 216
84 608 232
116 620 276
136 628 352
160 648 452
180 660 564
204 672 652
232 692 724
256 708 788
288 724 828
312 740 860
348 764 896
388 788 908
448 808 928
512 824 936
44 636 212
48 636 216
72 644 224
100 656 236
120 664 280
152 676 352
184 684 460
208 700 568
236 716 652
256 728 720
284 740 788
312 756 824
344 776 864
384 792 896
428 812 916
476 828 932
540 840 932
44 664 216
56 668 224
76 676 228
108 684 244
140 696 284
168 708 356
204 716 456
236 736 568
260 748 648
292 764 724
320 772 780
356 792 832
380 800 868
424 820 896
468 828 916
516 848 932
572 860 940
60 692 224
76 700 224
96 700 232
128 716 248
168 728 288
208 740 368
240 752 460
272 764 556
300 776 648
332 792 716
360 808 776
396 820 828
432 828 864
476 840 904
508 848 920
556 864 928
612 872 936
84 716 220
100 724 228
128 732 232
168 744 244
208 756 288
240 764 360
280 776 444
320 792 544
356 808 648
388 824 720
412 828 776
444 840 816
484 852 860
516 864 888
564 868 912
608 880 932
648 888 940
132 744 220
140 748 216
176 756 224
220 772 244
268 784 292
308 792 356
356 804 452
384 820 544
424 836 640
456 844 708
488 860 776
520 868 824
552 876 856
588 880 892
624 892 920
664 896 932
700 904 936
208 772 204
224 784 204
276 796 220
300 800 240
352 812 288
388 824 364
440 836 464
476 852 556
516 860 652
540 868 720
568 880 776
596 884 816
624 896 860
656 900 888
688 912 924
720 916 936
744 916 944
324 804 184
344 812 196
372 820 212
420 828 248
464 844 300
500 848 396
544 860 500
576 872 580
600 884 660
628 892 728
648 896 776
668 904 816
700 908 864
720 920 892
744 920 916
768 928 936
796 928 944
72 8 0
72 12 8
76 16 44
84 20 112
88 32 216
100 52 328
112 72 436
120 108 524
132 136 592
144 172 648
168 208 688
176 252 720
192 304 756
216 372 792
244 460 828
284 552 864
348 644 892
72 20 0
76 24 8
84 28 44
88 36 120
100 48 224
104 64 328
116 92 436
128 120 528
136 160 600
156 192 656
172 232 700
176 268 728
200 324 772
216 396 808
264 484 840
296 576 876
