滤镜资源/vsco 137 3dl+cube/VSCO 137 3dl/VSCO P1 Instant.3dl
#Generated by Picture Instruments - Look Converter
3DMESH
Mesh 4 10
0 64 128 192 256 320 384 448 512 576 640 704 768 832 896 960 1023
28 212 232
24 208 228
32 200 236
12 196 248
24 184 264
8 200 296
8 204 324
28 212 352
24 224 384
48 240 416
48 264 456
52 300 508
48 332 548
56 356 588
100 368 600
136 364 604
136 360 604
20 216 228
20 212 236
28 204 236
8 196 252
24 192 268
12 204 288
8 212 316
32 216 356
24 228 384
44 248 416
52 268 456
52 304 496
64 336 544
76 368 592
104 372 596
140 368 600
140 368 600
12 216 224
12 212 232
28 212 236
4 200 244
24 200 268
12 212 288
4 216 320
28 228 344
28 244 384
48 260 416
56 288 460
64 316 504
88 356 548
116 388 584
148 396 604
172 396 608
168 396 608
8 220 220
0 220 228
24 212 236
0 216 244
24 212 268
16 220 292
12 236 320
28 244 348
28 260 384
48 280 420
60 308 456
92 348 508
152 392 548
196 424 592
244 448 616
248 452 620
248 452 620
8 232 224
0 232 232
20 228 236
4 232 256
24 228 264
12 236 284
12 252 316
32 260 344
28 284 384
48 300 420
64 324 456
92 364 504
168 420 552
256 464 596
316 504 624
348 516 636
348 516 636
8 248 224
0 252 236
20 248 236
8 252 252
28 248 272
16 252 292
16 268 316
28 280 348
28 296 388
40 320 420
60 348 460
92 384 504
160 436 548
260 492 600
352 536 632
388 548 636
384 552 644
8 264 232
4 268 236
24 272 244
8 276 264
24 272 276
16 272 300
16 280 324
32 296 352
32 320 396
44 340 428
52 364 464
84 400 500
140 448 548
228 496 592
304 532 620
344 552 632
340 552 632
8 296 232
4 296 244
24 304 248
20 304 268
28 300 280
20 296 304
20 312 324
40 320 356
40 344 392
48 360 428
48 388 460
60 416 504
108 448 540
176 488 580
236 524 600
268 544 616
272 540 616
12 328 248
0 332 256
20 332 256
8 336 276
28 332 288
20 336 312
16 344 336
36 352 360
40 368 400
40 384 432
36 404 468
52 432 508
92 468 536
152 504 576
212 528 596
240 548 608
240 548 608
12 384 260
0 376 264
24 376 272
16 380 288
28 376 300
24 372 324
20 384 348
36 388 376
32 404 416
32 416 440
36 432 476
44 460 512
96 488 544
164 532 584
224 556 600
248 568 620
248 572 620
20 436 284
4 436 280
24 440 292
16 428 304
28 424 316
20 428 340
8 428 364
32 432 396
28 444 424
40 464 456
44 472 484
64 504 524
116 532 556
184 564 588
244 584 612
260 596 616
260 600 616
20 488 300
0 488 300
28 488 300
16 484 316
28 480 336
20 464 352
12 476 384
32 480 400
32 488 428
48 504 468
64 516 496
88 536 532
148 568 564
204 596 596
248 612 612
272 620 632
268 620 624
16 520 312
0 524 316
28 520 312
16 516 332
32 508 344
24 504 360
12 508 392
28 512 412
40 524 448
68 536 476
88 556 508
120 572 540
168 592 572
212 616 600
252 628 616
272 636 624
268 636 624
16 536 312
0 536 316
20 540 324
16 536 336
32 528 356
28 520 368
16 524 392
36 532 416
44 540 452
80 560 480
112 568 516
140 588 548
192 604 576
216 628 600
256 640 620
268 644 628
268 644 628
20 540 316
0 544 320
20 544 324
12 544 340
36 532 352
28 528 372
20 528 400
40 536 420
48 552 456
80 560 480
116 576 516
140 596 548
184 608 576
216 628 600
256 640 620
268 644 628
268 644 628
20 540 316
0 544 316
20 544 324
12 544 340
36 532 352
28 528 372
20 528 400
40 536 420
48 552 456
84 564 484
120 580 516
148 592 548
184 608 576
224 632 604
256 640 620
268 644 628
268 644 632
20 540 316
0 544 316
20 544 324
12 544 340
36 532 352
28 528 372
20 528 400
40 536 420
48 548 456
84 560 484
116 576 512
140 592 548
184 608 576
224 632 604
256 640 620
268 644 628
268 644 628
44 224 232
40 216 236
36 212 236
28 200 252
28 204 276
28 212 304
28 220 332
40 228 356
48 244 396
76 264 432
100 296 476
96 324 516
108 364 564
120 384 600
148 384 604
168 376 612
176 372 612
32 220 228
36 220 240
28 216 236
28 208 260
24 204 276
28 212 300
32 224 328
48 236 364
52 248 400
72 268 436
92 300 480
120 332 520
124 368 564
140 388 600
164 388 608
176 388 612
184 388 616
24 224 228
28 224 240
24 216 236
24 212 256
28 216 276
24 220 292
28 232 324
40 240 348
60 264 396
64 284 428
84 304 472
124 340 516
152 376 564
180 404 592
200 416 612
212 416 616
212 416 616
16 232 228
12 228 228
20 228 236
20 224 252
28 224 268
28 236 300
32 244 328
44 260 352
60 280 400
64 296 424
92 324 468
124 364 516
180 404 560
244 444 600
284 468 620
292 468 628
300 468 628
12 240 224
12 240 228
20 240 236
24 240 256
32 240 272
32 252 296
36 264 324
44 280 360
52 296 396
60 316 428
80 348 476
128 376 512
212 436 568
304 480 604
352 508 632
380 524 640
380 524 644
8 256 224
12 260 232
20 260 248
24 260 256
32 264 276
32 264 292
32 272 320
36 292 356
56 316 388
60 332 428
76 364 468
120 396 512
188 440 552
276 496 600
364 536 628
400 556 644
404 556 644
4 276 232
16 276 240
20 280 248
28 284 264
36 280 276
36 288 304
40 296 332
40 308 352
52 332 396
64 356 432
80 384 472
104 416 512
168 460 552
240 496 588
316 532 620
352 552 636
356 552 636
4 304 232
16 304 240
28 308 252
36 316 272
32 316 292
40 312 308
40 328 336
60 340 368
68 364 400
76 384 440
76 396 472
96 424 512
144 464 548
212 504 580
268 532 612
292 544 616
292 544 616
12 336 252
16 340 256
32 344 264
36 352 288
44 348 292
44 356 324
40 360 340
60 372 368
64 388 404
68 408 444
76 424 476
92 448 516
132 480 548
196 512 576
248 544 604
272 560 612
272 560 612
20 392 268
24 388 268
32 396 284
40 396 300
44 392 308
40 396 332
44 404 356
56 412 388
64 428 420
68 440 452
68 456 484
92 476 516
144 512 552
208 548 584
256 568 608
276 580 616
280 580 624
32 444 280
36 448 284
44 444 292
44 452 316
44 448 328
40 440 344
48 444 364
56 456 400
60 468 436
72 484 464
92 500 492
108 520 532
156 544 556
224 580 592
272 596 616
296 612 624
292 612 624
40 504 300
40 496 300
44 500 312
52 496 320
52 492 340
44 492 356
48 488 384
56 492 412
64 512 440
84 524 468
108 536 504
144 560 540
192 584 572
244 608 604
288 624 620
308 632 636
304 632 628
40 536 312
44 536 320
56 540 320
52 532 332
52 528 352
56 524 364
52 524 388
68 536 424
88 540 452
100 556 480
132 564 512
168 592 540
212 608 572
252 628 608
292 648 624
308 652 628
308 652 628
28 556 316
36 552 316
48 556 328
64 552 340
60 544 356
56 540 380
64 544 396
68 548 424
96 560 456
124 572 496
152 588 520
188 604 552
224 620 580
264 636 608
296 652 620
308 656 628
312 656 628
28 556 320
32 560 320
40 560 328
56 556 340
56 552 360
52 544 376
56 544 400
80 556 432
92 564 456
124 580 500
160 596 528
188 604 548
228 628 580
268 640 612
296 652 624
308 660 628
312 660 628
32 560 320
32 560 328
44 560 328
60 556 336
64 548 360
52 544 372
56 544 396
68 552 424
96 564 456
124 580 500
156 592 524
196 608 548
224 624 576
268 636 608
296 652 628
312 664 632
312 664 632
32 560 320
32 560 328
44 556 328
60 556 336
60 548 356
52 544 372
56 544 396
68 552 424
96 560 456
124 572 496
156 592 524
184 604 548
224 624 576
268 636 608
296 652 628
312 656 624
312 656 628
64 232 232
68 224 232
64 216 244
64 216 256
56 212 280
68 224 304
76 232 340
84 252 372
116 268 408
148 292 452
168 320 480
188 364 532
224 404 576
248 428 608
244 412 620
244 400 624
244 400 616
68 232 240
64 232 236
56 220 244
60 216 260
64 224 284
68 228 304
72 240 336
88 256 376
112 272 408
136 296 452
168 328 488
208 372 540
224 404 576
240 424 608
248 424 620
252 408 620
252 404 620
56 232 228
60 236 232
56 228 244
56 224 256
60 232 284
68 236 304
76 252 336
92 268 368
116 288 404
128 308 440
160 332 480
204 376 536
252 416 580
268 444 608
276 436 624
280 436 620
280 432 620
40 236 228
48 240 236
44 240 240
60 240 260
56 248 280
68 252 304
76 260 328
88 276 368
104 296 400
132 320 440
156 356 480
192 384 524
256 424 568
316 460 604
344 484 628
352 484 632
352 480 636
44 252 232
44 256 236
44 256 240
52 260 264
64 264 284
68 272 308
80 280 336
92 296 364
96 316 396
116 340 440
144 368 484
188 400 520
256 452 568
332 488 604
396 516 636
416 532 648
416 532 648
44 264 232
40 268 240
56 276 248
56 280 260
60 280 284
72 280 308
72 296 336
88 320 364
108 336 404
116 356 444
136 384 484
172 420 520
236 456 568
324 508 600
392 540 636
416 552 644
416 552 644
44 288 240
48 292 244
56 300 260
64 300 268
68 300 288
68 312 308
72 320 328
84 336 360
108 356 400
124 380 436
140 404 476
168 432 520
216 468 560
284 508 588
336 536 620
368 552 636
376 556 636
40 320 240
48 324 248
56 336 256
72 336 276
72 332 292
72 340 316
88 348 344
100 364 372
112 380 400
136 408 452
144 432 484
168 452 520
208 484 556
268 520 596
304 540 608
332 560 628
332 556 624
48 352 252
52 356 256
64 368 276
80 372 288
88 376 308
88 376 324
92 384 348
112 404 384
132 420 420
144 436 448
152 460 492
172 476 524
204 508 560
264 540 592
300 564 608
320 572 624
316 572 624
68 408 268
64 408 268
76 416 284
80 416 296
96 416 316
96 420 336
100 432 360
112 436 392
140 456 420
148 472 460
152 488 496
176 508 532
220 540 560
260 560 588
308 584 612
328 592 628
332 592 624
92 468 284
96 464 284
96 468 300
108 468 312
104 472 332
104 468 348
108 476 376
124 488 404
144 496 440
156 512 472
172 528 500
192 544 536
236 572 572
292 596 600
332 620 616
340 628 624
344 624 624
124 516 300
120 512 296
116 516 312
120 520 328
120 516 340
116 516 364
120 516 388
136 528 420
148 536 452
176 548 488
196 564 520
236 588 548
264 600 580
312 628 604
348 648 624
360 652 636
364 652 636
136 556 312
140 552 320
136 552 324
128 552 340
128 552 356
120 548 376
132 548 400
148 560 432
172 564 460
192 580 496
224 596 528
252 612 556
296 632 588
332 648 616
356 668 628
376 672 636
376 668 636
136 568 316
140 572 316
144 576 328
144 572 340
132 568 360
124 568 380
132 564 404
144 568 428
180 584 464
220 596 504
236 612 532
260 620 556
300 644 592
336 660 612
364 676 628
376 676 640
376 676 636
148 576 320
132 576 320
132 576 328
144 580 344
136 572 364
132 572 384
136 568 408
152 576 436
176 588 464
216 600 504
244 620 536
272 628 564
304 648 596
336 668 612
364 676 628
380 684 636
380 680 636
136 580 320
140 576 324
140 576 328
136 568 344
132 576 364
132 572 384
136 568 408
156 580 440
196 592 464
212 596 500
244 620 536
272 636 560
300 644 588
340 668 612
368 680 632
380 684 636
376 676 636
136 580 320
136 576 324
132 572 328
140 576 344
128 576 364
132 568 384
136 568 408
160 576 440
176 584 464
212 596 500
244 620 536
268 632 560
300 644 588
344 668 612
364 676 628
376 676 636
376 676 632
120 240 232
108 236 240
112 228 240
108 232 260
112 232 284
136 244 316
148 256 348
164 268 376
188 288 420
224 312 456
252 348 500
300 400 548
336 440 588
356 460 616
336 440 628
332 428 628
328 424 628
108 236 236
104 240 240
108 236 248
112 236 268
120 240 288
132 252 316
148 264 344
164 276 384
180 296 416
224 320 464
260 360 500
300 400 544
328 440 588
344 460 612
352 452 632
336 432 632
