滤镜资源/vsco 137 3dl+cube/VSCO 137 3dl/VSCO H4 Polychrome.3dl
#Generated by Picture Instruments - Look Converter
3DMESH
Mesh 4 10
0 64 128 192 256 320 384 448 512 576 640 704 768 832 896 960 1023
60 64 108
68 72 140
72 84 180
76 92 228
88 96 280
80 108 336
84 108 388
96 108 436
92 112 504
100 112 572
88 124 620
88 132 684
96 128 736
92 132 792
100 124 840
100 120 888
100 112 920
64 96 124
68 96 140
68 104 176
72 112 228
76 124 272
76 132 328
80 132 388
88 132 440
88 140 508
88 144 560
92 152 620
88 152 684
96 152 736
92 148 796
104 148 840
100 148 884
100 148 920
72 132 128
64 136 160
76 140 184
68 148 228
80 156 276
76 160 328
72 164 392
84 160 444
84 160 508
84 172 564
88 180 624
88 180 684
96 180 740
96 188 800
100 176 844
100 184 884
96 184 916
68 196 136
64 192 164
76 188 192
68 188 236
76 196 280
76 204 340
76 208 396
84 212 448
84 212 504
88 216 568
88 220 628
84 228 692
96 232 748
96 236 796
96 240 844
96 244 884
96 244 920
68 252 144
68 256 168
76 252 200
68 256 240
76 256 280
80 264 336
72 272 396
80 272 444
76 284 504
88 284 568
88 288 624
84 292 688
96 292 744
92 300 792
100 300 840
104 312 880
100 312 916
80 328 152
72 320 176
76 320 200
72 328 248
80 328 288
76 328 340
76 336 400
84 336 448
84 344 512
88 344 568
88 356 628
84 360 688
96 364 740
92 368 792
100 376 844
104 376 888
100 380 928
76 392 144
72 396 176
84 392 204
80 396 252
84 396 296
76 396 344
72 400 396
84 404 452
80 408 512
88 408 568
88 416 628
84 424 688
96 428 748
96 436 804
100 436 848
100 440 888
100 444 920
76 460 148
80 464 172
80 460 204
76 460 252
80 464 296
80 460 356
80 464 404
80 460 452
84 468 516
84 472 564
88 476 624
84 480 684
96 488 736
96 496 792
100 500 840
96 504 880
96 504 916
88 516 148
80 520 180
92 516 208
84 520 252
88 516 300
80 520 356
84 524 416
84 520 456
80 520 516
88 524 568
88 532 628
84 536 688
96 544 744
92 548 792
104 552 840
96 552 880
96 556 916
80 572 152
80 576 184
88 572 212
80 580 260
88 572 312
84 572 360
84 576 420
88 568 468
84 576 524
88 576 576
88 580 624
80 584 688
92 588 736
92 600 800
100 600 844
104 604 888
100 604 920
88 624 156
84 624 188
92 624 216
84 624 264
92 624 312
88 620 368
88 628 420
92 620 472
84 628 532
88 624 576
88 628 628
84 636 688
92 636 736
92 640 792
104 644 848
104 652 892
96 652 920
92 676 160
88 680 188
92 676 228
84 680 272
88 676 312
88 676 376
88 680 432
92 676 476
88 680 528
92 676 580
88 676 628
88 680 680
96 684 736
92 688 792
96 692 840
104 692 884
96 696 916
96 724 168
92 728 196
96 728 224
88 728 272
96 732 320
96 724 376
92 732 436
92 728 484
92 732 540
96 728 592
96 728 636
92 728 684
96 728 732
92 736 792
100 736 844
100 740 888
100 740 920
92 776 172
92 776 200
92 776 236
88 776 284
96 776 328
92 780 392
92 784 444
96 780 496
92 784 552
96 772 596
96 776 648
92 776 696
100 776 744
92 776 792
100 784 844
100 788 892
100 788 920
96 828 176
92 836 208
104 832 240
96 832 288
96 824 332
96 828 388
96 828 448
104 828 500
96 836 552
100 824 600
104 828 648
96 828 696
100 824 736
96 828 800
100 824 840
100 832 884
100 832 920
100 876 188
100 880 208
104 876 244
100 884 292
104 880 344
104 876 396
100 880 448
108 880 504
96 880 560
108 880 608
104 880 656
100 880 704
104 880 744
100 880 800
104 876 844
108 880 888
100 880 924
104 916 188
100 920 212
104 920 244
96 920 292
104 924 340
104 916 404
100 920 460
108 916 508
100 920 568
108 912 616
104 916 656
100 924 704
104 920 744
100 924 800
104 920 844
108 916 884
104 916 912
80 68 120
76 76 140
84 84 176
80 96 224
92 100 276
96 104 328
100 112 388
100 112 440
108 120 500
108 124 568
108 128 624
104 132 684
108 132 740
104 132 792
108 128 836
120 116 892
116 112 920
76 96 124
80 104 148
80 112 184
88 120 232
92 124 288
96 132 340
96 136 396
100 136 452
96 144 504
104 148 572
112 152 632
108 156 696
104 160 748
96 156 800
112 148 848
112 148 896
112 148 920
80 136 132
76 140 160
84 140 196
84 156 232
88 156 280
96 160 340
84 164 388
92 164 444
96 168 516
96 176 576
100 176 632
96 184 688
100 184 740
100 188 800
108 184 848
104 180 884
104 188 920
84 196 144
76 192 168
76 192 196
80 196 236
84 204 288
88 208 336
84 208 388
88 212 448
92 220 512
88 224 568
92 228 632
96 236 692
100 232 744
100 236 796
100 244 844
104 248 888
104 248 928
84 260 144
80 256 172
80 252 200
80 256 244
84 260 288
84 268 344
80 276 400
88 276 448
88 284 512
88 284 568
96 288 632
92 292 692
100 296 752
104 300 800
104 304 844
104 308 888
104 312 920
84 328 148
84 324 168
84 328 208
80 324 244
80 328 292
84 328 344
84 340 400
88 340 448
96 344 512
92 352 568
92 360 632
92 360 688
100 368 744
104 372 792
100 376 844
108 376 888
104 380 928
84 400 152
88 400 176
84 392 208
84 396 252
88 396 300
84 404 352
80 404 400
84 404 452
92 408 512
88 416 568
96 420 628
96 428 692
96 428 748
100 432 792
100 436 840
108 444 888
104 444 924
84 464 144
88 464 176
88 464 208
84 464 256
84 464 300
88 464 352
88 464 408
88 464 456
92 468 520
88 472 576
92 476 632
92 484 688
100 488 748
100 492 796
104 500 848
108 500 888
104 504 920
92 520 152
92 524 180
88 524 212
88 520 256
88 524 308
92 528 360
88 524 412
88 524 464
88 520 512
88 528 576
96 532 628
96 536 688
100 540 736
100 548 792
104 552 840
104 560 888
104 564 920
88 576 152
88 576 180
92 576 220
88 576 260
88 572 308
92 576 364
88 580 424
92 580 476
88 580 528
88 576 572
96 584 624
92 588 684
96 596 736
104 600 804
100 600 840
108 608 884
108 608 924
96 628 152
96 628 184
92 628 224
96 632 268
92 632 320
92 632 372
92 632 424
96 632 480
92 632 532
96 632 584
96 636 636
92 636 680
96 640 744
100 644 796
108 648 848
104 652 888
104 652 924
96 680 160
92 676 184
92 676 224
92 680 276
92 676 328
96 680 376
92 676 432
96 680 484
96 676 532
96 680 588
92 676 640
92 684 688
96 688 748
104 688 800
104 692 844
104 696 892
104 696 916
96 732 168
100 728 196
100 732 236
100 732 276
96 728 324
96 732 384
96 728 436
100 728 492
100 732 548
100 732 592
100 728 636
100 732 688
96 732 740
100 736 796
104 740 848
108 744 888
104 744 920
96 780 168
96 784 200
100 780 236
100 784 284
100 780 332
104 784 384
96 776 436
100 784 496
96 780 552
100 784 600
96 780 644
96 780 696
96 784 744
104 784 796
104 788 844
104 792 888
104 792 924
104 836 180
100 832 208
100 840 248
108 836 284
104 832 340
104 836 392
100 832 452
100 832 508
100 832 552
104 836 604
100 832 652
100 832 700
100 836 748
100 832 804
104 828 844
104 832 892
104 836 924
104 884 180
108 880 212
108 884 248
104 880 292
108 884 344
104 876 392
108 884 452
108 880 508
108 884 560
108 880 612
104 880 652
108 884 704
108 880 748
108 884 800
108 884 848
108 880 892
108 880 920
104 924 184
108 924 216
108 924 252
104 924 296
104 920 344
108 920 408
108 916 460
108 920 516
108 916 564
108 920 616
104 920 656
108 920 704
108 924 752
108 920 800
108 924 848
108 920 888
108 920 920
92 76 124
96 76 148
96 88 184
100 96 220
104 100 280
116 112 332
124 112 376
120 116 444
132 120 496
132 124 568
132 128 620
128 132 676
124 132 732
120 132 788
124 124 836
132 120 884
132 116 920
96 108 136
96 100 152
92 116 188
108 120 236
108 132 284
108 136 336
112 136 388
124 140 448
120 144 508
124 152 572
128 156 632
128 160 688
120 160 756
124 156 796
124 148 852
128 152 900
128 152 924
96 140 136
100 140 156
100 148 204
104 156 244
100 164 284
108 168 344
108 168 392
108 168 452
112 168 516
112 176 580
112 184 636
116 184 696
112 188 752
116 192 808
120 188 852
120 184 892
120 188 920
96 192 144
100 192 168
96 204 200
104 204 244
100 208 296
108 216 348
100 216 396
100 216 448
108 220 508
104 224 572
104 232 636
104 232 692
112 240 744
108 244 800
112 244 848
116 248 892
120 248 924
96 260 148
96 260 176
96 256 200
100 260 248
96 264 296
96 268 348
92 276 396
96 276 456
104 284 508
100 288 568
108 288 636
108 300 692
112 300 748
112 304 796
116 304 848
116 316 896
116 316 920
100 332 152
96 328 180
100 336 212
92 332 248
92 328 296
96 332 348
92 336 400
100 340 460
100 344 512
100 352 572
100 360 632
104 364 692
104 364 740
112 376 804
112 380 856
116 380 892
116 380 920
92 396 152
96 396 176
96 396 208
96 404 252
96 400 300
92 400 344
92 396 396
92 408 456
100 412 516
96 416 564
100 424 628
108 428 688
108 432 748
116 440 792
116 440 844
116 448 884
116 448 924
88 464 144
92 468 176
96 464 212
96 464 260
96 468 304
96 464 356
96 464 404
96 464 460
100 468 508
100 476 572
100 484 636
104 484 692
108 492 748
112 496 796
116 504 848
116 508 888
116 504 924
104 520 152
100 524 180
100 524 216
100 524 260
96 520 312
96 524 364
96 520 412
96 524 468
100 528 516
96 532 580
104 536 636
104 540 688
108 544 748
108 548 800
116 556 852
116 560 892
116 560 920
100 576 156
100 572 184
96 572 220
100 576 264
100 572 316
96 576 368
100 580 416
96 576 472
100 580 524
100 576 576
100 580 624
104 588 680
108 596 740
108 600 792
112 600 844
112 608 884
116 608 920
104 628 156
104 632 188
100 632 224
100 628 268
100 632 320
100 632 372
104 632 432
104 636 480
104 632 532
100 632 580
104 632 632
108 632 680
104 640 740
108 644 796
116 652 848
112 652 888
112 652 920
104 676 156
100 680 188
104 684 232
104 680 268
104 684 324
104 680 376
108 684 432
108 680 488
108 684 536
108 680 592
108 684 640
104 684 688
108 684 748
108 692 800
112 696 844
116 696 896
116 700 916
104 728 168
108 728 196
108 728 232
104 728 276
108 732 324
108 732 388
104 736 444
108 732 496
108 728 548
104 728 592
108 728 640
108 728 692
104 732 744
112 740 796
112 736 848
112 744 888
112 744 920
104 784 172
112 780 204
108 780 236
112 784 284
108 784 332
108 780 384
112 780 444
112 784 496
112 780 548
112 784 604
112 784 644
112 780 692
112 784 744
112 780 796
112 784 844
108 788 892
116 788 924
112 832 180
112 836 204
108 836 248
112 828 288
116 832 344
108 832 396
108 832 456
112 832 504
108 832 556
108 832 604
112 836 656
116 840 696
112 836 752
112 836 796
116 836 848
112 840 892
116 840 924
116 884 184
112 884 216
112 884 252
116 880 296
112 880 344
112 880 396
116 880 452
116 880 512
116 884 564
116 888 620
116 888 660
112 884 704
112 884 752
116 884 808
112 884 856
112 880 892
116 884 920
116 924 188
116 924 216
112 920 252
116 924 296
116 920 344
120 920 408
116 920 464
116 920 520
116 920 568
116 920 624
116 924 660
112 920 704
112 924 756
116 920 808
112 920 852
124 920 892
120 920 920
116 84 132
116 92 164
124 92 192
128 100 228
136 108 272
136 108 324
148 112 380
152 112 436
156 120 500
164 124 560
160 128 620
160 136 680
160 132 736
160 132 788
156 124 832
156 120 884
156 112 924
116 116 140
116 120 160
124 120 192
128 124 236
136 136 288
140 140 336
148 140 392
152 140 444
156 144 512
160 152 568
160 152 632
160 156 692
156 156 744
152 160 800
156 156 852
152 156 888
