滤镜资源/vsco 137 3dl+cube/VSCO 137 3dl/VSCOX FP1 Fuji Pro 160c.3dl
#Generated by Picture Instruments - Look Converter
3DMESH
Mesh 4 10
0 64 128 192 256 320 384 448 512 576 640 704 768 832 896 960 1023
128 12 0
136 16 8
140 28 60
148 36 144
156 44 236
152 52 336
168 72 420
184 76 484
180 92 540
196 108 592
200 136 624
216 160 664
244 188 700
268 236 744
300 284 776
352 372 832
396 452 884
128 40 0
136 48 16
148 52 64
152 56 144
160 64 224
160 76 328
168 88 420
188 96 496
192 116 552
208 132 592
208 156 640
228 176 676
252 208 704
272 256 756
312 304 792
352 384 840
408 472 892
128 88 4
136 96 12
152 96 64
156 112 152
168 120 244
168 124 336
180 140 432
196 152 508
196 168 568
220 188 612
224 204 656
236 224 688
268 256 732
284 304 776
332 352 816
368 424 856
416 500 900
116 176 4
128 180 20
144 180 60
144 196 144
168 204 248
184 216 364
192 224 456
216 240 532
220 248 592
232 260 632
244 280 680
260 304 720
288 332 752
304 360 792
348 416 828
384 484 876
436 548 912
112 272 8
112 292 16
136 292 60
144 308 140
176 304 244
180 320 352
200 324 448
220 332 528
228 348 604
256 364 660
264 368 696
280 384 744
308 404 776
328 440 820
368 484 852
396 540 888
452 600 928
92 392 8
100 396 8
120 404 48
140 420 132
172 424 236
196 428 356
216 432 452
240 436 544
256 448 624
276 452 680
288 468 724
304 484 768
332 500 796
348 524 840
388 564 876
424 604 912
476 664 948
76 484 12
92 496 4
120 508 40
136 516 120
176 524 228
196 532 348
220 540 456
252 540 548
268 548 636
296 544 688
304 564 736
324 572 784
348 580 820
376 612 860
412 628 888
440 668 924
492 704 956
72 568 16
80 576 0
108 588 32
128 600 100
176 616 208
204 612 332
236 620 452
264 620 544
280 632 628
308 632 696
324 640 748
340 644 788
368 652 824
392 668 872
428 692 904
464 720 940
508 752 964
76 640 16
88 648 0
116 656 20
140 672 100
184 680 208
212 692 328
244 692 444
284 700 548
296 700 624
320 708 692
348 716 756
368 720 800
392 724 844
412 732 880
448 744 912
484 772 952
528 792 976
84 688 16
96 696 0
128 712 24
152 724 100
192 724 200
228 736 328
260 744 448
296 752 556
324 756 636
348 760 700
364 764 752
380 764 804
408 776 848
436 780 896
472 788 924
508 804 960
544 824 976
100 736 20
112 744 0
140 756 28
172 768 100
216 780 204
248 792 332
272 796 440
316 804 552
340 812 636
368 812 700
388 816 768
404 820 816
436 816 852
464 824 904
496 836 936
532 848 960
568 860 988
124 780 20
140 784 0
168 796 32
192 808 96
232 816 192
268 828 316
304 840 444
336 844 552
360 848 624
388 856 696
412 856 760
432 860 812
460 860 860
484 868 900
512 868 936
552 876 968
588 888 992
160 816 20
172 824 4
200 832 44
228 840 112
268 856 216
296 860 320
332 872 440
376 884 552
392 888 636
424 900 704
444 900 768
456 900 816
480 900 860
508 904 904
544 908 944
576 912 972
612 916 1000
208 852 24
220 860 16
244 868 56
268 876 132
308 892 236
344 900 360
380 912 468
412 916 564
428 928 640
460 932 708
480 932 768
500 936 828
528 944 872
544 940 908
580 944 944
608 944 976
640 944 1000
276 892 44
288 896 52
308 904 96
340 916 172
364 920 260
396 928 368
428 948 476
456 956 568
488 964 656
504 964 712
524 968 772
536 972 816
560 972 864
584 976 908
612 972 944
644 972 976
672 972 1000
360 928 88
368 936 96
388 936 148
408 952 224
444 956 316
472 964 424
492 976 512
520 976 600
540 988 680
564 992 736
580 992 788
596 1000 828
612 996 864
636 1000 916
656 996 952
684 996 980
712 1000 1008
452 960 152
460 964 180
484 968 232
496 980 304
528 984 388
552 984 484
564 992 564
592 1000 648
600 1000 708
624 1000 756
636 1008 800
648 1012 840
672 1008 880
684 1012 916
704 1008 952
728 1008 980
748 1008 1000
152 20 4
156 24 16
160 24 60
168 40 140
172 48 236
172 56 332
180 72 420
188 80 488
200 96 548
208 116 592
220 132 632
228 160 664
252 188 700
280 232 748
320 288 788
360 368 836
416 448 880
152 40 0
160 48 16
164 56 68
172 64 148
180 68 248
184 80 348
192 96 432
200 104 500
208 124 560
220 140 604
228 156 644
252 184 688
268 216 720
288 256 752
320 312 800
368 388 844
424 468 888
148 92 0
156 96 12
164 104 68
172 120 152
184 120 244
192 132 344
200 144 432
208 152 516
216 172 572
232 196 620
244 208 656
256 228 696
280 256 736
304 300 776
340 360 816
376 416 852
432 504 900
140 180 0
144 180 16
156 192 64
176 196 156
184 208 252
200 212 360
208 220 448
224 236 532
236 252 600
252 268 644
260 284 680
276 308 720
296 320 748
316 360 792
356 416 836
396 484 876
444 552 908
128 280 0
136 292 16
148 296 60
164 300 144
188 308 260
208 324 364
224 328 476
244 336 552
252 356 616
272 356 660
280 372 708
296 388 744
324 416 784
344 452 824
372 488 856
412 540 892
468 604 932
104 392 0
116 400 8
132 416 52
152 420 128
188 424 252
204 424 352
228 432 460
252 440 556
268 448 620
288 468 680
300 472 724
320 484 764
340 500 804
364 528 840
396 560 876
432 608 908
480 660 944
100 500 0
108 508 4
128 508 44
152 520 128
188 528 236
216 536 348
240 544 464
260 548 556
280 552 624
304 556 692
320 560 744
336 572 780
360 584 820
384 604 856
416 628 892
460 672 932
504 712 956
96 576 0
104 584 4
128 592 32
160 608 120
184 612 216
220 616 340
252 624 460
280 624 564
304 636 652
320 640 696
336 640 744
356 648 796
380 656 836
404 668 876
444 696 912
472 720 940
520 752 960
96 640 4
104 652 0
128 660 28
156 672 100
196 688 212
228 696 332
256 700 444
292 704 548
320 708 632
340 712 700
364 716 764
380 720 800
408 724 840
424 736 880
460 744 916
492 768 948
536 796 972
100 696 0
116 704 0
144 708 24
164 724 96
204 732 200
244 744 332
280 756 452
308 760 552
328 756 628
352 764 704
376 760 760
400 768 808
420 776 856
448 784 896
476 792 924
508 808 952
556 824 972
112 736 0
128 748 0
156 764 28
192 772 100
224 784 204
260 796 328
300 800 448
324 808 556
348 812 640
376 812 704
404 820 772
416 820 812
444 824 860
476 828 900
500 832 936
536 844 960
572 856 984
144 784 0
152 784 4
180 800 36
204 812 104
252 820 220
288 836 336
324 840 452
344 844 556
376 852 636
404 860 708
428 856 768
444 864 816
472 864 860
492 864 904
520 864 940
556 880 968
596 884 988
176 824 0
188 828 4
212 832 48
240 852 120
280 856 216
312 864 328
348 880 436
384 888 556
412 896 640
424 896 708
452 900 764
468 900 812
492 900 856
524 908 908
556 908 940
580 908 972
616 916 992
220 856 4
232 860 20
256 868 64
288 884 140
324 896 236
356 904 352
384 912 456
416 924 560
444 932 640
464 936 712
484 936 768
508 940 820
524 936 864
556 940 908
584 940 948
612 948 980
644 944 992
292 900 28
304 900 60
316 908 100
348 916 176
376 924 268
416 940 376
444 952 488
472 960 576
488 964 648
512 964 728
528 972 776
548 972 832
572 976 868
596 976 912
620 976 948
652 976 984
680 972 1000
372 936 80
384 936 100
408 944 156
436 952 236
468 960 328
472 964 408
504 976 516
528 980 600
552 988 676
576 992 736
588 996 784
604 996 820
620 996 872
644 1000 916
668 1000 952
692 1000 984
712 996 1004
464 968 152
472 964 184
484 972 228
516 980 312
536 988 388
556 992 476
572 992 568
600 996 644
612 1000 704
632 1000 760
644 1012 808
656 1012 840
676 1008 876
688 1008 916
712 1012 952
732 1008 980
756 1008 1004
196 20 4
200 20 8
200 32 68
212 36 144
208 44 236
216 56 328
220 68 420
228 84 496
236 96 552
248 116 596
256 140 632
272 160 660
288 192 704
316 236 744
348 296 784
384 364 836
444 448 880
204 44 4
204 48 20
204 56 68
212 64 148
220 72 252
228 80 344
228 96 428
240 108 508
244 124 560
260 140 608
268 156 644
284 188 684
300 216 724
324 256 756
360 312 804
400 388 852
452 476 892
192 96 4
208 96 24
212 104 80
212 116 156
228 124 256
232 136 360
244 148 448
248 156 520
264 172 576
268 188 624
280 208 660
296 236 704
316 264 740
336 308 772
372 352 816
408 428 860
460 504 900
184 176 4
188 184 16
200 188 64
220 200 160
232 216 264
244 220 356
256 228 452
260 236 528
272 248 588
288 268 648
296 288 684
312 300 716
328 332 756
360 368 796
388 412 836
428 480 876
476 548 908
172 276 4
176 300 16
188 296 68
212 308 156
232 316 268
248 324 368
264 332 464
276 332 544
288 352 616
300 360 668
316 372 708
336 396 744
352 420 784
372 440 816
404 488 860
444 544 896
488 604 924
148 392 4
160 400 4
176 420 64
204 424 148
224 420 256
248 424 368
268 436 476
288 440 564
312 448 636
324 468 692
336 472 732
356 484 768
368 504 804
396 532 844
432 564 884
460 600 904
504 656 936
136 496 0
148 500 0
168 516 48
192 528 124
228 528 236
256 540 364
276 536 464
300 548 556
316 552 632
336 556 692
360 568 748
376 580 784
392 584 820
412 600 856
448 628 896
484 668 928
524 712 952
136 576 4
144 592 4
164 600 40
196 604 112
224 616 228
256 616 352
288 624 464
316 628 572
332 632 636
352 636 696
372 644 752
392 644 796
412 660 840
436 668 868
460 688 908
500 716 940
548 752 960
132 644 0
144 656 4
172 664 36
196 676 116
240 688 232
268 696 340
304 700 460
332 704 564
352 708 644
368 712 708
396 716 768
412 708 808
432 724 840
456 736 888
484 744 912
528 768 952
556 792 972
140 704 0
156 704 0
176 712 28
208 724 100
240 732 204
272 740 328
312 752 448
336 752 556
364 760 636
384 760 708
408 764 768
428 764 804
448 768 848
476 776 888
500 792 924
536 804 952
572 824 976
160 748 0
168 756 8
196 764 32
224 776 108
260 784 208
296 792 328
328 804 452
360 808 564
384 812 644
404 812 708
424 816 768
448 816 812
472 824 856
496 828 900
528 836 932
564 844 968
592 860 984
180 784 0
192 792 4
212 800 36
248 816 112
284 824 220
320 832 336
348 844 448
388 848 560
404 852 640
432 856 716
452 856 768
472 864 820
496 860 864
520 868 900
548 872 940
580 876 968
616 888 988
212 824 0
224 828 8
244 836 52
280 852 128
312 864 228
352 868 352
384 884 468
408 884 564
436 892 640
456 896 708
476 900 772
504 904 824
524 904 868
548 908 912
572 900 940
600 904 972
628 916 996
252 860 8
272 864 16
288 872 68
324 888 148
352 900 244
384 904 344
420 916 456
440 924 564
472 932 648
492 936 712
512 936 776
532 936 820
552 936 864
580 936 904
600 944 948
632 944 984
664 944 1000
324 896 28
332 900 52
348 908 104
388 924 180
416 928 284
440 940 388
468 952 488
492 956 580
512 964 656
532 968 728
552 968 780
572 972 824
596 976 868
612 972 912
632 976 944
660 976 976
696 972 996
404 932 84
412 944 116
440 948 176
452 952 240
476 964 328
508 968 428
532 980 528
556 984 612
572 988 688
588 996 736
608 992 788
620 1000 828
644 1000 880
656 1000 912
680 1000 956
700 1000 976
724 1000 996
488 968 160
496 972 192
516 972 240
536 984 316
548 988 396
576 988 488
604 996 584
620 996 652
632 1000 712
648 1000 768
660 1012 808
672 1012 844
692 1008 880
708 1008 928
716 1008 956
744 1008 980
768 1008 1004
264 20 4
260 24 12
268 32 64
268 36 140
268 48 232
276 56 328
284 72 416
284 84 488
292 100 544
300 120 588
312 136 636
320 160 664
340 192 696
368 232 744
388 296 780
432 364 832
480 448 880
264 48 0
264 48 12
272 56 68
276 64 152
288 76 252
284 80 340
288 100 424
296 112 500
296 132 560
316 148 608
328 160 648
332 180 680
348 216 716
372 260 764
404 316 800
444 392 844
