滤镜资源/vsco 137 3dl+cube/VSCO 137 3dl/VSCO X2 Bw Fade.3dl
#Generated by Picture Instruments - Look Converter
3DMESH
Mesh 4 10
0 64 128 192 256 320 384 448 512 576 640 704 768 832 896 960 1023
244 244 244
244 244 244
248 248 248
248 248 248
252 252 252
252 252 252
256 256 256
256 256 256
260 260 260
264 264 264
264 264 264
268 268 268
272 272 272
276 276 276
280 280 280
284 284 284
288 288 288
248 248 248
248 248 248
252 252 252
252 252 252
256 256 256
256 256 256
260 260 260
264 264 264
264 264 264
268 268 268
272 272 272
276 276 276
280 280 280
284 284 284
292 292 292
296 296 296
300 300 300
252 252 252
252 252 252
256 256 256
256 256 256
260 260 260
264 264 264
264 264 264
268 268 268
272 272 272
276 276 276
280 280 280
284 284 284
292 292 292
296 296 296
304 304 304
308 308 308
312 312 312
256 256 256
256 256 256
260 260 260
264 264 264
264 264 264
268 268 268
272 272 272
276 276 276
280 280 280
284 284 284
292 292 292
296 296 296
304 304 304
308 308 308
316 316 316
324 324 324
328 328 328
260 260 260
264 264 264
264 264 264
268 268 268
272 272 272
276 276 276
280 280 280
284 284 284
292 292 292
296 296 296
304 304 304
308 308 308
316 316 316
324 324 324
332 332 332
340 340 340
344 344 344
264 264 264
268 268 268
272 272 272
276 276 276
280 280 280
284 284 284
292 292 292
296 296 296
304 304 304
308 308 308
316 316 316
324 324 324
332 332 332
340 340 340
348 348 348
360 360 360
364 364 364
272 272 272
276 276 276
280 280 280
284 284 284
292 292 292
296 296 296
304 304 304
308 308 308
316 316 316
324 324 324
332 332 332
340 340 340
348 348 348
364 364 364
368 368 368
380 380 380
388 388 388
280 280 280
284 284 284
292 292 292
296 296 296
304 304 304
308 308 308
316 316 316
324 324 324
332 332 332
340 340 340
348 348 348
360 360 360
368 368 368
380 380 380
392 392 392
404 404 404
412 412 412
292 292 292
296 296 296
304 304 304
308 308 308
316 316 316
324 324 324
332 332 332
340 340 340
348 348 348
360 360 360
368 368 368
380 380 380
396 396 396
404 404 404
416 416 416
428 428 428
440 440 440
304 304 304
308 308 308
316 316 316
324 324 324
332 332 332
340 340 340
348 348 348
360 360 360
368 368 368
380 380 380
392 392 392
404 404 404
416 416 416
428 428 428
444 444 444
456 456 456
468 468 468
316 316 316
324 324 324
332 332 332
340 340 340
348 348 348
360 360 360
368 368 368
380 380 380
392 392 392
404 404 404
416 416 416
432 432 432
444 444 444
456 456 456
476 476 476
492 492 492
500 500 500
332 332 332
340 340 340
348 348 348
360 360 360
368 368 368
380 380 380
392 392 392
404 404 404
416 416 416
428 428 428
444 444 444
456 456 456
476 476 476
492 492 492
504 504 504
524 524 524
536 536 536
348 348 348
360 360 360
368 368 368
380 380 380
392 392 392
404 404 404
416 416 416
428 428 428
444 444 444
460 460 460
476 476 476
488 488 488
504 504 504
524 524 524
540 540 540
560 560 560
576 576 576
372 372 372
380 380 380
392 392 392
404 404 404
416 416 416
428 428 428
444 444 444
456 456 456
472 472 472
488 488 488
504 504 504
528 528 528
544 544 544
560 560 560
580 580 580
600 600 600
616 616 616
392 392 392
404 404 404
416 416 416
432 432 432
440 440 440
456 456 456
472 472 472
488 488 488
508 508 508
524 524 524
540 540 540
560 560 560
580 580 580
600 600 600
624 624 624
640 640 640
660 660 660
416 416 416
428 428 428
444 444 444
456 456 456
472 472 472
488 488 488
504 504 504
524 524 524
540 540 540
560 560 560
580 580 580
600 600 600
620 620 620
644 644 644
668 668 668
688 688 688
704 704 704
440 440 440
452 452 452
468 468 468
484 484 484
500 500 500
516 516 516
536 536 536
556 556 556
576 576 576
596 596 596
612 612 612
636 636 636
656 656 656
680 680 680
700 700 700
720 720 720
732 732 732
248 248 248
252 252 252
252 252 252
256 256 256
256 256 256
260 260 260
264 264 264
264 264 264
268 268 268
272 272 272
276 276 276
280 280 280
284 284 284
292 292 292
296 296 296
304 304 304
304 304 304
248 248 248
252 252 252
256 256 256
256 256 256
260 260 260
264 264 264
264 264 264
268 268 268
272 272 272
276 276 276
280 280 280
284 284 284
292 292 292
296 296 296
304 304 304
308 308 308
312 312 312
252 252 252
256 256 256
260 260 260
264 264 264
264 264 264
268 268 268
272 272 272
276 276 276
280 280 280
284 284 284
288 288 288
296 296 296
304 304 304
308 308 308
316 316 316
320 320 320
324 324 324
256 256 256
264 264 264
264 264 264
268 268 268
272 272 272
276 276 276
280 280 280
284 284 284
292 292 292
296 296 296
304 304 304
308 308 308
312 312 312
324 324 324
332 332 332
340 340 340
344 344 344
264 264 264
268 268 268
272 272 272
276 276 276
280 280 280
284 284 284
292 292 292
296 296 296
304 304 304
308 308 308
316 316 316
324 324 324
332 332 332
340 340 340
348 348 348
356 356 356
364 364 364
268 268 268
276 276 276
280 280 280
284 284 284
292 292 292
296 296 296
300 300 300
308 308 308
316 316 316
324 324 324
332 332 332
340 340 340
344 344 344
360 360 360
368 368 368
380 380 380
384 384 384
276 276 276
284 284 284
292 292 292
296 296 296
304 304 304
308 308 308
316 316 316
320 320 320
332 332 332
340 340 340
348 348 348
360 360 360
368 368 368
376 376 376
388 388 388
404 404 404
412 412 412
284 284 284
296 296 296
304 304 304
308 308 308
316 316 316
324 324 324
332 332 332
340 340 340
348 348 348
360 360 360
364 364 364
376 376 376
392 392 392
404 404 404
416 416 416
424 424 424
436 436 436
296 296 296
308 308 308
316 316 316
324 324 324
332 332 332
340 340 340
344 344 344
360 360 360
368 368 368
380 380 380
392 392 392
404 404 404
412 412 412
428 428 428
440 440 440
456 456 456
468 468 468
308 308 308
324 324 324
332 332 332
336 336 336
348 348 348
360 360 360
368 368 368
380 380 380
392 392 392
400 400 400
412 412 412
428 428 428
444 444 444
456 456 456
468 468 468
488 488 488
500 500 500
324 324 324
336 336 336
348 348 348
360 360 360
368 368 368
376 376 376
392 392 392
400 400 400
416 416 416
428 428 428
444 444 444
452 452 452
472 472 472
488 488 488
504 504 504
524 524 524
532 532 532
340 340 340
356 356 356
368 368 368
380 380 380
392 392 392
404 404 404
416 416 416
424 424 424
440 440 440
456 456 456
472 472 472
492 492 492
508 508 508
520 520 520
536 536 536
560 560 560
572 572 572
360 360 360
376 376 376
392 392 392
404 404 404
416 416 416
428 428 428
440 440 440
456 456 456
472 472 472
484 484 484
500 500 500
520 520 520
540 540 540
560 560 560
580 580 580
596 596 596
612 612 612
380 380 380
400 400 400
416 416 416
428 428 428
444 444 444
456 456 456
468 468 468
484 484 484
504 504 504
524 524 524
540 540 540
560 560 560
580 580 580
600 600 600
620 620 620
640 640 640
660 660 660
404 404 404
428 428 428
440 440 440
456 456 456
468 468 468
488 488 488
504 504 504
528 528 528
536 536 536
560 560 560
580 580 580
596 596 596
620 620 620
644 644 644
660 660 660
680 680 680
700 700 700
428 428 428
452 452 452
472 472 472
488 488 488
508 508 508
520 520 520
536 536 536
560 560 560
580 580 580
600 600 600
616 616 616
640 640 640
660 660 660
684 684 684
704 704 704
728 728 728
732 732 732
452 452 452
476 476 476
496 496 496
520 520 520
532 532 532
548 548 548
572 572 572
592 592 592
612 612 612
628 628 628
656 656 656
672 672 672
696 696 696
716 716 716
736 736 736
748 748 748
764 764 764
252 252 252
256 256 256
260 260 260
264 264 264
264 264 264
268 268 268
272 272 272
276 276 276
280 280 280
284 284 284
292 292 292
292 292 292
304 304 304
308 308 308
316 316 316
320 320 320
328 328 328
252 252 252
256 256 256
264 264 264
264 264 264
268 268 268
272 272 272
276 276 276
280 280 280
284 284 284
292 292 292
296 296 296
304 304 304
308 308 308
316 316 316
324 324 324
332 332 332
336 336 336
256 256 256
260 260 260
264 264 264
268 268 268
272 272 272
276 276 276
280 280 280
284 284 284
292 292 292
296 296 296
304 304 304
308 308 308
316 316 316
324 324 324
332 332 332
340 340 340
340 340 340
260 260 260
264 264 264
272 272 272
276 276 276
280 280 280
284 284 284
292 292 292
296 296 296
304 304 304
308 308 308
316 316 316
320 320 320
332 332 332
340 340 340
348 348 348
360 360 360
360 360 360
264 264 264
272 272 272
280 280 280
284 284 284
292 292 292
296 296 296
304 304 304
308 308 308
316 316 316
324 324 324
332 332 332
340 340 340
348 348 348
356 356 356
364 364 364
380 380 380
384 384 384
272 272 272
280 280 280
292 292 292
296 296 296
304 304 304
308 308 308
316 316 316
324 324 324
332 332 332
340 340 340
348 348 348
360 360 360
364 364 364
380 380 380
392 392 392
400 400 400
408 408 408
280 280 280
292 292 292
304 304 304
308 308 308
316 316 316
324 324 324
328 328 328
336 336 336
348 348 348
360 360 360
368 368 368
380 380 380
392 392 392
400 400 400
416 416 416
428 428 428
440 440 440
292 292 292
304 304 304
316 316 316
324 324 324
332 332 332
340 340 340
348 348 348
360 360 360
364 364 364
380 380 380
392 392 392
404 404 404
416 416 416
428 428 428
440 440 440
452 452 452
468 468 468
304 304 304
316 316 316
332 332 332
340 340 340
348 348 348
356 356 356
368 368 368
380 380 380
392 392 392
404 404 404
416 416 416
424 424 424
440 440 440
456 456 456
472 472 472
492 492 492
496 496 496
316 316 316
328 328 328
344 344 344
356 356 356
368 368 368
380 380 380
392 392 392
400 400 400
416 416 416
428 428 428
440 440 440
456 456 456
472 472 472
484 484 484
504 504 504
520 520 520
536 536 536
332 332 332
348 348 348
368 368 368
380 380 380
388 388 388
404 404 404
416 416 416
428 428 428
444 444 444
456 456 456
468 468 468
484 484 484
504 504 504
524 524 524
540 540 540
556 556 556
572 572 572
348 348 348
364 364 364
388 388 388
404 404 404
416 416 416
428 428 428
440 440 440
456 456 456
468 468 468
488 488 488
504 504 504
528 528 528
536 536 536
560 560 560
580 580 580
600 600 600
616 616 616
368 368 368
392 392 392
412 412 412
424 424 424
444 444 444
456 456 456
472 472 472
488 488 488
500 500 500
520 520 520
540 540 540
560 560 560
584 584 584
604 604 604
616 616 616
636 636 636
656 656 656
392 392 392
412 412 412
440 440 440
456 456 456
472 472 472
488 488 488
504 504 504
520 520 520
540 540 540
560 560 560
576 576 576
596 596 596
620 620 620
640 640 640
664 664 664
684 684 684
696 696 696
416 416 416
440 440 440
468 468 468
488 488 488
504 504 504
524 524 524
540 540 540
556 556 556
576 576 576
600 600 600
620 620 620
644 644 644
664 664 664
684 684 684
704 704 704
724 724 724
736 736 736
444 444 444
472 472 472
508 508 508
520 520 520
540 540 540
556 556 556
580 580 580
600 600 600
624 624 624
636 636 636
664 664 664
684 684 684
700 700 700
724 724 724
744 744 744
756 756 756
768 768 768
468 468 468
500 500 500
528 528 528
552 552 552
572 572 572
592 592 592
612 612 612
636 636 636
652 652 652
676 676 676
696 696 696
716 716 716
736 736 736
756 756 756
768 768 768
784 784 784
796 796 796
256 256 256
260 260 260
264 264 264
272 272 272
276 276 276
280 280 280
284 284 284
292 292 292
296 296 296
304 304 304
308 308 308
316 316 316
324 324 324
332 332 332
336 336 336
348 348 348
352 352 352
256 256 256
264 264 264
268 268 268
276 276 276
280 280 280
284 284 284
292 292 292
296 296 296
300 300 300
308 308 308
316 316 316
320 320 320
328 328 328
340 340 340
348 348 348
360 360 360
