滤镜资源/vsco 137 3dl+cube/VSCO 137 3dl/VSCO LV2 Levis.3dl
#Generated by Picture Instruments - Look Converter
3DMESH
Mesh 4 10
0 64 128 192 256 320 384 448 512 576 640 704 768 832 896 960 1023
40 40 40
40 40 40
44 44 44
44 44 44
44 44 44
48 48 48
48 48 48
52 52 52
52 52 52
52 52 52
56 56 56
56 56 56
60 60 60
64 64 64
64 64 64
68 68 68
68 68 68
52 52 52
52 52 52
56 56 56
56 56 56
60 60 60
64 64 64
64 64 64
68 68 68
72 72 72
72 72 72
76 76 76
80 80 80
84 84 84
88 88 88
88 88 88
96 96 96
96 96 96
72 72 72
72 72 72
76 76 76
80 80 80
84 84 84
88 88 88
92 92 92
96 96 96
100 100 100
108 108 108
112 112 112
108 108 108
116 116 116
120 120 120
128 128 128
132 132 132
132 132 132
104 104 104
104 104 104
108 108 108
112 112 112
116 116 116
120 120 120
128 128 128
136 136 136
136 136 136
144 144 144
148 148 148
156 156 156
160 160 160
164 164 164
176 176 176
180 180 180
184 184 184
136 136 136
148 148 148
148 148 148
156 156 156
156 156 156
168 168 168
176 176 176
180 180 180
192 192 192
200 200 200
204 204 204
212 212 212
216 216 216
224 224 224
232 232 232
240 240 240
244 244 244
192 192 192
196 196 196
204 204 204
212 212 212
220 220 220
224 224 224
232 232 232
240 240 240
248 248 248
256 256 256
264 264 264
272 272 272
280 280 280
288 288 288
296 296 296
304 304 304
312 312 312
248 248 248
256 256 256
264 264 264
272 272 272
280 280 280
288 288 288
296 296 296
304 304 304
312 312 312
316 316 316
328 328 328
336 336 336
344 344 344
360 360 360
360 360 360
368 368 368
372 372 372
312 312 312
320 320 320
328 328 328
336 336 336
348 348 348
352 352 352
360 360 360
372 372 372
380 380 380
388 388 388
396 396 396
404 404 404
412 412 412
420 420 420
432 432 432
440 440 440
440 440 440
384 384 384
388 388 388
396 396 396
404 404 404
412 412 412
424 424 424
432 432 432
436 436 436
440 440 440
452 452 452
460 460 460
468 468 468
480 480 480
484 484 484
492 492 492
500 500 500
500 500 500
448 448 448
452 452 452
460 460 460
472 472 472
476 476 476
484 484 484
492 492 492
500 500 500
508 508 508
516 516 516
520 520 520
528 528 528
536 536 536
544 544 544
552 552 552
560 560 560
564 564 564
508 508 508
516 516 516
520 520 520
532 532 532
540 540 540
548 548 548
552 552 552
560 560 560
568 568 568
576 576 576
584 584 584
596 596 596
596 596 596
604 604 604
612 612 612
620 620 620
620 620 620
572 572 572
576 576 576
584 584 584
588 588 588
596 596 596
604 604 604
612 612 612
620 620 620
624 624 624
632 632 632
640 640 640
644 644 644
656 656 656
660 660 660
664 664 664
672 672 672
672 672 672
628 628 628
632 632 632
640 640 640
648 648 648
656 656 656
656 656 656
668 668 668
672 672 672
680 680 680
688 688 688
696 696 696
700 700 700
708 708 708
712 712 712
720 720 720
724 724 724
724 724 724
680 680 680
688 688 688
692 692 692
696 696 696
708 708 708
712 712 712
720 720 720
724 724 724
732 732 732
736 736 736
744 744 744
752 752 752
756 756 756
756 756 756
768 768 768
772 772 772
772 772 772
732 732 732
740 740 740
744 744 744
752 752 752
752 752 752
760 760 760
764 764 764
772 772 772
780 780 780
784 784 784
788 788 788
796 796 796
800 800 800
808 808 808
812 812 812
816 816 816
820 820 820
780 780 780
784 784 784
792 792 792
796 796 796
804 804 804
808 808 808
812 812 812
816 816 816
824 824 824
828 828 828
836 836 836
840 840 840
844 844 844
852 852 852
856 856 856
860 860 860
864 864 864
816 816 816
824 824 824
828 828 828
832 832 832
840 840 840
844 844 844
848 848 848
852 852 852
860 860 860
864 864 864
864 864 864
876 876 876
880 880 880
884 884 884
888 888 888
896 896 896
896 896 896
40 40 40
44 44 44
44 44 44
44 44 44
48 48 48
48 48 48
52 52 52
52 52 52
52 52 52
56 56 56
56 56 56
60 60 60
64 64 64
64 64 64
68 68 68
72 72 72
72 72 72
52 52 52
56 56 56
56 56 56
60 60 60
64 64 64
64 64 64
68 68 68
72 72 72
72 72 72
76 76 76
80 80 80
84 84 84
88 88 88
88 88 88
92 92 92
100 100 100
100 100 100
72 72 72
76 76 76
80 80 80
84 84 84
88 88 88
92 92 92
96 96 96
100 100 100
104 104 104
112 112 112
112 112 112
116 116 116
120 120 120
128 128 128
132 132 132
132 132 132
140 140 140
108 108 108
108 108 108
112 112 112
116 116 116
120 120 120
128 128 128
128 128 128
136 136 136
144 144 144
148 148 148
160 160 160
164 164 164
164 164 164
172 172 172
180 180 180
188 188 188
192 192 192
144 144 144
152 152 152
156 156 156
156 156 156
164 164 164
176 176 176
180 180 180
188 188 188
200 200 200
204 204 204
212 212 212
216 216 216
224 224 224
232 232 232
236 236 236
248 248 248
252 252 252
196 196 196
204 204 204
216 216 216
220 220 220
224 224 224
228 228 228
240 240 240
248 248 248
256 256 256
268 268 268
276 276 276
280 280 280
288 288 288
296 296 296
304 304 304
312 312 312
316 316 316
260 260 260
268 268 268
272 272 272
280 280 280
288 288 288
296 296 296
304 304 304
312 312 312
320 320 320
328 328 328
336 336 336
344 344 344
352 352 352
360 360 360
368 368 368
376 376 376
384 384 384
320 320 320
328 328 328
336 336 336
344 344 344
352 352 352
360 360 360
372 372 372
380 380 380
388 388 388
396 396 396
400 400 400
412 412 412
420 420 420
428 428 428
440 440 440
444 444 444
448 448 448
388 388 388
396 396 396
404 404 404
412 412 412
420 420 420
432 432 432
436 436 436
444 444 444
452 452 452
460 460 460
468 468 468
476 476 476
484 484 484
492 492 492
500 500 500
508 508 508
512 512 512
452 452 452
460 460 460
468 468 468
476 476 476
484 484 484
492 492 492
504 504 504
512 512 512
512 512 512
516 516 516
528 528 528
536 536 536
544 544 544
556 556 556
560 560 560
568 568 568
568 568 568
512 512 512
520 520 520
528 528 528
536 536 536
548 548 548
552 552 552
560 560 560
568 568 568
572 572 572
580 580 580
592 592 592
596 596 596
604 604 604
608 608 608
616 616 616
624 624 624
628 628 628
576 576 576
576 576 576
588 588 588
596 596 596
604 604 604
612 612 612
620 620 620
620 620 620
632 632 632
640 640 640
648 648 648
656 656 656
660 660 660
664 664 664
672 672 672
680 680 680
680 680 680
632 632 632
636 636 636
648 648 648
656 656 656
656 656 656
664 664 664
672 672 672
680 680 680
688 688 688
692 692 692
696 696 696
704 704 704
708 708 708
720 720 720
724 724 724
724 724 724
728 728 728
684 684 684
692 692 692
700 700 700
708 708 708
712 712 712
716 716 716
720 720 720
728 728 728
736 736 736
744 744 744
752 752 752
756 756 756
760 760 760
764 764 764
772 772 772
776 776 776
776 776 776
736 736 736
744 744 744
748 748 748
756 756 756
760 760 760
764 764 764
772 772 772
780 780 780
780 780 780
788 788 788
796 796 796
800 800 800
808 808 808
812 812 812
816 816 816
820 820 820
820 820 820
784 784 784
788 788 788
796 796 796
804 804 804
808 808 808
808 808 808
816 816 816
820 820 820
828 828 828
836 836 836
836 836 836
840 840 840
848 848 848
852 852 852
860 860 860
868 868 868
868 868 868
824 824 824
828 828 828
832 832 832
840 840 840
844 844 844
848 848 848
852 852 852
860 860 860
864 864 864
868 868 868
876 876 876
880 880 880
884 884 884
888 888 888
896 896 896
900 900 900
900 900 900
44 44 44
44 44 44
44 44 44
48 48 48
48 48 48
52 52 52
52 52 52
52 52 52
56 56 56
56 56 56
60 60 60
64 64 64
64 64 64
68 68 68
72 72 72
72 72 72
72 72 72
56 56 56
56 56 56
60 60 60
64 64 64
64 64 64
68 68 68
72 72 72
72 72 72
76 76 76
80 80 80
84 84 84
88 88 88
92 92 92
96 96 96
100 100 100
104 104 104
108 108 108
76 76 76
80 80 80
84 84 84
88 88 88
92 92 92
96 96 96
100 100 100
104 104 104
108 108 108
112 112 112
116 116 116
120 120 120
128 128 128
132 132 132
132 132 132
140 140 140
144 144 144
108 108 108
112 112 112
116 116 116
120 120 120
132 132 132
132 132 132
136 136 136
144 144 144
148 148 148
156 156 156
164 164 164
168 168 168
176 176 176
180 180 180
188 188 188
196 196 196
196 196 196
148 148 148
160 160 160
160 160 160
168 168 168
176 176 176
180 180 180
188 188 188
192 192 192
204 204 204
212 212 212
216 216 216
228 228 228
236 236 236
236 236 236
244 244 244
256 256 256
260 260 260
204 204 204
212 212 212
224 224 224
224 224 224
228 228 228
236 236 236
248 248 248
256 256 256
264 264 264
276 276 276
280 280 280
288 288 288
296 296 296
304 304 304
312 312 312
316 316 316
324 324 324
264 264 264
272 272 272
280 280 280
292 292 292
296 296 296
304 304 304
308 308 308
320 320 320
328 328 328
336 336 336
348 348 348
356 356 356
360 360 360
368 368 368
376 376 376
388 388 388
392 392 392
328 328 328
340 340 340
348 348 348
352 352 352
360 360 360
372 372 372
380 380 380
388 388 388
396 396 396
404 404 404
412 412 412
420 420 420
428 428 428
436 436 436
444 444 444
452 452 452
456 456 456
396 396 396
404 404 404
412 412 412
420 420 420
432 432 432
436 436 436
444 444 444
452 452 452
460 460 460
468 468 468
476 476 476
480 480 480
492 492 492
500 500 500
504 504 504
516 516 516
516 516 516
464 464 464
468 468 468
476 476 476
484 484 484
492 492 492
500 500 500
512 512 512
512 512 512
520 520 520
528 528 528
536 536 536
544 544 544
552 552 552
560 560 560
568 568 568
572 572 572
576 576 576
520 520 520
528 528 528
536 536 536
544 544 544
552 552 552
560 560 560
568 568 568
576 576 576
584 584 584
588 588 588
592 592 592
604 604 604
608 608 608
620 620 620
628 628 628
632 632 632
632 632 632
580 580 580
584 584 584
596 596 596
604 604 604
612 612 612
620 620 620
624 624 624
632 632 632
636 636 636
644 644 644
652 652 652
660 660 660
664 664 664
672 672 672
676 676 676
684 684 684
692 692 692
640 640 640
648 648 648
648 648 648
656 656 656
664 664 664
672 672 672
680 680 680
688 688 688
692 692 692
696 696 696
704 704 704
712 712 712
720 720 720
724 724 724
728 728 728
732 732 732
736 736 736
692 692 692
696 696 696
704 704 704
712 712 712
720 720 720
720 720 720
728 728 728
736 736 736
744 744 744
752 752 752
752 752 752
756 756 756
764 764 764
772 772 772
780 780 780
784 784 784
784 784 784
744 744 744
748 748 748
752 752 752
760 760 760
768 768 768
772 772 772
776 776 776
780 780 780
788 788 788
796 796 796
800 800 800
808 808 808
812 812 812
816 816 816
824 824 824
828 828 828
832 832 832
792 792 792
796 796 796
804 804 804
804 804 804
812 812 812
816 816 816
824 824 824
828 828 828
836 836 836
836 836 836
844 844 844
848 848 848
852 852 852
860 860 860
868 868 868
868 868 868
868 868 868
828 828 828
832 832 832
840 840 840
844 844 844
848 848 848
852 852 852
860 860 860
864 864 864
868 868 868
876 876 876
880 880 880
884 884 884
888 888 888
896 896 896
896 896 896
904 904 904
904 904 904
44 44 44
44 44 44
48 48 48
48 48 48
52 52 52
52 52 52
52 52 52
56 56 56
56 56 56
60 60 60
64 64 64
64 64 64
68 68 68
72 72 72
72 72 72
76 76 76
76 76 76
56 56 56
60 60 60
64 64 64
64 64 64
68 68 68
72 72 72
72 72 72
76 76 76
80 80 80
84 84 84
88 88 88
88 88 88
96 96 96
100 100 100
104 104 104
112 112 112
