滤镜资源/vsco 137 3dl+cube/VSCO 137 3dl/VSCO H6 Polychrome.3dl
#Generated by Picture Instruments - Look Converter
3DMESH
Mesh 4 10
0 64 128 192 256 320 384 448 512 576 640 704 768 832 896 960 1023
72 76 108
76 80 144
76 80 172
72 84 216
80 80 268
68 92 316
72 92 376
80 92 416
72 96 460
84 96 500
72 104 532
72 104 568
76 104 592
72 108 616
76 108 636
72 104 648
76 104 664
72 112 128
80 112 156
80 112 184
76 112 224
80 112 276
76 112 332
72 116 388
80 116 452
76 116 512
76 112 544
72 112 584
72 112 616
76 112 644
76 112 676
80 116 692
76 120 716
72 116 728
80 156 132
80 156 160
80 148 192
76 152 240
84 148 296
84 148 340
80 148 416
80 148 472
76 148 532
76 152 580
76 156 636
68 148 664
84 144 708
76 148 740
80 148 764
72 156 776
72 152 796
76 204 136
80 204 168
80 196 200
76 196 248
84 204 304
76 200 364
80 200 424
84 208 488
84 204 544
84 196 604
80 196 648
76 200 692
80 196 728
72 196 760
80 192 784
76 200 800
76 200 820
84 260 148
84 268 176
84 260 212
84 264 268
80 252 300
80 260 372
80 260 432
88 260 496
80 264 556
84 260 612
76 260 652
80 256 700
84 256 728
76 260 768
84 252 792
76 256 812
76 252 828
84 328 148
80 328 184
84 328 220
80 332 272
84 328 320
84 328 392
80 324 444
88 324 504
84 328 572
84 324 616
88 328 664
84 328 712
84 320 740
76 324 776
84 320 796
80 324 820
80 324 832
84 400 168
88 396 200
92 396 232
84 396 284
92 396 336
80 396 400
80 400 460
88 396 520
84 400 588
84 392 628
84 396 680
80 396 720
88 392 752
84 404 784
92 392 808
84 396 820
76 396 836
84 464 180
84 472 208
92 468 244
84 468 292
92 476 352
88 472 416
84 468 472
88 468 536
84 464 592
92 464 640
88 464 688
84 468 728
84 468 760
80 468 796
84 472 808
80 468 832
80 464 844
84 532 184
88 536 216
92 536 252
88 540 308
92 536 364
88 544 428
88 544 492
92 540 552
84 532 608
92 540 656
88 536 704
84 540 740
88 540 768
88 540 796
92 536 816
88 532 836
80 532 848
92 592 196
84 596 232
88 592 268
84 600 324
84 596 372
88 596 444
84 600 500
92 596 560
88 596 616
96 596 664
92 596 708
84 600 744
88 600 776
88 600 804
88 596 824
88 596 836
84 592 848
92 644 208
88 656 240
96 652 276
92 656 336
96 648 388
96 652 452
88 656 512
92 652 564
88 656 624
96 652 676
88 652 716
84 656 760
88 652 780
88 652 804
88 656 832
88 652 840
84 652 848
92 696 224
92 700 252
92 704 292
92 700 344
96 700 396
88 700 456
92 700 520
96 700 580
92 700 628
96 700 676
92 704 716
92 704 760
92 704 784
92 708 812
96 700 828
96 696 844
88 700 860
96 740 240
92 744 268
96 740 304
88 740 364
100 744 412
92 744 468
88 748 536
96 744 592
92 744 644
96 748 692
96 748 736
92 748 768
92 744 792
92 744 820
96 748 836
92 744 848
88 744 856
92 780 248
96 780 276
100 776 320
92 776 372
100 776 424
96 776 492
96 784 552
104 780 604
96 780 656
100 776 700
96 780 740
92 784 772
100 780 800
92 780 816
92 780 840
96 780 852
96 780 864
96 804 264
96 812 292
100 808 336
96 812 388
100 808 440
100 808 500
96 808 560
104 808 608
96 812 668
104 808 704
100 808 744
92 808 776
100 804 800
92 812 828
96 808 836
100 808 856
92 808 864
96 828 272
96 828 304
100 828 344
96 832 408
100 828 448
96 828 520
96 832 568
100 828 620
92 832 680
96 832 716
100 828 756
92 832 788
96 828 808
92 832 832
100 824 844
100 828 860
104 828 860
96 840 280
92 844 312
100 844 356
96 844 408
104 844 460
104 836 520
100 840 580
104 844 628
96 844 684
104 840 724
100 844 756
96 844 788
100 844 808
92 844 832
100 844 844
104 840 856
116 836 860
104 76 120
92 84 152
92 84 180
88 92 232
88 96 288
84 100 344
76 96 400
76 100 464
76 104 516
76 100 564
68 104 600
72 108 616
72 108 644
76 108 660
68 112 676
76 108 692
76 108 692
100 112 124
100 120 160
92 116 192
92 124 236
84 128 304
84 124 360
84 124 416
80 128 484
80 124 536
76 124 580
80 120 632
76 120 672
76 124 700
72 120 712
76 120 732
72 124 744
72 120 748
104 156 140
100 164 168
96 160 200
88 168 256
84 168 304
88 168 364
84 164 428
84 168 484
80 164 552
84 164 604
80 164 648
80 160 696
80 164 728
76 160 764
76 160 784
72 152 800
72 156 804
104 212 140
100 212 176
96 216 224
92 220 268
92 220 328
88 220 388
84 216 440
88 216 508
84 212 560
88 216 612
80 216 660
84 220 708
84 208 736
80 208 772
80 208 800
84 204 816
76 204 828
108 268 148
104 276 188
96 276 232
92 280 288
92 280 340
92 280 400
88 284 464
92 280 520
88 284 576
88 280 628
84 276 664
88 272 708
88 276 748
80 268 776
84 268 804
80 272 824
76 268 832
100 336 160
108 348 200
92 352 232
96 356 292
88 352 352
92 344 412
92 348 468
92 352 528
92 348 588
92 348 640
92 348 688
88 344 720
88 344 756
84 340 784
88 340 808
84 340 828
84 336 840
96 412 168
96 424 212
96 424 256
96 424 312
96 424 368
92 428 432
96 420 488
96 420 544
88 420 600
88 420 652
88 420 692
92 416 732
88 416 772
88 412 792
84 408 812
88 412 836
84 408 844
92 488 184
96 492 224
96 496 264
92 492 324
92 496 376
96 496 440
96 492 500
96 492 568
92 496 616
92 488 668
96 484 704
88 488 740
92 488 776
88 484 796
92 484 824
92 484 840
84 476 844
92 552 196
100 560 236
100 560 276
100 560 332
100 560 388
100 568 452
96 564 508
100 564 576
96 556 628
96 560 676
96 556 716
96 556 756
96 556 776
92 556 800
92 552 824
92 556 844
92 556 852
100 612 208
100 620 248
96 620 288
96 624 344
96 620 396
100 620 464
100 628 528
100 624 580
96 620 636
96 616 680
96 620 724
96 616 760
96 620 792
96 616 816
92 612 820
92 616 848
92 616 852
96 660 220
96 676 256
92 672 300
96 676 356
100 680 412
96 672 472
100 676 536
100 676 596
100 672 648
100 676 700
100 676 736
100 676 772
100 668 796
92 668 816
96 672 836
92 672 852
92 664 860
100 712 232
108 716 268
104 720 320
100 720 364
100 720 428
104 720 496
104 720 552
100 720 600
104 720 656
104 720 704
100 720 744
100 720 776
96 728 804
100 716 820
96 716 844
100 720 852
96 712 864
104 756 248
104 756 280
104 756 336
100 764 384
100 760 436
104 760 500
104 760 556
104 760 612
100 764 664
104 760 708
104 760 748
100 764 780
104 764 804
104 764 832
104 764 844
96 764 856
96 760 868
104 788 260
104 792 300
108 796 348
108 792 400
108 796 460
108 796 516
108 792 568
104 796 628
104 796 676
100 792 720
96 796 756
104 792 784
100 796 816
104 792 828
100 796 848
100 792 860
100 788 868
100 812 276
108 820 320
104 820 364
104 820 408
108 820 468
104 816 528
108 820 584
108 820 640
108 820 680
108 816 732
108 816 764
108 816 796
108 816 820
104 816 836
108 820 852
96 820 864
116 816 868
100 836 292
108 836 328
104 840 368
104 840 420
104 844 488
104 840 540
108 844 588
104 840 644
108 844 692
104 840 740
108 844 768
104 844 796
104 844 816
104 844 844
104 840 856
112 840 868
132 836 868
104 848 300
104 848 332
104 852 376
108 852 432
108 856 492
112 848 548
112 852 600
112 848 652
112 852 704
112 852 740
108 852 772
108 852 796
108 852 820
104 852 844
104 852 856
112 852 868
148 840 868
136 80 124
132 84 156
124 88 188
128 88 232
116 92 284
100 104 352
88 108 424
88 112 484
84 108 540
84 112 596
76 116 632
72 112 668
68 112 696
72 116 716
72 120 728
76 116 732
72 116 740
144 120 128
140 120 168
128 116 196
128 124 244
124 128 304
108 136 376
92 136 444
92 140 500
84 132 556
84 136 608
84 132 652
80 128 696
76 132 720
72 132 756
76 128 764
76 128 780
76 128 788
136 152 132
136 160 168
140 164 212
128 160 256
124 164 312
112 172 384
96 180 464
96 176 516
92 180 576
84 176 620
84 172 664
88 176 708
80 172 744
84 172 776
80 164 792
76 164 812
72 164 820
140 204 144
140 212 172
136 220 216
140 220 272
132 224 332
116 224 388
100 236 464
96 232 524
96 232 580
96 228 628
92 236 684
92 228 716
84 224 748
88 224 780
84 224 800
84 216 824
80 216 836
148 260 144
144 276 188
140 276 228
140 280 280
128 284 348
120 292 412
100 300 488
96 300 536
96 296 592
92 300 648
92 292 688
96 296 732
92 292 760
92 284 788
88 280 804
84 284 832
80 276 840
140 332 156
140 340 188
144 352 244
140 352 296
128 352 356
120 364 432
104 380 504
104 372 560
100 372 612
104 372 668
100 368 704
92 368 736
96 364 768
92 360 800
88 356 816
92 348 832
88 348 840
140 404 164
144 408 200
144 420 256
140 432 308
132 428 372
116 444 448
104 444 516
100 448 568
100 444 624
100 448 672
100 448 716
100 440 752
100 436 780
92 432 800
92 428 820
92 428 840
88 428 852
144 476 180
140 488 220
144 492 264
136 492 316
124 504 388
124 512 460
108 520 532
108 524 592
108 520 640
104 512 680
100 516 720
100 512 760
96 508 788
96 512 812
96 500 832
96 500 844
92 500 856
144 544 196
144 552 232
144 556 284
136 564 340
132 572 408
112 580 480
108 588 544
104 584 600
108 584 652
108 584 700
104 584 736
100 576 764
104 580 796
104 576 820
104 572 840
96 572 844
96 564 852
136 612 200
144 612 232
132 620 292
132 624 344
116 636 412
116 640 488
108 644 552
108 640 604
112 644 656
112 644 704
108 644 744
108 640 772
104 640 796
104 636 820
100 636 836
100 632 852
100 628 860
132 664 212
136 668 256
132 680 312
128 684 372
120 688 432
112 696 504
112 696 560
112 700 624
112 696 664
112 696 716
108 688 748
108 696 776
108 688 808
104 688 824
108 688 848
108 688 860
104 680 864
132 716 240
136 720 276
128 728 324
116 732 392
116 736 452
116 744 516
112 740 580
112 736 620
116 740 684
112 740 720
112 740 760
108 740 788
108 740 816
108 732 836
112 736 848
108 736 856
108 732 860
124 756 256
128 760 296
128 772 348
116 772 408
116 772 468
112 776 528
112 772 588
116 776 636
112 776 684
112 772 728
116 772 764
112 772 792
116 776 816
116 776 840
112 776 852
108 776 864
116 772 864
116 792 276
116 796 312
120 808 368
112 804 424
120 812 480
116 808 536
116 804 592
116 804 648
116 804 696
112 804 736
108 808 768
116 804 796
112 808 824
112 804 840
112 812 856
116 812 868
132 796 868
112 820 296
116 828 332
116 828 388
120 832 436
116 828 492
120 832 548
120 828 604
120 828 656
120 828 704
120 828 744
120 828 780
116 832 808
120 828 832
120 828 848
116 828 860
124 828 868
148 820 868
112 844 308
116 844 352
116 844 408
116 844 456
116 844 516
116 852 560
116 852 620
116 852 664
116 848 716
116 848 748
116 852 780
116 848 812
116 852 832
116 848 844
116 852 860
136 844 868
168 836 868
112 852 316
116 860 360
116 860 412
116 856 464
116 860 520
120 856 572
124 860 632
120 860 680
124 860 720
120 860 752
120 860 784
116 860 812
116 860 832
120 860 848
116 860 860
148 852 868
200 844 868
188 88 128
180 92 164
180 92 200
168 88 244
156 92 288
148 96 352
140 104 416
116 112 484
96 120 560
92 124 616
84 124 656
76 124 692
72 124 728
76 120 752
68 120 768
76 120 788
76 120 784
180 124 132
188 128 164
180 124 208
172 128 248
168 124 304
156 132 368
140 132 432
124 144 504
100 148 580
92 148 624
88 148 668
92 140 708
88 144 740
80 140 768
80 136 796
76 140 812
