滤镜资源/vsco 137 3dl+cube/VSCO 137 3dl/VSCO F3 Mellow.3dl
#Generated by Picture Instruments - Look Converter
3DMESH
Mesh 4 10
0 64 128 192 256 320 384 448 512 576 640 704 768 832 896 960 1023
140 128 120
144 124 128
152 124 140
140 132 168
144 128 208
136 148 304
136 168 412
152 180 492
140 196 568
148 208 632
136 228 668
132 232 712
128 240 748
112 252 780
108 260 816
108 268 848
104 268 868
144 132 120
148 132 128
144 128 132
144 132 152
148 132 180
136 144 244
144 164 348
152 184 460
144 204 548
152 216 608
148 228 660
140 236 708
140 244 744
128 256 784
120 268 816
112 280 844
108 280 876
144 136 124
144 140 124
148 136 128
144 140 152
144 140 176
144 156 212
148 168 308
156 184 404
156 200 500
164 220 568
156 236 632
152 244 680
156 256 724
144 264 764
144 272 796
120 288 824
112 292 860
140 148 124
140 148 124
148 140 132
140 152 148
148 152 176
148 160 204
148 172 284
156 192 372
160 212 468
168 228 544
156 244 600
156 252 652
160 256 696
152 268 732
148 276 768
140 288 792
124 296 840
140 160 132
136 168 132
140 164 136
144 164 152
144 164 168
148 176 196
152 188 260
160 204 340
156 228 436
164 240 516
160 256 584
160 268 632
164 272 676
152 292 716
156 296 744
140 312 776
132 312 812
136 188 128
140 192 136
140 192 140
148 188 160
148 196 168
148 204 200
152 208 252
156 228 332
152 252 428
160 268 500
160 288 568
164 304 624
160 312 660
160 324 700
156 332 736
152 344 772
144 356 804
136 228 136
136 236 136
148 240 148
152 240 168
160 244 180
148 248 204
152 260 252
156 276 340
152 300 432
160 308 496
168 332 564
164 352 616
164 364 660
164 384 700
160 388 724
160 404 756
152 412 780
144 304 148
144 308 156
156 308 164
164 316 184
164 324 192
164 324 224
152 332 264
160 340 324
156 360 428
164 376 508
164 396 568
160 412 624
164 424 668
164 444 712
164 456 740
164 472 768
156 476 788
152 392 168
156 396 176
168 396 180
176 408 200
176 408 220
172 420 248
164 428 288
160 436 340
152 440 416
160 452 500
168 464 588
164 484 640
172 500 684
160 512 720
172 520 752
168 532 780
160 536 808
156 476 184
160 480 188
172 484 200
180 496 224
184 492 232
180 496 264
176 504 304
176 512 360
160 528 428
160 532 516
164 536 576
160 548 644
172 560 696
168 568 728
168 576 756
168 588 796
168 592 820
176 536 204
176 548 208
188 548 220
188 556 240
192 560 248
188 560 284
188 564 316
188 572 372
168 588 440
164 596 512
160 600 580
160 608 636
164 608 692
168 620 732
176 632 768
168 636 792
168 640 824
180 600 212
184 596 220
192 604 228
196 604 252
200 608 264
196 612 288
188 616 336
192 620 384
176 640 452
164 644 504
164 656 564
164 656 628
168 664 684
168 672 728
168 672 752
172 676 792
164 680 816
188 640 228
188 648 228
200 644 244
196 652 260
204 652 272
200 656 296
196 660 344
196 664 392
180 680 460
176 692 516
172 696 576
164 696 628
168 700 680
164 708 724
172 708 760
172 716 784
168 716 812
192 676 228
192 684 236
204 684 244
204 684 264
212 688 276
208 688 312
200 696 356
200 696 396
180 712 460
180 724 520
172 732 572
164 736 632
176 736 680
156 740 716
172 740 752
172 744 784
168 744 808
196 708 244
196 716 240
208 720 256
208 720 280
216 716 288
212 720 316
204 724 356
208 724 400
188 748 472
188 756 520
176 764 576
168 768 628
172 764 676
164 768 712
168 768 748
172 776 776
164 776 808
200 732 244
204 740 252
216 736 260
216 744 284
224 736 296
216 744 324
212 744 356
208 752 404
196 768 472
192 776 528
180 788 580
168 792 628
176 792 668
168 792 720
172 800 748
168 796 776
168 804 804
204 752 248
208 756 256
216 756 264
220 756 284
224 760 296
224 760 324
216 764 368
220 772 420
200 784 480
192 788 536
180 792 580
172 812 624
176 816 668
172 812 716
172 816 748
172 816 776
172 816 804
152 128 120
152 128 128
152 124 144
140 132 168
140 132 212
136 140 300
136 160 408
144 180 504
140 192 576
140 204 632
140 216 680
128 228 712
116 236 748
112 252 788
104 256 820
104 260 856
104 260 864
144 132 120
152 136 132
148 132 140
148 136 164
144 136 212
144 152 304
148 168 412
148 188 508
152 204 568
152 212 628
148 228 680
144 236 716
136 244 752
128 256 788
120 268 824
112 272 860
112 276 876
144 140 120
148 144 128
152 144 144
148 144 160
152 148 196
148 160 272
152 180 372
160 200 476
156 216 560
160 232 624
160 244 664
160 252 704
152 260 740
144 268 776
132 280 816
120 288 848
120 300 880
140 148 124
144 156 128
148 160 136
140 160 160
152 164 180
152 176 256
160 196 348
168 212 452
164 232 540
160 244 612
164 256 656
156 264 700
164 268 740
152 280 772
144 292 804
132 304 840
120 312 868
140 160 124
144 184 132
136 188 140
148 180 164
148 184 184
152 200 244
152 220 340
160 236 452
160 260 532
164 268 592
164 284 652
160 288 684
160 304 736
152 308 768
144 312 796
140 332 824
120 336 860
140 192 132
144 224 140
140 224 148
152 228 168
152 232 188
148 232 228
156 240 304
160 264 408
160 296 504
160 308 564
168 328 636
164 332 676
156 340 708
156 356 752
152 368 780
140 380 820
132 380 848
144 240 136
140 292 148
148 292 156
160 288 176
160 296 200
156 304 232
156 308 304
160 316 392
160 340 488
164 364 560
168 376 620
168 392 672
168 408 716
160 412 736
156 424 764
164 440 808
152 448 840
144 308 140
156 368 168
156 376 176
168 384 196
168 380 220
168 392 252
164 392 300
156 408 388
164 412 496
164 436 568
164 440 624
164 460 668
168 472 716
172 488 752
168 496 784
160 500 812
160 512 840
152 396 164
164 452 180
168 460 196
176 464 216
184 472 240
180 480 264
176 476 312
160 492 380
160 500 468
164 508 560
168 520 624
164 532 676
164 536 716
172 552 760
164 556 792
168 568 820
164 576 844
160 480 180
172 532 204
180 536 216
184 540 228
184 544 256
192 544 280
180 548 328
172 568 396
168 568 468
160 572 544
164 576 616
168 592 680
160 596 728
168 608 764
168 608 788
168 624 824
164 628 852
172 540 192
176 580 212
184 596 224
196 600 244
196 600 264
196 596 296
188 604 344
180 616 400
172 628 468
164 632 540
164 640 616
164 644 664
168 652 716
168 656 756
168 656 788
168 664 824
168 668 852
180 600 204
188 636 220
192 632 236
204 644 256
200 648 268
200 648 304
200 652 356
192 660 408
172 672 472
172 684 540
164 680 608
160 684 660
168 696 708
172 688 748
168 700 784
172 704 820
172 708 844
184 648 216
188 672 228
200 680 248
204 680 264
208 680 284
204 684 304
200 684 352
192 700 412
192 704 484
176 716 532
172 720 600
168 724 652
160 724 700
168 728 740
168 732 772
172 732 808
168 740 840
192 680 224
196 700 244
200 712 248
208 708 272
212 720 288
208 716 320
208 716 360
200 720 420
192 736 484
184 744 540
172 752 600
168 752 652
168 756 696
168 756 736
168 764 772
172 768 804
172 768 828
192 712 236
200 732 244
208 732 256
216 740 276
216 736 292
216 744 324
216 740 372
204 752 420
196 764 484
180 776 540
172 780 592
176 780 648
172 788 700
172 788 736
164 784 768
168 792 800
168 792 828
204 732 240
204 748 252
212 760 260
224 756 280
224 768 292
220 760 324
224 764 368
216 772 428
204 784 488
192 796 544
184 804 592
176 804 644
172 812 688
172 812 732
172 816 760
176 816 796
172 812 816
204 756 240
212 768 252
216 776 264
232 768 288
228 780 296
228 772 332
224 780 376
216 788 428
204 792 488
200 804 544
184 816 592
180 824 640
172 824 688
176 832 728
172 828 764
180 828 788
172 828 816
160 132 124
160 128 128
164 132 152
168 128 172
152 136 220
144 140 300
136 148 404
140 168 508
140 180 576
140 196 640
136 208 668
124 216 716
124 224 752
108 240 788
100 244 820
104 248 856
104 248 872
156 132 120
164 136 124
160 136 140
164 136 168
148 140 216
144 144 300
148 160 412
148 176 504
148 192 580
152 208 636
148 216 680
144 220 716
132 232 752
128 240 796
112 256 824
112 264 860
108 264 876
152 140 124
160 144 128
160 148 144
164 144 168
156 152 204
156 160 300
160 176 400
164 200 504
160 212 572
164 228 628
164 232 680
160 240 720
156 256 748
148 260 780
132 276 816
124 284 852
120 292 884
148 148 128
156 160 124
160 160 136
164 160 160
160 172 196
168 184 268
172 204 380
180 220 480
176 240 556
180 256 624
176 264 664
176 272 708
176 280 744
172 292 780
160 296 812
148 308 848
140 316 880
156 164 132
152 188 136
156 196 144
164 196 164
156 192 200
160 208 260
164 232 360
176 248 460
176 264 548
172 280 612
176 292 660
176 304 700
168 316 736
172 312 768
160 324 804
156 340 844
140 352 872
148 192 128
144 224 136
148 256 144
164 248 172
168 248 196
156 252 252
164 268 348
168 292 456
176 312 536
180 332 600
176 340 652
176 352 696
172 360 728
168 368 764
164 384 804
160 384 840
148 396 864
148 236 136
144 284 144
156 336 164
168 344 192
180 340 216
168 352 260
164 340 336
164 360 444
172 376 532
176 400 600
176 412 660
176 428 700
172 432 732
168 444 764
172 448 796
168 460 828
164 472 860
144 316 144
152 380 156
168 444 184
176 440 196
180 440 232
180 444 276
168 452 332
164 460 440
168 460 532
172 480 608
176 492 676
172 500 716
176 512 748
176 516 784
168 524 812
172 536 844
168 540 876
156 404 160
160 460 176
176 520 204
188 532 224
192 532 248
192 528 288
184 540 344
168 544 424
164 556 524
172 552 616
172 560 684
176 564 724
172 572 756
172 584 792
176 592 828
168 608 860
168 604 876
156 492 172
168 528 188
184 580 212
188 584 236
200 588 256
196 588 296
192 596 348
180 600 420
172 616 508
168 612 588
172 620 652
168 624 708
172 632 760
172 636 792
172 640 824
172 652 856
168 652 888
172 548 188
180 596 204
192 632 228
196 636 248
200 636 264
204 640 300
200 644 356
188 656 428
172 660 508
168 664 572
172 664 636
168 668 692
176 676 744
172 684 784
176 688 820
172 688 852
172 692 884
180 600 204
188 636 220
192 664 236
204 672 256
212 672 280
208 680 312
204 676 360
188 692 428
184 700 500
176 712 568
176 712 636
168 712 688
176 712 732
176 720 768
176 720 808
176 724 844
172 728 872
184 648 212
192 672 220
200 700 240
208 704 264
224 704 288
216 712 312
204 712 372
204 724 424
188 732 500
176 744 560
176 748 628
172 744 680
176 744 728
172 756 768
176 752 796
172 760 836
168 760 864
192 684 216
196 712 232
208 728 252
216 736 264
220 736 292
216 732 312
220 740 364
204 740 428
192 756 496
184 768 564
180 772 616
176 772 668
176 776 716
172 780 752
176 780 792
172 784 824
172 784 844
196 716 232
204 732 240
212 744 256
220 752 276
228 756 292
224 760 324
220 760 368
212 768 428
200 788 500
192 792 556
184 800 608
176 800 664
180 800 712
180 800 748
176 804 784
172 804 816
172 808 844
204 740 240
208 760 240
216 776 264
228 776 276
228 776 300
232 772 332
228 784 372
220 788 440
208 804 504
200 812 560
188 820 612
180 828 660
180 828 700
180 824 752
176 828 780
176 824 812
176 824 832
200 756 240
212 772 252
220 788 264
228 792 276
232 796 304
240 792 336
232 792 380
228 804 440
212 812 504
200 824 560
188 832 612
184 840 660
184 844 704
184 844 744
176 840 780
184 840 804
184 840 828
192 128 116
184 128 128
188 132 140
192 132 168
188 136 224
172 136 304
160 140 408
152 148 500
144 160 576
140 164 632
132 172 672
128 188 712
116 196 744
104 208 780
104 216 820
108 220 860
108 220 864
180 132 124
184 136 132
188 136 148
188 140 172
188 136 216
172 144 296
160 148 404
160 160 500
152 168 576
148 180 640
144 192 680
140 204 716
136 212 752
116 220 792
116 228 828
108 236 860
