滤镜资源/vsco 137 3dl+cube/VSCO 137 3dl/VSCO M1 Mood.3dl
#Generated by Picture Instruments - Look Converter
3DMESH
Mesh 4 10
0 64 128 192 256 320 384 448 512 576 640 704 768 832 896 960 1023
172 148 96
176 148 96
176 148 92
176 148 96
184 152 120
180 160 164
196 172 232
216 188 308
232 208 404
256 232 508
268 252 584
284 272 648
296 276 688
304 292 744
316 292 772
316 300 804
324 304 832
180 160 92
180 160 96
184 156 92
180 160 96
184 160 116
180 168 164
196 180 228
220 196 312
236 220 412
260 236 500
272 260 572
288 272 648
300 280 700
308 296 748
316 296 776
324 308 804
324 308 832
180 168 92
180 168 92
184 164 92
180 168 92
184 172 120
180 180 168
196 192 232
216 208 312
236 232 412
264 248 504
276 268 580
296 280 652
308 288 704
312 300 748
320 308 784
320 320 800
328 320 828
180 192 96
180 192 92
188 188 92
180 192 96
192 188 124
192 200 176
196 204 240
224 228 328
240 244 412
260 264 500
280 288 584
292 300 664
308 308 708
308 324 748
328 324 788
324 336 808
328 336 836
192 212 112
196 216 108
192 212 108
192 212 108
200 216 132
196 232 176
192 228 232
212 244 308
236 268 412
264 288 504
280 308 584
288 320 656
304 332 704
312 340 748
320 348 780
324 356 812
324 356 836
204 260 112
204 252 116
208 248 116
204 252 116
212 256 144
216 264 188
192 272 240
208 280 316
240 300 420
260 320 504
276 344 588
292 356 664
308 356 708
308 376 748
324 380 788
332 388 812
332 392 836
224 308 128
224 308 128
224 308 124
220 308 128
228 316 148
228 328 196
200 344 248
212 344 332
220 352 432
252 356 520
276 380 600
288 396 664
304 408 712
312 420 752
320 424 784
328 432 804
328 436 832
240 384 136
240 388 136
248 384 136
240 388 136
248 392 156
248 396 204
220 416 256
216 416 332
212 416 432
232 424 524
252 440 604
272 452 672
292 456 724
300 468 760
308 476 796
320 484 824
320 488 844
268 456 156
264 460 156
268 456 152
264 460 156
268 460 176
268 476 224
232 496 260
224 500 340
224 488 436
228 500 532
248 504 624
256 516 688
276 524 732
288 524 772
296 532 808
304 540 836
304 540 856
284 528 168
284 528 168
288 528 164
284 528 168
288 524 188
288 540 232
240 560 260
228 568 356
228 564 452
232 564 544
240 572 624
248 580 704
264 584 744
268 588 792
288 588 824
284 592 844
288 596 868
300 580 176
300 588 172
308 584 168
300 588 172
304 588 200
292 604 244
248 616 268
236 628 348
232 636 460
248 628 552
244 628 636
248 640 708
256 640 752
260 640 800
280 648 832
276 656 860
280 656 884
316 636 188
320 636 188
320 636 184
316 636 188
328 640 204
312 652 256
256 672 268
244 688 360
236 696 460
248 692 548
244 692 624
244 692 700
256 696 752
256 704 808
264 700 840
272 704 868
272 704 896
340 684 196
336 688 192
336 688 192
336 688 192
344 692 220
320 704 256
268 724 276
252 740 356
236 752 468
248 744 556
256 736 640
248 740 704
256 744 752
256 752 808
268 752 844
268 756 864
268 756 892
352 740 212
348 740 208
352 740 204
344 736 204
352 740 228
340 760 268
276 776 280
260 788 360
244 800 468
252 796 560
256 796 652
252 792 712
260 792 764
260 792 804
268 792 840
264 796 872
264 800 896
360 772 216
356 776 208
360 776 208
356 776 212
360 784 228
348 796 268
284 812 276
268 828 356
244 848 472
256 840 560
260 836 644
256 836 716
260 836 756
256 836 800
264 832 836
264 832 868
264 832 896
372 808 224
368 812 220
372 808 220
368 812 220
368 812 236
356 832 284
296 848 284
272 864 356
248 880 472
260 876 572
260 876 656
264 872 724
268 868 768
264 868 820
264 868 848
268 868 872
268 872 900
376 832 228
376 832 224
380 832 220
376 832 224
376 840 240
364 852 288
296 872 288
272 892 368
256 912 480
260 904 576
264 900 656
264 904 724
268 896 768
264 896 816
268 896 844
272 896 872
268 896 896
188 156 100
184 156 104
188 156 100
184 156 104
192 156 124
196 160 164
200 172 232
220 192 316
244 212 408
260 232 500
280 252 572
288 268 644
300 276 692
308 288 736
316 300 768
328 300 808
328 308 824
188 156 96
188 156 96
188 156 96
188 156 96
188 164 120
196 168 168
200 180 232
220 196 324
240 220 412
264 236 500
280 260 592
296 272 652
304 284 704
312 296 744
324 300 784
328 308 812
328 312 828
188 168 96
188 168 96
188 168 96
188 168 96
192 176 120
200 184 168
200 192 228
220 208 308
240 232 412
260 248 504
280 264 584
304 284 652
308 296 704
320 304 748
324 308 780
328 320 812
336 320 832
188 192 92
188 192 92
188 192 92
188 192 92
192 196 124
200 196 168
208 208 232
228 228 316
244 248 416
272 272 512
288 284 588
300 300 664
308 308 704
316 324 752
328 332 788
336 336 816
336 340 836
200 216 104
200 216 100
200 216 104
200 212 108
204 216 132
204 228 176
204 232 240
224 248 324
244 276 420
268 284 512
284 308 592
296 324 656
308 336 716
324 340 752
328 348 788
336 356 816
336 360 840
216 252 116
216 256 112
212 260 120
216 252 112
212 256 140
220 264 188
208 280 248
216 280 324
240 300 416
264 324 512
288 344 588
296 352 656
312 368 708
320 376 752
328 380 776
336 392 812
336 392 836
232 316 128
232 316 128
232 312 124
232 312 124
232 320 156
232 324 196
212 344 244
212 344 324
228 352 428
256 364 520
280 380 592
300 396 660
308 408 708
320 416 752
328 428 784
332 432 816
332 436 836
248 384 136
248 384 136
248 384 136
252 388 140
256 388 168
256 396 208
224 412 256
228 420 340
228 420 444
240 428 544
260 436 608
280 452 680
296 460 724
304 472 764
320 484 796
324 484 820
328 484 840
276 460 156
276 460 160
276 460 160
276 460 160
272 464 176
272 476 224
236 488 252
224 500 344
232 496 436
240 500 532
252 504 620
268 512 688
280 524 736
296 528 772
304 536 812
304 544 840
308 544 860
292 524 164
292 524 168
292 524 164
292 524 168
296 524 188
292 540 232
248 560 264
228 576 352
240 572 452
240 560 540
244 568 620
252 576 700
268 584 752
276 588 788
284 592 824
300 592 848
304 592 868
308 584 172
312 588 176
312 588 176
312 588 176
312 588 200
308 604 240
256 620 264
240 628 352
244 636 464
248 628 552
248 628 632
256 636 708
260 644 760
272 644 796
276 648 832
284 652 864
284 652 880
328 640 192
328 632 188
328 640 188
328 640 192
332 648 212
320 656 252
272 676 276
252 684 356
248 696 464
252 688 556
252 692 636
252 692 704
260 696 760
268 700 808
272 704 844
280 708 872
280 708 892
344 688 196
344 688 196
344 688 196
344 688 196
344 692 220
336 708 256
280 728 276
260 740 356
248 752 472
252 748 560
256 744 636
260 744 704
260 744 756
264 752 804
272 752 840
272 752 868
272 756 896
356 736 208
356 736 208
356 736 208
356 736 208
360 736 236
348 752 272
288 772 280
268 792 364
252 804 472
264 804 564
260 796 648
268 792 712
268 796 764
268 792 808
272 792 840
276 796 876
276 800 896
364 772 208
364 780 208
364 772 208
360 772 212
368 780 240
356 800 276
296 820 288
272 836 376
248 848 476
264 844 568
264 840 652
272 836 720
268 832 768
268 832 808
268 832 844
276 836 876
276 840 900
376 804 220
372 808 220
380 812 216
376 812 220
384 816 248
368 832 280
312 852 292
280 868 356
260 884 476
264 880 572
272 876 652
276 876 724
280 872 772
276 872 816
276 872 848
272 872 876
272 872 896
384 832 228
384 832 228
384 832 228
384 832 228
388 844 248
376 856 284
312 876 300
284 892 364
268 908 476
268 908 580
272 908 652
276 904 724
280 900 772
276 900 812
276 896 848
276 900 872
276 896 892
200 156 100
200 156 96
200 156 100
200 156 96
200 156 124
208 164 168
216 164 232
224 192 312
252 212 412
272 236 500
284 252 568
292 268 636
308 276 692
316 292 740
324 296 768
332 300 808
344 304 828
200 164 96
200 160 96
200 164 96
200 160 96
204 168 128
208 172 168
216 176 236
232 200 316
252 216 416
276 240 500
288 260 584
308 272 656
308 284 704
328 292 744
332 296 784
340 308 816
348 308 828
200 176 96
204 176 100
200 176 96
204 176 100
200 180 128
212 184 172
212 192 236
232 212 320
252 232 412
268 252 508
296 272 584
308 284 664
320 296 712
332 304 752
332 308 784
340 320 808
344 320 828
196 192 88
200 192 88
196 192 88
200 192 88
204 196 120
212 196 172
220 208 232
236 224 316
256 252 412
276 268 512
296 288 592
304 304 656
324 312 708
332 324 752
336 328 780
344 336 812
348 336 836
208 216 96
212 224 100
208 216 96
208 220 96
216 220 132
216 228 176
220 232 240
236 252 320
260 272 420
284 292 516
296 308 596
316 324 664
320 340 712
336 340 744
348 356 792
348 364 824
356 364 836
224 256 120
228 256 116
220 256 120
224 256 116
224 260 140
232 260 184
224 280 244
232 284 328
260 308 424
280 332 520
296 344 592
308 360 660
320 368 712
332 376 752
340 388 784
344 392 816
348 392 844
240 312 128
244 312 128
240 312 128
244 320 128
240 316 148
244 324 196
228 340 244
224 344 328
240 352 428
272 372 516
288 388 596
308 408 664
324 416 712
332 416 752
344 432 788
348 440 816
352 440 840
260 380 140
260 388 140
260 392 136
264 380 140
264 388 172
272 396 212
244 416 256
240 420 344
240 424 436
256 432 532
280 444 616
300 456 684
308 468 728
320 476 764
324 480 796
336 488 820
344 488 844
284 456 152
288 456 152
284 456 152
288 456 152
284 464 180
288 472 228
256 492 260
244 500 348
248 500 444
256 504 548
268 516 632
288 512 692
292 524 740
308 532 776
316 536 816
320 548 844
324 548 852
304 528 164
300 528 164
304 528 164
300 528 164
304 528 192
312 536 236
272 556 264
248 572 352
256 568 448
252 568 536
260 572 628
268 576 696
288 584 748
296 592 788
304 596 824
312 600 852
316 600 876
320 588 180
324 588 180
320 588 180
324 588 180
320 588 200
324 596 240
280 612 276
260 640 360
256 636 456
260 636 552
260 628 624
264 640 700
280 640 756
284 652 796
292 652 836
296 656 860
308 656 892
336 636 184
336 636 180
340 640 188
344 636 188
340 644 212
340 660 256
296 672 284
268 692 356
260 700 464
264 692 556
264 692 636
272 696 712
272 696 764
280 704 812
288 708 848
288 708 872
292 708 896
356 692 192
356 692 196
356 684 196
356 692 192
352 696 220
348 708 264
300 728 288
276 748 364
260 756 468
268 752 568
272 748 644
276 748 712
280 748 764
280 752 808
288 756 848
288 756 876
288 760 896
364 740 204
364 740 208
364 740 204
364 740 204
372 744 236
360 756 272
324 768 292
280 792 356
268 804 476
276 804 568
272 796 644
276 796 708
280 796 768
284 792 804
288 804 848
288 804 880
288 804 896
376 776 208
376 772 208
376 776 208
376 772 204
376 780 236
376 796 276
324 816 308
292 824 360
276 848 480
280 848 576
276 840 648
280 840 712
284 840 772
284 832 804
284 832 844
292 836 876
292 840 896
388 808 216
392 804 216
392 812 220
392 804 216
392 812 248
384 832 280
336 848 308
296 872 372
276 884 488
276 880 576
280 876 660
288 876 724
288 872 772
292 876 820
288 876 856
288 872 876
288 872 896
392 836 224
392 836 224
392 836 224
392 836 224
396 844 248
388 852 288
340 872 320
296 892 376
280 912 484
280 912 588
280 908 660
288 904 728
292 904 776
292 904 820
288 900 848
296 904 876
292 900 896
220 160 100
220 160 100
220 160 100
220 160 100
220 160 124
232 168 168
240 164 236
244 184 320
260 208 404
284 232 500
300 252 572
316 268 640
324 276 696
340 288 740
336 296 768
356 300 808
356 304 828
220 164 104
216 168 104
220 164 104
216 168 104
228 168 132
228 172 172
236 172 236
244 192 316
264 220 412
288 236 500
304 260 580
312 272 648
328 288 700
340 296 744
352 300 784
356 304 812
