滤镜资源/vsco 137 3dl+cube/VSCO 137 3dl/VSCO H3 Polychrome.3dl
#Generated by Picture Instruments - Look Converter
3DMESH
Mesh 4 10
0 64 128 192 256 320 384 448 512 576 640 704 768 832 896 960 1023
0 0 100
4 4 160
28 12 224
8 8 308
36 12 388
20 16 476
20 20 568
40 16 644
24 20 724
44 28 784
36 36 824
44 36 872
60 44 908
48 40 932
64 48 948
56 44 964
56 44 996
4 56 100
4 60 160
32 64 224
12 60 300
36 64 380
20 72 476
20 72 568
40 76 648
28 80 728
44 80 780
32 84 828
40 88 868
56 88 904
48 96 944
60 92 956
56 104 968
56 104 1000
8 120 108
12 124 164
32 120 224
12 124 308
40 120 388
16 128 472
20 136 568
44 136 648
28 140 728
48 148 784
40 148 836
40 144 880
56 148 912
48 156 944
60 156 960
52 168 968
52 168 992
16 192 116
12 188 176
36 184 224
12 184 304
40 188 384
24 200 480
24 200 572
44 208 656
28 208 724
48 212 792
36 220 832
40 220 880
56 224 912
48 228 940
60 232 960
60 240 968
60 240 1000
12 268 112
12 276 172
40 268 228
12 268 312
40 264 388
24 276 476
20 276 568
44 280 644
28 292 724
44 296 788
40 292 828
40 304 880
56 300 908
44 308 940
64 312 960
52 316 972
56 320 996
24 364 124
16 360 172
40 352 236
16 360 312
44 356 392
24 356 476
24 364 568
44 368 648
24 376 728
48 376 788
40 388 836
40 392 880
56 388 904
44 400 936
60 404 960
60 412 976
60 416 1000
24 460 120
24 460 180
44 460 248
24 460 324
44 456 396
28 460 484
20 460 568
44 460 656
28 476 732
44 468 788
40 480 832
40 488 880
56 488 912
44 500 940
60 496 960
60 504 976
60 504 992
28 556 132
24 556 176
40 556 244
20 556 320
44 560 392
28 556 488
24 556 572
44 556 648
24 560 724
48 560 780
40 564 832
36 572 872
52 576 904
48 580 936
60 592 960
60 600 976
56 596 996
32 644 136
28 648 192
44 640 248
24 644 324
44 644 404
32 648 492
24 648 572
44 644 652
28 640 720
44 644 780
40 648 832
36 652 876
56 660 916
44 664 936
60 660 956
60 668 976
56 672 996
40 708 140
32 708 192
44 708 252
28 716 332
48 708 408
36 708 500
32 712 588
48 708 660
36 708 732
44 708 788
40 716 836
40 720 880
56 716 912
48 724 944
60 720 956
60 728 988
60 728 996
44 760 140
36 760 196
48 760 256
36 760 336
52 760 416
40 760 504
40 764 588
48 760 664
36 764 732
48 756 792
44 760 836
36 768 876
56 768 912
48 772 944
60 768 956
60 772 980
56 776 1000
44 808 144
40 812 200
52 808 260
40 812 336
52 808 416
48 808 504
40 808 592
48 808 664
40 808 732
52 808 788
48 808 832
36 808 876
52 812 912
48 816 944
60 812 960
64 816 984
56 816 996
48 844 148
40 852 200
56 848 268
40 848 344
60 848 424
52 848 508
40 848 600
60 848 672
40 848 736
56 852 796
52 852 844
40 852 884
56 844 908
48 852 940
60 852 956
60 852 980
56 852 992
52 892 148
44 888 204
56 884 272
48 884 348
60 888 428
52 884 528
44 892 608
60 888 676
48 892 740
56 884 800
52 892 844
52 888 888
60 888 916
44 888 940
60 884 956
64 892 984
60 892 1000
56 920 156
48 928 200
60 928 268
52 928 356
60 920 424
60 924 520
48 924 600
60 920 672
52 928 752
60 924 796
60 920 844
48 928 880
60 924 908
48 928 936
64 924 956
60 928 984
60 928 1000
60 960 156
56 964 208
64 960 276
56 964 352
64 960 432
60 960 532
56 964 604
64 960 676
56 960 748
68 960 804
64 960 848
56 960 888
64 960 908
56 964 948
60 960 964
64 960 984
56 968 996
60 980 156
56 988 212
64 988 276
56 988 356
64 984 432
76 972 532
60 980 612
72 976 684
60 980 752
76 976 804
64 980 848
56 992 888
64 988 908
56 992 944
64 984 960
76 980 980
64 980 988
56 4 100
60 4 160
68 8 224
80 8 304
76 12 384
80 12 476
84 20 568
88 16 656
92 20 724
96 28 784
100 40 832
92 36 868
100 40 904
104 44 932
108 48 952
116 44 988
116 44 996
64 60 108
72 64 172
72 60 232
80 64 308
80 68 392
88 76 488
88 80 580
100 76 660
92 80 724
104 84 788
100 92 836
112 96 884
108 96 916
112 96 940
120 96 968
120 104 984
124 108 1000
72 120 116
76 124 172
76 124 236
80 128 312
84 128 396
84 132 480
84 136 564
96 140 656
104 144 728
104 152 792
104 148 840
104 152 884
112 156 912
116 164 940
120 164 968
124 168 984
124 172 1000
76 192 116
68 192 176
84 196 236
84 196 308
84 200 392
88 200 480
92 200 572
92 212 660
100 216 728
104 220 788
100 224 840
104 228 880
112 228 908
116 232 944
120 240 968
124 240 984
128 244 996
76 268 116
80 280 180
84 272 252
84 268 312
80 268 392
84 276 480
88 284 576
100 288 660
96 296 732
104 296 788
100 300 840
104 304 884
112 308 916
120 312 944
120 316 968
120 324 988
124 328 1000
80 360 124
88 368 176
80 372 240
88 368 312
88 364 400
88 364 480
88 368 564
92 372 656
100 376 724
100 392 792
104 400 844
104 392 880
108 400 908
116 404 936
116 412 960
124 416 992
124 416 1004
84 468 124
88 468 180
88 468 248
88 464 320
88 468 404
96 468 492
88 468 572
92 472 656
96 476 724
104 480 792
100 484 840
104 488 880
116 496 912
116 500 936
116 500 964
124 512 988
128 516 1000
88 560 128
92 560 184
92 560 252
96 568 328
88 564 400
96 560 492
92 560 576
100 568 660
100 568 728
104 572 792
104 572 844
100 580 880
108 584 908
108 588 940
116 600 964
120 596 988
120 600 1000
92 648 132
100 644 192
96 648 256
96 648 328
96 644 404
100 656 492
92 648 580
96 644 660
96 644 724
104 648 792
104 656 836
108 656 880
108 664 912
108 668 936
120 668 964
120 676 988
120 676 1000
96 712 136
100 712 196
104 716 264
100 712 328
104 716 416
104 712 496
100 716 588
100 716 660
104 716 732
100 712 796
100 716 836
104 720 880
112 720 916
116 732 940
116 732 964
124 728 992
128 732 1000
100 764 132
96 768 196
100 764 268
104 764 332
104 768 424
100 764 512
100 764 592
96 764 668
104 768 744
100 764 796
108 768 840
100 772 880
112 768 916
112 772 940
116 772 964
124 776 988
124 776 996
104 808 140
104 812 204
100 812 268
108 808 340
112 812 432
108 808 516
104 808 600
108 812 676
100 808 740
104 812 796
104 808 844
112 812 888
112 816 916
112 812 944
116 820 968
116 816 988
120 820 996
104 848 144
112 848 200
116 852 276
108 856 348
112 852 428
108 848 512
104 848 596
112 852 680
112 852 748
108 848 800
104 848 840
108 848 876
116 852 912
112 860 944
116 860 968
124 860 988
120 856 1004
104 888 144
108 892 204
116 896 268
116 892 348
116 896 432
112 892 516
116 892 604
108 892 684
116 892 740
112 896 800
112 892 848
112 892 884
112 892 912
116 892 944
120 892 968
124 892 984
128 896 1000
112 924 148
116 932 208
112 928 280
116 932 352
120 928 440
120 928 528
116 928 612
124 932 688
116 928 748
120 932 808
116 932 848
116 932 888
120 928 920
124 928 944
120 928 968
116 932 984
124 932 1004
120 964 148
120 964 204
124 972 276
120 972 356
128 972 448
120 964 528
116 964 608
120 964 692
124 968 744
120 968 812
116 968 844
124 968 888
116 964 912
120 964 944
120 968 972
128 964 988
124 964 1004
120 988 156
120 992 212
124 988 284
128 992 364
128 988 444
124 984 540
124 980 616
132 980 692
124 980 760
124 980 808
120 992 852
120 992 884
124 988 912
124 992 940
132 988 968
128 988 984
128 984 996
124 4 108
128 4 164
140 12 232
148 8 300
144 12 384
156 16 476
156 20 568
156 24 652
168 24 728
172 28 788
164 36 824
172 36 864
176 40 900
188 40 936
184 52 948
188 44 988
196 44 1000
132 60 108
132 60 164
144 60 232
152 64 308
156 72 396
156 76 480
160 76 576
164 80 656
164 84 728
176 84 796
180 92 840
180 96 884
180 96 916
188 100 944
196 104 968
200 104 984
200 108 1004
144 120 112
144 120 172
152 124 240
152 132 316
160 132 396
164 140 488
164 140 580
168 148 668
176 144 736
172 152 788
184 152 844
188 160 880
196 160 916
196 164 944
200 164 968
200 172 988
200 172 1000
144 188 116
152 196 168
156 200 240
160 196 312
156 208 396
164 208 484
164 208 572
164 212 664
172 216 732
180 220 792
184 228 844
180 232 880
188 236 908
200 240 936
196 240 960
200 248 984
208 244 1008
156 268 112
152 280 172
156 280 248
156 276 316
164 280 400
164 280 488
164 284 580
172 288 656
172 292 732
176 304 796
184 304 840
184 316 884
188 324 916
192 316 940
196 316 964
204 328 984
204 328 996
152 360 120
156 368 176
160 376 256
160 368 324
164 368 400
160 364 488
164 372 576
172 380 668
176 384 740
176 400 796
180 396 840
188 400 880
184 408 916
192 412 944
200 416 964
200 412 984
200 420 1000
152 464 116
160 460 176
164 472 248
164 476 324
164 468 400
172 476 492
164 468 572
168 472 656
172 476 728
180 484 788
184 496 840
188 500 884
192 500 908
188 500 940
200 512 968
200 516 984
208 516 1004
164 556 128
164 572 188
172 576 260
168 568 324
168 568 408
168 572 500
168 568 580
176 568 660
176 568 732
180 576 796
180 580 844
184 584 880
184 592 908
200 600 944
192 596 964
200 604 988
204 604 1004
160 644 132
172 644 188
168 648 264
172 648 336
176 656 424
168 652 504
176 652 584
172 652 664
180 656 736
176 652 796
184 660 844
184 660 884
184 664 912
196 668 940
200 672 972
200 676 988
196 676 1000
172 716 132
172 716 192
180 720 264
172 716 332
180 716 416
176 716 504
176 720 588
176 720 664
176 716 736
180 720 792
180 716 840
184 720 876
192 724 908
192 732 944
196 732 964
200 732 984
208 732 1004
172 764 132
180 768 196
184 772 268
188 768 340
180 772 420
184 772 508
180 768 596
180 776 676
184 772 744
184 772 796
180 772 836
180 772 876
188 772 912
200 776 940
200 784 968
196 780 984
200 780 1000
180 812 140
184 812 200
180 812 272
188 816 348
188 812 428
184 816 516
184 816 604
184 816 672
184 816 744
188 816 804
188 816 844
192 812 884
184 816 912
192 820 944
196 820 968
200 820 988
204 820 1004
180 852 144
184 848 212
192 852 276
188 856 352
188 852 432
192 852 528
188 852 612
188 856 688
188 852 748
188 856 808
188 852 852
188 852 884
192 856 908
192 860 948
196 860 964
200 860 988
204 860 1004
184 888 148
188 892 200
192 896 272
200 896 360
192 900 432
192 896 520
192 892 608
188 896 680
192 896 756
196 892 800
188 896 848
188 896 880
192 892 912
196 892 940
200 900 968
204 900 984
204 896 1000
192 928 148
188 928 208
192 932 284
196 928 360
204 932 448
200 928 532
200 928 608
196 932 684
196 928 756
200 932 812
196 932 848
200 932 896
196 936 920
200 932 940
196 928 960
200 936 984
200 936 1000
196 960 148
196 964 216
200 972 284
196 964 364
200 964 452
200 968 532
204 964 624
200 964 696
204 964 756
196 968 808
204 968 852
204 968 896
196 964 920
200 964 948
204 968 964
200 964 984
200 964 1000
196 992 156
200 988 220
200 992 288
204 992 364
200 996 448
204 984 544
208 980 632
216 984 704
204 984 768
208 984 816
204 996 856
204 992 888
204 996 920
212 992 948
204 988 964
204 988 984
204 988 996
180 4 112
188 12 160
204 12 220
212 8 300
216 12 380
224 16 476
224 16 568
236 20 656
236 28 720
244 24 788
244 36 824
240 36 860
252 36 900
260 44 932
260 48 952
268 44 984
268 44 996
188 60 108
192 56 160
208 64 232
224 68 312
228 72 392
228 72 480
232 80 572
236 76 652
240 88 728
248 84 796
256 92 844
252 92 880
260 96 912
264 96 936
272 100 968
276 108 988
