滤镜资源/vsco 137 3dl+cube/VSCO 137 3dl/VSCO T2 Moody.3dl
#Generated by Picture Instruments - Look Converter
3DMESH
Mesh 4 10
0 64 128 192 256 320 384 448 512 576 640 704 768 832 896 960 1023
260 264 264
264 260 264
276 264 280
272 276 316
284 280 360
288 288 400
300 300 444
312 308 484
320 320 536
328 324 580
340 340 636
348 356 684
360 360 732
368 372 764
368 372 788
376 376 812
376 376 824
268 264 268
264 268 268
268 268 284
276 276 316
288 284 352
288 296 404
304 304 448
312 312 484
320 324 540
328 328 576
340 340 632
352 356 688
364 360 728
364 372 772
376 372 796
376 376 812
376 376 824
272 268 272
268 276 272
272 272 284
272 284 320
288 288 352
288 296 396
296 304 448
316 312 488
320 328 532
328 332 576
340 348 636
352 364 688
368 364 732
368 376 772
372 376 796
376 384 808
376 384 820
264 284 268
264 288 272
264 292 284
276 292 316
284 300 356
292 308 404
300 316 444
312 328 488
324 340 532
332 344 576
336 356 632
348 372 692
364 376 732
364 384 768
372 388 796
376 392 804
380 396 824
280 312 276
276 312 284
272 312 288
268 324 328
284 320 356
292 328 404
300 344 444
312 348 488
320 360 528
332 368 580
340 376 632
352 384 688
360 396 724
368 400 768
372 408 796
372 412 812
380 412 828
292 352 288
292 344 292
296 348 304
276 360 324
268 368 368
288 364 416
296 372 440
316 384 484
320 392 536
328 400 580
336 412 636
352 420 692
360 424 732
364 440 764
372 444 796
376 452 816
376 452 824
304 396 304
300 396 308
308 396 316
292 408 340
284 420 372
268 432 424
280 424 464
300 428 504
308 436 544
328 436 584
340 456 640
352 468 692
360 476 732
368 484 772
372 484 796
380 492 808
380 492 824
320 456 320
320 448 328
328 452 336
320 452 360
308 476 380
284 492 420
272 504 472
280 504 512
288 504 560
308 500 600
320 508 640
336 516 692
360 524 732
364 528 764
372 540 796
376 544 816
376 544 820
340 512 344
340 516 340
348 516 352
340 516 376
328 524 388
308 552 428
296 572 476
284 576 520
276 576 568
292 576 612
308 576 668
324 580 720
340 584 752
348 588 788
364 588 808
364 592 824
364 592 832
356 576 360
360 576 364
364 572 368
356 576 392
360 576 412
336 596 448
312 616 476
296 636 528
280 648 580
288 652 632
288 656 688
300 648 732
324 648 776
332 652 804
340 652 824
348 652 844
348 652 852
380 624 376
380 628 384
384 628 388
376 624 408
380 632 436
360 644 460
336 664 492
320 684 528
300 708 576
288 720 636
288 724 696
284 728 752
308 708 784
316 712 828
328 716 844
328 716 864
324 716 872
392 676 388
392 676 392
396 676 404
392 676 428
392 672 444
384 684 472
360 704 500
348 724 528
328 748 576
304 768 628
292 776 692
288 780 752
296 780 804
296 780 836
308 772 852
312 780 876
316 780 884
404 716 404
400 712 412
404 712 412
404 716 440
404 716 464
392 716 488
380 740 516
360 756 544
332 780 576
316 804 636
296 824 692
288 828 756
292 824 800
296 828 844
304 824 872
300 824 888
304 824 892
412 740 416
408 740 412
412 740 424
412 740 444
412 736 472
408 740 500
388 760 524
372 784 548
344 804 588
328 824 628
308 848 696
288 860 760
300 856 800
292 856 840
296 856 872
300 856 892
292 856 904
416 756 424
420 760 420
420 756 424
424 760 452
416 756 468
416 756 508
400 776 528
384 796 552
356 820 588
340 840 628
320 864 692
292 880 756
300 880 804
292 884 844
300 880 872
296 880 888
292 880 908
424 768 424
420 772 428
424 768 432
424 772 456
424 772 480
428 772 512
408 792 536
388 808 552
360 828 592
340 852 636
320 872 692
296 900 756
296 896 804
292 896 844
296 896 868
300 896 896
292 896 908
424 772 428
424 776 428
424 776 432
424 776 460
424 772 480
428 772 512
408 792 532
388 808 556
364 832 592
348 852 636
320 876 692
296 900 756
296 904 804
292 904 844
296 904 872
300 900 888
296 900 904
264 260 264
264 260 264
272 268 288
272 276 316
276 284 352
288 292 404
304 304 448
308 312 488
320 320 536
332 332 584
340 340 632
348 356 684
356 360 732
368 372 764
372 372 792
376 376 816
376 376 824
268 268 264
264 268 268
268 268 288
276 276 316
284 284 364
292 296 404
304 304 448
308 312 488
320 324 540
332 332 580
336 344 640
352 356 688
360 364 732
364 372 768
372 376 800
376 376 812
376 376 824
272 272 272
268 272 272
272 276 292
272 284 320
284 288 360
292 296 400
304 308 444
308 316 484
320 328 532
332 340 580
340 348 636
352 364 688
364 368 736
368 376 768
376 380 804
376 384 816
376 384 820
268 288 268
264 288 272
264 292 288
276 292 316
280 300 360
292 308 400
300 316 440
312 328 488
324 340 532
332 348 584
336 356 636
348 372 692
360 380 732
364 384 768
376 388 796
376 392 812
380 396 824
284 312 280
276 312 284
272 312 292
268 324 324
280 324 364
288 332 400
304 340 448
308 352 488
320 364 532
332 368 580
340 372 636
356 388 692
356 400 740
368 400 768
372 416 804
372 412 816
380 412 828
292 344 288
292 344 292
288 352 304
280 364 328
272 368 376
284 364 412
296 372 444
312 384 488
320 392 536
328 404 580
340 416 636
352 420 688
356 436 732
364 440 764
376 448 800
376 452 820
376 452 820
304 404 308
304 404 308
308 400 320
296 408 340
280 420 372
272 432 424
280 424 464
296 432 496
304 432 536
324 448 588
340 456 640
352 468 692
356 476 732
368 480 764
376 484 788
376 492 816
376 492 824
320 452 320
320 448 328
324 456 336
320 452 360
304 476 388
284 496 424
272 504 472
276 504 524
288 504 556
304 504 604
324 504 652
340 512 692
360 524 736
364 532 772
376 544 796
372 544 812
376 544 820
340 512 344
340 516 340
344 516 356
340 516 376
328 528 396
316 552 428
296 568 468
284 576 524
276 584 568
292 580 620
308 576 672
324 580 720
340 584 760
348 588 788
364 588 812
364 600 824
364 596 832
356 580 360
364 576 360
364 572 372
360 576 392
356 580 416
336 600 444
320 620 480
300 640 528
288 652 576
284 644 624
284 652 688
304 652 736
320 652 776
328 656 804
336 652 836
348 652 848
348 652 852
376 628 376
380 628 384
376 628 392
380 628 416
376 632 436
360 644 464
340 668 496
320 684 524
300 708 580
288 716 632
288 724 696
288 724 748
300 720 796
312 720 832
324 716 848
328 720 864
324 716 872
392 676 384
396 672 392
392 676 400
392 676 428
392 680 452
376 688 476
360 704 500
344 728 536
324 748 580
300 772 636
288 784 700
292 784 760
288 784 812
300 780 840
308 776 864
312 780 876
316 780 884
400 716 404
400 712 412
400 712 416
400 716 436
400 712 464
396 716 484
380 740 516
356 760 540
340 780 580
316 804 628
292 828 692
292 828 752
288 824 804
296 828 848
292 828 872
304 824 884
304 824 892
408 740 412
408 740 412
412 740 432
412 740 444
412 740 472
408 740 504
392 760 524
372 784 552
348 804 588
324 824 636
300 848 692
292 864 760
296 856 804
292 856 840
288 860 872
296 860 896
296 860 900
420 760 420
420 760 420
420 756 436
424 760 452
420 760 480
420 756 508
400 776 528
380 800 552
360 820 588
332 844 636
312 864 700
296 884 756
296 884 812
292 884 844
300 880 880
292 884 892
292 884 908
428 772 424
420 772 428
424 776 440
420 772 456
424 772 488
424 768 508
408 792 536
388 812 556
364 828 588
340 852 640
316 876 688
296 900 752
292 896 808
292 896 840
296 900 872
300 896 896
296 896 908
428 776 428
424 776 428
424 784 440
424 776 460
428 780 488
424 780 512
408 792 532
388 812 560
364 832 592
344 852 640
316 880 692
296 900 752
296 904 808
292 904 844
296 908 876
300 904 896
296 904 904
264 260 264
264 260 264
272 268 288
276 272 316
276 284 352
292 292 400
300 296 444
308 312 488
316 320 536
332 332 588
340 340 632
348 356 684
360 360 724
368 372 764
368 372 792
380 376 812
376 376 824
268 268 260
264 268 268
268 268 288
276 280 320
288 284 360
292 296 400
304 300 444
308 312 488
320 324 540
332 332 584
344 340 640
348 356 684
364 368 736
372 372 768
372 376 800
376 376 812
376 376 820
272 272 268
268 272 272
272 272 292
272 280 320
288 292 364
296 300 408
300 312 444
308 316 488
320 328 532
332 340 584
348 348 640
352 360 692
364 368 736
368 376 776
376 380 804
376 384 816
376 384 820
268 288 268
264 288 272
264 292 288
272 292 316
284 300 360
292 308 400
300 316 440
312 328 484
324 340 532
332 348 588
340 360 640
352 372 688
364 380 732
368 388 768
376 388 792
380 396 816
380 396 824
284 312 280
276 312 284
272 312 292
268 324 328
280 324 364
292 328 400
304 340 448
308 352 492
316 360 536
332 368 588
344 376 640
348 392 692
360 400 732
372 404 772
372 416 804
376 416 820
376 416 828
292 344 288
288 344 296
288 352 304
276 364 328
268 364 368
284 364 412
296 372 452
312 384 492
320 392 536
328 404 584
340 416 636
352 420 692
364 432 736
368 436 764
376 448 800
380 448 820
376 448 820
300 400 304
304 400 312
308 400 320
304 408 344
284 420 368
276 428 424
280 424 464
296 432 496
308 436 540
324 448 584
336 456 636
352 468 692
364 472 732
372 484 768
376 492 792
376 492 816
376 492 824
320 452 320
324 456 324
320 456 336
320 452 360
308 476 388
284 492 424
280 500 468
276 504 524
288 504 556
304 504 604
328 508 656
340 512 692
360 524 736
368 532 768
372 540 792
376 540 812
376 540 820
340 512 344
340 512 344
344 512 360
340 516 376
332 528 396
312 544 424
288 568 472
284 576 520
280 580 576
292 580 624
308 576 672
324 572 716
340 584 760
348 588 788
364 588 812
364 600 828
364 592 832
360 584 364
364 572 360
364 572 372
364 572 392
360 580 416
336 596 440
324 620 472
300 644 528
288 652 576
292 652 628
292 656 684
304 652 736
324 648 772
332 652 808
340 652 828
348 652 848
348 652 852
376 628 376
380 628 384
376 628 392
380 632 416
376 632 436
368 648 464
340 668 496
324 688 528
308 708 584
288 716 628
288 716 692
292 720 740
300 720 792
312 720 824
324 724 844
332 716 860
332 716 876
396 672 384
392 680 392
396 676 404
400 680 428
396 676 452
384 692 476
360 704 500
344 728 536
320 748 580
300 772 636
292 776 696
292 784 764
296 780 812
304 784 836
308 776 860
312 776 876
312 776 884
408 712 404
408 712 400
408 716 420
404 716 432
408 712 468
400 720 488
384 740 516
360 760 540
340 780 580
316 804 628
296 828 696
292 824 756
296 828 808
296 828 848
300 828 872
304 824 884
304 824 892
408 740 412
412 744 416
412 740 432
412 740 444
416 744 472
408 740 504
400 764 528
376 784 552
352 804 588
324 824 636
304 844 688
296 860 752
296 856 804
292 856 840
292 864 872
300 864 900
300 860 908
420 760 420
420 760 420
420 756 436
424 760 452
420 760 480
420 756 508
400 776 524
376 796 552
360 820 588
336 844 632
312 864 700
304 880 760
296 884 812
300 880 844
300 880 880
300 884 896
300 880 904
428 772 424
420 768 428
424 776 440
420 772 460
424 772 488
428 772 512
408 792 536
388 808 560
368 828 592
340 852 640
312 876 692
296 900 760
300 900 812
300 900 852
296 900 872
300 896 896
300 896 900
428 776 428
424 776 428
424 784 440
424 776 460
428 780 488
428 776 516
408 792 536
392 812 564
368 832 592
344 856 640
316 880 692
296 900 756
300 904 808
300 908 852
296 908 876
300 904 896
300 904 900
264 260 264
268 264 272
272 268 288
276 272 316
288 280 352
292 292 400
304 296 440
316 312 488
320 320 528
328 328 576
340 340 632
352 352 684
360 360 724
368 372 764
372 372 792
380 372 812
380 376 820
268 268 260
268 268 268
272 268 288
280 280 320
288 284 360
296 296 400
304 300 440
316 312 488
320 324 532
336 336 588
344 340 640
352 356 684
364 356 732
372 372 764
376 372 796
376 376 812
