滤镜资源/vsco 137 3dl+cube/VSCO 137 3dl/VSCO N2 New Modern.3dl
#Generated by Picture Instruments - Look Converter
3DMESH
Mesh 4 10
0 64 128 192 256 320 384 448 512 576 640 704 768 832 896 960 1023
64 64 64
64 68 92
76 60 132
76 72 192
84 68 252
84 76 328
88 80 424
96 76 508
96 80 612
104 80 700
100 92 756
100 92 816
116 92 856
116 96 896
128 100 920
128 100 948
128 100 980
64 96 64
64 92 100
76 96 132
76 100 184
84 100 240
84 104 320
84 108 408
96 108 516
92 116 612
100 112 688
100 120 752
104 116 816
120 116 860
120 128 900
128 124 928
128 128 948
128 132 984
68 124 68
72 124 96
76 124 136
72 128 180
84 128 248
80 132 320
88 136 420
96 140 512
92 144 612
104 152 688
104 156 764
108 152 816
120 148 864
116 164 900
132 164 932
124 172 948
128 172 980
76 176 72
72 172 104
80 160 140
76 168 184
84 172 248
84 176 328
88 184 428
100 188 520
92 192 612
104 192 692
100 196 768
100 200 824
120 204 860
116 204 900
124 216 932
128 220 956
128 220 980
80 220 80
80 228 104
88 216 144
80 220 188
84 216 240
88 228 324
88 232 412
96 236 504
96 252 616
100 252 692
104 260 760
104 260 816
116 268 860
120 272 900
132 280 932
128 284 952
128 292 976
88 304 80
80 296 112
88 300 144
84 300 192
92 296 256
84 300 328
88 300 412
92 308 504
96 320 612
104 320 692
104 328 768
104 336 816
120 340 856
116 356 900
128 356 932
128 364 956
128 376 980
84 388 80
88 388 112
96 388 152
88 388 200
96 388 260
88 392 336
84 392 412
100 396 524
96 408 620
104 404 688
108 420 764
108 428 824
124 436 864
116 448 908
124 452 932
128 468 956
128 468 972
92 492 88
88 496 116
92 492 152
88 496 208
92 500 256
96 488 336
92 496 424
96 488 512
96 500 616
104 504 688
104 516 760
108 532 820
120 540 860
116 548 896
132 560 932
132 568 956
132 568 976
100 604 92
96 604 120
100 604 160
92 604 208
100 600 268
96 608 352
92 608 432
96 604 516
96 600 612
104 612 692
104 620 760
108 636 820
124 644 868
116 652 892
128 656 932
128 664 960
128 668 980
104 708 92
92 712 116
108 708 156
96 716 212
104 708 276
104 708 352
100 712 440
104 704 532
100 708 628
108 704 700
108 712 768
108 724 816
120 728 864
116 736 904
128 740 928
132 740 952
132 752 980
108 780 104
100 792 128
112 788 164
104 788 220
108 788 288
112 788 376
104 784 448
108 788 540
100 792 628
108 784 704
104 788 772
108 796 820
124 788 864
116 804 900
128 812 932
132 812 956
132 812 980
108 848 96
104 852 128
112 852 176
104 852 224
112 852 288
108 852 368
112 852 460
112 848 548
108 856 632
116 848 704
108 856 768
104 852 816
124 856 864
120 864 900
128 860 932
132 860 960
132 864 984
120 896 104
120 900 128
120 896 176
112 896 232
116 896 292
116 892 376
116 896 464
120 896 560
112 900 640
120 900 716
120 900 780
108 900 824
120 892 860
116 900 896
124 904 932
132 908 964
132 908 980
120 936 108
116 932 128
120 932 176
116 936 232
124 932 304
124 932 396
116 936 484
124 936 560
120 936 652
124 932 720
124 932 780
116 936 824
120 932 864
120 936 896
128 936 932
136 940 964
136 940 984
128 960 112
120 968 140
128 964 184
120 968 240
128 964 300
128 960 396
120 960 480
128 960 564
124 964 656
128 960 716
132 956 784
124 960 832
132 960 868
124 964 904
128 956 932
132 964 960
128 964 980
132 976 116
124 984 140
128 980 184
128 984 244
128 980 316
132 976 408
128 984 484
136 980 580
128 984 660
132 980 732
132 980 788
128 984 836
132 980 872
124 984 912
132 980 936
128 976 960
128 984 984
136 984 116
128 996 140
132 988 184
132 992 244
132 988 320
136 976 416
132 984 500
136 980 592
132 984 676
140 980 736
132 988 788
128 996 836
132 992 872
128 996 912
132 988 936
140 984 960
136 988 980
104 68 60
104 68 100
116 68 136
120 72 184
124 72 244
124 76 324
132 80 420
136 80 520
144 80 616
144 80 696
152 92 764
144 92 812
156 92 856
160 96 892
164 100 920
172 96 964
176 96 980
112 92 68
120 96 104
112 96 140
124 100 192
128 100 256
136 108 340
136 108 432
148 112 532
144 116 624
148 116 704
152 116 768
164 120 824
168 124 864
176 128 912
172 128 936
176 136 968
184 136 984
116 124 64
116 128 100
124 128 144
120 136 188
128 136 252
136 136 328
132 140 416
140 144 516
144 148 624
152 160 700
148 152 764
160 156 824
172 164 868
172 164 904
176 168 936
180 168 964
180 172 980
120 176 72
116 176 108
120 172 144
128 176 192
124 176 256
136 184 332
136 180 412
140 188 524
148 196 628
152 200 700
152 204 768
160 212 824
168 208 864
164 216 900
172 224 944
180 228 972
188 228 984
124 220 72
128 236 120
128 228 148
128 228 196
128 224 256
132 236 332
140 236 428
148 248 532
148 256 632
152 260 700
152 260 768
152 272 824
164 276 872
176 280 912
176 284 944
172 296 964
184 296 988
128 300 80
132 304 108
132 308 152
132 300 196
140 304 264
136 300 332
136 308 420
144 320 520
148 324 620
156 336 700
156 348 772
160 348 820
164 352 864
164 360 900
172 368 932
184 376 968
184 376 984
136 396 80
140 400 112
140 392 156
132 392 204
140 392 268
136 392 336
140 400 428
140 404 524
148 408 620
152 416 704
152 424 764
164 436 832
168 444 868
168 452 900
172 464 936
176 472 964
184 480 988
140 496 88
144 500 116
140 500 156
144 504 212
136 504 272
144 504 352
140 500 436
148 500 528
148 512 632
152 524 712
156 524 776
156 532 828
168 548 872
168 560 908
176 572 940
172 572 968
184 572 984
144 600 88
144 608 124
144 616 160
148 616 212
144 612 272
144 620 344
144 616 440
144 616 528
144 616 616
148 616 696
156 628 768
160 640 824
160 644 868
168 656 900
172 660 936
172 676 960
180 684 984
144 708 88
148 716 124
156 716 164
144 716 208
148 716 284
152 716 364
148 720 456
156 720 544
148 712 624
152 704 696
152 720 764
156 724 824
168 736 864
172 748 904
168 744 932
180 752 960
188 760 992
148 780 96
152 792 132
156 792 168
160 796 224
152 796 292
152 796 372
156 796 460
148 796 552
152 796 636
156 796 708
160 800 776
156 800 832
164 800 868
172 812 908
172 816 936
176 816 964
184 824 984
156 852 100
156 852 132
152 852 176
160 852 228
156 852 300
164 856 380
160 852 472
160 856 560
156 856 644
160 852 716
160 852 780
164 856 832
168 860 864
172 864 912
172 864 936
176 872 964
184 872 988
160 896 100
168 900 136
172 904 176
168 908 232
164 904 304
168 900 380
160 904 464
168 900 564
172 900 648
160 900 712
164 900 780
168 900 832
168 904 860
176 908 912
172 912 936
176 912 960
176 912 980
160 936 108
164 936 136
168 940 184
176 936 240
172 940 308
168 940 388
164 936 480
168 940 572
172 940 660
172 940 728
172 944 784
172 940 836
168 940 872
172 940 904
172 940 936
180 944 964
188 944 984
168 960 104
172 972 152
168 964 192
176 964 244
172 964 316
172 968 400
172 964 496
176 968 584
172 964 664
176 964 728
180 964 788
168 964 844
172 964 876
180 968 912
180 964 940
176 968 960
180 964 988
176 980 112
180 988 148
176 988 192
180 988 252
184 988 320
180 988 404
176 984 488
180 984 588
184 988 668
180 988 736
172 988 792
176 984 840
176 988 868
180 984 904
180 984 936
180 984 964
180 984 984
176 992 112
180 996 148
180 1000 192
184 1000 252
184 996 324
188 988 420
188 988 500
192 988 596
188 988 676
184 988 744
180 1000 792
180 996 844
184 996 872
180 996 904
188 1000 944
184 996 964
184 996 984
156 68 68
160 68 96
168 68 144
176 68 184
172 72 248
180 76 320
188 80 412
188 80 516
200 80 616
208 84 700
200 92 752
204 96 812
212 96 856
220 100 892
228 100 928
228 96 956
232 96 984
168 96 64
164 92 92
164 96 144
180 100 188
184 104 252
184 108 332
188 112 428
200 108 524
200 116 624
204 120 696
216 116 776
224 124 832
216 128 872
236 128 912
236 128 944
244 136 964
244 136 992
164 124 64
168 132 104
184 132 152
176 132 200
184 140 256
188 140 344
200 144 432
204 148 544
208 156 636
212 152 708
216 156 780
224 164 832
232 164 876
236 168 912
236 172 936
248 176 964
248 176 988
168 168 76
176 172 100
180 176 144
188 176 196
184 188 260
188 188 344
196 188 424
200 196 528
204 200 624
220 204 716
216 212 784
216 212 828
228 216 868
240 224 908
236 228 932
244 228 964
252 228 988
184 224 76
184 236 112
184 236 156
188 232 200
192 236 260
188 236 340
196 248 436
204 248 528
196 260 628
212 264 712
220 272 784
224 280 832
232 288 876
232 280 908
240 292 940
248 304 964
248 304 976
180 300 76
184 304 112
188 320 156
188 308 212
188 308 264
192 304 340
200 316 436
204 320 544
208 332 636
216 348 720
216 348 776
224 356 832
228 360 872
232 368 912
244 380 940
248 376 968
244 384 984
184 392 80
192 396 120
196 404 160
196 408 208
200 408 276
200 404 352
196 400 424
196 412 520
204 420 624
216 424 704
220 444 772
224 448 832
232 452 868
232 460 904
240 468 936
248 480 968
252 480 988
196 496 80
196 508 112
204 516 160
200 516 208
200 508 280
200 512 352
200 516 444
208 516 532
200 516 616
212 528 708
216 540 776
224 548 828
232 556 872
236 564 908
232 568 936
240 576 968
244 588 984
204 608 84
204 612 124
204 624 172
204 620 216
212 624 292
204 620 356
204 624 448
208 624 544
204 624 624
216 636 716
216 644 776
224 640 832
224 652 876
236 668 916
236 676 936
244 688 968
244 688 980
204 712 92
208 712 116
212 720 172
212 720 220
212 724 288
216 720 372
216 724 460
208 716 540
216 724 636
216 724 704
216 724 768
220 732 824
236 744 868
228 748 908
240 756 932
248 756 972
248 760 988
208 792 100
216 796 128
216 800 172
220 800 228
212 800 296
220 800 372
220 804 472
212 804 556
216 804 648
220 804 712
212 792 776
220 800 828
228 808 868
240 816 912
240 824 940
240 824 964
244 828 984
212 852 92
220 856 128
220 860 176
220 860 236
228 864 308
224 864 384
220 856 472
220 860 564
216 856 648
224 860 724
220 856 780
228 864 836
224 864 876
232 868 908
240 872 940
248 876 968
248 876 984
216 896 96
224 900 136
228 908 184
224 904 244
228 904 308
232 904 400
232 908 496
228 904 584
232 904 656
228 904 724
228 904 788
228 904 836
236 908 872
232 912 908
236 912 940
244 916 968
244 916 984
216 936 104
232 936 140
236 944 188
240 944 248
236 944 324
236 944 404
236 940 488
224 940 580
232 940 664
236 940 736
228 940 788
232 944 836
232 944 868
240 940 904
240 948 936
248 948 968
248 944 988
232 964 108
232 968 144
232 968 188
240 964 248
244 968 332
236 968 412
240 964 492
240 968 588
236 964 672
236 964 740
236 968 804
240 972 848
236 972 876
236 964 912
240 964 940
244 968 960
248 968 980
232 984 108
244 988 156
240 984 200
244 988 256
244 988 332
244 984 416
244 988 504
244 988 600
248 984 688
240 984 744
244 988 800
244 988 852
240 988 880
248 988 912
248 988 944
248 984 968
244 984 984
232 996 108
244 996 152
244 1000 204
248 1000 256
244 1000 340
248 988 424
252 988 520
252 988 620
248 988 688
248 988 752
244 996 800
244 996 848
240 996 880
252 1000 916
248 996 944
248 996 968
248 992 980
200 72 68
208 68 100
220 68 136
228 68 180
232 72 244
244 76 324
252 76 412
256 80 516
256 80 612
268 80 696
264 88 756
276 96 812
276 92 848
292 96 892
284 100 924
304 100 960
304 100 980
208 96 68
212 100 100
228 100 144
236 104 188
248 100 252
248 108 328
256 112 424
260 112 520
264 116 624
268 116 704
280 120 776
280 116 820
288 124 868
292 128 904
308 128 944
304 140 964
