滤镜资源/vsco 137 3dl+cube/VSCO 137 3dl/VSCO Q10 Alchemy.3dl
#Generated by Picture Instruments - Look Converter
3DMESH
Mesh 4 10
0 64 128 192 256 320 384 448 512 576 640 704 768 832 896 960 1023
12 20 32
8 20 72
24 20 112
8 20 180
24 20 232
8 24 312
4 24 392
24 20 448
0 8 532
24 4 608
12 4 668
104 8 736
224 8 776
316 12 832
404 12 880
480 8 932
532 0 968
4 64 40
0 68 84
24 68 128
4 68 184
24 72 240
8 72 316
0 68 388
28 60 464
0 56 540
24 36 600
4 4 668
112 0 728
228 4 784
332 0 848
404 0 884
468 8 924
528 0 964
8 128 68
0 128 100
28 128 144
0 124 196
24 124 252
8 124 324
0 128 404
28 120 468
4 116 548
28 108 616
12 96 680
128 48 736
244 0 792
336 0 848
420 0 884
480 8 928
528 0 964
12 212 84
0 208 120
28 204 152
0 208 216
28 200 268
12 196 344
0 196 420
28 196 480
4 188 556
28 176 612
24 168 680
176 152 748
268 120 796
344 72 848
420 4 888
484 8 928
536 0 968
12 280 108
0 296 140
28 296 176
4 296 240
28 288 288
12 288 356
4 284 420
32 272 488
0 276 560
28 276 624
68 260 684
180 244 740
272 224 784
348 200 840
424 168 884
488 128 928
536 44 964
16 384 136
0 384 168
28 384 200
4 392 260
28 392 308
16 388 380
4 380 444
32 364 500
0 364 568
32 348 628
92 340 692
208 332 744
292 320 792
360 300 848
432 284 888
492 252 928
540 220 972
16 468 168
0 472 192
32 476 228
4 480 284
32 480 336
20 480 404
0 480 468
32 460 524
0 448 584
32 428 632
108 428 688
212 424 752
312 404 804
368 400 856
436 380 888
484 360 932
524 328 968
20 556 208
4 560 228
32 560 252
4 564 308
32 572 360
24 564 424
0 568 492
32 560 532
0 544 592
36 528 644
132 512 692
224 504 744
300 492 792
372 480 844
428 468 880
484 452 920
520 428 960
24 632 256
0 636 268
32 636 280
0 636 332
36 640 384
24 644 448
4 652 512
36 644 560
16 624 612
156 608 652
220 600 708
264 580 748
320 572 788
368 560 840
432 548 880
492 540 920
520 516 968
28 696 296
4 700 304
36 704 328
16 708 368
36 700 412
60 708 472
80 712 524
152 712 580
216 712 632
272 688 676
296 676 712
328 664 756
356 644 796
372 632 840
432 620 880
492 604 920
552 608 956
84 760 348
76 768 356
116 764 372
168 764 412
216 764 444
252 768 500
260 768 540
280 772 596
312 776 648
356 764 692
380 744 732
396 736 776
404 712 804
416 704 848
436 688 880
480 676 920
540 676 952
316 812 404
300 812 408
332 816 424
328 820 456
352 816 476
364 816 520
376 820 568
384 820 612
388 820 660
420 816 704
448 812 740
460 796 772
468 788 812
468 772 848
476 756 880
508 748 908
544 744 956
460 856 472
448 856 464
456 856 480
456 860 500
468 864 520
464 860 552
476 860 592
464 864 632
460 864 672
480 868 716
504 864 768
516 852 796
532 840 820
524 832 856
536 816 892
560 808 920
584 808 952
588 900 532
572 896 528
584 896 540
572 900 552
580 900 564
576 900 600
564 904 628
540 904 648
524 912 688
532 908 732
540 908 764
560 904 804
576 892 832
576 876 864
592 872 892
608 864 920
632 856 956
692 932 596
692 936 600
692 936 604
688 940 620
672 936 620
676 936 644
660 936 660
632 940 676
592 948 704
588 944 736
580 948 776
592 948 812
612 944 848
628 932 876
644 916 896
660 908 924
680 904 956
784 964 676
788 972 676
780 968 680
772 968 680
776 968 688
760 968 696
744 972 708
728 972 720
684 980 728
644 980 752
640 984 792
628 980 824
640 984 852
656 984 888
684 960 904
708 956 936
728 948 960
864 992 744
856 996 740
856 996 744
848 992 740
840 996 748
836 992 756
820 996 760
800 996 764
764 996 772
712 996 780
684 1004 796
676 1012 824
676 1008 856
684 1008 888
704 1004 920
744 984 936
760 980 956
44 24 28
40 28 64
32 28 112
12 24 172
8 32 232
0 24 312
4 24 392
0 20 460
0 8 540
0 0 604
0 4 660
140 8 728
252 12 788
340 12 836
416 12 884
488 0 940
536 0 964
24 72 40
28 76 84
12 76 128
0 72 184
0 72 256
0 72 324
0 72 396
0 60 476
0 56 540
0 28 612
36 0 680
172 0 744
272 0 800
340 0 844
424 0 896
488 0 940
544 0 968
0 128 68
4 136 100
0 132 144
4 132 204
0 128 264
4 128 328
0 128 400
0 124 476
4 116 548
4 108 620
64 84 680
176 48 744
272 4 796
348 0 844
428 0 900
484 0 932
544 0 968
0 212 92
0 208 112
0 212 160
0 212 212
0 204 272
4 200 348
0 196 412
4 196 488
4 188 556
0 180 620
108 176 688
204 156 748
284 116 792
364 68 848
436 4 892
492 0 932
544 0 968
0 288 120
0 304 144
0 296 180
4 296 240
0 292 300
0 292 356
0 284 424
0 280 500
4 280 568
8 268 632
132 252 692
224 236 744
308 224 800
380 196 852
444 156 896
496 128 936
544 44 968
0 380 152
0 384 168
0 396 208
4 392 260
0 396 316
4 384 380
0 380 444
4 368 508
0 364 572
4 360 632
156 348 692
240 336 752
312 324 800
376 304 844
440 280 888
500 256 928
544 216 968
0 476 188
0 484 200
0 472 224
4 480 284
0 484 336
0 484 408
0 480 464
0 468 528
0 452 580
8 440 636
160 428 692
252 424 752
328 408 804
380 396 848
436 376 884
500 360 932
544 332 972
4 560 228
4 556 232
0 560 260
0 568 304
0 568 360
0 568 428
0 568 492
0 560 544
8 544 600
116 528 652
184 504 700
260 504 748
328 492 796
388 480 840
444 472 892
492 444 928
532 424 960
4 636 260
0 636 268
0 636 288
0 636 332
4 644 384
12 644 448
4 648 508
28 644 560
120 636 612
200 612 656
252 604 704
296 580 748
328 568 792
388 556 836
448 552 884
504 548 928
528 520 960
12 700 308
8 704 312
8 708 332
4 708 364
60 704 412
144 712 472
164 716 532
204 712 584
256 712 632
280 692 672
316 680 712
348 660 756
368 648 800
388 636 840
432 624 880
496 616 920
564 612 956
196 760 352
164 764 356
176 768 376
208 768 404
252 768 444
276 768 488
300 768 548
304 768 592
336 772 652
376 768 696
400 748 732
408 736 772
420 716 808
432 704 844
444 692 880
488 680 924
548 680 956
356 812 408
336 816 416
336 816 420
352 812 452
372 816 484
384 816 528
404 820 576
388 816 608
404 820 664
436 824 708
460 808 744
472 796 780
480 788 816
476 768 852
492 756 888
512 748 928
552 740 956
484 860 472
472 856 468
468 860 480
480 860 500
480 864 524
488 860 552
488 860 584
476 864 632
476 868 676
484 864 720
504 864 760
524 856 796
532 840 820
536 832 856
548 820 888
552 804 916
592 804 956
600 896 536
592 900 536
588 900 544
588 900 556
584 904 572
588 904 596
568 904 624
552 904 648
540 912 692
536 912 732
548 912 772
576 912 808
584 892 840
584 880 860
600 872 896
612 868 928
636 860 960
704 932 600
700 940 600
688 936 604
692 936 616
680 940 628
676 936 644
664 940 660
640 944 680
596 948 704
592 944 740
592 948 780
596 948 812
616 944 848
640 932 880
648 916 896
664 908 932
684 904 956
796 968 676
788 968 676
792 972 680
792 972 688
784 972 696
764 972 696
748 976 708
728 972 716
692 980 736
656 988 760
640 984 788
636 984 828
648 980 852
656 984 888
688 960 912
712 952 936
728 948 960
860 992 740
860 992 744
856 996 744
856 992 748
844 992 752
832 996 760
820 996 764
804 996 772
780 996 776
724 996 784
696 1008 796
688 1012 828
680 1008 860
692 1012 888
704 1008 920
740 984 936
760 980 956
76 36 32
80 32 56
84 28 104
72 32 160
36 28 232
4 24 308
4 20 392
0 20 464
0 0 532
32 0 604
124 8 668
212 8 724
292 12 780
384 12 840
444 16 888
512 0 932
560 0 968
80 80 32
72 76 72
72 80 124
64 80 176
40 76 252
4 76 316
4 72 396
0 60 476
4 48 544
60 24 616
148 0 684
240 0 740
304 0 800
384 0 848
456 0 900
520 0 944
560 0 968
48 132 56
52 136 100
52 140 136
36 136 192
24 140 260
4 136 340
4 128 412
0 124 480
28 116 556
88 100 612
172 76 684
256 28 748
328 0 800
392 0 852
456 0 900
520 0 940
560 0 968
8 204 88
8 204 112
0 216 160
4 216 212
0 220 276
0 208 340
4 204 416
0 196 484
40 188 548
128 176 628
196 172 684
256 144 744
328 116 796
400 68 840
460 8 888
520 0 936
564 0 964
0 288 120
4 296 140
0 296 180
0 300 232
0 300 296
4 296 356
0 284 424
0 276 496
56 276 560
140 268 632
212 252 688
280 248 748
348 228 804
404 192 848
468 156 896
524 120 936
568 40 964
0 380 148
0 380 172
0 396 208
0 396 252
0 396 316
4 384 384
4 380 444
4 368 512
60 360 576
160 364 640
236 348 692
296 332 752
352 324 804
420 300 848
476 280 900
528 248 936
564 220 968
4 472 184
4 468 204
0 476 228
0 484 272
0 484 336
0 484 400
4 472 464
0 472 516
68 456 580
164 444 636
232 436 696
308 432 752
364 412 800
416 396 844
468 376 888
524 360 932
560 332 964
8 552 236
8 560 244
0 568 264
4 560 300
0 568 360
4 568 420
8 568 480
56 564 548
124 548 596
196 528 648
256 516 696
316 508 752
364 496 796
432 488 840
464 468 888
508 444 924
560 428 964
84 636 272
72 632 284
0 636 292
8 636 336
16 644 384
84 644 444
104 644 500
176 648 568
228 632 616
268 616 668
304 596 708
336 580 756
372 572 804
424 564 844
476 548 888
528 536 932
536 516 960
232 700 324
204 700 328
132 704 336
132 704 364
184 708 412
220 712 468
252 716 520
268 716 580
312 708 632
340 692 680
364 676 716
384 664 752
396 648 796
416 628 836
460 620 876
520 612 928
584 612 956
328 760 368
308 764 372
268 760 376
284 768 404
296 768 440
328 764 488
352 768 540
360 772 604
384 772 648
408 764 692
424 748 728
436 732 764
448 716 804
456 704 844
472 696 884
508 684 920
572 680 952
420 812 420
412 808 416
392 812 424
396 812 444
408 812 484
436 820 524
432 816 568
432 816 608
440 824 660
468 820 712
488 816 748
504 796 780
496 784 816
500 772 848
504 760 892
528 748 924
568 744 956
532 860 484
524 856 480
500 856 480
500 856 500
512 860 524
516 860 560
516 860 588
500 864 632
500 864 676
508 864 720
532 868 764
548 852 796
552 836 820
552 832 856
552 816 888
576 804 924
604 804 952
632 896 548
628 900 548
616 896 548
612 900 560
616 900 580
604 900 596
596 900 624
576 908 648
556 908 684
560 912 732
560 912 772
580 908 808
596 896 836
608 884 864
612 872 896
632 864 932
644 856 956
728 932 608
720 936 608
712 932 608
708 936 620
700 932 632
688 940 648
680 940 656
652 944 680
620 948 708
608 948 740
596 944 780
616 948 812
632 948 848
644 928 876
656 920 896
672 912 936
696 904 952
808 968 680
808 964 680
800 968 684
788 968 684
788 968 692
776 972 700
760 972 708
740 972 720
700 980 744
656 984 752
652 984 792
656 980 824
656 980 856
680 980 896
700 960 916
716 948 936
732 948 952
868 992 748
872 992 748
860 992 744
856 996 744
856 992 752
844 996 760
832 996 764
816 992 776
784 992 776
736 992 784
704 1012 796
692 1008 828
692 1012 864
708 1012 896
708 1004 920
752 988 936
768 980 952
128 40 28
124 52 52
148 40 88
140 32 148
128 28 228
124 24 308
116 20 388
128 4 464
144 4 532
184 0 604
244 8 664
300 12 736
364 12 784
432 12 836
484 16 880
552 0 936
596 0 968
132 88 16
132 88 60
136 92 112
144 80 164
140 80 244
120 72 312
128 72 388
144 56 472
152 44 548
200 8 608
260 0 676
308 0 736
368 0 792
436 0 844
504 0 896
552 0 936
