滤镜资源/vsco 137 3dl+cube/VSCO 137 3dl/VSCO P2 Instant.3dl
#Generated by Picture Instruments - Look Converter
3DMESH
Mesh 4 10
0 64 128 192 256 320 384 448 512 576 640 704 768 832 896 960 1023
28 116 180
28 116 184
40 116 176
28 116 184
40 116 176
28 116 188
20 116 200
36 116 212
28 128 244
36 136 280
28 148 324
16 152 368
24 156 396
20 168 440
40 180 468
36 184 480
36 184 480
28 116 184
28 120 184
36 116 180
28 120 184
36 116 180
28 116 188
20 116 200
36 116 212
32 132 252
36 136 280
20 152 320
20 152 368
24 148 388
24 172 440
40 180 464
40 188 480
40 188 480
32 120 188
32 124 184
40 120 184
32 124 184
40 120 184
20 120 188
24 124 204
32 124 216
28 132 248
36 144 284
24 156 324
20 160 372
32 168 404
32 188 448
44 204 476
44 208 484
44 208 484
28 136 192
28 136 196
36 132 192
28 136 196
36 132 192
28 136 192
32 140 204
36 144 220
24 152 256
36 164 292
32 180 336
36 204 392
48 224 432
56 244 472
64 252 488
64 252 496
56 252 496
32 160 204
28 160 204
40 160 200
28 160 204
40 160 200
32 160 200
28 160 212
36 164 224
24 172 252
36 196 296
40 216 348
52 252 404
80 292 448
100 328 492
92 328 516
84 320 512
80 320 516
28 180 204
28 180 208
36 180 204
28 180 208
36 180 204
28 180 208
24 180 216
32 184 232
28 192 260
36 212 300
52 256 356
64 300 420
100 344 472
124 380 512
132 400 536
120 396 540
120 396 544
24 196 208
20 196 208
32 196 208
20 196 208
32 196 208
24 196 208
24 200 220
32 204 236
24 212 268
32 236 300
44 272 360
60 320 424
84 368 468
116 416 520
152 448 556
160 460 564
160 456 564
16 220 212
16 220 216
24 220 212
16 220 216
28 224 216
20 224 224
20 228 228
28 232 244
16 236 268
28 256 312
32 288 356
40 320 404
52 360 452
80 408 504
120 452 536
144 476 556
144 476 564
20 256 232
12 260 232
24 256 228
12 260 232
24 256 228
24 260 232
12 264 240
28 256 252
12 264 272
24 284 308
20 304 352
12 328 396
32 364 440
52 412 492
80 456 524
104 472 544
104 472 544
20 300 236
12 300 240
20 296 240
8 308 236
20 296 240
20 300 244
8 296 252
24 292 268
4 300 284
16 316 316
12 336 360
4 360 404
28 392 440
44 444 500
72 484 532
84 496 544
84 496 544
16 352 252
8 352 252
20 352 248
8 352 252
20 352 248
20 352 260
4 348 260
16 344 272
0 348 300
16 368 340
16 384 384
0 412 424
28 440 464
44 488 516
68 524 548
76 532 556
76 532 560
24 412 268
16 412 268
24 412 268
16 412 268
24 412 268
20 412 280
12 412 284
20 412 296
4 416 324
20 424 356
16 444 396
0 468 440
24 500 484
32 536 524
56 556 552
60 564 568
56 564 568
28 460 280
20 464 280
28 464 276
20 464 280
28 464 276
28 464 280
16 472 296
28 476 320
8 480 348
20 492 388
20 500 424
4 516 460
24 536 500
24 568 540
36 584 564
44 592 572
40 592 572
32 488 284
24 492 280
32 488 280
20 492 280
32 488 280
32 492 292
24 504 312
32 504 332
20 516 364
20 516 396
20 524 432
0 540 476
20 560 504
16 584 544
32 596 560
36 604 568
24 604 576
28 496 288
24 496 284
28 496 284
24 496 284
28 496 284
32 496 296
28 508 312
28 512 328
20 516 368
24 520 392
20 532 432
0 544 476
20 564 508
12 584 544
32 604 564
32 608 580
20 608 576
28 496 288
24 496 284
28 496 284
24 496 284
28 496 284
28 500 292
28 508 312
28 512 328
20 516 364
24 524 396
20 532 436
0 544 480
20 564 508
12 588 544
32 604 564
32 608 580
20 608 576
28 496 288
24 496 284
28 496 284
24 496 284
28 496 284
28 500 292
28 504 312
28 512 328
20 516 364
24 524 396
20 532 432
0 544 476
20 564 508
12 588 544
32 604 564
40 604 572
28 604 572
40 124 188
40 124 192
40 124 188
40 124 192
40 124 188
40 124 192
36 124 208
36 124 220
40 132 248
40 144 296
44 160 340
32 168 380
36 176 420
48 184 448
56 196 484
60 200 488
56 200 492
40 124 188
40 124 188
40 124 188
40 124 188
40 124 188
40 124 192
36 124 208
36 124 220
40 132 252
40 144 296
44 160 344
48 172 388
40 180 420
48 192 460
60 200 480
56 200 492
56 200 496
36 124 184
40 124 184
40 124 184
40 124 184
36 124 188
36 124 188
36 128 204
36 132 224
40 136 256
44 152 296
40 164 336
44 180 392
44 192 420
52 204 456
68 216 484
68 220 496
68 220 496
40 144 192
40 144 196
40 144 192
40 144 196
40 144 192
44 144 200
44 148 208
44 148 232
40 160 256
48 168 296
52 188 348
52 212 400
64 232 440
84 256 476
96 272 504
96 272 508
92 272 508
40 168 204
40 168 204
40 168 204
40 168 204
40 168 204
44 172 208
44 172 216
44 172 232
36 188 260
44 204 304
56 224 360
64 264 416
100 304 468
136 340 504
132 352 528
124 348 528
124 348 528
44 192 212
44 192 216
40 188 208
44 192 216
44 192 212
44 188 216
40 196 220
40 196 236
44 208 268
48 228 312
60 260 356
76 300 416
108 352 476
144 396 520
168 420 548
172 428 560
160 420 548
36 212 216
36 212 216
36 212 212
36 212 216
36 212 212
36 208 216
40 212 228
36 216 244
40 232 272
44 248 316
56 280 360
68 324 424
100 372 476
128 416 520
164 452 556
184 476 568
188 476 572
28 240 224
32 236 224
28 240 224
32 236 224
28 236 220
40 240 232
32 240 236
40 248 256
36 256 280
36 276 324
44 296 372
52 340 416
72 376 464
100 432 516
140 472 552
160 492 568
164 488 572
28 272 236
24 272 236
24 272 236
24 272 236
28 276 240
28 276 240
32 280 248
32 284 260
36 292 288
36 304 328
32 324 372
36 356 408
48 388 460
76 432 508
108 472 540
120 496 556
124 492 556
28 316 244
28 320 244
24 320 244
24 320 244
24 316 252
24 324 252
28 320 264
28 324 276
28 328 300
28 340 336
24 356 372
28 384 416
44 424 460
68 472 512
96 496 544
104 516 560
112 516 560
32 368 264
24 372 264
24 368 264
28 376 260
28 376 260
24 372 264
28 372 280
20 368 292
24 380 316
16 388 352
20 412 400
24 432 432
40 468 480
68 512 524
96 540 560
104 548 564
100 552 568
32 424 268
28 420 272
28 428 268
32 428 272
32 424 276
32 432 280
32 428 288
28 432 312
24 436 340
24 452 372
20 472 412
24 496 456
40 524 496
60 556 540
88 576 568
92 588 580
88 588 580
36 484 284
36 484 284
36 484 284
36 484 284
36 484 284
36 480 288
40 492 308
36 496 324
32 504 360
24 508 392
20 520 436
24 540 472
40 560 512
56 588 556
72 612 576
76 616 584
76 616 584
40 508 296
40 508 292
36 508 288
36 508 288
44 512 300
44 516 304
40 516 308
44 520 336
40 532 368
32 544 404
32 548 444
24 564 488
32 588 524
48 612 560
60 624 580
60 628 580
68 628 584
40 512 288
40 516 292
40 512 296
40 516 292
44 516 292
44 516 300
44 528 316
44 532 336
36 536 364
36 544 416
28 556 452
20 564 488
36 592 528
48 612 560
64 628 584
64 628 584
60 628 592
44 520 296
44 520 296
40 512 296
44 520 296
44 520 296
44 516 300
40 524 312
40 532 336
40 540 364
36 544 416
24 552 448
24 568 480
32 588 520
44 608 556
56 628 572
68 632 588
60 628 588
44 520 296
40 512 296
40 516 296
44 520 296
44 520 296
40 512 300
44 516 312
40 528 336
40 532 368
36 540 412
28 552 448
24 568 476
32 584 520
44 608 556
56 628 572
64 628 576
60 628 588
76 132 192
80 132 188
76 132 192
80 132 188
72 132 192
72 132 200
76 136 212
76 140 232
76 144 264
76 156 308
72 176 356
84 196 404
104 212 452
120 224 480
116 224 496
104 220 500
104 220 500
76 132 188
72 132 192
72 136 196
72 136 192
80 136 200
72 132 200
68 132 208
76 140 232
76 144 260
76 156 308
84 176 360
96 196 412
96 208 448
116 220 480
112 224 500
108 224 508
108 224 508
72 140 196
72 140 196
76 140 200
72 140 196
72 140 200
68 140 200
76 140 216
72 148 232
76 152 260
68 164 300
84 184 352
88 208 408
112 228 452
120 236 484
124 236 504
124 244 512
116 240 508
72 152 204
72 152 196
72 152 200
72 152 196
72 152 204
76 156 212
72 156 216
72 160 228
72 168 264
80 188 312
84 212 360
96 232 408
124 260 456
160 292 496
160 300 516
152 300 524
152 300 524
68 180 208
64 184 204
68 180 208
64 184 204
68 180 208
68 188 212
72 184 224
76 192 240
76 200 268
80 216 316
84 244 368
104 276 420
140 324 468
184 356 512
200 376 536
204 388 544
204 388 540
68 208 216
64 208 212
68 208 216
64 208 212
68 208 216
72 204 224
72 212 232
76 220 256
76 232 276
84 244 320
84 276 368
108 312 432
144 360 484
196 416 524
228 448 556
236 448 564
236 452 564
60 228 228
64 236 224
64 232 228
64 236 224
64 232 228
64 232 228
68 236 240
68 240 248
72 252 280
84 280 328
88 300 376
100 340 436
124 380 480
164 432 524
208 472 560
224 492 580
228 488 576
60 260 232
60 268 236
64 264 236
64 260 232
60 260 240
64 264 240
64 268 252
72 276 260
72 288 288
72 304 328
84 328 380
96 360 432
104 404 476
148 448 528
176 480 556
192 496 572
200 500 572
60 300 244
60 300 244
60 300 244
60 300 244
60 300 244
64 304 252
60 312 260
72 320 276
80 332 304
76 340 344
80 364 388
84 388 432
92 424 472
128 468 524
160 500 564
176 520 568
168 516 568
60 356 252
52 348 252
56 348 248
60 344 260
60 352 264
60 352 260
68 360 272
68 356 284
72 368 312
80 384 356
84 408 400
88 432 444
100 464 476
120 500 524
160 532 556
164 544 568
172 544 568
64 404 264
64 404 264
60 404 264
64 404 264
56 400 268
60 404 272
64 408 284
68 412 304
68 428 332
72 440 372
80 452 416
84 480 456
108 512 504
140 548 540
164 572 572
160 580 572
172 580 576
60 460 276
60 460 276
60 460 276
64 464 280
68 464 284
68 464 284
68 464 296
72 472 320
72 476 348
80 500 388
88 516 432
108 540 484
112 560 512
140 592 560
168 612 584
176 620 596
176 620 592
72 516 292
72 516 296
68 512 296
68 512 296
72 516 292
76 520 300
76 524 316
76 528 336
88 528 360
92 548 408
100 568 456
112 588 496
128 612 536
148 628 572
160 644 592
172 652 604
164 648 596
76 540 304
76 540 300
76 540 300
80 544 304
76 540 304
80 544 312
84 544 324
84 548 340
92 564 376
104 580 420
100 584 464
104 604 496
120 620 540
148 648 568
152 664 596
160 668 604
164 664 600
84 548 304
76 548 300
76 548 304
72 548 304
84 548 304
80 552 312
88 556 324
92 560 344
92 564 376
100 580 420
96 592 460
112 608 504
124 624 544
144 652 572
152 664 596
160 672 604
164 672 604
80 552 304
80 552 308
80 552 304
76 548 304
80 552 304
80 552 312
88 556 328
92 564 348
104 572 380
100 580 420
100 592 460
112 608 508
116 628 536
148 656 572
168 668 596
160 672 604
160 668 604
80 552 304
80 552 308
76 548 300
76 548 304
80 552 304
80 548 312
88 556 328
92 560 348
96 564 376
100 576 420
100 592 460
104 608 504
120 628 536
148 652 568
160 668 592
164 668 600
164 668 600
140 148 196
140 144 200
140 148 196
140 144 200
132 148 196
140 144 208
136 152 220
132 148 232
128 160 268
136 164 316
140 196 364
164 228 420
200 248 468
220 260 500
204 252 512
196 248 520
188 248 516
140 144 200
140 148 200
140 144 200
136 148 200
144 148 204
132 148 208
136 152 220
136 152 236
124 160 268
132 176 312
148 200 372
168 224 420
192 244 464
212 256 500
212 260 516
196 252 524
