滤镜资源/vsco 137 3dl+cube/VSCO 137 3dl/VSCO X1 Bw Fade.3dl
#Generated by Picture Instruments - Look Converter
3DMESH
Mesh 4 10
0 64 128 192 256 320 384 448 512 576 640 704 768 832 896 960 1023
200 200 200
200 200 200
200 200 200
200 200 200
204 204 204
204 204 204
204 204 204
204 204 204
204 204 204
208 208 208
208 208 208
208 208 208
208 208 208
212 212 212
212 212 212
216 216 216
216 216 216
200 200 200
200 200 200
204 204 204
204 204 204
204 204 204
204 204 204
204 204 204
208 208 208
208 208 208
208 208 208
208 208 208
212 212 212
212 212 212
216 216 216
216 216 216
220 220 220
220 220 220
204 204 204
204 204 204
204 204 204
204 204 204
204 204 204
208 208 208
208 208 208
208 208 208
208 208 208
212 212 212
212 212 212
216 216 216
216 216 216
220 220 220
224 224 224
228 228 228
228 228 228
204 204 204
204 204 204
204 204 204
208 208 208
208 208 208
208 208 208
208 208 208
212 212 212
212 212 212
216 216 216
216 216 216
220 220 220
224 224 224
228 228 228
232 232 232
236 236 236
236 236 236
204 204 204
208 208 208
208 208 208
208 208 208
208 208 208
212 212 212
212 212 212
216 216 216
216 216 216
220 220 220
224 224 224
228 228 228
232 232 232
236 236 236
240 240 240
248 248 248
252 252 252
208 208 208
208 208 208
208 208 208
212 212 212
212 212 212
216 216 216
216 216 216
220 220 220
224 224 224
228 228 228
232 232 232
236 236 236
240 240 240
248 248 248
256 256 256
264 264 264
272 272 272
208 208 208
212 212 212
212 212 212
216 216 216
216 216 216
220 220 220
224 224 224
228 228 228
232 232 232
236 236 236
240 240 240
248 248 248
256 256 256
268 268 268
276 276 276
284 284 284
292 292 292
212 212 212
216 216 216
216 216 216
220 220 220
224 224 224
228 228 228
232 232 232
236 236 236
240 240 240
248 248 248
256 256 256
264 264 264
276 276 276
284 284 284
296 296 296
312 312 312
320 320 320
216 216 216
220 220 220
224 224 224
228 228 228
232 232 232
236 236 236
240 240 240
248 248 248
256 256 256
264 264 264
276 276 276
284 284 284
300 300 300
312 312 312
324 324 324
340 340 340
352 352 352
224 224 224
228 228 228
232 232 232
236 236 236
240 240 240
248 248 248
256 256 256
264 264 264
276 276 276
284 284 284
296 296 296
312 312 312
324 324 324
340 340 340
356 356 356
376 376 376
392 392 392
232 232 232
236 236 236
240 240 240
248 248 248
256 256 256
264 264 264
276 276 276
284 284 284
296 296 296
312 312 312
324 324 324
344 344 344
356 356 356
376 376 376
400 400 400
420 420 420
432 432 432
240 240 240
248 248 248
256 256 256
264 264 264
276 276 276
284 284 284
296 296 296
312 312 312
324 324 324
340 340 340
356 356 356
376 376 376
400 400 400
420 420 420
432 432 432
456 456 456
476 476 476
256 256 256
264 264 264
276 276 276
284 284 284
296 296 296
308 308 308
324 324 324
340 340 340
356 356 356
380 380 380
400 400 400
416 416 416
436 436 436
456 456 456
480 480 480
508 508 508
524 524 524
280 280 280
284 284 284
296 296 296
312 312 312
324 324 324
344 344 344
360 360 360
376 376 376
396 396 396
416 416 416
436 436 436
460 460 460
484 484 484
504 504 504
532 532 532
556 556 556
572 572 572
296 296 296
312 312 312
328 328 328
344 344 344
352 352 352
376 376 376
396 396 396
416 416 416
440 440 440
456 456 456
480 480 480
504 504 504
528 528 528
552 552 552
580 580 580
604 604 604
624 624 624
324 324 324
340 340 340
356 356 356
376 376 376
396 396 396
416 416 416
436 436 436
456 456 456
480 480 480
508 508 508
532 532 532
556 556 556
576 576 576
608 608 608
632 632 632
656 656 656
676 676 676
352 352 352
372 372 372
392 392 392
412 412 412
432 432 432
448 448 448
472 472 472
500 500 500
524 524 524
548 548 548
568 568 568
596 596 596
620 620 620
648 648 648
672 672 672
696 696 696
716 716 716
200 200 200
204 204 204
204 204 204
204 204 204
204 204 204
204 204 204
208 208 208
208 208 208
208 208 208
208 208 208
212 212 212
212 212 212
216 216 216
216 216 216
220 220 220
224 224 224
224 224 224
200 200 200
204 204 204
204 204 204
204 204 204
204 204 204
208 208 208
208 208 208
208 208 208
208 208 208
212 212 212
212 212 212
216 216 216
216 216 216
220 220 220
224 224 224
228 228 228
228 228 228
204 204 204
204 204 204
204 204 204
208 208 208
208 208 208
208 208 208
208 208 208
212 212 212
212 212 212
216 216 216
216 216 216
220 220 220
224 224 224
228 228 228
232 232 232
236 236 236
236 236 236
204 204 204
208 208 208
208 208 208
208 208 208
208 208 208
212 212 212
212 212 212
216 216 216
216 216 216
220 220 220
224 224 224
228 228 228
232 232 232
236 236 236
240 240 240
248 248 248
252 252 252
208 208 208
208 208 208
208 208 208
212 212 212
212 212 212
216 216 216
216 216 216
220 220 220
224 224 224
228 228 228
232 232 232
236 236 236
240 240 240
248 248 248
256 256 256
264 264 264
272 272 272
208 208 208
212 212 212
212 212 212
216 216 216
216 216 216
220 220 220
224 224 224
228 228 228
232 232 232
236 236 236
240 240 240
248 248 248
252 252 252
264 264 264
276 276 276
284 284 284
288 288 288
212 212 212
216 216 216
216 216 216
220 220 220
224 224 224
228 228 228
232 232 232
236 236 236
240 240 240
248 248 248
256 256 256
264 264 264
276 276 276
280 280 280
292 292 292
312 312 312
320 320 320
216 216 216
220 220 220
224 224 224
228 228 228
232 232 232
236 236 236
240 240 240
248 248 248
256 256 256
264 264 264
272 272 272
284 284 284
296 296 296
312 312 312
324 324 324
336 336 336
348 348 348
220 220 220
228 228 228
232 232 232
236 236 236
240 240 240
248 248 248
252 252 252
264 264 264
276 276 276
284 284 284
296 296 296
312 312 312
320 320 320
340 340 340
356 356 356
372 372 372
392 392 392
228 228 228
236 236 236
240 240 240
248 248 248
256 256 256
264 264 264
276 276 276
284 284 284
296 296 296
308 308 308
320 320 320
340 340 340
356 356 356
376 376 376
392 392 392
412 412 412
432 432 432
236 236 236
248 248 248
256 256 256
264 264 264
276 276 276
284 284 284
296 296 296
308 308 308
324 324 324
340 340 340
360 360 360
372 372 372
396 396 396
416 416 416
436 436 436
456 456 456
472 472 472
248 248 248
260 260 260
272 272 272
284 284 284
296 296 296
312 312 312
324 324 324
336 336 336
352 352 352
376 376 376
396 396 396
420 420 420
440 440 440
452 452 452
476 476 476
500 500 500
520 520 520
264 264 264
280 280 280
296 296 296
312 312 312
324 324 324
340 340 340
352 352 352
376 376 376
396 396 396
412 412 412
432 432 432
452 452 452
480 480 480
504 504 504
528 528 528
548 548 548
568 568 568
284 284 284
308 308 308
324 324 324
340 340 340
356 356 356
376 376 376
392 392 392
412 412 412
436 436 436
456 456 456
484 484 484
504 504 504
528 528 528
552 552 552
576 576 576
604 604 604
624 624 624
312 312 312
344 344 344
352 352 352
376 376 376
392 392 392
416 416 416
436 436 436
460 460 460
476 476 476
504 504 504
528 528 528
548 548 548
576 576 576
608 608 608
624 624 624
648 648 648
672 672 672
340 340 340
372 372 372
392 392 392
416 416 416
440 440 440
452 452 452
476 476 476
500 500 500
528 528 528
556 556 556
572 572 572
600 600 600
624 624 624
648 648 648
676 676 676
704 704 704
716 716 716
372 372 372
404 404 404
428 428 428
452 452 452
472 472 472
492 492 492
520 520 520
544 544 544
568 568 568
592 592 592
620 620 620
640 640 640
668 668 668
692 692 692
720 720 720
732 732 732
752 752 752
204 204 204
204 204 204
204 204 204
208 208 208
208 208 208
208 208 208
208 208 208
212 212 212
212 212 212
216 216 216
216 216 216
220 220 220
224 224 224
228 228 228
232 232 232
236 236 236
236 236 236
204 204 204
204 204 204
208 208 208
208 208 208
208 208 208
208 208 208
212 212 212
212 212 212
216 216 216
216 216 216
220 220 220
224 224 224
228 228 228
232 232 232
236 236 236
240 240 240
244 244 244
204 204 204
204 204 204
208 208 208
208 208 208
208 208 208
212 212 212
212 212 212
216 216 216
216 216 216
220 220 220
224 224 224
228 228 228
232 232 232
236 236 236
240 240 240
248 248 248
248 248 248
204 204 204
208 208 208
208 208 208
212 212 212
212 212 212
216 216 216
216 216 216
220 220 220
224 224 224
228 228 228
232 232 232
236 236 236
240 240 240
248 248 248
256 256 256
264 264 264
268 268 268
208 208 208
208 208 208
212 212 212
216 216 216
216 216 216
220 220 220
224 224 224
228 228 228
232 232 232
236 236 236
240 240 240
248 248 248
256 256 256
260 260 260
272 272 272
284 284 284
288 288 288
208 208 208
212 212 212
216 216 216
220 220 220
224 224 224
228 228 228
232 232 232
236 236 236
240 240 240
248 248 248
256 256 256
264 264 264
272 272 272
284 284 284
296 296 296
308 308 308
316 316 316
212 212 212
216 216 216
224 224 224
228 228 228
232 232 232
236 236 236
240 240 240
248 248 248
256 256 256
264 264 264
276 276 276
284 284 284
296 296 296
308 308 308
324 324 324
340 340 340
352 352 352
216 216 216
224 224 224
232 232 232
236 236 236
240 240 240
248 248 248
256 256 256
264 264 264
272 272 272
284 284 284
296 296 296
312 312 312
324 324 324
340 340 340
352 352 352
372 372 372
392 392 392
224 224 224
232 232 232
240 240 240
248 248 248
256 256 256
264 264 264
276 276 276
284 284 284
296 296 296
312 312 312
324 324 324
336 336 336
352 352 352
376 376 376
396 396 396
420 420 420
424 424 424
232 232 232
240 240 240
252 252 252
260 260 260
276 276 276
284 284 284
296 296 296
308 308 308
324 324 324
340 340 340
356 356 356
372 372 372
396 396 396
412 412 412
432 432 432
452 452 452
476 476 476
240 240 240
256 256 256
276 276 276
284 284 284
292 292 292
308 308 308
324 324 324
340 340 340
356 356 356
372 372 372
392 392 392
412 412 412
436 436 436
456 456 456
480 480 480
500 500 500
520 520 520
256 256 256
272 272 272
292 292 292
312 312 312
324 324 324
340 340 340
352 352 352
376 376 376
392 392 392
416 416 416
436 436 436
460 460 460
476 476 476
504 504 504
528 528 528
552 552 552
572 572 572
276 276 276
296 296 296
320 320 320
336 336 336
356 356 356
376 376 376
396 396 396
416 416 416
432 432 432
452 452 452
480 480 480
504 504 504
532 532 532
556 556 556
572 572 572
600 600 600
620 620 620
296 296 296
320 320 320
352 352 352
376 376 376
396 396 396
412 412 412
432 432 432
452 452 452
480 480 480
508 508 508
524 524 524
548 548 548
572 572 572
604 604 604
632 632 632
656 656 656
668 668 668
324 324 324
352 352 352
392 392 392
416 416 416
436 436 436
456 456 456
480 480 480
500 500 500
524 524 524
552 552 552
576 576 576
604 604 604
632 632 632
652 652 652
676 676 676
700 700 700
720 720 720
356 356 356
396 396 396
440 440 440
452 452 452
480 480 480
500 500 500
528 528 528
552 552 552
580 580 580
600 600 600
628 628 628
652 652 652
672 672 672
700 700 700
728 728 728
740 740 740
756 756 756
392 392 392
432 432 432
468 468 468
496 496 496
520 520 520
544 544 544
568 568 568
600 600 600
616 616 616
644 644 644
668 668 668
688 688 688
716 716 716
740 740 740
756 756 756
776 776 776
788 788 788
204 204 204
204 204 204
208 208 208
208 208 208
212 212 212
212 212 212
216 216 216
216 216 216
220 220 220
224 224 224
228 228 228
232 232 232
236 236 236
240 240 240
244 244 244
256 256 256
260 260 260
204 204 204
208 208 208
208 208 208
212 212 212
212 212 212
216 216 216
216 216 216
220 220 220
224 224 224
228 228 228
232 232 232
236 236 236
240 240 240
248 248 248
256 256 256
264 264 264
