滤镜资源/vsco 137 3dl+cube/VSCO 137 3dl/VSCOX V1 Valence.3dl
#Generated by Picture Instruments - Look Converter
3DMESH
Mesh 4 10
0 64 128 192 256 320 384 448 512 576 640 704 768 832 896 960 1023
4 0 64
12 12 100
32 36 156
48 68 212
72 96 252
80 116 296
100 140 336
116 164 384
136 192 436
156 208 476
156 228 512
164 240 556
180 252 596
192 264 640
200 272 684
208 288 728
208 288 764
36 120 116
40 128 192
68 128 240
72 132 272
92 136 296
100 156 336
112 176 376
132 188 420
148 208 464
160 220 492
160 236 528
176 252 580
188 260 612
192 268 656
200 280 692
204 292 728
212 300 776
64 184 156
64 196 208
68 204 268
84 200 312
104 196 352
104 204 384
120 212 424
144 224 456
148 232 504
164 248 528
168 260 560
180 268 600
196 272 632
196 284 672
204 292 716
204 308 748
204 308 784
76 252 168
76 252 216
80 244 260
72 260 320
100 256 368
108 256 412
128 260 456
136 268 492
144 272 528
164 276 564
168 284 596
176 296 628
188 296 668
196 308 704
200 312 736
200 324 772
200 328 808
76 292 180
76 300 208
80 296 252
76 308 316
84 304 364
96 308 420
108 308 456
132 308 500
132 320 548
156 320 584
164 320 608
172 328 652
184 328 684
184 336 724
196 344 752
192 352 792
192 352 828
80 336 180
80 332 204
84 336 248
80 348 308
84 348 352
80 352 412
96 356 460
120 356 504
128 356 548
144 356 584
148 360 628
160 364 668
172 368 696
176 376 744
188 376 776
184 384 812
192 396 856
80 372 180
76 372 208
84 376 252
80 384 296
88 388 348
84 392 400
80 400 452
100 400 504
108 400 548
128 400 596
132 408 632
144 408 684
160 412 712
168 420 768
176 420 792
188 428 828
188 428 864
80 412 180
84 420 212
84 416 240
84 420 292
88 432 336
84 436 400
80 440 448
84 444 496
100 448 548
120 448 588
128 456 640
132 460 680
156 456 724
160 468 772
176 472 812
180 484 848
188 484 888
88 452 188
88 464 216
88 464 244
88 468 292
92 472 340
92 488 392
92 488 452
92 492 500
88 496 548
116 496 596
116 500 644
128 504 688
152 512 736
152 516 780
172 520 820
184 528 864
184 528 908
88 504 196
88 508 224
96 512 256
96 524 300
100 520 344
100 524 396
96 532 452
104 536 496
96 540 552
104 548 604
116 548 648
128 552 700
144 556 740
152 564 796
168 568 832
176 568 872
180 572 912
104 556 216
100 560 228
104 560 260
100 568 304
108 568 352
104 580 404
112 580 448
116 584 500
112 592 560
112 600 600
112 604 652
124 608 708
144 608 752
148 612 796
164 620 844
176 624 892
176 624 920
108 608 216
108 608 244
108 612 264
104 612 304
116 620 352
112 624 404
116 632 460
124 632 504
116 640 556
124 640 600
120 652 656
120 656 708
132 660 752
144 664 808
156 664 848
164 668 888
168 672 932
112 656 232
108 664 244
112 664 272
116 668 316
120 672 352
120 672 408
120 684 464
132 688 512
128 692 568
136 700 616
132 708 664
120 708 716
132 716 764
128 720 812
152 720 860
152 724 904
156 728 948
116 716 236
116 720 252
116 716 272
112 716 312
120 724 356
120 728 412
124 736 464
136 740 516
128 748 568
140 752 620
132 756 668
124 760 720
128 768 772
116 772 820
136 776 868
144 780 916
144 784 960
108 768 232
116 776 248
120 776 272
116 780 320
128 776 360
120 780 416
120 792 464
132 796 520
128 804 580
136 808 624
132 812 680
128 820 732
128 824 776
120 832 832
124 832 876
128 836 920
128 840 976
116 832 236
112 832 244
116 840 272
116 844 320
120 848 364
120 848 424
120 852 472
128 860 520
128 868 588
128 872 632
132 872 684
124 880 744
124 884 784
116 892 840
116 896 892
104 896 940
104 904 988
108 892 220
108 896 240
108 892 268
104 904 308
112 904 356
120 904 420
120 912 472
128 916 528
120 924 592
128 924 640
120 932 692
112 940 744
116 944 788
104 952 848
108 956 896
104 956 944
92 960 988
108 24 96
84 32 152
64 60 204
80 88 240
88 104 276
92 128 312
112 148 356
120 172 404
144 192 448
156 212 488
164 228 524
176 240 564
188 252 608
192 264 644
204 276 688
212 284 740
212 292 772
148 124 116
104 136 212
100 136 252
96 140 276
104 152 312
116 164 352
124 180 388
140 196 436
152 212 468
160 224 508
176 236 548
180 252 580
192 264 624
196 272 656
204 284 696
208 292 736
208 296 780
124 192 148
112 196 216
112 204 268
112 204 320
116 200 360
128 208 396
132 220 432
144 228 464
156 236 500
172 248 532
172 256 564
184 264 600
196 276 636
196 284 668
204 292 708
208 304 752
208 308 800
112 248 168
108 248 220
104 252 264
108 260 324
116 260 376
128 260 420
136 256 456
148 268 496
160 276 528
172 276 564
180 288 592
188 296 632
192 300 664
200 312 708
204 316 736
208 328 780
208 328 812
104 288 180
100 296 220
108 296 268
108 296 312
108 304 368
112 308 420
128 312 464
140 312 508
148 320 552
160 320 588
172 320 616
176 324 648
188 332 688
192 336 728
200 348 760
200 352 796
200 352 836
108 332 180
96 336 212
96 340 252
104 344 304
104 352 360
104 348 408
116 352 460
128 360 508
140 356 548
144 364 584
160 364 632
168 368 668
176 368 704
184 380 744
192 384 784
196 388 812
196 388 852
96 376 176
96 380 212
100 376 248
96 380 292
104 388 348
100 392 400
104 400 452
108 404 504
120 400 548
140 404 592
148 404 636
160 412 680
168 412 720
176 416 760
180 424 796
192 428 836
192 432 876
96 416 184
96 420 208
100 424 248
100 424 300
100 428 348
100 436 400
108 440 448
104 448 496
116 452 556
128 448 596
140 456 644
148 456 680
160 464 732
172 468 776
184 480 820
188 476 856
188 476 892
100 456 184
100 464 212
96 464 252
100 468 296
108 476 344
104 484 400
108 488 452
108 492 500
116 500 548
124 500 600
136 504 644
152 508 692
156 512 732
168 516 784
180 520 824
184 528 872
184 532 912
104 504 200
104 512 232
104 512 264
108 520 300
108 520 348
116 528 396
112 540 452
116 540 500
116 544 552
124 548 596
128 556 644
140 552 696
156 556 748
164 568 796
172 572 828
188 576 876
184 576 916
108 556 204
108 564 232
112 564 264
112 568 304
116 576 360
116 576 404
124 580 452
124 584 500
124 596 556
128 600 604
128 608 660
132 604 700
152 608 752
160 612 796
168 620 844
184 624 888
180 624 924
116 612 220
120 612 248
116 616 268
120 620 308
124 620 364
124 632 412
124 636 464
132 632 512
132 644 556
140 652 612
136 656 664
132 664 716
144 668 760
152 668 808
164 672 856
176 672 904
176 676 936
120 664 224
124 664 248
124 668 284
124 668 320
132 668 360
128 676 412
132 684 468
140 692 516
140 692 564
140 700 616
140 708 664
140 712 712
136 712 760
144 720 816
156 724 860
168 724 908
164 728 944
124 716 228
124 716 248
124 716 280
128 724 316
128 724 368
132 728 416
140 736 468
136 740 512
140 748 564
148 752 620
144 760 672
140 764 724
140 772 772
140 772 824
144 776 868
156 780 912
144 780 956
120 768 224
124 776 252
124 772 276
124 776 320
128 780 368
136 788 420
140 796 468
144 796 524
140 800 576
148 808 632
144 812 680
140 820 736
140 828 788
140 832 840
132 828 880
136 836 932
128 840 976
116 836 216
120 836 240
124 840 272
128 848 312
124 852 368
136 848 424
136 852 468
136 860 528
140 868 584
144 876 636
144 880 688
136 880 736
132 888 788
132 892 836
128 896 892
128 900 944
112 904 988
116 896 204
104 896 220
104 900 248
104 904 300
108 904 348
120 908 416
120 912 468
120 920 528
124 920 584
124 928 636
116 936 688
120 940 744
112 948 792
108 952 840
96 956 900
96 960 944
88 964 988
176 68 148
164 68 180
156 84 240
136 100 268
120 116 300
124 136 332
132 156 376
144 176 416
164 200 460
172 212 504
176 228 524
188 244 572
196 256 608
204 264 652
212 280 692
220 288 736
224 292 780
208 128 156
176 132 208
160 144 264
152 148 300
140 156 344
148 168 376
148 184 400
164 196 444
168 216 480
176 228 524
192 236 556
200 252 596
200 264 628
212 268 676
212 284 704
220 292 752
220 296 796
220 196 148
196 200 224
168 212 284
160 208 324
156 208 368
156 212 400
164 224 432
172 228 468
180 244 504
184 252 532
192 264 572
204 264 608
208 280 644
216 288 680
216 300 720
224 308 760
216 308 816
176 248 168
172 248 212
164 256 280
164 256 332
152 264 376
160 260 424
164 268 456
172 268 496
180 276 520
184 284 564
192 288 592
200 300 628
204 300 664
216 308 704
216 316 732
216 328 780
212 328 828
160 288 176
148 292 224
144 300 280
148 304 320
148 304 372
152 308 424
160 308 464
168 304 500
168 316 548
184 316 584
188 324 620
200 336 648
204 340 688
208 336 716
212 348 764
212 356 796
204 356 844
144 332 184
136 336 212
132 340 268
132 344 320
140 344 364
144 348 412
148 356 460
156 356 512
164 356 548
172 368 588
180 364 628
188 372 668
188 376 704
196 380 748
208 380 784
212 392 820
196 388 864
132 372 180
124 376 212
128 380 256
124 384 300
132 384 356
136 396 404
140 396 456
136 400 500
152 400 548
164 404 588
168 408 632
180 416 680
184 416 716
188 420 752
208 424 792
208 432 832
196 432 888
128 416 184
124 424 220
124 424 256
132 424 304
128 428 352
132 432 400
132 440 448
140 448 504
148 448 544
156 452 592
164 456 648
172 456 684
184 464 732
192 472 776
192 476 816
204 480 852
196 480 912
128 460 188
128 460 220
128 468 260
132 472 300
128 476 356
132 480 404
136 488 456
144 496 504
148 496 552
152 504 604
160 504 652
180 504 700
176 516 736
192 516 780
196 520 824
200 532 868
192 532 912
132 512 200
128 508 220
128 512 264
132 516 308
132 520 352
136 524 400
140 536 452
140 536 496
144 544 548
148 548 596
160 552 644
168 560 696
176 560 744
184 568 788
192 568 824
200 576 872
188 576 924
132 556 208
136 556 228
140 564 264
140 564 316
136 572 364
140 576 404
152 580 460
152 588 512
152 600 560
156 596 604
160 600 652
164 604 692
180 612 756
188 612 796
192 620 848
200 620 888
180 624 936
136 608 224
140 608 240
136 616 276
144 620 316
148 620 368
148 624 408
148 628 456
164 640 520
160 644 560
160 648 612
160 652 664
164 660 712
168 664 760
180 668 808
192 676 856
200 672 900
176 680 940
144 664 228
140 660 244
148 664 284
148 668 328
152 672 368
152 676 420
160 684 468
160 692 520
164 688 568
160 704 616
172 704 672
172 716 724
164 716 772
168 720 812
184 724 860
184 728 908
164 732 956
140 712 228
140 716 244
144 720 288
152 720 328
152 732 372
152 732 416
156 732 464
160 740 516
168 748 572
172 756 620
168 756 672
164 764 720
168 768 768
168 776 820
172 784 872
176 788 916
148 784 964
148 772 224
136 772 248
144 776 284
152 776 328
152 780 368
160 788 424
160 792 468
164 792 520
164 804 580
172 808 628
176 812 680
168 824 728
168 828 784
164 828 832
164 832 880
164 836 932
136 844 980
144 836 224
140 832 236
144 844 284
148 840 320
148 844 368
160 844 420
160 852 476
160 860 532
164 864 588
164 872 636
168 880 692
160 880 740
160 892 800
160 896 844
156 900 900
160 896 944
116 908 980
136 892 208
128 892 208
104 900 224
104 900 276
108 904 340
112 904 400
116 912 468
120 920 524
120 924 584
124 928 636
120 940 692
116 940 744
116 952 800
108 952 852
100 952 896
100 960 948
88 964 988
228 96 176
220 104 200
216 104 244
204 112 296
184 132 324
184 152 372
180 168 400
184 184 444
192 200 476
204 216 516
208 232 548
212 244 580
224 256 624
224 272 660
228 276 704
240 288 752
236 292 784
256 136 188
232 148 220
224 152 264
220 156 324
208 168 364
196 176 388
196 196 428
192 204 460
196 216 500
208 232 528
212 240 564
220 252 604
220 264 636
224 276 676
232 284 720
240 292 756
