滤镜资源/vsco 137 3dl+cube/VSCO 137 3dl/VSCO S3 Clean.3dl
#Generated by Picture Instruments - Look Converter
3DMESH
Mesh 4 10
0 64 128 192 256 320 384 448 512 576 640 704 768 832 896 960 1023
0 0 0
0 0 28
32 8 92
0 0 180
32 12 264
0 4 364
0 0 460
32 8 548
0 0 636
32 8 724
20 20 780
20 20 844
36 20 884
20 20 920
36 24 944
4 4 956
0 0 1008
0 36 4
0 40 32
32 44 88
0 40 176
32 36 260
0 36 360
4 36 456
32 40 548
0 44 636
32 40 708
4 36 776
0 40 848
36 40 896
0 40 936
32 32 964
4 40 964
0 40 1012
4 96 4
4 100 32
32 92 92
0 100 176
32 92 268
4 92 356
0 100 456
32 92 548
4 96 640
32 100 712
4 104 788
0 92 852
36 92 900
0 96 936
32 92 964
4 100 964
4 100 1012
4 188 4
0 180 40
32 176 88
0 180 180
32 180 268
8 184 368
0 180 464
32 184 556
4 180 640
32 180 720
8 184 788
0 184 860
32 180 900
0 176 940
32 180 964
8 184 968
0 180 1012
8 276 8
4 284 36
32 268 88
0 276 180
32 264 252
8 272 356
0 272 452
32 272 544
0 284 636
32 280 708
12 272 784
0 276 856
32 268 896
0 272 932
32 272 960
12 276 972
0 276 1012
8 376 12
0 372 36
32 368 88
0 372 180
32 364 260
12 368 364
4 372 456
32 364 544
0 372 640
32 368 712
12 368 792
0 368 852
32 364 896
0 368 932
32 368 968
16 368 972
0 376 1012
12 464 12
0 468 36
36 464 100
0 468 180
32 460 264
12 464 364
0 468 460
36 464 556
0 468 640
32 456 716
16 464 788
0 464 852
32 460 896
0 472 936
32 460 968
16 464 976
0 464 1008
12 556 16
0 556 32
32 556 84
0 556 176
32 556 256
16 552 360
0 556 456
32 556 544
0 556 632
36 556 712
16 560 784
0 556 848
32 556 892
0 560 936
32 560 960
20 560 980
0 556 1012
16 644 16
0 644 36
32 644 88
0 644 172
36 644 264
16 648 368
0 652 460
32 644 544
0 640 632
36 644 712
20 644 792
0 644 848
32 644 896
0 648 932
32 644 964
20 644 980
0 644 1012
20 724 20
0 728 32
32 724 92
4 732 180
32 724 268
20 724 368
0 728 456
36 720 552
0 724 640
32 724 724
24 724 792
0 728 856
32 724 900
4 728 936
32 724 968
24 720 984
0 720 1012
20 792 20
0 796 32
32 796 92
4 800 184
32 792 268
24 796 372
0 796 460
32 792 548
0 800 640
32 796 724
24 796 800
0 800 860
32 792 900
4 792 944
32 792 964
28 796 984
0 796 1008
20 856 24
0 860 32
32 856 92
0 856 176
32 856 260
24 852 360
0 856 456
32 852 548
0 856 632
32 856 712
28 856 780
0 856 848
32 852 900
0 856 940
32 848 960
28 856 984
0 856 1012
24 900 24
4 904 36
32 900 88
4 900 180
32 896 264
24 900 360
0 900 460
32 896 544
0 904 636
32 904 712
28 904 792
0 900 856
32 896 896
0 900 936
32 896 968
28 900 988
4 900 1008
24 940 28
0 936 36
32 936 92
0 936 180
32 936 268
28 936 376
0 936 468
32 936 548
0 936 636
32 932 712
28 936 796
0 936 856
32 936 900
0 940 944
32 932 972
28 932 992
0 932 1012
24 964 28
0 972 36
32 972 88
0 972 176
32 964 260
28 968 364
0 972 460
32 964 540
0 972 632
32 964 708
28 964 784
0 968 852
32 960 892
0 968 940
32 960 964
32 964 988
4 968 1012
28 984 28
0 992 36
32 988 96
0 992 176
32 988 268
28 988 372
0 996 456
36 988 544
0 992 636
32 988 720
32 988 792
0 1000 856
32 988 896
4 992 936
32 984 968
32 984 992
0 992 1012
28 996 28
0 1012 36
32 1000 92
0 1012 176
32 1000 268
36 988 372
20 996 464
36 988 552
20 992 644
40 988 720
32 1000 784
0 1012 848
32 1000 896
0 1012 932
32 1000 964
44 992 984
28 996 1000
32 4 0
36 0 36
36 0 88
36 0 180
32 0 260
32 0 364
32 0 460
32 0 548
32 0 636
32 0 716
44 20 784
40 20 840
36 20 884
36 20 924
40 16 952
32 0 996
32 0 1012
36 40 0
36 40 40
32 36 104
24 24 188
8 8 292
0 0 408
0 4 504
0 0 596
0 4 672
0 0 760
0 0 828
0 0 892
0 0 940
4 4 972
8 4 1004
12 20 1016
32 36 1016
32 96 0
36 100 32
36 108 108
24 104 192
12 92 292
4 76 396
0 76 484
0 68 580
0 68 672
4 72 760
0 64 816
0 64 884
0 60 940
0 68 972
0 68 1004
12 76 1012
28 92 1012
32 192 4
16 200 24
20 200 92
24 200 196
12 188 296
4 180 404
0 160 492
0 164 588
0 160 676
0 164 756
0 164 828
0 160 888
0 148 936
0 152 968
0 156 1008
16 172 1016
32 176 1016
36 272 0
16 308 12
12 300 84
12 292 184
12 296 296
0 292 396
0 280 500
0 272 592
0 276 684
0 268 760
0 260 828
0 260 884
4 260 940
0 252 972
4 252 1004
12 264 1012
28 268 1012
36 368 0
4 404 4
0 412 68
0 408 160
4 412 284
4 404 396
0 388 488
4 384 588
0 380 676
0 376 756
0 368 828
0 368 888
0 360 936
0 360 972
0 360 1008
16 364 1016
24 368 1012
36 472 0
4 508 4
4 504 60
0 500 164
4 504 268
0 504 380
4 508 496
0 492 580
0 480 672
4 476 764
4 468 828
0 464 892
4 468 944
0 464 972
0 464 1004
12 460 1012
32 464 1012
36 560 0
0 592 0
0 592 64
0 600 164
4 592 264
0 592 376
0 592 480
0 600 588
0 580 680
0 572 760
0 564 828
0 568 888
0 568 936
0 564 972
0 568 1004
8 556 1012
28 556 1012
36 644 4
0 676 4
0 680 64
0 684 148
0 684 252
4 680 364
0 680 464
4 684 572
4 684 668
0 676 752
0 668 828
0 664 888
4 660 936
0 660 976
0 652 1008
8 652 1012
28 648 1012
32 728 0
4 760 0
0 768 64
0 760 148
0 760 248
0 760 356
0 764 468
0 768 568
4 760 664
0 756 752
0 752 820
0 752 888
0 748 940
0 752 976
4 744 1004
12 732 1016
36 724 1016
36 796 4
4 832 4
0 836 64
0 840 152
0 840 252
0 828 356
0 836 464
0 828 564
0 836 668
0 836 752
0 836 836
0 828 884
0 824 936
0 820 976
0 816 1004
16 808 1016
28 796 1016
32 860 0
0 888 4
0 892 60
0 896 152
0 892 260
0 892 364
4 892 464
0 892 564
0 892 660
0 896 744
0 896 828
0 900 896
0 892 940
0 884 976
0 880 1004
12 868 1012
32 856 1012
32 900 0
4 936 0
0 940 56
0 940 152
0 940 236
0 940 344
0 940 456
0 940 560
0 940 656
0 940 736
0 936 812
0 944 880
0 940 936
0 940 972
0 940 1004
12 916 1012
28 908 1012
36 940 4
4 976 8
0 980 64
0 976 152
0 980 248
0 980 352
0 972 452
4 972 556
0 976 648
0 980 736
0 976 816
0 980 880
0 976 932
4 976 976
4 980 1012
16 956 1012
28 940 1012
36 968 0
0 1012 8
0 1008 64
0 1008 152
0 1008 248
0 1004 352
0 1004 464
0 1012 564
0 1008 648
0 1008 740
0 1004 816
4 1004 880
0 1008 936
0 1008 976
0 1008 1008
8 988 1008
32 972 1012
32 996 0
20 1012 12
12 1012 76
16 1016 156
16 1023 260
16 1016 352
12 1016 452
16 1016 548
12 1016 640
12 1016 728
12 1016 796
20 1016 868
12 1012 908
16 1016 952
12 1016 984
12 1016 1016
28 996 1016
32 1012 0
28 1012 32
32 1012 88
36 1016 172
28 1016 260
40 996 368
40 996 460
44 996 548
44 996 648
40 996 728
32 1016 792
28 1016 856
28 1012 900
28 1016 936
32 1016 964
48 1004 992
48 1000 1000
92 0 0
92 0 28
92 0 96
100 0 176
88 0 260
92 0 356
96 0 456
88 0 560
92 0 636
100 0 720
92 20 776
88 20 840
92 20 888
92 20 924
92 20 956
88 0 996
88 0 1008
96 40 0
100 36 32
100 36 104
92 20 196
88 12 300
68 4 408
64 0 496
64 0 588
64 0 676
64 0 752
56 0 836
60 0 892
52 0 944
60 0 976
56 0 1012
72 16 1016
92 36 1016
96 96 4
104 108 36
100 96 100
80 88 184
72 80 296
64 64 408
48 56 508
40 44 608
32 36 704
16 32 792
16 16 872
4 8 944
4 0 992
20 24 1012
44 48 1012
72 72 1012
88 96 1012
88 184 0
92 200 16
88 196 88
92 188 184
76 188 292
64 168 392
52 160 492
36 148 600
36 136 696
20 124 792
12 132 876
8 120 936
4 104 988
16 116 1016
44 144 1016
72 164 1016
92 176 1016
100 272 0
84 308 8
72 300 76
80 296 176
80 296 288
60 284 392
48 276 500
40 260 604
32 256 696
24 248 792
12 236 872
12 236 944
4 228 996
16 220 1012
48 240 1012
72 260 1016
84 268 1016
96 372 0
72 408 0
56 412 64
60 404 164
56 400 272
64 400 400
52 392 500
36 384 612
36 372 712
24 368 804
12 356 868
8 348 944
0 344 988
16 352 1012
48 352 1016
72 356 1016
80 364 1016
96 468 0
72 496 4
56 504 48
48 516 152
56 512 264
52 508 388
52 500 492
32 496 596
36 488 700
24 480 788
12 476 872
8 472 948
4 456 992
16 452 1008
44 456 1012
68 460 1012
96 460 1012
100 560 0
68 596 0
44 620 40
40 612 136
40 608 256
40 612 380
40 608 492
44 612 608
32 600 696
24 592 788
12 584 872
8 580 944
4 572 996
16 568 1016
40 560 1016
64 556 1012
92 556 1012
92 644 0
64 680 0
40 708 36
28 704 132
32 708 248
28 708 368
28 704 484
28 704 596
36 708 704
16 700 796
16 688 880
8 676 940
8 672 992
20 668 1016
48 660 1016
72 656 1016
80 648 1016
92 732 0
68 760 0
28 796 24
16 796 116
24 796 232
20 796 344
20 800 468
20 796 576
20 800 688
24 800 784
12 792 868
8 780 936
4 776 996
12 764 1012
44 744 1016
68 732 1016
96 724 1016
96 800 4
60 832 0
12 872 16
12 880 108
8 876 224
12 880 336
12 880 460
8 876 572
16 880 684
12 880 780
16 872 864
8 868 932
4 868 992
24 848 1016
48 832 1016
64 808 1012
96 800 1012
92 856 0
64 892 0
4 940 8
8 944 108
8 952 220
4 948 336
8 940 448
8 944 572
4 940 672
8 944 780
4 944 868
8 948 948
4 936 988
20 916 1012
44 896 1016
72 872 1016
92 860 1016
92 904 0
60 940 0
4 988 8
4 992 100
4 996 216
0 996 340
8 996 460
4 996 572
8 992 672
4 992 764
4 992 860
4 992 940
8 996 1000
20 976 1012
44 944 1016
68 916 1016
88 904 1012
92 940 0
64 972 0
24 1008 20
24 1016 116
20 1012 224
16 1012 336
16 1016 436
16 1012 548
20 1016 664
20 1016 760
16 1012 836
16 1012 908
12 1016 968
24 1012 1012
44 992 1012
68 964 1016
88 936 1016
100 968 0
56 1004 0
44 1016 52
52 1016 140
52 1016 248
52 1012 348
52 1016 448
48 1016 544
48 1016 648
52 1016 740
48 1016 820
52 1016 884
52 1016 940
52 1016 984
52 1023 1012
68 992 1016
88 972 1016
92 992 0
72 1016 12
76 1016 80
72 1016 160
68 1016 252
68 1016 352
72 1016 452
68 1016 556
80 1016 652
68 1023 724
72 1016 804
72 1016 864
72 1016 912
72 1016 952
76 1016 992
68 1016 1023
84 996 1016
92 1012 0
88 1016 32
84 1016 88
92 1016 172
92 1016 264
96 996 368
96 996 472
96 996 560
96 996 648
96 996 720
92 1016 796
84 1016 860
92 1016 900
96 1016 940
88 1016 972
92 1004 988
92 1000 1000
180 0 0
172 4 40
180 0 88
176 0 168
176 0 264
180 0 356
176 0 452
176 0 548
172 0 632
180 0 716
168 20 776
172 20 840
172 20 888
176 20 920
168 20 952
180 0 996
180 0 1012
176 36 0
184 32 28
192 24 88
192 24 192
184 8 296
164 0 396
156 0 492
160 0 588
144 4 680
156 0 752
156 0 832
152 0 892
144 0 936
148 0 976
156 0 1012
164 16 1016
