滤镜资源/vsco 137 3dl+cube/VSCO 137 3dl/VSCO H2 Polychrome.3dl
#Generated by Picture Instruments - Look Converter
3DMESH
Mesh 4 10
0 64 128 192 256 320 384 448 512 576 640 704 768 832 896 960 1023
100 104 100
108 104 112
116 104 128
116 108 140
128 112 156
116 116 172
128 120 200
136 116 224
136 124 264
140 120 300
140 124 340
140 128 384
152 128 428
156 132 472
160 128 512
168 132 540
168 132 568
104 120 104
112 116 112
112 120 128
116 120 144
120 124 156
120 124 180
124 124 200
136 128 232
136 128 268
144 132 300
144 136 352
156 136 400
156 132 436
160 136 480
168 136 516
168 140 544
168 140 576
104 140 104
108 144 120
108 136 124
108 136 148
124 136 160
120 136 180
124 140 208
140 136 240
132 140 276
144 140 316
144 140 356
152 144 404
160 140 452
160 144 488
164 136 524
168 144 556
168 144 580
104 180 108
108 168 124
112 164 140
104 160 144
120 156 168
120 152 188
124 152 208
132 156 240
132 160 288
140 156 324
144 160 364
156 160 412
160 160 456
160 160 492
172 160 532
172 160 560
172 160 588
112 216 112
112 216 124
112 208 132
108 204 152
116 192 168
116 188 192
124 184 216
132 180 244
136 192 288
144 184 332
144 184 372
148 196 420
156 188 464
164 192 504
172 188 532
172 188 560
172 188 596
116 284 116
116 276 128
120 260 140
112 264 156
116 256 180
112 244 216
124 236 240
136 224 264
140 224 300
148 220 336
148 228 384
152 224 432
164 224 468
164 232 512
172 228 544
168 228 572
172 228 600
124 352 116
120 344 136
124 328 144
116 336 168
120 328 188
124 328 224
120 300 260
136 288 296
132 276 324
144 268 360
152 272 400
156 272 444
168 272 484
168 280 520
176 276 552
180 280 576
180 280 604
128 440 120
128 432 132
132 416 148
120 416 172
128 412 196
124 408 232
124 400 276
136 372 312
140 352 356
144 340 384
152 336 412
152 336 460
168 328 488
172 332 528
180 336 560
180 336 584
180 336 608
140 520 128
136 508 132
140 500 160
128 496 180
136 496 208
136 492 244
128 488 288
136 472 340
140 444 384
148 424 416
152 412 452
160 408 484
172 404 512
172 396 540
184 400 568
180 404 596
180 404 620
144 592 132
140 588 140
144 572 160
140 576 196
144 568 224
136 564 264
136 564 300
148 556 352
140 544 420
152 520 448
156 500 476
156 488 512
168 476 536
172 468 564
184 464 584
188 464 608
188 464 628
148 648 140
148 644 144
152 636 172
140 636 204
144 628 236
144 628 272
144 628 312
144 624 364
144 620 420
156 604 472
160 584 512
160 576 536
168 552 556
176 544 584
184 536 596
188 528 616
192 528 636
152 696 136
148 696 148
156 688 176
152 684 208
152 684 244
152 680 288
148 676 328
156 676 376
144 672 420
156 668 480
156 660 520
164 644 552
168 628 580
172 616 600
184 600 616
188 596 632
192 592 648
156 732 144
152 736 144
156 728 180
152 724 216
152 720 256
152 720 296
152 716 340
156 716 380
148 716 428
156 716 484
160 712 532
156 708 568
176 684 592
172 676 616
188 664 636
188 656 644
188 652 656
164 772 144
156 768 152
160 760 184
156 760 224
160 756 264
160 756 308
156 756 356
156 752 396
152 752 440
160 756 488
156 748 528
156 748 572
168 732 604
164 728 620
180 712 644
180 704 660
180 700 676
160 792 144
156 800 160
164 792 180
156 792 236
160 784 264
160 780 316
160 788 360
160 784 404
156 792 456
160 780 488
160 780 532
160 780 572
160 772 600
164 768 640
176 752 652
180 748 668
180 744 672
164 816 152
156 824 164
164 816 184
160 816 244
168 812 284
164 812 328
156 812 372
164 808 412
160 808 464
164 804 496
164 808 540
160 804 568
160 800 604
164 800 636
164 788 652
176 776 676
172 776 684
164 840 148
160 836 164
164 832 188
164 832 244
164 828 288
164 824 336
160 824 380
164 824 428
160 828 472
168 820 508
164 820 540
156 824 568
160 820 600
156 824 640
164 816 656
172 808 676
172 800 684
116 100 96
120 104 116
124 104 132
124 108 144
132 116 164
132 112 184
136 120 208
140 120 232
144 124 268
152 124 320
152 128 356
152 128 396
160 132 440
164 132 484
168 136 520
172 136 556
172 136 576
124 120 100
128 120 112
124 124 136
128 128 152
136 128 168
140 128 188
144 136 216
148 136 244
144 136 280
152 136 320
156 140 372
164 144 412
168 140 456
168 144 492
172 140 528
180 144 564
176 144 584
128 136 104
124 148 120
128 144 136
124 140 156
140 140 164
140 148 188
136 144 216
148 148 252
148 144 288
156 152 336
156 152 380
164 152 420
168 148 460
168 152 500
176 152 536
172 148 564
172 148 584
120 172 108
128 180 124
128 172 140
124 168 156
132 164 172
136 160 192
140 160 220
144 168 256
144 164 296
156 164 340
164 168 388
168 168 428
164 172 464
172 172 504
176 168 544
180 168 576
180 168 588
124 216 104
132 224 124
132 216 140
124 208 156
128 204 180
132 196 204
140 196 228
148 192 260
148 204 304
152 200 344
164 196 396
160 204 440
168 200 480
176 204 520
176 200 556
176 204 580
176 204 600
124 276 104
132 288 120
132 284 144
132 272 160
128 272 188
136 252 224
132 240 248
148 236 280
156 240 316
156 244 356
164 240 408
164 244 448
172 244 492
176 244 524
180 240 556
180 248 588
180 244 600
128 352 112
148 368 132
148 356 148
136 348 176
136 344 200
136 340 232
140 324 276
140 304 304
148 292 340
160 292 380
164 288 412
172 288 464
176 296 500
180 296 528
184 292 560
180 292 592
180 292 612
132 432 112
148 448 140
156 432 164
148 432 184
140 424 208
148 420 248
144 412 288
148 388 336
156 368 376
156 356 400
164 352 440
168 352 476
176 352 512
184 356 544
184 356 576
188 356 604
188 352 616
140 516 120
160 524 140
160 508 168
156 512 192
156 508 224
148 512 260
144 500 300
148 492 352
152 468 400
160 444 432
168 436 464
176 424 500
180 416 528
184 416 548
192 420 584
196 420 608
196 420 628
144 588 120
164 600 144
172 592 168
164 580 208
160 576 236
160 576 276
156 580 316
160 572 368
156 564 428
164 532 460
164 520 496
176 500 528
180 500 552
192 492 576
196 484 592
200 484 620
200 484 636
148 648 124
172 656 152
180 648 176
176 648 220
172 644 252
160 636 284
160 636 328
160 632 380
164 628 432
160 624 484
172 600 516
176 584 548
180 572 568
188 556 592
196 556 616
196 544 628
196 544 644
152 696 120
184 696 152
172 696 176
176 692 228
172 688 264
172 688 304
172 688 348
168 688 392
160 680 432
168 676 488
168 668 544
176 656 564
180 644 588
184 620 608
192 612 632
200 608 644
200 604 656
148 732 128
180 740 152
184 740 192
188 732 240
184 732 276
172 728 308
168 728 348
168 728 396
172 728 452
168 720 496
172 716 540
168 712 572
180 696 600
184 688 624
192 672 644
196 664 660
196 660 664
156 772 132
184 772 152
188 772 188
188 768 236
188 760 280
180 764 320
176 764 368
168 764 412
168 756 456
172 760 500
172 756 540
164 756 580
172 744 616
176 732 628
180 720 648
192 712 664
192 708 684
152 800 132
196 804 164
188 796 192
188 792 248
184 792 292
180 792 336
180 792 384
180 792 428
164 792 460
172 792 508
172 784 548
168 788 580
168 780 612
176 768 644
176 760 660
184 748 668
184 744 676
160 824 132
188 828 168
196 824 200
192 824 252
192 820 304
188 816 344
172 816 384
176 816 436
176 812 472
176 816 516
168 812 544
176 812 576
168 812 608
172 808 640
168 800 656
180 788 684
180 780 692
160 840 132
192 844 164
196 840 200
192 836 252
192 836 308
188 828 352
184 832 404
184 832 440
176 828 476
176 828 516
172 832 548
168 828 580
172 828 608
164 828 640
168 820 664
180 812 684
180 804 692
140 104 100
148 104 116
144 108 136
156 104 152
144 108 168
148 116 192
152 116 216
156 124 248
156 120 284
164 128 332
164 128 368
164 132 412
172 132 452
176 136 496
180 136 532
184 136 560
184 136 588
140 124 104
148 124 112
148 124 136
148 128 160
152 132 172
156 132 196
156 132 220
160 136 260
160 140 292
168 140 340
172 144 384
180 144 428
180 144 468
184 140 508
184 144 544
192 144 572
192 144 596
140 140 100
148 144 120
156 148 136
152 148 152
156 148 176
160 156 204
168 152 232
164 156 268
172 156 312
168 160 348
176 156 396
184 160 440
184 156 480
188 156 520
188 156 552
188 156 576
184 156 596
140 164 108
148 172 116
152 184 144
152 180 160
156 180 184
164 172 204
168 172 236
164 176 268
176 180 316
176 176 360
176 180 400
184 176 444
184 176 480
196 176 516
196 180 556
200 176 588
192 176 604
140 204 104
152 224 120
156 228 148
160 224 160
156 220 196
156 208 216
168 212 244
168 204 276
172 208 320
180 216 368
180 212 412
184 216 452
192 220 500
188 212 528
196 212 568
196 212 592
196 212 604
144 264 104
152 276 120
168 296 152
164 288 172
160 280 200
156 264 236
164 256 264
176 252 300
180 252 344
184 260 380
188 256 424
188 260 468
192 260 500
192 260 540
200 264 568
200 256 600
200 256 608
148 344 112
160 356 124
176 368 152
176 364 180
176 356 212
164 356 248
160 328 288
168 320 324
172 312 352
188 312 392
188 312 432
192 316 476
196 316 512
200 312 544
204 312 572
204 312 604
204 312 624
156 420 112
168 444 128
188 460 168
188 444 192
172 440 220
176 436 260
172 428 304
168 408 352
176 392 388
180 380 420
196 372 460
200 372 488
200 376 532
208 376 564
204 372 584
208 372 612
212 372 624
164 504 120
176 516 128
204 536 176
200 524 208
200 524 248
184 520 276
176 512 320
180 508 372
180 484 420
188 460 456
192 452 484
208 440 512
204 444 540
216 436 572
212 440 596
220 444 624
220 444 632
164 584 116
172 592 128
208 604 176
208 600 220
204 592 256
196 588 292
192 592 336
180 580 376
180 576 432
188 552 476
188 540 508
200 528 536
208 516 560
208 508 580
216 504 608
228 504 628
228 508 644
172 640 120
180 648 132
228 664 188
220 656 232
212 648 268
204 652 308
196 648 344
188 648 400
188 648 444
192 640 500
192 612 524
192 600 556
208 584 580
216 580 600
224 572 624
224 564 640
224 564 648
172 688 124
184 700 140
224 712 188
228 700 236
220 700 284
212 696 320
204 696 360
196 696 408
188 692 448
192 688 504
196 684 552
200 664 576
200 652 596
208 636 616
212 632 636
220 624 648
224 624 660
176 728 128
188 740 136
232 748 200
228 740 240
224 736 292
220 732 332
212 736 380
200 732 416
200 732 464
188 728 508
192 728 544
192 720 588
200 704 612
204 696 628
212 684 644
216 676 668
220 672 672
176 768 128
184 768 136
236 780 196
240 772 248
232 772 304
228 768 348
216 764 388
204 764 424
208 768 476
192 768 512
192 768 548
188 764 584
192 752 620
204 740 640
208 732 656
212 724 672
216 712 680
180 792 124
188 800 148
244 808 212
244 804 264
236 796 312
228 800 352
224 792 400
216 796 444
204 796 476
204 792 516
196 796 556
204 792 592
192 792 620
196 780 644
204 764 664
204 756 672
208 756 688
176 816 124
192 824 144
248 832 212
240 828 256
236 824 320
236 820 364
228 824 408
216 820 452
216 820 488
204 820 528
200 820 560
196 820 588
188 816 620
188 808 648
196 800 668
200 796 684
200 788 696
176 840 128
192 840 144
244 848 212
244 844 264
244 840 320
240 836 376
228 836 420
228 836 460
216 832 496
208 828 528
204 832 564
192 836 592
192 836 620
192 832 644
192 820 668
196 816 684
200 808 696
176 108 96
180 108 116
176 108 128
184 104 156
176 112 180
176 112 212
180 112 232
176 120 268
188 124 304
188 120 344
184 132 376
184 136 420
188 128 468
192 136 500
188 136 532
196 132 572
196 140 596
172 120 96
180 120 112
184 120 132
184 124 164
184 128 188
180 124 208
184 132 236
188 132 272
188 136 304
192 144 356
192 144 400
188 144 440
192 148 476
196 144 516
204 148 560
200 148 580
