滤镜资源/vsco 137 3dl+cube/VSCO 137 3dl/VSCO P4 Instant.3dl
#Generated by Picture Instruments - Look Converter
3DMESH
Mesh 4 10
0 64 128 192 256 320 384 448 512 576 640 704 768 832 896 960 1023
88 144 136
84 148 152
88 148 176
88 156 220
92 156 268
88 168 332
92 176 396
92 188 456
88 216 524
96 232 576
88 268 616
84 304 656
92 336 684
84 380 732
88 436 768
84 480 808
84 488 812
88 144 136
88 148 152
96 148 176
88 160 216
88 160 260
84 168 328
84 180 388
88 192 460
88 216 524
88 236 568
84 276 616
88 320 664
92 368 692
84 416 736
92 460 772
88 492 800
84 500 808
88 144 136
88 152 144
88 152 164
88 160 216
92 164 264
84 176 332
84 184 392
92 204 456
80 228 524
88 256 580
84 300 624
92 360 676
92 424 716
88 472 752
88 508 780
84 528 796
80 532 804
84 152 128
88 156 144
92 156 168
92 164 212
88 172 264
88 180 340
84 196 400
88 216 472
88 244 536
96 276 588
88 332 640
92 408 692
84 480 728
88 520 756
88 548 780
92 560 800
84 560 800
88 156 132
84 156 144
88 160 164
88 168 216
88 180 264
88 196 336
84 208 400
88 228 468
84 264 540
88 304 604
92 360 652
88 436 704
92 500 736
88 560 772
92 588 792
92 596 808
80 600 804
80 160 128
84 168 140
88 172 164
88 180 208
92 188 272
88 200 340
88 216 400
92 240 476
88 280 548
92 328 608
84 392 660
88 464 708
88 532 736
84 592 780
88 640 800
92 664 820
88 664 824
84 172 136
88 176 148
92 184 172
88 192 212
88 200 264
80 216 336
84 236 408
92 256 488
84 304 560
92 344 616
88 408 660
80 480 708
92 548 744
84 628 780
88 688 808
92 716 828
88 720 836
84 180 132
84 192 144
88 196 172
84 204 216
92 220 272
88 236 340
88 252 416
92 276 484
84 312 556
92 356 608
88 416 652
84 488 692
84 548 724
88 624 768
92 680 796
92 716 816
88 728 820
92 196 140
84 204 148
88 216 176
84 228 228
88 236 280
84 264 344
88 280 424
92 304 492
84 336 556
88 380 604
92 436 656
84 500 692
92 564 724
88 624 756
92 676 780
88 708 800
88 720 800
88 224 132
92 228 140
88 244 172
88 260 232
88 272 284
88 292 360
84 312 436
88 336 504
88 372 572
88 420 616
88 472 660
88 528 696
92 584 728
84 644 756
88 684 776
88 712 788
84 712 788
96 260 128
88 272 144
88 284 176
84 308 244
92 328 308
88 340 380
88 356 448
88 380 520
84 428 584
92 468 624
88 516 668
84 572 704
88 616 720
84 664 760
92 704 776
88 720 784
84 724 784
88 304 120
92 320 144
96 348 192
88 360 248
88 380 316
88 400 392
88 420 468
92 444 536
84 484 596
92 524 636
88 564 672
88 612 704
92 656 740
92 700 764
88 720 776
88 736 788
88 740 792
96 352 132
88 372 152
96 400 208
88 424 280
92 440 352
88 460 412
88 492 492
96 516 552
88 548 616
92 588 656
92 620 696
92 652 728
92 692 748
84 724 768
96 748 788
88 764 796
88 768 796
88 400 148
92 420 176
92 444 224
88 468 300
92 492 360
92 524 444
92 552 516
92 576 568
84 600 636
92 632 668
84 660 704
88 696 732
92 728 760
88 756 780
88 780 792
92 796 804
88 796 808
92 428 160
88 444 192
100 464 240
88 492 316
92 516 372
88 560 444
88 596 512
92 620 576
84 648 652
92 668 688
92 696 716
88 728 744
96 752 768
84 784 788
92 804 808
92 820 820
92 824 824
96 440 168
92 452 188
92 468 248
88 492 316
96 528 380
88 580 456
92 616 524
96 640 588
88 664 656
92 680 688
92 708 724
84 740 748
88 764 772
84 796 796
92 816 808
92 832 820
92 832 828
96 440 168
92 452 192
92 468 248
88 492 316
96 528 380
88 576 452
92 616 524
96 644 596
84 664 656
88 684 692
92 708 716
80 740 748
88 764 772
84 796 796
92 816 808
92 832 820
88 832 820
88 144 136
84 148 152
88 156 184
88 156 220
88 164 276
88 172 340
88 180 404
84 196 472
92 224 532
84 248 588
84 288 632
88 320 668
80 356 700
84 396 736
84 456 784
84 500 812
84 500 820
88 152 140
88 152 144
84 156 172
88 164 220
84 164 276
84 180 344
88 188 400
92 208 480
92 224 532
84 256 584
88 300 632
88 344 676
88 388 712
88 428 744
84 476 784
88 508 808
88 512 816
88 156 132
92 156 144
84 160 176
88 164 220
84 172 272
84 180 336
84 196 404
84 212 468
84 240 532
84 268 588
84 308 632
88 372 684
88 432 716
84 480 756
84 520 792
80 536 808
80 540 812
88 156 132
84 156 144
84 168 172
88 168 216
80 180 276
88 192 340
84 204 404
88 228 480
88 256 544
84 288 596
84 344 648
88 416 696
84 480 728
84 532 764
88 560 792
88 572 808
84 572 808
84 164 128
88 164 148
88 172 172
92 180 224
84 184 280
84 200 348
88 220 420
80 244 488
88 280 556
88 316 608
88 376 660
84 444 700
88 524 748
88 564 776
84 588 796
84 608 808
84 608 808
88 168 128
84 172 148
88 176 172
88 188 220
88 200 280
84 208 352
92 224 412
84 256 488
88 288 552
84 340 612
84 404 664
88 464 708
84 532 744
84 592 776
88 640 808
88 660 820
88 660 820
88 176 132
92 180 152
88 192 176
92 200 224
92 208 284
84 228 348
84 248 420
92 272 492
84 308 564
88 356 616
84 420 664
80 484 712
88 548 744
84 620 772
88 680 808
84 712 828
84 712 836
92 192 136
88 200 152
92 208 184
96 216 228
92 228 284
88 244 352
92 264 424
84 292 500
88 332 572
88 384 620
88 432 672
84 500 700
92 564 736
88 636 776
84 696 804
88 732 828
88 732 828
96 208 140
92 212 152
92 228 184
92 240 232
92 256 288
92 268 356
88 288 432
92 320 504
88 360 564
88 404 616
84 460 660
88 512 700
88 576 732
88 636 764
84 696 792
80 720 804
84 724 808
96 236 132
92 240 148
88 256 184
92 272 236
88 288 300
92 308 372
88 328 448
92 360 520
84 400 584
84 440 620
88 492 668
84 544 704
88 600 732
88 656 764
84 696 784
84 724 800
84 724 800
92 268 124
88 280 144
88 300 184
92 320 248
92 336 320
84 356 384
92 380 460
92 404 532
92 444 588
84 492 640
88 536 672
84 584 712
84 636 736
88 680 772
92 716 788
88 732 792
84 736 792
92 308 120
96 324 148
92 352 188
92 376 260
92 396 340
88 420 412
92 436 476
92 464 544
88 504 600
88 540 648
84 588 680
84 632 716
84 672 744
84 704 764
84 744 788
88 752 800
88 752 796
100 356 132
92 376 152
96 404 216
92 432 292
88 448 352
88 472 424
92 496 496
92 528 568
88 560 624
88 592 660
88 628 696
84 664 728
84 700 752
84 736 780
84 768 796
80 772 800
88 776 800
92 404 148
96 424 180
96 448 244
92 476 316
88 500 380
88 524 444
88 548 508
88 584 580
88 612 644
88 644 684
88 680 712
88 708 744
84 732 764
88 764 788
88 792 804
88 804 812
88 804 812
96 436 164
96 456 204
96 476 268
88 492 332
88 520 396
88 564 460
92 604 532
92 624 596
88 652 656
88 684 696
84 708 724
88 736 748
84 764 772
88 792 796
96 812 812
92 828 820
92 828 820
92 452 168
96 464 208
88 480 268
92 504 332
92 536 396
88 576 464
92 620 528
92 644 596
92 668 660
88 692 700
80 716 720
84 744 748
84 772 772
88 800 800
88 824 816
92 836 824
92 836 824
92 452 168
96 464 208
88 480 268
92 504 332
92 536 396
92 576 460
92 620 528
92 644 596
92 668 652
88 692 700
80 716 720
84 744 748
84 772 772
88 800 800
88 824 816
92 836 824
92 836 824
88 156 144
88 160 160
92 160 188
92 168 240
92 172 296
96 184 356
80 200 424
84 220 492
92 244 556
84 288 612
88 324 656
92 360 688
88 396 724
88 444 760
88 496 808
88 524 820
88 524 820
92 156 144
92 160 156
88 160 188
92 172 232
88 180 292
92 196 360
84 204 428
84 224 492
84 252 556
84 288 604
84 332 652
88 380 696
88 424 728
88 464 760
92 508 804
92 540 824
92 540 824
92 160 136
88 160 152
92 164 192
88 172 232
92 184 296
92 200 368
92 212 432
84 232 492
84 264 552
88 292 604
84 344 652
88 408 704
88 472 732
88 512 768
92 544 804
92 560 820
88 564 820
96 164 140
88 168 152
92 176 176
88 180 228
92 196 292
92 208 364
88 224 428
88 244 496
84 276 548
88 324 616
88 376 660
92 440 704
92 500 736
92 548 768
92 580 796
96 592 816
88 596 816
88 168 132
92 172 152
96 180 176
96 196 236
96 204 296
92 220 368
96 240 440
92 264 504
92 296 564
88 344 616
92 400 668
88 476 712
88 536 748
88 576 776
92 604 804
92 620 816
92 620 816
92 176 132
88 184 152
92 192 188
96 204 240
96 216 304
96 232 372
92 252 440
88 280 512
88 324 572
88 376 624
92 428 676
84 492 712
88 548 748
88 604 780
92 640 808
92 656 816
88 660 820
92 188 140
92 196 148
92 204 188
100 212 240
96 224 300
92 248 368
96 264 436
88 296 504
88 340 564
84 392 628
92 444 680
88 508 712
96 564 752
92 624 780
88 672 808
84 708 828
84 708 828
96 208 144
88 216 152
100 224 188
92 236 240
96 244 304
96 268 372
92 292 444
88 328 520
92 360 576
88 416 636
88 468 684
84 528 708
84 584 744
88 644 784
80 700 808
88 732 836
88 732 836
100 224 144
100 236 160
100 248 192
92 264 252
92 276 316
96 296 380
92 324 452
96 364 528
92 408 596
92 452 644
84 496 676
84 544 712
84 600 748
88 660 772
88 708 804
92 740 820
80 740 820
104 256 144
100 264 152
100 280 196
92 296 252
96 316 320
96 336 392
96 368 464
92 400 536
96 448 596
92 492 648
88 528 684
88 576 712
92 624 748
88 672 772
80 720 796
92 740 812
84 744 812
104 288 132
104 304 156
100 324 200
100 344 268
100 356 336
96 380 404
96 412 480
100 452 556
100 492 616
92 532 656
92 572 688
88 616 728
88 664 752
92 704 780
88 744 804
92 756 808
88 760 804
108 332 132
100 348 152
100 372 200
96 396 276
100 416 360
100 440 432
100 460 496
100 504 568
100 536 620
96 576 664
88 620 700
88 660 728
92 696 756
92 732 780
92 764 800
84 776 808
88 776 808
108 380 136
104 396 160
100 420 228
96 448 308
100 468 372
100 488 452
100 520 520
100 548 584
92 584 632
100 616 672
88 656 716
84 696 744
92 736 776
88 764 792
92 780 808
96 796 816
96 800 816
108 424 144
112 444 188
104 464 260
104 484 332
96 504 396
96 532 456
104 564 528
104 592 588
104 628 652
96 664 692
92 696 724
96 724 748
92 752 772
96 780 796
92 808 816
92 820 824
92 820 824
116 460 164
112 472 212
108 492 288
100 508 356
100 532 412
96 572 472
100 612 544
108 636 604
100 660 664
96 696 704
92 720 736
96 756 760
92 780 780
92 804 804
96 824 820
100 836 828
96 836 824
112 476 180
112 488 232
108 504 312
104 512 364
100 544 412
100 584 480
104 628 548
104 656 612
104 680 668
100 708 712
96 740 740
92 764 764
92 784 784
96 816 804
100 836 828
100 844 832
100 844 832
112 476 184
112 488 232
108 496 308
104 512 376
100 544 412
100 584 480
104 628 548
104 656 612
104 680 664
96 708 712
92 740 740
88 764 764
92 784 784
96 816 804
100 836 828
100 844 832
100 844 832
96 164 144
104 172 164
104 180 204
104 188 256
96 192 316
100 208 388
96 224 452
96 244 516
96 280 580
92 316 636
96 368 680
96 416 712
96 452 744
96 500 780
100 536 812
100 560 836
100 560 840
100 164 144
96 168 160
104 176 200
104 188 256
104 204 324
100 212 384
100 228 456
92 252 516
88 284 580
92 324 628
96 380 684
96 424 716
96 468 748
104 512 784
96 552 812
104 580 840
