滤镜资源/vsco 137 3dl+cube/VSCO 137 3dl/VSCO C2Vibrant.3dl
#Generated by Picture Instruments - Look Converter
3DMESH
Mesh 4 10
0 64 128 192 256 320 384 448 512 576 640 704 768 832 896 960 1023
52 40 60
56 40 92
60 32 132
48 32 212
48 28 296
20 32 400
0 40 480
32 64 524
0 72 568
32 72 596
16 84 612
12 92 652
32 92 672
16 96 696
32 96 720
4 100 736
0 96 756
56 64 60
52 68 92
60 72 132
48 68 180
52 64 252
32 64 332
16 68 428
32 68 516
4 84 592
32 88 640
4 100 680
0 104 716
28 104 748
0 108 768
32 112 776
8 120 800
0 116 820
56 96 68
52 100 100
64 104 136
48 104 188
56 104 252
40 104 328
28 112 420
40 112 508
0 124 584
32 120 652
8 124 708
0 124 756
32 120 788
0 128 836
32 132 864
8 140 884
0 140 904
48 148 72
52 148 104
64 148 140
52 156 200
60 164 260
44 172 352
32 172 440
40 184 528
12 184 596
36 184 664
8 192 720
0 188 776
36 180 816
0 180 852
32 184 888
8 180 916
0 180 956
52 192 84
52 208 112
64 212 148
52 228 212
64 232 276
48 252 356
44 256 440
48 256 524
24 276 604
40 280 676
12 276 736
0 272 788
36 272 824
0 272 868
36 268 904
12 272 932
4 272 968
48 256 84
48 256 116
64 268 160
56 292 220
64 320 288
52 348 376
48 356 460
56 360 536
32 364 616
48 364 680
16 380 744
0 384 804
36 376 840
4 384 888
32 376 924
16 376 952
4 376 992
48 344 92
52 348 128
60 364 168
60 376 232
72 400 308
60 428 392
48 460 472
60 468 556
36 476 628
48 472 680
28 488 748
8 492 808
40 488 844
0 500 896
36 488 924
16 492 956
0 492 996
48 432 112
44 444 132
60 452 176
48 472 232
68 488 316
60 508 396
56 536 476
56 560 552
40 576 636
52 576 688
32 580 748
20 588 800
40 584 844
8 592 888
36 592 928
20 592 960
4 592 996
52 528 112
44 532 136
56 540 180
48 552 240
64 564 332
52 592 416
60 604 500
64 620 564
44 648 636
48 660 696
40 664 752
28 668 812
44 672 848
12 672 900
40 672 936
24 676 968
0 676 1004
60 600 132
56 600 152
72 608 180
52 628 240
60 632 336
64 644 428
56 668 508
68 676 572
48 700 640
56 720 704
40 728 752
24 732 804
44 728 848
20 740 896
40 732 936
28 736 972
4 736 1000
56 656 144
68 660 156
76 664 188
64 680 244
72 692 348
68 700 432
60 712 508
68 728 584
48 744 644
60 760 700
44 776 760
36 784 808
48 788 848
20 796 892
44 792 928
32 792 972
4 792 996
76 704 156
80 708 160
84 720 188
72 728 228
76 732 320
72 748 428
68 760 516
64 772 580
60 780 644
60 792 704
56 804 756
36 824 804
52 820 836
24 840 884
44 832 916
36 836 956
20 836 992
92 748 172
92 752 172
100 756 188
96 764 220
92 772 320
84 784 420
72 800 508
76 808 580
64 820 648
72 832 708
64 840 756
48 852 804
52 860 848
32 860 876
44 872 912
40 876 952
24 876 988
112 788 180
108 792 184
120 792 192
112 804 224
108 812 316
92 820 432
88 836 508
80 844 576
64 856 644
76 860 700
76 868 748
64 880 796
64 884 844
52 896 880
52 888 904
52 900 944
36 900 976
128 820 200
128 824 200
132 824 196
140 836 228
128 840 304
124 852 404
108 868 500
100 872 568
92 888 644
96 884 692
92 888 748
76 900 792
80 904 832
68 916 872
72 916 908
64 916 928
52 920 964
144 852 208
140 856 208
148 852 212
152 864 228
148 864 296
148 880 412
128 892 496
124 896 560
112 904 636
108 912 692
104 916 744
92 920 784
96 928 824
88 936 864
84 936 900
80 944 940
68 944 956
160 876 216
156 880 220
164 880 220
168 880 236
168 888 300
160 892 400
152 908 496
140 912 564
132 924 640
128 928 692
116 928 744
112 940 784
108 940 820
104 948 864
100 956 900
108 956 928
92 960 956
76 36 56
68 36 96
76 36 132
72 32 196
64 28 276
52 28 364
36 32 452
12 44 536
0 60 592
0 76 620
8 80 636
12 84 660
12 88 692
16 92 708
12 96 728
0 96 760
0 96 768
68 72 52
64 68 92
64 64 144
60 60 212
52 56 292
44 56 384
36 64 468
12 68 548
4 76 616
0 92 668
0 96 716
0 100 740
0 108 768
0 112 784
0 112 804
0 116 820
0 116 832
60 100 60
64 104 92
68 108 136
60 112 208
60 104 276
52 108 360
44 108 444
20 112 536
12 116 616
0 116 688
0 120 740
0 124 788
0 124 816
4 132 852
0 132 884
0 136 908
0 140 924
60 144 64
64 148 100
68 152 140
64 164 200
64 168 276
56 172 356
52 164 436
36 176 536
16 176 612
8 180 684
0 188 744
4 192 796
4 176 836
4 172 880
4 172 916
0 172 956
0 172 980
56 196 64
68 208 104
68 212 152
72 228 208
72 240 284
64 248 360
60 252 452
52 256 536
44 264 612
20 264 676
0 272 752
4 276 800
4 276 848
0 268 892
4 260 924
0 268 960
0 264 992
56 248 68
64 256 112
64 276 156
68 292 208
72 320 292
68 336 368
72 348 452
64 352 524
64 360 604
52 372 672
28 376 744
8 380 804
0 384 848
4 376 888
4 376 928
0 372 968
0 372 996
52 340 84
64 348 124
60 356 164
64 376 228
76 396 304
80 420 384
72 448 460
68 464 536
64 468 612
64 472 684
52 472 740
40 484 800
28 484 852
12 492 892
8 488 924
8 492 972
4 488 1000
48 440 96
60 444 136
60 452 172
64 472 236
72 484 320
76 500 396
76 524 472
68 548 552
68 568 632
64 572 700
52 568 744
48 572 796
44 580 844
32 584 892
12 596 944
16 588 980
12 588 1000
52 528 112
56 528 132
56 540 180
64 544 232
64 564 324
72 584 412
72 596 484
76 616 552
72 640 636
60 656 688
64 656 744
56 656 800
48 660 840
32 664 892
24 668 932
16 680 980
12 680 1000
56 596 128
64 604 152
68 608 184
68 620 232
68 628 324
76 640 416
72 668 500
80 672 564
76 692 632
64 708 692
60 720 744
56 724 800
56 724 840
48 736 888
36 732 920
24 736 968
20 736 996
60 656 132
76 656 156
76 664 188
72 672 232
68 696 332
76 700 424
72 716 500
76 724 576
80 736 640
76 748 696
64 772 756
64 772 796
60 784 844
52 788 892
48 788 920
36 792 968
32 788 992
76 708 148
80 708 160
88 712 188
80 724 228
80 736 328
84 752 428
80 764 516
76 764 580
76 780 644
76 792 696
72 808 760
68 816 804
60 816 832
52 828 880
52 828 916
48 836 964
44 832 988
88 748 168
88 748 168
100 752 192
100 760 220
92 776 312
92 784 416
84 796 500
84 808 584
88 816 644
80 824 692
80 840 748
76 844 796
68 856 836
60 860 872
60 868 904
52 872 944
52 868 984
96 792 184
108 792 184
112 796 196
108 800 216
104 812 312
100 820 416
96 832 504
88 844 572
88 856 644
88 860 700
84 872 752
84 876 796
80 884 836
80 888 876
68 892 900
68 892 940
64 896 972
124 824 192
128 824 200
128 824 204
132 828 220
124 844 304
120 852 404
108 864 504
108 868 568
96 880 640
96 888 700
100 892 744
96 896 792
92 908 832
92 912 872
84 916 908
84 920 932
76 920 960
136 852 200
140 856 208
144 856 212
152 864 228
148 872 300
144 884 396
132 892 492
128 900 568
124 908 636
116 912 692
112 916 740
104 924 784
108 924 828
100 940 860
100 936 892
100 944 940
88 940 952
156 876 220
156 880 220
160 884 224
168 880 236
164 896 292
160 896 392
156 904 496
148 916 568
136 924 636
136 924 692
124 936 740
120 940 784
116 948 824
112 952 864
108 960 900
116 956 928
116 960 956
96 40 60
100 36 96
100 36 136
100 32 196
96 28 264
88 28 352
72 32 432
44 36 520
24 44 600
0 60 656
12 80 664
12 84 692
12 92 716
12 96 740
12 100 760
0 92 780
0 92 796
96 68 56
96 60 88
92 64 148
92 52 208
84 56 288
76 56 372
68 52 456
48 60 532
24 68 616
0 84 688
0 96 724
0 96 760
0 104 780
0 108 808
0 112 824
0 112 844
0 112 856
88 100 68
92 100 92
92 100 140
88 104 200
80 100 276
76 96 368
68 100 456
48 104 548
32 108 620
16 116 688
0 116 748
0 120 804
0 120 840
4 128 868
0 128 892
4 136 920
0 136 948
72 144 60
84 148 88
88 156 136
92 164 200
88 164 276
88 164 356
76 164 440
60 164 524
56 168 608
28 176 688
12 192 752
8 176 808
8 176 844
4 176 896
4 172 932
0 172 968
0 168 996
64 200 52
80 204 96
88 208 152
92 224 204
92 236 276
92 240 356
92 244 440
84 248 520
64 256 604
56 260 680
28 264 756
12 276 808
8 276 860
8 264 896
4 264 936
4 264 972
4 264 1004
56 252 48
76 252 104
88 276 156
92 288 212
96 308 284
100 332 368
100 344 444
92 348 536
92 356 604
84 360 676
64 364 744
36 376 800
20 380 856
8 376 900
8 380 948
4 368 980
4 372 1008
56 336 68
80 340 112
84 352 160
88 380 224
96 388 292
108 420 380
104 436 448
100 456 536
96 456 604
96 464 668
88 468 736
84 472 792
68 476 836
40 484 888
20 492 936
16 492 980
12 488 1008
52 440 76
68 440 124
80 456 168
80 464 220
92 476 316
100 496 388
104 520 468
104 544 552
96 556 612
100 564 680
92 568 744
92 564 796
84 568 836
76 576 888
52 580 924
28 588 980
24 588 1008
52 524 92
72 528 136
72 532 172
84 544 228
92 560 332
88 576 404
104 592 488
104 612 556
108 640 628
96 652 692
96 648 744
92 640 792
92 652 840
84 652 888
72 660 924
56 672 976
44 664 1004
56 600 120
72 600 140
76 604 176
80 616 224
80 628 324
92 640 412
100 660 492
108 668 564
108 684 628
104 708 692
96 712 736
100 720 788
96 720 836
88 720 876
88 724 916
72 728 964
72 728 992
64 656 124
80 656 148
80 664 180
88 672 220
84 688 320
96 692 412
96 708 492
100 724 572
108 740 636
108 748 688
104 760 748
104 764 792
96 772 840
96 772 880
88 776 920
84 784 956
80 780 988
72 700 144
88 704 164
88 712 184
100 724 216
88 732 324
96 748 428
96 752 496
104 768 576
104 776 632
108 788 692
104 800 752
104 812 788
96 816 832
96 824 872
88 824 912
84 824 952
84 824 980
84 744 164
92 748 164
100 752 192
104 760 216
100 776 316
100 784 416
104 800 508
100 808 580
104 816 640
108 824 696
108 832 748
100 848 792
104 852 832
104 852 860
88 860 904
84 868 948
84 864 976
96 788 176
108 784 184
112 788 192
120 800 216
116 812 308
112 820 408
112 828 504
108 840 568
112 852 640
116 852 692
104 860 744
108 872 780
108 880 828
108 888 860
104 888 900
100 892 940
92 896 968
120 820 184
128 820 192
132 824 200
140 832 220
128 840 296
124 856 404
124 860 496
120 876 568
116 884 640
116 884 700
124 888 740
120 900 792
120 904 832
120 912 868
112 912 908
108 912 928
108 912 960
132 852 200
152 856 208
152 860 216
152 856 224
156 872 296
148 884 396
140 892 496
140 900 568
136 908 636
136 912 696
136 916 748
136 920 788
132 920 832
132 936 864
124 936 900
120 940 936
116 936 952
152 872 208
164 880 224
168 884 228
168 880 236
176 896 296
172 896 392
164 904 496
148 916 568
152 920 636
148 932 696
148 936 748
140 936 792
140 944 828
132 948 860
128 956 904
132 964 932
136 960 952
136 40 48
132 40 88
140 36 140
136 32 208
136 24 272
132 24 352
124 24 436
104 36 516
84 36 588
56 44 652
28 64 712
12 84 756
12 88 776
16 96 800
8 96 808
0 100 840
0 100 852
124 72 56
136 64 80
144 60 144
140 52 212
136 48 284
132 48 372
120 44 456
108 52 524
80 64 608
56 68 680
24 84 744
4 96 788
0 104 820
0 104 852
0 112 872
4 116 892
