滤镜资源/vsco 137 3dl+cube/VSCO 137 3dl/VSCO 7 Legacy.3dl
#Generated by Picture Instruments - Look Converter
3DMESH
Mesh 4 10
0 64 128 192 256 320 384 448 512 576 640 704 768 832 896 960 1023
8 84 220
4 80 228
32 84 232
4 84 244
32 84 268
4 88 308
0 88 384
32 84 460
0 92 540
32 88 640
12 92 700
12 100 776
32 96 812
12 104 860
32 96 896
8 100 936
8 96 972
4 96 224
0 100 224
32 92 228
0 104 244
32 92 268
4 100 312
4 104 364
32 96 460
0 104 544
32 104 628
4 108 704
0 104 780
32 104 820
0 108 880
32 104 912
12 112 924
8 112 964
4 116 220
0 116 232
32 112 232
0 120 248
32 112 264
4 124 300
0 116 372
32 120 444
0 116 548
32 124 628
8 128 712
0 124 772
32 124 832
4 124 876
36 124 896
12 132 920
12 132 960
12 152 224
0 152 228
28 148 232
0 148 248
28 148 272
8 148 312
0 148 376
36 152 460
0 148 564
32 148 632
8 156 712
0 152 788
36 152 844
4 152 884
36 160 900
20 164 920
16 168 952
4 200 228
0 200 224
32 192 236
4 200 252
32 188 272
8 200 324
0 200 372
32 200 456
0 212 540
32 208 648
8 204 724
8 208 796
36 200 844
12 208 872
40 208 892
24 208 920
24 208 960
8 272 228
4 272 228
32 268 232
4 272 260
32 264 284
12 272 316
4 264 376
36 268 464
12 272 576
36 276 632
20 272 724
12 272 788
40 272 832
20 280 876
44 276 892
36 288 924
36 292 952
24 360 240
16 364 232
36 356 240
16 368 264
36 360 288
24 372 332
20 360 388
44 372 484
20 372 548
40 364 636
40 380 736
24 368 796
48 372 848
40 392 880
56 380 908
52 392 924
52 384 948
40 472 236
28 468 236
48 468 248
36 472 268
48 480 284
32 468 336
36 472 400
52 472 484
44 480 556
56 468 636
48 480 724
44 480 796
64 480 836
52 480 876
64 492 900
64 492 920
64 492 956
60 576 236
56 588 248
68 576 244
52 584 276
64 576 296
56 588 348
56 592 408
64 588 484
60 572 564
68 580 648
68 584 732
64 580 796
76 584 844
72 588 868
88 596 896
80 596 920
84 600 960
72 676 236
72 688 248
84 680 248
80 680 272
88 676 304
84 676 348
76 684 428
84 676 492
80 680 584
92 684 680
80 684 744
84 680 804
96 684 840
92 688 876
108 688 896
100 680 920
100 680 952
96 748 240
92 752 248
104 752 260
104 752 284
108 756 304
96 756 364
100 752 436
100 748 504
104 752 596
108 756 684
108 756 744
112 756 804
112 752 836
104 756 876
124 752 904
112 760 928
116 756 956
116 800 252
112 812 252
124 808 268
116 808 288
128 804 308
120 804 368
116 804 444
120 800 520
120 808 604
128 812 672
124 812 740
124 808 800
140 812 844
132 812 888
132 804 900
140 804 940
140 804 960
144 848 264
140 848 264
144 844 272
140 848 296
144 848 324
144 844 372
132 844 452
148 844 540
140 848 620
160 860 676
156 852 760
148 848 812
156 852 856
156 852 880
164 848 908
160 852 932
160 852 960
168 888 272
160 884 272
164 880 284
168 880 304
168 880 332
172 880 404
164 876 476
172 880 548
168 888 620
180 884 692
176 884 760
172 888 816
184 884 852
180 884 888
184 884 908
188 884 936
188 884 964
192 912 284
192 920 288
200 916 296
188 916 328
196 912 356
200 912 412
192 916 484
196 912 556
200 916 628
200 912 688
200 912 760
196 920 812
212 916 852
204 912 888
208 912 912
212 912 936
212 912 968
228 940 296
224 944 296
224 944 316
220 948 356
228 940 404
228 940 440
220 944 504
228 944 584
228 944 652
240 940 724
236 944 776
232 944 820
236 944 852
232 948 892
244 940 920
244 944 940
248 944 964
256 972 304
248 976 308
248 964 344
252 968 372
252 964 420
256 968 460
252 968 520
256 968 604
252 972 664
256 964 736
256 968 784
256 972 824
264 968 868
256 976 892
272 968 916
280 964 940
272 968 964
4 84 220
4 84 220
4 88 232
4 84 244
4 88 268
0 88 312
0 88 380
0 84 460
4 88 544
4 92 640
16 92 708
20 100 776
20 96 832
20 100 868
24 100 888
28 104 924
32 100 964
0 100 220
0 100 224
0 96 228
0 100 256
0 100 272
0 100 308
4 100 376
4 100 472
8 104 556
8 104 648
12 100 736
16 108 796
16 108 828
20 112 872
24 112 896
24 112 924
32 112 964
0 116 224
0 116 232
4 120 236
4 120 260
4 120 276
4 120 308
8 120 372
8 124 452
12 120 556
8 124 656
16 120 728
16 124 788
24 124 820
24 128 860
32 132 900
32 136 924
40 132 960
8 148 220
12 152 224
8 152 236
4 148 260
4 152 280
16 148 308
12 144 364
8 148 460
16 152 564
16 152 640
12 156 724
24 152 792
28 156 836
28 152 872
32 160 896
44 164 920
44 164 952
12 200 224
8 204 220
20 200 240
12 196 260
16 196 276
12 204 312
20 200 384
24 200 476
28 208 568
28 204 648
28 208 728
20 200 796
36 204 848
40 208 872
44 208 904
48 216 928
48 216 956
28 268 224
24 272 228
28 272 236
28 264 264
24 272 276
24 264 316
28 272 392
28 276 476
40 272 556
36 284 640
40 280 724
40 288 788
40 276 844
44 280 868
52 280 892
52 280 924
52 288 952
40 372 236
40 372 236
40 364 240
40 360 264
40 368 272
44 368 328
48 372 404
44 372 476
48 360 560
48 368 660
52 368 732
60 364 796
52 376 844
60 384 872
60 376 900
68 380 932
68 384 956
64 472 236
56 480 240
60 476 256
64 464 264
52 476 292
60 472 332
56 468 396
64 480 472
72 480 576
68 468 668
64 468 728
64 480 792
72 472 832
80 480 872
76 488 908
84 484 932
88 496 960
76 588 240
68 588 248
72 580 252
76 580 268
80 584 288
76 588 344
72 584 400
72 592 472
80 580 572
80 580 660
80 584 728
92 592 796
88 588 836
96 588 872
96 588 904
96 604 928
96 604 952
88 680 240
92 676 252
96 676 252
92 680 272
96 680 296
96 676 352
92 684 424
88 680 488
96 672 588
100 668 672
100 684 732
100 684 784
108 684 848
108 684 868
104 688 908
116 684 932
116 688 956
108 752 244
116 752 252
112 752 260
116 756 284
108 756 292
112 756 352
116 760 440
112 752 512
112 760 592
116 752 680
124 756 744
124 760 800
124 756 848
128 756 880
124 756 908
124 760 936
128 760 952
132 808 252
132 808 256
128 808 272
128 808 300
128 812 316
132 812 380
132 808 452
132 804 520
136 812 608
132 812 684
136 808 760
140 804 804
148 812 852
148 808 876
148 816 900
148 808 932
148 808 956
160 848 248
156 848 264
160 848 292
156 852 312
152 852 332
160 852 384
152 852 456
164 848 536
164 840 624
168 848 688
160 848 764
168 848 796
168 852 844
172 848 880
180 852 920
176 848 940
172 848 972
184 884 272
184 884 272
180 880 308
176 880 316
176 880 360
180 880 388
176 880 452
184 880 540
188 884 624
196 880 696
192 884 760
196 892 808
200 880 852
196 884 884
196 884 916
200 884 940
200 884 956
208 912 276
208 920 280
204 912 296
200 912 336
200 912 376
212 912 412
212 912 480
212 912 552
212 916 636
216 912 712
220 916 768
216 920 824
224 908 868
224 908 884
224 912 912
224 912 944
224 912 968
228 948 296
240 948 304
240 948 332
236 952 356
240 944 400
236 944 436
240 944 500
232 944 576
240 948 656
248 948 728
236 944 768
244 944 828
248 944 852
256 948 892
260 944 924
248 940 940
252 940 964
252 972 308
256 976 316
260 972 332
260 972 360
264 972 396
268 972 456
260 972 512
264 972 576
268 976 652
272 972 728
264 976 784
268 976 828
268 976 856
272 972 892
272 976 916
284 972 940
284 968 964
48 88 224
32 84 232
28 92 244
36 88 248
32 92 264
44 84 304
44 88 364
40 84 460
48 88 556
52 88 652
48 96 708
56 100 776
52 100 820
60 100 852
60 108 892
68 104 924
72 104 968
36 100 224
32 100 220
40 100 236
36 100 252
44 100 264
44 100 304
40 108 380
44 96 464
48 104 556
48 104 656
52 108 732
56 108 788
64 108 836
68 116 868
60 108 892
64 116 932
72 116 948
48 120 224
32 120 228
48 116 240
44 116 252
56 120 276
44 124 320
48 116 380
56 120 468
52 116 552
44 124 640
56 120 720
56 128 796
68 124 848
68 128 876
72 132 908
68 136 924
76 128 960
52 152 224
64 144 228
52 148 240
56 152 252
52 156 272
52 148 308
60 152 380
52 152 456
60 156 536
64 156 636
64 156 728
64 156 788
68 160 844
76 156 880
72 152 904
80 164 920
76 160 952
72 188 228
60 200 232
56 196 236
64 200 248
64 196 272
56 200 312
64 204 380
72 200 452
64 196 560
68 200 640
80 204 732
80 212 792
72 204 848
88 204 876
84 200 912
84 208 936
84 208 944
60 268 224
68 272 232
68 276 232
68 268 256
64 264 272
72 260 324
72 264 392
68 272 472
80 268 572
72 272 664
72 284 716
80 288 792
80 276 836
84 284 868
92 280 900
92 280 936
92 280 960
76 368 232
80 368 232
80 372 240
80 372 256
80 360 276
80 368 328
80 352 388
84 372 484
84 372 572
96 372 664
88 372 716
88 372 788
84 372 824
96 372 864
96 380 900
104 384 932
104 388 952
88 480 232
88 488 236
92 480 256
88 464 268
84 476 288
92 472 336
88 480 404
100 468 480
96 476 580
96 480 664
100 476 740
104 476 804
104 488 840
108 488 876
96 488 900
108 484 928
112 488 956
112 580 240
108 588 244
100 584 260
100 580 276
104 576 288
100 588 340
100 584 408
108 588 488
104 596 576
112 588 660
108 588 744
112 576 796
108 596 844
120 588 888
124 592 912
124 608 932
124 592 956
116 688 240
120 680 248
120 676 256
112 684 276
116 684 292
120 680 340
116 680 412
120 676 492
124 672 580
128 672 676
132 684 744
132 684 792
132 688 860
140 684 876
140 692 896
148 684 928
136 684 952
140 756 252
136 752 248
140 752 268
136 756 292
136 760 300
144 752 356
148 752 428
144 756 512
148 756 608
148 752 676
148 752 744
148 752 804
152 760 860
160 756 872
152 760 892
160 760 924
160 756 952
156 800 248
156 808 260
152 808 272
156 808 292
152 812 316
156 812 376
156 804 440
160 808 520
168 816 612
164 808 688
164 812 744
168 808 816
164 812 836
176 812 876
172 816 904
184 812 928
180 816 964
184 848 256
180 848 264
184 852 284
184 848 292
184 852 328
184 852 380
188 848 464
184 844 544
184 856 608
184 852 684
188 852 756
188 848 812
196 856 856
200 856 888
200 852 912
204 856 940
200 852 968
208 888 276
204 888 280
204 888 288
208 888 316
208 888 348
208 884 392
204 880 460
208 884 544
208 884 612
212 884 692
208 888 764
216 888 812
220 892 856
220 884 884
224 888 920
224 884 944
220 884 960
232 912 280
228 916 284
232 916 300
228 916 320
232 916 348
236 916 404
228 916 472
236 908 548
236 916 628
240 916 704
232 912 768
248 920 820
244 920 852
244 912 888
252 916 916
256 916 944
252 916 968
256 940 292
268 944 308
268 952 320
264 948 344
260 944 372
260 948 420
260 948 496
264 948 576
268 952 636
260 948 704
264 944 772
272 944 824
272 944 856
276 944 896
288 944 924
276 948 944
280 944 964
288 976 312
284 976 320
292 976 340
288 972 360
288 972 396
288 968 448
288 972 520
292 972 592
288 968 660
300 972 728
296 976 780
292 968 828
296 972 864
304 972 892
296 972 912
312 968 948
308 972 960
112 80 216
104 84 228
100 84 232
104 80 240
104 80 272
112 76 312
108 76 364
108 84 452
112 88 528
108 92 636
108 96 708
112 96 772
112 100 828
116 104 868
116 108 888
120 104 932
116 96 972
108 96 224
100 100 224
108 96 232
104 96 240
116 96 272
108 92 308
100 100 356
112 92 448
116 96 548
112 104 640
120 100 720
112 108 788
116 108 844
112 112 872
120 112 888
128 116 920
