滤镜资源/vsco 137 3dl+cube/VSCO 137 3dl/VSCO TECH Nick Sportswear Tech Pack.3dl
#Generated by Picture Instruments - Look Converter
3DMESH
Mesh 4 10
0 64 128 192 256 320 384 448 512 576 640 704 768 832 896 960 1023
28 8 8
24 4 4
48 8 8
52 4 4
64 4 4
56 4 0
88 0 0
116 4 4
132 0 0
148 4 4
204 4 8
212 4 4
220 4 4
244 4 4
256 8 8
276 4 4
264 0 0
60 4 0
80 0 0
80 4 0
80 0 0
96 4 4
116 4 4
128 0 4
136 4 4
168 0 0
196 4 8
212 4 4
212 0 0
240 4 4
264 0 0
272 4 4
292 4 4
300 0 0
88 4 4
112 0 0
132 4 4
128 0 0
136 4 4
136 4 0
160 0 0
176 4 0
208 0 0
224 4 0
256 4 4
268 0 4
276 4 4
292 0 0
308 4 4
316 4 4
324 0 0
152 4 4
168 0 4
160 4 0
160 0 0
172 4 4
200 4 4
208 0 0
224 4 4
248 0 4
264 4 4
280 4 0
288 0 0
316 4 4
328 0 0
336 4 4
344 4 0
356 0 0
200 4 4
200 0 0
224 0 4
212 0 0
216 0 4
240 4 4
256 0 0
276 4 0
288 0 0
304 4 4
332 4 4
332 0 0
344 4 4
360 0 0
376 4 4
388 0 4
388 0 0
264 4 4
252 0 0
256 0 0
272 0 0
280 0 0
296 0 4
300 0 0
320 4 0
316 0 0
336 4 4
372 4 0
380 0 0
400 4 0
408 0 0
412 4 4
416 0 0
420 0 0
316 4 4
320 0 0
320 0 0
332 0 0
336 0 4
356 4 0
356 0 0
372 4 0
384 0 4
388 4 4
412 0 4
416 0 0
440 4 0
448 0 0
472 0 4
456 0 0
476 0 0
376 0 0
388 0 0
392 0 0
400 0 0
404 0 0
412 0 4
408 0 0
432 0 0
440 0 0
456 0 4
472 0 0
480 0 0
496 0 0
504 0 4
520 4 0
520 0 0
520 0 0
440 0 0
456 0 0
444 0 0
448 0 0
468 0 0
476 4 0
480 0 4
492 0 0
496 0 0
516 4 0
528 0 4
532 0 0
556 4 4
560 0 0
560 4 0
576 0 0
576 0 0
504 0 4
504 0 4
520 0 0
536 0 0
528 0 0
528 0 4
532 0 0
556 0 4
556 0 0
560 0 0
584 0 0
600 0 4
600 0 0
600 0 4
616 0 0
612 0 0
620 0 0
560 0 0
568 0 0
572 0 0
584 0 0
584 0 0
592 0 0
596 0 0
600 0 0
616 0 0
628 0 4
628 0 0
648 0 0
648 4 0
652 0 0
664 0 0
668 0 0
672 0 0
616 0 0
616 0 0
616 0 0
624 0 0
632 4 0
640 0 0
640 0 0
648 4 0
656 0 0
664 0 4
672 0 0
680 0 0
696 0 0
692 0 0
704 0 0
712 0 4
712 0 4
648 4 0
652 0 0
656 0 0
664 0 0
664 0 0
664 0 0
676 0 0
688 0 0
692 0 0
704 0 0
708 0 0
720 0 4
720 0 4
724 0 0
736 0 0
736 0 0
744 0 0
688 0 4
688 0 0
688 0 0
696 0 0
696 0 0
704 0 0
712 0 4
720 0 4
724 0 0
736 0 0
736 0 0
748 0 0
760 0 0
756 0 0
760 0 0
768 0 0
772 0 0
716 0 4
724 0 0
724 0 0
732 0 0
728 0 0
736 0 0
744 0 0
744 0 0
760 0 0
760 0 0
764 0 0
776 0 0
784 0 4
784 0 4
792 0 4
800 0 0
796 0 0
752 0 0
756 0 0
760 0 0
764 0 0
764 0 0
772 0 0
776 0 0
784 0 0
784 0 4
792 4 0
800 0 0
804 0 0
816 0 4
812 0 0
824 0 0
820 0 0
824 0 0
776 0 0
780 0 0
784 0 0
796 0 0
796 0 0
796 4 4
796 0 4
808 4 4
804 4 4
816 4 4
816 0 0
824 0 0
836 0 4
836 0 0
844 0 0
844 0 0
844 0 0
36 4 4
44 4 4
68 4 0
80 4 4
108 4 4
104 0 0
128 0 0
148 0 0
172 0 0
184 0 0
228 4 4
228 4 8
244 4 4
264 4 4
292 4 8
296 0 0
304 0 0
64 0 0
88 0 0
92 0 0
88 0 0
132 0 0
132 0 0
144 0 0
184 0 0
200 0 0
224 0 0
224 0 0
248 0 0
272 0 0
276 0 0
292 0 0
292 0 0
332 0 0
128 0 4
124 0 0
156 0 0
156 0 0
144 0 0
172 0 0
188 0 0
212 0 0
224 0 0
264 0 4
268 0 0
280 0 0
292 0 0
304 0 0
328 0 0
328 0 0
340 0 0
168 0 0
168 0 4
168 0 0
184 0 0
200 0 0
208 0 0
228 0 0
240 0 0
268 0 4
288 0 4
304 0 0
320 0 0
332 0 0
348 0 0
344 0 0
372 0 0
384 0 0
208 0 0
228 0 0
236 0 0
248 0 4
248 0 0
264 0 0
276 0 0
296 0 0
308 0 0
328 0 0
344 0 0
360 0 0
368 0 0
396 0 0
384 0 0
404 0 0
420 0 0
272 0 0
276 0 0
280 0 0
292 0 4
304 0 0
304 0 0
312 0 4
344 0 0
344 0 0
368 0 0
396 0 0
400 0 0
404 0 0
424 0 0
424 0 0
440 0 0
452 0 0
332 0 0
348 0 0
340 0 0
352 0 0
368 0 0
384 0 4
376 0 0
384 0 4
400 0 0
412 0 0
436 0 0
448 0 0
452 0 0
468 0 0
480 0 4
484 0 0
492 0 0
400 0 0
400 0 0
416 0 0
416 0 0
424 0 0
424 0 0
436 0 0
448 0 0
464 0 0
472 0 0
480 0 4
496 0 0
504 0 4
520 0 0
528 0 0
532 0 0
540 0 0
456 0 0
472 0 4
472 0 0
472 0 4
484 0 0
488 0 0
496 0 0
504 0 4
520 0 0
528 0 0
544 0 0
548 0 0
564 0 0
568 0 0
576 0 0
584 0 0
596 0 0
520 0 0
528 0 4
536 0 0
536 0 0
536 0 0
548 0 0
560 0 0
568 0 0
576 0 0
572 0 0
596 0 0
600 0 4
612 0 0
624 0 4
636 0 0
640 0 0
640 0 0
568 0 0
588 0 0
588 0 0
592 4 4
600 0 0
600 0 0
608 0 0
616 0 0
628 0 0
640 0 0
636 0 0
648 0 0
656 0 0
672 4 0
672 0 0
680 0 0
684 0 0
624 0 0
624 0 0
628 0 0
640 0 0
640 0 0
648 0 0
648 0 0
664 0 0
664 0 0
668 0 0
684 0 0
688 0 0
704 0 0
704 0 0
708 0 0
720 0 4
724 0 0
664 0 0
664 0 0
664 0 0
676 0 0
672 0 0
676 0 0
688 0 4
696 0 0
704 0 0
708 0 0
720 0 4
720 0 0
728 0 0
736 0 0
740 0 0
740 0 0
748 0 0
700 0 0
696 0 0
696 0 0
700 0 0
704 0 0
712 0 4
720 0 4
720 0 0
736 0 0
736 0 0
748 0 0
752 4 0
760 0 0
760 0 0
764 0 0
776 0 0
780 0 0
736 0 0
732 0 0
728 0 0
732 0 0
744 0 4
736 0 0
744 0 0
756 0 0
760 0 0
768 0 0
772 0 0
776 0 0
788 0 4
800 0 0
796 0 0
800 0 0
800 0 0
764 0 0
760 0 0
768 4 0
768 4 0
776 0 0
776 0 0
784 0 4
788 0 4
792 0 0
804 0 0
804 0 0
812 0 4
812 0 0
824 0 0
824 0 0
824 0 0
836 0 0
796 0 0
796 0 0
796 0 0
796 0 0
800 0 0
792 4 4
800 4 4
816 4 4
816 4 0
824 0 4
836 0 0
836 0 4
844 0 0
848 0 0
852 0 0
860 0 0
848 0 0
76 4 8
92 4 4
112 4 4
132 4 8
120 4 4
144 0 0
144 0 0
176 0 0
200 0 0
236 0 0
252 4 4
256 4 4
284 4 4
296 4 4
304 4 4
328 0 0
328 0 0
88 0 0
96 0 0
132 0 0
156 0 0
172 0 0
172 0 0
196 0 4
220 0 4
224 0 0
252 0 0
268 0 0
292 0 0
304 0 0
316 0 0
312 0 0
348 0 0
348 0 0
132 0 0
132 0 0
172 0 0
176 0 0
184 0 0
208 0 0
216 0 0
240 0 0
252 0 0
288 0 4
292 0 0
304 0 0
352 0 0
344 0 0
344 0 0
368 0 0
368 0 0
192 0 0
200 0 4
212 0 0
240 0 0
236 0 0
240 0 0
268 0 4
276 0 0
292 0 0
312 0 4
320 0 4
344 0 0
360 0 0
368 0 0
368 0 0
400 0 0
400 0 0
244 0 4
264 0 0
252 0 0
264 0 0
288 0 4
288 0 0
292 0 0
304 0 0
344 0 0
344 0 0
368 0 0
372 0 0
404 0 0
404 0 0
404 0 0
412 0 0
440 0 0
292 0 0
296 0 0
312 0 4
316 0 0
320 0 4
328 0 0
344 0 0
356 0 0
372 0 0
380 0 4
412 0 0
424 0 0
432 0 0
440 0 0
456 0 0
452 0 0
464 0 0
352 0 0
364 0 0
360 0 0
368 0 0
380 0 4
384 0 4
384 0 0
400 0 0
424 0 0
440 0 0
448 0 0
472 0 4
484 0 0
484 0 0
504 0 4
496 0 0
508 0 0
408 0 4
432 0 4
424 0 0
440 0 0
440 0 0
452 0 0
464 0 0
472 0 0
476 0 4
488 0 0
488 0 0
516 0 0
520 0 0
528 0 0
544 0 0
544 0 0
544 0 0
472 0 4
488 0 0
484 0 0
488 0 0
492 0 0
508 0 0
504 0 0
512 0 0
536 0 0
544 0 0
560 0 0
568 4 0
568 0 0
592 0 4
592 0 4
600 0 4
600 0 0
536 0 0
548 0 0
552 0 0
552 0 0
544 0 0
552 0 4
560 0 0
572 0 0
588 0 0
600 0 4
612 0 0
616 0 0
624 0 4
632 0 0
648 4 0
648 0 0
648 0 0
596 0 4
600 0 0
596 0 4
600 0 4
604 0 0
612 0 0
616 0 0
628 0 0
644 0 0
648 4 0
648 0 0
664 0 0
676 0 0
672 0 0
680 0 0
688 0 0
692 0 0
640 0 0
640 0 0
644 0 0
652 0 0
656 0 0
652 0 0
668 0 0
672 0 0
680 0 0
684 0 0
692 0 0
696 0 0
712 0 4
712 0 0
724 0 0
720 0 0
740 0 0
672 4 0
680 0 0
684 0 0
688 0 4
692 0 4
688 0 4
696 0 0
704 0 0
712 0 4
720 0 0
732 0 0
728 0 0
744 0 4
748 0 0
744 0 0
748 0 0
764 0 0
708 0 0
716 0 4
712 0 4
716 0 0
720 0 0
720 0 4
736 0 0
732 0 0
736 0 0
756 0 0
760 0 0
756 0 0
760 0 0
772 0 0
780 0 4
784 0 4
788 0 0
744 0 4
744 0 4
744 0 4
744 0 0
748 0 0
748 0 0
756 0 0
760 0 0
768 0 0
776 0 0
780 0 4
792 0 0
800 0 0
800 0 0
800 0 0
804 0 0
812 0 0
772 0 0
776 0 0
772 0 0
776 0 0
780 0 4
784 0 4
788 0 0
792 0 0
800 0 0
812 0 4
812 0 0
816 0 0
824 0 0
832 0 0
836 0 4
840 0 4
840 0 0
808 0 0
804 0 0
804 0 0
808 0 0
804 0 4
816 4 4
816 4 4
820 4 0
820 0 4
832 4 4
844 0 0
852 0 0
852 0 0
860 0 0
860 0 4
864 0 0
860 0 0
92 4 4
116 8 4
136 4 4
144 4 4
164 4 0
172 0 0
184 0 0
212 0 0
224 0 0
252 0 0
292 4 4
308 4 4
308 4 4
332 4 4
348 4 0
344 0 0
364 0 0
124 0 4
148 0 0
160 0 0
184 0 0
208 0 0
200 0 0
248 0 4
252 0 0
268 0 4
280 0 0
316 0 0
320 0 0
332 0 0
344 0 0
368 0 0
372 0 0
