滤镜资源/vsco 137 3dl+cube/VSCO 137 3dl/VSCO S2 Clean.3dl
#Generated by Picture Instruments - Look Converter
3DMESH
Mesh 4 10
0 64 128 192 256 320 384 448 512 576 640 704 768 832 896 960 1023
0 0 0
4 4 28
28 8 68
12 16 120
32 28 152
20 36 204
28 44 248
40 44 288
28 60 336
48 60 372
44 68 400
48 72 436
56 72 456
48 80 480
56 80 496
56 80 516
56 80 524
4 36 0
4 36 32
28 40 72
20 40 140
36 44 208
32 56 276
36 64 336
48 64 376
48 76 424
60 76 452
52 80 484
56 80 520
60 84 548
64 88 568
68 88 576
72 92 592
64 92 604
12 84 12
8 88 40
24 80 80
16 84 140
36 84 216
36 88 288
36 88 384
56 92 460
56 92 524
68 96 572
68 104 612
68 104 636
80 100 656
76 112 688
80 112 704
80 116 716
76 116 724
12 160 32
12 160 48
32 148 84
12 148 148
36 144 212
28 156 304
40 152 384
56 156 464
60 156 532
68 156 604
80 160 672
80 160 740
92 160 780
92 164 808
96 164 840
100 168 860
92 168 864
28 240 52
28 252 56
40 236 92
28 232 156
40 224 220
32 228 300
44 236 388
56 236 456
60 244 536
76 248 616
76 244 672
76 244 732
96 248 776
88 248 820
100 244 848
96 248 872
96 248 884
36 332 72
36 324 76
44 324 108
32 324 168
44 316 232
36 312 308
48 312 384
60 316 456
56 324 544
72 324 620
76 328 688
84 328 744
92 332 780
88 336 828
96 332 856
92 340 872
96 340 884
40 400 96
44 404 100
52 408 112
44 408 176
52 400 240
48 400 320
44 396 388
60 400 472
56 404 556
72 396 620
76 408 692
84 412 756
92 416 800
92 424 844
100 416 868
100 420 884
96 420 892
52 476 120
56 484 124
64 484 136
56 492 184
64 492 244
60 488 328
56 484 396
64 480 472
60 480 548
76 484 624
80 488 692
84 496 756
88 500 796
92 504 836
100 508 868
100 508 888
100 508 900
80 548 148
80 552 152
88 556 152
84 564 188
84 564 260
64 572 340
60 568 408
68 564 472
64 552 548
72 560 616
80 568 696
80 572 760
88 580 804
92 576 844
100 580 872
100 584 896
96 584 908
108 612 164
112 616 176
120 616 180
120 632 200
112 624 264
96 632 340
68 640 416
80 640 484
72 636 560
76 632 624
76 640 692
80 648 760
88 648 800
92 652 840
100 648 868
104 648 892
100 652 904
140 660 184
140 664 192
144 668 200
148 672 228
140 684 272
124 684 344
104 692 412
84 704 492
72 708 560
84 704 636
80 700 696
84 708 752
92 708 800
88 708 840
100 716 872
104 716 896
100 716 912
164 704 204
172 708 212
176 716 228
180 716 244
184 720 272
160 728 344
140 732 412
124 740 480
96 748 560
88 756 632
88 756 696
84 756 752
96 760 804
92 764 844
100 764 868
100 768 892
100 768 908
196 732 228
196 736 236
208 736 244
212 752 268
216 756 292
196 764 352
180 764 416
156 768 488
128 780 560
112 788 624
104 792 692
88 800 752
92 796 796
88 804 840
104 804 868
100 808 892
100 808 904
220 756 236
216 768 248
232 760 260
232 776 280
236 780 304
224 784 368
204 788 432
184 796 484
156 804 560
132 808 628
112 812 688
100 824 752
100 824 792
92 832 832
96 836 864
104 840 892
100 840 904
236 772 252
244 784 264
244 788 272
252 796 292
256 800 312
252 804 372
228 812 424
208 816 488
184 824 560
160 828 624
140 828 684
116 836 740
108 840 784
100 844 816
100 844 856
104 852 876
96 856 904
252 792 260
260 800 276
268 800 284
272 808 308
276 816 324
268 824 376
252 828 424
232 832 492
204 840 560
184 844 628
168 848 688
140 852 736
132 856 776
108 856 820
108 852 848
112 860 876
100 864 892
272 800 272
272 808 284
284 812 292
284 820 320
292 824 340
284 828 380
264 832 436
252 840 500
224 848 568
204 852 632
180 860 688
160 864 740
152 864 776
128 868 820
128 872 844
132 864 872
124 868 888
28 4 4
28 4 32
32 4 76
36 16 144
40 32 216
36 44 264
36 52 292
36 60 324
40 68 372
44 72 416
44 80 444
52 76 468
56 80 500
56 88 516
60 88 536
60 84 552
60 84 564
36 32 4
36 36 40
40 40 88
40 48 156
48 56 236
48 60 312
44 68 380
52 72 424
56 80 456
60 80 496
64 84 536
60 88 564
64 88 592
64 92 604
68 92 624
72 96 636
72 96 648
40 84 4
48 92 48
40 88 88
40 96 156
48 92 228
48 96 304
44 96 388
56 92 472
64 96 540
68 108 616
72 108 644
76 112 684
80 116 712
84 120 732
80 124 748
80 116 756
80 120 764
48 164 28
52 164 48
48 164 92
44 156 152
48 160 232
48 164 308
48 160 388
60 168 472
64 168 552
68 168 620
76 176 688
80 176 752
88 176 788
92 172 824
96 176 860
100 180 868
100 176 880
60 240 52
64 252 60
56 248 104
52 240 160
44 236 232
52 244 312
56 248 404
60 248 480
68 256 560
76 252 624
76 256 688
84 256 752
92 260 804
92 264 840
92 256 868
100 264 888
100 264 892
64 332 72
64 328 88
68 340 100
60 328 168
60 328 244
56 316 316
60 324 396
60 332 472
64 332 556
76 340 628
76 348 696
88 344 752
88 340 800
92 348 836
96 348 868
100 348 888
96 348 896
72 420 100
80 416 112
80 416 124
72 412 184
68 412 252
60 408 328
56 408 400
60 412 480
68 416 552
76 416 636
84 424 700
88 424 760
88 428 808
96 432 848
96 432 880
100 432 904
96 432 908
88 484 128
88 492 132
92 492 148
92 500 192
80 492 264
72 492 340
64 492 412
64 488 484
68 492 568
72 496 644
84 500 708
84 500 760
92 508 812
96 512 856
96 516 884
96 512 908
96 512 912
104 556 148
108 556 156
108 564 168
116 568 192
96 568 268
84 576 336
76 576 416
72 576 484
68 568 560
72 572 636
76 576 700
84 584 760
88 588 812
96 588 856
100 592 884
100 596 900
100 596 916
128 620 176
132 624 188
136 624 196
140 636 208
128 636 268
104 640 344
84 648 428
80 648 496
80 644 568
76 636 632
76 648 700
88 656 768
92 660 812
92 664 852
96 664 880
104 660 904
100 664 912
152 672 192
156 676 204
164 680 216
172 688 244
164 696 284
144 696 348
120 700 424
100 708 492
80 716 572
80 712 640
84 716 712
88 712 756
92 716 812
96 724 848
100 724 880
96 724 908
100 724 912
184 712 212
184 716 224
196 720 240
200 732 252
200 736 296
184 740 356
156 744 424
132 748 492
108 752 568
96 764 640
92 768 712
88 764 768
88 776 808
96 768 852
96 776 884
96 780 908
100 776 912
212 748 236
216 752 244
224 752 256
228 764 272
228 768 304
212 772 360
196 776 424
168 780 496
144 788 564
116 788 624
100 796 692
92 804 756
92 804 800
92 808 840
100 816 880
96 820 904
96 816 912
236 768 248
232 776 256
248 776 272
252 788 296
252 796 312
240 800 368
224 800 432
200 804 496
172 812 564
148 820 632
128 824 700
112 828 756
104 832 800
96 832 832
100 840 876
100 840 892
100 840 912
256 788 260
256 788 268
260 796 284
272 808 308
272 816 328
268 816 376
248 820 440
224 832 504
200 832 572
180 836 632
152 840 692
136 844 752
120 852 796
108 848 828
108 852 856
104 856 880
100 856 904
276 800 272
280 808 288
280 812 300
288 816 320
300 828 344
284 832 384
268 836 440
248 848 504
224 848 568
200 852 644
180 860 692
160 864 744
152 864 788
144 868 832
132 868 856
128 872 884
120 872 900
288 812 280
288 816 296
296 816 304
304 828 332
308 836 348
300 836 392
284 848 448
272 852 508
240 860 576
224 864 640
200 868 696
180 876 748
168 876 792
164 880 828
152 876 856
152 872 872
144 876 896
80 8 12
84 8 32
88 12 84
84 20 152
76 32 216
72 40 284
72 52 360
60 68 424
60 72 444
56 80 480
64 84 500
60 88 528
64 88 552
64 96 584
68 92 596
72 92 612
72 92 624
88 40 8
88 40 32
88 44 92
88 44 152
92 52 236
88 60 312
80 72 380
72 84 452
68 84 520
68 92 564
68 92 596
72 100 624
76 100 644
76 100 668
80 104 688
80 100 692
80 104 716
80 84 12
88 88 40
100 96 100
92 96 160
96 100 244
88 100 320
84 100 396
88 104 480
80 112 564
76 116 624
84 120 684
84 124 732
84 132 776
92 136 792
84 132 804
92 132 816
92 136 836
84 152 28
88 164 40
104 172 92
100 164 160
92 168 240
88 168 320
88 168 392
88 172 476
76 184 556
84 184 636
88 188 708
92 192 760
92 188 804
100 192 840
96 188 864
104 196 892
104 188 892
100 236 48
104 252 56
112 252 108
108 248 168
100 248 248
92 248 324
88 248 400
92 252 476
84 260 564
80 268 644
88 268 712
88 280 768
96 280 820
100 272 856
100 272 884
104 280 900
100 280 904
112 328 80
116 332 88
124 348 120
116 340 184
104 324 248
96 320 320
92 328 404
88 332 492
88 340 568
84 356 648
84 356 708
92 360 772
96 356 816
96 360 856
96 360 884
100 356 904
100 364 908
116 416 100
132 420 116
136 420 132
128 428 192
120 416 264
104 416 336
96 408 404
92 416 480
92 420 564
88 428 640
92 436 716
92 444 780
96 444 824
100 440 860
104 444 892
100 444 904
100 448 912
136 492 140
140 500 148
144 504 160
140 500 196
128 500 272
116 500 348
104 496 420
88 496 488
84 500 560
88 508 648
92 512 712
88 516 776
92 524 832
100 524 868
104 528 896
100 528 908
100 524 912
148 564 160
156 572 176
160 576 188
160 576 212
148 580 284
132 580 348
108 584 420
100 580 496
92 584 568
92 588 648
88 588 724
92 588 776
92 600 832
100 600 872
100 600 904
100 612 912
100 604 916
172 636 192
172 636 200
176 636 204
184 644 224
172 644 280
152 648 356
136 656 428
116 652 504
96 652 572
92 648 640
92 656 704
92 664 776
92 668 824
96 672 864
104 676 896
104 672 912
104 672 912
200 684 208
200 684 216
204 692 232
208 700 256
196 704 292
184 704 356
160 708 436
140 712 504
120 716 580
108 716 640
92 712 704
96 724 768
96 728 820
100 732 860
104 740 892
100 736 916
100 732 912
220 728 228
224 728 236
220 736 252
236 744 272
236 748 312
220 752 368
192 756 436
172 760 504
148 760 580
128 768 648
112 768 708
100 772 768
100 776 816
100 780 856
104 788 892
100 792 916
104 788 916
244 756 252
244 760 256
248 764 272
256 776 292
264 780 320
248 784 380
232 788 448
208 792 516
180 800 572
160 800 644
140 808 708
128 804 768
116 808 808
112 820 844
100 816 880
100 824 908
108 824 916
260 780 264
272 788 276
272 792 284
284 796 304
288 808 332
276 812 384
260 816 444
236 820 512
220 828 580
200 832 652
172 832 708
156 832 756
148 832 804
144 840 836
136 840 876
128 848 900
128 848 916
280 804 276
288 804 280
288 812 304
304 816 316
304 824 340
296 836 388
284 836 452
260 840 512
236 844 584
216 852 652
200 856 708
180 860 764
176 856 804
160 860 840
152 860 872
148 864 892
148 864 912
304 816 288
308 816 300
308 828 316
312 836 332
324 844 360
312 852 400
300 852 460
284 856 528
260 864 600
236 868 656
224 876 708
208 876 760
196 880 804
184 876 844
180 876 872
172 880 900
168 880 904
312 824 292
316 828 304
320 828 316
324 840 340
336 852 368
332 860 408
312 856 472
300 864 536
272 872 600
260 876 656
240 884 708
224 888 760
208 884 808
208 888 840
200 892 872
192 892 896
188 892 896
144 24 16
152 20 36
156 16 84
152 20 152
148 28 220
140 44 292
128 52 356
128 64 436
100 80 500
92 84 568
76 92 600
76 96 620
80 100 636
76 100 668
76 100 672
84 104 700
84 100 708
148 48 12
160 52 28
168 48 100
164 52 168
168 60 244
156 68 312
144 76 380
144 80 456
124 92 532
104 100 600
84 104 672
84 104 700
84 112 728
88 112 752
92 120 784
88 124 792
