滤镜资源/vsco 137 3dl+cube/VSCO 137 3dl/VSCO S4 Warm.3dl
#Generated by Picture Instruments - Look Converter
3DMESH
Mesh 4 10
0 64 128 192 256 320 384 448 512 576 640 704 768 832 896 960 1023
196 72 56
196 76 60
200 76 80
196 84 116
200 96 152
192 104 204
192 116 252
196 120 296
196 124 340
200 128 376
196 140 392
196 148 428
200 148 448
196 148 464
204 148 480
200 156 488
204 156 504
204 92 56
192 96 76
200 96 88
196 104 120
204 112 164
192 124 208
192 128 256
204 132 308
192 144 348
204 148 380
196 156 412
200 164 440
204 164 456
204 168 476
208 168 492
208 176 504
208 176 504
220 124 64
208 128 76
200 124 108
192 120 124
204 132 172
192 144 216
196 160 260
200 160 308
196 168 356
204 180 388
196 188 420
200 192 444
204 188 468
208 200 484
216 200 496
204 204 496
204 204 508
236 184 68
220 184 68
220 184 104
188 172 152
204 152 172
196 160 212
192 180 264
200 188 304
196 208 356
204 212 388
204 228 416
200 236 448
212 240 468
208 240 484
216 248 492
212 256 500
212 256 512
264 252 72
244 260 72
228 260 84
208 268 160
204 232 212
196 208 232
192 200 256
204 216 296
200 228 340
204 248 384
204 256 412
208 272 440
220 272 464
212 288 476
216 288 488
216 304 500
212 304 504
288 348 72
272 340 68
248 340 64
220 352 120
208 376 228
208 320 288
200 272 300
200 256 312
204 264 344
204 276 376
208 288 408
212 300 440
212 312 452
212 320 480
216 328 492
220 332 500
220 340 504
312 436 68
288 436 68
268 440 68
240 448 96
228 464 188
216 476 324
212 408 356
212 356 368
204 332 384
212 316 392
212 320 408
208 336 436
216 344 460
220 360 472
220 360 488
220 364 496
220 368 504
336 528 60
320 532 60
296 524 52
256 532 72
240 548 144
228 568 280
232 552 388
236 484 412
224 448 432
224 412 440
220 392 440
220 384 456
220 380 456
216 388 472
224 396 480
228 400 492
224 400 500
356 612 48
336 612 48
316 608 48
272 612 52
256 616 132
244 640 252
244 664 392
248 620 452
232 552 460
240 524 488
236 488 492
232 464 496
236 460 504
232 452 508
232 448 500
228 448 508
228 448 508
380 672 44
360 680 36
336 672 36
292 680 36
276 680 108
256 696 220
252 716 360
264 724 472
252 672 500
252 608 500
248 592 528
248 564 532
244 540 536
240 528 540
248 524 540
248 508 544
244 512 544
400 732 48
372 736 36
352 732 32
304 728 32
288 732 92
272 744 204
264 764 332
276 784 448
264 764 516
268 704 532
264 664 544
260 656 560
264 624 564
256 608 568
260 596 580
260 584 576
248 576 576
412 776 52
384 780 40
372 780 40
328 776 36
308 776 56
284 788 172
272 808 308
276 820 428
276 836 520
280 792 544
276 748 564
264 712 568
272 700 584
268 692 600
268 664 592
268 656 604
264 652 604
424 816 52
404 820 44
380 812 36
340 812 36
308 812 40
292 820 156
276 844 284
288 852 412
280 872 516
284 852 564
280 808 584
272 772 584
280 740 592
276 736 612
280 720 620
276 712 620
276 704 620
436 848 52
408 844 44
392 844 40
344 844 36
320 844 32
292 844 160
288 868 288
288 884 396
292 896 500
296 896 572
292 856 592
284 816 604
284 788 608
276 764 616
284 764 632
288 752 644
284 748 644
440 864 52
424 876 44
396 868 40
360 868 40
328 864 36
308 868 140
288 892 256
296 904 376
296 924 488
304 932 564
300 892 600
292 860 612
292 828 624
288 812 636
288 788 636
288 784 648
288 780 652
452 888 52
428 888 36
404 888 40
364 888 36
332 880 28
312 888 132
292 912 248
300 924 372
296 940 472
312 940 560
304 928 604
300 896 620
296 868 632
296 840 636
292 820 640
296 804 648
288 804 660
456 900 52
432 908 40
408 900 40
368 900 36
332 892 32
316 904 132
296 920 248
304 936 372
304 944 472
320 940 556
312 940 608
300 920 628
304 888 644
296 868 648
296 844 652
300 828 656
292 816 656
220 72 56
204 72 68
204 64 88
192 72 120
192 92 164
192 96 212
188 104 256
192 104 296
188 112 340
204 120 388
196 124 404
196 128 432
196 136 452
196 132 468
196 136 480
200 132 496
204 136 504
224 96 56
224 100 80
216 104 100
216 112 136
216 120 196
212 128 252
208 132 308
200 132 356
196 140 388
200 144 432
204 144 464
200 156 488
208 160 508
204 160 516
208 164 532
212 164 544
212 168 544
240 132 56
240 132 80
224 132 116
220 144 148
220 148 188
212 156 248
204 164 296
204 168 348
200 172 404
200 184 440
204 184 472
208 192 492
204 196 508
212 196 520
208 204 532
208 200 540
208 200 544
260 184 64
260 188 92
240 188 108
220 180 160
220 168 188
208 184 244
208 196 296
204 204 348
204 224 396
208 228 440
208 240 472
208 252 492
212 248 508
208 252 524
216 260 536
212 260 544
212 260 548
288 252 72
284 268 100
256 264 104
236 268 164
220 248 228
208 220 256
212 232 304
208 244 352
208 260 392
204 272 432
208 284 468
212 292 484
212 308 508
220 312 524
220 320 536
220 320 540
220 324 544
312 348 76
308 352 96
276 356 92
252 360 132
232 384 236
224 336 296
216 296 336
208 284 348
208 296 396
208 312 424
216 328 468
212 332 484
216 340 500
220 356 516
220 364 524
220 368 540
220 368 540
332 448 68
328 452 92
300 444 92
268 452 112
252 472 196
240 492 332
232 432 376
216 396 400
216 372 424
208 356 432
224 364 460
220 376 484
220 388 496
224 392 508
224 400 528
224 404 540
224 412 548
360 532 56
352 536 88
328 536 80
284 536 88
256 552 160
256 572 288
248 568 404
240 516 440
232 480 468
232 444 488
224 428 488
224 420 488
228 424 504
228 428 512
232 444 528
228 440 532
232 440 536
376 612 44
376 616 76
344 616 84
312 612 80
280 620 148
268 644 252
264 660 388
260 640 464
252 592 484
248 568 516
244 532 524
240 508 532
240 492 532
236 492 544
236 492 540
240 484 544
236 488 544
404 684 44
396 680 72
372 684 76
324 676 68
300 688 116
280 700 232
276 724 364
280 736 480
264 696 512
260 648 532
264 632 556
256 608 572
256 588 580
248 568 572
248 556 576
252 552 580
252 556 580
416 740 36
408 740 72
388 740 68
348 740 72
308 740 100
292 756 208
284 772 340
276 792 452
280 780 524
276 736 548
272 700 568
268 684 592
268 668 604
268 648 604
268 636 612
264 624 616
264 616 616
436 780 44
424 784 56
396 784 56
360 784 56
316 780 88
296 796 196
292 816 320
296 832 436
292 848 532
292 808 564
280 776 584
280 744 596
276 744 624
276 716 624
272 704 632
272 688 636
272 688 636
448 824 48
444 824 56
424 828 60
372 824 56
336 816 60
300 824 164
296 844 288
300 860 416
300 880 520
300 864 572
296 832 596
288 808 608
288 776 624
288 780 648
288 764 656
284 748 660
284 740 660
448 852 40
452 856 56
428 852 52
384 852 56
336 844 48
316 856 160
304 864 276
300 892 400
304 900 500
312 908 580
300 880 608
300 848 624
296 820 632
288 800 644
292 808 664
292 800 676
292 792 684
460 876 52
464 876 48
432 876 48
388 872 48
344 872 40
320 872 152
308 896 280
312 912 404
312 928 488
312 940 576
312 908 624
308 884 632
300 860 652
300 840 660
296 820 664
300 828 692
300 828 692
468 896 44
472 900 48
444 900 52
400 900 48
352 892 36
324 892 140
312 912 260
316 928 380
312 944 476
316 952 560
320 940 620
316 916 640
308 892 652
308 868 660
300 860 668
304 848 680
300 844 696
472 912 48
472 912 48
452 908 52
408 912 48
360 900 40
336 908 140
324 920 260
320 940 380
324 944 480
328 952 560
336 944 620
316 940 644
308 916 660
312 900 672
308 880 680
312 864 684
304 852 688
252 76 56
248 72 76
240 72 96
220 64 124
204 72 164
200 72 212
188 84 252
196 88 312
196 88 348
200 96 388
196 100 400
196 112 428
200 108 452
196 112 472
196 116 488
208 120 504
200 116 508
264 96 52
264 96 84
252 92 104
232 88 144
216 96 192
220 108 256
208 112 304
200 104 352
200 116 400
200 116 440
200 116 464
200 124 492
208 132 508
208 136 528
208 132 536
212 136 544
212 136 548
268 128 56
272 136 88
268 136 128
268 144 160
256 152 212
252 160 272
244 168 332
240 176 380
244 180 428
236 184 456
236 192 484
236 192 512
240 200 536
236 208 552
236 204 560
228 208 564
236 208 576
292 192 56
296 184 84
284 192 124
264 188 172
260 192 212
256 196 268
244 212 316
240 224 376
244 236 420
244 240 460
240 252 484
240 252 512
240 264 532
244 264 552
240 268 560
240 272 572
240 272 580
320 256 68
316 272 96
308 264 128
280 272 164
260 260 240
252 240 268
248 252 324
248 264 372
244 276 416
240 296 456
248 312 492
244 324 512
248 332 536
248 332 544
248 340 564
248 344 576
248 348 576
344 352 76
344 352 100
332 372 136
288 360 140
272 368 240
264 340 308
252 312 348
244 304 372
248 328 420
248 348 460
248 356 488
248 364 508
248 372 532
252 384 544
252 392 560
248 396 568
248 404 572
364 444 72
372 452 96
356 460 128
316 464 136
288 464 200
276 492 340
272 440 380
252 404 412
260 388 436
252 388 456
252 396 480
252 412 508
252 420 528
248 428 540
256 432 560
252 440 564
256 444 572
392 540 60
388 552 88
380 552 136
344 548 132
300 552 176
292 576 288
280 576 412
276 524 452
264 500 476
264 468 496
260 456 504
252 452 512
256 460 536
256 468 540
252 468 552
256 480 564
256 484 568
412 616 52
412 616 80
396 620 132
356 620 132
320 628 156
292 640 260
292 664 392
292 648 472
280 604 500
280 576 528
272 544 536
264 524 544
260 520 552
268 524 556
260 520 560
260 516 564
256 516 564
440 684 44
428 688 68
424 692 128
380 684 120
336 684 136
312 700 232
308 724 356
300 744 484
300 712 520
292 664 540
288 648 564
280 624 576
276 600 588
268 588 592
276 584 600
276 584 604
276 584 600
452 740 44
448 744 68
436 748 124
396 744 124
344 740 120
320 752 212
312 772 336
308 796 452
308 792 532
300 752 560
296 712 572
292 700 600
292 688 616
288 672 620
288 656 628
284 644 636
284 640 632
468 784 48
464 792 64
456 792 120
412 792 128
356 788 124
332 796 200
320 816 320
320 832 436
316 848 532
312 824 580
304 788 596
308 756 612
296 752 632
300 732 644
296 720 652
296 712 660
296 704 660
480 820 48
484 828 60
468 828 112
416 828 112
372 820 120
344 828 192
328 848 308
328 864 424
324 876 512
320 872 584
320 848 612
312 812 624
308 792 640
312 788 656
312 780 668
304 768 676
304 756 680
484 852 44
484 856 48
476 856 112
440 856 124
384 856 116
352 852 172
336 872 284
328 888 400
336 908 504
332 916 592
324 892 616
320 864 632
320 840 648
316 820 660
316 820 680
316 816 696
316 804 696
496 876 56
492 880 44
484 880 104
444 880 116
392 876 108
356 880 176
340 896 280
336 908 388
336 924 492
336 940 576
340 920 632
328 900 640
324 872 668
320 848 668
316 836 680
320 840 708
320 836 708
508 900 52
508 900 56
492 904 116
452 896 116
400 896 112
364 896 164
344 912 284
344 932 396
340 940 492
340 956 560
344 952 636
336 924 656
328 908 668
328 884 680
324 872 688
324 856 696
328 856 716
508 908 52
508 912 56
496 916 116
452 908 124
404 904 120
368 908 176
360 916 288
352 940 404
348 952 484
356 956 564
356 956 636
340 944 660
340 928 680
340 908 692
332 892 700
336 880 704
332 860 708
308 76 56
304 72 72
308 72 104
292 64 144
248 64 164
232 64 216
208 56 260
196 60 308
196 60 352
196 68 384
196 76 412
200 76 436
204 76 456
204 80 476
200 84 488
204 80 504
204 80 516
312 100 52
312 100 76
312 92 112
296 96 148
276 92 192
240 84 240
212 68 304
204 68 352
208 84 408
204 80 448
208 76 472
204 84 492
208 92 516
212 92 536
212 92 540
212 104 548
