滤镜资源/vsco 137 3dl+cube/VSCO 137 3dl/VSCO C9Chromatic.3dl
#Generated by Picture Instruments - Look Converter
3DMESH
Mesh 4 10
0 64 128 192 256 320 384 448 512 576 640 704 768 832 896 960 1023
48 56 72
56 60 80
64 64 108
64 84 156
76 92 216
68 108 292
72 128 368
80 144 436
80 172 512
92 188 568
88 216 620
96 236 664
100 260 700
96 280 744
108 304 776
108 324 804
108 340 828
52 72 64
56 76 84
60 80 108
64 92 156
72 104 208
72 124 288
76 140 368
88 160 444
84 188 516
96 204 572
88 232 620
96 256 672
108 276 712
96 300 740
112 316 772
108 344 804
108 368 824
56 96 76
56 100 96
68 104 120
60 120 164
76 132 220
68 148 296
80 164 372
88 180 444
88 208 516
92 228 568
92 252 624
96 268 668
108 296 712
104 324 752
108 340 780
108 372 804
108 384 824
60 132 84
60 136 104
68 140 128
64 148 172
80 164 228
72 188 308
80 208 392
88 232 460
84 248 520
96 260 584
96 276 632
100 300 680
108 320 716
96 348 748
116 364 784
112 388 812
108 408 828
68 164 84
64 180 112
76 196 144
68 204 188
80 204 236
76 232 304
84 256 388
92 276 460
92 304 532
100 324 588
96 336 636
100 340 684
108 344 712
104 364 752
116 388 780
112 416 812
104 432 828
68 216 92
68 232 124
80 248 156
76 268 220
84 276 272
80 288 328
84 300 392
96 324 456
92 348 532
96 372 596
100 392 644
100 408 684
112 416 716
108 416 752
112 416 780
112 436 812
112 452 836
72 268 100
76 288 128
84 304 168
84 332 232
88 352 296
84 352 356
84 364 420
92 380 480
96 400 544
100 416 592
108 436 652
104 460 692
116 468 732
108 488 760
120 484 788
112 468 816
112 476 832
80 324 108
84 344 136
88 368 180
88 392 240
92 412 316
96 424 388
92 428 444
100 436 492
100 452 552
104 468 596
112 488 644
104 504 692
120 516 732
112 536 760
120 544 792
120 552 824
116 524 840
92 376 116
88 400 148
96 420 196
88 448 260
104 468 332
96 500 416
96 508 480
104 504 524
100 508 572
108 520 608
104 536 660
108 556 700
120 568 732
116 580 768
128 588 796
120 592 828
120 592 840
92 436 120
88 460 156
100 480 212
96 508 280
104 524 352
100 548 432
104 568 508
112 568 552
108 576 600
112 580 636
116 584 672
112 600 704
120 612 736
120 624 776
132 632 804
128 640 836
124 640 848
96 488 136
96 508 164
108 532 216
100 556 292
108 572 364
108 604 452
108 616 524
116 628 580
112 636 624
116 636 652
116 640 688
112 644 724
128 648 740
120 664 776
128 676 804
128 684 836
128 680 852
100 552 144
104 560 172
112 584 228
104 604 300
108 620 372
112 640 456
112 660 532
120 676 596
112 688 648
124 688 676
120 692 704
124 692 732
132 696 756
124 704 784
132 708 804
136 720 840
128 720 856
112 596 156
108 608 184
112 624 236
112 648 324
116 664 396
120 676 472
116 704 544
124 716 604
120 732 672
128 736 696
128 736 732
128 740 760
132 732 776
128 744 800
132 740 812
136 752 844
136 752 852
112 640 176
108 656 200
120 668 256
116 688 344
124 704 416
120 720 496
124 736 560
124 748 612
128 768 676
132 772 708
128 776 748
132 780 776
136 780 792
136 780 816
140 780 832
136 784 852
136 784 860
116 688 196
112 700 224
124 712 276
120 732 368
124 736 428
124 752 508
128 768 568
132 780 616
128 800 688
136 804 716
140 812 760
132 816 788
144 816 808
136 820 832
140 816 848
144 820 868
140 820 868
116 724 228
124 740 248
128 748 312
128 764 396
136 776 476
136 784 532
132 800 584
136 808 628
140 820 684
140 832 732
140 840 768
140 852 800
152 852 824
140 860 848
148 852 864
148 848 868
144 848 868
124 752 264
124 764 300
128 772 356
128 784 440
132 800 512
136 804 568
132 816 604
140 820 644
140 828 688
144 840 728
144 844 764
140 864 800
144 864 820
144 876 856
148 876 868
152 876 868
148 876 868
68 52 56
64 64 80
68 72 108
60 80 148
64 92 212
68 112 288
76 128 368
80 144 436
80 172 512
84 192 572
92 212 620
96 236 664
92 264 704
96 280 744
100 308 776
108 324 804
108 336 820
64 76 64
64 80 88
68 84 108
68 96 160
72 108 220
72 124 296
80 144 376
76 164 444
84 188 516
88 208 576
92 236 632
92 260 676
96 288 716
100 304 744
100 328 776
108 352 812
108 368 820
60 96 68
60 100 88
60 104 120
64 124 168
64 132 224
68 152 292
80 164 364
84 188 452
84 212 512
92 232 580
92 252 624
96 276 672
96 300 712
100 324 748
108 348 780
100 368 804
108 388 824
64 128 72
60 136 104
60 144 132
64 148 176
68 168 228
76 192 304
80 208 384
80 236 452
84 248 520
88 260 584
92 284 636
100 300 680
96 324 708
96 348 748
108 372 784
112 392 812
112 408 828
64 164 84
64 180 112
72 196 148
72 204 192
72 212 248
80 236 316
80 260 392
88 284 464
92 308 540
96 324 592
96 336 636
100 340 684
104 344 720
108 368 756
108 396 788
104 420 812
104 436 828
68 208 88
68 232 116
80 256 156
76 272 216
76 280 268
80 280 328
84 308 392
88 332 468
96 356 532
96 380 592
100 400 652
104 412 684
104 416 720
108 416 752
108 416 784
108 436 816
112 456 840
72 268 92
76 288 120
76 308 168
84 332 232
80 352 300
84 356 360
84 364 420
92 384 476
96 404 540
100 424 604
104 444 652
108 464 696
104 476 728
108 488 760
116 484 792
108 472 820
116 480 836
76 320 104
84 344 136
84 364 180
88 388 244
88 416 320
92 428 388
92 428 444
96 440 500
100 456 560
104 476 604
104 484 652
108 508 700
108 520 736
112 540 764
112 548 796
120 548 828
116 524 840
88 380 112
84 396 140
92 424 192
88 448 256
96 472 328
92 496 416
96 504 476
100 508 520
100 512 564
104 520 612
108 536 656
112 552 700
116 572 736
116 580 768
120 588 800
124 604 832
116 600 840
92 440 120
92 452 148
100 480 208
96 504 272
96 528 348
100 552 428
104 568 508
104 580 564
108 576 588
104 576 632
112 588 664
112 600 704
116 612 740
120 628 780
124 636 804
124 644 836
120 636 844
96 488 128
96 504 160
96 532 216
104 556 288
100 576 364
108 600 444
104 620 520
112 632 584
112 636 624
112 640 656
116 640 692
112 644 724
120 656 748
124 668 780
124 676 812
124 684 840
128 684 856
96 548 140
104 560 168
100 584 228
104 604 300
108 624 384
112 648 464
112 668 532
116 680 600
112 688 648
120 692 684
120 692 708
124 692 732
124 700 760
124 704 784
124 708 816
132 720 844
128 720 856
108 596 152
104 604 176
108 628 236
108 648 324
116 664 392
112 680 468
116 704 536
116 720 612
120 732 672
120 732 696
124 740 732
128 740 760
128 736 772
124 744 800
132 752 824
136 752 840
132 756 852
112 644 164
108 656 200
116 672 260
116 688 340
116 708 416
116 724 484
120 736 548
120 748 616
128 768 672
124 776 716
128 780 752
132 788 776
124 780 792
132 784 812
136 780 832
132 788 856
132 788 864
116 692 188
112 700 224
116 708 276
116 728 364
124 744 440
124 756 512
124 768 572
124 788 624
124 796 684
128 808 728
136 816 764
132 816 788
140 824 820
136 824 832
136 820 848
140 820 872
140 820 872
116 728 220
124 740 248
120 752 316
128 764 388
124 780 480
132 788 528
128 800 584
132 808 632
136 820 676
140 832 736
136 844 760
140 852 800
148 852 828
140 860 848
144 852 868
144 852 868
144 852 868
124 756 252
124 764 300
120 772 352
128 788 432
128 800 508
132 808 560
128 816 604
136 824 644
140 828 680
140 840 728
140 856 760
140 864 800
140 864 824
144 876 856
144 880 872
148 876 868
148 876 868
100 64 60
96 60 80
92 72 112
84 80 152
76 92 208
88 108 280
84 132 356
88 148 436
80 164 504
84 192 564
92 212 616
92 232 660
88 260 696
96 280 740
100 308 768
108 324 804
104 344 832
96 72 64
92 76 80
84 88 112
88 92 152
92 104 216
92 124 292
92 148 360
88 168 440
92 192 512
92 208 568
88 232 624
92 256 664
92 284 708
104 304 744
100 328 776
108 352 812
108 368 824
88 92 68
84 100 88
76 112 120
76 124 160
88 140 228
84 156 300
92 168 376
88 184 456
92 212 512
96 232 572
96 256 624
100 280 672
100 304 716
100 328 748
108 348 780
104 372 808
104 396 832
76 128 76
72 140 92
72 148 132
72 152 164
72 172 224
76 192 300
84 216 376
80 236 448
88 252 520
88 260 580
96 288 640
96 300 672
96 332 716
100 352 744
104 372 780
112 392 812
108 408 828
68 164 84
64 184 104
72 192 140
68 204 192
72 212 240
80 236 312
84 260 392
84 280 456
88 304 528
96 324 592
100 340 640
96 348 680
104 356 720
108 368 752
104 396 788
104 420 812
104 436 828
72 212 84
72 228 108
76 252 152
76 272 212
80 272 264
80 280 324
88 304 396
92 336 476
96 356 536
100 384 596
100 400 648
104 412 684
104 416 724
108 416 756
108 424 788
112 440 820
112 452 836
72 264 92
80 280 120
76 308 168
80 328 220
84 348 292
84 356 360
84 360 404
92 384 476
92 404 540
100 424 596
108 452 648
104 468 692
104 476 728
108 488 760
112 488 792
112 476 824
112 480 836
76 320 104
80 340 128
80 364 176
84 384 236
88 416 316
88 428 388
96 432 448
96 440 500
100 460 552
96 476 596
104 496 656
108 508 700
112 524 740
112 540 764
116 548 796
120 552 832
120 520 840
88 380 112
88 396 132
88 420 188
92 448 252
96 476 336
92 500 408
100 508 480
96 512 524
100 516 568
100 528 616
108 544 660
108 556 704
116 572 736
116 580 768
120 588 800
124 604 828
120 596 840
92 440 120
88 448 144
96 476 196
96 504 264
96 528 344
100 552 424
108 572 500
100 576 552
108 580 588
104 580 628
112 588 664
112 604 696
116 612 740
120 624 768
120 640 800
124 644 836
120 636 844
92 496 128
96 504 152
100 528 204
100 552 276
96 576 352
108 600 436
108 616 520
112 632 584
112 644 620
112 640 656
116 636 688
112 644 716
120 656 748
124 668 780
120 684 812
124 684 840
128 684 856
100 540 136
100 556 168
100 576 220
104 604 296
108 620 376
108 644 456
112 664 524
116 680 596
112 688 644
120 696 688
120 692 708
124 692 728
120 696 756
124 704 784
124 716 816
132 720 844
128 720 856
108 596 152
108 608 184
104 620 228
108 644 312
116 664 392
116 684 472
116 704 544
116 720 612
120 732 660
124 736 700
124 740 732
128 740 752
128 744 776
124 744 800
132 748 816
136 752 844
132 756 852
112 644 160
108 652 192
116 668 248
116 684 332
116 708 416
116 724 480
120 736 548
120 752 612
124 764 672
124 776 716
124 776 748
132 780 776
124 780 792
132 780 808
140 784 836
136 792 860
136 788 864
112 688 184
112 696 216
116 708 272
120 728 352
124 744 440
124 756 512
128 768 572
120 784 616
128 792 680
128 808 720
136 816 764
136 824 792
136 824 820
136 824 832
136 820 848
140 820 872
140 820 864
116 728 220
120 736 256
120 752 316
128 764 388
124 776 472
132 788 528
132 796 592
136 812 636
136 824 688
140 832 728
136 844 768
136 852 800
144 856 828
140 860 848
144 852 864
144 852 868
144 852 868
124 756 252
120 764 300
120 772 352
128 784 416
124 800 496
132 808 560
132 816 616
136 824 644
140 828 684
140 840 724
140 856 768
140 864 804
140 872 828
144 876 856
144 880 872
148 876 868
148 876 868
156 68 64
144 64 84
136 68 108
128 80 152
120 96 204
124 112 280
120 128 356
116 148 428
112 172 496
116 192 556
104 212 612
96 236 656
88 260 692
96 284 736
96 304 764
108 324 800
104 344 832
140 76 64
136 80 80
136 80 116
128 92 156
124 104 212
116 120 284
124 144 360
120 168 432
124 188 508
120 212 564
108 236 620
104 260 660
96 284 696
100 300 740
104 324 776
108 352 808
