滤镜资源/vsco 137 3dl+cube/VSCO 137 3dl/VSCO F2 Mellow.3dl
#Generated by Picture Instruments - Look Converter
3DMESH
Mesh 4 10
0 64 128 192 256 320 384 448 512 576 640 704 768 832 896 960 1023
132 136 164
140 136 176
140 140 184
132 144 220
140 152 280
136 168 364
140 188 476
144 200 544
136 216 600
136 224 660
120 236 696
116 244 736
108 256 768
96 268 812
100 264 840
100 272 880
100 272 900
136 140 164
132 144 172
140 140 180
136 148 200
140 152 240
136 172 312
140 188 412
140 200 516
136 216 592
132 224 648
120 236 688
120 244 736
112 256 764
100 264 812
100 268 836
96 276 864
96 280 900
136 148 168
136 148 172
140 148 180
136 156 200
140 160 232
132 172 284
140 188 372
148 200 460
132 220 540
136 228 604
132 240 656
120 252 708
120 256 744
104 268 788
104 276 824
92 288 856
88 288 880
136 160 172
136 160 172
140 156 180
136 168 196
140 168 228
132 184 272
140 192 344
140 208 440
132 224 516
140 236 576
128 252 636
124 256 684
128 268 720
108 276 764
104 284 800
96 296 832
92 304 856
136 172 172
132 184 176
140 180 188
136 184 204
140 184 220
136 196 260
136 212 324
144 228 404
136 248 492
140 260 564
136 272 616
132 284 664
128 284 700
120 304 744
116 304 768
100 320 800
92 328 840
132 208 172
132 208 176
140 208 184
136 216 204
136 216 224
136 224 268
132 240 324
140 248 404
140 276 484
144 288 548
132 308 604
132 320 656
136 324 688
120 340 728
128 348 764
108 360 800
92 376 832
144 248 192
140 256 192
144 260 192
140 268 208
140 268 228
136 272 268
140 284 332
140 300 412
140 320 496
144 328 552
136 348 604
136 368 656
140 376 692
132 396 728
128 396 760
120 416 784
108 428 816
144 320 196
144 324 208
148 328 208
148 336 224
144 348 240
144 348 268
140 352 328
144 364 404
140 376 488
148 392 552
140 408 600
136 428 660
140 436 696
132 448 736
128 464 764
128 480 804
112 484 824
156 400 216
156 408 232
156 412 224
152 416 248
160 424 256
144 440 292
144 452 340
144 448 404
136 452 488
140 464 560
136 480 628
140 496 680
140 508 708
132 520 752
136 528 776
128 536 804
120 544 840
160 484 232
160 488 244
164 492 248
160 504 268
160 504 276
160 508 312
148 520 352
140 528 408
140 536 492
144 540 572
140 548 624
136 556 688
144 568 724
132 572 760
136 584 792
132 596 820
128 600 844
168 552 252
168 552 252
172 556 260
164 560 276
172 568 292
164 572 324
152 580 360
148 596 416
136 604 492
140 608 560
136 608 624
140 616 680
144 620 720
140 628 764
140 636 796
136 648 820
132 648 848
172 600 256
168 608 268
172 612 268
172 616 292
176 620 304
172 620 336
160 632 380
156 644 428
140 656 492
140 656 552
140 664 620
132 664 672
140 672 716
136 684 760
136 680 784
140 688 820
136 692 848
184 648 272
176 656 280
180 656 276
176 660 296
180 660 316
176 664 340
164 680 380
164 684 440
144 696 504
144 708 556
144 712 616
136 712 668
136 716 712
140 720 752
140 720 788
132 724 808
132 728 844
188 692 276
180 688 276
188 692 284
184 696 296
188 696 320
180 700 360
172 712 396
172 724 444
156 732 508
148 740 560
144 744 620
136 752 672
140 748 708
136 756 752
140 756 776
140 764 816
128 764 840
192 724 284
188 724 284
192 728 292
188 732 312
188 732 320
188 732 356
176 744 396
176 744 448
152 764 512
160 768 560
148 776 616
144 776 660
144 780 708
136 784 744
140 784 772
140 788 808
136 792 832
196 748 284
192 752 292
204 748 296
192 756 316
200 756 332
192 752 364
184 764 404
180 780 448
164 788 512
156 796 560
148 804 612
144 812 664
148 808 700
136 812 740
140 812 772
144 808 808
136 816 832
204 764 292
200 772 296
204 768 300
200 772 320
200 772 332
200 776 376
188 784 408
184 788 452
168 804 516
168 808 572
156 816 612
144 824 656
148 828 700
140 832 744
140 832 768
148 828 800
140 832 824
132 136 164
136 132 172
136 136 192
132 144 220
136 152 280
140 168 376
144 180 472
136 196 548
136 216 608
132 216 668
112 232 704
108 240 740
104 252 776
92 256 808
96 260 840
96 264 884
96 268 896
136 140 164
136 148 172
144 152 192
140 156 220
144 160 284
148 176 376
144 192 472
144 208 544
144 224 604
140 228 656
132 240 708
128 252 748
104 264 780
100 268 824
104 276 852
104 284 888
104 284 904
140 152 168
140 152 172
140 156 184
140 160 212
144 168 256
140 180 336
136 200 424
144 212 524
136 228 592
140 236 652
128 248 688
132 260 732
116 272 768
104 280 804
100 284 848
100 288 872
96 292 900
136 160 168
140 168 176
140 168 184
136 176 208
140 184 252
140 196 320
140 212 412
148 228 512
144 240 580
140 252 640
132 268 688
124 276 728
112 280 760
100 292 804
100 300 836
96 312 860
96 312 892
140 180 176
140 204 184
136 208 184
140 200 204
132 204 240
140 220 312
140 240 408
140 260 504
136 272 568
140 280 624
132 292 680
132 300 716
116 316 756
116 324 796
100 332 828
96 340 860
96 340 888
140 212 172
144 244 184
144 248 196
140 252 208
140 252 240
140 256 300
136 272 376
136 292 472
140 308 548
140 328 608
132 344 664
132 352 700
128 356 740
120 372 776
108 384 816
100 392 856
100 392 876
144 260 180
148 312 200
152 316 212
148 312 224
140 320 244
136 328 292
140 336 380
144 340 460
140 360 540
140 380 612
140 392 660
136 404 700
136 420 740
128 420 772
120 436 804
108 452 840
100 460 880
156 328 204
152 388 220
156 392 232
156 404 240
148 396 256
144 412 296
136 412 372
140 420 464
148 428 552
144 444 616
136 456 656
136 468 696
140 480 744
132 492 776
128 508 812
120 512 848
112 524 872
156 412 224
160 460 232
160 468 236
160 476 256
156 476 276
156 492 312
144 496 360
136 508 444
140 512 528
140 516 608
140 524 660
136 536 712
136 544 748
132 556 780
136 568 816
124 580 844
120 584 876
160 492 236
168 536 252
172 548 260
168 540 272
164 552 292
164 560 332
156 568 376
148 584 448
140 580 520
136 580 592
136 584 652
144 596 716
132 608 756
136 612 788
136 612 820
136 628 852
128 636 884
172 548 252
172 596 260
176 604 276
180 608 284
176 608 312
172 608 340
160 624 388
152 628 452
140 640 520
136 644 592
140 648 660
136 648 700
140 660 748
136 660 788
140 664 824
132 672 856
132 676 872
176 608 256
184 640 268
180 648 284
176 652 292
176 656 320
176 656 352
164 664 400
156 672 452
148 688 520
144 696 588
136 692 648
136 696 700
136 708 744
140 700 780
140 708 812
136 716 848
136 716 876
184 656 264
184 684 272
184 684 284
180 692 300
180 692 320
176 700 352
176 704 396
156 716 456
152 724 524
144 728 580
140 736 640
140 740 688
136 740 736
140 744 772
140 744 804
136 748 840
136 748 860
184 696 272
192 716 292
188 724 292
192 720 304
184 724 324
188 724 360
180 728 400
168 740 460
156 756 524
144 764 580
148 772 640
144 772 688
144 776 732
140 772 764
140 780 792
132 784 836
132 784 860
196 720 284
192 748 292
196 744 300
192 752 308
196 752 332
192 756 368
184 764 408
168 776 464
160 780 524
148 796 576
144 796 632
148 796 680
144 804 732
144 804 764
144 800 796
144 804 832
140 804 848
200 756 292
204 768 300
200 772 300
200 772 320
200 780 332
200 776 364
192 780 408
180 796 464
168 804 520
156 812 576
148 824 620
148 824 680
144 828 720
140 828 752
144 832 792
140 828 820
140 832 848
204 772 292
208 780 300
212 792 304
204 788 324
204 796 336
204 788 372
192 800 416
184 812 472
176 820 528
164 824 576
156 840 628
152 840 672
152 844 716
144 844 756
148 852 792
144 844 812
144 844 836
144 136 164
148 132 176
144 136 196
140 132 220
128 144 272
140 156 372
140 168 464
140 188 552
140 196 616
132 208 668
116 224 704
108 228 740
100 240 776
96 244 820
96 252 848
96 256 880
96 256 892
144 140 160
144 140 172
148 144 192
144 148 224
140 156 284
148 172 372
148 184 472
148 204 548
140 208 612
144 224 668
136 232 712
128 244 748
116 248 788
104 260 824
100 264 848
100 272 884
104 272 904
144 152 168
148 152 176
152 160 192
148 164 216
152 172 276
152 188 368
160 204 472
156 224 540
152 236 608
152 240 660
144 256 704
144 264 744
136 268 776
120 280 816
112 288 856
108 292 888
112 296 908
144 164 172
148 168 176
148 176 188
152 184 220
152 188 264
156 208 340
156 220 440
156 236 520
156 252 596
152 260 656
144 272 696
140 280 728
132 292 772
120 300 808
120 308 848
104 320 876
104 320 896
148 180 172
144 204 176
148 220 192
144 216 212
152 220 260
152 232 332
152 252 428
152 264 508
148 284 588
148 296 640
148 300 688
140 316 728
132 328 764
120 332 796
116 340 840
104 356 872
104 356 904
148 208 180
152 244 192
148 276 200
152 272 216
144 276 248
148 272 324
148 296 420
148 312 512
152 332 584
152 348 632
144 356 680
140 364 720
140 372 752
132 384 792
120 400 832
112 404 868
104 412 892
156 260 192
160 308 200
156 352 216
156 364 236
152 360 260
148 372 312
144 364 408
148 376 496
152 400 580
144 412 640
152 424 696
148 432 732
144 444 764
136 448 788
128 460 828
116 480 868
108 484 900
160 332 200
160 396 224
164 456 236
168 456 252
160 452 276
152 464 320
148 468 404
144 472 508
148 476 580
148 484 644
148 500 700
144 508 744
140 516 776
136 524 808
128 532 836
124 540 876
104 552 908
164 420 224
164 472 232
172 536 252
168 532 264
172 540 296
160 536 332
156 552 392
144 560 480
140 564 576
148 564 652
144 568 712
144 568 752
140 580 780
140 592 816
136 600 856
124 612 888
116 616 920
172 504 240
172 536 244
172 588 260
172 592 284
172 596 300
168 600 336
160 608 396
144 616 468
144 620 556
140 628 632
144 628 688
140 636 740
140 640 784
140 640 820
140 652 856
132 656 888
124 664 920
180 560 252
184 604 260
180 640 276
184 644 288
180 644 308
176 652 348
168 656 404
152 672 472
144 676 544
140 680 616
136 676 672
140 676 728
140 688 772
144 688 820
140 700 848
144 692 884
132 700 916
184 616 264
184 648 268
192 676 280
180 688 288
188 684 316
180 692 360
172 696 400
164 708 468
148 716 540
144 724 608
144 720 672
140 728 724
148 724 764
144 728 804
144 736 832
144 736 872
140 740 908
188 660 268
188 684 276
192 708 284
192 712 300
188 716 320
188 724 360
180 732 408
172 744 480
156 748 536
148 756 600
144 760 668
140 760 712
144 760 752
140 768 792
144 764 824
148 768 864
140 768 892
192 696 272
200 720 284
196 744 300
192 748 300
196 748 328
196 744 364
188 756 412
180 760 472
164 776 532
152 792 600
152 788 648
140 792 700
140 796 748
140 796 784
148 800 816
140 796 848
140 796 880
204 724 288
200 744 292
204 764 308
208 772 312
204 768 332
204 776 376
188 780 412
180 788 464
164 804 532
156 812 588
156 812 644
152 820 700
152 816 744
152 816 784
148 816 820
148 820 848
140 820 864
204 760 288
204 768 296
212 788 308
208 792 312
208 792 336
208 792 372
200 804 416
188 808 472
172 824 540
164 832 592
160 840 640
156 840 692
152 840 736
148 848 772
152 848 804
152 848 836
152 848 860
208 776 288
216 792 300
216 800 308
212 808 316
216 808 340
208 812 384
204 820 424
196 824 484
188 832 540
176 840 596
164 856 640
156 856 684
160 864 736
152 864 768
156 860 804
156 860 832
156 860 856
172 136 168
172 132 180
176 136 196
168 140 228
156 140 288
148 140 372
136 152 472
136 160 552
132 176 616
128 184 668
116 196 708
104 204 744
96 220 780
96 220 812
92 228 840
100 224 876
96 224 896
160 140 168
168 144 176
176 140 200
168 144 228
160 148 280
148 152 372
140 168 464
148 176 544
140 196 616
140 200 668
136 212 712
120 220 744
112 228 784
108 240 820
104 244 852
108 248 888
