滤镜资源/vsco 137 3dl+cube/VSCO 137 3dl/VSCO G1 Portraits.3dl
#Generated by Picture Instruments - Look Converter
3DMESH
Mesh 4 10
0 64 128 192 256 320 384 448 512 576 640 704 768 832 896 960 1023
0 0 0
4 4 40
28 8 84
0 8 156
32 16 224
4 20 304
0 20 380
36 28 432
0 32 492
36 28 532
12 36 572
12 44 624
36 44 652
16 48 704
36 48 736
4 48 784
0 48 816
4 32 20
0 36 40
24 44 76
0 48 128
32 56 184
4 56 252
0 64 324
36 68 392
0 80 452
36 76 492
4 84 536
0 84 580
36 84 612
0 88 656
36 84 688
4 92 728
0 92 772
12 72 44
0 76 56
24 84 84
0 88 128
32 92 184
4 100 248
0 108 312
36 116 364
0 124 436
32 128 472
4 136 516
0 128 556
32 124 588
0 140 636
36 136 668
4 144 700
0 140 744
16 124 68
8 116 96
28 120 92
0 140 144
28 148 196
4 156 264
0 164 332
36 176 388
0 180 436
36 180 476
8 188 516
0 188 556
36 184 588
0 188 628
32 196 656
12 200 704
4 200 736
24 188 104
24 192 136
32 188 136
0 200 148
28 212 200
8 232 268
0 240 332
32 244 392
0 252 448
32 260 488
8 256 524
0 256 564
32 260 600
0 268 644
36 264 676
12 268 708
0 268 752
36 268 148
32 260 176
36 252 200
0 280 208
28 280 208
8 292 272
0 320 348
32 324 404
0 328 464
36 328 504
12 340 540
4 340 588
32 340 612
0 348 664
32 344 696
12 348 740
0 356 776
52 336 192
44 332 228
48 324 252
16 340 268
32 356 264
12 364 276
0 372 332
28 400 424
0 412 472
28 408 512
16 416 556
0 420 596
32 416 624
0 432 676
32 420 704
16 420 756
0 424 792
64 404 232
60 400 264
60 388 288
36 392 316
36 416 324
12 432 320
4 440 340
24 440 392
0 480 476
28 484 520
16 488 560
0 488 596
28 488 632
0 496 680
32 496 716
20 500 760
0 496 796
76 452 264
72 448 296
64 444 316
48 436 352
40 460 356
16 488 372
0 492 368
28 500 388
0 504 448
28 528 508
20 544 568
0 548 608
32 548 644
0 552 684
32 548 720
20 552 760
0 552 808
80 496 280
76 496 320
72 484 348
56 480 388
44 492 392
20 520 400
0 540 408
28 540 396
0 552 444
28 552 484
20 572 544
0 596 604
32 596 648
0 600 692
32 596 724
20 600 772
0 600 804
88 532 308
80 536 348
76 528 368
64 512 408
52 524 412
28 548 428
0 572 436
28 572 428
0 592 432
28 588 476
20 592 528
0 612 584
28 632 644
0 640 688
32 636 732
24 640 772
0 640 808
92 568 320
84 564 360
80 560 392
64 552 416
64 552 444
36 576 456
4 600 464
28 612 460
0 616 456
28 624 468
20 624 508
0 624 552
24 640 604
0 676 680
28 676 716
24 676 760
4 680 800
92 600 340
84 604 380
84 596 400
64 588 440
68 580 464
40 600 472
16 632 488
28 644 484
0 652 488
24 652 484
20 660 504
0 656 540
24 656 576
0 676 640
28 712 708
24 712 756
0 712 792
96 640 360
88 640 396
88 632 424
72 620 460
64 612 484
48 632 496
20 660 508
32 676 512
0 680 516
28 680 504
24 684 512
0 696 528
28 688 572
0 688 616
28 708 668
24 748 752
0 752 792
100 668 376
92 672 408
88 664 436
76 656 484
72 640 500
60 660 528
28 688 540
32 704 536
0 720 544
24 712 532
20 708 532
0 724 536
24 724 556
0 724 604
28 720 644
24 748 700
4 780 776
100 708 396
100 704 432
100 704 456
80 688 504
76 680 524
60 684 552
40 712 568
36 728 564
0 752 572
24 752 564
24 752 564
0 756 556
24 756 560
0 768 596
28 764 632
24 764 672
0 784 732
100 732 408
100 736 440
100 724 476
84 720 512
80 708 544
72 708 576
52 728 584
44 752 588
16 772 596
28 780 596
24 772 592
0 780 580
24 776 576
0 792 592
24 792 628
36 788 668
24 788 708
32 8 0
44 0 44
32 0 88
20 0 148
24 4 224
16 0 292
16 0 368
16 0 428
8 0 488
12 4 540
16 12 580
12 16 612
12 16 648
12 16 688
12 16 724
0 12 772
0 12 812
20 32 4
28 40 48
20 44 96
20 44 164
20 44 240
12 44 316
12 44 388
16 52 456
8 52 500
4 48 556
4 56 604
4 52 648
0 56 684
0 56 720
0 52 772
4 64 808
0 60 852
12 68 20
28 80 64
24 92 100
24 96 160
16 96 224
8 100 292
4 100 356
4 104 428
4 104 492
0 112 540
0 112 576
0 108 624
0 108 660
0 112 700
0 116 748
4 112 788
0 120 828
16 124 44
36 132 88
28 136 112
16 164 164
12 164 232
12 164 304
4 160 364
4 168 436
0 168 488
0 172 532
0 184 568
0 188 608
0 172 644
4 176 692
0 180 736
0 180 776
0 180 820
28 188 80
56 200 136
40 188 160
20 216 164
16 228 236
8 248 300
4 248 380
4 252 436
4 260 492
0 256 536
0 256 576
0 256 608
0 260 660
0 260 696
0 256 740
4 264 776
0 264 808
32 256 116
64 272 172
60 268 212
40 276 220
20 304 232
12 312 292
12 336 372
12 340 440
8 340 492
4 348 536
0 348 584
0 340 624
0 340 660
0 344 704
0 344 744
0 344 784
0 344 824
48 336 160
88 344 228
80 332 248
56 336 276
40 364 284
16 388 292
20 396 356
16 428 440
12 432 496
8 432 548
4 432 592
4 432 632
4 432 676
0 432 712
0 432 752
0 428 796
0 428 840
60 396 204
92 404 256
92 396 296
76 392 324
52 416 332
36 444 348
16 464 356
20 468 420
16 508 512
12 508 556
12 508 596
4 512 636
4 512 680
4 508 728
0 508 768
0 508 808
0 504 844
68 448 232
96 456 288
100 448 320
92 440 356
72 460 376
44 484 384
32 504 388
20 528 408
16 532 464
12 560 536
8 572 592
12 576 640
8 576 680
0 572 724
0 572 772
0 576 812
0 576 852
80 492 256
108 500 312
108 492 356
96 488 384
80 496 404
56 520 416
32 540 420
16 564 428
16 580 460
12 572 512
12 604 568
12 624 640
4 624 684
4 632 724
0 624 768
0 624 812
0 624 852
76 532 272
108 544 336
108 536 376
100 528 408
88 528 432
60 548 436
48 572 444
20 596 452
16 616 460
12 624 504
8 624 552
16 640 612
8 672 684
4 672 724
0 672 772
0 672 816
0 672 848
88 564 288
116 576 356
116 568 396
108 560 428
92 556 452
72 576 464
52 600 472
32 624 476
16 636 480
4 660 496
4 668 536
4 664 584
0 688 648
0 716 728
0 708 768
0 712 812
0 712 844
84 604 308
116 612 364
116 608 408
108 596 452
96 588 476
84 608 496
56 628 500
40 648 500
24 672 508
12 684 508
0 700 524
0 704 572
0 708 620
0 724 680
0 748 760
0 748 800
0 748 836
92 636 328
116 644 388
120 640 436
112 636 460
104 624 496
88 632 520
64 656 520
44 676 528
28 696 536
16 716 540
0 732 540
0 740 560
0 740 604
0 732 644
0 752 712
0 784 792
0 784 832
92 672 344
128 684 408
120 680 444
112 664 480
104 656 516
92 660 540
64 688 552
52 708 552
28 728 556
20 744 564
0 760 568
0 760 560
0 772 588
0 772 640
0 768 676
0 788 744
0 816 812
100 708 368
128 716 424
124 716 460
120 704 500
108 696 528
100 688 560
76 712 580
60 732 580
40 756 584
20 772 592
12 776 584
4 796 588
4 792 592
0 804 620
0 804 660
0 800 716
0 812 768
100 732 384
120 744 424
124 748 476
124 736 508
108 728 540
100 712 584
80 728 596
68 752 604
44 768 612
32 784 616
12 800 608
0 816 612
0 816 608
0 828 616
0 832 652
24 824 692
24 820 732
68 16 4
76 0 8
104 4 84
108 0 164
76 0 224
64 0 296
56 0 364
56 0 444
52 0 492
56 0 548
48 12 568
44 12 612
40 12 648
52 12 692
40 12 732
36 0 772
36 0 804
68 44 0
76 40 36
88 40 112
72 36 172
56 28 244
48 32 316
40 32 392
40 24 452
32 24 512
32 24 560
16 20 608
12 12 652
12 12 696
8 12 736
4 12 792
4 8 840
4 12 872
36 80 8
56 84 48
68 92 104
64 96 168
60 92 236
60 96 316
56 96 384
48 104 452
56 100 508
36 104 552
40 104 604
40 100 652
40 100 696
36 100 736
32 96 780
32 100 828
28 104 860
20 120 20
52 136 64
72 140 116
64 156 164
56 168 232
56 160 304
48 168 368
52 168 432
44 172 492
44 168 544
36 180 584
36 168 628
36 168 672
32 168 716
24 172 760
24 168 808
20 160 852
24 180 48
68 200 108
84 200 164
76 216 176
64 240 236
56 244 308
52 244 380
52 248 436
48 252 492
40 252 548
40 248 588
40 256 628
36 256 672
32 244 708
32 244 756
28 248 804
24 252 848
32 260 84
76 272 148
108 280 212
92 280 240
72 296 244
64 320 308
56 336 388
56 344 452
56 340 500
48 348 552
48 344 592
44 344 632
40 344 672
36 344 720
36 344 764
28 336 812
24 340 848
48 328 124
88 344 188
124 348 248
112 348 292
96 360 296
72 392 308
68 396 364
60 424 444
56 428 500
60 432 556
56 436 600
52 440 644
44 428 676
44 428 724
36 428 772
36 432 816
36 432 860
60 392 160
112 412 240
136 420 300
128 408 328
112 416 348
92 440 356
72 468 364
76 476 428
60 508 508
60 504 556
60 508 608
52 512 648
52 512 692
52 512 732
44 512 780
36 508 820
36 504 860
72 448 192
120 464 268
148 464 324
136 456 364
124 464 392
104 488 400
84 508 408
64 528 424
76 532 472
64 564 552
64 568 608
56 568 652
48 572 692
48 572 732
44 568 788
40 580 828
40 572 860
84 492 220
128 504 280
156 512 348
148 500 388
140 496 420
116 524 432
96 544 436
72 568 444
68 580 468
68 584 524
60 608 584
60 624 640
60 628 696
52 628 728
44 628 776
44 624 824
44 624 856
80 532 236
136 544 312
160 552 368
156 544 416
144 532 444
120 556 460
104 576 468
76 604 476
68 620 476
64 628 512
60 628 560
56 652 616
56 672 688
52 672 732
48 676 784
40 676 824
40 672 864
84 564 252
136 580 332
152 584 392
152 576 428
152 572 472
132 576 480
104 604 488
84 628 496
68 644 496
56 664 508
56 668 544
56 668 600
48 692 652
48 716 732
44 716 780
40 716 824
40 716 864
84 596 272
140 612 352
160 620 408
160 612 452
144 604 492
128 608 504
108 632 512
88 656 520
72 668 520
60 684 524
52 712 536
52 708 592
48 708 632
48 732 704
44 764 776
32 760 820
28 760 852
92 636 296
136 648 360
168 656 416
164 648 468
148 644 496
140 636 524
116 656 536
96 680 548
80 700 548
68 712 552
52 728 556
40 752 572
36 748 612
44 752 664
32 772 732
32 804 808
28 804 848
92 664 312
136 680 376
160 688 444
160 680 480
152 676 516
144 668 556
120 684 556
104 704 568
88 728 576
68 744 580
56 756 584
40 776 584
32 788 604
32 788 652
32 788 700
28 808 768
28 844 832
100 700 328
140 720 404
164 728 464
160 716 500
156 712 540
144 700 568
124 712 588
108 736 600
96 752 596
72 772 608
56 784 604
40 800 608
32 816 616
28 832 640
28 836 696
28 828 744
20 844 796
100 732 348
140 744 412
160 752 468
160 752 512
152 740 544
144 728 592
132 732 612
116 756 620
96 768 620
76 792 628
60 812 632
40 824 624
32 840 632
20 852 640
20 860 676
28 860 720
28 860 764
136 28 4
132 4 0
140 4 24
180 4 120
196 8 244
192 0 328
172 0 388
152 0 456
136 0 512
124 0 552
112 12 592
112 12 632
108 12 672
108 12 704
92 12 748
96 0 792
92 0 828
124 52 0
140 56 28
144 36 48
188 40 164
184 36 260
144 28 332
120 28 396
108 28 464
96 28 528
96 20 572
96 20 620
80 20 656
72 12 708
72 12 752
68 4 792
56 8 840
