滤镜资源/vsco 137 3dl+cube/VSCO 137 3dl/VSCO A1 Analog.3dl
#Generated by Picture Instruments - Look Converter
3DMESH
Mesh 4 10
0 64 128 192 256 320 384 448 512 576 640 704 768 832 896 960 1023
8 8 24
16 40 80
48 68 116
48 96 172
68 128 244
84 164 328
124 204 432
160 240 528
176 292 640
200 324 728
192 360 808
180 396 876
172 412 924
140 432 964
100 440 980
24 452 988
12 456 1016
8 52 44
20 68 80
48 96 120
48 108 168
72 136 228
80 168 308
120 208 412
160 260 528
180 308 640
200 336 720
192 372 792
184 396 864
176 416 924
148 432 980
108 440 1000
32 452 988
8 452 1016
8 92 56
4 100 88
40 116 124
52 144 168
80 164 232
84 196 300
116 232 412
152 280 520
176 324 628
200 356 716
196 392 792
188 408 864
172 424 920
144 444 964
108 456 1000
36 464 988
16 464 1012
8 140 60
4 148 88
28 152 124
4 172 172
64 200 228
104 228 296
128 264 400
160 308 512
188 348 616
200 380 696
208 416 772
196 432 848
192 452 904
156 468 952
128 476 984
76 488 992
44 488 1008
4 176 64
0 184 84
24 196 120
4 232 180
32 232 224
68 272 296
132 304 384
168 336 476
192 384 584
212 420 672
228 444 752
216 468 824
216 484 888
192 508 940
172 512 972
132 520 984
104 524 1012
4 224 68
0 228 88
28 240 108
0 284 160
28 320 232
8 316 304
96 356 388
180 392 476
220 432 576
236 464 660
240 496 740
248 520 808
256 536 864
236 552 916
228 560 956
200 568 976
188 572 1000
8 288 80
0 288 88
28 292 104
0 328 156
32 372 220
16 416 312
0 428 392
72 452 492
220 500 584
260 520 652
280 552 720
288 576 792
292 596 852
292 620 904
284 624 940
268 632 968
264 636 980
8 368 92
0 368 92
28 368 108
0 388 140
28 416 192
12 476 280
0 516 384
32 520 472
8 544 572
212 580 652
288 620 724
316 644 784
332 660 836
336 676 888
340 696 916
332 704 952
328 704 972
12 444 112
0 444 116
28 440 116
0 452 148
28 476 192
12 516 264
0 592 376
32 612 472
0 612 568
32 628 648
196 676 732
312 704 796
356 732 840
364 744 880
376 752 920
384 768 948
380 768 972
12 512 140
0 508 136
28 504 132
4 524 164
28 528 196
16 552 256
0 604 352
28 672 476
0 684 572
32 684 660
24 696 720
164 740 800
320 772 848
372 796 896
404 808 936
416 816 960
416 816 976
16 568 164
4 572 164
28 568 160
0 576 176
28 580 208
16 604 256
4 624 328
28 692 448
4 748 576
32 752 656
24 752 728
8 772 804
180 792 848
316 824 900
396 848 940
424 860 960
432 860 976
16 616 184
0 620 184
24 620 184
0 616 192
24 624 208
16 640 268
0 660 324
28 704 416
0 772 544
32 796 636
24 804 712
0 808 788
40 820 844
192 840 892
324 860 924
392 884 964
428 892 988
20 660 216
0 664 216
24 660 212
0 664 216
24 664 232
20 680 276
0 696 320
24 716 400
4 788 532
32 836 632
32 844 716
4 844 788
32 844 840
116 864 892
260 876 920
352 896 968
392 908 976
20 712 248
0 708 244
24 704 240
0 708 244
24 704 248
20 716 288
4 728 332
28 740 396
0 788 496
60 848 612
132 880 716
124 884 792
132 884 840
144 888 884
240 900 928
332 916 964
368 920 980
20 740 268
0 748 276
24 744 276
0 748 272
24 736 272
20 740 300
0 764 340
28 768 396
0 796 488
76 848 576
232 904 692
264 912 780
268 904 832
264 920 884
292 916 920
340 928 948
376 936 980
28 776 304
8 780 304
28 772 296
0 776 296
28 772 292
28 772 320
8 788 352
36 796 404
24 812 472
136 844 572
304 904 676
348 936 768
364 936 828
360 936 884
368 940 916
392 944 960
416 948 980
128 804 336
92 804 324
92 800 320
84 808 324
88 808 324
92 800 340
100 808 360
140 812 416
156 824 480
204 844 556
316 900 656
396 940 752
424 948 824
424 952 884
436 952 916
444 956 952
460 956 976
36 12 36
32 44 80
52 76 124
64 100 176
76 128 240
108 160 324
136 208 432
164 244 536
192 300 640
204 336 728
204 364 800
200 396 872
188 416 928
156 432 964
120 448 984
56 460 1016
20 460 1016
24 48 48
40 68 84
52 96 120
68 116 172
84 144 244
108 180 324
136 220 428
168 264 540
188 308 636
204 348 724
208 372 812
200 404 872
184 416 936
156 436 984
120 448 1008
52 456 1016
16 456 1016
16 92 60
28 100 96
52 124 132
64 140 168
84 160 224
96 196 300
124 236 408
156 276 516
180 328 628
200 360 716
208 388 788
196 412 868
184 428 920
156 448 964
116 456 1008
60 464 1012
24 464 1012
12 136 56
12 152 92
12 164 132
12 176 176
80 204 232
112 228 300
132 260 392
168 308 508
188 348 608
204 380 704
212 412 780
208 436 848
188 452 900
160 464 952
140 476 996
84 492 1016
60 492 1016
0 176 60
4 192 96
4 200 124
4 228 176
4 236 228
92 272 304
152 308 396
172 344 492
200 392 596
216 416 680
228 448 760
228 476 832
220 488 892
200 504 940
168 512 980
136 524 1008
112 524 1012
0 224 68
0 240 96
0 248 116
0 272 164
4 316 236
8 316 300
104 352 388
184 396 480
216 428 576
232 464 660
252 496 736
248 516 804
248 540 872
244 552 920
228 568 956
208 576 988
196 576 1000
0 296 76
0 304 100
0 304 112
0 320 160
4 368 220
4 420 308
0 420 392
72 452 484
208 488 572
260 528 652
276 552 724
288 576 788
288 596 856
288 616 900
284 624 940
276 636 976
264 636 988
0 372 92
0 380 104
0 376 120
0 392 152
0 416 200
0 472 292
0 520 392
0 524 484
16 552 584
236 592 664
300 616 728
324 644 792
332 668 844
340 680 892
336 704 924
336 704 968
332 704 972
0 444 120
0 452 116
0 448 132
0 452 156
0 476 204
0 508 268
0 580 368
0 616 472
0 620 568
4 632 652
188 672 732
312 704 796
356 728 844
372 744 884
376 756 924
388 772 956
388 776 972
0 516 140
0 516 140
0 516 140
0 520 160
0 532 200
0 548 256
4 604 348
0 676 472
0 684 572
4 688 656
4 700 728
176 740 800
320 772 852
376 804 892
404 812 928
416 816 964
416 816 976
4 572 164
0 572 164
0 572 164
0 576 180
0 584 208
0 596 260
4 624 332
0 696 444
0 744 572
0 752 652
0 752 732
8 764 796
184 796 852
316 824 900
392 848 940
432 864 972
436 868 976
0 624 188
0 628 192
0 628 192
0 628 200
0 628 232
4 648 268
0 664 332
0 700 416
0 776 548
4 804 652
0 804 728
0 808 788
36 820 852
228 844 900
332 864 936
404 884 972
432 892 988
0 664 216
0 668 220
0 672 212
4 672 224
0 668 236
0 680 276
0 696 320
0 716 404
0 784 528
4 836 628
12 844 720
8 848 788
12 844 836
144 868 896
264 880 928
356 904 968
404 916 980
0 708 244
0 712 248
0 712 248
0 712 248
0 708 264
0 712 288
0 724 336
0 744 400
0 788 496
64 852 612
152 880 704
164 884 788
152 888 840
164 884 884
244 900 924
336 912 956
372 924 972
4 744 268
4 752 276
0 748 276
0 748 272
0 748 288
0 752 304
0 764 344
0 776 412
4 792 488
96 848 588
248 900 700
272 912 776
272 916 840
284 912 888
296 920 924
344 928 960
384 940 980
12 780 296
24 784 304
20 784 304
32 788 308
24 780 308
4 784 324
16 792 356
8 800 404
32 808 472
152 844 568
296 900 672
352 932 760
368 932 832
368 940 880
372 936 916
396 944 952
416 952 976
144 804 328
156 812 332
140 812 332
136 808 328
132 804 324
124 804 344
136 808 376
144 812 416
168 824 476
212 844 564
320 896 656
404 940 748
424 944 824
436 952 880
432 952 916
452 952 948
464 964 972
60 24 52
72 44 92
76 76 132
88 100 184
104 128 248
136 156 324
164 200 416
180 252 536
208 296 640
228 340 728
232 364 800
212 388 864
208 416 920
180 440 968
148 448 984
100 456 1016
64 456 1016
68 64 44
68 68 84
76 96 128
96 116 184
112 144 240
128 176 320
156 220 420
180 264 536
204 316 640
220 344 720
224 380 804
212 400 872
196 420 928
176 432 976
148 448 1016
96 460 1016
64 460 1016
44 100 52
64 104 96
84 120 132
100 144 176
116 164 232
128 196 316
156 236 424
176 280 532
204 328 644
212 364 720
220 388 800
216 412 868
192 428 920
172 444 968
140 456 1008
96 472 1016
64 468 1016
40 136 64
48 144 96
64 164 140
68 180 184
108 208 240
136 224 300
148 264 388
180 304 504
196 344 604
216 384 704
224 412 780
216 440 844
204 456 904
188 468 948
152 484 992
112 492 1016
92 492 1016
24 176 64
24 188 104
40 212 136
44 224 180
44 244 232
124 276 308
160 308 388
180 340 488
204 384 592
224 416 680
240 448 764
232 480 828
232 492 884
212 500 932
176 512 976
148 520 1008
136 524 1012
4 228 72
0 240 92
0 256 136
8 272 176
8 308 232
4 316 304
132 360 392
204 396 492
228 436 584
248 472 668
252 496 740
260 516 812
260 540 876
256 556 916
236 564 956
208 572 988
204 572 1004
0 296 76
0 308 88
4 316 132
0 328 160
4 364 216
0 416 304
4 416 388
96 452 488
216 496 568
264 528 648
280 560 724
300 584 792
296 600 852
292 612 900
292 624 940
280 636 972
280 636 984
4 376 96
0 384 104
0 400 136
0 396 160
0 416 208
0 468 288
4 520 396
4 524 480
24 540 572
224 588 656
300 620 732
332 644 788
340 664 844
344 684 892
340 696 924
340 708 960
340 708 976
0 444 120
0 452 120
0 468 148
0 464 164
0 476 212
0 504 264
0 572 368
0 612 476
0 616 572
8 636 660
224 680 744
328 704 800
360 728 844
376 740 892
384 756 932
392 772 952
392 772 968
0 516 140
0 516 140
0 528 152
0 528 172
0 532 208
0 552 260
0 600 344
0 664 464
4 684 568
0 684 648
4 700 728
184 736 796
320 772 852
384 792 896
408 808 924
420 816 956
420 820 976
0 572 164
0 572 164
0 580 184
0 588 188
0 588 220
4 600 264
0 632 336
0 696 444
0 748 564
0 752 652
0 748 724
12 764 788
200 792 852
332 824 900
396 844 936
432 864 968
448 864 976
0 624 188
0 628 192
0 636 204
0 636 204
0 632 236
4 644 272
0 660 332
0 700 420
0 772 544
0 800 648
0 804 724
4 808 796
44 820 848
232 844 892
344 868 940
412 888 976
444 896 984
0 664 216
4 676 224
0 680 224
0 680 220
0 676 248
4 684 284
0 696 336
0 720 420
0 784 520
16 836 632
12 844 724
24 848 792
36 848 844
176 864 896
288 884 932
368 904 964
416 908 984
0 708 244
0 712 248
4 716 252
4 716 252
0 716 268
0 716 292
0 728 348
0 744 404
0 788 496
72 848 612
160 876 696
176 880 776
176 888 840
196 884 884
276 904 924
348 920 960
392 924 984
0 748 272
4 752 276
4 752 276
4 752 284
0 756 296
0 760 316
0 760 352
0 776 412
0 796 488
120 848 588
268 904 700
288 912 776
296 916 836
292 916 884
316 924 928
356 928 964
396 932 980
40 784 300
60 784 308
88 788 312
48 788 304
48 784 312
32 788 336
32 788 364
32 800 416
56 812 488
172 848 568
316 908 680
368 928 764
376 936 836
388 936 884
384 944 924
404 948 956
424 948 972
180 812 332
200 808 328
208 812 332
184 816 336
172 812 336
172 812 352
168 808 380
176 816 424
196 824 488
228 844 564
336 900 660
420 940 752
428 944 832
444 948 880
444 956 920
464 952 956
472 960 972
116 40 64
112 48 104
116 56 132
120 80 180
140 112 240
164 148 324
196 196 420
216 252 532
244 300 636
256 340 724
260 372 796
256 400 872
240 416 924
224 436 960
192 452 984
160 460 1016
132 464 1016
120 72 64
116 76 96
120 84 140
132 112 184
152 144 252
160 180 324
188 220 412
216 268 520
236 316 640
252 352 724
260 384 804
248 396 868
236 420 928
220 440 972
192 452 1012
156 464 1016
