滤镜资源/vsco 137 3dl+cube/VSCO 137 3dl/VSCO A4 Analog.3dl
#Generated by Picture Instruments - Look Converter
3DMESH
Mesh 4 10
0 64 128 192 256 320 384 448 512 576 640 704 768 832 896 960 1023
36 20 8
44 20 12
60 28 32
64 44 56
80 48 88
76 64 136
84 80 200
88 92 256
84 120 324
80 144 396
60 180 468
36 212 548
32 244 620
36 296 712
128 352 792
244 432 868
364 520 928
52 44 4
60 44 16
76 48 32
88 64 56
96 72 92
100 88 148
104 100 200
116 120 264
112 140 340
112 160 400
96 192 468
80 224 552
64 256 628
76 304 712
144 352 784
240 428 864
368 520 924
72 72 12
76 76 20
100 80 48
100 88 68
124 96 104
124 116 148
140 136 216
144 148 280
144 172 344
144 192 412
132 216 484
120 244 556
104 280 644
108 328 716
168 376 796
260 444 864
372 528 916
96 120 20
108 120 28
120 124 52
124 128 84
144 140 128
160 152 180
164 168 232
176 192 296
176 208 356
176 228 416
164 252 492
164 280 572
156 316 648
152 352 724
200 400 800
276 464 868
388 548 924
128 176 16
136 180 40
144 184 56
148 192 108
160 192 148
172 208 192
188 220 248
200 232 304
208 256 368
212 276 428
200 296 492
200 324 572
192 348 644
200 380 728
224 424 792
292 492 860
392 572 920
156 248 24
164 244 52
180 248 84
184 260 128
196 264 176
204 268 240
208 280 280
228 284 336
232 300 396
240 320 452
240 340 512
232 364 584
232 392 652
228 428 728
256 468 808
312 520 872
412 604 932
192 312 52
200 316 76
208 320 104
212 328 156
224 332 208
220 344 260
236 352 320
252 356 372
252 364 428
264 368 472
272 388 532
268 412 600
264 436 664
260 468 740
280 504 808
320 556 872
400 616 920
228 396 92
232 396 116
244 396 144
244 408 184
260 416 236
260 420 296
260 428 352
276 432 408
280 432 464
288 440 504
288 456 556
288 472 620
292 488 672
284 512 740
300 540 800
332 588 868
392 644 924
264 476 136
268 476 152
276 480 180
280 488 220
292 488 276
292 504 332
300 516 396
300 512 444
300 512 496
320 520 544
324 524 600
320 532 652
328 552 700
324 564 752
336 588 812
348 628 864
404 680 928
304 552 192
308 556 208
316 560 228
324 568 276
324 568 316
328 572 372
324 588 424
332 592 488
336 600 540
348 596 592
348 596 628
352 604 680
360 616 724
360 632 780
360 648 820
388 676 884
436 720 928
348 628 252
352 640 264
356 640 288
356 644 324
368 644 364
368 652 420
364 656 460
376 664 520
380 680 584
388 676 632
392 676 676
400 684 716
396 680 748
408 692 800
412 704 844
428 736 884
480 772 928
404 716 328
404 716 332
416 716 356
408 716 384
420 716 416
420 720 464
424 728 516
428 732 560
432 736 608
432 744 660
436 744 700
440 748 740
452 748 772
452 760 816
460 764 852
480 784 896
528 820 940
464 780 400
464 784 412
468 784 432
468 788 456
480 788 484
476 784 524
484 792 568
484 800 604
484 804 648
492 808 700
496 816 740
492 808 776
504 804 800
500 812 836
512 820 876
532 836 908
572 864 948
536 844 504
536 848 504
536 844 512
536 840 524
540 848 556
548 848 596
544 852 628
544 852 652
536 860 684
544 860 728
548 864 764
548 868 808
560 864 840
556 856 856
568 864 892
588 880 928
628 900 956
608 896 588
616 896 600
616 900 612
612 900 616
608 892 632
616 896 660
616 900 684
612 904 708
604 904 740
604 904 768
612 904 808
616 912 836
620 912 860
616 908 884
632 908 904
644 916 936
680 940 976
692 936 688
688 936 692
684 936 692
688 940 708
688 940 716
688 936 732
684 940 748
684 944 768
680 940 792
664 940 804
672 944 828
676 948 856
684 948 880
688 952 908
688 952 924
700 948 944
740 972 980
756 968 764
756 964 772
756 964 772
756 964 780
756 968 788
752 968 804
748 968 808
748 964 828
740 968 840
724 972 848
732 972 860
736 972 884
736 980 904
748 976 924
748 976 948
756 976 964
780 984 980
60 20 0
60 24 20
72 28 32
76 44 56
92 48 92
88 64 136
100 84 204
96 100 256
96 124 328
92 152 392
84 180 472
64 212 548
48 252 632
68 296 708
144 348 792
248 424 868
364 512 924
72 40 8
76 48 24
84 56 44
96 64 64
104 76 100
112 88 152
120 108 212
120 120 272
124 148 340
120 168 404
116 192 484
96 228 560
84 264 644
100 304 720
156 360 796
256 432 868
376 524 928
88 76 4
92 80 24
100 88 44
120 100 76
132 108 108
144 116 160
148 136 208
152 152 280
156 172 344
152 192 416
144 216 484
136 248 564
124 280 636
132 324 716
180 376 800
268 440 872
388 536 924
108 120 12
116 124 24
132 128 52
140 132 88
160 144 128
168 156 176
172 172 228
184 188 288
188 208 356
184 232 424
184 256 496
176 288 576
156 308 640
164 352 728
212 400 804
292 472 872
392 548 924
140 172 16
148 180 36
156 184 60
160 192 112
172 192 156
192 208 200
200 220 252
208 232 308
216 256 376
216 272 428
216 300 508
208 324 580
200 352 660
212 388 736
236 428 804
300 492 872
404 572 928
168 240 24
176 244 48
188 252 80
192 256 124
200 268 184
208 268 224
216 280 284
232 288 336
244 300 396
248 324 444
256 344 524
244 368 580
240 392 664
236 428 732
260 460 800
316 520 868
412 596 924
208 324 52
212 324 76
216 320 108
220 332 160
228 336 212
232 352 264
244 348 320
252 356 372
264 368 420
272 380 476
272 396 536
276 412 600
272 440 672
268 468 736
280 500 804
332 556 872
420 628 928
236 400 84
240 400 116
248 404 140
252 412 188
268 412 244
268 424 296
272 436 356
276 436 412
292 436 468
300 444 520
300 452 560
296 468 620
300 488 680
292 512 744
308 548 808
332 592 872
404 648 920
272 480 140
280 480 156
284 484 184
292 488 220
296 488 272
304 504 332
300 512 392
308 516 448
312 516 496
320 516 548
328 524 600
328 532 652
328 552 700
324 564 752
332 592 808
356 628 872
404 680 932
316 556 188
320 556 208
324 564 232
328 568 268
332 572 312
336 576 368
340 592 428
344 600 488
344 600 540
352 592 588
360 600 628
364 604 684
364 616 732
368 632 776
372 648 820
392 676 876
440 724 932
360 628 248
360 636 264
364 640 288
368 648 324
376 652 368
376 652 416
372 664 468
380 664 520
380 680 580
384 680 632
396 672 676
400 676 712
404 680 752
408 692 792
416 712 844
436 736 888
480 772 928
412 712 324
408 712 332
416 720 356
416 720 388
420 720 424
420 724 472
432 732 520
432 732 560
436 740 612
432 752 668
440 752 708
452 748 744
456 752 780
456 752 816
464 768 856
484 792 904
528 820 940
472 784 404
472 784 416
472 784 428
480 788 460
480 788 488
484 788 528
484 792 564
488 796 604
492 800 652
484 808 692
492 816 740
500 812 780
508 812 804
508 816 840
512 820 872
528 832 908
576 868 956
544 844 496
536 848 504
540 848 516
540 844 532
548 848 560
548 852 592
544 848 620
544 856 656
548 860 692
548 864 732
552 864 776
556 872 812
560 864 836
564 860 856
572 868 888
592 880 928
628 904 960
612 900 588
620 900 604
608 900 600
612 900 616
608 892 632
620 896 660
612 900 684
616 900 716
604 904 740
608 908 768
612 908 800
616 912 836
620 916 864
620 912 888
628 904 904
648 916 940
684 936 976
688 936 688
688 940 688
692 936 704
692 936 708
696 940 724
688 940 724
684 940 748
684 944 772
680 940 792
676 948 808
672 944 832
676 948 856
684 948 880
688 952 904
692 952 924
700 948 944
736 968 976
756 968 764
756 964 772
756 968 772
756 964 780
756 972 784
752 968 796
748 968 808
748 968 828
740 968 836
736 972 848
732 976 864
736 972 884
740 976 908
748 980 920
748 976 952
756 980 964
780 984 976
92 24 8
96 24 16
96 32 36
108 40 60
104 52 96
116 68 140
120 80 200
120 104 264
128 128 332
124 156 400
120 180 468
104 212 548
100 244 632
120 300 712
176 352 792
264 424 868
384 520 928
108 40 12
108 48 20
116 52 44
120 64 68
128 76 108
140 92 156
136 104 208
148 128 280
144 144 344
148 168 412
140 200 484
132 228 564
120 268 644
140 312 724
184 364 796
280 436 872
388 524 928
124 76 12
132 80 24
132 84 44
136 96 72
156 108 116
160 120 168
168 140 228
168 156 288
172 176 356
168 196 420
168 220 488
156 256 576
156 288 648
164 328 732
208 376 800
284 452 876
400 536 928
136 124 16
152 124 28
160 132 52
164 140 92
180 152 136
184 160 180
192 180 236
196 196 292
200 212 364
200 232 432
196 264 504
192 280 572
184 316 648
196 352 720
224 400 800
304 476 872
416 552 924
168 176 16
176 184 36
180 192 64
188 192 108
192 200 160
212 212 204
220 224 260
224 232 304
228 256 376
228 280 436
228 300 508
228 332 584
224 356 656
228 388 728
252 436 804
320 500 876
408 572 920
196 248 28
204 252 52
208 260 96
216 264 132
220 264 184
232 268 232
240 280 292
248 296 340
256 304 400
268 332 460
264 344 524
256 372 596
256 400 668
260 436 744
288 476 812
336 528 876
416 592 924
220 316 52
232 320 72
232 328 112
244 340 156
256 344 212
252 348 268
264 352 324
272 356 376
280 364 424
284 380 472
288 404 532
288 420 600
280 440 668
284 472 736
300 504 804
340 556 868
428 624 920
260 400 88
264 408 116
272 408 148
276 408 188
280 412 244
288 424 300
288 436 360
300 436 416
308 440 464
312 448 516
312 456 568
316 472 624
312 492 680
312 512 744
312 548 804
344 588 872
428 656 928
296 480 140
296 476 160
304 480 188
304 492 228
312 500 284
312 500 332
316 508 396
324 520 460
332 520 508
336 524 552
344 528 604
344 532 652
340 552 704
344 568 756
344 592 812
368 632 880
416 676 924
332 560 192
332 560 200
340 564 232
344 568 268
344 572 308
348 580 368
356 592 424
352 596 488
360 600 544
364 596 584
376 604 628
376 608 680
372 612 724
380 628 776
380 652 824
400 680 880
444 720 932
372 636 252
380 640 268
376 644 292
384 644 324
384 652 364
388 652 412
392 664 464
400 672 528
400 684 580
404 676 628
404 668 668
412 676 708
416 688 752
416 692 800
428 712 844
444 740 888
488 772 932
416 708 324
424 712 336
424 720 360
428 720 384
432 724 428
440 732 472
440 728 512
440 740 564
444 740 616
448 748 664
448 752 704
464 748 748
456 752 780
468 760 820
468 772 860
488 788 904
532 824 944
480 784 404
488 784 412
480 780 424
488 784 456
492 792 492
492 792 532
500 792 568
496 800 612
496 796 644
496 808 696
500 816 744
508 808 776
512 812 812
520 816 844
512 820 876
536 840 912
584 864 944
552 848 500
548 848 508
552 848 516
552 844 536
560 848 568
552 852 592
560 852 628
552 856 660
552 856 692
552 860 728
552 860 768
560 864 800
568 868 840
572 868 856
580 872 892
596 884 924
628 900 960
612 896 592
620 900 600
616 900 604
624 900 620
620 900 644
624 900 664
624 904 688
612 896 708
616 904 744
608 908 768
616 904 796
628 912 840
624 916 864
628 912 880
636 908 904
652 920 944
688 936 968
696 940 692
700 936 692
696 936 704
692 940 704
692 936 720
692 944 728
696 940 748
688 940 768
688 944 796
672 944 804
680 948 836
684 948 860
692 952 884
696 952 912
692 952 924
700 948 944
736 968 972
756 968 772
760 964 772
756 968 772
760 968 784
760 968 784
760 972 796
756 972 812
752 972 828
748 972 840
740 972 852
732 976 864
736 976 888
744 980 912
752 976 924
752 972 948
756 980 960
788 984 980
136 28 8
136 28 16
140 28 32
144 40 68
140 52 108
156 72 152
156 88 208
164 108 268
164 132 340
164 156 404
160 184 476
156 212 556
156 252 636
172 300 716
216 352 788
296 428 868
412 520 928
144 48 4
144 56 24
152 60 44
156 68 76
168 80 116
168 92 160
172 108 216
176 124 280
180 152 356
180 172 412
176 200 488
172 228 564
172 268 644
184 308 712
228 368 796
312 440 872
