滤镜资源/vsco 137 3dl+cube/VSCO 137 3dl/VSCO P6 Instant.3dl
#Generated by Picture Instruments - Look Converter
3DMESH
Mesh 4 10
0 64 128 192 256 320 384 448 512 576 640 704 768 832 896 960 1023
188 92 72
184 88 88
192 88 116
188 92 148
192 92 204
184 92 288
188 92 396
192 88 488
188 92 596
192 88 680
188 96 752
188 92 808
192 92 856
184 96 892
192 92 912
188 92 940
188 88 956
184 116 68
188 116 92
196 112 112
192 116 148
196 112 192
188 112 276
188 112 380
200 116 488
188 112 596
196 112 672
192 116 744
192 116 816
196 112 856
192 112 900
196 112 920
192 112 940
188 112 964
192 136 72
188 140 92
196 136 112
188 140 148
196 136 200
192 140 276
188 140 388
196 136 488
188 140 596
196 140 676
192 144 748
192 136 808
200 136 868
192 140 900
192 136 920
188 140 940
188 136 952
192 180 72
192 176 96
192 172 112
188 176 152
192 172 200
196 172 296
192 172 392
196 176 500
188 176 592
200 172 676
188 176 752
192 176 820
196 172 864
188 176 900
200 172 924
188 176 940
188 176 960
192 212 72
188 216 88
192 212 104
188 216 148
196 208 192
192 212 276
192 212 384
192 212 484
192 220 596
196 216 676
188 212 744
188 212 812
196 212 860
192 216 896
196 208 920
192 216 940
192 216 960
192 272 72
192 272 84
196 272 112
188 276 152
192 268 200
188 268 284
192 268 376
196 268 480
188 268 592
200 268 672
192 272 752
192 272 820
196 268 856
188 272 892
200 268 920
188 268 940
188 268 960
188 344 72
192 344 92
196 344 116
188 348 152
192 344 200
192 348 288
188 344 384
196 348 496
188 348 604
196 336 676
192 348 752
192 348 820
196 340 868
192 352 900
200 344 924
188 344 944
188 344 952
188 440 72
188 440 84
196 436 104
188 436 144
192 440 192
192 440 276
192 440 380
196 436 480
192 440 588
196 436 668
192 436 744
188 440 812
196 440 856
188 436 888
196 440 920
192 444 944
188 436 952
196 540 72
192 536 92
196 536 108
188 540 148
192 532 200
188 540 284
188 544 380
200 536 484
188 532 588
196 536 672
192 536 752
192 536 820
196 540 864
188 536 892
200 536 920
192 540 948
188 540 960
192 632 76
188 640 88
200 636 108
192 640 152
192 636 196
192 636 280
188 636 384
196 632 488
188 636 588
196 636 684
196 636 752
188 640 816
192 636 860
192 640 896
196 636 924
196 628 940
188 636 956
196 720 76
192 728 92
196 728 112
188 728 148
196 728 204
188 728 296
188 724 384
192 728 488
188 732 596
192 728 680
196 728 764
188 736 824
196 716 860
188 724 896
196 724 920
196 728 944
188 728 956
192 804 76
192 808 92
196 808 112
188 808 144
192 808 196
196 804 280
192 804 384
192 804 488
188 808 592
196 804 668
192 804 748
188 804 816
192 808 864
192 808 900
196 800 920
192 808 940
188 804 956
192 860 76
192 864 92
192 856 112
184 864 148
192 860 200
192 860 280
192 860 388
192 860 484
188 864 592
192 864 676
192 860 756
192 864 820
196 860 864
188 864 900
200 860 924
192 860 944
192 860 956
192 904 80
192 904 96
192 900 112
188 904 148
196 900 204
192 900 296
188 900 396
192 900 492
188 904 596
196 896 672
196 900 756
188 900 816
196 900 868
192 904 900
196 896 920
196 900 948
188 900 956
196 924 80
192 932 88
192 928 108
184 928 152
192 928 200
196 928 284
188 932 380
196 928 484
188 932 592
192 928 668
196 928 756
188 928 812
196 928 864
188 932 896
200 928 924
192 928 944
192 928 960
192 944 76
188 948 80
196 944 112
192 948 148
196 944 200
196 944 288
188 944 376
196 940 480
188 944 592
196 944 672
192 944 752
188 948 816
196 944 860
188 948 896
196 944 920
192 944 944
188 944 956
192 952 76
188 956 84
196 952 112
192 956 148
196 956 200
196 952 288
188 956 388
196 952 496
192 956 600
196 952 676
192 952 748
188 956 816
196 952 856
188 956 896
192 956 920
196 952 944
188 952 956
216 92 72
208 92 92
220 88 116
216 88 152
220 88 204
216 88 284
220 88 388
212 92 492
220 88 596
216 92 672
216 92 744
212 92 812
212 96 860
216 92 896
212 92 916
220 88 948
216 88 956
220 116 68
216 112 92
208 116 112
216 116 148
212 112 200
216 116 296
216 116 396
220 116 500
216 112 596
220 112 680
220 112 760
220 112 824
220 112 864
216 112 900
212 116 924
216 112 948
216 112 964
216 140 72
216 136 84
216 140 116
216 144 152
220 140 196
216 140 280
220 136 380
220 140 488
220 136 596
220 140 680
212 140 748
216 136 812
216 140 860
224 140 896
216 136 924
220 136 948
216 136 956
216 180 72
216 172 96
220 176 116
220 176 152
220 172 204
216 172 280
216 176 380
212 176 492
216 172 596
216 176 676
216 180 752
216 176 816
220 176 864
220 172 900
220 176 924
216 172 944
216 172 956
216 216 68
220 216 88
220 212 108
216 212 148
216 208 200
216 216 280
216 212 388
220 216 504
216 220 600
220 216 680
220 216 752
216 212 816
216 216 864
220 216 896
216 212 924
216 216 944
216 216 960
220 268 68
216 272 88
216 276 112
220 272 148
216 268 204
220 268 280
216 268 380
216 268 484
216 268 588
220 272 668
216 272 748
216 272 816
216 272 860
220 272 892
216 272 924
220 268 944
216 268 960
216 348 72
220 348 92
220 348 112
212 348 152
216 344 200
216 348 280
220 348 384
216 344 484
216 344 588
216 348 680
220 348 748
216 348 816
216 344 864
212 348 896
216 348 924
220 348 944
216 348 956
216 440 68
220 440 92
216 436 112
216 440 148
216 440 204
220 436 284
220 436 388
216 440 492
216 436 604
220 440 688
216 432 748
212 440 816
220 440 868
220 440 900
216 444 924
216 436 948
216 436 952
224 536 72
216 536 88
216 540 108
220 540 144
216 536 196
216 540 280
216 536 380
220 540 488
220 540 592
216 540 668
220 536 752
216 540 816
216 536 860
220 536 896
216 540 920
212 544 944
216 544 960
216 636 68
220 640 88
220 640 112
212 636 144
216 640 196
220 636 276
220 640 388
216 640 488
216 636 592
216 628 676
212 636 748
220 640 816
216 640 864
220 644 900
212 640 916
216 636 944
216 636 960
216 724 72
216 728 92
220 728 116
220 728 148
216 732 200
216 732 284
216 732 392
212 732 492
220 728 596
216 732 676
220 732 768
216 728 820
220 732 868
224 728 904
216 728 924
220 732 948
216 732 952
216 808 72
216 804 92
212 808 108
216 804 148
220 804 204
216 804 284
216 804 392
220 804 492
212 808 592
216 804 676
216 808 760
220 808 824
216 808 864
216 804 900
216 804 924
216 808 944
216 804 956
220 860 68
216 864 88
220 864 116
220 864 152
220 864 196
216 864 276
216 864 380
216 860 492
220 860 596
216 860 676
212 860 744
212 860 812
216 864 864
216 864 896
220 864 924
216 860 948
212 860 956
216 904 68
216 896 92
220 900 108
216 900 148
220 904 196
216 904 276
216 904 376
212 904 492
220 900 592
216 900 676
216 908 752
220 904 820
216 904 864
220 900 900
220 904 928
220 900 940
216 900 956
212 932 72
220 932 88
212 932 112
220 928 156
220 928 204
216 932 280
220 932 392
220 932 504
216 932 592
216 932 680
220 928 756
216 928 816
216 932 868
220 928 900
220 932 932
212 932 944
212 932 960
220 948 72
216 948 84
208 948 108
216 948 152
216 944 200
224 948 280
216 944 380
216 944 484
216 944 588
216 948 680
212 948 748
220 948 816
212 948 856
216 948 896
216 948 924
220 948 948
216 948 960
216 956 68
212 956 84
212 956 108
216 956 152
220 956 200
216 956 284
220 956 384
220 952 492
224 952 596
216 956 680
212 956 748
220 956 816
212 960 860
216 956 896
216 956 924
220 956 948
216 956 952
244 92 72
248 92 88
252 92 116
252 92 156
244 92 200
248 88 276
248 88 372
244 92 492
252 88 588
252 92 680
248 92 744
244 92 804
244 96 856
248 92 888
248 96 920
244 88 944
244 88 956
252 112 72
244 116 84
244 116 112
248 112 148
248 116 204
252 112 284
248 116 384
252 112 496
248 116 596
252 112 680
248 112 752
252 112 812
244 112 864
252 116 896
244 116 924
252 116 948
252 112 956
244 136 72
252 136 92
252 140 116
244 136 148
252 136 200
252 140 288
252 140 392
252 140 504
256 140 600
248 132 676
248 140 752
252 140 824
248 140 864
252 136 896
252 136 932
252 136 944
248 136 956
244 172 68
248 176 84
252 172 116
252 176 152
252 176 204
248 176 280
248 172 376
248 172 484
252 176 596
248 176 680
248 180 756
248 176 816
252 172 864
252 172 892
248 176 920
252 176 948
248 176 956
248 216 72
252 216 92
248 216 116
252 216 144
252 212 200
252 216 284
252 216 384
248 212 488
244 216 592
248 216 676
252 212 752
248 216 816
252 216 868
248 208 892
248 208 928
252 216 948
248 216 948
252 268 72
248 268 88
248 276 116
248 272 148
248 268 204
252 264 280
252 272 384
252 268 500
252 268 596
252 272 692
248 268 748
248 272 816
244 268 868
248 268 892
248 268 924
248 264 944
248 268 952
248 348 72
248 344 88
252 344 112
244 348 148
252 348 204
248 348 280
252 340 380
248 348 488
248 348 596
248 348 672
252 352 752
252 348 820
256 344 868
244 344 896
248 344 924
252 348 944
248 344 956
248 436 68
252 444 88
252 440 112
248 440 144
248 436 208
256 440 284
252 436 384
252 440 496
248 436 588
252 440 672
248 440 752
252 440 812
252 440 864
248 440 892
244 436 924
248 436 948
248 436 956
252 536 72
252 540 92
252 536 112
248 536 148
252 536 208
248 540 280
248 540 384
248 536 496
252 540 592
252 540 688
248 540 760
248 528 816
252 540 868
252 536 900
252 540 928
248 544 948
244 536 952
252 640 68
248 636 80
248 640 108
248 640 144
244 640 196
252 636 276
248 640 380
244 636 488
252 640 588
252 636 676
248 640 744
248 640 812
248 636 860
248 636 896
248 636 924
252 640 948
248 636 956
248 728 72
252 732 88
256 728 116
252 732 152
248 732 200
248 728 280
248 728 380
248 736 496
248 736 592
252 732 676
248 724 752
248 728 812
248 728 868
252 732 896
252 732 924
244 732 944
244 732 960
252 804 72
244 804 84
244 804 112
252 808 148
248 804 204
252 808 288
248 804 384
252 808 496
244 808 592
252 808 676
252 804 756
248 808 820
248 808 864
252 804 896
248 808 924
248 804 948
248 804 960
252 860 72
248 860 84
252 860 116
244 864 152
248 860 200
252 864 288
252 864 392
252 860 504
252 864 596
248 860 680
252 860 752
248 860 820
248 860 864
248 868 896
248 860 928
252 864 948
248 864 956
244 900 72
248 900 88
256 900 112
252 904 152
248 908 204
248 900 280
248 900 376
244 900 488
248 900 592
252 904 680
248 904 752
244 900 812
248 900 864
252 900 896
256 908 928
248 904 948
248 904 956
248 932 72
248 932 84
248 932 120
252 932 148
248 928 204
248 932 284
252 932 388
252 932 488
244 928 592
248 932 680
252 928 756
248 932 820
248 928 868
252 928 900
248 928 928
252 932 948
248 932 952
252 948 72
248 952 88
248 948 112
248 948 148
248 948 204
248 948 280
248 948 384
252 944 500
248 948 600
248 944 680
252 948 756
252 944 816
244 944 864
252 948 896
248 944 928
252 944 944
248 944 952
248 956 72
248 956 88
248 956 112
248 960 148
248 960 204
248 952 284
256 956 400
252 956 512
248 956 600
252 956 684
248 960 756
244 956 812
248 956 864
252 960 896
248 956 928
252 956 944
252 956 952
284 92 68
288 92 88
284 88 108
280 92 148
280 88 192
288 92 276
288 88 380
280 92 488
284 92 592
288 88 672
280 92 736
280 92 804
284 96 852
284 96 888
276 92 916
284 92 944
284 92 960
284 116 68
284 116 88
284 116 116
288 112 148
288 112 200
284 112 276
284 112 380
284 112 480
280 112 596
288 116 676
284 116 752
284 116 816
284 112 856
288 112 892
288 112 924
292 116 952
