滤镜资源/vsco 137 3dl+cube/VSCO 137 3dl/VSCO H1 Polychrome.3dl
#Generated by Picture Instruments - Look Converter
3DMESH
Mesh 4 10
0 64 128 192 256 320 384 448 512 576 640 704 768 832 896 960 1023
64 64 120
72 76 144
84 92 172
84 108 228
100 128 288
96 160 356
108 184 440
120 216 508
124 256 588
140 288 660
144 332 704
156 368 756
172 408 792
180 444 832
204 472 848
224 508 860
232 532 860
68 88 128
64 100 144
84 112 180
80 132 224
96 152 276
96 188 348
104 224 428
124 260 504
120 296 580
140 332 644
148 368 704
156 412 756
172 444 792
180 480 836
200 500 848
220 536 856
232 556 864
76 116 136
68 140 148
76 144 180
76 172 228
92 196 284
96 224 356
104 268 436
112 304 508
120 348 580
136 380 648
144 420 700
148 452 748
172 480 788
176 516 832
196 536 844
212 568 848
224 588 864
72 164 132
72 188 160
76 204 180
72 216 228
88 248 300
88 280 376
92 316 452
112 356 524
112 388 592
128 424 648
140 464 708
144 492 748
168 520 792
168 548 828
196 572 844
208 596 852
216 616 860
80 216 148
76 248 160
84 272 180
84 292 236
84 300 288
88 336 380
92 372 460
104 400 528
104 440 604
128 472 664
128 496 712
140 528 760
160 552 796
164 576 828
184 596 848
192 624 860
216 648 860
76 292 144
80 312 160
80 348 188
80 368 236
84 380 300
84 400 372
88 428 460
100 452 540
100 488 612
120 508 668
124 536 720
132 564 768
148 584 796
152 612 824
172 632 848
188 652 860
196 676 864
84 352 152
80 388 172
88 416 200
80 440 240
92 452 304
88 464 376
84 480 456
96 504 544
96 528 620
112 544 676
116 572 728
120 596 772
136 616 804
144 648 836
160 656 848
172 680 864
184 696 864
84 420 156
84 452 176
88 480 200
80 508 244
92 520 304
88 524 380
84 540 456
92 544 524
92 568 608
108 588 676
108 612 732
116 632 776
128 648 808
132 676 832
148 692 848
160 716 860
168 728 872
88 480 164
84 504 176
92 528 208
88 552 252
92 564 304
88 580 380
88 592 460
96 596 528
92 604 600
100 620 664
100 648 732
108 664 776
116 684 812
124 712 840
136 728 852
152 744 868
164 760 868
92 532 168
88 556 192
92 576 216
84 604 264
96 616 312
88 624 388
88 640 460
96 644 528
92 652 596
96 664 668
96 684 724
100 708 772
112 720 816
112 744 840
132 764 860
144 776 864
144 796 876
92 576 176
92 600 196
96 612 220
88 644 268
96 664 316
92 676 392
88 688 460
96 692 528
92 700 600
100 716 664
100 724 720
100 744 768
112 756 808
104 780 840
120 796 860
128 812 864
140 820 868
96 620 180
88 640 200
92 668 228
92 684 280
92 708 320
88 720 384
88 736 460
96 736 532
92 748 596
96 760 660
96 772 716
92 776 752
104 796 808
104 812 836
112 824 860
120 836 872
128 844 872
100 668 184
96 684 208
96 704 240
88 728 280
92 744 328
88 764 384
88 784 460
96 784 532
84 800 596
96 808 660
96 816 716
92 824 760
100 824 800
100 848 832
108 856 864
116 868 872
116 872 876
96 712 196
96 732 212
96 744 244
88 776 288
92 792 328
96 812 396
84 824 460
96 832 532
92 844 604
100 848 664
96 856 720
88 868 764
100 872 796
92 884 832
108 884 860
112 896 868
112 904 868
96 752 200
96 776 220
96 792 248
92 816 304
96 820 340
88 844 396
88 856 460
88 864 528
88 876 600
96 876 656
100 884 716
92 888 756
100 888 796
96 904 832
96 904 860
104 912 868
104 912 872
100 800 204
92 812 224
96 828 268
88 848 304
100 860 352
92 872 412
88 884 464
96 888 528
88 896 604
96 892 668
92 900 720
92 908 760
100 908 792
96 912 832
100 908 856
100 916 868
100 920 868
100 824 208
92 844 232
96 856 264
88 872 312
96 880 356
96 888 420
88 904 472
100 904 536
88 908 608
100 908 668
92 908 716
92 916 760
100 916 792
96 920 832
100 916 856
108 916 864
104 920 864
84 68 120
80 72 136
88 80 168
92 100 216
104 116 276
112 136 352
112 156 428
124 188 508
132 216 588
144 252 652
144 288 704
160 328 752
172 360 796
180 404 836
200 440 852
224 472 860
232 496 860
80 92 116
88 96 144
88 108 172
100 136 220
112 156 284
124 184 356
136 220 432
148 256 520
156 292 584
168 328 652
180 376 708
196 412 756
208 444 800
220 472 836
240 508 848
264 532 860
288 560 860
76 116 124
88 128 144
92 140 180
100 168 224
108 188 280
116 224 348
124 260 424
140 300 500
156 344 576
160 384 644
172 412 700
188 452 748
216 484 792
220 516 824
240 540 848
260 564 860
280 588 860
84 160 136
88 172 156
92 200 180
100 208 228
104 240 296
112 272 360
120 308 440
136 348 512
148 388 588
160 424 644
180 460 700
184 492 752
200 516 796
216 544 824
232 572 840
256 600 860
276 608 868
84 208 132
96 236 160
100 264 188
96 276 232
100 292 292
112 328 376
116 368 456
132 396 532
140 436 600
152 468 656
172 492 712
176 524 752
196 556 796
212 580 824
232 600 844
248 624 856
268 640 860
80 272 132
100 296 164
96 336 192
104 356 232
108 376 296
108 380 364
112 416 452
116 448 528
136 476 604
140 504 664
152 536 720
164 556 760
176 584 796
200 608 828
216 628 848
240 656 860
252 668 864
84 344 136
100 368 176
108 396 196
104 428 240
108 444 296
108 456 368
104 472 444
112 500 528
120 520 604
132 548 680
144 564 728
156 592 768
172 612 800
180 636 828
200 656 848
224 680 864
248 696 864
88 404 144
104 436 180
112 464 212
104 488 244
104 504 304
108 516 368
116 532 456
116 544 528
124 564 616
128 584 680
132 608 724
144 624 776
160 644 808
168 668 836
188 696 852
208 712 868
224 728 868
84 464 144
112 492 184
108 512 216
112 544 256
112 560 308
112 576 380
112 580 448
112 588 520
112 600 596
120 624 672
128 640 728
136 660 776
140 680 804
156 704 832
172 724 852
192 748 864
212 764 864
92 520 152
112 540 200
116 564 228
108 584 264
108 604 308
112 624 376
112 636 460
112 640 524
112 648 592
116 660 660
124 680 724
128 700 772
140 716 808
148 740 840
152 760 860
184 776 872
200 796 872
88 560 152
116 588 204
120 612 240
112 628 272
112 652 320
112 668 384
116 680 452
112 692 528
120 700 600
116 708 660
120 720 724
120 740 772
132 752 804
136 772 840
148 792 860
168 808 868
176 816 868
96 612 156
112 628 204
116 656 240
120 672 284
112 700 336
116 720 388
112 728 460
112 736 524
116 748 596
116 756 660
116 768 716
124 780 764
124 792 804
132 804 840
140 820 860
152 832 868
172 840 872
96 652 160
116 676 208
116 692 252
120 724 288
116 736 336
116 764 388
112 772 456
112 784 528
116 796 600
112 800 656
112 808 708
120 816 760
120 824 792
128 840 832
128 852 864
140 860 864
148 868 876
96 692 168
120 724 224
120 736 260
120 764 304
120 780 340
112 800 400
112 820 456
112 832 532
116 836 596
120 844 660
116 860 712
120 864 768
120 868 800
120 880 828
124 892 860
132 896 868
148 896 868
96 740 168
120 768 236
120 784 264
120 804 308
120 820 356
120 836 404
112 856 468
116 864 536
116 872 596
116 872 656
120 880 716
124 884 760
124 888 800
124 896 832
128 904 864
132 912 872
136 912 872
100 784 176
124 808 232
124 828 276
124 840 312
124 856 368
120 864 416
116 876 468
112 892 536
116 892 592
120 904 668
120 900 716
124 904 760
120 904 792
120 912 832
132 916 856
128 920 872
132 916 872
96 816 180
120 832 240
124 856 280
124 868 320
120 880 368
120 884 416
116 900 476
116 908 536
120 908 600
120 912 668
120 916 716
124 912 760
124 920 792
120 920 832
128 920 856
128 920 864
132 920 868
104 76 128
108 72 144
108 72 164
116 88 200
124 108 264
132 124 336
140 148 408
144 172 500
156 200 576
168 228 640
176 264 692
188 304 744
200 340 792
224 376 824
232 416 844
252 444 856
268 468 864
112 100 124
112 96 140
112 104 168
124 116 212
128 136 272
136 172 348
148 200 432
160 228 508
168 260 580
184 292 652
192 332 708
212 368 760
224 408 800
244 440 836
252 472 844
280 500 856
296 528 860
112 120 128
116 128 148
124 132 180
124 160 220
140 192 280
156 224 352
168 260 436
180 296 516
204 340 588
208 380 648
232 416 716
252 452 760
268 480 796
280 512 828
304 532 852
324 564 860
344 588 868
100 152 136
112 164 144
120 180 176
124 204 224
136 232 280
148 264 348
164 300 424
176 340 504
196 380 572
212 424 652
228 460 700
240 488 744
260 520 792
280 544 824
296 572 848
324 592 852
344 608 860
100 200 132
112 224 152
124 244 188
128 268 232
136 288 284
140 316 368
152 352 436
168 384 504
180 428 584
204 464 644
224 496 704
236 528 748
256 552 788
272 572 816
292 596 848
316 624 852
340 636 864
104 260 136
116 280 164
132 320 200
136 348 232
132 360 288
140 372 360
144 408 448
160 448 532
180 472 596
188 508 664
208 532 712
224 552 752
244 576 792
264 600 824
292 632 844
312 652 860
328 664 864
100 328 136
108 348 156
136 380 208
132 416 240
140 432 296
140 452 364
144 460 436
152 492 528
160 516 596
180 540 664
196 564 716
208 588 764
232 608 796
240 632 828
264 660 848
288 676 860
324 700 864
100 388 140
112 420 164
144 448 220
140 472 248
140 500 300
140 512 372
152 520 444
148 532 524
156 556 596
168 580 664
176 596 728
196 620 764
212 644 804
232 664 828
248 688 852
268 708 860
300 724 860
104 456 144
112 472 164
148 504 232
148 524 264
144 552 308
144 568 376
144 572 444
152 588 524
152 592 596
156 620 672
172 640 732
184 652 768
192 676 800
216 700 836
232 720 856
260 748 868
272 760 868
100 516 144
112 528 172
148 552 232
148 572 272
148 596 320
144 612 372
148 624 444
152 636 520
152 644 592
152 648 656
160 676 720
168 692 772
184 716 808
188 736 828
212 756 860
240 776 868
272 784 872
100 560 148
116 572 176
148 600 240
152 616 280
144 636 324
148 660 384
148 672 448
148 684 528
148 692 588
152 704 664
160 712 708
160 728 760
176 752 808
188 768 836
200 792 856
224 796 868
248 812 868
100 600 148
120 616 184
148 636 244
152 660 288
156 684 340
148 704 388
148 720 448
148 732 524
152 744 596
152 752 656
152 760 716
160 772 756
164 784 804
172 796 832
188 812 856
208 824 868
228 836 872
100 644 152
120 660 188
156 684 268
152 704 296
152 724 340
148 752 392
148 772 456
152 784 536
152 792 592
152 800 656
152 808 712
160 816 752
164 828 804
168 840 836
180 848 864
196 860 876
204 860 876
96 688 156
124 700 192
152 732 268
160 752 312
160 772 348
148 788 400
152 812 460
152 824 528
148 836 592
156 844 660
156 852 708
160 856 760
156 868 796
164 876 828
164 884 860
184 892 872
196 892 872
96 728 148
124 748 200
156 776 276
164 792 316
160 812 368
156 832 412
152 844 464
148 860 528
152 864 600
156 872 660
152 876 716
160 884 760
164 888 800
160 892 832
164 896 860
172 904 868
188 904 872
100 776 156
128 788 216
164 816 292
160 832 324
160 844 368
160 864 428
160 872 476
148 888 540
152 892 604
152 896 664
156 896 712
160 904 756
160 904 800
168 908 824
168 908 860
168 912 872
176 912 872
96 804 160
128 824 220
160 848 296
164 864 332
160 872 376
160 880 428
160 896 488
152 904 544
156 912 604
156 912 664
160 916 712
160 912 756
160 916 800
168 916 824
168 916 860
176 912 868
176 912 868
152 80 128
148 76 144
144 84 164
140 84 192
156 100 252
164 116 320
176 136 388
192 156 472
196 184 560
212 212 620
220 248 684
228 284 736
244 316 780
260 352 820
272 388 840
300 420 860
316 452 864
152 104 128
152 104 144
148 104 176
152 112 208
164 128 252
172 152 324
184 180 404
196 204 488
208 240 572
220 272 636
240 312 700
244 340 748
256 380 784
276 420 824
300 448 844
316 484 860
