滤镜资源/vsco 137 3dl+cube/VSCO 137 3dl/VSCO P9 Instant.3dl
#Generated by Picture Instruments - Look Converter
3DMESH
Mesh 4 10
0 64 128 192 256 320 384 448 512 576 640 704 768 832 896 960 1023
116 120 140
116 120 144
116 120 144
116 124 168
120 128 172
120 136 200
136 144 228
152 160 264
168 176 308
200 200 360
232 228 420
276 280 488
344 324 536
444 400 584
552 488 612
668 588 640
756 680 648
116 120 144
116 124 144
120 124 148
116 132 168
132 136 176
132 148 204
152 164 240
168 172 268
184 196 320
212 212 368
240 248 424
292 292 492
364 352 544
468 428 592
560 500 612
668 588 640
760 684 644
116 128 148
120 132 152
124 128 152
124 140 176
136 148 188
144 160 208
164 172 244
188 196 272
204 216 328
236 240 376
268 280 440
308 316 492
380 372 548
472 444 592
568 520 616
676 608 636
760 684 640
120 148 148
124 148 156
140 148 160
140 160 172
152 164 192
160 180 216
176 196 252
204 228 288
228 244 332
260 280 380
288 316 440
344 364 504
416 416 548
484 476 588
584 548 612
680 624 636
764 704 644
140 168 156
144 180 168
160 176 164
164 184 188
168 188 192
176 204 216
184 228 256
200 248 284
220 276 332
260 308 376
296 340 428
344 384 484
404 428 528
480 484 576
556 544 600
652 612 624
740 696 632
152 208 164
164 208 176
180 212 176
192 224 196
200 232 204
200 240 232
208 264 260
216 288 292
220 316 336
260 352 392
308 396 440
360 444 496
432 492 536
500 544 576
608 604 604
700 672 624
780 732 632
184 256 176
184 260 180
204 264 184
220 280 204
236 288 216
236 300 244
236 320 272
248 356 312
252 380 352
264 404 392
296 448 444
352 492 496
420 536 536
504 588 576
588 628 604
696 688 624
768 744 628
204 336 188
204 332 184
220 344 192
236 352 216
280 376 232
280 376 256
288 388 284
292 416 316
300 436 360
308 464 392
312 496 440
328 532 488
400 572 524
468 608 572
556 648 596
652 696 624
740 748 628
224 420 192
232 420 196
248 424 200
268 436 220
308 448 236
340 464 272
348 476 296
352 476 324
352 496 368
360 524 404
368 552 448
376 580 496
396 612 532
448 640 560
536 672 592
624 712 616
724 756 636
256 496 192
260 500 196
276 504 196
300 516 224
328 520 236
392 528 280
396 532 304
396 536 328
396 544 360
400 560 400
400 580 440
408 604 472
416 628 512
424 656 544
464 684 580
560 716 608
656 752 624
304 568 200
320 580 204
340 588 212
360 592 228
392 608 248
432 612 292
472 616 324
488 624 352
484 636 384
488 640 416
496 664 460
500 680 500
504 692 532
520 720 568
560 740 592
604 768 616
684 796 636
404 676 220
408 676 216
428 680 232
436 680 248
460 684 268
488 692 296
540 704 348
560 708 376
556 704 408
560 712 440
564 708 468
560 724 496
580 744 536
584 760 568
604 768 584
648 796 612
708 820 632
492 740 244
492 744 240
504 748 256
516 744 276
536 748 300
544 748 320
576 760 360
624 760 400
628 760 424
632 764 456
624 772 484
624 772 512
632 780 532
640 788 564
668 804 580
704 820 612
748 848 632
584 800 288
580 796 292
592 796 300
592 800 320
608 800 336
628 800 360
644 808 384
676 804 424
692 804 452
692 808 468
684 812 496
688 812 524
696 816 544
700 824 568
720 840 588
744 856 612
788 872 624
648 840 336
656 844 348
664 844 360
668 840 368
664 836 368
676 844 396
684 844 408
700 844 432
736 840 468
728 840 480
724 844 504
728 848 524
728 848 544
728 852 568
744 860 588
768 872 604
804 892 628
752 888 428
748 888 428
756 892 436
760 888 444
764 888 452
776 888 468
772 888 472
780 888 484
792 892 508
804 888 524
808 892 536
804 896 556
808 900 564
804 900 576
812 900 596
820 904 616
852 924 640
816 920 496
816 920 492
816 920 496
820 924 504
824 924 508
828 920 520
820 920 528
832 920 528
832 920 536
848 924 552
844 916 560
848 920 564
844 928 572
840 928 584
848 928 600
852 928 620
876 940 640
116 120 144
116 120 144
112 120 148
116 124 168
124 128 180
132 136 200
148 152 236
164 160 264
184 184 312
208 208 368
248 240 428
292 276 484
372 336 548
460 408 588
560 492 612
668 588 632
752 672 644
116 120 144
120 124 144
116 124 152
120 132 168
128 136 184
140 144 208
156 160 240
176 176 272
192 196 324
220 220 372
252 256 436
308 304 500
380 356 556
468 420 588
572 504 620
680 600 640
764 688 648
120 132 148
124 132 152
128 132 156
128 144 180
144 152 192
160 160 212
172 180 244
192 192 276
212 212 328
240 244 380
268 272 432
320 316 492
396 376 548
476 440 592
584 520 616
680 604 636
772 692 644
124 152 148
136 152 156
148 152 168
148 160 176
156 172 196
168 180 224
180 196 248
212 220 292
236 248 332
264 276 388
296 320 440
348 364 500
412 404 552
492 476 596
588 544 616
692 628 632
764 696 640
136 168 160
152 180 172
164 180 176
168 184 188
176 196 208
180 208 232
192 232 260
212 252 296
240 288 344
276 320 392
316 356 436
376 404 500
444 460 552
520 516 584
600 576 612
684 644 624
772 716 636
164 208 172
172 212 172
184 220 188
196 228 200
204 232 212
208 240 236
216 264 264
224 296 300
236 320 340
272 356 388
316 396 444
364 436 492
428 484 536
508 540 576
596 592 608
684 652 620
764 724 636
180 264 180
188 264 184
204 272 192
220 280 204
244 292 228
248 300 244
248 320 276
256 352 308
260 380 348
268 408 396
312 448 440
360 492 496
432 536 540
508 580 576
592 628 600
700 684 628
780 752 640
204 332 184
216 340 192
228 344 200
248 360 216
284 372 236
292 384 264
296 392 288
300 412 328
312 444 360
316 472 404
332 496 448
344 536 496
408 576 540
484 612 572
580 652 604
668 692 620
748 752 628
232 420 192
236 424 196
252 428 208
276 436 216
300 452 236
352 468 268
348 476 296
360 480 324
364 504 368
372 524 408
380 556 448
384 584 492
400 612 524
460 648 560
540 676 592
628 716 620
724 756 636
268 512 196
276 512 200
292 516 208
312 524 220
336 536 244
408 544 284
420 552 316
428 564 344
428 564 376
432 584 416
440 604 452
444 636 492
456 656 532
468 684 564
504 700 588
600 736 612
708 776 636
320 580 196
332 584 204
352 596 216
364 596 228
396 612 260
428 616 288
484 620 328
488 624 356
484 632 380
488 636 416
488 656 456
492 672 488
500 696 528
512 712 556
532 732 584
572 760 608
668 780 624
404 672 208
408 668 216
428 672 232
444 684 252
468 684 276
492 696 308
544 696 348
556 696 380
560 708 412
564 712 440
564 712 472
572 732 508
584 748 532
580 756 564
604 772 588
656 796 616
708 820 632
500 748 240
508 744 252
504 748 256
532 748 284
536 748 304
556 756 324
576 756 356
632 764 404
632 760 428
628 768 456
624 772 484
632 768 508
640 780 540
652 796 572
672 812 592
700 820 612
752 852 636
584 800 292
584 800 296
596 800 304
600 800 320
616 800 336
628 804 364
640 804 380
676 812 424
696 808 452
696 816 476
700 816 500
700 820 524
692 820 544
708 828 568
724 836 592
752 852 612
792 872 628
672 848 356
676 852 360
672 844 364
684 844 376
688 848 388
700 848 412
708 852 428
732 852 456
748 852 480
756 852 496
756 856 516
748 860 532
756 860 556
756 868 576
764 868 592
788 880 608
812 900 632
748 888 428
748 888 432
760 888 436
764 892 448
764 888 456
764 888 464
776 888 476
780 888 484
788 888 504
804 888 528
800 888 528
800 892 552
796 900 560
800 896 572
804 896 592
816 904 608
836 912 628
816 920 492
816 920 492
820 924 504
824 924 504
824 924 512
824 916 520
836 920 528
836 920 528
836 924 540
852 920 552
856 928 560
852 924 564
852 924 572
848 932 584
852 932 604
852 928 616
876 940 640
128 124 148
128 120 144
132 128 152
136 128 160
140 128 176
148 144 200
160 152 224
180 168 268
208 192 316
244 216 376
276 244 424
328 288 484
400 348 544
504 424 588
596 504 620
684 596 640
776 692 640
124 124 144
128 120 144
132 132 156
144 136 168
152 136 184
160 156 212
172 164 236
192 180 280
216 200 324
248 220 376
280 252 440
344 304 500
412 356 552
500 432 596
588 512 620
688 604 632
768 688 636
132 132 144
140 136 152
140 140 164
148 140 172
164 148 192
168 164 212
192 172 240
208 200 280
236 216 332
260 240 384
296 272 436
352 320 508
428 380 556
516 452 596
592 524 616
700 616 636
776 696 640
132 152 152
144 152 156
156 152 160
168 164 180
168 176 192
184 188 220
208 204 256
224 224 288
252 248 336
284 276 392
320 316 444
364 356 500
428 408 548
516 472 584
596 540 616
700 628 628
776 708 636
152 172 160
164 180 168
172 184 172
188 192 192
192 200 208
196 212 232
208 236 264
232 248 300
264 284 348
300 320 392
344 360 448
400 408 504
464 464 552
528 508 584
612 572 612
704 656 628
772 716 632
172 212 168
184 212 168
196 224 192
212 232 200
212 236 212
224 252 240
236 276 268
244 300 304
264 332 348
304 364 400
348 404 452
404 452 496
468 504 548
552 556 580
628 612 612
708 672 632
776 732 636
192 264 176
204 264 188
212 272 196
236 288 204
256 300 228
264 304 248
264 320 272
272 356 312
284 384 348
292 412 396
336 448 440
388 500 500
452 528 536
520 576 572
604 628 604
696 680 620
776 744 632
220 340 184
228 348 192
240 356 196
256 356 208
292 372 232
308 388 268
320 396 292
316 420 328
328 444 364
340 468 400
348 504 448
372 536 488
436 576 540
512 616 568
588 652 600
676 696 620
780 760 636
244 428 192
256 428 192
268 436 204
292 440 216
320 460 240
364 472 276
376 476 296
380 488 336
384 512 372
392 532 412
400 564 452
400 584 496
420 620 528
484 648 572
560 680 600
664 720 624
736 756 632
288 520 196
296 516 200
308 520 208
328 528 228
348 532 248
408 544 276
440 560 316
440 564 348
440 572 376
448 592 420
456 612 456
460 632 496
468 656 528
488 680 560
532 708 592
624 736 616
720 772 636
348 596 204
352 600 208
364 600 216
388 612 236
408 612 256
440 624 284
508 628 328
512 640 364
508 648 396
508 644 424
504 660 464
516 680 496
520 704 532
544 720 564
568 744 592
604 764 616
700 800 628
416 668 212
424 664 220
440 672 236
456 684 252
480 688 272
504 696 304
544 696 340
568 704 380
568 704 404
568 712 440
572 712 472
572 724 504
576 740 528
584 748 556
608 768 584
644 792 612
704 816 628
512 744 244
516 748 256
512 748 260
528 752 276
552 756 304
568 760 328
596 760 364
636 768 404
636 760 428
636 768 460
636 772 488
636 780 516
648 780 540
664 796 568
676 804 592
704 828 608
756 852 628
596 804 296
596 800 296
604 800 304
612 808 328
628 808 348
636 804 360
652 808 388
676 812 424
704 808 456
704 812 480
700 816 500
708 816 524
704 820 548
712 824 564
728 840 588
760 856 608
796 872 632
680 848 360
684 852 364
684 852 368
696 848 384
704 848 396
708 852 412
720 852 436
728 844 448
760 852 484
764 852 500
760 856 520
760 860 540
768 864 560
760 868 576
776 872 588
796 884 612
824 900 636
756 892 432
764 892 440
768 888 444
768 888 448
772 892 460
772 892 464
784 888 480
788 888 492
800 896 512
812 892 532
812 896 536
812 900 556
812 900 568
816 900 584
816 904 596
828 908 612
848 920 632
816 924 492
820 920 496
828 920 504
824 924 504
824 920 512
832 920 516
832 920 532
832 920 528
832 920 536
848 924 548
848 924 556
844 924 560
840 924 572
836 924 584
836 920 596
848 924 612
876 940 640
144 120 144
140 120 144
144 120 148
148 136 164
164 140 176
180 148 204
204 156 228
220 172 268
252 196 320
280 216 376
320 256 428
376 296 496
456 352 544
544 432 584
616 512 612
712 608 632
788 700 640
144 128 148
152 124 144
152 136 156
156 136 168
172 144 188
188 156 204
212 164 236
228 184 268
260 204 328
288 232 380
336 264 440
384 304 496
456 360 552
536 440 596
628 524 616
720 616 636
