滤镜资源/vsco 137 3dl+cube/VSCO 137 3dl/VSCO C1Vibrant.3dl
#Generated by Picture Instruments - Look Converter
3DMESH
Mesh 4 10
0 64 128 192 256 320 384 448 512 576 640 704 768 832 896 960 1023
16 4 0
20 12 12
36 28 40
20 48 80
40 60 156
24 80 244
28 88 352
40 84 460
16 100 560
36 104 636
16 120 680
12 124 740
32 124 756
12 120 736
32 104 712
4 100 688
4 92 676
16 28 12
20 24 24
36 32 40
24 52 76
40 64 136
20 80 244
20 88 368
36 84 484
16 100 572
36 104 636
12 116 696
8 124 740
32 124 760
8 120 748
32 108 720
8 108 712
4 96 708
12 68 20
12 60 24
36 56 44
20 72 84
44 92 144
32 108 232
24 112 360
40 108 484
20 116 576
40 120 644
16 132 696
8 128 752
36 132 784
8 136 812
36 120 788
8 140 832
4 140 840
12 124 20
8 120 24
40 116 52
28 120 100
48 136 148
48 156 248
52 180 364
52 188 472
36 196 560
44 200 632
24 204 696
28 208 744
44 200 788
24 204 832
44 212 868
36 220 900
32 216 928
12 180 32
12 184 32
36 180 52
24 188 104
52 192 164
48 216 244
68 244 344
80 256 432
68 276 528
72 288 600
40 296 664
32 308 728
56 308 768
40 316 816
56 312 852
36 316 880
36 320 912
12 232 24
16 224 24
36 236 52
16 248 100
44 260 172
56 280 260
72 308 356
88 324 444
88 344 520
104 348 584
104 364 640
84 380 692
84 392 740
60 404 792
64 404 836
52 416 864
52 416 900
8 300 36
4 300 36
32 316 44
16 328 80
44 344 156
60 344 264
72 368 360
88 388 452
88 404 528
104 408 584
108 432 640
112 440 692
116 444 724
112 460 768
116 464 800
96 480 844
76 492 876
8 380 52
8 380 48
32 388 60
12 412 80
40 428 124
40 424 256
72 428 356
80 448 448
88 460 528
104 472 576
108 488 636
104 500 688
124 504 724
116 520 760
120 524 796
120 540 824
108 540 860
8 460 76
4 460 72
28 464 72
8 480 88
36 500 112
32 504 252
72 496 368
84 500 452
84 512 528
104 528 580
104 540 640
108 552 692
120 560 720
116 568 760
128 568 796
128 584 824
112 584 856
12 524 84
0 528 84
28 528 92
12 548 104
40 560 120
44 560 244
64 556 376
92 548 460
92 568 540
100 580 596
104 588 648
112 596 688
120 604 724
120 612 760
124 616 792
128 624 828
124 628 852
24 580 108
12 584 104
36 584 104
28 604 108
48 616 132
48 624 256
56 616 372
96 600 460
96 612 544
100 620 600
108 628 644
112 644 688
124 644 720
120 656 764
132 656 792
128 664 824
128 664 852
36 636 116
32 640 108
52 644 116
32 652 124
56 656 136
64 676 220
64 672 380
96 660 472
108 656 540
104 660 596
104 672 644
104 676 684
120 680 724
120 688 756
132 688 788
132 696 820
128 700 852
60 684 128
52 688 124
60 684 124
64 696 140
76 704 152
84 716 208
80 724 368
96 708 480
112 700 552
116 700 604
116 700 656
108 712 692
116 716 724
124 720 764
132 724 792
132 732 820
132 736 840
80 724 136
76 732 132
88 724 136
84 736 148
96 748 164
112 764 220
100 760 368
104 748 480
116 736 552
124 728 608
120 736 652
116 744 692
120 744 724
116 760 756
132 756 792
132 756 820
132 764 848
104 764 156
104 776 148
108 772 152
116 780 164
120 780 172
136 796 224
120 796 344
116 796 464
116 784 560
136 768 608
132 768 652
128 772 692
128 772 720
124 780 760
128 788 784
132 788 808
128 792 836
132 796 168
132 804 168
140 800 164
136 808 176
144 816 184
160 824 236
152 828 340
136 828 464
120 820 548
136 808 612
140 800 656
132 800 696
132 804 728
132 812 764
140 808 788
140 812 816
136 812 844
160 828 184
156 832 180
160 828 184
160 836 192
164 836 188
180 844 252
172 852 344
156 848 476
140 840 556
140 828 616
152 820 656
144 828 688
144 824 724
140 828 760
140 828 788
144 828 820
144 828 836
12 8 4
12 16 12
16 28 44
20 48 80
28 64 144
24 76 224
28 88 348
16 88 468
16 100 560
16 104 636
12 120 684
12 124 740
12 128 756
12 120 736
16 108 716
4 100 692
4 92 676
20 24 12
20 24 24
20 32 44
24 52 88
28 68 160
24 80 260
20 84 372
16 84 492
16 100 572
12 108 640
12 116 700
8 124 740
8 124 768
8 120 748
12 112 724
8 108 720
4 96 708
12 60 24
12 60 20
16 60 48
24 76 92
40 92 152
32 104 240
24 112 360
16 108 484
16 112 572
12 120 640
16 128 704
12 132 756
8 136 784
12 140 820
8 128 800
4 132 828
4 136 840
12 124 24
8 120 24
20 120 60
28 120 100
36 140 160
52 156 248
44 172 356
36 184 480
32 192 564
24 196 636
24 212 692
28 216 744
24 200 780
24 204 832
28 216 872
36 216 908
32 216 928
12 184 28
12 184 32
12 184 56
28 188 104
40 196 168
48 220 256
68 240 364
76 260 452
68 272 536
60 284 608
40 296 676
32 308 728
36 312 780
40 316 816
40 308 852
40 324 888
36 324 912
12 228 28
12 232 28
8 244 44
16 248 100
32 260 176
48 280 256
68 304 352
76 324 440
88 336 516
92 360 584
96 368 640
84 380 692
72 388 740
60 404 792
48 412 832
52 416 868
52 416 896
8 308 32
12 308 44
12 308 48
16 328 80
28 344 160
60 344 264
72 368 364
76 388 444
92 404 516
100 420 584
108 432 644
112 440 692
112 448 724
112 460 768
104 472 796
92 480 844
68 492 872
4 380 56
8 380 48
8 392 60
8 416 80
16 424 136
48 424 268
72 428 364
76 448 452
92 460 536
100 472 588
104 480 644
104 500 684
116 508 724
116 516 764
120 528 800
112 536 832
108 540 860
0 460 72
4 460 72
4 464 76
12 484 92
16 504 116
32 504 244
68 492 364
80 504 456
88 520 524
96 528 584
104 540 644
108 552 684
120 560 724
116 568 760
120 572 796
124 584 832
116 592 856
0 528 84
0 528 84
4 528 96
12 540 108
20 564 124
40 564 240
68 564 376
92 556 468
92 568 536
92 580 592
104 588 644
112 596 688
112 604 724
120 612 760
120 620 796
120 628 824
120 628 856
16 584 104
16 588 108
20 588 104
24 596 112
36 620 132
40 624 240
60 624 376
88 604 464
96 612 544
100 620 604
104 632 644
108 640 688
116 648 724
120 656 764
124 656 800
124 664 828
128 664 852
32 640 116
36 632 108
36 644 120
32 652 124
48 668 140
60 676 232
64 672 384
88 660 476
104 652 536
104 664 612
96 672 648
108 680 692
116 684 724
120 688 756
124 692 792
120 704 828
124 704 852
60 684 120
56 688 124
52 688 132
64 696 140
76 704 156
84 724 204
80 724 364
88 708 484
116 692 552
104 700 604
112 700 648
108 712 696
112 720 724
120 720 760
128 732 792
128 732 820
128 736 840
76 732 132
76 732 132
76 728 140
80 736 148
88 752 168
108 764 216
100 760 356
100 752 484
116 736 552
120 728 608
116 744 652
120 748 696
116 744 724
116 760 756
124 760 796
128 760 816
128 764 848
100 768 152
104 776 148
104 772 156
108 776 164
116 784 176
132 800 224
120 800 360
104 792 480
116 784 560
132 772 612
132 768 660
128 772 692
124 780 736
124 780 760
124 792 788
132 792 824
128 792 836
132 808 164
132 804 168
136 808 176
140 812 180
140 820 184
156 828 224
148 828 344
128 828 464
120 820 548
132 812 616
140 800 656
132 804 692
132 804 728
132 812 760
132 812 788
136 808 824
136 808 844
156 832 180
156 832 180
156 832 188
160 836 192
160 840 196
176 844 248
172 852 344
152 848 472
140 840 556
136 828 616
148 824 656
144 828 688
140 828 728
140 828 756
136 828 792
140 828 824
140 828 836
12 20 20
16 24 32
20 32 48
24 52 72
32 64 132
36 80 216
32 88 332
20 88 464
20 100 552
16 108 628
12 120 680
12 124 728
12 128 760
12 120 736
16 108 716
4 100 692
0 92 676
12 28 12
16 32 28
16 40 48
24 56 88
32 64 160
28 76 248
20 88 360
16 88 480
16 100 564
12 108 640
12 116 696
8 124 744
8 124 768
8 120 748
8 112 724
8 108 720
4 104 716
12 68 28
12 68 24
16 68 60
32 72 100
40 88 156
32 108 264
28 108 380
20 108 500
20 112 584
12 120 640
16 128 704
12 132 756
12 140 788
4 140 832
8 136 812
4 140 844
4 140 852
12 124 24
12 120 28
16 124 56
28 120 100
32 140 160
48 156 248
48 168 356
36 180 468
32 192 564
24 196 636
24 212 692
28 204 748
24 212 788
28 216 832
28 216 864
28 220 912
28 216 924
12 184 28
16 180 32
12 184 56
24 192 104
44 200 176
52 224 260
68 240 360
68 252 436
64 268 536
56 280 612
40 296 676
44 312 728
40 316 776
40 308 812
40 308 852
40 324 888
36 324 912
12 228 28
12 228 28
12 248 48
20 252 108
36 260 176
52 284 260
68 308 364
80 324 456
88 336 520
92 352 588
96 364 640
84 376 696
76 392 748
60 404 800
48 408 836
52 408 872
52 408 896
4 304 32
4 304 36
12 308 48
16 336 76
24 340 156
56 344 256
72 368 356
76 388 444
92 404 516
96 416 576
108 428 644
112 440 692
112 448 728
112 460 768
104 472 796
92 480 836
80 492 876
4 380 56
8 392 52
8 396 60
12 412 80
16 424 136
48 424 268
76 420 360
76 448 452
92 460 528
100 476 580
104 488 648
104 500 684
116 504 728
116 516 764
116 524 796
116 532 824
108 540 864
0 460 72
4 460 72
0 464 76
12 484 92
16 504 116
36 504 256
68 488 368
76 500 460
88 516 532
96 532 592
104 540 644
112 544 688
116 552 728
116 568 760
124 576 800
124 584 832
120 584 852
0 528 84
0 524 92
0 528 96
16 540 108
20 564 124
40 564 244
64 568 368
84 552 460
92 572 536
96 584 596
104 588 644
112 596 692
116 600 724
116 608 756
120 620 796
120 628 824
120 632 848
12 584 104
16 592 104
16 588 104
24 600 112
36 612 128
40 624 236
60 620 380
84 604 464
100 612 536
100 620 600
104 632 644
108 640 684
116 648 728
120 656 764
124 664 804
124 664 828
128 664 852
28 636 112
36 632 108
36 644 120
32 652 124
44 664 140
64 684 228
64 672 380
88 664 480
104 648 540
104 664 608
96 672 648
108 680 692
116 680 724
124 684 760
124 692 792
120 704 828
128 708 848
60 684 120
60 688 124
52 688 132
64 696 140
76 704 156
84 720 216
80 720 380
84 704 484
112 688 548
108 704 612
112 700 652
108 712 696
112 720 728
124 728 764
124 724 792
128 732 824
128 736 840
76 732 132
76 732 132
76 728 140
84 736 148
92 748 168
108 768 208
104 768 352
100 752 480
116 736 552
120 728 612
112 740 648
120 744 692
116 748 716
124 756 760
124 760 796
128 764 824
128 764 848
100 768 152
100 768 152
104 772 156
112 780 164
116 784 176
132 800 224
124 800 352
104 792 472
112 784 556
132 772 612
132 768 660
124 780 696
124 780 728
124 784 756
124 792 788
132 792 824
132 792 836
132 808 164
132 804 168
136 808 176
136 808 176
140 820 184
156 828 224
144 828 348
124 828 484
124 812 556
132 812 616
140 800 660
136 808 696
132 804 728
132 812 764
132 812 788
136 808 824
136 808 840
156 832 180
156 832 180
156 832 188
156 836 192
160 840 196
180 848 252
176 852 360
152 848 484
140 840 556
136 828 616
148 824 660
144 828 692
140 828 728
140 828 760
136 828 792
140 828 824
140 828 836
28 36 32
24 40 44
32 48 48
36 60 76
48 68 136
56 80 224
56 84 340
36 88 456
24 104 556
20 108 632
16 124 684
12 124 728
12 128 756
16 116 736
12 112 708
0 100 688
0 92 672
40 40 24
40 40 32
36 48 52
44 68 92
52 72 148
48 80 244
36 88 360
24 92 476
16 100 564
16 108 632
12 116 696
8 124 740
8 124 764
8 120 748
4 108 724
8 112 728
