滤镜资源/vsco 137 3dl+cube/VSCO 137 3dl/VSCO 6 Legacy.3dl
#Generated by Picture Instruments - Look Converter
3DMESH
Mesh 4 10
0 64 128 192 256 320 384 448 512 576 640 704 768 832 896 960 1023
4 100 36
4 104 52
32 104 68
0 108 108
32 100 152
4 108 216
0 104 300
32 104 384
0 104 456
32 100 536
12 112 604
8 112 680
32 112 732
12 112 812
32 108 852
4 116 904
4 112 944
4 108 28
0 112 48
28 104 64
0 116 100
32 112 136
4 112 204
0 112 300
32 112 376
0 116 452
32 112 520
4 120 600
4 116 676
32 116 740
0 120 816
32 112 856
8 120 896
4 120 956
4 124 36
0 124 52
32 124 64
0 128 100
32 124 136
4 128 212
0 124 300
32 128 364
0 128 456
32 120 528
8 132 608
0 132 680
32 128 752
4 132 816
32 124 860
8 136 904
0 132 948
4 160 48
0 148 48
32 144 68
0 148 108
32 148 144
4 144 224
0 148 296
32 152 380
0 144 460
32 152 544
8 156 608
4 156 688
32 152 756
0 156 812
32 152 860
12 160 908
0 160 944
4 192 48
0 188 64
32 184 72
0 188 108
32 184 144
4 192 220
4 192 296
32 192 376
0 200 448
32 196 536
8 196 620
0 200 680
28 200 744
0 204 792
32 200 864
8 200 908
0 200 968
4 252 48
0 248 72
28 252 92
0 248 116
32 252 156
8 252 232
4 252 304
32 252 384
4 252 472
32 256 544
8 256 620
0 252 692
32 252 748
0 260 820
32 256 876
12 264 928
0 272 964
8 320 60
0 324 76
32 312 80
0 328 124
32 328 168
8 332 236
0 320 304
32 324 404
0 332 480
32 320 556
12 332 640
4 324 704
32 324 760
0 340 832
32 332 876
16 344 928
0 344 968
12 404 72
0 404 80
32 396 100
4 408 128
32 420 172
12 408 236
0 412 320
32 404 404
0 412 472
28 404 552
16 412 632
0 408 696
32 408 764
4 416 824
32 424 872
16 424 912
8 424 952
16 492 76
8 492 96
36 488 108
0 496 136
32 484 176
12 500 252
0 496 324
32 492 404
0 488 472
32 484 560
16 492 636
12 492 712
36 492 760
8 500 824
40 504 876
28 500 928
20 500 968
24 576 84
20 580 108
36 576 120
8 576 152
36 576 184
28 572 268
16 576 340
40 576 408
20 580 488
44 576 580
32 572 644
20 576 716
48 576 776
44 584 832
60 576 892
48 576 920
48 576 960
48 640 100
48 652 116
52 652 132
36 648 164
56 644 216
48 648 288
40 648 356
52 640 420
48 652 496
64 644 580
48 648 652
52 660 716
64 644 780
64 648 836
76 652 888
64 656 932
72 656 960
68 720 120
72 724 132
76 720 140
68 724 176
72 716 216
72 720 296
64 724 360
80 716 436
72 720 512
84 720 576
80 720 636
80 724 708
88 728 780
88 724 840
92 720 880
104 724 928
96 720 964
100 784 136
100 792 148
96 788 160
92 792 188
92 792 232
100 780 304
96 784 364
104 788 452
100 792 524
112 792 596
112 792 640
100 796 704
124 796 788
112 796 860
116 788 884
124 788 928
116 788 964
132 844 160
116 852 168
132 844 176
120 848 204
124 852 252
132 844 336
124 844 384
136 848 452
128 852 528
132 844 584
132 852 656
140 856 724
140 848 796
140 844 852
144 848 888
152 848 940
148 844 972
152 900 176
156 904 184
160 896 208
148 900 228
152 896 268
156 896 324
156 904 400
160 896 452
160 912 532
160 896 596
168 900 664
160 900 724
168 896 792
164 900 848
168 896 892
172 896 928
176 896 980
180 948 180
176 952 200
180 944 236
180 944 268
188 944 308
196 944 372
188 944 412
196 940 484
188 944 560
188 940 616
188 944 688
192 940 744
200 936 784
196 944 856
204 936 904
208 940 948
208 944 984
208 976 208
196 980 212
204 968 252
204 976 280
204 976 320
216 968 384
208 972 436
216 964 512
212 968 572
216 968 632
208 968 688
212 976 756
220 968 796
216 976 856
228 972 904
236 968 944
236 968 964
0 100 36
4 104 52
4 100 68
0 100 100
4 104 148
0 108 220
0 108 296
0 108 384
0 108 464
0 104 544
8 108 600
12 112 680
12 112 756
12 112 816
12 108 864
0 112 920
0 112 956
0 108 28
0 112 56
0 108 76
0 116 108
4 120 148
0 108 232
0 112 304
0 116 384
0 116 456
4 116 552
0 116 624
4 112 696
0 116 764
0 116 828
0 116 892
4 116 920
4 120 964
0 124 36
0 124 56
0 120 80
0 128 108
4 128 140
0 124 228
0 120 304
0 124 372
0 128 456
0 128 556
0 124 620
0 128 696
0 128 768
4 128 824
0 132 884
0 136 912
0 128 960
0 160 48
0 148 56
0 144 80
0 148 108
0 152 152
0 144 228
0 144 292
0 148 380
4 148 468
0 148 544
0 156 620
8 160 700
0 156 768
0 160 824
0 152 884
4 152 936
0 156 948
4 192 48
0 188 72
4 184 80
0 188 108
4 184 152
0 192 216
0 188 308
4 192 392
0 200 468
0 188 556
0 200 624
0 200 688
0 196 768
0 200 828
0 196 872
0 200 928
0 200 960
0 248 52
0 252 68
0 256 88
0 252 108
0 252 160
0 248 228
4 256 312
0 256 392
0 248 468
4 264 548
0 260 624
0 264 692
0 252 760
4 260 820
0 256 876
0 256 908
0 264 956
4 332 60
0 332 68
4 324 88
4 324 124
4 320 176
0 328 240
4 332 308
0 328 400
0 328 472
4 328 564
4 328 628
0 328 696
0 332 764
0 336 828
8 336 872
12 344 924
12 344 956
0 408 68
0 412 80
4 408 92
0 404 120
0 412 184
8 416 252
0 412 320
8 408 400
4 404 492
0 412 568
4 396 632
8 412 688
8 408 768
20 412 828
16 420 892
20 420 928
24 420 952
16 492 76
8 492 84
12 488 100
12 488 132
12 484 192
20 504 252
20 496 324
16 496 404
24 488 492
20 488 564
28 492 632
32 504 708
24 496 768
32 496 836
40 496 892
40 512 924
40 508 964
32 576 88
36 580 96
40 580 124
36 576 144
40 572 192
32 576 268
36 580 336
36 572 412
40 568 496
44 564 568
52 576 644
52 576 704
56 576 776
52 580 832
60 580 876
64 576 916
68 580 960
56 644 92
60 652 108
64 652 128
68 652 152
60 660 220
64 652 288
64 652 352
60 648 424
72 648 500
68 640 576
72 660 636
72 656 704
72 652 784
84 656 848
84 656 876
80 656 924
84 656 960
84 724 108
80 716 128
88 720 152
88 724 172
68 724 216
88 724 308
84 728 364
88 720 428
88 724 520
96 716 588
92 728 664
100 724 728
100 732 784
100 724 840
104 724 896
104 724 944
104 724 972
112 792 124
104 788 148
116 792 168
112 792 208
112 792 248
104 792 300
112 788 368
116 792 444
112 780 508
104 788 592
112 788 656
124 792 712
124 788 788
120 792 848
116 792 892
120 792 932
120 792 964
136 852 148
140 848 168
144 840 196
144 844 232
144 844 272
132 844 308
136 848 380
144 852 452
152 844 524
144 848 596
148 848 660
152 856 732
144 848 792
148 844 852
156 848 892
160 848 944
160 848 968
160 896 164
172 904 176
164 900 212
168 900 244
164 884 296
168 900 344
176 900 404
172 900 480
176 900 540
172 900 608
184 896 672
172 904 736
180 900 800
188 900 860
188 892 900
188 896 944
188 896 976
192 940 184
196 944 196
192 948 236
196 948 272
196 940 312
184 940 348
200 940 416
204 944 488
200 940 556
204 944 616
204 948 672
204 940 740
204 940 804
204 940 852
204 940 908
212 944 952
212 944 984
216 976 212
212 972 216
208 980 240
212 980 276
216 976 316
216 972 372
212 972 416
220 976 488
224 976 556
224 972 620
220 980 680
224 980 744
220 972 808
224 976 864
232 980 908
240 976 936
232 976 964
0 100 36
4 100 56
0 104 76
4 108 96
4 104 140
0 108 212
0 104 288
0 108 388
0 104 468
0 104 544
12 104 604
8 116 672
8 112 744
12 112 820
12 116 860
8 116 912
12 116 964
0 108 32
0 112 52
0 108 76
0 108 100
0 116 140
0 116 204
4 116 300
0 116 380
0 112 468
0 112 548
0 116 616
4 112 700
4 124 764
8 116 832
4 116 888
12 120 916
20 116 964
0 120 36
0 124 52
0 124 76
0 124 108
4 128 144
0 128 224
0 120 304
4 128 380
0 128 460
0 128 548
4 132 616
0 128 700
0 128 772
8 128 824
12 132 880
12 132 928
16 132 972
0 152 44
0 152 52
0 148 72
4 152 104
0 160 152
0 144 220
0 152 300
4 152 384
0 148 444
4 156 540
0 156 612
8 152 688
12 156 764
12 160 820
16 160 872
20 160 916
20 160 956
4 192 48
4 192 64
0 188 76
4 192 104
4 196 156
0 188 212
4 192 288
4 192 368
8 196 464
8 192 544
4 200 624
16 204 684
12 200 768
24 200 832
20 196 884
24 200 924
32 200 964
12 252 52
12 252 64
8 260 88
12 252 104
16 244 156
12 248 232
12 252 304
8 248 400
12 248 468
12 256 560
24 260 620
20 260 688
16 260 744
32 260 840
36 256 892
40 260 920
40 260 960
20 332 56
28 324 72
24 336 92
24 328 116
20 316 168
20 328 240
20 320 308
28 328 396
28 332 476
40 332 552
28 332 616
36 336 684
36 336 756
36 328 824
40 336 888
48 340 920
52 340 948
32 416 76
32 424 80
32 412 92
32 408 116
28 412 168
32 408 256
36 412 332
48 408 400
40 412 484
36 416 560
40 412 640
48 416 712
48 416 772
48 412 832
52 420 884
52 416 928
60 420 956
48 496 80
52 500 92
52 500 112
56 492 144
48 496 184
52 500 252
56 488 332
56 488 404
60 492 480
64 492 580
64 496 640
68 488 712
72 500 780
76 492 832
80 500 880
76 512 940
72 504 956
72 584 92
72 572 100
72 576 120
68 580 144
72 576 188
72 576 272
72 576 336
80 568 416
84 568 484
84 572 576
84 572 640
88 580 708
92 584 776
84 580 836
92 580 888
92 580 928
100 584 964
96 648 104
88 652 120
92 648 128
100 656 164
88 656 200
96 656 276
104 648 340
96 656 420
100 652 504
104 644 564
100 648 632
104 652 708
108 656 776
108 652 828
108 656 876
112 652 936
120 656 960
112 716 112
116 716 128
116 720 156
116 728 184
112 732 228
120 724 296
116 720 356
120 728 436
120 728 508
128 724 588
124 720 648
124 728 724
124 720 784
132 728 844
132 732 888
140 728 940
140 728 964
136 788 128
144 792 152
144 788 168
140 788 184
144 796 244
144 792 304
144 792 380
148 788 452
140 788 512
136 788 592
152 796 652
140 792 720
152 792 796
152 788 856
144 788 884
156 792 932
156 788 972
164 852 156
164 848 164
168 848 188
168 852 212
172 856 252
160 848 308
168 844 384
168 848 452
172 848 528
176 848 596
160 852 652
176 848 728
180 856 796
180 856 860
184 848 896
188 848 948
184 844 972
184 904 176
188 892 184
188 904 204
196 900 240
192 900 272
196 904 328
192 900 396
192 896 456
192 900 532
196 904 604
192 900 664
196 908 728
208 900 804
192 900 852
208 896 896
212 900 936
208 900 972
208 944 188
224 948 204
220 952 232
212 948 260
212 944 292
212 952 348
216 948 396
220 944 476
220 944 544
220 944 612
224 952 676
232 948 744
224 944 808
228 944 872
236 948 912
236 940 936
236 944 972
236 980 220
236 976 224
236 980 244
240 980 276
240 976 320
240 976 364
244 976 432
244 976 496
248 972 564
248 976 620
244 980 680
240 984 744
244 972 812
252 972 872
252 968 900
256 980 940
260 976 964
48 108 32
48 104 48
44 104 64
48 104 100
48 108 148
48 108 212
44 104 276
52 104 364
60 112 448
56 104 528
64 112 608
56 112 676
64 108 744
68 108 824
64 116 864
80 116 928
80 112 952
52 112 36
48 112 52
40 112 72
48 116 108
56 116 152
44 116 216
52 112 284
52 116 372
56 120 456
64 112 540
64 116 624
60 112 684
64 116 760
68 120 840
72 116 876
68 124 924
