滤镜资源/vsco 137 3dl+cube/VSCO 137 3dl/VSCO SE2 Street Etiquette.3dl
#Generated by Picture Instruments - Look Converter
3DMESH
Mesh 4 10
0 64 128 192 256 320 384 448 512 576 640 704 768 832 896 960 1023
136 68 88
136 64 96
140 64 100
140 64 128
140 64 152
140 68 184
140 68 208
148 68 232
144 68 268
156 68 312
144 76 360
144 80 424
148 76 476
148 84 528
164 80 584
160 84 636
160 84 672
136 68 80
132 68 92
136 68 104
136 72 128
140 72 152
144 72 184
140 76 204
148 76 232
148 80 272
148 80 308
144 84 356
144 88 416
160 88 480
148 96 540
164 92 584
164 100 628
164 100 672
136 80 88
132 80 92
140 80 108
140 84 128
140 84 156
136 92 176
140 92 208
148 96 228
144 96 268
148 100 312
148 104 364
148 104 424
156 112 484
152 116 532
160 116 584
156 120 632
160 128 672
136 108 92
144 104 100
140 100 108
136 100 132
144 104 156
140 108 180
148 112 212
148 124 232
140 124 276
152 124 312
148 132 364
152 136 428
156 136 484
156 148 540
164 148 588
160 160 636
160 160 672
136 136 88
140 140 96
144 132 108
132 136 132
144 132 148
140 144 180
140 144 208
148 152 228
144 156 268
152 168 312
152 164 360
148 172 424
152 176 476
152 184 536
164 188 584
164 192 632
156 196 672
136 184 84
140 180 104
140 176 112
140 176 140
144 176 164
140 176 188
144 184 208
148 188 228
144 192 268
152 200 308
144 208 364
152 212 424
152 216 472
152 224 536
160 228 588
160 236 632
160 248 672
144 224 96
140 224 100
152 224 116
140 224 140
148 224 164
144 228 188
140 224 212
148 228 232
140 240 272
152 240 312
148 252 368
152 256 428
152 264 476
152 276 540
164 284 592
160 292 632
160 292 668
148 276 96
144 276 104
144 276 116
144 276 144
144 280 160
144 276 184
140 280 212
148 272 228
144 288 268
148 292 304
144 304 356
152 308 420
156 316 476
152 328 532
164 336 588
164 344 628
164 344 672
140 336 96
144 340 108
148 336 116
144 340 148
152 336 168
148 340 192
144 340 212
148 332 232
140 336 264
152 344 308
152 352 364
152 360 424
156 372 480
156 380 536
164 384 588
164 392 628
160 392 672
148 400 92
144 400 104
152 400 120
148 404 152
152 400 168
148 400 196
148 404 220
148 400 240
148 400 272
152 396 312
148 404 360
152 416 428
156 420 476
152 428 536
164 432 588
160 444 636
160 448 668
144 456 96
148 460 108
152 460 128
152 464 156
148 460 176
152 460 196
148 456 224
148 460 248
144 460 280
148 460 316
148 464 372
152 476 428
152 472 480
156 480 536
164 492 596
160 500 636
160 500 672
156 524 96
148 528 108
156 524 132
152 524 152
152 524 172
156 524 200
152 524 220
160 520 252
152 524 280
156 524 320
152 524 364
148 528 424
156 532 480
156 540 540
164 544 580
164 552 636
164 556 668
152 588 100
152 588 112
160 584 132
148 584 160
160 584 180
156 580 204
148 584 228
152 584 252
148 588 296
156 588 336
152 588 384
152 584 432
156 580 476
156 596 540
164 596 592
156 604 632
156 604 668
156 640 100
156 644 120
156 640 136
152 640 164
160 640 188
160 636 212
152 644 236
164 640 260
156 644 300
160 640 336
156 640 388
156 644 444
156 640 488
156 636 536
164 644 588
160 652 636
160 652 668
160 688 104
156 692 120
168 688 140
156 688 164
160 684 184
160 692 208
156 688 228
164 688 260
156 692 300
164 684 340
168 688 392
160 688 440
164 692 492
164 688 544
164 684 588
160 692 628
160 696 672
164 732 108
156 736 124
164 732 144
156 736 168
164 732 196
164 728 216
160 736 236
168 732 268
160 736 308
164 728 352
160 728 400
160 736 452
164 728 496
160 736 548
164 732 596
164 728 636
164 740 672
164 764 108
156 768 124
168 760 148
160 768 168
164 760 192
168 760 216
164 764 248
168 764 280
164 764 320
168 760 364
168 760 400
160 768 460
164 764 500
160 768 556
164 764 600
172 760 640
164 760 668
140 64 80
140 64 88
144 68 104
148 64 132
152 64 156
152 68 184
152 68 212
152 72 236
156 72 268
164 68 316
164 76 364
160 80 420
168 76 476
176 84 532
180 80 584
188 84 636
188 84 668
148 68 88
144 72 96
140 76 104
148 76 132
148 76 160
152 80 184
156 84 212
156 84 236
156 80 276
168 88 324
172 84 368
176 88 428
176 96 492
176 96 548
176 100 588
192 100 640
192 104 676
148 80 88
148 88 100
144 84 108
148 88 132
148 88 160
152 88 180
152 100 204
156 96 232
160 100 272
168 108 324
164 108 368
180 108 432
176 112 488
184 120 540
184 120 592
192 124 632
192 132 672
148 108 92
152 104 96
148 104 108
152 104 136
148 108 164
156 112 184
156 116 204
156 124 236
156 128 276
168 128 316
168 140 376
176 144 428
172 140 488
180 148 544
192 160 592
192 164 644
196 164 676
152 136 88
148 148 100
152 144 112
148 140 136
152 140 160
152 148 188
156 148 208
160 156 240
160 168 276
164 164 320
164 176 372
172 180 432
180 184 492
184 192 552
184 192 592
196 200 644
196 204 680
148 180 88
156 184 104
152 192 116
152 184 144
152 180 164
152 184 184
156 192 208
156 192 236
164 200 268
164 212 316
172 220 376
172 220 428
176 228 488
180 236 544
184 240 588
196 244 636
196 248 676
152 228 88
160 236 104
156 228 116
160 228 148
156 232 172
156 228 188
156 232 212
156 240 236
160 244 272
168 252 316
172 260 372
172 268 432
180 272 488
180 280 544
180 288 588
192 292 644
192 300 680
160 280 92
156 284 104
156 288 120
156 284 144
156 288 168
160 284 196
156 284 212
160 288 232
164 296 272
168 300 316
172 308 372
168 320 428
180 328 492
184 336 548
188 344 600
188 348 648
188 348 672
156 340 96
160 344 108
160 348 124
164 348 152
164 344 172
164 352 192
156 348 212
160 348 236
164 344 268
164 356 316
172 364 372
172 372 428
172 380 484
180 384 544
188 392 588
192 404 636
192 404 676
160 400 92
164 408 112
164 412 128
160 404 148
164 404 168
164 408 196
164 408 220
168 408 248
168 404 272
164 404 312
164 412 368
176 424 428
176 432 488
180 444 548
180 444 588
192 456 636
196 456 672
168 460 96
168 468 120
168 472 136
172 472 160
172 472 180
168 464 204
168 472 228
168 468 252
164 468 288
164 468 324
168 472 376
172 472 428
180 484 492
180 492 544
184 496 588
192 504 636
192 508 676
168 524 100
172 528 112
172 532 136
176 532 160
172 536 184
176 532 208
172 532 228
176 532 260
168 528 288
172 532 332
176 536 384
172 532 436
176 544 488
180 548 544
188 556 596
188 560 640
188 560 676
172 584 92
176 588 112
176 592 140
180 592 168
180 592 184
176 592 204
176 592 236
176 592 260
176 592 300
176 592 336
172 588 384
180 588 436
176 596 488
184 600 544
188 604 592
188 608 632
192 612 672
172 644 100
180 640 120
180 648 148
184 648 172
180 644 192
184 644 216
184 640 232
176 644 264
184 648 304
184 644 352
180 644 400
184 648 452
180 648 496
176 644 544
188 652 596
192 660 644
196 660 680
180 692 100
188 696 124
180 692 152
184 692 168
188 696 192
184 696 208
188 692 240
188 700 272
184 692 312
184 696 352
184 696 400
184 692 456
184 696 504
188 700 560
188 692 592
192 696 636
192 700 676
184 732 108
188 736 120
192 744 148
196 744 176
200 744 196
188 740 216
192 736 244
192 740 272
192 744 320
192 740 360
192 740 412
188 736 456
188 736 500
188 740 552
188 740 600
196 740 640
196 740 672
188 768 104
192 768 120
192 772 148
196 768 176
192 772 192
196 768 220
196 768 248
200 768 280
196 768 320
196 764 364
192 768 408
192 772 464
192 768 512
192 772 560
192 772 604
196 768 640
196 768 672
160 68 88
160 68 96
160 64 104
164 64 128
168 64 156
176 68 184
180 72 200
176 72 236
180 72 264
188 72 312
188 76 360
192 80 412
200 76 472
212 80 532
212 80 584
220 84 636
224 84 668
156 68 92
164 72 96
164 76 112
168 76 128
176 72 164
176 80 188
180 76 204
184 80 236
184 80 272
196 84 324
204 84 376
212 92 432
208 96 496
216 96 544
216 100 592
232 100 644
236 100 676
160 84 92
164 84 96
172 88 108
168 88 136
180 92 172
180 92 184
188 96 212
192 104 244
200 104 280
196 104 328
204 112 384
212 116 444
224 120 508
224 120 556
228 124 600
240 132 648
240 132 680
164 100 92
172 108 100
176 112 112
172 112 140
176 112 168
176 116 188
184 124 204
188 128 236
196 132 280
200 136 328
208 144 384
208 148 432
220 148 496
228 156 548
232 160 604
236 168 648
240 168 680
168 132 88
172 148 100
172 144 116
176 144 136
180 144 164
184 152 196
188 152 212
184 156 240
192 164 276
200 172 328
204 180 380
212 188 432
216 192 496
224 192 544
232 200 604
236 208 648
240 212 676
172 180 88
176 180 100
180 192 124
180 188 144
180 184 168
180 188 196
188 192 212
192 200 244
196 208 284
204 216 324
204 220 384
212 228 436
220 232 492
224 240 552
232 244 608
236 248 644
236 256 672
172 224 84
184 228 100
180 236 116
188 240 144
188 236 168
184 240 196
184 236 208
188 244 240
192 252 280
204 260 324
208 268 376
208 276 436
220 280 492
220 288 544
232 292 604
236 304 644
248 304 676
184 280 96
188 292 104
192 296 128
192 292 144
188 296 180
188 292 196
192 292 216
192 296 240
192 300 280
200 308 320
204 316 380
212 328 440
216 336 496
228 340 548
224 344 600
232 356 640
244 360 684
188 340 96
188 344 104
200 352 136
204 352 160
196 352 180
196 356 200
200 356 220
200 352 252
196 352 280
204 364 324
204 372 380
212 376 440
220 388 500
224 396 552
232 396 600
240 408 648
240 412 680
188 400 92
200 408 104
200 416 136
196 412 156
200 416 176
204 412 200
200 416 224
196 412 256
200 412 280
204 416 324
208 424 384
208 432 436
220 436 492
224 444 544
228 456 596
236 460 644
248 468 684
196 464 104
204 468 116
204 472 136
212 476 164
204 476 184
208 476 200
208 480 228
204 476 256
212 480 292
204 476 328
204 472 376
208 480 428
220 488 496
232 500 556
232 512 604
232 516 648
240 520 680
204 524 96
208 532 116
208 540 140
212 540 164
212 540 184
216 540 208
212 540 236
216 540 264
212 540 300
212 536 340
208 540 388
216 544 444
216 548 492
224 552 556
232 560 600
236 568 648
240 576 680
212 584 100
216 592 120
216 596 148
216 596 168
220 596 192
216 600 216
216 596 236
216 600 268
220 596 304
220 596 348
220 600 396
220 592 452
224 596 500
224 604 556
232 608 600
236 616 648
240 624 680
208 640 104
216 648 116
224 652 148
224 652 172
228 652 200
220 648 208
224 648 240
220 652 268
220 648 312
228 648 356
224 648 404
224 648 448
224 652 500
228 652 548
228 660 604
236 664 648
244 668 676
220 692 100
224 692 116
232 696 144
232 704 176
236 704 204
232 700 216
228 704 248
228 696 276
228 696 316
232 700 360
228 700 408
232 700 460
232 704 516
232 704 560
232 704 600
236 704 644
240 708 680
224 732 108
232 740 120
240 744 152
232 744 176
240 740 204
240 744 224
236 740 252
236 744 280
244 744 328
240 744 368
240 740 420
244 744 468
240 740 516
232 740 572
244 744 620
240 744 648
240 744 676
228 768 108
236 772 124
240 772 152
244 772 176
240 776 200
248 772 228
244 768 252
248 772 292
244 772 328
248 772 376
244 772 420
240 772 472
244 772 524
248 776 572
244 772 616
244 768 648
244 768 668
192 64 88
184 68 96
196 68 108
192 64 124
200 64 148
200 72 180
208 68 204
220 72 232
224 68 268
232 72 312
236 76 356
236 76 412
248 76 472
260 84 528
260 80 580
276 80 632
276 80 676
188 76 88
192 72 96
196 72 108
200 72 132
204 72 156
208 80 180
220 76 208
224 84 232
232 80 280
236 88 320
244 88 368
252 92 424
252 92 484
264 96 544
276 100 596
280 104 644
