滤镜资源/vsco 137 3dl+cube/VSCO 137 3dl/VSCO X4 Bw Tone.3dl
#Generated by Picture Instruments - Look Converter
3DMESH
Mesh 4 10
0 64 128 192 256 320 384 448 512 576 640 704 768 832 896 960 1023
160 152 148
160 152 148
164 156 148
164 156 152
168 160 152
176 160 160
172 164 160
176 168 164
188 172 168
184 168 168
192 172 172
192 180 176
200 180 180
200 184 184
208 188 184
216 192 188
216 192 192
164 156 152
164 160 152
168 160 156
180 164 160
172 164 156
176 168 164
184 172 168
184 168 168
192 176 172
192 176 176
196 184 180
204 184 184
208 188 188
216 192 188
220 196 192
228 204 196
232 208 200
168 160 156
180 164 160
172 164 160
176 172 164
184 168 168
184 172 168
192 176 172
192 180 176
200 184 180
200 188 184
204 192 188
212 192 188
220 196 196
228 204 196
236 212 204
252 216 208
252 224 212
172 164 160
176 168 164
184 172 168
188 172 168
188 176 172
192 180 176
200 184 180
200 188 184
208 188 188
212 192 192
220 196 192
228 204 196
236 212 200
252 220 212
252 228 212
272 240 224
272 244 232
184 168 168
184 172 168
188 176 172
196 180 176
196 184 180
200 184 184
208 188 188
216 192 188
220 196 196
228 204 196
236 212 204
248 220 212
252 232 212
272 240 228
276 248 232
292 260 244
300 264 252
188 176 172
196 180 176
196 184 180
204 184 184
204 188 188
212 192 192
216 196 192
228 204 196
236 212 204
248 216 212
252 228 216
272 240 228
280 248 232
292 260 248
300 272 256
320 280 264
328 296 272
196 184 180
204 184 184
204 192 188
212 192 188
216 196 196
228 204 196
236 216 200
252 216 208
252 228 216
272 240 228
276 248 236
292 260 244
304 272 256
324 288 268
332 296 280
348 308 288
360 320 296
204 188 188
216 192 188
220 196 192
228 204 196
236 212 200
248 220 212
252 228 216
272 240 224
276 248 236
292 260 248
304 272 256
320 284 264
332 300 276
348 308 288
364 324 296
384 344 320
392 352 328
216 196 196
228 204 196
236 212 204
248 220 208
252 228 212
272 240 228
280 248 236
292 260 244
304 272 256
320 280 264
336 296 280
348 308 288
364 332 300
380 340 316
400 356 328
416 372 344
428 384 360
236 212 200
252 220 208
252 228 216
272 240 228
280 248 236
292 260 248
304 272 256
316 280 264
332 300 280
348 308 292
364 324 296
384 340 316
400 356 328
416 372 344
432 388 360
452 408 376
464 420 388
252 228 212
272 240 228
276 248 236
292 260 244
304 272 260
320 280 264
336 300 276
348 308 288
364 324 300
384 340 312
396 356 328
420 376 348
432 388 360
452 408 376
472 428 396
492 452 416
508 460 424
280 248 236
292 260 244
308 268 252
320 284 264
336 296 276
348 308 292
364 324 300
380 340 316
396 356 332
416 372 344
432 388 360
452 412 376
472 428 392
492 452 416
508 460 424
524 484 448
540 496 460
304 272 260
316 284 264
336 296 280
348 308 288
364 328 300
376 336 308
400 356 332
416 372 344
432 388 364
456 412 380
472 428 396
488 444 408
512 464 428
524 484 444
544 500 464
564 524 484
576 536 496
340 300 280
348 308 292
364 324 296
384 340 316
396 356 328
416 376 344
436 392 364
452 408 376
468 424 392
488 444 412
512 464 428
528 488 448
548 504 468
564 524 484
580 536 500
600 560 520
608 572 532
364 328 300
384 344 316
396 356 328
420 376 348
424 384 356
452 412 376
468 428 388
488 444 408
516 468 432
524 480 448
544 500 464
564 524 484
580 536 500
596 560 520
616 572 536
628 596 552
644 612 568
400 356 328
416 372 344
428 388 360
452 412 376
468 424 388
488 448 412
516 464 428
524 480 448
544 500 464
564 524 484
580 540 500
596 560 520
616 576 536
628 596 552
644 616 572
664 632 588
680 648 604
428 384 356
448 404 372
460 420 388
484 444 408
508 460 424
524 476 436
536 492 460
556 520 476
576 536 492
592 556 516
608 568 528
624 588 548
644 608 568
660 628 584
672 644 600
692 656 616
704 672 628
164 156 152
168 160 156
176 164 160
172 164 160
176 168 164
188 172 168
184 172 168
192 176 172
196 180 176
200 184 180
200 184 184
204 192 184
216 192 188
216 196 196
228 204 196
236 216 204
240 216 208
164 156 152
180 164 160
172 164 160
176 172 164
188 172 168
188 172 168
192 176 172
196 180 176
200 184 180
204 188 184
208 188 188
212 192 188
220 192 196
228 204 196
236 216 200
244 224 212
248 228 212
176 164 160
176 172 164
184 172 168
188 172 168
192 176 172
196 180 176
200 184 180
204 184 184
208 188 188
216 192 188
216 196 196
228 204 196
236 212 204
244 224 212
252 232 216
268 236 224
268 240 228
176 168 164
184 172 168
192 176 172
196 180 176
200 184 180
204 184 184
208 192 188
212 192 192
216 196 196
228 204 196
236 216 200
248 220 212
248 224 212
268 236 228
280 248 236
292 260 244
300 268 256
184 172 168
196 180 176
200 184 180
204 188 184
208 188 188
216 192 192
216 196 192
228 208 196
236 212 204
252 220 208
252 228 216
268 236 228
276 248 236
292 260 248
300 268 252
316 280 260
324 288 272
196 180 176
204 184 184
208 188 188
212 192 188
220 196 192
224 200 200
232 208 200
244 220 208
252 232 212
272 240 228
280 248 236
292 260 244
300 268 252
316 284 272
332 296 272
348 308 288
356 320 292
204 188 184
212 192 192
216 196 196
228 204 196
236 212 204
252 220 208
252 228 216
268 236 224
276 248 236
292 260 244
304 272 256
316 284 264
332 300 280
344 308 288
360 320 296
384 340 316
392 352 328
216 192 192
228 204 196
236 216 204
248 220 208
252 228 216
272 240 228
276 248 236
292 260 244
304 272 260
316 284 264
332 296 276
344 304 284
364 324 300
380 340 316
400 356 332
412 368 340
424 380 356
228 208 196
244 224 212
252 228 220
272 240 228
276 248 236
292 260 244
300 268 252
312 284 268
328 296 276
348 308 288
360 320 304
380 340 316
392 352 328
412 368 344
428 384 356
448 408 372
464 420 388
248 220 208
272 240 228
280 248 236
288 256 240
304 268 256
316 284 264
332 300 280
348 308 288
360 324 304
376 336 312
396 352 328
416 372 344
432 388 364
452 408 376
464 420 388
484 440 404
508 460 420
272 240 228
288 256 244
304 272 256
316 284 264
332 300 276
344 308 284
364 324 300
380 336 312
396 356 332
416 372 344
436 392 364
448 404 372
468 424 392
488 448 412
512 464 428
524 484 444
536 492 456
292 260 248
312 280 260
332 296 272
348 308 288
364 324 300
384 340 316
396 356 332
412 368 340
428 384 360
452 408 376
468 428 388
492 448 412
516 468 432
520 480 440
540 500 460
560 520 480
576 536 496
320 284 264
344 308 288
364 324 300
380 340 316
392 352 328
412 368 340
428 384 356
452 412 376
468 424 392
484 444 408
512 460 424
528 480 444
544 500 464
564 524 484
580 540 500
592 556 516
604 568 528
348 312 288
376 336 312
400 356 332
416 372 344
432 388 364
452 408 376
464 420 388
484 444 408
512 464 424
524 484 444
544 504 464
564 524 484
580 540 500
596 560 520
612 576 536
628 592 552
644 608 568
384 340 316
420 376 344
428 384 356
452 408 376
464 420 388
488 448 412
516 464 428
528 488 448
540 496 460
564 524 484
580 540 500
596 556 516
612 576 536
632 596 556
644 608 568
660 628 584
676 644 600
416 372 348
448 404 372
476 424 388
488 448 412
516 468 432
520 480 440
540 500 460
560 520 480
580 540 500
596 560 520
608 572 532
628 592 552
644 612 568
664 632 588
680 648 604
696 664 620
704 672 628
448 408 372
476 436 400
504 456 420
520 480 444
536 492 456
552 512 468
572 528 488
592 548 508
608 568 524
624 580 540
640 604 564
652 620 576
672 640 596
688 656 612
704 676 632
716 688 644
728 700 656
164 156 152
172 164 160
184 172 168
184 172 168
188 172 172
196 180 176
200 184 180
204 188 184
208 192 188
216 192 192
216 196 196
224 200 196
232 212 204
252 216 212
248 228 212
268 236 224
272 240 228
168 164 156
184 168 164
184 172 168
192 176 172
196 180 176
200 184 180
204 188 184
208 192 188
212 196 192
220 196 196
224 208 196
236 212 204
244 216 208
252 228 216
272 240 228
280 248 236
288 256 240
172 164 160
188 172 168
192 176 172
196 180 176
200 184 180
204 184 184
208 188 188
212 192 192
220 192 196
228 204 196
236 216 204
248 220 212
252 228 212
268 240 228
280 248 236
292 260 244
296 264 248
184 172 168
192 176 172
200 184 180
204 184 184
208 188 188
212 192 192
216 196 196
224 200 200
236 212 204
248 220 212
252 228 216
268 236 224
276 248 236
292 260 244
304 272 256
316 284 264
324 292 272
192 176 172
200 184 180
208 192 188
212 192 188
216 196 196
228 208 196
236 216 200
244 220 208
252 228 216
272 240 228
276 248 236
292 260 244
304 272 260
312 280 260
328 296 276
348 308 288
356 316 292
200 184 180
208 188 188
216 196 196
228 208 196
232 208 204
244 224 212
252 228 216
268 240 228
276 248 236
292 260 248
304 272 256
320 284 264
328 296 276
348 308 288
364 324 300
376 336 312
388 348 324
208 192 188
216 196 192
232 208 208
244 220 208
252 232 216
272 240 228
276 244 232
288 256 240
304 268 256
316 284 264
332 300 280
348 308 288
360 324 304
376 336 312
392 352 328
412 368 340
428 384 356
220 196 196
236 216 204
252 228 216
272 240 228
276 248 236
292 260 248
304 272 256
316 284 264
328 296 272
348 312 292
364 324 300
384 340 316
396 356 332
416 372 344
428 384 356
448 404 372
464 420 388
236 216 204
252 228 216
276 248 236
292 260 244
304 272 260
312 280 260
336 300 276
344 308 292
364 324 300
380 340 316
396 356 332
412 368 340
428 384 360
452 408 376
468 424 392
492 448 412
496 456 416
252 228 216
276 244 232
300 268 252
316 280 260
328 292 276
348 312 292
364 324 300
380 336 312
392 352 328
412 368 344
428 384 356
448 408 372
468 424 392
484 444 408
504 464 428
528 480 444
540 500 460
276 248 236
304 272 256
328 296 276
348 308 288
360 324 296
376 340 312
400 356 332
416 372 344
432 388 364
448 404 372
464 420 388
484 440 404
512 464 424
524 484 444
544 500 464
560 520 480
576 536 496
304 272 260
332 296 276
360 320 296
384 340 316
396 356 332
416 372 348
428 384 356
452 408 376
464 420 388
488 448 412
516 464 428
528 488 448
540 496 460
564 524 484
580 540 500
600 560 520
608 572 532
336 300 280
364 324 300
392 352 328
412 368 340
432 388 364
452 408 376
468 424 392
488 448 412
508 460 424
520 480 440
544 504 464
564 524 484
584 544 504
600 564 524
612 572 532
624 588 548
640 608 564
364 328 300
396 352 328
428 384 356
452 412 376
468 424 392
484 444 408
504 464 428
520 480 444
544 500 464
564 524 484
576 536 496
592 556 516
612 576 536
628 596 552
648 612 572
664 632 588
672 640 596
400 356 332
428 384 356
464 420 388
488 448 412
512 464 424
524 484 444
544 504 464
560 520 480
576 536 496
596 560 520
616 576 536
628 592 552
648 612 572
664 632 588
680 648 604
696 664 620
704 676 632
432 388 364
468 424 388
516 468 432
520 480 440
544 500 464
560 520 480
580 540 500
600 560 520
616 580 540
624 588 548
648 612 572
664 632 588
676 644 600
692 664 620
712 684 640
724 692 648
732 704 660
464 424 388
508 460 424
532 488 452
556 516 476
572 532 492
592 552 508
612 568 528
624 588 544
640 604 560
656 620 576
672 640 596
688 656 612
708 676 632
720 692 648
732 704 660
744 716 672
752 728 684
168 160 156
176 168 164
188 176 172
196 184 180
200 188 184
208 192 188
216 192 192
220 196 192
228 208 196
236 212 204
244 220 212
248 228 220
260 236 224
280 248 232
288 256 240
300 268 252
312 272 256
172 168 160
188 172 168
192 176 172
204 188 184
208 188 188
212 196 192
220 196 196
228 204 196
236 216 204
248 220 212
252 228 216
264 236 224
276 244 232
284 256 244
304 268 256
316 284 264
