滤镜资源/vsco 137 3dl+cube/VSCO 137 3dl/VSCOX IH5 IIford Hp5.3dl
#Generated by Picture Instruments - Look Converter
3DMESH
Mesh 4 10
0 64 128 192 256 320 384 448 512 576 640 704 768 832 896 960 1023
128 128 128
136 136 136
144 144 144
164 164 164
188 188 188
228 228 228
276 276 276
332 332 332
400 400 400
476 476 476
544 544 544
608 608 608
660 660 660
708 708 708
744 744 744
780 780 780
800 800 800
136 136 136
140 140 140
152 152 152
168 168 168
192 192 192
232 232 232
280 280 280
340 340 340
408 408 408
468 468 468
536 536 536
604 604 604
660 660 660
708 708 708
744 744 744
776 776 776
800 800 800
148 148 148
152 152 152
164 164 164
180 180 180
208 208 208
244 244 244
296 296 296
352 352 352
416 416 416
488 488 488
552 552 552
608 608 608
668 668 668
712 712 712
752 752 752
780 780 780
800 800 800
168 168 168
172 172 172
184 184 184
200 200 200
228 228 228
268 268 268
316 316 316
380 380 380
436 436 436
504 504 504
568 568 568
628 628 628
680 680 680
720 720 720
756 756 756
784 784 784
804 804 804
192 192 192
204 204 204
212 212 212
232 232 232
256 256 256
296 296 296
344 344 344
400 400 400
460 460 460
524 524 524
580 580 580
632 632 632
680 680 680
724 724 724
756 756 756
788 788 788
808 808 808
236 236 236
240 240 240
252 252 252
272 272 272
300 300 300
340 340 340
380 380 380
432 432 432
492 492 492
552 552 552
604 604 604
656 656 656
696 696 696
732 732 732
768 768 768
796 796 796
812 812 812
284 284 284
292 292 292
304 304 304
324 324 324
352 352 352
388 388 388
428 428 428
484 484 484
532 532 532
576 576 576
628 628 628
676 676 676
712 712 712
752 752 752
776 776 776
804 804 804
816 816 816
344 344 344
352 352 352
364 364 364
384 384 384
412 412 412
440 440 440
476 476 476
520 520 520
564 564 564
608 608 608
652 652 652
692 692 692
728 728 728
760 760 760
788 788 788
808 808 808
820 820 820
416 416 416
420 420 420
432 432 432
448 448 448
472 472 472
504 504 504
536 536 536
568 568 568
604 604 604
644 644 644
684 684 684
716 716 716
748 748 748
776 776 776
800 800 800
820 820 820
832 832 832
488 488 488
492 492 492
500 500 500
516 516 516
532 532 532
556 556 556
584 584 584
616 616 616
648 648 648
684 684 684
712 712 712
740 740 740
764 764 764
788 788 788
808 808 808
828 828 828
840 840 840
556 556 556
564 564 564
568 568 568
580 580 580
596 596 596
616 616 616
632 632 632
660 660 660
688 688 688
716 716 716
740 740 740
764 764 764
784 784 784
804 804 804
820 820 820
836 836 836
844 844 844
620 620 620
624 624 624
632 632 632
636 636 636
648 648 648
664 664 664
680 680 680
700 700 700
720 720 720
744 744 744
764 764 764
780 780 780
800 800 800
816 816 816
832 832 832
844 844 844
852 852 852
676 676 676
676 676 676
680 680 680
684 684 684
696 696 696
704 704 704
720 720 720
736 736 736
752 752 752
772 772 772
784 784 784
800 800 800
816 816 816
828 828 828
844 844 844
852 852 852
860 860 860
720 720 720
720 720 720
724 724 724
728 728 728
736 736 736
744 744 744
756 756 756
768 768 768
780 780 780
792 792 792
804 804 804
816 816 816
828 828 828
840 840 840
852 852 852
860 860 860
868 868 868
756 756 756
760 760 760
764 764 764
768 768 768
768 768 768
776 776 776
784 784 784
792 792 792
804 804 804
812 812 812
824 824 824
832 832 832
844 844 844
852 852 852
860 860 860
868 868 868
872 872 872
788 788 788
788 788 788
788 788 788
792 792 792
796 796 796
800 800 800
808 808 808
816 816 816
824 824 824
832 832 832
840 840 840
848 848 848
856 856 856
864 864 864
868 868 868
876 876 876
880 880 880
808 808 808
808 808 808
812 812 812
812 812 812
816 816 816
820 820 820
824 824 824
828 828 828
836 836 836
840 840 840
848 848 848
856 856 856
860 860 860
868 868 868
872 872 872
880 880 880
880 880 880
132 132 132
140 140 140
148 148 148
168 168 168
192 192 192
228 228 228
276 276 276
336 336 336
400 400 400
472 472 472
544 544 544
604 604 604
660 660 660
708 708 708
748 748 748
780 780 780
796 796 796
140 140 140
144 144 144
156 156 156
172 172 172
200 200 200
240 240 240
288 288 288
348 348 348
408 408 408
476 476 476
552 552 552
612 612 612
668 668 668
708 708 708
748 748 748
780 780 780
800 800 800
148 148 148
156 156 156
168 168 168
184 184 184
208 208 208
248 248 248
296 296 296
352 352 352
420 420 420
492 492 492
548 548 548
612 612 612
664 664 664
708 708 708
752 752 752
780 780 780
804 804 804
168 168 168
176 176 176
188 188 188
204 204 204
232 232 232
272 272 272
312 312 312
376 376 376
436 436 436
504 504 504
568 568 568
624 624 624
672 672 672
720 720 720
756 756 756
784 784 784
804 804 804
196 196 196
208 208 208
216 216 216
232 232 232
260 260 260
304 304 304
352 352 352
408 408 408
468 468 468
528 528 528
584 584 584
640 640 640
688 688 688
728 728 728
760 760 760
792 792 792
808 808 808
236 236 236
244 244 244
260 260 260
276 276 276
304 304 304
336 336 336
384 384 384
436 436 436
492 492 492
548 548 548
608 608 608
652 652 652
696 696 696
732 732 732
764 764 764
796 796 796
816 816 816
292 292 292
296 296 296
308 308 308
328 328 328
356 356 356
388 388 388
432 432 432
476 476 476
528 528 528
584 584 584
632 632 632
676 676 676
716 716 716
744 744 744
776 776 776
804 804 804
820 820 820
348 348 348
356 356 356
368 368 368
388 388 388
412 412 412
444 444 444
484 484 484
524 524 524
576 576 576
620 620 620
652 652 652
696 696 696
732 732 732
760 760 760
792 792 792
812 812 812
824 824 824
420 420 420
424 424 424
432 432 432
452 452 452
472 472 472
504 504 504
532 532 532
568 568 568
608 608 608
644 644 644
680 680 680
716 716 716
748 748 748
776 776 776
800 800 800
820 820 820
832 832 832
492 492 492
496 496 496
504 504 504
516 516 516
536 536 536
560 560 560
592 592 592
624 624 624
648 648 648
680 680 680
712 712 712
740 740 740
768 768 768
788 788 788
808 808 808
828 828 828
840 840 840
556 556 556
564 564 564
568 568 568
580 580 580
600 600 600
616 616 616
636 636 636
664 664 664
688 688 688
712 712 712
740 740 740
764 764 764
784 784 784
804 804 804
820 820 820
836 836 836
844 844 844
620 620 620
624 624 624
628 628 628
636 636 636
652 652 652
668 668 668
684 684 684
700 700 700
724 724 724
744 744 744
764 764 764
784 784 784
804 804 804
816 816 816
832 832 832
844 844 844
852 852 852
676 676 676
676 676 676
680 680 680
692 692 692
696 696 696
708 708 708
720 720 720
736 736 736
752 752 752
768 768 768
784 784 784
800 800 800
816 816 816
828 828 828
844 844 844
852 852 852
860 860 860
720 720 720
720 720 720
724 724 724
728 728 728
736 736 736
744 744 744
756 756 756
768 768 768
780 780 780
792 792 792
804 804 804
820 820 820
832 832 832
840 840 840
852 852 852
860 860 860
868 868 868
756 756 756
760 760 760
760 760 760
764 764 764
768 768 768
776 776 776
784 784 784
792 792 792
804 804 804
812 812 812
824 824 824
832 832 832
844 844 844
852 852 852
860 860 860
868 868 868
872 872 872
788 788 788
788 788 788
796 796 796
796 796 796
800 800 800
804 804 804
808 808 808
816 816 816
824 824 824
832 832 832
840 840 840
848 848 848
856 856 856
864 864 864
868 868 868
876 876 876
880 880 880
808 808 808
808 808 808
812 812 812
812 812 812
816 816 816
820 820 820
824 824 824
828 828 828
836 836 836
840 840 840
848 848 848
856 856 856
860 860 860
868 868 868
872 872 872
880 880 880
880 880 880
140 140 140
144 144 144
156 156 156
172 172 172
196 196 196
232 232 232
284 284 284
340 340 340
408 408 408
476 476 476
540 540 540
604 604 604
660 660 660
708 708 708
748 748 748
776 776 776
800 800 800
144 144 144
152 152 152
160 160 160
180 180 180
208 208 208
244 244 244
292 292 292
348 348 348
416 416 416
484 484 484
552 552 552
612 612 612
668 668 668
712 712 712
748 748 748
780 780 780
804 804 804
156 156 156
160 160 160
172 172 172
192 192 192
220 220 220
260 260 260
308 308 308
364 364 364
432 432 432
492 492 492
560 560 560
624 624 624
676 676 676
716 716 716
752 752 752
784 784 784
804 804 804
176 176 176
180 180 180
192 192 192
212 212 212
240 240 240
276 276 276
324 324 324
380 380 380
440 440 440
512 512 512
572 572 572
624 624 624
676 676 676
716 716 716
752 752 752
788 788 788
808 808 808
204 204 204
212 212 212
220 220 220
240 240 240
272 272 272
308 308 308
356 356 356
404 404 404
468 468 468
532 532 532
588 588 588
644 644 644
688 688 688
724 724 724
764 764 764
792 792 792
808 808 808
244 244 244
248 248 248
268 268 268
284 284 284
308 308 308
344 344 344
396 396 396
448 448 448
504 504 504
560 560 560
612 612 612
660 660 660
700 700 700
740 740 740
772 772 772
796 796 796
812 812 812
292 292 292
300 300 300
312 312 312
336 336 336
356 356 356
396 396 396
432 432 432
484 484 484
532 532 532
584 584 584
632 632 632
676 676 676
712 712 712
748 748 748
780 780 780
804 804 804
820 820 820
356 356 356
364 364 364
376 376 376
392 392 392
416 416 416
452 452 452
488 488 488
532 532 532
572 572 572
616 616 616
660 660 660
700 700 700
732 732 732
764 764 764
788 788 788
812 812 812
824 824 824
424 424 424
428 428 428
440 440 440
456 456 456
484 484 484
508 508 508
540 540 540
576 576 576
616 616 616
656 656 656
688 688 688
720 720 720
752 752 752
776 776 776
800 800 800
820 820 820
832 832 832
500 500 500
500 500 500
508 508 508
520 520 520
540 540 540
564 564 564
592 592 592
620 620 620
652 652 652
684 684 684
712 712 712
744 744 744
768 768 768
792 792 792
812 812 812
828 828 828
840 840 840
564 564 564
564 564 564
572 572 572
584 584 584
600 600 600
620 620 620
640 640 640
668 668 668
696 696 696
716 716 716
736 736 736
764 764 764
784 784 784
804 804 804
820 820 820
836 836 836
848 848 848
624 624 624
624 624 624
632 632 632
640 640 640
652 652 652
672 672 672
684 684 684
704 704 704
724 724 724
744 744 744
764 764 764
784 784 784
800 800 800
816 816 816
832 832 832
844 844 844
852 852 852
676 676 676
680 680 680
684 684 684
688 688 688
700 700 700
712 712 712
724 724 724
740 740 740
756 756 756
772 772 772
788 788 788
804 804 804
816 816 816
832 832 832
844 844 844
856 856 856
860 860 860
720 720 720
724 724 724
724 724 724
732 732 732
740 740 740
748 748 748
756 756 756
768 768 768
780 780 780
792 792 792
808 808 808
820 820 820
832 832 832
844 844 844
852 852 852
864 864 864
868 868 868
756 756 756
760 760 760
760 760 760
764 764 764
772 772 772
776 776 776
784 784 784
796 796 796
804 804 804
812 812 812
824 824 824
836 836 836
844 844 844
852 852 852
860 860 860
868 868 868
872 872 872
788 788 788
788 788 788
796 796 796
796 796 796
800 800 800
804 804 804
808 808 808
816 816 816
824 824 824
832 832 832
840 840 840
848 848 848
856 856 856
864 864 864
872 872 872
876 876 876
880 880 880
808 808 808
812 812 812
812 812 812
812 812 812
816 816 816
820 820 820
824 824 824
832 832 832
836 836 836
844 844 844
848 848 848
856 856 856
860 860 860
868 868 868
872 872 872
880 880 880
880 880 880
148 148 148
152 152 152
164 164 164
180 180 180
208 208 208
244 244 244
292 292 292
348 348 348
412 412 412
480 480 480
548 548 548
612 612 612
664 664 664
708 708 708
748 748 748
780 780 780
804 804 804
156 156 156
160 160 160
172 172 172
192 192 192
220 220 220
252 252 252
300 300 300
356 356 356
424 424 424
492 492 492
560 560 560
616 616 616
668 668 668
712 712 712
752 752 752
784 784 784
