滤镜资源/vsco 137 3dl+cube/VSCO 137 3dl/VSCO 4 Legacy.3dl
#Generated by Picture Instruments - Look Converter
3DMESH
Mesh 4 10
0 64 128 192 256 320 384 448 512 576 640 704 768 832 896 960 1023
88 88 84
88 84 88
92 80 96
88 88 116
96 84 144
84 84 200
88 88 284
92 84 364
88 88 464
92 84 564
84 88 632
88 96 708
92 92 752
88 96 812
92 92 848
92 96 892
92 96 924
88 92 88
88 92 92
92 88 96
88 96 116
88 88 144
84 92 200
88 88 288
96 88 368
92 96 468
92 88 552
88 96 624
96 96 712
96 92 764
92 96 820
92 96 852
96 104 884
96 100 940
92 96 88
92 100 92
88 96 100
88 100 120
92 100 148
84 100 204
88 100 292
92 92 384
84 104 468
96 100 556
92 108 632
92 104 708
96 104 768
88 104 820
100 104 872
92 108 900
92 108 940
92 124 88
88 120 88
92 120 100
88 120 120
92 116 156
88 116 212
88 120 300
96 124 384
96 120 480
92 124 568
88 128 636
92 128 724
100 132 772
96 128 836
100 128 876
100 132 904
100 132 932
92 164 92
92 160 100
96 152 96
92 160 128
96 152 144
92 160 216
92 160 288
92 160 384
88 168 464
100 160 576
96 172 644
92 172 728
100 172 768
96 172 844
104 176 868
100 180 904
100 180 932
92 224 92
92 224 100
100 224 112
88 228 132
104 224 164
92 224 232
96 220 292
104 228 404
96 228 496
104 228 576
100 228 652
100 228 724
104 228 780
100 240 816
108 236 876
104 252 900
104 252 940
100 312 108
96 316 104
100 304 116
104 312 140
100 308 164
100 324 232
104 312 312
104 324 396
100 324 484
108 312 584
104 320 660
108 316 732
108 320 780
108 336 844
112 332 888
112 340 920
108 340 940
104 416 104
104 408 104
108 412 120
104 412 148
108 428 172
104 408 240
104 412 324
108 420 420
116 420 488
116 416 592
112 424 652
108 420 728
116 424 788
116 424 832
120 440 880
116 436 900
124 444 928
112 508 116
112 520 124
116 504 132
116 520 160
128 516 188
116 524 256
120 524 340
120 520 428
116 508 504
116 512 588
124 516 680
112 516 740
124 524 788
124 520 836
132 528 880
136 536 908
124 532 940
116 608 124
120 612 136
128 608 156
120 608 180
132 604 212
128 600 284
124 612 360
132 616 444
124 608 524
136 612 616
124 604 680
128 604 744
144 612 796
132 624 848
136 620 892
144 620 908
136 616 940
136 676 140
140 692 148
144 684 156
140 688 184
144 680 240
144 680 300
140 676 380
152 684 456
140 688 552
144 688 620
148 688 680
148 696 744
152 684 796
148 692 844
156 692 880
152 696 916
156 696 944
156 744 156
152 752 164
168 756 176
156 756 212
160 752 260
156 748 328
160 752 400
168 748 476
156 748 560
164 752 624
164 756 684
164 756 748
176 760 800
172 756 848
180 752 876
176 760 912
176 760 936
180 812 184
176 812 188
180 808 200
180 812 248
184 808 276
180 800 344
172 808 420
184 800 492
188 812 580
192 812 624
188 812 680
188 812 752
192 812 808
188 812 852
196 808 880
200 820 920
196 816 940
212 856 212
208 856 216
204 848 228
204 852 260
212 852 300
212 852 376
208 856 440
212 852 504
208 860 584
212 860 644
212 856 696
212 860 768
216 860 816
212 856 852
220 856 884
224 856 920
220 856 944
232 892 232
240 900 244
244 896 268
236 896 300
236 888 332
240 888 392
240 888 460
240 896 524
240 900 604
244 892 648
244 892 720
240 896 780
252 896 824
248 896 856
256 888 888
256 892 916
256 892 952
276 928 264
272 932 272
272 924 308
272 924 344
272 920 388
276 924 436
264 924 488
272 928 560
268 924 624
280 920 684
284 924 736
284 920 784
284 924 824
284 924 860
296 924 900
296 920 924
292 924 956
304 948 296
300 948 304
300 944 340
300 952 376
304 944 424
308 944 460
304 948 516
312 944 584
304 944 640
308 944 704
308 948 752
312 952 788
320 956 824
316 956 872
324 952 900
332 948 928
336 948 948
88 84 84
88 84 88
88 84 96
88 88 112
92 88 140
92 88 208
88 88 284
92 92 380
88 84 472
92 88 564
84 88 632
92 92 716
92 92 772
92 88 824
96 92 868
100 92 892
96 92 916
92 92 84
88 92 88
92 88 104
92 96 116
92 92 144
92 88 204
92 92 288
96 96 388
92 88 476
92 92 572
92 92 660
96 92 732
92 92 776
96 96 820
96 100 860
104 100 892
100 100 928
88 100 84
92 96 88
88 96 104
92 100 120
92 100 148
92 100 204
92 96 300
88 104 380
88 104 480
92 104 576
92 96 648
92 104 724
96 104 776
100 108 820
100 108 876
104 112 892
100 112 932
96 128 92
92 124 92
88 120 108
88 120 124
92 124 148
92 116 200
96 116 288
92 120 388
100 124 488
96 124 576
96 128 652
100 128 720
100 132 772
96 132 844
104 136 872
96 136 892
104 136 928
96 160 92
92 156 100
96 160 104
92 156 128
96 156 152
96 164 228
92 156 300
92 164 404
96 172 496
100 168 576
100 172 664
96 168 724
104 172 792
100 168 844
96 172 868
104 176 904
104 180 932
96 224 92
100 228 96
100 232 112
92 232 136
96 228 160
100 216 224
104 232 308
104 232 404
100 228 492
108 240 580
100 240 656
104 240 724
108 236 784
104 244 816
112 240 876
108 236 904
108 252 940
104 320 96
100 320 96
104 312 116
104 312 132
112 312 180
104 324 248
100 328 320
104 320 400
100 312 488
108 324 600
104 320 664
108 324 728
112 328 800
112 336 836
116 332 868
120 340 904
116 340 940
116 416 104
112 416 112
108 420 120
116 408 140
108 420 184
112 416 252
112 416 324
116 424 408
120 424 512
120 416 608
112 408 668
112 428 720
124 428 788
124 428 828
120 432 876
124 432 904
132 440 920
116 520 116
120 520 124
124 512 136
120 520 152
120 516 204
124 524 268
120 516 340
120 520 424
116 520 520
120 516 604
128 524 664
128 524 736
120 516 800
132 528 836
132 528 876
136 540 908
136 540 936
128 608 124
132 612 140
128 604 144
128 608 176
124 608 212
132 608 288
132 612 364
132 608 440
132 596 528
136 600 604
136 616 676
136 608 740
140 608 792
148 620 836
148 616 880
148 616 912
152 624 940
144 680 136
144 688 144
148 688 164
148 680 188
148 692 236
152 684 304
152 692 384
148 688 464
152 692 552
152 684 624
160 696 692
156 692 752
156 696 804
164 696 848
172 700 888
168 692 916
164 692 940
164 756 152
156 748 164
164 752 180
164 752 212
168 752 252
168 752 336
168 756 400
168 748 472
172 756 568
168 756 636
176 760 704
172 756 760
176 760 812
180 756 856
184 756 880
188 760 908
184 756 936
192 808 164
188 812 188
188 812 224
188 808 248
192 812 288
188 812 340
192 808 412
192 804 492
192 808 580
196 808 640
200 808 704
200 808 764
196 808 808
200 812 864
212 812 896
212 808 924
216 808 944
212 852 200
216 856 208
208 852 244
216 856 272
212 856 320
216 852 368
224 856 428
216 856 512
228 856 588
228 852 648
224 856 712
232 852 772
228 852 820
236 856 864
244 856 896
248 856 920
248 856 948
240 892 232
248 900 240
244 888 280
244 892 308
244 888 356
252 892 408
248 892 464
260 892 540
252 896 604
256 888 668
256 892 724
260 892 784
256 900 832
272 896 872
272 892 896
276 892 924
268 892 944
276 928 268
276 928 272
284 924 304
284 932 340
276 928 380
276 924 424
276 928 484
288 924 544
288 924 624
296 928 688
292 924 732
292 920 788
300 928 836
296 924 860
308 928 900
312 924 924
296 924 948
308 952 300
312 952 304
312 948 328
308 948 360
312 952 400
312 948 448
316 952 504
320 952 564
316 948 624
312 948 696
320 948 752
320 948 788
320 948 820
324 956 868
332 956 900
340 952 928
340 952 948
100 88 84
96 88 88
92 84 104
100 88 120
96 92 140
100 88 196
96 84 280
96 88 384
100 84 488
100 88 572
96 84 632
100 96 712
104 92 776
100 92 816
100 92 856
108 96 892
108 96 924
96 88 80
96 92 96
100 92 108
100 88 120
100 92 144
104 92 200
96 92 284
100 92 392
104 88 472
100 88 568
100 92 656
100 92 724
104 96 788
104 96 824
100 100 868
112 100 896
112 100 928
96 100 84
100 100 88
96 100 100
104 96 120
100 100 152
92 104 212
100 100 292
100 104 380
100 108 476
96 104 572
104 104 656
104 108 724
104 104 796
108 108 832
112 112 872
120 116 904
108 112 932
100 120 84
104 124 96
104 124 100
108 124 128
104 124 156
100 124 204
112 120 296
108 124 384
104 124 472
104 124 568
108 128 652
96 132 712
116 132 788
112 136 828
112 132 876
112 140 912
112 136 936
104 160 88
104 164 96
100 160 100
104 164 128
108 164 160
100 156 212
104 168 292
108 164 376
108 168 488
112 168 584
108 168 656
104 176 728
112 172 804
112 172 844
112 172 872
116 176 912
116 176 940
108 228 96
116 224 100
108 236 104
112 224 120
108 224 172
108 220 228
112 228 308
108 232 408
108 232 500
116 240 596
112 236 656
120 244 728
116 236 792
116 244 832
124 236 868
120 244 900
120 244 932
112 316 96
120 312 104
116 324 120
112 316 128
112 300 176
120 320 236
112 304 296
120 320 404
116 328 504
124 324 584
116 328 664
132 328 720
120 320 792
124 332 832
132 336 864
128 340 900
128 340 932
124 420 96
116 428 104
124 420 124
120 404 144
120 416 172
116 420 252
128 420 336
124 412 412
132 424 512
136 428 592
120 424 672
128 424 740
132 428 792
132 424 852
136 432 880
136 432 904
136 436 944
128 516 112
140 524 124
136 516 140
136 508 160
140 508 200
132 520 260
132 524 348
144 520 432
132 528 512
136 524 616
136 524 684
140 508 748
144 524 804
140 532 832
152 528 872
144 544 912
144 540 928
148 612 120
144 600 124
148 608 148
148 612 176
144 612 208
144 612 280
144 608 360
148 608 436
152 604 532
152 604 612
152 604 680
152 612 744
148 620 796
152 620 848
164 624 896
164 624 908
164 620 936
164 684 140
156 684 152
160 684 172
160 688 196
160 688 232
164 684 300
172 688 384
160 696 460
164 692 552
168 684 616
172 680 688
164 688 744
172 692 804
180 688 864
180 696 868
184 696 908
184 696 932
180 748 156
176 752 172
176 748 180
180 756 216
180 760 260
180 756 316
188 756 404
188 756 476
188 760 560
192 756 640
188 748 696
196 756 764
188 756 812
200 760 852
196 760 876
204 764 908
204 764 936
212 812 168
204 812 180
208 812 208
208 808 236
208 820 276
204 812 344
208 804 420
212 804 500
208 808 564
204 812 632
216 808 696
204 812 764
216 820 816
220 816 852
224 816 888
228 812 920
228 812 940
236 852 204
236 852 212
232 856 236
232 856 268
236 860 312
232 856 368
236 856 440
232 848 508
236 856 576
244 856 652
236 856 704
244 860 772
248 864 816
252 860 856
256 864 892
256 860 920
256 852 944
268 896 240
264 892 240
264 892 268
264 896 300
264 888 316
272 896 388
264 900 456
260 888 516
268 896 596
272 892 668
272 896 728
276 900 768
284 900 812
280 896 860
284 896 900
288 896 924
288 896 944
296 924 268
300 928 276
296 932 304
300 924 332
296 924 364
296 924 408
300 924 476
300 932 560
308 924 620
300 928 668
304 928 732
312 924 780
312 932 828
320 932 872
328 924 900
324 928 920
324 928 944
328 952 300
328 948 304
328 952 332
328 952 368
332 948 404
332 944 452
332 948 516
336 948 572
336 952 632
344 948 696
336 948 744
340 952 792
340 956 836
348 952 872
352 952 900
348 948 920
348 952 952
116 84 84
120 88 92
112 84 96
112 88 116
116 80 144
116 88 208
120 88 276
120 88 376
120 84 460
124 84 556
120 92 632
116 92 704
124 92 760
124 96 824
128 100 860
136 96 896
136 96 928
120 92 80
116 88 92
116 92 100
112 96 120
116 92 156
116 88 204
120 88 276
116 84 368
120 88 468
124 92 572
120 96 644
124 96 712
120 92 780
128 100 828
128 96 876
132 104 900
