滤镜资源/vsco 137 3dl+cube/VSCO 137 3dl/VSCO J1 Minimalist.3dl
#Generated by Picture Instruments - Look Converter
3DMESH
Mesh 4 10
0 64 128 192 256 320 384 448 512 576 640 704 768 832 896 960 1023
0 0 92
4 8 108
24 12 116
8 20 140
24 24 148
8 32 176
12 44 212
28 56 232
12 68 280
24 76 316
20 88 356
20 112 420
28 132 464
12 168 512
28 196 552
16 252 616
16 312 676
8 40 108
12 36 120
24 40 124
12 44 144
28 52 156
16 56 184
20 64 220
32 80 248
20 88 292
28 96 324
16 108 368
16 132 424
28 156 468
20 180 524
24 208 564
12 256 608
20 324 676
12 80 132
12 80 140
32 76 152
24 84 164
36 88 176
24 96 204
16 100 228
32 108 260
24 116 308
32 128 344
20 144 380
16 156 436
28 180 484
16 200 532
28 232 572
12 280 624
24 336 676
20 136 144
12 132 152
32 124 164
20 128 176
36 128 196
32 136 228
28 144 252
36 156 288
28 164 328
36 168 360
24 180 404
20 200 464
32 208 500
12 236 540
24 264 584
16 304 632
44 364 696
20 180 160
20 192 176
32 188 184
24 184 204
36 176 220
36 184 244
40 196 272
40 200 300
40 216 352
44 224 384
36 228 428
24 240 472
28 256 516
12 276 560
24 304 596
20 340 644
72 404 708
28 252 196
32 248 204
40 248 220
24 252 236
40 252 244
36 244 276
44 252 304
48 252 324
44 260 368
52 268 412
40 284 452
32 292 500
36 308 528
16 328 572
36 352 624
32 388 668
100 452 728
40 312 232
40 312 240
40 312 248
32 316 272
44 316 284
48 316 312
48 316 340
56 312 364
48 316 400
52 324 428
52 336 476
44 352 520
44 360 560
28 380 608
40 396 648
36 424 680
32 468 720
44 380 256
40 380 264
52 380 280
44 388 300
44 392 316
48 388 348
48 384 376
56 388 400
56 388 432
68 392 460
56 396 500
56 408 548
60 416 576
52 428 624
56 448 656
48 472 696
52 496 732
60 460 300
60 460 308
60 456 320
52 464 344
56 460 356
52 468 388
40 468 408
48 460 436
48 456 468
64 460 500
76 460 532
72 468 572
80 480 604
72 488 644
76 496 676
76 516 708
72 524 740
64 524 336
64 524 344
68 528 352
68 536 376
56 532 392
48 536 428
52 536 456
52 528 476
48 532 516
64 524 544
76 528 568
92 528 604
100 532 632
96 540 668
104 552 700
104 556 732
104 576 760
96 588 384
92 600 380
92 596 392
84 604 412
76 596 428
60 608 460
56 604 488
64 600 512
68 600 548
76 592 572
84 592 612
104 596 640
116 592 660
124 600 688
128 608 716
128 616 752
132 624 780
104 660 420
100 660 420
104 664 432
92 668 448
88 664 468
88 664 504
72 668 524
80 668 552
80 660 588
88 656 608
100 652 632
116 656 668
132 656 688
136 652 716
148 652 732
156 660 760
160 668 792
128 716 464
124 724 468
128 720 468
116 720 488
112 728 508
108 720 524
100 732 560
104 724 584
108 724 612
116 712 644
128 712 676
128 712 688
144 704 712
148 704 744
164 712 768
176 712 780
176 712 804
152 768 512
144 772 512
152 768 516
140 772 528
144 772 540
128 768 568
124 780 596
132 776 616
132 772 644
140 764 672
144 756 692
152 760 728
168 756 744
168 744 756
184 744 784
192 752 800
192 752 824
172 808 552
176 816 564
168 812 560
164 816 576
164 808 580
160 812 612
152 820 628
152 816 644
156 816 668
168 812 696
164 800 724
176 800 740
192 800 768
196 800 792
200 796 800
208 788 820
212 788 840
204 852 616
192 848 620
192 848 616
184 852 636
188 848 636
184 848 652
184 852 664
192 852 676
188 848 700
196 848 716
192 844 740
200 844 768
208 836 780
212 840 804
224 828 820
228 828 840
232 828 856
284 876 676
292 880 684
280 876 680
244 880 688
216 872 688
212 872 696
208 872 708
216 872 716
212 872 724
220 872 732
216 872 756
224 872 780
228 864 800
240 868 824
248 860 836
256 852 848
260 852 864
28 4 100
24 8 116
32 20 124
28 28 144
24 28 156
16 36 180
12 44 212
12 60 244
12 68 280
16 84 320
16 96 368
20 112 420
16 136 464
12 168 512
12 200 552
12 248 612
24 308 672
32 44 120
32 44 124
28 44 132
32 52 148
32 56 168
24 56 196
24 68 224
24 80 256
20 88 292
16 92 328
16 104 380
16 132 424
16 156 476
20 180 524
12 208 568
16 260 616
32 328 684
28 88 124
28 84 140
40 84 152
40 92 164
44 96 188
32 96 212
28 100 232
24 108 268
24 116 308
20 132 348
20 144 384
16 156 432
12 176 484
16 200 524
12 236 576
8 272 624
44 340 684
24 132 144
20 136 152
32 140 172
32 136 184
40 132 200
44 140 236
40 144 260
40 152 292
28 164 328
28 172 364
28 180 412
20 200 460
16 208 496
12 232 540
8 268 588
8 304 640
60 364 700
16 180 160
24 188 180
20 188 188
36 192 212
36 180 224
44 184 248
44 192 276
44 200 312
40 216 352
36 216 388
32 228 436
28 244 480
16 256 524
16 280 568
8 304 608
12 348 656
88 408 712
28 244 192
32 248 204
32 252 220
24 252 236
36 248 256
36 244 272
44 248 304
40 252 328
44 264 368
44 276 408
40 284 460
32 296 496
28 308 536
16 328 572
24 352 624
28 392 668
112 452 724
40 320 236
44 316 244
32 312 248
32 316 272
32 320 288
44 316 308
48 316 340
52 316 360
48 324 400
52 328 436
48 336 476
44 352 516
36 360 560
28 376 596
28 396 644
32 432 688
92 480 736
40 384 256
40 380 264
40 388 284
40 392 292
36 392 320
48 388 348
44 392 380
52 388 404
64 392 436
64 392 472
52 396 504
56 408 544
52 416 588
52 428 628
52 448 664
44 472 704
48 500 728
60 460 304
60 460 308
56 456 324
52 464 336
44 464 364
48 468 384
44 460 408
40 460 444
48 460 468
60 460 504
72 460 532
72 472 568
72 476 604
72 488 644
72 496 680
76 520 716
72 524 740
64 528 336
64 524 344
60 532 352
64 532 372
52 536 392
48 536 424
52 536 456
44 532 492
48 532 516
64 528 540
72 532 572
92 528 604
96 536 632
100 544 668
96 552 704
100 560 732
104 576 760
92 592 384
92 600 380
84 600 396
84 604 412
68 604 440
56 608 460
52 604 488
60 600 516
68 600 548
68 592 572
84 592 612
100 592 636
112 596 664
124 600 688
128 604 712
132 616 752
132 624 780
100 660 420
100 660 424
96 660 428
92 668 452
84 668 476
80 672 496
72 668 532
76 660 552
80 660 588
84 660 612
100 656 640
116 652 672
128 656 692
132 648 712
148 656 740
156 668 772
160 668 792
124 716 464
124 716 464
120 724 472
124 724 496
116 724 512
104 728 536
100 732 556
92 728 584
104 724 612
112 716 640
116 712 672
128 712 692
140 708 716
152 708 748
160 712 768
168 708 788
176 712 808
144 776 508
144 772 512
144 772 520
140 772 528
140 776 544
128 776 568
120 776 588
132 776 616
128 772 644
136 768 676
148 760 700
152 760 724
156 756 740
172 748 760
180 748 788
188 756 804
188 752 824
172 812 552
176 816 564
164 812 568
164 816 576
160 816 592
156 816 612
152 820 632
156 820 652
156 816 672
164 816 696
160 804 724
176 800 740
184 796 768
192 796 788
196 792 800
200 792 820
212 792 840
200 852 616
196 848 620
204 856 632
200 856 644
188 852 644
180 848 648
184 852 668
188 856 676
188 852 700
192 848 716
192 848 744
200 844 768
208 840 784
212 840 804
216 832 820
224 828 844
228 824 860
300 880 680
300 880 684
308 876 688
284 880 696
228 876 696
208 872 700
208 872 708
212 872 716
212 872 724
216 876 736
220 876 760
224 872 780
224 868 804
240 868 824
248 868 844
252 852 852
260 852 864
48 20 108
52 20 120
56 24 128
60 24 148
52 32 160
56 40 184
52 52 208
40 56 252
40 72 288
32 80 324
24 96 372
20 112 408
16 136 460
16 168 508
12 200 552
12 248 616
60 320 684
68 56 124
60 52 128
68 52 140
64 56 152
72 64 180
68 68 204
52 76 224
56 80 268
48 92 304
36 104 344
32 112 388
24 132 428
16 156 480
20 176 524
12 216 572
20 264 624
64 332 684
80 88 132
80 92 136
72 92 160
68 92 168
76 100 196
68 100 224
64 108 248
64 112 288
56 120 320
44 136 360
36 148 396
20 160 444
16 180 492
16 200 532
8 236 576
20 284 636
76 348 696
72 136 140
72 140 156
64 144 164
68 136 188
68 144 212
72 144 236
72 148 268
68 156 304
64 164 340
56 176 384
40 188 424
16 200 456
16 212 496
12 240 548
8 268 588
24 316 652
88 376 696
60 192 164
52 200 176
56 204 196
60 204 208
72 200 240
72 196 256
72 204 288
72 204 320
72 216 360
64 228 404
52 232 444
28 244 484
16 260 524
16 276 556
8 304 608
48 356 668
112 412 712
40 252 196
48 252 204
48 264 224
60 268 236
68 260 260
72 260 284
76 260 316
76 260 340
80 268 392
76 284 428
60 292 468
36 296 504
28 308 540
20 328 588
28 356 628
56 392 680
136 452 720
40 316 232
40 320 232
36 320 248
48 328 268
56 336 292
76 332 320
76 320 340
72 324 368
76 328 400
76 344 444
68 352 488
48 352 528
36 360 556
28 376 596
32 400 648
32 432 680
132 492 740
44 388 260
44 392 272
44 396 288
40 392 292
40 392 320
60 396 352
72 392 376
64 396 412
72 388 432
72 396 472
52 404 512
56 408 544
52 420 588
52 428 628
48 444 656
40 468 696
56 504 736
60 460 304
56 460 308
52 460 324
52 464 336
40 464 356
44 464 384
56 468 416
56 468 444
48 460 468
60 460 508
76 464 540
76 468 576
72 472 608
68 492 644
72 496 680
76 520 720
72 524 740
68 532 340
64 524 344
60 532 352
64 532 372
52 532 392
52 536 424
52 544 460
52 532 484
52 532 516
60 528 540
72 532 568
92 528 604
96 536 632
96 540 664
96 552 704
100 560 732
104 576 760
92 596 380
92 600 380
84 600 396
84 604 412
72 604 436
60 608 460
52 608 488
56 608 524
64 600 544
68 600 576
80 588 604
100 592 636
112 596 664
124 600 688
132 608 716
132 616 748
132 624 780
104 660 420
104 660 420
96 660 432
88 668 452
84 668 468
84 672 500
76 676 528
76 668 556
80 660 588
84 660 612
100 660 636
112 656 668
128 656 692
136 652 716
144 656 740
152 664 764
160 668 792
124 720 468
124 720 468
116 716 472
116 724 488
116 724 504
104 728 536
100 728 560
92 728 584
104 716 612
112 716 640
120 712 668
132 708 700
140 704 724
152 708 748
160 708 764
168 708 788
176 712 808
144 776 508
148 768 512
144 772 520
140 772 528
136 776 552
128 776 568
120 776 596
132 776 624
132 772 644
136 768 676
140 756 696
152 760 720
160 760 748
172 756 768
184 752 788
188 752 808
188 752 824
172 812 552
168 812 560
164 812 568
164 816 576
156 816 592
156 816 612
152 820 628
152 816 640
156 820 676
160 816 696
160 804 724
180 800 748
188 800 772
200 800 788
196 796 800
200 792 820
212 792 840
200 844 612
196 848 620
208 852 628
192 852 640
188 852 652
180 848 652
188 856 672
188 852 688
188 848 704
192 848 716
192 848 744
200 844 768
208 840 784
216 836 808
216 832 820
220 824 840
228 824 852
324 876 680
324 872 684
328 876 688
328 876 700
292 876 704
212 868 704
212 876 712
212 872 716
212 872 724
216 876 736
220 876 760
224 872 780
224 868 804
240 868 824
244 860 844
252 852 852
260 852 864
88 32 120
80 36 124
92 32 140
92 36 156
104 32 172
100 44 200
96 52 220
88 72 256
84 80 300
80 88 340
68 104 392
56 124 432
44 140 488
40 176 532
28 208 572
48 260 632
104 324 692
104 68 132
92 64 140
96 68 148
112 72 168
116 64 192
100 68 208
100 84 236
96 92 268
96 100 316
80 112 356
76 124 412
64 136 444
44 156 492
40 184 544
36 224 592
60 272 640
