滤镜资源/vsco 137 3dl+cube/VSCO 137 3dl/VSCO TK Ta-ku.3dl
#Generated by Picture Instruments - Look Converter
3DMESH
Mesh 4 10
0 64 128 192 256 320 384 448 512 576 640 704 768 832 896 960 1023
0 28 60
0 32 76
32 36 96
0 40 128
32 48 164
0 60 204
4 76 264
32 88 320
0 124 388
32 148 472
8 196 544
8 252 648
32 300 728
12 368 820
36 440 892
16 528 952
0 588 992
0 44 60
0 48 84
32 52 104
0 60 128
32 64 160
0 80 212
0 96 264
36 116 324
0 144 396
32 168 464
4 212 540
0 264 636
32 316 728
4 388 828
32 448 892
16 528 944
0 600 992
0 56 76
0 64 92
32 68 104
0 80 140
32 92 176
0 108 220
0 128 268
32 148 332
0 180 400
36 208 472
8 252 556
0 288 640
32 340 736
0 404 824
36 472 896
16 548 948
0 608 988
0 88 88
0 96 108
28 96 116
0 104 148
32 120 184
0 144 228
0 168 288
32 196 340
0 224 404
36 256 472
8 292 548
0 340 660
36 388 744
4 436 824
32 500 896
20 560 944
0 620 988
0 120 104
0 132 120
28 140 136
0 148 152
32 160 184
4 184 232
0 208 284
32 236 336
0 272 408
32 308 484
8 336 556
4 380 652
32 424 736
0 480 820
36 528 892
16 584 940
60 640 988
4 176 124
0 180 144
32 188 156
0 204 172
32 208 192
4 236 244
0 268 296
32 288 340
0 324 412
32 356 488
12 396 564
0 436 664
36 476 736
0 520 824
36 568 896
20 616 948
240 664 992
4 240 152
0 244 164
32 252 172
0 264 200
28 276 212
4 292 244
0 320 300
32 352 364
0 384 428
36 408 492
12 448 584
0 488 668
32 524 752
0 572 836
32 604 896
52 644 944
312 688 988
8 316 176
0 320 188
32 324 192
0 336 224
28 348 244
8 360 272
4 380 308
32 408 364
4 444 440
32 468 500
16 504 580
0 544 672
32 572 744
0 608 832
32 632 888
144 672 940
396 712 984
8 400 208
0 404 220
28 408 228
0 412 248
32 424 272
16 444 296
8 456 340
32 464 372
0 496 440
32 528 508
12 556 600
0 588 684
36 616 760
0 640 832
40 668 892
220 696 940
448 728 992
16 484 244
16 484 252
40 484 260
68 500 288
104 504 308
128 512 344
92 524 364
80 532 400
36 552 456
36 584 536
20 604 608
8 628 688
40 648 768
28 676 848
180 696 896
332 728 948
444 740 984
160 552 292
176 564 300
196 564 312
208 568 328
240 576 356
260 588 388
260 584 404
260 596 440
256 608 488
256 620 540
192 656 632
200 676 716
208 692 784
260 712 852
360 732 912
440 760 952
520 780 988
324 628 352
324 632 360
344 636 368
344 632 380
364 632 396
376 640 432
396 648 472
396 660 496
392 660 532
396 672 576
400 680 632
376 708 716
404 728 792
432 748 860
460 760 904
528 784 944
596 808 988
456 692 420
456 692 428
472 692 440
472 696 456
488 696 476
496 696 496
516 700 532
536 704 564
524 712 596
536 720 632
532 724 680
528 732 724
520 756 804
536 776 860
572 796 912
620 816 956
664 836 984
596 744 528
588 740 520
592 744 524
592 744 532
608 744 560
620 748 584
628 748 616
640 752 632
640 760 668
632 760 684
632 768 712
632 780 760
640 780 812
624 812 868
656 828 920
684 852 952
728 872 984
704 796 624
716 800 636
716 796 632
724 796 652
712 792 644
724 800 672
728 800 692
732 800 704
740 804 736
728 808 748
720 816 768
720 816 804
728 828 832
724 832 868
724 860 916
744 884 956
784 904 992
804 844 728
808 848 736
804 848 736
808 844 744
808 844 752
808 848 756
812 852 776
812 848 788
816 856 804
816 860 820
800 860 824
800 864 844
804 876 872
804 880 896
804 888 920
796 916 964
824 944 992
868 892 816
872 896 824
872 896 820
872 896 832
872 896 828
868 896 840
872 900 848
872 900 852
868 904 864
872 904 876
860 900 872
852 912 884
856 912 904
856 924 916
856 924 944
856 928 964
856 964 992
8 24 48
0 32 76
0 32 100
0 40 128
4 48 164
0 60 208
0 72 260
4 88 324
0 120 388
4 152 468
8 188 548
8 244 636
12 296 732
12 368 820
16 436 892
0 520 952
0 580 988
8 40 72
0 48 84
0 52 108
0 60 132
0 68 168
0 76 220
0 96 272
0 112 332
0 140 396
0 172 468
0 216 560
4 264 648
0 320 748
0 384 828
0 456 900
0 528 952
0 596 988
0 64 84
0 68 96
0 72 112
0 80 140
0 96 176
4 112 220
0 128 268
0 144 328
0 176 396
0 212 476
0 244 556
0 288 648
0 340 736
0 404 820
0 468 896
0 540 944
0 608 988
0 88 92
0 96 108
0 100 120
0 112 156
0 124 188
0 144 228
0 164 276
0 192 336
0 220 400
0 252 480
0 292 564
0 336 656
0 372 736
4 436 824
0 500 900
4 560 952
0 620 988
0 120 108
0 132 120
0 144 144
0 144 156
0 164 188
0 192 240
0 216 292
0 244 352
0 272 416
0 308 484
0 344 572
0 384 652
0 432 752
0 484 828
0 532 896
0 584 948
68 640 988
0 176 132
0 180 144
0 192 160
0 204 172
0 216 204
0 236 244
0 268 296
0 292 344
0 320 412
0 360 488
0 396 572
0 436 660
0 480 744
0 520 824
0 560 892
0 612 944
220 660 988
0 248 156
0 252 168
4 252 180
0 264 200
0 276 220
0 292 248
0 320 300
0 352 360
0 380 420
0 412 504
0 448 584
0 488 668
0 524 752
0 560 828
0 600 896
52 644 952
352 688 988
0 320 180
0 320 188
0 332 208
0 344 228
0 352 252
0 360 272
4 380 312
0 416 368
0 448 448
0 476 516
0 504 588
0 544 676
4 572 760
0 600 828
8 640 900
180 676 948
416 712 984
0 400 208
0 404 220
0 408 232
4 416 252
8 424 272
4 448 300
4 456 332
4 468 372
4 500 448
0 532 520
0 560 592
4 588 680
0 616 760
0 640 832
20 668 900
244 696 944
448 728 984
16 484 244
24 488 252
44 488 264
76 492 288
116 504 312
140 512 340
124 528 372
116 540 404
84 548 448
16 580 532
8 604 604
8 628 688
20 656 772
44 684 844
192 700 896
336 724 948
456 752 988
172 556 292
192 564 304
200 564 308
220 572 328
252 584 360
272 580 380
284 596 420
264 600 440
272 612 484
260 616 544
208 652 632
204 676 708
236 692 776
288 716 852
360 736 904
440 760 956
520 780 988
320 632 348
320 632 352
336 632 368
348 636 384
368 644 412
388 648 436
408 652 476
388 660 488
400 664 528
408 672 580
404 684 640
384 708 724
408 732 796
420 748 860
472 768 912
536 792 960
596 808 988
460 688 428
464 692 432
468 692 444
488 696 460
488 692 472
508 696 500
524 704 532
536 704 568
532 708 596
528 716 624
528 720 672
536 728 720
520 756 800
540 780 860
576 800 912
612 816 956
668 840 984
592 740 512
596 744 524
600 744 532
600 748 540
616 744 568
620 752 580
620 748 604
640 752 636
648 756 668
636 760 688
644 772 720
640 776 760
640 780 804
628 808 868
652 832 916
692 848 956
728 872 984
704 800 624
716 800 636
708 792 636
716 796 644
712 788 652
728 796 672
732 800 688
732 800 708
740 804 736
728 808 752
728 812 776
724 820 808
724 828 840
728 836 872
720 864 920
752 880 964
784 904 992
808 848 732
808 848 736
812 848 748
812 848 748
816 852 760
804 844 752
812 852 776
812 848 788
820 856 804
824 864 828
800 860 824
804 868 848
804 876 872
804 880 896
808 884 924
796 920 964
824 936 996
868 892 816
872 896 824
872 896 824
872 896 832
876 896 828
864 896 840
872 900 852
872 900 852
868 904 864
872 904 876
864 904 876
856 912 884
852 916 904
856 924 916
852 924 944
856 932 960
856 964 996
24 28 52
16 36 76
4 36 104
0 40 128
4 48 164
0 56 208
0 64 264
4 80 324
0 112 392
0 140 464
8 176 544
8 228 636
12 292 724
12 356 824
16 436 892
0 512 952
0 588 988
16 44 68
12 48 88
4 52 108
0 56 136
0 60 172
0 68 216
0 88 268
0 104 328
0 132 392
0 168 472
0 204 552
0 252 644
0 312 744
0 376 828
0 448 892
0 528 956
0 592 988
12 64 80
4 64 96
0 72 112
0 80 140
0 88 184
0 104 228
0 120 276
0 144 340
0 164 404
0 200 472
0 236 556
0 292 660
0 344 744
0 400 836
0 464 900
0 536 952
0 600 988
0 88 88
0 92 108
4 104 124
0 112 148
0 132 192
0 144 224
4 164 280
0 192 340
0 212 404
0 248 476
0 284 564
0 324 648
0 372 740
0 424 820
0 492 896
0 556 952
0 616 988
0 128 108
0 136 132
0 144 144
0 152 160
0 172 192
0 192 240
4 212 288
0 236 340
0 272 412
0 304 488
0 336 568
0 380 660
0 428 748
0 464 820
0 524 896
0 580 952
80 636 984
0 176 132
0 180 144
0 196 164
0 208 184
0 212 200
0 236 244
0 268 296
0 296 352
4 328 428
0 364 500
0 396 572
0 436 664
0 480 748
0 524 836
4 568 904
0 616 952
216 656 988
0 244 152
0 244 164
0 256 184
0 272 204
0 280 220
4 296 252
0 320 300
0 356 364
0 384 432
0 416 496
0 448 580
0 488 668
0 520 748
0 564 824
0 600 896
60 640 948
340 680 988
0 324 184
0 328 196
0 340 208
0 336 224
0 348 256
0 364 280
4 380 316
0 416 368
4 440 440
0 472 504
4 508 592
4 540 676
4 572 760
0 600 828
4 640 896
212 672 944
452 712 992
0 400 208
0 404 220
8 412 236
8 420 256
32 432 280
28 440 308
12 456 336
8 472 376
4 508 452
0 536 532
0 560 600
0 584 680
0 612 764
0 640 840
44 664 904
296 700 956
456 728 988
52 492 252
68 484 256
84 488 264
108 492 284
144 504 320
168 512 344
168 528 368
140 540 408
128 552 456
40 584 528
20 604 608
24 628 688
28 652 768
48 676 836
216 700 896
352 724 944
472 748 984
200 560 296
204 564 300
220 568 312
236 572 328
252 576 356
280 584 384
300 596 416
300 600 452
292 616 492
280 620 540
224 648 624
232 668 696
252 692 784
300 712 848
380 740 904
444 756 948
536 776 988
328 628 348
340 628 352
348 632 372
364 636 384
380 644 412
404 648 436
412 652 468
416 656 496
416 664 532
416 672 580
416 676 640
400 708 724
408 724 792
444 744 856
484 764 912
544 788 952
604 812 984
472 688 424
468 688 432
472 688 440
488 696 460
496 700 480
512 700 508
528 704 544
548 708 576
524 712 596
536 720 632
540 724 676
544 736 736
524 760 808
552 780 864
568 796 912
616 820 960
672 844 988
596 744 516
596 744 528
600 740 528
612 744 544
628 744 572
624 752 584
640 752 612
648 756 640
656 760 672
640 764 692
640 764 720
644 776 760
648 780 804
636 812 872
668 836 924
696 852 960
732 872 984
708 796 624
712 796 624
712 792 632
720 792 644
724 796 660
728 796 672
732 796 688
732 796 700
740 804 736
736 812 756
732 816 780
732 820 812
732 824 836
736 836 876
728 864 924
756 884 960
784 904 992
808 848 740
808 848 736
816 848 748
812 844 744
812 848 756
808 848 760
820 848 776
816 852 788
820 856 804
820 860 824
808 864 828
808 868 852
808 876 868
808 876 900
808 884 924
796 916 964
824 940 988
872 896 824
872 896 824
876 896 824
876 896 832
872 896 828
872 900 836
880 896 844
872 900 852
872 904 864
872 904 876
868 908 880
860 908 884
852 916 904
860 924 920
848 920 940
856 936 964
856 964 992
44 32 60
36 32 76
32 36 96
8 40 128
4 44 164
0 56 212
4 68 264
0 80 324
0 96 392
4 132 472
8 172 540
8 220 636
12 276 732
12 344 816
12 424 892
0 508 952
0 584 988
40 44 64
32 52 88
32 56 108
8 60 140
0 68 168
0 68 220
0 80 268
0 96 328
0 128 396
0 152 476
0 196 556
0 244 636
4 296 732
0 364 820
0 444 900
0 524 952
