滤镜资源/vsco 137 3dl+cube/VSCO 137 3dl/VSCO D1Distortia.3dl
#Generated by Picture Instruments - Look Converter
3DMESH
Mesh 4 10
0 64 128 192 256 320 384 448 512 576 640 704 768 832 896 960 1023
12 4 972
8 4 984
32 12 984
8 4 984
32 12 980
8 4 984
0 0 1012
32 12 1000
0 0 1012
32 12 1000
20 20 972
20 20 984
36 20 984
20 20 984
36 20 984
8 4 984
0 0 1008
8 60 988
0 60 1012
32 64 1004
0 60 1012
32 56 1000
8 60 988
0 60 1012
32 56 1004
0 68 1016
32 56 1004
12 60 988
0 60 1012
32 56 1000
0 60 1012
32 56 1004
8 60 988
0 60 1008
12 124 992
0 128 1016
32 124 1004
0 128 1016
32 124 1004
12 120 992
0 128 1016
32 124 1004
0 128 1016
32 128 1004
8 128 992
0 120 1016
32 116 1004
0 124 1016
32 124 1004
12 124 992
0 124 1012
16 192 992
0 188 1016
36 184 1004
0 188 1016
32 184 1004
12 188 996
0 188 1016
36 192 1004
0 188 1016
32 184 1004
12 188 996
0 188 1016
32 184 1004
4 188 1016
32 188 1004
12 188 996
0 188 1012
16 256 996
0 256 1016
32 252 1004
0 256 1016
32 244 1004
16 256 996
0 256 1016
32 256 1004
0 256 1016
32 252 1004
16 256 996
0 256 1016
32 252 1004
0 256 1016
32 252 1004
16 256 996
0 256 1012
16 324 1000
0 316 1016
32 316 1004
0 316 1012
32 312 1004
16 316 1000
0 316 1016
36 312 1004
0 316 1016
36 312 1004
16 316 1000
0 316 1016
36 312 1004
0 316 1016
36 312 1004
16 316 1000
0 320 1012
16 380 1000
0 380 1016
32 376 1004
0 380 1016
32 376 1004
16 380 1000
0 380 1016
32 376 1004
0 380 1016
32 376 1004
16 380 1000
0 380 1016
36 376 1008
0 384 1016
36 376 1008
16 380 1000
0 380 1012
20 448 1000
0 448 1012
32 444 1004
0 448 1012
32 444 1004
20 448 1000
0 448 1012
32 444 1004
0 448 1012
36 444 1004
20 448 1000
0 448 1012
36 444 1004
0 448 1012
36 444 1008
20 448 1000
0 448 1012
24 504 1004
0 508 1016
36 504 1004
0 508 1016
36 504 1004
20 512 1004
0 516 1016
36 504 1004
0 508 1016
36 504 1004
24 504 1004
0 508 1016
36 512 1008
0 508 1016
36 504 1008
24 508 1004
0 508 1012
24 572 1008
0 576 1016
36 572 1004
0 576 1012
36 572 1004
24 572 1008
0 576 1016
36 572 1008
0 576 1016
40 572 1008
24 572 1008
0 576 1016
40 572 1008
0 576 1016
40 572 1012
24 568 1004
4 572 1012
24 628 1008
0 640 1012
36 636 1000
0 640 1012
36 636 1000
24 636 1004
0 632 1016
36 636 1004
0 640 1012
36 636 1004
24 636 1004
4 644 1016
40 628 1008
0 632 1016
40 636 1008
24 636 1004
0 636 1008
28 696 1008
0 700 1012
36 704 1004
0 700 1012
40 696 1000
28 696 1008
0 700 1012
40 696 1004
0 700 1012
40 696 1004
28 696 1008
0 700 1012
40 704 1008
0 704 1016
40 696 1012
28 696 1008
0 696 1008
32 764 1012
0 764 1016
40 764 1000
0 764 1016
40 764 1004
28 760 1008
0 764 1016
40 764 1008
0 768 1016
40 764 1008
28 768 1012
0 764 1016
40 760 1012
0 768 1016
44 760 1012
32 764 1012
0 764 1012
32 832 1012
0 828 1016
40 824 1000
4 828 1016
40 824 1004
32 828 1012
0 828 1016
40 824 1004
0 828 1016
40 824 1008
32 824 1012
0 828 1016
44 824 1012
4 828 1016
44 824 1012
32 828 1012
0 828 1012
32 892 1012
0 896 1016
40 892 1000
0 896 1016
44 884 1004
32 892 1012
0 896 1016
44 888 1004
0 900 1016
44 888 1008
32 892 1012
0 896 1016
44 888 1012
0 896 1016
44 888 1012
32 892 1012
0 896 1012
36 948 1016
0 956 1016
40 948 1000
0 960 1016
44 944 1004
36 948 1016
0 956 1016
44 944 1004
0 956 1016
44 944 1008
36 948 1016
0 956 1016
44 944 1012
0 960 1016
48 944 1012
36 948 1016
0 960 1016
36 996 1016
0 1012 1016
40 996 1000
0 1012 1016
40 996 1004
40 988 996
24 996 996
48 984 992
24 996 996
48 984 992
36 992 1016
0 1012 1016
44 992 1012
0 1012 1016
48 992 1012
48 988 1016
32 992 1016
64 4 992
52 0 988
64 4 992
64 4 992
60 12 992
52 0 1016
60 0 1016
52 0 1016
60 0 1016
60 0 1016
60 20 988
56 20 984
64 20 988
64 20 988
64 20 988
60 0 1016
60 0 1016
56 156 1008
56 160 1008
48 136 1008
56 128 1012
48 104 1012
56 84 1016
56 68 1016
64 68 1016
48 60 1016
56 56 1016
52 60 1016
52 60 1016
56 60 1016
48 56 1012
48 56 1012
52 60 1016
52 56 1016
48 208 1008
48 204 1008
56 204 1000
48 192 1008
56 180 1008
52 172 1008
52 156 1008
56 148 1012
56 140 1008
56 140 1012
48 128 1012
56 124 1012
60 124 1012
52 120 1012
52 120 1012
56 120 1016
52 120 1016
52 260 1004
48 256 1004
48 256 1000
56 252 1004
52 240 1004
48 236 1004
52 216 1012
48 216 1004
56 204 1008
52 200 1004
48 200 1004
44 192 1008
52 184 1012
52 184 1008
52 184 1012
56 180 1012
52 180 1004
48 292 996
48 312 1000
48 304 992
48 304 1000
52 296 996
44 292 996
48 284 996
52 280 1000
48 272 1008
48 264 996
52 260 1008
48 256 1000
52 248 1000
52 244 1004
48 240 1008
48 248 1004
44 240 1004
48 312 996
40 356 992
40 364 988
44 360 992
52 356 996
44 340 992
40 340 1000
48 332 996
52 328 996
48 332 996
44 328 992
44 320 996
40 312 996
44 312 996
48 312 1000
52 308 1000
44 304 1000
44 376 992
40 408 992
40 412 984
40 412 988
40 412 988
44 404 984
48 400 992
44 396 996
44 388 992
44 388 988
48 380 988
48 380 996
48 372 992
44 372 996
44 372 1000
44 368 988
44 364 988
40 432 984
44 464 988
44 472 988
48 468 984
44 472 988
44 464 988
40 456 992
48 456 984
44 452 988
44 444 988
40 436 988
44 444 988
44 444 988
40 440 984
40 440 984
44 436 992
44 424 984
44 492 980
40 508 984
36 524 976
44 520 976
44 520 976
44 520 976
36 516 980
44 512 976
40 508 984
40 508 980
40 508 984
44 500 980
36 500 984
44 500 988
44 500 984
40 496 980
40 488 980
40 556 980
40 564 980
40 576 972
36 580 972
36 580 972
36 580 972
36 580 972
36 580 972
36 572 976
40 564 976
40 564 968
40 564 980
44 564 972
40 564 976
36 560 972
40 556 980
40 540 976
40 612 972
36 620 972
36 628 964
40 632 968
36 636 968
40 640 972
40 632 968
40 632 976
36 628 964
40 624 972
44 624 964
36 620 972
40 620 972
36 620 976
36 620 972
36 620 976
36 604 972
36 676 964
32 672 960
32 692 972
32 692 964
32 692 964
32 692 968
32 692 968
32 692 964
32 692 972
36 692 964
32 684 968
32 684 960
32 684 968
32 676 964
36 676 964
36 676 972
32 664 972
32 740 964
32 740 968
36 744 964
28 756 968
32 756 968
28 756 964
32 748 960
32 748 960
28 752 956
32 748 968
32 748 968
32 748 964
32 740 956
32 748 964
32 748 964
32 732 960
32 724 960
28 804 956
28 804 960
28 804 956
32 808 956
28 812 956
28 812 956
28 804 960
28 812 964
28 812 956
28 804 960
28 812 956
28 812 956
28 804 956
28 804 956
28 804 956
32 804 960
32 780 960
28 860 948
32 864 952
32 872 956
24 872 948
32 864 952
28 868 944
24 872 948
36 872 952
28 872 956
32 868 952
32 864 952
28 872 956
32 864 952
28 868 948
28 860 948
32 864 952
28 852 956
32 928 952
32 928 952
28 936 956
28 932 944
28 932 944
36 924 952
28 936 956
28 928 944
32 928 948
28 928 944
28 928 952
32 928 952
28 928 952
32 928 952
36 928 952
36 928 944
28 908 952
28 980 944
24 988 952
28 984 940
28 984 936
28 980 944
36 980 948
36 976 940
40 976 932
36 976 940
36 980 944
28 980 944
24 988 952
28 980 944
28 980 944
28 984 936
44 980 952
44 956 944
124 0 988
124 0 988
124 0 988
128 4 992
120 0 988
120 0 1012
120 0 1012
120 4 1016
120 0 1012
124 0 1016
116 20 984
112 20 984
116 20 984
120 20 984
116 20 984
116 0 1012
116 0 1012
108 200 992
108 204 988
108 184 992
116 144 1000
116 116 1004
112 100 1008
112 76 1008
116 68 1008
116 68 1012
120 60 1012
120 60 1012
124 56 1012
116 56 1008
120 60 1012
120 60 1012
116 60 1012
116 60 1012
108 272 976
108 284 976
112 284 976
100 252 976
104 236 984
108 208 988
108 176 996
112 156 996
120 144 1000
108 128 1000
116 124 1004
112 120 1000
116 116 1000
120 116 1004
112 112 1000
112 112 1000
108 112 1004
100 316 972
104 328 968
100 324 972
108 312 968
104 300 976
104 280 976
104 260 976
104 244 988
108 220 984
116 204 992
108 208 992
108 192 996
108 184 996
108 176 996
108 176 992
112 176 996
112 168 996
108 368 964
100 368 956
92 364 964
100 360 960
104 348 964
104 336 968
100 324 968
100 304 968
108 292 980
108 276 980
108 264 980
104 256 984
104 248 984
104 236 984
104 228 988
108 236 984
108 232 984
92 404 956
92 404 952
96 408 952
96 400 952
96 388 956
100 380 964
96 368 956
100 360 960
104 348 960
100 344 968
100 324 960
100 316 968
96 312 972
100 304 968
108 296 972
108 292 972
108 288 976
96 436 956
92 452 948
92 452 948
92 448 944
96 444 944
96 432 944
96 416 956
92 412 952
96 400 952
104 400 956
96 388 956
100 380 956
100 372 964
100 368 964
96 360 960
100 352 960
104 340 964
92 484 936
88 496 936
92 500 944
84 492 936
92 492 940
88 484 944
92 476 944
96 468 944
88 456 948
92 452 948
92 440 948
92 432 948
92 432 952
100 420 952
88 420 956
92 412 960
96 400 956
92 520 936
88 536 928
84 544 932
84 540 932
92 540 928
88 536 936
88 528 936
88 520 936
96 516 932
88 504 940
88 500 936
92 488 940
92 488 940
88 484 936
88 476 940
88 472 940
88 456 944
88 556 928
84 580 920
80 588 920
84 592 924
80 588 920
80 588 920
84 580 924
80 576 928
84 572 924
88 564 932
88 556 928
84 552 928
88 548 928
84 544 928
84 536 928
88 520 936
88 508 936
84 600 920
76 632 916
76 640 916
80 636 908
76 640 920
76 640 912
76 632 908
80 636 920
80 624 920
80 616 916
80 608 920
84 608 920
84 604 928
84 600 916
80 600 924
80 588 928
84 564 920
76 652 912
76 672 908
76 688 912
76 688 904
76 692 900
76 688 908
76 688 912
76 688 912
76 680 916
76 672 912
80 672 912
80 664 904
76 668 912
76 660 908
76 660 912
76 640 916
80 628 916
76 716 904
72 732 896
72 740 900
72 740 900
68 740 900
68 740 900
68 740 896
76 740 896
76 728 900
76 728 900
72 724 900
72 724 896
80 724 900
72 724 904
76 716 900
72 696 908
72 680 908
68 780 888
68 784 884
72 796 896
76 796 888
68 800 888
72 792 896
76 792 896
68 788 892
72 788 892
76 788 892
68 788 900
72 788 896
72 780 896
72 776 884
68 776 892
68 756 896
72 736 896
72 840 876
64 840 884
68 844 888
68 848 880
68 848 880
68 848 880
68 848 880
64 844 880
68 848 884
64 844 884
64 840 884
68 848 880
64 840 884
72 840 880
72 840 884
68 820 884
68 800 888
64 900 872
64 900 872
60 900 868
60 908 876
64 900 864
64 900 872
64 900 864
64 900 868
64 900 868
56 900 876
64 900 872
64 900 872
64 900 872
64 900 872
64 896 864
60 876 872
64 860 884
60 952 864
60 952 864
56 956 864
60 952 864
60 952 864
64 948 868
64 948 864
64 948 868
64 952 868
64 948 868
60 952 864
56 956 864
60 952 864
60 952 864
64 948 856
68 928 872
68 900 868
188 0 992
188 4 992
188 4 992
188 0 996
180 4 992
188 0 1016
188 0 1016
184 4 1016
184 4 1016
188 0 1016
180 20 984
180 20 984
180 20 984
180 20 980
176 20 984
188 0 1016
184 0 1016
176 108 1000
176 136 988
176 144 984
180 120 996
180 100 996
176 88 996
176 72 1004
176 72 1004
172 68 1004
180 56 1012
180 56 1008
180 56 1008
176 52 1004
180 56 1008
184 52 1008
180 56 1012
