滤镜资源/vsco 137 3dl+cube/VSCO 137 3dl/VSCO J2 Minimalist.3dl
#Generated by Picture Instruments - Look Converter
3DMESH
Mesh 4 10
0 64 128 192 256 320 384 448 512 576 640 704 768 832 896 960 1023
0 0 20
4 8 36
24 12 48
12 20 56
28 32 68
24 40 96
20 48 120
36 52 160
24 64 208
36 76 260
24 84 320
20 92 384
32 112 444
20 140 504
28 172 548
16 224 620
16 288 684
4 40 44
12 40 48
28 44 56
20 48 68
32 52 84
28 60 104
32 64 136
40 76 168
28 80 220
32 88 268
24 100 328
20 108 392
28 124 448
12 152 512
24 176 560
16 224 612
16 300 688
20 64 52
8 68 56
32 68 64
24 80 80
36 80 92
28 88 116
32 92 156
44 100 192
32 104 240
40 116 284
28 124 348
20 132 400
28 152 460
12 180 528
28 204 576
16 256 632
16 316 692
20 116 76
20 112 76
32 112 88
32 112 100
44 116 112
40 124 144
40 128 172
48 140 220
36 144 264
44 144 312
36 160 368
20 168 428
28 188 488
16 212 544
28 240 592
16 288 648
36 348 708
32 160 100
32 172 108
44 168 112
36 164 128
44 160 132
52 172 164
48 180 200
52 180 236
52 196 292
52 200 336
40 208 396
32 220 456
32 236 508
8 256 556
28 280 604
24 320 656
52 392 716
32 224 124
32 224 124
48 228 140
36 224 160
52 224 176
48 228 200
56 232 228
64 232 268
56 244 316
56 244 364
52 260 428
36 276 480
32 284 528
16 308 576
32 336 628
20 372 680
80 436 744
60 284 160
56 292 164
56 288 172
48 296 196
60 296 212
52 292 240
52 300 268
68 300 304
64 304 356
60 304 396
56 316 456
48 332 516
44 344 560
32 368 616
36 380 652
32 412 688
20 452 728
68 360 196
56 364 200
68 364 212
52 376 236
60 376 256
56 372 284
60 368 316
68 368 344
64 372 392
72 372 436
64 388 488
60 396 536
60 408 580
44 416 628
52 436 668
40 456 708
36 488 752
76 444 240
72 436 244
76 440 248
68 444 280
72 448 300
60 460 340
60 452 372
56 448 400
60 444 440
68 448 480
72 452 524
72 456 568
84 468 616
64 480 652
60 488 684
68 504 720
56 520 760
88 512 280
80 512 284
84 516 296
80 528 324
80 524 344
68 528 384
60 528 420
64 524 456
52 520 492
72 524 532
84 520 564
84 524 604
100 524 640
96 540 676
96 544 712
96 560 744
92 572 772
104 584 328
96 592 332
104 592 344
92 596 372
96 592 392
80 600 432
68 596 468
68 596 500
68 592 540
72 592 572
84 592 612
100 592 644
116 584 668
116 592 704
124 600 736
124 616 768
124 620 792
128 656 384
120 660 384
124 660 396
116 660 416
112 660 440
88 664 472
88 668 516
84 664 540
80 660 580
88 656 616
100 652 640
116 652 676
128 648 700
132 652 732
144 652 748
156 656 784
156 664 804
140 716 428
136 720 428
140 712 436
128 724 460
124 724 480
116 724 512
108 728 552
108 724 576
104 724 612
116 712 644
124 708 680
132 704 708
132 700 724
148 708 760
164 704 772
168 708 796
172 708 820
160 768 484
156 772 484
156 768 492
144 764 508
148 772 524
136 772 556
124 780 592
132 776 612
124 768 644
140 760 676
148 760 708
148 756 744
160 756 760
168 748 776
180 748 792
184 752 820
192 752 844
180 808 540
172 816 552
172 816 556
168 816 572
168 816 576
164 816 608
152 820 628
160 816 652
160 824 680
164 812 700
168 804 732
176 808 764
188 800 784
184 796 800
196 792 824
208 784 832
212 788 852
200 848 612
196 852 616
200 844 616
184 852 636
184 852 636
180 848 652
188 856 668
188 852 680
188 852 708
196 844 728
192 844 756
200 844 780
204 836 792
204 840 820
220 828 832
224 828 856
236 828 876
284 876 680
292 876 692
280 876 688
244 880 696
212 872 692
216 868 704
216 872 716
212 872 724
216 876 732
216 872 744
216 868 768
220 872 796
232 864 820
240 864 840
248 860 864
252 852 860
252 852 876
24 4 28
28 8 40
32 20 48
32 28 64
40 28 80
32 40 104
20 48 124
24 56 164
24 64 208
24 76 260
24 84 324
20 92 384
20 116 444
20 140 504
16 172 552
8 220 620
16 284 680
36 36 36
36 36 48
32 44 56
44 56 72
36 56 84
36 60 108
32 64 136
28 76 176
28 80 220
24 88 272
24 96 332
20 108 396
12 128 456
12 152 512
12 180 564
12 232 624
24 304 688
40 76 56
40 80 68
44 76 76
44 88 84
52 88 100
48 92 128
40 96 160
40 104 196
32 104 240
32 116 288
24 120 348
24 136 404
12 152 460
16 180 528
12 208 580
12 248 636
28 328 696
20 116 72
28 116 80
44 120 88
44 120 104
56 128 124
60 128 148
56 132 180
48 140 224
40 144 264
40 148 312
36 160 368
24 172 428
12 192 484
16 212 544
12 244 596
12 288 652
44 352 708
32 160 100
32 172 108
44 168 120
48 168 128
52 168 144
52 176 172
56 180 208
56 180 244
52 196 292
48 200 340
40 204 400
32 220 456
16 236 512
12 260 560
8 284 608
12 324 656
72 396 716
36 220 120
32 224 124
40 228 140
40 232 160
48 232 184
48 228 204
56 232 228
56 236 272
56 244 316
48 256 372
52 268 436
36 276 476
20 284 532
16 308 576
20 336 632
16 372 680
100 436 740
56 292 164
52 296 168
48 292 172
48 296 196
52 296 216
52 292 240
52 300 272
60 300 308
60 300 348
60 308 408
52 324 456
48 332 516
36 348 560
28 364 604
32 380 644
28 416 688
84 472 748
64 364 196
56 364 200
60 368 212
52 376 236
52 376 260
52 372 288
60 368 316
60 372 352
68 376 396
72 376 452
64 380 488
60 396 536
52 408 584
44 416 628
44 444 676
32 456 708
40 484 744
76 444 240
72 436 244
68 444 256
68 444 280
64 452 304
64 460 336
60 448 368
52 452 400
64 452 444
64 448 480
76 448 524
72 456 568
76 468 616
64 480 652
56 488 688
72 508 732
60 524 760
84 512 280
80 520 288
76 520 296
76 524 320
72 528 352
68 532 384
56 528 420
56 532 460
60 520 488
60 516 520
76 520 568
88 524 604
96 532 644
100 544 680
92 548 716
96 560 748
92 572 776
100 584 328
96 592 332
96 592 344
92 596 372
92 600 400
76 604 432
68 600 472
60 596 500
68 592 540
68 596 572
84 592 612
100 588 640
112 592 680
116 592 704
116 600 732
124 612 768
120 616 784
124 656 380
120 652 380
116 664 396
116 660 416
100 664 444
84 668 472
84 672 516
84 660 540
80 660 580
84 660 620
100 652 644
112 652 676
124 652 700
128 648 728
140 652 748
148 660 784
152 664 804
136 720 428
136 720 428
136 716 440
128 724 460
120 720 488
116 724 512
108 728 552
100 724 580
108 724 608
112 716 648
120 712 680
136 712 712
132 700 728
148 708 760
156 708 780
168 704 796
172 704 820
156 772 476
156 772 484
152 772 500
148 768 512
144 776 532
132 776 560
120 776 588
128 780 616
132 772 644
136 764 680
144 760 704
152 756 740
156 756 764
168 752 780
176 748 796
180 752 824
192 752 844
176 812 544
172 816 552
168 812 556
164 812 568
164 816 588
152 820 604
152 820 632
156 820 660
156 820 676
160 816 704
164 808 736
176 808 760
184 800 784
184 796 808
192 788 820
204 788 836
212 788 852
196 848 612
200 852 616
204 856 628
200 856 640
188 852 652
180 848 656
188 856 672
188 856 684
188 852 708
192 852 724
192 844 760
200 844 780
200 840 800
204 840 820
212 832 836
220 832 856
232 824 872
300 880 688
300 880 692
300 880 696
284 876 700
224 876 704
208 872 708
216 872 716
212 872 724
216 876 732
212 876 744
220 876 768
220 872 796
228 868 820
240 864 840
244 868 856
248 856 864
252 856 876
52 12 28
64 20 40
64 20 56
76 20 68
68 36 88
64 48 108
60 48 132
60 56 172
48 64 216
48 76 272
32 84 328
24 92 376
20 116 440
20 140 500
16 172 552
12 224 628
36 296 692
72 48 36
64 44 40
76 52 56
72 56 76
76 64 92
76 72 120
72 72 152
64 76 188
52 80 232
56 88 288
40 96 340
24 112 396
12 128 456
8 152 512
12 188 568
20 240 636
44 312 700
76 76 48
76 76 52
76 80 64
88 84 88
88 88 104
76 92 140
80 100 172
72 100 212
64 104 260
56 112 308
44 128 360
32 136 416
16 156 472
12 180 532
8 208 580
20 256 648
56 324 708
76 120 56
72 124 72
72 128 84
80 124 100
84 132 128
88 132 160
84 140 196
80 144 236
72 144 280
64 152 332
52 168 384
24 176 428
12 192 480
12 216 540
12 244 592
20 296 660
72 356 720
64 168 84
64 172 96
60 176 108
76 180 128
80 180 156
84 180 180
84 184 212
84 184 256
80 196 308
76 204 360
56 208 408
28 220 460
16 236 508
12 252 556
8 284 608
32 332 668
96 392 728
48 228 120
56 224 124
56 232 144
72 236 164
80 232 184
80 236 208
84 240 244
96 244 292
96 248 344
80 268 396
72 268 444
44 272 496
20 284 532
20 308 588
24 340 640
44 380 692
124 440 744
56 292 156
56 292 164
52 292 172
56 304 192
72 312 216
88 308 252
84 304 276
84 308 316
88 312 360
88 324 412
72 328 460
56 336 512
36 348 556
28 364 604
32 380 648
28 420 692
132 480 756
56 368 192
56 372 200
60 376 212
56 372 232
56 372 260
76 376 296
80 376 324
76 384 364
84 376 396
76 376 444
60 388 492
60 392 536
52 412 584
44 416 628
40 432 668
32 456 708
40 492 748
76 444 240
72 436 244
64 448 256
68 448 280
64 452 304
60 456 336
72 452 372
64 456 408
60 452 448
64 448 484
72 452 532
72 456 568
72 468 616
64 480 652
56 488 688
68 508 736
64 516 756
84 528 284
88 516 288
80 520 292
76 524 320
72 524 352
68 528 384
60 532 420
60 524 452
60 516 492
64 528 528
80 528 568
84 524 604
96 528 640
100 536 676
92 548 716
88 556 744
88 576 776
100 592 332
96 592 332
96 588 344
96 600 368
92 596 396
76 604 428
68 600 468
60 604 504
68 600 540
68 596 572
84 588 604
100 588 640
112 592 680
112 592 704
120 604 736
124 608 768
124 620 788
120 652 372
120 652 380
120 664 396
116 660 412
100 668 436
88 672 476
84 672 512
80 668 544
80 664 580
84 660 620
100 652 644
112 656 676
124 652 700
132 652 732
144 656 752
148 660 784
148 668 808
136 720 424
140 720 436
136 716 440
128 724 460
120 728 484
116 724 520
108 728 552
100 724 584
108 716 612
112 716 648
120 716 684
132 712 712
136 704 736
148 708 760
152 700 780
168 704 800
172 708 820
156 772 476
156 772 484
152 772 500
148 776 512
144 776 532
132 776 552
124 772 588
128 780 616
132 772 644
136 764 680
144 760 708
144 760 736
156 760 764
168 756 780
172 748 800
180 752 824
192 752 844
176 812 544
168 816 540
168 812 556
156 816 568
164 816 588
152 816 608
152 820 628
152 816 648
156 816 676
160 816 704
164 808 736
180 804 764
184 800 780
184 796 800
192 796 824
204 788 836
208 788 848
200 844 608
200 852 616
208 852 624
192 852 640
188 852 652
180 848 656
188 856 676
188 852 692
188 848 708
192 848 732
192 844 760
200 844 784
200 840 800
212 836 820
212 832 836
216 828 852
228 828 872
324 872 688
328 876 688
332 880 704
320 876 704
284 876 712
216 872 716
216 872 720
212 872 728
212 876 736
212 876 748
220 876 772
220 872 804
228 868 820
240 864 840
240 860 860
248 856 864
252 852 876
80 24 32
84 28 40
96 28 48
100 36 68
112 32 88
112 44 116
112 60 152
108 64 184
96 72 228
88 80 284
76 88 344
60 104 408
48 120 468
40 148 528
28 180 576
32 232 640
84 304 704
100 52 44
96 56 44
96 56 48
108 60 64
124 64 104
116 76 128
120 80 160
108 80 192
100 88 248
96 96 300
84 104 368
68 112 424
44 132 480
44 156 532
32 200 596
40 244 652
