滤镜资源/vsco 137 3dl+cube/VSCO 137 3dl/VSCO 9 Legacy.3dl
#Generated by Picture Instruments - Look Converter
3DMESH
Mesh 4 10
0 64 128 192 256 320 384 448 512 576 640 704 768 832 896 960 1023
100 100 148
108 104 160
108 100 164
100 100 180
108 100 192
100 108 220
104 104 260
112 104 312
108 104 400
112 104 456
112 116 540
112 112 616
112 116 668
116 120 744
116 120 780
124 124 812
124 120 860
104 112 156
100 112 160
108 112 172
104 112 184
108 108 192
108 116 228
108 116 264
112 112 308
104 112 408
116 116 456
108 124 528
112 124 612
120 124 680
116 124 748
128 124 788
124 132 808
124 128 860
104 124 156
104 128 164
116 124 168
108 128 188
112 124 196
104 132 224
112 128 264
120 128 312
108 132 384
116 132 472
112 136 532
116 140 612
124 140 692
120 140 748
132 136 788
124 140 828
124 140 856
108 156 152
112 148 168
120 148 168
108 152 184
120 148 200
108 148 228
112 156 264
128 156 328
116 156 388
120 156 476
116 160 540
116 160 624
128 160 692
120 160 748
132 164 792
132 164 832
132 168 848
116 192 168
108 188 168
116 184 172
116 188 188
116 180 196
116 192 236
120 184 276
124 188 332
120 192 388
128 204 468
124 188 548
120 192 628
132 196 696
124 196 752
136 200 800
132 204 844
132 204 860
124 236 164
120 236 168
128 236 176
120 232 196
128 236 212
124 244 236
124 240 264
128 240 336
128 244 404
132 244 480
128 244 568
128 244 636
136 244 700
132 244 756
140 248 804
136 256 824
136 260 852
128 308 176
132 312 176
132 304 184
132 308 200
136 308 216
132 320 232
136 312 276
140 308 344
128 308 408
144 308 484
136 316 564
136 320 652
152 320 716
144 332 772
148 324 800
140 336 824
140 336 852
144 400 180
132 400 180
148 396 180
140 400 192
144 404 216
140 404 240
132 404 296
144 400 344
140 404 412
144 392 484
152 400 572
148 404 636
152 408 708
152 412 764
156 416 804
156 424 824
156 420 860
144 496 176
152 504 184
152 488 192
144 496 204
152 496 216
156 504 240
144 508 288
156 504 348
152 492 416
156 496 496
156 500 580
160 500 660
164 504 712
164 508 768
172 516 804
172 516 828
160 520 852
156 604 192
152 604 188
160 608 188
156 604 212
164 596 236
164 592 264
164 612 300
168 596 360
160 608 436
176 604 520
164 600 588
164 596 656
172 600 724
176 616 776
188 608 816
180 608 836
180 612 868
176 684 184
176 692 204
180 692 204
176 684 216
188 692 248
172 692 272
172 692 320
180 688 380
172 692 444
176 692 520
180 696 600
184 704 656
188 684 732
180 692 776
204 696 816
192 704 840
192 704 856
192 768 204
192 772 208
192 772 208
188 768 228
196 768 252
196 764 272
196 772 324
200 764 388
192 764 460
204 772 536
200 768 600
200 768 656
212 772 740
200 776 772
212 764 816
216 764 840
212 768 860
216 820 212
212 828 212
216 824 220
212 824 240
212 824 256
212 820 284
212 824 340
220 824 392
216 824 468
232 828 552
228 828 600
224 828 672
228 832 752
220 832 776
232 824 816
232 824 836
228 828 856
244 872 220
236 868 228
240 864 232
232 868 252
240 864 272
240 868 324
240 864 348
240 864 420
240 872 484
244 864 540
248 868 612
240 872 688
252 864 756
248 868 788
256 864 816
256 868 844
256 868 864
260 896 236
268 900 252
272 900 248
264 904 264
260 896 288
264 896 332
264 900 368
268 896 420
268 904 488
272 896 556
272 892 628
268 900 688
276 896 744
272 896 780
280 896 820
280 896 844
284 896 876
296 916 264
288 924 256
292 924 260
292 924 288
300 920 324
300 920 360
296 920 400
300 920 452
292 920 516
304 920 580
304 916 644
296 920 708
308 920 748
308 920 796
316 916 828
312 920 848
312 924 860
324 936 284
316 940 276
324 936 280
320 940 300
320 932 340
332 932 376
328 936 408
328 936 472
324 932 536
328 932 592
328 936 652
328 936 716
336 936 748
332 940 796
340 936 828
344 940 848
344 940 864
112 100 152
116 104 164
116 104 168
112 104 176
120 104 196
116 100 228
116 108 264
120 104 316
116 108 384
120 108 456
116 116 536
116 112 608
128 120 688
120 116 748
120 120 800
136 120 836
136 120 844
116 112 160
112 112 160
120 116 172
116 112 192
116 116 208
116 112 216
116 120 264
116 112 320
120 116 404
120 116 472
124 120 556
120 120 632
124 116 704
124 128 760
128 124 800
132 132 820
132 132 844
116 124 156
116 132 168
120 128 172
116 124 188
120 128 208
120 128 220
120 132 264
120 128 316
112 128 392
128 132 472
124 132 556
120 132 632
128 136 704
128 140 756
132 140 800
132 144 820
136 144 852
116 152 156
120 152 164
120 152 172
120 152 188
124 152 216
120 152 224
120 152 256
124 148 320
120 152 392
120 156 472
128 156 552
120 160 628
132 164 696
136 164 760
136 160 800
140 168 824
136 168 844
120 188 168
124 192 168
128 184 176
124 188 192
128 188 216
124 192 224
128 184 280
124 188 340
128 188 404
128 192 476
132 196 556
128 196 636
136 196 712
136 196 764
140 196 804
136 200 836
140 200 860
128 236 164
128 240 168
128 244 180
128 236 188
136 240 212
128 236 220
132 244 272
132 248 332
136 240 404
128 248 472
132 248 564
140 252 636
136 248 708
144 252 752
144 248 812
148 252 824
148 256 852
136 316 172
136 316 172
136 308 180
136 312 196
140 308 212
140 316 232
140 312 276
136 316 340
144 316 400
148 316 488
140 312 560
144 316 644
148 320 716
148 328 756
160 324 800
152 336 832
152 336 860
144 392 172
144 400 180
144 404 188
144 392 192
148 400 220
140 404 236
140 396 280
152 404 352
152 404 424
152 400 496
144 400 568
156 408 632
156 412 716
160 408 756
160 412 804
168 416 840
172 416 864
160 500 184
156 500 184
152 496 188
148 500 208
164 496 228
156 508 248
156 500 296
160 508 360
156 496 424
156 500 500
164 500 584
164 512 636
172 508 716
172 512 764
168 504 800
172 524 836
172 524 848
164 592 184
168 604 192
168 604 192
172 604 208
168 596 228
168 600 252
168 608 308
172 600 368
172 588 436
168 592 496
172 604 588
176 600 648
184 608 720
176 612 760
180 608 800
188 612 836
188 612 864
184 676 184
188 692 196
180 688 200
188 688 216
180 704 240
184 696 268
188 704 324
180 696 380
192 700 448
176 688 512
200 692 604
188 700 652
192 704 740
196 696 768
200 700 812
204 700 844
196 700 856
200 768 200
196 768 208
200 768 212
196 772 232
192 768 252
204 772 276
200 772 324
204 764 384
208 772 460
208 768 536
208 768 608
212 772 676
216 772 736
216 764 784
216 768 816
216 772 844
216 772 856
224 824 200
220 828 208
232 824 216
224 824 248
228 820 268
220 820 296
224 824 352
228 824 408
228 824 476
236 828 544
228 824 612
228 824 680
232 824 744
236 828 784
248 828 828
244 824 852
240 828 860
248 864 220
244 864 220
248 868 232
240 868 260
244 864 292
248 864 316
252 868 364
260 868 420
252 864 484
256 864 544
256 864 616
264 868 688
264 864 748
260 868 792
268 868 824
268 868 848
268 868 856
272 896 244
272 900 244
276 896 252
268 900 264
272 896 312
272 896 328
276 900 384
280 896 436
276 896 496
284 896 564
284 892 640
292 896 700
292 896 752
284 896 784
292 896 820
296 896 848
296 896 860
300 916 260
300 924 264
300 928 272
304 924 284
300 924 320
300 920 344
304 924 396
304 920 452
300 924 508
312 924 584
308 920 648
312 920 700
316 920 764
320 920 796
324 924 828
328 920 848
320 920 868
336 940 272
328 944 280
328 940 284
332 940 312
324 940 332
328 936 372
336 936 416
336 936 464
336 936 520
336 940 584
336 932 652
340 940 716
336 940 760
336 940 788
348 940 828
352 944 848
360 936 868
124 100 156
128 104 160
128 104 168
128 100 184
128 104 200
128 104 232
132 104 252
132 108 316
132 108 388
132 112 464
128 116 524
132 112 612
136 120 688
140 120 756
136 124 784
148 124 820
148 124 840
124 116 160
128 116 164
128 116 168
132 112 188
128 116 204
128 116 216
132 120 260
132 120 320
136 116 400
132 116 476
128 116 552
140 124 632
140 120 704
140 124 768
136 128 796
144 132 820
144 132 844
128 124 160
128 132 160
132 128 172
136 132 180
132 128 204
132 132 224
136 128 264
136 132 324
132 132 388
140 132 472
136 132 552
140 136 628
140 132 720
144 136 756
144 144 800
144 148 832
144 148 836
132 160 156
132 156 168
132 156 172
132 152 180
140 160 200
128 152 228
140 152 272
144 156 328
140 160 380
132 160 464
140 168 552
140 160 624
144 160 704
148 164 744
152 164 808
152 168 836
152 168 844
136 188 164
140 196 160
136 188 176
140 188 188
136 188 200
140 188 236
132 192 264
136 184 324
140 196 404
144 196 484
136 196 552
144 196 628
152 196 712
152 192 760
156 196 808
148 200 840
156 200 864
144 240 168
144 236 172
140 248 176
140 236 188
148 236 208
148 228 232
144 240 264
136 240 336
144 240 404
140 248 484
152 248 556
152 252 628
152 248 700
152 252 768
156 252 796
156 252 836
160 252 860
148 316 172
148 316 176
152 320 184
148 312 196
152 308 216
152 316 236
152 304 272
156 316 340
152 324 416
156 316 484
152 320 560
164 328 632
156 320 700
160 320 764
168 320 804
164 332 824
168 332 852
164 404 176
160 404 176
160 404 184
156 388 196
160 396 220
152 396 244
156 404 296
164 392 348
168 408 424
168 408 504
168 404 580
164 404 652
176 416 728
172 408 772
172 416 804
180 416 836
180 420 864
172 496 180
176 504 188
168 508 192
164 500 212
168 492 224
168 504 252
168 500 300
180 500 356
176 508 420
180 508 508
172 504 588
180 496 652
176 508 724
184 508 768
184 516 816
184 524 832
184 520 848
176 608 188
180 600 192
180 600 204
180 604 212
184 600 236
180 604 256
184 608 300
184 596 356
184 596 424
184 604 504
180 600 588
188 604 656
196 608 724
192 616 768
192 612 812
204 612 836
200 612 856
196 692 188
192 684 196
200 692 216
204 692 228
200 700 244
204 700 268
204 692 312
196 700 388
200 700 456
200 688 508
204 688 580
204 692 656
204 696 732
216 700 772
212 700 800
220 704 836
220 704 856
212 764 200
212 768 208
212 768 204
216 768 236
220 768 252
216 772 280
224 772 332
220 772 392
220 776 464
228 768 540
220 768 600
224 772 684
228 776 736
232 776 784
228 772 812
236 776 844
236 784 856
236 824 208
228 828 216
240 824 228
240 824 240
236 836 264
236 828 296
236 828 328
236 828 404
240 828 468
240 828 536
240 828 608
240 824 684
248 828 752
256 832 788
252 828 820
256 832 848
256 828 864
260 872 224
260 864 224
264 872 240
264 868 256
260 872 280
264 872 320
264 868 356
264 868 404
268 864 480
268 864 544
268 868 608
272 872 684
280 876 752
276 872 776
280 872 820
280 872 840
280 864 864
288 900 240
288 900 248
288 900 256
284 896 276
284 900 292
288 896 332
284 896 368
288 896 432
296 900 496
300 900 564
296 900 624
300 904 684
304 904 756
304 896 780
308 900 820
312 900 848
320 900 872
320 924 256
316 924 264
324 924 272
320 924 284
324 924 316
324 924 352
316 924 388
316 924 456
328 924 512
320 920 576
328 924 648
332 924 704
332 920 756
336 924 796
332 920 828
340 924 848
340 924 864
348 940 268
344 940 272
344 932 280
348 940 304
352 940 336
348 932 368
352 932 428
352 936 476
356 940 528
360 940 592
352 940 656
356 936 712
360 940 760
360 940 800
372 932 828
372 944 852
376 936 864
152 100 156
152 104 160
156 104 168
152 100 180
156 104 200
152 108 228
156 108 252
156 108 316
160 108 380
164 112 460
156 116 532
160 116 604
164 116 684
164 120 752
164 120 800
172 120 828
172 124 844
152 112 156
152 112 160
156 116 172
148 116 184
152 112 196
152 108 228
152 116 256
156 120 316
160 120 388
160 116 464
160 124 548
160 124 616
156 128 700
164 128 748
164 124 800
172 128 836
