滤镜资源/vsco 137 3dl+cube/VSCO 137 3dl/VSCO C7Chromatic.3dl
#Generated by Picture Instruments - Look Converter
3DMESH
Mesh 4 10
0 64 128 192 256 320 384 448 512 576 640 704 768 832 896 960 1023
48 52 52
48 52 68
56 60 88
60 72 128
68 80 164
60 96 240
72 112 320
80 124 392
76 148 476
88 164 552
84 188 624
88 216 684
100 228 728
96 256 780
104 276 820
108 296 848
104 312 848
48 72 52
56 76 76
60 76 92
60 84 128
64 96 168
64 108 236
76 124 316
76 140 392
80 164 480
92 180 544
92 200 616
92 228 688
100 244 728
104 268 788
112 292 824
108 316 848
108 332 852
56 92 60
52 100 76
64 100 100
64 108 136
72 116 176
68 132 244
72 148 324
88 160 400
80 176 480
92 204 556
92 224 632
96 244 688
104 264 744
100 292 788
116 308 824
112 340 848
108 352 848
64 120 68
64 132 88
64 136 108
64 148 148
72 148 188
68 164 260
72 180 336
84 208 416
84 224 496
96 236 560
92 252 628
92 264 700
104 284 740
100 312 788
108 332 828
116 356 852
116 372 856
68 152 72
64 164 88
72 176 124
72 192 172
80 196 208
80 212 268
76 220 332
92 240 408
88 268 496
100 292 568
100 308 632
100 316 692
108 320 740
108 328 792
116 348 828
116 380 852
112 396 856
68 200 76
72 208 96
76 220 128
76 240 172
84 256 240
80 264 296
80 276 360
92 284 412
92 308 504
96 328 576
100 352 648
104 372 704
112 380 740
108 396 792
120 380 832
116 396 856
116 416 860
76 240 92
76 252 104
88 264 144
80 288 188
88 304 252
84 332 332
84 332 392
92 340 452
96 356 524
100 372 580
108 396 648
100 416 708
112 432 756
108 452 808
120 456 840
120 448 860
112 444 868
76 296 92
80 304 108
84 320 148
84 336 204
92 360 268
92 380 348
92 400 424
100 404 480
96 408 536
104 420 588
104 444 656
104 460 708
112 472 756
112 492 804
124 512 840
120 524 868
116 500 868
88 340 104
84 356 120
88 372 160
92 392 216
96 412 284
96 444 364
96 468 452
100 472 508
100 468 568
108 480 612
108 488 668
112 508 724
120 528 772
120 544 808
124 556 844
124 556 868
120 556 868
92 392 116
92 408 136
100 416 172
92 452 232
100 460 296
104 484 380
96 512 460
112 528 540
104 540 608
112 540 648
112 548 684
112 556 732
120 568 772
120 588 824
128 596 856
128 604 872
124 604 872
96 440 128
92 456 140
104 468 176
100 496 252
108 516 316
104 540 400
108 552 472
112 580 560
112 600 636
116 608 676
116 608 712
116 616 752
124 612 780
124 624 824
132 640 856
128 648 876
124 648 876
100 500 132
96 504 152
104 520 188
104 544 252
112 560 324
108 580 404
108 608 492
120 624 564
116 644 644
128 656 696
120 664 740
120 664 768
124 664 796
128 676 832
136 676 856
136 688 884
132 688 884
104 540 152
100 556 168
112 564 196
108 584 264
116 608 340
112 620 424
112 648 500
120 660 576
124 684 652
132 704 712
128 716 764
124 720 800
132 716 820
128 724 852
136 716 876
136 724 880
132 728 884
108 600 164
108 604 184
116 612 216
112 628 280
120 656 364
120 672 456
116 696 524
128 704 588
124 724 668
132 744 724
132 756 772
132 760 816
136 764 844
132 764 868
136 764 892
136 764 892
136 764 892
116 640 180
116 652 212
120 660 240
120 680 304
124 684 380
120 708 464
116 724 540
132 740 600
128 760 676
136 776 728
140 788 784
132 800 832
144 808 856
136 812 888
148 804 900
140 800 896
136 800 896
124 684 212
116 696 240
124 704 280
124 720 340
128 728 420
132 748 508
124 764 568
136 776 616
132 792 680
140 800 728
136 816 784
136 836 836
144 836 872
140 848 904
144 840 896
144 840 900
144 840 900
124 712 244
120 724 268
124 732 312
124 748 384
128 760 456
132 776 548
124 784 600
144 792 644
136 804 692
140 812 728
136 824 780
136 844 836
148 856 872
140 860 904
148 864 900
148 864 900
148 868 900
68 52 48
72 56 72
72 60 84
68 68 116
64 80 164
68 92 232
72 112 316
72 128 392
76 148 476
84 168 552
88 188 620
88 208 676
92 232 732
96 252 780
100 280 820
108 296 852
104 312 852
72 72 56
64 72 72
64 76 88
68 88 132
68 92 168
68 104 244
76 124 320
80 144 400
80 164 480
88 180 552
88 204 628
92 228 688
96 252 744
104 276 784
104 304 824
104 324 860
108 332 856
60 92 56
56 96 76
56 108 96
64 108 136
64 120 176
72 132 236
72 152 316
76 164 400
80 176 480
84 200 552
92 224 628
96 244 684
100 268 732
100 296 784
108 320 832
112 340 856
108 360 856
68 120 60
64 128 80
64 140 112
68 148 140
64 152 184
68 164 252
76 180 332
80 204 408
84 228 492
88 244 568
92 256 636
92 272 692
100 288 732
104 316 788
104 340 828
108 364 860
112 372 860
64 156 72
68 168 88
64 180 120
72 188 160
72 196 212
76 212 268
76 224 340
84 248 420
92 276 508
92 288 572
96 308 644
96 324 692
100 328 748
112 336 800
112 356 836
104 384 856
112 400 860
68 192 72
68 208 96
76 228 128
76 240 168
80 260 240
76 264 296
80 276 356
88 292 424
92 308 500
92 336 576
104 356 648
104 376 700
104 392 748
112 400 796
108 388 836
120 404 868
120 416 864
76 244 84
76 256 104
80 272 132
80 288 184
84 308 248
80 328 328
84 336 388
84 344 448
96 360 512
100 380 584
104 400 648
104 420 712
104 436 756
108 452 804
116 460 844
116 452 868
112 444 868
80 288 88
80 304 108
80 316 140
84 336 204
84 364 268
88 384 340
92 400 424
96 408 484
96 416 540
96 424 604
104 444 656
108 464 720
112 480 764
112 492 804
120 520 848
120 516 872
116 500 872
80 344 104
84 356 120
88 372 148
88 388 208
88 416 276
96 440 356
92 464 444
96 476 516
100 476 568
100 480 612
108 488 664
112 512 712
116 524 764
120 544 808
116 560 848
124 568 876
124 568 876
92 392 112
92 400 132
88 420 164
96 444 220
92 468 288
100 488 372
96 512 456
104 540 544
104 540 604
104 540 644
108 544 684
116 552 728
116 572 776
116 588 816
120 600 852
124 608 876
124 608 876
96 444 120
92 456 140
96 468 172
96 488 236
100 516 316
100 532 384
104 560 472
108 584 556
104 596 632
112 604 676
116 608 716
120 608 744
120 616 784
124 628 816
128 644 864
124 656 884
124 652 884
96 500 132
96 504 152
104 516 184
100 540 248
104 568 332
108 584 408
108 608 492
112 628 568
112 648 644
120 660 704
116 668 740
120 668 768
124 672 804
128 672 828
128 684 864
132 692 888
132 692 888
104 544 140
100 556 164
104 564 200
104 588 260
104 608 336
108 624 408
116 648 492
112 664 576
124 688 648
124 700 716
120 716 756
124 720 792
128 720 820
128 720 852
132 728 880
132 724 888
132 728 888
108 592 160
108 604 180
108 616 220
112 632 272
116 652 364
112 668 440
116 684 508
120 704 596
120 720 664
120 744 724
128 756 772
136 764 816
132 768 844
136 768 868
132 764 892
132 764 892
132 764 892
116 640 172
116 652 212
112 656 240
116 676 296
116 696 380
120 708 472
120 728 544
128 748 608
124 756 672
128 776 732
136 792 788
132 800 832
136 808 868
136 804 884
136 804 900
144 804 904
136 804 900
120 684 208
116 696 240
116 708 276
124 720 332
124 736 420
128 748 500
128 764 568
128 776 624
128 788 672
132 808 732
136 820 788
132 832 828
140 840 868
140 848 904
144 848 904
140 844 900
140 840 900
120 716 240
120 724 268
116 736 316
124 748 376
120 764 448
128 776 540
128 788 600
136 796 648
136 804 688
136 816 732
136 832 776
132 844 832
140 852 872
140 860 904
144 868 904
144 868 900
144 868 900
112 60 56
100 64 56
104 64 88
96 68 108
88 76 160
92 92 216
92 112 296
92 128 384
92 148 464
92 168 544
80 184 604
88 212 668
92 232 724
96 256 772
100 280 820
108 296 848
104 312 848
104 68 56
104 76 68
96 76 84
96 88 124
96 92 168
96 108 232
96 120 304
104 140 388
96 164 472
96 184 548
92 204 616
96 232 680
92 248 736
100 276 784
104 304 824
104 324 860
108 332 856
92 88 60
92 96 64
88 104 92
84 112 128
96 124 180
88 140 240
92 156 324
88 164 404
96 184 480
96 204 548
100 228 620
96 252 680
104 272 732
104 296 788
108 320 828
112 340 856
104 360 856
76 116 60
80 128 76
72 136 100
76 148 140
80 160 184
76 168 244
84 192 324
84 204 404
84 228 484
92 244 564
92 256 628
100 268 684
104 292 732
108 316 784
104 340 824
108 364 860
108 376 860
64 148 68
64 164 84
68 172 112
72 188 160
72 208 212
72 208 264
80 228 328
84 240 416
84 276 488
96 292 572
92 308 636
96 324 692
104 332 752
104 336 784
116 360 840
104 384 856
112 400 860
68 192 72
72 208 88
76 224 116
76 240 164
76 256 228
80 268 292
80 276 352
88 288 428
88 316 508
96 340 584
104 356 648
100 376 700
104 392 748
108 400 800
108 388 836
116 404 860
116 416 860
76 236 80
68 248 96
76 268 124
80 292 176
80 308 236
80 332 320
84 336 376
88 344 444
96 360 512
100 380 576
108 404 648
108 420 704
108 444 756
108 452 800
116 460 844
112 452 868
112 444 868
80 288 88
84 308 108
84 324 140
84 340 192
88 360 260
88 384 332
92 400 416
100 408 480
100 416 532
100 424 588
104 444 656
108 464 712
108 480 764
116 500 808
116 516 840
120 516 872
116 496 872
84 336 100
88 352 116
84 368 144
88 388 200
88 416 276
92 436 352
92 456 436
96 476 516
96 476 564
100 488 616
112 496 672
112 508 720
116 532 768
120 548 812
116 560 844
124 568 876
124 564 876
92 392 108
92 404 124
88 420 156
96 440 212
96 460 280
96 484 364
96 516 448
104 536 536
108 548 600
108 544 648
108 544 676
112 556 716
116 572 764
120 588 808
120 604 848
124 608 876
124 608 876
96 444 120
96 452 132
100 468 164
100 484 216
100 508 300
100 532 376
104 560 468
108 584 552
112 600 628
116 612 672
112 608 704
120 608 748
116 616 776
124 628 816
128 648 864
124 656 884
124 652 884
96 492 124
100 504 152
104 516 184
100 532 236
108 560 324
108 584 404
112 604 484
112 628 564
116 644 644
116 660 696
116 668 740
120 664 772
120 668 796
124 676 828
128 684 864
132 692 888
128 696 884
104 544 140
104 560 164
104 568 196
104 584 248
112 604 332
108 632 420
116 652 500
116 672 576
120 684 644
124 700 716
120 716 760
124 720 796
128 720 820
128 720 852
132 724 876
132 732 892
132 732 888
108 592 160
112 600 176
108 616 212
108 632 264
116 652 352
112 672 432
116 684 504
120 708 584
120 724 656
120 744 720
128 756 768
128 760 808
132 768 840
136 768 868
136 768 892
136 772 892
132 764 892
116 640 168
112 644 196
116 656 236
116 676 296
116 688 372
124 708 464
120 724 532
124 740 596
128 756 664
128 772 724
132 788 784
136 804 828
136 808 864
136 812 888
140 808 900
144 804 904
136 804 900
120 688 200
120 696 240
116 708 276
124 716 324
124 728 404
124 748 492
128 764 564
128 776 624
132 792 680
132 804 728
136 820 788
136 836 828
144 844 876
140 848 904
144 848 904
140 844 900
140 840 900
120 716 232
120 720 268
120 732 312
124 748 372
124 756 436
132 772 536
128 788 604
136 796 652
136 800 692
136 816 732
136 828 780
136 844 828
144 856 876
144 864 904
144 868 904
148 872 900
148 872 900
172 68 60
160 68 60
156 72 76
152 68 108
140 80 152
136 88 216
128 108 300
128 124 372
124 148 452
120 168 524
116 192 596
108 208 660
108 232 712
96 256 764
104 276 812
108 296 848
104 312 848
160 76 56
156 84 64
148 80 88
144 84 116
144 92 160
132 104 224
128 124 304
132 144 376
132 168 464
132 188 536
124 208 612
120 220 668
112 252 724
96 276 768
108 300 824
104 324 856
