滤镜资源/vsco滤镜3dlut 2017.8月更新/3dl/VSCOX KP2 Kodak Portra 160NC.3dl
#Generated by Picture Instruments - Look Converter
3DMESH
Mesh 4 10
0 64 128 192 256 320 384 448 512 576 640 704 768 832 896 960 1023
76 28 32
92 36 52
104 48 100
112 60 200
120 72 300
112 96 380
124 124 468
140 152 544
140 184 608
152 216 660
144 248 688
160 300 732
172 348 764
180 416 804
208 496 836
232 568 868
284 644 892
80 36 28
96 40 52
108 48 104
112 68 208
120 84 316
120 112 436
132 136 524
148 160 584
148 192 648
156 228 680
144 268 716
168 312 756
180 372 788
184 444 832
216 528 860
248 604 884
304 680 912
88 64 36
100 72 56
116 80 104
112 92 200
128 116 312
116 152 432
136 172 524
144 200 592
144 228 656
156 248 684
156 280 724
164 320 756
180 372 788
188 448 836
220 532 864
244 608 880
300 684 908
84 128 52
96 128 60
108 144 92
112 160 180
124 180 292
128 204 428
140 228 524
148 256 604
148 284 664
164 316 708
148 356 736
168 372 772
180 416 800
192 472 832
220 544 868
248 616 884
300 680 908
92 236 100
100 224 92
112 224 116
120 244 188
136 264 300
124 308 436
144 316 532
152 348 616
160 368 684
168 396 720
168 432 768
180 456 792
196 488 824
204 536 852
232 596 880
264 664 892
324 712 908
88 352 128
96 336 128
112 340 144
124 352 208
132 364 296
140 396 448
152 408 544
168 432 632
168 460 704
180 480 748
168 516 780
188 536 816
208 568 840
220 608 872
260 660 892
296 708 912
344 748 916
108 464 180
108 440 168
120 436 172
132 444 220
148 456 300
144 492 440
160 496 532
172 516 620
172 540 704
188 560 752
196 584 804
204 604 828
224 624 852
244 660 884
280 696 904
316 740 908
372 776 916
112 556 200
116 536 192
132 520 184
136 528 232
152 536 304
164 556 448
180 572 540
188 588 636
192 604 712
204 620 760
208 648 804
224 660 840
248 680 864
264 712 888
308 732 908
344 772 920
400 796 920
132 608 224
132 604 216
140 584 208
152 592 244
172 600 316
176 616 440
192 628 532
204 644 624
212 664 712
224 676 760
232 692 816
244 704 840
272 720 872
288 744 892
332 768 912
380 796 920
428 812 924
144 660 228
144 652 224
152 636 216
164 636 244
188 644 304
200 660 436
212 676 520
224 680 620
236 704 704
248 712 760
252 732 808
272 744 844
300 752 872
312 768 888
356 788 904
396 816 924
452 832 928
160 692 240
160 692 232
172 676 228
184 680 248
204 684 304
220 700 424
232 712 508
252 724 608
256 740 692
276 752 748
280 760 808
296 772 840
324 780 872
344 792 892
392 812 908
428 824 912
484 844 924
176 720 240
176 724 232
192 708 220
208 712 248
232 720 296
252 736 428
264 744 500
280 756 600
288 772 688
308 776 748
320 792 796
336 796 836
360 804 860
380 816 888
424 832 904
468 848 924
516 856 924
196 744 236
204 752 232
216 740 232
232 744 248
256 756 292
284 768 412
304 780 488
324 788 584
324 800 668
348 808 732
356 820 800
376 828 836
400 836 864
428 844 892
460 852 912
516 860 916
552 868 924
236 772 228
244 776 224
260 772 212
276 776 236
312 784 284
328 800 408
348 808 476
368 820 572
380 832 656
400 840 724
420 844 776
428 848 816
456 856 848
480 864 884
520 872 900
560 880 924
596 884 924
288 796 220
296 800 208
308 796 212
336 804 232
364 816 288
400 824 400
416 836 464
432 844 552
448 856 640
468 856 700
476 872 780
492 876 808
516 884 848
540 888 876
572 892 904
616 896 908
648 896 916
364 816 192
372 820 192
400 824 196
420 836 228
440 840 276
472 852 404
480 868 472
504 872 560
524 880 644
532 884 700
556 888 764
568 892 796
592 900 836
616 904 868
648 908 896
668 916 912
700 916 924
412 832 192
428 840 192
448 840 224
472 848 268
496 856 328
516 864 452
540 872 508
560 880 584
568 888 660
588 892 716
600 900 772
620 904 804
632 908 836
656 912 864
676 912 896
712 920 908
736 920 916
96 32 28
100 36 60
108 48 120
108 64 208
120 80 324
124 100 400
132 128 484
140 160 560
144 196 616
148 224 668
156 260 700
160 304 740
172 360 776
184 432 812
208 516 844
244 592 884
284 660 896
96 40 24
100 44 52
108 56 120
112 72 220
124 92 340
132 112 444
136 140 536
148 168 600
152 200 652
156 240 692
156 276 728
164 320 760
176 380 796
192 452 840
216 544 868
256 636 896
304 696 912
100 72 28
104 76 56
108 88 112
120 100 212
132 124 336
132 156 452
136 184 540
148 212 616
152 232 660
152 260 696
164 284 732
164 324 764
180 380 796
192 452 840
220 544 868
260 640 900
308 700 912
100 132 52
104 140 68
108 156 116
116 176 204
124 192 324
140 212 456
144 244 548
152 276 620
156 304 676
164 332 716
164 356 744
172 392 784
184 440 816
200 500 848
228 568 876
268 648 896
308 700 912
104 244 92
104 232 96
120 244 132
124 264 200
136 280 324
144 312 444
144 332 548
156 360 628
160 388 692
168 416 736
176 444 772
184 476 808
196 504 832
208 560 860
240 620 884
288 684 908
328 728 912
104 360 136
108 352 132
116 356 156
124 368 212
136 388 320
152 404 452
160 432 564
172 456 652
176 484 716
184 496 752
188 524 792
196 552 828
212 584 852
236 624 880
264 676 896
312 724 916
360 760 920
112 464 172
116 456 176
124 448 180
140 464 232
156 476 328
160 492 448
168 516 564
180 536 652
188 556 720
196 580 768
212 596 812
216 612 836
236 640 864
256 676 892
296 720 908
344 760 920
392 780 920
120 560 204
124 544 196
132 532 196
152 540 236
164 552 328
180 568 444
184 588 556
192 600 648
204 616 720
212 636 772
224 652 812
240 672 844
256 692 872
280 716 892
316 748 904
364 784 920
416 804 924
132 616 220
136 608 220
144 596 212
164 604 244
180 612 324
188 628 436
200 640 548
212 660 644
224 672 724
236 684 776
244 696 816
260 716 848
280 732 876
308 752 900
344 780 916
392 804 920
448 820 924
144 660 228
148 656 220
156 640 220
180 648 248
196 660 316
212 668 436
224 680 544
236 696 640
244 712 716
260 724 768
272 736 816
288 748 848
304 760 872
336 776 900
372 800 912
424 824 920
476 836 924
164 704 236
164 696 232
176 684 224
196 688 248
220 692 312
236 708 416
248 724 524
260 736 628
272 744 704
280 756 756
296 772 808
312 780 844
332 792 876
364 800 904
400 816 916
452 832 920
500 848 928
184 728 240
192 724 232
200 716 224
224 720 248
248 732 312
260 740 404
276 756 516
292 764 612
304 776 700
320 792 752
332 800 804
348 804 840
368 812 868
400 824 900
440 836 912
492 852 924
532 856 924
208 756 236
212 752 228
220 748 224
248 752 244
280 764 304
300 776 396
320 788 508
332 796 600
348 808 688
360 816 740
376 824 796
392 832 836
416 844 868
440 848 892
480 856 912
528 868 916
568 876 924
244 784 224
256 780 220
272 776 212
296 788 244
320 792 300
348 804 392
364 820 500
380 828 592
396 836 672
408 844 732
424 848 780
444 856 824
472 864 856
500 872 888
536 876 908
572 888 920
612 888 920
296 804 208
312 804 204
324 804 208
356 812 236
380 824 292
412 832 380
424 844 476
448 852 572
464 864 652
480 868 712
496 876 776
512 880 816
528 884 848
556 892 880
588 896 900
636 900 916
668 904 920
380 824 184
392 832 184
412 832 200
432 840 232
464 848 292
488 860 388
504 872 488
528 876 568
536 884 648
548 888 708
572 892 760
592 900 808
612 904 844
628 912 872
660 912 896
688 920 916
716 920 924
432 836 180
444 844 200
464 844 220
484 852 272
512 864 344
540 872 436
556 876 520
572 884 596
588 892 668
604 896 728
616 900 768
636 904 808
648 908 836
664 912 864
696 916 896
728 920 912
748 920 924
116 32 28
132 44 60
136 52 120
144 68 220
144 88 336
152 108 404
156 136 496
164 164 564
168 192 620
172 228 668
180 268 704
188 308 740
200 364 776
204 432 800
228 520 844
272 600 884
312 660 896
120 44 24
128 52 52
140 60 116
144 72 216
148 96 332
156 116 448
164 144 536
168 172 604
176 204 652
180 240 692
184 276 724
192 320 756
200 380 796
220 456 820
244 548 864
288 636 892
336 696 900
124 76 32
128 80 52
140 92 112
152 108 204
160 128 336
164 160 448
168 180 536
172 208 608
176 236 656
180 260 696
192 288 728
196 328 760
200 380 796
220 452 824
248 548 864
288 636 892
340 700 908
124 136 48
132 148 68
136 164 116
144 172 200
156 192 328
168 216 452
176 248 552
184 280 624
188 308 684
184 328 712
196 360 748
204 388 776
208 440 808
228 496 836
252 564 864
292 640 896
340 700 908
120 240 92
140 232 92
144 248 128
160 268 212
172 288 332
172 308 452
180 336 552
184 368 632
192 392 696
200 416 736
204 444 772
216 468 800
228 508 832
248 564 860
272 624 884
320 692 904
360 728 908
124 364 132
128 356 128
140 356 148
160 368 212
172 392 320
184 408 452
192 432 564
200 448 648
208 476 708
216 496 756
220 524 788
228 552 820
244 588 848
264 620 872
296 672 900
340 724 916
392 760 916
136 468 168
140 452 164
156 452 176
172 464 224
184 472 324
192 496 444
208 516 560
212 536 656
220 556 716
228 576 768
240 592 804
252 612 832
264 644 860
296 676 884
328 716 908
368 756 912
416 784 916
136 556 196
148 540 188
160 532 192
180 540 236
196 556 328
212 572 452
220 584 556
228 600 652
240 620 724
244 636 768
256 656 812
272 672 840
284 688 864
316 716 884
348 752 908
400 784 924
448 804 920
156 616 216
164 608 212
176 596 208
196 600 236
208 612 324
220 628 432
240 644 548
244 664 644
256 672 716
268 684 768
280 696 816
292 716 844
308 732 872
340 752 892
372 776 908
420 800 924
472 824 924
164 664 220
176 652 212
184 644 216
212 648 244
228 660 316
240 668 432
260 684 544
268 700 636
284 712 712
292 724 768
308 736 812
324 744 840
336 760 876
364 780 892
404 800 908
452 820 924
496 832 924
180 704 228
192 696 224
200 684 216
224 688 244
248 700 316
264 716 416
284 728 528
292 736 628
308 744 708
320 760 764
332 768 812
344 780 844
368 792 868
392 804 896
432 820 916
476 836 924
524 848 924
204 728 224
216 724 220
228 716 220
256 724 240
272 732 304
288 744 404
308 756 516
324 768 616
336 780 692
348 788 748
360 796 800
384 804 836
400 816 868
432 824 888
468 836 912
508 852 920
552 860 924
228 760 220
236 756 220
252 752 216
280 756 236
312 764 300
328 784 396
344 788 492
364 796 600
376 812 680
388 820 740
404 828 800
424 836 828
440 840 864
468 844 892
504 856 908
552 868 916
596 872 920
272 784 212
280 780 208
300 784 212
328 784 236
352 800 292
372 808 388
400 820 492
416 828 588
424 836 668
436 848 728
456 852 784
472 856 820
496 864 860
524 868 884
552 876 904
596 884 916
628 888 924
324 808 200
332 808 192
348 808 204
388 816 232
416 828 300
436 836 380
456 844 480
476 856 576
496 864 656
512 868 716
512 880 772
528 884 816
552 888 852
580 892 876
612 900 900
652 904 924
684 904 924
404 828 176
416 832 176
432 836 196
460 844 224
484 856 292
508 868 388
532 872 480
540 880 568
560 888 640
576 896 704
588 896 760
608 900 800
624 908 840
644 912 872
672 912 892
704 920 920
728 920 928
452 844 172
468 844 188
488 852 220
516 860 268
540 868 340
560 872 436
576 880 516
588 888 596
608 892 668
624 900 724
636 908 768
652 908 812
664 912 836
688 916 864
708 920 892
736 924 912
760 924 920
168 40 20
172 48 48
192 60 108
188 72 212
200 92 328
200 108 400
196 136 484
204 168 560
212 196 616
216 228 664
224 264 692
232 312 736
236 364 764
244 432 796
276 516 832
312 600 868
356 660 892
168 48 16
180 60 48
196 64 112
200 80 216
208 96 336
212 124 452
212 152 540
220 176 604
228 212 652
232 240 680
236 280 724
240 328 748
252 388 784
268 464 828
292 548 856
340 636 884
