滤镜资源/vsco滤镜3dlut 2017.8月更新/3dl/VSCOX KU4 Kodak GC Ultramax 400.3dl
#Generated by Picture Instruments - Look Converter
3DMESH
Mesh 4 10
0 64 128 192 256 320 384 448 512 576 640 704 768 832 896 960 1023
12 12 36
12 20 64
32 28 92
36 28 168
56 40 228
56 40 300
80 64 368
92 80 428
104 104 488
120 132 532
112 156 560
132 212 604
152 268 640
176 348 684
232 444 732
284 524 760
376 620 804
8 12 36
16 20 68
32 28 104
32 36 176
52 40 248
68 48 336
92 72 412
104 84 460
112 108 520
124 144 552
116 172 584
136 228 632
156 288 660
184 376 712
248 480 752
316 564 788
416 664 820
4 24 36
12 32 64
32 40 104
28 48 176
52 56 252
56 72 352
80 92 424
100 116 480
108 136 532
116 160 560
120 180 592
136 232 632
160 292 664
188 380 716
252 488 760
312 572 784
416 664 824
0 44 44
8 52 60
24 60 92
24 76 172
40 92 264
56 104 360
72 132 436
92 156 496
100 184 552
112 216 592
100 252 620
132 280 648
152 336 680
184 408 720
244 496 752
312 580 788
416 664 824
8 88 76
4 96 80
24 100 96
12 116 176
32 140 272
40 176 384
64 204 468
76 236 528
88 260 580
100 296 616
108 336 656
136 368 688
164 420 712
200 480 752
268 556 780
336 632 808
444 692 832
4 152 112
8 160 112
20 160 124
8 192 196
20 216 284
24 252 412
52 284 496
76 316 564
80 356 620
108 388 664
100 428 684
140 460 716
176 504 744
220 560 772
300 628 808
376 692 832
468 732 848
8 244 156
12 240 152
20 236 152
12 264 216
24 296 308
16 352 432
44 368 508
64 408 580
76 444 640
100 480 676
116 512 720
156 540 744
188 576 760
240 624 796
324 676 816
400 728 832
504 768 852
4 340 196
8 340 200
20 332 192
12 344 232
20 384 320
28 428 456
52 468 536
80 496 612
100 528 668
120 548 704
124 588 736
168 612 760
216 640 780
272 680 808
356 716 824
428 760 848
528 788 864
8 424 236
12 428 228
24 420 224
16 432 264
28 468 352
28 512 468
64 540 544
88 576 616
112 600 680
148 628 716
164 648 760
200 668 776
252 692 804
308 724 820
392 756 844
476 788 856
556 808 868
8 512 260
12 516 256
24 500 248
16 508 276
32 536 348
56 580 480
92 608 560
116 628 628
140 656 684
172 676 724
196 700 756
244 716 784
292 736 800
344 756 828
428 776 840
500 808 864
588 828 872
20 588 284
24 588 272
36 572 272
36 584 296
60 600 360
84 644 480
116 668 560
152 692 628
176 712 692
220 732 728
236 744 772
280 756 792
328 772 820
388 792 836
472 808 856
544 824 864
612 840 872
56 652 284
64 652 276
72 636 276
76 644 300
112 668 364
136 704 496
168 716 560
204 740 636
232 756 696
268 768 732
304 784 772
340 792 796
388 800 812
444 816 840
516 828 852
580 848 872
640 852 880
112 716 292
128 720 280
128 708 276
128 712 304
168 728 380
208 756 488
236 772 556
280 784 628
300 796 692
336 808 724
356 820 780
404 828 800
444 836 824
496 844 848
556 852 860
624 864 868
676 868 880
204 772 272
212 772 268
212 768 264
224 776 296
256 784 364
284 804 488
316 820 548
356 828 620
384 836 688
412 848 732
448 852 768
468 856 796
512 864 816
560 868 844
616 876 860
668 880 876
716 880 884
300 824 248
308 824 248
312 816 252
328 828 296
368 836 372
404 852 484
436 856 548
456 864 616
484 868 680
512 880 724
528 888 772
560 888 796
596 888 828
624 892 848
672 892 872
720 896 880
756 896 892
420 856 224
428 860 220
448 864 248
468 872 304
492 876 380
520 884 504
544 892 556
568 896 632
592 900 692
604 900 728
624 904 772
652 908 796
680 904 820
700 908 844
744 908 864
768 912 888
792 908 892
480 872 228
496 880 236
516 884 292
536 888 352
556 896 432
584 896 548
604 900 596
628 904 656
644 908 708
664 908 740
680 912 780
700 912 800
716 912 820
740 916 844
764 916 864
800 912 888
816 912 892
8 20 56
16 20 80
24 24 116
40 28 180
56 40 252
68 48 316
80 64 384
92 88 448
108 112 500
116 136 540
120 172 576
132 220 612
152 276 648
176 356 696
232 456 736
304 556 788
392 636 816
4 24 52
8 28 72
24 36 120
36 40 188
56 48 272
72 56 352
92 72 424
104 92 480
116 120 528
120 152 560
136 188 604
140 232 632
156 300 672
188 388 712
252 496 756
344 604 808
428 680 828
8 36 48
8 40 72
20 44 116
36 52 192
56 64 284
72 80 368
88 104 444
100 128 500
104 144 536
116 172 572
136 200 608
144 244 640
160 304 676
188 388 712
252 496 764
344 608 804
432 680 828
0 60 60
8 64 68
12 76 116
24 88 192
44 100 288
64 120 384
84 148 460
96 176 524
108 204 572
116 236 608
120 264 628
136 304 660
160 360 696
192 436 732
260 524 772
356 620 808
428 680 828
0 104 88
4 108 88
8 112 120
20 132 192
36 160 304
52 196 404
68 216 484
80 252 552
92 284 596
104 320 632
124 352 664
144 396 704
168 432 720
204 504 760
280 584 788
376 660 820
464 716 836
0 180 124
4 176 128
4 184 140
8 200 204
20 240 316
44 272 428
56 312 516
76 344 580
88 380 636
112 404 660
120 444 696
144 484 732
184 528 752
240 584 784
304 640 808
400 708 840
488 752 852
4 260 164
4 260 164
4 260 176
8 288 236
20 328 344
32 364 448
56 400 540
76 440 604
92 468 660
116 500 692
144 532 728
168 556 756
208 596 780
264 644 808
352 696 832
444 748 848
520 776 856
4 360 208
4 360 204
0 344 200
4 372 248
16 412 352
40 448 456
56 492 560
84 516 620
104 548 676
136 572 708
156 600 748
192 628 772
236 660 792
292 692 816
376 732 836
476 776 856
552 804 868
4 444 236
4 444 232
4 436 228
8 452 276
24 488 360
48 528 472
72 564 568
104 592 636
136 616 696
164 644 728
188 660 760
224 684 784
272 708 804
336 732 828
416 772 844
508 796 860
584 816 872
8 528 256
16 520 252
8 512 252
24 524 288
48 560 376
80 596 488
104 624 576
136 648 644
164 676 704
196 692 736
224 708 764
268 728 788
308 744 812
372 768 836
452 792 848
544 816 868
604 836 872
40 608 276
40 600 280
44 588 276
52 592 300
76 624 380
112 652 480
144 684 572
172 708 648
200 720 696
232 736 736
260 752 772
300 768 796
352 780 820
412 800 836
488 812 856
568 832 868
632 848 876
80 672 276
84 664 272
84 656 272
100 656 304
132 688 380
160 708 476
192 728 572
224 752 648
260 768 704
288 780 744
324 792 772
356 800 796
404 812 816
464 824 844
540 836 856
608 852 876
660 856 880
152 732 280
136 724 276
140 716 280
156 724 312
196 740 380
232 764 480
268 784 568
292 792 640
324 808 700
360 816 736
388 828 772
420 840 804
468 844 828
516 852 852
580 860 860
648 868 876
696 872 884
232 788 260
232 780 264
232 776 260
252 784 300
280 796 380
312 816 480
348 828 572
384 844 644
412 852 700
432 852 740
468 860 772
500 864 804
540 868 828
584 876 848
640 876 864
688 880 876
732 884 888
336 832 244
328 832 240
332 828 248
356 840 304
400 848 384
432 856 476
452 868 560
484 872 632
504 880 692
532 884 732
556 888 776
588 892 800
608 896 824
648 896 852
696 896 868
736 900 884
772 900 888
452 872 212
456 868 224
472 872 248
484 876 308
520 884 392
544 892 488
568 896 576
588 904 644
608 904 696
624 908 732
648 908 768
672 912 804
696 912 824
720 912 856
748 912 872
780 916 888
808 916 896
508 884 216
516 880 244
532 888 292
556 896 360
580 900 444
604 900 532
628 904 608
644 904 664
664 908 720
680 908 748
696 916 784
716 916 812
732 916 828
752 916 852
780 916 872
812 916 888
828 916 896
16 48 76
20 48 100
44 48 140
60 48 196
80 60 272
92 64 324
108 84 392
120 104 456
132 124 504
144 156 548
152 192 584
176 232 616
196 292 652
216 368 692
268 468 740
352 564 788
424 636 812
12 52 76
20 52 96
36 56 136
60 64 208
80 64 280
100 76 364
124 88 428
132 108 488
144 136 528
160 168 568
164 200 600
184 244 632
200 308 676
236 392 712
296 500 764
384 608 800
468 684 828
16 64 72
24 64 92
36 68 136
60 76 208
84 88 296
100 104 376
116 120 444
132 140 500
140 160 540
156 188 576
168 216 608
188 252 640
200 308 676
236 392 716
296 500 764
384 608 804
472 684 832
16 88 80
24 88 92
32 96 132
52 108 208
72 124 304
96 144 396
112 168 468
128 192 528
148 220 572
152 244 608
160 276 632
184 316 664
204 372 692
248 444 732
304 524 772
392 616 804
472 680 832
12 128 100
24 128 104
32 140 136
48 160 216
68 188 320
84 212 416
104 236 496
116 272 556
132 304 604
152 332 640
164 368 672
188 400 696
216 452 724
264 516 756
332 592 800
424 672 824
492 716 836
20 204 132
12 208 136
20 204 148
40 228 224
56 260 324
80 292 436
104 324 520
120 352 584
136 384 628
156 416 668
172 448 700
200 492 724
232 536 752
284 584 776
352 648 808
444 712 840
524 752 848
20 288 176
24 284 172
24 284 184
44 312 244
56 340 344
72 384 448
100 420 536
120 452 604
148 480 656
168 512 696
188 528 724
224 560 752
256 604 776
316 648 800
396 704 828
476 748 848
552 780 852
20 376 200
24 368 200
24 364 200
40 388 256
60 432 360
92 464 472
112 492 560
132 528 624
164 556 680
188 580 716
212 608 744
248 636 768
288 664 792
352 700 812
424 740 836
512 780 864
580 804 868
40 464 236
36 460 232
44 452 236
56 460 272
76 504 368
100 536 472
132 572 564
152 604 636
180 620 684
208 644 720
240 664 752
276 684 780
324 712 808
384 740 824
452 768 852
536 800 864
612 820 868
60 544 248
60 532 244
60 524 248
76 536 284
108 572 380
128 600 484
164 628 568
184 656 640
216 680 696
244 696 732
280 712 764
312 728 784
352 748 808
420 768 828
488 800 848
572 820 868
632 832 876
96 616 268
88 604 264
84 592 264
104 604 292
132 632 384
172 664 484
200 696 572
224 712 640
256 724 700
284 744 740
316 756 772
360 768 796
400 788 816
452 796 836
524 820 860
600 836 872
656 848 876
136 680 264
140 672 260
140 664 260
156 672 292
176 688 372
212 716 476
248 736 568
276 760 644
312 768 700
332 780 740
364 792 768
404 800 792
448 812 820
504 824 840
564 840 860
624 852 872
684 860 884
200 736 264
200 732 264
192 724 264
216 732 296
248 752 380
284 776 476
316 784 560
340 800 636
376 808 692
400 820 736
432 832 776
468 836 800
496 844 824
548 848 844
604 856 864
668 868 880
716 872 880
284 792 248
288 788 248
280 788 248
300 792 288
332 804 372
364 824 476
396 836 564
428 844 636
448 848 696
476 860 740
504 860 776
532 864 800
568 872 828
612 876 848
656 880 868
708 884 880
752 884 888
376 840 228
376 832 228
376 836 244
404 844 300
440 856 388
460 864 472
496 868 560
516 880 636
544 880 696
568 884 740
576 888 772
604 892 804
636 896 828
668 900 852
708 900 872
756 900 884
780 900 888
488 872 208
484 872 216
496 876 244
520 884 300
552 892 396
572 896 488
596 900 576
616 900 640
632 904 692
644 908 736
664 912 772
688 908 800
708 912 828
728 912 852
756 916 872
796 912 888
820 912 900
540 888 212
548 888 240
568 892 292
584 900 356
612 904 440
632 908 528
652 908 600
664 912 668
684 908 716
696 912 752
712 916 780
732 916 808
740 916 828
768 920 852
788 920 872
816 920 888
840 916 892
28 84 96
44 84 112
68 80 148
92 80 212
128 84 276
144 88 332
152 100 392
176 120 456
184 144 504
200 172 544
216 204 580
232 252 616
252 304 648
276 380 688
336 472 736
412 572 784
476 644 816
36 88 92
48 92 116
80 88 156
104 88 216
132 88 296
160 96 368
176 116 440
196 136 488
212 160 540
220 188 568
232 220 600
248 268 640
276 328 672
316 420 716
368 512 756
452 616 804
