滤镜资源/vsco滤镜3dlut 2017.8月更新/3dl/VSCO L7 Landscape Series.3dl
#Generated by Picture Instruments - Look Converter
3DMESH
Mesh 4 10
0 64 128 192 256 320 384 448 512 576 640 704 768 832 896 960 1023
8 0 4
28 4 24
40 8 44
24 16 80
40 20 112
4 36 144
16 40 196
36 40 260
16 40 336
32 36 412
16 36 476
24 36 580
32 52 652
24 76 732
32 104 788
8 132 844
8 164 900
12 32 4
20 28 28
36 32 52
24 36 88
36 40 120
8 52 164
24 52 228
36 44 292
16 44 372
36 36 448
4 32 524
12 44 624
24 64 692
4 88 772
24 120 832
4 152 864
4 188 924
28 64 16
32 64 36
36 64 56
24 60 88
36 64 116
8 72 168
16 68 228
36 60 296
16 56 376
32 48 452
4 52 524
8 68 628
28 84 700
8 116 776
24 144 840
0 176 864
0 204 924
36 108 20
36 104 40
40 104 60
24 104 92
36 100 128
8 96 168
20 92 228
36 80 296
16 80 372
32 80 448
4 96 528
12 100 620
24 124 696
8 148 772
20 176 828
8 204 872
4 232 928
48 160 40
52 156 44
44 152 64
28 156 100
36 144 124
4 144 176
20 136 236
32 136 300
16 128 376
28 132 452
12 144 536
12 152 628
24 172 708
8 196 776
20 220 836
4 256 872
4 272 928
56 224 36
60 220 56
64 220 72
44 224 108
40 216 136
8 208 192
20 200 240
32 196 312
16 200 392
32 196 468
8 212 540
8 220 620
20 236 704
4 256 776
20 280 836
8 312 880
4 324 928
80 304 60
72 288 68
64 296 88
56 292 112
48 296 152
16 308 200
24 284 244
24 280 312
16 276 392
24 280 460
12 288 552
16 296 636
24 304 712
8 320 776
20 340 836
8 376 876
4 384 932
76 388 64
84 376 76
84 376 88
68 380 120
60 380 144
28 384 220
28 384 284
32 364 336
16 360 412
28 356 472
8 372 556
8 376 644
20 384 716
4 404 780
16 412 836
12 436 888
8 444 936
92 460 92
96 460 92
96 456 108
80 460 132
68 464 176
36 468 228
32 464 284
32 464 356
20 448 420
24 444 488
12 452 580
12 448 648
20 456 728
8 472 792
20 488 848
12 512 880
4 512 932
96 556 100
104 548 104
100 548 116
88 548 144
76 552 172
44 556 244
48 556 308
32 552 368
20 556 452
24 532 492
12 536 572
8 536 652
24 544 716
4 548 784
20 560 836
12 576 896
8 580 936
108 628 124
116 628 120
112 628 136
100 628 160
88 628 196
52 636 256
52 636 308
40 636 380
28 640 472
28 644 544
16 612 596
12 612 656
28 612 732
8 624 796
24 632 852
12 644 896
4 648 940
108 704 132
120 708 136
116 704 152
108 704 172
92 708 212
68 708 280
60 704 324
48 708 400
32 712 488
32 716 568
16 724 648
8 692 684
24 688 732
8 692 804
24 696 856
16 700 908
8 708 948
124 768 160
128 776 160
128 772 176
112 768 196
100 768 236
68 776 300
64 780 348
56 776 420
32 784 496
32 784 576
24 788 680
12 792 744
24 752 760
8 752 816
24 748 864
16 764 908
4 764 948
128 832 176
132 840 180
132 836 196
116 840 220
108 836 252
84 828 312
76 836 364
68 836 432
44 840 512
40 840 596
24 848 692
12 848 756
28 840 804
4 812 824
24 804 868
20 808 916
4 808 948
140 880 208
144 892 208
140 884 220
132 888 248
120 888 284
84 888 336
84 888 388
68 888 448
48 892 532
40 892 612
28 892 708
16 896 768
32 896 832
8 884 868
24 848 872
20 844 912
4 848 952
148 924 228
148 932 232
144 928 240
132 928 268
124 924 304
92 928 364
84 932 404
76 924 468
52 936 544
48 928 620
32 928 720
16 940 776
28 940 836
4 940 900
28 916 916
20 880 912
4 880 952
152 940 248
148 948 252
148 944 272
132 948 296
124 944 336
96 940 408
84 944 440
80 944 508
56 948 576
56 944 656
32 948 736
20 952 796
32 960 840
12 972 908
28 964 944
32 936 952
16 928 968
52 0 4
48 0 28
56 12 52
44 24 84
44 28 116
32 40 156
24 44 208
24 40 280
24 44 356
12 40 432
20 36 508
24 40 592
24 56 676
28 80 748
20 112 812
8 144 872
8 172 916
40 24 8
44 36 28
48 40 56
48 44 92
44 48 128
36 52 172
32 52 240
32 48 308
24 44 392
20 40 476
20 36 560
12 48 636
12 68 716
12 96 788
4 132 848
8 168 900
4 196 940
64 56 20
60 72 40
44 72 64
48 72 96
44 72 128
36 72 184
32 72 248
28 64 316
24 60 392
20 52 476
16 56 564
12 72 644
16 92 724
8 120 788
8 156 852
4 188 900
0 216 936
76 104 28
72 116 48
56 120 68
40 116 104
40 108 132
40 104 188
32 96 244
28 88 324
28 84 400
20 88 484
16 96 564
12 112 644
8 136 724
8 160 792
8 196 852
4 224 908
4 244 940
96 164 44
80 164 52
76 168 76
52 172 108
44 160 144
32 156 188
32 144 248
28 144 312
24 140 396
16 148 480
20 156 568
16 168 644
12 180 720
8 208 796
8 236 848
4 268 904
4 288 944
104 228 44
92 236 60
84 240 80
60 236 116
44 236 148
32 220 200
36 212 260
36 212 332
28 216 412
24 212 488
16 224 568
12 236 648
8 252 728
8 276 796
4 292 852
4 320 904
4 336 940
116 304 56
108 308 72
92 312 92
76 316 124
64 312 168
40 312 216
24 296 264
20 292 332
24 292 416
16 296 492
16 300 580
16 304 656
12 320 728
12 340 796
8 360 856
4 388 912
4 400 940
124 396 68
112 404 84
104 392 96
84 396 124
68 396 164
56 392 228
36 404 296
24 376 348
24 372 420
24 372 504
12 384 584
12 392 656
8 404 736
4 416 792
4 428 856
4 448 912
4 456 948
136 476 92
124 480 100
116 480 116
100 484 144
80 476 180
60 480 232
40 488 304
32 492 380
20 468 436
16 468 508
16 464 584
16 464 664
12 476 736
12 488 808
4 508 864
4 520 912
4 528 948
140 560 100
132 560 108
116 564 124
104 560 152
88 560 188
76 568 252
52 564 320
44 564 396
24 572 476
16 548 528
12 552 596
12 548 680
8 560 744
8 564 804
4 576 864
8 588 920
4 596 952
152 644 120
144 644 132
132 640 144
116 640 168
100 644 204
80 648 256
60 652 324
48 652 408
28 652 484
16 660 564
16 628 616
16 624 680
12 628 752
8 640 812
4 644 864
0 656 916
0 660 956
148 720 140
144 720 148
132 716 160
124 720 184
108 724 220
92 720 272
68 720 340
56 724 420
40 728 508
28 732 592
12 736 668
12 696 692
8 700 760
8 704 824
0 712 872
4 716 924
4 716 960
168 784 164
152 784 168
144 784 180
132 784 208
116 784 240
92 788 296
72 792 364
60 788 436
44 792 516
28 800 604
16 800 688
12 800 756
12 764 772
8 760 828
4 764 880
0 776 928
0 776 964
164 844 180
160 844 196
152 848 208
136 848 232
120 844 268
104 844 320
84 848 380
68 848 460
56 852 540
36 852 620
24 856 700
12 860 772
12 848 820
4 816 840
8 816 888
4 816 932
0 820 964
168 892 208
168 892 216
160 892 236
148 892 256
128 896 296
112 896 344
92 896 400
68 900 468
56 900 552
40 904 636
28 904 720
20 908 788
16 908 848
12 888 884
4 856 896
4 860 932
0 860 964
180 936 236
172 940 240
164 936 256
144 936 276
124 936 312
116 936 364
96 936 420
76 940 492
56 940 560
48 940 644
28 944 724
20 948 788
8 948 860
8 948 908
4 924 920
0 896 932
0 896 968
184 952 252
172 956 256
164 952 280
148 956 304
132 952 348
120 948 404
100 948 460
80 952 524
60 956 596
48 952 672
28 956 740
24 956 812
20 972 860
12 972 912
8 976 956
20 948 964
16 932 976
100 0 8
108 0 24
100 16 56
96 24 92
96 40 128
80 52 168
68 56 224
56 52 288
44 48 356
36 44 444
44 36 520
32 44 604
36 68 684
28 88 752
28 116 812
16 152 872
12 176 916
88 36 12
96 36 32
104 44 60
104 52 92
88 64 132
80 60 180
76 60 240
60 56 320
56 56 400
44 44 480
40 40 556
32 52 648
24 76 720
20 108 792
20 136 852
12 172 900
8 196 940
92 64 32
96 68 40
100 76 64
96 80 96
88 84 136
76 84 188
64 80 244
56 76 320
52 64 396
44 60 484
36 68 568
36 80 648
24 96 724
20 128 788
16 156 856
12 192 904
8 224 944
104 96 40
112 108 52
108 124 72
88 120 104
84 116 144
80 112 188
68 104 252
60 100 328
56 92 408
44 92 484
36 108 572
32 120 652
24 144 728
20 168 792
12 192 852
12 224 908
8 248 944
132 148 52
136 156 60
128 172 80
108 176 112
84 168 156
72 156 192
68 152 256
60 148 332
52 144 404
40 156 492
36 160 584
32 168 656
28 188 728
20 216 804
20 244 856
12 272 908
8 288 940
160 216 52
156 232 64
140 236 80
120 240 116
92 240 152
76 224 208
72 220 264
60 212 332
52 212 412
44 220 496
36 232 572
28 244 660
20 264 732
16 276 800
16 300 856
12 324 908
8 344 944
172 296 68
172 304 72
152 316 96
140 316 128
108 312 164
80 320 224
60 304 272
56 300 344
52 296 420
40 304 504
40 300 580
32 308 664
24 328 732
20 344 804
16 364 860
8 384 908
4 400 948
180 388 76
176 392 80
164 396 104
140 400 132
112 400 172
96 400 236
72 396 304
56 376 356
52 376 440
48 380 516
32 392 596
28 396 668
20 400 744
16 420 800
12 436 864
12 452 916
8 464 948
200 476 92
188 480 100
176 484 120
156 476 144
128 480 184
100 484 240
88 484 308
60 496 388
48 468 436
40 464 512
36 468 592
28 472 672
28 480 744
20 492 808
16 504 864
8 520 912
4 532 948
204 560 104
204 560 116
184 568 136
164 564 164
140 564 200
112 564 256
96 560 324
72 568 404
52 576 484
40 552 540
28 552 608
24 548 676
20 560 748
20 572 812
12 580 868
12 592 920
8 592 948
216 644 124
208 636 132
192 640 152
176 640 180
152 640 216
124 648 268
96 648 336
76 648 412
56 656 500
40 660 576
32 632 624
32 628 692
20 632 756
16 640 820
16 644 872
12 656 920
8 660 952
216 724 148
212 720 152
200 720 172
184 716 196
156 720 228
132 720 284
112 720 352
92 724 432
72 732 512
52 728 592
32 740 672
20 704 700
20 704 760
16 708 824
12 716 876
12 716 924
8 720 960
228 784 168
220 784 172
212 784 192
192 784 216
172 784 252
144 788 304
120 788 364
96 792 448
72 796 528
56 804 612
40 804 696
32 800 756
20 764 772
20 764 836
12 768 884
8 772 924
8 772 956
232 848 192
232 848 200
212 848 220
196 844 236
176 844 276
152 844 324
132 848 396
104 848 468
84 848 544
60 856 632
48 856 712
32 860 780
20 852 824
16 820 848
8 812 888
8 812 936
8 816 972
236 892 216
240 892 228
224 892 244
204 892 268
184 896 304
160 892 348
136 896 412
112 900 488
88 900 568
64 908 648
48 904 728
36 908 796
24 908 852
20 884 884
12 860 896
8 856 940
8 856 972
244 936 244
236 936 248
228 936 268
212 936 288
184 940 316
168 936 372
144 940 428
116 940 496
92 940 572
72 940 648
56 944 732
44 944 800
24 948 860
20 944 908
12 924 924
8 896 932
4 892 972
248 956 256
244 952 268
228 952 292
216 952 316
188 952 356
172 952 408
148 948 464
120 956 532
100 952 608
72 952 672
56 956 744
44 956 812
32 968 856
24 976 916
24 972 960
24 948 960
20 928 972
160 0 0
156 4 24
164 16 56
152 28 96
152 40 132
136 56 172
120 64 228
112 72 296
100 72 372
88 60 448
76 60 524
60 52 612
48 76 688
44 100 756
36 124 816
28 156 876
20 180 916
156 36 8
160 40 32
172 44 60
164 52 92
152 64 140
148 68 192
140 80 252
124 80 328
108 72 412
92 60 488
72 56 572
60 64 656
48 84 732
40 120 804
32 144 856
28 180 904
