滤镜资源/vsco滤镜3dlut 2017.8月更新/3dl/VSCO L9 Landscape Series.3dl
#Generated by Picture Instruments - Look Converter
3DMESH
Mesh 4 10
0 64 128 192 256 320 384 448 512 576 640 704 768 832 896 960 1023
0 0 0
16 0 20
36 4 52
20 0 92
40 4 152
0 8 216
16 8 288
32 8 376
8 4 472
32 8 560
20 16 620
20 16 724
32 20 788
20 16 852
32 16 904
4 4 932
0 0 984
0 32 4
20 28 24
36 24 56
24 20 100
36 16 160
4 16 240
16 16 328
32 16 416
12 8 512
28 12 596
0 12 680
8 4 768
28 8 836
0 0 892
24 8 932
4 4 952
0 0 1000
8 76 8
20 64 32
36 52 56
24 52 104
36 44 156
0 48 244
16 40 328
32 32 424
12 28 520
32 24 604
4 24 680
8 16 772
28 16 836
4 8 896
24 12 936
0 4 956
0 0 1004
4 144 8
24 120 24
36 108 60
20 108 100
32 92 160
4 80 240
20 68 324
32 60 416
8 48 508
28 44 596
4 40 676
4 28 764
28 24 832
4 16 888
24 12 936
4 4 952
0 0 1004
8 224 12
24 204 28
36 184 60
24 176 104
36 160 160
4 152 236
20 136 328
28 120 420
12 104 508
24 92 596
8 88 680
8 72 768
28 60 836
4 52 892
20 44 936
4 44 960
0 28 1008
8 316 8
20 296 28
32 280 64
28 268 108
32 248 156
12 236 248
24 216 328
28 204 420
16 192 516
24 176 604
8 168 672
8 148 768
20 132 836
8 124 896
20 112 936
8 104 968
4 84 1004
12 412 20
24 388 36
32 376 68
24 364 104
36 352 160
8 352 248
24 320 324
24 304 408
12 292 508
24 280 592
8 272 684
8 248 772
20 232 836
8 216 896
20 200 932
8 208 964
4 184 1004
8 512 12
16 492 32
28 476 68
16 468 104
28 460 156
12 440 256
20 428 328
28 420 416
16 404 516
24 384 600
12 380 680
8 364 768
20 344 836
8 336 892
20 312 932
8 308 964
4 288 1008
16 584 20
20 576 36
32 564 72
20 560 112
36 552 172
8 540 256
16 528 328
28 516 416
12 508 508
24 496 596
12 484 696
8 468 772
20 452 840
8 448 900
20 432 944
12 432 972
8 408 1004
12 676 20
16 664 36
28 656 68
16 652 108
28 640 164
16 632 264
20 624 328
28 608 412
16 604 508
28 592 592
12 592 680
8 580 760
24 572 828
8 556 888
20 544 932
12 536 972
4 532 1004
16 744 28
16 740 36
32 732 72
20 732 112
32 720 172
12 720 256
8 716 328
28 704 416
8 700 512
24 692 592
16 676 684
12 668 760
24 656 832
8 656 892
24 644 936
16 640 968
4 640 1000
12 812 20
12 812 40
28 800 72
12 804 120
32 796 168
16 788 272
12 784 336
28 776 416
12 776 512
28 768 600
12 768 684
4 764 760
24 748 820
8 748 888
20 740 932
16 732 972
8 732 1004
16 860 28
12 864 40
32 856 76
16 852 116
32 852 176
16 852 276
12 848 332
28 844 420
8 840 512
24 840 592
20 828 696
8 832 764
28 824 832
8 824 888
24 812 936
16 816 972
4 816 1004
16 908 24
8 908 40
28 908 76
12 908 120
32 904 176
20 896 276
12 904 336
28 896 420
8 900 508
28 892 592
20 896 688
8 888 752
24 888 820
4 888 884
24 880 932
20 876 976
4 876 1008
20 940 32
8 944 44
28 940 76
8 944 116
32 940 176
20 940 276
8 940 336
28 936 412
4 936 508
28 936 592
20 932 688
4 932 756
28 928 824
4 932 884
28 928 932
20 932 972
4 932 1000
20 968 32
4 972 44
32 972 76
8 972 124
32 968 180
20 964 276
8 968 332
32 968 416
8 968 508
28 964 584
20 960 680
4 968 744
24 964 816
4 968 880
24 964 924
20 960 964
4 960 992
20 988 48
8 996 68
32 992 108
12 996 160
32 992 224
36 980 332
24 988 388
40 984 472
24 988 560
40 980 636
20 992 724
4 996 792
28 992 836
4 1000 888
24 992 928
32 984 964
16 988 992
40 0 0
40 0 24
44 0 56
36 0 104
32 0 164
28 4 228
24 4 312
20 4 400
16 4 492
12 4 572
24 16 656
24 16 728
24 16 804
20 16 860
20 16 912
0 0 948
0 0 988
32 28 0
36 28 24
44 28 64
36 28 112
32 24 180
28 20 260
24 16 348
20 16 448
16 16 532
16 12 624
12 8 704
8 8 784
8 4 848
0 8 904
0 4 948
0 0 988
0 0 1008
36 68 4
40 80 32
40 68 60
36 60 116
36 56 184
28 48 264
24 44 348
24 40 444
12 36 532
16 28 628
12 24 712
12 20 784
12 16 852
0 12 904
4 8 944
4 4 988
4 4 1012
32 140 4
36 148 32
36 132 64
36 120 124
28 104 180
32 88 264
24 80 348
20 72 448
16 60 540
16 52 628
12 44 708
12 32 788
4 24 852
8 20 904
4 16 956
0 8 988
0 4 1012
32 228 4
32 228 32
40 208 68
36 196 116
40 180 184
32 168 260
20 152 344
16 136 436
16 124 532
16 108 620
16 96 712
12 88 784
8 72 848
8 60 904
4 56 948
0 44 988
0 40 1012
32 316 4
28 328 36
36 308 68
32 292 116
24 276 180
28 260 264
24 244 348
24 228 444
20 216 540
16 192 624
12 180 708
12 168 788
8 156 852
8 144 908
4 124 944
0 112 988
0 104 1012
28 412 8
32 416 40
24 404 76
28 392 124
28 376 192
24 356 260
24 344 344
20 328 444
16 312 536
16 304 628
16 284 712
12 268 788
8 256 852
8 240 908
4 228 952
4 212 984
4 200 1008
24 516 4
20 520 36
28 500 72
20 492 124
20 476 184
24 464 268
20 452 352
20 432 436
16 420 528
16 408 620
12 400 708
12 384 780
8 368 848
8 356 900
4 344 944
4 320 988
4 316 1012
20 592 8
24 604 36
28 592 80
24 584 132
24 568 188
16 560 264
20 552 348
16 540 440
12 532 536
16 516 620
12 500 708
16 492 784
8 480 852
8 468 908
8 460 956
4 440 980
4 432 1008
16 676 8
16 684 40
20 680 80
16 672 128
20 664 192
20 652 276
16 636 352
20 628 448
16 628 532
12 616 620
8 608 704
8 600 784
4 580 840
8 572 904
4 564 944
4 556 988
4 552 1012
16 756 4
16 760 40
16 752 84
16 748 128
16 740 196
16 732 264
12 732 348
16 724 444
12 708 524
8 708 612
12 696 700
12 688 780
8 680 848
8 676 908
4 664 944
0 660 984
0 656 1012
12 824 4
12 824 44
12 820 80
12 816 132
16 812 196
12 804 272
16 800 352
12 792 444
16 788 528
12 784 620
8 784 704
8 776 780
4 768 844
4 764 904
4 760 944
4 752 984
4 744 1012
12 876 12
12 876 44
12 872 84
16 868 132
16 868 196
8 868 272
12 860 356
8 856 444
8 856 532
8 852 620
12 848 704
8 844 784
8 840 852
8 832 900
4 828 948
0 828 980
0 828 1008
8 920 12
8 920 44
8 924 88
8 920 136
12 916 200
8 908 276
12 912 356
8 908 452
12 908 540
12 900 624
4 904 700
8 900 784
4 900 840
4 896 900
0 892 948
4 884 984
0 888 1008
0 952 12
0 952 44
4 952 84
4 952 132
4 952 196
4 952 272
4 944 344
4 948 436
4 948 520
4 944 612
4 944 700
4 948 772
4 940 844
0 940 896
0 940 944
4 936 984
0 936 1008
0 976 12
4 976 44
0 976 88
4 976 128
0 976 192
0 976 268
4 980 344
4 976 436
4 976 516
0 976 604
0 976 688
0 972 760
4 972 836
4 976 888
0 972 936
0 968 972
0 968 1004
8 1004 28
8 1004 72
8 1004 124
8 1004 184
8 1000 248
24 992 328
28 992 412
24 992 496
28 988 584
24 992 664
8 1004 740
4 1004 808
4 1008 844
4 1008 896
4 1008 940
16 996 972
16 996 1000
76 0 0
92 0 20
88 0 56
88 0 108
76 0 180
60 8 240
44 8 328
40 4 412
36 4 500
28 4 588
36 16 668
32 16 744
28 16 812
28 16 868
24 16 908
4 0 956
4 0 992
80 32 0
88 28 20
96 32 56
92 32 108
76 28 180
64 24 264
56 20 356
48 16 448
40 16 544
36 12 636
28 16 708
24 12 788
20 12 848
12 4 904
8 4 948
4 0 988
4 0 1012
84 68 4
88 72 20
96 72 56
92 72 112
80 64 188
60 60 268
56 48 356
48 44 452
40 40 548
32 36 632
28 28 716
24 24 788
20 20 852
16 16 908
8 12 948
8 8 988
8 8 1012
76 132 0
88 140 24
88 144 64
88 128 116
76 116 192
68 100 276
56 92 364
48 80 460
48 72 552
36 60 636
24 48 720
24 44 796
20 32 856
16 24 908
12 24 952
8 16 988
8 12 1012
72 212 8
80 216 28
88 220 68
84 208 124
80 196 196
60 172 272
56 160 360
44 148 460
40 136 552
36 124 636
32 108 724
28 92 796
20 80 864
16 72 912
12 60 960
4 52 992
4 48 1012
64 312 4
68 320 20
76 320 72
80 304 120
64 288 188
64 272 272
64 256 364
48 240 448
44 224 544
40 208 632
32 196 712
20 188 788
20 172 856
12 156 900
12 140 948
12 120 988
8 116 1012
60 408 8
72 408 32
68 420 80
72 404 128
64 384 196
60 376 276
56 356 356
48 348 452
48 328 548
36 320 636
32 296 720
24 280 796
20 272 856
16 256 908
12 240 956
8 224 988
8 220 1008
48 504 4
60 508 24
60 508 76
60 500 128
56 488 204
52 472 284
44 456 364
44 444 452
40 432 552
36 420 636
28 412 720
24 396 792
20 376 856
16 364 904
12 352 944
8 332 992
8 328 1012
52 592 8
56 600 28
60 600 80
56 584 128
56 580 196
48 572 272
44 556 368
36 552 452
40 536 540
32 520 628
32 516 720
24 504 796
20 492 856
16 480 912
12 468 952
12 452 984
8 444 1008
36 680 4
48 676 24
48 684 84
52 680 132
44 668 200
44 656 280
40 648 368
44 640 460
36 632 548
32 624 632
24 620 712
24 604 784
20 592 848
12 588 900
12 572 952
8 564 992
4 556 1012
36 756 8
44 752 32
44 756 84
44 752 136
40 748 204
40 740 284
36 732 368
32 724 456
32 716 548
28 716 624
32 700 716
28 696 792
20 688 852
20 676 904
12 672 952
4 660 984
0 660 1012
32 824 8
40 824 28
32 828 80
36 824 140
32 816 196
32 808 280
32 800 368
36 800 456
28 792 544
28 788 628
20 788 704
20 780 780
16 776 844
12 768 904
12 768 948
8 752 984
4 748 1012
28 868 8
28 876 36
32 876 92
32 872 144
32 868 212
24 872 284
28 860 364
24 860 452
24 860 544
24 852 624
28 852 720
20 848 788
16 844 848
16 840 904
12 832 948
4 836 984
4 832 1012
20 920 8
28 920 36
20 924 92
28 916 144
24 912 212
24 912 288
28 912 376
24 908 460
20 904 548
16 908 632
16 904 708
20 904 788
16 900 852
12 896 904
8 892 948
8 888 984
4 888 1012
16 952 12
20 952 36
16 952 92
16 952 148
20 952 212
16 948 284
16 948 368
12 948 456
16 948 544
16 944 628
12 944 708
16 944 780
12 940 852
8 940 900
8 940 944
4 940 988
0 940 1008
8 980 8
8 980 28
8 980 76
8 980 132
4 980 196
8 984 272
8 980 360
12 976 440
8 976 524
8 976 608
8 976 692
8 976 768
4 976 840
4 980 892
4 976 940
0 972 976
0 972 1004
28 1004 28
28 1004 68
24 1004 128
24 1000 192
28 1004 256
36 992 344
36 992 420
32 992 500
32 992 588
32 992 672
20 1004 744
16 1004 812
16 1004 852
16 1004 900
12 1004 944
20 1000 976
20 996 1000
148 0 4
152 4 28
164 0 56
164 4 108
156 4 172
120 8 244
92 8 332
84 4 420
72 4 512
64 4 600
60 16 676
52 16 756
40 16 808
36 16 868
28 16 912
16 0 960
8 0 992
144 32 0
152 32 24
172 32 60
180 32 108
152 28 188
124 28 280
108 24 372
92 20 468
80 20 560
68 16 640
56 12 724
48 12 804
40 8 860
32 8 908
24 8 952
20 0 988
