滤镜资源/vsco滤镜3dlut 2017.8月更新/3dl/VSCO L6 Landscape Series.3dl
#Generated by Picture Instruments - Look Converter
3DMESH
Mesh 4 10
0 64 128 192 256 320 384 448 512 576 640 704 768 832 896 960 1023
0 0 0
28 4 44
40 4 80
28 8 120
44 12 168
12 20 216
28 16 276
44 24 332
36 24 404
48 24 460
40 32 512
52 32 592
64 36 660
56 36 740
72 40 808
56 36 856
64 36 916
4 56 8
24 44 44
40 40 84
32 32 132
40 32 180
12 32 240
24 28 308
44 28 360
32 28 440
44 24 496
24 28 552
36 28 640
52 28 696
52 28 780
68 32 848
56 40 888
72 36 948
12 104 16
28 96 48
40 80 88
28 72 136
40 60 184
12 72 248
28 60 312
40 52 368
28 52 440
44 48 496
24 44 556
32 36 644
48 32 712
40 32 792
64 36 852
52 40 892
64 36 948
8 172 8
24 156 40
36 144 84
24 124 136
40 116 192
12 112 248
28 104 312
40 92 372
24 92 444
40 88 504
20 92 564
32 76 636
44 68 712
36 64 788
48 60 856
36 60 900
44 52 952
12 240 16
24 224 40
36 204 88
24 184 140
36 164 196
12 164 260
24 156 320
36 148 376
24 144 444
36 132 504
28 136 568
28 120 644
44 108 716
32 104 796
48 96 860
36 108 900
40 96 948
8 312 8
16 300 32
36 284 80
20 264 140
36 240 192
16 224 268
20 216 328
40 208 384
24 204 452
40 196 520
24 196 564
24 184 640
40 172 724
32 164 804
48 160 868
40 168 912
40 156 952
20 384 12
16 368 24
36 360 68
24 340 136
36 316 188
16 308 276
16 280 320
36 268 380
20 268 452
36 264 512
28 264 580
28 248 656
44 232 724
32 224 804
48 216 868
32 232 900
36 224 952
20 464 8
16 452 8
36 436 60
12 420 124
36 392 188
24 372 280
24 364 340
40 340 388
24 336 464
40 324 516
24 328 576
28 316 652
40 300 732
32 296 816
44 284 868
40 292 912
40 284 956
24 520 12
20 516 12
36 504 64
16 492 124
36 472 192
12 448 276
20 436 340
40 424 400
16 408 460
36 400 520
32 392 592
28 380 660
40 364 736
32 356 828
48 352 884
36 364 916
36 356 952
20 600 12
16 596 8
32 576 48
8 572 108
32 552 176
16 528 284
16 516 336
36 492 396
24 492 472
40 468 516
24 464 588
28 452 656
40 436 732
28 428 808
44 416 880
40 428 924
40 424 952
28 664 16
16 660 8
32 644 52
12 644 108
32 624 172
12 604 264
12 596 332
36 572 404
24 564 480
40 556 536
28 528 592
28 520 656
44 500 728
32 496 816
44 484 880
36 496 916
36 492 948
24 740 12
12 728 4
32 724 40
8 716 96
28 708 160
16 688 272
16 668 324
36 652 400
28 640 484
44 628 536
28 620 608
28 596 656
36 572 724
28 560 804
44 556 872
40 560 916
40 560 952
32 796 20
16 804 4
32 800 48
12 788 92
28 780 156
12 772 260
12 772 316
32 756 396
20 744 468
40 716 536
32 696 616
28 688 672
40 648 716
32 636 800
44 616 864
40 624 904
40 624 944
24 872 16
16 868 0
28 864 36
12 872 84
24 868 136
16 856 248
16 860 296
32 848 364
24 844 464
40 824 524
36 804 604
28 784 660
40 752 720
32 712 776
44 696 836
48 692 908
44 692 948
32 920 20
20 928 4
28 924 28
12 928 76
28 928 132
16 924 236
12 928 292
32 920 372
16 920 452
40 904 524
36 876 620
36 860 672
44 836 720
32 820 788
44 772 832
36 776 892
36 776 936
32 960 16
16 968 4
28 964 32
12 972 72
24 968 136
16 964 236
12 964 292
32 964 368
20 960 456
36 948 532
36 932 632
32 920 684
44 912 736
32 904 804
44 884 856
44 852 900
40 852 936
32 976 20
20 984 20
32 980 48
12 980 100
28 980 156
32 972 276
28 972 332
44 968 408
28 964 492
44 956 560
36 944 656
32 940 716
48 944 744
36 944 812
48 932 860
48 924 908
44 916 932
52 0 0
52 0 44
48 4 88
40 8 128
44 4 188
48 20 228
40 20 288
48 20 352
44 24 416
48 20 484
56 28 544
56 32 608
64 32 680
64 36 748
68 40 820
60 40 888
64 36 928
48 52 4
40 48 44
36 44 92
28 36 148
28 28 204
28 24 260
32 28 316
28 24 384
36 28 452
40 24 516
40 28 584
44 28 644
52 36 716
56 32 788
56 36 864
64 40 920
64 40 956
44 116 8
32 108 52
36 92 100
28 84 156
28 72 212
24 64 264
24 64 328
28 56 388
28 52 452
28 44 520
28 44 580
36 36 648
40 32 728
44 32 796
52 36 868
60 40 928
60 40 956
40 188 4
20 176 40
24 156 96
20 140 160
24 124 212
24 116 272
28 108 328
28 104 400
32 96 464
32 92 528
28 84 584
32 76 660
32 68 728
36 68 808
36 60 876
40 56 928
40 56 956
36 264 4
16 244 28
16 224 84
20 204 152
24 188 220
20 176 272
24 164 328
24 160 388
20 156 460
24 148 520
28 144 596
36 136 664
32 124 732
36 116 808
36 108 876
36 112 928
36 108 952
32 344 0
16 324 28
12 304 76
16 280 152
20 256 224
20 240 280
24 228 336
24 220 404
24 220 468
28 208 528
24 200 592
32 196 664
28 188 740
36 176 816
32 172 876
40 168 928
40 168 960
40 408 8
28 396 24
16 372 72
20 352 144
24 332 220
20 316 276
24 296 336
24 288 404
28 284 464
24 280 532
32 268 604
32 256 668
32 248 744
36 236 824
36 236 888
36 236 928
36 236 952
40 488 0
20 480 16
12 452 60
12 436 128
16 412 212
24 388 288
28 376 356
28 356 408
28 348 472
28 340 540
24 336 600
32 328 664
32 320 748
32 308 820
36 304 892
40 304 932
40 300 956
44 552 4
24 540 16
12 520 52
16 508 132
16 484 208
16 464 280
20 452 352
24 440 420
24 420 476
24 412 540
28 400 608
32 392 676
28 384 756
36 372 840
36 372 896
40 368 928
36 368 956
36 620 0
24 608 12
8 596 48
8 584 116
8 560 204
20 540 284
24 520 356
32 508 428
24 496 496
28 476 548
28 472 608
32 464 672
28 452 752
32 440 836
32 436 892
40 436 932
40 436 960
36 688 0
28 680 16
12 664 40
8 652 104
12 636 180
16 620 264
20 608 344
20 596 424
24 576 484
20 568 544
32 536 608
32 532 672
32 520 748
32 508 832
36 500 888
36 504 928
36 504 956
32 760 0
20 756 12
8 736 36
8 732 96
4 728 176
20 700 260
20 684 340
24 672 420
32 652 496
28 640 556
28 632 612
28 600 656
28 588 736
36 572 816
36 572 884
36 572 928
36 560 956
40 816 0
28 816 16
12 808 32
12 804 92
8 800 168
8 796 248
16 780 332
20 764 404
24 756 484
24 736 548
32 712 616
32 700 680
28 660 732
32 636 800
36 628 872
40 636 920
36 636 948
36 884 0
28 880 8
8 884 28
8 884 84
4 880 156
8 876 232
20 872 316
24 860 400
28 856 484
28 836 548
28 812 612
28 788 680
28 764 732
32 716 788
32 708 856
40 696 920
40 700 956
40 936 0
28 936 8
12 936 16
8 936 76
8 940 148
12 940 224
8 936 300
20 932 388
24 928 468
28 916 544
32 896 620
40 872 676
32 848 732
32 824 800
32 784 844
32 784 908
32 784 944
36 972 0
28 976 4
8 972 16
4 976 64
8 980 140
8 976 220
12 972 304
20 968 392
24 964 472
28 956 552
28 940 620
28 924 684
36 920 748
36 912 812
36 900 864
36 872 908
40 872 948
40 988 4
28 988 16
8 984 36
4 984 88
4 988 164
24 980 248
24 976 336
24 976 416
28 972 500
32 964 580
28 956 656
28 944 720
36 952 764
40 952 816
40 944 876
44 944 920
44 932 936
100 4 8
104 0 52
92 0 84
88 0 132
80 8 196
72 20 244
68 24 304
64 24 372
68 24 432
64 24 496
68 32 564
76 32 636
80 36 692
84 32 756
80 40 820
80 40 892
80 36 932
96 56 8
96 48 44
80 40 92
84 36 144
68 32 204
68 28 272
68 28 336
60 32 404
64 32 472
60 32 536
60 36 596
68 32 668
68 36 724
80 36 804
76 36 864
80 36 928
80 36 952
96 116 12
84 116 44
72 92 100
64 80 148
52 68 216
44 64 276
40 52 332
40 48 396
44 44 468
44 44 532
48 44 596
44 48 664
56 40 728
60 44 804
64 40 868
64 40 924
64 40 956
76 196 4
76 184 32
56 168 84
52 144 156
40 132 224
40 112 284
40 108 344
44 100 408
40 92 476
40 84 536
36 80 600
36 72 668
40 68 736
40 60 812
44 52 872
44 52 920
44 52 960
72 272 8
68 260 32
44 236 72
44 216 152
40 196 232
36 184 284
36 164 344
36 164 408
36 152 472
36 148 540
40 140 608
44 132 676
44 120 740
40 116 820
40 112 880
44 112 928
44 108 956
64 364 4
52 356 20
32 320 60
28 296 132
36 276 224
36 256 296
32 244 356
40 228 412
36 228 476
36 216 540
32 212 600
32 204 676
40 196 748
36 180 820
40 180 880
40 176 928
40 176 956
64 432 8
64 420 24
40 392 56
32 368 128
36 344 220
36 332 288
32 312 356
32 300 416
32 292 480
36 288 544
36 272 608
36 264 676
44 256 752
40 248 832
40 244 892
36 244 928
36 244 952
60 500 4
52 492 12
36 464 52
28 444 112
28 420 220
40 404 300
36 384 364
36 368 424
36 356 488
36 348 548
36 348 612
36 336 684
36 320 752
36 316 832
36 316 892
40 312 936
40 312 956
68 564 4
52 564 20
40 540 48
28 512 100
32 496 204
32 480 284
32 460 364
32 456 432
28 428 484
32 420 548
36 408 620
36 404 688
44 392 768
40 380 844
44 376 896
40 380 928
40 384 952
60 636 4
52 624 8
32 604 40
24 588 92
20 576 192
32 548 284
36 532 360
40 520 436
36 512 504
40 488 560
32 480 616
32 472 680
36 460 760
36 448 844
40 444 900
40 448 932
40 448 956
60 704 0
52 692 12
36 672 40
24 656 88
24 644 184
28 628 272
32 616 360
32 596 440
36 584 500
32 576 556
36 548 616
36 540 684
40 528 764
40 516 836
40 512 896
36 516 932
36 516 956
56 772 4
40 772 12
32 756 36
24 736 76
20 728 164
28 712 260
32 692 344
36 680 424
36 664 504
40 644 568
36 636 624
32 612 672
36 600 744
40 588 828
40 584 888
44 572 928
40 564 956
60 824 0
52 820 12
36 816 36
28 804 68
24 800 156
20 800 244
28 784 328
36 768 416
36 764 492
40 740 560
44 724 628
36 708 688
40 660 732
40 644 808
40 636 876
40 644 924
40 636 956
60 888 0
48 884 4
36 888 28
24 880 60
24 880 152
28 876 232
28 872 324
32 864 408
44 856 488
40 840 556
36 820 624
40 792 684
32 768 744
40 720 796
40 708 860
44 704 924
40 704 956
60 936 0
52 936 8
36 936 24
24 936 64
20 936 148
20 940 220
24 932 308
32 932 392
36 928 484
40 916 564
40 892 620
36 868 676
40 844 736
28 824 796
40 784 848
32 784 908
36 784 940
56 976 0
48 972 4
36 976 20
20 976 40
16 976 124
16 976 216
24 972 304
24 964 392
32 964 476
40 960 556
36 944 628
28 932 688
36 924 748
36 908 808
36 900 864
36 872 908
40 872 948
56 988 4
48 984 12
32 984 28
12 988 60
8 988 136
24 984 236
24 980 316
28 976 412
32 972 500
32 960 576
32 956 644
32 944 724
36 952 756
40 956 816
40 948 876
44 944 924
44 932 940
172 0 4
164 0 44
164 0 80
140 4 132
140 4 192
116 16 244
100 20 312
100 20 376
96 24 444
92 28 516
92 28 576
92 32 640
108 32 696
112 36 764
120 40 828
128 36 896
128 36 936
164 52 4
172 44 36
168 36 92
144 32 140
128 28 204
116 28 276
108 28 352
96 32 412
96 32 484
92 32 552
84 36 620
88 36 692
100 32 744
108 40 808
112 40 872
120 36 928
