滤镜资源/vsco滤镜3dlut 2017.8月更新/3dl/VSCOX FN16 Fuji Neopan 1600.3dl
#Generated by Picture Instruments - Look Converter
3DMESH
Mesh 4 10
0 64 128 192 256 320 384 448 512 576 640 704 768 832 896 960 1023
124 124 124
128 128 128
140 140 140
164 164 164
196 196 196
232 232 232
284 284 284
340 340 340
396 396 396
452 452 452
496 496 496
564 564 564
628 628 628
696 696 696
760 760 760
804 804 804
864 864 864
128 128 128
136 136 136
148 148 148
172 172 172
212 212 212
256 256 256
308 308 308
360 360 360
420 420 420
476 476 476
524 524 524
596 596 596
652 652 652
724 724 724
796 796 796
836 836 836
892 892 892
140 140 140
148 148 148
168 168 168
188 188 188
232 232 232
280 280 280
332 332 332
384 384 384
440 440 440
488 488 488
532 532 532
596 596 596
656 656 656
728 728 728
800 800 800
836 836 836
892 892 892
164 164 164
176 176 176
196 196 196
224 224 224
268 268 268
316 316 316
368 368 368
420 420 420
472 472 472
524 524 524
572 572 572
616 616 616
672 672 672
736 736 736
800 800 800
844 844 844
892 892 892
204 204 204
216 216 216
232 232 232
264 264 264
312 312 312
372 372 372
420 420 420
472 472 472
516 516 516
564 564 564
608 608 608
656 656 656
708 708 708
756 756 756
812 812 812
860 860 860
900 900 900
248 248 248
264 264 264
288 288 288
324 324 324
364 364 364
428 428 428
472 472 472
524 524 524
572 572 572
612 612 612
652 652 652
692 692 692
736 736 736
788 788 788
836 836 836
876 876 876
908 908 908
308 308 308
312 312 312
340 340 340
376 376 376
424 424 424
484 484 484
520 520 520
568 568 568
608 608 608
648 648 648
688 688 688
724 724 724
760 760 760
804 804 804
848 848 848
884 884 884
916 916 916
364 364 364
372 372 372
396 396 396
432 432 432
476 476 476
532 532 532
572 572 572
616 616 616
652 652 652
684 684 684
720 720 720
752 752 752
788 788 788
828 828 828
860 860 860
896 896 896
924 924 924
420 420 420
432 432 432
456 456 456
488 488 488
532 532 532
580 580 580
616 616 616
652 652 652
688 688 688
720 720 720
752 752 752
776 776 776
808 808 808
844 844 844
880 880 880
908 908 908
928 928 928
480 480 480
488 488 488
508 508 508
536 536 536
576 576 576
624 624 624
656 656 656
684 684 684
720 720 720
748 748 748
776 776 776
800 800 800
828 828 828
856 856 856
888 888 888
912 912 912
936 936 936
536 536 536
544 544 544
564 564 564
596 596 596
624 624 624
668 668 668
696 696 696
728 728 728
752 752 752
780 780 780
800 800 800
820 820 820
844 844 844
872 872 872
900 900 900
924 924 924
944 944 944
596 596 596
604 604 604
624 624 624
648 648 648
680 680 680
720 720 720
732 732 732
764 764 764
784 784 784
804 804 804
828 828 828
844 844 844
864 864 864
884 884 884
912 912 912
932 932 932
948 948 948
668 668 668
676 676 676
692 692 692
708 708 708
732 732 732
764 764 764
780 780 780
800 800 800
816 816 816
832 832 832
852 852 852
868 868 868
884 884 884
904 904 904
924 924 924
940 940 940
956 956 956
736 736 736
744 744 744
756 756 756
772 772 772
788 788 788
808 808 808
824 824 824
840 840 840
852 852 852
864 864 864
884 884 884
888 888 888
904 904 904
916 916 916
936 936 936
956 956 956
964 964 964
808 808 808
812 812 812
816 816 816
828 828 828
840 840 840
856 856 856
868 868 868
876 876 876
888 888 888
896 896 896
908 908 908
916 916 916
924 924 924
936 936 936
948 948 948
964 964 964
972 972 972
860 860 860
868 868 868
872 872 872
880 880 880
884 884 884
896 896 896
904 904 904
912 912 912
920 920 920
924 924 924
932 932 932
940 940 940
948 948 948
956 956 956
968 968 968
976 976 976
980 980 980
884 884 884
888 888 888
892 892 892
900 900 900
904 904 904
912 912 912
920 920 920
924 924 924
932 932 932
936 936 936
944 944 944
948 948 948
952 952 952
960 960 960
968 968 968
976 976 976
980 980 980
124 124 124
132 132 132
144 144 144
168 168 168
204 204 204
244 244 244
296 296 296
352 352 352
408 408 408
460 460 460
516 516 516
576 576 576
640 640 640
708 708 708
776 776 776
828 828 828
872 872 872
132 132 132
140 140 140
156 156 156
184 184 184
224 224 224
264 264 264
320 320 320
376 376 376
432 432 432
488 488 488
544 544 544
600 600 600
668 668 668
736 736 736
808 808 808
864 864 864
896 896 896
148 148 148
156 156 156
172 172 172
204 204 204
244 244 244
296 296 296
352 352 352
404 404 404
452 452 452
504 504 504
552 552 552
608 608 608
672 672 672
740 740 740
808 808 808
864 864 864
896 896 896
172 172 172
184 184 184
208 208 208
244 244 244
284 284 284
336 336 336
392 392 392
444 444 444
496 496 496
544 544 544
588 588 588
636 636 636
692 692 692
756 756 756
816 816 816
868 868 868
896 896 896
216 216 216
224 224 224
248 248 248
284 284 284
332 332 332
388 388 388
436 436 436
488 488 488
536 536 536
580 580 580
628 628 628
672 672 672
720 720 720
772 772 772
828 828 828
876 876 876
908 908 908
260 260 260
276 276 276
304 304 304
336 336 336
384 384 384
440 440 440
496 496 496
544 544 544
588 588 588
624 624 624
664 664 664
708 708 708
752 752 752
800 800 800
848 848 848
888 888 888
916 916 916
316 316 316
332 332 332
360 360 360
400 400 400
448 448 448
492 492 492
544 544 544
588 588 588
628 628 628
668 668 668
708 708 708
736 736 736
776 776 776
820 820 820
864 864 864
904 904 904
920 920 920
376 376 376
392 392 392
412 412 412
452 452 452
496 496 496
544 544 544
592 592 592
628 628 628
664 664 664
700 700 700
732 732 732
764 764 764
800 800 800
836 836 836
876 876 876
908 908 908
932 932 932
432 432 432
448 448 448
472 472 472
508 508 508
544 544 544
592 592 592
628 628 628
668 668 668
704 704 704
732 732 732
760 760 760
788 788 788
816 816 816
856 856 856
888 888 888
916 916 916
936 936 936
488 488 488
496 496 496
524 524 524
560 560 560
596 596 596
640 640 640
672 672 672
704 704 704
732 732 732
760 760 760
784 784 784
812 812 812
836 836 836
868 868 868
900 900 900
928 928 928
944 944 944
548 548 548
560 560 560
584 584 584
608 608 608
644 644 644
676 676 676
712 712 712
736 736 736
760 760 760
784 784 784
808 808 808
828 828 828
856 856 856
880 880 880
904 904 904
928 928 928
948 948 948
612 612 612
620 620 620
640 640 640
664 664 664
696 696 696
720 720 720
748 748 748
776 776 776
796 796 796
812 812 812
836 836 836
852 852 852
872 872 872
892 892 892
916 916 916
940 940 940
952 952 952
680 680 680
688 688 688
704 704 704
720 720 720
744 744 744
772 772 772
792 792 792
808 808 808
828 828 828
844 844 844
856 856 856
876 876 876
892 892 892
908 908 908
928 928 928
948 948 948
960 960 960
752 752 752
756 756 756
772 772 772
788 788 788
800 800 800
820 820 820
836 836 836
852 852 852
860 860 860
872 872 872
884 884 884
896 896 896
912 912 912
928 928 928
944 944 944
960 960 960
968 968 968
816 816 816
824 824 824
832 832 832
844 844 844
856 856 856
868 868 868
876 876 876
888 888 888
892 892 892
904 904 904
916 916 916
924 924 924
932 932 932
944 944 944
956 956 956
968 968 968
976 976 976
872 872 872
880 880 880
884 884 884
888 888 888
896 896 896
904 904 904
912 912 912
916 916 916
924 924 924
932 932 932
936 936 936
944 944 944
952 952 952
960 960 960
968 968 968
980 980 980
984 984 984
892 892 892
896 896 896
896 896 896
904 904 904
912 912 912
916 916 916
924 924 924
932 932 932
940 940 940
940 940 940
948 948 948
956 956 956
956 956 956
960 960 960
972 972 972
980 980 980
984 984 984
132 132 132
140 140 140
156 156 156
180 180 180
220 220 220
260 260 260
312 312 312
372 372 372
420 420 420
476 476 476
532 532 532
592 592 592
652 652 652
716 716 716
780 780 780
836 836 836
872 872 872
140 140 140
148 148 148
168 168 168
196 196 196
232 232 232
280 280 280
336 336 336
388 388 388
448 448 448
504 504 504
552 552 552
612 612 612
676 676 676
744 744 744
812 812 812
868 868 868
900 900 900
160 160 160
164 164 164
184 184 184
216 216 216
256 256 256
312 312 312
360 360 360
412 412 412
468 468 468
516 516 516
564 564 564
616 616 616
676 676 676
740 740 740
812 812 812
868 868 868
900 900 900
184 184 184
196 196 196
220 220 220
252 252 252
296 296 296
352 352 352
408 408 408
460 460 460
508 508 508
552 552 552
596 596 596
644 644 644
700 700 700
760 760 760
816 816 816
868 868 868
900 900 900
224 224 224
236 236 236
260 260 260
304 304 304
352 352 352
400 400 400
456 456 456
504 504 504
552 552 552
596 596 596
640 640 640
680 680 680
732 732 732
784 784 784
836 836 836
884 884 884
908 908 908
276 276 276
292 292 292
312 312 312
352 352 352
404 404 404
456 456 456
508 508 508
552 552 552
596 596 596
636 636 636
676 676 676
716 716 716
760 760 760
804 804 804
852 852 852
892 892 892
916 916 916
332 332 332
348 348 348
376 376 376
416 416 416
456 456 456
508 508 508
556 556 556
596 596 596
640 640 640
676 676 676
708 708 708
744 744 744
784 784 784
828 828 828
868 868 868
904 904 904
924 924 924
388 388 388
396 396 396
428 428 428
464 464 464
512 512 512
560 560 560
600 600 600
640 640 640
676 676 676
708 708 708
736 736 736
776 776 776
804 804 804
844 844 844
880 880 880
916 916 916
932 932 932
448 448 448
460 460 460
484 484 484
516 516 516
560 560 560
604 604 604
644 644 644
680 680 680
708 708 708
736 736 736
764 764 764
796 796 796
824 824 824
856 856 856
888 888 888
920 920 920
940 940 940
500 500 500
512 512 512
536 536 536
572 572 572
608 608 608
644 644 644
680 680 680
712 712 712
740 740 740
764 764 764
788 788 788
812 812 812
840 840 840
868 868 868
900 900 900
928 928 928
944 944 944
560 560 560
568 568 568
592 592 592
620 620 620
652 652 652
688 688 688
724 724 724
744 744 744
768 768 768
792 792 792
812 812 812
836 836 836
860 860 860
884 884 884
912 912 912
936 936 936
948 948 948
620 620 620
632 632 632
652 652 652
676 676 676
700 700 700
724 724 724
756 756 756
780 780 780
800 800 800
816 816 816
836 836 836
856 856 856
876 876 876
896 896 896
920 920 920
940 940 940
956 956 956
684 684 684
696 696 696
708 708 708
732 732 732
752 752 752
776 776 776
796 796 796
812 812 812
832 832 832
848 848 848
860 860 860
876 876 876
892 892 892
912 912 912
932 932 932
952 952 952
960 960 960
760 760 760
764 764 764
776 776 776
788 788 788
808 808 808
824 824 824
836 836 836
852 852 852
860 860 860
876 876 876
888 888 888
900 900 900
912 912 912
928 928 928
944 944 944
960 960 960
968 968 968
824 824 824
828 828 828
836 836 836
848 848 848
856 856 856
868 868 868
876 876 876
888 888 888
896 896 896
908 908 908
916 916 916
924 924 924
932 932 932
944 944 944
960 960 960
972 972 972
976 976 976
876 876 876
880 880 880
884 884 884
888 888 888
900 900 900
908 908 908
916 916 916
920 920 920
928 928 928
932 932 932
940 940 940
944 944 944
952 952 952
960 960 960
968 968 968
980 980 980
984 984 984
888 888 888
896 896 896
900 900 900
904 904 904
912 912 912
920 920 920
928 928 928
928 928 928
936 936 936
944 944 944
948 948 948
956 956 956
956 956 956
964 964 964
972 972 972
980 980 980
984 984 984
144 144 144
152 152 152
168 168 168
196 196 196
240 240 240
284 284 284
328 328 328
384 384 384
440 440 440
496 496 496
548 548 548
604 604 604
656 656 656
724 724 724
784 784 784
840 840 840
876 876 876
152 152 152
164 164 164
184 184 184
212 212 212
252 252 252
304 304 304
360 360 360
416 416 416
472 472 472
524 524 524
576 576 576
632 632 632
692 692 692
760 760 760
816 816 816
868 868 868
