滤镜资源/vsco滤镜3dlut 2017.8月更新/3dl/VSCO V7 Valence.3dl
#Generated by Picture Instruments - Look Converter
3DMESH
Mesh 4 10
0 64 128 192 256 320 384 448 512 576 640 704 768 832 896 960 1023
36 52 156
48 60 204
56 60 236
60 68 276
68 72 296
40 84 324
56 84 372
60 84 408
60 88 448
64 88 488
56 96 512
64 100 556
72 104 600
72 112 660
80 116 704
72 124 752
76 128 812
32 128 188
44 116 220
52 108 252
64 104 292
68 100 324
52 100 360
64 100 408
68 100 444
64 100 476
68 104 508
60 104 540
68 108 596
72 104 632
68 112 692
76 120 740
72 128 780
76 132 840
44 192 212
48 180 228
60 172 272
60 152 316
76 140 352
52 140 392
64 132 432
72 124 456
64 128 500
72 120 524
64 124 552
68 120 604
76 120 644
72 124 700
76 132 740
80 132 784
80 132 844
40 280 224
60 260 236
56 252 256
52 244 320
64 220 368
60 196 416
72 184 452
76 172 484
72 168 520
76 160 540
68 160 576
76 148 616
80 144 652
76 148 704
84 140 744
76 148 792
84 148 852
52 352 244
60 336 252
64 328 272
56 324 316
68 316 384
48 288 428
68 260 468
68 248 500
68 232 532
80 216 560
76 208 596
80 200 636
88 188 672
84 180 712
88 172 756
76 172 800
84 172 856
44 412 252
64 404 260
68 400 284
64 396 320
64 384 380
48 372 440
68 348 476
76 328 508
68 312 548
84 296 584
60 288 608
72 272 652
76 260 692
76 252 736
84 244 776
88 240 832
92 228 872
56 456 268
64 448 272
72 448 292
68 448 332
72 444 384
44 440 436
64 424 480
68 400 508
64 388 548
64 376 572
60 360 616
72 348 656
84 332 704
72 320 744
84 312 788
72 324 824
76 312 876
52 496 268
64 500 284
76 492 304
68 488 332
72 488 384
52 480 448
60 480 488
68 460 516
64 448 552
72 432 584
52 424 612
64 412 660
72 404 692
64 400 740
68 388 780
68 384 832
68 384 884
56 532 276
68 532 288
76 532 312
72 532 348
68 528 392
44 524 440
60 524 488
60 516 524
60 504 556
64 488 584
64 476 624
64 468 660
72 460 700
68 452 744
68 456 788
56 460 824
56 456 876
56 576 280
72 576 296
76 572 316
72 576 356
68 572 392
48 568 444
64 568 492
68 564 524
64 564 568
68 548 588
52 544 624
60 532 660
64 524 692
60 520 732
60 512 776
60 524 828
56 524 872
60 612 288
68 616 304
80 620 332
80 616 368
72 612 400
52 612 452
60 616 496
68 616 532
60 616 572
64 608 600
56 592 632
64 588 668
68 580 700
60 584 740
64 584 784
52 588 816
48 596 860
60 660 296
68 660 316
80 660 344
88 660 392
72 660 416
60 660 468
64 660 508
64 656 540
60 656 580
68 656 616
52 660 648
60 644 676
64 636 700
52 640 744
64 644 784
56 652 828
52 656 864
68 700 312
72 704 328
80 704 360
84 700 404
76 700 436
52 704 488
64 708 520
64 704 560
56 708 588
64 708 624
60 704 668
60 708 700
68 692 720
60 696 760
64 696 792
48 712 832
44 720 868
68 744 324
76 752 340
84 752 372
80 752 420
76 752 452
56 744 496
60 752 532
68 748 572
56 756 608
68 752 636
52 756 684
56 760 716
60 756 744
56 748 768
64 752 804
60 764 844
48 772 880
76 788 340
80 792 360
88 792 392
84 800 444
76 796 472
56 800 524
60 804 556
64 800 588
56 804 624
60 804 660
64 804 704
56 812 740
64 812 772
60 812 800
68 800 820
64 812 848
56 820 888
76 832 356
80 836 376
88 840 416
84 844 476
72 840 496
64 844 540
60 848 572
64 848 608
60 852 652
64 848 680
56 852 724
60 860 760
64 860 796
60 868 832
64 868 856
68 848 872
60 864 900
84 864 392
84 868 416
92 864 464
88 872 508
80 868 536
68 868 580
64 872 612
72 872 644
64 880 680
76 876 720
64 880 752
60 884 788
76 892 812
64 900 852
72 900 876
76 892 904
76 892 908
60 60 184
72 60 216
76 52 256
60 56 296
60 56 324
56 76 360
52 84 388
60 80 432
56 84 460
60 92 500
64 100 532
68 104 576
68 104 612
72 116 664
72 120 720
76 128 776
84 132 828
56 112 188
64 124 236
72 112 268
72 112 308
68 108 344
68 108 380
68 108 416
68 108 452
72 112 488
68 112 512
72 112 556
72 116 600
76 116 644
76 124 692
76 128 748
84 132 808
84 136 856
76 204 216
76 212 260
72 188 284
72 172 328
76 160 368
72 156 404
76 152 448
80 152 468
76 140 500
76 140 536
76 140 572
80 136 616
76 140 656
80 136 700
80 136 756
88 144 812
84 144 856
68 292 240
64 300 272
56 292 292
60 268 352
68 228 392
80 216 432
76 208 468
80 196 496
88 188 532
84 184 560
80 176 588
80 168 628
80 164 668
84 156 716
84 152 772
88 156 820
88 156 860
76 364 260
76 372 284
64 364 308
56 356 352
56 340 408
60 308 448
64 284 480
68 268 512
76 252 544
80 240 576
84 228 612
84 216 648
84 204 684
84 196 728
88 184 772
84 184 828
88 184 864
76 420 268
80 428 296
68 428 324
56 420 352
56 408 408
56 388 460
64 364 496
64 348 524
68 336 556
72 316 584
72 304 620
76 296 660
80 284 700
76 272 748
80 260 784
92 252 840
92 248 880
80 460 276
80 472 308
76 468 332
60 464 356
60 460 416
56 452 460
52 436 496
56 420 528
60 404 556
60 392 592
68 376 628
68 360 668
64 352 712
72 340 756
76 336 804
76 336 848
80 328 888
76 504 284
84 516 316
76 512 332
60 504 360
56 504 408
56 500 468
56 496 508
56 472 532
56 460 556
64 448 596
60 444 628
60 428 668
60 420 708
64 412 748
56 408 800
64 400 848
64 400 892
80 544 284
88 552 320
80 548 352
64 548 376
60 540 420
52 540 464
56 540 508
52 536 540
56 520 572
56 504 600
60 492 632
60 484 668
60 480 708
60 472 756
60 472 800
56 472 840
56 472 880
80 580 292
84 588 328
80 592 360
64 592 392
60 584 432
56 584 476
56 580 512
56 576 548
56 576 580
56 560 604
56 552 640
56 544 676
56 536 708
60 536 752
56 536 796
56 536 844
56 536 876
84 624 304
92 628 336
92 632 376
64 632 400
60 628 432
60 628 480
60 628 516
56 624 556
52 620 584
56 624 620
56 604 644
56 600 680
60 596 716
56 596 752
56 600 788
48 604 832
44 608 868
84 672 300
88 676 344
88 676 384
72 676 416
56 672 448
56 668 488
60 672 524
60 672 560
64 672 596
60 672 632
60 672 668
56 652 688
52 652 716
52 656 756
52 660 792
52 664 836
48 664 872
92 712 312
88 720 356
92 720 400
76 720 432
64 716 468
60 720 508
60 716 548
56 716 572
60 716 608
56 720 644
60 720 684
60 720 716
64 708 740
56 704 768
56 712 804
48 724 840
44 732 876
92 756 324
92 760 372
92 768 428
80 768 456
64 764 480
64 764 524
60 764 560
64 764 592
60 764 624
60 764 660
56 768 696
60 772 732
60 772 764
64 760 784
52 768 820
52 772 852
48 780 884
92 800 332
96 804 380
96 808 440
80 812 476
64 808 504
64 812 544
64 808 576
60 812 612
64 812 640
60 816 684
60 816 716
64 820 756
60 820 784
64 820 816
60 812 836
60 820 872
52 828 896
100 844 356
100 848 404
96 852 464
80 852 500
68 852 528
64 856 568
64 856 600
64 856 636
64 860 664
64 860 704
64 864 736
60 868 772
60 872 816
60 872 844
64 872 868
64 864 888
60 872 912
104 872 384
100 880 444
100 876 504
80 880 532
72 880 560
72 880 612
72 884 636
68 884 668
72 884 700
72 888 740
68 892 764
64 892 804
68 904 836
64 904 856
64 908 884
72 904 908
72 900 912
96 72 200
128 80 240
136 84 288
120 72 320
104 68 360
92 84 388
84 84 420
84 84 456
80 84 484
76 88 520
72 92 548
72 96 588
80 104 632
76 112 676
80 120 724
80 128 784
88 136 836
104 108 192
108 120 244
124 124 292
116 108 344
88 100 368
92 104 408
92 108 444
88 108 472
96 108 508
88 116 536
88 116 564
88 120 608
88 120 652
88 128 696
92 132 748
92 140 808
92 144 856
112 176 208
128 200 260
128 200 308
128 188 356
120 180 392
112 176 416
108 168 448
104 164 480
104 160 512
100 156 540
100 152 576
100 152 616
96 152 660
96 148 700
96 148 756
96 156 816
96 156 860
108 304 232
148 308 300
140 316 348
120 276 368
124 256 412
120 236 448
116 228 472
116 220 508
120 212 532
108 200 564
100 192 592
104 184 628
100 180 672
100 176 720
96 168 764
100 168 824
100 168 860
116 376 264
156 380 316
148 388 368
124 376 404
116 340 428
112 316 464
116 300 492
108 288 524
112 276 548
108 264 580
112 252 616
108 228 644
108 220 688
108 208 732
104 204 780
96 196 828
96 192 868
120 432 280
148 440 324
140 440 368
116 440 408
108 432 456
108 392 472
112 376 504
108 356 532
108 344 556
108 332 588
104 324 628
104 312 656
96 304 700
96 288 744
96 280 788
104 268 840
100 268 880
124 472 300
144 476 332
140 488 384
120 484 416
104 476 456
96 464 496
92 436 516
96 424 536
100 412 568
92 400 596
96 384 628
100 376 660
96 368 712
92 356 748
92 352 804
84 348 844
84 344 880
116 508 300
120 520 332
128 528 392
108 520 424
100 520 464
96 512 504
88 504 532
80 476 548
88 464 576
84 456 604
76 448 636
84 444 672
76 428 712
72 424 752
68 420 804
72 408 852
68 412 884
120 548 304
120 556 336
128 564 392
104 556 420
88 560 460
84 560 504
84 552 540
76 548 568
76 524 576
76 512 604
80 500 640
76 496 676
72 488 712
76 480 756
64 484 800
64 484 840
56 484 876
116 588 300
124 596 344
120 608 400
100 600 424
88 604 468
80 596 504
80 592 540
80 592 576
72 588 604
80 564 624
76 560 640
72 552 676
68 552 720
68 544 752
64 548 792
60 548 840
52 548 872
120 632 312
124 636 348
128 640 412
96 640 440
84 640 476
84 644 516
80 640 548
72 636 572
72 632 608
72 628 636
76 608 656
72 604 684
76 604 720
64 600 756
64 604 796
60 608 836
52 616 868
116 672 312
132 680 356
128 688 428
108 684 464
80 684 484
84 684 524
80 680 560
76 680 592
80 684 624
76 676 648
68 676 672
72 656 692
68 656 724
60 656 756
60 664 796
60 668 836
52 672 872
124 716 324
124 724 368
128 728 440
108 728 472
88 728 504
80 732 540
76 728 572
76 728 600
76 728 632
72 728 664
76 728 696
76 720 724
72 704 740
68 708 776
64 716 812
56 728 848
52 732 876
124 764 336
136 764 388
132 776 464
100 772 492
84 772 520
84 772 560
84 772 592
80 776 620
80 768 652
76 776 680
72 776 712
72 776 744
72 772 776
72 760 788
64 764 820
56 776 856
56 784 880
124 804 348
136 808 408
140 812 488
100 812 520
84 816 544
84 816 580
76 816 608
80 820 636
80 820 672
76 820 704
72 820 728
76 824 768
72 824 800
72 820 824
72 812 836
64 820 876
60 824 896
132 852 364
128 852 420
136 856 500
108 856 540
84 860 564
84 860 600
88 860 636
80 860 656
80 864 692
80 864 720
76 868 752
80 868 788
76 876 824
76 876 852
72 872 872
72 864 888
68 872 912
160 876 400
160 876 468
148 884 548
120 884 576
96 884 596
96 888 640
100 884 672
92 888 692
92 888 720
88 892 752
80 896 784
80 900 812
80 908 840
80 912 868
76 912 892
84 900 912
84 900 916
128 80 212
164 88 248
240 96 308
228 112 364
188 96 392
156 104 416
140 92 448
132 88 476
120 92 512
116 96 540
104 100 572
100 104 600
96 104 644
92 108 688
88 116 740
96 120 792
96 132 836
144 108 204
164 140 260
220 156 316
232 164 376
180 128 404
160 116 440
152 116 468
136 120 500
132 116 528
124 112 556
116 116 592
108 116 624
108 120 672
108 124 712
104 128 760
108 140 816
