滤镜资源/vsco滤镜3dlut 2017.8月更新/3dl/VSCO V5 Valence.3dl
#Generated by Picture Instruments - Look Converter
3DMESH
Mesh 4 10
0 64 128 192 256 320 384 448 512 576 640 704 768 832 896 960 1023
0 0 0
48 24 48
76 44 96
88 68 164
120 84 232
112 128 308
152 148 392
172 160 448
180 176 508
200 192 568
188 208 600
216 216 664
236 224 712
240 236 760
256 248 804
256 252 832
260 260 876
56 128 60
76 120 116
108 120 192
128 132 276
152 144 340
148 160 396
176 168 456
188 172 500
188 192 548
212 200 600
212 220 652
228 228 708
244 232 748
248 248 792
260 252 832
260 264 852
264 268 892
88 212 88
100 212 132
112 204 216
128 192 296
152 192 368
140 208 444
176 208 496
192 212 548
200 220 600
212 220 636
216 236 680
228 244 732
244 248 772
248 260 808
264 268 848
260 276 876
260 280 904
84 292 84
112 276 116
108 276 172
108 276 268
128 264 364
132 264 452
164 252 516
184 252 572
196 256 624
204 264 660
200 276 712
220 272 752
236 276 788
240 284 832
252 288 868
256 300 892
260 300 924
92 352 92
112 344 116
112 336 156
104 336 240
112 328 336
100 336 436
148 316 512
164 316 576
172 312 640
192 308 684
192 316 732
212 320 780
232 316 812
232 320 852
244 320 884
240 336 904
256 332 940
88 412 84
100 404 100
104 404 140
100 404 216
104 396 296
84 396 412
120 388 496
140 372 572
144 380 644
172 368 700
172 376 740
188 364 796
204 368 832
216 368 868
228 368 900
228 376 928
240 368 952
92 468 92
96 464 100
100 460 128
100 460 188
100 456 264
80 472 360
88 452 452
112 444 532
116 440 616
140 436 680
148 440 740
172 432 796
188 420 832
192 420 872
212 420 900
212 432 928
228 424 956
80 528 84
88 524 92
96 520 124
88 520 172
92 512 240
84 520 348
88 512 416
92 508 508
100 504 596
120 496 664
120 504 728
140 488 788
168 484 828
172 492 872
192 480 900
204 484 932
216 480 956
88 572 88
88 576 92
96 572 124
88 576 168
96 572 232
76 576 316
84 568 388
92 568 476
80 568 568
104 560 640
116 556 720
128 548 772
152 540 816
164 544 860
184 540 896
192 548 916
208 536 948
84 628 80
92 628 92
96 624 112
92 628 156
96 624 212
88 628 308
92 628 372
96 620 460
88 628 536
96 616 612
96 620 688
120 612 752
144 608 800
156 604 852
180 600 884
200 608 920
216 600 948
100 676 100
104 684 100
112 680 128
104 684 168
112 676 220
100 680 292
104 680 360
112 680 436
104 676 516
112 676 592
104 676 684
120 668 744
144 664 796
168 664 844
192 664 880
208 668 908
224 664 936
124 736 120
120 736 128
132 728 152
124 728 188
136 728 232
128 732 312
124 728 364
132 728 440
124 732 520
136 724 596
128 732 668
136 732 732
160 720 776
176 724 832
204 724 872
232 720 916
252 720 936
156 784 160
164 784 164
168 780 184
160 780 216
168 780 260
160 784 332
160 780 380
172 780 456
164 780 524
172 780 588
164 780 672
172 780 728
180 780 788
204 784 836
232 772 868
260 780 900
280 780 932
208 824 208
208 828 208
216 828 228
212 828 256
220 828 296
208 828 360
212 828 408
216 828 472
216 828 540
224 828 600
224 828 672
220 832 724
232 828 776
232 832 828
272 828 872
296 828 912
320 828 936
272 872 272
276 876 276
272 868 284
276 872 312
280 872 352
284 872 416
276 876 448
280 872 500
280 872 560
284 872 616
284 872 692
288 876 740
296 880 792
296 880 836
308 876 876
352 876 912
372 872 936
348 916 352
356 916 356
360 912 372
360 920 396
360 916 424
356 916 472
360 920 504
360 920 556
368 920 608
360 920 652
368 912 720
380 916 756
380 916 800
388 916 848
396 920 884
400 920 928
424 920 948
416 944 416
420 944 428
424 944 440
420 944 464
428 944 492
428 940 544
432 944 576
432 944 616
432 944 668
436 940 708
440 944 768
448 948 796
456 948 828
456 952 860
464 952 900
472 952 928
480 952 956
80 36 36
96 44 88
100 60 144
104 76 196
128 100 276
148 140 344
156 156 404
176 168 468
188 184 524
200 192 576
208 208 616
216 220 672
232 232 716
244 244 764
252 252 812
264 256 856
268 260 884
124 128 52
128 132 132
136 136 220
144 144 292
152 160 356
168 160 412
176 172 468
188 188 512
200 196 568
212 212 612
220 220 672
228 232 712
244 240 756
252 248 804
260 260 840
272 264 872
272 268 904
136 216 76
132 216 136
128 212 216
140 204 312
164 204 388
168 212 452
180 212 508
196 220 560
204 224 604
212 232 656
228 240 692
232 252 740
244 260 780
252 264 820
260 272 852
268 280 892
268 284 908
116 288 80
120 288 120
116 288 192
116 288 288
132 272 380
160 264 464
172 264 532
188 264 588
200 268 636
216 272 688
220 272 728
228 280 764
236 284 808
248 292 844
260 296 876
268 304 912
268 304 924
116 356 84
116 352 116
116 348 164
108 348 248
116 348 352
132 340 444
148 332 524
164 324 592
180 324 648
196 320 704
204 320 748
220 324 792
232 320 828
240 324 860
248 332 892
252 332 920
256 332 940
108 416 80
108 420 108
104 420 152
104 412 220
108 408 308
104 404 412
120 396 508
144 388 584
152 388 648
176 376 708
184 376 756
192 380 804
208 376 844
220 376 872
224 372 904
240 376 932
244 376 952
100 472 80
104 476 104
108 476 144
100 476 204
104 472 288
100 468 372
92 468 468
116 456 556
128 452 628
144 448 700
160 440 760
180 436 800
188 432 844
200 428 880
216 428 908
224 436 940
232 432 960
96 532 76
100 532 100
100 528 128
92 532 180
96 528 252
92 528 340
92 528 432
96 516 520
108 512 604
124 508 672
136 504 736
148 504 796
168 496 840
180 492 876
192 488 908
212 488 940
220 488 960
92 584 76
96 584 96
96 584 124
100 584 176
96 584 232
92 580 312
96 580 408
96 576 492
92 576 580
104 572 656
120 560 716
136 560 780
152 556 828
176 552 868
188 552 904
200 552 932
216 548 952
96 636 76
104 632 104
100 636 128
100 636 168
100 636 232
100 636 308
96 628 384
96 628 472
96 628 556
100 628 636
112 624 708
132 620 764
144 616 812
164 616 856
188 608 892
208 612 928
224 608 956
108 688 92
116 688 116
116 688 140
112 688 176
112 688 228
112 688 292
112 692 368
116 688 456
116 684 528
112 684 608
112 684 684
136 680 748
152 676 804
172 672 848
196 668 888
216 672 920
236 672 948
132 744 120
132 740 136
136 740 160
136 744 196
136 740 240
136 736 304
132 736 376
140 740 452
140 740 536
140 736 600
140 740 668
144 736 736
164 732 796
188 732 840
212 728 880
244 732 920
260 724 940
168 792 160
172 792 172
172 792 192
172 792 224
172 788 272
172 792 328
176 792 396
176 784 464
172 788 536
180 788 600
180 788 672
184 788 740
184 788 796
212 784 840
240 784 880
272 784 912
296 784 940
220 840 212
228 836 224
228 836 244
228 836 276
220 832 316
224 832 364
224 840 424
228 836 492
228 836 556
228 836 616
232 836 676
236 836 736
244 836 792
248 836 844
280 836 888
308 832 920
340 832 940
284 880 276
288 880 288
288 880 304
288 880 328
288 884 368
292 880 420
288 876 460
296 880 524
296 884 576
300 880 636
300 880 696
308 880 752
308 884 804
312 884 848
324 884 892
356 884 924
388 880 940
368 920 360
376 928 372
376 924 392
368 924 404
376 924 440
376 924 480
376 924 520
380 928 568
376 924 616
380 924 672
392 924 724
392 928 776
396 924 820
400 928 856
408 928 896
416 928 936
440 928 960
436 948 432
436 952 440
436 952 460
440 952 480
440 952 512
452 944 552
448 952 592
452 948 632
448 948 676
460 948 728
456 956 768
464 956 816
468 960 832
468 960 864
480 960 908
492 960 936
496 960 964
164 68 76
188 72 120
192 84 192
184 100 260
184 124 328
188 152 372
188 164 432
200 176 488
208 184 536
216 200 592
224 216 636
240 220 684
244 232 728
260 244 772
260 252 812
272 256 860
280 260 888
212 140 84
220 132 132
232 140 228
220 144 304
204 156 368
200 168 424
212 176 480
216 188 532
228 200 580
236 212 628
240 220 672
248 228 716
256 244 764
272 248 808
276 260 844
284 268 880
288 268 908
204 208 76
204 200 120
208 200 208
204 204 304
212 204 384
212 208 452
212 212 508
220 220 556
224 228 612
236 232 660
244 244 696
256 252 744
256 260 784
272 264 824
280 272 856
284 280 892
284 284 916
180 280 84
180 280 112
176 280 188
176 272 280
188 268 376
204 264 468
212 260 536
220 268 588
228 268 636
232 268 684
236 276 728
252 280 768
256 288 812
268 292 844
272 296 876
280 300 908
280 300 928
164 344 80
164 344 116
168 344 176
164 348 252
164 340 352
176 332 444
188 324 524
196 324 592
212 320 648
220 320 700
232 320 748
244 320 788
252 320 828
256 328 860
264 332 892
272 336 924
276 336 944
148 412 80
148 412 108
152 412 152
152 408 220
144 408 304
148 404 404
168 396 496
176 388 576
188 380 644
200 376 708
216 376 756
216 380 800
228 380 840
240 372 868
248 376 908
260 376 936
264 376 952
140 468 80
144 472 100
144 476 148
148 468 204
136 472 280
132 468 372
140 464 464
152 460 552
160 452 624
176 448 692
188 436 752
204 436 800
212 436 844
224 432 876
236 432 912
240 432 936
252 432 956
124 528 76
132 528 96
132 532 136
132 528 184
132 528 256
136 520 344
128 520 436
132 516 528
144 512 604
156 508 680
164 504 740
180 500 792
192 492 836
204 496 872
216 492 912
236 492 940
244 492 960
120 584 80
128 584 96
128 584 132
128 580 176
128 584 240
124 584 312
128 580 400
124 576 488
124 572 572
132 568 648
152 564 720
168 560 776
180 556 832
200 552 868
208 552 904
220 548 932
236 548 952
124 636 76
124 636 92
124 636 132
132 636 172
128 640 228
124 636 304
128 628 388
128 632 472
128 628 552
128 628 632
140 628 700
160 616 760
168 616 816
192 616 856
212 612 892
232 612 928
248 608 952
136 692 96
140 684 112
140 684 140
140 688 184
140 688 236
140 692 304
144 688 384
140 684 456
140 680 536
136 684 612
140 684 688
164 680 752
180 680 808
200 668 852
216 668 888
236 672 924
256 668 940
152 740 120
160 740 136
160 740 164
168 740 200
156 740 244
160 744 304
164 740 376
164 740 456
164 736 532
160 732 600
160 740 668
168 736 736
188 736 792
212 732 840
232 732 880
260 728 920
284 728 940
184 788 160
192 788 172
196 792 196
200 792 232
200 792 276
200 792 336
196 792 392
200 788 468
200 788 536
204 792 604
204 792 676
208 792 736
208 788 792
236 788 836
260 784 880
292 788 916
312 784 936
236 836 212
244 836 228
248 836 252
244 836 276
248 836 316
244 836 368
244 836 424
248 836 492
244 836 552
248 840 616
256 840 684
256 840 740
260 840 796
276 840 840
296 836 884
324 832 920
356 836 940
296 880 280
304 884 284
308 884 312
312 884 336
308 884 376
308 880 416
308 880 472
312 880 524
320 880 580
316 884 640
320 876 696
324 880 752
328 884 800
340 888 848
340 884 888
376 884 924
408 880 940
384 924 364
388 920 372
384 924 384
392 924 412
392 924 440
392 924 476
396 928 524
392 924 568
396 924 616
396 924 672
404 924 720
412 924 772
416 928 820
416 928 852
420 932 896
432 928 932
460 928 960
452 948 432
452 952 448
456 952 460
460 952 484
456 952 512
464 948 556
468 948 592
464 952 632
472 948 680
472 948 728
472 960 768
480 956 812
484 960 832
484 960 868
496 964 908
500 964 940
512 964 964
276 104 108
264 108 140
288 104 200
300 112 304
276 124 364
248 148 396
236 160 452
240 176 504
248 188 556
252 196 608
256 212 652
264 224 696
272 232 736
280 244 780
288 248 820
296 260 860
296 264 888
288 144 104
292 140 144
304 140 212
312 144 312
284 152 388
272 164 452
264 180 504
264 192 552
268 204 600
272 212 640
276 220 688
276 232 736
292 240 776
296 248 816
300 260 852
308 268 884
