滤镜资源/vsco滤镜3dlut 2017.8月更新/3dl/VSCO L1 Landscape Series.3dl
#Generated by Picture Instruments - Look Converter
3DMESH
Mesh 4 10
0 64 128 192 256 320 384 448 512 576 640 704 768 832 896 960 1023
0 0 4
24 4 48
44 12 80
32 12 116
44 16 156
24 32 192
36 36 252
52 40 308
52 48 376
60 52 440
60 60 484
68 64 576
80 68 648
80 80 736
92 80 816
88 84 860
96 88 920
4 60 12
28 48 48
40 48 84
36 44 124
44 52 168
28 56 216
40 56 280
52 56 340
52 64 408
64 64 472
60 72 536
72 72 620
84 72 692
84 80 780
96 80 852
88 92 884
100 92 948
12 108 20
24 96 56
40 88 84
36 84 128
44 80 168
28 88 216
40 88 280
60 84 348
56 92 416
60 84 476
60 88 544
68 88 624
84 84 704
88 92 780
96 92 852
88 96 892
96 96 952
8 168 16
28 152 52
36 140 84
32 132 132
44 128 172
36 132 220
44 128 284
56 124 344
52 128 412
68 128 480
60 140 544
72 132 624
80 128 696
84 132 776
92 132 852
96 140 892
96 136 952
12 228 28
24 216 56
40 196 92
40 184 132
44 172 176
28 184 224
40 176 292
56 176 352
52 176 416
64 172 480
64 180 544
72 180 632
88 176 704
84 176 788
92 180 852
92 188 892
96 188 948
8 296 24
24 288 60
36 268 92
36 252 140
44 232 180
40 228 240
44 228 296
56 224 352
56 228 424
64 232 488
60 236 548
72 236 624
88 232 704
84 240 784
92 236 856
96 248 904
100 240 948
16 368 32
28 352 52
36 348 96
36 328 144
48 304 180
36 300 244
40 284 288
52 280 348
52 288 424
72 284 484
64 296 560
76 292 632
84 292 708
88 296 788
100 292 852
96 312 896
96 308 952
12 444 28
28 436 56
36 428 96
24 412 136
40 380 184
48 360 260
48 352 304
56 348 360
60 348 428
68 344 488
60 360 556
76 356 640
84 360 712
84 364 788
92 360 852
96 368 900
100 368 952
16 512 48
28 512 68
36 500 96
32 484 148
48 468 200
36 444 264
48 424 312
64 412 368
60 416 432
68 412 500
68 424 572
76 420 644
88 420 712
84 424 796
92 428 860
92 440 900
96 440 952
16 592 56
24 588 72
28 580 100
24 572 144
40 548 196
44 528 276
52 508 328
64 484 376
64 484 436
68 480 496
60 492 564
72 492 636
88 496 712
84 496 788
96 496 852
100 504 908
100 504 952
20 660 76
28 656 84
32 652 104
28 648 156
40 624 196
36 604 276
48 588 324
64 568 392
64 556 452
68 552 508
68 548 572
76 552 644
84 556 716
84 560 796
96 564 860
92 572 900
96 572 948
16 736 84
20 736 92
32 732 116
20 728 156
32 712 204
44 684 292
44 664 336
68 644 400
76 628 468
76 620 524
68 624 588
72 620 652
84 620 720
80 628 796
96 632 856
96 636 916
100 636 952
20 804 112
28 804 108
32 800 132
20 792 164
36 780 216
32 764 292
40 756 344
64 732 408
64 716 472
84 692 536
84 688 604
80 688 664
84 688 724
84 692 804
96 692 860
92 704 908
92 704 948
12 864 120
20 868 116
28 868 136
12 868 172
32 856 220
40 832 304
40 832 352
60 812 412
68 796 488
84 780 544
80 768 616
80 764 664
84 752 728
80 756 792
88 760 852
100 760 916
100 764 948
24 916 140
16 924 136
28 916 148
12 920 184
32 912 232
32 900 308
36 896 352
52 884 412
56 872 484
76 856 548
92 836 632
92 824 684
100 816 740
84 812 796
92 812 860
92 820 900
92 820 940
20 964 148
20 972 148
28 968 160
12 972 196
32 964 240
36 948 328
36 948 368
52 936 424
60 932 500
76 912 560
88 892 636
88 880 696
100 868 748
88 868 808
92 872 856
100 864 904
96 868 940
20 984 176
20 996 168
28 984 196
20 988 232
36 980 276
48 968 360
48 972 408
64 956 464
64 952 528
76 944 588
88 924 664
88 916 724
100 904 756
92 908 812
100 900 856
100 904 900
96 908 936
60 0 4
44 4 60
48 4 100
44 16 132
40 24 180
36 36 216
44 40 268
48 44 332
56 48 392
64 52 456
72 64 520
76 68 588
80 72 676
84 80 748
88 84 820
92 84 888
92 88 928
52 64 8
40 56 56
44 52 96
44 56 140
40 56 188
44 56 244
48 60 296
52 60 356
60 64 424
68 72 492
72 72 560
76 72 632
80 76 712
84 80 792
92 84 864
100 88 924
100 88 956
56 116 8
44 108 68
48 96 100
44 96 148
40 92 200
40 96 244
48 92 300
60 92 364
60 96 428
64 96 492
72 96 568
76 96 636
84 92 716
88 92 792
96 92 864
96 96 924
96 96 960
44 172 4
36 164 60
44 152 104
40 144 156
40 140 200
40 136 252
52 136 308
56 136 368
64 140 432
68 144 500
72 140 564
80 136 644
80 136 720
88 144 800
92 144 868
96 140 928
100 140 960
44 232 8
32 224 56
44 208 108
44 192 152
40 188 208
40 192 252
48 184 304
56 184 368
60 184 428
68 188 500
72 188 576
84 188 644
88 188 720
88 188 796
92 192 864
96 196 920
96 196 956
48 304 0
28 300 56
32 288 104
40 260 148
44 244 204
44 240 264
52 236 312
60 236 380
68 240 440
68 240 504
72 244 572
80 244 648
80 248 720
84 248 800
88 252 868
96 248 924
100 248 960
48 372 4
24 376 52
28 364 108
40 336 164
44 308 220
48 300 260
52 300 308
56 300 372
64 300 436
68 304 508
72 304 580
80 300 652
84 304 728
88 308 804
92 312 876
96 320 928
96 316 956
44 460 4
16 456 48
20 444 100
32 420 156
44 396 216
52 372 276
56 368 324
56 356 380
68 360 444
68 364 508
72 368 572
80 372 648
80 376 720
84 376 800
88 376 872
96 376 924
100 376 960
36 524 4
16 528 52
12 520 112
28 500 168
36 472 220
48 452 280
60 436 332
60 436 384
64 432 452
68 432 512
76 428 584
84 436 652
88 436 736
88 440 808
92 448 872
92 448 920
96 448 960
12 604 8
4 600 56
8 600 108
16 588 156
28 560 220
48 528 292
60 512 340
68 500 400
64 496 456
68 492 520
72 496 584
72 504 660
76 504 732
84 508 800
92 512 872
92 512 924
96 512 960
12 676 28
8 680 72
12 672 116
16 660 164
24 644 216
36 620 284
56 604 344
68 584 408
64 564 460
60 560 520
72 560 588
76 564 664
80 568 736
84 576 808
92 576 876
92 580 920
96 580 956
8 752 52
4 752 84
8 744 120
8 744 164
16 728 220
32 704 276
52 680 352
68 664 424
76 640 484
76 632 536
68 636 596
68 632 656
76 636 736
84 640 804
84 648 872
96 648 924
96 648 956
8 816 80
8 816 108
8 816 140
8 812 176
20 800 228
28 784 288
44 764 360
60 744 424
68 732 492
72 708 548
76 700 612
76 700 668
76 700 740
84 700 808
84 704 872
88 712 920
92 716 952
8 880 104
8 880 120
8 880 148
8 876 192
16 864 240
28 852 300
44 836 364
60 824 432
76 804 504
80 788 560
80 780 620
76 768 684
76 768 744
80 764 812
84 772 876
92 768 920
92 772 952
8 928 120
12 928 140
8 928 160
8 928 200
16 924 244
24 912 304
36 904 360
48 892 424
68 884 500
80 868 568
84 848 632
88 828 696
88 824 752
84 824 812
84 828 868
88 832 916
92 832 948
16 976 140
12 976 156
8 980 172
8 976 204
16 976 252
24 968 308
36 956 376
48 952 440
64 936 500
76 928 572
80 908 636
88 884 700
92 880 764
92 876 816
92 876 868
92 876 912
92 876 948
36 1000 176
24 1000 196
28 996 228
24 996 260
32 992 308
48 980 368
60 976 420
68 968 480
72 960 536
76 948 600
80 940 668
88 920 732
100 916 768
96 912 820
96 912 868
96 916 912
96 916 940
104 4 12
96 0 60
76 4 108
76 12 148
64 24 204
52 36 252
60 44 304
68 48 352
76 48 412
80 56 468
84 64 524
92 68 600
92 72 676
92 80 752
100 80 824
100 88 892
104 88 932
100 60 4
96 52 56
80 56 108
80 56 152
60 60 208
60 64 280
68 64 336
76 72 384
88 68 448
88 72 504
92 72 564
96 76 636
100 84 712
104 84 796
100 92 864
108 92 920
108 96 956
104 112 4
92 108 56
84 104 108
80 96 156
64 100 220
60 100 272
60 96 328
68 96 380
76 92 444
84 96 504
96 96 572
100 100 644
96 96 712
100 100 792
104 100 860
104 100 920
104 100 960
96 172 8
88 164 48
76 156 112
72 148 164
60 148 220
60 144 280
64 140 332
72 144 388
80 144 452
84 140 512
88 140 572
100 140 648
96 144 724
100 144 800
100 140 864
104 140 924
104 140 960
96 232 8
88 228 48
76 208 112
80 192 172
64 196 232
52 192 280
64 192 336
72 192 392
80 188 456
84 192 512
92 192 584
100 188 652
96 188 732
104 192 808
100 192 876
104 196 924
104 192 956
104 312 8
88 308 32
68 284 100
72 260 156
60 248 224
60 248 284
68 248 344
76 244 396
84 244 456
84 244 512
92 248 580
92 252 652
96 256 728
100 248 800
96 252 868
108 252 924
108 252 960
104 380 8
88 376 28
64 360 108
72 336 168
64 308 236
56 308 288
64 304 344
76 312 396
84 308 464
84 308 524
92 308 588
100 308 660
96 312 732
104 312 808
108 316 880
100 316 924
100 320 960
100 456 4
72 456 20
60 436 104
60 420 168
60 392 236
68 372 300
72 364 348
76 364 400
80 364 472
88 368 524
88 376 592
96 376 664
96 376 732
96 380 804
100 384 872
108 384 928
108 384 960
100 528 4
68 532 16
60 520 104
52 496 160
60 472 248
64 452 296
72 440 356
76 440 404
80 432 464
84 436 524
92 436 588
96 440 660
100 444 740
100 444 808
100 448 872
100 456 920
100 452 956
84 604 4
48 600 12
48 596 100
44 584 168
48 556 252
64 528 308
76 512 364
88 504 420
84 500 476
84 496 536
92 504 596
88 504 660
92 508 736
96 512 808
100 512 876
104 520 924
104 516 960
68 680 8
32 676 16
48 664 108
40 660 164
44 636 244
52 612 316
72 596 368
80 576 428
88 568 476
80 568 532
88 564 596
88 572 672
96 572 748
100 576 816
100 580 880
104 584 928
104 588 960
36 756 12
12 752 24
36 748 108
28 740 164
32 724 228
48 696 308
72 676 384
88 664 440
92 648 496
88 632 540
76 636 596
76 632 664
84 640 740
92 644 808
92 652 872
100 644 924
100 648 952
16 816 16
12 816 64
32 816 124
28 816 176
28 800 240
40 788 312
60 764 368
76 744 440
92 732 504
88 716 552
88 704 620
84 704 672
80 700 736
88 704 808
92 708 876
96 716 924
96 716 952
12 880 56
12 880 88
16 880 136
12 876 180
20 868 236
36 852 308
56 836 380
76 824 452
92 804 516
96 792 576
92 776 624
84 772 684
76 768 748
84 772 812
88 772 868
96 768 920
96 772 952
16 932 92
16 932 108
16 932 144
16 928 192
16 924 240
28 908 300
40 904 372
60 892 440
84 880 520
96 868 580
96 848 636
92 828 700
88 824 756
84 824 820
88 824 876
88 828 916
88 828 948
20 976 116
16 980 132
16 980 160
12 976 200
16 972 244
28 964 308
36 956 372
52 944 436
76 936 512
92 928 584
96 912 644
96 888 704
92 880 760
88 876 812
92 876 868
92 876 912
92 880 948
68 996 172
76 988 196
52 996 232
52 992 284
52 988 328
68 980 392
80 972 440
88 968 496
96 960 556
96 956 612
92 940 664
96 924 740
108 912 768
104 912 824
100 916 872
100 916 912
100 916 944
164 0 8
148 4 56
136 4 108
104 8 160
100 20 220
84 40 276
84 44 328
96 48 376
104 52 432
116 56 484
120 64 544
120 72 612
128 68 684
124 80 760
132 84 828
140 84 888
132 88 932
156 68 8
156 52 56
140 52 112
116 52 160
104 64 228
92 68 316
96 68 364
104 72 416
116 72 472
128 72 524
128 80 584
128 84 652
136 84 728
136 84 804
140 88 868
144 92 928
