滤镜资源/vsco滤镜3dlut 2017.8月更新/3dl/VSCO L12 Landscape Series.3dl
#Generated by Picture Instruments - Look Converter
3DMESH
Mesh 4 10
0 64 128 192 256 320 384 448 512 576 640 704 768 832 896 960 1023
8 0 0
20 4 24
40 8 48
24 8 80
40 16 108
20 24 156
32 24 216
44 28 276
40 28 356
48 32 436
40 44 496
52 44 592
64 48 668
56 48 736
64 52 796
48 48 836
60 48 892
8 32 4
20 28 32
36 28 52
24 28 88
44 36 124
28 40 180
32 40 244
44 44 308
40 48 392
52 52 476
40 60 548
52 56 644
64 56 716
52 64 784
64 64 840
56 76 864
64 76 912
16 60 12
24 60 40
40 60 68
28 56 100
44 60 132
24 64 184
36 68 248
52 72 312
44 80 400
56 76 476
48 88 556
52 88 644
60 84 728
60 92 792
72 92 848
52 108 868
60 108 916
16 104 8
28 100 32
40 100 64
24 100 104
40 96 140
28 100 192
36 100 252
48 104 316
44 112 400
56 116 480
44 128 560
48 124 640
64 128 720
60 132 796
68 132 848
68 144 880
68 144 924
24 152 20
32 148 44
40 144 76
28 148 104
44 144 156
24 152 212
36 148 268
48 148 340
44 152 412
52 156 496
48 168 572
56 172 660
72 176 736
60 176 804
80 176 856
64 196 884
72 196 932
28 212 24
36 212 44
44 212 76
32 216 116
44 208 160
36 216 232
44 208 284
52 200 356
48 212 440
64 212 516
52 220 592
56 224 676
72 220 756
72 228 820
80 236 876
76 248 896
76 248 936
56 296 40
48 284 44
52 288 76
48 288 116
56 288 164
36 304 232
40 288 296
52 280 364
48 284 452
56 280 532
60 288 612
64 292 700
72 284 768
72 288 840
76 292 888
68 312 908
80 312 944
76 388 32
56 388 32
56 384 64
52 384 108
56 380 160
48 388 244
52 384 312
64 380 396
56 372 480
64 364 552
52 372 632
60 364 716
72 360 792
68 368 864
72 360 904
80 376 924
80 376 956
100 476 44
76 476 40
64 472 60
60 476 108
64 480 164
52 480 244
48 476 312
56 476 396
56 476 496
56 464 572
64 460 668
64 444 736
76 436 812
72 436 880
76 444 916
72 464 936
80 460 960
96 584 32
84 580 32
56 572 44
52 576 96
56 576 152
48 584 252
56 576 312
64 564 392
56 576 492
60 568 572
48 568 656
56 544 740
64 540 808
64 528 876
68 528 912
72 536 944
80 536 968
108 660 40
84 664 28
60 660 36
56 664 92
60 660 152
40 672 232
44 672 296
56 664 388
48 668 488
48 668 572
48 660 672
44 644 744
56 624 816
52 624 884
68 616 916
56 620 936
64 620 964
100 740 32
84 744 24
52 740 24
44 744 84
48 748 144
44 748 236
44 744 288
56 748 380
48 752 480
56 748 572
36 748 660
36 732 740
48 708 804
40 704 864
48 696 904
52 692 940
56 688 964
104 808 32
84 812 24
52 808 32
44 808 76
44 812 128
36 824 224
36 828 280
44 828 364
32 836 456
44 828 556
36 812 660
36 800 728
48 776 792
36 768 856
48 756 896
36 764 932
36 756 956
100 860 28
84 864 16
52 860 20
36 872 64
44 868 120
36 872 216
32 880 268
40 888 348
36 892 452
40 892 540
32 880 652
24 856 716
40 840 776
24 828 836
36 820 884
36 816 924
32 812 952
112 912 32
88 916 16
60 912 16
32 920 60
44 920 116
28 920 216
24 928 268
40 928 348
24 932 448
40 928 548
32 916 660
28 908 720
36 892 780
20 884 836
36 876 884
28 872 916
24 872 952
104 956 28
88 960 12
56 956 16
28 956 52
40 960 112
32 956 212
20 964 268
36 964 352
24 976 456
36 964 548
28 952 664
20 948 724
36 940 784
12 936 844
28 936 880
28 924 924
16 924 948
104 976 28
88 984 20
68 980 32
28 980 72
40 980 140
48 976 256
40 980 312
52 976 400
36 976 500
48 968 588
28 968 688
20 968 756
36 968 784
12 968 844
28 960 880
32 956 920
24 960 948
36 0 0
28 0 24
36 4 56
32 12 88
40 12 124
40 20 164
40 28 220
48 32 288
52 32 364
48 36 444
60 40 524
64 44 608
72 44 684
68 52 748
72 48 808
72 52 860
72 52 900
36 32 8
32 28 32
36 36 60
40 36 92
40 40 136
48 44 180
44 48 252
56 56 328
56 60 408
60 60 496
64 64 580
68 68 656
72 68 736
76 72 800
76 72 856
88 80 900
84 80 924
44 64 12
40 64 40
36 60 68
40 60 104
48 64 144
48 72 192
52 76 264
56 84 336
60 84 412
64 92 500
72 92 588
68 100 672
76 100 748
80 100 808
84 108 864
84 116 904
84 116 928
44 104 16
40 100 40
36 104 72
40 100 108
44 100 148
52 104 200
52 112 264
56 120 344
64 124 420
64 132 512
68 132 588
72 136 672
76 140 752
80 140 816
84 148 868
92 152 912
92 152 936
52 156 20
44 152 44
48 152 72
44 156 112
48 152 164
48 156 216
52 156 272
56 160 352
64 168 432
68 172 512
72 180 596
76 184 680
80 184 752
84 188 828
88 196 876
96 204 916
96 204 936
64 220 20
52 224 44
48 224 84
52 216 124
52 220 168
52 220 236
56 220 304
64 216 376
68 228 460
72 224 532
76 228 612
80 236 696
80 244 772
88 244 840
92 248 888
100 256 916
104 264 948
80 300 28
72 300 52
60 304 84
60 300 124
68 300 184
60 300 240
60 304 316
64 296 392
68 292 468
68 300 552
80 296 636
80 296 712
88 296 788
88 304 856
100 312 900
96 328 932
100 328 952
104 396 24
96 400 52
60 396 60
52 400 112
64 396 176
68 388 240
68 396 324
68 392 408
72 380 492
76 376 572
76 384 652
76 380 732
88 380 812
88 376 872
96 384 912
104 392 944
108 396 964
120 488 40
108 496 60
76 496 68
68 500 116
72 492 176
64 488 240
64 492 324
64 496 416
68 496 508
72 484 592
76 468 672
84 464 752
84 456 832
92 452 896
96 464 924
96 468 948
96 472 960
120 588 32
108 588 48
76 588 52
56 596 100
60 592 160
72 592 244
68 588 320
72 584 412
56 592 512
60 584 608
64 572 688
72 564 764
76 548 832
80 548 892
88 544 924
96 552 956
100 552 972
128 680 32
112 676 52
88 676 52
52 680 88
60 680 152
56 684 220
60 688 308
64 684 404
48 680 496
36 684 592
48 672 680
52 656 760
60 640 832
64 640 884
76 632 924
80 632 948
80 632 972
120 756 28
108 760 40
80 760 44
44 760 80
52 764 144
56 764 220
60 760 300
64 768 392
52 772 492
40 768 584
32 764 668
32 740 748
40 724 820
44 716 876
56 712 916
68 704 948
68 700 968
120 820 28
100 820 36
80 820 40
44 824 72
48 824 140
44 836 208
48 840 288
52 844 380
48 848 476
32 844 572
28 824 660
28 808 736
28 792 808
28 772 856
36 764 904
40 772 936
40 768 960
112 876 20
100 880 28
72 876 28
36 880 64
36 884 128
44 884 208
44 892 288
48 900 380
48 904 472
32 900 568
20 884 652
16 864 728
16 848 800
20 836 852
16 828 892
24 820 936
24 820 960
116 924 12
104 924 28
80 924 28
28 924 56
32 932 120
36 928 200
40 928 276
44 936 368
40 940 464
32 940 564
12 924 664
16 912 732
16 896 792
16 888 848
20 888 896
16 880 928
16 880 956
120 964 8
104 968 24
76 964 28
28 968 36
24 968 116
28 968 192
32 972 280
36 976 372
36 980 464
32 972 568
12 956 664
12 952 736
12 948 792
12 944 844
4 940 888
8 936 932
8 932 956
116 992 16
100 984 24
76 988 28
28 988 52
24 988 140
32 988 232
32 988 328
36 984 408
36 980 508
32 980 600
12 980 688
12 972 764
12 980 796
8 972 844
8 976 888
24 972 928
24 972 956
64 4 8
72 4 32
56 4 52
60 4 96
60 12 132
60 20 176
68 24 232
68 28 300
76 32 368
76 36 448
84 48 532
88 48 616
96 52 692
92 52 756
100 56 816
100 52 864
100 52 900
68 32 8
68 32 28
60 32 60
60 36 96
60 40 132
72 48 180
80 48 252
76 56 328
88 56 408
92 60 500
88 64 580
96 68 668
96 72 740
108 72 808
104 76 856
116 80 904
116 80 928
76 64 16
72 64 32
60 56 64
64 64 96
72 68 140
76 84 196
80 80 256
84 88 336
88 96 424
92 96 508
96 100 592
96 108 680
104 104 756
108 108 820
112 112 868
116 124 908
124 124 940
76 108 20
76 104 36
64 100 72
60 96 104
68 104 148
80 108 200
80 116 268
88 124 344
88 132 432
92 132 512
96 140 600
100 148 684
104 148 760
112 152 828
112 152 868
124 160 912
124 164 940
80 156 20
76 152 48
72 144 72
68 152 112
72 152 164
72 152 208
80 160 276
88 164 352
92 176 436
100 180 520
100 192 608
108 188 692
112 192 768
120 196 836
124 204 892
128 216 924
136 212 940
92 224 24
88 224 44
80 216 80
76 216 112
76 220 164
80 216 232
88 216 296
88 216 368
96 224 444
100 232 536
104 244 616
112 248 700
116 256 780
128 252 840
128 264 892
136 272 928
144 272 948
108 304 32
104 300 52
92 300 88
88 296 124
80 288 176
84 296 236
88 300 316
92 300 388
100 296 472
100 308 560
112 300 636
116 304 716
120 312 796
132 316 864
140 324 908
140 336 936
144 344 956
128 396 36
124 396 52
112 392 88
92 392 116
92 392 176
96 384 252
100 388 324
96 388 412
100 384 496
108 380 580
104 384 660
116 384 736
120 380 812
120 384 876
132 396 920
148 404 948
148 408 960
148 492 40
140 496 52
128 492 92
96 488 104
96 488 172
92 484 236
96 488 320
96 496 416
96 488 504
100 480 588
108 472 676
116 464 760
120 464 832
128 464 896
132 468 928
136 480 952
144 480 968
144 592 36
140 588 52
128 596 80
92 592 100
88 588 160
96 584 236
100 576 324
104 584 416
92 592 512
92 584 604
96 576 684
104 560 764
112 552 836
116 552 896
128 556 932
132 560 956
144 556 972
148 680 32
136 672 48
128 672 76
92 680 92
92 676 156
92 676 232
92 680 312
92 676 400
80 680 508
72 680 596
80 676 692
88 656 768
100 648 840
108 636 892
112 636 928
116 640 952
120 640 968
140 760 24
132 760 44
120 760 68
88 760 88
80 760 140
88 756 216
88 756 304
92 764 392
88 772 488
68 764 584
52 760 664
60 748 748
72 728 820
88 720 876
92 716 916
100 708 948
112 708 972
136 816 20
128 820 40
120 824 68
84 824 76
80 824 140
72 832 204
80 832 288
80 836 376
80 848 472
72 844 572
56 828 660
44 808 740
52 788 804
64 776 864
72 772 908
80 776 940
84 772 964
132 880 20
128 876 32
112 884 64
80 880 68
64 884 128
72 884 204
76 888 288
80 896 376
80 900 468
68 900 568
28 880 656
20 860 728
20 848 800
24 836 848
32 828 892
44 824 932
44 820 960
136 924 16
128 924 28
116 928 56
76 924 64
64 928 128
64 928 196
72 928 280
68 936 372
76 940 476
64 940 572
20 920 664
20 912 736
20 896 796
16 888 856
20 888 896
16 880 928
16 872 956
136 968 12
128 968 20
116 972 48
80 968 52
44 968 108
56 968 192
60 968 276
60 972 364
68 976 464
60 972 564
20 964 660
12 952 736
8 952 788
8 944 844
4 940 888
12 936 932
12 928 952
136 988 16
128 988 20
108 988 36
60 988 44
28 988 124
40 992 224
40 984 312
40 988 408
52 980 508
40 984 600
20 980 688
20 972 760
16 980 796
20 972 844
20 976 892
28 972 932
28 972 952
116 4 8
104 4 32
112 4 56
92 4 96
96 8 136
92 16 180
88 20 232
96 24 304
100 32 380
96 36 460
108 44 544
112 48 620
116 48 700
120 52 760
132 56 820
140 56 872
140 56 904
116 32 8
112 36 36
108 32 60
96 32 92
96 36 140
104 40 200
104 48 268
112 52 340
116 60 416
116 64 504
120 68 588
128 68 672
136 76 748
144 76 812
148 76 860
156 84 900
