滤镜资源/vsco滤镜3dlut 2017.8月更新/3dl/VSCO OAK1 Oakley.3dl
#Generated by Picture Instruments - Look Converter
3DMESH
Mesh 4 10
0 64 128 192 256 320 384 448 512 576 640 704 768 832 896 960 1023
8 0 12
36 4 24
48 4 44
40 4 72
60 8 112
44 8 148
72 8 204
92 12 256
112 4 316
132 12 368
132 16 416
160 12 480
188 12 532
204 12 600
232 12 652
244 8 704
272 4 760
8 56 4
36 28 24
48 28 44
44 28 76
60 24 108
52 28 156
84 16 212
100 16 264
112 12 324
132 16 380
144 20 432
172 16 500
188 20 552
208 16 608
236 16 660
248 16 704
272 16 760
24 104 8
36 88 20
44 68 48
44 60 80
56 56 108
44 60 152
80 40 204
104 36 260
112 32 320
132 32 368
140 36 416
168 32 484
188 36 544
208 32 604
240 32 656
236 36 688
268 32 748
36 176 4
48 148 12
52 136 36
44 112 64
60 100 108
44 96 156
76 76 208
100 60 256
112 56 312
128 52 364
140 60 416
160 52 480
184 52 536
204 56 600
232 52 648
240 56 688
264 52 748
68 248 12
72 232 20
68 208 40
60 188 68
60 164 100
44 160 160
72 136 208
96 116 260
108 88 316
132 76 376
144 80 428
164 80 496
188 76 544
208 80 600
232 76 648
240 84 696
264 76 752
84 336 0
92 324 16
88 304 40
80 284 60
80 260 84
56 232 152
72 216 216
100 192 272
108 180 324
136 144 392
140 128 436
164 116 496
192 108 556
208 104 620
236 108 676
248 108 712
272 104 760
120 428 8
112 412 20
116 404 48
104 380 64
100 364 92
84 352 124
80 304 184
96 288 260
100 280 332
120 264 392
140 248 456
172 188 512
188 156 560
208 152 624
236 144 676
244 152 720
272 144 776
140 516 4
140 508 20
148 492 40
128 484 56
128 460 84
116 436 136
112 416 164
108 376 240
120 376 336
132 356 392
136 364 452
168 328 512
192 296 568
208 252 636
232 192 684
252 196 736
272 184 796
168 584 12
160 580 24
160 572 44
160 568 68
160 548 92
136 536 128
132 508 160
136 484 200
124 452 292
144 448 376
156 448 460
168 428 520
192 408 576
216 388 636
244 360 692
252 336 732
268 252 788
184 656 8
184 652 20
184 644 40
176 644 60
180 628 84
168 608 136
164 596 164
160 568 200
152 552 240
148 524 332
152 524 428
180 528 504
200 520 564
208 504 624
236 484 684
256 480 736
276 440 788
196 708 16
196 708 24
200 704 44
196 700 56
196 692 88
184 676 132
176 668 156
180 652 200
168 640 236
172 616 284
172 588 392
180 588 476
216 600 560
224 600 628
244 588 688
248 584 728
264 556 776
208 760 12
208 756 24
216 752 44
204 752 60
212 744 84
204 736 140
196 728 160
196 716 196
188 704 236
192 688 272
184 676 340
188 656 428
204 648 516
228 668 604
252 672 672
272 668 732
276 652 772
220 804 12
220 804 20
220 800 44
220 796 64
224 792 92
212 788 132
208 784 156
216 772 192
204 764 232
208 752 260
204 740 316
200 728 380
208 704 476
220 712 568
256 732 648
268 744 708
284 732 756
224 840 16
224 840 20
228 836 40
224 840 60
232 836 88
220 828 132
224 828 152
224 824 192
220 816 232
220 808 260
212 800 300
216 788 336
216 776 408
220 760 516
240 768 592
272 788 692
292 796 752
232 868 16
232 872 24
236 868 40
232 872 64
236 868 88
232 864 128
228 864 152
228 860 184
224 860 224
228 856 256
224 848 304
228 848 328
232 836 376
232 824 468
240 812 556
256 816 640
280 832 700
232 892 16
236 900 24
236 896 44
236 896 68
240 892 88
236 892 132
236 896 156
240 892 188
232 892 228
240 884 264
236 884 304
236 884 324
240 884 356
236 876 416
252 868 516
256 860 604
260 860 664
240 904 24
244 908 32
240 908 48
244 904 72
244 904 100
248 896 148
248 900 172
248 900 208
244 900 240
248 892 288
244 900 320
248 896 352
252 900 356
248 900 400
260 896 472
272 892 572
272 888 624
72 0 0
68 4 16
72 0 44
60 0 72
68 0 108
72 12 144
80 8 204
100 8 252
120 4 312
132 4 368
152 12 428
176 12 484
196 12 544
212 12 600
240 16 652
260 4 712
280 4 760
44 48 0
64 36 16
64 28 52
68 24 88
72 20 132
76 16 180
96 16 228
108 16 288
128 16 352
152 12 408
168 12 468
184 16 520
212 16 580
228 16 636
256 12 692
280 16 756
296 16 788
52 104 4
56 100 16
56 76 44
60 64 88
68 60 132
80 52 180
100 44 228
112 32 288
128 36 348
148 36 404
168 32 460
184 36 524
208 32 576
228 32 632
252 32 692
276 32 744
288 32 788
56 176 0
60 172 12
56 152 44
60 124 76
56 104 124
76 88 172
92 76 232
112 60 288
128 60 344
148 56 408
164 56 460
184 60 520
204 56 576
224 52 632
252 56 696
280 52 748
288 52 788
84 252 4
84 252 16
76 232 32
68 208 68
60 176 108
68 164 168
84 144 224
100 116 280
124 96 340
148 84 400
168 84 460
184 84 520
208 80 576
220 80 632
252 80 684
276 80 748
288 80 788
104 336 0
100 344 8
104 336 32
88 304 60
84 276 92
76 244 156
84 224 232
104 208 284
124 184 352
144 144 400
164 120 456
184 116 520
204 116 580
228 108 640
248 112 692
276 104 748
292 104 792
136 424 4
136 428 16
128 424 40
124 396 68
112 372 100
100 348 132
92 312 204
104 304 284
116 288 344
140 272 408
172 232 476
180 180 524
200 156 580
224 152 644
248 144 696
272 148 756
284 144 792
160 520 0
160 520 16
156 508 36
148 492 64
140 472 96
136 448 128
128 428 172
112 384 248
136 380 348
144 368 408
156 360 468
184 340 528
212 300 584
224 256 640
240 196 696
276 196 752
284 188 800
176 588 8
180 592 20
180 588 40
180 580 64
168 560 96
156 536 132
148 516 164
144 492 220
140 460 304
156 460 396
172 452 468
184 440 532
204 424 588
232 400 644
252 372 704
272 316 756
288 252 800
196 656 4
200 652 20
196 652 36
192 648 68
188 632 96
180 616 136
172 596 176
172 576 208
164 560 260
164 528 352
180 532 448
196 536 520
208 524 576
220 508 640
248 496 696
276 472 752
292 448 796
212 716 4
212 716 24
216 712 40
216 704 68
208 700 96
200 688 128
192 672 168
188 660 204
184 640 240
180 620 296
184 596 396
196 600 488
224 608 580
240 604 628
252 592 688
268 576 744
284 568 784
224 768 4
228 764 20
224 760 36
224 760 64
220 752 96
220 740 128
212 728 172
208 724 204
204 712 240
204 696 276
200 684 344
200 656 440
216 660 524
244 676 612
260 680 676
280 672 740
284 656 784
236 808 4
236 808 20
232 804 40
236 800 60
232 800 88
228 796 124
220 784 168
220 776 204
216 768 240
216 756 272
216 748 316
216 732 392
220 716 492
232 712 572
268 740 660
284 748 724
296 744 768
240 848 4
240 844 20
244 844 36
244 840 64
240 840 92
240 832 128
236 832 160
232 824 204
228 820 236
228 808 272
228 804 304
228 796 348
228 784 440
236 768 532
256 776 612
280 800 704
304 804 760
244 872 4
248 872 20
248 872 40
248 872 64
252 872 92
240 872 120
244 872 156
240 864 192
236 864 232
240 860 268
240 856 300
240 852 336
240 840 384
244 828 484
248 816 576
264 824 648
292 844 712
248 896 4
248 904 24
252 900 44
252 900 64
256 900 88
252 896 120
248 900 156
248 892 200
244 896 236
252 896 264
248 896 296
244 892 332
248 888 364
252 880 432
260 872 528
268 864 604
272 868 672
256 912 16
256 908 28
256 908 44
256 908 72
256 908 100
260 900 136
260 904 176
256 908 204
256 904 248
260 900 288
252 900 320
256 904 360
256 908 360
264 904 412
268 904 492
276 896 576
280 892 636
132 0 4
140 0 20
132 0 48
128 0 76
120 4 116
108 8 144
112 8 196
120 8 256
140 4 312
152 4 368
168 12 420
188 12 480
208 12 536
228 12 588
252 12 648
280 4 704
288 4 740
108 44 0
136 36 16
148 28 48
136 24 88
116 20 128
112 16 180
132 12 232
132 16 288
156 12 352
172 16 408
184 16 460
212 12 520
228 16 576
252 12 636
276 16 692
296 16 752
316 12 796
96 96 4
108 88 16
124 76 40
124 64 80
120 52 128
116 48 172
128 36 228
140 32 292
156 32 348
172 36 404
188 36 464
208 32 520
224 32 576
252 32 628
268 32 692
292 36 744
316 36 788
92 168 4
100 164 12
104 152 36
112 124 72
112 108 124
120 88 172
128 72 228
140 60 288
156 56 348
168 52 404
184 56 464
204 56 520
224 56 580
248 56 632
268 52 688
292 52 744
308 52 784
104 244 4
104 248 12
112 232 36
104 204 64
100 176 112
108 156 168
120 136 228
132 116 288
156 92 348
168 84 408
192 88 468
208 80 524
224 80 576
248 76 632
268 80 688
292 80 748
308 76 784
128 336 4
132 344 8
128 328 28
120 304 52
112 276 92
108 240 152
116 220 224
128 204 284
148 176 344
164 136 404
188 120 464
204 120 516
224 116 580
244 112 632
268 108 688
292 104 748
312 104 788
152 424 4
156 428 12
152 420 32
148 400 60
132 368 96
120 344 136
116 308 204
124 300 288
144 284 344
164 268 412
188 224 468
212 172 520
224 160 580
244 152 636
268 144 696
288 144 748
312 144 792
176 508 4
176 512 12
176 504 32
180 496 56
164 468 96
156 444 132
144 416 172
136 376 260
152 376 352
168 360 404
184 352 464
212 324 528
228 288 584
248 240 644
268 196 700
292 188 756
312 184 804
204 588 8
204 588 20
200 584 36
200 572 52
196 556 96
180 536 136
176 512 168
168 492 224
160 456 308
172 452 396
188 444 468
204 440 528
228 412 588
252 396 640
272 364 696
292 308 752
308 240 796
216 656 4
224 652 16
220 652 32
224 648 56
220 636 96
204 612 136
196 592 168
192 576 208
184 552 272
184 528 360
200 532 452
212 524 520
224 520 580
244 504 636
268 488 700
296 464 748
312 432 796
232 716 8
236 708 24
236 704 32
236 704 56
232 692 100
220 680 132
216 672 168
208 652 200
208 636 244
200 616 316
204 592 408
224 596 504
240 604 576
252 592 632
272 580 692
284 572 740
308 564 788
240 764 4
252 760 20
248 760 40
252 756 60
244 752 92
244 740 128
232 732 172
228 720 208
228 708 244
220 692 276
216 676 344
220 652 448
236 660 532
264 672 612
276 676 676
296 664 736
308 652 780
256 808 4
256 804 16
260 804 40
260 800 60
260 800 88
252 792 124
244 784 160
240 776 204
240 764 236
232 756 276
236 744 320
240 728 408
236 708 492
256 716 580
284 736 664
300 744 724
316 732 772
260 844 0
260 840 20
264 844 36
264 840 52
264 840 88
256 836 128
260 828 164
252 824 204
252 816 236
244 808 272
248 800 304
248 788 360
248 776 448
256 764 532
268 768 612
300 796 704
320 800 752
268 872 4
268 872 20
272 872 36
272 872 60
272 872 88
264 868 120
264 868 156
260 868 196
256 860 232
260 856 268
256 852 300
260 840 340
264 832 404
264 824 504
268 816 580
288 828 656
312 840 720
272 900 4
268 896 20
272 896 36
280 892 56
272 896 84
272 896 124
276 896 156
268 892 192
272 896 236
268 892 268
268 892 296
268 892 324
272 888 364
272 876 440
276 868 532
284 860 612
296 864 676
276 908 8
280 908 24
280 908 44
288 904 68
276 908 96
280 904 136
284 900 172
280 904 208
280 900 252
276 900 296
276 900 328
284 900 360
280 908 364
284 904 408
288 904 496
296 900 584
300 892 636
204 4 4
200 0 24
208 0 40
196 0 68
192 0 108
168 12 156
152 8 204
160 8 260
168 8 316
180 4 372
196 12 424
212 12 484
232 12 532
252 16 588
272 12 644
296 4 704
312 4 748
184 48 0
212 32 24
228 24 40
220 20 72
200 20 128
180 12 184
172 16 240
176 16 300
180 16 356
200 12 412
216 12 468
232 16 524
256 12 584
276 16 644
300 16 696
320 12 752
