滤镜资源/vsco滤镜3dlut 2017.8月更新/3dl/VSCO OAK2 Oakley.3dl
#Generated by Picture Instruments - Look Converter
3DMESH
Mesh 4 10
0 64 128 192 256 320 384 448 512 576 640 704 768 832 896 960 1023
12 0 0
36 4 48
52 8 96
60 4 144
84 8 192
76 16 240
112 12 296
144 16 356
164 8 424
192 16 484
204 16 548
236 16 612
272 20 680
296 16 748
328 16 804
352 4 844
384 4 896
4 44 4
24 32 32
44 40 80
44 36 136
68 40 192
76 40 260
120 24 328
148 24 384
168 16 452
196 16 520
216 12 576
252 4 652
292 8 716
312 0 780
352 4 836
368 0 872
396 0 912
8 76 8
24 76 32
44 64 68
36 72 124
68 68 172
52 84 228
96 68 308
132 64 376
152 52 444
188 44 508
208 32 572
244 20 652
284 16 716
312 8 780
348 8 836
348 8 860
388 0 912
4 120 4
24 112 36
36 112 64
32 108 100
52 112 156
44 116 220
76 108 272
112 104 348
140 108 436
176 96 496
188 108 556
228 84 632
264 80 696
288 72 764
324 64 816
344 52 856
376 20 908
8 164 8
20 160 36
32 156 60
24 152 100
44 148 136
32 164 200
68 160 252
92 164 312
112 160 372
148 160 460
172 164 544
216 160 620
260 152 688
280 144 748
312 132 812
320 148 844
360 120 904
8 208 8
20 204 32
32 200 64
20 204 96
40 196 136
24 196 188
60 200 244
84 204 292
96 212 356
128 208 416
140 224 488
188 220 588
232 216 668
256 216 736
296 212 800
320 220 848
340 200 896
12 256 12
20 248 28
32 248 68
16 248 96
32 248 128
12 252 172
44 244 216
68 252 284
84 256 344
108 260 396
124 264 456
160 272 540
204 268 620
236 280 712
280 276 784
288 292 828
324 276 888
8 308 8
16 300 24
28 296 64
8 296 96
28 292 128
16 292 184
32 292 224
56 288 264
80 308 344
100 308 388
112 324 444
144 324 512
180 324 580
208 340 664
248 340 740
284 348 824
316 340 880
12 352 8
16 348 24
24 348 60
8 348 100
28 348 136
12 344 184
20 344 220
48 340 268
56 340 316
96 356 392
120 368 456
144 376 516
172 376 572
192 388 640
232 396 708
252 416 776
288 412 852
12 416 4
12 408 16
20 400 56
0 404 96
24 400 136
12 396 196
8 400 224
36 392 260
48 392 316
76 388 360
108 416 444
132 432 512
168 440 580
184 452 640
224 456 704
248 464 760
272 464 820
12 472 12
12 468 12
24 468 52
4 472 100
24 460 140
8 460 196
0 468 232
32 460 272
40 456 320
72 452 368
96 444 428
128 480 512
168 500 584
192 520 656
232 528 716
248 536 764
272 544 824
8 556 8
8 548 8
20 544 44
0 548 100
20 544 148
16 532 216
4 532 244
32 528 284
40 524 336
76 520 380
96 524 436
120 524 496
164 552 580
204 596 676
240 608 736
272 616 792
288 624 848
20 636 20
20 636 16
28 628 56
12 628 116
28 624 168
16 620 228
8 620 268
32 616 312
40 612 356
72 604 400
112 600 464
132 604 520
168 600 580
208 652 680
256 676 756
276 700 812
296 704 860
32 716 24
24 712 20
36 712 52
20 716 108
32 708 164
32 696 252
24 704 284
40 692 332
40 692 384
80 692 432
108 692 488
132 688 532
168 684 584
192 692 652
244 728 740
284 760 824
304 768 872
36 784 40
32 780 28
40 776 56
28 776 108
36 776 176
32 772 260
28 776 296
40 768 340
32 768 400
64 764 444
116 760 508
136 764 560
180 760 608
200 760 672
236 764 724
268 796 808
300 824 868
32 840 32
28 840 28
36 836 44
24 840 92
40 840 172
36 828 264
28 832 296
40 828 352
28 828 412
56 820 456
100 820 524
120 824 564
164 820 620
196 828 680
228 832 740
264 828 792
284 848 852
32 872 40
28 872 40
36 868 64
24 868 104
36 864 192
44 860 284
36 860 328
56 856 376
44 856 432
68 856 480
96 856 548
124 860 600
160 860 628
188 868 684
224 860 736
260 860 788
276 864 836
72 0 0
72 0 40
88 0 88
80 0 136
96 0 192
104 8 228
116 8 284
140 8 348
160 12 412
188 12 472
204 16 528
236 16 596
272 16 676
300 16 756
336 12 816
372 4 872
396 4 904
44 36 0
60 40 36
72 36 100
84 40 152
100 40 212
116 32 272
136 28 336
156 24 404
184 16 464
216 8 540
240 8 604
268 0 668
300 0 736
328 0 796
356 0 852
388 0 900
408 0 924
44 76 4
40 92 40
44 84 84
60 84 140
76 80 200
92 80 256
120 76 332
148 64 392
168 56 452
200 44 528
236 32 596
264 24 664
296 16 728
316 8 792
348 4 844
380 0 896
400 0 920
28 128 0
8 140 24
12 136 72
16 132 128
36 132 188
72 124 256
100 124 316
128 116 384
152 112 448
188 108 512
212 104 576
240 96 648
272 92 712
304 80 776
332 64 832
364 40 892
388 24 924
24 172 0
4 184 24
4 180 64
8 176 116
20 176 164
44 176 224
60 180 280
92 176 356
120 176 424
160 168 492
192 168 564
224 168 636
256 160 696
284 156 760
316 148 824
340 140 872
364 128 908
16 216 0
0 232 28
0 224 68
0 224 104
4 220 148
24 212 208
48 220 272
80 224 332
100 228 392
132 220 464
168 228 544
200 232 620
236 228 684
268 228 748
296 220 804
328 216 864
352 212 904
16 260 0
0 272 24
0 272 68
0 268 112
4 268 148
12 264 192
36 252 240
64 272 312
84 272 372
112 276 432
144 280 508
176 284 584
216 288 676
252 288 740
284 288 804
312 288 856
328 280 896
16 316 0
0 328 16
0 324 56
0 316 104
0 316 148
8 316 196
24 304 240
44 300 284
76 320 356
100 320 416
120 332 468
152 340 536
184 348 624
220 352 700
260 356 784
300 352 848
320 348 888
16 360 4
0 376 16
4 372 56
4 368 112
0 364 152
0 364 192
16 360 232
36 360 284
64 356 336
96 376 412
116 376 476
144 388 536
172 400 604
208 404 668
236 412 748
268 420 816
300 420 876
16 412 0
4 432 8
0 432 48
0 428 108
0 424 152
4 420 200
8 412 236
28 412 284
56 408 336
80 412 396
112 436 468
140 448 536
168 456 596
200 464 660
224 472 724
260 480 792
288 480 852
12 480 0
4 504 12
4 500 40
0 496 100
0 492 160
0 488 200
0 488 244
20 484 292
44 468 336
72 472 388
96 468 448
140 496 532
176 520 608
208 536 680
232 540 736
260 552 788
280 556 836
8 564 0
4 588 8
0 584 28
4 580 104
0 576 156
4 564 208
4 556 260
20 556 308
52 548 360
76 544 404
100 544 460
124 540 512
172 580 608
212 608 692
244 624 760
276 636 820
296 636 856
20 648 20
24 668 24
20 664 36
16 660 116
20 652 184
12 652 232
12 648 284
24 636 336
52 632 380
80 628 428
108 628 484
140 624 540
168 632 604
216 664 696
260 696 780
284 712 832
304 720 872
24 720 20
28 744 28
24 744 44
28 740 120
24 732 184
28 728 244
24 724 300
24 716 360
52 712 408
84 708 452
112 708 496
148 704 560
176 708 612
208 712 676
256 748 768
288 772 844
312 784 880
32 788 28
28 808 28
32 804 36
32 800 104
28 796 184
24 800 248
24 788 304
24 788 360
36 784 412
64 780 464
112 780 520
144 780 572
180 776 628
208 776 688
236 784 748
272 812 824
308 836 884
24 848 28
28 864 28
24 864 28
28 860 84
24 856 172
28 848 248
28 848 312
28 844 368
28 840 416
52 840 476
88 844 524
132 840 580
164 844 640
204 840 700
224 840 752
264 840 808
288 860 864
20 880 28
28 892 36
24 892 48
24 888 84
24 884 188
32 876 276
36 876 340
40 868 392
48 872 448
56 868 508
88 872 564
132 876 616
156 880 652
192 880 700
224 876 752
256 880 808
276 880 848
124 0 4
140 0 48
132 0 92
144 0 132
144 4 184
140 8 220
144 8 276
164 8 344
180 8 400
196 8 460
212 16 508
244 16 572
272 16 656
300 16 720
328 12 784
368 4 852
388 4 892
108 48 0
144 28 36
144 32 92
152 28 148
148 24 204
160 20 272
180 12 336
188 8 404
212 4 472
236 0 540
252 0 600
280 0 676
312 0 740
344 0 796
368 0 848
396 0 896
416 0 928
100 80 4
104 84 20
120 80 84
136 76 140
144 76 204
148 72 260
160 64 324
184 60 392
200 52 456
224 44 524
256 32 596
284 24 664
304 16 728
336 8 788
364 4 844
392 0 892
412 0 920
92 124 0
88 136 16
92 136 76
104 128 128
116 128 188
132 124 252
148 120 316
164 112 380
192 104 448
208 104 516
236 104 580
260 92 648
288 92 716
320 76 776
344 60 836
376 36 884
396 20 920
68 168 0
52 188 12
60 188 64
68 184 120
80 180 176
92 180 232
112 180 300
132 176 368
160 172 436
184 168 496
212 168 568
248 160 636
272 156 700
300 152 768
328 148 824
356 136 872
380 124 904
56 216 0
16 244 4
20 244 52
24 244 104
28 236 160
56 228 216
72 232 292
104 228 352
132 228 412
160 224 484
192 228 548
220 228 624
248 232 688
284 224 752
308 224 804
340 212 868
360 208 900
40 260 4
8 288 0
8 296 48
8 292 104
8 284 156
16 284 204
44 280 260
72 284 332
104 284 396
128 292 460
164 284 540
200 284 608
232 292 684
268 288 744
296 284 800
320 284 856
340 284 888
36 308 0
4 336 0
4 340 44
0 340 100
0 340 152
16 332 204
28 324 252
56 316 308
88 328 384
116 332 444
136 340 500
172 348 580
212 352 664
240 352 732
268 352 796
308 348 848
328 348 888
40 360 0
4 392 0
0 396 44
0 388 100
0 384 156
0 388 196
16 384 244
40 372 296
64 364 344
100 384 420
128 384 492
156 396 560
184 404 628
220 412 696
256 416 780
284 424 840
308 420 880
32 412 0
0 448 0
0 452 32
0 452 96
0 448 156
0 440 200
8 436 248
36 424 300
60 424 352
88 420 408
124 448 488
148 452 552
176 464 616
208 468 684
236 480 744
268 488 812
300 488 876
32 480 0
4 512 4
4 520 20
0 520 96
4 512 156
0 512 208
0 508 256
20 492 300
48 488 348
80 484 404
108 484 472
148 516 560
184 532 632
212 540 692
240 544 752
268 556 808
284 568 856
20 564 4
4 608 4
8 612 20
4 612 88
4 600 160
4 592 216
8 580 272
28 572 324
52 568 368
84 556 420
108 556 468
136 560 532
184 600 632
220 620 708
248 632 768
280 636 828
308 640 876
24 644 16
20 684 24
28 688 28
20 684 96
20 684 176
20 680 240
8 668 288
28 656 340
52 652 392
88 648 444
120 644 500
152 640 556
180 640 616
224 680 708
264 704 788
292 720 840
308 724 884
24 720 20
28 748 24
28 764 32
24 760 92
24 756 176
32 748 248
24 740 304
28 732 364
52 720 412
92 724 464
120 720 512
152 720 576
184 720 632
216 728 692
260 752 780
296 780 848
316 784 888
32 784 28
32 808 24
32 820 32
28 824 88
28 816 172
24 808 248
24 808 308
28 804 368
40 800 424
72 792 476
112 788 528
148 788 584
188 788 644
216 788 704
244 792 764
284 820 840
308 840 888
28 844 28
24 864 28
24 872 24
24 872 56
24 868 156
28 864 236
24 860 312
24 852 368
28 852 424
56 848 484
88 852 536
132 852 592
168 852 644
204 848 704
228 848 760
264 848 816
296 868 876
24 876 28
24 892 36
24 896 52
24 900 72
24 892 164
36 884 260
36 884 332
40 884 396
44 880 452
56 880 516
88 880 572
132 884 628
152 884 648
196 888 708
228 884 760
260 884 812
280 884 852
196 0 0
188 0 48
196 0 84
192 0 136
208 0 176
192 12 212
180 12 268
192 12 328
204 8 388
216 12 444
240 16 500
256 16 564
292 16 632
308 16 708
344 16 776
380 0 840
400 0 884
176 48 0
220 28 28
228 20 96
220 16 148
232 12 208
232 12 272
228 12 344
228 4 408
240 4 480
260 0 536
284 0 608
304 0 676
332 0 740
360 0 804
380 0 844
408 0 896
