滤镜资源/vsco滤镜3dlut 2017.8月更新/3dl/VSCOX FR4 Fuji Provia 400X.3dl
#Generated by Picture Instruments - Look Converter
3DMESH
Mesh 4 10
0 64 128 192 256 320 384 448 512 576 640 704 768 832 896 960 1023
76 68 32
84 72 48
96 80 88
100 96 164
120 108 248
120 112 300
132 120 376
144 132 452
148 144 532
156 160 592
164 176 624
188 208 708
212 236 764
240 280 804
300 356 848
360 436 884
444 532 920
76 72 28
92 76 44
96 84 84
104 100 164
116 108 252
124 120 324
136 128 420
152 132 492
152 148 572
164 164 624
168 180 668
192 216 744
220 252 792
256 296 832
316 376 868
384 472 900
480 572 940
84 80 28
88 84 40
100 92 72
104 104 144
120 116 232
120 124 312
136 136 424
148 144 508
156 164 596
168 176 636
168 188 672
196 216 748
224 252 796
260 300 836
320 380 872
392 468 904
480 576 940
80 96 16
88 100 28
100 104 52
104 124 108
120 132 196
120 144 292
136 160 404
156 172 504
156 192 612
180 208 664
180 228 716
204 244 772
232 280 812
264 324 848
328 392 876
392 476 908
480 576 940
96 148 24
104 152 24
104 152 48
108 168 100
120 172 180
116 188 280
144 196 404
168 220 524
172 236 632
196 256 700
212 280 760
236 308 816
268 344 848
300 384 876
360 452 900
424 536 924
512 620 952
104 260 24
116 272 32
124 264 52
124 256 100
128 248 164
144 252 292
160 260 412
184 280 532
200 308 648
224 328 732
232 352 792
264 380 852
304 416 880
344 460 908
408 528 928
476 608 956
540 672 968
124 352 52
128 364 48
148 372 72
140 384 116
164 360 184
160 368 304
180 356 412
204 368 524
220 384 644
252 412 732
276 440 832
304 464 884
336 492 916
380 532 944
440 588 952
508 664 964
580 724 980
132 424 56
140 452 60
164 484 84
160 504 128
176 492 200
192 468 336
216 464 432
240 468 552
260 480 672
284 492 760
308 528 840
340 544 900
376 572 932
424 612 964
480 652 964
544 716 988
608 772 992
160 492 80
160 528 88
176 560 112
188 592 164
216 612 252
220 592 360
244 572 456
268 572 568
292 576 680
324 584 760
348 608 864
376 620 912
420 648 960
464 676 988
520 716 984
584 772 992
640 812 996
164 552 84
172 580 92
196 612 120
208 660 180
236 688 260
264 684 392
284 680 484
308 656 584
328 664 684
356 668 768
384 684 848
416 696 916
460 716 960
492 736 992
548 768 992
616 808 1004
672 848 1004
188 584 100
196 612 104
220 656 140
236 720 208
264 744 288
292 764 420
324 768 512
348 756 604
372 752 708
404 752 776
424 752 864
456 760 916
496 772 972
536 800 1008
596 820 1000
640 848 1004
692 876 1004
220 624 108
236 648 116
256 688 156
276 744 228
308 792 320
344 820 456
364 820 532
400 820 632
420 824 720
456 820 796
480 824 860
508 828 916
536 832 960
576 848 1004
628 868 1000
676 888 1008
720 908 1008
276 672 136
288 688 152
304 728 188
328 768 252
364 816 352
400 852 484
432 872 556
464 880 648
476 884 728
508 884 796
532 880 872
556 888 916
592 892 968
624 904 1008
664 912 1004
708 932 1008
748 944 1008
360 720 176
372 728 188
388 756 228
412 792 292
444 832 376
468 872 504
500 896 576
524 912 660
548 924 736
576 928 800
608 928 860
612 932 904
644 940 948
672 952 992
716 960 1004
744 972 1012
776 972 1012
460 772 240
472 776 252
484 788 292
508 824 352
536 848 428
572 880 548
584 900 600
608 920 672
628 936 740
652 944 792
664 956 856
680 960 888
704 964 944
724 972 980
748 984 1004
796 988 1012
808 988 1012
580 800 320
592 816 336
604 824 372
616 844 428
632 864 496
648 896 588
668 908 632
692 924 692
704 940 752
712 948 796
732 960 852
748 964 880
768 972 920
784 984 964
812 984 996
820 992 1012
844 992 1012
636 828 380
648 832 396
660 844 436
668 860 488
688 876 552
704 900 648
720 908 680
732 924 732
744 940 776
756 948 816
768 964 860
784 968 884
792 972 912
808 980 952
824 984 984
844 988 1000
856 988 1004
84 68 40
88 76 52
92 84 108
108 100 184
124 112 280
132 116 324
136 128 400
140 136 476
148 148 544
156 160 600
168 180 652
184 208 716
212 248 780
244 292 812
304 364 852
380 456 896
460 556 932
84 76 28
88 76 48
92 88 96
104 104 188
120 112 284
136 120 360
140 132 444
148 140 516
152 152 588
168 168 640
172 188 692
192 216 752
224 256 804
260 312 836
328 388 880
416 500 920
492 596 948
92 84 28
88 88 44
92 96 84
100 112 156
120 120 256
132 128 348
140 144 444
148 156 536
156 164 600
168 180 652
176 196 700
196 220 756
224 260 808
260 312 836
324 392 880
416 500 916
492 596 944
88 104 16
96 112 32
96 124 68
108 132 132
120 140 220
132 148 328
140 164 440
156 180 548
168 204 640
180 220 692
192 232 740
216 260 792
244 292 828
280 340 856
340 416 888
428 512 928
496 596 944
104 176 20
100 168 32
108 176 60
116 176 108
124 184 196
132 196 308
148 208 420
160 224 540
180 248 652
200 272 724
220 292 776
248 324 840
272 352 864
316 400 884
380 472 916
460 568 936
532 640 960
116 288 24
124 300 44
124 296 64
128 272 108
136 272 196
156 272 308
172 280 436
188 300 556
212 324 672
228 344 744
248 368 816
280 400 868
312 432 900
360 480 916
416 544 936
500 628 960
568 700 980
132 372 44
136 388 56
148 408 84
156 408 132
164 384 208
172 376 316
192 376 444
212 392 560
236 408 676
264 436 768
292 456 852
316 480 900
352 516 932
400 556 948
468 616 964
540 692 980
600 748 992
144 452 56
152 472 72
156 504 96
172 528 144
184 512 228
208 492 344
232 484 464
248 484 572
268 496 680
300 512 772
324 536 860
356 564 916
396 592 948
436 624 964
496 676 976
572 736 988
632 792 1004
160 520 76
168 548 96
184 588 124
196 612 176
220 628 260
232 608 364
260 592 480
280 592 592
308 596 700
336 608 780
360 612 864
392 640 928
432 664 968
480 692 992
540 736 1000
604 780 1008
660 828 1008
176 560 84
188 592 104
196 636 132
216 680 196
248 708 288
272 700 404
296 680 512
320 676 616
344 680 712
376 680 792
404 692 864
436 712 928
468 728 976
516 752 1000
572 784 1008
636 824 1016
688 860 1016
200 592 88
208 620 116
228 672 152
248 732 220
276 764 308
312 780 424
340 780 536
364 772 636
388 756 720
412 760 792
444 760 868
472 776 928
508 788 980
556 812 1012
600 828 1016
660 856 1016
712 892 1016
240 632 104
248 656 128
268 704 168
296 760 240
328 804 340
356 828 444
380 832 552
412 836 648
440 836 736
472 832 804
492 832 868
516 836 924
552 848 972
592 864 1012
644 880 1016
696 904 1016
732 920 1016
300 676 136
300 700 160
324 736 200
348 784 264
384 828 368
420 860 484
452 880 584
472 888 668
500 892 744
524 896 808
548 892 868
576 896 924
604 904 976
636 916 1012
680 924 1016
732 940 1016
760 952 1016
376 724 168
392 740 200
408 768 244
440 808 312
464 840 404
488 876 504
524 908 604
548 920 684
572 928 752
584 932 808
612 936 864
632 940 916
660 952 960
692 960 1004
728 968 1016
760 976 1016
788 976 1016
480 768 236
488 784 264
508 804 308
528 832 368
560 856 456
584 884 540
604 904 616
632 924 688
648 940 748
668 952 800
684 964 856
700 964 900
716 968 944
736 976 988
768 984 1012
800 988 1016
824 992 1016
600 808 332
608 824 352
624 832 396
632 848 444
652 872 512
672 892 588
688 912 648
704 928 708
716 940 752
728 952 800
744 964 848
760 972 888
776 976 924
796 984 968
812 988 1000
840 992 1012
856 992 1012
656 828 388
664 840 412
672 848 456
684 868 504
704 884 572
716 900 636
732 916 696
744 928 736
752 940 788
772 952 828
776 964 856
792 972 888
804 976 916
816 984 956
832 984 988
856 988 1000
868 992 1012
92 76 48
100 84 76
108 96 132
124 108 232
140 120 316
148 120 356
148 128 436
160 140 508
164 156 560
172 168 612
188 188 672
208 216 736
232 252 788
260 292 816
324 372 856
408 472 900
476 560 928
96 84 36
100 88 60
108 96 124
128 116 220
140 120 304
152 124 392
160 136 480
168 148 548
172 156 600
180 176 652
192 192 700
212 220 760
236 264 812
280 312 840
344 392 880
432 504 920
512 600 944
104 92 36
108 96 48
112 108 100
124 120 188
140 132 284
148 140 368
160 148 472
164 160 548
172 172 616
184 184 664
196 204 708
216 228 764
236 264 812
280 312 840
344 396 884
432 504 916
516 600 944
112 128 24
112 132 36
116 140 84
124 144 144
136 152 240
148 160 352
160 172 468
176 192 564
192 208 660
196 224 700
208 240 748
236 268 796
264 300 832
304 344 856
352 412 892
436 508 920
516 600 944
128 204 28
128 204 36
132 204 72
132 200 132
144 204 224
156 208 332
168 216 456
188 240 568
204 260 676
224 284 740
244 304 792
264 328 836
292 364 872
336 412 884
404 484 920
480 576 944
544 640 956
144 324 36
148 340 44
140 324 68
152 300 120
160 288 208
176 288 324
192 296 448
208 308 560
228 328 672
248 352 752
272 380 824
300 412 868
336 444 908
372 480 916
436 548 936
516 632 964
588 700 980
156 404 52
164 424 68
172 436 96
176 436 140
184 400 220
200 392 336
220 392 456
236 404 572
264 416 684
288 444 772
308 460 848
344 488 892
376 524 932
424 564 952
484 620 964
552 692 976
616 752 988
164 476 60
172 500 76
184 532 108
200 552 160
216 528 240
236 504 356
248 492 468
272 496 584
296 500 692
324 520 776
348 544 860
384 572 912
412 592 948
456 632 964
516 684 984
592 744 996
648 796 1000
188 548 84
196 580 96
208 612 132
224 624 180
244 644 272
264 616 372
284 600 488
308 604 600
332 596 692
352 608 776
380 620 860
412 644 924
448 668 972
504 700 992
548 736 992
616 784 1008
672 828 1008
208 584 96
212 616 104
228 652 140
248 696 204
280 716 300
296 700 404
324 684 512
344 684 620
368 680 708
400 684 792
424 696 860
452 712 920
488 732 976
532 756 1000
588 784 1008
652 832 1016
696 860 1016
228 612 96
236 636 120
256 688 160
280 748 228
312 768 320
340 780 432
368 780 540
388 768 632
416 756 720
440 760 796
464 764 868
496 776 924
532 792 980
568 812 1016
620 832 1016
676 864 1016
720 892 1012
268 644 108
280 668 128
300 712 172
328 764 244
352 800 340
384 828 452
412 832 552
440 836 652
472 836 732
480 828 800
508 832 860
532 840 912
568 848 972
608 860 1008
660 880 1016
700 896 1016
740 920 1016
320 688 136
332 704 156
348 740 204
380 784 272
412 832 372
448 860 484
472 872 576
496 884 664
524 892 736
544 892 804
568 896 868
588 896 916
612 900 968
648 912 1008
692 928 1016
736 944 1016
768 952 1016
408 728 184
424 748 204
436 772 252
456 804 312
484 844 404
516 876 504
548 904 600
568 916 684
580 924 748
604 932 804
624 936 856
652 940 904
672 952 960
704 960 1000
732 968 1016
768 976 1016
796 980 1016
504 776 248
516 784 268
532 804 308
556 832 380
580 864 464
600 884 540
624 904 620
644 924 688
668 940 752
680 952 804
692 956 856
704 964 900
724 968 944
752 976 988
776 984 1012
808 992 1016
832 992 1016
624 812 336
624 816 356
632 832 396
652 852 452
672 876 520
688 896 588
704 908 652
716 928 704
732 940 756
740 952 804
752 960 844
772 972 884
784 976 924
800 984 964
816 988 996
840 996 1012
852 996 1012
668 828 388
680 836 416
688 848 456
704 864 512
716 884 572
728 904 636
740 912 688
752 928 736
772 936 780
780 952 820
784 960 856
800 972 888
808 976 912
828 984 956
844 988 988
860 988 1004
876 988 1008
124 92 68
120 100 92
136 108 172
148 116 256
172 124 340
176 128 384
176 136 456
184 148 528
188 160 576
200 176 628
216 192 688
232 224 744
252 256 784
288 304 820
352 380 848
432 480 900
504 568 928
128 100 56
128 108 88
140 116 164
152 120 248
172 124 336
184 132 428
192 144 520
196 156 580
200 164 620
212 180 664
220 200 720
244 232 772
276 272 816
316 328 848
376 404 880
468 516 916
