滤镜资源/vsco滤镜3dlut 2017.8月更新/3dl/VSCO L8 Landscape Series.3dl
#Generated by Picture Instruments - Look Converter
3DMESH
Mesh 4 10
0 64 128 192 256 320 384 448 512 576 640 704 768 832 896 960 1023
4 0 0
28 0 32
40 4 80
36 0 136
52 8 204
44 12 288
88 8 380
124 12 476
144 8 572
172 12 652
172 20 696
200 16 776
220 20 824
232 16 872
240 16 900
252 4 932
252 0 944
8 52 12
24 36 32
44 44 76
36 36 140
52 36 220
52 36 320
100 28 424
132 20 520
160 8 612
188 8 692
192 4 752
224 0 828
236 8 860
244 0 904
252 8 924
256 4 940
256 0 952
16 96 28
32 92 44
44 84 80
36 84 140
60 76 220
56 80 312
96 72 416
132 64 520
148 48 608
188 40 692
200 32 756
224 16 828
236 8 860
244 0 904
256 8 924
256 8 940
256 0 956
16 176 40
36 160 44
44 160 84
36 160 124
48 152 204
52 148 308
92 132 408
132 116 512
152 112 612
188 96 692
192 104 748
216 72 820
232 64 860
240 44 892
252 32 920
256 28 944
256 12 952
40 260 72
48 248 56
56 236 104
48 240 144
56 236 192
52 244 292
92 224 396
136 212 500
148 204 596
184 188 680
200 188 760
220 172 824
240 152 864
248 140 904
260 120 924
256 140 936
256 116 952
52 356 80
56 340 76
68 332 108
60 336 152
72 328 204
68 340 280
96 324 388
132 312 492
156 308 600
188 296 684
196 292 740
224 276 812
244 256 864
248 252 900
264 240 928
264 256 948
264 228 956
88 444 108
80 428 96
80 424 96
80 428 160
92 424 220
84 440 288
96 428 356
128 412 464
152 412 572
184 400 664
204 400 748
220 384 816
240 372 856
244 360 896
260 352 924
256 368 944
264 348 956
96 532 124
92 524 116
100 516 116
92 516 152
112 512 224
112 512 308
116 520 364
136 520 456
160 512 568
184 500 660
204 508 732
224 488 800
244 476 852
248 480 896
264 456 920
272 464 948
268 448 960
124 600 148
116 600 140
120 596 136
112 596 152
128 592 224
124 596 312
128 600 372
148 608 448
160 608 548
196 596 648
220 592 736
232 580 804
248 572 848
256 568 896
268 564 928
268 576 940
268 560 948
132 680 160
132 676 160
140 672 152
128 672 160
140 664 200
152 668 324
148 672 384
164 676 444
168 684 532
200 676 632
212 684 716
232 672 788
256 668 848
256 656 884
272 652 916
284 656 948
280 648 956
156 740 180
148 740 172
152 736 168
148 736 176
152 728 176
160 732 300
160 740 388
176 744 460
180 756 536
204 756 612
224 752 716
236 748 780
260 736 840
268 736 884
280 732 920
284 732 936
284 732 948
160 796 188
164 792 184
168 792 180
160 788 184
168 788 184
176 788 288
176 788 380
188 796 460
192 808 544
212 812 608
232 816 704
244 812 772
260 804 824
268 804 876
280 800 908
292 800 944
292 800 944
176 832 204
172 836 204
176 836 196
168 832 200
176 832 192
176 832 236
180 832 356
200 844 460
204 852 536
220 856 612
240 860 696
252 864 768
268 860 824
276 864 872
284 852 908
292 856 928
292 856 944
180 864 208
180 868 208
188 872 204
176 872 204
180 868 196
188 864 228
184 868 316
204 872 440
212 880 540
228 896 608
240 908 684
248 904 744
268 900 804
276 904 860
292 900 896
300 896 928
296 896 944
188 892 220
188 896 212
188 892 204
184 896 212
188 892 204
192 892 240
188 896 264
208 892 416
212 904 520
232 920 596
244 928 680
252 936 736
272 928 800
276 932 852
296 928 896
300 928 920
300 932 940
192 912 216
188 920 208
192 916 212
188 916 212
192 916 204
196 912 236
188 916 224
204 916 376
216 924 504
228 932 576
240 940 664
252 956 712
268 952 784
280 956 840
292 960 880
300 948 916
300 952 932
196 928 224
192 936 216
200 932 216
196 936 232
200 932 248
208 928 288
204 932 284
216 932 384
228 940 532
240 948 616
248 968 696
256 972 748
272 972 788
280 976 840
292 976 880
300 976 916
300 976 936
44 0 0
48 0 36
52 0 88
48 0 148
64 0 232
76 12 300
92 12 400
120 12 496
152 8 588
168 8 668
192 16 736
204 16 788
224 16 844
236 16 872
244 16 904
256 0 948
256 0 948
28 40 0
40 44 36
48 44 84
52 44 156
60 40 240
76 32 332
104 28 440
136 20 540
164 8 632
192 0 716
208 0 780
220 0 836
236 0 876
248 0 912
256 0 944
260 0 956
260 0 956
20 92 8
36 104 48
36 100 88
44 96 156
56 92 240
72 88 336
104 76 436
132 68 540
156 60 628
184 44 712
208 32 780
224 20 836
236 8 876
248 0 916
256 0 944
260 0 960
260 0 956
24 168 36
24 180 52
24 180 100
28 176 152
40 164 232
64 148 328
96 144 432
132 132 544
160 120 628
184 112 716
208 96 776
220 80 828
236 68 872
248 52 908
252 32 932
264 24 960
260 20 960
36 264 60
40 264 64
40 260 112
40 260 156
40 260 216
64 252 312
88 236 408
124 228 520
152 220 612
180 208 700
204 200 776
224 184 836
232 168 876
248 160 908
252 144 936
264 140 960
264 132 956
56 356 84
56 364 88
52 360 112
64 348 172
56 356 220
64 352 296
100 344 408
128 336 516
156 324 616
180 308 700
200 300 764
224 292 828
232 284 868
248 272 908
252 256 928
264 252 960
264 248 960
76 444 104
76 448 108
76 448 112
88 444 184
88 444 248
84 444 296
100 444 384
128 436 500
160 428 600
184 424 688
208 408 768
228 392 824
236 388 872
248 380 908
256 368 936
264 372 956
264 360 952
104 540 132
104 544 128
96 536 128
100 536 172
104 528 252
108 532 316
124 536 388
136 532 476
164 524 584
192 516 684
208 516 752
228 508 816
240 500 864
252 488 900
256 480 928
272 476 960
272 472 960
120 608 144
120 616 144
120 616 144
120 616 160
120 612 244
128 612 324
136 616 392
148 628 472
168 620 572
192 612 668
216 600 744
232 600 816
248 592 864
264 584 904
268 576 932
272 576 952
272 572 948
132 684 156
136 684 164
136 688 156
136 688 164
136 684 228
148 680 340
148 684 400
160 688 480
180 696 556
200 692 656
220 688 732
240 684 804
248 680 848
256 672 892
268 664 928
280 664 956
280 664 956
144 748 172
156 748 176
148 748 176
152 744 176
148 744 192
160 740 308
164 752 400
172 760 480
188 764 548
204 764 636
224 760 720
240 756 792
260 756 852
268 752 892
280 740 920
280 744 948
280 744 952
164 800 184
164 800 184
164 800 184
164 800 188
164 800 192
168 796 272
180 792 404
188 808 480
200 816 556
208 824 624
228 824 708
248 824 780
260 820 840
272 812 884
280 812 920
288 808 948
292 808 948
172 844 204
172 844 200
172 844 204
168 840 200
168 840 192
172 840 232
188 844 388
196 844 480
204 860 552
216 868 624
232 872 704
252 872 780
268 868 840
276 864 880
284 860 916
292 864 936
292 864 948
180 876 208
180 876 208
180 876 208
180 876 208
180 876 204
180 872 216
188 876 348
204 880 480
216 892 552
224 900 624
232 912 688
252 912 764
268 908 828
280 912 872
288 908 908
292 904 940
296 904 948
188 900 212
188 900 212
188 900 212
188 900 216
188 900 212
188 900 216
188 896 276
204 896 448
220 916 532
224 928 612
240 936 680
256 940 752
268 936 808
280 936 864
292 936 900
296 936 928
296 936 944
192 920 212
192 924 212
192 924 216
188 920 216
188 924 212
192 920 212
192 920 228
208 920 400
216 928 512
228 940 596
240 952 664
252 960 724
268 960 796
284 960 852
288 960 888
296 956 920
296 956 936
192 940 220
192 936 220
192 940 224
196 940 236
200 940 256
200 940 272
208 936 288
212 940 400
228 944 552
240 960 640
248 972 704
260 980 760
272 980 800
284 984 856
288 980 892
300 980 924
304 980 940
96 0 4
100 0 44
96 0 88
96 0 156
96 0 244
100 12 316
116 12 408
140 12 508
160 8 600
184 8 676
196 20 740
216 16 796
232 20 844
240 16 880
244 16 904
260 0 948
264 0 948
80 44 0
88 40 36
92 44 84
96 40 156
96 36 244
108 32 340
132 28 444
152 20 548
180 8 640
200 0 720
216 0 780
232 0 836
240 0 876
252 0 912
260 0 944
264 0 956
264 0 956
72 84 4
76 92 28
88 100 92
92 96 160
96 92 244
104 92 340
124 80 444
148 72 544
172 60 636
196 48 720
220 32 780
232 24 836
240 8 876
252 0 912
260 0 944
264 0 956
264 0 956
44 156 8
52 164 24
72 180 104
76 176 148
84 168 236
100 160 344
124 148 448
148 136 548
176 124 640
196 112 720
216 100 780
228 88 836
240 76 876
252 60 908
256 36 936
268 28 964
268 28 960
40 244 32
40 256 44
64 264 108
72 264 168
76 268 232
88 248 324
116 236 432
140 236 536
172 220 632
192 212 708
212 200 784
228 184 832
240 168 876
248 164 912
256 148 940
264 144 960
260 128 956
56 348 68
56 364 76
56 360 112
68 352 172
60 360 224
76 356 304
100 348 416
132 332 520
156 324 616
184 312 708
208 308 772
220 300 820
232 288 872
252 272 904
256 264 936
264 260 960
264 252 960
76 440 104
76 444 104
84 452 112
88 448 192
88 444 248
88 452 308
108 448 396
136 444 508
160 436 608
188 428 696
208 408 768
224 400 832
240 396 872
248 388 908
260 376 936
264 372 956
264 368 956
92 528 124
96 536 124
100 536 132
104 536 180
112 536 260
112 536 332
120 540 396
140 532 492
172 532 596
196 520 692
212 520 760
228 512 816
240 496 864
248 492 900
256 488 932
276 480 964
272 476 960
120 608 144
116 612 144
120 616 148
120 608 160
124 612 256
132 616 328
132 624 400
148 632 476
168 616 572
192 612 664
220 604 752
236 604 820
252 592 864
264 588 908
268 580 928
276 584 952
272 576 952
132 680 160
136 684 164
132 688 160
136 688 164
140 684 236
148 680 340
156 688 416
164 696 484
180 700 564
204 696 660
224 692 744
232 684 804
252 684 856
264 680 892
268 668 924
284 668 956
280 660 956
148 748 172
148 744 176
152 744 176
152 748 180
152 744 212
160 744 320
168 752 416
176 756 480
184 768 564
208 768 640
228 768 728
244 760 800
260 756 852
268 748 892
280 744 928
280 744 948
280 748 952
164 800 184
164 800 184
164 800 184
164 800 184
164 800 188
168 796 284
176 800 408
188 816 488
200 820 568
208 824 624
228 824 708
248 824 780
260 820 840
272 816 884
280 812 916
288 808 948
292 808 948
168 840 200
172 844 204
172 844 204
172 844 204
172 844 204
176 844 244
188 836 392
196 852 480
200 864 560
220 872 624
236 872 704
256 872 780
264 868 836
276 868 876
284 864 916
292 864 936
292 864 948
180 876 208
180 876 204
180 876 208
180 876 208
180 876 204
180 872 216
192 876 360
204 884 476
216 892 560
224 904 628
232 912 692
252 912 768
268 912 824
280 908 872
288 908 916
292 900 936
296 900 948
188 900 212
188 896 212
188 900 212
188 900 216
188 900 216
184 896 216
192 896 304
208 904 460
220 920 544
228 928 616
240 936 680
256 940 756
268 936 816
280 940 868
296 940 904
296 936 928
296 936 944
192 920 212
192 920 212
192 920 216
188 924 208
192 924 212
192 920 216
192 920 228
204 920 408
216 928 524
232 944 604
240 952 664
252 960 728
268 960 796
280 960 848
288 960 888
296 956 920
296 956 936
192 940 220
192 940 220
196 940 224
196 936 244
200 940 256
200 936 272
204 936 288
216 940 412
232 948 560
240 960 640
248 972 704
260 980 756
272 980 800
284 984 856
288 980 892
300 980 924
304 980 940
164 0 4
164 0 36
168 4 84
160 4 160
164 0 248
144 16 320
152 12 412
172 12 512
184 12 604
204 8 684
212 16 744
228 16 800
240 16 840
244 16 876
252 12 904
268 0 944
268 0 948
152 40 0
164 40 32
172 36 88
164 32 164
160 36 252
164 28 356
176 24 460
184 12 560
204 8 656
224 0 728
232 0 788
240 0 840
256 0 876
264 0 912
268 0 940
276 0 952
