滤镜资源/vsco滤镜3dlut 2017.8月更新/3dl/VSCO L3 Landscape Series.3dl
#Generated by Picture Instruments - Look Converter
3DMESH
Mesh 4 10
0 64 128 192 256 320 384 448 512 576 640 704 768 832 896 960 1023
72 76 72
88 80 88
96 80 104
92 84 128
104 92 144
96 104 172
112 108 208
120 116 244
124 124 284
140 136 328
136 144 364
148 156 420
168 160 472
172 176 516
184 184 556
188 196 592
196 204 636
76 112 88
92 96 100
92 100 108
92 100 136
108 104 152
100 116 176
112 124 208
120 128 240
124 140 276
136 144 312
136 160 340
152 168 396
164 176 440
172 188 492
184 196 532
184 208 572
200 212 616
88 152 112
92 140 120
96 124 120
96 124 140
108 128 164
100 144 188
112 148 220
124 152 244
120 164 280
136 168 312
136 184 336
148 192 392
164 200 436
172 212 484
184 224 528
172 232 544
184 232 596
92 200 140
104 188 148
100 176 144
100 160 156
108 160 180
104 172 196
116 172 232
124 180 256
128 192 292
136 204 320
136 216 352
148 220 396
164 228 440
164 244 480
180 252 528
184 264 552
188 264 600
112 256 180
108 240 176
112 220 172
100 208 184
108 196 192
104 208 216
116 208 252
128 216 268
124 224 308
144 232 336
144 244 368
152 256 420
168 264 456
168 272 496
184 280 540
176 296 564
188 296 612
108 324 212
112 308 212
112 292 220
104 276 220
108 260 224
112 248 244
116 248 268
124 252 284
132 264 328
148 272 356
140 284 384
156 292 440
164 300 472
172 312 516
184 320 556
184 336 588
188 336 624
124 392 252
128 376 260
128 364 264
116 348 268
120 332 272
112 324 284
116 300 292
128 300 316
132 308 344
148 312 372
152 328 412
160 336 456
172 340 492
172 356 536
188 364 576
184 380 612
196 380 656
132 468 304
136 460 312
132 444 320
124 428 324
124 408 324
124 392 332
124 380 340
132 364 348
136 364 376
148 360 400
152 384 440
168 384 480
180 396 520
184 408 568
192 412 600
196 424 640
204 428 680
152 532 348
156 532 368
156 520 372
148 500 384
144 492 380
132 472 380
136 456 388
136 440 400
136 432 416
152 428 440
160 436 480
172 440 508
192 448 548
196 464 596
204 472 640
204 480 672
208 480 708
168 608 400
180 604 412
176 596 420
164 584 432
168 564 432
160 556 444
160 540 448
160 512 444
156 508 468
156 492 476
160 504 512
180 500 544
196 508 580
200 512 616
220 520 656
220 532 700
224 540 736
192 668 444
196 668 464
200 656 472
188 652 480
188 640 480
168 628 488
172 620 500
176 600 500
168 588 512
168 580 528
164 564 544
188 564 584
204 568 612
216 572 652
228 580 688
228 588 716
236 592 748
200 720 472
208 720 496
208 716 508
200 708 524
208 704 532
196 692 544
192 680 548
188 668 552
188 656 556
188 648 572
180 640 596
184 628 620
200 624 640
216 628 676
228 632 708
244 644 744
248 644 772
212 764 508
224 768 536
220 764 544
208 756 560
216 752 564
204 748 584
200 740 588
204 732 592
196 720 608
196 708 612
196 696 636
200 692 656
204 676 672
216 680 704
232 680 732
236 688 764
248 688 784
212 800 536
228 800 556
224 796 572
212 800 592
212 796 592
212 784 608
204 784 616
204 780 624
200 772 644
204 764 648
196 752 664
200 744 680
204 736 700
204 732 724
220 728 752
244 728 780
244 728 800
216 832 560
224 832 584
224 828 592
212 832 616
212 824 628
200 824 644
200 824 652
200 816 656
196 812 672
200 800 680
204 792 688
200 788 708
204 780 724
204 776 744
212 764 764
220 768 792
228 768 816
200 856 576
216 856 604
212 860 616
208 856 636
208 856 652
204 848 664
200 852 672
204 848 688
192 848 700
200 836 704
196 828 712
200 832 728
208 820 740
200 816 764
208 808 780
208 804 796
216 804 820
208 856 592
208 860 608
212 860 624
208 860 644
212 856 660
216 852 684
208 856 688
212 852 696
204 852 716
204 852 716
200 844 732
200 848 748
212 844 760
208 844 780
212 836 796
212 828 804
212 828 824
92 76 72
92 76 88
92 80 108
96 88 132
104 96 156
112 108 188
116 112 220
124 120 256
136 128 292
144 132 328
148 148 376
160 156 428
176 164 484
184 180 528
192 188 572
204 196 612
208 196 652
96 108 84
96 100 96
100 100 128
104 112 156
108 116 184
116 124 208
120 132 244
132 140 284
140 148 328
156 156 380
160 172 416
172 176 456
180 188 504
192 200 548
200 208 596
208 216 640
216 220 672
100 152 108
100 140 120
100 128 132
104 128 156
108 136 184
112 144 216
120 156 240
128 164 276
132 172 304
144 180 344
152 188 396
160 204 440
176 212 492
188 220 536
196 228 584
200 244 628
200 248 652
104 208 136
108 192 148
100 180 164
104 164 168
108 168 196
116 176 224
128 184 252
128 192 280
144 200 320
144 212 348
152 220 392
160 228 436
168 244 480
180 256 524
192 264 576
204 272 620
204 272 640
108 264 168
112 252 180
108 232 196
108 220 200
108 208 212
116 212 236
124 220 260
132 224 288
136 232 324
144 240 364
156 256 404
164 268 448
172 272 492
184 284 528
188 300 580
200 304 616
204 312 648
112 324 204
116 320 232
112 308 244
112 288 244
108 268 248
116 256 256
124 260 284
136 264 308
148 276 344
148 280 372
156 292 420
164 304 456
172 316 500
184 328 544
192 332 588
200 344 632
204 348 664
120 400 248
132 392 280
128 380 288
124 360 296
124 340 292
120 328 300
124 312 304
128 316 336
144 324 360
148 328 396
164 340 436
168 348 480
180 364 528
188 372 568
196 384 612
204 392 656
208 392 680
132 480 296
148 472 332
144 452 340
140 444 340
136 424 348
140 408 348
136 392 356
136 372 364
148 376 388
160 380 428
168 396 460
184 400 496
188 416 540
200 424 584
204 432 624
212 440 668
216 444 704
152 548 340
172 544 376
172 532 392
168 520 404
160 504 404
156 484 404
148 468 404
148 456 416
152 444 432
164 448 464
176 444 492
192 456 528
200 464 572
208 476 608
224 484 656
224 492 692
228 492 720
168 616 384
188 608 420
192 604 444
184 596 456
184 584 460
176 568 460
172 544 460
172 528 464
168 520 484
176 508 496
184 508 528
196 516 564
212 520 596
220 532 628
232 536 672
240 544 716
244 552 748
188 676 432
208 676 468
220 668 488
204 664 504
204 656 504
196 644 512
188 632 516
188 616 520
184 596 524
184 588 544
188 572 564
200 576 596
224 580 628
236 588 664
248 592 696
256 600 736
260 604 756
192 732 468
220 728 496
228 724 520
228 724 536
216 716 548
212 700 556
212 692 564
208 684 572
204 668 576
204 656 588
200 648 608
196 640 624
216 640 656
236 640 696
248 644 720
264 648 756
264 652 776
208 776 500
228 772 528
244 768 552
232 768 568
232 760 584
224 756 596
220 748 600
216 736 612
216 728 620
208 716 628
212 708 644
212 700 664
212 696 688
232 688 716
248 688 740
256 696 772
264 696 788
208 812 520
236 812 552
248 808 588
236 808 600
232 800 616
232 792 620
224 788 632
220 784 644
216 776 652
216 764 660
216 760 672
212 752 688
212 744 712
216 736 732
236 736 764
248 732 784
260 736 808
208 840 544
228 840 580
252 836 608
236 836 620
232 832 640
228 828 648
216 824 664
212 820 668
212 816 684
208 808 688
212 800 696
212 796 716
212 784 728
204 780 748
208 768 772
232 772 800
236 772 816
192 860 564
208 864 596
232 860 628
228 864 640
224 860 664
220 860 676
220 856 684
208 852 692
200 844 704
200 840 708
200 836 724
196 832 736
200 824 748
200 824 768
200 812 784
204 808 804
212 808 828
196 860 576
212 864 608
216 864 632
212 864 644
212 860 668
212 860 680
208 856 688
208 856 700
204 856 712
208 852 728
200 852 744
200 852 756
204 852 764
204 848 780
208 840 800
208 836 816
212 832 828
112 76 80
112 80 96
108 80 112
116 84 132
120 96 160
120 108 196
128 112 228
136 120 264
148 124 296
156 136 332
164 148 376
176 152 420
184 164 468
196 176 516
212 188 564
220 192 608
224 196 636
120 112 92
120 96 96
120 100 128
124 108 164
128 120 204
136 132 240
144 136 280
152 148 312
156 156 356
172 164 388
176 168 424
192 176 472
200 192 512
216 196 560
224 208 600
232 216 648
240 220 680
124 152 108
120 140 112
124 128 136
120 132 168
128 144 208
128 152 240
136 160 276
144 168 312
156 176 352
168 184 392
180 196 424
192 208 472
200 212 512
212 224 556
224 232 608
224 248 640
236 252 676
120 204 124
124 192 136
112 180 164
116 160 176
124 172 208
132 180 248
136 192 280
144 200 312
156 208 352
164 216 392
172 228 424
188 232 472
188 252 516
208 256 560
216 268 600
224 272 644
224 276 672
128 260 164
120 248 176
124 236 200
120 220 216
124 212 228
132 216 256
136 224 288
144 236 316
156 240 360
168 252 396
176 264 436
184 272 476
196 280 516
204 296 564
216 304 608
224 312 652
228 316 680
128 332 208
124 324 220
124 308 252
124 288 256
124 272 260
132 260 272
140 264 300
144 272 320
156 284 364
168 292 400
180 304 436
184 316 480
200 324 524
208 328 564
216 348 612
224 352 656
224 356 688
136 404 260
136 388 268
140 384 300
140 368 312
136 344 308
136 328 312
132 320 328
152 324 352
168 328 380
176 340 412
184 348 452
196 352 496
204 368 540
220 380 584
224 388 628
228 396 660
232 396 696
152 476 304
148 460 312
164 456 348
160 444 364
156 428 360
156 408 364
156 392 364
156 380 376
176 380 408
180 388 440
196 400 476
208 408 516
216 416 556
224 428 596
236 440 640
244 448 684
248 452 712
180 552 356
180 544 368
192 536 404
192 520 412
184 508 420
176 496 420
176 472 420
172 460 424
176 444 436
184 448 464
208 456 500
220 460 536
228 472 576
244 480 620
248 484 664
256 500 700
260 500 728
188 616 392
196 608 412
216 608 452
216 596 460
212 588 476
204 572 472
200 552 472
200 536 476
200 524 488
200 512 504
216 516 536
232 516 568
236 528 604
252 532 640
260 544 680
272 552 724
280 552 752
204 680 440
212 668 452
236 668 488
236 664 504
228 656 520
220 644 524
220 628 528
216 612 528
216 600 540
212 592 556
220 580 576
236 580 604
248 584 640
264 588 672
276 596 708
284 608 740
288 608 768
212 736 472
224 732 488
252 728 520
260 720 548
244 720 556
240 708 568
244 696 576
236 684 584
232 672 588
228 656 596
224 648 612
232 640 632
244 644 664
264 648 696
272 652 724
288 656 760
300 656 784
224 772 500
236 772 512
268 772 552
268 768 576
260 764 596
256 764 608
252 752 616
244 740 620
244 732 628
240 724 636
240 712 648
240 708 668
240 696 688
256 696 716
276 696 752
288 700 780
300 704 796
228 816 520
240 808 544
268 808 580
276 804 604
268 804 624
260 796 636
260 788 644
252 792 652
248 780 660
248 772 672
244 760 676
248 752 696
244 744 720
248 740 732
260 736 764
276 740 792
284 740 812
224 840 540
240 836 564
272 840 600
280 836 628
268 832 644
256 832 660
260 824 664
248 824 680
248 820 692
244 812 700
244 800 704
248 792 720
244 788 740
236 780 752
244 776 776
260 776 804
268 776 824
200 864 556
212 860 580
244 864 616
260 860 644
256 864 664
252 860 680
256 856 688
252 852 700
240 852 708
240 848 724
236 844 728
240 832 744
232 828 756
232 820 768
228 816 788
232 812 812
244 808 828
200 864 564
208 860 588
224 864 620
228 864 644
228 864 664
224 864 680
232 860 696
224 860 704
224 856 720
224 856 732
216 856 740
216 852 760
220 856 764
220 852 788
224 848 800
228 840 820
228 832 832
144 80 80
132 80 100
140 80 116
136 84 140
140 92 168
136 104 204
140 112 232
148 120 268
164 128 304
176 136 340
184 144 376
200 156 416
208 164 464
216 176 508
232 180 552
244 188 596
244 192 636
152 112 88
156 96 100
156 100 124
148 100 156
148 112 200
152 128 256
160 136 296
172 148 332
184 152 360
196 160 392
204 164 432
220 180 480
232 188 520
240 196 560
248 204 600
260 212 640
