滤镜资源/vsco滤镜3dlut 2017.8月更新/3dl/VSCO V6 Valence.3dl
#Generated by Picture Instruments - Look Converter
3DMESH
Mesh 4 10
0 64 128 192 256 320 384 448 512 576 640 704 768 832 896 960 1023
0 0 0
56 32 56
84 60 100
116 92 184
156 120 252
152 148 308
184 164 356
216 180 408
232 204 460
256 224 500
256 244 536
296 264 592
328 288 632
352 312 676
376 340 712
396 356 740
432 384 784
48 108 88
84 108 124
116 120 176
136 140 232
164 152 276
168 172 332
196 180 384
224 200 428
240 216 480
264 236 520
272 256 556
308 276 612
340 300 652
364 324 696
400 348 736
408 372 760
448 400 804
84 192 144
108 188 172
128 180 212
144 180 260
172 184 300
160 204 356
200 212 400
224 220 440
232 240 488
260 252 520
268 272 564
304 292 612
332 308 656
356 336 696
392 364 740
404 384 760
440 404 796
84 256 188
112 244 204
120 244 236
140 240 280
160 236 320
168 244 372
200 244 412
216 256 456
228 268 492
256 284 528
268 308 572
296 316 608
328 336 652
352 360 688
384 376 728
404 400 756
432 420 796
100 304 236
116 296 240
128 292 260
128 292 304
156 284 344
164 300 404
196 296 432
220 304 468
232 312 516
260 320 544
272 344 588
300 356 628
332 372 664
356 388 704
380 408 732
400 436 764
432 448 792
104 364 268
116 360 276
124 352 292
128 356 328
144 352 368
168 356 428
196 352 460
224 356 492
236 364 536
264 372 572
272 388 604
300 396 636
336 412 676
360 428 716
388 448 748
412 468 780
440 476 800
116 420 320
124 416 320
128 416 332
132 416 360
148 420 396
156 428 452
192 412 480
220 412 512
236 420 556
264 424 588
284 440 628
312 448 660
336 456 688
360 468 732
396 480 760
416 508 784
440 516 812
120 480 360
128 480 360
136 480 376
136 476 400
148 476 432
160 480 476
184 480 512
228 476 544
244 480 580
272 480 608
292 492 652
316 496 680
352 500 712
372 516 744
408 524 776
432 544 804
456 556 824
132 528 404
136 528 404
144 528 416
144 532 436
156 532 460
160 536 504
184 536 536
220 540 568
252 536 604
280 536 632
304 544 676
328 548 700
360 556 732
392 568 768
424 576 796
444 596 820
472 600 836
148 588 456
152 588 456
160 584 464
160 588 484
172 588 496
184 596 536
196 596 564
216 592 592
248 596 628
288 592 656
320 596 704
344 604 728
384 608 752
400 616 780
440 624 808
468 640 836
492 648 856
176 640 504
176 640 504
184 636 508
188 640 528
192 640 536
200 644 572
212 648 592
236 644 624
248 652 652
300 652 692
344 652 732
368 656 756
404 660 780
428 672 808
464 680 832
484 688 848
512 696 868
200 696 552
204 696 552
216 688 560
212 696 576
232 696 588
236 696 612
240 696 628
260 700 660
276 704 684
312 704 720
356 712 752
396 712 780
432 712 804
460 720 828
488 728 852
516 740 876
540 744 888
244 744 604
244 744 604
252 744 612
252 740 620
268 740 636
276 748 656
280 748 672
300 752 696
312 752 720
332 756 740
380 756 780
416 760 804
460 768 832
492 772 856
516 772 872
544 788 896
564 792 908
296 788 656
300 792 660
304 792 664
312 796 672
316 792 680
320 792 700
328 796 716
344 800 736
364 804 760
380 804 780
408 808 812
436 812 828
484 812 848
528 820 876
552 824 896
576 828 920
592 832 932
356 836 708
360 840 720
360 836 720
368 840 728
376 840 732
388 840 748
396 848 764
412 844 776
420 848 796
444 848 820
456 856 844
480 860 860
520 864 880
552 860 904
584 868 920
616 872 944
632 880 952
428 880 768
436 880 772
440 876 772
440 884 784
452 884 780
452 884 796
460 888 808
472 888 824
480 892 840
500 892 852
516 900 872
536 900 892
556 908 908
592 908 932
632 916 956
656 916 972
672 920 984
484 908 804
492 908 808
492 912 808
492 908 816
500 912 828
512 904 848
520 912 848
532 916 868
540 920 876
560 920 896
572 924 904
588 936 924
596 936 936
620 944 952
652 944 968
688 948 984
704 952 992
64 28 28
92 44 72
120 64 128
136 96 192
172 124 268
176 152 316
196 172 364
220 192 420
240 208 464
260 224 508
272 248 556
300 272 600
332 292 640
360 316 684
380 344 720
420 364 768
440 388 792
100 104 76
112 116 116
136 128 172
160 140 232
172 156 288
188 172 336
204 184 388
228 200 436
244 220 484
268 236 524
292 260 572
312 284 620
344 304 660
368 332 704
396 360 744
432 384 784
452 400 808
120 188 132
120 188 168
132 184 204
152 184 256
168 188 300
184 204 352
200 216 404
224 228 444
236 240 488
260 256 532
288 276 572
312 296 616
340 320 660
364 340 704
396 368 744
428 392 776
448 412 800
112 252 184
116 252 204
128 248 240
144 244 284
160 240 324
184 248 372
204 256 420
220 264 464
240 276 496
260 292 544
280 308 576
308 328 620
336 344 664
356 364 700
388 388 736
428 412 780
444 428 796
116 308 228
120 304 236
124 304 268
136 304 312
160 296 348
184 300 396
200 300 436
220 308 480
240 320 516
260 328 560
280 348 596
308 364 640
332 376 668
356 396 704
388 416 744
416 440 776
440 456 800
120 368 264
124 368 280
128 364 304
132 360 336
148 364 380
180 356 424
204 360 464
224 364 508
248 376 540
260 380 580
288 392 612
312 404 652
340 420 688
368 440 724
392 456 756
424 472 788
448 484 808
124 428 312
132 424 324
132 428 344
140 424 372
152 432 412
168 424 448
200 424 492
228 424 528
248 432 564
272 436 604
296 444 640
320 452 672
344 468 708
372 480 744
408 500 772
432 516 800
452 524 816
132 484 368
136 484 368
140 484 380
144 484 408
156 488 440
168 488 476
192 492 520
228 484 552
252 488 584
276 488 616
300 500 656
328 504 692
356 512 720
376 524 748
412 540 784
444 552 812
468 564 836
144 536 400
148 536 412
152 540 428
156 540 448
168 540 476
172 544 504
192 544 544
220 548 584
264 544 612
284 548 644
312 544 680
340 560 712
368 564 744
400 576 776
428 588 800
456 600 828
476 612 844
156 592 460
156 596 460
164 596 476
168 600 496
176 596 512
192 600 544
200 596 568
224 600 604
260 604 640
300 600 676
328 604 708
356 612 736
384 620 768
420 628 792
448 636 824
480 648 852
500 660 864
180 652 508
180 652 508
188 648 524
192 648 536
200 652 552
212 652 580
224 656 604
240 656 640
256 660 668
300 664 696
352 660 732
380 664 764
416 672 796
444 680 820
468 688 840
500 696 864
520 708 880
208 704 556
216 704 564
220 700 572
220 704 584
232 704 596
236 704 612
252 708 640
272 708 672
292 712 704
320 712 724
360 720 760
408 720 788
440 724 816
468 728 836
500 740 864
528 748 880
544 748 896
256 756 612
256 752 616
260 752 616
264 752 632
276 752 648
280 756 660
292 756 684
304 756 700
328 760 732
348 764 756
384 768 784
428 772 816
472 772 836
500 776 864
528 784 884
556 796 904
576 796 916
304 800 664
308 800 668
320 800 680
324 804 688
324 796 692
328 804 708
344 804 728
356 808 744
372 808 772
392 816 792
420 816 816
456 820 840
504 820 864
536 828 884
564 836 900
588 836 924
608 840 936
368 848 724
368 848 728
372 848 724
380 852 736
384 848 748
392 848 756
404 848 768
416 852 788
432 856 808
456 860 828
468 864 852
492 868 872
524 868 888
564 872 916
604 880 932
628 880 944
640 888 960
448 892 784
448 892 784
452 888 788
456 892 792
464 892 796
468 896 808
472 892 816
484 896 832
492 896 848
512 904 868
532 904 880
548 908 900
572 912 920
604 920 944
632 924 956
664 924 976
684 932 996
500 916 816
500 912 816
508 912 820
508 920 828
516 920 836
528 920 844
532 920 864
544 924 864
552 928 884
572 932 900
584 932 912
600 940 932
608 944 944
632 948 964
660 952 980
696 956 996
716 960 1000
132 56 64
164 64 88
184 84 144
216 100 216
220 128 284
220 152 320
228 172 372
244 196 424
260 208 464
276 228 516
300 252 564
324 272 604
352 296 652
376 320 692
400 344 728
432 368 772
448 388 796
184 116 96
192 120 128
204 132 176
216 140 232
212 156 280
224 168 340
240 188 392
248 200 440
272 224 484
292 244 536
312 260 576
340 284 624
364 304 668
392 336 712
420 360 752
448 388 784
468 400 808
180 176 124
176 172 144
184 172 180
188 176 228
208 184 292
212 204 340
228 212 384
244 228 440
260 244 484
280 260 528
308 280 580
336 300 620
356 320 668
388 344 704
416 372 748
444 396 784
460 416 804
156 240 164
164 240 184
164 240 216
180 232 256
192 236 304
208 240 356
228 252 404
240 264 452
260 276 496
272 288 536
300 304 576
324 324 624
348 344 664
384 364 704
404 388 740
436 412 780
456 428 800
152 300 208
156 296 224
160 296 256
172 292 292
192 288 340
204 288 380
220 296 424
240 308 472
256 324 508
276 336 552
300 344 592
324 356 632
348 376 672
376 396 712
404 420 748
432 440 780
452 456 804
148 364 256
152 364 268
152 360 292
160 356 316
172 360 372
204 352 408
224 356 460
240 360 496
260 368 528
276 380 572
304 392 608
328 408 644
356 420 688
380 436 716
404 456 752
440 472 792
460 484 804
152 424 300
160 416 308
160 424 332
168 424 364
172 420 396
188 424 444
228 420 484
244 424 520
268 428 556
288 436 596
308 440 632
336 448 668
360 464 704
392 480 736
416 496 768
444 516 800
460 524 820
152 484 352
160 480 360
164 480 376
168 484 404
180 484 432
188 488 472
212 484 512
248 484 548
272 480 580
292 484 620
316 500 652
344 504 688
368 508 716
396 528 748
424 544 784
456 552 812
476 564 836
168 536 400
172 536 412
172 536 420
180 536 440
180 540 472
192 544 500
212 548 536
232 544 572
280 536 604
300 544 640
328 544 672
356 556 712
380 564 740
416 576 772
432 588 800
464 600 824
488 608 844
180 592 452
184 592 456
180 596 472
188 596 488
200 596 512
208 596 536
224 600 568
244 600 604
276 604 640
320 600 672
348 604 708
372 604 728
400 616 760
428 628 788
460 640 820
488 652 848
508 656 864
200 648 504
204 644 508
204 644 516
208 648 528
216 652 548
228 652 576
244 656 600
256 656 636
280 660 664
316 660 700
368 660 732
396 664 760
428 672 788
452 680 812
480 688 840
508 704 860
532 704 876
232 700 560
232 704 564
232 700 568
244 700 580
244 704 592
256 704 608
276 708 636
288 708 668
308 712 696
320 712 720
368 720 756
420 716 780
452 728 816
480 728 836
508 740 860
528 744 884
552 748 896
264 752 608
272 756 616
276 756 616
280 752 632
288 756 644
296 760 660
304 752 680
324 756 704
340 760 732
356 768 756
396 768 780
440 776 816
484 772 836
512 780 860
540 784 884
556 796 900
580 796 916
320 800 664
328 804 668
328 800 680
328 800 684
336 800 696
344 804 708
360 804 728
376 808 748
384 808 760
400 816 792
428 820 816
468 824 840
512 824 860
548 828 884
564 832 900
592 836 924
612 840 940
380 844 720
384 848 724
384 848 724
392 852 740
396 848 748
404 848 756
416 848 768
424 856 788
452 856 804
464 860 828
476 864 848
500 864 868
536 868 884
572 872 908
604 876 932
632 884 948
644 884 956
456 888 776
460 884 780
456 888 784
464 892 788
468 892 792
476 892 808
488 892 820
492 896 828
508 904 852
516 900 860
536 904 880
556 912 904
576 916 920
604 916 936
644 924 960
672 928 976
696 932 996
512 916 812
516 916 816
516 916 820
520 920 824
524 920 832
536 916 844
544 924 856
552 924 872
564 924 884
576 928 900
592 936 912
604 944 932
612 948 944
636 948 960
672 956 980
700 964 992
732 964 996
228 88 96
240 92 120
272 100 160
272 116 216
292 124 272
284 152 324
272 168 372
288 188 420
304 212 476
320 232 524
340 252 572
360 280 616
380 300 656
408 324 700
428 348 740
460 372 780
468 392 800
268 128 120
268 128 144
280 132 172
280 140 228
284 152 284
288 168 344
296 184 396
304 204 444
320 228 500
336 248 540
356 268 592
372 288 636
404 312 676
424 340 728
448 364 760
468 388 792
