滤镜资源/Professional Luts Collection/Triune-Digital-Cinematic-LUTs/3D LUTs (3DL)/UTILITY/Panasonic Cine-D to Rec.709/U-PANASONIC-CINE-D-V2-LTR.3dl
# Copyright: (C) Copyright 2016 by IWLTBAP
# Cannot be resold, shared or otherwise redistributed
# Website: http://luts.iwltbap.com
0 64 128 192 256 320 384 448 512 575 639 703 767 831 895 959 1023
2 2 2
2 2 27
2 2 391
2 2 879
2 2 1269
2 2 1626
2 2 1960
2 2 2280
2 2 2589
2 2 2885
2 2 3174
2 2 3455
2 2 3730
2 2 3966
2 3 4069
2 3 4073
2 3 4073
2 17 2
2 18 20
2 18 428
2 19 872
2 20 1258
2 21 1614
2 27 1953
2 37 2280
1 46 2594
2 55 2893
2 64 3181
2 74 3457
1 83 3725
2 91 3956
2 100 4053
2 107 4062
2 114 4062
1 434 2
1 434 66
1 430 437
1 434 862
1 438 1234
1 445 1577
1 450 1902
1 456 2212
1 463 2510
1 469 2797
1 476 3075
1 483 3346
1 490 3610
1 496 3862
1 502 4023
1 507 4044
1 512 4044
1 876 2
1 862 76
1 853 468
1 849 869
1 849 1230
1 850 1565
1 851 1882
1 852 2188
1 855 2481
1 857 2764
1 860 3039
1 864 3307
1 867 3568
1 871 3822
1 876 4001
1 878 4040
1 880 4040
1 1231 2
1 1213 75
1 1203 490
1 1200 879
1 1196 1230
1 1194 1558
1 1193 1872
1 1193 2171
1 1192 2460
1 1192 2740
1 1192 3012
1 1193 3277
1 1194 3535
1 1195 3787
1 1197 3986
1 1198 4038
1 1198 4039
2 1542 3
2 1524 128
1 1515 506
1 1509 882
1 1505 1226
1 1501 1550
1 1499 1857
1 1497 2154
1 1495 2440
1 1493 2717
1 1493 2987
1 1492 3249
1 1492 3506
0 1492 3758
1 1492 3970
1 1492 4036
1 1492 4038
1 1825 3
1 1809 112
1 1801 515
1 1795 884
1 1791 1223
1 1787 1542
1 1784 1848
1 1781 2141
1 1780 2424
1 1778 2701
2 1778 2969
2 1777 3231
2 1777 3487
2 1777 3738
2 1777 3958
2 1778 4036
2 1778 4038
2 2095 4
2 2084 149
2 2077 531
3 2072 893
3 2067 1227
3 2064 1544
3 2061 1847
3 2059 2138
3 2057 2420
2 2056 2694
2 2055 2961
2 2054 3221
2 2054 3476
2 2053 3726
1 2053 3952
1 2053 4035
1 2051 4039
4 2364 5
4 2353 172
3 2347 552
3 2341 907
3 2337 1237
2 2333 1550
2 2331 1850
2 2328 2139
2 2326 2418
2 2324 2691
2 2323 2955
2 2322 3214
2 2321 3468
3 2320 3717
3 2320 3943
3 2318 4037
3 2318 4040
4 2623 4
4 2613 188
4 2607 574
4 2602 924
4 2598 1249
4 2594 1559
4 2591 1856
4 2589 2143
5 2587 2421
5 2585 2692
5 2583 2955
5 2582 3213
5 2580 3465
5 2579 3713
5 2578 3944
4 2577 4036
4 2575 4041
8 2874 8
8 2865 226
7 2861 599
7 2855 942
6 2852 1265
6 2847 1571
6 2845 1865
6 2842 2150
6 2839 2426
6 2838 2694
6 2835 2956
5 2833 3212
5 2832 3463
6 2830 3710
6 2829 3937
6 2826 4038
6 2825 4042
11 3119 10
10 3112 250
10 3107 621
10 3102 961
11 3098 1279
10 3094 1582
10 3091 1875
10 3088 2157
9 3086 2432
10 3083 2699
9 3081 2958
9 3080 3213
9 3078 3463
8 3076 3708
8 3074 3941
9 3071 4039
9 3070 4043
22 3359 21
18 3352 277
16 3347 646
14 3343 979
13 3339 1295
12 3335 1596
11 3331 1885
11 3328 2166
11 3325 2438
10 3323 2703
11 3321 2962
11 3319 3215
12 3316 3464
11 3314 3707
11 3311 3934
12 3309 4039
14 3307 4044
16 3593 15
15 3586 310
15 3582 668
15 3577 999
15 3573 1311
17 3570 1609
20 3566 1896
22 3563 2175
23 3560 2446
24 3557 2709
24 3555 2966
23 3552 3218
22 3550 3466
22 3547 3709
20 3544 3941
19 3541 4042
18 3540 4045
44 3820 43
44 3816 333
42 3811 691
41 3808 1018
38 3803 1327
34 3799 1622
29 3796 1907
24 3793 2184
21 3790 2453
19 3787 2715
18 3784 2970
17 3782 3221
17 3778 3467
17 3776 3709
17 3772 3935
17 3770 4039
17 3768 4045
47 3982 41
38 3983 362
30 3982 712
25 3980 1036
23 3978 1342
22 3977 1634
21 3976 1918
21 3976 2193
26 3977 2460
31 3979 2720
36 3981 2975
39 3983 3224
42 3986 3470
44 3987 3711
45 3985 3943
46 3981 4043
46 3976 4045
48 3998 49
54 4000 388
58 4003 734
61 4005 1055
63 4006 1358
65 4008 1648
65 4009 1930
64 4010 2203
62 4011 2469
59 4011 2728
54 4011 2981
49 4012 3229
42 4012 3473
36 4012 3714
33 4012 3938
28 4011 4039
25 4011 4044
17 2 2
16 2 20
14 2 403
15 2 871
16 2 1259
17 2 1615
19 2 1950
20 2 2270
21 2 2580
23 2 2877
25 2 3169
26 2 3454
28 2 3735
40 3 3976
57 3 4069
74 3 4072
92 3 4071
20 18 2
18 17 17
18 16 434
24 20 875
36 28 1262
48 37 1621
58 43 1958
69 50 2275
78 57 2578
87 63 2869
95 68 3150
102 73 3422
109 79 3687
113 83 3925
118 88 4045
121 91 4060
124 93 4060
67 430 2
64 420 66
59 413 420
58 412 837
56 415 1203
53 418 1544
50 421 1865
46 425 2172
42 429 2469
40 433 2754
40 436 3031
40 440 3301
40 445 3564
40 450 3817
40 455 4005
43 460 4044
53 463 4044
52 836 2
39 818 39
35 810 426
34 805 825
33 804 1185
34 803 1517
40 803 1834
47 805 2138
54 807 2431
60 809 2714
66 812 2989
72 815 3257
79 819 3517
84 823 3773
88 826 3977
92 830 4038
96 832 4039
77 1180 2
77 1162 76
79 1154 443
81 1149 832
82 1147 1181
84 1146 1510
85 1145 1823
85 1145 2123
85 1145 2413
84 1146 2693
82 1147 2966
80 1149 3231
77 1150 3490
75 1152 3743
72 1156 3965
69 1158 4036
66 1159 4038
114 1494 3
99 1478 90
88 1470 464
82 1465 840
78 1462 1185
74 1460 1509
69 1458 1817
64 1457 2115
66 1457 2402
70 1457 2680
75 1458 2951
80 1458 3215
84 1459 3472
89 1460 3725
95 1462 3948
100 1464 4034
106 1465 4038
107 1786 2
99 1774 91
96 1767 484
96 1763 855
99 1759 1194
103 1757 1513
107 1755 1819
110 1753 2113
114 1753 2398
116 1752 2675
118 1752 2943
119 1752 3205
119 1752 3461
119 1753 3712
118 1754 3943
118 1754 4035
118 1754 4039
150 2067 4
145 2056 141
141 2051 510
137 2046 871
134 2042 1205
130 2039 1521
128 2037 1823
125 2035 2115
122 2034 2397
118 2033 2671
117 2032 2938
117 2032 3198
117 2032 3453
117 2032 3703
118 2032 3933
119 2032 4034
124 2032 4040
168 2338 3
158 2328 146
151 2323 532
145 2318 888
141 2315 1218
139 2311 1530
139 2309 1830
140 2307 2119
140 2306 2399
142 2304 2672
145 2303 2937
147 2303 3196
150 2302 3449
152 2302 3698
155 2301 3932
156 2301 4038
158 2300 4041
190 2600 4
182 2591 178
179 2586 558
177 2582 908
176 2578 1233
175 2575 1543
174 2572 1840
173 2570 2126
173 2567 2405
173 2566 2675
172 2565 2938
171 2564 3196
169 2563 3448
169 2562 3695
169 2561 3928
168 2560 4035
169 2559 4043
223 2853 7
215 2846 211
209 2841 583
204 2836 927
201 2833 1250
198 2829 1556
195 2827 1850
192 2824 2135
190 2822 2411
188 2820 2680
188 2819 2941
188 2817 3197
189 2817 3448
189 2815 3695
190 2814 3927
190 2812 4041
192 2811 4045
247 3100 10
238 3094 234
232 3089 608
227 3085 948
223 3081 1266
219 3078 1569
218 3075 1862
216 3073 2144
215 3070 2418
214 3069 2685
215 3067 2945
214 3065 3199
216 3064 3450
216 3061 3695
216 3060 3929
216 3058 4040
217 3057 4047
271 3341 14
263 3336 266
259 3331 633
254 3327 968
251 3323 1283
249 3319 1584
246 3316 1873
244 3314 2154
242 3312 2427
241 3310 2692
240 3308 2950
239 3305 3203
238 3303 3452
237 3302 3696
237 3300 3928
236 3299 4044
237 3296 4049
299 3576 15
291 3571 296
286 3567 657
281 3563 989
276 3559 1300
273 3556 1599
270 3553 1886
267 3550 2165
265 3548 2436
263 3545 2699
262 3543 2956
260 3540 3208
260 3538 3455
260 3536 3699
260 3535 3934
260 3533 4045
261 3531 4051
322 3805 41
314 3801 321
309 3797 680
304 3794 1008
300 3790 1317
297 3786 1613
294 3783 1898
292 3780 2175
290 3777 2444
289 3775 2706
287 3772 2962
286 3770 3212
285 3768 3459
284 3766 3701
284 3764 3931
283 3763 4046
284 3760 4052
347 3975 24
339 3975 348
334 3974 702
329 3974 1027
325 3975 1333
322 3976 1627
319 3978 1911
316 3981 2186
313 3983 2453
311 3986 2713
310 3987 2968
308 3984 3217
307 3981 3462
306 3976 3704
305 3972 3937
305 3969 4048
305 3965 4052
370 3998 64
363 4002 376
357 4005 726
352 4007 1046
348 4009 1350
344 4011 1642
342 4012 1923
339 4013 2196
337 4014 2462
335 4015 2721
333 4015 2974
332 4016 3223
330 4017 3467
329 4018 3707
329 4019 3935
328 4020 4047
327 4020 4052
405 2 2
407 2 16
401 2 388
402 2 838
408 2 1227
416 2 1584
427 2 1921
441 2 2244
458 2 2558
477 2 2861
500 2 3159
522 2 3447
542 3 3726
560 3 3974
578 3 4062
596 3 4065
612 3 4065
448 22 2
452 26 33
452 31 435
459 35 872
468 40 1253
473 44 1601
480 48 1930
485 51 2242
490 54 2542
495 56 2831
501 59 3111
505 61 3382
509 63 3646
513 65 3890
517 66 4034
521 67 4057
524 67 4057
437 411 2
426 400 51
416 393 400
412 391 811
413 393 1176
415 396 1516
418 399 1837
420 403 2144
423 407 2441
427 411 2727
430 416 3004
434 420 3275
438 427 3538
442 433 3793
446 440 3991
450 446 4042
455 450 4043
449 813 2
431 798 31
422 789 409
417 786 808
416 786 1167
416 786 1499
417 788 1815
418 789 2118
421 792 2410
423 794 2693
427 797 2968
430 800 3236
433 804 3496
437 807 3752
440 812 3965
444 816 4039
448 819 4040
467 1160 2
449 1143 80
440 1136 430
435 1133 816
433 1130 1166
432 1129 1494
432 1129 1806
432 1129 2105
434 1130 2395
435 1131 2676
436 1133 2948
438 1135 3214
439 1138 3472
441 1141 3726
443 1144 3955
445 1147 4036
448 1149 4040
484 1475 2
468 1460 70
458 1454 451
452 1450 828
449 1447 1173
448 1445 1496
446 1444 1804
447 1443 2101
446 1444 2388
447 1444 2667
448 1445 2937
450 1446 3200
451 1448 3458
453 1449 3710
455 1452 3938
457 1454 4036
459 1455 4041
500 1769 2
487 1758 98
478 1752 474
473 1748 845
469 1745 1182
467 1744 1501
466 1741 1807
466 1740 2100
465 1740 2386
466 1739 2662
466 1740 2930
467 1740 3192
467 1741 3448
468 1742 3699
469 1744 3935
470 1745 4036
471 1745 4042
519 2051 3
508 2042 129
498 2037 499
494 2032 860
490 2029 1195
487 2026 1511
485 2025 1812
484 2023 2104
482 2023 2386
482 2022 2661
481 2022 2928
482 2022 3187
482 2022 3442
482 2023 3692
483 2024 3925
484 2024 4038
485 2024 4044
538 2323 2
528 2314 135
517 2310 523
513 2306 879
509 2302 1208
506 2300 1521
504 2298 1820
503 2296 2109
501 2295 2390
500 2294 2662
500 2293 2927
500 2293 3186
500 2293 3439
500 2293 3688
500 2294 3925
500 2293 4040
501 2293 4047
558 2586 4
548 2578 176
540 2573 550
534 2570 899
530 2566 1224
527 2564 1534
524 2562 1830
522 2560 2117
520 2558 2396
519 2557 2666
518 2556 2929
517 2555 3187
517 2555 3439
516 2555 3687
516 2555 3921
517 2554 4041
517 2553 4049
577 2841 6
567 2834 197
559 2830 574
554 2826 919
549 2823 1241
546 2820 1547
543 2818 1842
541 2816 2127
539 2814 2403
538 2812 2672
537 2811 2933
536 2810 3189
535 2809 3441
535 2808 3687
534 2808 3923
535 2808 4046
534 2806 4052
595 3089 10
586 3083 223
578 3079 600
573 3075 939
569 3072 1258
566 3070 1561
562 3067 1853
560 3065 2137
557 3063 2412
556 3061 2677
555 3059 2938
553 3058 3192
552 3057 3442
551 3056 3688
550 3055 3923
551 3055 4045
551 3053 4055
615 3330 11
605 3325 257
597 3321 624
592 3318 960
587 3315 1276
584 3312 1576
580 3310 1866
578 3307 2147
576 3305 2420
574 3303 2685
572 3301 2944
571 3300 3197
570 3298 3445
570 3297 3690
569 3296 3926
569 3295 4053
569 3294 4057
633 3565 19
624 3562 284
617 3558 649
612 3555 981
607 3552 1293
604 3548 1592
600 3546 1880
598 3543 2159
595 3541 2430
593 3539 2693
591 3537 2950
590 3535 3202
588 3534 3450
587 3533 3693
587 3532 3929
586 3531 4050
586 3529 4059
651 3796 30
642 3793 310
635 3790 672
630 3786 1001
625 3783 1311
622 3780 1606
618 3777 1892
615 3774 2170
612 3772 2439
610 3770 2700
609 3768 2957
607 3766 3207
606 3764 3454
605 3763 3696
604 3762 3931
604 3761 4054
603 3759 4060
668 3971 21
660 3974 336
654 3977 694
649 3980 1021
644 3983 1327
641 3986 1621
637 3988 1905
634 3990 2180
632 3988 2448
630 3984 2708
628 3979 2963
626 3976 3213
625 3973 3458
624 3970 3700
622 3969 3935
622 3967 4053
621 3966 4059
687 4001 68
679 4006 366
672 4010 718
668 4013 1039
663 4015 1344
659 4017 1636
655 4019 1918
652 4020 2191
649 4021 2457
647 4023 2716
645 4024 2970
643 4025 3218
642 4027 3463
641 4029 3704
640 4030 3937
640 4031 4054
639 4031 4060
875 2 2
873 2 19
863 2 400
865 2 844
871 2 1235
882 2 1595
897 2 1938
915 2 2266
932 2 2581
950 2 2884
965 2 3177
980 3 3461
993 3 3736
1004 3 3979
1013 3 4058
1022 3 4061
1028 3 4061
913 41 2
909 44 63
901 43 456
899 45 880
899 47 1252
899 48 1596
899 49 1921
900 50 2230
901 50 2528
901 51 2815
901 50 3092
902 50 3363
902 49 3625
902 49 3871
900 49 4028
902 49 4056
