滤镜资源/Professional Luts Collection/Triune-Digital-Cinematic-LUTs/3D LUTs (3DL)/UTILITY/Panasonic Cine-D to Rec.709/U-PANASONIC-CINE-D-V1-LTR.3dl
# Copyright: (C) Copyright 2016 by IWLTBAP
# Cannot be resold, shared or otherwise redistributed
# Website: http://luts.iwltbap.com
0 256 512 767 1023
2 2 2
2 2 1884
2 2 3594
2 3 4073
2 3 4073
1 1452 2
1 1365 1404
1 1327 3101
0 1300 4039
0 1274 4039
1 2803 1
1 2708 1056
0 2661 2763
0 2622 4041
0 2587 4041
0 3936 0
0 3856 730
0 3806 2460
0 3761 3920
0 3721 4044
0 3998 0
0 4001 403
0 4010 2171
0 4011 3642
0 4010 4043
1797 2 2
1758 2 1751
1783 2 3512
1773 2 4054
1772 2 4054
1259 1217 1
1155 1125 1161
1084 1084 2871
1039 1058 4043
1010 1026 4043
873 2544 1
744 2446 766
679 2399 2499
628 2363 3957
588 2325 4048
514 3687 0
391 3585 405
319 3535 2176
261 3492 3651
213 3451 4050
191 3996 0
82 3998 74
24 4008 1868
15 4012 3354
11 4010 4043
3558 2 2
3482 1 1799
3439 1 3488
3400 0 4030
3385 0 4030
2866 1119 1
2773 1023 1057
2716 981 2773
2664 953 4050
2631 918 4050
2481 2426 0
2382 2329 620
2312 2284 2377
2244 2251 3856
2194 2214 4064
2151 3564 0
2043 3463 218
1958 3421 2042
1855 3384 3529
1795 3346 4072
1833 4010 0
1714 4010 12
1601 4036 1726
1530 4048 3228
1484 4052 4071
4072 2 2
4057 1 1784
4028 0 3448
4027 0 4030
4027 0 4030
4053 1044 0
4047 946 983
4031 902 2702
4016 870 4048
3992 832 4054
3854 2336 0
3760 2238 502
3699 2195 2286
3648 2161 3768
3605 2124 4069
3529 3469 0
3425 3365 121
3365 3328 1934
3304 3291 3429
3254 3254 4079
3218 4021 0
3103 4020 2
3049 4054 1607
2981 4068 3121
2922 4075 4081
4072 2 2
4057 1 1766
4028 0 3425
4027 0 4030
4027 0 4030
4053 987 0
4056 884 920
4050 837 2642
4048 802 4034
4047 762 4053
4059 2261 0
4070 2160 411
4071 2118 2209
4068 2082 3692
4066 2044 4069
4073 3384 0
4076 3276 41
4088 3245 1843
4082 3207 3344
4078 3170 4080
4076 4022 0
4076 4022 0
4094 4063 1506
4091 4079 3031
4086 4087 4087
