滤镜资源/Professional Luts Collection/Triune-Digital-Cinematic-LUTs/3D LUTs (3DL)/UTILITY/Panasonic Cine-D to Rec.709/U-PANASONIC-CINE-D-V2-LTR.3dl
# Copyright: (C) Copyright 2016 by IWLTBAP
# Cannot be resold, shared or otherwise redistributed
# Website: http://luts.iwltbap.com
0 256 512 767 1023
2 2 2
2 2 1269
2 2 2589
2 2 3730
2 3 4073
1 1231 2
1 1196 1230
1 1192 2460
1 1194 3535
1 1198 4039
4 2364 5
3 2337 1237
2 2326 2418
2 2321 3468
3 2318 4040
22 3359 21
13 3339 1295
11 3325 2438
12 3316 3464
14 3307 4044
48 3998 49
63 4006 1358
62 4011 2469
42 4012 3473
25 4011 4044
1276 2 2
1292 2 1275
1342 2 2611
1371 2 3743
1385 3 4057
1191 1149 1
1153 1123 1160
1129 1125 2383
1124 1132 3457
1122 1144 4044
1207 2307 3
1165 2291 1200
1137 2285 2379
1128 2285 3427
1125 2287 4056
1252 3316 11
1198 3305 1266
1172 3296 2410
1163 3292 3436
1160 3289 4066
1294 4008 50
1234 4026 1336
1218 4035 2449
1210 4043 3456
1205 4046 4068
2683 2 2
2647 2 1399
2637 2 2659
2627 1 3744
2618 0 4043
2387 1159 1
2359 1139 1177
2342 1140 2387
2327 1147 3452
2313 1158 4051
2354 2300 4
2334 2288 1207
2311 2283 2377
2291 2284 3420
2271 2287 4065
2363 3302 15
2344 3296 1266
2315 3289 2404
2287 3287 3426
2260 3285 4074
2378 4018 55
2357 4042 1332
2323 4053 2443
2283 4061 3448
2259 4065 4077
3778 3 4
3724 1 1452
3698 1 2677
3662 1 3730
3633 1 4030
3432 1185 3
3405 1169 1211
3386 1170 2406
3373 1175 3463
3365 1182 4057
3371 2307 6
3355 2298 1228
3335 2294 2390
3320 2295 3427
3308 2298 4070
3358 3300 19
3345 3298 1278
3323 3293 2411
3304 3291 3429
3289 3289 4079
3357 4025 67
3344 4053 1341
3321 4066 2449
3301 4074 3452
3285 4078 4084
4071 4 23
4059 3 1472
4044 3 2661
4028 3 3695
4027 2 4031
4053 1216 3
4058 1204 1252
4057 1204 2432
4056 1207 3480
4054 1213 4060
4061 2318 9
4075 2314 1258
4074 2311 2408
4071 2311 3439
4068 2312 4072
4076 3302 39
4089 3305 1299
4086 3301 2424
4082 3299 3438
4079 3297 4081
4084 4029 81
4094 4061 1360
4093 4074 2462
4088 4082 3460
4086 4087 4087
