滤镜资源/Professional Luts Collection/Lutify.me Professional/Utility LUTs/White Balance/2800 Kelvin - 6500 Kelvin - 1.56 CTO.cube
# Created by: Lutify.me
# Copyright: (c) Copyright Lutify.me 2015
# Website: https://lutify.me
LUT_3D_SIZE 9
0.000000 0.000000 0.000000
0.144363 -0.003736 -0.003696
0.282809 -0.013246 -0.013105
0.421256 -0.030207 -0.029885
0.559702 -0.055729 -0.055135
0.698149 -0.073059 -0.073059
0.836595 -0.073059 -0.073059
0.975042 -0.073059 -0.073059
1.113488 -0.073059 -0.073059
0.066272 0.123142 -0.017384
0.167628 0.121599 -0.021081
0.294563 0.117584 -0.030489
0.428620 0.110079 -0.047269
0.564880 0.097791 -0.072519
0.702054 0.078258 -0.073059
0.839682 0.044592 -0.073059
0.977566 -0.011532 -0.073059
1.115605 -0.073059 -0.073059
0.150488 0.246851 -0.061634
0.215249 0.246117 -0.065331
0.322231 0.244237 -0.073059
0.446692 0.240842 -0.073059
0.577793 0.235628 -0.073059
0.711868 0.228256 -0.073059
0.847473 0.218297 -0.073059
0.983951 0.205159 -0.073059
1.120968 0.187945 -0.073059
0.234705 0.370560 -0.073059
0.279078 0.370107 -0.073059
0.365533 0.368950 -0.073059
0.476834 0.366875 -0.073059
0.599949 0.363725 -0.073059
0.728947 0.359349 -0.073059
0.861138 0.353589 -0.073059
0.995205 0.346266 -0.073059
1.130448 0.337169 -0.073059
0.318921 0.494270 -0.073059
0.351366 0.493953 -0.073059
0.420878 0.493144 -0.073059
0.518138 0.491699 -0.073059
0.631437 0.489513 -0.073059
0.753708 0.486494 -0.073059
0.881180 0.482552 -0.073059
1.011828 0.477595 -0.073059
1.144517 0.471523 -0.073059
0.403138 0.617979 -0.073059
0.428094 0.617741 -0.073059
0.484632 0.617133 -0.073059
0.568797 0.616047 -0.073059
0.671595 0.614408 -0.073059
0.786039 0.612151 -0.073059
0.907733 0.609214 -0.073059
1.034059 0.605537 -0.073059
1.163449 0.601059 -0.073059
0.487354 0.741689 -0.073059
0.507300 0.741500 -0.073059
0.554063 0.741021 -0.073059
0.626840 0.740164 -0.073059
0.719352 0.738872 -0.073059
0.825457 0.737096 -0.073059
0.940642 0.734789 -0.073059
1.061916 0.731907 -0.073059
1.187353 0.728409 -0.073059
0.571570 0.865398 -0.073059
0.587986 0.865244 -0.073059
0.627328 0.864852 -0.073059
0.690531 0.864153 -0.073059
0.773503 0.863099 -0.073059
0.871254 0.861650 -0.073059
0.979542 0.859771 -0.073059
1.095245 0.857427 -0.073059
1.216200 0.854586 -0.073059
0.655787 0.989108 -0.073059
0.669610 0.988979 -0.073059
0.703229 0.988650 -0.073059
0.758488 0.988064 -0.073059
0.832903 0.987181 -0.073059
0.922632 0.985969 -0.073059
1.023932 0.984396 -0.073059
1.133762 0.982437 -0.073059
1.249848 0.980065 -0.073059
0.003933 -0.000121 0.062493
0.145735 -0.003857 0.059731
0.283468 -0.013368 0.052242
0.421663 -0.030328 0.036718
0.559987 -0.055850 0.011467
0.698363 -0.073059 -0.023171
0.836765 -0.073059 -0.067994
0.975180 -0.073059 -0.073059
1.113604 -0.073059 -0.073059
0.068994 0.123092 0.048580
0.168805 0.121548 0.045265
0.295190 0.117532 0.036113
0.429019 0.110024 0.019333
0.565162 0.097730 -0.005917
0.702267 0.078183 -0.040555
0.839851 0.044480 -0.073059
0.977704 -0.011653 -0.073059
1.115720 -0.073059 -0.073059
0.151804 0.246827 0.004968
0.216148 0.246093 0.001271
0.322795 0.244213 -0.008137
0.447071 0.240818 -0.024917
0.578067 0.235603 -0.050167
0.712077 0.228230 -0.073059
0.847640 0.218269 -0.073059
0.984088 0.205130 -0.073059
1.121082 0.187913 -0.073059
0.235520 0.370546 -0.073059
0.279747 0.370092 -0.073059
0.366018 0.368935 -0.073059
0.477183 0.366860 -0.073059
0.600209 0.363710 -0.073059
0.729150 0.359334 -0.073059
0.861301 0.353574 -0.073059
0.995340 0.346251 -0.073059
1.130561 0.337152 -0.073059
0.319492 0.494260 -0.073059
0.351875 0.493943 -0.073059
0.421286 0.493134 -0.073059
0.518452 0.491688 -0.073059
0.631681 0.489502 -0.073059
0.753902 0.486484 -0.073059
0.881338 0.482542 -0.073059
1.011960 0.477584 -0.073059
1.144628 0.471512 -0.073059
0.403567 0.617972 -0.073059
0.428493 0.617733 -0.073059
0.484974 0.617125 -0.073059
0.569076 0.616039 -0.073059
0.671821 0.614400 -0.073059
0.786223 0.612143 -0.073059
0.907885 0.609206 -0.073059
1.034187 0.605529 -0.073059
1.163558 0.601051 -0.073059
0.487694 0.741683 -0.073059
0.507622 0.741494 -0.073059
0.554351 0.741015 -0.073059
0.627087 0.740158 -0.073059
0.719558 0.738866 -0.073059
0.825630 0.737090 -0.073059
0.940787 0.734782 -0.073059
1.062039 0.731901 -0.073059
1.187459 0.728402 -0.073059
0.571848 0.865393 -0.073059
0.588254 0.865239 -0.073059
0.627574 0.864847 -0.073059
0.690748 0.864148 -0.073059
0.773691 0.863094 -0.073059
0.871415 0.861645 -0.073059
0.979679 0.859766 -0.073059
1.095364 0.857422 -0.073059
1.216303 0.854580 -0.073059
0.656019 0.989103 -0.073059
0.669837 0.988974 -0.073059
0.703441 0.988646 -0.073059
0.758681 0.988060 -0.073059
0.833074 0.987177 -0.073059
0.922781 0.985964 -0.073059
1.024062 0.984392 -0.073059
1.133875 0.982433 -0.073059
1.249947 0.980060 -0.073059
0.013943 -0.000429 0.144086
0.149170 -0.004165 0.142781
0.285135 -0.013676 0.139405
0.422697 -0.030636 0.133172
0.560712 -0.056158 0.123206
0.698909 -0.073059 0.108111
0.837195 -0.073059 0.085061
0.975532 -0.073059 0.045532
1.113899 -0.073059 -0.021458
0.075572 0.122965 0.137842
0.171763 0.121420 0.136478
0.296780 0.117399 0.132942
0.430031 0.109883 0.126393
0.565878 0.097573 0.115864
0.702808 0.077993 0.099740
0.840279 0.044194 0.074519
0.978054 -0.011961 0.028428
1.116015 -0.073059 -0.038843
0.155101 0.246767 0.120511
0.218416 0.246032 0.118952
0.324225 0.244151 0.114894
0.448032 0.240755 0.107298
0.578762 0.235539 0.094826
0.712609 0.228164 0.074886
0.848063 0.218200 0.039901
0.984436 0.205056 -0.015822
1.121375 0.187831 -0.073059
0.237582 0.370508 0.081579
0.281440 0.370055 0.079353
0.367248 0.368897 0.073440
0.478069 0.366822 0.061826
0.600872 0.363672 0.040448
0.729666 0.359295 0.005810
0.861716 0.353534 -0.039014
0.995682 0.346210 -0.073059
1.130850 0.337110 -0.073059
0.320940 0.494234 -0.023171
0.353165 0.493916 -0.026867
0.422321 0.493108 -0.036276
0.519251 0.491662 -0.053055
0.632302 0.489476 -0.073059
0.754396 0.486457 -0.073059
0.881741 0.482515 -0.073059
1.012295 0.477557 -0.073059
1.144913 0.471484 -0.073059
0.404659 0.617952 -0.073059
0.429507 0.617713 -0.073059
0.485843 0.617105 -0.073059
0.569786 0.616019 -0.073059
0.672395 0.614380 -0.073059
0.786691 0.612123 -0.073059
0.908272 0.609186 -0.073059
1.034512 0.605509 -0.073059
1.163836 0.601031 -0.073059
0.488556 0.741667 -0.073059
0.508443 0.741479 -0.073059
0.555085 0.740999 -0.073059
0.627713 0.740142 -0.073059
0.720083 0.738851 -0.073059
0.826068 0.737074 -0.073059
0.941156 0.734767 -0.073059
1.062354 0.731885 -0.073059
1.187730 0.728387 -0.073059
0.572553 0.865381 -0.073059
0.588934 0.865227 -0.073059
0.628200 0.864835 -0.073059
0.691302 0.864135 -0.073059
0.774168 0.863081 -0.073059
0.871823 0.861632 -0.073059
0.980029 0.859753 -0.073059
1.095665 0.857409 -0.073059
1.216565 0.854568 -0.073059
0.656611 0.989093 -0.073059
0.670412 0.988964 -0.073059
0.703982 0.988635 -0.073059
0.759170 0.988049 -0.073059
0.833507 0.987166 -0.073059
0.923160 0.985954 -0.073059
1.024392 0.984381 -0.073059
1.134163 0.982422 -0.073059
1.250200 0.980050 -0.073059
0.031796 -0.000978 0.225679
0.155103 -0.004715 0.224874
0.288080 -0.014225 0.222812
0.424534 -0.031185 0.219080
0.562001 -0.056708 0.213326
0.699880 -0.073059 0.205139
0.837963 -0.073059 0.193978
0.976160 -0.073059 0.179042
1.114425 -0.073059 0.159014
0.086272 0.122739 0.221867
0.176908 0.121192 0.221047
0.299591 0.117163 0.218944
0.431830 0.109632 0.215137
0.567152 0.097292 0.209261
0.703773 0.077653 0.200891
0.841043 0.043680 0.189455
0.978680 -0.012510 0.174100
1.116539 -0.073059 0.153391
0.160809 0.246659 0.211816
0.222398 0.245924 0.210952
0.326758 0.244042 0.208736
0.449742 0.240644 0.204717
0.580000 0.235426 0.198499
0.713556 0.228046 0.189606
0.848818 0.218076 0.177378
0.985056 0.204923 0.160793
1.121896 0.187685 0.138024
0.241209 0.370442 0.192442
0.284430 0.369988 0.191482
0.369429 0.368830 0.189013
0.479646 0.366755 0.184522
0.602053 0.363604 0.177533
0.730584 0.359226 0.167437
0.862455 0.353464 0.153335
0.996293 0.346138 0.133685
1.131366 0.337036 0.105276
0.323504 0.494187 0.158469
0.355451 0.493870 0.157287
0.424160 0.493061 0.154235
0.520672 0.491615 0.148632
0.633407 0.489429 0.139769
0.755275 0.486409 0.126605
0.882458 0.482467 0.107277
1.012893 0.477508 0.077482
1.145420 0.471435 0.021574
0.406597 0.617917 0.093191
0.431307 0.617678 0.091210
0.487388 0.617070 0.085988
0.571049 0.615984 0.075935
0.673416 0.614345 0.058367
0.787523 0.612087 0.026488
0.908962 0.609150 -0.018336
1.035093 0.605473 -0.073059
1.164332 0.600995 -0.073059
0.490090 0.741639 -0.073059
0.509902 0.741451 -0.073059
0.556391 0.740971 -0.073059
0.628829 0.740115 -0.073059
0.721017 0.738823 -0.073059
0.826849 0.737046 -0.073059
0.941814 0.734739 -0.073059
1.062914 0.731857 -0.073059
1.188213 0.728358 -0.073059
0.573809 0.865358 -0.073059
0.590145 0.865204 -0.073059
0.629315 0.864812 -0.073059
0.692287 0.864113 -0.073059
0.775019 0.863058 -0.073059
0.872551 0.861610 -0.073059
0.980653 0.859730 -0.073059
1.096203 0.857386 -0.073059
1.217033 0.854545 -0.073059
0.657664 0.989074 -0.073059
0.671438 0.988945 -0.073059
0.704944 0.988616 -0.073059
0.760043 0.988030 -0.073059
0.834279 0.987147 -0.073059
0.923835 0.985935 -0.073059
1.024980 0.984362 -0.073059
1.134677 0.982403 -0.073059
1.250651 0.980030 -0.073059
0.056440 -0.001805 0.307271
0.163613 -0.005541 0.306709
0.292446 -0.015052 0.305272
0.427280 -0.032012 0.302690
0.563934 -0.057534 0.298754
0.701339 -0.073059 0.293253
0.839116 -0.073059 0.285949
0.977103 -0.073059 0.276551
1.115216 -0.073059 0.264683
0.100510 0.122399 0.304616
0.184362 0.120846 0.304048
0.303763 0.116807 0.302596
0.434518 0.109252 0.299987
0.569062 0.096869 0.296008
0.705221 0.077139 0.290446
0.842191 0.042900 0.283056
0.979620 -0.013337 0.273541
1.117328 -0.073059 0.261514
0.169019 0.246497 0.297731
0.228243 0.245761 0.297147
0.330525 0.243878 0.295655
0.452298 0.240477 0.292972
0.581857 0.235254 0.288880
0.714979 0.227868 0.283152
0.849952 0.217889 0.275532
0.985988 0.204723 0.265701
1.122680 0.187464 0.253241
0.246552 0.370341 0.284962
0.288861 0.369888 0.284347
0.372682 0.368730 0.282775
0.482006 0.366653 0.279947
0.603823 0.363501 0.275626
0.731964 0.359122 0.269567
0.863566 0.353358 0.261483
0.997211 0.346029 0.251012
1.132141 0.336923 0.237660
0.327316 0.494117 0.264373
0.358859 0.493799 0.263702
0.426908 0.492991 0.261985
0.522801 0.491544 0.258890
0.635066 0.489358 0.254151
0.756596 0.486338 0.247479
0.883535 0.482394 0.238527
1.013791 0.477435 0.226836
1.146183 0.471360 0.211748
0.409492 0.617864 0.232671
0.434000 0.617625 0.231894
0.489701 0.617017 0.229902
0.572943 0.615931 0.226302
0.674949 0.614292 0.220758
0.788774 0.612034 0.212890
0.909998 0.609096 0.202201
1.035965 0.605418 0.187978
1.165078 0.600940 0.169080
0.492388 0.741598 0.182444
0.512088 0.741409 0.181427
0.558348 0.740930 0.178808
0.630504 0.740073 0.174033
0.722421 0.738781 0.166574
0.828023 0.737004 0.155730
0.942803 0.734697 0.140416
1.063756 0.731815 0.118654
1.188939 0.728316 0.085800
0.575691 0.865324 0.083213
0.591961 0.865170 0.081024
0.630988 0.864778 0.075218
0.693766 0.864078 0.063852
0.776296 0.863024 0.043116
0.873645 0.861575 0.008577
0.981590 0.859696 -0.036247
1.097012 0.857351 -0.073059
1.217736 0.854510 -0.073059
0.659245 0.989045 -0.073059
0.672976 0.988916 -0.073059
0.706389 0.988588 -0.073059
0.761353 0.988002 -0.073059
0.835439 0.987119 -0.073059
0.924849 0.985906 -0.073059
1.025864 0.984334 -0.073059
1.135449 0.982374 -0.073059
1.251329 0.980002 -0.073059
0.081539 -0.002939 0.388864
0.174582 -0.006675 0.388441
0.298314 -0.016186 0.387362
0.431011 -0.033146 0.385428
0.566571 -0.058669 0.382496
0.703333 -0.073059 0.378428
0.840695 -0.073059 0.373084
0.978395 -0.073059 0.366307
1.116300 -0.073059 0.357916
0.117489 0.121929 0.386870
0.194087 0.120372 0.386444
0.309378 0.116316 0.385358
0.438173 0.108730 0.383413
0.571670 0.096285 0.380461
0.707201 0.076429 0.376367
0.843762 0.041815 0.370986
0.980907 -0.014471 0.364161
1.118409 -0.073059 0.355708
0.179639 0.246274 0.381737
0.235997 0.245538 0.381304
0.335611 0.243652 0.380200
0.455777 0.240248 0.378222
0.584392 0.235019 0.375221
0.716924 0.227624 0.371055
0.851504 0.217633 0.365579
0.987264 0.204448 0.358628
1.123754 0.187162 0.350013
0.253673 0.370204 0.372367
0.294812 0.369750 0.371921
0.377088 0.368591 0.370783
0.485219 0.366514 0.368743
0.606241 0.363360 0.365646
0.733851 0.358979 0.361346
0.865086 0.353212 0.355686
0.998468 0.345879 0.348495
1.133203 0.336769 0.339568
0.332460 0.494020 0.357699
0.363470 0.493703 0.357231
0.430644 0.492894 0.356035
0.525703 0.491447 0.353891
0.637333 0.489260 0.350634
0.758404 0.486240 0.346106
0.885011 0.482295 0.340139
1.015021 0.477335 0.332539
1.147228 0.471258 0.323077
0.413423 0.617792 0.336304
0.437660 0.617553 0.335799
0.492852 0.616945 0.334511
0.575528 0.615858 0.332197
0.677044 0.614219 0.328680
0.790486 0.611961 0.323780
0.911417 0.609022 0.317303
1.037161 0.605344 0.309026
1.166101 0.600865 0.298668
0.495517 0.741541 0.305915
0.515067 0.741352 0.305350
0.561019 0.740872 0.303906
0.632791 0.740015 0.301309
0.724340 0.738724 0.297352
0.829630 0.736947 0.291819
0.944158 0.734639 0.284472
1.064911 0.731756 0.275014
1.189934 0.728257 0.263066
0.578260 0.865277 0.262248
0.594441 0.865123 0.261571
0.633273 0.864731 0.259838
0.695789 0.864032 0.256713
0.778044 0.862977 0.251926
0.875142 0.861528 0.245185
0.982874 0.859649 0.236134
1.098119 0.857304 0.224300
1.218699 0.854462 0.209007
0.661405 0.989006 0.194545
0.675080 0.988877 0.193596
0.708365 0.988549 0.191157
0.763146 0.987963 0.186722
0.837027 0.987080 0.179825
0.926238 0.985867 0.169874
1.027075 0.984294 0.156003
1.136507 0.982335 0.136742
1.252258 0.979962 0.109098
0.106638 -0.004407 0.470456
0.187771 -0.008143 0.470123
0.305710 -0.017653 0.469271
0.435780 -0.034614 0.467749
0.569961 -0.060136 0.465446
0.705903 -0.073059 0.462263
0.842732 -0.073059 0.458103
0.980063 -0.073059 0.452864
1.117701 -0.073059 0.446438
0.136483 0.121320 0.468884
0.205932 0.119754 0.468549
0.316469 0.115678 0.467694
0.442847 0.108050 0.466165
0.575021 0.095525 0.463852
0.709753 0.075502 0.460655
0.845790 0.040385 0.456477
0.982570 -0.015938 0.451215
1.119806 -0.073059 0.444758
0.192457 0.245985 0.464850
0.245621 0.245248 0.464512
0.342057 0.243360 0.463647
0.460229 0.239951 0.462102
0.587651 0.234715 0.459763
0.719431 0.227308 0.456530
0.853508 0.217301 0.452304
0.988913 0.204092 0.446981
1.125143 0.186770 0.440447
0.262561 0.370026 0.457547
0.302310 0.369571 0.457201
0.382699 0.368412 0.456320
0.489339 0.366333 0.454742
0.609351 0.363178 0.452356
0.736283 0.358794 0.449057
0.867048 0.353023 0.444742
1.000093 0.345686 0.439304
1.134576 0.336569 0.432625
0.338979 0.493896 0.446273
0.369334 0.493578 0.445916
0.435418 0.492769 0.445007
0.529430 0.491322 0.443379
0.640250 0.489134 0.440916
0.760734 0.486112 0.437509
0.886915 0.482167 0.433050
1.016610 0.477204 0.427426
1.148578 0.471126 0.420512
0.418442 0.617698 0.430205
0.442341 0.617459 0.429831
0.496892 0.616851 0.428879
0.578851 0.615764 0.427175
0.679744 0.614124 0.424594
0.792694 0.611866 0.421022
0.913249 0.608927 0.416343
1.038705 0.605248 0.410434
1.167422 0.600768 0.403157
0.499530 0.741467 0.408235
0.518890 0.741278 0.407836
0.564452 0.740798 0.406820
0.635736 0.739941 0.405000
0.726814 0.738649 0.402243
0.831702 0.736872 0.398421
0.945907 0.734564 0.393408
1.066402 0.731681 0.387064
1.191220 0.728181 0.379232
0.581564 0.865217 0.378704
0.597630 0.865063 0.378267
0.636215 0.864671 0.377152
0.698395 0.863971 0.375154
0.780298 0.862917 0.372123
0.877075 0.861468 0.367914
0.984533 0.859588 0.362380
1.099551 0.857243 0.355353
1.219945 0.854401 0.346639
0.664187 0.988956 0.338801
0.677790 0.988827 0.338300
0.710911 0.988498 0.337023
0.765457 0.987912 0.334731
0.839076 0.987029 0.331246
0.928032 0.985816 0.326392
1.028640 0.984243 0.319979
1.137874 0.982283 0.311786
1.253459 0.979911 0.301541
0.131737 -0.006231 0.552049
0.202883 -0.009967 0.551776
0.314618 -0.019478 0.551081
0.441621 -0.036438 0.549839
0.574140 -0.061960 0.547963
0.709081 -0.073059 0.545376
0.845256 -0.073059 0.542005
0.982132 -0.073059 0.537777
1.119438 -0.073059 0.532616
0.156928 0.120558 0.550765
0.219683 0.118983 0.550491
0.325028 0.114881 0.549794
0.448573 0.107199 0.548548
0.579154 0.094573 0.546667
0.712908 0.074337 0.544072
0.848302 0.038561 0.540691
0.984632 -0.017763 0.536449
1.121540 -0.073059 0.531272
0.207197 0.245625 0.547479
0.257013 0.244887 0.547203
0.349872 0.242996 0.546501
0.465690 0.239581 0.545245
0.591671 0.234335 0.543349
0.722532 0.226915 0.540734
0.855990 0.216887 0.537326
0.990957 0.203648 0.533051
1.126865 0.186281 0.527830
0.273145 0.369804 0.541556
0.311334 0.369349 0.541276
0.389537 0.368189 0.540564
0.494400 0.366109 0.539291
0.613190 0.362951 0.537368
0.739292 0.358564 0.534716
0.869480 0.352788 0.531258
1.002107 0.345445 0.526920
1.136279 0.336320 0.521622
0.346877 0.493741 0.532484
0.376469 0.493423 0.532198
0.441264 0.492614 0.531470
0.534016 0.491166 0.530169
0.643854 0.488977 0.528204
0.763619 0.485954 0.525493
0.889275 0.482007 0.521958
1.018581 0.477043 0.517521
1.150254 0.470962 0.512099
0.424579 0.617581 0.519710
0.448075 0.617343 0.519416
0.501858 0.616734 0.518665
0.582949 0.615647 0.517323
0.683081 0.614007 0.515296
0.795428 0.611748 0.512498
0.915520 0.608808 0.508848
1.040621 0.605128 0.504264
1.169062 0.600647 0.498660
0.504463 0.741375 0.502566
0.523594 0.741186 0.502258
0.568683 0.740706 0.501475
0.639372 0.739849 0.500075
0.729874 0.738557 0.497958
0.834270 0.736779 0.495036
0.948075 0.734471 0.491222
1.068251 0.731587 0.486428
1.192816 0.728087 0.480559
0.585637 0.865142 0.480166
0.601565 0.864988 0.479840
0.639847 0.864596 0.479011
0.701617 0.863896 0.477527
0.783089 0.862841 0.475283
0.879470 0.861392 0.472183
0.986589 0.859512 0.468133
1.101327 0.857167 0.463037
1.221491 0.854325 0.456789
0.667624 0.988893 0.451240
0.681139 0.988764 0.450888
0.714061 0.988435 0.449991
0.768319 0.987849 0.448386
0.841614 0.986966 0.445957
0.930255 0.985753 0.442598
1.030580 0.984180 0.438204
1.139571 0.982220 0.432664
1.254950 0.979847 0.425855
0.156836 -0.008433 0.633642
0.219619 -0.012170 0.633413
0.324987 -0.021680 0.632831
0.448546 -0.038640 0.631791
0.579134 -0.064163 0.630221
0.712893 -0.073059 0.628060
0.848290 -0.073059 0.625249
0.984622 -0.073059 0.621732
1.121531 -0.073059 0.617451
0.178419 0.119632 0.632566
0.235095 0.118045 0.632337
0.335014 0.113911 0.631753
0.455367 0.106164 0.630711
0.584093 0.093412 0.629138
0.716694 0.072911 0.626972
0.851321 0.036358 0.624155
0.987113 -0.019965 0.620629
1.123627 -0.073059 0.616339
0.223575 0.245190 0.629817
0.270035 0.244450 0.629586
0.359035 0.242555 0.628999
0.472178 0.239133 0.627951
0.596478 0.233876 0.626369
0.726253 0.226439 0.624191
0.858974 0.216386 0.621357
0.993418 0.203111 0.617812
1.128940 0.185688 0.613496
0.285318 0.369536 0.624875
0.321829 0.369081 0.624642
0.397600 0.367920 0.624049
0.500425 0.365838 0.622990
0.617783 0.362677 0.621392
0.742904 0.358286 0.619191
0.872403 0.352505 0.616328
1.004531 0.345154 0.612745
1.138331 0.336020 0.608383
0.356133 0.493554 0.617342
0.384869 0.493236 0.617106
0.448196 0.492426 0.616503
0.539488 0.490978 0.615428
0.648170 0.488788 0.613804
0.767082 0.485763 0.611568
0.892113 0.481814 0.608659
1.020954 0.476847 0.605017
1.152272 0.470763 0.600583
0.431845 0.617441 0.606812
0.454878 0.617202 0.606571
0.507771 0.616593 0.605955
0.587847 0.615506 0.604855
0.687081 0.613865 0.603195
0.798712 0.611605 0.600908
0.918252 0.608665 0.597932
1.042927 0.604984 0.594206
1.171037 0.600501 0.589667
0.510338 0.741263 0.592828
0.529202 0.741075 0.592579
0.573737 0.740595 0.591945
0.643727 0.739738 0.590811
0.733546 0.738445 0.589100
0.837356 0.736667 0.586742
0.950683 0.734358 0.583673
1.070479 0.731474 0.579829
1.194739 0.727973 0.575145
0.590507 0.865051 0.574831
0.606272 0.864897 0.574572
0.644198 0.864505 0.573912
0.705482 0.863805 0.572733
0.786441 0.862750 0.570952
0.882349 0.861301 0.568498
0.989064 0.859420 0.565302
1.103466 0.857075 0.561296
1.223354 0.854232 0.556411
0.671744 0.988816 0.552096
0.685154 0.988687 0.551824
0.717838 0.988359 0.551129
0.771754 0.987773 0.549887
0.844665 0.986889 0.548011
0.932930 0.985676 0.545424
1.032916 0.984103 0.542054
1.141615 0.982143 0.537826
1.256747 0.979770 0.532665
