滤镜资源/Professional Luts Collection/Lutify.me Professional/Utility LUTs/White Balance/2800 Kelvin - 5500 Kelvin - 1.34 CTO.cube
# Created by: Lutify.me
# Copyright: (c) Copyright Lutify.me 2015
# Website: https://lutify.me
LUT_3D_SIZE 33
0.000000 0.000000 0.000000
0.038538 -0.000498 -0.000556
0.073224 -0.001061 -0.001186
0.107326 -0.001868 -0.002089
0.141429 -0.002953 -0.003301
0.175531 -0.004336 -0.004848
0.209633 -0.006038 -0.006751
0.243735 -0.008077 -0.009030
0.277837 -0.010469 -0.011705
0.311939 -0.013230 -0.014792
0.346042 -0.016376 -0.018309
0.380144 -0.019919 -0.022271
0.414246 -0.023873 -0.026692
0.448348 -0.028251 -0.031586
0.482450 -0.033064 -0.036968
0.516553 -0.038325 -0.042850
0.550655 -0.044044 -0.049244
0.584757 -0.050232 -0.056163
0.618859 -0.056899 -0.063618
0.652961 -0.064057 -0.071621
0.687064 -0.071713 -0.073059
0.721166 -0.073059 -0.073059
0.755268 -0.073059 -0.073059
0.789370 -0.073059 -0.073059
0.823472 -0.073059 -0.073059
0.857574 -0.073059 -0.073059
0.891677 -0.073059 -0.073059
0.925779 -0.073059 -0.073059
0.959881 -0.073059 -0.073059
0.993983 -0.073059 -0.073059
1.028085 -0.073059 -0.073059
1.062188 -0.073059 -0.073059
1.096290 -0.073059 -0.073059
0.009580 0.031066 -0.002670
0.047610 0.030568 -0.003227
0.079255 0.030005 -0.003856
0.111722 0.029198 -0.004759
0.144817 0.028113 -0.005972
0.178249 0.026730 -0.007518
0.211879 0.025028 -0.009421
0.245633 0.022989 -0.011701
0.279471 0.020597 -0.014375
0.313365 0.017836 -0.017463
0.347301 0.014690 -0.020979
0.381268 0.011147 -0.024941
0.415258 0.007193 -0.029362
0.449266 0.002815 -0.034257
0.483287 -0.001998 -0.039638
0.517321 -0.007259 -0.045520
0.551363 -0.012978 -0.051914
0.585413 -0.019166 -0.058833
0.619469 -0.025833 -0.066288
0.653531 -0.032991 -0.073059
0.687597 -0.040648 -0.073059
0.721666 -0.048813 -0.073059
0.755739 -0.057497 -0.073059
0.789815 -0.066707 -0.073059
0.823893 -0.073059 -0.073059
0.857974 -0.073059 -0.073059
0.892056 -0.073059 -0.073059
0.926140 -0.073059 -0.073059
0.960225 -0.073059 -0.073059
0.994312 -0.073059 -0.073059
1.028399 -0.073059 -0.073059
1.062488 -0.073059 -0.073059
1.096578 -0.073059 -0.073059
0.020421 0.062211 -0.005692
0.056675 0.061843 -0.006248
0.085652 0.061425 -0.006878
0.116507 0.060822 -0.007781
0.148557 0.060004 -0.008993
0.181273 0.058950 -0.010540
0.214389 0.057634 -0.012443
0.247762 0.056028 -0.014722
0.281306 0.054101 -0.017397
0.314970 0.051816 -0.020484
0.348720 0.049127 -0.024001
0.382535 0.045976 -0.027963
0.416399 0.042289 -0.032384
0.450301 0.037968 -0.037278
0.484232 0.033155 -0.042660
0.518188 0.027894 -0.048542
0.552163 0.022175 -0.054936
0.586154 0.015987 -0.061855
0.620159 0.009319 -0.069310
0.654174 0.002162 -0.073059
0.688199 -0.005495 -0.073059
0.722232 -0.013660 -0.073059
0.756272 -0.022344 -0.073059
0.790318 -0.031555 -0.073059
0.824369 -0.041301 -0.073059
0.858425 -0.051592 -0.073059
0.892485 -0.062436 -0.073059
0.926548 -0.073059 -0.073059
0.960614 -0.073059 -0.073059
0.994683 -0.073059 -0.073059
1.028755 -0.073059 -0.073059
1.062829 -0.073059 -0.073059
1.096904 -0.073059 -0.073059
0.035965 0.093384 -0.010024
0.068111 0.093120 -0.010581
0.094169 0.092820 -0.011211
0.123059 0.092389 -0.012114
0.153757 0.091807 -0.013326
0.185516 0.091060 -0.014873
0.217932 0.090134 -0.016775
0.250777 0.089013 -0.019055
0.283912 0.087682 -0.021729
0.317253 0.086123 -0.024817
0.350743 0.084318 -0.028334
0.384343 0.082245 -0.032295
0.418029 0.079879 -0.036716
0.451780 0.077189 -0.041611
0.485583 0.074140 -0.046993
0.519429 0.070688 -0.052874
0.553308 0.066778 -0.059269
0.587215 0.062339 -0.066188
0.621146 0.057277 -0.073059
0.655096 0.051461 -0.073059
0.689062 0.044702 -0.073059
0.723043 0.036745 -0.073059
0.757036 0.028061 -0.073059
0.791039 0.018851 -0.073059
0.825051 0.009104 -0.073059
0.859072 -0.001187 -0.073059
0.893099 -0.012031 -0.073059
0.927133 -0.023436 -0.073059
0.961172 -0.035409 -0.073059
0.995216 -0.047960 -0.073059
1.029264 -0.061094 -0.073059
1.063316 -0.073059 -0.073059
1.097372 -0.073059 -0.073059
0.054983 0.124557 -0.015842
0.081456 0.124355 -0.016399
0.104635 0.124126 -0.017029
0.131359 0.123797 -0.017931
0.160467 0.123353 -0.019144
0.191054 0.122785 -0.020690
0.222591 0.122083 -0.022593
0.254762 0.121236 -0.024873
0.287369 0.120235 -0.027547
0.320289 0.119070 -0.030635
0.353436 0.117729 -0.034152
0.386755 0.116201 -0.038113
0.420205 0.114473 -0.042534
0.453757 0.112531 -0.047429
0.487390 0.110358 -0.052810
0.521089 0.107937 -0.058692
0.554840 0.105246 -0.065087
0.588636 0.102262 -0.072005
0.622468 0.098955 -0.073059
0.656330 0.095290 -0.073059
0.690219 0.091226 -0.073059
0.724130 0.086711 -0.073059
0.758059 0.081676 -0.073059
0.792006 0.076036 -0.073059
0.825966 0.069671 -0.073059
0.859939 0.062416 -0.073059
0.893923 0.054022 -0.073059
0.927917 0.044088 -0.073059
0.961920 0.032275 -0.073059
0.995930 0.019725 -0.073059
1.029947 0.006590 -0.073059
1.063970 -0.007137 -0.073059
1.097999 -0.021463 -0.073059
0.074077 0.155731 -0.023264
0.096197 0.155569 -0.023820
0.116729 0.155386 -0.024450
0.141249 0.155123 -0.025353
0.168623 0.154770 -0.026565
0.197874 0.154317 -0.028112
0.228379 0.153759 -0.030015
0.259743 0.153087 -0.032294
0.291709 0.152295 -0.034969
0.324112 0.151376 -0.038056
0.356837 0.150321 -0.041573
0.389805 0.149124 -0.045534
0.422961 0.147777 -0.049955
0.456263 0.146270 -0.054850
0.489683 0.144595 -0.060232
0.523196 0.142741 -0.066113
0.556787 0.140698 -0.072508
0.590442 0.138454 -0.073059
0.624149 0.135993 -0.073059
0.657901 0.133302 -0.073059
0.691691 0.130362 -0.073059
0.725513 0.127153 -0.073059
0.759362 0.123651 -0.073059
0.793236 0.119829 -0.073059
0.827131 0.115652 -0.073059
0.861044 0.111081 -0.073059
0.894973 0.106066 -0.073059
0.928917 0.100544 -0.073059
0.962873 0.094434 -0.073059
0.996840 0.087630 -0.073059
1.030818 0.079986 -0.073059
1.064804 0.071289 -0.073059
1.098799 0.061214 -0.073059
0.093171 0.186904 -0.032395
0.111949 0.186771 -0.032951
0.130142 0.186620 -0.033581
0.152533 0.186403 -0.034484
0.178119 0.186112 -0.035696
0.205927 0.185740 -0.037243
0.235281 0.185281 -0.039146
0.265724 0.184730 -0.041425
0.296947 0.184081 -0.044100
0.328743 0.183329 -0.047187
0.360967 0.182467 -0.050704
0.393518 0.181492 -0.054665
0.426321 0.180397 -0.059086
0.459323 0.179176 -0.063981
0.492485 0.177824 -0.069363
0.525775 0.176333 -0.073059
0.559171 0.174696 -0.073059
0.592654 0.172907 -0.073059
0.626210 0.170957 -0.073059
0.659827 0.168837 -0.073059
0.693496 0.166538 -0.073059
0.727210 0.164048 -0.073059
0.760962 0.161357 -0.073059
0.794747 0.158449 -0.073059
0.828561 0.155311 -0.073059
0.862401 0.151925 -0.073059
0.896263 0.148271 -0.073059
0.930145 0.144327 -0.073059
0.964044 0.140064 -0.073059
0.997959 0.135451 -0.073059
1.031887 0.130449 -0.073059
1.065829 0.125013 -0.073059
1.099781 0.119082 -0.073059
0.112265 0.218077 -0.043333
0.128434 0.217965 -0.043889
0.144604 0.217837 -0.044519
0.165011 0.217655 -0.045422
0.188825 0.217409 -0.046634
0.215138 0.217096 -0.048181
0.243258 0.216709 -0.050084
0.272689 0.216246 -0.052363
0.303081 0.215700 -0.055038
0.334190 0.215068 -0.058125
0.365841 0.214345 -0.061642
0.397909 0.213528 -0.065603
0.430303 0.212613 -0.070024
0.462956 0.211593 -0.073059
0.495815 0.210467 -0.073059
0.528843 0.209227 -0.073059
0.562009 0.207871 -0.073059
0.595290 0.206392 -0.073059
0.628667 0.204785 -0.073059
0.662124 0.203044 -0.073059
0.695650 0.201164 -0.073059
0.729236 0.199137 -0.073059
0.762872 0.196957 -0.073059
0.796552 0.194615 -0.073059
0.830270 0.192102 -0.073059
0.864023 0.189410 -0.073059
0.897805 0.186528 -0.073059
0.931613 0.183444 -0.073059
0.965444 0.180144 -0.073059
0.999296 0.176615 -0.073059
1.033167 0.172839 -0.073059
1.067055 0.168796 -0.073059
1.100957 0.164466 -0.073059
0.131359 0.249250 -0.056168
0.145456 0.249154 -0.056724
0.159894 0.249044 -0.057354
0.178492 0.248887 -0.058257
0.200604 0.248677 -0.059469
0.225415 0.248407 -0.061016
0.252253 0.248076 -0.062918
0.280606 0.247678 -0.065198
0.310096 0.247210 -0.067873
0.340448 0.246668 -0.070960
0.371461 0.246050 -0.073059
0.402988 0.245351 -0.073059
0.434919 0.244568 -0.073059
0.467173 0.243699 -0.073059
0.499688 0.242738 -0.073059
0.532415 0.241684 -0.073059
0.565317 0.240531 -0.073059
0.598364 0.239277 -0.073059
0.631534 0.237917 -0.073059
0.664807 0.236448 -0.073059
0.698168 0.234864 -0.073059
0.731604 0.233162 -0.073059
0.765105 0.231336 -0.073059
0.798663 0.229382 -0.073059
0.832270 0.227292 -0.073059
0.865920 0.225063 -0.073059
0.899609 0.222686 -0.073059
0.933331 0.220156 -0.073059
0.967084 0.217464 -0.073059
1.000863 0.214601 -0.073059
1.034666 0.211559 -0.073059
1.068490 0.208327 -0.073059
1.102334 0.204893 -0.073059
0.150454 0.280423 -0.070983
0.162878 0.280339 -0.071540
0.175836 0.280244 -0.072169
0.192810 0.280107 -0.073059
0.213319 0.279923 -0.073059
0.236657 0.279688 -0.073059
0.262198 0.279399 -0.073059
0.289432 0.279053 -0.073059
0.317966 0.278645 -0.073059
0.347503 0.278174 -0.073059
0.377822 0.277636 -0.073059
0.408753 0.277028 -0.073059
0.440172 0.276349 -0.073059
0.471983 0.275594 -0.073059
0.504112 0.274761 -0.073059
0.536500 0.273847 -0.073059
0.569104 0.272850 -0.073059
0.601888 0.271766 -0.073059
0.634823 0.270593 -0.073059
0.667886 0.269327 -0.073059
0.701059 0.267964 -0.073059
0.734325 0.266502 -0.073059
0.767672 0.264938 -0.073059
0.801091 0.263266 -0.073059
0.834570 0.261484 -0.073059
0.868104 0.259587 -0.073059
0.901686 0.257570 -0.073059
0.935310 0.255429 -0.073059
0.968972 0.253159 -0.073059
1.002667 0.250754 -0.073059
1.036392 0.248209 -0.073059
1.070145 0.245516 -0.073059
1.103922 0.242670 -0.073059
0.169548 0.311597 -0.073059
0.180603 0.311522 -0.073059
0.192296 0.311438 -0.073059
0.207823 0.311317 -0.073059
0.226844 0.311155 -0.073059
0.248765 0.310948 -0.073059
0.273018 0.310693 -0.073059
0.299114 0.310387 -0.073059
0.326656 0.310027 -0.073059
0.355335 0.309612 -0.073059
0.384911 0.309138 -0.073059
0.415201 0.308603 -0.073059
0.446063 0.308004 -0.073059
0.477388 0.307340 -0.073059
0.509091 0.306608 -0.073059
0.541106 0.305805 -0.073059
0.573380 0.304930 -0.073059
0.605870 0.303979 -0.073059
0.638543 0.302951 -0.073059
0.671371 0.301843 -0.073059
0.704333 0.300652 -0.073059
0.737408 0.299375 -0.073059
0.770583 0.298011 -0.073059
0.803844 0.296556 -0.073059
0.837181 0.295006 -0.073059
0.870583 0.293360 -0.073059
0.904044 0.291613 -0.073059
0.937557 0.289763 -0.073059
0.971116 0.287805 -0.073059
1.004717 0.285736 -0.073059
1.038354 0.283552 -0.073059
1.072025 0.281248 -0.073059
1.105726 0.278819 -0.073059
0.188642 0.342770 -0.073059
0.198562 0.342703 -0.073059
0.209168 0.342628 -0.073059
0.223410 0.342520 -0.073059
0.241065 0.342376 -0.073059
0.261642 0.342191 -0.073059
0.284637 0.341964 -0.073059
0.309594 0.341691 -0.073059
0.336124 0.341371 -0.073059
0.363913 0.341001 -0.073059
0.392710 0.340578 -0.073059
0.422318 0.340102 -0.073059
0.452584 0.339569 -0.073059
0.483386 0.338978 -0.073059
0.514628 0.338327 -0.073059
0.546235 0.337614 -0.073059
0.578147 0.336837 -0.073059
0.610315 0.335993 -0.073059
0.642700 0.335081 -0.073059
0.675270 0.334099 -0.073059
0.707998 0.333044 -0.073059
0.740862 0.331915 -0.073059
0.773845 0.330709 -0.073059
0.806931 0.329424 -0.073059
0.840108 0.328058 -0.073059
0.873364 0.326608 -0.073059
0.906691 0.325071 -0.073059
0.940080 0.323446 -0.073059
0.973525 0.321729 -0.073059
1.007019 0.319918 -0.073059
1.040558 0.318009 -0.073059
1.074138 0.315999 -0.073059
1.107753 0.313885 -0.073059
0.207736 0.373943 -0.073059
0.216702 0.373883 -0.073059
0.226372 0.373816 -0.073059
0.239476 0.373719 -0.073059
0.255883 0.373588 -0.073059
0.275196 0.373422 -0.073059
0.296980 0.373218 -0.073059
0.320813 0.372973 -0.073059
0.346326 0.372685 -0.073059
0.373205 0.372352 -0.073059
0.401195 0.371972 -0.073059
0.430090 0.371544 -0.073059
0.459726 0.371066 -0.073059
0.489970 0.370535 -0.073059
0.520719 0.369951 -0.073059
0.551888 0.369311 -0.073059
0.583409 0.368614 -0.073059
0.615228 0.367858 -0.073059
0.647299 0.367041 -0.073059
0.679586 0.366161 -0.073059
0.712059 0.365217 -0.073059
0.744692 0.364208 -0.073059
0.777464 0.363130 -0.073059
0.810358 0.361983 -0.073059
0.843359 0.360764 -0.073059
0.876454 0.359472 -0.073059
0.909633 0.358104 -0.073059
0.942885 0.356659 -0.073059
0.976203 0.355134 -0.073059
1.009581 0.353526 -0.073059
1.043011 0.351835 -0.073059
1.076489 0.350056 -0.073059
1.110010 0.348188 -0.073059
0.226830 0.405116 -0.073059
0.234987 0.405062 -0.073059
0.243845 0.405001 -0.073059
0.255939 0.404913 -0.073059
0.271212 0.404795 -0.073059
0.289348 0.404644 -0.073059
0.309973 0.404459 -0.073059
0.332711 0.404237 -0.073059
0.357212 0.403976 -0.073059
0.383173 0.403674 -0.073059
0.410338 0.403331 -0.073059
0.438496 0.402943 -0.073059
0.467474 0.402510 -0.073059
0.497133 0.402030 -0.073059
0.527360 0.401501 -0.073059
0.558062 0.400923 -0.073059
0.589165 0.400292 -0.073059
0.620608 0.399609 -0.073059
0.652342 0.398871 -0.073059
0.684324 0.398076 -0.073059
0.716520 0.397225 -0.073059
0.748902 0.396314 -0.073059
0.781445 0.395342 -0.073059
0.814130 0.394309 -0.073059
0.846940 0.393211 -0.073059
0.879859 0.392049 -0.073059
0.912875 0.390819 -0.073059
0.945978 0.389520 -0.073059
0.979157 0.388151 -0.073059
1.012406 0.386709 -0.073059
1.045717 0.385194 -0.073059
1.079084 0.383602 -0.073059
1.112502 0.381932 -0.073059
0.245925 0.436289 -0.073059
0.253387 0.436240 -0.073059
0.261537 0.436184 -0.073059
0.272735 0.436104 -0.073059
0.286978 0.435996 -0.073059
0.304022 0.435859 -0.073059
0.323550 0.435690 -0.073059
0.345229 0.435487 -0.073059
0.368735 0.435249 -0.073059
0.393779 0.434974 -0.073059
0.420109 0.434661 -0.073059
0.447513 0.434308 -0.073059
0.475812 0.433913 -0.073059
0.504861 0.433476 -0.073059
0.534540 0.432994 -0.073059
0.564751 0.432467 -0.073059
0.595412 0.431893 -0.073059
0.626456 0.431271 -0.073059
0.657829 0.430599 -0.073059
0.689484 0.429877 -0.073059
0.721384 0.429103 -0.073059
0.753495 0.428275 -0.073059
0.785792 0.427392 -0.073059
0.818252 0.426454 -0.073059
0.850854 0.425458 -0.073059
0.883582 0.424403 -0.073059
0.916423 0.423288 -0.073059
0.949363 0.422112 -0.073059
0.982392 0.420872 -0.073059
1.015501 0.419568 -0.073059
1.048682 0.418198 -0.073059
1.081928 0.416760 -0.073059
1.115233 0.415252 -0.073059
0.265019 0.467462 -0.073059
0.271881 0.467417 -0.073059
0.279411 0.467366 -0.073059
0.289811 0.467292 -0.073059
0.303121 0.467194 -0.073059
0.319154 0.467068 -0.073059
0.337648 0.466912 -0.073059
0.358311 0.466727 -0.073059
0.380847 0.466508 -0.073059
0.404983 0.466256 -0.073059
0.430477 0.465969 -0.073059
0.457115 0.465645 -0.073059
0.484720 0.465284 -0.073059
0.513140 0.464883 -0.073059
0.542251 0.464441 -0.073059
0.571948 0.463958 -0.073059
0.602144 0.463433 -0.073059
0.632768 0.462863 -0.073059
0.663759 0.462248 -0.073059
0.695067 0.461587 -0.073059
0.726651 0.460878 -0.073059
0.758475 0.460121 -0.073059
0.790508 0.459314 -0.073059
0.822725 0.458456 -0.073059
0.855104 0.457546 -0.073059
0.887628 0.456583 -0.073059
0.920279 0.455565 -0.073059
0.953044 0.454492 -0.073059
0.985911 0.453361 -0.073059
1.018869 0.452173 -0.073059
1.051910 0.450925 -0.073059
1.085025 0.449616 -0.073059
1.118207 0.448244 -0.073059
0.284113 0.498636 -0.073059
0.290453 0.498594 -0.073059
0.297436 0.498547 -0.073059
0.307123 0.498479 -0.073059
0.319586 0.498388 -0.073059
0.334688 0.498272 -0.073059
0.352212 0.498129 -0.073059
0.371904 0.497957 -0.073059
0.393500 0.497756 -0.073059
0.416745 0.497524 -0.073059
0.441406 0.497259 -0.073059
0.467276 0.496961 -0.073059
0.494176 0.496627 -0.073059
0.521953 0.496258 -0.073059
0.550478 0.495851 -0.073059
0.579643 0.495407 -0.073059
0.609355 0.494922 -0.073059
0.639539 0.494398 -0.073059
0.670129 0.493832 -0.073059
0.701072 0.493223 -0.073059
0.732322 0.492572 -0.073059
0.763840 0.491875 -0.073059
0.795592 0.491133 -0.073059
0.827552 0.490345 -0.073059
0.859694 0.489508 -0.073059
0.891999 0.488623 -0.073059
0.924447 0.487689 -0.073059
0.957025 0.486704 -0.073059
0.989718 0.485666 -0.073059
1.022514 0.484576 -0.073059
1.055404 0.483432 -0.073059
1.088378 0.482232 -0.073059
1.121429 0.480976 -0.073059
0.303207 0.529809 -0.073059
0.309088 0.529770 -0.073059
0.315587 0.529726 -0.073059
0.324635 0.529663 -0.073059
0.336330 0.529579 -0.073059
0.350573 0.529472 -0.073059
0.367190 0.529339 -0.073059
0.385961 0.529181 -0.073059
0.406652 0.528994 -0.073059
0.429026 0.528779 -0.073059
0.452865 0.528534 -0.073059
0.477968 0.528258 -0.073059
0.504157 0.527949 -0.073059
0.531281 0.527607 -0.073059
0.559208 0.527231 -0.073059
0.587825 0.526820 -0.073059
0.617036 0.526372 -0.073059
0.646763 0.525886 -0.073059
0.676935 0.525363 -0.073059
0.707495 0.524800 -0.073059
0.738394 0.524198 -0.073059
0.769590 0.523554 -0.073059
0.801047 0.522868 -0.073059
0.832734 0.522140 -0.073059
0.864625 0.521368 -0.073059
0.896697 0.520550 -0.073059
0.928930 0.519688 -0.073059
0.961308 0.518779 -0.073059
0.993815 0.517822 -0.073059
1.026439 0.516816 -0.073059
1.059168 0.515762 -0.073059
1.091991 0.514656 -0.073059
1.124901 0.513500 -0.073059
0.322301 0.560982 -0.073059
0.327777 0.560946 -0.073059
0.333844 0.560905 -0.073059
0.342319 0.560847 -0.073059
0.353316 0.560768 -0.073059
0.366768 0.560668 -0.073059
0.382537 0.560545 -0.073059
0.400437 0.560398 -0.073059
0.420259 0.560225 -0.073059
0.441789 0.560025 -0.073059
0.464820 0.559797 -0.073059
0.489161 0.559540 -0.073059
0.514640 0.559253 -0.073059
0.541105 0.558936 -0.073059
0.568423 0.558586 -0.073059
0.596480 0.558204 -0.073059
0.625178 0.557787 -0.073059
0.654431 0.557337 -0.073059
0.684170 0.556851 -0.073059
0.714332 0.556328 -0.073059
0.744865 0.555769 -0.073059
0.775723 0.555171 -0.073059
0.806870 0.554535 -0.073059
0.838270 0.553859 -0.073059
0.869896 0.553142 -0.073059
0.901722 0.552384 -0.073059
0.933728 0.551584 -0.073059
0.965895 0.550741 -0.073059
0.998205 0.549855 -0.073059
1.030645 0.548923 -0.073059
1.063203 0.547946 -0.073059
1.095867 0.546923 -0.073059
1.128626 0.545852 -0.073059
0.341396 0.592155 -0.073059
0.346512 0.592121 -0.073059
0.352193 0.592084 -0.073059
0.360150 0.592029 -0.073059
0.370511 0.591956 -0.073059
0.383235 0.591863 -0.073059
0.398214 0.591748 -0.073059
0.415291 0.591610 -0.073059
0.434283 0.591448 -0.073059
0.454996 0.591262 -0.073059
0.477238 0.591049 -0.073059
0.500829 0.590810 -0.073059
0.525601 0.590542 -0.073059
0.551404 0.590246 -0.073059
0.578108 0.589920 -0.073059
0.605596 0.589563 -0.073059
0.633767 0.589175 -0.073059
0.662536 0.588755 -0.073059
0.691828 0.588302 -0.073059
0.721577 0.587815 -0.073059
0.751730 0.587293 -0.073059
0.782238 0.586736 -0.073059
0.813059 0.586143 -0.073059
0.844160 0.585514 -0.073059
0.875508 0.584846 -0.073059
0.907076 0.584140 -0.073059
0.938843 0.583396 -0.073059
0.970786 0.582611 -0.073059
1.002889 0.581786 -0.073059
1.035136 0.580919 -0.073059
1.067512 0.580011 -0.073059
1.100006 0.579059 -0.073059
1.132607 0.578064 -0.073059
0.360490 0.623328 -0.073059
0.365284 0.623297 -0.073059
0.370619 0.623261 -0.073059
0.378108 0.623210 -0.073059
0.387889 0.623142 -0.073059
0.399942 0.623054 -0.073059
0.414184 0.622947 -0.073059
0.430486 0.622818 -0.073059
0.448687 0.622667 -0.073059
0.468614 0.622492 -0.073059
0.490089 0.622293 -0.073059
0.512942 0.622069 -0.073059
0.537013 0.621819 -0.073059
0.562158 0.621541 -0.073059
0.588244 0.621236 -0.073059
0.615156 0.620902 -0.073059
0.642793 0.620539 -0.073059
0.671067 0.620146 -0.073059
0.699900 0.619722 -0.073059
0.729225 0.619267 -0.073059
0.758985 0.618779 -0.073059
0.789129 0.618258 -0.073059
0.819614 0.617704 -0.073059
0.850401 0.617115 -0.073059
0.881459 0.616491 -0.073059
0.912758 0.615832 -0.073059
0.944274 0.615136 -0.073059
0.975983 0.614403 -0.073059
1.007868 0.613632 -0.073059
1.039911 0.612822 -0.073059
1.072096 0.611974 -0.073059
1.104412 0.611086 -0.073059
1.136845 0.610157 -0.073059
0.379584 0.654501 -0.073059
0.384090 0.654472 -0.073059
0.389112 0.654438 -0.073059
0.396176 0.654391 -0.073059
0.405426 0.654326 -0.073059
0.416860 0.654244 -0.073059
0.430417 0.654143 -0.073059
0.445990 0.654022 -0.073059
0.463439 0.653880 -0.073059
0.482610 0.653716 -0.073059
0.503342 0.653530 -0.073059
0.525474 0.653319 -0.073059
0.548855 0.653084 -0.073059
0.573344 0.652824 -0.073059
0.598812 0.652537 -0.073059
0.625146 0.652224 -0.073059
0.652243 0.651883 -0.073059
0.680013 0.651514 -0.073059
0.708377 0.651116 -0.073059
0.737267 0.650689 -0.073059
0.766623 0.650231 -0.073059
0.796392 0.649743 -0.073059
0.826528 0.649223 -0.073059
0.856992 0.648671 -0.073059
0.887748 0.648086 -0.073059
0.918767 0.647467 -0.073059
0.950020 0.646815 -0.073059
0.981486 0.646128 -0.073059
1.013142 0.645406 -0.073059
1.044971 0.644647 -0.073059
1.076957 0.643852 -0.073059
1.109084 0.643020 -0.073059
1.141341 0.642151 -0.073059
0.398678 0.685675 -0.073059
0.402924 0.685647 -0.073059
0.407662 0.685615 -0.073059
0.414341 0.685570 -0.073059
0.423104 0.685510 -0.073059
0.433967 0.685432 -0.073059
0.446885 0.685337 -0.073059
0.461772 0.685223 -0.073059
0.478508 0.685090 -0.073059
0.496956 0.684935 -0.073059
0.516969 0.684760 -0.073059
0.538398 0.684561 -0.073059
0.561101 0.684340 -0.073059
0.584941 0.684095 -0.073059
0.609795 0.683825 -0.073059
0.635549 0.683531 -0.073059
0.662101 0.683210 -0.073059
0.689362 0.682863 -0.073059
0.717250 0.682488 -0.073059
0.745697 0.682086 -0.073059
0.774639 0.681656 -0.073059
0.804022 0.681196 -0.073059
0.833799 0.680707 -0.073059
0.863929 0.680188 -0.073059
0.894373 0.679638 -0.073059
0.925100 0.679056 -0.073059
0.956082 0.678443 -0.073059
0.987293 0.677797 -0.073059
1.018711 0.677118 -0.073059
1.050317 0.676405 -0.073059
1.082093 0.675658 -0.073059
1.114025 0.674877 -0.073059
1.146097 0.674059 -0.073059
0.417772 0.716848 -0.073059
0.421782 0.716822 -0.073059
0.426264 0.716792 -0.073059
0.432589 0.716749 -0.073059
0.440906 0.716692 -0.073059
0.451240 0.716619 -0.073059
0.463563 0.716529 -0.073059
0.477806 0.716422 -0.073059
0.493866 0.716296 -0.073059
0.511622 0.716150 -0.073059
0.530943 0.715984 -0.073059
0.551689 0.715797 -0.073059
0.573728 0.715588 -0.073059
0.596930 0.715357 -0.073059
0.621173 0.715103 -0.073059
0.646349 0.714824 -0.073059
0.672355 0.714522 -0.073059
0.699102 0.714194 -0.073059
0.726509 0.713841 -0.073059
0.754504 0.713462 -0.073059
0.783024 0.713056 -0.073059
0.812013 0.712622 -0.073059
0.841422 0.712161 -0.073059
0.871207 0.711671 -0.073059
0.901329 0.711152 -0.073059
0.931756 0.710604 -0.073059
0.962456 0.710026 -0.073059
0.993403 0.709417 -0.073059
1.024574 0.708777 -0.073059
1.055948 0.708105 -0.073059
1.087507 0.707402 -0.073059
1.119233 0.706665 -0.073059
1.151113 0.705896 -0.073059
0.436867 0.748021 -0.073059
0.440662 0.747996 -0.073059
0.444909 0.747968 -0.073059
0.450911 0.747928 -0.073059
0.458818 0.747874 -0.073059
0.468663 0.747805 -0.073059
0.480431 0.747720 -0.073059
0.494068 0.747618 -0.073059
0.509488 0.747499 -0.073059
0.526585 0.747361 -0.073059
0.545238 0.747204 -0.073059
0.565324 0.747027 -0.073059
0.586714 0.746829 -0.073059
0.609288 0.746611 -0.073059
0.632929 0.746370 -0.073059
0.657529 0.746107 -0.073059
0.682989 0.745821 -0.073059
0.709220 0.745511 -0.073059
0.736141 0.745177 -0.073059
0.763680 0.744818 -0.073059
0.791771 0.744434 -0.073059
0.820358 0.744025 -0.073059
0.849390 0.743588 -0.073059
0.878822 0.743125 -0.073059
0.908614 0.742635 -0.073059
0.938731 0.742117 -0.073059
0.969140 0.741571 -0.073059
0.999815 0.740995 -0.073059
1.030730 0.740391 -0.073059
1.061864 0.739756 -0.073059
1.093196 0.739091 -0.073059
1.124710 0.738396 -0.073059
1.156389 0.737669 -0.073059
0.455961 0.779194 -0.073059
0.459561 0.779171 -0.073059
0.463593 0.779144 -0.073059
0.469299 0.779106 -0.073059
0.476826 0.779055 -0.073059
0.486218 0.778989 -0.073059
0.497468 0.778909 -0.073059
0.510536 0.778812 -0.073059
0.525351 0.778699 -0.073059
0.541819 0.778568 -0.073059
0.559833 0.778420 -0.073059
0.579278 0.778252 -0.073059
0.600038 0.778065 -0.073059
0.621997 0.777857 -0.073059
0.645043 0.777629 -0.073059
0.669073 0.777380 -0.073059
0.693990 0.777109 -0.073059
0.719704 0.776815 -0.073059
0.746137 0.776499 -0.073059
0.773214 0.776159 -0.073059
0.800871 0.775795 -0.073059
0.829050 0.775406 -0.073059
0.857699 0.774993 -0.073059
0.886770 0.774555 -0.073059
0.916223 0.774090 -0.073059
