滤镜资源/Professional Luts Collection/Lutify.me Professional/Utility LUTs/White Balance/2800 Kelvin - 5500 Kelvin - 1.34 CTO.cube
# Created by: Lutify.me
# Copyright: (c) Copyright Lutify.me 2015
# Website: https://lutify.me
LUT_3D_SIZE 5
0.000000 0.000000 0.000000
0.277837 -0.010469 -0.011705
0.550655 -0.044044 -0.049244
0.823472 -0.073059 -0.073059
1.096290 -0.073059 -0.073059
0.131359 0.249250 -0.056168
0.310096 0.247210 -0.067873
0.565317 0.240531 -0.073059
0.832270 0.227292 -0.073059
1.102334 0.204893 -0.073059
0.284113 0.498636 -0.073059
0.393500 0.497756 -0.073059
0.609355 0.494922 -0.073059
0.859694 0.489508 -0.073059
1.121429 0.480976 -0.073059
0.436867 0.748021 -0.073059
0.509488 0.747499 -0.073059
0.682989 0.745821 -0.073059
0.908614 0.742635 -0.073059
1.156389 0.737669 -0.073059
0.589620 0.997406 -0.073059
0.641622 0.997049 -0.073059
0.780026 0.995901 -0.073059
0.978119 0.993726 -0.073059
1.207873 0.990348 -0.073059
0.012286 -0.000355 0.158359
0.279930 -0.010824 0.154580
0.551563 -0.044399 0.141763
0.824012 -0.073059 0.113664
1.096660 -0.073059 0.048169
0.136012 0.249181 0.139269
0.311936 0.247140 0.134946
0.566195 0.240460 0.120053
0.832803 0.227216 0.085577
1.102702 0.204807 -0.007418
0.286152 0.498606 0.042451
0.394882 0.497726 0.030811
0.610153 0.494892 -0.006729
0.860204 0.489478 -0.073059
1.121788 0.480945 -0.073059
0.438081 0.748003 -0.073059
0.510490 0.747481 -0.073059
0.683678 0.745803 -0.073059
0.909089 0.742617 -0.073059
1.156734 0.737651 -0.073059
0.590453 0.997394 -0.073059
0.642369 0.997037 -0.073059
0.780605 0.995889 -0.073059
0.978550 0.993714 -0.073059
1.208198 0.990336 -0.073059
0.050717 -0.001495 0.333243
0.286521 -0.011964 0.331624
0.554463 -0.045539 0.326367
0.825741 -0.073059 0.316140
1.097845 -0.073059 0.299484
0.149961 0.248960 0.325386
0.317752 0.246917 0.323720
0.569001 0.240229 0.318306
0.834507 0.226970 0.307758
1.103878 0.204531 0.290528
0.292580 0.498510 0.298506
0.399273 0.497630 0.296658
0.612704 0.494796 0.290640
0.861838 0.489380 0.278842
1.122937 0.480845 0.259336
0.441948 0.747946 0.237836
0.513687 0.747424 0.235427
0.685882 0.745746 0.227503
0.910608 0.742560 0.211607
1.157837 0.737593 0.183993
0.593112 0.997355 0.064246
0.644756 0.996998 0.055360
0.782460 0.995850 0.019768
0.979928 0.993675 -0.051204
1.209240 0.990296 -0.073059
0.098338 -0.003651 0.508127
0.298519 -0.014119 0.507167
0.559893 -0.047694 0.504072
0.828996 -0.073059 0.498153
1.100080 -0.073059 0.488814
0.173213 0.248541 0.503498
0.328414 0.246493 0.502527
0.574257 0.239792 0.499395
0.837718 0.226504 0.493406
1.106097 0.204008 0.483951
0.304297 0.498329 0.488277
0.407416 0.497449 0.487268
0.617489 0.494613 0.484011
0.864916 0.489195 0.477778
1.125107 0.480656 0.467924
0.449147 0.747839 0.457742
0.519664 0.747317 0.456647
0.690023 0.745638 0.453112
0.913471 0.742451 0.446334
1.159920 0.737483 0.435581
0.598099 0.997282 0.404707
0.649240 0.996924 0.403430
0.785952 0.995776 0.399302
0.982527 0.993601 0.391350
1.211205 0.990222 0.378635
0.145958 -0.006986 0.683011
0.316038 -0.017455 0.682354
0.568169 -0.051030 0.680241
0.834001 -0.073059 0.676222
1.103529 -0.073059 0.669940
0.203760 0.247891 0.679850
0.344143 0.245837 0.679189
0.582273 0.239115 0.677063
0.842655 0.225782 0.673020
1.109521 0.203195 0.666699
0.321444 0.498049 0.669581
0.419639 0.497168 0.668907
0.624802 0.494330 0.666738
0.869652 0.488908 0.662613
1.128454 0.480363 0.656162
0.460014 0.747673 0.649590
0.528747 0.747150 0.648888
0.696370 0.745471 0.646633
0.917880 0.742283 0.642340
1.163134 0.737314 0.635622
0.605714 0.997168 0.616979
0.656101 0.996810 0.616230
0.791317 0.995662 0.613818
0.986533 0.993487 0.609225
1.214238 0.990107 0.602027
