滤镜资源/Professional Luts Collection/Lutify.me Professional/Utility LUTs/White Balance/2800 Kelvin - 4300 Kelvin - 0.95 CTO.cube
# Created by: Lutify.me
# Copyright: (c) Copyright Lutify.me 2015
# Website: https://lutify.me
LUT_3D_SIZE 33
0.000000 0.000000 0.000000
0.036251 -0.000318 -0.000426
0.069997 -0.000677 -0.000908
0.103241 -0.001193 -0.001600
0.136485 -0.001885 -0.002528
0.169729 -0.002768 -0.003712
0.202973 -0.003854 -0.005169
0.236217 -0.005156 -0.006915
0.269461 -0.006683 -0.008963
0.302705 -0.008446 -0.011327
0.335948 -0.010453 -0.014019
0.369192 -0.012715 -0.017053
0.402436 -0.015239 -0.020438
0.435680 -0.018034 -0.024186
0.468924 -0.021106 -0.028307
0.502168 -0.024465 -0.032810
0.535412 -0.028115 -0.037706
0.568656 -0.032066 -0.043004
0.601900 -0.036322 -0.048713
0.635144 -0.040891 -0.054840
0.668388 -0.045778 -0.061395
0.701632 -0.050991 -0.068386
0.734875 -0.056534 -0.073059
0.768119 -0.062414 -0.073059
0.801363 -0.068636 -0.073059
0.834607 -0.073059 -0.073059
0.867851 -0.073059 -0.073059
0.901095 -0.073059 -0.073059
0.934339 -0.073059 -0.073059
0.967583 -0.073059 -0.073059
1.000827 -0.073059 -0.073059
1.034071 -0.073059 -0.073059
1.067315 -0.073059 -0.073059
0.006124 0.031480 -0.002097
0.042317 0.031162 -0.002523
0.074033 0.030803 -0.003005
0.106170 0.030287 -0.003696
0.138738 0.029595 -0.004625
0.171534 0.028712 -0.005809
0.204464 0.027625 -0.007266
0.237476 0.026324 -0.009011
0.270544 0.024797 -0.011059
0.303650 0.023034 -0.013423
0.336784 0.021026 -0.016116
0.369938 0.018765 -0.019149
0.403107 0.016241 -0.022535
0.436288 0.013446 -0.026282
0.469479 0.010373 -0.030403
0.502677 0.007015 -0.034907
0.535881 0.003365 -0.039803
0.569091 -0.000586 -0.045101
0.602304 -0.004842 -0.050809
0.635521 -0.009411 -0.056937
0.668741 -0.014299 -0.063492
0.701963 -0.019511 -0.070482
0.735188 -0.025054 -0.073059
0.768414 -0.030934 -0.073059
0.801642 -0.037156 -0.073059
0.834872 -0.043725 -0.073059
0.868102 -0.050647 -0.073059
0.901334 -0.057927 -0.073059
0.934567 -0.065571 -0.073059
0.967800 -0.073059 -0.073059
1.001035 -0.073059 -0.073059
1.034270 -0.073059 -0.073059
1.067506 -0.073059 -0.073059
0.013054 0.062859 -0.004469
0.048657 0.062626 -0.004895
0.078397 0.062362 -0.005377
0.109397 0.061982 -0.006069
0.141245 0.061468 -0.006997
0.173554 0.060809 -0.008181
0.206136 0.059990 -0.009638
0.238892 0.058998 -0.011384
0.271764 0.057818 -0.013432
0.304716 0.056435 -0.015796
0.337726 0.054829 -0.018489
0.370779 0.052981 -0.021522
0.403864 0.050863 -0.024907
0.436975 0.048448 -0.028655
0.470106 0.045698 -0.032776
0.503252 0.042567 -0.037279
0.536412 0.038986 -0.042176
0.569582 0.035036 -0.047473
0.602761 0.030779 -0.053182
0.635948 0.026210 -0.059309
0.669140 0.021323 -0.065864
0.702338 0.016110 -0.072855
0.735541 0.010567 -0.073059
0.768748 0.004687 -0.073059
0.801958 -0.001535 -0.073059
0.835171 -0.008104 -0.073059
0.868387 -0.015026 -0.073059
0.901605 -0.022306 -0.073059
0.934825 -0.029950 -0.073059
0.968047 -0.037961 -0.073059
1.001270 -0.046346 -0.073059
1.034495 -0.055108 -0.073059
1.067722 -0.064253 -0.073059
0.022991 0.094205 -0.007871
0.056898 0.094038 -0.008297
0.084326 0.093848 -0.008779
0.113875 0.093575 -0.009471
0.144762 0.093209 -0.010399
0.176406 0.092739 -0.011583
0.208509 0.092158 -0.013040
0.240906 0.091457 -0.014786
0.273502 0.090629 -0.016834
0.306236 0.089666 -0.019198
0.339071 0.088557 -0.021891
0.371980 0.087293 -0.024924
0.404947 0.085864 -0.028309
0.437957 0.084258 -0.032057
0.471002 0.082461 -0.036178
0.504076 0.080460 -0.040681
0.537171 0.078235 -0.045578
0.570286 0.075768 -0.050875
0.603416 0.073035 -0.056584
0.636559 0.070008 -0.062711
0.669713 0.066651 -0.069266
0.702876 0.062922 -0.073059
0.736047 0.058766 -0.073059
0.769226 0.054112 -0.073059
0.802410 0.048864 -0.073059
0.835600 0.042887 -0.073059
0.868794 0.036051 -0.073059
0.901992 0.028770 -0.073059
0.935194 0.021127 -0.073059
0.968400 0.013115 -0.073059
1.001608 0.004731 -0.073059
1.034818 -0.004032 -0.073059
1.068032 -0.013177 -0.073059
0.036334 0.125550 -0.012439
0.066781 0.125422 -0.012865
0.091772 0.125277 -0.013347
0.119639 0.125069 -0.014039
0.149353 0.124789 -0.014967
0.180160 0.124431 -0.016151
0.211648 0.123988 -0.017608
0.243580 0.123457 -0.019354
0.275815 0.122830 -0.021402
0.308264 0.122102 -0.023766
0.340867 0.121269 -0.026459
0.373587 0.120323 -0.029492
0.406395 0.119259 -0.032877
0.439272 0.118071 -0.036625
0.472203 0.116750 -0.040746
0.505178 0.115291 -0.045249
0.538189 0.113684 -0.050146
0.571229 0.111921 -0.055443
0.604293 0.109992 -0.061152
0.637378 0.107886 -0.067279
0.670480 0.105589 -0.073059
0.703597 0.103088 -0.073059
0.736726 0.100366 -0.073059
0.769867 0.097404 -0.073059
0.803016 0.094179 -0.073059
0.836175 0.090664 -0.073059
0.869340 0.086828 -0.073059
0.902512 0.082630 -0.073059
0.935690 0.078020 -0.073059
0.968873 0.072935 -0.073059
1.002061 0.067291 -0.073059
1.035252 0.060974 -0.073059
1.068447 0.053822 -0.073059
0.052122 0.156896 -0.018266
0.077953 0.156794 -0.018692
0.100562 0.156678 -0.019175
0.126625 0.156511 -0.019866
0.155008 0.156288 -0.020794
0.184831 0.156002 -0.021978
0.215579 0.155650 -0.023435
0.246944 0.155227 -0.025181
0.278734 0.154729 -0.027229
0.310827 0.154152 -0.029593
0.343142 0.153492 -0.032286
0.375624 0.152746 -0.035319
0.408233 0.151908 -0.038704
0.440942 0.150975 -0.042452
0.473730 0.149942 -0.046573
0.506581 0.148805 -0.051077
0.539484 0.147558 -0.055973
0.572429 0.146197 -0.061271
0.605410 0.144717 -0.066979
0.638421 0.143110 -0.073059
0.671457 0.141370 -0.073059
0.704515 0.139491 -0.073059
0.737591 0.137464 -0.073059
0.770683 0.135281 -0.073059
0.803789 0.132932 -0.073059
0.836908 0.130407 -0.073059
0.870037 0.127692 -0.073059
0.903175 0.124775 -0.073059
0.936322 0.121640 -0.073059
0.969477 0.118267 -0.073059
1.002638 0.114636 -0.073059
1.035805 0.110722 -0.073059
1.068978 0.106493 -0.073059
0.067969 0.188241 -0.025436
0.090112 0.188157 -0.025862
0.110505 0.188062 -0.026344
0.134736 0.187925 -0.027035
0.161685 0.187740 -0.027964
0.190409 0.187505 -0.029148
0.220309 0.187215 -0.030605
0.251012 0.186868 -0.032350
0.282277 0.186459 -0.034398
0.313947 0.185985 -0.036763
0.345917 0.185445 -0.039455
0.378112 0.184834 -0.042489
0.410481 0.184149 -0.045874
0.442986 0.183388 -0.049622
0.475599 0.182547 -0.053742
0.508300 0.181623 -0.058246
0.541071 0.180613 -0.063142
0.573902 0.179513 -0.068440
0.606781 0.178320 -0.073059
0.639702 0.177030 -0.073059
0.672657 0.175638 -0.073059
0.705642 0.174141 -0.073059
0.738653 0.172534 -0.073059
0.771687 0.170812 -0.073059
0.804739 0.168969 -0.073059
0.837808 0.167000 -0.073059
0.870893 0.164898 -0.073059
0.903990 0.162657 -0.073059
0.937099 0.160269 -0.073059
0.970219 0.157725 -0.073059
1.003348 0.155016 -0.073059
1.036485 0.152132 -0.073059
1.069629 0.149061 -0.073059
0.083815 0.219587 -0.034024
0.103020 0.219516 -0.034450
0.121411 0.219435 -0.034932
0.143854 0.219320 -0.035624
0.169323 0.219164 -0.036552
0.196865 0.218966 -0.037736
0.225829 0.218722 -0.039193
0.255787 0.218429 -0.040939
0.286454 0.218084 -0.042987
0.317637 0.217686 -0.045351
0.349205 0.217232 -0.048044
0.381066 0.216718 -0.051077
0.413154 0.216144 -0.054462
0.445419 0.215506 -0.058210
0.477827 0.214802 -0.062331
0.510349 0.214029 -0.066834
0.542965 0.213186 -0.071731
0.575659 0.212269 -0.073059
0.608418 0.211277 -0.073059
0.641231 0.210205 -0.073059
0.674091 0.209053 -0.073059
0.706990 0.207816 -0.073059
0.739923 0.206491 -0.073059
0.772886 0.205075 -0.073059
0.805875 0.203566 -0.073059
0.838886 0.201958 -0.073059
0.871917 0.200249 -0.073059
0.904965 0.198434 -0.073059
0.938029 0.196509 -0.073059
0.971107 0.194468 -0.073059
1.004197 0.192307 -0.073059
1.037298 0.190020 -0.073059
1.070409 0.187601 -0.073059
0.099662 0.250932 -0.044102
0.116496 0.250871 -0.044528
0.133112 0.250802 -0.045010
0.153857 0.250703 -0.045702
0.177845 0.250569 -0.046630
0.204156 0.250399 -0.047814
0.232119 0.250189 -0.049271
0.261263 0.249938 -0.051016
0.291265 0.249642 -0.053065
0.321902 0.249301 -0.055429
0.353017 0.248911 -0.058121
0.384498 0.248471 -0.061155
0.416263 0.247979 -0.064540
0.448253 0.247433 -0.068288
0.480424 0.246831 -0.072409
0.512741 0.246171 -0.073059
0.545177 0.245451 -0.073059
0.577713 0.244670 -0.073059
0.610332 0.243825 -0.073059
0.643020 0.242914 -0.073059
0.675768 0.241935 -0.073059
0.708567 0.240886 -0.073059
0.741410 0.239765 -0.073059
0.774291 0.238569 -0.073059
0.807205 0.237296 -0.073059
0.840148 0.235944 -0.073059
0.873116 0.234509 -0.073059
0.906107 0.232990 -0.073059
0.939118 0.231382 -0.073059
0.972147 0.229683 -0.073059
1.005192 0.227890 -0.073059
1.038252 0.225999 -0.073059
1.071324 0.224006 -0.073059
0.115509 0.282278 -0.055735
0.130407 0.282225 -0.056161
0.145462 0.282164 -0.056643
0.164628 0.282078 -0.057335
0.187169 0.281961 -0.058263
0.212232 0.281813 -0.059447
0.239147 0.281630 -0.060904
0.267423 0.281411 -0.062649
0.296705 0.281153 -0.064698
0.326743 0.280855 -0.067062
0.357356 0.280516 -0.069754
0.388412 0.280133 -0.072788
0.419817 0.279705 -0.073059
0.451497 0.279230 -0.073059
0.483400 0.278707 -0.073059
0.515484 0.278134 -0.073059
0.547716 0.277509 -0.073059
0.580072 0.276832 -0.073059
0.612531 0.276099 -0.073059
0.645077 0.275310 -0.073059
0.677698 0.274464 -0.073059
0.710382 0.273557 -0.073059
0.743121 0.272590 -0.073059
0.775908 0.271559 -0.073059
0.808736 0.270463 -0.073059
0.841601 0.269301 -0.073059
0.874498 0.268069 -0.073059
0.907423 0.266767 -0.073059
0.940373 0.265392 -0.073059
0.973346 0.263941 -0.073059
1.006339 0.262414 -0.073059
1.039351 0.260806 -0.073059
1.072378 0.259115 -0.073059
0.131355 0.313624 -0.068985
0.144654 0.313576 -0.069411
0.158344 0.313523 -0.069893
0.176058 0.313447 -0.070585
0.197210 0.313344 -0.071513
0.221032 0.313213 -0.072697
0.246876 0.313051 -0.073059
0.274244 0.312858 -0.073059
0.302762 0.312631 -0.073059
0.332154 0.312368 -0.073059
0.362221 0.312069 -0.073059
0.392813 0.311731 -0.073059
0.423820 0.311354 -0.073059
0.455157 0.310936 -0.073059
0.486763 0.310475 -0.073059
0.518586 0.309970 -0.073059
0.550590 0.309421 -0.073059
0.582744 0.308825 -0.073059
0.615024 0.308181 -0.073059
0.647410 0.307488 -0.073059
0.679887 0.306745 -0.073059
0.712442 0.305951 -0.073059
0.745064 0.305103 -0.073059
0.777745 0.304200 -0.073059
0.810476 0.303242 -0.073059
0.843253 0.302226 -0.073059
0.876068 0.301151 -0.073059
0.908919 0.300015 -0.073059
0.941801 0.298818 -0.073059
0.974710 0.297556 -0.073059
1.007644 0.296229 -0.073059
1.040601 0.294835 -0.073059
1.073577 0.293372 -0.073059
0.147202 0.344969 -0.073059
0.159163 0.344927 -0.073059
0.171659 0.344879 -0.073059
0.188053 0.344811 -0.073059
0.207890 0.344720 -0.073059
0.230496 0.344603 -0.073059
0.255264 0.344459 -0.073059
0.281699 0.344286 -0.073059
0.309416 0.344084 -0.073059
0.338126 0.343850 -0.073059
0.367608 0.343583 -0.073059
0.397699 0.343282 -0.073059
0.428273 0.342946 -0.073059
0.459237 0.342574 -0.073059
0.490515 0.342163 -0.073059
0.522053 0.341714 -0.073059
0.553805 0.341226 -0.073059
0.585735 0.340696 -0.073059
0.617816 0.340123 -0.073059
0.650025 0.339508 -0.073059
0.682342 0.338848 -0.073059
0.714753 0.338143 -0.073059
0.747245 0.337390 -0.073059
0.779807 0.336590 -0.073059
0.812430 0.335741 -0.073059
0.845108 0.334842 -0.073059
0.877833 0.333891 -0.073059
0.910600 0.332888 -0.073059
0.943405 0.331830 -0.073059
0.976243 0.330718 -0.073059
1.009111 0.329548 -0.073059
1.042006 0.328321 -0.073059
1.074926 0.327034 -0.073059
0.163048 0.376315 -0.073059
0.173881 0.376277 -0.073059
0.185331 0.376234 -0.073059
0.200528 0.376173 -0.073059
0.219134 0.376090 -0.073059
0.240565 0.375985 -0.073059
0.264265 0.375856 -0.073059
0.289754 0.375700 -0.073059
0.316648 0.375518 -0.073059
0.344644 0.375308 -0.073059
0.373509 0.375068 -0.073059
0.403066 0.374798 -0.073059
0.433177 0.374495 -0.073059
0.463736 0.374161 -0.073059
0.494661 0.373792 -0.073059
0.525888 0.373389 -0.073059
0.557364 0.372950 -0.073059
0.589051 0.372474 -0.073059
0.620914 0.371961 -0.073059
0.652927 0.371409 -0.073059
0.685068 0.370817 -0.073059
0.717321 0.370185 -0.073059
0.749669 0.369511 -0.073059
0.782100 0.368795 -0.073059
0.814604 0.368035 -0.073059
0.847172 0.367230 -0.073059
0.879797 0.366380 -0.073059
0.912471 0.365484 -0.073059
0.945191 0.364539 -0.073059
0.977950 0.363547 -0.073059
1.010745 0.362504 -0.073059
1.043572 0.361410 -0.073059
1.076428 0.360265 -0.073059
0.178895 0.407660 -0.073059
0.188764 0.407626 -0.073059
0.199298 0.407587 -0.073059
0.213413 0.407531 -0.073059
0.230872 0.407457 -0.073059
0.251180 0.407361 -0.073059
0.273832 0.407244 -0.073059
0.298376 0.407103 -0.073059
0.324430 0.406938 -0.073059
0.351690 0.406748 -0.073059
0.379912 0.406530 -0.073059
0.408907 0.406286 -0.073059
0.438527 0.406012 -0.073059
0.468655 0.405709 -0.073059
0.499201 0.405375 -0.073059
0.530092 0.405010 -0.073059
0.561272 0.404613 -0.073059
0.592694 0.404182 -0.073059
0.624320 0.403718 -0.073059
0.656121 0.403219 -0.073059
0.688071 0.402684 -0.073059
0.720150 0.402112 -0.073059
0.752340 0.401504 -0.073059
0.784628 0.400857 -0.073059
0.817001 0.400171 -0.073059
0.849450 0.399445 -0.073059
0.881964 0.398678 -0.073059
0.914537 0.397870 -0.073059
0.947163 0.397019 -0.073059
0.979835 0.396125 -0.073059
1.012550 0.395186 -0.073059
1.045302 0.394203 -0.073059
1.078088 0.393173 -0.073059
0.194741 0.439006 -0.073059
0.203783 0.438974 -0.073059
0.213508 0.438939 -0.073059
0.226647 0.438888 -0.073059
0.243045 0.438820 -0.073059
0.262286 0.438733 -0.073059
0.283921 0.438626 -0.073059
0.307527 0.438498 -0.073059
0.332738 0.438347 -0.073059
0.359246 0.438173 -0.073059
0.386803 0.437975 -0.073059
0.415213 0.437752 -0.073059
0.444317 0.437503 -0.073059
0.473990 0.437226 -0.073059
0.504133 0.436922 -0.073059
0.534667 0.436590 -0.073059
0.565529 0.436228 -0.073059
0.596666 0.435835 -0.073059
0.628038 0.435412 -0.073059
0.659609 0.434958 -0.073059
0.691352 0.434471 -0.073059
0.723244 0.433951 -0.073059
0.755264 0.433397 -0.073059
0.787396 0.432808 -0.073059
0.819627 0.432184 -0.073059
0.851945 0.431524 -0.073059
0.884339 0.430828 -0.073059
0.916802 0.430093 -0.073059
0.949325 0.429321 -0.073059
0.981903 0.428509 -0.073059
1.014529 0.427658 -0.073059
1.047200 0.426766 -0.073059
1.079910 0.425832 -0.073059
0.210588 0.470351 -0.073059
0.218911 0.470323 -0.073059
0.227921 0.470290 -0.073059
0.240180 0.470244 -0.073059
0.255599 0.470181 -0.073059
0.273832 0.470101 -0.073059
0.294486 0.470003 -0.073059
0.317173 0.469885 -0.073059
0.341541 0.469747 -0.073059
0.367288 0.469588 -0.073059
0.394167 0.469406 -0.073059
0.421972 0.469201 -0.073059
0.450539 0.468973 -0.073059
0.479735 0.468719 -0.073059
0.509455 0.468440 -0.073059
0.539611 0.468135 -0.073059
0.570135 0.467804 -0.073059
0.600970 0.467444 -0.073059
0.632069 0.467057 -0.073059
0.663395 0.466640 -0.073059
0.694916 0.466194 -0.073059
0.726605 0.465718 -0.073059
0.758442 0.465211 -0.073059
0.790407 0.464672 -0.073059
0.822484 0.464101 -0.073059
0.854661 0.463498 -0.073059
0.886925 0.462860 -0.073059
0.919268 0.462189 -0.073059
0.951681 0.461483 -0.073059
0.984156 0.460741 -0.073059
1.016687 0.459963 -0.073059
1.049268 0.459149 -0.073059
1.081896 0.458297 -0.073059
0.226434 0.501697 -0.073059
0.234130 0.501670 -0.073059
0.242506 0.501640 -0.073059
0.253970 0.501597 -0.073059
0.268486 0.501540 -0.073059
0.285772 0.501466 -0.073059
0.305487 0.501376 -0.073059
0.327277 0.501267 -0.073059
0.350810 0.501140 -0.073059
0.375796 0.500993 -0.073059
0.401985 0.500825 -0.073059
0.429171 0.500637 -0.073059
0.457184 0.500426 -0.073059
0.485885 0.500192 -0.073059
0.515161 0.499935 -0.073059
0.544921 0.499654 -0.073059
0.575089 0.499349 -0.073059
0.605604 0.499018 -0.073059
0.636414 0.498661 -0.073059
0.667479 0.498277 -0.073059
0.698763 0.497867 -0.073059
0.730237 0.497428 -0.073059
0.761877 0.496961 -0.073059
0.793662 0.496465 -0.073059
0.825575 0.495940 -0.073059
0.857600 0.495385 -0.073059
0.889726 0.494799 -0.073059
0.921940 0.494181 -0.073059
0.954233 0.493532 -0.073059
0.986597 0.492851 -0.073059
1.019026 0.492136 -0.073059
1.051511 0.491388 -0.073059
1.084049 0.490605 -0.073059
0.242281 0.533042 -0.073059
0.249425 0.533018 -0.073059
0.257236 0.532990 -0.073059
0.267980 0.532950 -0.073059
0.281665 0.532897 -0.073059
0.298065 0.532829 -0.073059
0.316884 0.532745 -0.073059
0.337804 0.532645 -0.073059
0.360517 0.532527 -0.073059
0.384743 0.532391 -0.073059
0.410238 0.532235 -0.073059
0.436795 0.532061 -0.073059
0.464240 0.531865 -0.073059
0.492431 0.531649 -0.073059
0.521247 0.531411 -0.073059
0.550593 0.531151 -0.073059
0.580389 0.530868 -0.073059
0.610567 0.530562 -0.073059
0.641073 0.530232 -0.073059
0.671862 0.529877 -0.073059
0.702895 0.529497 -0.073059
0.734141 0.529091 -0.073059
0.765572 0.528660 -0.073059
0.797166 0.528201 -0.073059
0.828903 0.527716 -0.073059
0.860767 0.527202 -0.073059
0.892743 0.526660 -0.073059
0.924819 0.526090 -0.073059
0.956984 0.525490 -0.073059
0.989230 0.524861 -0.073059
1.021548 0.524201 -0.073059
1.053931 0.523510 -0.073059
1.086373 0.522788 -0.073059
0.258127 0.564388 -0.073059
0.264783 0.564365 -0.073059
0.272088 0.564339 -0.073059
0.282180 0.564302 -0.073059
0.295101 0.564253 -0.073059
0.310672 0.564189 -0.073059
0.328640 0.564111 -0.073059
0.348722 0.564018 -0.073059
0.370633 0.563908 -0.073059
0.394107 0.563782 -0.073059
0.418908 0.563638 -0.073059
0.444829 0.563475 -0.073059
0.471697 0.563294 -0.073059
0.499363 0.563093 -0.073059
0.527706 0.562872 -0.073059
0.556623 0.562630 -0.073059
0.586031 0.562367 -0.073059
0.615858 0.562082 -0.073059
0.646045 0.561775 -0.073059
0.676544 0.561446 -0.073059
0.707313 0.561093 -0.073059
0.738317 0.560716 -0.073059
0.769527 0.560315 -0.073059
0.800918 0.559889 -0.073059
0.832469 0.559438 -0.073059
0.864161 0.558962 -0.073059
0.895978 0.558459 -0.073059
0.927908 0.557929 -0.073059
0.959937 0.557373 -0.073059
0.992057 0.556789 -0.073059
1.024257 0.556176 -0.073059
1.056530 0.555536 -0.073059
1.088869 0.554866 -0.073059
0.273974 0.595733 -0.073059
0.280195 0.595712 -0.073059
0.287046 0.595688 -0.073059
0.296546 0.595654 -0.073059
0.308764 0.595607 -0.073059
0.323561 0.595548 -0.073059
0.340723 0.595475 -0.073059
0.359999 0.595388 -0.073059
0.381130 0.595286 -0.073059
0.403864 0.595168 -0.073059
0.427974 0.595033 -0.073059
0.453257 0.594882 -0.073059
0.479539 0.594712 -0.073059
0.506672 0.594525 -0.073059
0.534529 0.594319 -0.073059
0.563005 0.594093 -0.073059
0.592011 0.593848 -0.073059
0.621472 0.593583 -0.073059
0.651327 0.593296 -0.073059
0.681523 0.592989 -0.073059
0.712015 0.592660 -0.073059
0.742766 0.592308 -0.073059
0.773743 0.591935 -0.073059
0.804921 0.591538 -0.073059
0.836275 0.591117 -0.073059
0.867785 0.590673 -0.073059
0.899435 0.590204 -0.073059
0.931209 0.589711 -0.073059
0.963094 0.589193 -0.073059
0.995079 0.588649 -0.073059
1.027154 0.588078 -0.073059
1.059311 0.587482 -0.073059
1.091541 0.586858 -0.073059
0.289820 0.627079 -0.073059
0.295653 0.627059 -0.073059
0.302094 0.627037 -0.073059
0.311055 0.627004 -0.073059
0.322625 0.626961 -0.073059
0.336700 0.626905 -0.073059
0.353101 0.626837 -0.073059
0.371607 0.626756 -0.073059
0.391981 0.626660 -0.073059
0.413989 0.626550 -0.073059
0.437415 0.626424 -0.073059
0.462061 0.626282 -0.073059
0.487755 0.626123 -0.073059
0.514346 0.625948 -0.073059
0.541708 0.625755 -0.073059
0.569731 0.625544 -0.073059
0.598323 0.625314 -0.073059
0.627408 0.625066 -0.073059
0.656918 0.624798 -0.073059
0.686798 0.624510 -0.073059
0.717001 0.624202 -0.073059
0.747487 0.623874 -0.073059
0.778221 0.623524 -0.073059
0.809174 0.623153 -0.073059
0.840321 0.622759 -0.073059
0.871640 0.622344 -0.073059
0.903113 0.621906 -0.073059
0.934723 0.621445 -0.073059
0.966455 0.620960 -0.073059
0.998299 0.620451 -0.073059
1.030241 0.619918 -0.073059
1.062274 0.619361 -0.073059
1.094389 0.618778 -0.073059
0.305667 0.658424 -0.073059
0.311151 0.658406 -0.073059
0.317221 0.658385 -0.073059
0.325690 0.658354 -0.073059
0.336663 0.658314 -0.073059
0.350065 0.658262 -0.073059
0.365747 0.658198 -0.073059
0.383517 0.658121 -0.073059
0.403160 0.658031 -0.073059
0.424461 0.657927 -0.073059
0.447212 0.657809 -0.073059
0.471225 0.657676 -0.073059
0.496328 0.657527 -0.073059
0.522374 0.657362 -0.073059
0.549233 0.657181 -0.073059
0.576794 0.656983 -0.073059
0.604963 0.656768 -0.073059
0.633659 0.656534 -0.073059
0.662813 0.656283 -0.073059
0.692366 0.656013 -0.073059
0.722269 0.655724 -0.073059
0.752479 0.655416 -0.073059
0.782959 0.655087 -0.073059
0.813678 0.654739 -0.073059
0.844608 0.654370 -0.073059
0.875727 0.653980 -0.073059
0.907014 0.653569 -0.073059
0.938451 0.653137 -0.073059
0.970023 0.652682 -0.073059
1.001717 0.652205 -0.073059
1.033520 0.651705 -0.073059
1.065423 0.651183 -0.073059
1.097415 0.650637 -0.073059
0.321513 0.689770 -0.073059
0.326682 0.689752 -0.073059
0.332415 0.689733 -0.073059
0.340434 0.689704 -0.073059
0.350857 0.689666 -0.073059
0.363632 0.689617 -0.073059
0.378637 0.689556 -0.073059
0.395705 0.689484 -0.073059
0.414645 0.689400 -0.073059
0.435257 0.689302 -0.073059
0.457346 0.689191 -0.073059
0.480731 0.689065 -0.073059
0.505246 0.688925 -0.073059
0.530743 0.688770 -0.073059
0.557094 0.688599 -0.073059
0.584186 0.688413 -0.073059
0.611923 0.688210 -0.073059
0.640220 0.687991 -0.073059
0.669008 0.687754 -0.073059
0.698225 0.687500 -0.073059
0.727817 0.687228 -0.073059
0.757741 0.686938 -0.073059
0.787957 0.686629 -0.073059
0.818432 0.686301 -0.073059
0.849136 0.685954 -0.073059
0.880046 0.685587 -0.073059
0.911138 0.685201 -0.073059
0.942395 0.684794 -0.073059
0.973799 0.684366 -0.073059
1.005336 0.683918 -0.073059
1.036992 0.683448 -0.073059
1.068758 0.682956 -0.073059
1.100622 0.682443 -0.073059
0.337360 0.721116 -0.073059
0.342243 0.721099 -0.073059
0.347669 0.721080 -0.073059
0.355276 0.721053 -0.073059
0.365190 0.721017 -0.073059
0.377379 0.720971 -0.073059
0.391747 0.720914 -0.073059
0.408148 0.720846 -0.073059
0.426411 0.720766 -0.073059
0.446355 0.720674 -0.073059
0.467797 0.720569 -0.073059
0.490562 0.720450 -0.073059
0.514492 0.720318 -0.073059
0.539441 0.720172 -0.073059
0.565281 0.720011 -0.073059
0.591898 0.719835 -0.073059
0.619195 0.719643 -0.073059
0.647087 0.719436 -0.073059
0.675500 0.719213 -0.073059
0.704370 0.718973 -0.073059
0.733643 0.718717 -0.073059
0.763271 0.718443 -0.073059
0.793213 0.718151 -0.073059
0.823435 0.717842 -0.073059
0.853905 0.717515 -0.073059
0.884596 0.717169 -0.073059
0.915486 0.716804 -0.073059
0.946554 0.716420 -0.073059
0.977782 0.716017 -0.073059
1.009155 0.715594 -0.073059
1.040658 0.715151 -0.073059
1.072280 0.714688 -0.073059
1.104009 0.714204 -0.073059
0.353206 0.752461 -0.073059
0.357830 0.752445 -0.073059
0.362976 0.752428 -0.073059
0.370203 0.752402 -0.073059
0.379646 0.752368 -0.073059
0.391290 0.752324 -0.073059
0.405057 0.752270 -0.073059
0.420824 0.752206 -0.073059
0.438439 0.752130 -0.073059
0.457736 0.752043 -0.073059
0.478546 0.751944 -0.073059
0.500703 0.751832 -0.073059
0.524053 0.751707 -0.073059
0.548455 0.751568 -0.073059
0.573782 0.751416 -0.073059
0.599921 0.751250 -0.073059
0.626773 0.751069 -0.073059
0.654252 0.750873 -0.073059
0.682282 0.750661 -0.073059
0.710798 0.750435 -0.073059
0.739742 0.750192 -0.073059
0.769066 0.749933 -0.073059
0.798726 0.749657 -0.073059
0.828686 0.749365 -0.073059
0.858913 0.749056 -0.073059
0.889378 0.748728 -0.073059
0.920058 0.748384 -0.073059
0.950929 0.748021 -0.073059
0.981974 0.747640 -0.073059
1.013176 0.747240 -0.073059
1.044519 0.746821 -0.073059
1.075990 0.746383 -0.073059
1.107579 0.745926 -0.073059
0.369053 0.783807 -0.073059
0.373439 0.783792 -0.073059
0.378328 0.783775 -0.073059
0.385207 0.783751 -0.073059
0.394213 0.783718 -0.073059
0.405347 0.783677 -0.073059
0.418549 0.783626 -0.073059
0.433714 0.783565 -0.073059
0.450709 0.783493 -0.073059
0.469382 0.783410 -0.073059
0.489576 0.783316 -0.073059
0.511136 0.783210 -0.073059
0.533914 0.783091 -0.073059
0.557772 0.782960 -0.073059
0.582587 0.782816 -0.073059
0.608245 0.782658 -0.073059
0.634649 0.782486 -0.073059
0.661709 0.782301 -0.073059
0.689350 0.782101 -0.073059
0.717503 0.781886 -0.073059
0.746112 0.781656 -0.073059
0.775123 0.781410 -0.073059
0.804493 0.781149 -0.073059
0.834183 0.780872 -0.073059
0.864159 0.780579 -0.073059
0.894391 0.780269 -0.073059
