滤镜资源/Professional Luts Collection/Lutify.me Professional/Utility LUTs/White Balance/2800 Kelvin - 5500 Kelvin - 1.34 CTO.cube
# Created by: Lutify.me
# Copyright: (c) Copyright Lutify.me 2015
# Website: https://lutify.me
LUT_3D_SIZE 9
0.000000 0.000000 0.000000
0.141429 -0.002953 -0.003301
0.277837 -0.010469 -0.011705
0.414246 -0.023873 -0.026692
0.550655 -0.044044 -0.049244
0.687064 -0.071713 -0.073059
0.823472 -0.073059 -0.073059
0.959881 -0.073059 -0.073059
1.096290 -0.073059 -0.073059
0.054983 0.124557 -0.015842
0.160467 0.123353 -0.019144
0.287369 0.120235 -0.027547
0.420205 0.114473 -0.042534
0.554840 0.105246 -0.065087
0.690219 0.091226 -0.073059
0.825966 0.069671 -0.073059
0.961920 0.032275 -0.073059
1.097999 -0.021463 -0.073059
0.131359 0.249250 -0.056168
0.200604 0.248677 -0.059469
0.310096 0.247210 -0.067873
0.434919 0.244568 -0.073059
0.565317 0.240531 -0.073059
0.698168 0.234864 -0.073059
0.832270 0.227292 -0.073059
0.967084 0.217464 -0.073059
1.102334 0.204893 -0.073059
0.207736 0.373943 -0.073059
0.255883 0.373588 -0.073059
0.346326 0.372685 -0.073059
0.459726 0.371066 -0.073059
0.583409 0.368614 -0.073059
0.712059 0.365217 -0.073059
0.843359 0.360764 -0.073059
0.976203 0.355134 -0.073059
1.110010 0.348188 -0.073059
0.284113 0.498636 -0.073059
0.319586 0.498388 -0.073059
0.393500 0.497756 -0.073059
0.494176 0.496627 -0.073059
0.609355 0.494922 -0.073059
0.732322 0.492572 -0.073059
0.859694 0.489508 -0.073059
0.989718 0.485666 -0.073059
1.121429 0.480976 -0.073059
0.360490 0.623328 -0.073059
0.387889 0.623142 -0.073059
0.448687 0.622667 -0.073059
0.537013 0.621819 -0.073059
0.642793 0.620539 -0.073059
0.758985 0.618779 -0.073059
0.881459 0.616491 -0.073059
1.007868 0.613632 -0.073059
1.136845 0.610157 -0.073059
0.436867 0.748021 -0.073059
0.458818 0.747874 -0.073059
0.509488 0.747499 -0.073059
0.586714 0.746829 -0.073059
0.682989 0.745821 -0.073059
0.791771 0.744434 -0.073059
0.908614 0.742635 -0.073059
1.030730 0.740391 -0.073059
1.156389 0.737669 -0.073059
0.513243 0.872714 -0.073059
0.531337 0.872593 -0.073059
0.574188 0.872287 -0.073059
0.641834 0.871740 -0.073059
0.729040 0.870917 -0.073059
0.830202 0.869786 -0.073059
0.940946 0.868319 -0.073059
1.058244 0.866492 -0.073059
1.180087 0.864278 -0.073059
0.589620 0.997406 -0.073059
0.604871 0.997305 -0.073059
0.641622 0.997049 -0.073059
0.701157 0.996591 -0.073059
0.780026 0.995901 -0.073059
0.873691 0.994954 -0.073059
0.978119 0.993726 -0.073059
1.090241 0.992198 -0.073059
1.207873 0.990348 -0.073059
0.003465 -0.000100 0.070917
0.142664 -0.003053 0.068686
0.278429 -0.010569 0.062739
0.414612 -0.023973 0.050939
0.550911 -0.044144 0.029398
0.687256 -0.071814 -0.001539
0.823625 -0.073059 -0.041574
0.960005 -0.073059 -0.073059
1.096394 -0.073059 -0.073059
0.057729 0.124517 0.059650
0.161553 0.123312 0.057099
0.287939 0.120193 0.050208
0.420565 0.114429 0.036108
0.555094 0.105199 0.013556
0.690411 0.091172 -0.017381
0.826118 0.069603 -0.057416
0.962044 0.032175 -0.073059
1.098103 -0.021563 -0.073059
0.132688 0.249231 0.022475
0.201460 0.248657 0.019173
0.310616 0.247190 0.010770
0.435264 0.244549 -0.004217
0.565565 0.240511 -0.026769
0.698356 0.234844 -0.057707
0.832420 0.227271 -0.073059
0.967207 0.217441 -0.073059
1.102438 0.204869 -0.073059
0.208560 0.373931 -0.049440
0.256534 0.373576 -0.052742
0.346782 0.372673 -0.061145
0.460048 0.371054 -0.073059
0.583647 0.368602 -0.073059
0.712243 0.365205 -0.073059
0.843507 0.360752 -0.073059
0.976325 0.355121 -0.073059
1.110113 0.348175 -0.073059
0.284690 0.498627 -0.073059
0.320088 0.498379 -0.073059
0.393891 0.497748 -0.073059
0.494470 0.496619 -0.073059
0.609580 0.494914 -0.073059
0.732499 0.492563 -0.073059
0.859838 0.489500 -0.073059
0.989837 0.485658 -0.073059
1.121530 0.480968 -0.073059
0.360924 0.623322 -0.073059
0.388286 0.623135 -0.073059
0.449019 0.622660 -0.073059
0.537278 0.621812 -0.073059
0.643004 0.620533 -0.073059
0.759154 0.618772 -0.073059
0.881598 0.616485 -0.073059
1.007985 0.613625 -0.073059
1.136944 0.610150 -0.073059
0.437210 0.748016 -0.073059
0.459140 0.747869 -0.073059
0.509771 0.747494 -0.073059
0.586951 0.746824 -0.073059
0.683184 0.745816 -0.073059
0.791932 0.744429 -0.073059
0.908748 0.742630 -0.073059
1.030843 0.740385 -0.073059
1.156486 0.737664 -0.073059
0.513524 0.872710 -0.073059
0.531605 0.872589 -0.073059
0.574431 0.872283 -0.073059
0.642045 0.871736 -0.073059
0.729218 0.870913 -0.073059
0.830353 0.869782 -0.073059
0.941074 0.868315 -0.073059
1.058353 0.866487 -0.073059
1.180181 0.864274 -0.073059
0.589855 0.997403 -0.073059
0.605099 0.997302 -0.073059
0.641833 0.997045 -0.073059
0.701345 0.996587 -0.073059
0.780189 0.995898 -0.073059
0.873832 0.994950 -0.073059
0.978241 0.993723 -0.073059
1.090346 0.992194 -0.073059
1.207965 0.990345 -0.073059
0.012286 -0.000355 0.158359
0.145760 -0.003308 0.157302
0.279930 -0.010824 0.154580
0.415543 -0.024228 0.149598
0.551563 -0.044399 0.141763
0.687747 -0.072069 0.130247
0.824012 -0.073059 0.113664
0.960322 -0.073059 0.089171
1.096660 -0.073059 0.048169
0.064327 0.124413 0.153221
0.164283 0.123207 0.152128
0.289382 0.120086 0.149308
0.421479 0.114317 0.144140
0.555740 0.105077 0.135988
0.690899 0.091034 0.123942
0.826504 0.069430 0.106428
0.962360 0.031920 0.080024
1.098368 -0.021819 0.032907
0.136012 0.249181 0.139269
0.203621 0.248607 0.138063
0.311936 0.247140 0.134946
0.436140 0.244498 0.129202
0.566195 0.240460 0.120053
0.698837 0.234791 0.106291
0.832803 0.227216 0.085577
0.967521 0.217383 0.051544
1.102702 0.204807 -0.007418
0.210641 0.373900 0.110126
0.258183 0.373546 0.108610
0.347939 0.372642 0.104657
0.460866 0.371023 0.097247
0.584253 0.368571 0.085036
0.712711 0.365174 0.065350
0.843883 0.360720 0.030520
0.976635 0.355088 -0.019249
1.110374 0.348142 -0.073059
0.286152 0.498606 0.042451
0.321362 0.498358 0.039214
0.394882 0.497726 0.030811
0.495217 0.496597 0.015824
0.610153 0.494892 -0.006729
0.732951 0.492541 -0.037666
0.860204 0.489478 -0.073059
0.990142 0.485635 -0.073059
1.121788 0.480945 -0.073059
0.362027 0.623306 -0.073059
0.389295 0.623119 -0.073059
0.449862 0.622644 -0.073059
0.537951 0.621796 -0.073059
0.643539 0.620517 -0.073059
0.759585 0.618756 -0.073059
0.881953 0.616468 -0.073059
1.008282 0.613609 -0.073059
1.137197 0.610134 -0.073059
0.438081 0.748003 -0.073059
0.459960 0.747856 -0.073059
0.510490 0.747481 -0.073059
0.587552 0.746812 -0.073059
0.683678 0.745803 -0.073059
0.792340 0.744417 -0.073059
0.909089 0.742617 -0.073059
1.031132 0.740373 -0.073059
1.156734 0.737651 -0.073059
0.514236 0.872699 -0.073059
0.532287 0.872579 -0.073059
0.575049 0.872273 -0.073059
0.642581 0.871726 -0.073059
0.729673 0.870903 -0.073059
0.830737 0.869771 -0.073059
0.941399 0.868305 -0.073059
1.058631 0.866477 -0.073059
1.180422 0.864264 -0.073059
0.590453 0.997394 -0.073059
0.605677 0.997293 -0.073059
0.642369 0.997037 -0.073059
0.701823 0.996579 -0.073059
0.780605 0.995889 -0.073059
0.874191 0.994942 -0.073059
0.978550 0.993714 -0.073059
1.090613 0.992185 -0.073059
1.208198 0.990336 -0.073059
0.028018 -0.000811 0.245801
0.151121 -0.003763 0.245149
0.282583 -0.011279 0.243481
0.417197 -0.024683 0.240473
0.552723 -0.044854 0.235865
0.688621 -0.072524 0.229371
0.824703 -0.073059 0.220647
0.960887 -0.073059 0.209232
1.097133 -0.073059 0.194457
0.074970 0.124228 0.242655
0.169038 0.123021 0.241993
0.291934 0.119894 0.240300
0.423104 0.114116 0.237247
0.556889 0.104860 0.232565
0.691768 0.090787 0.225965
0.827192 0.069121 0.217086
0.962923 0.031465 0.205450
1.098841 -0.022274 0.190352
0.141747 0.249093 0.234429
0.207414 0.248519 0.233741
0.314274 0.247051 0.231980
0.437698 0.244408 0.228800
0.567317 0.240368 0.223918
0.699693 0.234696 0.217020
0.833484 0.227118 0.207713
0.968080 0.217280 0.195458
1.103171 0.204697 0.179441
0.214296 0.373846 0.218887
0.261095 0.373491 0.218144
0.349991 0.372587 0.216238
0.462320 0.370968 0.212793
0.585331 0.368515 0.207489
0.713546 0.365117 0.199958
0.844552 0.360663 0.189724
0.977187 0.355030 0.176101
1.110839 0.348082 0.157988
0.288738 0.498568 0.192853
0.323618 0.498320 0.191997
0.396642 0.497688 0.189801
0.496546 0.496559 0.185814
0.611173 0.494854 0.179633
0.733756 0.492502 0.170765
0.860857 0.489439 0.158509
0.990684 0.485596 0.141744
1.122247 0.480905 0.118372
0.363983 0.623277 0.149233
0.391086 0.623091 0.148110
0.451361 0.622616 0.145211
0.539148 0.621767 0.139888
0.644491 0.620488 0.131473
0.760354 0.618727 0.118981
0.882585 0.616439 0.100666
1.008811 0.613580 0.072519
1.137648 0.610104 0.020982
0.439630 0.747981 0.056661
0.461418 0.747833 0.054011
0.511769 0.747458 0.046822
0.588622 0.746789 0.032249
0.684559 0.745780 0.009697
0.793067 0.744394 -0.021240
0.909696 0.742594 -0.061275
1.031645 0.740350 -0.073059
1.157175 0.737628 -0.073059
0.515504 0.872681 -0.073059
0.533501 0.872560 -0.073059
0.576149 0.872254 -0.073059
0.643535 0.871707 -0.073059
0.730482 0.870884 -0.073059
0.831420 0.869753 -0.073059
0.941979 0.868286 -0.073059
1.059127 0.866458 -0.073059
1.180851 0.864245 -0.073059
0.591516 0.997379 -0.073059
0.606706 0.997278 -0.073059
0.643323 0.997021 -0.073059
0.702675 0.996563 -0.073059
0.781347 0.995873 -0.073059
0.874830 0.994926 -0.073059
0.979100 0.993699 -0.073059
1.091090 0.992170 -0.073059
1.208614 0.990320 -0.073059
0.050717 -0.001495 0.333243
0.158839 -0.004448 0.332787
0.286521 -0.011964 0.331624
0.419669 -0.025368 0.329537
0.554463 -0.045539 0.326367
0.689934 -0.073059 0.321956
0.825741 -0.073059 0.316140
0.961735 -0.073059 0.308726
1.097845 -0.073059 0.299484
0.089002 0.123949 0.331049
0.175937 0.122739 0.330590
0.295727 0.119606 0.329417
0.425535 0.113813 0.327314
0.558612 0.104532 0.324117
0.693072 0.090414 0.319670
0.828226 0.068654 0.313803
0.963769 0.030780 0.306321
1.099551 -0.022958 0.296990
0.149961 0.248960 0.325386
0.212980 0.248385 0.324917
0.317752 0.246917 0.323720
0.440029 0.244272 0.321571
0.569001 0.240229 0.318306
0.700979 0.234554 0.313759
0.834507 0.226970 0.307758
0.968920 0.217125 0.300097
1.103878 0.204531 0.290528
0.219669 0.373763 0.314982
0.265407 0.373409 0.314494
0.353052 0.372504 0.313249
0.464498 0.370885 0.311014
0.586949 0.368431 0.307614
0.714799 0.365033 0.302877
0.845558 0.360577 0.296612
0.978017 0.354943 0.288600
1.111539 0.347993 0.278564
0.292580 0.498510 0.298506
0.326979 0.498262 0.297986
0.399273 0.497630 0.296658
0.498538 0.496501 0.294273
0.612704 0.494796 0.290640
0.734965 0.492444 0.285568
0.861838 0.489380 0.278842
0.991499 0.485537 0.270208
1.122937 0.480845 0.259336
0.366903 0.623234 0.273982
0.393762 0.623047 0.273407
0.453605 0.622572 0.271938
0.540944 0.621724 0.269294
0.645921 0.620444 0.265257
0.761508 0.618683 0.259601
0.883534 0.616395 0.252064
1.009606 0.613535 0.242317
1.138326 0.610060 0.229918
0.441948 0.747946 0.237836
0.463602 0.747799 0.237160
0.513687 0.747424 0.235427
0.590228 0.746755 0.232300
0.685882 0.745746 0.227503
0.794159 0.744359 0.220732
0.910608 0.742560 0.211607
1.032418 0.740315 0.199615
1.157837 0.737593 0.183993
0.517404 0.872653 0.181595
0.535320 0.872532 0.180681
0.577799 0.872226 0.178334
0.644967 0.871679 0.174064
0.731698 0.870856 0.167419
0.832447 0.869725 0.157825
0.942850 0.868258 0.144430
1.059873 0.866430 0.125784
1.181496 0.864216 0.098880
0.593112 0.997355 0.064246
0.608251 0.997254 0.061835
0.644756 0.996998 0.055360
0.703953 0.996540 0.042265
0.782460 0.995850 0.019768
0.875791 0.994903 -0.011169
0.979928 0.993675 -0.051204
1.091807 0.992146 -0.073059
1.209240 0.990296 -0.073059
0.074528 -0.002435 0.420685
0.168832 -0.005388 0.420342
0.291823 -0.012904 0.419468
0.423033 -0.026308 0.417904
0.556838 -0.046478 0.415536
0.691729 -0.073059 0.412260
0.827162 -0.073059 0.407973
0.962898 -0.073059 0.402564
1.098820 -0.073059 0.395913
0.105597 0.123565 0.419037
0.184957 0.122352 0.418692
0.300838 0.119208 0.417814
0.428841 0.113397 0.416242
0.560965 0.104081 0.413862
0.694857 0.089900 0.410570
0.829641 0.068009 0.406261
0.964928 0.029840 0.400824
1.100524 -0.023898 0.394136
0.160530 0.248777 0.414805
0.220362 0.248202 0.414457
0.322452 0.246732 0.413567
0.443202 0.244085 0.411975
0.571299 0.240039 0.409565
0.702738 0.234358 0.406229
0.835909 0.226767 0.401862
0.970071 0.216911 0.396351
1.104846 0.204303 0.389569
0.226809 0.373651 0.407124
0.271194 0.373296 0.406767
0.357199 0.372391 0.405856
0.467465 0.370771 0.404227
0.589158 0.368317 0.401759
0.716514 0.364917 0.398343
0.846935 0.360459 0.393868
0.979154 0.354823 0.388216
1.112499 0.347870 0.381256
0.297754 0.498431 0.395215
0.331522 0.498183 0.394845
0.402848 0.497551 0.393901
0.501255 0.496422 0.392210
0.614795 0.494716 0.389648
0.736619 0.492364 0.386099
0.863182 0.489299 0.381447
0.992615 0.485455 0.375566
1.123884 0.480763 0.368312
0.370863 0.623174 0.378124
0.397398 0.622988 0.377733
0.456660 0.622513 0.376736
0.543395 0.621664 0.374949
0.647875 0.620385 0.372241
0.763087 0.618624 0.368487
0.884834 0.616335 0.363558
1.010697 0.613475 0.357315
1.139256 0.609999 0.349598
0.445104 0.747900 0.354497
0.466576 0.747752 0.354074
0.516303 0.747377 0.352995
0.592422 0.746708 0.351061
0.687691 0.745699 0.348125
0.795654 0.744312 0.344049
0.911857 0.742513 0.338685
1.033476 0.740267 0.331872
1.158746 0.737545 0.323416
0.519997 0.872614 0.322162
0.537804 0.872494 0.321687
0.580054 0.872188 0.320475
0.646926 0.871641 0.318301
0.733362 0.870818 0.314994
0.833853 0.869686 0.310390
0.944043 0.868220 0.304309
1.060895 0.866391 0.296543
1.182380 0.864178 0.286834
0.595293 0.997323 0.277038
0.610363 0.997222 0.276471
0.646716 0.996966 0.275020
0.705703 0.996508 0.272411
0.783985 0.995818 0.268429
0.877106 0.994871 0.262852
0.981062 0.993643 0.255426
1.092789 0.992114 0.245831
1.210097 0.990264 0.233645
0.098338 -0.003651 0.508127
0.180902 -0.006603 0.507856
0.298519 -0.014119 0.507167
0.427337 -0.027523 0.505934
0.559893 -0.047694 0.504072
0.694044 -0.073059 0.501503
0.828996 -0.073059 0.498153
0.964400 -0.073059 0.493950
1.100080 -0.073059 0.488814
0.124035 0.123067 0.506827
0.195968 0.121848 0.506555
0.307303 0.118693 0.505863
0.433073 0.112856 0.504627
0.563992 0.103495 0.502758
0.697158 0.089232 0.500181
0.831468 0.067167 0.496820
0.966426 0.028625 0.492602
1.101782 -0.025114 0.487449
0.173213 0.248541 0.503498
0.229523 0.247965 0.503224
0.328414 0.246493 0.502527
0.447266 0.243843 0.501279
0.574257 0.239792 0.499395
0.705006 0.234105 0.496796
0.837718 0.226504 0.493406
0.971558 0.216635 0.489151
1.106097 0.204008 0.483951
0.235688 0.373505 0.497492
0.278475 0.373150 0.497214
0.362481 0.372245 0.496506
0.471270 0.370624 0.495239
0.592002 0.368168 0.493326
0.718726 0.364766 0.490686
0.848714 0.360307 0.487242
0.980623 0.354667 0.482919
1.113738 0.347711 0.477633
0.304297 0.498329 0.488277
0.337293 0.498081 0.487993
0.407416 0.497449 0.487268
0.504742 0.496319 0.485971
0.617489 0.494613 0.484011
0.738752 0.492260 0.481307
0.864916 0.489195 0.477778
0.994058 0.485350 0.473345
1.125107 0.480656 0.467924
0.375913 0.623098 0.475269
0.402043 0.622911 0.474975
0.460577 0.622436 0.474225
0.546546 0.621587 0.472883
0.650394 0.620307 0.470854
0.765125 0.618546 0.468054
0.886513 0.616257 0.464399
1.012105 0.613397 0.459804
1.140457 0.609920 0.454179
0.449147 0.747839 0.457742
0.470390 0.747692 0.457434
0.519664 0.747317 0.456647
0.595246 0.746647 0.455240
0.690023 0.745638 0.453112
0.797584 0.744251 0.450173
0.913471 0.742451 0.446334
1.034843 0.740206 0.441503
1.159920 0.737483 0.435581
0.523327 0.872565 0.434710
0.540996 0.872445 0.434381
0.582954 0.872138 0.433542
0.649449 0.871592 0.432040
0.735508 0.870768 0.429769
0.835668 0.869637 0.426628
0.945585 0.868170 0.422520
1.062216 0.866341 0.417344
1.183523 0.864128 0.410988
0.598099 0.997282 0.404707
0.613081 0.997181 0.404347
0.649240 0.996924 0.403430
0.707958 0.996466 0.401789
0.785952 0.995776 0.399302
0.878804 0.994829 0.395860
0.982527 0.993601 0.391350
1.094059 0.992072 0.385653
1.211205 0.990222 0.378635
0.122148 -0.005162 0.595569
0.194797 -0.008115 0.595348
0.306603 -0.015631 0.594785
0.432613 -0.029035 0.593779
0.563662 -0.049205 0.592261
0.696907 -0.073059 0.590170
0.831268 -0.073059 0.587450
0.966262 -0.073059 0.584047
1.101644 -0.073059 0.579904
0.143782 0.122445 0.594507
0.208778 0.121220 0.594286
0.315121 0.118048 0.593721
0.438264 0.112180 0.592713
0.567726 0.102762 0.591191
0.700005 0.088395 0.589096
0.833732 0.066108 0.586370
0.968283 0.027113 0.582958
1.103343 -0.026625 0.578805
0.187721 0.248246 0.591794
0.240364 0.247670 0.591571
0.335650 0.246196 0.591003
0.452255 0.243543 0.589988
0.577906 0.239486 0.588458
0.707812 0.233790 0.586350
0.839959 0.226177 0.583607
0.973403 0.216291 0.580175
1.107650 0.203640 0.575996
0.246222 0.373323 0.586914
0.287227 0.372968 0.586689
0.368920 0.372062 0.586115
0.475947 0.370440 0.585090
0.595513 0.367983 0.583543
0.721463 0.364580 0.581412
0.850917 0.360117 0.578639
0.982445 0.354474 0.575169
1.115277 0.347512 0.570943
0.312204 0.498202 0.579472
0.344306 0.497954 0.579243
0.413009 0.497322 0.578659
0.509036 0.496192 0.577617
0.620816 0.494485 0.576044
0.741394 0.492131 0.573878
0.867066 0.489065 0.571059
0.995847 0.485218 0.567529
1.126625 0.480523 0.563230
0.382077 0.623002 0.569059
0.407727 0.622816 0.568825
0.465389 0.622340 0.568228
0.550431 0.621491 0.567161
0.653507 0.620211 0.565551
0.767648 0.618450 0.563333
0.888594 0.616160 0.560446
1.013852 0.613299 0.556830
1.141948 0.609822 0.552424
0.454110 0.747764 0.555213
0.475077 0.747616 0.554971
0.523803 0.747241 0.554355
0.598733 0.746572 0.553254
0.692908 0.745562 0.551592
0.799974 0.744175 0.549301
0.915472 0.742375 0.546319
1.036540 0.740130 0.542583
1.161378 0.737407 0.538028
0.527431 0.872503 0.537361
0.544932 0.872383 0.537109
0.586535 0.872077 0.536466
0.652568 0.871530 0.535318
0.738164 0.870706 0.533585
0.837917 0.869575 0.531195
0.947496 0.868108 0.528083
1.063855 0.866279 0.524181
1.184942 0.864065 0.519420
0.601565 0.997230 0.514752
0.616439 0.997129 0.514486
0.652360 0.996872 0.513807
0.710749 0.996414 0.512594
0.788389 0.995724 0.510763
0.880909 0.994777 0.508236
0.984345 0.993549 0.504944
1.095635 0.992020 0.500812
1.212581 0.990170 0.495766
0.145958 -0.006986 0.683011
0.210248 -0.009939 0.682826
0.316038 -0.017455 0.682354
0.438878 -0.030859 0.681511
0.568169 -0.051030 0.680241
0.700344 -0.073059 0.678493
0.834001 -0.073059 0.676222
0.968504 -0.073059 0.673385
1.103529 -0.073059 0.669940
0.164459 0.121690 0.682121
0.223166 0.120458 0.681936
0.324262 0.117266 0.681463
0.444431 0.111358 0.680619
0.572192 0.101871 0.679346
0.703422 0.087375 0.677595
0.836454 0.064813 0.675321
0.970519 0.025289 0.672479
1.105223 -0.028449 0.669028
0.203760 0.247891 0.679850
0.252752 0.247313 0.679664
0.344143 0.245837 0.679189
0.458188 0.243179 0.678341
0.582273 0.239115 0.677063
0.711180 0.233409 0.675304
0.842655 0.225782 0.673020
0.975623 0.215875 0.670165
1.109521 0.203195 0.666699
0.258290 0.373104 0.675775
0.297393 0.372748 0.675587
0.376514 0.371842 0.675108
0.481517 0.370219 0.674254
0.599717 0.367760 0.672966
0.724749 0.364354 0.671193
0.853568 0.359888 0.668890
0.984638 0.354240 0.666013
1.117131 0.347273 0.662518
0.321444 0.498049 0.669581
0.352549 0.497801 0.669391
0.419639 0.497168 0.668907
0.514159 0.496038 0.668042
0.624802 0.494330 0.666738
0.744566 0.491976 0.664944
0.869652 0.488908 0.662613
0.998002 0.485060 0.659701
1.128454 0.480363 0.656162
0.389360 0.622887 0.660963
0.414461 0.622700 0.660770
0.471116 0.622225 0.660277
0.555075 0.621376 0.659398
0.657240 0.620095 0.658072
0.770680 0.618333 0.656247
0.891098 0.616043 0.653876
1.015956 0.613181 0.650913
1.143744 0.609703 0.647312
0.460014 0.747673 0.649590
0.480660 0.747525 0.649392
0.528747 0.747150 0.648888
0.602908 0.746480 0.647989
0.696370 0.745471 0.646633
0.802848 0.744084 0.644766
0.917880 0.742283 0.642340
1.038583 0.740037 0.639308
1.163134 0.737314 0.635622
0.532331 0.872429 0.635083
0.549635 0.872309 0.634879
0.590820 0.872002 0.634361
0.656308 0.871455 0.633435
0.741354 0.870632 0.632038
0.840621 0.869500 0.630115
0.949798 0.868033 0.627616
1.065829 0.866204 0.624491
1.186652 0.863990 0.620691
0.605714 0.997168 0.616979
0.620462 0.997067 0.616768
0.656101 0.996810 0.616230
0.714099 0.996352 0.615268
0.791317 0.995662 0.613818
0.883442 0.994715 0.611822
0.986533 0.993487 0.609225
1.097533 0.991957 0.605978
1.214238 0.990107 0.602027
