滤镜资源/Professional Luts Collection/Lutify.me Professional/Utility LUTs/White Balance/2800 Kelvin - 6500 Kelvin - 1.56 CTO.cube
# Created by: Lutify.me
# Copyright: (c) Copyright Lutify.me 2015
# Website: https://lutify.me
LUT_3D_SIZE 33
0.000000 0.000000 0.000000
0.039934 -0.000630 -0.000623
0.075140 -0.001342 -0.001328
0.109751 -0.002364 -0.002339
0.144363 -0.003736 -0.003696
0.178975 -0.005486 -0.005428
0.213586 -0.007640 -0.007558
0.248198 -0.010220 -0.010111
0.282809 -0.013246 -0.013105
0.317421 -0.016741 -0.016562
0.352033 -0.020720 -0.020499
0.386644 -0.025204 -0.024935
0.421256 -0.030207 -0.029885
0.455867 -0.035746 -0.035365
0.490479 -0.041837 -0.041390
0.525091 -0.048493 -0.047976
0.559702 -0.055729 -0.055135
0.594314 -0.063559 -0.062881
0.628926 -0.071996 -0.071228
0.663537 -0.073059 -0.073059
0.698149 -0.073059 -0.073059
0.732760 -0.073059 -0.073059
0.767372 -0.073059 -0.073059
0.801984 -0.073059 -0.073059
0.836595 -0.073059 -0.073059
0.871207 -0.073059 -0.073059
0.905819 -0.073059 -0.073059
0.940430 -0.073059 -0.073059
0.975042 -0.073059 -0.073059
1.009653 -0.073059 -0.073059
1.044265 -0.073059 -0.073059
1.078877 -0.073059 -0.073059
1.113488 -0.073059 -0.073059
0.012112 0.030481 -0.002930
0.051020 0.029851 -0.003553
0.082557 0.029139 -0.004258
0.115172 0.028117 -0.005269
0.148548 0.026745 -0.006627
0.182335 0.024995 -0.008358
0.216364 0.022841 -0.010489
0.250546 0.020262 -0.013041
0.284831 0.017235 -0.016035
0.319186 0.013741 -0.019492
0.353592 0.009761 -0.023430
0.388036 0.005278 -0.027865
0.422508 0.000274 -0.032815
0.457003 -0.005265 -0.038295
0.491515 -0.011355 -0.044320
0.526042 -0.018012 -0.050906
0.560579 -0.025248 -0.058065
0.595126 -0.033078 -0.065812
0.629681 -0.041515 -0.073059
0.664242 -0.050571 -0.073059
0.698809 -0.060260 -0.073059
0.733380 -0.070592 -0.073059
0.767956 -0.073059 -0.073059
0.802535 -0.073059 -0.073059
0.837117 -0.073059 -0.073059
0.871701 -0.073059 -0.073059
0.906288 -0.073059 -0.073059
0.940877 -0.073059 -0.073059
0.975468 -0.073059 -0.073059
1.010060 -0.073059 -0.073059
1.044654 -0.073059 -0.073059
1.079249 -0.073059 -0.073059
1.113845 -0.073059 -0.073059
0.025818 0.061287 -0.006246
0.061866 0.060816 -0.006869
0.090327 0.060280 -0.007574
0.121028 0.059505 -0.008585
0.153143 0.058452 -0.009942
0.186058 0.057090 -0.011674
0.219460 0.055381 -0.013804
0.253174 0.053284 -0.016356
0.287097 0.050748 -0.019351
0.321169 0.047711 -0.022808
0.355346 0.044091 -0.026745
0.389603 0.039769 -0.031181
0.423920 0.034766 -0.036130
0.458284 0.029227 -0.041611
0.492685 0.023136 -0.047636
0.527115 0.016480 -0.054222
0.561570 0.009243 -0.061381
0.596044 0.001413 -0.069127
0.630534 -0.007024 -0.073059
0.665039 -0.016080 -0.073059
0.699555 -0.025768 -0.073059
0.734081 -0.036100 -0.073059
0.768616 -0.047088 -0.073059
0.803158 -0.058742 -0.073059
0.837706 -0.071075 -0.073059
0.872260 -0.073059 -0.073059
0.906819 -0.073059 -0.073059
0.941382 -0.073059 -0.073059
0.975950 -0.073059 -0.073059
1.010520 -0.073059 -0.073059
1.045094 -0.073059 -0.073059
1.079670 -0.073059 -0.073059
1.114249 -0.073059 -0.073059
0.045218 0.092214 -0.011000
0.075319 0.091876 -0.011623
0.100545 0.091492 -0.012328
0.128977 0.090939 -0.013339
0.159493 0.090192 -0.014697
0.191261 0.089231 -0.016428
0.223816 0.088036 -0.018559
0.256887 0.086586 -0.021111
0.290312 0.084858 -0.024105
0.323987 0.082825 -0.027562
0.357844 0.080457 -0.031500
0.391837 0.077718 -0.035935
0.425934 0.074565 -0.040885
0.460113 0.070944 -0.046365
0.494355 0.066786 -0.052390
0.528649 0.062002 -0.058976
0.562986 0.056470 -0.066135
0.597356 0.050015 -0.073059
0.631756 0.042372 -0.073059
0.666179 0.033376 -0.073059
0.700623 0.023688 -0.073059
0.735084 0.013356 -0.073059
0.769561 0.002368 -0.073059
0.804050 -0.009286 -0.073059
0.838550 -0.021619 -0.073059
0.873061 -0.034640 -0.073059
0.907580 -0.048361 -0.073059
0.942106 -0.062792 -0.073059
0.976640 -0.073059 -0.073059
1.011179 -0.073059 -0.073059
1.045724 -0.073059 -0.073059
1.080274 -0.073059 -0.073059
1.114828 -0.073059 -0.073059
0.066272 0.123142 -0.017384
0.090791 0.122883 -0.018007
0.112943 0.122589 -0.018712
0.138950 0.122167 -0.019723
0.167628 0.121599 -0.021081
0.198014 0.120869 -0.022812
0.229519 0.119966 -0.024943
0.261778 0.118876 -0.027495
0.294563 0.117584 -0.030489
0.327725 0.116075 -0.033946
0.361164 0.114334 -0.037884
0.394812 0.112342 -0.042319
0.428620 0.110079 -0.047269
0.462554 0.107522 -0.052749
0.496587 0.104644 -0.058775
0.530701 0.101413 -0.065360
0.564880 0.097791 -0.072519
0.599113 0.093732 -0.073059
0.633391 0.089176 -0.073059
0.667706 0.084051 -0.073059
0.702054 0.078258 -0.073059
0.736429 0.071664 -0.073059
0.770827 0.064078 -0.073059
0.805246 0.055214 -0.073059
0.839682 0.044592 -0.073059
0.874134 0.031770 -0.073059
0.908600 0.018049 -0.073059
0.943077 0.003619 -0.073059
0.977566 -0.011532 -0.073059
1.012063 -0.027412 -0.073059
1.046570 -0.044032 -0.073059
1.081084 -0.061401 -0.073059
1.115605 -0.073059 -0.073059
0.087326 0.154069 -0.025528
0.107691 0.153862 -0.026151
0.127103 0.153628 -0.026856
0.150712 0.153291 -0.027867
0.177436 0.152838 -0.029224
0.206279 0.152258 -0.030956
0.236569 0.151541 -0.033086
0.267868 0.150678 -0.035638
0.299883 0.149659 -0.038633
0.332421 0.148473 -0.042090
0.365347 0.147110 -0.046027
0.398568 0.145560 -0.050463
0.432017 0.143810 -0.055413
0.465645 0.141847 -0.060893
0.499417 0.139656 -0.066918
0.533303 0.137221 -0.073059
0.567285 0.134525 -0.073059
0.601344 0.131545 -0.073059
0.635468 0.128258 -0.073059
0.669647 0.124636 -0.073059
0.703873 0.120643 -0.073059
0.738139 0.116241 -0.073059
0.772438 0.111378 -0.073059
0.806768 0.105993 -0.073059
0.841123 0.100005 -0.073059
0.875501 0.093310 -0.073059
0.909899 0.085764 -0.073059
0.944314 0.077163 -0.073059
0.978745 0.067197 -0.073059
1.013190 0.055356 -0.073059
1.047647 0.040677 -0.073059
1.082116 0.023313 -0.073059
1.116594 0.005186 -0.073059
0.108380 0.184996 -0.035548
0.125594 0.184826 -0.036171
0.142648 0.184633 -0.036876
0.164004 0.184356 -0.037887
0.188761 0.183983 -0.039244
0.215970 0.183506 -0.040976
0.244929 0.182918 -0.043106
0.275147 0.182210 -0.045658
0.306280 0.181376 -0.048653
0.338091 0.180408 -0.052110
0.370414 0.179299 -0.056047
0.403130 0.178040 -0.060482
0.436151 0.176624 -0.065432
0.469414 0.175042 -0.070912
0.502870 0.173285 -0.073059
0.536483 0.171343 -0.073059
0.570226 0.169205 -0.073059
0.604074 0.166859 -0.073059
0.638013 0.164291 -0.073059
0.672026 0.161487 -0.073059
0.706104 0.158430 -0.073059
0.740236 0.155101 -0.073059
0.774415 0.151478 -0.073059
0.808636 0.147535 -0.073059
0.842892 0.143242 -0.073059
0.877179 0.138563 -0.073059
0.911494 0.133455 -0.073059
0.945833 0.127865 -0.073059
0.980193 0.121727 -0.073059
1.014573 0.114955 -0.073059
1.048971 0.107438 -0.073059
1.083383 0.099022 -0.073059
1.117810 0.089492 -0.073059
0.129434 0.215924 -0.047550
0.144210 0.215780 -0.048173
0.159266 0.215617 -0.048878
0.178571 0.215383 -0.049889
0.201425 0.215069 -0.051247
0.226975 0.214667 -0.052978
0.254533 0.214172 -0.055109
0.283580 0.213577 -0.057661
0.313739 0.212877 -0.060655
0.344737 0.212065 -0.064112
0.376376 0.211136 -0.068050
0.408512 0.210084 -0.072485
0.441040 0.208903 -0.073059
0.473879 0.207587 -0.073059
0.506968 0.206129 -0.073059
0.540261 0.204523 -0.073059
0.573723 0.202761 -0.073059
0.607325 0.200835 -0.073059
0.641044 0.198736 -0.073059
0.674861 0.196456 -0.073059
0.708763 0.193985 -0.073059
0.742738 0.191311 -0.073059
0.776775 0.188422 -0.073059
0.810865 0.185305 -0.073059
0.845004 0.181943 -0.073059
0.879183 0.178319 -0.073059
0.913399 0.174413 -0.073059
0.947648 0.170203 -0.073059
0.981925 0.165660 -0.073059
1.016228 0.160754 -0.073059
1.050553 0.155445 -0.073059
1.084899 0.149690 -0.073059
1.119264 0.143431 -0.073059
0.150488 0.246851 -0.061634
0.163341 0.246727 -0.062257
0.176713 0.246588 -0.062962
0.194186 0.246387 -0.063973
0.215249 0.246117 -0.065331
0.239167 0.245772 -0.067062
0.265295 0.245347 -0.069193
0.293116 0.244837 -0.071745
0.322231 0.244237 -0.073059
0.352342 0.243542 -0.073059
0.383227 0.242747 -0.073059
0.414719 0.241849 -0.073059
0.446692 0.240842 -0.073059
0.479051 0.239721 -0.073059
0.511724 0.238482 -0.073059
0.544652 0.237120 -0.073059
0.577793 0.235628 -0.073059
0.611111 0.234002 -0.073059
0.644577 0.232236 -0.073059
0.678169 0.230322 -0.073059
0.711868 0.228256 -0.073059
0.745660 0.226028 -0.073059
0.779531 0.223631 -0.073059
0.813472 0.221057 -0.073059
0.847473 0.218297 -0.073059
0.881528 0.215339 -0.073059
0.915629 0.212172 -0.073059
0.949772 0.208783 -0.073059
0.983951 0.205159 -0.073059
1.018164 0.201283 -0.073059
1.052406 0.197137 -0.073059
1.086675 0.192699 -0.073059
1.120968 0.187945 -0.073059
0.171542 0.277778 -0.073059
0.182852 0.277671 -0.073059
0.194803 0.277549 -0.073059
0.210659 0.277373 -0.073059
0.230066 0.277138 -0.073059
0.252414 0.276838 -0.073059
0.277120 0.276467 -0.073059
0.303687 0.276023 -0.073059
0.331712 0.275501 -0.073059
0.360882 0.274896 -0.073059
0.390954 0.274206 -0.073059
0.421743 0.273426 -0.073059
0.453107 0.272552 -0.073059
0.484936 0.271581 -0.073059
0.517145 0.270508 -0.073059
0.549666 0.269330 -0.073059
0.582446 0.268043 -0.073059
0.615443 0.266642 -0.073059
0.648624 0.265123 -0.073059
0.681960 0.263481 -0.073059
0.715430 0.261711 -0.073059
0.749014 0.259808 -0.073059
0.782697 0.257766 -0.073059
0.816467 0.255580 -0.073059
0.850312 0.253244 -0.073059
0.884223 0.250749 -0.073059
0.918193 0.248089 -0.073059
0.952215 0.245256 -0.073059
0.986284 0.242241 -0.073059
1.020393 0.239033 -0.073059
1.054540 0.235624 -0.073059
1.088719 0.231999 -0.073059
1.122929 0.228147 -0.073059
0.192596 0.308706 -0.073059
0.202647 0.308611 -0.073059
0.213396 0.308503 -0.073059
0.227831 0.308348 -0.073059
0.245727 0.308141 -0.073059
0.266590 0.307875 -0.073059
0.289909 0.307549 -0.073059
0.315220 0.307157 -0.073059
0.342129 0.306696 -0.073059
0.370318 0.306164 -0.073059
0.399532 0.305556 -0.073059
0.429571 0.304869 -0.073059
0.460279 0.304101 -0.073059
0.491532 0.303247 -0.073059
0.523233 0.302305 -0.073059
0.555306 0.301272 -0.073059
0.587688 0.300144 -0.073059
0.620331 0.298918 -0.073059
0.653195 0.297590 -0.073059
0.686246 0.296157 -0.073059
0.719459 0.294614 -0.073059
0.752811 0.292959 -0.073059
0.786283 0.291186 -0.073059
0.819861 0.289291 -0.073059
0.853530 0.287271 -0.073059
0.887281 0.285119 -0.073059
0.921103 0.282831 -0.073059
0.954989 0.280401 -0.073059
0.988931 0.277823 -0.073059
1.022924 0.275090 -0.073059
1.056963 0.272196 -0.073059
1.091042 0.269132 -0.073059
1.125158 0.265891 -0.073059
0.213651 0.339633 -0.073059
0.222660 0.339548 -0.073059
0.232384 0.339452 -0.073059
0.245573 0.339314 -0.073059
0.262101 0.339129 -0.073059
0.281577 0.338893 -0.073059
0.303562 0.338601 -0.073059
0.327636 0.338252 -0.073059
0.353424 0.337842 -0.073059
0.380609 0.337368 -0.073059
0.408932 0.336826 -0.073059
0.438183 0.336215 -0.073059
0.468194 0.335532 -0.073059
0.498831 0.334773 -0.073059
0.529986 0.333936 -0.073059
0.561573 0.333019 -0.073059
0.593523 0.332019 -0.073059
0.625779 0.330932 -0.073059
0.658295 0.329756 -0.073059
0.691033 0.328488 -0.073059
0.723963 0.327126 -0.073059
0.757059 0.325665 -0.073059
0.790298 0.324103 -0.073059
0.823662 0.322436 -0.073059
0.857137 0.320661 -0.073059
0.890709 0.318774 -0.073059
0.924367 0.316771 -0.073059
0.958101 0.314647 -0.073059
0.991903 0.312400 -0.073059
1.025766 0.310023 -0.073059
1.059684 0.307512 -0.073059
1.093651 0.304862 -0.073059
1.127662 0.302067 -0.073059
0.234705 0.370560 -0.073059
0.242841 0.370484 -0.073059
0.251688 0.370398 -0.073059
0.263783 0.370274 -0.073059
0.279078 0.370107 -0.073059
0.297269 0.369894 -0.073059
0.317987 0.369632 -0.073059
0.340858 0.369319 -0.073059
0.365533 0.368950 -0.073059
0.391706 0.368523 -0.073059
0.419117 0.368037 -0.073059
0.447551 0.367488 -0.073059
0.476834 0.366875 -0.073059
0.506820 0.366194 -0.073059
0.537395 0.365444 -0.073059
0.568464 0.364621 -0.073059
0.599949 0.363725 -0.073059
0.631787 0.362752 -0.073059
0.663927 0.361700 -0.073059
0.696325 0.360567 -0.073059
0.728947 0.359349 -0.073059
0.761762 0.358046 -0.073059
0.794746 0.356653 -0.073059
0.827877 0.355169 -0.073059
0.861138 0.353589 -0.073059
0.894514 0.351913 -0.073059
0.927990 0.350136 -0.073059
0.961557 0.348255 -0.073059
0.995205 0.346266 -0.073059
1.028925 0.344168 -0.073059
1.062709 0.341954 -0.073059
1.096552 0.339623 -0.073059
1.130448 0.337169 -0.073059
0.255759 0.401488 -0.073059
0.263156 0.401419 -0.073059
0.271247 0.401340 -0.073059
0.282379 0.401228 -0.073059
0.296565 0.401077 -0.073059
0.313572 0.400884 -0.073059
0.333097 0.400647 -0.073059
0.354810 0.400362 -0.073059
0.378394 0.400028 -0.073059
0.403557 0.399642 -0.073059
0.430047 0.399202 -0.073059
0.457646 0.398705 -0.073059
0.486175 0.398150 -0.073059
0.515484 0.397534 -0.073059
0.545450 0.396856 -0.073059
0.575970 0.396113 -0.073059
0.606961 0.395303 -0.073059
0.638354 0.394424 -0.073059
0.670091 0.393475 -0.073059
0.702124 0.392453 -0.073059
0.734414 0.391355 -0.073059
0.766926 0.390181 -0.073059
0.799633 0.388928 -0.073059
0.832512 0.387592 -0.073059
0.865540 0.386174 -0.073059
0.898701 0.384668 -0.073059
0.931981 0.383075 -0.073059
0.965365 0.381390 -0.073059
0.998844 0.379611 -0.073059
1.032407 0.377735 -0.073059
1.066045 0.375759 -0.073059
1.099752 0.373681 -0.073059
1.133521 0.371498 -0.073059
0.276813 0.432415 -0.073059
0.283578 0.432352 -0.073059
0.291011 0.432281 -0.073059
0.301295 0.432178 -0.073059
0.314483 0.432040 -0.073059
0.330405 0.431864 -0.073059
0.348812 0.431648 -0.073059
0.369421 0.431389 -0.073059
0.391944 0.431084 -0.073059
0.416112 0.430732 -0.073059
0.441679 0.430331 -0.073059
0.468433 0.429878 -0.073059
0.496193 0.429372 -0.073059
0.524803 0.428811 -0.073059
0.554135 0.428194 -0.073059
0.584082 0.427517 -0.073059
0.614554 0.426780 -0.073059
0.645476 0.425981 -0.073059
0.676785 0.425118 -0.073059
0.708429 0.424189 -0.073059
0.740364 0.423193 -0.073059
0.772552 0.422127 -0.073059
0.804962 0.420989 -0.073059
0.837568 0.419779 -0.073059
0.870346 0.418493 -0.073059
0.903276 0.417130 -0.073059
0.936343 0.415688 -0.073059
0.969530 0.414165 -0.073059
1.002825 0.412558 -0.073059
1.036218 0.410866 -0.073059
1.069698 0.409085 -0.073059
1.103257 0.407214 -0.073059
1.136887 0.405250 -0.073059
0.297867 0.463343 -0.073059
0.304085 0.463285 -0.073059
0.310945 0.463219 -0.073059
0.320477 0.463125 -0.073059
0.332768 0.462999 -0.073059
0.347696 0.462837 -0.073059
0.365061 0.462639 -0.073059
0.384622 0.462401 -0.073059
0.406125 0.462122 -0.073059
0.429318 0.461799 -0.073059
0.453971 0.461431 -0.073059
0.479878 0.461016 -0.073059
0.506857 0.460552 -0.073059
0.534753 0.460039 -0.073059
0.563433 0.459473 -0.073059
0.592786 0.458853 -0.073059
0.622716 0.458179 -0.073059
0.653145 0.457447 -0.073059
0.684004 0.456657 -0.073059
0.715237 0.455808 -0.073059
0.746796 0.454897 -0.073059
0.778640 0.453923 -0.073059
0.810734 0.452884 -0.073059
0.843049 0.451779 -0.073059
0.875559 0.450605 -0.073059
0.908242 0.449363 -0.073059
0.941079 0.448048 -0.073059
0.974054 0.446661 -0.073059
1.007152 0.445199 -0.073059
1.040361 0.443659 -0.073059
1.073670 0.442041 -0.073059
1.107070 0.440342 -0.073059
1.140551 0.438560 -0.073059
0.318921 0.494270 -0.073059
0.324664 0.494216 -0.073059
0.331019 0.494156 -0.073059
0.339884 0.494069 -0.073059
0.351366 0.493953 -0.073059
0.365385 0.493804 -0.073059
0.381782 0.493621 -0.073059
0.400355 0.493402 -0.073059
0.420878 0.493144 -0.073059
0.443125 0.492847 -0.073059
0.466879 0.492508 -0.073059
0.491943 0.492126 -0.073059
0.518138 0.491699 -0.073059
0.545310 0.491225 -0.073059
0.573324 0.490704 -0.073059
0.602066 0.490134 -0.073059
0.631437 0.489513 -0.073059
0.661352 0.488840 -0.073059
0.691742 0.488113 -0.073059
0.722544 0.487332 -0.073059
0.753708 0.486494 -0.073059
0.785188 0.485599 -0.073059
0.816948 0.484644 -0.073059
0.848955 0.483629 -0.073059
0.881180 0.482552 -0.073059
0.913600 0.481412 -0.073059
0.946193 0.480207 -0.073059
0.978941 0.478935 -0.073059
1.011828 0.477595 -0.073059
1.044841 0.476186 -0.073059
1.077967 0.474705 -0.073059
1.111196 0.473151 -0.073059
1.144517 0.471523 -0.073059
0.339975 0.525197 -0.073059
0.345301 0.525148 -0.073059
0.351210 0.525092 -0.073059
0.359479 0.525011 -0.073059
0.370232 0.524904 -0.073059
0.383420 0.524766 -0.073059
0.398919 0.524596 -0.073059
0.416562 0.524393 -0.073059
0.436152 0.524155 -0.073059
0.457485 0.523880 -0.073059
0.480361 0.523566 -0.073059
0.504591 0.523212 -0.073059
0.530004 0.522817 -0.073059
0.556448 0.522379 -0.073059
0.583787 0.521897 -0.073059
0.611905 0.521369 -0.073059
0.640701 0.520795 -0.073059
0.670087 0.520172 -0.073059
0.699990 0.519501 -0.073059
0.730344 0.518778 -0.073059
0.761095 0.518004 -0.073059
0.792195 0.517177 -0.073059
0.823603 0.516296 -0.073059
0.855285 0.515359 -0.073059
0.887210 0.514365 -0.073059
0.919351 0.513313 -0.073059
0.951685 0.512202 -0.073059
0.984193 0.511029 -0.073059
1.016856 0.509795 -0.073059
1.049660 0.508497 -0.073059
1.082591 0.507134 -0.073059
1.115637 0.505705 -0.073059
1.148787 0.504208 -0.073059
0.361029 0.556125 -0.073059
0.365987 0.556079 -0.073059
0.371500 0.556027 -0.073059
0.379236 0.555952 -0.073059
0.389329 0.555852 -0.073059
0.401756 0.555724 -0.073059
0.416424 0.555566 -0.073059
0.433195 0.555377 -0.073059
0.451898 0.555156 -0.073059
0.472353 0.554900 -0.073059
0.494374 0.554608 -0.073059
0.517786 0.554279 -0.073059
0.542424 0.553912 -0.073059
0.568139 0.553505 -0.073059
0.594798 0.553057 -0.073059
0.622284 0.552567 -0.073059
0.650493 0.552033 -0.073059
0.679337 0.551455 -0.073059
0.708738 0.550832 -0.073059
0.738628 0.550161 -0.073059
0.768951 0.549443 -0.073059
0.799654 0.548676 -0.073059
0.830696 0.547858 -0.073059
0.862037 0.546989 -0.073059
0.893646 0.546068 -0.073059
0.925494 0.545093 -0.073059
0.957556 0.544063 -0.073059
0.989810 0.542977 -0.073059
1.022237 0.541835 -0.073059
1.054820 0.540633 -0.073059
1.087544 0.539373 -0.073059
1.120396 0.538051 -0.073059
1.153364 0.536667 -0.073059
0.382083 0.587052 -0.073059
0.386714 0.587009 -0.073059
0.391874 0.586960 -0.073059
0.399130 0.586891 -0.073059
0.408625 0.586797 -0.073059
0.420355 0.586678 -0.073059
0.434254 0.586531 -0.073059
0.450208 0.586355 -0.073059
0.468072 0.586148 -0.073059
0.487685 0.585909 -0.073059
0.508879 0.585637 -0.073059
0.531491 0.585330 -0.073059
0.555365 0.584987 -0.073059
0.580356 0.584608 -0.073059
0.606334 0.584190 -0.073059
0.633183 0.583733 -0.073059
0.660798 0.583236 -0.073059
0.689088 0.582697 -0.073059
0.717975 0.582116 -0.073059
0.747389 0.581491 -0.073059
0.777268 0.580822 -0.073059
0.807561 0.580107 -0.073059
0.838221 0.579346 -0.073059
0.869209 0.578537 -0.073059
0.900489 0.577679 -0.073059
0.932030 0.576772 -0.073059
0.963806 0.575814 -0.073059
0.995793 0.574804 -0.073059
1.027971 0.573741 -0.073059
1.060321 0.572625 -0.073059
1.092827 0.571453 -0.073059
1.125475 0.570226 -0.073059
1.158251 0.568941 -0.073059
0.403138 0.617979 -0.073059
0.407477 0.617939 -0.073059
0.412319 0.617894 -0.073059
0.419142 0.617828 -0.073059
0.428094 0.617741 -0.073059
0.439185 0.617629 -0.073059
0.452372 0.617491 -0.073059
0.467562 0.617326 -0.073059
0.484632 0.617133 -0.073059
0.503442 0.616909 -0.073059
0.523840 0.616655 -0.073059
0.545674 0.616368 -0.073059
0.568797 0.616047 -0.073059
0.593072 0.615692 -0.073059
0.618371 0.615301 -0.073059
0.644580 0.614873 -0.073059
0.671595 0.614408 -0.073059
0.699325 0.613904 -0.073059
0.727689 0.613361 -0.073059
0.756614 0.612776 -0.073059
0.786039 0.612151 -0.073059
0.815909 0.611482 -0.073059
0.846175 0.610771 -0.073059
0.876796 0.610015 -0.073059
0.907733 0.609214 -0.073059
0.938955 0.608366 -0.073059
0.970433 0.607471 -0.073059
1.002142 0.606529 -0.073059
1.034059 0.605537 -0.073059
1.066165 0.604495 -0.073059
1.098441 0.603402 -0.073059
1.130874 0.602257 -0.073059
1.163449 0.601059 -0.073059
0.424192 0.648907 -0.073059
0.428269 0.648869 -0.073059
0.432825 0.648826 -0.073059
0.439257 0.648765 -0.073059
0.447713 0.648683 -0.073059
0.458218 0.648578 -0.073059
0.470745 0.648448 -0.073059
0.485221 0.648294 -0.073059
0.501543 0.648112 -0.073059
0.519588 0.647902 -0.073059
0.539219 0.647663 -0.073059
0.560299 0.647393 -0.073059
0.582689 0.647092 -0.073059
0.606258 0.646759 -0.073059
0.630885 0.646392 -0.073059
0.656456 0.645991 -0.073059
0.682869 0.645554 -0.073059
0.710033 0.645082 -0.073059
0.737865 0.644572 -0.073059
0.766294 0.644024 -0.073059
0.795254 0.643437 -0.073059
0.824690 0.642810 -0.073059
0.854551 0.642143 -0.073059
0.884792 0.641434 -0.073059
0.915376 0.640683 -0.073059
0.946267 0.639889 -0.073059
0.977435 0.639051 -0.073059
1.008854 0.638167 -0.073059
1.040499 0.637238 -0.073059
1.072350 0.636263 -0.073059
1.104387 0.635240 -0.073059
1.136595 0.634168 -0.073059
1.168957 0.633048 -0.073059
0.445246 0.679834 -0.073059
0.449087 0.679799 -0.073059
0.453385 0.679758 -0.073059
0.459460 0.679701 -0.073059
0.467464 0.679623 -0.073059
0.477430 0.679524 -0.073059
0.489345 0.679403 -0.073059
0.503154 0.679257 -0.073059
0.518771 0.679086 -0.073059
0.536089 0.678888 -0.073059
0.554986 0.678663 -0.073059
0.575336 0.678409 -0.073059
0.597012 0.678126 -0.073059
0.619889 0.677812 -0.073059
0.643851 0.677467 -0.073059
0.668787 0.677089 -0.073059
0.694599 0.676679 -0.073059
0.721194 0.676234 -0.073059
0.748490 0.675754 -0.073059
0.776415 0.675239 -0.073059
0.804903 0.674686 -0.073059
0.833896 0.674097 -0.073059
0.863341 0.673470 -0.073059
0.893193 0.672803 -0.073059
0.923412 0.672097 -0.073059
0.953961 0.671351 -0.073059
0.984809 0.670563 -0.073059
1.015927 0.669733 -0.073059
1.047290 0.668860 -0.073059
1.078876 0.667944 -0.073059
1.110664 0.666983 -0.073059
1.142637 0.665977 -0.073059
1.174778 0.664925 -0.073059
0.466300 0.710761 -0.073059
0.469928 0.710728 -0.073059
0.473991 0.710690 -0.073059
0.479742 0.710635 -0.073059
0.487331 0.710562 -0.073059
0.496800 0.710469 -0.073059
0.508148 0.710354 -0.073059
0.521334 0.710217 -0.073059
0.536287 0.710055 -0.073059
0.552914 0.709869 -0.073059
0.571109 0.709656 -0.073059
0.590756 0.709417 -0.073059
0.611738 0.709149 -0.073059
0.633938 0.708853 -0.073059
0.657246 0.708528 -0.073059
0.681554 0.708171 -0.073059
0.706766 0.707784 -0.073059
0.732792 0.707364 -0.073059
0.759550 0.706912 -0.073059
0.786966 0.706425 -0.073059
0.814975 0.705905 -0.073059
0.843516 0.705349 -0.073059
0.872537 0.704757 -0.073059
0.901991 0.704129 -0.073059
0.931836 0.703464 -0.073059
0.962034 0.702760 -0.073059
0.992552 0.702017 -0.073059
1.023359 0.701235 -0.073059
1.054430 0.700413 -0.073059
1.085741 0.699550 -0.073059
1.117270 0.698645 -0.073059
1.148999 0.697698 -0.073059
1.180910 0.696708 -0.073059
0.487354 0.741689 -0.073059
0.490788 0.741657 -0.073059
0.494637 0.741621 -0.073059
0.500091 0.741570 -0.073059
0.507300 0.741500 -0.073059
0.516311 0.741412 -0.073059
0.527132 0.741304 -0.073059
0.539735 0.741173 -0.073059
0.554063 0.741021 -0.073059
0.570035 0.740844 -0.073059
0.587559 0.740643 -0.073059
0.606530 0.740417 -0.073059
0.626840 0.740164 -0.073059
0.648381 0.739884 -0.073059
0.671046 0.739576 -0.073059
0.694734 0.739239 -0.073059
0.719352 0.738872 -0.073059
0.744810 0.738476 -0.073059
0.771028 0.738048 -0.073059
0.797933 0.737588 -0.073059
0.825457 0.737096 -0.073059
0.853542 0.736571 -0.073059
0.882132 0.736011 -0.073059
0.911180 0.735418 -0.073059
0.940642 0.734789 -0.073059
0.970480 0.734124 -0.073059
1.000658 0.733422 -0.073059
1.031146 0.732684 -0.073059
1.061916 0.731907 -0.073059
1.092943 0.731092 -0.073059
1.124204 0.730238 -0.073059
1.155680 0.729344 -0.073059
1.187353 0.728409 -0.073059
0.508408 0.772616 -0.073059
0.511665 0.772586 -0.073059
0.515319 0.772552 -0.073059
0.520501 0.772503 -0.073059
0.527359 0.772438 -0.073059
0.535946 0.772354 -0.073059
0.546278 0.772251 -0.073059
0.558336 0.772128 -0.073059
0.572075 0.771983 -0.073059
0.587428 0.771816 -0.073059
0.604312 0.771625 -0.073059
0.622633 0.771410 -0.073059
0.642294 0.771171 -0.073059
0.663192 0.770905 -0.073059
0.685229 0.770613 -0.073059
0.708308 0.770294 -0.073059
0.732337 0.769947 -0.073059
0.757231 0.769571 -0.073059
0.782910 0.769165 -0.073059
0.809301 0.768730 -0.073059
0.836339 0.768263 -0.073059
0.863962 0.767766 -0.073059
0.892116 0.767236 -0.073059
0.920751 0.766673 -0.073059
0.949823 0.766078 -0.073059
