滤镜资源/Professional Luts Collection/Lutify.me Professional/Utility LUTs/White Balance/2800 Kelvin - 4300 Kelvin - 0.95 CTO.cube
# Created by: Lutify.me
# Copyright: (c) Copyright Lutify.me 2015
# Website: https://lutify.me
LUT_3D_SIZE 9
0.000000 0.000000 0.000000
0.136485 -0.001885 -0.002528
0.269461 -0.006683 -0.008963
0.402436 -0.015239 -0.020438
0.535412 -0.028115 -0.037706
0.668388 -0.045778 -0.061395
0.801363 -0.068636 -0.073059
0.934339 -0.073059 -0.073059
1.067315 -0.073059 -0.073059
0.036334 0.125550 -0.012439
0.149353 0.124789 -0.014967
0.275815 0.122830 -0.021402
0.406395 0.119259 -0.032877
0.538189 0.113684 -0.050146
0.670480 0.105589 -0.073059
0.803016 0.094179 -0.073059
0.935690 0.078020 -0.073059
1.068447 0.053822 -0.073059
0.099662 0.250932 -0.044102
0.177845 0.250569 -0.046630
0.291265 0.249642 -0.053065
0.416263 0.247979 -0.064540
0.545177 0.245451 -0.073059
0.675768 0.241935 -0.073059
0.807205 0.237296 -0.073059
0.939118 0.231382 -0.073059
1.071324 0.224006 -0.073059
0.163048 0.376315 -0.073059
0.219134 0.376090 -0.073059
0.316648 0.375518 -0.073059
0.433177 0.374495 -0.073059
0.557364 0.372950 -0.073059
0.685068 0.370817 -0.073059
0.814604 0.368035 -0.073059
0.945191 0.364539 -0.073059
1.076428 0.360265 -0.073059
0.226434 0.501697 -0.073059
0.268486 0.501540 -0.073059
0.350810 0.501140 -0.073059
0.457184 0.500426 -0.073059
0.575089 0.499349 -0.073059
0.698763 0.497867 -0.073059
0.825575 0.495940 -0.073059
0.954233 0.493532 -0.073059
1.084049 0.490605 -0.073059
0.289820 0.627079 -0.073059
0.322625 0.626961 -0.073059
0.391981 0.626660 -0.073059
0.487755 0.626123 -0.073059
0.598323 0.625314 -0.073059
0.717001 0.624202 -0.073059
0.840321 0.622759 -0.073059
0.966455 0.620960 -0.073059
1.094389 0.618778 -0.073059
0.353206 0.752461 -0.073059
0.379646 0.752368 -0.073059
0.438439 0.752130 -0.073059
0.524053 0.751707 -0.073059
0.626773 0.751069 -0.073059
0.739742 0.750192 -0.073059
0.858913 0.749056 -0.073059
0.981974 0.747640 -0.073059
1.107579 0.745926 -0.073059
0.416592 0.877843 -0.073059
0.438468 0.877767 -0.073059
0.488792 0.877573 -0.073059
0.565153 0.877227 -0.073059
0.659974 0.876706 -0.073059
0.766801 0.875990 -0.073059
0.881311 0.875063 -0.073059
1.000825 0.873909 -0.073059
1.123689 0.872513 -0.073059
0.479978 1.003225 -0.073059
0.498463 1.003162 -0.073059
0.541998 1.002999 -0.073059
0.610179 1.002709 -0.073059
0.697382 1.002272 -0.073059
0.797890 1.001673 -0.073059
0.907390 1.000897 -0.073059
1.022972 0.999930 -0.073059
1.142737 0.998762 -0.073059
0.002607 -0.000069 0.085499
0.137449 -0.001954 0.084041
0.269922 -0.006752 0.080232
0.402722 -0.015308 0.073039
0.535612 -0.028184 0.061003
0.668538 -0.045847 0.040894
0.801482 -0.068705 0.010249
0.934436 -0.073059 -0.027860
1.067396 -0.073059 -0.073059
0.038941 0.125522 0.078110
0.150234 0.124761 0.076537
0.276265 0.122801 0.072408
0.406677 0.119230 0.064541
0.538388 0.113654 0.051111
0.670630 0.105556 0.028464
0.803135 0.094142 -0.002190
0.935787 0.077977 -0.040299
1.068529 0.053766 -0.073059
0.100959 0.250919 0.056071
0.178579 0.250556 0.054034
0.291687 0.249629 0.048594
0.416537 0.247965 0.037759
0.545373 0.245438 0.020490
0.675917 0.241921 -0.003199
0.807322 0.237282 -0.033853
0.939215 0.231368 -0.071962
1.071405 0.223991 -0.073059
0.163852 0.376306 0.001730
0.219718 0.376082 -0.000798
0.317030 0.375510 -0.007233
0.433438 0.374487 -0.018708
0.557554 0.372942 -0.035977
0.685214 0.370809 -0.059665
0.814720 0.368026 -0.073059
0.945286 0.364531 -0.073059
1.076509 0.360256 -0.073059
0.226998 0.501691 -0.073059
0.268949 0.501534 -0.073059
0.351148 0.501134 -0.073059
0.457428 0.500420 -0.073059
0.575271 0.499343 -0.073059
0.698905 0.497861 -0.073059
0.825689 0.495934 -0.073059
0.954327 0.493526 -0.073059
1.084129 0.490599 -0.073059
0.290244 0.627075 -0.073059
0.322999 0.626957 -0.073059
0.392276 0.626656 -0.073059
0.487979 0.626119 -0.073059
0.598497 0.625310 -0.073059
0.717138 0.624198 -0.073059
0.840433 0.622755 -0.073059
0.966548 0.620955 -0.073059
1.094467 0.618774 -0.073059
0.353541 0.752458 -0.073059
0.379953 0.752364 -0.073059
0.438696 0.752127 -0.073059
0.524258 0.751703 -0.073059
0.626937 0.751065 -0.073059
0.739874 0.750188 -0.073059
0.859021 0.749052 -0.073059
0.982065 0.747636 -0.073059
1.107656 0.745922 -0.073059
0.416866 0.877840 -0.073059
0.438725 0.877764 -0.073059
0.489016 0.877570 -0.073059
0.565340 0.877224 -0.073059
0.660127 0.876703 -0.073059
0.766926 0.875988 -0.073059
0.881416 0.875060 -0.073059
1.000913 0.873906 -0.073059
1.123765 0.872510 -0.073059
0.480208 1.003223 -0.073059
0.498682 1.003159 -0.073059
0.542194 1.002997 -0.073059
0.610348 1.002707 -0.073059
0.697524 1.002270 -0.073059
0.798010 1.001671 -0.073059
0.907491 1.000894 -0.073059
1.023058 0.999928 -0.073059
1.142811 0.998760 -0.073059
0.009244 -0.000245 0.183067
0.139872 -0.002130 0.182374
0.271094 -0.006928 0.180598
0.403448 -0.015484 0.177383
0.536120 -0.028360 0.172423
0.668921 -0.046023 0.165363
0.801784 -0.068881 0.155728
0.934683 -0.073059 0.142815
1.067603 -0.073059 0.125454
0.045317 0.125452 0.179630
0.152451 0.124690 0.178923
0.277405 0.122729 0.177110
0.407395 0.119155 0.173825
0.538893 0.113576 0.168755
0.671011 0.105473 0.161526
0.803436 0.094050 0.151637
0.936034 0.077868 0.138335
1.068735 0.053622 0.120339
0.104193 0.250885 0.170548
0.180433 0.250522 0.169800
0.292757 0.249595 0.167882
0.417233 0.247931 0.164402
0.545869 0.245403 0.159015
0.676294 0.241886 0.151301
0.807622 0.237246 0.140675
0.939460 0.231330 0.126219
1.071611 0.223952 0.106269
0.165881 0.376285 0.152939
0.221198 0.376061 0.152101
0.317999 0.375489 0.149946
0.434101 0.374466 0.146023
0.558037 0.372921 0.139908
0.685585 0.370787 0.131056
0.815016 0.368005 0.118642
0.945530 0.364509 0.101224
1.076713 0.360234 0.075670
0.228424 0.501676 0.121617
0.270126 0.501519 0.120563
0.352006 0.501120 0.117837
0.458048 0.500405 0.112822
0.575736 0.499328 0.104854
0.699266 0.497846 0.092921
0.825980 0.495919 0.075125
0.954568 0.493511 0.046600
1.084332 0.490584 0.000983
0.291321 0.627064 0.057946
0.323947 0.626945 0.055958
0.393025 0.626645 0.050658
0.488551 0.626108 0.040145
0.598938 0.625299 0.022877
0.717488 0.624187 -0.000812
0.840717 0.622744 -0.031467
0.966784 0.620944 -0.069575
1.094668 0.618763 -0.073059
0.354392 0.752449 -0.073059
0.380733 0.752356 -0.073059
0.439349 0.752118 -0.073059
0.524781 0.751695 -0.073059
0.627352 0.751056 -0.073059
0.740209 0.750180 -0.073059
0.859297 0.749043 -0.073059
0.982296 0.747627 -0.073059
1.107853 0.745913 -0.073059
0.417562 0.877833 -0.073059
0.439378 0.877757 -0.073059
0.489586 0.877563 -0.073059
0.565814 0.877217 -0.073059
0.660516 0.876696 -0.073059
0.767247 0.875980 -0.073059
0.881683 0.875053 -0.073059
1.001139 0.873899 -0.073059
1.123958 0.872503 -0.073059
0.480791 1.003217 -0.073059
0.499238 1.003153 -0.073059
0.542695 1.002991 -0.073059
0.610779 1.002701 -0.073059
0.697887 1.002264 -0.073059
0.798314 1.001665 -0.073059
0.907748 1.000888 -0.073059
1.023277 0.999922 -0.073059
1.143000 0.998754 -0.073059
0.021080 -0.000559 0.280635
0.144092 -0.002444 0.280208
0.273168 -0.007241 0.279115
0.404739 -0.015798 0.277154
0.537025 -0.028674 0.274173
0.669603 -0.046337 0.270020
0.802323 -0.069194 0.264533
0.935123 -0.073059 0.257523
1.067972 -0.073059 0.248755
0.055446 0.125325 0.278523
0.156325 0.124562 0.278091
0.279425 0.122600 0.276989
0.408670 0.119022 0.275010
0.539792 0.113437 0.272001
0.671690 0.105323 0.267809
0.803974 0.093884 0.262269
0.936473 0.077674 0.255187
1.069104 0.053364 0.246323
0.109743 0.250825 0.273059
0.183689 0.250462 0.272617
0.294654 0.249534 0.271489
0.418472 0.247870 0.269463
0.546754 0.245341 0.266381
0.676966 0.241823 0.262085
0.808155 0.237182 0.256401
0.939897 0.231264 0.249125
1.071978 0.223884 0.240004
0.169436 0.376248 0.262985
0.223810 0.376024 0.262524
0.319720 0.375452 0.261345
0.435280 0.374429 0.259227
0.558898 0.372883 0.256001
0.686245 0.370749 0.251499
0.815543 0.367966 0.245532
0.945963 0.364470 0.237874
1.077078 0.360195 0.228239
0.230945 0.501650 0.246924
0.272209 0.501493 0.246428
0.353530 0.501093 0.245160
0.459151 0.500379 0.242879
0.576562 0.499302 0.239399
0.699910 0.497820 0.234531
0.826498 0.495893 0.228055
0.954996 0.493485 0.219703
1.084693 0.490557 0.209122
0.293229 0.627044 0.222723
0.325631 0.626926 0.222165
0.394358 0.626625 0.220737
0.489569 0.626088 0.218165
0.599724 0.625279 0.214230
0.718110 0.624167 0.208697
0.841223 0.622724 0.201286
0.967205 0.620924 0.191632
1.095025 0.618743 0.179223
0.355904 0.752433 0.186164
0.382118 0.752340 0.185484
0.440511 0.752103 0.183740
0.525711 0.751679 0.180584
0.628093 0.751041 0.175722
0.740807 0.750164 0.168808
0.859789 0.749028 0.159391
0.982709 0.747612 0.146809
1.108204 0.745898 0.129981
0.418799 0.877821 0.125483
0.440540 0.877745 0.124460
0.490601 0.877551 0.121819
0.566659 0.877204 0.116967
0.661209 0.876683 0.109281
0.767817 0.875968 0.097838
0.882158 0.875041 0.080960
1.001541 0.873886 0.054660
1.124303 0.872490 0.010432
0.481830 1.003207 -0.039786
0.500229 1.003143 -0.042314
0.543586 1.002980 -0.048749
0.611545 1.002690 -0.060224
0.698532 1.002253 -0.073059
0.798855 1.001654 -0.073059
0.908205 1.000878 -0.073059
1.023667 0.999911 -0.073059
1.143337 0.998743 -0.073059
0.038891 -0.001031 0.378204
0.150217 -0.002916 0.377905
0.276256 -0.007713 0.377142
0.406672 -0.016270 0.375777
0.538384 -0.029146 0.373711
0.670627 -0.046809 0.370854
0.803133 -0.069666 0.367117
0.935785 -0.073059 0.362406
1.068527 -0.073059 0.356617
0.068607 0.125135 0.376729
0.161975 0.124371 0.376428
0.282433 0.122405 0.375662
0.410580 0.118822 0.374290
0.541142 0.113227 0.372214
0.672710 0.105099 0.369343
0.804781 0.093635 0.365587
0.937134 0.077381 0.360851
1.069658 0.052974 0.355032
0.117633 0.250734 0.372942
0.188475 0.250370 0.372638
0.297482 0.249442 0.371862
0.420327 0.247778 0.370473
0.548082 0.245248 0.368371
0.677976 0.241728 0.365463
0.808957 0.237085 0.361658
0.940555 0.231164 0.356859
1.072530 0.223780 0.350958
0.174642 0.376192 0.366070
0.227677 0.375967 0.365759
0.322289 0.375395 0.364965
0.437047 0.374372 0.363544
0.560189 0.372826 0.361392
0.687238 0.370692 0.358416
0.816336 0.367909 0.354518
0.946615 0.364412 0.349600
1.077627 0.360135 0.343548
0.234679 0.501611 0.355423
0.275309 0.501454 0.355100
0.355808 0.501054 0.354277
0.460805 0.500340 0.352803
0.577804 0.499262 0.350572
0.700878 0.497780 0.347482
0.827277 0.495853 0.343434
0.955640 0.493445 0.338320
1.085237 0.490517 0.332019
0.296073 0.627014 0.340155
0.328144 0.626896 0.339815
0.396354 0.626595 0.338946
0.491095 0.626058 0.337392
0.600905 0.625249 0.335035
0.719046 0.624137 0.331771
0.841984 0.622694 0.327487
0.967839 0.620894 0.322067
1.095562 0.618712 0.315375
0.358164 0.752410 0.319079
0.384192 0.752317 0.318712
0.442252 0.752079 0.317774
0.527106 0.751656 0.316093
0.629205 0.751017 0.313544
0.741706 0.750141 0.310007
0.860529 0.749004 0.305356
0.983329 0.747588 0.299455
1.108733 0.745874 0.292143
0.420653 0.877802 0.290304
0.442281 0.877725 0.289893
0.492124 0.877531 0.288844
0.567928 0.877185 0.286961
0.662251 0.876664 0.284099
0.768675 0.875949 0.280118
0.882873 0.875021 0.274866
1.002145 0.873867 0.268169
1.124821 0.872471 0.259816
0.483387 1.003191 0.250329
0.501715 1.003127 0.249840
0.544924 1.002964 0.248592
0.612696 1.002674 0.246347
0.699502 1.002237 0.242925
0.799670 1.001638 0.238138
0.908893 1.000862 0.231777
1.024255 0.999895 0.223582
1.143844 0.998727 0.213216
0.060048 -0.001678 0.475772
0.158223 -0.003563 0.475547
0.280427 -0.008361 0.474974
0.409305 -0.016917 0.473949
0.540240 -0.029793 0.472401
0.672029 -0.047457 0.470267
0.804242 -0.070314 0.467488
0.936692 -0.073059 0.464004
1.069288 -0.073059 0.459754
0.083976 0.124873 0.474663
0.169405 0.124107 0.474438
0.286499 0.122137 0.473862
0.413183 0.118547 0.472834
0.542986 0.112939 0.471282
0.674107 0.104790 0.469142
0.805887 0.093292 0.466355
0.938039 0.076977 0.462860
1.070418 0.052437 0.458596
0.127699 0.250609 0.471826
0.194834 0.250245 0.471599
0.301310 0.249317 0.471019
0.422856 0.247651 0.469983
0.549897 0.245120 0.468419
0.679358 0.241598 0.466263
0.810056 0.236952 0.463453
0.941456 0.231027 0.459931
1.073287 0.223638 0.455633
0.181525 0.376115 0.466712
0.232864 0.375890 0.466482
0.325774 0.375318 0.465894
0.439457 0.374295 0.464844
0.561954 0.372748 0.463258
0.688596 0.370614 0.461071
0.817421 0.367829 0.458222
0.947509 0.364332 0.454649
1.078379 0.360054 0.450288
0.239696 0.501557 0.458882
0.279497 0.501400 0.458646
0.358905 0.501000 0.458046
0.463062 0.500286 0.456973
0.579501 0.499208 0.455353
0.702202 0.497725 0.453118
0.828344 0.495798 0.450206
0.956522 0.493389 0.446553
1.085982 0.490461 0.442092
0.299922 0.626974 0.447860
0.331556 0.626856 0.447617
0.399071 0.626555 0.446999
0.493180 0.626018 0.445893
0.602519 0.625209 0.444222
0.720327 0.624096 0.441917
0.843026 0.622653 0.438912
0.968706 0.620853 0.435140
1.096297 0.618671 0.430531
0.361236 0.752378 0.433075
0.387015 0.752285 0.432822
0.444627 0.752047 0.432177
0.529013 0.751624 0.431023
0.630727 0.750985 0.429280
0.742936 0.750109 0.426874
0.861542 0.748972 0.423736
0.984178 0.747556 0.419794
1.109457 0.745842 0.414973
0.423179 0.877775 0.413772
0.444656 0.877699 0.413504
0.494202 0.877505 0.412821
0.569663 0.877159 0.411600
0.663675 0.876638 0.409754
0.769849 0.875922 0.407205
0.883853 0.874995 0.403876
1.002974 0.873841 0.399691
1.125532 0.872444 0.394565
0.485513 1.003169 0.388874
0.503744 1.003105 0.388585
0.546752 1.002942 0.387848
0.614271 1.002652 0.386529
0.700829 1.002215 0.384533
0.800785 1.001616 0.381775
0.909836 1.000840 0.378170
1.025060 0.999873 0.373628
1.144539 0.998705 0.368054
0.081196 -0.002516 0.573341
0.167998 -0.004401 0.573163
0.285719 -0.009199 0.572710
0.412682 -0.017755 0.571902
0.542631 -0.030631 0.570683
0.673837 -0.048294 0.569005
0.805674 -0.071152 0.566824
0.937864 -0.073059 0.564098
1.070271 -0.073059 0.560784
0.100884 0.124533 0.572466
0.178537 0.123765 0.572287
0.291662 0.121790 0.571834
0.416521 0.118190 0.571024
0.545361 0.112564 0.569802
0.675908 0.104389 0.568121
0.807316 0.092847 0.565936
0.939209 0.076453 0.563204
1.071400 0.051736 0.559884
0.139671 0.250448 0.570230
0.202741 0.250084 0.570051
0.306181 0.249154 0.569595
0.426101 0.247487 0.568781
0.552234 0.244954 0.567554
0.681142 0.241429 0.565864
0.811475 0.236780 0.563667
0.942620 0.230850 0.560922
1.074266 0.223454 0.557584
0.190036 0.376015 0.566216
0.239389 0.375790 0.566035
0.330218 0.375218 0.565575
0.442552 0.374194 0.564754
0.564228 0.372647 0.563515
0.690349 0.370512 0.561809
0.818823 0.367727 0.559593
0.948663 0.364228 0.556821
1.079352 0.359949 0.553452
0.246014 0.501487 0.560105
0.284809 0.501330 0.559922
0.362865 0.500930 0.559456
0.465962 0.500216 0.558623
0.581687 0.499138 0.557367
0.703910 0.497655 0.555637
0.829722 0.495728 0.553389
0.957662 0.493318 0.550577
1.086945 0.490390 0.547159
0.304819 0.626921 0.551582
0.335908 0.626803 0.551396
0.402554 0.626502 0.550920
0.495861 0.625965 0.550071
0.604600 0.625156 0.548789
0.721980 0.624044 0.547025
0.844373 0.622600 0.544731
0.969827 0.620800 0.541863
1.097249 0.618618 0.538374
0.365165 0.752337 0.540298
0.390630 0.752243 0.540106
0.447677 0.752006 0.539618
0.531468 0.751582 0.538746
0.632690 0.750944 0.537430
0.744524 0.750067 0.535618
0.862850 0.748930 0.533262
0.985276 0.747514 0.530314
1.110393 0.745800 0.526728
0.426421 0.877742 0.525838
0.447705 0.877665 0.525639
0.496876 0.877471 0.525134
0.571898 0.877125 0.524231
0.665513 0.876604 0.522868
0.771365 0.875888 0.520992
0.885118 0.874961 0.518551
1.004045 0.873807 0.515497
1.126450 0.872410 0.511778
0.488247 1.003140 0.507680
0.506354 1.003076 0.507472
0.549107 1.002914 0.506944
0.616301 1.002624 0.506000
0.702543 1.002187 0.504575
0.802225 1.001588 0.502612
0.911054 1.000811 0.500057
1.026100 0.999845 0.496858
1.145437 0.998676 0.492960
0.102345 -0.003558 0.670909
0.179369 -0.005443 0.670764
0.292142 -0.010240 0.670394
0.416833 -0.018797 0.669734
0.545584 -0.031673 0.668739
0.676077 -0.049336 0.667371
0.807450 -0.072193 0.665596
0.939319 -0.073059 0.663380
1.071492 -0.073059 0.660693
0.118859 0.124109 0.670194
0.189234 0.123339 0.670049
0.297935 0.121357 0.669679
0.420625 0.117744 0.669018
0.548296 0.112098 0.668021
0.678139 0.103888 0.666652
0.809087 0.092290 0.664874
0.940661 0.075796 0.662655
1.072619 0.050855 0.659963
0.153250 0.250247 0.668370
0.212119 0.249882 0.668224
0.312110 0.248952 0.667853
0.430092 0.247283 0.667190
0.555123 0.244748 0.666190
0.683350 0.241220 0.664815
0.813234 0.236565 0.663031
0.944065 0.230630 0.660804
1.075481 0.223225 0.658103
0.200071 0.375891 0.665102
0.247227 0.375666 0.664955
0.335644 0.375093 0.664581
0.446361 0.374069 0.663913
0.567039 0.372522 0.662907
0.692519 0.370386 0.661524
0.820562 0.367599 0.659728
0.950096 0.364099 0.657486
1.080559 0.359818 0.654767
0.253620 0.501400 0.660143
0.291255 0.501243 0.659995
0.367716 0.500843 0.659617
0.469536 0.500129 0.658943
0.584391 0.499051 0.657927
0.706027 0.497567 0.656530
0.831430 0.495640 0.654716
0.959077 0.493230 0.652453
1.088142 0.490300 0.649707
0.310779 0.626856 0.653261
0.341226 0.626738 0.653111
0.406833 0.626437 0.652728
0.499168 0.625900 0.652045
0.607174 0.625090 0.651015
0.724028 0.623978 0.649599
0.846043 0.622534 0.647760
0.971219 0.620734 0.645465
1.098430 0.618551 0.642680
0.369980 0.752285 0.644215
0.395068 0.752192 0.644062
0.451433 0.751954 0.643672
0.534499 0.751530 0.642977
0.635118 0.750892 0.641928
0.746492 0.750015 0.640486
0.864473 0.748878 0.638613
0.986639 0.747462 0.636275
1.111556 0.745748 0.633438
0.430409 0.877699 0.632735
0.451461 0.877623 0.632579
0.500175 0.877429 0.632180
0.574661 0.877083 0.631468
0.667789 0.876562 0.630394
0.773245 0.875846 0.628918
0.886688 0.874919 0.627001
1.005374 0.873764 0.624607
1.127591 0.872368 0.621701
0.491619 1.003105 0.618509
0.509576 1.003041 0.618347
0.552016 1.002878 0.617937
0.618813 1.002588 0.617203
0.704665 1.002152 0.616098
0.804011 1.001552 0.614577
0.912565 1.000776 0.612602
1.027391 0.999809 0.610135
1.146552 0.998641 0.607140
0.123493 -0.004815 0.768478
0.192144 -0.006700 0.768356
0.299681 -0.011498 0.768046
0.421777 -0.020054 0.767493
0.549122 -0.032930 0.766660
0.678768 -0.050593 0.765515
0.809587 -0.073059 0.764030
0.941071 -0.073059 0.762179
1.072964 -0.073059 0.759937
0.137579 0.123596 0.767879
0.201333 0.122823 0.767757
0.305305 0.120833 0.767447
0.425515 0.117204 0.766893
0.551812 0.111532 0.766059
0.680819 0.103280 0.764913
0.811218 0.091614 0.763427
0.942409 0.074997 0.761574
1.074089 0.049777 0.759329
0.168149 0.250004 0.766351
0.222861 0.249639 0.766229
0.319094 0.248708 0.765918
0.434851 0.247037 0.765363
0.558584 0.244499 0.764527
0.686005 0.240966 0.763378
0.815351 0.236306 0.761888
0.945805 0.230363 0.760030
1.076945 0.222949 0.757779
0.211494 0.375741 0.763617
0.256327 0.375516 0.763494
0.342058 0.374943 0.763182
0.450907 0.373918 0.762624
0.570409 0.372370 0.761784
0.695128 0.370233 0.760630
0.822654 0.367445 0.759133
0.951821 0.363943 0.757266
1.082014 0.359660 0.755004
0.262465 0.501296 0.759479
0.298820 0.501139 0.759355
0.373470 0.500738 0.759040
0.473806 0.500023 0.758479
0.587635 0.498945 0.757633
0.708572 0.497462 0.756470
0.833487 0.495533 0.754962
0.960781 0.493123 0.753082
1.089583 0.490193 0.750804
0.317798 0.626777 0.753753
0.347516 0.626659 0.753628
0.411926 0.626358 0.753311
0.503125 0.625821 0.752743
0.610262 0.625011 0.751889
0.726491 0.623899 0.750715
0.848053 0.622455 0.749191
0.972895 0.620654 0.747292
1.099854 0.618471 0.744991
0.375692 0.752223 0.746259
0.400346 0.752130 0.746132
0.455916 0.751892 0.745810
0.538130 0.751468 0.745236
0.638034 0.750830 0.744370
0.748860 0.749953 0.743180
0.866428 0.748816 0.741637
0.988280 0.747399 0.739712
1.112957 0.745685 0.737380
0.435163 0.877649 0.736803
0.455943 0.877572 0.736675
0.504122 0.877378 0.736347
0.577974 0.877032 0.735763
0.670523 0.876511 0.734883
0.775506 0.875795 0.733673
0.888578 0.874868 0.732103
1.006975 0.873713 0.730146
1.128966 0.872316 0.727774
0.495652 1.003062 0.725173
0.513432 1.002998 0.725042
0.555502 1.002836 0.724707
0.621827 1.002546 0.724111
0.707215 1.002109 0.723212
0.806160 1.001509 0.721977
0.914385 1.000733 0.720374
1.028947 0.999766 0.718375
1.147897 0.998598 0.715952
