滤镜资源/Professional Luts Collection/Lutify.me Professional/Utility LUTs/White Balance/2800 Kelvin - 4300 Kelvin - 0.95 CTO.cube
# Created by: Lutify.me
# Copyright: (c) Copyright Lutify.me 2015
# Website: https://lutify.me
LUT_3D_SIZE 5
0.000000 0.000000 0.000000
0.269461 -0.006683 -0.008963
0.535412 -0.028115 -0.037706
0.801363 -0.068636 -0.073059
1.067315 -0.073059 -0.073059
0.099662 0.250932 -0.044102
0.291265 0.249642 -0.053065
0.545177 0.245451 -0.073059
0.807205 0.237296 -0.073059
1.071324 0.224006 -0.073059
0.226434 0.501697 -0.073059
0.350810 0.501140 -0.073059
0.575089 0.499349 -0.073059
0.825575 0.495940 -0.073059
1.084049 0.490605 -0.073059
0.353206 0.752461 -0.073059
0.438439 0.752130 -0.073059
0.626773 0.751069 -0.073059
0.858913 0.749056 -0.073059
1.107579 0.745926 -0.073059
0.479978 1.003225 -0.073059
0.541998 1.002999 -0.073059
0.697382 1.002272 -0.073059
0.907390 1.000897 -0.073059
1.142737 0.998762 -0.073059
0.009244 -0.000245 0.183067
0.271094 -0.006928 0.180598
0.536120 -0.028360 0.172423
0.801784 -0.068881 0.155728
1.067603 -0.073059 0.125454
0.104193 0.250885 0.170548
0.292757 0.249595 0.167882
0.545869 0.245403 0.159015
0.807622 0.237246 0.140675
1.071611 0.223952 0.106269
0.228424 0.501676 0.121617
0.352006 0.501120 0.117837
0.575736 0.499328 0.104854
0.825980 0.495919 0.075125
1.084332 0.490584 0.000983
0.354392 0.752449 -0.073059
0.439349 0.752118 -0.073059
0.627352 0.751056 -0.073059
0.859297 0.749043 -0.073059
1.107853 0.745913 -0.073059
0.480791 1.003217 -0.073059
0.542695 1.002991 -0.073059
0.697887 1.002264 -0.073059
0.907748 1.000888 -0.073059
1.143000 0.998754 -0.073059
0.038891 -0.001031 0.378204
0.276256 -0.007713 0.377142
0.538384 -0.029146 0.373711
0.803133 -0.069666 0.367117
1.068527 -0.073059 0.356617
0.117633 0.250734 0.372942
0.297482 0.249442 0.371862
0.548082 0.245248 0.368371
0.808957 0.237085 0.361658
1.072530 0.223780 0.350958
0.234679 0.501611 0.355423
0.355808 0.501054 0.354277
0.577804 0.499262 0.350572
0.827277 0.495853 0.343434
1.085237 0.490517 0.332019
0.358164 0.752410 0.319079
0.442252 0.752079 0.317774
0.629205 0.751017 0.313544
0.860529 0.749004 0.305356
1.108733 0.745874 0.292143
0.483387 1.003191 0.250329
0.544924 1.002964 0.248592
0.699502 1.002237 0.242925
0.908893 1.000862 0.231777
1.143844 0.998727 0.213216
0.081196 -0.002516 0.573341
0.285719 -0.009199 0.572710
0.542631 -0.030631 0.570683
0.805674 -0.071152 0.566824
1.070271 -0.073059 0.560784
0.139671 0.250448 0.570230
0.306181 0.249154 0.569595
0.552234 0.244954 0.567554
0.811475 0.236780 0.563667
1.074266 0.223454 0.557584
0.246014 0.501487 0.560105
0.362865 0.500930 0.559456
0.581687 0.499138 0.557367
0.829722 0.495728 0.553389
1.086945 0.490390 0.547159
0.365165 0.752337 0.540298
0.447677 0.752006 0.539618
0.632690 0.750944 0.537430
0.862850 0.748930 0.533262
1.110393 0.745800 0.526728
0.488247 1.003140 0.507680
0.549107 1.002914 0.506944
0.702543 1.002187 0.504575
0.911054 1.000811 0.500057
1.145437 0.998676 0.492960
0.123493 -0.004815 0.768478
0.299681 -0.011498 0.768046
0.549122 -0.032930 0.766660
0.809587 -0.073059 0.764030
1.072964 -0.073059 0.759937
0.168149 0.250004 0.766351
0.319094 0.248708 0.765918
0.558584 0.244499 0.764527
0.815351 0.236306 0.761888
1.076945 0.222949 0.757779
0.262465 0.501296 0.759479
0.373470 0.500738 0.759040
0.587635 0.498945 0.757633
0.833487 0.495533 0.754962
1.089583 0.490193 0.750804
0.375692 0.752223 0.746259
0.455916 0.751892 0.745810
0.638034 0.750830 0.744370
0.866428 0.748816 0.741637
1.112957 0.745685 0.737380
0.495652 1.003062 0.725173
0.555502 1.002836 0.724707
0.707215 1.002109 0.723212
0.914385 1.000733 0.720374
1.147897 0.998598 0.715952
