滤镜资源/Professional Luts Collection/Lutify.me Professional/Utility LUTs/White Balance/2800 Kelvin - 6500 Kelvin - 1.56 CTO.cube
# Created by: Lutify.me
# Copyright: (c) Copyright Lutify.me 2015
# Website: https://lutify.me
LUT_3D_SIZE 5
0.000000 0.000000 0.000000
0.282809 -0.013246 -0.013105
0.559702 -0.055729 -0.055135
0.836595 -0.073059 -0.073059
1.113488 -0.073059 -0.073059
0.150488 0.246851 -0.061634
0.322231 0.244237 -0.073059
0.577793 0.235628 -0.073059
0.847473 0.218297 -0.073059
1.120968 0.187945 -0.073059
0.318921 0.494270 -0.073059
0.420878 0.493144 -0.073059
0.631437 0.489513 -0.073059
0.881180 0.482552 -0.073059
1.144517 0.471523 -0.073059
0.487354 0.741689 -0.073059
0.554063 0.741021 -0.073059
0.719352 0.738872 -0.073059
0.940642 0.734789 -0.073059
1.187353 0.728409 -0.073059
0.655787 0.989108 -0.073059
0.703229 0.988650 -0.073059
0.832903 0.987181 -0.073059
1.023932 0.984396 -0.073059
1.249848 0.980065 -0.073059
0.013943 -0.000429 0.144086
0.285135 -0.013676 0.139405
0.560712 -0.056158 0.123206
0.837195 -0.073059 0.085061
1.113899 -0.073059 -0.021458
0.155101 0.246767 0.120511
0.324225 0.244151 0.114894
0.578762 0.235539 0.094826
0.848063 0.218200 0.039901
1.121375 0.187831 -0.073059
0.320940 0.494234 -0.023171
0.422321 0.493108 -0.036276
0.632302 0.489476 -0.073059
0.881741 0.482515 -0.073059
1.144913 0.471484 -0.073059
0.488556 0.741667 -0.073059
0.555085 0.740999 -0.073059
0.720083 0.738851 -0.073059
0.941156 0.734767 -0.073059
1.187730 0.728387 -0.073059
0.656611 0.989093 -0.073059
0.703982 0.988635 -0.073059
0.833507 0.987166 -0.073059
1.024392 0.984381 -0.073059
1.250200 0.980050 -0.073059
0.056440 -0.001805 0.307271
0.292446 -0.015052 0.305272
0.563934 -0.057534 0.298754
0.839116 -0.073059 0.285949
1.115216 -0.073059 0.264683
0.169019 0.246497 0.297731
0.330525 0.243878 0.295655
0.581857 0.235254 0.288880
0.849952 0.217889 0.275532
1.122680 0.187464 0.253241
0.327316 0.494117 0.264373
0.426908 0.492991 0.261985
0.635066 0.489358 0.254151
0.883535 0.482394 0.238527
1.146183 0.471360 0.211748
0.492388 0.741598 0.182444
0.558348 0.740930 0.178808
0.722421 0.738781 0.166574
0.942803 0.734697 0.140416
1.188939 0.728316 0.085800
0.659245 0.989045 -0.073059
0.706389 0.988588 -0.073059
0.835439 0.987119 -0.073059
1.025864 0.984334 -0.073059
1.251329 0.980002 -0.073059
0.106638 -0.004407 0.470456
0.305710 -0.017653 0.469271
0.569961 -0.060136 0.465446
0.842732 -0.073059 0.458103
1.117701 -0.073059 0.446438
0.192457 0.245985 0.464850
0.342057 0.243360 0.463647
0.587651 0.234715 0.459763
0.853508 0.217301 0.452304
1.125143 0.186770 0.440447
0.338979 0.493896 0.446273
0.435418 0.492769 0.445007
0.640250 0.489134 0.440916
0.886915 0.482167 0.433050
1.148578 0.471126 0.420512
0.499530 0.741467 0.408235
0.564452 0.740798 0.406820
0.726814 0.738649 0.402243
0.945907 0.734564 0.393408
1.191220 0.728181 0.379232
0.664187 0.988956 0.338801
0.710911 0.988498 0.337023
0.839076 0.987029 0.331246
1.028640 0.984243 0.319979
1.253459 0.979911 0.301541
0.156836 -0.008433 0.633642
0.324987 -0.021680 0.632831
0.579134 -0.064163 0.630221
0.848290 -0.073059 0.625249
1.121531 -0.073059 0.617451
0.223575 0.245190 0.629817
0.359035 0.242555 0.628999
0.596478 0.233876 0.626369
0.858974 0.216386 0.621357
1.128940 0.185688 0.613496
0.356133 0.493554 0.617342
0.448196 0.492426 0.616503
0.648170 0.488788 0.613804
0.892113 0.481814 0.608659
1.152272 0.470763 0.600583
0.510338 0.741263 0.592828
0.573737 0.740595 0.591945
0.733546 0.738445 0.589100
0.950683 0.734358 0.583673
1.194739 0.727973 0.575145
0.671744 0.988816 0.552096
0.717838 0.988359 0.551129
0.844665 0.986889 0.548011
1.032916 0.984103 0.542054
1.256747 0.979770 0.532665
