滤镜资源/Professional Luts Collection/Lutify.me Professional/Utility LUTs/White Balance/3200 Kelvin - 4300 Kelvin - 0.61 CTO.cube
# Created by: Lutify.me
# Copyright: (c) Copyright Lutify.me 2015
# Website: https://lutify.me
LUT_3D_SIZE 33
0.000000 0.000000 0.000000
0.034545 -0.000227 -0.000310
0.067511 -0.000484 -0.000661
0.100094 -0.000852 -0.001164
0.132677 -0.001347 -0.001839
0.165260 -0.001978 -0.002701
0.197842 -0.002754 -0.003761
0.230425 -0.003685 -0.005031
0.263008 -0.004776 -0.006521
0.295591 -0.006036 -0.008241
0.328173 -0.007471 -0.010201
0.360756 -0.009087 -0.012408
0.393339 -0.010891 -0.014871
0.425922 -0.012888 -0.017598
0.458505 -0.015084 -0.020596
0.491087 -0.017484 -0.023873
0.523670 -0.020093 -0.027435
0.556253 -0.022916 -0.031290
0.588836 -0.025958 -0.035443
0.621418 -0.029223 -0.039902
0.654001 -0.032716 -0.044671
0.686584 -0.036441 -0.049757
0.719167 -0.040402 -0.055167
0.751750 -0.044604 -0.060904
0.784332 -0.049051 -0.066975
0.816915 -0.053745 -0.073059
0.849498 -0.058692 -0.073059
0.882081 -0.063895 -0.073059
0.914664 -0.069357 -0.073059
0.947246 -0.073059 -0.073059
0.979829 -0.073059 -0.073059
1.012412 -0.073059 -0.073059
1.044995 -0.073059 -0.073059
0.004377 0.031135 -0.001529
0.038922 0.030908 -0.001839
0.070495 0.030651 -0.002190
0.102254 0.030283 -0.002693
0.134337 0.029788 -0.003368
0.166589 0.029157 -0.004230
0.198939 0.028380 -0.005290
0.231352 0.027450 -0.006560
0.263805 0.026359 -0.008050
0.296286 0.025099 -0.009770
0.328788 0.023664 -0.011729
0.361304 0.022048 -0.013936
0.393832 0.020244 -0.016400
0.426369 0.018247 -0.019126
0.458912 0.016051 -0.022125
0.491462 0.013651 -0.025402
0.524015 0.011042 -0.028964
0.556573 0.008219 -0.032819
0.589133 0.005177 -0.036972
0.621696 0.001912 -0.041430
0.654261 -0.001581 -0.046200
0.686828 -0.005306 -0.051286
0.719396 -0.009267 -0.056695
0.751966 -0.013469 -0.062433
0.784537 -0.017916 -0.068504
0.817110 -0.022610 -0.073059
0.849683 -0.027557 -0.073059
0.882257 -0.032760 -0.073059
0.914831 -0.038223 -0.073059
0.947406 -0.043948 -0.073059
0.979982 -0.049940 -0.073059
1.012558 -0.056202 -0.073059
1.045135 -0.062738 -0.073059
0.009331 0.062319 -0.003259
0.043738 0.062152 -0.003569
0.073755 0.061962 -0.003920
0.104650 0.061689 -0.004423
0.136191 0.061321 -0.005098
0.168080 0.060850 -0.005960
0.200173 0.060265 -0.007020
0.232395 0.059560 -0.008290
0.264703 0.058725 -0.009780
0.297071 0.057750 -0.011500
0.329481 0.056625 -0.013459
0.361923 0.055338 -0.015667
0.394389 0.053876 -0.018130
0.426874 0.052226 -0.020857
0.459373 0.050369 -0.023855
0.491885 0.048285 -0.027132
0.524405 0.045952 -0.030694
0.556934 0.043338 -0.034549
0.589469 0.040408 -0.038702
0.622010 0.037143 -0.043161
0.654555 0.033650 -0.047930
0.687104 0.029925 -0.053016
0.719656 0.025964 -0.058426
0.752212 0.021762 -0.064163
0.784769 0.017315 -0.070234
0.817330 0.012620 -0.073059
0.849892 0.007674 -0.073059
0.882455 0.002471 -0.073059
0.915021 -0.002992 -0.073059
0.947587 -0.008717 -0.073059
0.980155 -0.014709 -0.073059
1.012724 -0.020971 -0.073059
1.045294 -0.027507 -0.073059
0.016433 0.093521 -0.005740
0.050108 0.093401 -0.006050
0.078238 0.093265 -0.006401
0.107999 0.093069 -0.006904
0.138806 0.092806 -0.007579
0.170193 0.092469 -0.008441
0.201927 0.092053 -0.009501
0.233882 0.091552 -0.010771
0.265985 0.090962 -0.012261
0.298191 0.090276 -0.013981
0.330472 0.089490 -0.015940
0.362808 0.088597 -0.018147
0.395186 0.087590 -0.020610
0.427597 0.086465 -0.023337
0.460034 0.085212 -0.026336
0.492491 0.083825 -0.029612
0.524964 0.082295 -0.033175
0.557452 0.080612 -0.037030
0.589951 0.078766 -0.041183
0.622459 0.076743 -0.045641
0.654976 0.074530 -0.050411
0.687499 0.072109 -0.055497
0.720029 0.069463 -0.060906
0.752563 0.066566 -0.066644
0.785102 0.063393 -0.072715
0.817645 0.059907 -0.073059
0.850191 0.056066 -0.073059
0.882740 0.051815 -0.073059
0.915292 0.047081 -0.073059
0.947847 0.041764 -0.073059
0.980403 0.035808 -0.073059
1.012962 0.029545 -0.073059
1.045522 0.023010 -0.073059
0.025970 0.124723 -0.009071
0.057893 0.124631 -0.009381
0.083945 0.124527 -0.009732
0.112350 0.124377 -0.010235
0.142242 0.124176 -0.010910
0.172988 0.123919 -0.011772
0.204257 0.123602 -0.012832
0.235862 0.123221 -0.014102
0.267695 0.122772 -0.015592
0.299688 0.122253 -0.017312
0.331797 0.121658 -0.019271
0.363993 0.120985 -0.021478
0.396254 0.120230 -0.023941
0.428566 0.119388 -0.026668
0.460918 0.118456 -0.029667
0.493303 0.117429 -0.032944
0.525713 0.116303 -0.036506
0.558146 0.115073 -0.040361
0.590596 0.113734 -0.044514
0.623062 0.112279 -0.048972
0.655540 0.110703 -0.053742
0.688029 0.108999 -0.058828
0.720528 0.107158 -0.064237
0.753035 0.105174 -0.069975
0.785548 0.103036 -0.073059
0.818068 0.100734 -0.073059
0.850593 0.098256 -0.073059
0.883123 0.095587 -0.073059
0.915657 0.092712 -0.073059
0.948195 0.089612 -0.073059
0.980736 0.086265 -0.073059
1.013281 0.082643 -0.073059
1.045828 0.078716 -0.073059
0.038136 0.155925 -0.013320
0.066848 0.155852 -0.013630
0.090779 0.155769 -0.013981
0.117681 0.155649 -0.014484
0.146507 0.155488 -0.015159
0.176486 0.155283 -0.016021
0.207186 0.155030 -0.017081
0.238361 0.154727 -0.018351
0.269859 0.154370 -0.019841
0.301585 0.153957 -0.021561
0.333479 0.153485 -0.023520
0.365497 0.152952 -0.025727
0.397610 0.152355 -0.028191
0.429797 0.151690 -0.030917
0.462043 0.150957 -0.033916
0.494336 0.150150 -0.037193
0.526667 0.149269 -0.040755
0.559030 0.148309 -0.044610
0.591419 0.147268 -0.048763
0.623830 0.146141 -0.053222
0.656260 0.144927 -0.057991
0.688705 0.143620 -0.063077
0.721164 0.142217 -0.068487
0.753636 0.140713 -0.073059
0.786117 0.139104 -0.073059
0.818607 0.137384 -0.073059
0.851105 0.135549 -0.073059
0.883611 0.133591 -0.073059
0.916122 0.131505 -0.073059
0.948639 0.129283 -0.073059
0.981161 0.126916 -0.073059
1.013687 0.124396 -0.073059
1.046217 0.121711 -0.073059
0.051913 0.187127 -0.018548
0.076736 0.187067 -0.018858
0.098617 0.186998 -0.019209
0.123939 0.186900 -0.019712
0.151587 0.186767 -0.020387
0.180690 0.186598 -0.021249
0.210729 0.186390 -0.022309
0.241395 0.186140 -0.023579
0.272493 0.185847 -0.025069
0.303900 0.185508 -0.026789
0.335534 0.185120 -0.028749
0.367337 0.184683 -0.030956
0.399271 0.184194 -0.033419
0.431307 0.183650 -0.036146
0.463423 0.183051 -0.039144
0.495604 0.182393 -0.042421
0.527838 0.181675 -0.045983
0.560115 0.180895 -0.049838
0.592429 0.180050 -0.053991
0.624773 0.179138 -0.058450
0.657143 0.178158 -0.063219
0.689535 0.177105 -0.068305
0.721947 0.175979 -0.073059
0.754374 0.174776 -0.073059
0.786816 0.173493 -0.073059
0.819270 0.172127 -0.073059
0.851735 0.170675 -0.073059
0.884210 0.169135 -0.073059
0.916694 0.167501 -0.073059
0.949185 0.165770 -0.073059
0.981683 0.163938 -0.073059
1.014187 0.162000 -0.073059
1.046697 0.159952 -0.073059
0.065690 0.218329 -0.024811
0.087359 0.218278 -0.025121
0.107324 0.218220 -0.025472
0.131053 0.218137 -0.025975
0.157452 0.218025 -0.026650
0.185592 0.217883 -0.027512
0.214888 0.217707 -0.028572
0.244973 0.217497 -0.029842
0.275610 0.217250 -0.031332
0.306646 0.216964 -0.033052
0.337975 0.216638 -0.035011
0.369527 0.216270 -0.037218
0.401250 0.215859 -0.039681
0.433106 0.215402 -0.042408
0.465069 0.214899 -0.045407
0.497117 0.214348 -0.048683
0.529235 0.213747 -0.052246
0.561412 0.213094 -0.056101
0.593636 0.212388 -0.060254
0.625901 0.211628 -0.064712
0.658200 0.210811 -0.069482
0.690528 0.209936 -0.073059
0.722882 0.209000 -0.073059
0.755258 0.208003 -0.073059
0.787652 0.206943 -0.073059
0.820063 0.205816 -0.073059
0.852489 0.204622 -0.073059
0.884928 0.203357 -0.073059
0.917378 0.202020 -0.073059
0.949838 0.200608 -0.073059
0.982308 0.199118 -0.073059
1.014786 0.197548 -0.073059
1.047271 0.195895 -0.073059
0.079468 0.249531 -0.032160
0.098556 0.249487 -0.032470
0.116772 0.249438 -0.032820
0.138944 0.249366 -0.033323
0.164056 0.249270 -0.033999
0.191171 0.249148 -0.034860
0.219656 0.248997 -0.035921
0.249096 0.248816 -0.037191
0.279216 0.248604 -0.038681
0.309831 0.248359 -0.040401
0.340814 0.248079 -0.042360
0.372077 0.247764 -0.044567
0.403556 0.247411 -0.047030
0.435206 0.247020 -0.049757
0.466991 0.246589 -0.052755
0.498885 0.246117 -0.056032
0.530870 0.245603 -0.059595
0.562928 0.245045 -0.063449
0.595048 0.244443 -0.067603
0.627220 0.243794 -0.072061
0.659437 0.243098 -0.073059
0.691691 0.242353 -0.073059
0.723978 0.241558 -0.073059
0.756292 0.240711 -0.073059
0.788632 0.239811 -0.073059
0.820993 0.238857 -0.073059
0.853372 0.237847 -0.073059
0.885769 0.236780 -0.073059
0.918180 0.235653 -0.073059
0.950604 0.234466 -0.073059
0.983041 0.233215 -0.073059
1.015487 0.231901 -0.073059
1.047944 0.230519 -0.073059
0.093245 0.280733 -0.040642
0.110204 0.280695 -0.040952
0.126846 0.280652 -0.041303
0.147527 0.280589 -0.041806
0.171348 0.280506 -0.042482
0.197398 0.280399 -0.043343
0.225020 0.280267 -0.044404
0.253761 0.280110 -0.045673
0.283312 0.279925 -0.047164
0.313460 0.279711 -0.048884
0.344055 0.279467 -0.050843
0.374994 0.279193 -0.053050
0.406199 0.278885 -0.055513
0.437614 0.278545 -0.058240
0.469197 0.278170 -0.061238
0.500917 0.277760 -0.064515
0.532748 0.277313 -0.068078
0.564672 0.276828 -0.071932
0.596673 0.276305 -0.073059
0.628739 0.275742 -0.073059
0.660861 0.275139 -0.073059
0.693030 0.274493 -0.073059
0.725240 0.273805 -0.073059
0.757485 0.273072 -0.073059
0.789761 0.272295 -0.073059
0.822064 0.271471 -0.073059
0.854390 0.270600 -0.073059
0.886738 0.269680 -0.073059
0.919105 0.268711 -0.073059
0.951488 0.267690 -0.073059
0.983885 0.266617 -0.073059
1.016297 0.265490 -0.073059
1.048720 0.264308 -0.073059
0.107023 0.311935 -0.050305
0.122206 0.311901 -0.050615
0.137442 0.311863 -0.050965
0.156721 0.311808 -0.051468
0.179273 0.311734 -0.052144
0.204240 0.311640 -0.053006
0.230960 0.311524 -0.054066
0.258957 0.311385 -0.055336
0.287894 0.311222 -0.056826
0.317533 0.311033 -0.058546
0.347703 0.310818 -0.060505
0.378283 0.310576 -0.062712
0.409183 0.310305 -0.065175
0.440337 0.310005 -0.067902
0.471695 0.309674 -0.070900
0.503218 0.309313 -0.073059
0.534878 0.308919 -0.073059
0.566650 0.308493 -0.073059
0.598517 0.308032 -0.073059
0.630464 0.307537 -0.073059
0.662478 0.307006 -0.073059
0.694551 0.306439 -0.073059
0.726674 0.305835 -0.073059
0.758840 0.305192 -0.073059
0.791044 0.304510 -0.073059
0.823282 0.303788 -0.073059
0.855548 0.303025 -0.073059
0.887841 0.302220 -0.073059
0.920156 0.301372 -0.073059
0.952492 0.300480 -0.073059
0.984846 0.299543 -0.073059
1.017217 0.298561 -0.073059
1.049603 0.297531 -0.073059
0.120800 0.343137 -0.061189
0.134490 0.343107 -0.061499
0.148476 0.343073 -0.061850
0.166449 0.343024 -0.062353
0.187773 0.342958 -0.063028
0.211655 0.342874 -0.063890
0.237450 0.342770 -0.064950
0.264670 0.342646 -0.066220
0.292956 0.342501 -0.067710
0.322048 0.342333 -0.069430
0.351757 0.342141 -0.071389
0.381946 0.341925 -0.073059
0.412513 0.341684 -0.073059
0.443379 0.341416 -0.073059
0.474488 0.341122 -0.073059
0.505794 0.340800 -0.073059
0.537263 0.340450 -0.073059
0.568868 0.340070 -0.073059
0.600585 0.339660 -0.073059
0.632399 0.339220 -0.073059
0.664294 0.338748 -0.073059
0.696259 0.338244 -0.073059
0.728285 0.337707 -0.073059
0.760363 0.337136 -0.073059
0.792487 0.336530 -0.073059
0.824650 0.335890 -0.073059
0.856850 0.335213 -0.073059
0.889080 0.334500 -0.073059
0.921339 0.333749 -0.073059
0.953622 0.332960 -0.073059
0.985928 0.332131 -0.073059
1.018253 0.331263 -0.073059
1.050597 0.330354 -0.073059
0.134577 0.374339 -0.073059
0.146999 0.374312 -0.073059
0.159875 0.374281 -0.073059
0.176644 0.374237 -0.073059
0.196791 0.374178 -0.073059
0.219603 0.374102 -0.073059
0.244463 0.374009 -0.073059
0.270881 0.373898 -0.073059
0.298485 0.373767 -0.073059
0.326999 0.373615 -0.073059
0.356216 0.373443 -0.073059
0.385985 0.373249 -0.073059
0.416190 0.373032 -0.073059
0.446744 0.372792 -0.073059
0.477582 0.372527 -0.073059
0.508650 0.372238 -0.073059
0.539910 0.371923 -0.073059
0.571330 0.371582 -0.073059
0.602883 0.371214 -0.073059
0.634550 0.370819 -0.073059
0.666313 0.370395 -0.073059
0.698159 0.369943 -0.073059
0.730077 0.369461 -0.073059
0.762057 0.368949 -0.073059
0.794092 0.368406 -0.073059
0.826175 0.367832 -0.073059
0.858299 0.367226 -0.073059
0.890461 0.366588 -0.073059
0.922656 0.365916 -0.073059
0.954881 0.365210 -0.073059
0.987132 0.364469 -0.073059
1.019407 0.363693 -0.073059
1.051704 0.362881 -0.073059
0.148355 0.405541 -0.073059
0.159690 0.405517 -0.073059
0.171581 0.405489 -0.073059
0.187244 0.405449 -0.073059
0.206276 0.405395 -0.073059
0.228044 0.405326 -0.073059
0.251968 0.405242 -0.073059
0.277569 0.405141 -0.073059
0.304469 0.405022 -0.073059
0.332377 0.404885 -0.073059
0.361075 0.404729 -0.073059
0.390396 0.404553 -0.073059
0.420215 0.404357 -0.073059
0.450433 0.404139 -0.073059
0.480977 0.403899 -0.073059
0.511789 0.403637 -0.073059
0.542822 0.403352 -0.073059
0.574040 0.403044 -0.073059
0.605414 0.402711 -0.073059
0.636920 0.402353 -0.073059
0.668539 0.401970 -0.073059
0.700255 0.401560 -0.073059
0.732055 0.401125 -0.073059
0.763928 0.400662 -0.073059
0.795865 0.400171 -0.073059
0.827858 0.399653 -0.073059
0.859901 0.399106 -0.073059
0.891987 0.398529 -0.073059
0.924112 0.397922 -0.073059
0.956272 0.397285 -0.073059
0.988464 0.396617 -0.073059
1.020683 0.395918 -0.073059
1.052928 0.395186 -0.073059
0.162132 0.436743 -0.073059
0.172529 0.436721 -0.073059
0.183544 0.436695 -0.073059
0.198195 0.436659 -0.073059
0.216176 0.436610 -0.073059
0.236934 0.436547 -0.073059
0.259934 0.436470 -0.073059
0.284712 0.436378 -0.073059
0.310891 0.436270 -0.073059
0.338173 0.436145 -0.073059
0.366328 0.436002 -0.073059
0.395178 0.435842 -0.073059
0.424586 0.435663 -0.073059
0.454446 0.435464 -0.073059
0.484677 0.435246 -0.073059
0.515212 0.435007 -0.073059
0.546000 0.434747 -0.073059
0.577001 0.434466 -0.073059
0.608181 0.434162 -0.073059
0.639513 0.433836 -0.073059
0.670975 0.433487 -0.073059
0.702550 0.433115 -0.073059
0.734222 0.432718 -0.073059
0.765978 0.432297 -0.073059
0.797808 0.431850 -0.073059
0.829704 0.431378 -0.073059
0.861657 0.430880 -0.073059
0.893660 0.430356 -0.073059
0.925709 0.429804 -0.073059
0.957799 0.429225 -0.073059
0.989925 0.428618 -0.073059
1.022084 0.427983 -0.073059
1.054272 0.427318 -0.073059
0.175910 0.467945 -0.073059
0.185490 0.467925 -0.073059
0.195724 0.467901 -0.073059
0.209451 0.467868 -0.073059
0.226448 0.467823 -0.073059
0.246237 0.467765 -0.073059
0.268330 0.467695 -0.073059
0.292286 0.467610 -0.073059
0.317734 0.467511 -0.073059
0.344373 0.467396 -0.073059
0.371965 0.467266 -0.073059
0.400323 0.467118 -0.073059
0.429300 0.466954 -0.073059
0.458782 0.466772 -0.073059
0.488680 0.466572 -0.073059
0.518920 0.466353 -0.073059
0.549447 0.466115 -0.073059
0.580215 0.465857 -0.073059
0.611186 0.465579 -0.073059
0.642331 0.465280 -0.073059
0.673625 0.464960 -0.073059
0.705047 0.464618 -0.073059
0.736580 0.464255 -0.073059
0.768210 0.463869 -0.073059
0.799925 0.463460 -0.073059
0.831715 0.463028 -0.073059
0.863570 0.462572 -0.073059
0.895485 0.462092 -0.073059
0.927451 0.461588 -0.073059
0.959464 0.461058 -0.073059
0.991519 0.460503 -0.073059
1.023611 0.459922 -0.073059
1.055738 0.459314 -0.073059
0.189687 0.499147 -0.073059
0.198553 0.499128 -0.073059
0.208089 0.499107 -0.073059
0.220972 0.499076 -0.073059
0.237050 0.499034 -0.073059
0.255913 0.498981 -0.073059
0.277124 0.498916 -0.073059
0.300266 0.498838 -0.073059
0.324979 0.498747 -0.073059
0.350964 0.498641 -0.073059
0.377978 0.498521 -0.073059
0.405826 0.498385 -0.073059
0.434353 0.498233 -0.073059
0.463439 0.498066 -0.073059
0.492985 0.497881 -0.073059
0.522914 0.497679 -0.073059
0.553164 0.497460 -0.073059
0.583684 0.497222 -0.073059
0.614433 0.496966 -0.073059
0.645377 0.496691 -0.073059
0.676490 0.496396 -0.073059
0.707749 0.496082 -0.073059
0.739133 0.495747 -0.073059
0.770627 0.495391 -0.073059
0.802218 0.495015 -0.073059
0.833894 0.494617 -0.073059
0.865644 0.494198 -0.073059
0.897462 0.493756 -0.073059
0.929339 0.493292 -0.073059
0.961270 0.492804 -0.073059
0.993248 0.492294 -0.073059
1.025269 0.491759 -0.073059
1.057329 0.491201 -0.073059
0.203465 0.530349 -0.073059
0.211701 0.530332 -0.073059
0.220611 0.530312 -0.073059
0.232724 0.530283 -0.073059
0.247945 0.530245 -0.073059
0.265930 0.530196 -0.073059
0.286285 0.530135 -0.073059
0.308626 0.530063 -0.073059
0.332607 0.529978 -0.073059
0.357932 0.529880 -0.073059
0.384355 0.529769 -0.073059
0.411678 0.529643 -0.073059
0.439740 0.529503 -0.073059
0.468412 0.529348 -0.073059
0.497591 0.529177 -0.073059
0.527192 0.528990 -0.073059
0.557149 0.528787 -0.073059
0.587407 0.528567 -0.073059
0.617920 0.528330 -0.073059
0.648653 0.528075 -0.073059
0.679573 0.527802 -0.073059
0.710657 0.527511 -0.073059
0.741882 0.527201 -0.073059
0.773231 0.526873 -0.073059
0.804689 0.526525 -0.073059
0.836243 0.526157 -0.073059
0.867881 0.525769 -0.073059
0.899595 0.525360 -0.073059
0.931377 0.524931 -0.073059
0.963218 0.524480 -0.073059
0.995114 0.524008 -0.073059
1.027058 0.523515 -0.073059
1.059046 0.522999 -0.073059
0.217242 0.561551 -0.073059
0.224920 0.561535 -0.073059
0.233267 0.561516 -0.073059
0.244677 0.561490 -0.073059
0.259102 0.561454 -0.073059
0.276254 0.561408 -0.073059
0.295786 0.561352 -0.073059
0.317344 0.561285 -0.073059
0.340597 0.561206 -0.073059
0.365259 0.561115 -0.073059
0.391084 0.561012 -0.073059
0.417871 0.560895 -0.073059
0.445454 0.560764 -0.073059
0.473698 0.560620 -0.073059
0.502494 0.560461 -0.073059
0.531754 0.560287 -0.073059
0.561404 0.560099 -0.073059
0.591386 0.559894 -0.073059
0.621651 0.559674 -0.073059
0.652158 0.559437 -0.073059
0.682875 0.559184 -0.073059
0.713773 0.558913 -0.073059
0.744830 0.558625 -0.073059
0.776025 0.558320 -0.073059
0.807341 0.557997 -0.073059
0.838765 0.557655 -0.073059
0.870283 0.557295 -0.073059
0.901887 0.556915 -0.073059
0.933566 0.556517 -0.073059
0.965312 0.556098 -0.073059
0.997119 0.555660 -0.073059
1.028981 0.555202 -0.073059
1.060893 0.554723 -0.073059
0.231019 0.592753 -0.073059
0.238200 0.592738 -0.073059
0.246039 0.592721 -0.073059
0.256805 0.592696 -0.073059
0.270491 0.592662 -0.073059
0.286857 0.592620 -0.073059
0.305600 0.592568 -0.073059
0.326394 0.592505 -0.073059
0.348930 0.592431 -0.073059
0.372930 0.592346 -0.073059
0.398153 0.592250 -0.073059
0.424395 0.592141 -0.073059
0.451487 0.592019 -0.073059
0.479291 0.591884 -0.073059
0.507691 0.591736 -0.073059
0.536595 0.591574 -0.073059
0.565925 0.591398 -0.073059
0.595619 0.591207 -0.073059
0.625623 0.591002 -0.073059
0.655894 0.590781 -0.073059
0.686396 0.590544 -0.073059
0.717099 0.590292 -0.073059
0.747977 0.590024 -0.073059
0.779008 0.589739 -0.073059
0.810175 0.589438 -0.073059
0.841460 0.589119 -0.073059
0.872852 0.588783 -0.073059
0.904338 0.588429 -0.073059
0.935908 0.588058 -0.073059
0.967553 0.587668 -0.073059
0.999266 0.587260 -0.073059
1.031041 0.586833 -0.073059
1.062871 0.586387 -0.073059
0.244797 0.623955 -0.073059
0.251532 0.623941 -0.073059
0.258912 0.623925 -0.073059
0.269088 0.623901 -0.073059
0.282087 0.623870 -0.073059
0.297713 0.623830 -0.073059
0.315699 0.623781 -0.073059
0.335754 0.623723 -0.073059
0.357586 0.623654 -0.073059
0.380929 0.623574 -0.073059
0.405548 0.623484 -0.073059
0.431239 0.623382 -0.073059
0.457832 0.623268 -0.073059
0.485184 0.623142 -0.073059
0.513178 0.623003 -0.073059
0.541714 0.622851 -0.073059
0.570712 0.622686 -0.073059
0.600105 0.622508 -0.073059
0.629836 0.622315 -0.073059
0.659860 0.622109 -0.073059
0.690137 0.621888 -0.073059
0.720635 0.621652 -0.073059
0.751325 0.621401 -0.073059
0.782184 0.621134 -0.073059
0.813192 0.620852 -0.073059
0.844332 0.620554 -0.073059
0.875589 0.620240 -0.073059
0.906950 0.619909 -0.073059
0.938405 0.619562 -0.073059
0.969943 0.619197 -0.073059
1.001556 0.618815 -0.073059
1.033238 0.618416 -0.073059
1.064981 0.617999 -0.073059
0.258574 0.655157 -0.073059
0.264909 0.655144 -0.073059
0.271871 0.655128 -0.073059
0.281507 0.655107 -0.073059
0.293868 0.655077 -0.073059
0.308796 0.655040 -0.073059
0.326062 0.654994 -0.073059
0.345401 0.654939 -0.073059
0.366545 0.654874 -0.073059
0.389239 0.654800 -0.073059
0.413255 0.654715 -0.073059
0.438392 0.654619 -0.073059
0.464480 0.654512 -0.073059
0.491372 0.654393 -0.073059
0.518948 0.654263 -0.073059
0.547106 0.654121 -0.073059
0.575761 0.653966 -0.073059
0.604842 0.653798 -0.073059
0.634291 0.653618 -0.073059
0.664057 0.653424 -0.073059
0.694099 0.653216 -0.073059
0.724381 0.652995 -0.073059
0.754874 0.652759 -0.073059
0.785552 0.652509 -0.073059
0.816394 0.652244 -0.073059
0.847380 0.651964 -0.073059
0.878495 0.651670 -0.073059
0.909725 0.651359 -0.073059
0.941058 0.651033 -0.073059
0.972483 0.650691 -0.073059
1.003991 0.650333 -0.073059
1.035574 0.649959 -0.073059
1.067225 0.649568 -0.073059
0.272352 0.686359 -0.073059
0.278324 0.686346 -0.073059
0.284907 0.686332 -0.073059
0.294045 0.686312 -0.073059
0.305814 0.686284 -0.073059
0.320087 0.686249 -0.073059
0.336666 0.686205 -0.073059
0.355316 0.686154 -0.073059
0.375789 0.686093 -0.073059
0.397844 0.686022 -0.073059
0.421261 0.685942 -0.073059
0.445844 0.685852 -0.073059
0.471421 0.685752 -0.073059
0.497846 0.685640 -0.073059
0.524997 0.685517 -0.073059
0.552767 0.685383 -0.073059
0.581068 0.685238 -0.073059
0.609828 0.685080 -0.073059
0.638984 0.684910 -0.073059
0.668482 0.684727 -0.073059
0.698279 0.684532 -0.073059
0.728337 0.684323 -0.073059
0.758624 0.684102 -0.073059
0.789113 0.683866 -0.073059
0.819781 0.683617 -0.073059
0.850606 0.683354 -0.073059
0.881572 0.683076 -0.073059
0.912664 0.682784 -0.073059
0.943869 0.682478 -0.073059
0.975174 0.682156 -0.073059
1.006571 0.681819 -0.073059
1.038050 0.681467 -0.073059
1.069604 0.681099 -0.073059
0.286129 0.717561 -0.073059
0.291773 0.717549 -0.073059
0.298009 0.717536 -0.073059
0.306690 0.717516 -0.073059
0.317907 0.717490 -0.073059
0.331564 0.717457 -0.073059
0.347492 0.717416 -0.073059
0.365479 0.717367 -0.073059
0.385300 0.717310 -0.073059
0.406728 0.717243 -0.073059
0.429552 0.717168 -0.073059
0.453581 0.717083 -0.073059
0.478646 0.716988 -0.073059
0.504600 0.716882 -0.073059
0.531317 0.716767 -0.073059
0.558691 0.716640 -0.073059
0.586631 0.716503 -0.073059
0.615060 0.716354 -0.073059
0.643913 0.716193 -0.073059
0.673135 0.716021 -0.073059
0.702678 0.715837 -0.073059
0.732503 0.715640 -0.073059
0.762576 0.715431 -0.073059
0.792868 0.715209 -0.073059
0.823353 0.714974 -0.073059
0.854010 0.714725 -0.073059
0.884820 0.714463 -0.073059
0.915768 0.714188 -0.073059
0.946838 0.713899 -0.073059
0.978018 0.713595 -0.073059
1.009299 0.713278 -0.073059
1.040669 0.712945 -0.073059
1.072121 0.712598 -0.073059
0.299907 0.748763 -0.073059
0.305252 0.748752 -0.073059
0.311170 0.748739 -0.073059
0.319429 0.748721 -0.073059
0.330133 0.748696 -0.073059
0.343211 0.748665 -0.073059
0.358519 0.748626 -0.073059
0.375872 0.748580 -0.073059
0.395060 0.748525 -0.073059
0.415875 0.748462 -0.073059
0.438115 0.748391 -0.073059
0.461593 0.748310 -0.073059
0.486145 0.748221 -0.073059
0.511624 0.748121 -0.073059
0.537903 0.748012 -0.073059
0.564875 0.747892 -0.073059
0.592446 0.747762 -0.073059
0.620535 0.747621 -0.073059
0.649077 0.747469 -0.073059
0.678013 0.747306 -0.073059
0.707294 0.747132 -0.073059
0.736878 0.746946 -0.073059
0.766729 0.746748 -0.073059
0.796816 0.746538 -0.073059
0.827111 0.746316 -0.073059
0.857593 0.746081 -0.073059
0.888241 0.745833 -0.073059
0.919037 0.745573 -0.073059
0.949966 0.745299 -0.073059
0.981016 0.745012 -0.073059
1.012174 0.744712 -0.073059
1.043430 0.744398 -0.073059
1.074775 0.744070 -0.073059
0.313684 0.779965 -0.073059
0.318757 0.779954 -0.073059
0.324383 0.779942 -0.073059
0.332252 0.779925 -0.073059
0.342478 0.779901 -0.073059
0.355012 0.779872 -0.073059
0.369733 0.779835 -0.073059
0.386476 0.779791 -0.073059
0.405054 0.779740 -0.073059
0.425271 0.779680 -0.073059
0.446935 0.779612 -0.073059
0.469868 0.779536 -0.073059
0.493908 0.779451 -0.073059
0.518910 0.779356 -0.073059
0.544748 0.779253 -0.073059
0.571312 0.779139 -0.073059
0.598506 0.779016 -0.073059
0.626250 0.778882 -0.073059
0.654473 0.778738 -0.073059
0.683116 0.778584 -0.073059
0.712126 0.778419 -0.073059
0.741461 0.778242 -0.073059
0.771082 0.778055 -0.073059
0.800956 0.777856 -0.073059
0.831055 0.777645 -0.073059
0.861355 0.777423 -0.073059
