滤镜资源/Professional Luts Collection/Lutify.me Professional/Utility LUTs/White Balance/3200 Kelvin - 4300 Kelvin - 0.61 CTO.cube
# Created by: Lutify.me
# Copyright: (c) Copyright Lutify.me 2015
# Website: https://lutify.me
LUT_3D_SIZE 5
0.000000 0.000000 0.000000
0.263008 -0.004776 -0.006521
0.523670 -0.020093 -0.027435
0.784332 -0.049051 -0.066975
1.044995 -0.073059 -0.073059
0.079468 0.249531 -0.032160
0.279216 0.248604 -0.038681
0.530870 0.245603 -0.059595
0.788632 0.239811 -0.073059
1.047944 0.230519 -0.073059
0.189687 0.499147 -0.073059
0.324979 0.498747 -0.073059
0.553164 0.497460 -0.073059
0.802218 0.495015 -0.073059
1.057329 0.491201 -0.073059
0.299907 0.748763 -0.073059
0.395060 0.748525 -0.073059
0.592446 0.747762 -0.073059
0.827111 0.746316 -0.073059
1.074775 0.744070 -0.073059
0.410126 0.998379 -0.073059
0.480366 0.998216 -0.073059
0.647386 0.997693 -0.073059
0.863809 0.996705 -0.073059
1.101059 0.995171 -0.073059
0.006715 -0.000176 0.202094
0.264229 -0.004952 0.200485
0.524199 -0.020269 0.195228
0.784647 -0.049227 0.184842
1.045210 -0.073059 0.167398
0.083470 0.249497 0.194019
0.280356 0.248570 0.192336
0.531390 0.245568 0.186829
0.788944 0.239776 0.175906
1.048159 0.230482 0.157410
0.191446 0.499132 0.165241
0.325932 0.498732 0.163239
0.553657 0.497445 0.156639
0.802523 0.495000 0.143306
1.057541 0.491186 0.119762
0.300954 0.748754 0.087537
0.395813 0.748516 0.083812
0.592898 0.747753 0.070796
0.827405 0.746307 0.038921
1.074983 0.744061 -0.022281
0.410844 0.998373 -0.073059
0.480956 0.998210 -0.073059
0.647790 0.997687 -0.073059
0.864087 0.996699 -0.073059
1.101260 0.995165 -0.073059
0.028252 -0.000742 0.412826
0.268103 -0.005518 0.412133
0.525893 -0.020835 0.409899
0.785655 -0.049793 0.405635
1.045901 -0.073059 0.398923
0.095329 0.249387 0.409392
0.283974 0.248460 0.408692
0.533054 0.245456 0.406435
0.789945 0.239661 0.402125
1.048847 0.230362 0.395340
0.196971 0.499085 0.398133
0.328965 0.498684 0.397408
0.555237 0.497397 0.395071
0.803502 0.494952 0.390606
1.058221 0.491137 0.383569
0.304287 0.748726 0.375702
0.398213 0.748488 0.374923
0.594346 0.747725 0.372412
0.828345 0.746278 0.367608
1.075648 0.744033 0.360018
0.413138 0.998354 0.337345
0.482842 0.998191 0.336457
0.649082 0.997668 0.333592
0.864975 0.996679 0.328091
1.101904 0.995146 0.319352
0.064216 -0.001813 0.623559
0.275253 -0.006588 0.623147
0.529075 -0.021905 0.621824
0.787556 -0.050863 0.619313
1.047205 -0.073059 0.615401
0.114741 0.249180 0.621525
0.290671 0.248251 0.621111
0.536182 0.245245 0.619783
0.791832 0.239444 0.617261
1.050146 0.230135 0.613332
0.206976 0.498995 0.614943
0.334610 0.498595 0.614524
0.558208 0.497307 0.613177
0.805348 0.494862 0.610621
1.059505 0.491046 0.606636
0.310471 0.748673 0.602247
0.402703 0.748435 0.601816
0.597071 0.747671 0.600433
0.830119 0.746225 0.597806
1.076904 0.743979 0.593710
0.417431 0.998317 0.581888
0.486384 0.998154 0.581438
0.651517 0.997632 0.579992
0.866651 0.996643 0.577246
1.103121 0.995109 0.572961
0.101239 -0.003469 0.834291
0.285912 -0.008245 0.834009
0.533953 -0.023561 0.833104
0.790486 -0.052519 0.831390
1.049219 -0.073059 0.828727
0.139783 0.248858 0.832900
0.300693 0.247928 0.832617
0.540979 0.244917 0.831710
0.794742 0.239107 0.829992
1.052153 0.229782 0.827323
0.221485 0.498856 0.828417
0.343128 0.498456 0.828132
0.562768 0.497168 0.827219
0.808194 0.494721 0.825488
1.061488 0.490904 0.822800
0.319764 0.748590 0.819853
0.409535 0.748352 0.819564
0.601258 0.747589 0.818638
0.832855 0.746142 0.816884
1.078845 0.743896 0.814159
0.423971 0.998261 0.806361
0.491803 0.998098 0.806066
0.655262 0.997575 0.805119
0.869237 0.996586 0.803326
1.105001 0.995053 0.800540
