滤镜资源/Professional Luts Collection/Lutify.me Professional/Utility LUTs/White Balance/3200 Kelvin - 4300 Kelvin - 0.61 CTO.cube
# Created by: Lutify.me
# Copyright: (c) Copyright Lutify.me 2015
# Website: https://lutify.me
LUT_3D_SIZE 9
0.000000 0.000000 0.000000
0.132677 -0.001347 -0.001839
0.263008 -0.004776 -0.006521
0.393339 -0.010891 -0.014871
0.523670 -0.020093 -0.027435
0.654001 -0.032716 -0.044671
0.784332 -0.049051 -0.066975
0.914664 -0.069357 -0.073059
1.044995 -0.073059 -0.073059
0.025970 0.124723 -0.009071
0.142242 0.124176 -0.010910
0.267695 0.122772 -0.015592
0.396254 0.120230 -0.023941
0.525713 0.116303 -0.036506
0.655540 0.110703 -0.053742
0.785548 0.103036 -0.073059
0.915657 0.092712 -0.073059
1.045828 0.078716 -0.073059
0.079468 0.249531 -0.032160
0.164056 0.249270 -0.033999
0.279216 0.248604 -0.038681
0.403556 0.247411 -0.047030
0.530870 0.245603 -0.059595
0.659437 0.243098 -0.073059
0.788632 0.239811 -0.073059
0.918180 0.235653 -0.073059
1.047944 0.230519 -0.073059
0.134577 0.374339 -0.073059
0.196791 0.374178 -0.073059
0.298485 0.373767 -0.073059
0.416190 0.373032 -0.073059
0.539910 0.371923 -0.073059
0.666313 0.370395 -0.073059
0.794092 0.368406 -0.073059
0.922656 0.365916 -0.073059
1.051704 0.362881 -0.073059
0.189687 0.499147 -0.073059
0.237050 0.499034 -0.073059
0.324979 0.498747 -0.073059
0.434353 0.498233 -0.073059
0.553164 0.497460 -0.073059
0.676490 0.496396 -0.073059
0.802218 0.495015 -0.073059
0.929339 0.493292 -0.073059
1.057329 0.491201 -0.073059
0.244797 0.623955 -0.073059
0.282087 0.623870 -0.073059
0.357586 0.623654 -0.073059
0.457832 0.623268 -0.073059
0.570712 0.622686 -0.073059
0.690137 0.621888 -0.073059
0.813192 0.620852 -0.073059
0.938405 0.619562 -0.073059
1.064981 0.617999 -0.073059
0.299907 0.748763 -0.073059
0.330133 0.748696 -0.073059
0.395060 0.748525 -0.073059
0.486145 0.748221 -0.073059
0.592446 0.747762 -0.073059
0.707294 0.747132 -0.073059
0.827111 0.746316 -0.073059
0.949966 0.745299 -0.073059
1.074775 0.744070 -0.073059
0.355016 0.873571 -0.073059
0.380117 0.873516 -0.073059
0.436287 0.873377 -0.073059
0.518682 0.873128 -0.073059
0.618116 0.872753 -0.073059
0.727897 0.872239 -0.073059
0.843998 0.871573 -0.073059
0.964085 0.870743 -0.073059
1.086788 0.869741 -0.073059
0.410126 0.998379 -0.073059
0.431388 0.998333 -0.073059
0.480366 0.998216 -0.073059
0.554809 0.998007 -0.073059
0.647386 0.997693 -0.073059
0.751800 0.997263 -0.073059
0.863809 0.996705 -0.073059
0.980773 0.996010 -0.073059
1.101059 0.995171 -0.073059
0.001894 -0.000050 0.096727
0.133398 -0.001397 0.095778
0.263353 -0.004826 0.093323
0.393553 -0.010941 0.088798
0.523820 -0.020142 0.081586
0.654114 -0.032765 0.070727
0.784421 -0.049100 0.054349
0.914736 -0.069407 0.028327
1.045055 -0.073059 -0.005147
0.027864 0.124703 0.091962
0.142915 0.124156 0.090969
0.268033 0.122752 0.088398
0.396465 0.120209 0.083644
0.525862 0.116282 0.076029
0.655652 0.110680 0.064445
0.785637 0.103012 0.046595
0.915730 0.092685 0.019256
1.045888 0.078686 -0.014218
0.080613 0.249522 0.078732
0.164637 0.249261 0.077597
0.279538 0.248594 0.074646
0.403763 0.247401 0.069136
0.531016 0.245593 0.060132
0.659548 0.243088 0.045884
0.788720 0.239801 0.023895
0.918252 0.235643 -0.003833
1.048004 0.230509 -0.037307
0.135288 0.374333 0.048997
0.197270 0.374172 0.047375
0.298783 0.373761 0.043077
0.416389 0.373026 0.034824
0.540054 0.371917 0.022259
0.666423 0.370389 0.005023
0.794180 0.368400 -0.017281
0.922728 0.365910 -0.045009
1.051764 0.362875 -0.073059
0.190185 0.499143 -0.012269
0.237438 0.499030 -0.014108
0.325248 0.498743 -0.018790
0.434542 0.498229 -0.027139
0.553303 0.497456 -0.039704
0.676598 0.496392 -0.056940
0.802304 0.495011 -0.073059
0.929410 0.493287 -0.073059
1.057389 0.491197 -0.073059
0.245172 0.623952 -0.073059
0.282405 0.623867 -0.073059
0.357826 0.623651 -0.073059
0.458009 0.623265 -0.073059
0.570846 0.622683 -0.073059
0.690242 0.621885 -0.073059
0.813277 0.620849 -0.073059
0.938475 0.619558 -0.073059
1.065040 0.617996 -0.073059
0.300203 0.748761 -0.073059
0.330397 0.748693 -0.073059
0.395273 0.748523 -0.073059
0.486309 0.748218 -0.073059
0.592573 0.747759 -0.073059
0.707396 0.747129 -0.073059
0.827194 0.746313 -0.073059
0.950035 0.745297 -0.073059
1.074834 0.744067 -0.073059
0.355258 0.873569 -0.073059
0.380340 0.873514 -0.073059
0.436475 0.873375 -0.073059
0.518833 0.873126 -0.073059
0.618236 0.872751 -0.073059
0.727995 0.872237 -0.073059
0.844078 0.871571 -0.073059
0.964153 0.870741 -0.073059
1.086846 0.869739 -0.073059
0.410329 0.998377 -0.073059
0.431579 0.998331 -0.073059
0.480532 0.998214 -0.073059
0.554948 0.998006 -0.073059
0.647500 0.997692 -0.073059
0.751894 0.997261 -0.073059
0.863888 0.996703 -0.073059
0.980839 0.996009 -0.073059
1.101116 0.995170 -0.073059
0.006715 -0.000176 0.202094
0.135215 -0.001524 0.201641
0.264229 -0.004952 0.200485
0.394095 -0.011067 0.198405
0.524199 -0.020269 0.195228
0.654400 -0.032892 0.190776
0.784647 -0.049227 0.184842
0.914921 -0.069534 0.177166
1.045210 -0.073059 0.167398
0.032685 0.124652 0.199852
0.144612 0.124104 0.199394
0.268892 0.122700 0.198224
0.397003 0.120156 0.196117
0.526240 0.116227 0.192899
0.655937 0.110623 0.188388
0.785862 0.102951 0.182369
0.915914 0.092618 0.174577
1.046043 0.078608 0.164645
0.083470 0.249497 0.194019
0.166106 0.249236 0.193546
0.280356 0.248570 0.192336
0.404289 0.247376 0.190158
0.531390 0.245568 0.186829
0.659831 0.243062 0.182154
0.788944 0.239776 0.175906
0.918436 0.235617 0.167793
1.048159 0.230482 0.157410
0.137081 0.374318 0.183112
0.198482 0.374157 0.182609
0.299539 0.373745 0.181320
0.416895 0.373011 0.178997
0.540420 0.371902 0.175438
0.666702 0.370374 0.170429
0.794402 0.368385 0.163704
0.922911 0.365894 0.154919
1.051918 0.362859 0.143574
0.191446 0.499132 0.165241
0.238425 0.499019 0.164679
0.325932 0.498732 0.163239
0.435022 0.498219 0.160638
0.553657 0.497445 0.156639
0.676872 0.496381 0.150975
0.802523 0.495000 0.143306
0.929591 0.493277 0.133150
1.057541 0.491186 0.119762
0.246123 0.623944 0.136789
0.283213 0.623859 0.136107
0.358435 0.623643 0.134354
0.458459 0.623257 0.131170
0.571186 0.622675 0.126230
0.690509 0.621876 0.119130
0.813492 0.620841 0.109293
0.938653 0.619550 0.095777
1.065191 0.617988 0.076777
0.300954 0.748754 0.087537
0.331068 0.748687 0.086500
0.395813 0.748516 0.083812
0.486726 0.748212 0.078827
0.592898 0.747753 0.070796
0.707654 0.747123 0.058444
0.827405 0.746307 0.038921
0.950211 0.745290 0.011193
1.074983 0.744061 -0.022281
0.355873 0.873564 -0.030845
0.380905 0.873509 -0.032684
0.436952 0.873369 -0.037366
0.519218 0.873121 -0.045715
0.618544 0.872746 -0.058280
0.728244 0.872232 -0.073059
0.844283 0.871565 -0.073059
0.964325 0.870736 -0.073059
1.086993 0.869734 -0.073059
0.410844 0.998373 -0.073059
0.432063 0.998327 -0.073059
0.480956 0.998210 -0.073059
0.555301 0.998001 -0.073059
0.647790 0.997687 -0.073059
0.752132 0.997257 -0.073059
0.864087 0.996699 -0.073059
0.981007 0.996004 -0.073059
1.101260 0.995165 -0.073059
0.015313 -0.000402 0.307460
0.138397 -0.001749 0.307180
0.265783 -0.005178 0.306468
0.395061 -0.011293 0.305192
0.524876 -0.020495 0.303260
0.654909 -0.033118 0.300586
0.785050 -0.049453 0.297084
0.915250 -0.069760 0.292660
1.045486 -0.073059 0.287213
0.041265 0.124560 0.306079
0.147590 0.124012 0.305798
0.270415 0.122607 0.305082
0.397960 0.120061 0.303799
0.526914 0.116129 0.301857
0.656446 0.110520 0.299168
0.786264 0.102841 0.295645
0.916242 0.092497 0.291196
1.046318 0.078469 0.285715
0.088370 0.249453 0.302530
0.168693 0.249192 0.302245
0.281807 0.248526 0.301519
0.405225 0.247332 0.300218
0.532055 0.245524 0.298248
0.660335 0.243017 0.295520
0.789344 0.239730 0.291946
0.918763 0.235570 0.287429
1.048433 0.230434 0.281862
0.140220 0.374291 0.296076
0.200623 0.374130 0.295784
0.300882 0.373718 0.295038
0.417796 0.372983 0.293704
0.541071 0.371874 0.291682
0.667199 0.370346 0.288880
0.794798 0.368357 0.285208
0.923236 0.365866 0.280563
1.052191 0.362831 0.274833
0.193672 0.499113 0.286038
0.240172 0.499001 0.285733
0.327147 0.498713 0.284957
0.435877 0.498200 0.283566
0.554289 0.497426 0.281458
0.677360 0.496362 0.278536
0.802914 0.494981 0.274701
0.929913 0.493257 0.269844
1.057812 0.491166 0.263841
0.247808 0.623930 0.271555
0.284647 0.623845 0.271231
0.359519 0.623628 0.270406
0.459260 0.623242 0.268927
0.571793 0.622661 0.266683
0.690985 0.621862 0.263570
0.813876 0.620827 0.259475
0.938971 0.619536 0.254280
1.065460 0.617973 0.247839
0.302290 0.748743 0.251361
0.332261 0.748676 0.251007
0.396773 0.748505 0.250104
0.487469 0.748200 0.248485
0.593476 0.747742 0.246025
0.708115 0.747112 0.242603
0.827780 0.746295 0.238093
0.950524 0.745279 0.232346
1.075248 0.744050 0.225186
0.356966 0.873555 0.223313
0.381912 0.873500 0.222908
0.437802 0.873360 0.221874
0.519903 0.873111 0.220017
0.619092 0.872737 0.217189
0.728687 0.872222 0.213241
0.844649 0.871556 0.208008
0.964632 0.870727 0.201293
1.087254 0.869725 0.192842
0.411762 0.998365 0.183031
0.432925 0.998319 0.182527
0.481710 0.998202 0.181238
0.555930 0.997994 0.178914
0.648306 0.997680 0.175354
0.752558 0.997249 0.170341
0.864441 0.996691 0.163613
0.981307 0.995997 0.154822
1.101517 0.995158 0.143470
0.028252 -0.000742 0.412826
0.143052 -0.002090 0.412631
0.268103 -0.005518 0.412133
0.396509 -0.011633 0.411243
0.525893 -0.020835 0.409899
0.655675 -0.033458 0.408047
0.785655 -0.049793 0.405635
0.915744 -0.070100 0.402611
1.045901 -0.073059 0.398923
0.052845 0.124422 0.411861
0.151960 0.123874 0.411665
0.272689 0.122466 0.411166
0.399395 0.119918 0.410273
0.527925 0.115981 0.408926
0.657209 0.110365 0.407068
0.786868 0.102675 0.404649
0.916736 0.092315 0.401616
1.046733 0.078260 0.397916
0.095329 0.249387 0.409392
0.172508 0.249126 0.409195
0.283974 0.248460 0.408692
0.406628 0.247266 0.407793
0.533054 0.245456 0.406435
0.661093 0.242949 0.404563
0.789945 0.239661 0.402125
0.919255 0.235500 0.399069
1.048847 0.230362 0.395340
0.144816 0.374250 0.404944
0.203798 0.374089 0.404743
0.302889 0.373678 0.404233
0.419148 0.372943 0.403322
0.542049 0.371833 0.401946
0.667947 0.370305 0.400048
0.795394 0.368316 0.397576
0.923725 0.365824 0.394476
1.052602 0.362789 0.390693
0.196971 0.499085 0.398133
0.242775 0.498972 0.397928
0.328965 0.498684 0.397408
0.437160 0.498171 0.396477
0.555237 0.497397 0.395071
0.678093 0.496333 0.393132
0.803502 0.494952 0.390606
0.930398 0.493228 0.387438
1.058221 0.491137 0.383569
0.250321 0.623908 0.388550
0.286789 0.623823 0.388339
0.361143 0.623607 0.387803
0.460461 0.623221 0.386843
0.572705 0.622639 0.385394
0.691699 0.621841 0.383396
0.814453 0.620805 0.380790
0.939450 0.619514 0.377520
1.065864 0.617952 0.373526
0.304287 0.748726 0.375702
0.334046 0.748659 0.375482
0.398213 0.748488 0.374923
0.488585 0.748184 0.373923
0.594346 0.747725 0.372412
0.708807 0.747095 0.370327
0.828345 0.746278 0.367608
0.950995 0.745262 0.364193
1.075648 0.744033 0.360018
0.358604 0.873541 0.358940
0.383421 0.873486 0.358708
0.439078 0.873346 0.358117
0.520931 0.873098 0.357059
0.619915 0.872723 0.355461
0.729355 0.872208 0.353254
0.845199 0.871542 0.350372
0.965093 0.870713 0.346750
1.087648 0.869711 0.342316
0.413138 0.998354 0.337345
0.434219 0.998308 0.337095
0.482842 0.998191 0.336457
0.556875 0.997982 0.335317
0.649082 0.997668 0.333592
0.753197 0.997237 0.331207
0.864975 0.996679 0.328091
0.981759 0.995985 0.324167
1.101904 0.995146 0.319352
0.045704 -0.001209 0.518192
0.149199 -0.002556 0.518045
0.271247 -0.005985 0.517671
0.398484 -0.012100 0.517002
0.527283 -0.021302 0.515994
0.656724 -0.033925 0.514606
0.786484 -0.050260 0.512804
0.916423 -0.070566 0.510552
1.046469 -0.073059 0.507816
0.066351 0.124232 0.517467
0.157752 0.123683 0.517319
0.275772 0.122274 0.516944
0.401353 0.119721 0.516274
0.529308 0.115778 0.515264
0.658255 0.110152 0.513874
0.787696 0.102448 0.512068
0.917414 0.092065 0.509812
1.047301 0.077972 0.507072
0.104200 0.249297 0.515614
0.177601 0.249036 0.515466
0.286916 0.248369 0.515089
0.408543 0.247174 0.514416
0.534420 0.245364 0.513401
0.662131 0.242856 0.512005
0.790768 0.239566 0.510190
0.919930 0.235403 0.507924
1.049413 0.230263 0.505170
0.150890 0.374194 0.512288
0.208068 0.374033 0.512139
0.305618 0.373622 0.511759
0.420993 0.372886 0.511080
0.543387 0.371777 0.510057
0.668971 0.370248 0.508649
0.796210 0.368259 0.506820
0.924395 0.365767 0.504534
1.053166 0.362731 0.501757
0.201399 0.499046 0.507232
0.246295 0.498933 0.507081
0.331440 0.498645 0.506696
0.438912 0.498132 0.506009
0.556535 0.497358 0.504972
0.679097 0.496294 0.503546
0.804307 0.494913 0.501693
0.931062 0.493189 0.499378
1.058781 0.491097 0.496564
0.253721 0.623879 0.500190
0.289698 0.623794 0.500036
0.363355 0.623578 0.499644
0.462104 0.623192 0.498945
0.573952 0.622610 0.497890
0.692678 0.621811 0.496438
0.815245 0.620775 0.494552
0.940105 0.619485 0.492194
1.066419 0.617922 0.489328
0.307001 0.748703 0.490887
0.336476 0.748636 0.490730
0.400178 0.748465 0.490329
0.490110 0.748160 0.489612
0.595536 0.747701 0.488532
0.709756 0.747071 0.487045
0.829119 0.746255 0.485113
0.951640 0.745239 0.482696
1.076196 0.744009 0.479759
0.360836 0.873522 0.479004
0.385479 0.873467 0.478842
0.440820 0.873327 0.478428
0.522338 0.873079 0.477689
0.621043 0.872704 0.476575
0.730268 0.872189 0.475041
0.845953 0.871523 0.473046
0.965726 0.870694 0.470552
1.088188 0.869692 0.467518
0.415016 0.998338 0.464145
0.435985 0.998292 0.463977
0.484390 0.998175 0.463546
0.558167 0.997966 0.462778
0.650145 0.997652 0.461618
0.754074 0.997221 0.460021
0.865706 0.996663 0.457944
0.982377 0.995969 0.455346
1.102435 0.995130 0.452184
0.064216 -0.001813 0.623559
0.156788 -0.003160 0.623443
0.275253 -0.006588 0.623147
0.401022 -0.012703 0.622619
0.529075 -0.021905 0.621824
0.658078 -0.034528 0.620731
0.787556 -0.050863 0.619313
0.917299 -0.071170 0.617545
1.047205 -0.073059 0.615401
0.081196 0.123987 0.622986
0.164934 0.123436 0.622870
0.279703 0.122024 0.622574
0.403869 0.119466 0.622045
0.531092 0.115515 0.621249
0.659605 0.109877 0.620155
0.788765 0.102153 0.618735
0.918289 0.091741 0.616965
1.048035 0.077598 0.614818
0.114741 0.249180 0.621525
0.183968 0.248918 0.621408
0.290671 0.248251 0.621111
0.411006 0.247056 0.620581
0.536182 0.245245 0.619783
0.663471 0.242736 0.618685
0.791832 0.239444 0.617261
0.920802 0.235278 0.615485
1.050146 0.230135 0.613332
0.158395 0.374122 0.618908
0.213452 0.373961 0.618791
0.309107 0.373549 0.618492
0.423366 0.372814 0.617960
0.545112 0.371704 0.617157
0.670293 0.370175 0.616053
0.797264 0.368185 0.614621
0.925262 0.365692 0.612835
1.053895 0.362656 0.610670
0.206976 0.498995 0.614943
0.250765 0.498882 0.614825
0.334610 0.498595 0.614524
0.441166 0.498081 0.613987
0.558208 0.497307 0.613177
0.680394 0.496243 0.612065
0.805348 0.494862 0.610621
0.931920 0.493137 0.608819
1.059505 0.491046 0.606636
0.258044 0.623841 0.609451
0.293411 0.623756 0.609331
0.366195 0.623539 0.609026
0.464218 0.623153 0.608483
0.575562 0.622572 0.607664
0.693942 0.621773 0.606538
0.816267 0.620737 0.605077
0.940953 0.619446 0.603255
1.067136 0.617883 0.601045
0.310471 0.748673 0.602247
0.339589 0.748606 0.602125
0.402703 0.748435 0.601816
0.492075 0.748130 0.601264
0.597071 0.747671 0.600433
0.710980 0.747041 0.599289
0.830119 0.746225 0.597806
0.952474 0.745208 0.595955
1.076904 0.743979 0.593710
0.363699 0.873497 0.593134
0.388122 0.873442 0.593010
0.443062 0.873303 0.592695
0.524152 0.873054 0.592132
0.622498 0.872679 0.591284
0.731449 0.872165 0.590118
0.846927 0.871499 0.588605
0.966544 0.870669 0.586716
1.088886 0.869667 0.584426
0.417431 0.998317 0.581888
0.438258 0.998271 0.581761
0.486384 0.998154 0.581438
0.559835 0.997946 0.580862
0.651517 0.997632 0.579992
0.755206 0.997201 0.578797
0.866651 0.996643 0.577246
0.983177 0.995948 0.575309
1.103121 0.995109 0.572961
0.082728 -0.002563 0.728925
0.165721 -0.003910 0.728830
0.280141 -0.007339 0.728589
0.404151 -0.013454 0.728158
0.531292 -0.022656 0.727508
0.659757 -0.035279 0.726617
0.788885 -0.051613 0.725461
0.918387 -0.071920 0.724020
1.048118 -0.073059 0.722276
0.096965 0.123680 0.728457
0.173428 0.123128 0.728362
0.284502 0.121713 0.728120
0.406971 0.119149 0.727689
0.533298 0.115187 0.727039
0.661278 0.109533 0.726147
0.790092 0.101786 0.724990
0.919376 0.091336 0.723548
1.048948 0.077131 0.721803
0.126687 0.249034 0.727264
0.191566 0.248772 0.727169
0.295262 0.248105 0.726927
0.414041 0.246909 0.726495
0.538362 0.245097 0.725844
0.665131 0.242585 0.724949
0.793152 0.239291 0.723790
0.921885 0.235122 0.722345
1.051056 0.229975 0.720595
0.167239 0.374032 0.725131
0.219943 0.373871 0.725035
0.313379 0.373459 0.724792
0.426293 0.372723 0.724358
0.547247 0.371613 0.723704
0.671932 0.370084 0.722807
0.798572 0.368093 0.721643
0.926338 0.365600 0.720192
1.054801 0.362562 0.718436
0.213686 0.498932 0.721904
0.256199 0.498819 0.721808
0.338501 0.498532 0.721564
0.443948 0.498018 0.721127
0.560280 0.497244 0.720470
0.682002 0.496180 0.719567
0.806639 0.494798 0.718396
0.932986 0.493074 0.716937
1.060404 0.490982 0.715170
0.263305 0.623793 0.717448
0.297952 0.623708 0.717351
0.369688 0.623492 0.717105
0.466830 0.623106 0.716665
0.577554 0.622524 0.716002
0.695509 0.621725 0.715092
0.817536 0.620689 0.713911
0.942005 0.619398 0.712440
1.068027 0.617835 0.710659
0.314722 0.748635 0.711627
0.343413 0.748568 0.711529
0.405816 0.748398 0.711280
0.494503 0.748093 0.710836
0.598972 0.747634 0.710166
0.712499 0.747004 0.709246
0.831360 0.746187 0.708052
0.953509 0.745171 0.706566
1.077784 0.743941 0.704765
0.367221 0.873467 0.704304
0.391378 0.873412 0.704204
0.445830 0.873272 0.703952
0.526395 0.873023 0.703501
0.624300 0.872649 0.702822
0.732912 0.872134 0.701890
0.848135 0.871468 0.700680
0.967560 0.870639 0.699173
1.089753 0.869636 0.697348
0.420410 0.998292 0.695328
0.441063 0.998246 0.695228
0.488848 0.998129 0.694971
0.561899 0.997920 0.694512
0.653217 0.997606 0.693822
0.756610 0.997175 0.692874
0.867824 0.996617 0.691644
0.984170 0.995923 0.690111
1.103973 0.995084 0.688254
0.101239 -0.003469 0.834291
0.175873 -0.004816 0.834212
0.285912 -0.008245 0.834009
0.407888 -0.014360 0.833648
0.533953 -0.023561 0.833104
0.661775 -0.036184 0.832358
0.790486 -0.052519 0.831390
0.919699 -0.072826 0.830185
1.049219 -0.073059 0.828727
0.113381 0.123309 0.833899
0.183128 0.122756 0.833819
0.290171 0.121336 0.833617
0.410676 0.118764 0.833256
0.535946 0.114790 0.832711
0.663291 0.109117 0.831964
0.791690 0.101340 0.830996
0.920685 0.090845 0.829790
1.050048 0.076565 0.828332
0.139783 0.248858 0.832900
0.200323 0.248596 0.832820
0.300693 0.247928 0.832617
0.417670 0.246731 0.832255
0.540979 0.244917 0.831710
0.667129 0.242404 0.830962
0.794742 0.239107 0.829992
0.923190 0.234934 0.828785
1.052153 0.229782 0.827323
0.177299 0.373923 0.831114
0.227503 0.373762 0.831034
0.318447 0.373350 0.830830
0.429795 0.372614 0.830468
0.549810 0.371504 0.829921
0.673904 0.369974 0.829170
0.800148 0.367982 0.828198
0.927635 0.365488 0.826987
1.055893 0.362449 0.825522
0.221485 0.498856 0.828417
0.262586 0.498743 0.828336
0.343128 0.498456 0.828132
0.447278 0.497942 0.827768
0.562768 0.497168 0.827219
0.683936 0.496103 0.826465
0.808194 0.494721 0.825488
0.934271 0.492996 0.824272
1.061488 0.490904 0.822800
0.269498 0.623736 0.824698
0.303327 0.623651 0.824617
0.373852 0.623435 0.824412
0.469959 0.623049 0.824045
0.579948 0.622467 0.823493
0.697395 0.621668 0.822735
0.819064 0.620632 0.821752
0.943273 0.619341 0.820528
1.069100 0.617777 0.819048
0.319764 0.748590 0.819853
0.347961 0.748523 0.819771
0.409535 0.748352 0.819564
0.497415 0.748048 0.819195
0.601258 0.747589 0.818638
0.714327 0.746959 0.817874
0.832855 0.746142 0.816884
0.954757 0.745125 0.815651
1.078845 0.743896 0.814159
0.371419 0.873430 0.813776
0.395264 0.873375 0.813694
0.449143 0.873235 0.813485
0.529087 0.872987 0.813112
0.626468 0.872612 0.812550
0.734674 0.872097 0.811778
0.849592 0.871431 0.810778
0.968784 0.870602 0.809533
1.090799 0.869599 0.808026
0.423971 0.998261 0.806361
0.444420 0.998215 0.806277
0.491803 0.998098 0.806066
0.564378 0.997889 0.805688
0.655262 0.997575 0.805119
0.758301 0.997144 0.804338
0.869237 0.996586 0.803326
0.985367 0.995892 0.802066
1.105001 0.995053 0.800540
