滤镜资源/Professional Luts Collection/Lutify.me Professional/Utility LUTs/White Balance/4300 Kelvin - 6500 Kelvin - 0.60 CTO.cube
# Created by: Lutify.me
# Copyright: (c) Copyright Lutify.me 2015
# Website: https://lutify.me
LUT_3D_SIZE 5
0.000000 0.000000 0.000000
0.262817 -0.004715 -0.006442
0.523322 -0.019835 -0.027104
0.783828 -0.048423 -0.066166
1.044334 -0.073059 -0.073059
0.078748 0.249506 -0.031774
0.278837 0.248591 -0.038216
0.530436 0.245628 -0.058877
0.788076 0.239912 -0.073059
1.047248 0.230747 -0.073059
0.188378 0.499102 -0.073059
0.324125 0.498706 -0.073059
0.552474 0.497436 -0.073059
0.801502 0.495022 -0.073059
1.056521 0.491257 -0.073059
0.298008 0.748697 -0.073059
0.393583 0.748462 -0.073059
0.591332 0.747708 -0.073059
0.826111 0.746280 -0.073059
1.073764 0.744063 -0.073059
0.407637 0.998292 -0.073059
0.478231 0.998131 -0.073059
0.645726 0.997615 -0.073059
0.862408 0.996639 -0.073059
1.099749 0.995125 -0.073059
0.006634 -0.000174 0.202702
0.264024 -0.004889 0.201118
0.523846 -0.020010 0.195944
0.784139 -0.048597 0.185731
1.044547 -0.073059 0.168606
0.082732 0.249472 0.194754
0.279965 0.248557 0.193098
0.530951 0.245594 0.187682
0.788385 0.239877 0.176952
1.047460 0.230710 0.158821
0.190128 0.499087 0.166488
0.325069 0.498692 0.164526
0.552963 0.497421 0.158063
0.801805 0.495007 0.145031
1.056731 0.491242 0.122123
0.299051 0.748688 0.091089
0.394329 0.748453 0.087538
0.591780 0.747700 0.075213
0.826402 0.746272 0.045863
1.073969 0.744055 -0.014287
0.408352 0.998286 -0.073059
0.478818 0.998125 -0.073059
0.646126 0.997609 -0.073059
0.862682 0.996633 -0.073059
1.099947 0.995119 -0.073059
0.027909 -0.000733 0.413933
0.267854 -0.005448 0.413251
0.525520 -0.020569 0.411051
0.785136 -0.049156 0.406854
1.045230 -0.073059 0.400249
0.094535 0.249364 0.410552
0.283545 0.248448 0.409863
0.532597 0.245483 0.407641
0.789375 0.239764 0.403399
1.048140 0.230591 0.396723
0.195627 0.499040 0.399470
0.328075 0.498645 0.398757
0.554526 0.497374 0.396458
0.802772 0.494960 0.392067
1.057403 0.491194 0.385148
0.302367 0.748660 0.377415
0.396712 0.748425 0.376650
0.593214 0.747672 0.374183
0.827332 0.746244 0.369465
1.074628 0.744027 0.362015
0.410635 0.998267 0.339784
0.480692 0.998106 0.338914
0.647407 0.997590 0.336108
0.863562 0.996614 0.330725
1.100585 0.995100 0.322178
0.063610 -0.001790 0.625165
0.274927 -0.006505 0.624759
0.528666 -0.021625 0.623457
0.787015 -0.050213 0.620984
1.046519 -0.073059 0.617133
0.113853 0.249159 0.623162
0.290174 0.248242 0.622755
0.535690 0.245275 0.621447
0.791241 0.239549 0.618964
1.049425 0.230367 0.615096
0.205585 0.498951 0.616682
0.333670 0.498556 0.616269
0.557466 0.497285 0.614944
0.804598 0.494870 0.612427
1.058673 0.491104 0.608506
0.308522 0.748608 0.604186
0.401168 0.748373 0.603763
0.595912 0.747619 0.602401
0.829087 0.746191 0.599817
1.075870 0.743973 0.595789
0.414908 0.998231 0.584163
0.484210 0.998070 0.583721
0.649820 0.997554 0.582300
0.865221 0.996578 0.579600
1.101789 0.995064 0.575390
0.100446 -0.003425 0.836396
0.285473 -0.008140 0.836118
0.533490 -0.023261 0.835227
0.789913 -0.051848 0.833539
1.048510 -0.073059 0.830918
0.138772 0.248841 0.835026
0.300096 0.247923 0.834747
0.540435 0.244951 0.833854
0.794118 0.239217 0.832163
1.051409 0.230020 0.829536
0.220025 0.498814 0.830611
0.342114 0.498419 0.830331
0.561978 0.497147 0.829432
0.807414 0.494732 0.827728
1.060634 0.490964 0.825083
0.317771 0.748526 0.822180
0.407949 0.748291 0.821897
0.600058 0.747537 0.820985
0.831794 0.746109 0.819259
1.077790 0.743891 0.816577
0.421417 0.998175 0.808902
0.489593 0.998014 0.808612
0.653532 0.997498 0.807681
0.867781 0.996522 0.805917
1.103649 0.995008 0.803177
