滤镜资源/Professional Luts Collection/Lutify.me Professional/Utility LUTs/White Balance/4300 Kelvin - 3200 Kelvin - 0.61 CTB.cube
# Created by: Lutify.me
# Copyright: (c) Copyright Lutify.me 2015
# Website: https://lutify.me
LUT_3D_SIZE 5
0.000000 0.000000 0.000000
0.237135 0.005898 0.010020
0.476589 0.024815 0.042106
0.716044 0.057943 0.085847
0.955498 0.093019 0.129588
-0.073059 0.254597 0.049778
0.212268 0.255711 0.057971
0.466329 0.259246 0.079877
0.709997 0.265782 0.111383
0.951368 0.275546 0.148039
-0.073059 0.508365 0.135662
0.091610 0.508848 0.139352
0.431340 0.510392 0.150571
0.690136 0.513296 0.169714
0.937960 0.517749 0.195495
-0.073059 0.762133 0.221546
-0.073059 0.762420 0.223756
0.353241 0.763339 0.230682
0.650412 0.765073 0.243170
0.911892 0.767747 0.261170
-0.073059 1.015901 0.307430
-0.073059 1.016098 0.308947
0.150164 1.016728 0.313754
0.581886 1.017917 0.322609
0.869484 1.019754 0.335769
-0.010141 0.000242 0.312919
0.235041 0.006140 0.314405
0.475687 0.025057 0.319114
0.715508 0.058131 0.327797
0.955132 0.093147 0.340718
-0.073059 0.254643 0.320337
0.209894 0.255757 0.321782
0.465402 0.259291 0.326365
0.709455 0.265826 0.334824
0.951000 0.275588 0.347432
-0.073059 0.508385 0.342847
0.085992 0.508868 0.344179
0.430318 0.510412 0.348410
0.689574 0.513315 0.356244
0.937584 0.517769 0.367973
-0.073059 0.762145 0.381121
-0.073059 0.762432 0.382293
0.351934 0.763351 0.386022
0.649806 0.765085 0.392955
0.911502 0.767759 0.403398
-0.073059 1.015909 0.432469
-0.073059 1.016106 0.433472
0.146707 1.016736 0.436671
0.581186 1.017925 0.442640
0.869069 1.019762 0.451685
-0.042666 0.001017 0.614493
0.228181 0.006916 0.615137
0.472780 0.025832 0.617196
0.713787 0.058730 0.621066
0.953955 0.093558 0.626995
-0.073059 0.254790 0.617735
0.202073 0.255903 0.618375
0.462414 0.259435 0.620421
0.707715 0.265965 0.624265
0.949816 0.275722 0.630155
-0.073059 0.508448 0.627991
0.065410 0.508931 0.628617
0.427021 0.510475 0.630620
0.687769 0.513378 0.634385
0.936378 0.517831 0.640156
-0.073059 0.762183 0.646812
-0.073059 0.762470 0.647415
0.347704 0.763389 0.649343
0.647856 0.765123 0.652970
0.910250 0.767796 0.658532
-0.073059 1.015935 0.674624
-0.073059 1.016132 0.675195
0.135018 1.016762 0.677022
0.578934 1.017951 0.680458
0.867736 1.019788 0.685734
-0.073059 0.002483 0.916066
0.214534 0.008382 0.916449
0.467222 0.027298 0.917675
0.710519 0.059850 0.919987
0.951724 0.094332 0.923551
-0.073059 0.255067 0.917996
0.186298 0.256178 0.918378
0.456697 0.259706 0.919601
0.704410 0.266229 0.921907
0.947572 0.275974 0.925461
-0.073059 0.508568 0.924152
0.009148 0.509051 0.924531
0.420699 0.510594 0.925743
0.684338 0.513497 0.928028
0.934091 0.517948 0.931552
-0.073059 0.762254 0.935644
-0.073059 0.762541 0.936017
0.339531 0.763460 0.937209
0.644148 0.765193 0.939458
0.907876 0.767867 0.942925
-0.073059 1.015984 0.953073
-0.073059 1.016181 0.953437
0.109628 1.016810 0.954600
0.574645 1.018000 0.956795
0.865207 1.019837 0.960180
-0.073059 0.004753 1.217639
0.191266 0.010651 1.217901
0.458452 0.029568 1.218742
0.705422 0.061554 1.220328
0.948258 0.095517 1.222778
-0.073059 0.255495 1.218962
0.158556 0.256605 1.219224
0.447668 0.260126 1.220063
0.699255 0.266637 1.221647
0.944086 0.276365 1.224093
-0.073059 0.508754 1.223192
-0.073059 0.509236 1.223453
0.410675 0.510779 1.224288
0.678984 0.513680 1.225864
0.930538 0.518129 1.228300
-0.073059 0.762364 1.231136
-0.073059 0.762651 1.231394
0.326393 0.763570 1.232222
0.638353 0.765303 1.233785
0.904186 0.767976 1.236200
-0.073059 1.016060 1.243298
-0.073059 1.016256 1.243553
0.053049 1.016886 1.244370
0.567925 1.018075 1.245913
0.861274 1.019912 1.248296
