滤镜资源/Professional Luts Collection/Lutify.me Professional/Utility LUTs/White Balance/4300 Kelvin - 6500 Kelvin - 0.60 CTO.cube
# Created by: Lutify.me
# Copyright: (c) Copyright Lutify.me 2015
# Website: https://lutify.me
LUT_3D_SIZE 33
0.000000 0.000000 0.000000
0.034495 -0.000224 -0.000306
0.067438 -0.000478 -0.000653
0.100001 -0.000841 -0.001150
0.132564 -0.001330 -0.001817
0.165127 -0.001953 -0.002668
0.197690 -0.002719 -0.003716
0.230254 -0.003637 -0.004970
0.262817 -0.004715 -0.006442
0.295380 -0.005958 -0.008142
0.327943 -0.007375 -0.010077
0.360506 -0.008971 -0.012258
0.393070 -0.010751 -0.014691
0.425633 -0.012723 -0.017385
0.458196 -0.014891 -0.020347
0.490759 -0.017260 -0.023584
0.523322 -0.019835 -0.027104
0.555886 -0.022622 -0.030912
0.588449 -0.025625 -0.035015
0.621012 -0.028849 -0.039419
0.653575 -0.032297 -0.044131
0.686138 -0.035974 -0.049156
0.718702 -0.039885 -0.054500
0.751265 -0.044033 -0.060168
0.783828 -0.048423 -0.066166
0.816391 -0.053057 -0.072499
0.848954 -0.057941 -0.073059
0.881518 -0.063077 -0.073059
0.914081 -0.068470 -0.073059
0.946644 -0.073059 -0.073059
0.979207 -0.073059 -0.073059
1.011770 -0.073059 -0.073059
1.044334 -0.073059 -0.073059
0.004321 0.031129 -0.001511
0.038816 0.030905 -0.001817
0.070386 0.030651 -0.002163
0.102135 0.030287 -0.002660
0.134204 0.029799 -0.003328
0.166441 0.029176 -0.004179
0.198774 0.028409 -0.005226
0.231169 0.027491 -0.006481
0.263604 0.026414 -0.007953
0.296067 0.025170 -0.009652
0.328550 0.023754 -0.011588
0.361048 0.022158 -0.013768
0.393557 0.020377 -0.016201
0.426075 0.018406 -0.018895
0.458599 0.016238 -0.021857
0.491129 0.013869 -0.025095
0.523663 0.011293 -0.028614
0.556201 0.008506 -0.032422
0.588743 0.005503 -0.036525
0.621286 0.002280 -0.040930
0.653832 -0.001168 -0.045642
0.686379 -0.004846 -0.050667
0.718929 -0.008756 -0.056010
0.751479 -0.012905 -0.061679
0.784031 -0.017294 -0.067676
0.816583 -0.021929 -0.073059
0.849137 -0.026812 -0.073059
0.881691 -0.031949 -0.073059
0.914246 -0.037341 -0.073059
0.946802 -0.042993 -0.073059
0.979358 -0.048909 -0.073059
1.011915 -0.055091 -0.073059
1.044472 -0.061543 -0.073059
0.009211 0.062310 -0.003220
0.043579 0.062144 -0.003526
0.073609 0.061957 -0.003873
0.104503 0.061688 -0.004370
0.136036 0.061324 -0.005037
0.167914 0.060859 -0.005888
0.199993 0.060282 -0.006935
0.232200 0.059586 -0.008190
0.264492 0.058762 -0.009662
0.296842 0.057800 -0.011362
0.329235 0.056690 -0.013297
0.361659 0.055421 -0.015477
0.394107 0.053980 -0.017911
0.426574 0.052353 -0.020605
0.459055 0.050523 -0.023567
0.491547 0.048471 -0.026804
0.524049 0.046173 -0.030323
0.556559 0.043602 -0.034132
0.589075 0.040722 -0.038235
0.621596 0.037504 -0.042639
0.654122 0.034056 -0.047351
0.686652 0.030378 -0.052376
0.719185 0.026468 -0.057720
0.751721 0.022319 -0.063388
0.784260 0.017930 -0.069386
0.816801 0.013295 -0.073059
0.849343 0.008412 -0.073059
0.881888 0.003275 -0.073059
0.914434 -0.002117 -0.073059
0.946981 -0.007769 -0.073059
0.979529 -0.013685 -0.073059
1.012079 -0.019867 -0.073059
1.044629 -0.026319 -0.073059
0.016223 0.093509 -0.005671
0.049884 0.093390 -0.005977
0.078043 0.093256 -0.006324
0.107814 0.093063 -0.006821
0.138622 0.092803 -0.007488
0.170003 0.092470 -0.008339
0.201727 0.092059 -0.009386
0.233670 0.091565 -0.010641
0.265759 0.090983 -0.012113
0.297950 0.090306 -0.013812
0.330215 0.089530 -0.015748
0.362534 0.088648 -0.017928
0.394895 0.087656 -0.020362
0.427288 0.086545 -0.023056
0.459707 0.085310 -0.026018
0.492146 0.083942 -0.029255
0.524601 0.082434 -0.032774
0.557070 0.080775 -0.036582
0.589550 0.078955 -0.040686
0.622040 0.076962 -0.045090
0.654538 0.074783 -0.049802
0.687043 0.072401 -0.054827
0.719553 0.069797 -0.060171
0.752069 0.066949 -0.065839
0.784588 0.063831 -0.071837
0.817112 0.060409 -0.073059
0.849639 0.056643 -0.073059
0.882169 0.052480 -0.073059
0.914702 0.047851 -0.073059
0.947237 0.042663 -0.073059
0.979775 0.036822 -0.073059
1.012314 0.030640 -0.073059
1.044855 0.024188 -0.073059
0.025638 0.124709 -0.008962
0.057596 0.124618 -0.009268
0.083690 0.124515 -0.009615
0.112117 0.124367 -0.010112
0.142019 0.124168 -0.010779
0.172766 0.123914 -0.011630
0.204029 0.123601 -0.012678
0.235626 0.123225 -0.013932
0.267449 0.122783 -0.015404
0.299429 0.122270 -0.017104
0.331524 0.121683 -0.019039
0.363704 0.121019 -0.021220
0.395950 0.120273 -0.023653
0.428245 0.119443 -0.026347
0.460581 0.118523 -0.029309
0.492948 0.117510 -0.032546
0.525341 0.116399 -0.036066
0.557756 0.115186 -0.039874
0.590189 0.113865 -0.043977
0.622636 0.112430 -0.048381
0.655096 0.110876 -0.053093
0.687567 0.109196 -0.058118
0.720047 0.107383 -0.063462
0.752534 0.105428 -0.069130
0.785029 0.103323 -0.073059
0.817530 0.101056 -0.073059
0.850037 0.098617 -0.073059
0.882547 0.095992 -0.073059
0.915063 0.093165 -0.073059
0.947581 0.090119 -0.073059
0.980104 0.086832 -0.073059
1.012629 0.083278 -0.073059
1.045157 0.079428 -0.073059
0.037648 0.155908 -0.013160
0.066471 0.155835 -0.013466
0.090456 0.155753 -0.013813
0.117391 0.155635 -0.014310
0.146237 0.155476 -0.014977
0.176223 0.155274 -0.015828
0.206925 0.155024 -0.016876
0.238096 0.154725 -0.018130
0.269587 0.154372 -0.019602
0.301304 0.153965 -0.021302
0.333186 0.153499 -0.023237
0.365191 0.152973 -0.025418
0.397290 0.152383 -0.027851
0.429462 0.151727 -0.030545
0.461692 0.151003 -0.033507
0.493969 0.150208 -0.036744
0.526284 0.149338 -0.040264
0.558630 0.148391 -0.044072
0.591001 0.147363 -0.048175
0.623395 0.146252 -0.052579
0.655807 0.145054 -0.057291
0.688234 0.143765 -0.062316
0.720675 0.142382 -0.067660
0.753128 0.140899 -0.073059
0.785591 0.139313 -0.073059
0.818063 0.137618 -0.073059
0.850543 0.135809 -0.073059
0.883029 0.133881 -0.073059
0.915522 0.131826 -0.073059
0.948020 0.129638 -0.073059
0.980523 0.127308 -0.073059
1.013031 0.124828 -0.073059
1.045542 0.122187 -0.073059
0.051341 0.187107 -0.018326
0.076278 0.187048 -0.018632
0.098219 0.186980 -0.018978
0.123585 0.186882 -0.019475
0.151262 0.186752 -0.020143
0.180381 0.186585 -0.020994
0.210428 0.186380 -0.022041
0.241095 0.186133 -0.023296
0.272191 0.185843 -0.024768
0.303592 0.185508 -0.026467
0.335217 0.185126 -0.028403
0.367010 0.184694 -0.030583
0.398931 0.184211 -0.033016
0.430954 0.183675 -0.035710
0.463056 0.183083 -0.038672
0.495222 0.182434 -0.041910
0.527440 0.181725 -0.045429
0.559702 0.180955 -0.049237
0.591999 0.180122 -0.053340
0.624327 0.179222 -0.057745
0.656680 0.178254 -0.062457
0.689055 0.177216 -0.067482
0.721448 0.176105 -0.072825
0.753858 0.174918 -0.073059
0.786282 0.173653 -0.073059
0.818718 0.172306 -0.073059
0.851165 0.170875 -0.073059
0.883622 0.169356 -0.073059
0.916087 0.167745 -0.073059
0.948560 0.166039 -0.073059
0.981039 0.164234 -0.073059
1.013525 0.162325 -0.073059
1.046016 0.160307 -0.073059
0.065045 0.218307 -0.024513
0.086819 0.218256 -0.024819
0.106848 0.218199 -0.025166
0.130630 0.218117 -0.025663
0.157065 0.218007 -0.026330
0.185229 0.217866 -0.027181
0.214541 0.217693 -0.028229
0.244633 0.217485 -0.029483
0.275272 0.217241 -0.030955
0.306305 0.216959 -0.032655
0.337630 0.216637 -0.034590
0.369174 0.216274 -0.036771
0.400887 0.215868 -0.039204
0.432732 0.215417 -0.041898
0.464682 0.214921 -0.044860
0.496717 0.214376 -0.048097
0.528821 0.213783 -0.051617
0.560983 0.213139 -0.055425
0.593192 0.212442 -0.059528
0.625441 0.211692 -0.063932
0.657724 0.210885 -0.068644
0.690036 0.210022 -0.073059
0.722373 0.209099 -0.073059
0.754731 0.208115 -0.073059
0.787108 0.207069 -0.073059
0.819502 0.205958 -0.073059
0.851910 0.204779 -0.073059
0.884331 0.203532 -0.073059
0.916763 0.202213 -0.073059
0.949205 0.200821 -0.073059
0.981657 0.199352 -0.073059
1.014116 0.197804 -0.073059
1.046583 0.196175 -0.073059
0.078748 0.249506 -0.031774
0.097934 0.249463 -0.032080
0.116217 0.249414 -0.032427
0.138446 0.249343 -0.032923
0.163602 0.249248 -0.033591
0.190750 0.249128 -0.034442
0.219257 0.248979 -0.035489
0.248711 0.248800 -0.036744
0.278837 0.248591 -0.038216
0.309454 0.248349 -0.039915
0.340436 0.248072 -0.041851
0.371694 0.247761 -0.044031
0.403166 0.247413 -0.046465
0.434807 0.247027 -0.049159
0.466582 0.246601 -0.052121
0.498465 0.246136 -0.055358
0.530436 0.245628 -0.058877
0.562481 0.245078 -0.062685
0.594587 0.244483 -0.066789
0.626745 0.243843 -0.071193
0.658946 0.243155 -0.073059
0.691185 0.242420 -0.073059
0.723455 0.241636 -0.073059
0.755754 0.240800 -0.073059
0.788076 0.239912 -0.073059
0.820420 0.238971 -0.073059
0.852783 0.237975 -0.073059
0.885162 0.236921 -0.073059
0.917555 0.235810 -0.073059
0.949962 0.234638 -0.073059
0.982380 0.233405 -0.073059
1.014809 0.232109 -0.073059
1.047248 0.230747 -0.073059
0.092452 0.280706 -0.040155
0.109500 0.280668 -0.040461
0.126208 0.280625 -0.040808
0.146951 0.280563 -0.041305
0.170824 0.280481 -0.041972
0.196913 0.280375 -0.042823
0.224564 0.280246 -0.043870
0.253324 0.280090 -0.045125
0.282888 0.279907 -0.046597
0.313042 0.279696 -0.048296
0.343640 0.279456 -0.050232
0.374577 0.279184 -0.052412
0.405778 0.278881 -0.054846
0.437187 0.278545 -0.057540
0.468762 0.278175 -0.060502
0.500472 0.277770 -0.063739
0.532293 0.277329 -0.067258
0.564205 0.276851 -0.071066
0.596193 0.276334 -0.073059
0.628246 0.275779 -0.073059
0.660353 0.275183 -0.073059
0.692508 0.274546 -0.073059
0.724702 0.273866 -0.073059
0.756932 0.273143 -0.073059
0.789192 0.272376 -0.073059
0.821478 0.271563 -0.073059
0.853789 0.270704 -0.073059
0.886120 0.269796 -0.073059
0.918469 0.268839 -0.073059
0.950835 0.267832 -0.073059
0.983215 0.266774 -0.073059
1.015609 0.265662 -0.073059
1.048015 0.264496 -0.073059
0.106156 0.311905 -0.049701
0.121422 0.311872 -0.050007
0.136722 0.311834 -0.050354
0.156065 0.311779 -0.050851
0.178674 0.311706 -0.051518
0.203686 0.311613 -0.052369
0.230442 0.311499 -0.053417
0.258465 0.311362 -0.054671
0.287420 0.311200 -0.056143
0.317070 0.311014 -0.057843
0.347247 0.310802 -0.059778
0.377829 0.310563 -0.061959
0.408728 0.310295 -0.064392
0.439879 0.309999 -0.067086
0.471231 0.309673 -0.070048
0.502747 0.309316 -0.073059
0.534397 0.308927 -0.073059
0.566160 0.308506 -0.073059
0.598015 0.308052 -0.073059
0.629950 0.307563 -0.073059
0.661952 0.307039 -0.073059
0.694011 0.306479 -0.073059
0.726119 0.305883 -0.073059
0.758271 0.305248 -0.073059
0.790460 0.304575 -0.073059
0.822682 0.303862 -0.073059
0.854933 0.303109 -0.073059
0.887209 0.302315 -0.073059
0.919508 0.301478 -0.073059
0.951827 0.300598 -0.073059
0.984165 0.299674 -0.073059
1.016519 0.298705 -0.073059
1.048887 0.297689 -0.073059
0.119859 0.343104 -0.060455
0.133625 0.343075 -0.060761
0.147674 0.343041 -0.061107
0.165713 0.342992 -0.061604
0.187097 0.342927 -0.062272
0.211030 0.342844 -0.063123
0.236866 0.342742 -0.064170
0.264117 0.342620 -0.065425
0.292426 0.342476 -0.066897
0.321535 0.342310 -0.068596
0.351256 0.342121 -0.070532
0.381451 0.341908 -0.072712
0.412020 0.341669 -0.073059
0.442886 0.341405 -0.073059
0.473992 0.341115 -0.073059
0.505293 0.340797 -0.073059
0.536756 0.340451 -0.073059
0.568352 0.340076 -0.073059
0.600060 0.339672 -0.073059
0.631862 0.339237 -0.073059
0.663746 0.338771 -0.073059
0.695699 0.338274 -0.073059
0.727711 0.337743 -0.073059
0.759776 0.337180 -0.073059
0.791885 0.336582 -0.073059
0.824035 0.335950 -0.073059
0.856219 0.335282 -0.073059
0.888434 0.334578 -0.073059
0.920677 0.333837 -0.073059
0.952944 0.333058 -0.073059
0.985233 0.332241 -0.073059
1.017542 0.331384 -0.073059
1.049869 0.330487 -0.073059
0.133563 0.374304 -0.072456
0.146054 0.374277 -0.072762
0.158991 0.374247 -0.073059
0.175826 0.374203 -0.073059
0.196036 0.374145 -0.073059
0.218904 0.374070 -0.073059
0.243809 0.373978 -0.073059
0.270264 0.373868 -0.073059
0.297897 0.373739 -0.073059
0.326432 0.373589 -0.073059
0.355665 0.373419 -0.073059
0.385445 0.373227 -0.073059
0.415656 0.373013 -0.073059
0.446213 0.372776 -0.073059
0.477050 0.372515 -0.073059
0.508116 0.372229 -0.073059
0.539372 0.371918 -0.073059
0.570785 0.371582 -0.073059
0.602330 0.371218 -0.073059
0.633988 0.370828 -0.073059
0.665741 0.370410 -0.073059
0.697576 0.369963 -0.073059
0.729483 0.369488 -0.073059
0.761450 0.368983 -0.073059
0.793472 0.368447 -0.073059
0.825541 0.367880 -0.073059
0.857651 0.367282 -0.073059
0.889799 0.366652 -0.073059
0.921979 0.365989 -0.073059
0.954188 0.365292 -0.073059
0.986424 0.364561 -0.073059
1.018683 0.363795 -0.073059
1.050963 0.362994 -0.073059
0.147267 0.405503 -0.073059
0.158666 0.405479 -0.073059
0.170615 0.405451 -0.073059
0.186343 0.405412 -0.073059
0.205440 0.405359 -0.073059
0.227267 0.405291 -0.073059
0.251242 0.405208 -0.073059
0.276885 0.405108 -0.073059
0.303819 0.404991 -0.073059
0.331754 0.404856 -0.073059
0.360472 0.404701 -0.073059
0.389807 0.404528 -0.073059
0.419636 0.404334 -0.073059
0.449860 0.404119 -0.073059
0.480407 0.403882 -0.073059
0.511219 0.403624 -0.073059
0.542250 0.403342 -0.073059
0.573464 0.403037 -0.073059
0.604832 0.402709 -0.073059
0.636331 0.402355 -0.073059
0.667941 0.401977 -0.073059
0.699648 0.401573 -0.073059
0.731437 0.401143 -0.073059
0.763299 0.400686 -0.073059
0.795224 0.400202 -0.073059
0.827204 0.399690 -0.073059
0.859234 0.399150 -0.073059
0.891306 0.398581 -0.073059
0.923417 0.397982 -0.073059
0.955563 0.397353 -0.073059
0.987739 0.396694 -0.073059
1.019943 0.396004 -0.073059
1.052173 0.395281 -0.073059
0.160971 0.436703 -0.073059
0.171427 0.436680 -0.073059
0.182497 0.436655 -0.073059
0.197212 0.436619 -0.073059
0.215259 0.436571 -0.073059
0.236079 0.436509 -0.073059
0.259134 0.436433 -0.073059
0.283958 0.436342 -0.073059
0.310176 0.436235 -0.073059
0.337489 0.436112 -0.073059
0.365668 0.435971 -0.073059
0.394536 0.435813 -0.073059
0.423959 0.435636 -0.073059
0.453829 0.435440 -0.073059
0.484065 0.435224 -0.073059
0.514603 0.434989 -0.073059
0.545392 0.434732 -0.073059
0.576391 0.434454 -0.073059
0.607567 0.434155 -0.073059
0.638894 0.433833 -0.073059
0.670349 0.433488 -0.073059
0.701916 0.433120 -0.073059
0.733579 0.432729 -0.073059
0.765325 0.432313 -0.073059
0.797144 0.431872 -0.073059
0.829028 0.431406 -0.073059
0.860969 0.430915 -0.073059
0.892960 0.430397 -0.073059
0.924996 0.429853 -0.073059
0.957072 0.429281 -0.073059
0.989183 0.428682 -0.073059
1.021327 0.428055 -0.073059
1.053501 0.427399 -0.073059
0.174674 0.467902 -0.073059
0.184310 0.467882 -0.073059
0.194597 0.467859 -0.073059
0.208386 0.467826 -0.073059
0.225448 0.467781 -0.073059
0.245301 0.467725 -0.073059
0.267452 0.467655 -0.073059
0.291459 0.467571 -0.073059
0.316950 0.467473 -0.073059
0.343625 0.467360 -0.073059
0.371246 0.467231 -0.073059
0.399626 0.467086 -0.073059
0.428621 0.466924 -0.073059
0.458117 0.466744 -0.073059
0.488023 0.466546 -0.073059
0.518270 0.466330 -0.073059
0.548800 0.466095 -0.073059
0.579568 0.465840 -0.073059
0.610538 0.465566 -0.073059
0.641680 0.465271 -0.073059
0.672968 0.464955 -0.073059
0.704384 0.464618 -0.073059
0.735909 0.464259 -0.073059
0.767531 0.463878 -0.073059
0.799236 0.463474 -0.073059
0.831016 0.463048 -0.073059
0.862860 0.462598 -0.073059
0.894763 0.462124 -0.073059
0.926717 0.461626 -0.073059
0.958717 0.461103 -0.073059
0.990758 0.460555 -0.073059
1.022837 0.459981 -0.073059
1.054949 0.459382 -0.073059
0.188378 0.499102 -0.073059
0.197295 0.499083 -0.073059
0.206881 0.499061 -0.073059
0.219825 0.499031 -0.073059
0.235968 0.498990 -0.073059
0.254897 0.498938 -0.073059
0.276168 0.498874 -0.073059
0.299364 0.498797 -0.073059
0.324125 0.498706 -0.073059
0.350150 0.498602 -0.073059
0.377196 0.498483 -0.073059
0.405071 0.498349 -0.073059
0.433620 0.498199 -0.073059
0.462722 0.498034 -0.073059
0.492281 0.497852 -0.073059
0.522219 0.497652 -0.073059
0.552474 0.497436 -0.073059
0.582997 0.497201 -0.073059
0.613747 0.496948 -0.073059
0.644691 0.496676 -0.073059
0.675801 0.496385 -0.073059
0.707054 0.496075 -0.073059
0.738433 0.495744 -0.073059
0.769920 0.495394 -0.073059
0.801502 0.495022 -0.073059
0.833169 0.494629 -0.073059
0.864910 0.494215 -0.073059
0.896717 0.493779 -0.073059
0.928583 0.493321 -0.073059
0.960501 0.492840 -0.073059
0.992467 0.492336 -0.073059
1.024475 0.491808 -0.073059
1.056521 0.491257 -0.073059
0.202082 0.530301 -0.073059
0.210366 0.530284 -0.073059
0.219324 0.530264 -0.073059
0.231495 0.530236 -0.073059
0.246781 0.530198 -0.073059
0.264832 0.530149 -0.073059
0.285250 0.530090 -0.073059
0.307648 0.530018 -0.073059
0.331680 0.529935 -0.073059
0.357048 0.529838 -0.073059
0.383508 0.529728 -0.073059
0.410862 0.529604 -0.073059
0.438949 0.529466 -0.073059
0.467642 0.529312 -0.073059
0.496836 0.529143 -0.073059
0.526450 0.528959 -0.073059
0.556416 0.528758 -0.073059
0.586679 0.528541 -0.073059
0.617196 0.528307 -0.073059
0.647929 0.528056 -0.073059
0.678848 0.527786 -0.073059
0.709929 0.527499 -0.073059
0.741150 0.527193 -0.073059
0.772494 0.526869 -0.073059
0.803945 0.526525 -0.073059
0.835491 0.526162 -0.073059
0.867121 0.525779 -0.073059
0.898825 0.525376 -0.073059
0.930596 0.524952 -0.073059
0.962427 0.524507 -0.073059
0.994311 0.524041 -0.073059
1.026243 0.523554 -0.073059
1.058219 0.523044 -0.073059
0.215785 0.561500 -0.073059
0.223509 0.561484 -0.073059
0.231901 0.561466 -0.073059
0.243367 0.561440 -0.073059
0.257856 0.561404 -0.073059
0.275074 0.561359 -0.073059
0.294670 0.561304 -0.073059
0.316287 0.561238 -0.073059
0.339595 0.561160 -0.073059
0.364304 0.561070 -0.073059
0.390170 0.560968 -0.073059
0.416991 0.560852 -0.073059
0.444603 0.560724 -0.073059
0.472871 0.560581 -0.073059
0.501686 0.560424 -0.073059
0.530961 0.560253 -0.073059
0.560623 0.560066 -0.073059
0.590613 0.559864 -0.073059
0.620884 0.559647 -0.073059
0.651394 0.559413 -0.073059
0.682112 0.559163 -0.073059
0.713010 0.558896 -0.073059
0.744064 0.558612 -0.073059
0.775255 0.558310 -0.073059
0.806566 0.557991 -0.073059
0.837984 0.557654 -0.073059
0.869495 0.557298 -0.073059
0.901090 0.556924 -0.073059
0.932760 0.556530 -0.073059
0.964496 0.556117 -0.073059
0.996293 0.555685 -0.073059
1.028144 0.555232 -0.073059
1.060044 0.554760 -0.073059
0.229489 0.592700 -0.073059
0.236712 0.592685 -0.073059
0.244595 0.592668 -0.073059
0.255415 0.592643 -0.073059
0.269163 0.592610 -0.073059
0.285595 0.592568 -0.073059
0.304402 0.592517 -0.073059
0.325258 0.592455 -0.073059
0.347851 0.592382 -0.073059
0.371902 0.592298 -0.073059
0.397169 0.592203 -0.073059
0.423449 0.592095 -0.073059
0.450574 0.591975 -0.073059
0.478405 0.591842 -0.073059
0.506828 0.591696 -0.073059
0.535750 0.591536 -0.073059
0.565095 0.591362 -0.073059
0.594799 0.591173 -0.073059
0.624811 0.590970 -0.073059
0.655088 0.590752 -0.073059
0.685594 0.590519 -0.073059
0.716298 0.590270 -0.073059
0.747175 0.590005 -0.073059
0.778205 0.589724 -0.073059
0.809367 0.589426 -0.073059
0.840648 0.589112 -0.073059
0.872034 0.588780 -0.073059
0.903512 0.588431 -0.073059
0.935074 0.588064 -0.073059
0.966711 0.587680 -0.073059
0.998415 0.587277 -0.073059
1.030179 0.586855 -0.073059
1.061998 0.586415 -0.073059
0.243193 0.623899 -0.073059
0.249968 0.623885 -0.073059
0.257389 0.623869 -0.073059
0.267617 0.623846 -0.073059
0.280677 0.623815 -0.073059
0.296368 0.623776 -0.073059
0.314420 0.623728 -0.073059
0.334538 0.623670 -0.073059
0.356429 0.623602 -0.073059
0.379826 0.623523 -0.073059
0.404492 0.623434 -0.073059
0.430225 0.623333 -0.073059
0.456854 0.623221 -0.073059
0.484237 0.623096 -0.073059
0.512256 0.622959 -0.073059
0.540813 0.622809 -0.073059
0.569829 0.622647 -0.073059
0.599236 0.622470 -0.073059
0.628978 0.622280 -0.073059
0.659010 0.622076 -0.073059
0.689293 0.621858 -0.073059
0.719794 0.621625 -0.073059
0.750485 0.621377 -0.073059
0.781344 0.621114 -0.073059
0.812350 0.620836 -0.073059
0.843487 0.620541 -0.073059
0.874739 0.620231 -0.073059
0.906095 0.619905 -0.073059
0.937542 0.619562 -0.073059
0.969073 0.619202 -0.073059
1.000678 0.618825 -0.073059
1.032350 0.618431 -0.073059
1.064083 0.618019 -0.073059
0.256897 0.655099 -0.073059
0.263269 0.655085 -0.073059
0.270270 0.655070 -0.073059
0.279956 0.655049 -0.073059
0.292376 0.655020 -0.073059
0.307369 0.654983 -0.073059
0.324701 0.654938 -0.073059
0.344105 0.654883 -0.073059
0.365309 0.654819 -0.073059
0.388060 0.654746 -0.073059
0.412126 0.654662 -0.073059
0.437308 0.654567 -0.073059
0.463435 0.654461 -0.073059
0.490361 0.654345 -0.073059
0.517966 0.654216 -0.073059
0.546148 0.654075 -0.073059
0.574823 0.653923 -0.073059
0.603921 0.653757 -0.073059
0.633383 0.653579 -0.073059
0.663160 0.653387 -0.073059
0.693210 0.653182 -0.073059
0.723498 0.652964 -0.073059
0.753994 0.652731 -0.073059
0.784674 0.652484 -0.073059
0.815515 0.652223 -0.073059
0.846500 0.651947 -0.073059
0.877612 0.651655 -0.073059
0.908838 0.651349 -0.073059
0.940165 0.651027 -0.073059
0.971583 0.650690 -0.073059
1.003084 0.650336 -0.073059
1.034659 0.649967 -0.073059
1.066301 0.649580 -0.073059
0.270600 0.686298 -0.073059
0.276608 0.686285 -0.073059
0.283228 0.686271 -0.073059
0.292415 0.686251 -0.073059
0.304241 0.686224 -0.073059
0.318577 0.686189 -0.073059
0.335223 0.686146 -0.073059
0.353938 0.686095 -0.073059
0.374473 0.686035 -0.073059
0.396587 0.685966 -0.073059
0.420057 0.685887 -0.073059
0.444687 0.685798 -0.073059
0.470307 0.685698 -0.073059
0.496769 0.685588 -0.073059
0.523952 0.685467 -0.073059
0.551749 0.685335 -0.073059
0.580074 0.685191 -0.073059
0.608854 0.685035 -0.073059
0.638025 0.684867 -0.073059
0.667536 0.684687 -0.073059
0.697344 0.684494 -0.073059
0.727410 0.684288 -0.073059
0.757702 0.684069 -0.073059
0.788195 0.683837 -0.073059
0.818863 0.683591 -0.073059
0.849689 0.683331 -0.073059
0.880654 0.683057 -0.073059
0.911743 0.682769 -0.073059
0.942943 0.682466 -0.073059
0.974244 0.682149 -0.073059
1.005635 0.681816 -0.073059
1.037107 0.681468 -0.073059
1.068653 0.681105 -0.073059
0.284304 0.717497 -0.073059
0.289982 0.717486 -0.073059
0.296253 0.717472 -0.073059
0.304981 0.717453 -0.073059
0.316254 0.717427 -0.073059
0.329973 0.717395 -0.073059
0.345966 0.717354 -0.073059
0.364019 0.717306 -0.073059
0.383904 0.717249 -0.073059
0.405392 0.717184 -0.073059
0.428272 0.717109 -0.073059
0.452351 0.717025 -0.073059
0.477461 0.716931 -0.073059
0.503455 0.716827 -0.073059
0.530208 0.716713 -0.073059
0.557612 0.716588 -0.073059
0.585579 0.716452 -0.073059
0.614030 0.716305 -0.073059
0.642901 0.716147 -0.073059
0.672138 0.715977 -0.073059
0.701694 0.715795 -0.073059
0.731529 0.715601 -0.073059
0.761610 0.715394 -0.073059
0.791907 0.715175 -0.073059
0.822395 0.714943 -0.073059
0.853054 0.714698 -0.073059
0.883865 0.714439 -0.073059
0.914811 0.714167 -0.073059
0.945878 0.713882 -0.073059
0.977055 0.713582 -0.073059
1.008331 0.713268 -0.073059
1.039695 0.712940 -0.073059
1.071141 0.712598 -0.073059
0.298008 0.748697 -0.073059
0.303385 0.748686 -0.073059
0.309337 0.748673 -0.073059
0.317641 0.748655 -0.073059
0.328399 0.748631 -0.073059
0.341538 0.748600 -0.073059
0.356911 0.748561 -0.073059
0.374329 0.748516 -0.073059
0.393583 0.748462 -0.073059
0.414460 0.748400 -0.073059
0.436757 0.748329 -0.073059
0.460288 0.748250 -0.073059
0.484888 0.748161 -0.073059
0.510410 0.748063 -0.073059
0.536727 0.747955 -0.073059
0.563732 0.747837 -0.073059
0.591332 0.747708 -0.073059
0.619447 0.747569 -0.073059
0.648010 0.747419 -0.073059
0.676964 0.747258 -0.073059
0.706260 0.747086 -0.073059
0.735856 0.746903 -0.073059
0.765716 0.746707 -0.073059
0.795810 0.746500 -0.073059
0.826111 0.746280 -0.073059
0.856597 0.746049 -0.073059
0.887246 0.745804 -0.073059
0.918043 0.745547 -0.073059
0.948971 0.745277 -0.073059
0.980019 0.744994 -0.073059
1.011173 0.744697 -0.073059
1.042425 0.744387 -0.073059
1.073764 0.744063 -0.073059
0.311711 0.779896 -0.073059
0.316814 0.779886 -0.073059
0.322473 0.779874 -0.073059
0.330385 0.779856 -0.073059
0.340664 0.779833 -0.073059
0.353258 0.779804 -0.073059
0.368043 0.779768 -0.073059
0.384852 0.779724 -0.073059
0.403495 0.779674 -0.073059
0.423775 0.779615 -0.073059
0.445499 0.779548 -0.073059
0.468487 0.779473 -0.073059
0.492577 0.779388 -0.073059
0.517625 0.779295 -0.073059
0.543504 0.779193 -0.073059
0.570103 0.779081 -0.073059
0.597330 0.778959 -0.073059
0.625101 0.778827 -0.073059
0.653348 0.778685 -0.073059
0.682011 0.778533 -0.073059
0.711039 0.778369 -0.073059
0.740389 0.778195 -0.073059
0.770021 0.778010 -0.073059
0.799905 0.777814 -0.073059
0.830011 0.777606 -0.073059
0.860316 0.777386 -0.073059
