滤镜资源/Professional Luts Collection/Lutify.me Professional/Utility LUTs/White Balance/4300 Kelvin - 2800 Kelvin - 0.95 CTB.cube
# Created by: Lutify.me
# Copyright: (c) Copyright Lutify.me 2015
# Website: https://lutify.me
LUT_3D_SIZE 9
0.000000 0.000000 0.000000
0.113376 0.002678 0.005007
0.230303 0.009495 0.017753
0.347231 0.021652 0.040482
0.464159 0.039946 0.068239
0.581086 0.061339 0.095995
0.698014 0.082725 0.123752
0.814942 0.104110 0.151508
0.931869 0.125496 0.179265
-0.051797 0.130077 0.025506
0.087682 0.131115 0.030513
0.218996 0.133721 0.043157
0.340351 0.138247 0.062041
0.459372 0.144792 0.084287
0.577493 0.153309 0.108462
0.695181 0.163655 0.133774
0.812629 0.175630 0.159787
0.929932 0.189018 0.186253
-0.073059 0.258603 0.078460
-0.025689 0.259100 0.081491
0.186767 0.260361 0.088810
0.322034 0.262593 0.100704
0.446898 0.265911 0.116516
0.568217 0.270386 0.135355
0.687901 0.276052 0.156414
0.806702 0.282911 0.179069
0.924975 0.290941 0.202873
-0.073059 0.387128 0.133157
-0.073059 0.387436 0.135048
0.105708 0.388218 0.139744
0.285852 0.389608 0.147748
0.423504 0.391688 0.159020
0.551175 0.394519 0.173248
0.674665 0.398147 0.189995
0.795989 0.402600 0.208806
0.916048 0.407897 0.229270
-0.073059 0.515654 0.187854
-0.073059 0.515870 0.189181
-0.073059 0.516417 0.192513
0.218143 0.517392 0.198305
0.384937 0.518854 0.206687
0.524188 0.520852 0.217607
0.654088 0.523423 0.230889
0.779501 0.526597 0.246282
0.902394 0.530397 0.263511
-0.073059 0.644180 0.242551
-0.073059 0.644342 0.243551
-0.073059 0.644754 0.246075
0.019041 0.645489 0.250504
0.322702 0.646592 0.257005
0.484021 0.648101 0.265625
0.624421 0.650047 0.276321
0.756114 0.652457 0.288977
0.883207 0.655350 0.303438
-0.073059 0.772706 0.297248
-0.073059 0.772834 0.298038
-0.073059 0.773159 0.300038
-0.073059 0.773739 0.303566
0.210198 0.774611 0.308785
0.424821 0.775806 0.315779
0.583106 0.777347 0.324564
0.724370 0.779259 0.335103
0.857531 0.781558 0.347317
-0.073059 0.901231 0.351944
-0.073059 0.901336 0.352590
-0.073059 0.901602 0.354228
-0.073059 0.902076 0.357125
-0.073059 0.902789 0.361433
0.332718 0.903766 0.367242
0.525844 0.905028 0.374597
0.682191 0.906594 0.383502
0.824130 0.908479 0.393926
-0.073059 1.029757 0.406641
-0.073059 1.029845 0.407183
-0.073059 1.030068 0.408557
-0.073059 1.030465 0.410994
-0.073059 1.031063 0.414627
0.140681 1.031883 0.419548
0.443957 1.032942 0.425813
0.626277 1.034256 0.433444
0.781276 1.035840 0.442441
-0.005035 0.000115 0.186532
0.111118 0.002793 0.187869
0.229232 0.009610 0.191226
0.346569 0.021767 0.197059
0.463696 0.040062 0.205497
0.580738 0.061425 0.216484
0.697739 0.082792 0.229838
0.814717 0.104166 0.245306
0.931681 0.125543 0.262608
-0.056832 0.130122 0.193237
0.084822 0.131159 0.194524
0.217862 0.133765 0.197759
0.339673 0.138290 0.203388
0.458903 0.144832 0.211548
0.577143 0.153347 0.222203
0.694905 0.163690 0.235194
0.812403 0.175663 0.250288
0.929743 0.189048 0.267221
-0.073059 0.258624 0.209254
-0.030724 0.259122 0.210434
0.185414 0.260383 0.213404
0.321310 0.262614 0.218589
0.446413 0.265932 0.226142
0.567859 0.270406 0.236064
0.687621 0.276072 0.248239
0.806475 0.282931 0.262480
0.924785 0.290960 0.278563
-0.073059 0.387142 0.234857
-0.073059 0.387449 0.235894
0.103295 0.388231 0.238510
0.285017 0.389621 0.243097
0.422986 0.391701 0.249819
0.550803 0.394532 0.258716
0.674377 0.398160 0.269729
0.795757 0.402613 0.282731
0.915856 0.407910 0.297548
-0.073059 0.515663 0.268291
-0.073059 0.515879 0.269181
-0.073059 0.516426 0.271433
0.217003 0.517401 0.275395
0.384353 0.518864 0.281235
0.523792 0.520861 0.289023
0.653789 0.523432 0.298748
0.779263 0.526606 0.310339
0.902197 0.530406 0.323680
-0.073059 0.644187 0.307500
-0.073059 0.644349 0.308259
-0.073059 0.644761 0.310181
0.014007 0.645496 0.313574
0.321979 0.646599 0.318599
0.483582 0.648108 0.325342
0.624104 0.650054 0.333828
0.755866 0.652463 0.344028
0.883005 0.655357 0.355875
-0.073059 0.772711 0.350779
-0.073059 0.772839 0.351428
-0.073059 0.773165 0.353072
-0.073059 0.773745 0.355981
0.209010 0.774617 0.360305
0.424305 0.775811 0.366136
0.582760 0.777353 0.373517
0.724109 0.779264 0.382453
0.857321 0.781563 0.392911
-0.073059 0.901236 0.396900
-0.073059 0.901340 0.397458
-0.073059 0.901606 0.398873
-0.073059 0.902081 0.401382
-0.073059 0.902794 0.405122
0.332022 0.903771 0.410185
0.525449 0.905033 0.416623
0.681908 0.906598 0.424460
0.823909 0.908484 0.433688
-0.073059 1.029761 0.445019
-0.073059 1.029848 0.445503
-0.073059 1.030072 0.446733
-0.073059 1.030469 0.448915
-0.073059 1.031067 0.452175
0.138857 1.031886 0.456599
0.443468 1.032945 0.462246
0.625961 1.034260 0.469148
0.781039 1.035844 0.477314
-0.017851 0.000409 0.354263
0.105169 0.003087 0.354904
0.226478 0.009904 0.356528
0.344879 0.022061 0.359403
0.462516 0.040355 0.363678
0.579851 0.061643 0.369444
0.697039 0.082965 0.376747
0.814145 0.104307 0.385592
0.931202 0.125661 0.395949
-0.069648 0.130236 0.357512
0.077146 0.131273 0.358146
0.214944 0.133876 0.359752
0.337941 0.138397 0.362597
0.457708 0.144935 0.366826
0.576249 0.153444 0.372533
0.694201 0.163780 0.379764
0.811830 0.175747 0.388525
0.929263 0.189126 0.398788
-0.073059 0.258679 0.365625
-0.043540 0.259176 0.366241
0.181921 0.260437 0.367805
0.319457 0.262668 0.370574
0.445175 0.265985 0.374695
0.566946 0.270458 0.380258
0.686908 0.276122 0.387313
0.805895 0.282980 0.395870
0.924301 0.291007 0.405907
-0.073059 0.387175 0.379572
-0.073059 0.387483 0.380162
0.096910 0.388265 0.381656
0.282880 0.389655 0.384304
0.421662 0.391734 0.388247
0.549854 0.394565 0.393577
0.673646 0.398192 0.400346
0.795168 0.402645 0.408570
0.915366 0.407941 0.418233
-0.073059 0.515687 0.399452
-0.073059 0.515902 0.400005
-0.073059 0.516450 0.401410
0.214073 0.517425 0.403900
0.382863 0.518887 0.407611
0.522780 0.520885 0.412636
0.653027 0.523456 0.419028
0.778657 0.526629 0.426810
0.901697 0.530429 0.435976
-0.073059 0.644205 0.424888
-0.073059 0.644367 0.425400
-0.073059 0.644779 0.426703
0.001191 0.645513 0.429012
0.320131 0.646616 0.432460
0.482463 0.648126 0.437134
0.623295 0.650072 0.443091
0.755235 0.652481 0.450361
0.882490 0.655374 0.458947
-0.073059 0.772725 0.455236
-0.073059 0.772853 0.455707
-0.073059 0.773179 0.456902
-0.073059 0.773759 0.459025
0.205952 0.774631 0.462195
0.422986 0.775825 0.466501
0.581877 0.777367 0.472001
0.723442 0.779278 0.478727
0.856787 0.781577 0.486693
-0.073059 0.901247 0.489756
-0.073059 0.901352 0.490186
-0.073059 0.901618 0.491277
-0.073059 0.902092 0.493216
-0.073059 0.902805 0.496115
0.330241 0.903782 0.500058
0.524441 0.905044 0.505102
0.681187 0.906610 0.511286
0.823345 0.908495 0.518628
-0.073059 1.029770 0.527728
-0.073059 1.029858 0.528119
-0.073059 1.030081 0.529112
-0.073059 1.030479 0.530878
-0.073059 1.031077 0.533521
0.134102 1.031896 0.537120
0.442220 1.032955 0.541732
0.625155 1.034270 0.547398
0.780434 1.035854 0.554139
-0.040707 0.000932 0.521994
0.093714 0.003611 0.522390
0.221472 0.010427 0.523397
0.341838 0.022585 0.525187
0.460402 0.040870 0.527867
0.578265 0.062031 0.531514
0.695789 0.083272 0.536188
0.813125 0.104558 0.541927
0.930347 0.125871 0.548754
-0.073059 0.130439 0.524009
0.061641 0.131474 0.524403
0.209628 0.134074 0.525405
0.334824 0.138589 0.527187
0.455566 0.145117 0.529853
0.574650 0.153616 0.533484
0.692944 0.163942 0.538136
0.810805 0.175897 0.543849
0.928405 0.189264 0.550645
-0.073059 0.258776 0.529094
-0.066396 0.259273 0.529483
0.175507 0.260533 0.530474
0.316121 0.262764 0.532233
0.442957 0.266079 0.534868
0.565313 0.270551 0.538456
0.685633 0.276212 0.543054
0.804861 0.283067 0.548702
0.923438 0.291092 0.555423
-0.073059 0.387236 0.538012
-0.073059 0.387543 0.538393
0.084481 0.388325 0.539363
0.279020 0.389714 0.541086
0.419289 0.391794 0.543666
0.548156 0.394624 0.547181
0.672339 0.398250 0.551687
0.794115 0.402702 0.557224
0.914491 0.407998 0.563816
-0.073059 0.515729 0.551088
-0.073059 0.515944 0.551458
-0.073059 0.516492 0.552399
0.208733 0.517467 0.554071
0.380188 0.518929 0.556575
0.520969 0.520926 0.559987
0.651666 0.523497 0.564363
0.777575 0.526670 0.569743
0.900805 0.530469 0.576154
-0.073059 0.644236 0.568409
-0.073059 0.644398 0.568764
-0.073059 0.644811 0.569669
-0.021665 0.645545 0.571276
0.316803 0.646648 0.573685
0.480459 0.648157 0.576968
0.621850 0.650103 0.581182
0.754109 0.652512 0.586367
0.881572 0.655405 0.592548
-0.073059 0.772750 0.589869
-0.073059 0.772878 0.590208
-0.073059 0.773204 0.591070
-0.073059 0.773784 0.592604
0.200372 0.774656 0.594903
0.420622 0.775850 0.598038
0.580298 0.777392 0.602064
0.722250 0.779303 0.607022
0.855832 0.781602 0.612938
-0.073059 0.901268 0.615226
-0.073059 0.901372 0.615548
-0.073059 0.901638 0.616365
-0.073059 0.902113 0.617819
-0.073059 0.902826 0.619999
0.327036 0.903802 0.622973
0.522638 0.905064 0.626794
0.679898 0.906630 0.631504
0.822339 0.908515 0.637130
-0.073059 1.029788 0.644154
-0.073059 1.029875 0.644457
-0.073059 1.030098 0.645227
-0.073059 1.030496 0.646598
-0.073059 1.031094 0.648654
0.125181 1.031913 0.651461
0.439984 1.032972 0.655070
0.623715 1.034287 0.659521
0.779355 1.035871 0.664843
-0.073059 0.001720 0.689724
0.073683 0.004398 0.690002
0.213689 0.011215 0.690707
0.337200 0.023372 0.691963
0.457198 0.041636 0.693846
0.575868 0.062611 0.696420
0.693901 0.083732 0.699732
0.811585 0.104935 0.703821
0.929058 0.126188 0.708717
-0.073059 0.130745 0.691136
0.031055 0.131777 0.691412
0.201335 0.134371 0.692116
0.330067 0.138876 0.693368
0.452319 0.145392 0.695247
0.572233 0.153875 0.697814
0.691046 0.164184 0.701117
0.809260 0.176121 0.705196
0.927113 0.189472 0.710079
-0.073059 0.258922 0.694711
-0.073059 0.259419 0.694986
0.165354 0.260679 0.695685
0.311019 0.262907 0.696928
0.439594 0.266221 0.698795
0.562845 0.270690 0.701345
0.683709 0.276348 0.704627
0.803300 0.283199 0.708679
0.922136 0.291220 0.713532
-0.073059 0.387326 0.701029
-0.073059 0.387634 0.701300
0.062149 0.388415 0.701991
0.273091 0.389804 0.703220
0.415686 0.391883 0.705065
0.545589 0.394713 0.707586
0.670365 0.398338 0.710831
0.792527 0.402789 0.714837
0.913172 0.408083 0.719636
-0.073059 0.515793 0.710399
-0.073059 0.516008 0.710666
-0.073059 0.516555 0.711345
0.200398 0.517530 0.712553
0.376119 0.518992 0.714367
0.518230 0.520989 0.716845
0.649611 0.523559 0.720036
0.775943 0.526732 0.723976
0.899460 0.530530 0.728697
-0.073059 0.644284 0.722997
-0.073059 0.644446 0.723258
-0.073059 0.644858 0.723922
-0.056059 0.645592 0.725103
0.311715 0.646695 0.726876
0.477423 0.648204 0.729299
0.619666 0.650150 0.732419
0.752410 0.652559 0.736274
0.880189 0.655452 0.740893
-0.073059 0.772788 0.738888
-0.073059 0.772916 0.739142
-0.073059 0.773241 0.739787
-0.073059 0.773821 0.740935
0.191637 0.774693 0.742659
0.417033 0.775887 0.745016
0.577911 0.777429 0.748051
0.720452 0.779340 0.751802
0.854393 0.781639 0.756298
-0.073059 0.901299 0.758042
-0.073059 0.901403 0.758287
-0.073059 0.901669 0.758911
-0.073059 0.902143 0.760022
-0.073059 0.902856 0.761690
0.322140 0.903833 0.763970
0.519910 0.905095 0.766908
0.677953 0.906661 0.770540
0.820823 0.908546 0.774894
-0.073059 1.029813 0.780356
-0.073059 1.029901 0.780592
-0.073059 1.030124 0.781193
-0.073059 1.030522 0.782262
-0.073059 1.031119 0.783869
0.110454 1.031939 0.786065
0.436592 1.032998 0.788896
0.621541 1.034312 0.792396
0.777728 1.035896 0.796595
-0.073059 0.002801 0.857455
0.035671 0.005479 0.857664
0.202470 0.012296 0.858195
0.330710 0.024453 0.859141
0.452757 0.042673 0.860561
0.572558 0.063401 0.862505
0.691301 0.084359 0.865013
0.809467 0.105449 0.868116
0.927286 0.126620 0.871843
-0.073059 0.131162 0.858518
-0.016126 0.132192 0.858726
0.189308 0.134777 0.859256
0.323405 0.139270 0.860200
0.447817 0.145768 0.861619
0.568896 0.154230 0.863560
0.688432 0.164515 0.866063
0.807134 0.176429 0.869161
0.925336 0.189756 0.872883
-0.073059 0.259123 0.861214
-0.073059 0.259619 0.861422
0.150258 0.260878 0.861950
0.303855 0.263105 0.862890
0.434927 0.266415 0.864303
0.559437 0.270880 0.866236
0.681059 0.276534 0.868729
0.801154 0.283380 0.871815
0.920347 0.291395 0.875522
-0.073059 0.387450 0.865996
-0.073059 0.387758 0.866202
0.018954 0.388539 0.866726
0.264706 0.389927 0.867660
0.410680 0.392005 0.869062
0.542042 0.394834 0.870981
0.667646 0.398458 0.873457
0.790342 0.402907 0.876521
0.911360 0.408199 0.880201
-0.073059 0.515879 0.873127
-0.073059 0.516095 0.873331
-0.073059 0.516642 0.873849
0.188305 0.517616 0.874773
0.370448 0.519078 0.876160
0.514441 0.521075 0.878059
0.646779 0.523644 0.880508
0.773696 0.526817 0.883540
0.897611 0.530614 0.887182
-0.073059 0.644349 0.882786
-0.073059 0.644511 0.882987
-0.073059 0.644924 0.883498
-0.073059 0.645658 0.884408
0.304570 0.646760 0.885776
0.473218 0.648269 0.887648
0.616655 0.650215 0.890062
0.750071 0.652623 0.893051
0.878285 0.655516 0.896643
-0.073059 0.772839 0.895082
-0.073059 0.772967 0.895280
-0.073059 0.773293 0.895781
-0.073059 0.773873 0.896675
0.178899 0.774745 0.898018
0.412047 0.775939 0.899857
0.574616 0.777480 0.902228
0.717977 0.779391 0.905165
0.852414 0.781690 0.908693
-0.073059 0.901341 0.910065
-0.073059 0.901445 0.910258
-0.073059 0.901711 0.910749
-0.073059 0.902185 0.911623
-0.073059 0.902898 0.912937
0.315277 0.903875 0.914736
0.516137 0.905137 0.917057
0.675274 0.906702 0.919931
0.818736 0.908588 0.923385
-0.073059 1.029849 0.927729
-0.073059 1.029936 0.927917
-0.073059 1.030159 0.928396
-0.073059 1.030557 0.929249
-0.073059 1.031155 0.930530
0.086622 1.031974 0.932284
0.431884 1.033033 0.934547
0.618541 1.034347 0.937351
0.775488 1.035931 0.940721
-0.073059 0.004200 1.025186
-0.025385 0.006878 1.025351
0.186848 0.013695 1.025770
0.322078 0.025852 1.026517
0.446927 0.043992 1.027640
0.568238 0.064412 1.029179
0.687918 0.085166 1.031165
0.806716 0.106112 1.033626
0.924987 0.127178 1.036588
-0.073059 0.131701 1.026025
-0.073059 0.132727 1.026190
0.172391 0.135302 1.026608
0.314532 0.139777 1.027355
0.441906 0.146252 1.028477
0.564541 0.154687 1.030013
0.685031 0.164943 1.031997
0.804372 0.176827 1.034456
0.923030 0.190124 1.037415
-0.073059 0.259382 1.028157
-0.073059 0.259878 1.028321
0.128049 0.261135 1.028739
0.294276 0.263359 1.029483
0.428794 0.266666 1.030602
0.554986 0.271126 1.032134
0.677609 0.276775 1.034113
0.798365 0.283614 1.036565
0.918024 0.291621 1.039516
-0.073059 0.387611 1.031944
-0.073059 0.387918 1.032108
-0.042102 0.388699 1.032523
0.253375 0.390087 1.033264
0.404087 0.392164 1.034378
0.537407 0.394991 1.035902
0.664106 0.398613 1.037871
0.787502 0.403060 1.040312
0.909007 0.408350 1.043248
-0.073059 0.515992 1.037609
-0.073059 0.516207 1.037771
-0.073059 0.516754 1.038184
0.171282 0.517728 1.038919
0.362948 0.519189 1.040025
0.509486 0.521186 1.041539
0.643089 0.523755 1.043493
0.770776 0.526926 1.045917
0.895210 0.530723 1.048832
-0.073059 0.644434 1.045314
-0.073059 0.644596 1.045474
-0.073059 0.645008 1.045883
-0.073059 0.645742 1.046611
0.295018 0.646845 1.047706
0.467706 0.648353 1.049205
0.612730 0.650298 1.051141
0.747030 0.652706 1.053541
0.875815 0.655598 1.056428
-0.073059 0.772906 1.055173
-0.073059 0.773034 1.055332
-0.073059 0.773360 1.055735
-0.073059 0.773940 1.056455
0.160814 0.774811 1.057536
0.405482 0.776005 1.059016
0.570317 0.777547 1.060928
0.714756 0.779457 1.063299
0.849843 0.781755 1.066151
-0.073059 0.901395 1.067262
-0.073059 0.901500 1.067418
-0.073059 0.901766 1.067815
-0.073059 0.902240 1.068524
-0.073059 0.902953 1.069589
0.306121 0.903929 1.071047
0.511202 0.905191 1.072931
0.671785 0.906757 1.075266
0.816026 0.908642 1.078077
-0.073059 1.029895 1.081617
-0.073059 1.029982 1.081770
-0.073059 1.030205 1.082161
-0.073059 1.030603 1.082857
-0.073059 1.031200 1.083903
0.043118 1.032020 1.085336
0.425697 1.033079 1.087187
0.614632 1.034393 1.089481
0.772577 1.035977 1.092243
-0.073059 0.005939 1.192917
-0.073059 0.008617 1.193051
0.165203 0.015434 1.193394
0.310945 0.027591 1.194005
0.439545 0.045598 1.194923
0.562809 0.065652 1.196181
0.683682 0.086159 1.197807
0.803278 0.106931 1.199824
0.922117 0.127867 1.202252
-0.073059 0.132368 1.193602
-0.073059 0.133388 1.193737
0.148527 0.135951 1.194079
0.303067 0.140406 1.194690
0.434418 0.146853 1.195607
0.559066 0.155254 1.196864
0.680771 0.165473 1.198489
0.800921 0.177319 1.200504
0.920153 0.190580 1.202931
-0.073059 0.259704 1.195345
-0.073059 0.260199 1.195480
0.093650 0.261454 1.195821
0.281829 0.263676 1.196430
0.421014 0.266978 1.197346
0.549390 0.271432 1.198601
0.673288 0.277073 1.200222
0.794879 0.283904 1.202234
0.915126 0.291902 1.204656
-0.073059 0.387810 1.198445
-0.073059 0.388118 1.198579
-0.073059 0.388898 1.198920
0.238421 0.390285 1.199527
0.395702 0.392360 1.200439
0.531574 0.395186 1.201690
0.659670 0.398806 1.203306
0.783953 0.403250 1.205310
0.906071 0.408537 1.207724
-0.073059 0.516132 1.203090
-0.073059 0.516347 1.203223
-0.073059 0.516894 1.203562
0.147230 0.517867 1.204166
0.353353 0.519328 1.205074
0.503239 0.521324 1.206318
0.638464 0.523892 1.207926
0.767126 0.527062 1.209920
0.892214 0.530858 1.212322
-0.073059 0.644539 1.209423
-0.073059 0.644701 1.209556
-0.073059 0.645113 1.209892
-0.073059 0.645847 1.210492
0.282610 0.646949 1.211393
0.460738 0.648457 1.212629
0.607806 0.650402 1.214225
0.743226 0.652810 1.216205
0.872730 0.655701 1.218591
-0.073059 0.772989 1.217554
-0.073059 0.773117 1.217685
-0.073059 0.773443 1.218018
-0.073059 0.774023 1.218612
0.134847 0.774894 1.219506
0.397133 0.776088 1.220730
0.564913 0.777629 1.222312
0.710727 0.779539 1.224275
0.846634 0.781837 1.226640
-0.073059 0.901463 1.227560
-0.073059 0.901568 1.227690
-0.073059 0.901834 1.228020
-0.073059 0.902308 1.228607
-0.073059 0.903021 1.229491
0.294266 0.903997 1.230703
0.504982 0.905259 1.232267
0.667416 0.906824 1.234209
0.812639 0.908709 1.236548
-0.073059 1.029951 1.239497
-0.073059 1.030039 1.239625
-0.073059 1.030262 1.239950
-0.073059 1.030659 1.240531
-0.073059 1.031257 1.241403
-0.032685 1.032076 1.242599
0.417845 1.033135 1.244144
0.609727 1.034450 1.246061
0.768938 1.036033 1.248370
-0.073059 0.008038 1.360647
-0.073059 0.010716 1.360760
0.134265 0.017533 1.361047
0.296839 0.029690 1.361559
0.430422 0.047490 1.362329
0.556165 0.067126 1.363385
0.678521 0.087345 1.364749
0.799102 0.107911 1.366442
0.918638 0.128695 1.368483
-0.073059 0.133168 1.361222
-0.073059 0.134182 1.361335
0.113103 0.136730 1.361622
0.288502 0.141160 1.362134
0.425158 0.147574 1.362903
0.552364 0.155936 1.363958
0.675582 0.166111 1.365321
0.796728 0.177912 1.367014
0.916663 0.191128 1.369053
-0.073059 0.260092 1.362684
-0.073059 0.260587 1.362796
0.025494 0.261840 1.363083
0.265887 0.264057 1.363594
0.411378 0.267354 1.364362
0.542535 0.271801 1.365416
0.668024 0.277433 1.366777
0.790645 0.284254 1.368467
0.911611 0.292240 1.370503
-0.073059 0.388051 1.365285
-0.073059 0.388358 1.365397
-0.073059 0.389138 1.365683
0.218809 0.390523 1.366193
0.385279 0.392598 1.366960
0.524421 0.395421 1.368010
0.654263 0.399038 1.369368
0.779641 0.403480 1.371054
0.902509 0.408762 1.373085
-0.073059 0.516300 1.369187
-0.073059 0.516515 1.369299
-0.073059 0.517062 1.369584
0.111403 0.518035 1.370092
0.341332 0.519495 1.370855
0.495565 0.521490 1.371902
0.632822 0.524057 1.373255
0.762689 0.527226 1.374934
0.888578 0.531020 1.376957
-0.073059 0.644666 1.374516
-0.073059 0.644828 1.374627
-0.073059 0.645240 1.374910
-0.073059 0.645974 1.375415
0.266723 0.647076 1.376175
0.452147 0.648583 1.377216
0.601791 0.650528 1.378562
0.738601 0.652935 1.380233
0.868987 0.655825 1.382246
-0.073059 0.773090 1.381370
-0.073059 0.773217 1.381481
-0.073059 0.773543 1.381762
-0.073059 0.774123 1.382264
0.094662 0.774994 1.383019
0.386758 0.776188 1.384053
0.558301 0.777728 1.385390
0.705822 0.779638 1.387049
0.842737 0.781936 1.389049
-0.073059 0.901545 1.389828
-0.073059 0.901650 1.389938
-0.073059 0.901916 1.390217
-0.073059 0.902390 1.390715
-0.073059 0.903102 1.391463
0.279157 0.904079 1.392489
0.497342 0.905340 1.393815
0.662091 0.906905 1.395461
0.808526 0.908790 1.397444
-0.073059 1.030020 1.399947
-0.073059 1.030108 1.400056
-0.073059 1.030331 1.400332
-0.073059 1.030728 1.400825
-0.073059 1.031326 1.401566
-0.073059 1.032145 1.402582
0.408117 1.033204 1.403895
0.603737 1.034518 1.405525
0.764514 1.036101 1.407490
