滤镜资源/Professional Luts Collection/Lutify.me Professional/Utility LUTs/White Balance/4300 Kelvin - 3200 Kelvin - 0.61 CTB.cube
# Created by: Lutify.me
# Copyright: (c) Copyright Lutify.me 2015
# Website: https://lutify.me
LUT_3D_SIZE 33
0.000000 0.000000 0.000000
0.028179 0.000280 0.000476
0.057544 0.000598 0.001015
0.087475 0.001053 0.001788
0.117407 0.001664 0.002826
0.147339 0.002443 0.004150
0.177271 0.003402 0.005779
0.207203 0.004551 0.007730
0.237135 0.005898 0.010020
0.267066 0.007454 0.012663
0.296998 0.009226 0.015673
0.326930 0.011223 0.019064
0.356862 0.013450 0.022849
0.386794 0.015917 0.027039
0.416726 0.018629 0.031646
0.446657 0.021593 0.036681
0.476589 0.024815 0.042106
0.506521 0.028301 0.047573
0.536453 0.032058 0.053041
0.566385 0.036091 0.058508
0.596316 0.040405 0.063976
0.626248 0.044790 0.069444
0.656180 0.049174 0.074911
0.686112 0.053559 0.080379
0.716044 0.057943 0.085847
0.745976 0.062328 0.091314
0.775907 0.066712 0.096782
0.805839 0.071096 0.102250
0.835771 0.075481 0.107717
0.865703 0.079865 0.113185
0.895635 0.084250 0.118653
0.925567 0.088634 0.124120
0.955498 0.093019 0.129588
-0.005418 0.032392 0.002405
0.022762 0.032673 0.002882
0.053197 0.032990 0.003421
0.084389 0.033445 0.004194
0.115057 0.034056 0.005232
0.145467 0.034835 0.006555
0.175730 0.035794 0.008184
0.205904 0.036943 0.010136
0.236019 0.038291 0.012425
0.266094 0.039847 0.015068
0.296140 0.041589 0.018079
0.326165 0.043494 0.021470
0.356173 0.045559 0.025254
0.386170 0.047779 0.029444
0.416156 0.050145 0.034051
0.446135 0.052648 0.039086
0.476108 0.055280 0.044377
0.506075 0.058032 0.049681
0.536038 0.060897 0.055004
0.565998 0.063865 0.060343
0.595954 0.066929 0.065696
0.625908 0.070082 0.071060
0.655860 0.073318 0.076435
0.685810 0.076630 0.081818
0.715758 0.080012 0.087209
0.745704 0.083458 0.092607
0.775650 0.086964 0.098010
0.805594 0.090526 0.103419
0.835537 0.094138 0.108833
0.865480 0.097797 0.114250
0.895421 0.101500 0.119672
0.925362 0.105242 0.125096
0.955303 0.109022 0.130524
-0.011548 0.064271 0.005127
0.016631 0.064473 0.005604
0.047964 0.064700 0.006143
0.080776 0.065025 0.006915
0.112341 0.065460 0.007953
0.143318 0.066012 0.009277
0.173969 0.066685 0.010906
0.204423 0.067485 0.012857
0.234749 0.068415 0.015147
0.264988 0.069476 0.017790
0.295165 0.070670 0.020800
0.325296 0.071995 0.024191
0.355392 0.073452 0.027976
0.385462 0.075039 0.032166
0.415511 0.076752 0.036773
0.445543 0.078590 0.041772
0.475562 0.080549 0.046863
0.505570 0.082624 0.051997
0.535569 0.084813 0.057168
0.565559 0.087110 0.062371
0.595544 0.089511 0.067602
0.625523 0.092012 0.072855
0.655497 0.094607 0.078130
0.685467 0.097293 0.083422
0.715434 0.100065 0.088729
0.745397 0.102918 0.094051
0.775358 0.105848 0.099384
0.805317 0.108852 0.104728
0.835273 0.111924 0.110082
0.865227 0.115062 0.115445
0.895180 0.118261 0.120815
0.925131 0.121518 0.126192
0.955081 0.124830 0.131575
-0.020338 0.095992 0.009030
0.007841 0.096137 0.009506
0.039728 0.096301 0.010045
0.075348 0.096535 0.010818
0.108336 0.096849 0.011856
0.140178 0.097249 0.013180
0.171410 0.097738 0.014809
0.202279 0.098321 0.016760
0.232915 0.099002 0.019050
0.263394 0.099782 0.021693
0.293760 0.100664 0.024703
0.324045 0.101649 0.028094
0.354268 0.102739 0.031879
0.384444 0.103932 0.036069
0.414583 0.105231 0.040671
0.444693 0.106633 0.045438
0.474778 0.108139 0.050285
0.504844 0.109747 0.055200
0.534894 0.111454 0.060173
0.564930 0.113261 0.065196
0.594955 0.115164 0.070264
0.624970 0.117161 0.075369
0.654977 0.119249 0.080508
0.684976 0.121427 0.085676
0.714969 0.123692 0.090870
0.744957 0.126039 0.096087
0.774940 0.128468 0.101324
0.804919 0.130975 0.106580
0.834893 0.133557 0.111851
0.864865 0.136211 0.117137
0.894834 0.138935 0.122436
0.924799 0.141725 0.127747
0.954763 0.144579 0.133068
-0.032142 0.127713 0.014271
-0.003963 0.127824 0.014747
0.027924 0.127950 0.015286
0.067519 0.128129 0.016059
0.102732 0.128370 0.017097
0.135848 0.128677 0.018421
0.167909 0.129054 0.020050
0.199360 0.129503 0.022001
0.230426 0.130029 0.024290
0.261235 0.130633 0.026933
0.291861 0.131318 0.029944
0.322356 0.132085 0.033335
0.352752 0.132936 0.037119
0.383073 0.133872 0.041290
0.413334 0.134894 0.045627
0.443548 0.136002 0.050085
0.473723 0.137196 0.054649
0.503868 0.138477 0.059306
0.533987 0.139844 0.064043
0.564084 0.141296 0.068850
0.594163 0.142834 0.073719
0.624227 0.144455 0.078642
0.654277 0.146159 0.083613
0.684316 0.147945 0.088627
0.714345 0.149811 0.093678
0.744365 0.151755 0.098763
0.774378 0.153777 0.103878
0.804384 0.155874 0.109020
0.834384 0.158045 0.114186
0.864378 0.160288 0.119373
0.894368 0.162600 0.124581
0.924354 0.164981 0.129806
0.954336 0.167428 0.135047
-0.047199 0.159434 0.020956
-0.019019 0.159523 0.021432
0.012867 0.159623 0.021971
0.056382 0.159767 0.022744
0.095151 0.159960 0.023782
0.130116 0.160206 0.025106
0.163328 0.160507 0.026735
0.195567 0.160868 0.028686
0.227207 0.161290 0.030975
0.258450 0.161776 0.033618
0.289418 0.162328 0.036629
0.320187 0.162947 0.040020
0.350807 0.163635 0.043672
0.381314 0.164393 0.047500
0.411733 0.165222 0.051490
0.442082 0.166124 0.055624
0.472373 0.167098 0.059886
0.502619 0.168145 0.064261
0.532827 0.169266 0.068737
0.563002 0.170461 0.073302
0.593151 0.171729 0.077946
0.623277 0.173071 0.082660
0.653383 0.174486 0.087437
0.683473 0.175973 0.092271
0.713547 0.177533 0.097155
0.743609 0.179163 0.102084
0.773660 0.180865 0.107054
0.803701 0.182636 0.112060
0.833733 0.184476 0.117100
0.863757 0.186383 0.122169
0.893774 0.188357 0.127266
0.923785 0.190396 0.132387
0.953791 0.192499 0.137531
-0.065724 0.191155 0.029181
-0.037545 0.191228 0.029657
-0.005658 0.191311 0.030196
0.040063 0.191430 0.030969
0.085017 0.191589 0.032007
0.122704 0.191792 0.033331
0.157500 0.192041 0.034960
0.190787 0.192339 0.036911
0.223173 0.192688 0.039201
0.254976 0.193090 0.041807
0.286378 0.193547 0.044650
0.317493 0.194060 0.047722
0.348396 0.194631 0.051006
0.379137 0.195261 0.054483
0.409753 0.195952 0.058135
0.440269 0.196703 0.061947
0.470706 0.197516 0.065903
0.501077 0.198392 0.069988
0.531395 0.199331 0.074191
0.561668 0.200334 0.078498
0.591903 0.201401 0.082901
0.622106 0.202531 0.087389
0.652281 0.203726 0.091954
0.682433 0.204985 0.096589
0.712564 0.206308 0.101286
0.742678 0.207695 0.106040
0.772775 0.209145 0.110846
0.802859 0.210658 0.115698
0.832931 0.212234 0.120593
0.862992 0.213872 0.125526
0.893042 0.215571 0.130495
0.923085 0.217332 0.135496
0.953119 0.219152 0.140526
-0.073059 0.222876 0.039034
-0.059736 0.222938 0.039510
-0.027850 0.223008 0.040049
0.017871 0.223108 0.040815
0.071332 0.223242 0.041822
0.113211 0.223413 0.043087
0.150210 0.223624 0.044612
0.184884 0.223876 0.046396
0.218231 0.224171 0.048436
0.250741 0.224511 0.050723
0.282686 0.224898 0.053246
0.314230 0.225333 0.055992
0.345480 0.225817 0.058950
0.376509 0.226351 0.062103
0.407365 0.226938 0.065438
0.438086 0.227576 0.068942
0.468698 0.228268 0.072599
0.499222 0.229015 0.076398
0.529673 0.229816 0.080327
0.560064 0.230672 0.084373
0.590403 0.231584 0.088527
0.620699 0.232552 0.092779
0.650958 0.233577 0.097121
0.681185 0.234658 0.101544
0.711384 0.235796 0.106042
0.741560 0.236991 0.110607
0.771714 0.238243 0.115234
0.801850 0.239551 0.119918
0.831969 0.240916 0.124654
0.862073 0.242338 0.129437
0.892165 0.243815 0.134263
0.922245 0.245349 0.139129
0.952314 0.246937 0.144032
-0.073059 0.254597 0.049778
-0.073059 0.254650 0.050188
-0.053890 0.254710 0.050649
-0.008169 0.254796 0.051306
0.052015 0.254912 0.052178
0.101017 0.255059 0.053277
0.141165 0.255240 0.054608
0.177687 0.255457 0.056173
0.212268 0.255711 0.057971
0.245665 0.256004 0.059998
0.278280 0.256337 0.062248
0.310349 0.256712 0.064711
0.342021 0.257129 0.067379
0.373396 0.257590 0.070241
0.404541 0.258096 0.073286
0.435507 0.258648 0.076502
0.466329 0.259246 0.079877
0.497034 0.259892 0.083402
0.527644 0.260585 0.087063
0.558174 0.261327 0.090852
0.588637 0.262119 0.094758
0.619043 0.262959 0.098773
0.649401 0.263850 0.102887
0.679717 0.264791 0.107093
0.709997 0.265782 0.111383
0.740245 0.266824 0.115751
0.770466 0.267917 0.120190
0.800663 0.269061 0.124695
0.830838 0.270256 0.129260
0.860995 0.271503 0.133882
0.891134 0.272800 0.138554
0.921258 0.274147 0.143275
0.951368 0.275546 0.148039
-0.073059 0.286318 0.060514
-0.073059 0.286364 0.060872
-0.073059 0.286417 0.061275
-0.038227 0.286492 0.061849
0.023168 0.286593 0.062614
0.085031 0.286721 0.063581
0.129938 0.286879 0.064754
0.168971 0.287069 0.066140
0.205144 0.287290 0.067737
0.239652 0.287546 0.069546
0.273091 0.287837 0.071563
0.305796 0.288165 0.073782
0.337975 0.288530 0.076196
0.369762 0.288933 0.078799
0.401251 0.289376 0.081581
0.432506 0.289859 0.084534
0.463575 0.290383 0.087648
0.494494 0.290948 0.090914
0.525289 0.291556 0.094322
0.555982 0.292208 0.097862
0.586589 0.292902 0.101527
0.617124 0.293641 0.105308
0.647597 0.294424 0.109196
0.678017 0.295252 0.113183
0.708390 0.296125 0.117264
0.738724 0.297044 0.121430
0.769023 0.298009 0.125676
0.799290 0.299019 0.129996
0.829531 0.300075 0.134385
0.859747 0.301178 0.138837
0.889942 0.302327 0.143348
0.920117 0.303522 0.147914
0.950275 0.304763 0.152530
-0.073059 0.318039 0.071249
-0.073059 0.318080 0.071565
-0.073059 0.318126 0.071922
-0.072465 0.318193 0.072430
-0.011070 0.318282 0.073109
0.062965 0.318395 0.073967
0.115860 0.318535 0.075012
0.158427 0.318702 0.076248
0.196682 0.318898 0.077679
0.232587 0.319124 0.079303
0.267036 0.319381 0.081121
0.300510 0.319671 0.083129
0.333294 0.319994 0.085322
0.365570 0.320350 0.087696
0.397462 0.320742 0.090244
0.429056 0.321170 0.092959
0.460413 0.321634 0.095833
0.491580 0.322135 0.098859
0.522590 0.322674 0.102029
0.553472 0.323251 0.105335
0.584246 0.323868 0.108769
0.614929 0.324524 0.112324
0.645535 0.325219 0.115991
0.676074 0.325955 0.119765
0.706555 0.326732 0.123637
0.736986 0.327549 0.127603
0.767374 0.328408 0.131654
0.797723 0.329308 0.135787
0.828038 0.330250 0.139995
0.858323 0.331234 0.144273
0.888581 0.332261 0.148617
0.918815 0.333329 0.153023
0.949027 0.334439 0.157485
-0.073059 0.349760 0.081985
-0.073059 0.349797 0.082267
-0.073059 0.349838 0.082585
-0.073059 0.349897 0.083039
-0.049637 0.349976 0.083646
0.028679 0.350078 0.084415
0.097754 0.350202 0.085353
0.145600 0.350352 0.086465
0.186645 0.350526 0.087755
0.224325 0.350728 0.089223
0.260019 0.350958 0.090871
0.294420 0.351216 0.092696
0.327924 0.351505 0.094696
0.360777 0.351823 0.096868
0.393141 0.352174 0.099207
0.425128 0.352556 0.101708
0.456818 0.352971 0.104365
0.488271 0.353419 0.107171
0.519529 0.353901 0.110121
0.550628 0.354418 0.113208
0.581592 0.354969 0.116424
0.612445 0.355557 0.119763
0.643201 0.356180 0.123219
0.673876 0.356840 0.126786
0.704480 0.357536 0.130455
0.735023 0.358270 0.134223
0.765511 0.359041 0.138083
0.795953 0.359849 0.142028
0.826353 0.360696 0.146056
0.856715 0.361581 0.150159
0.887045 0.362504 0.154334
0.917346 0.363466 0.158575
0.947620 0.364467 0.162880
-0.073059 0.381481 0.092720
-0.073059 0.381514 0.092974
-0.073059 0.381551 0.093261
-0.073059 0.381604 0.093670
-0.073059 0.381676 0.094217
-0.014363 0.381767 0.094912
0.073127 0.381879 0.095759
0.129775 0.382013 0.096766
0.174706 0.382171 0.097936
0.214682 0.382352 0.099271
0.251921 0.382559 0.100772
0.287444 0.382792 0.102439
0.321804 0.383052 0.104271
0.355334 0.383339 0.106265
0.388248 0.383654 0.108419
0.420691 0.383998 0.110728
0.452765 0.384372 0.113188
0.484544 0.384776 0.115794
0.516086 0.385211 0.118542
0.547431 0.385677 0.121425
0.578612 0.386175 0.124437
0.609657 0.386705 0.127574
0.640585 0.387268 0.130830
0.671413 0.387864 0.134197
0.702155 0.388493 0.137672
0.732823 0.389156 0.141248
0.763425 0.389853 0.144920
0.793971 0.390585 0.148682
0.824466 0.391351 0.152530
0.854916 0.392152 0.156460
0.885327 0.392988 0.160465
0.915702 0.393860 0.164543
0.946045 0.394767 0.168688
-0.073059 0.413202 0.103456
-0.073059 0.413232 0.103686
-0.073059 0.413266 0.103946
-0.073059 0.413314 0.104317
-0.073059 0.413379 0.104814
-0.062015 0.413461 0.105445
0.034344 0.413563 0.106217
0.109685 0.413685 0.107134
0.160385 0.413827 0.108201
0.203408 0.413992 0.109421
0.242591 0.414180 0.110795
0.279480 0.414391 0.112325
0.314862 0.414626 0.114009
0.349188 0.414887 0.115846
0.382741 0.415173 0.117835
0.415709 0.415485 0.119972
0.448223 0.415825 0.122255
0.480376 0.416192 0.124680
0.512239 0.416586 0.127242
0.543863 0.417010 0.129938
0.575290 0.417462 0.132762
0.606551 0.417944 0.135709
0.637671 0.418455 0.138776
0.668672 0.418997 0.141955
0.699569 0.419569 0.145244
0.730377 0.420172 0.148636
0.761108 0.420806 0.152126
0.791769 0.421472 0.155710
0.822371 0.422170 0.159384
0.852919 0.422900 0.163142
0.883420 0.423662 0.166980
0.913878 0.424457 0.170895
0.944298 0.425284 0.174882
-0.073059 0.444923 0.114191
-0.073059 0.444950 0.114401
-0.073059 0.444981 0.114638
-0.073059 0.445025 0.114978
-0.073059 0.445084 0.115432
-0.073059 0.445160 0.116009
-0.018051 0.445252 0.116714
0.082641 0.445363 0.117555
0.142918 0.445494 0.118533
0.190160 0.445644 0.119654
0.231835 0.445815 0.120918
0.270406 0.446008 0.122326
0.307013 0.446223 0.123880
0.342276 0.446461 0.125579
0.376572 0.446722 0.127421
0.410145 0.447007 0.129405
0.443162 0.447317 0.131528
0.475740 0.447652 0.133788
0.507967 0.448013 0.136182
0.539906 0.448400 0.138706
0.571608 0.448813 0.141355
0.603112 0.449253 0.144127
0.634448 0.449721 0.147016
0.665641 0.450216 0.150019
0.696712 0.450740 0.153131
0.727676 0.451291 0.156348
0.758548 0.451872 0.159665
0.789339 0.452482 0.163077
0.820059 0.453120 0.166581
0.850716 0.453789 0.170173
0.881316 0.454487 0.173848
0.911867 0.455215 0.177602
0.942372 0.455974 0.181432
-0.073059 0.476644 0.124927
-0.073059 0.476669 0.125119
-0.073059 0.476697 0.125337
-0.073059 0.476738 0.125649
-0.073059 0.476792 0.126066
-0.073059 0.476861 0.126596
-0.073059 0.476946 0.127245
0.040113 0.477048 0.128018
0.120955 0.477168 0.128920
0.174429 0.477306 0.129954
0.219395 0.477463 0.131121
0.260066 0.477640 0.132423
0.298152 0.477837 0.133862
0.334523 0.478055 0.135438
0.369686 0.478295 0.137149
0.403956 0.478557 0.138996
0.437548 0.478842 0.140975
0.470608 0.479149 0.143087
0.503245 0.479481 0.145326
0.535539 0.479836 0.147693
0.567549 0.480216 0.150182
0.599324 0.480620 0.152790
0.630901 0.481050 0.155515
0.662308 0.481505 0.158352
0.693571 0.481987 0.161298
0.724709 0.482494 0.164349
0.755738 0.483028 0.167501
0.786672 0.483589 0.170749
0.817522 0.484177 0.174091
0.848299 0.484792 0.177522
0.879010 0.485435 0.181038
0.909662 0.486105 0.184636
0.940261 0.486804 0.188312
-0.073059 0.508365 0.135662
-0.073059 0.508388 0.135840
-0.073059 0.508414 0.136041
-0.073059 0.508451 0.136328
-0.073059 0.508501 0.136713
-0.073059 0.508565 0.137202
-0.073059 0.508644 0.137802
-0.022140 0.508738 0.138517
0.091610 0.508848 0.139352
0.155407 0.508975 0.140309
0.204907 0.509120 0.141391
0.248257 0.509283 0.142600
0.288152 0.509465 0.143937
0.325843 0.509666 0.145403
0.362017 0.509888 0.146998
0.397092 0.510130 0.148720
0.431340 0.510392 0.150571
0.464948 0.510676 0.152547
0.498048 0.510982 0.154647
0.530739 0.511310 0.156869
0.563095 0.511660 0.159210
0.595172 0.512034 0.161668
0.627015 0.512431 0.164240
0.658660 0.512851 0.166923
0.690136 0.513296 0.169714
0.721465 0.513764 0.172608
0.752668 0.514258 0.175603
0.783759 0.514776 0.178696
0.814753 0.515319 0.181882
0.845661 0.515888 0.185158
0.876493 0.516483 0.188522
0.907257 0.517103 0.191969
0.937960 0.517749 0.195495
-0.073059 0.540086 0.146398
-0.073059 0.540107 0.146562
-0.073059 0.540132 0.146748
-0.073059 0.540166 0.147015
-0.073059 0.540212 0.147371
-0.073059 0.540271 0.147825
-0.073059 0.540344 0.148382
-0.073059 0.540431 0.149045
0.045653 0.540533 0.149820
0.131660 0.540651 0.150710
0.187837 0.540785 0.151717
0.234708 0.540937 0.152843
0.276850 0.541105 0.154089
0.316127 0.541292 0.155457
0.353491 0.541497 0.156947
0.389497 0.541721 0.158559
0.424496 0.541964 0.160292
0.458724 0.542227 0.162146
0.492346 0.542511 0.164118
0.525483 0.542815 0.166208
0.558223 0.543140 0.168414
0.590636 0.543486 0.170734
0.622776 0.543854 0.173164
0.654684 0.544244 0.175703
0.686394 0.544656 0.178348
0.717934 0.545091 0.181096
0.749327 0.545549 0.183943
0.780591 0.546030 0.186888
0.811743 0.546534 0.189927
0.842795 0.547062 0.193056
0.873759 0.547614 0.196272
0.904645 0.548190 0.199574
0.935460 0.548790 0.202956
-0.073059 0.571807 0.157133
-0.073059 0.571827 0.157286
-0.073059 0.571849 0.157459
-0.073059 0.571881 0.157707
-0.073059 0.571925 0.158039
-0.073059 0.571979 0.158461
-0.073059 0.572047 0.158980
-0.073059 0.572128 0.159598
-0.026635 0.572223 0.160320
0.100109 0.572333 0.161150
0.167332 0.572457 0.162090
0.219039 0.572598 0.163141
0.264037 0.572755 0.164307
0.305243 0.572928 0.165587
0.344016 0.573119 0.166983
0.381104 0.573327 0.168494
0.416965 0.573554 0.170122
0.451898 0.573799 0.171864
0.486108 0.574062 0.173720
0.519744 0.574345 0.175690
0.552913 0.574648 0.177772
0.585699 0.574970 0.179963
0.618166 0.575313 0.182262
0.650363 0.575676 0.184668
0.682332 0.576059 0.187177
0.714103 0.576464 0.189787
0.745705 0.576890 0.192496
0.777159 0.577338 0.195301
0.808483 0.577808 0.198200
0.839692 0.578300 0.201189
0.870801 0.578814 0.204265
0.901819 0.579351 0.207427
0.932758 0.579910 0.210671
-0.073059 0.603528 0.167869
-0.073059 0.603547 0.168012
-0.073059 0.603568 0.168173
-0.073059 0.603597 0.168404
-0.073059 0.603638 0.168714
-0.073059 0.603689 0.169109
-0.073059 0.603752 0.169593
-0.073059 0.603828 0.170171
-0.073059 0.603916 0.170846
0.050814 0.604019 0.171623
0.141875 0.604135 0.172502
0.200689 0.604266 0.173488
0.249428 0.604413 0.174580
0.293023 0.604575 0.175782
0.333482 0.604753 0.177093
0.371837 0.604947 0.178513
0.408690 0.605159 0.180044
0.444424 0.605387 0.181685
0.479298 0.605633 0.183436
0.513492 0.605898 0.185295
0.547140 0.606180 0.187262
0.580339 0.606481 0.189336
0.613168 0.606801 0.191514
0.645684 0.607140 0.193795
0.677936 0.607498 0.196178
0.709962 0.607877 0.198660
0.741792 0.608275 0.201239
0.773452 0.608693 0.203912
0.804964 0.609132 0.206679
0.836345 0.609592 0.209535
0.867610 0.610073 0.212478
0.898773 0.610574 0.215507
0.929845 0.611098 0.218618
-0.073059 0.635249 0.178604
-0.073059 0.635267 0.178738
-0.073059 0.635286 0.178889
-0.073059 0.635314 0.179106
-0.073059 0.635352 0.179396
-0.073059 0.635400 0.179766
-0.073059 0.635459 0.180219
-0.073059 0.635530 0.180761
-0.073059 0.635613 0.181395
-0.031541 0.635708 0.182123
0.108196 0.635817 0.182949
0.178762 0.635940 0.183875
0.232628 0.636077 0.184902
0.279248 0.636229 0.186032
0.321751 0.636396 0.187266
0.361599 0.636578 0.188604
0.399602 0.636776 0.190048
0.436252 0.636990 0.191597
0.471876 0.637221 0.193250
0.506696 0.637468 0.195008
0.540876 0.637733 0.196870
0.574535 0.638015 0.198835
0.607762 0.638314 0.200901
0.640630 0.638632 0.203067
0.673193 0.638968 0.205332
0.705496 0.639323 0.207694
0.737575 0.639696 0.210151
0.769461 0.640088 0.212701
0.801177 0.640500 0.215342
0.832744 0.640930 0.218073
0.864180 0.641381 0.220890
0.895500 0.641852 0.223791
0.926716 0.642342 0.226775
-0.073059 0.666970 0.189340
-0.073059 0.666986 0.189465
-0.073059 0.667005 0.189607
-0.073059 0.667031 0.189811
-0.073059 0.667066 0.190083
-0.073059 0.667112 0.190431
-0.073059 0.667167 0.190857
-0.073059 0.667233 0.191367
-0.073059 0.667311 0.191962
-0.073059 0.667401 0.192648
0.055641 0.667504 0.193425
0.151658 0.667619 0.194297
0.213049 0.667748 0.195265
0.263623 0.667890 0.196330
0.308649 0.668047 0.197494
0.350279 0.668218 0.198758
0.389621 0.668404 0.200122
0.427322 0.668605 0.201586
0.463795 0.668822 0.203151
0.499320 0.669054 0.204816
0.534093 0.669303 0.206581
0.568260 0.669568 0.208445
0.601929 0.669849 0.210408
0.635182 0.670148 0.212467
0.668086 0.670464 0.214622
0.700693 0.670797 0.216872
0.733044 0.671148 0.219215
0.765174 0.671516 0.221649
0.797112 0.671903 0.224173
0.828882 0.672308 0.226785
0.860502 0.672732 0.229482
0.891991 0.673174 0.232263
0.923363 0.673636 0.235126
-0.073059 0.698691 0.200075
-0.073059 0.698707 0.200194
-0.073059 0.698724 0.200327
-0.073059 0.698749 0.200519
-0.073059 0.698782 0.200776
-0.073059 0.698824 0.201103
-0.073059 0.698877 0.201505
-0.073059 0.698939 0.201985
-0.073059 0.699013 0.202547
-0.073059 0.699097 0.203193
-0.036866 0.699194 0.203926
0.115919 0.699302 0.204749
0.189752 0.699424 0.205663
0.245735 0.699558 0.206670
0.293949 0.699705 0.207770
0.337734 0.699866 0.208966
0.378650 0.700042 0.210257
0.417563 0.700231 0.211644
0.455004 0.700435 0.213127
0.491321 0.700654 0.214707
0.526758 0.700888 0.216383
0.561489 0.701138 0.218154
0.595644 0.701403 0.220020
0.629322 0.701684 0.221980
0.662599 0.701982 0.224034
0.695537 0.702296 0.226179
0.728184 0.702626 0.228415
0.760581 0.702974 0.230741
0.792760 0.703338 0.233154
0.824748 0.703720 0.235653
0.856568 0.704119 0.238237
0.888240 0.704536 0.240904
0.919779 0.704971 0.243652
-0.073059 0.730412 0.210811
-0.073059 0.730427 0.210922
-0.073059 0.730443 0.211049
-0.073059 0.730466 0.211229
-0.073059 0.730498 0.211472
-0.073059 0.730538 0.211781
-0.073059 0.730587 0.212160
-0.073059 0.730646 0.212614
-0.073059 0.730716 0.213145
-0.073059 0.730795 0.213756
-0.073059 0.730887 0.214449
0.060164 0.730989 0.215228
0.161056 0.731104 0.216093
0.224970 0.731230 0.217046
0.277345 0.731369 0.218088
0.323782 0.731522 0.219221
0.366572 0.731687 0.220445
0.406894 0.731866 0.221762
0.445441 0.732059 0.223170
0.482654 0.732265 0.224671
0.518834 0.732486 0.226265
0.554192 0.732722 0.227950
0.588884 0.732973 0.229727
0.623028 0.733238 0.231595
0.656715 0.733519 0.233553
0.690014 0.733816 0.235601
0.722984 0.734128 0.237737
0.755669 0.734456 0.239961
0.788109 0.734800 0.242270
0.820333 0.735161 0.244664
0.852369 0.735538 0.247141
0.884238 0.735932 0.249699
0.915958 0.736343 0.252338
-0.073059 0.762133 0.221546
-0.073059 0.762147 0.221652
-0.073059 0.762162 0.221771
-0.073059 0.762184 0.221942
-0.073059 0.762214 0.222172
-0.073059 0.762252 0.222464
-0.073059 0.762299 0.222824
-0.073059 0.762355 0.223253
-0.073059 0.762420 0.223756
-0.073059 0.762496 0.224334
-0.073059 0.762582 0.224992
-0.042616 0.762679 0.225729
0.123314 0.762787 0.226549
0.200348 0.762907 0.227453
0.258407 0.763039 0.228443
0.308190 0.763183 0.229519
0.353241 0.763339 0.230682
0.395216 0.763509 0.231933
0.435035 0.763691 0.233272
0.473265 0.763887 0.234701
0.510278 0.764096 0.236218
0.546334 0.764319 0.237823
0.581621 0.764556 0.239518
0.616278 0.764807 0.241300
0.650412 0.765073 0.243170
0.684106 0.765354 0.245127
0.717427 0.765649 0.247169
0.750426 0.765960 0.249297
0.783148 0.766286 0.251508
0.815628 0.766628 0.253803
0.847896 0.766985 0.256179
0.879977 0.767358 0.258635
0.911892 0.767747 0.261170
-0.073059 0.793854 0.232282
-0.073059 0.793867 0.232382
-0.073059 0.793882 0.232495
-0.073059 0.793903 0.232657
-0.073059 0.793931 0.232875
-0.073059 0.793967 0.233152
-0.073059 0.794011 0.233493
-0.073059 0.794064 0.233900
-0.073059 0.794126 0.234378
-0.073059 0.794198 0.234927
-0.073059 0.794280 0.235551
-0.073059 0.794372 0.236251
0.064410 0.794474 0.237030
0.170108 0.794588 0.237889
0.236496 0.794713 0.238830
0.290640 0.794850 0.239853
0.338469 0.794998 0.240960
0.382406 0.795158 0.242151
0.423701 0.795331 0.243427
0.463090 0.795517 0.244788
0.501043 0.795715 0.246234
0.537878 0.795927 0.247766
0.573824 0.796152 0.249384
0.609046 0.796390 0.251086
0.643671 0.796642 0.252873
0.677796 0.796908 0.254745
0.711498 0.797189 0.256700
0.744837 0.797483 0.258738
0.777864 0.797793 0.260857
0.810620 0.798117 0.263058
0.843139 0.798456 0.265339
0.875448 0.798810 0.267698
0.907572 0.799179 0.270135
-0.073059 0.825575 0.243017
-0.073059 0.825588 0.243112
-0.073059 0.825601 0.243220
-0.073059 0.825621 0.243374
-0.073059 0.825648 0.243581
-0.073059 0.825682 0.243844
-0.073059 0.825724 0.244168
-0.073059 0.825775 0.244555
-0.073059 0.825834 0.245009
-0.073059 0.825902 0.245531
-0.073059 0.825979 0.246125
-0.073059 0.826067 0.246791
-0.048798 0.826164 0.247532
0.130412 0.826272 0.248350
0.210589 0.826391 0.249246
0.270685 0.826521 0.250220
0.322014 0.826662 0.251275
0.368314 0.826814 0.252410
0.411337 0.826978 0.253627
0.452057 0.827155 0.254926
