滤镜资源/Professional Luts Collection/Lutify.me Professional/Utility LUTs/White Balance/4300 Kelvin - 6500 Kelvin - 0.60 CTO.cube
# Created by: Lutify.me
# Copyright: (c) Copyright Lutify.me 2015
# Website: https://lutify.me
LUT_3D_SIZE 9
0.000000 0.000000 0.000000
0.132564 -0.001330 -0.001817
0.262817 -0.004715 -0.006442
0.393070 -0.010751 -0.014691
0.523322 -0.019835 -0.027104
0.653575 -0.032297 -0.044131
0.783828 -0.048423 -0.066166
0.914081 -0.068470 -0.073059
1.044334 -0.073059 -0.073059
0.025638 0.124709 -0.008962
0.142019 0.124168 -0.010779
0.267449 0.122783 -0.015404
0.395950 0.120273 -0.023653
0.525341 0.116399 -0.036066
0.655096 0.110876 -0.053093
0.785029 0.103323 -0.073059
0.915063 0.093165 -0.073059
1.045157 0.079428 -0.073059
0.078748 0.249506 -0.031774
0.163602 0.249248 -0.033591
0.278837 0.248591 -0.038216
0.403166 0.247413 -0.046465
0.530436 0.245628 -0.058877
0.658946 0.243155 -0.073059
0.788076 0.239912 -0.073059
0.917555 0.235810 -0.073059
1.047248 0.230747 -0.073059
0.133563 0.374304 -0.072456
0.196036 0.374145 -0.073059
0.297897 0.373739 -0.073059
0.415656 0.373013 -0.073059
0.539372 0.371918 -0.073059
0.665741 0.370410 -0.073059
0.793472 0.368447 -0.073059
0.921979 0.365989 -0.073059
1.050963 0.362994 -0.073059
0.188378 0.499102 -0.073059
0.235968 0.498990 -0.073059
0.324125 0.498706 -0.073059
0.433620 0.498199 -0.073059
0.552474 0.497436 -0.073059
0.675801 0.496385 -0.073059
0.801502 0.495022 -0.073059
0.928583 0.493321 -0.073059
1.056521 0.491257 -0.073059
0.243193 0.623899 -0.073059
0.280677 0.623815 -0.073059
0.356429 0.623602 -0.073059
0.456854 0.623221 -0.073059
0.569829 0.622647 -0.073059
0.689293 0.621858 -0.073059
0.812350 0.620836 -0.073059
0.937542 0.619562 -0.073059
1.064083 0.618019 -0.073059
0.298008 0.748697 -0.073059
0.328399 0.748631 -0.073059
0.393583 0.748462 -0.073059
0.484888 0.748161 -0.073059
0.591332 0.747708 -0.073059
0.706260 0.747086 -0.073059
0.826111 0.746280 -0.073059
0.948971 0.745277 -0.073059
1.073764 0.744063 -0.073059
0.352823 0.873494 -0.073059
0.378064 0.873440 -0.073059
0.434482 0.873303 -0.073059
0.517123 0.873057 -0.073059
0.616740 0.872687 -0.073059
0.726641 0.872179 -0.073059
0.842810 0.871521 -0.073059
0.962930 0.870703 -0.073059
1.085639 0.869713 -0.073059
0.407637 0.998292 -0.073059
0.429022 0.998247 -0.073059
0.478231 0.998131 -0.073059
0.552933 0.997925 -0.073059
0.645726 0.997615 -0.073059
0.750296 0.997190 -0.073059
0.862408 0.996639 -0.073059
0.979432 0.995954 -0.073059
1.099749 0.995125 -0.073059
0.001871 -0.000049 0.097086
0.133277 -0.001379 0.096152
0.263158 -0.004764 0.093735
0.393281 -0.010801 0.089284
0.523470 -0.019885 0.082198
0.653686 -0.032346 0.071552
0.783916 -0.048472 0.055566
0.914153 -0.068519 0.030171
1.044394 -0.073059 -0.002898
0.027509 0.124689 0.092396
0.142684 0.124148 0.091419
0.267783 0.122762 0.088890
0.396159 0.120252 0.084219
0.525488 0.116378 0.076745
0.655207 0.110854 0.065408
0.785117 0.103299 0.048038
0.915134 0.093139 0.021209
1.045217 0.079398 -0.011860
0.079889 0.249497 0.079396
0.164178 0.249239 0.078283
0.279156 0.248581 0.075389
0.403371 0.247403 0.069993
0.530582 0.245618 0.061197
0.659056 0.243146 0.047349
0.788163 0.239902 0.025790
0.917627 0.235800 -0.001602
1.047308 0.230736 -0.034672
0.134270 0.374298 0.050362
0.196510 0.374139 0.048790
0.298192 0.373733 0.044629
0.415853 0.373007 0.036583
0.539514 0.371912 0.024171
0.665850 0.370404 0.007143
0.793558 0.368441 -0.014892
0.922050 0.365983 -0.042284
1.051023 0.362988 -0.073059
0.188873 0.499097 -0.009945
0.236354 0.498986 -0.011763
0.324391 0.498702 -0.016388
0.433807 0.498195 -0.024636
0.552612 0.497431 -0.037049
0.675907 0.496381 -0.054077
0.801588 0.495018 -0.073059
0.928653 0.493317 -0.073059
1.056580 0.491253 -0.073059
0.243566 0.623896 -0.073059
0.280993 0.623812 -0.073059
0.356667 0.623599 -0.073059
0.457029 0.623218 -0.073059
0.569962 0.622643 -0.073059
0.689397 0.621855 -0.073059
0.812434 0.620832 -0.073059
0.937612 0.619558 -0.073059
1.064142 0.618016 -0.073059
0.298302 0.748694 -0.073059
0.328662 0.748628 -0.073059
0.393794 0.748460 -0.073059
0.485050 0.748159 -0.073059
0.591458 0.747706 -0.073059
0.706360 0.747084 -0.073059
0.826193 0.746278 -0.073059
0.949039 0.745275 -0.073059
1.073822 0.744061 -0.073059
0.353063 0.873492 -0.073059
0.378286 0.873438 -0.073059
0.434668 0.873301 -0.073059
0.517273 0.873055 -0.073059
0.616860 0.872685 -0.073059
0.726738 0.872177 -0.073059
0.842890 0.871519 -0.073059
0.962997 0.870701 -0.073059
1.085696 0.869711 -0.073059
0.407839 0.998290 -0.073059
0.429211 0.998245 -0.073059
0.478397 0.998130 -0.073059
0.553071 0.997924 -0.073059
0.645839 0.997614 -0.073059
0.750389 0.997188 -0.073059
0.862485 0.996637 -0.073059
0.979498 0.995952 -0.073059
1.099805 0.995124 -0.073059
0.006634 -0.000174 0.202702
0.135074 -0.001504 0.202257
0.264024 -0.004889 0.201118
0.393817 -0.010926 0.199070
0.523846 -0.020010 0.195944
0.653969 -0.032471 0.191565
0.784139 -0.048597 0.185731
0.914335 -0.068644 0.178190
1.044547 -0.073059 0.168606
0.032272 0.124638 0.200495
0.144364 0.124097 0.200044
0.268632 0.122711 0.198892
0.396691 0.120200 0.196819
0.525862 0.116324 0.193653
0.655489 0.110797 0.189216
0.785340 0.103239 0.183301
0.915316 0.093073 0.175648
1.045369 0.079322 0.165907
0.082732 0.249472 0.194754
0.165634 0.249215 0.194288
0.279965 0.248557 0.193098
0.403891 0.247379 0.190956
0.530951 0.245594 0.187682
0.659336 0.243121 0.183088
0.788385 0.239877 0.176952
0.917808 0.235774 0.168992
1.047460 0.230710 0.158821
0.136055 0.374283 0.184029
0.197713 0.374124 0.183534
0.298941 0.373718 0.182268
0.416354 0.372992 0.179986
0.539876 0.371897 0.176492
0.666126 0.370389 0.171576
0.793778 0.368426 0.164984
0.922230 0.365967 0.156382
1.051174 0.362972 0.145295
0.190128 0.499087 0.166488
0.237334 0.498975 0.165937
0.325069 0.498692 0.164526
0.434282 0.498185 0.161978
0.552963 0.497421 0.158063
0.676178 0.496371 0.152523
0.801805 0.495007 0.145031
0.928832 0.493306 0.135131
1.056731 0.491242 0.122123
0.244512 0.623888 0.138673
0.281796 0.623804 0.138008
0.357271 0.623591 0.136301
0.457475 0.623210 0.133202
0.570299 0.622636 0.128399
0.689661 0.621847 0.121508
0.812647 0.620825 0.111990
0.937788 0.619550 0.098979
1.064291 0.618008 0.080866
0.299051 0.748688 0.091089
0.329329 0.748622 0.090100
0.394329 0.748453 0.087538
0.485464 0.748152 0.082802
0.591780 0.747700 0.075213
0.706616 0.747078 0.063667
0.826402 0.746272 0.045863
0.949213 0.745268 0.018783
1.073969 0.744055 -0.014287
0.353675 0.873487 -0.022759
0.378848 0.873433 -0.024576
0.435142 0.873295 -0.029202
0.517654 0.873050 -0.037450
0.617165 0.872680 -0.049863
0.726985 0.872172 -0.066890
0.843093 0.871514 -0.073059
0.963167 0.870696 -0.073059
1.085841 0.869706 -0.073059
0.408352 0.998286 -0.073059
0.429693 0.998241 -0.073059
0.478818 0.998125 -0.073059
0.553421 0.997919 -0.073059
0.646126 0.997609 -0.073059
0.750625 0.997184 -0.073059
0.862682 0.996633 -0.073059
0.979664 0.995948 -0.073059
1.099947 0.995119 -0.073059
0.015127 -0.000397 0.308318
0.138221 -0.001727 0.308043
0.265561 -0.005112 0.307341
0.394772 -0.011149 0.306085
0.524515 -0.020233 0.304183
0.654473 -0.032694 0.301551
0.784537 -0.048820 0.298104
0.914660 -0.068867 0.293753
1.044819 -0.073059 0.288396
0.040759 0.124547 0.306958
0.147311 0.124006 0.306681
0.270138 0.122619 0.305976
0.397637 0.120106 0.304713
0.526528 0.116227 0.302801
0.655991 0.110696 0.300155
0.785737 0.103130 0.296689
0.915641 0.092954 0.292312
1.045642 0.079186 0.286924
0.087608 0.249429 0.303464
0.168197 0.249171 0.303184
0.281401 0.248513 0.302469
0.404817 0.247335 0.301188
0.531609 0.245550 0.299250
0.659834 0.243076 0.296566
0.788780 0.239832 0.293050
0.918132 0.235728 0.288608
1.047732 0.230662 0.283136
0.139180 0.374256 0.297112
0.199837 0.374097 0.296824
0.300270 0.373691 0.296091
0.417245 0.372965 0.294778
0.540520 0.371870 0.292789
0.666618 0.370362 0.290035
0.794170 0.368398 0.286424
0.922552 0.365940 0.281859
1.051445 0.362944 0.276230
0.192344 0.499068 0.287239
0.239069 0.498957 0.286940
0.326273 0.498673 0.286177
0.435129 0.498166 0.284810
0.553588 0.497402 0.282738
0.676661 0.496352 0.279867
0.802191 0.494988 0.276099
0.929150 0.493287 0.271330
1.057000 0.491223 0.265440
0.246190 0.623874 0.273009
0.283221 0.623790 0.272692
0.358346 0.623577 0.271881
0.458268 0.623196 0.270430
0.570899 0.622621 0.268228
0.690131 0.621833 0.265172
0.813027 0.620810 0.261157
0.938103 0.619536 0.256063
1.064557 0.617994 0.249754
0.300380 0.748677 0.253202
0.330514 0.748611 0.252855
0.395283 0.748442 0.251971
0.486200 0.748141 0.250385
0.592353 0.747688 0.247976
0.707072 0.747066 0.244627
0.826773 0.746261 0.240214
0.949523 0.745257 0.234596
1.074232 0.744043 0.227604
0.354763 0.873478 0.225773
0.379849 0.873424 0.225378
0.435987 0.873286 0.224369
0.518333 0.873041 0.222558
0.617708 0.872671 0.219800
0.727424 0.872163 0.215953
0.843455 0.871505 0.210859
0.963471 0.870687 0.204328
1.086100 0.869697 0.196123
0.409265 0.998279 0.186616
0.430551 0.998233 0.186129
0.479567 0.998118 0.184882
0.554045 0.997912 0.182635
0.646638 0.997602 0.179197
0.751046 0.997176 0.174362
0.863034 0.996625 0.167885
0.979961 0.995940 0.159447
1.100202 0.995112 0.148596
0.027909 -0.000733 0.413933
0.142826 -0.002063 0.413741
0.267854 -0.005448 0.413251
0.396203 -0.011485 0.412374
0.525520 -0.020569 0.411051
0.655230 -0.033030 0.409228
0.785136 -0.049156 0.406854
0.915150 -0.069203 0.403878
1.045230 -0.073059 0.400249
0.052283 0.124411 0.412983
0.151637 0.123869 0.412790
0.272387 0.122480 0.412298
0.399056 0.119965 0.411420
0.527528 0.116081 0.410093
0.656746 0.110543 0.408264
0.786334 0.102967 0.405883
0.916130 0.092775 0.402898
1.046052 0.078981 0.399258
0.094535 0.249364 0.410552
0.171978 0.249106 0.410358
0.283545 0.248448 0.409863
0.406205 0.247269 0.408977
0.532597 0.245483 0.407641
0.660584 0.243009 0.405799
0.789375 0.239764 0.403399
0.918619 0.235658 0.400392
1.048140 0.230591 0.396723
0.143754 0.374216 0.406173
0.202987 0.374057 0.405976
0.302259 0.373651 0.405474
0.418583 0.372925 0.404577
0.541487 0.371830 0.403222
0.667357 0.370321 0.401355
0.794759 0.368357 0.398922
0.923035 0.365898 0.395873
1.051851 0.362903 0.392152
0.195627 0.499040 0.399470
0.241654 0.498929 0.399269
0.328075 0.498645 0.398757
0.436398 0.498138 0.397841
0.554526 0.497374 0.396458
0.677386 0.496323 0.394551
0.802772 0.494960 0.392067
0.929629 0.493258 0.388951
1.057403 0.491194 0.385148
0.248691 0.623853 0.390044
0.285350 0.623769 0.389837
0.359956 0.623555 0.389309
0.459458 0.623174 0.388366
0.571802 0.622600 0.386941
0.690838 0.621812 0.384976
0.813598 0.620789 0.382415
0.938576 0.619515 0.379202
1.064957 0.617972 0.375278
0.302367 0.748660 0.377415
0.332289 0.748594 0.377199
0.396712 0.748425 0.376650
0.487306 0.748125 0.375667
0.593214 0.747672 0.374183
0.707757 0.747050 0.372136
0.827332 0.746244 0.369465
0.949988 0.745240 0.366113
1.074628 0.744027 0.362015
0.356393 0.873465 0.360956
0.381350 0.873410 0.360728
0.437253 0.873273 0.360148
0.519353 0.873027 0.359111
0.618524 0.872657 0.357542
0.728084 0.872149 0.355378
0.843999 0.871491 0.352552
0.963928 0.870673 0.349001
1.086490 0.869683 0.344655
0.410635 0.998267 0.339784
0.431837 0.998222 0.339539
0.480692 0.998106 0.338914
0.554982 0.997900 0.337798
0.647407 0.997590 0.336108
0.751680 0.997165 0.333774
0.863562 0.996614 0.330725
0.980408 0.995928 0.326886
1.100585 0.995100 0.322178
0.045193 -0.001194 0.519549
0.148909 -0.002524 0.519404
0.270964 -0.005909 0.519035
0.398157 -0.011945 0.518377
0.526894 -0.021029 0.517384
0.656267 -0.033491 0.516018
0.785956 -0.049617 0.514243
0.915820 -0.069664 0.512027
1.045792 -0.073059 0.509334
0.065723 0.124224 0.518834
0.157371 0.123681 0.518689
0.275437 0.122290 0.518320
0.400992 0.119771 0.517660
0.528896 0.115881 0.516666
0.657780 0.110334 0.515297
0.787153 0.102744 0.513520
0.916799 0.092529 0.511299
1.046613 0.078699 0.508601
0.103362 0.249275 0.517010
0.177026 0.249017 0.516864
0.286457 0.248358 0.516493
0.408099 0.247179 0.515830
0.533948 0.245392 0.514831
0.661610 0.242917 0.513457
0.790189 0.239670 0.511671
0.919286 0.235563 0.509440
1.048700 0.230494 0.506730
0.149798 0.374161 0.513736
0.207224 0.374001 0.513589
0.304961 0.373595 0.513215
0.420409 0.372869 0.512547
0.542810 0.371774 0.511539
0.668370 0.370265 0.510154
0.795566 0.368301 0.508353
0.923698 0.365842 0.506104
1.052409 0.362845 0.503371
0.200035 0.499001 0.508758
0.245149 0.498890 0.508609
0.330528 0.498606 0.508231
0.438133 0.498099 0.507554
0.555810 0.497335 0.506535
0.678379 0.496285 0.505131
0.803569 0.494921 0.503308
0.930286 0.493219 0.501030
1.057957 0.491155 0.498262
0.252075 0.623824 0.501828
0.288240 0.623740 0.501677
0.362151 0.623526 0.501291
0.461085 0.623145 0.500603
0.573037 0.622571 0.499566
0.691807 0.621782 0.498138
0.814380 0.620760 0.496282
0.939224 0.619486 0.493963
1.065506 0.617943 0.491145
0.305068 0.748637 0.492677
0.334705 0.748571 0.492522
0.398662 0.748402 0.492128
0.488818 0.748102 0.491424
0.594392 0.747649 0.490361
0.708696 0.747027 0.488899
0.828098 0.746221 0.486999
0.950627 0.745217 0.484624
1.075169 0.744003 0.481737
0.358615 0.873446 0.480994
0.383396 0.873392 0.480834
0.438983 0.873254 0.480428
0.520748 0.873008 0.479702
0.619640 0.872638 0.478607
0.728989 0.872130 0.477099
0.844745 0.871473 0.475139
0.964554 0.870654 0.472689
1.087024 0.869664 0.469710
0.412504 0.998251 0.466396
0.433594 0.998206 0.466230
0.482229 0.998091 0.465807
0.556265 0.997885 0.465053
0.648461 0.997575 0.463914
0.752548 0.997149 0.462346
0.864285 0.996598 0.460308
0.981020 0.995913 0.457757
1.101110 0.995084 0.454655
0.063610 -0.001790 0.625165
0.156422 -0.003120 0.625050
0.274927 -0.006505 0.624759
0.400667 -0.012541 0.624240
0.528666 -0.021625 0.623457
0.657606 -0.034087 0.622381
0.787015 -0.050213 0.620984
0.916687 -0.070260 0.619243
1.046519 -0.073059 0.617133
0.080494 0.123981 0.624600
0.164485 0.123437 0.624486
0.279326 0.122044 0.624195
0.403480 0.119519 0.623674
0.530659 0.115621 0.622891
0.659115 0.110062 0.621813
0.788210 0.102453 0.620416
0.917665 0.092210 0.618672
1.047340 0.078332 0.616559
0.113853 0.249159 0.623162
0.183338 0.248901 0.623047
0.290174 0.248242 0.622755
0.410535 0.247062 0.622233
0.535690 0.245275 0.621447
0.662935 0.242798 0.620366
0.791241 0.239549 0.618964
0.920148 0.235440 0.617216
1.049425 0.230367 0.615096
0.157268 0.374089 0.620585
0.212568 0.373930 0.620470
0.308416 0.373524 0.620176
0.422757 0.372798 0.619651
0.544517 0.371702 0.618861
0.669678 0.370193 0.617775
0.796609 0.368228 0.616365
0.924555 0.365768 0.614607
1.053130 0.362771 0.612476
0.205585 0.498951 0.616682
0.249589 0.498840 0.616566
0.333670 0.498556 0.616269
0.440364 0.498049 0.615741
0.557466 0.497285 0.614944
0.679662 0.496234 0.613848
0.804598 0.494870 0.612427
0.931135 0.493168 0.610655
1.058673 0.491104 0.608506
0.256378 0.623786 0.611275
0.291930 0.623702 0.611158
0.364968 0.623489 0.610858
0.463180 0.623108 0.610323
0.574630 0.622533 0.609517
0.693057 0.621745 0.608409
0.815392 0.620722 0.606972
0.940063 0.619448 0.605179
1.066215 0.617905 0.603005
0.308522 0.748608 0.604186
0.337800 0.748541 0.604067
0.401168 0.748373 0.603763
0.490765 0.748072 0.603220
0.595912 0.747619 0.602401
0.709908 0.746997 0.601277
0.829087 0.746191 0.599817
0.951452 0.745187 0.597997
1.075870 0.743973 0.595789
0.361464 0.873422 0.595222
0.386025 0.873368 0.595100
0.441210 0.873230 0.594790
0.522547 0.872984 0.594236
0.621082 0.872614 0.593402
0.730158 0.872106 0.592256
0.845709 0.871448 0.590768
0.965363 0.870630 0.588911
1.087715 0.869640 0.586659
0.414908 0.998231 0.584163
0.435855 0.998186 0.584039
0.484210 0.998070 0.583721
0.557919 0.997864 0.583154
0.649820 0.997554 0.582300
0.753669 0.997129 0.581125
0.865221 0.996578 0.579600
0.981811 0.995892 0.577697
1.101789 0.995064 0.575390
0.082028 -0.002531 0.730780
0.165271 -0.003861 0.730687
0.279763 -0.007246 0.730449
0.403761 -0.013282 0.730025
0.530858 -0.022366 0.729385
0.659266 -0.034828 0.728507
0.788330 -0.050954 0.727369
0.917763 -0.071001 0.725951
1.047422 -0.073059 0.724234
0.096185 0.123678 0.730319
0.172902 0.123134 0.730226
0.284075 0.121737 0.729988
0.406548 0.119206 0.729563
0.532841 0.115298 0.728923
0.660770 0.109723 0.728045
0.789522 0.102091 0.726906
0.918739 0.091812 0.725486
1.048242 0.077875 0.723768
0.125740 0.249015 0.729145
0.190873 0.248757 0.729051
0.294718 0.248098 0.728813
0.413538 0.246917 0.728387
0.537846 0.245128 0.727746
0.664577 0.242650 0.726865
0.792546 0.239399 0.725724
0.921219 0.235286 0.724301
1.050324 0.230210 0.722579
0.166069 0.374001 0.727044
0.219009 0.373841 0.726950
0.312648 0.373435 0.726710
0.425654 0.372708 0.726283
0.546629 0.371613 0.725640
0.671299 0.370103 0.724756
0.797903 0.368138 0.723610
0.925619 0.365677 0.722182
1.054025 0.362679 0.720454
0.212263 0.498889 0.723868
0.254986 0.498778 0.723773
0.337527 0.498494 0.723532
0.443119 0.497987 0.723103
0.559516 0.497222 0.722455
0.681253 0.496172 0.721566
0.805875 0.494808 0.720414
0.932189 0.493105 0.718978
1.059562 0.491040 0.717239
0.261613 0.623740 0.719480
0.296442 0.623656 0.719385
0.368432 0.623442 0.719142
0.465768 0.623061 0.718709
0.576602 0.622487 0.718057
0.694608 0.621698 0.717161
0.816647 0.620675 0.715999
0.941104 0.619400 0.714552
1.067096 0.617857 0.712799
0.312753 0.748571 0.713751
0.341601 0.748505 0.713655
0.404258 0.748336 0.713410
0.493172 0.748035 0.712972
0.597795 0.747582 0.712313
0.711411 0.746960 0.711407
0.830315 0.746154 0.710233
0.952476 0.745150 0.708770
1.076741 0.743936 0.706999
0.364970 0.873391 0.706544
0.389262 0.873337 0.706447
0.443958 0.873200 0.706198
0.524771 0.872954 0.705755
0.622868 0.872584 0.705087
0.731607 0.872076 0.704169
0.846906 0.871418 0.702980
0.966368 0.870599 0.701497
1.088572 0.869610 0.699702
0.417873 0.998206 0.697715
0.438645 0.998160 0.697615
0.486658 0.998045 0.697363
0.559967 0.997839 0.696912
0.651505 0.997529 0.696233
0.755060 0.997103 0.695300
0.866382 0.996553 0.694091
0.982794 0.995867 0.692584
1.102632 0.995039 0.690758
0.100446 -0.003425 0.836396
0.175330 -0.004755 0.836317
0.285473 -0.008140 0.836118
0.407458 -0.014177 0.835763
0.533490 -0.023261 0.835227
0.661262 -0.035722 0.834492
0.789913 -0.051848 0.833539
0.919060 -0.071895 0.832353
1.048510 -0.073059 0.830918
0.112518 0.123312 0.836010
0.182517 0.122766 0.835931
0.289686 0.121365 0.835732
0.410214 0.118826 0.835376
0.535460 0.114906 0.834840
0.662760 0.109312 0.834105
0.791102 0.101652 0.833151
0.920034 0.091330 0.831964
1.049329 0.077320 0.830528
0.138772 0.248841 0.835026
0.199559 0.248583 0.834947
0.300096 0.247923 0.834747
0.417128 0.246742 0.834391
0.540435 0.244951 0.833854
0.666553 0.242471 0.833118
0.794118 0.239217 0.832163
0.922509 0.235101 0.830974
1.051409 0.230020 0.829536
0.176081 0.373893 0.833267
0.226514 0.373734 0.833188
0.317669 0.373327 0.832988
0.429119 0.372601 0.832631
0.549165 0.371504 0.832093
0.673249 0.369994 0.831354
0.799461 0.368028 0.830396
0.926901 0.365567 0.829204
1.055105 0.362568 0.827762
0.220025 0.498814 0.830611
0.261330 0.498703 0.830532
0.342114 0.498419 0.830331
0.446417 0.497912 0.829972
0.561978 0.497147 0.829432
0.683166 0.496096 0.828690
0.807414 0.494732 0.827728
0.933460 0.493029 0.826531
1.060634 0.490964 0.825083
0.267777 0.623683 0.826950
0.301784 0.623599 0.826871
0.372563 0.623386 0.826668
0.468868 0.623004 0.826307
0.578972 0.622430 0.825764
0.696474 0.621641 0.825018
0.818159 0.620618 0.824050
0.942358 0.619344 0.822846
1.068158 0.617800 0.821389
0.317771 0.748526 0.822180
0.346123 0.748460 0.822100
0.407949 0.748291 0.821897
0.496059 0.747990 0.821533
0.600058 0.747537 0.820985
0.713221 0.746915 0.820233
0.831794 0.746109 0.819259
0.953711 0.745105 0.818045
1.077790 0.743891 0.816577
0.369148 0.873355 0.816200
0.393127 0.873301 0.816119
0.447248 0.873163 0.815913
0.527442 0.872917 0.815546
0.625015 0.872547 0.814993
0.733352 0.872039 0.814234
0.848347 0.871382 0.813250
0.967579 0.870563 0.812024
1.089607 0.869573 0.810542
0.421417 0.998175 0.808902
0.441984 0.998130 0.808821
0.489593 0.998014 0.808612
0.562427 0.997808 0.808241
0.653532 0.997498 0.807681
0.756735 0.997073 0.806913
0.867781 0.996522 0.805917
0.983979 0.995836 0.804677
1.103649 0.995008 0.803177
