滤镜资源/Professional Luts Collection/Lutify.me Professional/Utility LUTs/White Balance/4300 Kelvin - 2800 Kelvin - 0.95 CTB.cube
# Created by: Lutify.me
# Copyright: (c) Copyright Lutify.me 2015
# Website: https://lutify.me
LUT_3D_SIZE 5
0.000000 0.000000 0.000000
0.230303 0.009495 0.017753
0.464159 0.039946 0.068239
0.698014 0.082725 0.123752
0.931869 0.125496 0.179265
-0.073059 0.258603 0.078460
0.186767 0.260361 0.088810
0.446898 0.265911 0.116516
0.687901 0.276052 0.156414
0.924975 0.290941 0.202873
-0.073059 0.515654 0.187854
-0.073059 0.516417 0.192513
0.384937 0.518854 0.206687
0.654088 0.523423 0.230889
0.902394 0.530397 0.263511
-0.073059 0.772706 0.297248
-0.073059 0.773159 0.300038
0.210198 0.774611 0.308785
0.583106 0.777347 0.324564
0.857531 0.781558 0.347317
-0.073059 1.029757 0.406641
-0.073059 1.030068 0.408557
-0.073059 1.031063 0.414627
0.443957 1.032942 0.425813
0.781276 1.035840 0.442441
-0.017851 0.000409 0.354263
0.226478 0.009904 0.356528
0.462516 0.040355 0.363678
0.697039 0.082965 0.376747
0.931202 0.125661 0.395949
-0.073059 0.258679 0.365625
0.181921 0.260437 0.367805
0.445175 0.265985 0.374695
0.686908 0.276122 0.387313
0.924301 0.291007 0.405907
-0.073059 0.515687 0.399452
-0.073059 0.516450 0.401410
0.382863 0.518887 0.407611
0.653027 0.523456 0.419028
0.901697 0.530429 0.435976
-0.073059 0.772725 0.455236
-0.073059 0.773179 0.456902
0.205952 0.774631 0.462195
0.581877 0.777367 0.472001
0.856787 0.781577 0.486693
-0.073059 1.029770 0.527728
-0.073059 1.030081 0.529112
-0.073059 1.031077 0.533521
0.442220 1.032955 0.541732
0.780434 1.035854 0.554139
-0.073059 0.001720 0.689724
0.213689 0.011215 0.690707
0.457198 0.041636 0.693846
0.693901 0.083732 0.699732
0.929058 0.126188 0.708717
-0.073059 0.258922 0.694711
0.165354 0.260679 0.695685
0.439594 0.266221 0.698795
0.683709 0.276348 0.704627
0.922136 0.291220 0.713532
-0.073059 0.515793 0.710399
-0.073059 0.516555 0.711345
0.376119 0.518992 0.714367
0.649611 0.523559 0.720036
0.899460 0.530530 0.728697
-0.073059 0.772788 0.738888
-0.073059 0.773241 0.739787
0.191637 0.774693 0.742659
0.577911 0.777429 0.748051
0.854393 0.781639 0.756298
-0.073059 1.029813 0.780356
-0.073059 1.030124 0.781193
-0.073059 1.031119 0.783869
0.436592 1.032998 0.788896
0.777728 1.035896 0.796595
-0.073059 0.004200 1.025186
0.186848 0.013695 1.025770
0.446927 0.043992 1.027640
0.687918 0.085166 1.031165
0.924987 0.127178 1.036588
-0.073059 0.259382 1.028157
0.128049 0.261135 1.028739
0.428794 0.266666 1.030602
0.677609 0.276775 1.034113
0.918024 0.291621 1.039516
-0.073059 0.515992 1.037609
-0.073059 0.516754 1.038184
0.362948 0.519189 1.040025
0.643089 0.523755 1.043493
0.895210 0.530723 1.048832
-0.073059 0.772906 1.055173
-0.073059 0.773360 1.055735
0.160814 0.774811 1.057536
0.570317 0.777547 1.060928
0.849843 0.781755 1.066151
-0.073059 1.029895 1.081617
-0.073059 1.030205 1.082161
-0.073059 1.031200 1.083903
0.425697 1.033079 1.087187
0.772577 1.035977 1.092243
-0.073059 0.008038 1.360647
0.134265 0.017533 1.361047
0.430422 0.047490 1.362329
0.678521 0.087345 1.364749
0.918638 0.128695 1.368483
-0.073059 0.260092 1.362684
0.025494 0.261840 1.363083
0.411378 0.267354 1.364362
0.668024 0.277433 1.366777
0.911611 0.292240 1.370503
-0.073059 0.516300 1.369187
-0.073059 0.517062 1.369584
0.341332 0.519495 1.370855
0.632822 0.524057 1.373255
0.888578 0.531020 1.376957
-0.073059 0.773090 1.381370
-0.073059 0.773543 1.381762
0.094662 0.774994 1.383019
0.558301 0.777728 1.385390
0.842737 0.781936 1.389049
-0.073059 1.030020 1.399947
-0.073059 1.030331 1.400332
-0.073059 1.031326 1.401566
0.408117 1.033204 1.403895
0.764514 1.036101 1.407490
