滤镜资源/Professional Luts Collection/Lutify.me Professional/Utility LUTs/White Balance/4300 Kelvin - 3200 Kelvin - 0.61 CTB.cube
# Created by: Lutify.me
# Copyright: (c) Copyright Lutify.me 2015
# Website: https://lutify.me
LUT_3D_SIZE 9
0.000000 0.000000 0.000000
0.117407 0.001664 0.002826
0.237135 0.005898 0.010020
0.356862 0.013450 0.022849
0.476589 0.024815 0.042106
0.596316 0.040405 0.063976
0.716044 0.057943 0.085847
0.835771 0.075481 0.107717
0.955498 0.093019 0.129588
-0.032142 0.127713 0.014271
0.102732 0.128370 0.017097
0.230426 0.130029 0.024290
0.352752 0.132936 0.037119
0.473723 0.137196 0.054649
0.594163 0.142834 0.073719
0.714345 0.149811 0.093678
0.834384 0.158045 0.114186
0.954336 0.167428 0.135047
-0.073059 0.254597 0.049778
0.052015 0.254912 0.052178
0.212268 0.255711 0.057971
0.342021 0.257129 0.067379
0.466329 0.259246 0.079877
0.588637 0.262119 0.094758
0.709997 0.265782 0.111383
0.830838 0.270256 0.129260
0.951368 0.275546 0.148039
-0.073059 0.381481 0.092720
-0.073059 0.381676 0.094217
0.174706 0.382171 0.097936
0.321804 0.383052 0.104271
0.452765 0.384372 0.113188
0.578612 0.386175 0.124437
0.702155 0.388493 0.137672
0.824466 0.391351 0.152530
0.946045 0.394767 0.168688
-0.073059 0.508365 0.135662
-0.073059 0.508501 0.136713
0.091610 0.508848 0.139352
0.288152 0.509465 0.143937
0.431340 0.510392 0.150571
0.563095 0.511660 0.159210
0.690136 0.513296 0.169714
0.814753 0.515319 0.181882
0.937960 0.517749 0.195495
-0.073059 0.635249 0.178604
-0.073059 0.635352 0.179396
-0.073059 0.635613 0.181395
0.232628 0.636077 0.184902
0.399602 0.636776 0.190048
0.540876 0.637733 0.196870
0.673193 0.638968 0.205332
0.801177 0.640500 0.215342
0.926716 0.642342 0.226775
-0.073059 0.762133 0.221546
-0.073059 0.762214 0.222172
-0.073059 0.762420 0.223756
0.123314 0.762787 0.226549
0.353241 0.763339 0.230682
0.510278 0.764096 0.236218
0.650412 0.765073 0.243170
0.783148 0.766286 0.251508
0.911892 0.767747 0.261170
-0.073059 0.889017 0.264488
-0.073059 0.889083 0.265000
-0.073059 0.889252 0.266296
-0.073059 0.889552 0.268591
0.282604 0.890003 0.272001
0.468664 0.890622 0.276600
0.620571 0.891421 0.282422
0.759948 0.892414 0.289470
0.893008 0.893610 0.297717
-0.073059 1.015901 0.307430
-0.073059 1.015957 0.307859
-0.073059 1.016098 0.308947
-0.073059 1.016349 0.310877
0.150164 1.016728 0.313754
0.411264 1.017246 0.317650
0.581886 1.017917 0.322609
0.730647 1.018750 0.328650
0.869484 1.019754 0.335769
-0.002860 0.000068 0.162133
0.116172 0.001732 0.163010
0.236546 0.005967 0.165219
0.356498 0.013519 0.169085
0.476335 0.024883 0.174732
0.596125 0.040472 0.182176
0.715893 0.057996 0.191348
0.835648 0.075524 0.202124
0.955395 0.093055 0.214344
-0.035002 0.127740 0.166511
0.101331 0.128397 0.167363
0.229819 0.130056 0.169513
0.352384 0.132962 0.173278
0.473467 0.137222 0.178784
0.593971 0.142858 0.186055
0.714193 0.149834 0.195030
0.834260 0.158067 0.205595
0.954232 0.167448 0.217600
-0.073059 0.254610 0.177141
0.049580 0.254925 0.177940
0.211602 0.255724 0.179956
0.341639 0.257142 0.183492
0.466068 0.259259 0.188680
0.588442 0.262131 0.195554
0.709844 0.265794 0.204076
0.830714 0.270269 0.214151
0.951264 0.275558 0.225651
-0.073059 0.381489 0.194569
-0.073059 0.381684 0.195291
0.173882 0.382179 0.197116
0.321392 0.383060 0.200326
0.452494 0.384380 0.205052
0.578413 0.386183 0.211345
0.702000 0.388501 0.219193
0.824341 0.391359 0.228530
0.945941 0.394775 0.239258
-0.073059 0.508371 0.217972
-0.073059 0.508507 0.218609
0.090056 0.508853 0.220221
0.287682 0.509471 0.223065
0.431052 0.510398 0.227268
0.562889 0.511666 0.232896
0.689978 0.513301 0.239958
0.814626 0.515325 0.248419
0.937854 0.517755 0.258214
-0.073059 0.635253 0.246112
-0.073059 0.635356 0.246667
-0.073059 0.635617 0.248075
0.232027 0.636082 0.250563
0.399285 0.636780 0.254255
0.540660 0.637737 0.259221
0.673029 0.638972 0.265488
0.801046 0.640504 0.273048
0.926608 0.642346 0.281861
-0.073059 0.762137 0.277807
-0.073059 0.762218 0.278290
-0.073059 0.762424 0.279516
0.122136 0.762791 0.281685
0.352873 0.763343 0.284914
0.510045 0.764099 0.289274
0.650241 0.765077 0.294804
0.783013 0.766289 0.301512
0.911782 0.767750 0.309382
-0.073059 0.889020 0.312109
-0.073059 0.889086 0.312530
-0.073059 0.889254 0.313599
-0.073059 0.889555 0.315495
0.282124 0.890006 0.318322
0.468405 0.890624 0.322153
0.620389 0.891424 0.327030
0.759809 0.892417 0.332975
0.892895 0.893613 0.339986
-0.073059 1.015904 0.348313
-0.073059 1.015959 0.348682
-0.073059 1.016100 0.349620
-0.073059 1.016352 0.351285
0.149197 1.016730 0.353773
0.410959 1.017249 0.357151
0.581689 1.017919 0.361466
0.730500 1.018752 0.366745
0.869367 1.019757 0.372997
-0.010141 0.000242 0.312919
0.112970 0.001905 0.313339
0.235041 0.006140 0.314405
0.355571 0.013692 0.316295
0.475687 0.025057 0.319114
0.595638 0.040643 0.322933
0.715508 0.058131 0.327797
0.835334 0.075634 0.333726
0.955132 0.093147 0.340718
-0.042283 0.127809 0.315033
0.097684 0.128466 0.315449
0.228264 0.130123 0.316507
0.351444 0.133028 0.318382
0.472815 0.137286 0.321179
0.593482 0.142919 0.324969
0.713808 0.149892 0.329797
0.833945 0.158122 0.335683
0.953969 0.167501 0.342628
-0.073059 0.254643 0.320337
0.042993 0.254958 0.320746
0.209894 0.255757 0.321782
0.340662 0.257174 0.323621
0.465402 0.259291 0.326365
0.587947 0.262163 0.330084
0.709455 0.265826 0.334824
0.830398 0.270299 0.340605
0.951000 0.275588 0.347432
-0.073059 0.381509 0.329545
-0.073059 0.381704 0.329940
0.171764 0.382199 0.330942
0.320342 0.383080 0.332720
0.451803 0.384400 0.335375
0.577907 0.386203 0.338976
0.701606 0.388521 0.343569
0.824021 0.391378 0.349177
0.945674 0.394795 0.355805
-0.073059 0.508385 0.342847
-0.073059 0.508521 0.343223
0.085992 0.508868 0.344179
0.286484 0.509485 0.345876
0.430318 0.510412 0.348410
0.562365 0.511680 0.351851
0.689574 0.513315 0.356244
0.814301 0.515339 0.361615
0.937584 0.517769 0.367973
-0.073059 0.635264 0.360139
-0.073059 0.635367 0.360494
-0.073059 0.635627 0.361395
0.230489 0.636092 0.362994
0.398478 0.636791 0.365386
0.540108 0.637748 0.368636
0.672613 0.638983 0.372790
0.800714 0.640514 0.377877
0.926334 0.642357 0.383908
-0.073059 0.762145 0.381121
-0.073059 0.762226 0.381452
-0.073059 0.762432 0.382293
0.119087 0.762799 0.383787
0.351934 0.763351 0.386022
0.509450 0.764108 0.389063
0.649806 0.765085 0.392955
0.782671 0.766298 0.397728
0.911502 0.767759 0.403398
-0.073059 0.889027 0.405380
-0.073059 0.889093 0.405687
-0.073059 0.889261 0.406466
-0.073059 0.889561 0.407853
0.280898 0.890013 0.409928
0.467743 0.890631 0.412753
0.619927 0.891431 0.416375
0.759453 0.892423 0.420823
0.892607 0.893620 0.426117
-0.073059 1.015909 0.432469
-0.073059 1.015965 0.432752
-0.073059 1.016106 0.433472
-0.073059 1.016357 0.434753
0.146707 1.016736 0.436671
0.410180 1.017254 0.439285
0.581186 1.017925 0.442640
0.730125 1.018758 0.446766
0.869069 1.019762 0.451685
-0.023126 0.000551 0.463706
0.107037 0.002215 0.463966
0.232330 0.006450 0.464626
0.353911 0.014002 0.465801
0.474529 0.025366 0.467561
0.594768 0.040946 0.469963
0.714822 0.058370 0.473048
0.834773 0.075830 0.476849
0.954662 0.093312 0.481387
-0.055268 0.127931 0.465016
0.090858 0.128588 0.465274
0.225460 0.130243 0.465932
0.349759 0.133146 0.467103
0.471648 0.137400 0.468857
0.592608 0.143029 0.471251
0.713119 0.149997 0.474325
0.833384 0.158221 0.478113
0.953498 0.167594 0.482636
-0.073059 0.254701 0.468328
0.030100 0.255016 0.468585
0.206811 0.255815 0.469237
0.338913 0.257232 0.470397
0.464212 0.259349 0.472136
0.587062 0.262219 0.474509
0.708761 0.265881 0.477557
0.829833 0.270354 0.481313
0.950527 0.275641 0.485799
-0.073059 0.381546 0.474164
-0.073059 0.381740 0.474417
0.167917 0.382235 0.475059
0.318458 0.383116 0.476201
0.450568 0.384436 0.477914
0.577003 0.386239 0.480251
0.700902 0.388556 0.483254
0.823450 0.391413 0.486955
0.945198 0.394829 0.491376
-0.073059 0.508410 0.482780
-0.073059 0.508547 0.483027
0.078307 0.508893 0.483655
0.284331 0.509510 0.484772
0.429006 0.510437 0.486447
0.561428 0.511705 0.488732
0.688854 0.513340 0.491671
0.813721 0.515364 0.495293
0.937103 0.517793 0.499621
-0.073059 0.635283 0.494294
-0.073059 0.635386 0.494534
-0.073059 0.635647 0.495143
0.227716 0.636111 0.496228
0.397035 0.636810 0.497854
0.539122 0.637767 0.500075
0.671869 0.639002 0.502930
0.800122 0.640533 0.506451
0.925845 0.642376 0.510660
-0.073059 0.762160 0.508710
-0.073059 0.762241 0.508941
-0.073059 0.762447 0.509529
0.113456 0.762814 0.510575
0.350253 0.763366 0.512144
0.508389 0.764123 0.514287
0.649028 0.765100 0.517043
0.782061 0.766313 0.520444
0.911002 0.767774 0.524513
-0.073059 0.889039 0.525941
-0.073059 0.889105 0.526163
-0.073059 0.889274 0.526727
-0.073059 0.889574 0.527730
0.278694 0.890025 0.529235
0.466561 0.890643 0.531291
0.619100 0.891443 0.533937
0.758818 0.892436 0.537202
0.892093 0.893632 0.541112
-0.073059 1.015920 0.545835
-0.073059 1.015975 0.546046
-0.073059 1.016116 0.546584
-0.073059 1.016368 0.547541
0.142157 1.016746 0.548978
0.408787 1.017265 0.550940
0.580288 1.017935 0.553467
0.729457 1.018768 0.556588
0.868537 1.019773 0.560327
-0.042666 0.001017 0.614493
0.097489 0.002681 0.614674
0.228181 0.006916 0.615137
0.351394 0.014468 0.615960
0.472780 0.025832 0.617196
0.593456 0.041399 0.618887
0.713787 0.058730 0.621066
0.833929 0.076124 0.623761
0.953955 0.093558 0.626995
-0.073059 0.128115 0.615410
0.079650 0.128771 0.615591
0.221166 0.130424 0.616052
0.347206 0.133323 0.616874
0.469885 0.137571 0.618108
0.591289 0.143194 0.619795
0.712082 0.150154 0.621970
0.832537 0.158370 0.624660
0.952790 0.167733 0.627888
-0.073059 0.254790 0.617735
0.010561 0.255104 0.617916
0.202073 0.255903 0.618375
0.336260 0.257319 0.619193
0.462414 0.259435 0.620421
0.585728 0.262305 0.622100
0.707715 0.265965 0.624265
0.828982 0.270436 0.626942
0.949816 0.275722 0.630155
-0.073059 0.381600 0.621856
-0.073059 0.381795 0.622035
0.161946 0.382290 0.622490
0.315597 0.383170 0.623301
0.448701 0.384490 0.624518
0.575639 0.386292 0.626184
0.699840 0.388609 0.628330
0.822590 0.391466 0.630985
0.944481 0.394882 0.634172
-0.073059 0.508448 0.627991
-0.073059 0.508585 0.628168
0.065410 0.508931 0.628617
0.281055 0.509548 0.629418
0.427021 0.510475 0.630620
0.560015 0.511743 0.632265
0.687769 0.513378 0.634385
0.812848 0.515401 0.637008
0.936378 0.517831 0.640156
-0.073059 0.635312 0.636283
-0.073059 0.635414 0.636457
-0.073059 0.635675 0.636899
0.223470 0.636140 0.637686
0.394849 0.636838 0.638869
0.537634 0.637795 0.640486
0.670748 0.639030 0.642571
0.799229 0.640562 0.645151
0.925108 0.642404 0.648249
-0.073059 0.762183 0.646812
-0.073059 0.762264 0.646982
-0.073059 0.762470 0.647415
0.104448 0.762837 0.648186
0.347704 0.763389 0.649343
0.506785 0.764145 0.650927
0.647856 0.765123 0.652970
0.781141 0.766335 0.655497
0.910250 0.767796 0.658532
-0.073059 0.889058 0.659600
-0.073059 0.889124 0.659766
-0.073059 0.889292 0.660188
-0.073059 0.889592 0.660940
0.275340 0.890043 0.662069
0.464774 0.890662 0.663613
0.617854 0.891461 0.665605
0.757861 0.892454 0.668071
0.891320 0.893651 0.671033
-0.073059 1.015935 0.674624
-0.073059 1.015991 0.674785
-0.073059 1.016132 0.675195
-0.073059 1.016383 0.675925
0.135018 1.016762 0.677022
0.406679 1.017280 0.678523
0.578934 1.017951 0.680458
0.728449 1.018784 0.682855
0.867736 1.019788 0.685734
-0.069470 0.001656 0.765279
0.082839 0.003320 0.765416
0.222348 0.007555 0.765764
0.347906 0.015107 0.766384
0.470368 0.026471 0.767316
0.591650 0.042016 0.768591
0.712365 0.059220 0.770238
0.832769 0.076526 0.772279
0.952983 0.093896 0.774734
-0.073059 0.128368 0.765969
0.061731 0.129022 0.766106
0.215118 0.130672 0.766454
0.343666 0.133566 0.767073
0.467454 0.137806 0.768004
0.589475 0.143419 0.769278
0.710655 0.150369 0.770923
0.831375 0.158573 0.772961
0.951817 0.167925 0.775413
-0.073059 0.254910 0.767723
-0.016244 0.255225 0.767859
0.195368 0.256023 0.768205
0.332579 0.257439 0.768823
0.459933 0.259553 0.769751
0.583891 0.262422 0.771021
0.706277 0.266080 0.772661
0.827812 0.270549 0.774694
0.948839 0.275832 0.777138
-0.073059 0.381675 0.770836
-0.073059 0.381870 0.770972
0.153360 0.382364 0.771316
0.311622 0.383244 0.771931
0.446124 0.384564 0.772854
0.573760 0.386366 0.774118
0.698381 0.388683 0.775749
0.821409 0.391539 0.777771
0.943497 0.394953 0.780203
-0.073059 0.508501 0.775491
-0.073059 0.508637 0.775626
0.043700 0.508983 0.775967
0.276487 0.509600 0.776577
0.424280 0.510527 0.777493
0.558070 0.511795 0.778747
0.686276 0.513430 0.780366
0.811648 0.515453 0.782372
0.935382 0.517882 0.784785
-0.073059 0.635351 0.781818
-0.073059 0.635454 0.781951
-0.073059 0.635715 0.782289
0.217495 0.636179 0.782892
0.391827 0.636878 0.783798
0.535584 0.637834 0.785039
0.669206 0.639069 0.786641
0.798002 0.640601 0.788627
0.924096 0.642443 0.791015
-0.073059 0.762214 0.789907
-0.073059 0.762295 0.790038
-0.073059 0.762501 0.790372
0.090789 0.762868 0.790967
0.344170 0.763420 0.791861
0.504576 0.764176 0.793085
0.646243 0.765153 0.794666
0.779877 0.766366 0.796625
0.909216 0.767827 0.798982
-0.073059 0.889083 0.799814
-0.073059 0.889149 0.799943
-0.073059 0.889318 0.800271
-0.073059 0.889618 0.800856
0.270659 0.890069 0.801736
0.462309 0.890687 0.802941
0.616139 0.891487 0.804496
0.756546 0.892479 0.806425
0.890257 0.893676 0.808744
-0.073059 1.015957 0.811564
-0.073059 1.016012 0.811690
-0.073059 1.016153 0.812012
-0.073059 1.016405 0.812587
0.124568 1.016783 0.813450
0.403766 1.017301 0.814632
0.577070 1.017972 0.816158
0.727064 1.018805 0.818051
0.866635 1.019809 0.820327
-0.073059 0.002483 0.916066
0.059822 0.004147 0.916174
0.214534 0.008382 0.916449
0.343328 0.015934 0.916938
0.467222 0.027298 0.917675
0.589302 0.042806 0.918684
0.710519 0.059850 0.919987
0.831264 0.077044 0.921604
0.951724 0.094332 0.923551
-0.073059 0.128693 0.916611
0.030884 0.129346 0.916719
0.206999 0.130992 0.916993
0.339019 0.133879 0.917483
0.464284 0.138110 0.918219
0.587116 0.143711 0.919227
0.708803 0.150647 0.920529
0.829867 0.158837 0.922145
0.950556 0.168173 0.924090
-0.073059 0.255067 0.917996
-0.050930 0.255381 0.918104
0.186298 0.256178 0.918378
0.327742 0.257593 0.918867
0.456697 0.259706 0.919601
0.581503 0.262573 0.920607
0.704410 0.266229 0.921907
0.826296 0.270695 0.923519
0.947572 0.275974 0.925461
-0.073059 0.381772 0.920461
-0.073059 0.381966 0.920568
0.141455 0.382461 0.920841
0.306387 0.383341 0.921328
0.442762 0.384660 0.922059
0.571318 0.386461 0.923062
0.696487 0.388777 0.924357
0.819877 0.391633 0.925964
0.942221 0.395046 0.927899
-0.073059 0.508568 0.924152
-0.073059 0.508705 0.924259
0.009148 0.509051 0.924531
0.270442 0.509668 0.925015
0.420699 0.510594 0.925743
0.555539 0.511862 0.926740
0.684338 0.513497 0.928028
0.810092 0.515519 0.929627
0.934091 0.517948 0.931552
-0.073059 0.635402 0.929185
-0.073059 0.635505 0.929291
-0.073059 0.635765 0.929560
0.209478 0.636230 0.930041
0.387874 0.636928 0.930764
0.532917 0.637885 0.931754
0.667203 0.639120 0.933033
0.796411 0.640651 0.934620
0.922785 0.642493 0.936532
-0.073059 0.762254 0.935644
-0.073059 0.762335 0.935749
-0.073059 0.762541 0.936017
0.069883 0.762908 0.936493
0.339531 0.763460 0.937209
0.501698 0.764216 0.938190
0.644148 0.765193 0.939458
0.778237 0.766406 0.941031
0.907876 0.767867 0.942925
-0.073059 0.889116 0.943593
-0.073059 0.889182 0.943697
-0.073059 0.889350 0.943961
-0.073059 0.889650 0.944432
0.264458 0.890102 0.945141
0.459094 0.890720 0.946111
0.613911 0.891520 0.947365
0.754839 0.892512 0.948920
0.888879 0.893708 0.950794
-0.073059 1.015984 0.953073
-0.073059 1.016040 0.953176
-0.073059 1.016181 0.953437
-0.073059 1.016432 0.953901
0.109628 1.016810 0.954600
0.399957 1.017329 0.955558
0.574645 1.018000 0.956795
0.725267 1.018832 0.958330
0.865207 1.019837 0.960180
-0.073059 0.003511 1.066853
0.019905 0.005175 1.066941
0.204354 0.009410 1.067165
0.337532 0.016962 1.067566
0.463275 0.028326 1.068167
0.586367 0.043776 1.068992
0.708216 0.060626 1.070059
0.829389 0.077683 1.071382
0.950156 0.094870 1.072978
-0.073059 0.129097 1.067298
-0.012237 0.129747 1.067386
0.196386 0.131389 1.067611
0.333133 0.134267 1.068011
0.460305 0.138486 1.068612
0.584166 0.144073 1.069437
0.706492 0.150991 1.070502
0.827987 0.159163 1.071825
0.948985 0.168481 1.073420
-0.073059 0.255261 1.068431
-0.073059 0.255575 1.068519
0.174311 0.256372 1.068743
0.321607 0.257785 1.069142
0.452635 0.259896 1.069743
0.578517 0.262760 1.070566
0.702081 0.266414 1.071631
0.824406 0.270876 1.072952
0.945995 0.276152 1.074544
-0.073059 0.381892 1.070446
-0.073059 0.382086 1.070534
0.125077 0.382581 1.070758
0.299727 0.383460 1.071156
0.438538 0.384779 1.071755
0.568263 0.386580 1.072577
0.694123 0.388895 1.073638
0.817968 0.391749 1.074956
0.940632 0.395161 1.076544
-0.073059 0.508653 1.073470
-0.073059 0.508789 1.073558
-0.033973 0.509135 1.073781
0.262701 0.509752 1.074178
0.416195 0.510678 1.074775
0.552372 0.511945 1.075593
0.681919 0.513580 1.076651
0.808152 0.515602 1.077963
0.932484 0.518030 1.079546
-0.073059 0.635466 1.077600
-0.073059 0.635568 1.077688
-0.073059 0.635829 1.077909
0.199011 0.636293 1.078304
0.382889 0.636992 1.078898
0.529577 0.637948 1.079712
0.664703 0.639183 1.080764
0.794427 0.640714 1.082071
0.921151 0.642555 1.083645
-0.073059 0.762304 1.082914
-0.073059 0.762385 1.083000
-0.073059 0.762591 1.083220
0.033981 0.762958 1.083613
0.333656 0.763510 1.084203
0.498091 0.764266 1.085012
0.641531 0.765243 1.086057
0.776192 0.766456 1.087355
0.906207 0.767916 1.088919
-0.073059 0.889157 1.089471
-0.073059 0.889223 1.089557
-0.073059 0.889391 1.089775
-0.073059 0.889691 1.090165
0.256507 0.890142 1.090750
0.455058 0.890761 1.091552
0.611126 0.891560 1.092589
0.752711 0.892553 1.093877
0.887163 0.893749 1.095429
-0.073059 1.016018 1.097318
-0.073059 1.016074 1.097403
-0.073059 1.016215 1.097619
-0.073059 1.016466 1.098005
0.087890 1.016845 1.098585
0.395159 1.017363 1.099379
0.571613 1.018034 1.100407
0.723024 1.018867 1.101682
0.863428 1.019871 1.103219
-0.073059 0.004753 1.217639
-0.032153 0.006416 1.217713
0.191266 0.010651 1.217901
0.330371 0.018203 1.218237
0.458452 0.029568 1.218742
0.582797 0.044930 1.219433
0.705422 0.061554 1.220328
0.827117 0.078450 1.221439
0.948258 0.095517 1.222778
-0.073059 0.129582 1.218012
-0.064294 0.130231 1.218086
0.182673 0.131866 1.218275
0.325855 0.134734 1.218610
0.455443 0.138939 1.219114
0.580580 0.144508 1.219806
0.703689 0.151407 1.220700
0.825711 0.159556 1.221811
0.947084 0.168851 1.223149
-0.073059 0.255495 1.218962
-0.073059 0.255809 1.219036
0.158556 0.256605 1.219224
0.314008 0.258017 1.219559
0.447668 0.260126 1.220063
0.574885 0.262987 1.220754
0.699255 0.266637 1.221647
0.822116 0.271095 1.222756
0.944086 0.276365 1.224093
-0.073059 0.382037 1.220653
-0.073059 0.382231 1.220727
0.101996 0.382725 1.220914
0.291445 0.383605 1.221249
0.433369 0.384923 1.221752
0.564547 0.386723 1.222441
0.691255 0.389037 1.223333
0.815654 0.391890 1.224440
0.938708 0.395300 1.225775
-0.073059 0.508754 1.223192
-0.073059 0.508890 1.223265
-0.073059 0.509236 1.223453
0.252988 0.509853 1.223786
0.410675 0.510779 1.224288
0.548518 0.512046 1.224975
0.678984 0.513680 1.225864
0.805802 0.515702 1.226969
0.930538 0.518129 1.228300
-0.073059 0.635542 1.226663
-0.073059 0.635644 1.226736
-0.073059 0.635905 1.226923
0.185510 0.636370 1.227255
0.376763 0.637068 1.227755
0.525510 0.638024 1.228440
0.661669 0.639259 1.229326
0.792023 0.640789 1.230426
0.919174 0.642631 1.231752
-0.073059 0.762364 1.231136
-0.073059 0.762445 1.231209
-0.073059 0.762651 1.231394
-0.018076 0.763018 1.231725
0.326393 0.763570 1.232222
0.493692 0.764326 1.232904
0.638353 0.765303 1.233785
0.773714 0.766516 1.234880
0.904186 0.767976 1.236200
-0.073059 0.889206 1.236666
-0.073059 0.889272 1.236738
-0.073059 0.889441 1.236923
-0.073059 0.889741 1.237251
0.246512 0.890192 1.237746
0.450125 0.890810 1.238423
0.607743 0.891609 1.239299
0.750131 0.892602 1.240388
0.885084 0.893798 1.241699
-0.073059 1.016060 1.243298
-0.073059 1.016115 1.243370
-0.073059 1.016256 1.243553
-0.073059 1.016508 1.243879
0.053049 1.016886 1.244370
0.389269 1.017404 1.245043
0.567925 1.018075 1.245913
0.720305 1.018908 1.246993
0.861274 1.019912 1.248296
