滤镜资源/Professional Luts Collection/Lutify.me Professional/Utility LUTs/White Balance/4300 Kelvin - 2800 Kelvin - 0.95 CTB.cube
# Created by: Lutify.me
# Copyright: (c) Copyright Lutify.me 2015
# Website: https://lutify.me
LUT_3D_SIZE 33
0.000000 0.000000 0.000000
0.026624 0.000451 0.000844
0.054912 0.000962 0.001799
0.084144 0.001695 0.003168
0.113376 0.002678 0.005007
0.142608 0.003933 0.007353
0.171840 0.005476 0.010239
0.201072 0.007325 0.013696
0.230303 0.009495 0.017753
0.259535 0.012000 0.022436
0.288767 0.014852 0.027769
0.317999 0.018066 0.033778
0.347231 0.021652 0.040482
0.376463 0.025622 0.047422
0.405695 0.029988 0.054361
0.434927 0.034759 0.061300
0.464159 0.039946 0.068239
0.493391 0.045299 0.075178
0.522622 0.050646 0.082117
0.551854 0.055992 0.089056
0.581086 0.061339 0.095995
0.610318 0.066685 0.102935
0.639550 0.072032 0.109874
0.668782 0.077378 0.116813
0.698014 0.082725 0.123752
0.727246 0.088071 0.130691
0.756478 0.093417 0.137630
0.785710 0.098764 0.144569
0.814942 0.104110 0.151508
0.844173 0.109457 0.158448
0.873405 0.114803 0.165387
0.902637 0.120150 0.172326
0.931869 0.125496 0.179265
-0.008731 0.033407 0.004299
0.017893 0.033859 0.005143
0.047522 0.034370 0.006098
0.078944 0.035102 0.007468
0.109434 0.036085 0.009306
0.139474 0.037340 0.011652
0.169264 0.038884 0.014538
0.198903 0.040727 0.017995
0.228442 0.042820 0.022052
0.257913 0.045160 0.026735
0.287335 0.047735 0.032068
0.316723 0.050532 0.038077
0.346083 0.053536 0.044583
0.375423 0.056731 0.051155
0.404746 0.060102 0.057779
0.434056 0.063636 0.064446
0.463356 0.067317 0.071146
0.492647 0.071132 0.077876
0.521932 0.075071 0.084630
0.551210 0.079121 0.091405
0.580483 0.083271 0.098197
0.609751 0.087514 0.105004
0.639017 0.091840 0.111824
0.668278 0.096241 0.118655
0.697537 0.100711 0.125496
0.726794 0.105244 0.132346
0.756049 0.109833 0.139203
0.785301 0.114474 0.146067
0.814552 0.119163 0.152936
0.843802 0.123895 0.159811
0.873050 0.128666 0.166691
0.902297 0.133474 0.173575
0.931543 0.138315 0.180463
-0.018610 0.065814 0.009164
0.008014 0.066133 0.010008
0.038140 0.066492 0.010963
0.072697 0.067004 0.012332
0.104807 0.067687 0.014171
0.135840 0.068551 0.016517
0.166299 0.069602 0.019403
0.196417 0.070845 0.022860
0.226314 0.072282 0.026917
0.256062 0.073913 0.031599
0.285705 0.075737 0.036933
0.315271 0.077749 0.042857
0.344778 0.079946 0.048956
0.374241 0.082320 0.055170
0.403669 0.084867 0.061481
0.433069 0.087578 0.067871
0.462446 0.090445 0.074327
0.491805 0.093461 0.080840
0.521148 0.096618 0.087400
0.550479 0.099907 0.094001
0.579799 0.103320 0.100636
0.609109 0.106850 0.107302
0.638412 0.110490 0.113993
0.667708 0.114232 0.120707
0.696998 0.118070 0.127442
0.726283 0.121996 0.134194
0.755563 0.126006 0.140961
0.784839 0.130093 0.147742
0.814112 0.134252 0.154536
0.843381 0.138478 0.161340
0.872648 0.142767 0.168155
0.901912 0.147115 0.174978
0.931174 0.151517 0.181809
-0.032775 0.097946 0.016139
-0.006152 0.098175 0.016983
0.023974 0.098433 0.017938
0.062911 0.098803 0.019308
0.097825 0.099298 0.021146
0.130454 0.099926 0.023492
0.161948 0.100694 0.026378
0.192791 0.101606 0.029835
0.223223 0.102668 0.033892
0.253382 0.103881 0.038575
0.283348 0.105247 0.043769
0.313175 0.106767 0.049191
0.342897 0.108439 0.054809
0.372539 0.110264 0.060593
0.402118 0.112237 0.066517
0.431648 0.114358 0.072561
0.461137 0.116622 0.078706
0.490593 0.119025 0.084938
0.520023 0.121564 0.091244
0.549429 0.124234 0.097615
0.578816 0.127029 0.104043
0.608187 0.129946 0.110518
0.637544 0.132978 0.117037
0.666889 0.136122 0.123593
0.696223 0.139371 0.130182
0.725548 0.142721 0.136800
0.754865 0.146168 0.143444
0.784175 0.149705 0.150112
0.813479 0.153329 0.156800
0.842777 0.157036 0.163506
0.872070 0.160820 0.170230
0.901359 0.164678 0.176968
0.930644 0.168606 0.183720
-0.051797 0.130077 0.025506
-0.025174 0.130253 0.026350
0.004953 0.130451 0.027305
0.047638 0.130735 0.028674
0.087682 0.131115 0.030513
0.122858 0.131598 0.032859
0.155906 0.132191 0.035745
0.187802 0.132897 0.039202
0.218996 0.133721 0.043157
0.249730 0.134666 0.047452
0.280147 0.135734 0.052056
0.310334 0.136928 0.056930
0.340351 0.138247 0.062041
0.370238 0.139694 0.067357
0.400024 0.141267 0.072852
0.429731 0.142967 0.078502
0.459372 0.144792 0.084287
0.488961 0.146740 0.090189
0.518506 0.148811 0.096194
0.548015 0.151001 0.102289
0.577493 0.153309 0.108462
0.606946 0.155731 0.114705
0.636376 0.158265 0.121009
0.665787 0.160907 0.127368
0.695181 0.163655 0.133774
0.724560 0.166504 0.140224
0.753927 0.169452 0.146712
0.783283 0.172495 0.153234
0.812629 0.175630 0.159787
0.841965 0.178853 0.166368
0.871294 0.182161 0.172975
0.900616 0.185550 0.179604
0.929932 0.189018 0.186253
-0.073059 0.162208 0.037454
-0.049438 0.162349 0.038298
-0.019312 0.162507 0.039253
0.023886 0.162735 0.040619
0.073059 0.163039 0.042399
0.112453 0.163427 0.044606
0.147828 0.163902 0.047231
0.181222 0.164470 0.050255
0.213467 0.165133 0.053656
0.244982 0.165896 0.057406
0.276000 0.166760 0.061473
0.306665 0.167728 0.065829
0.337070 0.168801 0.070445
0.367278 0.169980 0.075292
0.397334 0.171268 0.080345
0.427269 0.172663 0.085582
0.457108 0.174166 0.090981
0.486868 0.175777 0.096525
0.516564 0.177496 0.102196
0.546205 0.179321 0.107982
0.575801 0.181252 0.113868
0.605358 0.183287 0.119845
0.634882 0.185425 0.125901
0.664378 0.187664 0.132030
0.693849 0.190002 0.138223
0.723298 0.192437 0.144473
0.752729 0.194967 0.150775
0.782143 0.197590 0.157125
0.811542 0.200303 0.163516
0.840928 0.203105 0.169946
0.870303 0.205992 0.176410
0.899667 0.208962 0.182906
0.929022 0.212012 0.189431
-0.073059 0.194340 0.051112
-0.073059 0.194456 0.051824
-0.049166 0.194586 0.052622
-0.005969 0.194774 0.053752
0.051013 0.195025 0.055244
0.098258 0.195345 0.057106
0.137225 0.195738 0.059341
0.172756 0.196208 0.061939
0.206438 0.196757 0.064888
0.238991 0.197390 0.068171
0.270795 0.198107 0.071767
0.302077 0.198912 0.075654
0.332979 0.199806 0.079810
0.363595 0.200791 0.084210
0.393992 0.201867 0.088834
0.424217 0.203037 0.093660
0.454303 0.204300 0.098669
0.484278 0.205657 0.103844
0.514161 0.207108 0.109167
0.543967 0.208653 0.114625
0.573709 0.210293 0.120204
0.603396 0.212025 0.125891
0.633037 0.213851 0.131677
0.662638 0.215768 0.137552
0.692205 0.217777 0.143506
0.721741 0.219875 0.149533
0.751251 0.222063 0.155626
0.780737 0.224337 0.161778
0.810203 0.226698 0.167985
0.839650 0.229143 0.174241
0.869081 0.231670 0.180542
0.898498 0.234279 0.186884
0.927901 0.236967 0.193264
-0.073059 0.226471 0.064786
-0.073059 0.226569 0.065388
-0.073059 0.226679 0.066064
-0.041731 0.226838 0.067024
0.016275 0.227050 0.068296
0.078362 0.227320 0.069893
0.123333 0.227653 0.071820
0.161996 0.228050 0.074075
0.197654 0.228515 0.076653
0.231581 0.229051 0.079544
0.264403 0.229659 0.082734
0.296471 0.230342 0.086208
0.327998 0.231102 0.089948
0.359123 0.231940 0.093938
0.389943 0.232857 0.098158
0.420524 0.233855 0.102592
0.450915 0.234934 0.107223
0.481152 0.236096 0.112033
0.511264 0.237340 0.117007
0.541271 0.238668 0.122132
0.571190 0.240079 0.127394
0.601036 0.241573 0.132781
0.630819 0.243151 0.138282
0.660547 0.244812 0.143887
0.690229 0.246555 0.149587
0.719870 0.248381 0.155373
0.749475 0.250288 0.161238
0.779049 0.252276 0.167175
0.808595 0.254344 0.173178
0.838116 0.256491 0.179242
0.867615 0.258717 0.185361
0.897095 0.261019 0.191532
0.926557 0.263397 0.197749
-0.073059 0.258603 0.078460
-0.073059 0.258687 0.078978
-0.073059 0.258782 0.079560
-0.073059 0.258918 0.080389
-0.025689 0.259100 0.081491
0.047774 0.259333 0.082879
0.104807 0.259619 0.084560
0.148331 0.259961 0.086538
0.186767 0.260361 0.088810
0.222529 0.260823 0.091372
0.256667 0.261348 0.094215
0.289728 0.261937 0.097330
0.322034 0.262593 0.100704
0.353788 0.263318 0.104324
0.385125 0.264111 0.108175
0.416139 0.264975 0.112244
0.446898 0.265911 0.116516
0.477451 0.266920 0.120977
0.507837 0.268001 0.125612
0.538085 0.269156 0.130409
0.568217 0.270386 0.135355
0.598251 0.271690 0.140440
0.628203 0.273069 0.145651
0.658083 0.274523 0.150979
0.687901 0.276052 0.156414
0.717666 0.277655 0.161948
0.747384 0.279333 0.167573
0.777061 0.281085 0.173283
0.806702 0.282911 0.179069
0.836311 0.284810 0.184926
0.865890 0.286782 0.190850
0.895444 0.288826 0.196833
0.924975 0.290941 0.202873
-0.073059 0.290734 0.092135
-0.073059 0.290807 0.092586
-0.073059 0.290890 0.093095
-0.073059 0.291009 0.093821
-0.073059 0.291168 0.094787
-0.000137 0.291371 0.096007
0.078752 0.291621 0.097490
0.130759 0.291920 0.099240
0.173279 0.292270 0.101259
0.211538 0.292673 0.103544
0.247388 0.293132 0.106093
0.281708 0.293648 0.108898
0.314982 0.294222 0.111951
0.347506 0.294856 0.115242
0.379470 0.295552 0.118761
0.411005 0.296310 0.122496
0.442204 0.297131 0.126435
0.473134 0.298017 0.130567
0.503846 0.298968 0.134880
0.534377 0.299985 0.139362
0.564760 0.301068 0.144001
0.595016 0.302218 0.148788
0.625165 0.303436 0.153711
0.655223 0.304721 0.158761
0.685201 0.306074 0.163929
0.715111 0.307495 0.169207
0.744961 0.308984 0.174586
0.774759 0.310540 0.180060
0.804510 0.312165 0.185620
0.834220 0.313857 0.191262
0.863894 0.315616 0.196979
0.893534 0.317442 0.202765
0.923145 0.319334 0.208616
-0.073059 0.322866 0.105809
-0.073059 0.322930 0.106208
-0.073059 0.323003 0.106658
-0.073059 0.323108 0.107300
-0.073059 0.323249 0.108157
-0.055311 0.323428 0.109240
0.035728 0.323649 0.110560
0.107377 0.323913 0.112122
0.156412 0.324222 0.113929
0.198191 0.324579 0.115982
0.236309 0.324985 0.118279
0.272234 0.325441 0.120817
0.306713 0.325949 0.123589
0.340178 0.326511 0.126590
0.372900 0.327127 0.129812
0.405059 0.327799 0.133245
0.436781 0.328528 0.136880
0.468155 0.329314 0.140708
0.499250 0.330159 0.144719
0.530114 0.331063 0.148902
0.560789 0.332026 0.153249
0.591303 0.333050 0.157748
0.621682 0.334135 0.162391
0.651945 0.335281 0.167168
0.682109 0.336488 0.172072
0.712187 0.337758 0.177093
0.742189 0.339089 0.182225
0.772126 0.340483 0.187460
0.802004 0.341938 0.192790
0.831831 0.343456 0.198211
0.861612 0.345036 0.203715
0.891352 0.346678 0.209297
0.921055 0.348381 0.214952
-0.073059 0.354997 0.119483
-0.073059 0.355055 0.119839
-0.073059 0.355120 0.120241
-0.073059 0.355213 0.120815
-0.073059 0.355339 0.121581
-0.073059 0.355499 0.122552
-0.026424 0.355696 0.123737
0.073539 0.355932 0.125141
0.134816 0.356208 0.126770
0.181866 0.356526 0.128625
0.223077 0.356889 0.130707
0.261081 0.357296 0.133014
0.297070 0.357751 0.135542
0.331690 0.358253 0.138287
0.365326 0.358804 0.141244
0.398230 0.359405 0.144406
0.430570 0.360057 0.147766
0.462467 0.360761 0.151315
0.494008 0.361518 0.155046
0.525260 0.362328 0.158951
0.556272 0.363193 0.163021
0.587084 0.364112 0.167246
0.617728 0.365086 0.171620
0.648228 0.366116 0.176134
0.678604 0.367202 0.180780
0.708874 0.368344 0.185550
0.739050 0.369543 0.190437
0.769145 0.370800 0.195434
0.799169 0.372113 0.200534
0.829129 0.373483 0.205732
0.859032 0.374911 0.211020
0.888885 0.376396 0.216394
0.918694 0.377938 0.221848
-0.073059 0.387128 0.133157
-0.073059 0.387180 0.133478
-0.073059 0.387239 0.133839
-0.073059 0.387323 0.134356
-0.073059 0.387436 0.135048
-0.073059 0.387580 0.135924
-0.073059 0.387757 0.136995
0.013269 0.387970 0.138267
0.105708 0.388218 0.139744
0.161556 0.388505 0.141431
0.207183 0.388831 0.143327
0.247944 0.389199 0.145434
0.285852 0.389608 0.147748
0.321897 0.390061 0.150269
0.356642 0.390557 0.152990
0.390434 0.391100 0.155909
0.423504 0.391688 0.159020
0.456013 0.392323 0.162316
0.488074 0.393007 0.165790
0.519773 0.393738 0.169437
0.551175 0.394519 0.173248
0.582330 0.395350 0.177217
0.613277 0.396231 0.181336
0.644046 0.397163 0.185597
0.674665 0.398147 0.189995
0.705152 0.399182 0.194521
0.735526 0.400269 0.199170
0.765801 0.401408 0.203933
0.795989 0.402600 0.208806
0.826099 0.403845 0.213782
0.856141 0.405143 0.218854
0.886122 0.406493 0.224019
0.916048 0.407897 0.229270
-0.073059 0.419260 0.146831
-0.073059 0.419307 0.147122
-0.073059 0.419360 0.147450
-0.073059 0.419436 0.147919
-0.073059 0.419539 0.148547
-0.073059 0.419669 0.149343
-0.073059 0.419830 0.150318
-0.063524 0.420022 0.151476
0.060891 0.420248 0.152824
0.135401 0.420508 0.154365
0.187846 0.420804 0.156102
0.232401 0.421137 0.158034
0.272796 0.421509 0.160161
0.310623 0.421920 0.162483
0.346718 0.422371 0.164996
0.381574 0.422863 0.167698
0.415508 0.423397 0.170584
0.448732 0.423975 0.173649
0.481397 0.424596 0.176889
0.513613 0.425261 0.180298
0.545462 0.425971 0.183870
0.577008 0.426727 0.187598
0.608299 0.427529 0.191477
0.639376 0.428378 0.195501
0.670268 0.429274 0.199662
0.701002 0.430217 0.203954
0.731599 0.431208 0.208372
0.762076 0.432248 0.212909
0.792448 0.433336 0.217559
0.822728 0.434473 0.222317
0.852925 0.435658 0.227177
0.883049 0.436893 0.232134
0.913108 0.438178 0.237183
-0.073059 0.451391 0.160506
-0.073059 0.451434 0.160771
-0.073059 0.451483 0.161070
-0.073059 0.451552 0.161499
-0.073059 0.451646 0.162072
-0.073059 0.451765 0.162800
-0.073059 0.451912 0.163692
-0.073059 0.452087 0.164753
-0.019992 0.452293 0.165989
0.099113 0.452530 0.167404
0.163734 0.452801 0.169001
0.213828 0.453105 0.170780
0.257545 0.453444 0.172744
0.297636 0.453819 0.174890
0.335394 0.454231 0.177218
0.371533 0.454681 0.179725
0.406490 0.455169 0.182409
0.440552 0.455697 0.185266
0.473918 0.456265 0.188292
0.506729 0.456873 0.191483
0.539091 0.457523 0.194833
0.571083 0.458215 0.198339
0.602766 0.458949 0.201993
0.634189 0.459726 0.205792
0.665390 0.460546 0.209729
0.696402 0.461411 0.213799
0.727249 0.462319 0.217996
0.757953 0.463273 0.222315
0.788532 0.464271 0.226750
0.819000 0.465314 0.231296
0.849371 0.466403 0.235949
0.879654 0.467537 0.240702
0.909860 0.468718 0.245551
-0.073059 0.483523 0.174180
-0.073059 0.483562 0.174423
-0.073059 0.483607 0.174698
-0.073059 0.483671 0.175091
-0.073059 0.483756 0.175618
-0.073059 0.483866 0.176287
-0.073059 0.484000 0.177107
-0.073059 0.484161 0.178084
-0.073059 0.484350 0.179223
0.035443 0.484568 0.180528
0.132198 0.484816 0.182002
0.191222 0.485095 0.183648
0.239587 0.485407 0.185466
0.282631 0.485751 0.187456
0.322468 0.486130 0.189619
0.360165 0.486543 0.191952
0.396343 0.486991 0.194454
0.431391 0.487476 0.197122
0.465571 0.487998 0.199954
0.499069 0.488557 0.202945
0.532017 0.489155 0.206092
0.564516 0.489791 0.209391
0.596643 0.490466 0.212837
0.628457 0.491181 0.216425
0.660006 0.491937 0.220152
0.691329 0.492733 0.224011
0.722456 0.493569 0.227998
0.753413 0.494448 0.232109
0.784222 0.495367 0.236337
0.814900 0.496329 0.240679
0.845463 0.497334 0.245130
0.875924 0.498380 0.249684
0.906293 0.499470 0.254338
-0.073059 0.515654 0.187854
-0.073059 0.515691 0.188078
-0.073059 0.515732 0.188332
-0.073059 0.515790 0.188695
-0.073059 0.515870 0.189181
-0.073059 0.515970 0.189799
-0.073059 0.516094 0.190556
-0.073059 0.516243 0.191459
-0.073059 0.516417 0.192513
-0.064878 0.516618 0.193722
0.086112 0.516847 0.195089
0.162785 0.517105 0.196616
0.218143 0.517392 0.198305
0.265181 0.517710 0.200157
0.307673 0.518059 0.202172
0.347292 0.518440 0.204349
0.384937 0.518854 0.206687
0.421149 0.519302 0.209184
0.456280 0.519784 0.211838
0.490569 0.520300 0.214647
0.524188 0.520852 0.217607
0.557265 0.521440 0.220715
0.589893 0.522064 0.223967
0.622148 0.522725 0.227360
0.654088 0.523423 0.230889
0.685758 0.524159 0.234550
0.717198 0.524933 0.238339
0.748437 0.525746 0.242251
0.779501 0.526597 0.246282
0.810413 0.527488 0.250428
0.841188 0.528418 0.254685
0.871844 0.529387 0.259047
0.902394 0.530397 0.263511
-0.073059 0.547786 0.201528
-0.073059 0.547819 0.201736
-0.073059 0.547857 0.201971
-0.073059 0.547912 0.202307
-0.073059 0.547985 0.202758
-0.073059 0.548078 0.203331
-0.073059 0.548193 0.204033
-0.073059 0.548331 0.204872
-0.073059 0.548492 0.205850
-0.073059 0.548679 0.206974
-0.005178 0.548891 0.208245
0.124575 0.549129 0.209668
0.191910 0.549396 0.211242
0.244662 0.549690 0.212970
0.290649 0.550014 0.214853
0.332678 0.550367 0.216889
0.372109 0.550751 0.219079
0.409708 0.551166 0.221421
0.445952 0.551613 0.223914
0.481158 0.552092 0.226556
0.515547 0.552604 0.229345
0.549280 0.553149 0.232277
0.582477 0.553728 0.235350
0.615228 0.554341 0.238560
0.647605 0.554989 0.241904
0.679664 0.555673 0.245379
0.711451 0.556392 0.248981
0.743003 0.557146 0.252706
0.774351 0.557937 0.256549
0.805520 0.558765 0.260508
0.836531 0.559629 0.264578
0.867402 0.560531 0.268756
0.898149 0.561470 0.273036
-0.073059 0.579917 0.215202
-0.073059 0.579948 0.215396
-0.073059 0.579984 0.215614
-0.073059 0.580034 0.215927
-0.073059 0.580103 0.216346
-0.073059 0.580189 0.216879
-0.073059 0.580296 0.217534
-0.073059 0.580424 0.218315
-0.073059 0.580574 0.219227
-0.073059 0.580747 0.220275
-0.073059 0.580945 0.221462
0.063070 0.581167 0.222790
0.158386 0.581414 0.224262
0.220087 0.581688 0.225879
0.270884 0.581990 0.227643
0.316017 0.582318 0.229552
0.357655 0.582676 0.231608
0.396921 0.583062 0.233810
0.434479 0.583478 0.236156
0.470751 0.583924 0.238645
0.506027 0.584400 0.241276
0.540509 0.584908 0.244046
0.574348 0.585447 0.246953
0.607658 0.586018 0.249994
0.640524 0.586622 0.253166
0.673017 0.587259 0.256467
0.705191 0.587929 0.259893
0.737090 0.588632 0.263441
0.768751 0.589370 0.267107
0.800203 0.590141 0.270888
0.831473 0.590948 0.274780
0.862582 0.591789 0.278780
0.893547 0.592665 0.282885
-0.073059 0.612048 0.228877
-0.073059 0.612078 0.229057
-0.073059 0.612111 0.229261
-0.073059 0.612158 0.229553
-0.073059 0.612222 0.229944
-0.073059 0.612303 0.230442
-0.073059 0.612402 0.231054
-0.073059 0.612522 0.231784
-0.073059 0.612662 0.232637
-0.073059 0.612824 0.233617
-0.073059 0.613008 0.234728
-0.058163 0.613215 0.235973
0.111315 0.613446 0.237353
0.189730 0.613702 0.238870
0.247607 0.613983 0.240526
0.296881 0.614290 0.242321
0.341306 0.614624 0.244255
0.382607 0.614984 0.246329
0.421730 0.615373 0.248541
0.459250 0.615789 0.250891
0.495549 0.616235 0.253376
0.530888 0.616709 0.255997
0.565456 0.617213 0.258750
0.599394 0.617747 0.261634
0.632810 0.618311 0.264647
0.665786 0.618906 0.267785
0.698390 0.619532 0.271045
0.730673 0.620190 0.274426
0.762679 0.620880 0.277925
0.794445 0.621602 0.281537
0.825999 0.622356 0.285260
0.857367 0.623143 0.289091
0.888571 0.623963 0.293027
-0.073059 0.644180 0.242551
-0.073059 0.644207 0.242720
-0.073059 0.644238 0.242911
-0.073059 0.644282 0.243184
-0.073059 0.644342 0.243551
-0.073059 0.644418 0.244017
-0.073059 0.644511 0.244590
-0.073059 0.644623 0.245275
-0.073059 0.644754 0.246075
-0.073059 0.644906 0.246995
-0.073059 0.645078 0.248038
-0.073059 0.645272 0.249207
0.019041 0.645489 0.250504
0.149966 0.645728 0.251931
0.219554 0.645992 0.253490
0.274649 0.646279 0.255181
0.322702 0.646592 0.257005
0.366531 0.646930 0.258961
0.407540 0.647293 0.261051
0.446534 0.647684 0.263272
0.484021 0.648101 0.265625
0.520344 0.648545 0.268108
0.555741 0.649018 0.270719
0.590390 0.649518 0.273458
0.624421 0.650047 0.276321
0.657937 0.650605 0.279307
0.691017 0.651193 0.282413
0.723726 0.651810 0.285637
0.756114 0.652457 0.288977
0.788223 0.653134 0.292430
0.820090 0.653841 0.295993
0.851743 0.654580 0.299663
0.883207 0.655350 0.303438
-0.073059 0.676311 0.256225
-0.073059 0.676337 0.256384
-0.073059 0.676366 0.256563
-0.073059 0.676408 0.256820
-0.073059 0.676464 0.257164
-0.073059 0.676535 0.257603
-0.073059 0.676622 0.258141
-0.073059 0.676727 0.258784
-0.073059 0.676851 0.259537
-0.073059 0.676993 0.260402
-0.073059 0.677155 0.261384
-0.073059 0.677337 0.262485
-0.073059 0.677540 0.263707
0.089801 0.677765 0.265053
0.184367 0.678013 0.266523
0.248359 0.678283 0.268120
0.301332 0.678577 0.269843
0.348383 0.678894 0.271693
0.391703 0.679236 0.273670
0.432455 0.679603 0.275774
0.471335 0.679995 0.278004
0.508793 0.680413 0.280360
0.545137 0.680856 0.282840
0.580589 0.681327 0.285443
0.615312 0.681824 0.288167
0.649430 0.682349 0.291011
0.683041 0.682901 0.293973
0.716220 0.683481 0.297050
0.749029 0.684090 0.300241
0.781517 0.684727 0.303544
0.813726 0.685393 0.306955
0.845690 0.686088 0.310472
0.877438 0.686812 0.314093
-0.073059 0.708443 0.269899
-0.073059 0.708467 0.270049
-0.073059 0.708494 0.270217
-0.073059 0.708533 0.270459
-0.073059 0.708586 0.270784
-0.073059 0.708653 0.271197
-0.073059 0.708736 0.271704
-0.073059 0.708835 0.272310
-0.073059 0.708951 0.273020
-0.073059 0.709085 0.273836
-0.073059 0.709237 0.274762
-0.073059 0.709409 0.275801
-0.073059 0.709600 0.276956
-0.042348 0.709812 0.278227
0.136508 0.710045 0.279617
0.216356 0.710300 0.281127
0.276439 0.710576 0.282758
0.327736 0.710875 0.284511
0.373950 0.711197 0.286385
0.416831 0.711543 0.288381
0.457357 0.711912 0.290498
0.496134 0.712306 0.292736
0.533564 0.712724 0.295094
0.569928 0.713168 0.297572
0.605430 0.713636 0.300167
0.640223 0.714131 0.302879
0.674424 0.714651 0.305705
0.708124 0.715198 0.308645
0.741397 0.715772 0.311696
0.774301 0.716373 0.314856
0.806886 0.717001 0.318123
0.839191 0.717656 0.321496
0.871249 0.718340 0.324971
-0.073059 0.740574 0.283573
-0.073059 0.740597 0.283714
-0.073059 0.740623 0.283874
-0.073059 0.740660 0.284102
-0.073059 0.740709 0.284408
-0.073059 0.740773 0.284799
-0.073059 0.740851 0.285278
-0.073059 0.740944 0.285851
-0.073059 0.741054 0.286521
-0.073059 0.741180 0.287292
-0.073059 0.741324 0.288168
-0.073059 0.741486 0.289151
-0.073059 0.741667 0.290243
-0.073059 0.741867 0.291447
0.052295 0.742087 0.292764
0.175308 0.742327 0.294195
0.246801 0.742588 0.295742
0.303981 0.742871 0.297404
0.353921 0.743175 0.299184
0.399424 0.743501 0.301080
0.441921 0.743850 0.303093
0.482245 0.744222 0.305223
0.520930 0.744617 0.307468
0.558335 0.745036 0.309829
0.594718 0.745479 0.312304
0.630267 0.745946 0.314892
0.665126 0.746438 0.317592
0.699404 0.746955 0.320403
0.733189 0.747497 0.323322
0.766551 0.748065 0.326348
0.799546 0.748658 0.329480
0.832223 0.749278 0.332715
0.864620 0.749924 0.336052
-0.073059 0.772706 0.297248
-0.073059 0.772727 0.297381
-0.073059 0.772752 0.297532
-0.073059 0.772787 0.297748
-0.073059 0.772834 0.298038
-0.073059 0.772894 0.298407
-0.073059 0.772967 0.298861
-0.073059 0.773056 0.299403
-0.073059 0.773159 0.300038
-0.073059 0.773279 0.300769
-0.073059 0.773415 0.301598
-0.073059 0.773568 0.302530
-0.073059 0.773739 0.303566
-0.073059 0.773929 0.304708
-0.073059 0.774137 0.305957
0.116029 0.774364 0.307316
0.210198 0.774611 0.308785
0.276177 0.774879 0.310365
0.331110 0.775167 0.312058
0.379927 0.775475 0.313862
0.424821 0.775806 0.315779
0.466980 0.776158 0.317808
0.507124 0.776532 0.319949
0.545724 0.776928 0.322201
0.583106 0.777347 0.324564
0.619506 0.777790 0.327036
0.655099 0.778256 0.329618
0.690019 0.778745 0.332307
0.724370 0.779259 0.335103
0.758236 0.779796 0.338003
0.791683 0.780359 0.341007
0.824766 0.780946 0.344112
0.857531 0.781558 0.347317
-0.073059 0.804837 0.310922
-0.073059 0.804858 0.311048
-0.073059 0.804881 0.311191
-0.073059 0.804914 0.311396
-0.073059 0.804958 0.311671
-0.073059 0.805015 0.312021
-0.073059 0.805085 0.312451
-0.073059 0.805169 0.312966
-0.073059 0.805267 0.313568
-0.073059 0.805380 0.314262
-0.073059 0.805510 0.315050
-0.073059 0.805655 0.315935
-0.073059 0.805817 0.316918
-0.073059 0.805997 0.318003
-0.073059 0.806194 0.319191
-0.016529 0.806410 0.320484
0.161695 0.806644 0.321881
0.242745 0.806898 0.323386
0.304777 0.807171 0.324998
0.357916 0.807464 0.326717
0.405788 0.807777 0.328544
0.450153 0.808111 0.330480
0.492012 0.808465 0.332524
0.531993 0.808842 0.334675
0.570516 0.809239 0.336933
0.607877 0.809659 0.339298
0.644294 0.810101 0.341769
0.679928 0.810565 0.344345
0.714905 0.811053 0.347024
0.749325 0.811563 0.349805
0.783267 0.812097 0.352688
0.816795 0.812654 0.355671
0.849962 0.813235 0.358752
-0.073059 0.836969 0.324596
-0.073059 0.836988 0.324716
-0.073059 0.837010 0.324852
-0.073059 0.837041 0.325047
-0.073059 0.837084 0.325308
-0.073059 0.837138 0.325641
-0.073059 0.837204 0.326049
-0.073059 0.837284 0.326538
-0.073059 0.837377 0.327111
-0.073059 0.837485 0.327771
-0.073059 0.837607 0.328520
-0.073059 0.837746 0.329362
-0.073059 0.837900 0.330298
-0.073059 0.838070 0.331331
-0.073059 0.838258 0.332462
-0.073059 0.838463 0.333693
0.083697 0.838685 0.335025
0.200617 0.838926 0.336459
