滤镜资源/Professional Luts Collection/Lutify.me Professional/Utility LUTs/White Balance/5500 Kelvin - 4300 Kelvin - 0.39 CTB.cube
# Created by: Lutify.me
# Copyright: (c) Copyright Lutify.me 2015
# Website: https://lutify.me
LUT_3D_SIZE 9
0.000000 0.000000 0.000000
0.120130 0.001030 0.001654
0.241747 0.003653 0.005865
0.363365 0.008329 0.013373
0.484983 0.015367 0.024673
0.606601 0.025021 0.040173
0.728219 0.037514 0.057673
0.849836 0.051863 0.075169
0.971454 0.066227 0.092665
-0.019893 0.126474 0.008306
0.111470 0.126885 0.009960
0.237713 0.127927 0.014171
0.360884 0.129763 0.021680
0.483251 0.132480 0.032979
0.605298 0.136120 0.047930
0.727191 0.140690 0.063904
0.848997 0.146171 0.080316
0.970751 0.152521 0.097009
-0.070527 0.252498 0.029449
0.085934 0.252694 0.031103
0.227074 0.253195 0.035313
0.354473 0.254084 0.042744
0.478805 0.255416 0.052762
0.601967 0.257229 0.064685
0.724565 0.259554 0.078000
0.846855 0.262412 0.092315
0.968956 0.265815 0.107348
-0.073059 0.378521 0.062898
0.012760 0.378643 0.064100
0.206563 0.378953 0.067084
0.342678 0.379504 0.072166
0.470746 0.380332 0.079317
0.595965 0.381464 0.088336
0.719853 0.382923 0.098943
0.843016 0.384727 0.110848
0.965746 0.386892 0.123791
-0.073059 0.504545 0.097171
-0.073059 0.504630 0.098014
0.170588 0.504847 0.100132
0.323943 0.505233 0.103811
0.458282 0.505813 0.109132
0.586785 0.506608 0.116062
0.712684 0.507634 0.124484
0.837197 0.508906 0.134238
0.960888 0.510437 0.145148
-0.073059 0.630568 0.131443
-0.073059 0.630633 0.132079
0.101398 0.630796 0.133683
0.295912 0.631086 0.136497
0.440460 0.631524 0.140626
0.573885 0.632123 0.146099
0.702696 0.632897 0.152886
0.829126 0.633857 0.160913
0.954170 0.635015 0.170079
-0.073059 0.756592 0.165716
-0.073059 0.756643 0.166218
-0.073059 0.756772 0.167489
0.254167 0.757001 0.169731
0.415974 0.757346 0.173047
0.556621 0.757820 0.177489
0.689489 0.758432 0.183066
0.818527 0.759192 0.189754
0.945383 0.760108 0.197502
-0.073059 0.882616 0.199989
-0.073059 0.882657 0.200399
-0.073059 0.882762 0.201440
0.187524 0.882950 0.203281
0.382797 0.883232 0.206018
0.534159 0.883619 0.209708
0.672600 0.884120 0.214380
0.805093 0.884741 0.220033
0.934306 0.885491 0.226648
-0.073059 1.008639 0.234262
-0.073059 1.008674 0.234606
-0.073059 1.008762 0.235479
0.017172 1.008919 0.237028
0.337342 1.009156 0.239337
0.505333 1.009481 0.242463
0.651450 1.009900 0.246442
0.788474 1.010422 0.251288
0.920697 1.011051 0.256999
-0.001681 0.000041 0.147599
0.119421 0.001071 0.148165
0.241409 0.003694 0.149595
0.363156 0.008370 0.152113
0.484837 0.015408 0.155822
0.606491 0.025062 0.160766
0.728132 0.037555 0.166938
0.849766 0.051898 0.174290
0.971395 0.066256 0.182749
-0.021574 0.126490 0.150419
0.110709 0.126902 0.150974
0.237368 0.127943 0.152377
0.360673 0.129779 0.154848
0.483104 0.132496 0.158491
0.605188 0.136135 0.163351
0.727104 0.140705 0.169425
0.848926 0.146185 0.176668
0.970691 0.152535 0.185010
-0.072208 0.252505 0.157362
0.084971 0.252702 0.157892
0.226711 0.253203 0.159233
0.354258 0.254092 0.161595
0.478657 0.255423 0.165084
0.601855 0.257237 0.169746
0.724478 0.259562 0.175586
0.846783 0.262420 0.182569
0.968897 0.265822 0.190634
-0.073059 0.378526 0.169013
0.011079 0.378648 0.169505
0.206160 0.378957 0.170750
0.342453 0.379509 0.172947
0.470594 0.380337 0.176199
0.595853 0.381469 0.180558
0.719765 0.382928 0.186036
0.842945 0.384732 0.192613
0.965686 0.386897 0.200240
-0.073059 0.504548 0.185095
-0.073059 0.504633 0.185542
0.170091 0.504850 0.186673
0.323703 0.505236 0.188672
0.458125 0.505817 0.191638
0.586671 0.506612 0.195628
0.712595 0.507638 0.200662
0.837124 0.508910 0.206732
0.960827 0.510440 0.213808
-0.073059 0.630571 0.204968
-0.073059 0.630635 0.205367
0.100567 0.630798 0.206380
0.295644 0.631089 0.208174
0.440296 0.631526 0.210840
0.573767 0.632125 0.214439
0.702605 0.632899 0.218998
0.829053 0.633860 0.224521
0.954109 0.635017 0.230992
-0.073059 0.756594 0.227891
-0.073059 0.756645 0.228246
-0.073059 0.756774 0.229147
0.253848 0.757003 0.230743
0.415797 0.757348 0.233123
0.556498 0.757822 0.236343
0.689396 0.758434 0.240438
0.818452 0.759194 0.245420
0.945321 0.760110 0.251284
-0.073059 0.882617 0.253187
-0.073059 0.882659 0.253502
-0.073059 0.882764 0.254302
0.187076 0.882952 0.255721
0.382601 0.883234 0.257839
0.534029 0.883621 0.260713
0.672504 0.884121 0.264378
0.805017 0.884743 0.268854
0.934243 0.885493 0.274145
-0.073059 1.008641 0.280301
-0.073059 1.008675 0.280581
-0.073059 1.008764 0.281292
0.015491 1.008921 0.282555
0.337114 1.009157 0.284443
0.505194 1.009482 0.287009
0.651350 1.009902 0.290291
0.788396 1.010423 0.294310
0.920633 1.011052 0.299078
-0.005960 0.000146 0.288293
0.117599 0.001176 0.288563
0.240547 0.003798 0.289251
0.362624 0.008475 0.290474
0.484465 0.015513 0.292302
0.606211 0.025167 0.294788
0.727911 0.037660 0.297969
0.849585 0.051986 0.301868
0.971243 0.066329 0.306497
-0.025853 0.126532 0.289650
0.108749 0.126943 0.289919
0.236488 0.127984 0.290603
0.360137 0.129820 0.291819
0.482730 0.132536 0.293637
0.604907 0.136174 0.296110
0.726882 0.140742 0.299274
0.848745 0.146221 0.303154
0.970540 0.152570 0.307760
-0.073059 0.252525 0.293071
0.082479 0.252722 0.293336
0.225784 0.253222 0.294011
0.353709 0.254112 0.295210
0.478278 0.255443 0.297004
0.601573 0.257256 0.299444
0.724256 0.259581 0.302567
0.846602 0.262439 0.306397
0.968745 0.265841 0.310947
-0.073059 0.378538 0.299057
0.006800 0.378660 0.299317
0.205129 0.378970 0.299976
0.341882 0.379521 0.301147
0.470208 0.380349 0.302899
0.595566 0.381481 0.305284
0.719540 0.382940 0.308337
0.842762 0.384744 0.312083
0.965533 0.386909 0.316536
-0.073059 0.504557 0.307808
-0.073059 0.504642 0.308059
0.168820 0.504859 0.308696
0.323092 0.505245 0.309828
0.457725 0.505825 0.311523
0.586379 0.506620 0.313829
0.712368 0.507646 0.316785
0.836940 0.508918 0.320414
0.960674 0.510449 0.324731
-0.073059 0.630578 0.319352
-0.073059 0.630642 0.319592
0.098423 0.630805 0.320202
0.294963 0.631095 0.321286
0.439876 0.631533 0.322909
0.573467 0.632132 0.325120
0.702373 0.632906 0.327954
0.828866 0.633866 0.331438
0.953954 0.635024 0.335585
-0.073059 0.756599 0.333589
-0.073059 0.756650 0.333816
-0.073059 0.756779 0.334395
0.253034 0.757008 0.335425
0.415346 0.757354 0.336966
0.556186 0.757827 0.339068
0.689159 0.758439 0.341764
0.818262 0.759199 0.345080
0.945164 0.760115 0.349034
-0.073059 0.882622 0.350328
-0.073059 0.882663 0.350542
-0.073059 0.882768 0.351088
0.185928 0.882956 0.352059
0.382102 0.883238 0.353514
0.533700 0.883625 0.355497
0.672259 0.884125 0.358045
0.804823 0.884747 0.361181
0.934084 0.885497 0.364925
-0.073059 1.008644 0.369327
-0.073059 1.008679 0.369529
-0.073059 1.008767 0.370041
0.011212 1.008924 0.370952
0.336531 1.009161 0.372317
0.504841 1.009485 0.374181
0.651094 1.009905 0.376575
0.788197 1.010426 0.379526
0.920471 1.011055 0.383052
-0.013592 0.000332 0.428986
0.114280 0.001362 0.429154
0.238999 0.003985 0.429580
0.361672 0.008661 0.430338
0.483800 0.015699 0.431476
0.605711 0.025353 0.433032
0.727516 0.037846 0.435034
0.849263 0.052142 0.437508
0.970974 0.066460 0.440471
-0.033484 0.126607 0.429826
0.105170 0.127018 0.429994
0.234910 0.128058 0.430419
0.359177 0.129893 0.431175
0.482062 0.132607 0.432311
0.604406 0.136243 0.433862
0.726487 0.140809 0.435860
0.848422 0.146286 0.438328
0.970269 0.152631 0.441284
-0.073059 0.252561 0.431956
0.077869 0.252758 0.432122
0.224120 0.253258 0.432545
0.352728 0.254147 0.433297
0.477603 0.255478 0.434425
0.601068 0.257291 0.435968
0.723859 0.259616 0.437953
0.846278 0.262473 0.440406
0.968474 0.265874 0.443346
-0.073059 0.378560 0.435722
-0.000832 0.378682 0.435887
0.203276 0.378992 0.436305
0.340859 0.379543 0.437049
0.469518 0.380371 0.438165
0.595055 0.381503 0.439691
0.719140 0.382962 0.441656
0.842437 0.384766 0.444084
0.965261 0.386930 0.446993
-0.073059 0.504572 0.441315
-0.073059 0.504657 0.441477
0.166529 0.504874 0.441888
0.321997 0.505260 0.442620
0.457011 0.505841 0.443719
0.585857 0.506635 0.445222
0.711962 0.507662 0.447156
0.836612 0.508934 0.449547
0.960400 0.510464 0.452412
-0.073059 0.630589 0.448846
-0.073059 0.630653 0.449004
0.094492 0.630816 0.449407
0.293743 0.631107 0.450124
0.439126 0.631544 0.451200
0.572930 0.632143 0.452672
0.701960 0.632917 0.454567
0.828534 0.633878 0.456910
0.953678 0.635035 0.459718
-0.073059 0.756608 0.458363
-0.073059 0.756659 0.458518
-0.073059 0.756788 0.458910
0.251574 0.757017 0.459609
0.414541 0.757363 0.460657
0.555628 0.757836 0.462091
0.688735 0.758448 0.463939
0.817924 0.759208 0.466223
0.944884 0.760124 0.468961
-0.073059 0.882629 0.469861
-0.073059 0.882670 0.470011
-0.073059 0.882776 0.470391
0.183863 0.882963 0.471069
0.381209 0.883245 0.472086
0.533112 0.883632 0.473476
0.671822 0.884133 0.475269
0.804478 0.884754 0.477485
0.933799 0.885504 0.480143
-0.073059 1.008651 0.483289
-0.073059 1.008685 0.483433
-0.073059 1.008773 0.483800
0.003580 1.008931 0.484454
0.335489 1.009167 0.485436
0.504210 1.009492 0.486779
0.650639 1.009911 0.488510
0.787841 1.010433 0.490651
0.920181 1.011062 0.493221
-0.025076 0.000613 0.569680
0.109107 0.001643 0.569797
0.236648 0.004265 0.570095
0.360234 0.008942 0.570626
0.482798 0.015980 0.571425
0.604958 0.025634 0.572518
0.726923 0.038127 0.573928
0.848778 0.052376 0.575675
0.970567 0.066657 0.577775
-0.044968 0.126719 0.570268
0.099563 0.127129 0.570385
0.232513 0.128169 0.570683
0.357727 0.130002 0.571213
0.481055 0.132714 0.572011
0.603651 0.136347 0.573102
0.725892 0.140910 0.574510
0.847937 0.146383 0.576255
0.969863 0.152724 0.578352
-0.073059 0.252615 0.571762
0.070477 0.252811 0.571878
0.221591 0.253311 0.572175
0.351246 0.254200 0.572704
0.476584 0.255531 0.573499
0.600308 0.257344 0.574586
0.723261 0.259668 0.575990
0.845791 0.262524 0.577729
0.968066 0.265925 0.579820
-0.073059 0.378594 0.574413
-0.012316 0.378715 0.574529
0.200452 0.379025 0.574824
0.339314 0.379576 0.575350
0.468477 0.380404 0.576140
0.594285 0.381536 0.577221
0.718537 0.382994 0.578617
0.841946 0.384798 0.580346
0.964852 0.386963 0.582424
-0.073059 0.504596 0.578374
-0.073059 0.504681 0.578489
0.163016 0.504897 0.578782
0.320342 0.505283 0.579303
0.455935 0.505864 0.580086
0.585071 0.506659 0.581158
0.711351 0.507685 0.582541
0.836117 0.508957 0.584256
0.959988 0.510487 0.586316
-0.073059 0.630607 0.583752
-0.073059 0.630671 0.583866
0.088287 0.630834 0.584155
0.291896 0.631124 0.584670
0.437994 0.631562 0.585444
0.572122 0.632161 0.586503
0.701338 0.632935 0.587871
0.828033 0.633895 0.589565
0.953261 0.635052 0.591602
-0.073059 0.756622 0.590619
-0.073059 0.756673 0.590731
-0.073059 0.756802 0.591015
0.249358 0.757031 0.591523
0.413325 0.757377 0.592285
0.554787 0.757850 0.593329
0.688098 0.758462 0.594676
0.817414 0.759222 0.596346
0.944463 0.760138 0.598354
-0.073059 0.882640 0.599015
-0.073059 0.882682 0.599125
-0.073059 0.882787 0.599404
0.180708 0.882975 0.599903
0.379861 0.883257 0.600652
0.532226 0.883644 0.601677
0.671163 0.884144 0.603000
0.803957 0.884766 0.604641
0.933372 0.885515 0.606613
-0.073059 1.008660 0.608954
-0.073059 1.008695 0.609062
-0.073059 1.008783 0.609336
-0.007904 1.008940 0.609824
0.333914 1.009177 0.610557
0.503258 1.009501 0.611561
0.649952 1.009921 0.612857
0.787306 1.010442 0.614464
0.919745 1.011071 0.616396
-0.040829 0.000997 0.710373
0.101616 0.002028 0.710462
0.233380 0.004650 0.710686
0.358250 0.009327 0.711086
0.481419 0.016365 0.711688
0.603924 0.026019 0.712511
0.726107 0.038512 0.713576
0.848112 0.052696 0.714896
0.970009 0.066926 0.716486
-0.060722 0.126872 0.710816
0.091373 0.127282 0.710904
0.229178 0.128321 0.711129
0.355726 0.130152 0.711528
0.479670 0.132861 0.712129
0.602614 0.136490 0.712952
0.725075 0.141048 0.714016
0.847270 0.146516 0.715335
0.969304 0.152852 0.716924
-0.073059 0.252688 0.711942
0.059217 0.252885 0.712029
0.218067 0.253385 0.712253
0.349199 0.254273 0.712652
0.475182 0.255604 0.713252
0.599263 0.257416 0.714073
0.722440 0.259739 0.715135
0.845122 0.262594 0.716451
0.967507 0.265994 0.718037
-0.073059 0.378639 0.713943
-0.028069 0.378761 0.714030
0.196506 0.379070 0.714253
0.337180 0.379621 0.714651
0.467045 0.380449 0.715248
0.593226 0.381581 0.716067
0.717709 0.383039 0.717124
0.841273 0.384843 0.718436
0.964290 0.387007 0.720016
-0.073059 0.504627 0.716940
-0.073059 0.504712 0.717028
0.158064 0.504929 0.717249
0.318054 0.505315 0.717645
0.454453 0.505895 0.718239
0.583991 0.506690 0.719053
0.710512 0.507716 0.720105
0.835438 0.508988 0.721410
0.959422 0.510518 0.722981
-0.073059 0.630631 0.721026
-0.073059 0.630695 0.721113
0.079109 0.630858 0.721333
0.289339 0.631148 0.721725
0.436435 0.631585 0.722315
0.571010 0.632184 0.723123
0.700483 0.632958 0.724167
0.827345 0.633919 0.725463
0.952690 0.635076 0.727023
-0.073059 0.756641 0.726269
-0.073059 0.756692 0.726355
-0.073059 0.756820 0.726573
0.246282 0.757050 0.726962
0.411650 0.757395 0.727546
0.553631 0.757869 0.728347
0.687221 0.758481 0.729381
0.816715 0.759241 0.730665
0.943885 0.760157 0.732210
-0.073059 0.882656 0.732719
-0.073059 0.882697 0.732804
-0.073059 0.882802 0.733020
0.176281 0.882990 0.733404
0.378002 0.883272 0.733982
0.531007 0.883659 0.734773
0.670258 0.884160 0.735796
0.803242 0.884781 0.737065
0.932784 0.885531 0.738593
-0.073059 1.008673 0.740409
-0.073059 1.008708 0.740493
-0.073059 1.008796 0.740705
-0.023657 1.008953 0.741084
0.331738 1.009190 0.741654
0.501950 1.009514 0.742435
0.649009 1.009934 0.743444
0.786571 1.010455 0.744696
0.919146 1.011084 0.746203
-0.061215 0.001495 0.851067
0.091106 0.002526 0.851137
0.229072 0.005148 0.851314
0.355663 0.009825 0.851630
0.479627 0.016863 0.852105
0.602581 0.026517 0.852756
0.725049 0.039010 0.853598
0.847249 0.053109 0.854643
0.969287 0.067273 0.855902
-0.073059 0.127071 0.851417
0.079714 0.127480 0.851486
0.224778 0.128517 0.851664
0.353116 0.130345 0.851979
0.477870 0.133050 0.852454
0.601267 0.136675 0.853105
0.724015 0.141227 0.853946
0.846406 0.146688 0.854991
0.968581 0.153016 0.856249
-0.073059 0.252783 0.852306
0.041808 0.252980 0.852375
0.213410 0.253479 0.852552
0.346530 0.254368 0.852868
0.473361 0.255697 0.853342
0.597907 0.257509 0.853992
0.721375 0.259831 0.854832
0.844255 0.262685 0.855875
0.966782 0.266084 0.857132
-0.073059 0.378698 0.853888
-0.048455 0.378820 0.853958
0.191267 0.379129 0.854134
0.334394 0.379680 0.854449
0.465183 0.380508 0.854922
0.591852 0.381639 0.855570
0.716635 0.383097 0.856408
0.840401 0.384901 0.857449
0.963561 0.387064 0.858703
-0.073059 0.504668 0.856263
-0.073059 0.504754 0.856332
0.151406 0.504970 0.856507
0.315065 0.505356 0.856821
0.452526 0.505937 0.857292
0.582589 0.506731 0.857938
0.709424 0.507757 0.858773
0.834558 0.509029 0.859810
0.958688 0.510559 0.861059
-0.073059 0.630662 0.859505
-0.073059 0.630726 0.859574
0.065736 0.630889 0.859749
0.285990 0.631179 0.860061
0.434408 0.631616 0.860530
0.569567 0.632215 0.861173
0.699375 0.632989 0.862004
0.826453 0.633950 0.863035
0.951950 0.635107 0.864279
-0.073059 0.756666 0.863678
-0.073059 0.756716 0.863746
-0.073059 0.756845 0.863920
0.242234 0.757075 0.864230
0.409469 0.757420 0.864696
0.552130 0.757893 0.865335
0.686085 0.758505 0.866161
0.815808 0.759265 0.867186
0.943135 0.760181 0.868421
-0.073059 0.882676 0.868829
-0.073059 0.882717 0.868896
-0.073059 0.882822 0.869069
0.170370 0.883010 0.869376
0.375579 0.883292 0.869839
0.529424 0.883679 0.870473
0.669085 0.884179 0.871292
0.802315 0.884801 0.872309
0.932023 0.885551 0.873535
-0.073059 1.008690 0.874994
-0.073059 1.008724 0.875061
-0.073059 1.008813 0.875232
-0.044043 1.008970 0.875536
0.328896 1.009206 0.875995
0.500250 1.009531 0.876622
0.647785 1.009950 0.877434
0.785618 1.010472 0.878442
0.918370 1.011101 0.879657
-0.073059 0.002115 0.991761
0.076347 0.003145 0.991818
0.223586 0.005767 0.991963
0.352414 0.010444 0.992221
0.477387 0.017482 0.992609
0.600907 0.027136 0.993141
0.723732 0.039629 0.993830
0.846175 0.053618 0.994685
0.968388 0.067702 0.995716
-0.073059 0.127317 0.992046
0.062885 0.127726 0.992103
0.219171 0.128760 0.992248
0.349838 0.130586 0.992506
0.475619 0.133286 0.992894
0.599588 0.136904 0.993427
0.722695 0.141449 0.994115
0.845330 0.146901 0.994969
0.967681 0.153221 0.996000
-0.073059 0.252901 0.992773
0.016502 0.253098 0.992830
0.207458 0.253597 0.992975
0.343176 0.254485 0.993232
0.471083 0.255814 0.993620
0.596215 0.257624 0.994152
0.720049 0.259946 0.994839
0.843176 0.262798 0.995693
0.965879 0.266195 0.996723
-0.073059 0.378771 0.994067
-0.073059 0.378893 0.994124
0.184528 0.379202 0.994268
0.330892 0.379753 0.994526
0.462855 0.380580 0.994913
0.590139 0.381712 0.995444
0.715297 0.383169 0.996130
0.839316 0.384972 0.996982
0.962655 0.387135 0.998010
-0.073059 0.504720 0.996011
-0.073059 0.504805 0.996067
0.142686 0.505021 0.996211
0.311300 0.505407 0.996468
0.450116 0.505988 0.996854
0.580841 0.506782 0.997383
0.708069 0.507808 0.998068
0.833462 0.509079 0.998918
0.957776 0.510609 0.999943
-0.073059 0.630700 0.998668
-0.073059 0.630764 0.998725
0.045481 0.630927 0.998868
0.281762 0.631218 0.999124
0.431872 0.631655 0.999509
0.567768 0.632254 1.000036
0.697994 0.633028 1.000718
0.825343 0.633988 1.001565
0.951029 0.635145 1.002587
-0.073059 0.756696 1.002093
-0.073059 0.756747 1.002150
-0.073059 0.756875 1.002292
0.237092 0.757105 1.002547
0.406739 0.757450 1.002930
0.550257 0.757924 1.003455
0.684670 0.758535 1.004134
0.814679 0.759295 1.004978
0.942203 0.760211 1.005994
-0.073059 0.882701 1.006330
-0.073059 0.882742 1.006386
-0.073059 0.882847 1.006528
0.162704 0.883035 1.006781
0.372540 0.883317 1.007162
0.527448 0.883704 1.007684
0.667622 0.884204 1.008359
0.801161 0.884826 1.009198
0.931076 0.885575 1.010209
-0.073059 1.008710 1.011413
-0.073059 1.008745 1.011469
-0.073059 1.008833 1.011610
-0.069387 1.008991 1.011861
0.325323 1.009227 1.012240
0.498126 1.009552 1.012758
0.646260 1.009971 1.013429
0.784432 1.010493 1.014262
0.917404 1.011121 1.015267
-0.073059 0.002862 1.132454
0.054657 0.003892 1.132502
0.216754 0.006515 1.132624
0.348443 0.011191 1.132840
0.474665 0.018229 1.133166
0.598877 0.027883 1.133612
0.722137 0.040376 1.134189
0.844876 0.054229 1.134906
0.967300 0.068218 1.135771
-0.073059 0.127614 1.132694
0.036541 0.128021 1.132742
0.212180 0.129054 1.132863
0.345831 0.130875 1.133079
0.472885 0.133569 1.133405
0.597553 0.137180 1.133851
0.721098 0.141716 1.134428
0.844029 0.147158 1.135145
0.966593 0.153467 1.136010
-0.073059 0.253044 1.133303
-0.014093 0.253240 1.133351
0.200011 0.253739 1.133472
0.339074 0.254626 1.133688
0.468316 0.255955 1.134013
0.594166 0.257764 1.134459
0.718444 0.260084 1.135036
0.841871 0.262935 1.135753
0.964788 0.266330 1.136617
-0.073059 0.378859 1.134388
-0.073059 0.378981 1.134436
0.176021 0.379290 1.134557
0.326603 0.379841 1.134773
0.460025 0.380668 1.135098
0.588062 0.381799 1.135543
0.713678 0.383256 1.136119
0.838002 0.385059 1.136835
0.961559 0.387221 1.137698
-0.073059 0.504781 1.136019
-0.073059 0.504867 1.136067
0.131382 0.505083 1.136187
0.306682 0.505469 1.136403
0.447185 0.506049 1.136727
0.578721 0.506843 1.137172
0.706428 0.507869 1.137747
0.832137 0.509140 1.138461
0.956673 0.510670 1.139322
-0.073059 0.630747 1.138251
-0.073059 0.630811 1.138298
0.015161 0.630974 1.138419
0.276557 0.631264 1.138634
0.428785 0.631701 1.138957
0.565585 0.632300 1.139400
0.696322 0.633074 1.139974
0.824001 0.634034 1.140686
0.949916 0.635191 1.141545
-0.073059 0.756733 1.141130
-0.073059 0.756783 1.141177
-0.073059 0.756912 1.141298
0.230710 0.757142 1.141512
0.403412 0.757487 1.141834
0.547985 0.757960 1.142276
0.682956 0.758572 1.142848
0.813313 0.759332 1.143557
0.941076 0.760248 1.144414
-0.073059 0.882731 1.144696
-0.073059 0.882772 1.144743
-0.073059 0.882877 1.144863
0.152914 0.883065 1.145076
0.368831 0.883347 1.145397
0.525049 0.883734 1.145837
0.665851 0.884234 1.146406
0.799765 0.884856 1.147113
0.929931 0.885605 1.147966
-0.073059 1.008736 1.148982
-0.073059 1.008770 1.149029
-0.073059 1.008858 1.149148
-0.073059 1.009016 1.149360
0.320945 1.009252 1.149679
0.495547 1.009577 1.150117
0.644413 1.009996 1.150683
0.782997 1.010518 1.151387
0.916236 1.011146 1.152235
