滤镜资源/Professional Luts Collection/Lutify.me Professional/Utility LUTs/White Balance/5500 Kelvin - 4300 Kelvin - 0.39 CTB.cube
# Created by: Lutify.me
# Copyright: (c) Copyright Lutify.me 2015
# Website: https://lutify.me
LUT_3D_SIZE 5
0.000000 0.000000 0.000000
0.241747 0.003653 0.005865
0.484983 0.015367 0.024673
0.728219 0.037514 0.057673
0.971454 0.066227 0.092665
-0.070527 0.252498 0.029449
0.227074 0.253195 0.035313
0.478805 0.255416 0.052762
0.724565 0.259554 0.078000
0.968956 0.265815 0.107348
-0.073059 0.504545 0.097171
0.170588 0.504847 0.100132
0.458282 0.505813 0.109132
0.712684 0.507634 0.124484
0.960888 0.510437 0.145148
-0.073059 0.756592 0.165716
-0.073059 0.756772 0.167489
0.415974 0.757346 0.173047
0.689489 0.758432 0.183066
0.945383 0.760108 0.197502
-0.073059 1.008639 0.234262
-0.073059 1.008762 0.235479
0.337342 1.009156 0.239337
0.651450 1.009900 0.246442
0.920697 1.011051 0.256999
-0.005960 0.000146 0.288293
0.240547 0.003798 0.289251
0.484465 0.015513 0.292302
0.727911 0.037660 0.297969
0.971243 0.066329 0.306497
-0.073059 0.252525 0.293071
0.225784 0.253222 0.294011
0.478278 0.255443 0.297004
0.724256 0.259581 0.302567
0.968745 0.265841 0.310947
-0.073059 0.504557 0.307808
0.168820 0.504859 0.308696
0.457725 0.505825 0.311523
0.712368 0.507646 0.316785
0.960674 0.510449 0.324731
-0.073059 0.756599 0.333589
-0.073059 0.756779 0.334395
0.415346 0.757354 0.336966
0.689159 0.758439 0.341764
0.945164 0.760115 0.349034
-0.073059 1.008644 0.369327
-0.073059 1.008767 0.370041
0.336531 1.009161 0.372317
0.651094 1.009905 0.376575
0.920471 1.011055 0.383052
-0.025076 0.000613 0.569680
0.236648 0.004265 0.570095
0.482798 0.015980 0.571425
0.726923 0.038127 0.573928
0.970567 0.066657 0.577775
-0.073059 0.252615 0.571762
0.221591 0.253311 0.572175
0.476584 0.255531 0.573499
0.723261 0.259668 0.575990
0.968066 0.265925 0.579820
-0.073059 0.504596 0.578374
0.163016 0.504897 0.578782
0.455935 0.505864 0.580086
0.711351 0.507685 0.582541
0.959988 0.510487 0.586316
-0.073059 0.756622 0.590619
-0.073059 0.756802 0.591015
0.413325 0.757377 0.592285
0.688098 0.758462 0.594676
0.944463 0.760138 0.598354
-0.073059 1.008660 0.608954
-0.073059 1.008783 0.609336
0.333914 1.009177 0.610557
0.649952 1.009921 0.612857
0.919745 1.011071 0.616396
-0.061215 0.001495 0.851067
0.229072 0.005148 0.851314
0.479627 0.016863 0.852105
0.725049 0.039010 0.853598
0.969287 0.067273 0.855902
-0.073059 0.252783 0.852306
0.213410 0.253479 0.852552
0.473361 0.255697 0.853342
0.721375 0.259831 0.854832
0.966782 0.266084 0.857132
-0.073059 0.504668 0.856263
0.151406 0.504970 0.856507
0.452526 0.505937 0.857292
0.709424 0.507757 0.858773
0.958688 0.510559 0.861059
-0.073059 0.756666 0.863678
-0.073059 0.756845 0.863920
0.409469 0.757420 0.864696
0.686085 0.758505 0.866161
0.943135 0.760181 0.868421
-0.073059 1.008690 0.874994
-0.073059 1.008813 0.875232
0.328896 1.009206 0.875995
0.647785 1.009950 0.877434
0.918370 1.011101 0.879657
-0.073059 0.002862 1.132454
0.216754 0.006515 1.132624
0.474665 0.018229 1.133166
0.722137 0.040376 1.134189
0.967300 0.068218 1.135771
-0.073059 0.253044 1.133303
0.200011 0.253739 1.133472
0.468316 0.255955 1.134013
0.718444 0.260084 1.135036
0.964788 0.266330 1.136617
-0.073059 0.504781 1.136019
0.131382 0.505083 1.136187
0.447185 0.506049 1.136727
0.706428 0.507869 1.137747
0.956673 0.510670 1.139322
-0.073059 0.756733 1.141130
-0.073059 0.756912 1.141298
0.403412 0.757487 1.141834
0.682956 0.758572 1.142848
0.941076 0.760248 1.144414
-0.073059 1.008736 1.148982
-0.073059 1.008858 1.149148
0.320945 1.009252 1.149679
0.644413 1.009996 1.150683
0.916236 1.011146 1.152235
