滤镜资源/Professional Luts Collection/Lutify.me Professional/Utility LUTs/White Balance/5500 Kelvin - 4300 Kelvin - 0.39 CTB.cube
# Created by: Lutify.me
# Copyright: (c) Copyright Lutify.me 2015
# Website: https://lutify.me
LUT_3D_SIZE 33
0.000000 0.000000 0.000000
0.029259 0.000174 0.000279
0.059321 0.000370 0.000594
0.089725 0.000652 0.001047
0.120130 0.001030 0.001654
0.150534 0.001513 0.002429
0.180939 0.002107 0.003382
0.211343 0.002818 0.004524
0.241747 0.003653 0.005865
0.272152 0.004616 0.007411
0.302556 0.005714 0.009173
0.332961 0.006950 0.011158
0.363365 0.008329 0.013373
0.393770 0.009857 0.015826
0.424174 0.011536 0.018522
0.454579 0.013372 0.021469
0.484983 0.015367 0.024673
0.515387 0.017526 0.028139
0.545792 0.019853 0.031875
0.576196 0.022350 0.035884
0.606601 0.025021 0.040173
0.637005 0.027870 0.044551
0.667410 0.030900 0.048925
0.697814 0.034114 0.053299
0.728219 0.037514 0.057673
0.758623 0.041091 0.062047
0.789028 0.044682 0.066421
0.819432 0.048273 0.070795
0.849836 0.051863 0.075169
0.880241 0.055454 0.079543
0.910645 0.059045 0.083917
0.941050 0.062636 0.088291
0.971454 0.066227 0.092665
-0.003353 0.031868 0.001400
0.025906 0.032041 0.001679
0.056719 0.032238 0.001994
0.087868 0.032520 0.002447
0.118712 0.032898 0.003054
0.149403 0.033381 0.003829
0.180007 0.033974 0.004782
0.210558 0.034686 0.005925
0.241073 0.035520 0.007265
0.271564 0.036484 0.008812
0.302037 0.037581 0.010574
0.332498 0.038817 0.012558
0.362948 0.040197 0.014773
0.393392 0.041692 0.017226
0.423830 0.043295 0.019922
0.454262 0.045006 0.022869
0.484692 0.046821 0.026073
0.515118 0.048735 0.029539
0.545541 0.050743 0.033275
0.575962 0.052841 0.037284
0.606382 0.055024 0.041546
0.636799 0.057287 0.045838
0.667216 0.059626 0.050137
0.697631 0.062036 0.054444
0.728046 0.064512 0.058757
0.758459 0.067052 0.063075
0.788872 0.069649 0.067398
0.819284 0.072302 0.071726
0.849695 0.075007 0.076056
0.880106 0.077759 0.080391
0.910516 0.080557 0.084728
0.940926 0.083397 0.089067
0.971336 0.086276 0.093410
-0.007147 0.063462 0.002984
0.022112 0.063588 0.003263
0.053668 0.063731 0.003579
0.085724 0.063935 0.004031
0.117088 0.064208 0.004638
0.148113 0.064554 0.005413
0.178947 0.064979 0.006367
0.209665 0.065486 0.007509
0.240307 0.066076 0.008849
0.270896 0.066752 0.010396
0.301448 0.067516 0.012158
0.331972 0.068369 0.014143
0.362476 0.069311 0.016358
0.392964 0.070343 0.018810
0.423439 0.071463 0.021506
0.453904 0.072672 0.024453
0.484361 0.073969 0.027657
0.514812 0.075351 0.031124
0.545257 0.076818 0.034859
0.575697 0.078368 0.038868
0.606133 0.079998 0.043062
0.636566 0.081707 0.047266
0.666996 0.083493 0.051486
0.697424 0.085351 0.055720
0.727850 0.087282 0.059967
0.758273 0.089281 0.064224
0.788695 0.091346 0.068491
0.819116 0.093475 0.072767
0.849535 0.095665 0.077051
0.879953 0.097914 0.081341
0.910370 0.100219 0.085637
0.940786 0.102578 0.089939
0.971202 0.104988 0.094246
-0.012587 0.094968 0.005256
0.016672 0.095059 0.005535
0.049072 0.095161 0.005850
0.082569 0.095308 0.006303
0.114722 0.095505 0.006910
0.146243 0.095755 0.007685
0.177416 0.096063 0.008638
0.208378 0.096430 0.009780
0.239203 0.096859 0.011120
0.269935 0.097353 0.012667
0.300601 0.097912 0.014429
0.331218 0.098538 0.016414
0.361798 0.099233 0.018629
0.392349 0.099998 0.021082
0.422879 0.100832 0.023778
0.453390 0.101737 0.026725
0.483888 0.102713 0.029929
0.514373 0.103759 0.033395
0.544849 0.104875 0.037131
0.575316 0.106062 0.041125
0.605777 0.107318 0.045180
0.636232 0.108642 0.049266
0.666682 0.110034 0.053378
0.697127 0.111493 0.057514
0.727568 0.113018 0.061670
0.758007 0.114607 0.065845
0.788442 0.116259 0.070035
0.818875 0.117973 0.074240
0.849305 0.119747 0.078458
0.879734 0.121580 0.082687
0.910160 0.123470 0.086927
0.940585 0.125416 0.091176
0.971009 0.127416 0.095434
-0.019893 0.126474 0.008306
0.009366 0.126543 0.008585
0.042412 0.126622 0.008901
0.078165 0.126734 0.009353
0.111470 0.126885 0.009960
0.143692 0.127078 0.010735
0.175336 0.127314 0.011689
0.206635 0.127596 0.012831
0.237713 0.127927 0.014171
0.268639 0.128307 0.015718
0.299459 0.128739 0.017480
0.330201 0.129224 0.019465
0.360884 0.129763 0.021680
0.391522 0.130358 0.024132
0.422125 0.131008 0.026828
0.452699 0.131715 0.029775
0.483251 0.132480 0.032979
0.513783 0.133303 0.036446
0.544301 0.134183 0.040181
0.574805 0.135122 0.044033
0.605298 0.136120 0.047930
0.635782 0.137175 0.051871
0.666258 0.138289 0.055849
0.696728 0.139461 0.059862
0.727191 0.140690 0.063904
0.757649 0.141976 0.067974
0.788102 0.143319 0.072067
0.818551 0.144717 0.076182
0.848997 0.146171 0.080316
0.879439 0.147679 0.084467
0.909879 0.149241 0.088634
0.940316 0.150855 0.092815
0.970751 0.152521 0.097009
-0.029211 0.157980 0.012197
0.000048 0.158035 0.012476
0.033156 0.158098 0.012792
0.072233 0.158188 0.013244
0.107187 0.158309 0.013851
0.140371 0.158463 0.014626
0.172645 0.158652 0.015580
0.204389 0.158878 0.016722
0.235795 0.159143 0.018062
0.266975 0.159448 0.019609
0.297995 0.159795 0.021371
0.328899 0.160185 0.023356
0.359715 0.160619 0.025571
0.390464 0.161098 0.028023
0.421160 0.161624 0.030719
0.451815 0.162195 0.033666
0.482436 0.162815 0.036870
0.513030 0.163482 0.040337
0.543600 0.164198 0.043922
0.574152 0.164963 0.047577
0.604687 0.165777 0.051295
0.635208 0.166640 0.055069
0.665718 0.167554 0.058894
0.696218 0.168517 0.062763
0.726708 0.169529 0.066672
0.757191 0.170592 0.070617
0.787668 0.171704 0.074595
0.818138 0.172865 0.078601
0.848603 0.174075 0.082635
0.879063 0.175334 0.086692
0.909519 0.176642 0.090770
0.939972 0.177997 0.094869
0.970421 0.179400 0.098985
-0.040677 0.189486 0.016985
-0.011418 0.189532 0.017263
0.021691 0.189583 0.017579
0.064356 0.189658 0.018031
0.101691 0.189757 0.018639
0.136172 0.189884 0.019414
0.169272 0.190040 0.020367
0.201587 0.190227 0.021509
0.233412 0.190446 0.022849
0.264911 0.190698 0.024396
0.296182 0.190985 0.026158
0.327288 0.191308 0.028143
0.358269 0.191667 0.030358
0.389157 0.192064 0.032810
0.419970 0.192500 0.035507
0.450725 0.192974 0.038454
0.481432 0.193489 0.041627
0.512101 0.194044 0.044899
0.542737 0.194641 0.048265
0.573347 0.195279 0.051715
0.603934 0.195958 0.055241
0.634501 0.196681 0.058834
0.665053 0.197446 0.062489
0.695590 0.198254 0.066200
0.726115 0.199105 0.069960
0.756629 0.199999 0.073766
0.787133 0.200936 0.077613
0.817629 0.201917 0.081497
0.848118 0.202941 0.085415
0.878601 0.204008 0.089364
0.909077 0.205119 0.093340
0.939548 0.206272 0.097343
0.970015 0.207469 0.101369
-0.054411 0.220992 0.022719
-0.025152 0.221030 0.022998
0.007956 0.221074 0.023314
0.053839 0.221137 0.023766
0.094729 0.221221 0.024374
0.130967 0.221328 0.025148
0.165135 0.221460 0.026102
0.198173 0.221617 0.027244
0.230520 0.221802 0.028584
0.262414 0.222016 0.030131
0.293993 0.222258 0.031893
0.325345 0.222531 0.033878
0.356529 0.222835 0.036093
0.387584 0.223172 0.038545
0.418539 0.223541 0.041224
0.449414 0.223943 0.044031
0.480226 0.224380 0.046962
0.510985 0.224851 0.050006
0.541700 0.225358 0.053153
0.572380 0.225900 0.056394
0.603030 0.226479 0.059721
0.633653 0.227095 0.063127
0.664254 0.227747 0.066604
0.694837 0.228437 0.070146
0.725402 0.229164 0.073747
0.755954 0.229929 0.077402
0.786492 0.230732 0.081107
0.817020 0.231573 0.084856
0.847537 0.232452 0.088647
0.878046 0.233370 0.092476
0.908547 0.234326 0.096339
0.939041 0.235321 0.100235
0.969528 0.236354 0.104159
-0.070527 0.252498 0.029449
-0.041268 0.252531 0.029728
-0.008160 0.252568 0.030043
0.039313 0.252622 0.030496
0.085934 0.252694 0.031103
0.124586 0.252787 0.031878
0.160137 0.252900 0.032831
0.194082 0.253036 0.033973
0.227074 0.253195 0.035313
0.259448 0.253378 0.036860
0.291399 0.253587 0.038622
0.323048 0.253822 0.040604
0.354473 0.254084 0.042744
0.385728 0.254374 0.045038
0.416852 0.254692 0.047479
0.447870 0.255039 0.050056
0.478805 0.255416 0.052762
0.509671 0.255822 0.055586
0.540481 0.256260 0.058520
0.571244 0.256729 0.061555
0.601967 0.257229 0.064685
0.632656 0.257762 0.067900
0.663316 0.258326 0.071196
0.693952 0.258924 0.074564
0.724565 0.259554 0.078000
0.755161 0.260218 0.081498
0.785739 0.260916 0.085052
0.816303 0.261647 0.088659
0.846855 0.262412 0.092315
0.877394 0.263211 0.096015
0.907924 0.264045 0.099756
0.938444 0.264912 0.103534
0.968956 0.265815 0.107348
-0.073059 0.284004 0.037217
-0.059872 0.284032 0.037496
-0.026763 0.284065 0.037811
0.020710 0.284112 0.038263
0.074716 0.284175 0.038871
0.116801 0.284256 0.039646
0.154158 0.284355 0.040596
0.189241 0.284473 0.041708
0.223020 0.284612 0.042990
0.255975 0.284772 0.044441
0.288371 0.284954 0.046058
0.320372 0.285160 0.047838
0.352082 0.285388 0.049774
0.383573 0.285642 0.051861
0.414893 0.285920 0.054092
0.446080 0.286223 0.056459
0.477159 0.286552 0.058955
0.508150 0.286908 0.061572
0.539069 0.287291 0.064303
0.569928 0.287702 0.067141
0.600736 0.288140 0.070077
0.631502 0.288607 0.073106
0.662231 0.289102 0.076221
0.692928 0.289626 0.079415
0.723598 0.290180 0.082684
0.754244 0.290763 0.086021
0.784869 0.291376 0.089422
0.815475 0.292019 0.092881
0.846066 0.292692 0.096395
0.876641 0.293396 0.099960
0.907204 0.294130 0.103572
0.937755 0.294895 0.107228
0.968296 0.295691 0.110924
-0.073059 0.315509 0.045762
-0.073059 0.315535 0.046015
-0.047953 0.315564 0.046301
-0.000480 0.315605 0.046709
0.060006 0.315661 0.047254
0.107285 0.315732 0.047942
0.147042 0.315819 0.048781
0.183557 0.315924 0.049773
0.218301 0.316047 0.050921
0.251951 0.316188 0.052224
0.284876 0.316349 0.053682
0.317291 0.316531 0.055293
0.349335 0.316733 0.057052
0.381099 0.316957 0.058956
0.412649 0.317203 0.060999
0.444030 0.317471 0.063175
0.475275 0.317762 0.065480
0.506410 0.318077 0.067905
0.537455 0.318416 0.070446
0.568425 0.318780 0.073096
0.599331 0.319168 0.075848
0.630184 0.319582 0.078696
0.660992 0.320021 0.081635
0.691760 0.320485 0.084658
0.722494 0.320976 0.087761
0.753198 0.321494 0.090937
0.783876 0.322038 0.094183
0.814531 0.322609 0.097493
0.845166 0.323207 0.100863
0.875783 0.323833 0.104290
0.906384 0.324486 0.107768
0.936970 0.325167 0.111296
0.967543 0.325876 0.114869
-0.073059 0.347015 0.054330
-0.073059 0.347038 0.054556
-0.071822 0.347064 0.054812
-0.024349 0.347101 0.055176
0.039398 0.347151 0.055663
0.095531 0.347214 0.056280
0.138582 0.347292 0.057033
0.176919 0.347385 0.057925
0.212843 0.347495 0.058960
0.247329 0.347621 0.060138
0.280877 0.347765 0.061460
0.313777 0.347927 0.062924
0.346208 0.348107 0.064529
0.378289 0.348307 0.066270
0.410102 0.348527 0.068146
0.441706 0.348766 0.070152
0.473141 0.349027 0.072282
0.504441 0.349308 0.074532
0.535629 0.349611 0.076897
0.566725 0.349936 0.079371
0.597744 0.350283 0.081949
0.628696 0.350653 0.084625
0.659593 0.351045 0.087395
0.690441 0.351461 0.090252
0.721247 0.351901 0.093193
0.752017 0.352364 0.096211
0.782755 0.352852 0.099303
0.813466 0.353363 0.102464
0.844151 0.353900 0.105690
0.874814 0.354461 0.108977
0.905458 0.355047 0.112321
0.936084 0.355658 0.115718
0.966694 0.356294 0.119165
-0.073059 0.378521 0.062898
-0.073059 0.378542 0.063102
-0.073059 0.378565 0.063332
-0.050988 0.378598 0.063660
0.012760 0.378643 0.064100
0.080678 0.378700 0.064657
0.128483 0.378770 0.065337
0.169182 0.378854 0.066145
0.206563 0.378953 0.067084
0.242051 0.379066 0.068155
0.276334 0.379196 0.069359
0.309799 0.379341 0.070696
0.342678 0.379504 0.072166
0.375123 0.379684 0.073765
0.407237 0.379882 0.075492
0.439094 0.380097 0.077344
0.470746 0.380332 0.079317
0.502232 0.380585 0.081407
0.533583 0.380858 0.083610
0.564821 0.381151 0.085921
0.595965 0.381464 0.088336
0.627030 0.381797 0.090851
0.658026 0.382152 0.093460
0.688965 0.382527 0.096159
0.719853 0.382923 0.098943
0.750697 0.383341 0.101809
0.781502 0.383781 0.104751
0.812274 0.384243 0.107765
0.843016 0.384727 0.110848
0.873732 0.385234 0.113996
0.904424 0.385764 0.117205
0.935094 0.386316 0.120471
0.965746 0.386892 0.123791
-0.073059 0.410027 0.071466
-0.073059 0.410046 0.071651
-0.073059 0.410067 0.071859
-0.073059 0.410097 0.072158
-0.016732 0.410138 0.072557
0.060997 0.410189 0.073063
0.116308 0.410253 0.073682
0.160155 0.410329 0.074418
0.199354 0.410418 0.075274
0.236049 0.410521 0.076253
0.271201 0.410639 0.077356
0.305323 0.410771 0.078583
0.338717 0.410918 0.079934
0.371579 0.411081 0.081407
0.404036 0.411261 0.083003
0.436180 0.411456 0.084717
0.468076 0.411669 0.086548
0.499772 0.411899 0.088492
0.531305 0.412147 0.090547
0.562703 0.412413 0.092708
0.593988 0.412697 0.094972
0.625178 0.412999 0.097335
0.656287 0.413321 0.099793
0.687326 0.413661 0.102342
0.718305 0.414022 0.104978
0.749231 0.414401 0.107696
0.780112 0.414801 0.110493
0.810953 0.415221 0.113365
0.841758 0.415661 0.116309
0.872531 0.416122 0.119320
0.903277 0.416604 0.122395
0.933997 0.417107 0.125531
0.964694 0.417630 0.128724
-0.073059 0.441533 0.080034
-0.073059 0.441550 0.080203
-0.073059 0.441569 0.080393
-0.073059 0.441597 0.080666
-0.049159 0.441634 0.081030
0.032157 0.441681 0.081493
0.101345 0.441739 0.082059
0.149575 0.441808 0.082734
0.191083 0.441890 0.083519
0.229244 0.441984 0.084418
0.265423 0.442091 0.085432
0.300309 0.442212 0.086562
0.334297 0.442346 0.087809
0.367633 0.442495 0.089171
0.400480 0.442659 0.090649
0.432948 0.442837 0.092240
0.465118 0.443032 0.093944
0.497050 0.443242 0.095756
0.528786 0.443468 0.097676
0.560363 0.443711 0.099699
0.591805 0.443970 0.101824
0.623134 0.444246 0.104046
0.654367 0.444540 0.106363
0.685518 0.444851 0.108770
0.716598 0.445180 0.111264
0.747616 0.445528 0.113842
0.778580 0.445893 0.116501
0.809496 0.446277 0.119236
0.840371 0.446680 0.122044
0.871209 0.447101 0.124922
0.902013 0.447542 0.127866
0.932788 0.448002 0.130874
0.963536 0.448481 0.133943
-0.073059 0.473039 0.088603
-0.073059 0.473055 0.088757
-0.073059 0.473072 0.088932
-0.073059 0.473097 0.089182
-0.073059 0.473131 0.089517
-0.003283 0.473175 0.089942
0.082282 0.473228 0.090463
0.137058 0.473292 0.091084
0.181573 0.473366 0.091807
0.221536 0.473453 0.092636
0.258937 0.473551 0.093573
0.294715 0.473662 0.094618
0.329385 0.473785 0.095773
0.363262 0.473922 0.097037
0.396548 0.474072 0.098410
0.429381 0.474236 0.099891
0.461858 0.474414 0.101479
0.494052 0.474607 0.103172
0.526016 0.474815 0.104968
0.557790 0.475038 0.106866
0.589407 0.475276 0.108862
0.620890 0.475530 0.110954
0.652261 0.475799 0.113138
0.683535 0.476085 0.115413
0.714726 0.476388 0.117775
0.745845 0.476707 0.120220
0.776901 0.477042 0.122746
0.807901 0.477395 0.125350
0.838852 0.477765 0.128028
0.869760 0.478153 0.130778
0.900630 0.478558 0.133596
0.931465 0.478981 0.136479
0.962268 0.479422 0.139424
-0.073059 0.504545 0.097171
-0.073059 0.504559 0.097313
-0.073059 0.504575 0.097475
-0.073059 0.504599 0.097705
-0.073059 0.504630 0.098014
-0.041811 0.504670 0.098407
0.056105 0.504719 0.098888
0.122008 0.504778 0.099462
0.170588 0.504847 0.100132
0.212800 0.504926 0.100900
0.251666 0.505017 0.101768
0.288487 0.505119 0.102738
0.323943 0.505233 0.103811
0.358436 0.505359 0.104987
0.392218 0.505497 0.106266
0.425460 0.505649 0.107648
0.458282 0.505813 0.109132
0.490768 0.505991 0.110717
0.522983 0.506183 0.112402
0.554977 0.506388 0.114184
0.586785 0.506608 0.116062
0.618439 0.506842 0.118033
0.649961 0.507091 0.120095
0.681371 0.507355 0.122246
0.712684 0.507634 0.124484
0.743914 0.507929 0.126804
0.775070 0.508239 0.129205
0.806162 0.508565 0.131684
0.837197 0.508906 0.134238
0.868182 0.509264 0.136864
0.899122 0.509639 0.139559
0.930023 0.510029 0.142322
0.960888 0.510437 0.145148
-0.073059 0.536051 0.105739
-0.073059 0.536064 0.105871
-0.073059 0.536079 0.106020
-0.073059 0.536101 0.106234
-0.073059 0.536130 0.106520
-0.073059 0.536167 0.106885
0.016551 0.536212 0.107331
0.103392 0.536266 0.107864
0.157789 0.536330 0.108486
0.202874 0.536404 0.109200
0.243516 0.536488 0.110007
0.281565 0.536583 0.110911
0.317929 0.536688 0.111911
0.353123 0.536805 0.113009
0.387466 0.536933 0.114204
0.421167 0.537073 0.115497
0.454372 0.537226 0.116887
0.487182 0.537391 0.118374
0.519677 0.537568 0.119956
0.551912 0.537759 0.121633
0.583932 0.537962 0.123402
0.615773 0.538179 0.125262
0.647461 0.538410 0.127211
0.679019 0.538655 0.129247
0.710466 0.538914 0.131368
0.741816 0.539187 0.133571
0.773082 0.539474 0.135854
0.804274 0.539776 0.138215
0.835401 0.540093 0.140650
0.866470 0.540425 0.143159
0.897488 0.540772 0.145737
0.928460 0.541135 0.148383
0.959391 0.541513 0.151094
-0.073059 0.567557 0.114307
-0.073059 0.567569 0.114430
-0.073059 0.567583 0.114569
-0.073059 0.567603 0.114768
-0.073059 0.567630 0.115034
-0.073059 0.567664 0.115373
-0.028369 0.567707 0.115789
0.079106 0.567757 0.116285
0.142668 0.567817 0.116865
0.191542 0.567885 0.117531
0.234371 0.567963 0.118285
0.273876 0.568051 0.119129
0.311293 0.568149 0.120064
0.347289 0.568258 0.121091
0.382265 0.568377 0.122211
0.416480 0.568508 0.123423
0.450111 0.568649 0.124729
0.483282 0.568803 0.126127
0.516083 0.568968 0.127616
0.548585 0.569145 0.129196
0.580837 0.569335 0.130865
0.612883 0.569537 0.132623
0.644753 0.569751 0.134467
0.676474 0.569979 0.136396
0.708066 0.570220 0.138408
0.739548 0.570474 0.140501
0.770933 0.570741 0.142673
0.802234 0.571023 0.144922
0.833460 0.571318 0.147246
0.864620 0.571627 0.149642
0.895722 0.571950 0.152108
0.926772 0.572287 0.154642
0.957774 0.572639 0.157242
-0.073059 0.599063 0.122875
-0.073059 0.599074 0.122990
-0.073059 0.599087 0.123120
-0.073059 0.599106 0.123305
-0.073059 0.599131 0.123554
-0.073059 0.599163 0.123870
-0.073059 0.599203 0.124259
0.043162 0.599250 0.124723
0.124391 0.599305 0.125265
0.178506 0.599369 0.125888
0.224081 0.599442 0.126594
0.265332 0.599524 0.127385
0.303977 0.599616 0.128261
0.340891 0.599717 0.129225
0.376583 0.599828 0.130277
0.411375 0.599950 0.131417
0.445481 0.600083 0.132645
0.479050 0.600226 0.133962
0.512191 0.600380 0.135366
0.544984 0.600545 0.136858
0.577492 0.600722 0.138435
0.609761 0.600911 0.140098
0.641829 0.601111 0.141845
0.673727 0.601324 0.143675
0.705478 0.601549 0.145586
0.737103 0.601786 0.147576
0.768617 0.602036 0.149644
0.800036 0.602298 0.151788
0.831370 0.602574 0.154005
0.862629 0.602863 0.156295
0.893821 0.603165 0.158655
0.924955 0.603480 0.161083
0.956035 0.603809 0.163576
-0.073059 0.630568 0.131443
-0.073059 0.630579 0.131551
-0.073059 0.630592 0.131672
-0.073059 0.630609 0.131846
-0.073059 0.630633 0.132079
-0.073059 0.630663 0.132376
-0.073059 0.630700 0.132740
-0.008319 0.630744 0.133175
0.101398 0.630796 0.133683
0.163326 0.630856 0.134268
0.212451 0.630924 0.134930
0.255825 0.631001 0.135673
0.295912 0.631086 0.136497
0.333882 0.631181 0.137404
0.370387 0.631286 0.138394
0.405826 0.631400 0.139468
0.440460 0.631524 0.140626
0.474470 0.631658 0.141869
0.507985 0.631802 0.143195
0.541099 0.631957 0.144606
0.573885 0.632123 0.146099
0.606399 0.632299 0.147675
0.638683 0.632487 0.149332
0.670773 0.632686 0.151070
0.702696 0.632897 0.152886
0.734475 0.633119 0.154780
0.766130 0.633353 0.156751
0.797676 0.633599 0.158795
0.829126 0.633857 0.160913
0.860492 0.634128 0.163102
0.891782 0.634411 0.165361
0.923006 0.634706 0.167687
0.954170 0.635015 0.170079
-0.073059 0.662074 0.140012
-0.073059 0.662085 0.140112
-0.073059 0.662096 0.140226
-0.073059 0.662112 0.140390
-0.073059 0.662135 0.140609
-0.073059 0.662163 0.140887
-0.073059 0.662197 0.141229
-0.063329 0.662239 0.141638
0.070020 0.662288 0.142116
0.145314 0.662344 0.142666
0.199212 0.662408 0.143290
0.245215 0.662480 0.143990
0.287014 0.662561 0.144766
0.326207 0.662650 0.145621
0.363637 0.662748 0.146555
0.399803 0.662855 0.147569
0.435027 0.662971 0.148663
0.469524 0.663097 0.149838
0.503450 0.663233 0.151094
0.536917 0.663378 0.152430
0.570007 0.663534 0.153846
0.602786 0.663700 0.155341
0.635305 0.663876 0.156915
0.667603 0.664063 0.158567
0.699712 0.664261 0.160295
0.731659 0.664470 0.162100
0.763466 0.664690 0.163979
0.795149 0.664921 0.165931
0.826725 0.665164 0.167955
0.858205 0.665418 0.170049
0.889601 0.665684 0.172211
0.920922 0.665962 0.174441
0.952175 0.666251 0.176736
-0.073059 0.693580 0.148580
-0.073059 0.693590 0.148675
-0.073059 0.693601 0.148782
-0.073059 0.693616 0.148936
-0.073059 0.693637 0.149142
-0.073059 0.693664 0.149405
-0.073059 0.693696 0.149727
-0.073059 0.693735 0.150112
0.018804 0.693781 0.150563
0.123266 0.693834 0.151082
0.183983 0.693894 0.151670
0.233323 0.693962 0.152331
0.277183 0.694038 0.153064
0.317801 0.694122 0.153872
0.356287 0.694214 0.154755
0.393273 0.694315 0.155714
0.429154 0.694425 0.156750
0.464192 0.694543 0.157863
0.498571 0.694671 0.159053
0.532422 0.694808 0.160320
0.565845 0.694955 0.161665
0.598914 0.695111 0.163086
0.631687 0.695277 0.164583
0.664211 0.695453 0.166155
0.696522 0.695640 0.167802
0.728650 0.695837 0.169523
0.760619 0.696044 0.171316
0.792450 0.696262 0.173181
0.824161 0.696490 0.175116
0.855764 0.696730 0.177120
0.887274 0.696980 0.179192
0.918699 0.697242 0.181331
0.950048 0.697515 0.183534
-0.073059 0.725086 0.157148
-0.073059 0.725095 0.157238
-0.073059 0.725105 0.157339
-0.073059 0.725120 0.157484
-0.073059 0.725140 0.157679
-0.073059 0.725165 0.157927
-0.073059 0.725196 0.158231
-0.073059 0.725233 0.158595
-0.043247 0.725276 0.159021
0.094684 0.725326 0.159512
0.166185 0.725383 0.160068
0.219910 0.725447 0.160693
0.266289 0.725519 0.161387
0.308585 0.725598 0.162151
0.348285 0.725685 0.162988
0.386198 0.725780 0.163897
0.422814 0.725883 0.164880
0.458451 0.725995 0.165936
0.493328 0.726116 0.167066
0.527602 0.726245 0.168270
0.561388 0.726384 0.169548
0.594771 0.726531 0.170900
0.627821 0.726688 0.172326
0.660588 0.726855 0.173824
0.693117 0.727031 0.175395
0.725439 0.727216 0.177038
0.757584 0.727412 0.178751
0.789575 0.727618 0.180534
0.821430 0.727834 0.182386
0.853166 0.728060 0.184306
0.884796 0.728296 0.186292
0.916332 0.728544 0.188344
0.947785 0.728801 0.190459
-0.073059 0.756592 0.165716
-0.073059 0.756601 0.165801
-0.073059 0.756610 0.165897
-0.073059 0.756624 0.166034
-0.073059 0.756643 0.166218
-0.073059 0.756666 0.166453
-0.073059 0.756696 0.166741
-0.073059 0.756731 0.167086
-0.073059 0.756772 0.167489
0.052185 0.756819 0.167954
0.144858 0.756873 0.168481
0.204639 0.756933 0.169073
0.254167 0.757001 0.169731
0.298462 0.757076 0.170457
0.339567 0.757159 0.171251
0.378534 0.757249 0.172114
0.415974 0.757346 0.173047
0.452276 0.757452 0.174051
0.487704 0.757566 0.175126
0.522440 0.757689 0.176272
0.556621 0.757820 0.177489
0.590347 0.757959 0.178777
0.623695 0.758108 0.180136
0.656727 0.758265 0.181566
0.689489 0.758432 0.183066
0.722022 0.758608 0.184635
0.754355 0.758793 0.186274
0.786516 0.758988 0.187980
0.818527 0.759192 0.189754
0.850404 0.759406 0.191594
0.882164 0.759630 0.193499
0.913820 0.759864 0.195469
0.945383 0.760108 0.197502
-0.073059 0.788098 0.174284
-0.073059 0.788106 0.174365
-0.073059 0.788115 0.174456
-0.073059 0.788128 0.174586
-0.073059 0.788146 0.174761
-0.073059 0.788168 0.174983
-0.073059 0.788196 0.175257
-0.073059 0.788229 0.175583
-0.073059 0.788268 0.175966
-0.015900 0.788313 0.176407
0.118188 0.788364 0.176908
0.187016 0.788422 0.177470
0.240601 0.788486 0.178095
0.287313 0.788557 0.178785
0.330060 0.788635 0.179539
0.370230 0.788720 0.180360
0.408598 0.788813 0.181248
0.445641 0.788914 0.182204
0.481675 0.789022 0.183228
0.516919 0.789138 0.184320
0.551531 0.789262 0.185480
0.585629 0.789395 0.186709
0.619301 0.789535 0.188007
0.652618 0.789685 0.189373
0.685633 0.789843 0.190806
0.718390 0.790009 0.192308
0.750927 0.790185 0.193876
0.783271 0.790369 0.195510
0.815447 0.790563 0.197210
0.847475 0.790766 0.198975
0.879374 0.790979 0.200804
0.911157 0.791201 0.202696
0.942837 0.791432 0.204650
-0.073059 0.819604 0.182853
-0.073059 0.819612 0.182929
-0.073059 0.819620 0.183015
-0.073059 0.819633 0.183139
-0.073059 0.819650 0.183305
-0.073059 0.819671 0.183516
-0.073059 0.819697 0.183776
-0.073059 0.819729 0.184087
-0.073059 0.819765 0.184451
-0.073059 0.819808 0.184870
0.081799 0.819857 0.185346
0.166260 0.819911 0.185881
0.225294 0.819972 0.186476
0.274987 0.820040 0.187132
0.319674 0.820114 0.187851
0.361228 0.820195 0.188633
0.400643 0.820283 0.189479
0.438512 0.820379 0.190390
0.475217 0.820482 0.191367
0.511019 0.820592 0.192409
0.546103 0.820710 0.193517
