滤镜资源/Professional Luts Collection/Lutify.me Professional/Utility LUTs/White Balance/6500 Kelvin - 5500 Kelvin - 0.21 CTB.cube
# Created by: Lutify.me
# Copyright: (c) Copyright Lutify.me 2015
# Website: https://lutify.me
LUT_3D_SIZE 33
0.000000 0.000000 0.000000
0.030135 0.000094 0.000144
0.060735 0.000200 0.000308
0.091516 0.000352 0.000542
0.122296 0.000556 0.000857
0.153077 0.000816 0.001259
0.183857 0.001136 0.001753
0.214638 0.001520 0.002345
0.245419 0.001970 0.003039
0.276199 0.002489 0.003841
0.306980 0.003081 0.004754
0.337760 0.003748 0.005783
0.368541 0.004492 0.006931
0.399322 0.005315 0.008202
0.430102 0.006221 0.009599
0.460883 0.007211 0.011127
0.491663 0.008287 0.012787
0.522444 0.009451 0.014583
0.553225 0.010706 0.016519
0.584005 0.012052 0.018597
0.614786 0.013493 0.020820
0.645566 0.015029 0.023191
0.676347 0.016663 0.025712
0.707128 0.018396 0.028386
0.737908 0.020230 0.031216
0.768689 0.022166 0.034203
0.799469 0.024207 0.037352
0.830250 0.026353 0.040659
0.861031 0.028605 0.043985
0.891811 0.030967 0.047311
0.922592 0.033438 0.050637
0.953372 0.036021 0.053963
0.984153 0.038716 0.057289
-0.001807 0.031542 0.000723
0.028328 0.031636 0.000867
0.059367 0.031742 0.001031
0.090536 0.031893 0.001265
0.121547 0.032097 0.001580
0.152479 0.032358 0.001981
0.183365 0.032678 0.002476
0.214222 0.033062 0.003067
0.245061 0.033512 0.003762
0.275888 0.034031 0.004564
0.306705 0.034623 0.005477
0.337515 0.035290 0.006505
0.368320 0.036034 0.007653
0.399122 0.036857 0.008924
0.429920 0.037763 0.010322
0.460715 0.038753 0.011849
0.491509 0.039829 0.013510
0.522301 0.040982 0.015306
0.553092 0.042195 0.017242
0.583881 0.043474 0.019320
0.614670 0.044817 0.021543
0.645457 0.046222 0.023913
0.676244 0.047687 0.026435
0.707031 0.049209 0.029109
0.737816 0.050787 0.031938
0.768602 0.052418 0.034926
0.799387 0.054100 0.038074
0.830171 0.055830 0.041363
0.860956 0.057607 0.044657
0.891740 0.059429 0.047953
0.922523 0.061292 0.051251
0.953307 0.063196 0.054551
0.984090 0.065139 0.057853
-0.003853 0.062956 0.001540
0.026283 0.063025 0.001685
0.057791 0.063102 0.001848
0.089416 0.063213 0.002083
0.120694 0.063361 0.002398
0.151799 0.063550 0.002799
0.182805 0.063783 0.003293
0.213751 0.064060 0.003885
0.244656 0.064384 0.004580
0.275535 0.064757 0.005381
0.306393 0.065179 0.006294
0.337237 0.065652 0.007323
0.368070 0.066178 0.008471
0.398895 0.066756 0.009742
0.429713 0.067387 0.011140
0.460526 0.068071 0.012667
0.491334 0.068809 0.014327
0.522139 0.069601 0.016124
0.552941 0.070446 0.018060
0.583741 0.071345 0.020137
0.614538 0.072297 0.022360
0.645334 0.073300 0.024731
0.676128 0.074356 0.027252
0.706921 0.075463 0.029926
0.737713 0.076620 0.032756
0.768503 0.077826 0.035744
0.799293 0.079081 0.038892
0.830082 0.080383 0.042152
0.860871 0.081732 0.045410
0.891659 0.083125 0.048672
0.922446 0.084563 0.051940
0.953233 0.086044 0.055211
0.984019 0.087567 0.058487
-0.006785 0.094327 0.002713
0.023350 0.094377 0.002857
0.055475 0.094432 0.003021
0.087788 0.094512 0.003255
0.119461 0.094619 0.003570
0.150819 0.094755 0.003972
0.182000 0.094923 0.004466
0.213073 0.095123 0.005058
0.244075 0.095357 0.005752
0.275027 0.095627 0.006554
0.305946 0.095934 0.007467
0.336838 0.096279 0.008496
0.367711 0.096662 0.009644
0.398570 0.097085 0.010914
0.429416 0.097548 0.012312
0.460254 0.098051 0.013839
0.491083 0.098596 0.015500
0.521907 0.099183 0.017296
0.552725 0.099811 0.019232
0.583539 0.100482 0.021310
0.614349 0.101195 0.023533
0.645157 0.101950 0.025903
0.675961 0.102748 0.028425
0.706763 0.103589 0.031099
0.737564 0.104471 0.033928
0.768362 0.105395 0.036916
0.799159 0.106361 0.040064
0.829955 0.107368 0.043268
0.860749 0.108416 0.046476
0.891542 0.109505 0.049692
0.922335 0.110633 0.052917
0.953126 0.111802 0.056148
0.983917 0.113008 0.059386
-0.010723 0.125699 0.004287
0.019412 0.125736 0.004431
0.052254 0.125779 0.004595
0.085561 0.125840 0.004829
0.117785 0.125922 0.005144
0.149493 0.126027 0.005546
0.180913 0.126155 0.006040
0.212159 0.126309 0.006632
0.243291 0.126489 0.007326
0.274345 0.126696 0.008128
0.305343 0.126932 0.009041
0.336302 0.127198 0.010070
0.367229 0.127493 0.011218
0.398133 0.127820 0.012489
0.429018 0.128178 0.013886
0.459888 0.128568 0.015414
0.490746 0.128991 0.017074
0.521595 0.129447 0.018870
0.552435 0.129936 0.020806
0.583268 0.130460 0.022884
0.614096 0.131018 0.025107
0.644919 0.131610 0.027478
0.675737 0.132237 0.029999
0.706552 0.132898 0.032673
0.737364 0.133595 0.035503
0.768173 0.134327 0.038490
0.798979 0.135094 0.041609
0.829783 0.135896 0.044738
0.860586 0.136732 0.047883
0.891387 0.137604 0.051040
0.922186 0.138510 0.054209
0.952984 0.139451 0.057389
0.983780 0.140427 0.060579
-0.015746 0.157070 0.006295
0.014389 0.157100 0.006440
0.047938 0.157134 0.006603
0.082646 0.157183 0.006838
0.115615 0.157249 0.007152
0.147783 0.157332 0.007554
0.179516 0.157435 0.008048
0.210986 0.157558 0.008640
0.242286 0.157702 0.009335
0.273471 0.157868 0.010136
0.304573 0.158058 0.011049
0.335616 0.158270 0.012078
0.366612 0.158508 0.013226
0.397574 0.158770 0.014497
0.428509 0.159057 0.015894
0.459421 0.159371 0.017422
0.490316 0.159712 0.019082
0.521196 0.160079 0.020879
0.552065 0.160474 0.022815
0.582923 0.160897 0.024892
0.613773 0.161348 0.027115
0.644615 0.161828 0.029486
0.675451 0.162336 0.032007
0.706282 0.162874 0.034681
0.737109 0.163441 0.037511
0.767931 0.164037 0.040498
0.798749 0.164663 0.043524
0.829565 0.165318 0.046571
0.860377 0.166003 0.049639
0.891187 0.166719 0.052725
0.921995 0.167463 0.055828
0.952801 0.168238 0.058945
0.983606 0.169043 0.062076
-0.021927 0.188441 0.008766
0.008209 0.188466 0.008911
0.042253 0.188494 0.009074
0.078936 0.188534 0.009309
0.112889 0.188589 0.009623
0.145651 0.188657 0.010025
0.177780 0.188742 0.010519
0.209533 0.188844 0.011111
0.241044 0.188963 0.011805
0.272391 0.189100 0.012607
0.303623 0.189256 0.013520
0.334769 0.189432 0.014549
0.365852 0.189628 0.015697
0.396886 0.189845 0.016968
0.427881 0.190083 0.018365
0.458846 0.190342 0.019893
0.489786 0.190624 0.021553
0.520706 0.190929 0.023350
0.551609 0.191256 0.025285
0.582497 0.191607 0.027363
0.613374 0.191982 0.029586
0.644241 0.192381 0.031957
0.675099 0.192804 0.034478
0.705950 0.193251 0.037152
0.736794 0.193724 0.039982
0.767633 0.194221 0.042884
0.798466 0.194743 0.045810
0.829296 0.195291 0.048765
0.860121 0.195865 0.051746
0.890943 0.196464 0.054750
0.921761 0.197089 0.057775
0.952577 0.197740 0.060819
0.983391 0.198417 0.063882
-0.029330 0.219813 0.011726
0.000805 0.219834 0.011870
0.034905 0.219857 0.012034
0.074294 0.219891 0.012268
0.109541 0.219937 0.012583
0.143055 0.219995 0.012985
0.175678 0.220067 0.013479
0.207778 0.220152 0.014071
0.239546 0.220253 0.014765
0.271092 0.220369 0.015567
0.302479 0.220501 0.016480
0.333752 0.220649 0.017509
0.364939 0.220815 0.018657
0.396059 0.220998 0.019928
0.427128 0.221199 0.021325
0.458156 0.221419 0.022853
0.489150 0.221658 0.024513
0.520117 0.221916 0.026309
0.551062 0.222193 0.028245
0.581987 0.222491 0.030323
0.612897 0.222808 0.032546
0.643793 0.223146 0.034917
0.674678 0.223506 0.037438
0.705552 0.223886 0.040112
0.736418 0.224287 0.042857
0.767276 0.224710 0.045639
0.798127 0.225155 0.048457
0.828973 0.225622 0.051310
0.859813 0.226111 0.054195
0.890649 0.226622 0.057108
0.921481 0.227155 0.060047
0.952308 0.227711 0.063010
0.983133 0.228290 0.065995
-0.038018 0.251184 0.015199
-0.007882 0.251202 0.015344
0.026217 0.251222 0.015507
0.068530 0.251252 0.015742
0.105486 0.251291 0.016056
0.139947 0.251341 0.016458
0.173175 0.251402 0.016952
0.205697 0.251476 0.017544
0.237775 0.251562 0.018238
0.269557 0.251662 0.019040
0.301131 0.251776 0.019953
0.332553 0.251903 0.020982
0.363863 0.252046 0.022130
0.395087 0.252204 0.023401
0.426242 0.252377 0.024798
0.457344 0.252566 0.026326
0.488403 0.252772 0.027986
0.519425 0.252994 0.029783
0.550419 0.253233 0.031718
0.581388 0.253489 0.033796
0.612336 0.253763 0.036019
0.643267 0.254055 0.038390
0.674182 0.254365 0.040902
0.705084 0.254693 0.043466
0.735976 0.255040 0.046080
0.766857 0.255405 0.048742
0.797729 0.255790 0.051447
0.828594 0.256194 0.054192
0.859452 0.256617 0.056974
0.890304 0.257059 0.059789
0.921151 0.257522 0.062635
0.951993 0.258004 0.065510
0.982831 0.258506 0.068412
-0.048046 0.282555 0.019208
-0.017911 0.282571 0.019353
0.016189 0.282589 0.019516
0.061370 0.282614 0.019751
0.100620 0.282648 0.020066
0.136271 0.282692 0.020467
0.170238 0.282746 0.020961
0.203266 0.282810 0.021553
0.235712 0.282885 0.022248
0.267773 0.282972 0.023049
0.299565 0.283072 0.023963
0.331164 0.283183 0.024991
0.362617 0.283308 0.026139
0.393960 0.283445 0.027410
0.425217 0.283597 0.028808
0.456405 0.283762 0.030335
0.487538 0.283941 0.031995
0.518626 0.284135 0.033792
0.549676 0.284344 0.035728
0.580695 0.284569 0.037806
0.611688 0.284808 0.040028
0.642658 0.285063 0.042340
0.673609 0.285334 0.044711
0.704544 0.285622 0.047143
0.735465 0.285925 0.049631
0.766373 0.286245 0.052170
0.797269 0.286582 0.054759
0.828157 0.286936 0.057391
0.859035 0.287307 0.060066
0.889906 0.287695 0.062779
0.920771 0.288100 0.065527
0.951629 0.288524 0.068309
0.982481 0.288964 0.071121
-0.059468 0.313927 0.023775
-0.029333 0.313940 0.023919
0.004767 0.313956 0.024083
0.052379 0.313979 0.024317
0.094803 0.314009 0.024632
0.131959 0.314047 0.025034
0.166827 0.314095 0.025528
0.200457 0.314152 0.026120
0.233337 0.314218 0.026814
0.265724 0.314295 0.027616
0.297770 0.314383 0.028529
0.329572 0.314481 0.029558
0.361192 0.314591 0.030706
0.392672 0.314713 0.031977
0.424045 0.314846 0.033374
0.455332 0.314992 0.034901
0.486551 0.315151 0.036562
0.517713 0.315323 0.038358
0.548828 0.315508 0.040294
0.579904 0.315706 0.042314
0.610948 0.315918 0.044410
0.641964 0.316143 0.046578
0.672957 0.316383 0.048816
0.703928 0.316637 0.051117
0.734882 0.316906 0.053479
0.765821 0.317190 0.055897
0.796745 0.317488 0.058367
0.827658 0.317801 0.060887
0.858560 0.318130 0.063452
0.889453 0.318474 0.066060
0.920337 0.318834 0.068707
0.951214 0.319209 0.071392
0.982083 0.319600 0.074111
-0.072335 0.345298 0.028919
-0.042200 0.345310 0.029063
-0.008100 0.345324 0.029227
0.040789 0.345344 0.029461
0.087848 0.345371 0.029776
0.126929 0.345406 0.030178
0.162893 0.345448 0.030672
0.197241 0.345499 0.031264
0.230628 0.345558 0.031958
0.263393 0.345627 0.032760
0.295733 0.345705 0.033673
0.327768 0.345793 0.034702
0.359577 0.345891 0.035850
0.391215 0.345999 0.037121
0.422721 0.346119 0.038518
0.454120 0.346249 0.040045
0.485435 0.346391 0.041674
0.516682 0.346544 0.043388
0.547871 0.346709 0.045189
0.579012 0.346886 0.047073
0.610114 0.347075 0.049036
0.641182 0.347277 0.051074
0.672220 0.347491 0.053183
0.703234 0.347718 0.055359
0.734225 0.347958 0.057597
0.765198 0.348212 0.059895
0.796154 0.348479 0.062249
0.827096 0.348759 0.064655
0.858024 0.349053 0.067111
0.888941 0.349361 0.069612
0.919848 0.349682 0.072157
0.950746 0.350018 0.074743
0.981635 0.350368 0.077367
-0.073059 0.376669 0.034660
-0.056559 0.376680 0.034804
-0.022459 0.376693 0.034968
0.026436 0.376711 0.035202
0.079479 0.376735 0.035517
0.121075 0.376766 0.035918
0.158382 0.376804 0.036413
0.193582 0.376850 0.037004
0.227562 0.376903 0.037699
0.260764 0.376965 0.038501
0.293440 0.377035 0.039414
0.325740 0.377114 0.040442
0.357765 0.377203 0.041562
0.389582 0.377300 0.042781
0.421236 0.377408 0.044097
0.452763 0.377525 0.045508
0.484187 0.377653 0.047011
0.515528 0.377791 0.048603
0.546800 0.377939 0.050280
0.578015 0.378099 0.052041
0.609181 0.378269 0.053880
0.640306 0.378451 0.055795
0.671397 0.378644 0.057782
0.702457 0.378848 0.059837
0.733491 0.379065 0.061957
0.764503 0.379293 0.064139
0.795494 0.379534 0.066379
0.826468 0.379786 0.068674
0.857426 0.380051 0.071021
0.888370 0.380329 0.073417
0.919302 0.380619 0.075859
0.950223 0.380922 0.078345
0.981134 0.381238 0.080873
-0.073059 0.408040 0.041004
-0.072457 0.408051 0.041144
-0.038357 0.408062 0.041303
0.010538 0.408078 0.041531
0.069269 0.408100 0.041835
0.114258 0.408128 0.042221
0.153227 0.408163 0.042692
0.189441 0.408204 0.043253
0.224111 0.408253 0.043906
0.257817 0.408309 0.044652
0.290875 0.408372 0.045492
0.323478 0.408444 0.046427
0.355746 0.408524 0.047457
0.387763 0.408613 0.048580
0.419585 0.408710 0.049795
0.451254 0.408817 0.051101
0.482800 0.408932 0.052496
0.514247 0.409057 0.053978
0.545611 0.409192 0.055543
0.576907 0.409337 0.057189
0.608146 0.409491 0.058914
0.639336 0.409656 0.060713
0.670484 0.409831 0.062585
0.701596 0.410017 0.064526
0.732678 0.410213 0.066533
0.763732 0.410421 0.068603
0.794762 0.410639 0.070733
0.825772 0.410868 0.072920
0.856763 0.411109 0.075160
0.887737 0.411361 0.077453
0.918697 0.411624 0.079794
0.949644 0.411900 0.082181
0.980579 0.412187 0.084612
-0.073059 0.439412 0.047508
-0.073059 0.439421 0.047636
-0.055837 0.439431 0.047781
-0.006942 0.439446 0.047989
0.056482 0.439466 0.048267
0.106290 0.439492 0.048620
0.147345 0.439523 0.049051
0.184772 0.439561 0.049565
0.220248 0.439605 0.050164
0.254531 0.439656 0.050849
0.288025 0.439715 0.051622
0.320968 0.439780 0.052483
0.353510 0.439853 0.053433
0.385751 0.439934 0.054471
0.417760 0.440023 0.055597
0.449588 0.440120 0.056810
0.481270 0.440226 0.058108
0.512834 0.440340 0.059488
0.544301 0.440463 0.060951
0.575687 0.440595 0.062492
0.607005 0.440736 0.064111
0.638266 0.440886 0.065803
0.669478 0.441046 0.067568
0.700648 0.441216 0.069401
0.731782 0.441395 0.071301
0.762883 0.441584 0.073264
0.793957 0.441784 0.075288
0.825006 0.441993 0.077371
0.856033 0.442213 0.079509
0.887041 0.442443 0.081700
0.918032 0.442684 0.083942
0.949007 0.442935 0.086232
0.979968 0.443198 0.088568
-0.073059 0.470783 0.054012
-0.073059 0.470791 0.054130
-0.073059 0.470801 0.054263
-0.026046 0.470815 0.054454
0.039611 0.470833 0.054709
0.096899 0.470857 0.055033
0.140629 0.470886 0.055430
0.179518 0.470920 0.055903
0.215936 0.470961 0.056455
0.250883 0.471008 0.057087
0.284872 0.471061 0.057801
0.318198 0.471121 0.058597
0.351046 0.471188 0.059477
0.383537 0.471262 0.060440
0.415755 0.471344 0.061486
0.447758 0.471433 0.062615
0.479590 0.471530 0.063825
0.511284 0.471635 0.065115
0.542864 0.471747 0.066484
0.574349 0.471869 0.067929
0.605756 0.471998 0.069450
0.637095 0.472136 0.071043
0.668377 0.472283 0.072707
0.699610 0.472439 0.074440
0.730801 0.472603 0.076239
0.761954 0.472777 0.078101
0.793075 0.472960 0.080025
0.824167 0.473153 0.082008
0.855234 0.473354 0.084047
0.886279 0.473566 0.086141
0.917303 0.473787 0.088286
0.948310 0.474018 0.090481
0.979300 0.474259 0.092724
-0.073059 0.502154 0.060517
-0.073059 0.502162 0.060625
-0.073059 0.502171 0.060748
-0.046814 0.502184 0.060924
0.018842 0.502201 0.061159
0.085668 0.502222 0.061459
0.132942 0.502249 0.061826
0.173614 0.502281 0.062263
0.211138 0.502318 0.062773
0.246847 0.502361 0.063359
0.281396 0.502411 0.064020
0.315153 0.502466 0.064760
0.348344 0.502528 0.065577
0.381113 0.502596 0.066474
0.413561 0.502671 0.067449
0.445758 0.502754 0.068502
0.477755 0.502843 0.069633
0.509592 0.502940 0.070840
0.541296 0.503044 0.072124
0.572890 0.503155 0.073481
0.604393 0.503275 0.074912
0.635818 0.503402 0.076414
0.667177 0.503538 0.077985
0.698479 0.503681 0.079623
0.729732 0.503833 0.081327
0.760942 0.503994 0.083095
0.792115 0.504163 0.084923
0.823255 0.504340 0.086811
0.854365 0.504526 0.088756
0.885449 0.504722 0.090756
0.916511 0.504926 0.092808
0.947551 0.505139 0.094912
0.978574 0.505361 0.097063
-0.073059 0.533526 0.067021
-0.073059 0.533533 0.067121
-0.073059 0.533541 0.067235
-0.069287 0.533553 0.067398
-0.003630 0.533568 0.067616
0.071899 0.533588 0.067894
0.124094 0.533613 0.068234
0.166975 0.533643 0.068640
0.205805 0.533677 0.069114
0.242392 0.533717 0.069659
0.277578 0.533763 0.070274
0.311819 0.533814 0.070963
0.345391 0.533872 0.071725
0.378468 0.533935 0.072562
0.411170 0.534005 0.073472
0.443581 0.534081 0.074458
0.475760 0.534164 0.075517
0.507753 0.534253 0.076650
0.539593 0.534350 0.077856
0.571307 0.534453 0.079133
0.602915 0.534564 0.080481
0.634433 0.534682 0.081898
0.665876 0.534807 0.083383
0.697253 0.534940 0.084934
0.728574 0.535081 0.086549
0.759846 0.535230 0.088227
0.791074 0.535386 0.089966
0.822265 0.535551 0.091764
0.853423 0.535723 0.093619
0.884551 0.535904 0.095529
0.915652 0.536094 0.097493
0.946730 0.536291 0.099508
0.977786 0.536497 0.101572
-0.073059 0.564897 0.073525
-0.073059 0.564904 0.073619
-0.073059 0.564911 0.073725
-0.073059 0.564922 0.073876
-0.027844 0.564937 0.074079
0.054230 0.564955 0.074338
0.113820 0.564978 0.074655
0.159495 0.565006 0.075033
0.199883 0.565038 0.075475
0.237486 0.565075 0.075982
0.273394 0.565118 0.076557
0.308179 0.565165 0.077200
0.342174 0.565219 0.077913
0.375593 0.565278 0.078696
0.408575 0.565342 0.079549
0.441220 0.565413 0.080473
0.473598 0.565490 0.081468
0.505762 0.565573 0.082533
0.537750 0.565663 0.083668
0.569594 0.565759 0.084872
0.601316 0.565862 0.086144
0.632936 0.565972 0.087483
0.664470 0.566089 0.088888
0.695929 0.566213 0.090357
0.727323 0.566344 0.091890
0.758662 0.566482 0.093484
0.789951 0.566627 0.095139
0.821198 0.566781 0.096852
0.852406 0.566941 0.098621
0.883581 0.567110 0.100446
0.914726 0.567286 0.102325
0.945843 0.567470 0.104255
0.976937 0.567662 0.106235
-0.073059 0.596268 0.080029
-0.073059 0.596275 0.080117
-0.073059 0.596282 0.080216
-0.073059 0.596292 0.080357
-0.053835 0.596305 0.080547
0.029917 0.596323 0.080788
0.101717 0.596344 0.081084
0.151037 0.596370 0.081438
0.193303 0.596400 0.081851
0.232088 0.596435 0.082326
0.268818 0.596474 0.082864
0.304213 0.596519 0.083466
0.338681 0.596568 0.084135
0.372476 0.596623 0.084869
0.405767 0.596684 0.085671
0.438669 0.596750 0.086540
0.471264 0.596822 0.087476
0.503614 0.596900 0.088479
0.535763 0.596983 0.089549
0.567748 0.597073 0.090685
0.599594 0.597169 0.091888
0.631325 0.597272 0.093155
0.662956 0.597381 0.094486
0.694504 0.597496 0.095880
0.725978 0.597619 0.097335
0.757388 0.597748 0.098851
0.788743 0.597884 0.100427
0.820050 0.598026 0.102060
0.851313 0.598176 0.103749
0.882539 0.598334 0.105493
0.913730 0.598498 0.107290
0.944891 0.598670 0.109139
0.976024 0.598849 0.111038
-0.073059 0.627640 0.086534
-0.073059 0.627645 0.086616
-0.073059 0.627652 0.086708
-0.073059 0.627662 0.086841
-0.073059 0.627674 0.087018
0.002111 0.627691 0.087244
0.087122 0.627711 0.087522
0.141414 0.627735 0.087853
0.185983 0.627763 0.088241
0.226151 0.627795 0.088686
0.263821 0.627832 0.089192
0.299901 0.627874 0.089758
0.334895 0.627921 0.090386
0.369106 0.627972 0.091077
0.402736 0.628029 0.091831
0.435919 0.628091 0.092650
0.468751 0.628158 0.093532
0.501303 0.628231 0.094479
0.533627 0.628309 0.095490
0.565764 0.628393 0.096565
0.597745 0.628483 0.097703
0.629595 0.628579 0.098904
0.661332 0.628681 0.100166
0.692975 0.628790 0.101490
0.724534 0.628904 0.102874
0.756023 0.629025 0.104317
0.787449 0.629152 0.105818
0.818820 0.629286 0.107376
0.850142 0.629427 0.108989
0.881422 0.629574 0.110656
0.912663 0.629728 0.112377
0.943870 0.629889 0.114148
0.975047 0.630057 0.115970
-0.073059 0.659011 0.093038
-0.073059 0.659016 0.093115
-0.073059 0.659023 0.093202
-0.073059 0.659032 0.093326
-0.073059 0.659044 0.093493
-0.027542 0.659059 0.093705
0.068799 0.659078 0.093966
0.130367 0.659100 0.094278
0.177817 0.659127 0.094642
0.219620 0.659157 0.095062
0.258368 0.659192 0.095537
0.295221 0.659231 0.096070
0.330799 0.659275 0.096662
0.365471 0.659323 0.097314
0.399472 0.659376 0.098026
0.432962 0.659434 0.098798
0.466052 0.659498 0.099632
0.498824 0.659566 0.100528
0.531338 0.659640 0.101484
0.563639 0.659719 0.102502
0.595765 0.659803 0.103581
0.627743 0.659893 0.104721
0.659595 0.659989 0.105920
0.691339 0.660091 0.107179
0.722991 0.660198 0.108496
0.754563 0.660312 0.109870
0.786065 0.660431 0.111302
0.817505 0.660557 0.112789
0.848891 0.660689 0.114330
0.880228 0.660828 0.115926
0.911523 0.660972 0.117573
0.942780 0.661123 0.119271
0.974003 0.661281 0.121019
-0.073059 0.690382 0.099542
-0.073059 0.690387 0.099615
-0.073059 0.690393 0.099696
-0.073059 0.690402 0.099814
-0.073059 0.690413 0.099971
-0.059077 0.690427 0.100171
0.043827 0.690445 0.100417
0.117505 0.690466 0.100710
0.168669 0.690491 0.101054
0.212427 0.690520 0.101449
0.252419 0.690553 0.101898
0.290146 0.690590 0.102401
0.326376 0.690631 0.102960
0.361556 0.690676 0.103576
0.395965 0.690726 0.104249
0.429790 0.690781 0.104980
0.463160 0.690841 0.105769
0.496170 0.690905 0.106618
0.528889 0.690974 0.107525
0.561368 0.691049 0.108490
0.593650 0.691128 0.109515
0.625765 0.691213 0.110598
0.657740 0.691303 0.111738
0.689594 0.691399 0.112936
0.721345 0.691500 0.114191
0.753006 0.691607 0.115502
0.784589 0.691720 0.116868
0.816103 0.691838 0.118289
0.847557 0.691963 0.119763
0.878957 0.692093 0.121290
0.910309 0.692229 0.122869
0.941619 0.692372 0.124497
0.972891 0.692520 0.126176
-0.073059 0.721753 0.106047
-0.073059 0.721758 0.106115
-0.073059 0.721764 0.106192
-0.073059 0.721772 0.106303
-0.073059 0.721782 0.106451
-0.073059 0.721796 0.106640
0.010522 0.721813 0.106872
0.102205 0.721833 0.107150
0.158355 0.721856 0.107475
0.204489 0.721883 0.107848
0.245927 0.721914 0.108272
0.284646 0.721949 0.108749
0.321605 0.721988 0.109277
0.357346 0.722031 0.109860
0.392203 0.722078 0.110498
0.426393 0.722130 0.111191
0.460068 0.722186 0.111940
0.493336 0.722247 0.112744
0.526275 0.722312 0.113606
0.558947 0.722383 0.114523
0.591396 0.722458 0.115497
0.623659 0.722538 0.116528
0.655766 0.722623 0.117614
0.687738 0.722714 0.118756
0.719594 0.722809 0.119953
0.751351 0.722910 0.121204
0.783020 0.723016 0.122510
0.814614 0.723128 0.123868
0.846140 0.723246 0.125279
0.877606 0.723369 0.126741
0.909019 0.723497 0.128255
0.940386 0.723632 0.129817
0.971710 0.723772 0.131429
-0.073059 0.753125 0.112551
-0.073059 0.753129 0.112616
-0.073059 0.753135 0.112689
-0.073059 0.753142 0.112793
-0.073059 0.753152 0.112934
-0.073059 0.753165 0.113113
-0.024873 0.753181 0.113332
0.083339 0.753200 0.113595
0.146621 0.753222 0.113903
0.195701 0.753248 0.114257
0.238838 0.753277 0.114659
0.278686 0.753310 0.115110
0.316462 0.753347 0.115611
0.352825 0.753387 0.116164
0.388173 0.753432 0.116769
0.422762 0.753481 0.117427
0.456767 0.753534 0.118139
0.490314 0.753592 0.118904
0.523492 0.753654 0.119723
0.556369 0.753720 0.120596
0.588999 0.753791 0.121524
0.621421 0.753867 0.122505
0.653668 0.753948 0.123541
0.685766 0.754033 0.124631
0.717735 0.754124 0.125773
0.749594 0.754219 0.126969
0.781356 0.754320 0.128218
0.813033 0.754426 0.129518
0.844636 0.754537 0.130869
0.876173 0.754653 0.132271
0.907652 0.754775 0.133722
0.939078 0.754902 0.135223
0.970458 0.755035 0.136771
-0.073059 0.784496 0.119055
-0.073059 0.784500 0.119117
-0.073059 0.784505 0.119186
-0.073059 0.784513 0.119285
-0.073059 0.784522 0.119418
-0.073059 0.784534 0.119588
-0.062245 0.784549 0.119796
0.058420 0.784567 0.120046
0.133093 0.784588 0.120337
0.185928 0.784613 0.120673
0.231082 0.784640 0.121055
0.272228 0.784672 0.121483
0.310922 0.784706 0.121960
0.347974 0.784745 0.122485
0.383861 0.784787 0.123061
0.418885 0.784834 0.123686
0.453249 0.784884 0.124363
0.487097 0.784939 0.125092
0.520532 0.784997 0.125872
0.553631 0.785060 0.126704
0.586454 0.785128 0.127588
0.619046 0.785200 0.128525
0.651443 0.785276 0.129514
0.683675 0.785357 0.130555
0.715765 0.785443 0.131647
0.747733 0.785534 0.132791
0.779593 0.785629 0.133986
0.811360 0.785729 0.135231
0.843045 0.785835 0.136527
0.874657 0.785945 0.137871
0.906205 0.786061 0.139265
0.937695 0.786181 0.140706
0.969133 0.786307 0.142195
-0.073059 0.815867 0.125560
-0.073059 0.815872 0.125618
-0.073059 0.815876 0.125684
-0.073059 0.815883 0.125778
-0.073059 0.815892 0.125904
-0.073059 0.815904 0.126066
-0.073059 0.815918 0.126264
0.021815 0.815935 0.126501
0.117183 0.815955 0.126778
0.174992 0.815978 0.127097
0.222579 0.816004 0.127460
0.265224 0.816034 0.127868
0.304954 0.816067 0.128322
0.342773 0.816104 0.128822
0.379253 0.816144 0.129370
0.414752 0.816188 0.129966
0.449505 0.816236 0.130611
0.483679 0.816288 0.131305
0.517390 0.816344 0.132049
0.550728 0.816404 0.132843
0.583757 0.816468 0.133688
0.616531 0.816536 0.134583
0.649089 0.816609 0.135528
