滤镜资源/Professional Luts Collection/Lutify.me Professional/Utility LUTs/White Balance/6500 Kelvin - 2800 Kelvin - 1.56 CTB.cube
# Created by: Lutify.me
# Copyright: (c) Copyright Lutify.me 2015
# Website: https://lutify.me
LUT_3D_SIZE 9
0.000000 0.000000 0.000000
0.106614 0.004593 0.010373
0.218846 0.016285 0.036777
0.331078 0.037135 0.074336
0.443311 0.063885 0.111934
0.555543 0.090661 0.149531
0.667775 0.117437 0.187129
0.780007 0.144213 0.224727
0.892239 0.170988 0.262324
-0.073059 0.135423 0.052346
0.052744 0.137129 0.060555
0.197694 0.141380 0.078443
0.318411 0.148657 0.103917
0.434543 0.158967 0.133968
0.548977 0.172069 0.166656
0.662604 0.187596 0.200899
0.775788 0.205143 0.236103
0.888706 0.224335 0.271928
-0.073059 0.267661 0.126892
-0.073059 0.268480 0.130963
0.127566 0.270552 0.140801
0.283089 0.274203 0.156807
0.411171 0.279592 0.178112
0.531797 0.286793 0.203525
0.649201 0.295807 0.231957
0.764913 0.306580 0.262567
0.879630 0.319015 0.294747
-0.073059 0.399899 0.201437
-0.073059 0.400406 0.203976
-0.073059 0.401693 0.210287
0.202388 0.403976 0.221047
0.364835 0.407381 0.236212
0.499276 0.411996 0.255373
0.624368 0.417875 0.277945
0.744999 0.425044 0.303319
0.863130 0.433504 0.330941
-0.073059 0.532137 0.275983
-0.073059 0.532492 0.277765
-0.073059 0.533394 0.282241
-0.073059 0.534997 0.290024
0.277210 0.537399 0.301293
0.444585 0.540671 0.315985
0.584406 0.544869 0.333865
0.713654 0.550031 0.354602
0.837488 0.556182 0.377828
-0.073059 0.664375 0.350529
-0.073059 0.664642 0.351871
-0.073059 0.665321 0.355262
-0.073059 0.666530 0.361212
-0.027566 0.668344 0.369949
0.352032 0.670822 0.381540
0.523109 0.674011 0.395927
0.667497 0.677949 0.412963
0.800537 0.682663 0.432437
-0.073059 0.796613 0.425074
-0.073059 0.796824 0.426135
-0.073059 0.797360 0.428822
-0.073059 0.798316 0.433561
-0.073059 0.799751 0.440574
0.143332 0.801714 0.449974
0.426854 0.804245 0.461786
0.600820 0.807377 0.475962
0.749121 0.811137 0.492401
-0.073059 0.928851 0.499620
-0.073059 0.929023 0.500487
-0.073059 0.929462 0.502687
-0.073059 0.930243 0.506579
-0.073059 0.931417 0.512365
-0.073059 0.933024 0.520172
0.244145 0.935098 0.530058
0.501676 0.937668 0.542032
0.677963 0.940759 0.556054
-0.073059 1.061089 0.574166
-0.073059 1.061233 0.574893
-0.073059 1.061601 0.576739
-0.073059 1.062256 0.580011
-0.073059 1.063240 0.584892
-0.073059 1.064589 0.591504
-0.073059 1.066331 0.599923
0.332102 1.068491 0.610181
0.576498 1.071091 0.622278
-0.010313 0.000219 0.236269
0.101657 0.004813 0.238398
0.216514 0.016504 0.243720
0.329641 0.037354 0.252894
0.442306 0.064043 0.266020
0.554787 0.090780 0.282889
0.667179 0.117531 0.303107
0.779520 0.144290 0.326203
0.891831 0.171053 0.351708
-0.073059 0.135505 0.247046
0.043655 0.137210 0.249070
0.195080 0.141459 0.254137
0.316905 0.148731 0.262897
0.433514 0.159036 0.275475
0.548210 0.172133 0.291710
0.662002 0.187654 0.311257
0.775298 0.205196 0.333687
0.888296 0.224383 0.358556
-0.073059 0.267700 0.272302
-0.073059 0.268519 0.274112
0.123409 0.270591 0.278657
0.281356 0.274241 0.286554
0.410068 0.279630 0.297977
0.530999 0.286829 0.312853
0.648582 0.295842 0.330935
0.764413 0.306614 0.351880
0.879214 0.319047 0.375309
-0.073059 0.399923 0.311583
-0.073059 0.400430 0.313129
-0.073059 0.401717 0.317023
0.199841 0.403999 0.323829
0.363558 0.407405 0.333760
0.498411 0.412020 0.346831
0.623718 0.417898 0.362910
0.744482 0.425067 0.381764
0.862704 0.433526 0.403107
-0.073059 0.532154 0.361485
-0.073059 0.532509 0.362779
-0.073059 0.533410 0.366047
-0.073059 0.535014 0.371789
0.275434 0.537415 0.380231
0.443585 0.540688 0.391452
0.583698 0.544885 0.405411
0.713108 0.550047 0.421978
0.837044 0.556198 0.440962
-0.073059 0.664388 0.418693
-0.073059 0.664655 0.419774
-0.073059 0.665334 0.422510
-0.073059 0.666543 0.427337
-0.037879 0.668357 0.434474
0.350697 0.670834 0.444035
0.522293 0.674023 0.456039
0.666901 0.677961 0.470432
0.800066 0.682675 0.487104
-0.073059 0.796623 0.480774
-0.073059 0.796834 0.481685
-0.073059 0.797370 0.483992
-0.073059 0.798326 0.488073
-0.073059 0.799761 0.494134
0.139642 0.801724 0.502299
0.425801 0.804255 0.512623
0.600136 0.807387 0.525101
0.748608 0.811147 0.539682
-0.073059 0.928859 0.546122
-0.073059 0.929031 0.546897
-0.073059 0.929470 0.548863
-0.073059 0.930251 0.552348
-0.073059 0.931425 0.557540
-0.073059 0.933032 0.564563
0.242086 0.935106 0.573490
0.500816 0.937676 0.584346
0.677378 0.940767 0.597116
-0.073059 1.061096 0.613701
-0.073059 1.061240 0.614368
-0.073059 1.061608 0.616064
-0.073059 1.062263 0.619073
-0.073059 1.063247 0.623566
-0.073059 1.064596 0.629662
-0.073059 1.066338 0.637440
0.330670 1.068498 0.646942
0.575777 1.071098 0.658178
-0.036565 0.000778 0.438540
0.087925 0.005371 0.439561
0.210446 0.017063 0.442146
0.325949 0.037913 0.446710
0.439737 0.064446 0.453471
0.552859 0.091083 0.462546
0.665658 0.117770 0.473969
0.778278 0.144485 0.487705
0.890791 0.171217 0.503664
-0.073059 0.135713 0.443785
0.017535 0.137416 0.444791
0.188248 0.141658 0.447339
0.313032 0.148921 0.451838
0.430879 0.159214 0.458505
0.546252 0.172297 0.467458
0.660466 0.187803 0.478735
0.774047 0.205331 0.492304
0.887251 0.224505 0.508083
-0.073059 0.267800 0.456801
-0.073059 0.268619 0.457771
0.112165 0.270690 0.460230
0.276889 0.274338 0.464574
0.407244 0.279724 0.471016
0.528959 0.286921 0.479679
0.647005 0.295931 0.490605
0.763139 0.306699 0.503774
0.878154 0.319128 0.519116
-0.073059 0.399985 0.478927
-0.073059 0.400492 0.479842
-0.073059 0.401778 0.482160
0.193193 0.404060 0.486260
0.360281 0.407465 0.492349
0.496201 0.412079 0.500551
0.622059 0.417957 0.510920
0.743164 0.425124 0.523449
0.861617 0.433582 0.538087
-0.073059 0.532197 0.509989
-0.073059 0.532552 0.510834
-0.073059 0.533453 0.512977
-0.073059 0.535057 0.516772
0.270853 0.537458 0.522416
0.441025 0.540730 0.530036
0.581891 0.544927 0.539695
0.711713 0.550089 0.551404
0.835913 0.556238 0.565131
-0.073059 0.664420 0.549062
-0.073059 0.664687 0.549832
-0.073059 0.665366 0.551785
-0.073059 0.666575 0.555246
-0.064131 0.668389 0.560404
0.347273 0.670866 0.567382
0.520211 0.674055 0.576253
0.665379 0.677993 0.587044
0.798866 0.682707 0.599741
-0.073059 0.796649 0.594897
-0.073059 0.796859 0.595591
-0.073059 0.797396 0.597356
-0.073059 0.798351 0.600485
-0.073059 0.799786 0.605156
0.129776 0.801749 0.611489
0.423107 0.804280 0.619561
0.598393 0.807412 0.629411
0.747299 0.811172 0.641045
-0.073059 0.928880 0.646223
-0.073059 0.929052 0.646848
-0.073059 0.929491 0.648435
-0.073059 0.930272 0.651253
-0.073059 0.931446 0.655464
-0.073059 0.933053 0.661184
0.236753 0.935127 0.668493
0.498619 0.937697 0.677437
0.675887 0.940787 0.688035
-0.073059 1.061113 0.701914
-0.073059 1.061258 0.702476
-0.073059 1.061625 0.703903
-0.073059 1.062280 0.706438
-0.073059 1.063265 0.710230
-0.073059 1.064613 0.715390
-0.073059 1.066355 0.721997
0.326991 1.068515 0.730102
0.573939 1.071115 0.739733
-0.073059 0.001774 0.640810
0.057316 0.006368 0.641442
0.199116 0.018059 0.643046
0.319236 0.038909 0.645894
0.435108 0.065158 0.650150
0.549398 0.091622 0.655930
0.662935 0.118197 0.663314
0.776058 0.144834 0.672347
0.888932 0.171510 0.683047
-0.073059 0.136085 0.644067
-0.029281 0.137783 0.644694
0.175349 0.142014 0.646288
0.305979 0.149259 0.649118
0.426131 0.159529 0.653347
0.542738 0.172587 0.659091
0.657715 0.188068 0.666429
0.771811 0.205571 0.675409
0.885382 0.224723 0.686047
-0.073059 0.267978 0.652262
-0.073059 0.268796 0.652879
0.088945 0.270865 0.654447
0.268707 0.274511 0.657232
0.402148 0.279893 0.661394
0.525298 0.287085 0.667049
0.644179 0.296089 0.674275
0.760861 0.306850 0.683122
0.876260 0.319273 0.693608
-0.073059 0.400095 0.666556
-0.073059 0.400601 0.667156
-0.073059 0.401888 0.668681
0.180676 0.404169 0.671389
0.354347 0.407573 0.675439
0.492228 0.412185 0.680943
0.619086 0.418061 0.687982
0.740805 0.425226 0.696604
0.859675 0.433682 0.706832
-0.073059 0.532274 0.687347
-0.073059 0.532629 0.687924
-0.073059 0.533530 0.689389
-0.073059 0.535133 0.691994
0.262451 0.537534 0.695889
0.436413 0.540806 0.701186
0.578651 0.545002 0.707965
0.709217 0.550162 0.716277
0.833892 0.556311 0.726147
-0.073059 0.664478 0.714606
-0.073059 0.664745 0.715155
-0.073059 0.665424 0.716549
-0.073059 0.666633 0.719026
-0.073059 0.668446 0.722733
0.341063 0.670924 0.727779
0.516470 0.674112 0.734241
0.662655 0.678049 0.742172
0.796721 0.682763 0.751603
-0.073059 0.796694 0.747992
-0.073059 0.796905 0.748509
-0.073059 0.797442 0.749823
-0.073059 0.798397 0.752158
-0.073059 0.799832 0.755655
0.110069 0.801795 0.760418
0.418248 0.804325 0.766524
0.595267 0.807457 0.774028
0.744957 0.811217 0.782961
-0.073059 0.928917 0.786962
-0.073059 0.929090 0.787446
-0.073059 0.929528 0.788676
-0.073059 0.930309 0.790863
-0.073059 0.931483 0.794139
-0.073059 0.933090 0.798604
0.226889 0.935164 0.804334
0.494671 0.937734 0.811384
0.673217 0.940824 0.819790
-0.073059 1.061145 0.830880
-0.073059 1.061289 0.831330
-0.073059 1.061657 0.832476
-0.073059 1.062311 0.834513
-0.073059 1.063296 0.837567
-0.073059 1.064645 0.841733
-0.073059 1.066386 0.847084
0.320305 1.068546 0.853675
0.570640 1.071146 0.861543
-0.073059 0.003274 0.843081
-0.010677 0.007867 0.843523
0.180594 0.019558 0.844646
0.308805 0.040408 0.846646
0.428025 0.066220 0.849643
0.544138 0.092427 0.853731
0.658810 0.118835 0.858984
0.772701 0.145357 0.865456
0.886125 0.171949 0.873186
-0.073059 0.136641 0.845362
-0.073059 0.138333 0.845803
0.153774 0.142548 0.846923
0.294987 0.149767 0.848915
0.418858 0.160003 0.851901
0.537395 0.173023 0.855976
0.653547 0.188465 0.861211
0.768430 0.205932 0.867661
0.882560 0.225050 0.875365
-0.073059 0.268245 0.851134
-0.073059 0.269062 0.851571
0.037974 0.271129 0.852680
0.255818 0.274771 0.854655
0.394325 0.280148 0.857615
0.519725 0.287332 0.861654
0.639897 0.296327 0.866844
0.757416 0.307078 0.873240
0.873400 0.319490 0.880879
-0.073059 0.400260 0.861301
-0.073059 0.400767 0.861731
-0.073059 0.402052 0.862824
0.159862 0.404333 0.864768
0.345182 0.407734 0.867683
0.486173 0.412345 0.871661
0.614577 0.418218 0.876773
0.737237 0.425380 0.883074
0.856741 0.433831 0.890603
-0.073059 0.532390 0.876310
-0.073059 0.532744 0.876730
-0.073059 0.533646 0.877798
-0.073059 0.535248 0.879699
0.249186 0.537648 0.882549
0.429357 0.540919 0.886439
0.573731 0.545114 0.891440
0.705439 0.550273 0.897606
0.830838 0.556421 0.904976
-0.073059 0.664565 0.896364
-0.073059 0.664832 0.896772
-0.073059 0.665511 0.897809
-0.073059 0.666719 0.899654
-0.073059 0.668533 0.902421
0.331452 0.671010 0.906199
0.510775 0.674198 0.911058
0.658527 0.678134 0.917050
0.793478 0.682847 0.924217
-0.073059 0.796763 0.921468
-0.073059 0.796974 0.921861
-0.073059 0.797510 0.922861
-0.073059 0.798466 0.924640
-0.073059 0.799900 0.927310
0.071923 0.801863 0.930955
0.410803 0.804393 0.935645
0.590524 0.807525 0.941432
0.741415 0.811284 0.948356
-0.073059 0.928974 0.951468
-0.073059 0.929146 0.951845
-0.073059 0.929584 0.952804
-0.073059 0.930365 0.954510
-0.073059 0.931539 0.957070
-0.073059 0.933146 0.960566
0.211063 0.935220 0.965067
0.488654 0.937789 0.970623
0.669174 0.940879 0.977275
-0.073059 1.061192 0.986096
-0.073059 1.061336 0.986455
-0.073059 1.061704 0.987370
-0.073059 1.062359 0.988997
-0.073059 1.063343 0.991440
-0.073059 1.064691 0.994777
-0.073059 1.066433 0.999075
0.309917 1.068593 1.004383
0.565631 1.071193 1.010742
-0.073059 0.005330 1.045351
-0.073059 0.009923 1.045684
0.151259 0.021615 1.046530
0.293775 0.042403 1.048037
0.418066 0.067655 1.050299
0.536815 0.093521 1.053391
0.653096 0.119705 1.057375
0.768064 0.146071 1.062300
0.882256 0.172549 1.068205
-0.073059 0.137401 1.047069
-0.073059 0.139083 1.047401
0.117764 0.143276 1.048245
0.279073 0.150460 1.049749
0.408621 0.160650 1.052006
0.529953 0.173619 1.055092
0.647773 0.189010 1.059067
0.763759 0.206426 1.063982
0.878670 0.225497 1.069875
-0.073059 0.268611 1.051426
-0.073059 0.269427 1.051756
-0.058669 0.271491 1.052595
0.236815 0.275127 1.054091
0.383273 0.280496 1.056335
0.511956 0.287670 1.059404
0.633962 0.296653 1.063358
0.752656 0.307391 1.068247
0.869455 0.319788 1.074109
-0.073059 0.400487 1.059136
-0.073059 0.400993 1.059463
-0.073059 0.402278 1.060294
0.125611 0.404557 1.061775
0.332110 0.407956 1.063998
0.477708 0.412563 1.067038
0.608322 0.418433 1.070955
0.732305 0.425590 1.075797
0.852695 0.434037 1.081605
-0.073059 0.532549 1.070600
-0.073059 0.532903 1.070922
-0.073059 0.533804 1.071742
-0.073059 0.535406 1.073202
0.229552 0.537805 1.075393
0.419436 0.541075 1.078390
0.566892 0.545269 1.082252
0.700214 0.550426 1.087028
0.826624 0.556571 1.092756
-0.073059 0.664685 1.086065
-0.073059 0.664952 1.086381
-0.073059 0.665630 1.087185
-0.073059 0.666839 1.088617
-0.073059 0.668651 1.090768
0.317697 0.671128 1.093709
0.502830 0.674315 1.097499
0.652810 0.678250 1.102187
0.789001 0.682962 1.107811
-0.073059 0.796858 1.105652
-0.073059 0.797068 1.105960
-0.073059 0.797605 1.106746
-0.073059 0.798560 1.108144
-0.073059 0.799994 1.110245
-0.016484 0.801957 1.113117
0.400310 0.804487 1.116820
0.583936 0.807617 1.121401
0.736519 0.811376 1.126897
-0.073059 0.929051 1.129374
-0.073059 0.929223 1.129674
-0.073059 0.929661 1.130438
-0.073059 0.930442 1.131797
-0.073059 0.931616 1.133839
-0.073059 0.933222 1.136633
0.186927 0.935296 1.140234
0.480244 0.937866 1.144690
0.663575 0.940955 1.150039
-0.073059 1.061257 1.157155
-0.073059 1.061401 1.157445
-0.073059 1.061768 1.158184
-0.073059 1.062423 1.159501
-0.073059 1.063407 1.161478
-0.073059 1.064756 1.164183
-0.073059 1.066497 1.167672
0.294954 1.068657 1.171989
0.558665 1.071257 1.177172
-0.073059 0.007991 1.247622
-0.073059 0.012585 1.247884
0.101245 0.024276 1.248553
0.272864 0.044902 1.249743
0.404725 0.069478 1.251532
0.527146 0.094921 1.253980
0.645605 0.120823 1.257139
0.762010 0.146990 1.261052
0.877215 0.173322 1.265753
-0.073059 0.138378 1.248979
-0.073059 0.140049 1.249241
0.042865 0.144213 1.249908
0.256753 0.151351 1.251097
0.394884 0.161484 1.252883
0.520121 0.174388 1.255328
0.640201 0.189711 1.258483
0.757660 0.207064 1.262389
0.873602 0.226075 1.267084
-0.073059 0.269084 1.252424
-0.073059 0.269899 1.252685
-0.073059 0.271958 1.253350
0.209300 0.275587 1.254535
0.368365 0.280946 1.256315
0.501675 0.288107 1.258751
0.626174 0.297074 1.261893
0.746437 0.307795 1.265786
0.864316 0.320174 1.270464
-0.073059 0.400780 1.258537
-0.073059 0.401286 1.258797
-0.073059 0.402570 1.259458
0.058925 0.404846 1.260634
0.314216 0.408243 1.262403
0.466467 0.412846 1.264823
0.600103 0.418711 1.267946
0.725858 0.425862 1.271813
0.847421 0.434302 1.276462
-0.073059 0.532754 1.267662
-0.073059 0.533108 1.267919
-0.073059 0.534009 1.268574
-0.073059 0.535610 1.269739
0.200916 0.538008 1.271490
0.406151 0.541276 1.273888
0.557883 0.545468 1.276981
0.693376 0.550623 1.280812
0.821130 0.556765 1.285416
-0.073059 0.664839 1.280038
-0.073059 0.665106 1.280292
-0.073059 0.665785 1.280938
-0.073059 0.666993 1.282088
-0.073059 0.668805 1.283817
0.298765 0.671281 1.286183
0.492308 0.674467 1.289237
0.645315 0.678401 1.293019
0.783157 0.683112 1.297566
-0.073059 0.796980 1.295819
-0.073059 0.797190 1.296069
-0.073059 0.797727 1.296704
-0.073059 0.798682 1.297836
-0.073059 0.800116 1.299536
-0.073059 0.802078 1.301864
0.386207 0.804607 1.304869
0.575267 0.807737 1.308591
0.730121 0.811495 1.313065
-0.073059 0.929151 1.315084
-0.073059 0.929323 1.315329
-0.073059 0.929761 1.315952
-0.073059 0.930542 1.317061
-0.073059 0.931715 1.318729
-0.073059 0.933322 1.321011
0.149521 0.935395 1.323957
0.469079 0.937964 1.327608
0.656239 0.941053 1.331997
-0.073059 1.061340 1.337848
-0.073059 1.061485 1.338087
-0.073059 1.061852 1.338696
-0.073059 1.062507 1.339780
-0.073059 1.063491 1.341410
-0.073059 1.064839 1.343641
-0.073059 1.066581 1.346520
0.274150 1.068740 1.350089
0.549484 1.071339 1.354380
-0.073059 0.011300 1.449892
-0.073059 0.015893 1.450107
-0.023466 0.027585 1.450653
0.243933 0.047891 1.451626
0.387344 0.071693 1.453089
0.514803 0.096636 1.455093
0.636132 0.122199 1.457680
0.754394 0.148125 1.460888
0.870895 0.174279 1.464748
-0.073059 0.139584 1.451001
-0.073059 0.141240 1.451215
-0.073059 0.145370 1.451761
0.225429 0.152453 1.452733
0.376942 0.162514 1.454195
0.507561 0.175338 1.456196
0.630624 0.190580 1.458781
0.749986 0.207853 1.461985
0.867247 0.226791 1.465842
-0.073059 0.269671 1.453819
-0.073059 0.270483 1.454033
-0.073059 0.272538 1.454577
0.168185 0.276158 1.455546
0.348739 0.281504 1.457004
0.488512 0.288649 1.459001
0.616315 0.297597 1.461578
0.738611 0.308296 1.464775
0.857870 0.320652 1.468621
-0.073059 0.401145 1.458826
-0.073059 0.401650 1.459039
-0.073059 0.402932 1.459580
-0.073059 0.405206 1.460545
0.290122 0.408599 1.461996
0.452001 0.413197 1.463984
0.589680 0.419056 1.466550
0.717738 0.426200 1.469731
0.840805 0.434632 1.473560
-0.073059 0.533009 1.466317
-0.073059 0.533363 1.466528
-0.073059 0.534263 1.467066
-0.073059 0.535864 1.468025
0.157438 0.538260 1.469466
0.388849 0.541526 1.471439
0.546418 0.545716 1.473988
0.684752 0.550867 1.477148
0.814231 0.557006 1.480951
-0.073059 0.665032 1.476510
-0.073059 0.665298 1.476719
-0.073059 0.665977 1.477252
-0.073059 0.667184 1.478202
-0.073059 0.668996 1.479630
0.273047 0.671470 1.481585
0.478819 0.674656 1.484110
0.635837 0.678588 1.487241
0.775812 0.683297 1.491010
-0.073059 0.797132 1.489561
-0.073059 0.797342 1.489768
-0.073059 0.797878 1.490295
-0.073059 0.798833 1.491233
-0.073059 0.800267 1.492644
-0.073059 0.802228 1.494576
0.367743 0.804757 1.497072
0.564252 0.807887 1.500167
0.722063 0.811644 1.503891
-0.073059 0.929275 1.505574
-0.073059 0.929447 1.505778
-0.073059 0.929885 1.506297
-0.073059 0.930666 1.507222
-0.073059 0.931839 1.508612
-0.073059 0.933445 1.510517
0.082082 0.935518 1.512978
0.454717 0.938087 1.516028
0.646967 0.941175 1.519701
-0.073059 1.061444 1.524603
-0.073059 1.061589 1.524804
-0.073059 1.061956 1.525314
-0.073059 1.062611 1.526224
-0.073059 1.063595 1.527591
-0.073059 1.064943 1.529464
-0.073059 1.066684 1.531883
0.245395 1.068843 1.534883
0.537790 1.071442 1.538495
-0.073059 0.015294 1.652162
-0.073059 0.019887 1.652342
-0.073059 0.031579 1.652800
0.202705 0.051344 1.653616
0.364995 0.074297 1.654843
0.499385 0.098671 1.656524
0.624450 0.123840 1.658696
0.745064 0.149483 1.661391
0.863184 0.175426 1.664636
-0.073059 0.141025 1.653092
-0.073059 0.142664 1.653272
-0.073059 0.146754 1.653729
0.179456 0.153771 1.654545
0.353785 0.163749 1.655771
0.491855 0.176478 1.657450
0.618807 0.191623 1.659621
0.740584 0.208801 1.662313
0.859493 0.227652 1.665556
-0.073059 0.270378 1.655455
-0.073059 0.271187 1.655635
-0.073059 0.273236 1.656091
0.096684 0.276845 1.656905
0.323106 0.282176 1.658129
0.472000 0.289301 1.659805
0.604136 0.298227 1.661971
0.729017 0.308900 1.664659
0.850003 0.321228 1.667896
-0.073059 0.401584 1.659658
-0.073059 0.402088 1.659837
-0.073059 0.403369 1.660292
-0.073059 0.405640 1.661103
0.257464 0.409028 1.662323
0.433728 0.413621 1.663993
0.576773 0.419472 1.666152
0.707774 0.426608 1.668831
0.832724 0.435030 1.672056
-0.073059 0.533317 1.665956
-0.073059 0.533671 1.666134
-0.073059 0.534570 1.666587
-0.073059 0.536169 1.667394
0.077109 0.538564 1.668607
0.366613 0.541828 1.670269
0.532156 0.546015 1.672417
0.674149 0.551163 1.675082
0.805798 0.557298 1.678291
-0.073059 0.665264 1.674543
-0.073059 0.665530 1.674720
-0.073059 0.666208 1.675170
-0.073059 0.667415 1.675971
-0.073059 0.669226 1.677176
0.237642 0.671699 1.678827
0.461870 0.674883 1.680960
0.624147 0.678814 1.683606
0.766821 0.683521 1.686794
-0.073059 0.797315 1.685568
-0.073059 0.797525 1.685743
-0.073059 0.798061 1.686189
-0.073059 0.799016 1.686983
-0.073059 0.800449 1.688177
-0.073059 0.802410 1.689813
0.343827 0.804938 1.691928
0.550578 0.808067 1.694551
0.712177 0.811822 1.697711
-0.073059 0.929424 1.699139
-0.073059 0.929597 1.699312
-0.073059 0.930035 1.699752
-0.073059 0.930815 1.700538
-0.073059 0.931988 1.701719
-0.073059 0.933594 1.703338
-0.073059 0.935666 1.705430
0.436587 0.938234 1.708025
0.635541 0.941322 1.711151
-0.073059 1.061570 1.715328
-0.073059 1.061714 1.715499
-0.073059 1.062081 1.715934
-0.073059 1.062736 1.716710
-0.073059 1.063720 1.717876
-0.073059 1.065068 1.719474
-0.073059 1.066809 1.721539
0.204502 1.068967 1.724102
0.523228 1.071566 1.727188
