滤镜资源/Professional Luts Collection/Lutify.me Professional/Utility LUTs/White Balance/6500 Kelvin - 3200 Kelvin - 1.21 CTB.cube
# Created by: Lutify.me
# Copyright: (c) Copyright Lutify.me 2015
# Website: https://lutify.me
LUT_3D_SIZE 33
0.000000 0.000000 0.000000
0.025508 0.000588 0.001190
0.052969 0.001253 0.002536
0.081685 0.002206 0.004466
0.110400 0.003487 0.007058
0.139115 0.005121 0.010364
0.167830 0.007130 0.014432
0.196546 0.009538 0.019305
0.225261 0.012363 0.025022
0.253976 0.015624 0.031623
0.282691 0.019339 0.039141
0.311407 0.023523 0.047156
0.340122 0.028192 0.055162
0.368837 0.033362 0.063168
0.397552 0.039046 0.071174
0.426268 0.045024 0.079180
0.454983 0.050992 0.087186
0.483698 0.056960 0.095192
0.512413 0.062928 0.103198
0.541129 0.068896 0.111204
0.569844 0.074864 0.119210
0.598559 0.080832 0.127216
0.627274 0.086800 0.135222
0.655990 0.092768 0.143228
0.684705 0.098736 0.151234
0.713420 0.104704 0.159240
0.742135 0.110672 0.167246
0.770851 0.116640 0.175252
0.799566 0.122608 0.183258
0.828281 0.128576 0.191264
0.856996 0.134544 0.199270
0.885712 0.140512 0.207276
0.914427 0.146480 0.215282
-0.011379 0.034343 0.006099
0.014129 0.034931 0.007289
0.042906 0.035596 0.008635
0.074667 0.036549 0.010565
0.105100 0.037830 0.013157
0.134910 0.039463 0.016463
0.164379 0.041449 0.020531
0.193641 0.043743 0.025404
0.222769 0.046344 0.031122
0.251805 0.049234 0.037722
0.280776 0.052396 0.045006
0.309699 0.055807 0.052418
0.338587 0.059449 0.059924
0.367446 0.063300 0.067504
0.396284 0.067341 0.075144
0.425104 0.071555 0.082833
0.453910 0.075922 0.090562
0.482705 0.080430 0.098325
0.511490 0.085062 0.106116
0.540267 0.089807 0.113931
0.569037 0.094653 0.121766
0.597802 0.099590 0.129619
0.626561 0.104609 0.137487
0.655316 0.109702 0.145367
0.684068 0.114861 0.153259
0.712816 0.120080 0.161161
0.741562 0.125354 0.169072
0.770305 0.130677 0.176990
0.799046 0.136044 0.184916
0.827784 0.141453 0.192847
0.856521 0.146899 0.200784
0.885257 0.152378 0.208727
0.913991 0.157889 0.216673
-0.024255 0.067213 0.013001
0.001253 0.067620 0.014191
0.030117 0.068080 0.015537
0.066023 0.068734 0.017467
0.098789 0.069605 0.020059
0.129989 0.070704 0.023365
0.160379 0.072039 0.027433
0.190296 0.073611 0.032306
0.219911 0.075423 0.038023
0.249322 0.077471 0.044436
0.278590 0.079752 0.051101
0.307754 0.082258 0.057968
0.336839 0.084981 0.064998
0.365864 0.087912 0.072164
0.394842 0.091040 0.079440
0.423782 0.094355 0.086809
0.452692 0.097845 0.094255
0.481578 0.101501 0.101766
0.510442 0.105310 0.109332
0.539290 0.109263 0.116945
0.568122 0.113349 0.124598
0.596943 0.117559 0.132287
0.625753 0.121884 0.140005
0.654554 0.126315 0.147750
0.683346 0.130845 0.155518
0.712132 0.135465 0.163307
0.740912 0.140170 0.171114
0.769687 0.144952 0.178936
0.798456 0.149807 0.186773
0.827222 0.154728 0.194623
0.855984 0.159711 0.202484
0.884742 0.164751 0.210355
0.913497 0.169844 0.218236
-0.042718 0.099716 0.022897
-0.017209 0.100009 0.024087
0.011655 0.100341 0.025433
0.051861 0.100814 0.027363
0.089052 0.101446 0.029955
0.122595 0.102247 0.033261
0.154456 0.103225 0.037329
0.185385 0.104386 0.042151
0.215738 0.105733 0.047433
0.245711 0.107268 0.053091
0.275420 0.108993 0.059069
0.304938 0.110906 0.065316
0.334314 0.113005 0.071790
0.363581 0.115286 0.078456
0.392764 0.117746 0.085285
0.421878 0.120380 0.092252
0.450939 0.123182 0.099337
0.479956 0.126146 0.106522
0.508935 0.129266 0.113794
0.537884 0.132534 0.121141
0.566808 0.135944 0.128553
0.595709 0.139489 0.136021
0.624592 0.143163 0.143539
0.653458 0.146958 0.151100
0.682310 0.150868 0.158700
0.711150 0.154887 0.166333
0.739979 0.159008 0.173997
0.768799 0.163226 0.181687
0.797611 0.167534 0.189402
0.826415 0.171929 0.197138
0.855212 0.176403 0.204893
0.884003 0.180954 0.212666
0.912789 0.185576 0.220455
-0.067509 0.132219 0.036186
-0.042001 0.132444 0.037376
-0.013137 0.132698 0.038722
0.028251 0.133061 0.040648
0.074311 0.133548 0.043143
0.111931 0.134166 0.046203
0.146113 0.134922 0.049798
0.178561 0.135822 0.053889
0.209990 0.136871 0.058431
0.240766 0.138073 0.063376
0.271096 0.139428 0.068677
0.301109 0.140939 0.074291
0.330887 0.142607 0.080178
0.360488 0.144430 0.086303
0.389951 0.146408 0.092635
0.419305 0.148540 0.099146
0.448571 0.150822 0.105813
0.477767 0.153252 0.112617
0.506903 0.155827 0.119539
0.535990 0.158543 0.126565
0.565036 0.161396 0.133683
0.594047 0.164381 0.140881
0.623028 0.167495 0.148150
0.651983 0.170733 0.155482
0.680915 0.174089 0.162870
0.709829 0.177560 0.170308
0.738725 0.181140 0.177790
0.767605 0.184825 0.185312
0.796473 0.188611 0.192870
0.825329 0.192493 0.200461
0.854174 0.196466 0.208080
0.883009 0.200526 0.215726
0.911836 0.204670 0.223396
-0.073059 0.164723 0.051941
-0.073059 0.164902 0.052932
-0.044761 0.165105 0.054038
-0.003374 0.165396 0.055598
0.051152 0.165786 0.057644
0.096761 0.166282 0.060182
0.134711 0.166889 0.063201
0.169428 0.167614 0.066681
0.202393 0.168461 0.070594
0.234283 0.169433 0.074909
0.265460 0.170532 0.079591
0.296138 0.171762 0.084606
0.326453 0.173123 0.089921
0.356495 0.174617 0.095503
0.386327 0.176245 0.101324
0.415994 0.178005 0.107357
0.445528 0.179898 0.113578
0.474956 0.181922 0.119966
0.504295 0.184076 0.126503
0.533561 0.186359 0.133171
0.562766 0.188768 0.139956
0.591918 0.191301 0.146845
0.621025 0.193955 0.153828
0.650095 0.196728 0.160893
0.679131 0.199616 0.168033
0.708138 0.202617 0.175240
0.737120 0.205727 0.182507
0.766079 0.208942 0.189828
0.795019 0.212260 0.197199
0.823941 0.215677 0.204614
0.852847 0.219189 0.212069
0.881740 0.222794 0.219560
0.910619 0.226488 0.227086
-0.073059 0.197226 0.067760
-0.073059 0.197374 0.068579
-0.073059 0.197542 0.069496
-0.042284 0.197782 0.070795
0.013291 0.198103 0.072510
0.074540 0.198513 0.074652
0.119210 0.199016 0.077221
0.157424 0.199616 0.080209
0.192593 0.200318 0.083602
0.226018 0.201125 0.087380
0.258330 0.202040 0.091518
0.289884 0.203065 0.095992
0.320896 0.204202 0.100775
0.351507 0.205453 0.105841
0.381810 0.206819 0.111166
0.411874 0.208300 0.116724
0.441748 0.209897 0.122494
0.471469 0.211611 0.128455
0.501063 0.213440 0.134589
0.530553 0.215384 0.140877
0.559956 0.217442 0.147306
0.589285 0.219614 0.153861
0.618551 0.221897 0.160529
0.647762 0.224290 0.167300
0.676927 0.226792 0.174164
0.706051 0.229400 0.181112
0.735139 0.232112 0.188136
0.764196 0.234926 0.195230
0.793225 0.237841 0.202386
0.822229 0.240852 0.209599
0.851212 0.243959 0.216865
0.880174 0.247158 0.224178
0.909119 0.250447 0.231535
-0.073059 0.229729 0.083580
-0.073059 0.229854 0.084271
-0.073059 0.229996 0.085048
-0.073059 0.230198 0.086152
-0.033319 0.230470 0.087615
0.037574 0.230816 0.089451
0.097633 0.231242 0.091666
0.141660 0.231750 0.094260
0.180088 0.232344 0.097225
0.215645 0.233028 0.100550
0.249478 0.233805 0.104220
0.282177 0.234676 0.108217
0.314085 0.235645 0.112522
0.345416 0.236711 0.117114
0.376312 0.237877 0.121973
0.406872 0.239145 0.127079
0.437167 0.240514 0.132410
0.467249 0.241986 0.137950
0.497157 0.243560 0.143680
0.526922 0.245237 0.149584
0.556567 0.247017 0.155646
0.586111 0.248899 0.161853
0.615569 0.250883 0.168192
0.644953 0.252967 0.174651
0.674274 0.255152 0.181219
0.703540 0.257435 0.187888
0.732757 0.259816 0.194648
0.761931 0.262293 0.201492
0.791069 0.264865 0.208413
0.820172 0.267531 0.215403
0.849247 0.270287 0.222458
0.878294 0.273134 0.229572
0.907318 0.276068 0.236740
-0.073059 0.262233 0.099399
-0.073059 0.262340 0.099994
-0.073059 0.262462 0.100664
-0.073059 0.262636 0.101617
-0.073059 0.262870 0.102883
-0.017119 0.263168 0.104479
0.065030 0.263534 0.106412
0.120551 0.263971 0.108686
0.164110 0.264484 0.111299
0.202715 0.265074 0.114245
0.238608 0.265744 0.117516
0.272807 0.266497 0.121099
0.305861 0.267334 0.124981
0.338099 0.268257 0.129147
0.369732 0.269268 0.133580
0.400903 0.270368 0.138264
0.431713 0.271557 0.143182
0.462235 0.272838 0.148318
0.492523 0.274210 0.153655
0.522619 0.275674 0.159180
0.552556 0.277230 0.164877
0.582358 0.278878 0.170734
0.612047 0.280618 0.176737
0.641637 0.282451 0.182876
0.671144 0.284375 0.189138
0.700578 0.286390 0.195516
0.729949 0.288495 0.201998
0.759263 0.290690 0.208578
0.788529 0.292973 0.215247
0.817750 0.295345 0.221999
0.846933 0.297803 0.228826
0.876081 0.300346 0.235724
0.905198 0.302973 0.242687
-0.073059 0.294736 0.115219
-0.073059 0.294830 0.115738
-0.073059 0.294936 0.116323
-0.073059 0.295088 0.117157
-0.073059 0.295292 0.118268
-0.073059 0.295552 0.119671
0.006972 0.295872 0.121376
0.090609 0.296254 0.123388
0.143358 0.296702 0.125709
0.186560 0.297218 0.128337
0.225315 0.297804 0.131268
0.261501 0.298463 0.134495
0.296028 0.299196 0.138007
0.329408 0.300006 0.141794
0.361955 0.300893 0.145843
0.393874 0.301859 0.150141
0.425309 0.302904 0.154676
0.456361 0.304031 0.159432
0.487105 0.305240 0.164397
0.517597 0.306531 0.169558
0.547879 0.307905 0.174900
0.577988 0.309363 0.180413
0.607948 0.310904 0.186083
0.637782 0.312529 0.191901
0.667508 0.314237 0.197854
0.697140 0.316029 0.203935
0.726690 0.317904 0.210133
0.756168 0.319862 0.216439
0.785584 0.321903 0.222847
0.814943 0.324025 0.229349
0.844252 0.326228 0.235937
0.873518 0.328512 0.242606
0.902743 0.330875 0.249351
-0.073059 0.327239 0.131039
-0.073059 0.327322 0.131497
-0.073059 0.327416 0.132015
-0.073059 0.327550 0.132753
-0.073059 0.327730 0.133737
-0.073059 0.327960 0.134983
-0.064939 0.328243 0.136501
0.039547 0.328580 0.138296
0.115227 0.328976 0.140374
0.166089 0.329433 0.142735
0.209009 0.329952 0.145376
0.247893 0.330535 0.148295
0.284337 0.331184 0.151484
0.319162 0.331902 0.154936
0.352841 0.332688 0.158642
0.385676 0.333546 0.162593
0.417867 0.334474 0.166776
0.449554 0.335476 0.171182
0.480840 0.336551 0.175799
0.511799 0.337701 0.180615
0.542490 0.338925 0.185618
0.572957 0.340225 0.190799
0.603236 0.341601 0.196145
0.633354 0.343053 0.201648
0.663334 0.344582 0.207296
0.693196 0.346187 0.213080
0.722954 0.347869 0.218991
0.752623 0.349628 0.225022
0.782211 0.351462 0.231163
0.811729 0.353373 0.237409
0.841185 0.355359 0.243751
0.870586 0.357420 0.250184
0.899936 0.359557 0.256701
-0.073059 0.359743 0.146858
-0.073059 0.359817 0.147268
-0.073059 0.359900 0.147729
-0.073059 0.360020 0.148389
-0.073059 0.360181 0.149270
-0.073059 0.360386 0.150386
-0.073059 0.360638 0.151748
-0.041459 0.360939 0.153363
0.072573 0.361293 0.155235
0.139278 0.361701 0.157369
0.188766 0.362164 0.159762
0.231459 0.362686 0.162415
0.270454 0.363266 0.165323
0.307128 0.363908 0.168480
0.342221 0.364612 0.171882
0.376177 0.365379 0.175520
0.409282 0.366211 0.179385
0.441729 0.367109 0.183470
0.473657 0.368074 0.187764
0.505168 0.369105 0.192258
0.536337 0.370205 0.196942
0.567222 0.371374 0.201807
0.597870 0.372612 0.206843
0.628317 0.373919 0.212041
0.658592 0.375297 0.217391
0.688718 0.376745 0.222884
0.718716 0.378263 0.228513
0.748602 0.379852 0.234269
0.778389 0.381511 0.240144
0.808090 0.383241 0.246131
0.837713 0.385041 0.252224
0.867267 0.386912 0.258415
0.896760 0.388852 0.264699
-0.073059 0.392246 0.162678
-0.073059 0.392312 0.163046
-0.073059 0.392388 0.163462
-0.073059 0.392496 0.164056
-0.073059 0.392640 0.164851
-0.073059 0.392825 0.165858
-0.073059 0.393052 0.167089
-0.073059 0.393323 0.168551
-0.009255 0.393642 0.170250
0.101377 0.394009 0.172189
0.162962 0.394426 0.174370
0.211404 0.394896 0.176792
0.253909 0.395420 0.179454
0.293000 0.395998 0.182352
0.329880 0.396633 0.185483
0.365218 0.397326 0.188841
0.399430 0.398077 0.192419
0.432787 0.398888 0.196211
0.465477 0.399759 0.200209
0.497635 0.400692 0.204406
0.529362 0.401687 0.208792
0.560734 0.402744 0.213360
0.591809 0.403866 0.218102
0.622634 0.405051 0.223008
0.653247 0.406300 0.228071
0.683676 0.407614 0.233283
0.713948 0.408993 0.238636
0.744082 0.410437 0.244122
0.774095 0.411946 0.249734
0.804002 0.413521 0.255465
0.833815 0.415161 0.261309
0.863544 0.416867 0.267258
0.893198 0.418638 0.273308
-0.073059 0.424749 0.178498
-0.073059 0.424810 0.178832
-0.073059 0.424878 0.179209
-0.073059 0.424976 0.179748
-0.073059 0.425107 0.180469
-0.073059 0.425274 0.181385
-0.073059 0.425480 0.182505
-0.073059 0.425726 0.183837
-0.073059 0.426015 0.185387
0.032186 0.426348 0.187158
0.128192 0.426727 0.189154
0.186395 0.427153 0.191376
0.234011 0.427628 0.193822
0.276359 0.428154 0.196492
0.315535 0.428730 0.199383
0.352599 0.429359 0.202491
0.388162 0.430042 0.205810
0.422611 0.430779 0.209337
0.456204 0.431572 0.213065
0.489124 0.432420 0.216987
0.521501 0.433326 0.221097
0.553436 0.434289 0.225388
0.585004 0.435311 0.229853
0.616264 0.436391 0.234484
0.647262 0.437531 0.239274
0.678037 0.438730 0.244215
0.708620 0.439989 0.249302
0.739035 0.441308 0.254526
0.769304 0.442688 0.259881
0.799444 0.444129 0.265361
0.829471 0.445631 0.270958
0.859396 0.447194 0.276668
0.889232 0.448817 0.282484
-0.073059 0.457253 0.194317
-0.073059 0.457308 0.194622
-0.073059 0.457370 0.194966
-0.073059 0.457459 0.195458
-0.073059 0.457579 0.196117
-0.073059 0.457731 0.196955
-0.073059 0.457919 0.197979
-0.073059 0.458144 0.199199
-0.073059 0.458407 0.200620
-0.073059 0.458711 0.202247
0.073998 0.459057 0.204083
0.153865 0.459447 0.206129
0.209648 0.459881 0.208386
0.256595 0.460361 0.210854
0.298809 0.460888 0.213531
0.338061 0.461463 0.216415
0.375292 0.462087 0.219502
0.411061 0.462761 0.222789
0.445730 0.463486 0.226270
0.479545 0.464262 0.229941
0.512681 0.465091 0.233796
0.545268 0.465974 0.237830
0.577403 0.466909 0.242035
0.609160 0.467899 0.246407
0.640599 0.468944 0.250939
0.671766 0.470044 0.255624
0.702701 0.471200 0.260455
0.733434 0.472411 0.265428
0.763991 0.473679 0.270534
0.794394 0.475003 0.275769
0.824660 0.476384 0.281127
0.854806 0.477822 0.286600
0.884844 0.479317 0.292185
-0.073059 0.489756 0.210137
-0.073059 0.489806 0.210416
-0.073059 0.489864 0.210732
-0.073059 0.489945 0.211184
-0.073059 0.490055 0.211790
-0.073059 0.490195 0.212559
-0.073059 0.490368 0.213501
-0.073059 0.490574 0.214624
-0.073059 0.490816 0.215934
-0.073059 0.491095 0.217434
-0.036932 0.491412 0.219129
0.107319 0.491770 0.221021
0.178808 0.492168 0.223111
0.232766 0.492609 0.225400
0.279161 0.493093 0.227887
0.321258 0.493621 0.230570
0.360578 0.494195 0.233448
0.397961 0.494815 0.236517
0.433919 0.495481 0.239774
0.468793 0.496196 0.243215
0.502817 0.496958 0.246835
0.536160 0.497770 0.250631
0.568946 0.498632 0.254596
0.601272 0.499543 0.258725
0.633212 0.500506 0.263014
0.664825 0.501519 0.267456
0.696157 0.502585 0.272045
0.727248 0.503702 0.276777
0.758128 0.504872 0.281645
0.788825 0.506094 0.286644
0.819360 0.507370 0.291768
0.849752 0.508698 0.297013
0.880016 0.510080 0.302372
-0.073059 0.522259 0.225956
-0.073059 0.522306 0.226214
-0.073059 0.522359 0.226506
-0.073059 0.522434 0.226923
-0.073059 0.522535 0.227481
-0.073059 0.522664 0.228192
-0.073059 0.522823 0.229062
-0.073059 0.523014 0.230100
-0.073059 0.523237 0.231312
-0.073059 0.523494 0.232701
-0.073059 0.523787 0.234273
0.013905 0.524117 0.236028
0.137036 0.524485 0.237971
0.203253 0.524891 0.240100
0.255781 0.525338 0.242417
0.301712 0.525826 0.244920
0.343708 0.526355 0.247609
0.383089 0.526928 0.250481
0.420609 0.527543 0.253534
0.456743 0.528203 0.256765
0.491809 0.528908 0.260170
0.526029 0.529659 0.263746
0.559567 0.530455 0.267487
0.592544 0.531298 0.271391
0.625054 0.532189 0.275452
0.657171 0.533127 0.279665
0.688951 0.534113 0.284025
0.720444 0.535148 0.288528
0.751687 0.536231 0.293169
0.782712 0.537364 0.297941
0.813546 0.538547 0.302841
0.844212 0.539779 0.307864
0.874727 0.541061 0.313004
-0.073059 0.554763 0.241776
-0.073059 0.554806 0.242015
-0.073059 0.554855 0.242285
-0.073059 0.554924 0.242671
-0.073059 0.555018 0.243189
-0.073059 0.555138 0.243848
-0.073059 0.555285 0.244655
-0.073059 0.555461 0.245619
-0.073059 0.555668 0.246744
-0.073059 0.555906 0.248036
-0.073059 0.556178 0.249497
-0.073059 0.556484 0.251132
0.068508 0.556824 0.252943
0.164799 0.557201 0.254930
0.227338 0.557616 0.257094
0.278715 0.558068 0.259436
0.324250 0.558559 0.261954
0.366158 0.559089 0.264648
0.405594 0.559661 0.267515
0.443241 0.560273 0.270554
0.479537 0.560927 0.273761
0.514782 0.561623 0.277134
0.549188 0.562363 0.280669
0.582911 0.563146 0.284362
0.616070 0.563972 0.288211
0.648756 0.564844 0.292209
0.681043 0.565760 0.296354
0.712987 0.566722 0.300640
0.744635 0.567730 0.305064
0.776027 0.568783 0.309621
0.807194 0.569883 0.314306
0.838163 0.571030 0.319115
0.868957 0.572224 0.324043
-0.073059 0.587266 0.257596
-0.073059 0.587306 0.257818
-0.073059 0.587351 0.258069
-0.073059 0.587416 0.258428
-0.073059 0.587504 0.258910
-0.073059 0.587615 0.259523
-0.073059 0.587752 0.260275
-0.073059 0.587916 0.261173
-0.073059 0.588108 0.262222
-0.073059 0.588330 0.263426
-0.073059 0.588582 0.264790
-0.073059 0.588867 0.266318
-0.073059 0.589184 0.268010
0.108410 0.589534 0.269869
0.191345 0.589920 0.271897
0.251156 0.590341 0.274092
0.301585 0.590798 0.276457
0.346778 0.591292 0.278988
0.388608 0.591823 0.281686
0.428094 0.592394 0.284549
0.465857 0.593003 0.287575
0.502304 0.593651 0.290761
0.537717 0.594340 0.294105
0.572297 0.595070 0.297604
0.606197 0.595840 0.301253
0.639530 0.596653 0.305051
0.672386 0.597507 0.308993
0.704836 0.598404 0.313076
0.736938 0.599344 0.317294
0.768738 0.600327 0.321646
0.800275 0.601354 0.326126
0.831581 0.602425 0.330730
0.862682 0.603540 0.335455
-0.073059 0.619769 0.273415
-0.073059 0.619807 0.273623
-0.073059 0.619849 0.273857
-0.073059 0.619910 0.274192
-0.073059 0.619991 0.274642
-0.073059 0.620095 0.275215
-0.073059 0.620223 0.275918
-0.073059 0.620376 0.276757
-0.073059 0.620555 0.277737
-0.073059 0.620762 0.278864
-0.073059 0.620998 0.280141
-0.073059 0.621263 0.281572
-0.073059 0.621559 0.283159
-0.016634 0.621887 0.284903
0.141937 0.622247 0.286807
0.217069 0.622640 0.288871
0.274767 0.623067 0.291095
0.324403 0.623528 0.293479
0.369298 0.624025 0.296023
0.411058 0.624557 0.298725
0.450589 0.625127 0.301584
0.488460 0.625733 0.304598
0.525047 0.626377 0.307765
0.560618 0.627059 0.311083
0.595364 0.627779 0.314548
0.629431 0.628539 0.318158
0.662930 0.629338 0.321910
0.695949 0.630178 0.325800
0.728558 0.631057 0.329826
0.760813 0.631978 0.333983
0.792760 0.632939 0.338268
0.824438 0.633941 0.342677
0.855879 0.634986 0.347207
-0.073059 0.652273 0.289235
-0.073059 0.652308 0.289429
-0.073059 0.652347 0.289648
-0.073059 0.652404 0.289963
-0.073059 0.652480 0.290384
-0.073059 0.652578 0.290921
-0.073059 0.652697 0.291579
-0.073059 0.652840 0.292366
-0.073059 0.653008 0.293285
-0.073059 0.653202 0.294343
-0.073059 0.653423 0.295542
-0.073059 0.653672 0.296886
-0.073059 0.653949 0.298377
-0.073059 0.654256 0.300018
0.053492 0.654593 0.301810
0.172318 0.654961 0.303754
0.242207 0.655361 0.305851
0.298217 0.655793 0.308101
0.347178 0.656259 0.310503
0.391811 0.656758 0.313058
0.433507 0.657291 0.315764
0.473081 0.657860 0.318619
0.511051 0.658463 0.321623
0.547770 0.659103 0.324772
0.583488 0.659779 0.328066
0.618391 0.660491 0.331501
0.652617 0.661241 0.335075
0.686276 0.662029 0.338784
0.719451 0.662854 0.342627
0.752213 0.663718 0.346600
0.784616 0.664620 0.350700
0.816706 0.665562 0.354924
0.848522 0.666542 0.359268
-0.073059 0.684776 0.305054
-0.073059 0.684809 0.305237
-0.073059 0.684846 0.305443
-0.073059 0.684899 0.305738
-0.073059 0.684971 0.306134
-0.073059 0.685062 0.306638
-0.073059 0.685175 0.307257
-0.073059 0.685309 0.307996
-0.073059 0.685467 0.308861
-0.073059 0.685649 0.309856
-0.073059 0.685856 0.310984
-0.073059 0.686090 0.312250
-0.073059 0.686350 0.313655
-0.073059 0.686639 0.315202
-0.073059 0.686955 0.316892
0.104131 0.687301 0.318728
0.200825 0.687677 0.320709
0.266909 0.688083 0.322836
0.321538 0.688521 0.325110
0.369917 0.688990 0.327529
0.414317 0.689491 0.330094
0.455957 0.690025 0.332803
0.495569 0.690593 0.335655
0.533631 0.691194 0.338649
0.570473 0.691830 0.341782
0.606331 0.692500 0.345054
0.641382 0.693205 0.348461
0.675761 0.693946 0.352001
0.709572 0.694723 0.355673
0.742898 0.695536 0.359472
0.775807 0.696385 0.363397
0.808353 0.697271 0.367444
0.840582 0.698195 0.371611
-0.073059 0.717279 0.320874
-0.073059 0.717310 0.321046
-0.073059 0.717345 0.321240
-0.073059 0.717396 0.321518
-0.073059 0.717463 0.321891
-0.073059 0.717549 0.322365
-0.073059 0.717655 0.322949
-0.073059 0.717781 0.323645
-0.073059 0.717930 0.324461
-0.073059 0.718102 0.325399
-0.073059 0.718297 0.326464
-0.073059 0.718517 0.327658
-0.073059 0.718762 0.328985
-0.073059 0.719033 0.330447
-0.073059 0.719332 0.332045
-0.060600 0.719657 0.333781
0.142808 0.720011 0.335656
0.228096 0.720394 0.337671
0.291276 0.720806 0.339826
0.344753 0.721248 0.342121
0.392625 0.721721 0.344556
0.436819 0.722224 0.347129
0.478407 0.722759 0.349842
0.518054 0.723326 0.352691
0.556202 0.723925 0.355676
0.593159 0.724557 0.358795
0.629149 0.725222 0.362046
0.664341 0.725921 0.365428
0.698865 0.726654 0.368937
0.732822 0.727420 0.372573
0.766293 0.728222 0.376333
0.799344 0.729058 0.380213
0.832029 0.729930 0.384212
-0.073059 0.749783 0.336694
-0.073059 0.749812 0.336856
-0.073059 0.749845 0.337039
-0.073059 0.749892 0.337301
-0.073059 0.749956 0.337653
-0.073059 0.750037 0.338102
-0.073059 0.750137 0.338653
-0.073059 0.750257 0.339311
-0.073059 0.750397 0.340081
-0.073059 0.750559 0.340968
-0.073059 0.750743 0.341975
-0.073059 0.750951 0.343105
-0.073059 0.751182 0.344361
-0.073059 0.751439 0.345744
-0.073059 0.751720 0.347258
-0.073059 0.752028 0.348903
0.021925 0.752362 0.350681
0.176483 0.752724 0.352593
0.254495 0.753113 0.354639
0.315380 0.753530 0.356820
0.367880 0.753977 0.359134
0.415308 0.754452 0.361583
0.459315 0.754958 0.364165
0.500857 0.755493 0.366880
0.540537 0.756059 0.369727
0.578765 0.756657 0.372703
0.615830 0.757285 0.375809
0.651945 0.757946 0.379042
0.687271 0.758638 0.382400
0.721933 0.759363 0.385881
0.756030 0.760121 0.389484
0.789640 0.760912 0.393207
0.822828 0.761736 0.397046
-0.073059 0.782286 0.352513
-0.073059 0.782314 0.352667
-0.073059 0.782345 0.352840
-0.073059 0.782390 0.353088
-0.073059 0.782450 0.353421
-0.073059 0.782527 0.353846
-0.073059 0.782621 0.354367
-0.073059 0.782734 0.354990
-0.073059 0.782867 0.355720
-0.073059 0.783020 0.356560
-0.073059 0.783195 0.357514
-0.073059 0.783391 0.358585
-0.073059 0.783610 0.359776
-0.073059 0.783853 0.361088
-0.073059 0.784119 0.362525
-0.073059 0.784411 0.364087
-0.073059 0.784727 0.365776
0.093183 0.785069 0.367593
0.207368 0.785438 0.369538
0.280252 0.785833 0.371613
0.339272 0.786255 0.373817
0.390935 0.786706 0.376150
0.437969 0.787184 0.378612
0.481808 0.787691 0.381202
0.523307 0.788227 0.383919
0.563017 0.788793 0.386763
0.601320 0.789388 0.389732
0.638486 0.790014 0.392825
0.674720 0.790670 0.396041
0.710173 0.791357 0.399377
0.744968 0.792075 0.402833
0.779199 0.792824 0.406405
0.812944 0.793606 0.410093
-0.073059 0.814789 0.368333
-0.073059 0.814816 0.368478
-0.073059 0.814845 0.368643
-0.073059 0.814888 0.368878
-0.073059 0.814945 0.369194
-0.073059 0.815018 0.369597
-0.073059 0.815107 0.370091
-0.073059 0.815215 0.370682
-0.073059 0.815340 0.371375
-0.073059 0.815486 0.372172
-0.073059 0.815651 0.373078
-0.073059 0.815837 0.374095
-0.073059 0.816045 0.375225
-0.073059 0.816275 0.376473
-0.073059 0.816528 0.377838
-0.073059 0.816804 0.379324
-0.073059 0.817104 0.380931
-0.073059 0.817428 0.382661
0.139284 0.817778 0.384513
0.236474 0.818153 0.386490
0.305519 0.818554 0.388592
0.362993 0.818981 0.390817
0.413928 0.819435 0.393167
0.460611 0.819916 0.395641
0.504297 0.820425 0.398238
0.545756 0.820961 0.400958
0.585495 0.821526 0.403799
0.623868 0.822120 0.406762
0.661131 0.822743 0.409843
0.697476 0.823395 0.413043
0.733051 0.824076 0.416359
0.767973 0.824788 0.419790
0.802332 0.825530 0.423334
-0.073059 0.847293 0.384153
-0.073059 0.847318 0.384291
-0.073059 0.847346 0.384447
-0.073059 0.847386 0.384670
-0.073059 0.847440 0.384971
-0.073059 0.847510 0.385353
-0.073059 0.847595 0.385823
-0.073059 0.847697 0.386385
-0.073059 0.847816 0.387043
-0.073059 0.847954 0.387801
-0.073059 0.848111 0.388663
-0.073059 0.848288 0.389630
-0.073059 0.848486 0.390706
-0.073059 0.848704 0.391893
-0.073059 0.848944 0.393194
-0.073059 0.849207 0.394609
-0.073059 0.849492 0.396140
