滤镜资源/Professional Luts Collection/Lutify.me Professional/Utility LUTs/White Balance/6500 Kelvin - 2800 Kelvin - 1.56 CTB.cube
# Created by: Lutify.me
# Copyright: (c) Copyright Lutify.me 2015
# Website: https://lutify.me
LUT_3D_SIZE 33
0.000000 0.000000 0.000000
0.024129 0.000774 0.001748
0.050498 0.001650 0.003727
0.078556 0.002906 0.006564
0.106614 0.004593 0.010373
0.134672 0.006745 0.015232
0.162730 0.009392 0.021211
0.190788 0.012563 0.028373
0.218846 0.016285 0.036777
0.246904 0.020580 0.046138
0.274962 0.025473 0.055537
0.303020 0.030984 0.064937
0.331078 0.037135 0.074336
0.359136 0.043803 0.083735
0.387194 0.050497 0.093135
0.415252 0.057191 0.102534
0.443311 0.063885 0.111934
0.471369 0.070579 0.121333
0.499427 0.077273 0.130733
0.527485 0.083967 0.140132
0.555543 0.090661 0.149531
0.583601 0.097355 0.158931
0.611659 0.104049 0.168330
0.639717 0.110743 0.177730
0.667775 0.117437 0.187129
0.695833 0.124131 0.196528
0.723891 0.130825 0.205928
0.751949 0.137519 0.215327
0.780007 0.144213 0.224727
0.808065 0.150907 0.234126
0.836123 0.157600 0.243526
0.864181 0.164294 0.252925
0.892239 0.170988 0.262324
-0.015011 0.035770 0.009038
0.009119 0.036544 0.010787
0.036423 0.037420 0.012765
0.068845 0.038677 0.015602
0.099325 0.040363 0.019411
0.128907 0.042451 0.024271
0.158007 0.044935 0.030249
0.186818 0.047801 0.037411
0.215442 0.051027 0.045534
0.243940 0.054589 0.053910
0.272348 0.058457 0.062467
0.300691 0.062605 0.071163
0.328984 0.067004 0.079971
0.357239 0.071629 0.088866
0.385464 0.076456 0.097833
0.413666 0.081461 0.106857
0.441848 0.086627 0.115930
0.470014 0.091934 0.125041
0.498168 0.097367 0.134187
0.526310 0.102913 0.143360
0.554443 0.108558 0.152557
0.582568 0.114292 0.161775
0.610687 0.120106 0.171011
0.638799 0.125991 0.180262
0.666907 0.131940 0.189526
0.695010 0.137946 0.198803
0.723109 0.144003 0.208089
0.751205 0.150108 0.217385
0.779298 0.156254 0.226689
0.807388 0.162438 0.236001
0.835476 0.168657 0.245319
0.863561 0.174908 0.254642
0.891645 0.181187 0.263972
-0.031996 0.069304 0.019265
-0.007867 0.069828 0.021014
0.019437 0.070418 0.022992
0.056381 0.071257 0.025829
0.090447 0.072371 0.029639
0.122062 0.073772 0.034498
0.152478 0.075468 0.040476
0.182211 0.077460 0.047182
0.211516 0.079745 0.054339
0.240536 0.082317 0.061860
0.269355 0.085166 0.069674
0.298029 0.088282 0.077727
0.326595 0.091651 0.085974
0.355077 0.095259 0.094379
0.383495 0.099090 0.102916
0.411861 0.103131 0.111562
0.440186 0.107365 0.120299
0.468476 0.111780 0.129113
0.496738 0.116360 0.137992
0.524976 0.121093 0.146926
0.553195 0.125967 0.155909
0.581397 0.130969 0.164932
0.609584 0.136090 0.173992
0.637759 0.141320 0.183082
0.665923 0.146650 0.192200
0.694077 0.152072 0.201342
0.722223 0.157577 0.210506
0.750362 0.163159 0.219688
0.778495 0.168813 0.228887
0.806621 0.174532 0.238102
0.834742 0.180311 0.247330
0.862859 0.186145 0.256570
0.890972 0.192030 0.265821
-0.056351 0.102363 0.033930
-0.032222 0.102741 0.035678
-0.004918 0.103166 0.037657
0.034233 0.103774 0.040493
0.076205 0.104584 0.044138
0.111546 0.105610 0.048532
0.144171 0.106859 0.053603
0.175379 0.108338 0.059272
0.205742 0.110050 0.065458
0.235556 0.111996 0.072087
0.264994 0.114174 0.079092
0.294163 0.116582 0.086414
0.323132 0.119214 0.094004
0.351950 0.122065 0.101820
0.380650 0.125128 0.109828
0.409257 0.128393 0.118000
0.437788 0.131853 0.126310
0.466259 0.135499 0.134739
0.494679 0.139320 0.143271
0.523057 0.143309 0.151891
0.551400 0.147455 0.160588
0.579712 0.151750 0.169351
0.607999 0.156184 0.178173
0.636264 0.160749 0.187046
0.664509 0.165437 0.195965
0.692737 0.170239 0.204923
0.720951 0.175149 0.213918
0.749152 0.180160 0.222944
0.777341 0.185265 0.231998
0.805520 0.190457 0.241078
0.833690 0.195731 0.250181
0.861851 0.201082 0.259305
0.890006 0.206505 0.268447
-0.073059 0.135423 0.052346
-0.064926 0.135712 0.053791
-0.037622 0.136038 0.055394
0.001528 0.136505 0.057637
0.052744 0.137129 0.060555
0.095763 0.137921 0.064133
0.132189 0.138890 0.068339
0.165733 0.140041 0.073126
0.197694 0.141380 0.078443
0.228675 0.142910 0.084232
0.259004 0.144633 0.090441
0.288874 0.146548 0.097018
0.318411 0.148657 0.103917
0.347696 0.150956 0.111095
0.376787 0.153443 0.118517
0.405726 0.156115 0.126150
0.434543 0.158967 0.133968
0.463261 0.161994 0.141946
0.491897 0.165190 0.150065
0.520466 0.168551 0.158306
0.548977 0.172069 0.166656
0.577440 0.175739 0.175100
0.605862 0.179555 0.183628
0.634248 0.183509 0.192230
0.662604 0.187596 0.200899
0.690932 0.191808 0.209626
0.719238 0.196141 0.218406
0.747522 0.200588 0.227233
0.775788 0.205143 0.236103
0.804038 0.209800 0.245010
0.832273 0.214555 0.253953
0.860496 0.219402 0.262926
0.888706 0.224335 0.271928
-0.073059 0.168482 0.070982
-0.073059 0.168713 0.072140
-0.073059 0.168975 0.073433
-0.040189 0.169348 0.075256
0.012382 0.169849 0.077649
0.071449 0.170485 0.080616
0.115140 0.171264 0.084147
0.152499 0.172193 0.088217
0.186875 0.173276 0.092796
0.219543 0.174517 0.097846
0.251122 0.175920 0.103328
0.281959 0.177485 0.109201
0.312265 0.179215 0.115425
0.342177 0.181110 0.121965
0.371789 0.183169 0.128785
0.401168 0.185391 0.135855
0.430360 0.187775 0.143147
0.459401 0.190318 0.150635
0.488320 0.193017 0.158298
0.517136 0.195869 0.166117
0.545867 0.198871 0.174073
0.574525 0.202019 0.182153
0.603122 0.205308 0.190343
0.631666 0.208734 0.198630
0.660163 0.212293 0.207006
0.688621 0.215980 0.215460
0.717044 0.219791 0.223986
0.745437 0.223721 0.232576
0.773802 0.227765 0.241224
0.802143 0.231918 0.249924
0.830462 0.236177 0.258672
0.858762 0.240537 0.267463
0.887045 0.244992 0.276294
-0.073059 0.201542 0.089619
-0.073059 0.201732 0.090575
-0.073059 0.201948 0.091647
-0.073059 0.202256 0.093165
-0.038946 0.202670 0.095170
0.028114 0.203196 0.097674
0.090155 0.203841 0.100678
0.134389 0.204611 0.104173
0.172557 0.205510 0.108142
0.207688 0.206543 0.112561
0.241017 0.207712 0.117404
0.273167 0.209021 0.122641
0.304499 0.210471 0.128240
0.335236 0.212063 0.134173
0.365525 0.213798 0.140409
0.395470 0.215677 0.146921
0.425142 0.217700 0.153681
0.454596 0.219864 0.160666
0.483872 0.222170 0.167855
0.513002 0.224616 0.175226
0.542009 0.227200 0.182762
0.570913 0.229920 0.190447
0.599729 0.232772 0.198266
0.628469 0.235756 0.206207
0.657145 0.238866 0.214256
0.685764 0.242102 0.222405
0.714334 0.245458 0.230644
0.742860 0.248933 0.238964
0.771348 0.252522 0.247359
0.799802 0.256222 0.255821
0.828226 0.260029 0.264345
0.856623 0.263941 0.272925
0.884996 0.267952 0.281557
-0.073059 0.234601 0.108255
-0.073059 0.234762 0.109063
-0.073059 0.234944 0.109971
-0.073059 0.235205 0.111261
-0.073059 0.235554 0.112970
-0.033372 0.235999 0.115117
0.048511 0.236545 0.117707
0.108860 0.237197 0.120739
0.153544 0.237959 0.124207
0.192420 0.238836 0.128096
0.228237 0.239830 0.132390
0.262181 0.240945 0.137067
0.294876 0.242181 0.142106
0.326686 0.243542 0.147481
0.357845 0.245029 0.153170
0.388508 0.246642 0.159149
0.418785 0.248381 0.165394
0.448755 0.250248 0.171883
0.478476 0.252242 0.178596
0.507993 0.254362 0.185514
0.537341 0.256608 0.192618
0.566546 0.258979 0.199893
0.595631 0.261473 0.207324
0.624612 0.264088 0.214896
0.653505 0.266823 0.222597
0.682321 0.269676 0.230417
0.711069 0.272645 0.238344
0.739759 0.275727 0.246370
0.768396 0.278921 0.254486
0.796987 0.282223 0.262685
0.825538 0.285630 0.270960
0.854051 0.289142 0.279305
0.882532 0.292754 0.287714
-0.073059 0.267661 0.126892
-0.073059 0.267799 0.127587
-0.073059 0.267955 0.128369
-0.073059 0.268180 0.129482
-0.073059 0.268480 0.130963
-0.073059 0.268863 0.132828
-0.023011 0.269333 0.135087
0.069019 0.269895 0.137746
0.127566 0.270552 0.140801
0.172628 0.271309 0.144246
0.212128 0.272168 0.148072
0.248570 0.273132 0.152264
0.283089 0.274203 0.156807
0.316299 0.275383 0.161682
0.348570 0.276674 0.166871
0.380140 0.278077 0.172354
0.411171 0.279592 0.178112
0.441778 0.281221 0.184127
0.472045 0.282965 0.190378
0.502036 0.284822 0.196850
0.531797 0.286793 0.203525
0.561367 0.288878 0.210387
0.590776 0.291076 0.217422
0.620047 0.293386 0.224617
0.649201 0.295807 0.231957
0.678251 0.298339 0.239433
0.707213 0.300979 0.247033
0.736097 0.303727 0.254747
0.764913 0.306580 0.262567
0.793667 0.309538 0.270484
0.822368 0.312597 0.278491
0.851021 0.315757 0.286580
0.879630 0.319015 0.294747
-0.073059 0.300720 0.145528
-0.073059 0.300841 0.146135
-0.073059 0.300977 0.146818
-0.073059 0.301173 0.147793
-0.073059 0.301435 0.149091
-0.073059 0.301769 0.150731
-0.073059 0.302180 0.152723
-0.007456 0.302671 0.155075
0.088999 0.303246 0.157789
0.146271 0.303908 0.160862
0.191656 0.304660 0.164290
0.231712 0.305505 0.168064
0.268724 0.306444 0.172172
0.303779 0.307480 0.176603
0.337478 0.308614 0.181341
0.370190 0.309848 0.186372
0.402158 0.311183 0.191680
0.433550 0.312620 0.197249
0.464483 0.314160 0.203063
0.495046 0.315802 0.209106
0.525305 0.317548 0.215363
0.555313 0.319397 0.221820
0.585108 0.321350 0.228464
0.614724 0.323406 0.235280
0.644185 0.325565 0.242257
0.673514 0.327826 0.249382
0.702728 0.330188 0.256647
0.731841 0.332651 0.264039
0.760866 0.335213 0.271551
0.789812 0.337873 0.279173
0.818689 0.340631 0.286898
0.847504 0.343485 0.294718
0.876264 0.346433 0.302626
-0.073059 0.333780 0.164164
-0.073059 0.333886 0.164700
-0.073059 0.334007 0.165305
-0.073059 0.334180 0.166167
-0.073059 0.334411 0.167318
-0.073059 0.334707 0.168774
-0.073059 0.335070 0.170547
-0.073059 0.335504 0.172646
0.013661 0.336012 0.175075
0.108658 0.336598 0.177835
0.164977 0.337264 0.180924
0.210640 0.338012 0.184337
0.251192 0.338845 0.188067
0.288729 0.339764 0.192105
0.324284 0.340771 0.196442
0.358445 0.341867 0.201064
0.391581 0.343054 0.205960
0.423934 0.344333 0.211117
0.455676 0.345705 0.216521
0.486929 0.347170 0.222160
0.517785 0.348729 0.228019
0.548312 0.350383 0.234086
0.578565 0.352131 0.240348
0.608587 0.353974 0.246793
0.638411 0.355912 0.253410
0.668066 0.357944 0.260187
0.697574 0.360070 0.267114
0.726954 0.362290 0.274181
0.756222 0.364602 0.281379
0.785391 0.367008 0.288699
0.814472 0.369504 0.296134
0.843476 0.372092 0.303675
0.872410 0.374769 0.311315
-0.073059 0.366839 0.182801
-0.073059 0.366934 0.183279
-0.073059 0.367042 0.183819
-0.073059 0.367196 0.184589
-0.073059 0.367403 0.185619
-0.073059 0.367666 0.186923
-0.073059 0.367990 0.188515
-0.073059 0.368378 0.190402
-0.073059 0.368832 0.192591
0.040675 0.369356 0.195085
0.128105 0.369951 0.197884
0.183682 0.370620 0.200985
0.229588 0.371365 0.204386
0.270587 0.372187 0.208079
0.308606 0.373089 0.212058
0.344629 0.374072 0.216314
0.379228 0.375137 0.220837
0.412769 0.376284 0.225617
0.445494 0.377517 0.230642
0.477578 0.378834 0.235903
0.509144 0.380237 0.241387
0.540287 0.381726 0.247083
0.571079 0.383302 0.252980
0.601577 0.384965 0.259067
0.631824 0.386715 0.265333
0.661858 0.388552 0.271768
0.691708 0.390477 0.278362
0.721397 0.392488 0.285106
0.750946 0.394587 0.291990
0.780371 0.396772 0.299006
0.809688 0.399043 0.306146
0.838907 0.401400 0.313403
0.868041 0.403841 0.320769
-0.073059 0.399899 0.201437
-0.073059 0.399984 0.201868
-0.073059 0.400081 0.202354
-0.073059 0.400220 0.203048
-0.073059 0.400406 0.203976
-0.073059 0.400643 0.205154
-0.073059 0.400935 0.206592
-0.073059 0.401284 0.208301
-0.073059 0.401693 0.210287
-0.073059 0.402164 0.212553
0.067705 0.402701 0.215103
0.147404 0.403304 0.217934
0.202388 0.403976 0.221047
0.248508 0.404718 0.224437
0.289911 0.405532 0.228099
0.328375 0.406419 0.232026
0.364835 0.407381 0.236212
0.399850 0.408419 0.240649
0.433778 0.409533 0.245328
0.466862 0.410726 0.250239
0.499276 0.411996 0.255373
0.531148 0.413346 0.260720
0.562574 0.414776 0.266271
0.593628 0.416285 0.272016
0.624368 0.417875 0.277945
0.654841 0.419546 0.284049
0.685084 0.421298 0.290318
0.715128 0.423131 0.296744
0.744999 0.425044 0.303319
0.774719 0.427039 0.310033
0.804304 0.429114 0.316880
0.833770 0.431269 0.323852
0.863130 0.433504 0.330941
-0.073059 0.432958 0.220074
-0.073059 0.433036 0.220464
-0.073059 0.433124 0.220905
-0.073059 0.433249 0.221535
-0.073059 0.433418 0.222378
-0.073059 0.433633 0.223448
-0.073059 0.433898 0.224757
-0.073059 0.434214 0.226313
-0.073059 0.434585 0.228125
-0.073059 0.435013 0.230195
-0.058117 0.435500 0.232529
0.091800 0.436047 0.235126
0.166597 0.436657 0.237987
0.221093 0.437331 0.241109
0.267403 0.438071 0.244489
0.309173 0.438878 0.248123
0.348049 0.439752 0.252007
0.384921 0.440697 0.256132
0.420330 0.441711 0.260494
0.454627 0.442797 0.265083
0.488057 0.443955 0.269893
0.520792 0.445186 0.274915
0.552963 0.446490 0.280141
0.584666 0.447868 0.285562
0.615977 0.449321 0.291170
0.646956 0.450848 0.296956
0.677653 0.452451 0.302912
0.708104 0.454128 0.309031
0.738343 0.455882 0.315303
0.768397 0.457710 0.321722
0.798287 0.459614 0.328279
0.828033 0.461594 0.334968
0.857650 0.463648 0.341782
-0.073059 0.466018 0.238710
-0.073059 0.466089 0.239066
-0.073059 0.466169 0.239468
-0.073059 0.466283 0.240044
-0.073059 0.466437 0.240814
-0.073059 0.466633 0.241792
-0.073059 0.466875 0.242990
-0.073059 0.467164 0.244415
-0.073059 0.467503 0.246076
-0.073059 0.467893 0.247978
-0.073059 0.468338 0.250123
-0.031513 0.468838 0.252515
0.114364 0.469395 0.255154
0.185709 0.470011 0.258040
0.239799 0.470687 0.261170
0.286278 0.471425 0.264542
0.328384 0.472225 0.268153
0.367642 0.473089 0.271997
0.404900 0.474017 0.276069
0.440682 0.475012 0.280364
0.475334 0.476073 0.284875
0.509096 0.477201 0.289595
0.542143 0.478397 0.294517
0.574604 0.479661 0.299634
0.606578 0.480995 0.304939
0.638142 0.482398 0.310423
0.669358 0.483870 0.316080
0.700275 0.485413 0.321902
0.730934 0.487027 0.327882
0.761367 0.488711 0.334013
0.791603 0.490465 0.340288
0.821665 0.492290 0.346700
0.851572 0.494186 0.353243
-0.073059 0.499077 0.257347
-0.073059 0.499142 0.257673
-0.073059 0.499216 0.258042
-0.073059 0.499321 0.258571
-0.073059 0.499462 0.259278
-0.073059 0.499642 0.260177
-0.073059 0.499864 0.261278
-0.073059 0.500129 0.262591
-0.073059 0.500440 0.264121
-0.073059 0.500799 0.265874
-0.073059 0.501207 0.267856
-0.073059 0.501666 0.270067
0.001529 0.502178 0.272511
0.136000 0.502744 0.275187
0.204760 0.503365 0.278094
0.258504 0.504043 0.281232
0.305135 0.504779 0.284597
0.347549 0.505573 0.288186
0.387162 0.506428 0.291996
0.424785 0.507343 0.296021
0.460922 0.508319 0.300257
0.495913 0.509358 0.304697
0.529995 0.510460 0.309337
0.563343 0.511626 0.314170
0.596087 0.512855 0.319189
0.628325 0.514150 0.324388
0.660138 0.515509 0.329761
0.691586 0.516934 0.335300
0.722722 0.518424 0.341000
0.753586 0.519981 0.346853
0.784212 0.521604 0.352854
0.814629 0.523293 0.358996
0.844862 0.525048 0.365273
-0.073059 0.532137 0.275983
-0.073059 0.532197 0.276284
-0.073059 0.532264 0.276625
-0.073059 0.532361 0.277112
-0.073059 0.532492 0.277765
-0.073059 0.532658 0.278595
-0.073059 0.532862 0.279612
-0.073059 0.533107 0.280826
-0.073059 0.533394 0.282241
-0.073059 0.533724 0.283865
-0.073059 0.534101 0.285702
-0.073059 0.534525 0.287754
-0.073059 0.534997 0.290024
0.041264 0.535519 0.292514
0.157021 0.536093 0.295222
0.223762 0.536719 0.298149
0.277210 0.537399 0.301293
0.323979 0.538133 0.304652
0.366675 0.538922 0.308223
0.406620 0.539768 0.312002
0.444585 0.540671 0.315985
0.481060 0.541632 0.320168
0.516375 0.542652 0.324545
0.550766 0.543730 0.329113
0.584406 0.544869 0.333865
0.617424 0.546068 0.338796
0.649921 0.547328 0.343899
0.681977 0.548648 0.349170
0.713654 0.550031 0.354602
0.745005 0.551475 0.360190
0.776072 0.552982 0.365927
0.806890 0.554550 0.371808
0.837488 0.556182 0.377828
-0.073059 0.565196 0.294619
-0.073059 0.565252 0.294898
-0.073059 0.565314 0.295214
-0.073059 0.565404 0.295665
-0.073059 0.565525 0.296271
-0.073059 0.565679 0.297040
-0.073059 0.565868 0.297984
-0.073059 0.566095 0.299110
-0.073059 0.566360 0.300425
-0.073059 0.566667 0.301934
-0.073059 0.567016 0.303643
-0.073059 0.567409 0.305554
-0.073059 0.567847 0.307670
-0.073059 0.568331 0.309993
0.076961 0.568863 0.312523
0.177609 0.569443 0.315261
0.242725 0.570073 0.318205
0.295915 0.570754 0.321355
0.342809 0.571487 0.324708
0.385766 0.572272 0.328262
0.426022 0.573110 0.332013
0.464311 0.574003 0.335959
0.501106 0.574950 0.340094
0.536733 0.575952 0.344415
0.571421 0.577010 0.348918
0.605343 0.578125 0.353597
0.638628 0.579296 0.358447
0.671378 0.580525 0.363464
0.703672 0.581812 0.368642
0.735574 0.583156 0.373976
0.767137 0.584559 0.379461
0.798404 0.586021 0.385091
0.829411 0.587542 0.390861
-0.073059 0.598256 0.313256
-0.073059 0.598307 0.313515
-0.073059 0.598366 0.313809
-0.073059 0.598449 0.314229
-0.073059 0.598561 0.314792
-0.073059 0.598705 0.315508
-0.073059 0.598881 0.316387
-0.073059 0.599091 0.317436
-0.073059 0.599338 0.318662
-0.073059 0.599624 0.320069
-0.073059 0.599948 0.321664
-0.073059 0.600314 0.323449
-0.073059 0.600721 0.325427
-0.073059 0.601172 0.327600
-0.073059 0.601667 0.329970
0.106048 0.602207 0.332537
0.197878 0.602794 0.335301
0.261656 0.603428 0.338261
0.314621 0.604110 0.341416
0.361629 0.604842 0.344764
0.404827 0.605623 0.348303
0.445374 0.606454 0.352030
0.483969 0.607337 0.355941
0.521071 0.608271 0.360034
0.556995 0.609258 0.364304
0.591970 0.610298 0.368747
0.626165 0.611391 0.373359
0.659709 0.612538 0.378137
0.692705 0.613739 0.383074
0.725232 0.614995 0.388167
0.757355 0.616306 0.393411
0.789126 0.617672 0.398801
0.820591 0.619093 0.404333
-0.073059 0.631315 0.331892
-0.073059 0.631363 0.332134
-0.073059 0.631418 0.332408
-0.073059 0.631496 0.332800
-0.073059 0.631601 0.333326
-0.073059 0.631734 0.333995
-0.073059 0.631898 0.334816
-0.073059 0.632095 0.335797
-0.073059 0.632326 0.336943
-0.073059 0.632592 0.338260
-0.073059 0.632895 0.339752
-0.073059 0.633236 0.341425
-0.073059 0.633617 0.343279
-0.073059 0.634037 0.345318
-0.073059 0.634500 0.347544
-0.073059 0.635004 0.349956
0.132069 0.635553 0.352556
0.217905 0.636145 0.355344
0.280561 0.636783 0.358318
0.333326 0.637466 0.361478
0.380438 0.638196 0.364821
0.423861 0.638974 0.368346
0.464681 0.639799 0.372050
0.503566 0.640673 0.375931
0.540960 0.641596 0.379985
0.577170 0.642569 0.384208
0.612421 0.643592 0.388597
0.646880 0.644666 0.393149
0.680677 0.645791 0.397860
0.713912 0.646967 0.402725
0.746667 0.648195 0.407740
0.779006 0.649476 0.412901
0.810983 0.650808 0.418203
-0.073059 0.664375 0.350529
-0.073059 0.664420 0.350755
-0.073059 0.664471 0.351012
-0.073059 0.664544 0.351379
-0.073059 0.664642 0.351871
-0.073059 0.664767 0.352498
-0.073059 0.664921 0.353268
-0.073059 0.665105 0.354187
-0.073059 0.665321 0.355262
-0.073059 0.665570 0.356498
-0.073059 0.665854 0.357899
-0.073059 0.666174 0.359469
-0.073059 0.666530 0.361212
-0.073059 0.666924 0.363130
-0.073059 0.667357 0.365225
-0.073059 0.667830 0.367498
-0.027566 0.668344 0.369949
0.156313 0.668899 0.372579
0.237745 0.669497 0.375388
0.299445 0.670137 0.378376
0.352032 0.670822 0.381540
0.399240 0.671551 0.384879
0.442872 0.672325 0.388391
0.483948 0.673145 0.392075
0.523109 0.674011 0.395927
0.560780 0.674924 0.399945
0.597265 0.675884 0.404126
0.632782 0.676892 0.408466
0.667497 0.677949 0.412963
0.701539 0.679053 0.417612
0.735009 0.680207 0.422410
0.767986 0.681410 0.427353
0.800537 0.682663 0.432437
-0.073059 0.697434 0.369165
-0.073059 0.697477 0.369378
-0.073059 0.697524 0.369619
-0.073059 0.697593 0.369964
-0.073059 0.697685 0.370426
-0.073059 0.697803 0.371015
-0.073059 0.697947 0.371739
-0.073059 0.698120 0.372603
-0.073059 0.698323 0.373613
-0.073059 0.698557 0.374776
-0.073059 0.698824 0.376095
-0.073059 0.699124 0.377574
-0.073059 0.699458 0.379216
-0.073059 0.699829 0.381024
-0.073059 0.700236 0.383000
-0.073059 0.700680 0.385145
-0.073059 0.701163 0.387461
0.026173 0.701685 0.389948
0.179402 0.702246 0.392606
0.257434 0.702849 0.395434
0.318310 0.703492 0.398433
0.370737 0.704178 0.401601
0.418034 0.704906 0.404936
0.461861 0.705677 0.408438
0.503179 0.706492 0.412103
0.542601 0.707351 0.415929
0.580539 0.708254 0.419915
0.617287 0.709203 0.424057
0.653060 0.710197 0.428352
0.688024 0.711238 0.432797
0.722304 0.712324 0.437390
0.756001 0.713458 0.442126
0.789196 0.714638 0.447002
-0.073059 0.730494 0.387802
-0.073059 0.730534 0.388002
-0.073059 0.730579 0.388229
-0.073059 0.730643 0.388554
-0.073059 0.730730 0.388989
-0.073059 0.730841 0.389544
-0.073059 0.730977 0.390226
-0.073059 0.731139 0.391040
-0.073059 0.731331 0.391993
-0.073059 0.731551 0.393089
-0.073059 0.731802 0.394334
-0.073059 0.732085 0.395729
-0.073059 0.732400 0.397280
-0.073059 0.732749 0.398988
-0.073059 0.733132 0.400856
-0.073059 0.733551 0.402886
-0.073059 0.734006 0.405077
-0.073059 0.734497 0.407433
0.076665 0.735027 0.409952
0.201686 0.735594 0.412635
0.277002 0.736201 0.415482
0.337159 0.736847 0.418491
0.389443 0.737533 0.421663
0.436821 0.738260 0.424995
0.480830 0.739029 0.428485
0.522378 0.739839 0.432133
0.562048 0.740692 0.435936
0.600240 0.741587 0.439892
0.637241 0.742525 0.443998
0.673262 0.743507 0.448251
0.708466 0.744533 0.452649
0.742977 0.745603 0.457190
0.776897 0.746717 0.461869
-0.073059 0.763553 0.406438
-0.073059 0.763591 0.406627
-0.073059 0.763633 0.406841
-0.073059 0.763694 0.407148
-0.073059 0.763776 0.407559
-0.073059 0.763881 0.408083
-0.073059 0.764009 0.408727
-0.073059 0.764163 0.409496
-0.073059 0.764343 0.410397
-0.073059 0.764551 0.411433
-0.073059 0.764788 0.412610
-0.073059 0.765055 0.413930
-0.073059 0.765353 0.415397
-0.073059 0.765682 0.417015
-0.073059 0.766044 0.418784
-0.073059 0.766440 0.420707
-0.073059 0.766869 0.422785
-0.073059 0.767334 0.425020
-0.073059 0.767834 0.427412
0.112835 0.768370 0.429961
0.223380 0.768943 0.432667
0.296470 0.769553 0.435530
0.355995 0.770202 0.438550
0.408148 0.770889 0.441724
0.455603 0.771615 0.445053
0.499783 0.772381 0.448534
0.541546 0.773187 0.452166
0.581453 0.774034 0.455947
0.619889 0.774921 0.459875
0.657133 0.775850 0.463948
0.693394 0.776820 0.468163
0.728830 0.777833 0.472518
0.763566 0.778887 0.477010
-0.073059 0.796613 0.425074
-0.073059 0.796648 0.425253
-0.073059 0.796689 0.425456
-0.073059 0.796746 0.425746
-0.073059 0.796824 0.426135
-0.073059 0.796923 0.426631
-0.073059 0.797044 0.427241
-0.073059 0.797189 0.427969
-0.073059 0.797360 0.428822
-0.073059 0.797557 0.429803
-0.073059 0.797781 0.430918
-0.073059 0.798034 0.432170
-0.073059 0.798316 0.433561
-0.073059 0.798627 0.435095
-0.073059 0.798970 0.436774
-0.073059 0.799344 0.438600
-0.073059 0.799751 0.440574
-0.073059 0.800190 0.442698
-0.073059 0.800664 0.444972
-0.073059 0.801171 0.447397
0.143332 0.801714 0.449974
0.244627 0.802292 0.452701
0.315855 0.802906 0.455580
0.374819 0.803557 0.458608
0.426854 0.804245 0.461786
0.474379 0.804970 0.465111
0.518720 0.805734 0.468584
0.560688 0.806536 0.472201
0.600820 0.807377 0.475962
0.639489 0.808257 0.479865
0.676968 0.809177 0.483907
0.713459 0.810137 0.488086
0.749121 0.811137 0.492401
-0.073059 0.829672 0.443711
-0.073059 0.829706 0.443881
-0.073059 0.829744 0.444073
-0.073059 0.829799 0.444348
-0.073059 0.829872 0.444717
-0.073059 0.829966 0.445187
-0.073059 0.830081 0.445765
-0.073059 0.830219 0.446456
-0.073059 0.830381 0.447265
-0.073059 0.830568 0.448197
-0.073059 0.830780 0.449255
-0.073059 0.831020 0.450444
-0.073059 0.831287 0.451765
-0.073059 0.831583 0.453223
-0.073059 0.831907 0.454819
-0.073059 0.832262 0.456555
-0.073059 0.832648 0.458434
-0.073059 0.833065 0.460455
-0.073059 0.833514 0.462621
-0.073059 0.833995 0.464932
-0.073059 0.834510 0.467388
0.170815 0.835059 0.469990
0.265523 0.835642 0.472738
0.335170 0.836259 0.475630
0.393633 0.836912 0.478667
0.445559 0.837601 0.481847
0.493151 0.838326 0.485170
0.537643 0.839087 0.488634
0.579805 0.839885 0.492239
0.620151 0.840721 0.495981
0.659045 0.841595 0.499860
0.696749 0.842506 0.503873
0.733464 0.843457 0.508020
-0.073059 0.862732 0.462347
-0.073059 0.862764 0.462509
-0.073059 0.862800 0.462691
-0.073059 0.862852 0.462952
-0.073059 0.862922 0.463303
-0.073059 0.863011 0.463750
-0.073059 0.863120 0.464299
-0.073059 0.863251 0.464956
-0.073059 0.863405 0.465725
-0.073059 0.863582 0.466611
-0.073059 0.863784 0.467617
-0.073059 0.864012 0.468748
-0.073059 0.864266 0.470006
-0.073059 0.864547 0.471393
-0.073059 0.864855 0.472913
-0.073059 0.865193 0.474567
