滤镜资源/Professional Luts Collection/Lutify.me Professional/Utility LUTs/White Balance/6500 Kelvin - 2800 Kelvin - 1.56 CTB.cube
# Created by: Lutify.me
# Copyright: (c) Copyright Lutify.me 2015
# Website: https://lutify.me
LUT_3D_SIZE 5
0.000000 0.000000 0.000000
0.218846 0.016285 0.036777
0.443311 0.063885 0.111934
0.667775 0.117437 0.187129
0.892239 0.170988 0.262324
-0.073059 0.267661 0.126892
0.127566 0.270552 0.140801
0.411171 0.279592 0.178112
0.649201 0.295807 0.231957
0.879630 0.319015 0.294747
-0.073059 0.532137 0.275983
-0.073059 0.533394 0.282241
0.277210 0.537399 0.301293
0.584406 0.544869 0.333865
0.837488 0.556182 0.377828
-0.073059 0.796613 0.425074
-0.073059 0.797360 0.428822
-0.073059 0.799751 0.440574
0.426854 0.804245 0.461786
0.749121 0.811137 0.492401
-0.073059 1.061089 0.574166
-0.073059 1.061601 0.576739
-0.073059 1.063240 0.584892
-0.073059 1.066331 0.599923
0.576498 1.071091 0.622278
-0.036565 0.000778 0.438540
0.210446 0.017063 0.442146
0.439737 0.064446 0.453471
0.665658 0.117770 0.473969
0.890791 0.171217 0.503664
-0.073059 0.267800 0.456801
0.112165 0.270690 0.460230
0.407244 0.279724 0.471016
0.647005 0.295931 0.490605
0.878154 0.319128 0.519116
-0.073059 0.532197 0.509989
-0.073059 0.533453 0.512977
0.270853 0.537458 0.522416
0.581891 0.544927 0.539695
0.835913 0.556238 0.565131
-0.073059 0.796649 0.594897
-0.073059 0.797396 0.597356
-0.073059 0.799786 0.605156
0.423107 0.804280 0.619561
0.747299 0.811172 0.641045
-0.073059 1.061113 0.701914
-0.073059 1.061625 0.703903
-0.073059 1.063265 0.710230
-0.073059 1.066355 0.721997
0.573939 1.071115 0.739733
-0.073059 0.003274 0.843081
0.180594 0.019558 0.844646
0.428025 0.066220 0.849643
0.658810 0.118835 0.858984
0.886125 0.171949 0.873186
-0.073059 0.268245 0.851134
0.037974 0.271129 0.852680
0.394325 0.280148 0.857615
0.639897 0.296327 0.866844
0.873400 0.319490 0.880879
-0.073059 0.532390 0.876310
-0.073059 0.533646 0.877798
0.249186 0.537648 0.882549
0.573731 0.545114 0.891440
0.830838 0.556421 0.904976
-0.073059 0.796763 0.921468
-0.073059 0.797510 0.922861
-0.073059 0.799900 0.927310
0.410803 0.804393 0.935645
0.741415 0.811284 0.948356
-0.073059 1.061192 0.986096
-0.073059 1.061704 0.987370
-0.073059 1.063343 0.991440
-0.073059 1.066433 0.999075
0.565631 1.071193 1.010742
-0.073059 0.007991 1.247622
0.101245 0.024276 1.248553
0.404725 0.069478 1.251532
0.645605 0.120823 1.257139
0.877215 0.173322 1.265753
-0.073059 0.269084 1.252424
-0.073059 0.271958 1.253350
0.368365 0.280946 1.256315
0.626174 0.297074 1.261893
0.864316 0.320174 1.270464
-0.073059 0.532754 1.267662
-0.073059 0.534009 1.268574
0.200916 0.538008 1.271490
0.557883 0.545468 1.276981
0.821130 0.556765 1.285416
-0.073059 0.796980 1.295819
-0.073059 0.797727 1.296704
-0.073059 0.800116 1.299536
0.386207 0.804607 1.304869
0.730121 0.811495 1.313065
-0.073059 1.061340 1.337848
-0.073059 1.061852 1.338696
-0.073059 1.063491 1.341410
-0.073059 1.066581 1.346520
0.549484 1.071339 1.354380
-0.073059 0.015294 1.652162
-0.073059 0.031579 1.652800
0.364995 0.074297 1.654843
0.624450 0.123840 1.658696
0.863184 0.175426 1.664636
-0.073059 0.270378 1.655455
-0.073059 0.273236 1.656091
0.323106 0.282176 1.658129
0.604136 0.298227 1.661971
0.850003 0.321228 1.667896
-0.073059 0.533317 1.665956
-0.073059 0.534570 1.666587
0.077109 0.538564 1.668607
0.532156 0.546015 1.672417
0.805798 0.557298 1.678291
-0.073059 0.797315 1.685568
-0.073059 0.798061 1.686189
-0.073059 0.800449 1.688177
0.343827 0.804938 1.691928
0.712177 0.811822 1.697711
-0.073059 1.061570 1.715328
-0.073059 1.062081 1.715934
-0.073059 1.063720 1.717876
-0.073059 1.066809 1.721539
0.523228 1.071566 1.727188
