滤镜资源/Professional Luts Collection/Lutify.me Professional/Utility LUTs/White Balance/6500 Kelvin - 3200 Kelvin - 1.21 CTB.cube
# Created by: Lutify.me
# Copyright: (c) Copyright Lutify.me 2015
# Website: https://lutify.me
LUT_3D_SIZE 9
0.000000 0.000000 0.000000
0.110400 0.003487 0.007058
0.225261 0.012363 0.025022
0.340122 0.028192 0.055162
0.454983 0.050992 0.087186
0.569844 0.074864 0.119210
0.684705 0.098736 0.151234
0.799566 0.122608 0.183258
0.914427 0.146480 0.215282
-0.067509 0.132219 0.036186
0.074311 0.133548 0.043143
0.209990 0.136871 0.058431
0.330887 0.142607 0.080178
0.448571 0.150822 0.105813
0.565036 0.161396 0.133683
0.680915 0.174089 0.162870
0.796473 0.188611 0.192870
0.911836 0.204670 0.223396
-0.073059 0.262233 0.099399
-0.073059 0.262870 0.102883
0.164110 0.264484 0.111299
0.305861 0.267334 0.124981
0.431713 0.271557 0.143182
0.552556 0.277230 0.164877
0.671144 0.284375 0.189138
0.788529 0.292973 0.215247
0.905198 0.302973 0.242687
-0.073059 0.392246 0.162678
-0.073059 0.392640 0.164851
-0.009255 0.393642 0.170250
0.253909 0.395420 0.179454
0.399430 0.398077 0.192419
0.529362 0.401687 0.208792
0.653247 0.406300 0.228071
0.774095 0.411946 0.249734
0.893198 0.418638 0.273308
-0.073059 0.522259 0.225956
-0.073059 0.522535 0.227481
-0.073059 0.523237 0.231312
0.137036 0.524485 0.237971
0.343708 0.526355 0.247609
0.491809 0.528908 0.260170
0.625054 0.532189 0.275452
0.751687 0.536231 0.293169
0.874727 0.541061 0.313004
-0.073059 0.652273 0.289235
-0.073059 0.652480 0.290384
-0.073059 0.653008 0.293285
-0.073059 0.653949 0.298377
0.242207 0.655361 0.305851
0.433507 0.657291 0.315764
0.583488 0.659779 0.328066
0.719451 0.662854 0.342627
0.848522 0.666542 0.359268
-0.073059 0.782286 0.352513
-0.073059 0.782450 0.353421
-0.073059 0.782867 0.355720
-0.073059 0.783610 0.359776
-0.073059 0.784727 0.365776
0.339272 0.786255 0.373817
0.523307 0.788227 0.383919
0.674720 0.790670 0.396041
0.812944 0.793606 0.410093
-0.073059 0.912300 0.415792
-0.073059 0.912433 0.416534
-0.073059 0.912774 0.418416
-0.073059 0.913382 0.421747
-0.073059 0.914295 0.426698
0.130590 0.915546 0.433377
0.433388 0.917161 0.441834
0.613106 0.919163 0.452074
0.765647 0.921573 0.464064
-0.073059 1.042313 0.479070
-0.073059 1.042425 0.479693
-0.073059 1.042711 0.481272
-0.073059 1.043220 0.484073
-0.073059 1.043986 0.488249
-0.073059 1.045035 0.493907
0.277056 1.046391 0.501109
0.526065 1.048073 0.509884
0.702905 1.050099 0.520229
-0.007061 0.000157 0.206981
0.107139 0.003644 0.208662
0.223718 0.012520 0.212874
0.339170 0.028349 0.220163
0.454317 0.051125 0.230648
0.569343 0.074964 0.244210
0.684310 0.098815 0.260575
0.799243 0.122672 0.279395
0.914156 0.146534 0.300303
-0.073059 0.132279 0.215445
0.069655 0.133607 0.217053
0.208320 0.136929 0.221087
0.329903 0.142662 0.228083
0.447894 0.150875 0.238177
0.564530 0.161445 0.251279
0.680517 0.174134 0.267149
0.796149 0.188653 0.285468
0.911565 0.204708 0.305891
-0.073059 0.262261 0.235469
-0.073059 0.262898 0.236925
0.161926 0.264512 0.240586
0.304779 0.267362 0.246961
0.431003 0.271585 0.256215
0.552035 0.277257 0.268314
0.670739 0.284401 0.283088
0.788200 0.292999 0.300280
0.904924 0.302997 0.319596
-0.073059 0.392264 0.267038
-0.073059 0.392658 0.268299
-0.016316 0.393659 0.271478
0.252564 0.395437 0.277043
0.398648 0.398094 0.285179
0.528812 0.401704 0.295915
0.652827 0.406317 0.309160
0.773758 0.411963 0.324740
0.892919 0.418654 0.342430
-0.073059 0.522272 0.307677
-0.073059 0.522548 0.308746
-0.073059 0.523249 0.311446
0.134402 0.524497 0.316193
0.342768 0.526368 0.323181
0.491206 0.528920 0.332482
0.624610 0.532201 0.344074
0.751337 0.536243 0.357857
0.874441 0.541073 0.373683
-0.073059 0.652282 0.354767
-0.073059 0.652490 0.355668
-0.073059 0.653018 0.357949
-0.073059 0.653958 0.361974
0.240787 0.655370 0.367931
0.432801 0.657301 0.375916
0.583003 0.659788 0.385951
0.719081 0.662863 0.397997
0.848223 0.666552 0.411968
-0.073059 0.782294 0.406272
-0.073059 0.782457 0.407036
-0.073059 0.782875 0.408972
-0.073059 0.783618 0.412397
-0.073059 0.784734 0.417486
0.338318 0.786263 0.424344
0.522749 0.788235 0.433020
0.674317 0.790677 0.443514
0.812628 0.793613 0.455785
-0.073059 0.912306 0.460791
-0.073059 0.912439 0.461445
-0.073059 0.912780 0.463103
-0.073059 0.913388 0.466041
-0.073059 0.914301 0.470419
0.127824 0.915552 0.476344
0.432681 0.917167 0.483875
0.612650 0.919169 0.493038
0.765306 0.921579 0.503821
-0.073059 1.042318 0.517398
-0.073059 1.042430 0.517963
-0.073059 1.042716 0.519397
-0.073059 1.043225 0.521943
-0.073059 1.043991 0.525744
-0.073059 1.045040 0.530902
0.275841 1.046396 0.537484
0.525511 1.048078 0.545526
0.702523 1.050104 0.555039
-0.025035 0.000556 0.388913
0.098395 0.004043 0.389719
0.219736 0.012919 0.391761
0.336733 0.028748 0.395370
0.452618 0.051462 0.400727
0.568067 0.075218 0.407934
0.683303 0.099016 0.417034
0.798421 0.122837 0.428016
0.913467 0.146672 0.440824
-0.073059 0.132432 0.393023
0.056542 0.133758 0.393818
0.204002 0.137077 0.395834
0.327383 0.142804 0.399399
0.446165 0.151008 0.404690
0.563240 0.161569 0.411812
0.679503 0.174249 0.420809
0.795322 0.188758 0.431672
0.910873 0.204804 0.444349
-0.073059 0.262334 0.403254
-0.073059 0.262971 0.404024
0.156221 0.264584 0.405978
0.302007 0.267433 0.409434
0.429188 0.271655 0.414568
0.550708 0.277325 0.421485
0.669705 0.284467 0.430233
0.787363 0.293063 0.440809
0.904226 0.303059 0.453170
-0.073059 0.392309 0.420745
-0.073059 0.392703 0.421476
-0.034290 0.393704 0.423331
0.249102 0.395482 0.426614
0.396649 0.398138 0.431496
0.527410 0.401748 0.438084
0.651756 0.406360 0.446431
0.772900 0.412005 0.456543
0.892208 0.418696 0.468390
-0.073059 0.522303 0.445485
-0.073059 0.522579 0.446166
-0.073059 0.523281 0.447895
0.127454 0.524528 0.450958
0.340362 0.526399 0.455518
0.489666 0.528952 0.461682
0.623477 0.532232 0.469510
0.750446 0.536274 0.479018
0.873710 0.541103 0.490190
-0.073059 0.652306 0.476868
-0.073059 0.652513 0.477494
-0.073059 0.653042 0.479082
-0.073059 0.653982 0.481899
0.237128 0.655394 0.486099
0.430995 0.657324 0.491788
0.581764 0.659811 0.499028
0.718137 0.662887 0.507848
0.847463 0.666575 0.518245
-0.073059 0.782312 0.513985
-0.073059 0.782476 0.514555
-0.073059 0.782893 0.516001
-0.073059 0.783636 0.518567
-0.073059 0.784753 0.522400
0.335873 0.786281 0.527599
0.521325 0.788253 0.534233
0.673291 0.790696 0.542336
0.811823 0.793631 0.551919
-0.073059 0.912321 0.555861
-0.073059 0.912455 0.556377
-0.073059 0.912796 0.557687
-0.073059 0.913403 0.560013
-0.073059 0.914316 0.563491
0.120506 0.915567 0.568218
0.430875 0.917182 0.574262
0.611488 0.919184 0.581663
0.764435 0.921594 0.590441
-0.073059 1.042331 0.601592
-0.073059 1.042443 0.602058
-0.073059 1.042729 0.603243
-0.073059 1.043238 0.605348
-0.073059 1.044004 0.608498
-0.073059 1.045053 0.612786
0.272719 1.046409 0.618278
0.524097 1.048091 0.625019
0.701550 1.050117 0.633035
-0.057090 0.001267 0.570844
0.080780 0.004754 0.571343
0.212427 0.013630 0.572609
0.332333 0.029459 0.574859
0.449568 0.052060 0.578224
0.565781 0.075670 0.582799
0.681502 0.099373 0.588652
0.796951 0.123129 0.595826
0.912237 0.146917 0.604342
-0.073059 0.132703 0.573395
0.026736 0.134027 0.573890
0.196040 0.137339 0.575150
0.322829 0.143056 0.577387
0.443059 0.151246 0.580733
0.560929 0.161791 0.585283
0.677689 0.174454 0.591104
0.793845 0.188946 0.598241
0.909638 0.204976 0.606713
-0.073059 0.262464 0.579822
-0.073059 0.263101 0.580310
0.145476 0.264713 0.581552
0.296986 0.267560 0.583758
0.425928 0.271780 0.587057
0.548329 0.277447 0.591545
0.667857 0.284585 0.597289
0.785866 0.293177 0.604332
0.902978 0.303169 0.612697
-0.073059 0.392389 0.591062
-0.073059 0.392783 0.591539
-0.066345 0.393784 0.592751
0.242788 0.395561 0.594904
0.393052 0.398217 0.598125
0.524896 0.401826 0.602507
0.649842 0.406437 0.608119
0.771367 0.412081 0.615003
0.890938 0.418770 0.623185
-0.073059 0.522360 0.607479
-0.073059 0.522635 0.607940
-0.073059 0.523337 0.609110
0.114047 0.524584 0.611189
0.336019 0.526455 0.614301
0.486904 0.529007 0.618537
0.621449 0.532287 0.623964
0.748852 0.536328 0.630628
0.872405 0.541157 0.638553
-0.073059 0.652348 0.629114
-0.073059 0.652556 0.629554
-0.073059 0.653084 0.630673
-0.073059 0.654024 0.632661
0.230438 0.655436 0.635639
0.427752 0.657366 0.639694
0.579548 0.659853 0.644893
0.716449 0.662928 0.651283
0.846104 0.666616 0.658889
-0.073059 0.782346 0.655763
-0.073059 0.782510 0.656180
-0.073059 0.782927 0.657241
-0.073059 0.783670 0.659127
-0.073059 0.784786 0.661951
0.331459 0.786314 0.665801
0.518775 0.788286 0.670741
0.671455 0.790729 0.676817
0.810386 0.793664 0.684059
-0.073059 0.912348 0.687056
-0.073059 0.912482 0.687449
-0.073059 0.912823 0.688448
-0.073059 0.913430 0.690224
-0.073059 0.914343 0.692886
0.106273 0.915594 0.696516
0.427631 0.917209 0.701178
0.609409 0.919211 0.706917
0.762880 0.921621 0.713767
-0.073059 1.042354 0.722532
-0.073059 1.042466 0.722900
-0.073059 1.042752 0.723835
-0.073059 1.043261 0.725500
-0.073059 1.044027 0.727996
-0.073059 1.045076 0.731401
0.267047 1.046432 0.735778
0.521564 1.048114 0.741172
0.699810 1.050140 0.747616
-0.073059 0.002337 0.752776
0.045711 0.005824 0.753125
0.200869 0.014700 0.754012
0.325576 0.030530 0.755590
0.444929 0.052951 0.757958
0.562320 0.076345 0.761190
0.678781 0.099909 0.765346
0.794734 0.123568 0.770471
0.910381 0.147285 0.776601
-0.073059 0.133111 0.754562
-0.021501 0.134431 0.754910
0.183346 0.137733 0.755794
0.315828 0.143434 0.757368
0.438334 0.151604 0.759728
0.557429 0.162125 0.762951
0.674948 0.174762 0.767094
0.791616 0.189229 0.772205
0.907775 0.205235 0.778316
-0.073059 0.262660 0.759085
-0.073059 0.263296 0.759430
0.127591 0.264907 0.760307
0.289236 0.267752 0.761869
0.420962 0.271968 0.764211
0.544726 0.277630 0.767409
0.665063 0.284763 0.771521
0.783607 0.293349 0.776594
0.901097 0.303334 0.782660
-0.073059 0.392510 0.767064
-0.073059 0.392904 0.767405
-0.073059 0.393905 0.768270
0.232916 0.395681 0.769811
0.387561 0.398336 0.772121
0.521086 0.401943 0.775276
0.646947 0.406553 0.779335
0.769052 0.412195 0.784341
0.889024 0.418882 0.790330
-0.073059 0.522444 0.778871
-0.073059 0.522720 0.779205
-0.073059 0.523421 0.780053
0.090486 0.524669 0.781564
0.329354 0.526539 0.783829
0.482710 0.529090 0.786923
0.618382 0.532369 0.790903
0.746445 0.536410 0.795815
0.870436 0.541238 0.801692
-0.073059 0.652412 0.794697
-0.073059 0.652620 0.795022
-0.073059 0.653147 0.795848
-0.073059 0.654088 0.797320
0.219936 0.655499 0.799527
0.422813 0.657429 0.802542
0.576191 0.659916 0.806422
0.713899 0.662990 0.811211
0.844054 0.666678 0.816943
-0.073059 0.782396 0.814583
-0.073059 0.782560 0.814898
-0.073059 0.782977 0.815698
-0.073059 0.783720 0.817123
-0.073059 0.784836 0.819260
0.324681 0.786364 0.822181
0.514907 0.788336 0.825940
0.668681 0.790778 0.830582
0.808216 0.793713 0.836142
-0.073059 0.912389 0.838450
-0.073059 0.912523 0.838753
-0.073059 0.912864 0.839524
-0.073059 0.913471 0.840895
-0.073059 0.914384 0.842954
0.080749 0.915635 0.845768
0.422690 0.917250 0.849391
0.606263 0.919252 0.853866
0.760531 0.921662 0.859229
-0.073059 1.042388 0.866124
-0.073059 1.042500 0.866414
-0.073059 1.042786 0.867153
-0.073059 1.043295 0.868468
-0.073059 1.044061 0.870441
-0.073059 1.045110 0.873139
0.258236 1.046466 0.876614
0.517722 1.048148 0.880908
0.697181 1.050174 0.886056
-0.073059 0.003806 0.934707
-0.020162 0.007293 0.934970
0.183711 0.016169 0.935638
0.316025 0.031998 0.936827
0.438466 0.054157 0.938613
0.557526 0.077264 0.941056
0.675024 0.100639 0.944205
0.791678 0.124167 0.948101
0.907827 0.147789 0.952775
-0.073059 0.133668 0.936052
-0.073059 0.134983 0.936314
0.164215 0.138272 0.936981
0.305913 0.143951 0.938168
0.431747 0.152093 0.939951
0.552581 0.162581 0.942389
0.671164 0.175184 0.945533
0.788545 0.189616 0.949421
0.905211 0.205589 0.954087
-0.073059 0.262928 0.939465
-0.073059 0.263563 0.939726
0.098091 0.265172 0.940389
0.278190 0.268014 0.941570
0.414031 0.272225 0.943345
0.539732 0.277882 0.945772
0.661206 0.285007 0.948900
0.780494 0.293584 0.952770
0.898508 0.303561 0.957414
-0.073059 0.392676 0.945510
-0.073059 0.393070 0.945768
-0.073059 0.394070 0.946426
0.218549 0.395846 0.947598
0.379871 0.398499 0.949357
0.515800 0.402105 0.951764
0.642948 0.406712 0.954866
0.765862 0.412351 0.958704
0.886388 0.419035 0.963311
-0.073059 0.522560 0.954511
-0.073059 0.522836 0.954767
-0.073059 0.523537 0.955416
0.044842 0.524784 0.956573
0.319938 0.526654 0.958311
0.476882 0.529205 0.960688
0.614142 0.532483 0.963752
0.743128 0.536523 0.967544
0.867726 0.541349 0.972095
-0.073059 0.652499 0.966680
-0.073059 0.652707 0.966931
-0.073059 0.653235 0.967570
-0.073059 0.654175 0.968708
0.204544 0.655586 0.970417
0.415920 0.657516 0.972755
0.571546 0.660002 0.975769
0.710382 0.663076 0.979499
0.841232 0.666763 0.983977
-0.073059 0.782465 0.982132
-0.073059 0.782629 0.982378
-0.073059 0.783046 0.983003
-0.073059 0.783789 0.984117
-0.073059 0.784905 0.985791
0.315097 0.786433 0.988081
0.509539 0.788404 0.991034
0.664850 0.790846 0.994688
0.805227 0.793781 0.999076
-0.073059 0.912446 1.000902
-0.073059 0.912580 1.001142
-0.073059 0.912920 1.001752
-0.073059 0.913528 1.002839
-0.073059 0.914441 1.004471
0.028023 0.915691 1.006705
0.415795 0.917306 1.009586
0.601913 0.919308 1.013152
0.757294 0.921717 1.017435
-0.073059 1.042435 1.022959
-0.073059 1.042548 1.023192
-0.073059 1.042833 1.023784
-0.073059 1.043343 1.024840
-0.073059 1.044108 1.026426
-0.073059 1.045157 1.028597
0.245554 1.046513 1.031396
0.512392 1.048195 1.034863
0.693553 1.050220 1.039028
-0.073059 0.005706 1.116639
-0.073059 0.009193 1.116846
0.158550 0.018069 1.117374
0.303130 0.033898 1.118313
0.429922 0.055690 1.119726
0.551244 0.078440 1.121659
0.670123 0.101577 1.124155
0.787701 0.124938 1.127247
0.904508 0.148438 1.130965
-0.073059 0.134386 1.117701
-0.073059 0.135694 1.117908
0.135308 0.138966 1.118435
0.292485 0.144618 1.119374
0.423034 0.152723 1.120784
0.546226 0.163169 1.122715
0.666226 0.175728 1.125208
0.784547 0.190116 1.128296
0.901879 0.206047 1.132009
-0.073059 0.263274 1.120399
-0.073059 0.263909 1.120606
0.040071 0.265515 1.121131
0.263086 0.268352 1.122067
0.404842 0.272558 1.123473
0.533182 0.278206 1.125398
0.656170 0.285323 1.127882
0.776442 0.293889 1.130961
0.895144 0.303853 1.134662
-0.073059 0.392891 1.125190
-0.073059 0.393284 1.125395
-0.073059 0.394284 1.125917
0.198223 0.396058 1.126848
0.369628 0.398710 1.128246
0.508856 0.402313 1.130160
0.637726 0.406917 1.132630
0.761707 0.412553 1.135692
0.882962 0.419233 1.139373
-0.073059 0.522711 1.132348
-0.073059 0.522986 1.132551
-0.073059 0.523687 1.133069
-0.040567 0.524934 1.133992
0.307239 0.526802 1.135378
0.469205 0.529352 1.137276
0.608599 0.532629 1.139726
0.738806 0.536668 1.142762
0.864202 0.541492 1.146413
-0.073059 0.652612 1.142070
-0.073059 0.652820 1.142271
-0.073059 0.653348 1.142783
-0.073059 0.654288 1.143695
0.182496 0.655699 1.145066
0.406784 0.657628 1.146942
0.565462 0.660113 1.149365
0.705797 0.663187 1.152367
0.837561 0.666873 1.155978
-0.073059 0.782554 1.154489
-0.073059 0.782718 1.154687
-0.073059 0.783135 1.155192
-0.073059 0.783878 1.156091
-0.073059 0.784994 1.157442
0.302155 0.786522 1.159292
0.502486 0.788493 1.161680
0.659851 0.790934 1.164640
0.801338 0.793869 1.168200
-0.073059 0.912519 1.169683
-0.073059 0.912653 1.169878
-0.073059 0.912993 1.170374
-0.073059 0.913601 1.171257
-0.073059 0.914513 1.172585
-0.057606 0.915764 1.174403
0.406655 0.917378 1.176750
0.596224 0.919380 1.179660
0.753077 0.921789 1.183159
-0.073059 1.042497 1.187681
-0.073059 1.042609 1.187872
-0.073059 1.042895 1.188358
-0.073059 1.043404 1.189224
-0.073059 1.044169 1.190525
-0.073059 1.045218 1.192307
0.227938 1.046574 1.194607
0.505389 1.048256 1.197459
0.688822 1.050281 1.200889
-0.073059 0.008068 1.298570
-0.073059 0.011555 1.298740
0.119869 0.020431 1.299171
0.286132 0.036261 1.299939
0.418997 0.057556 1.301094
0.543305 0.079882 1.302676
0.663964 0.102733 1.304719
0.782720 0.125891 1.307254
0.900359 0.149241 1.310304
-0.073059 0.135273 1.299439
-0.073059 0.136572 1.299608
0.087292 0.139824 1.300038
0.274707 0.145442 1.300806
0.411882 0.153503 1.301960
0.538193 0.163898 1.303540
0.660020 0.176401 1.305582
0.779539 0.190735 1.308114
0.897715 0.206614 1.311162
-0.073059 0.263704 1.301645
-0.073059 0.264337 1.301814
-0.066378 0.265941 1.302243
0.242781 0.268773 1.303009
0.393048 0.272971 1.304160
0.524894 0.278610 1.305737
0.649840 0.285714 1.307774
0.771365 0.294267 1.310301
0.890937 0.304217 1.313342
-0.073059 0.393157 1.305567
-0.073059 0.393551 1.305735
-0.073059 0.394549 1.306163
0.169231 0.396322 1.306926
0.356390 0.398972 1.308073
0.500054 0.402572 1.309643
0.631156 0.407173 1.311672
0.756501 0.412804 1.314188
0.878679 0.419479 1.317218
-0.073059 0.522897 1.311440
-0.073059 0.523173 1.311607
-0.073059 0.523873 1.312032
-0.073059 0.525119 1.312791
0.290526 0.526987 1.313930
0.459435 0.529536 1.315492
0.601616 0.532812 1.317508
0.733386 0.536848 1.320010
0.859795 0.541671 1.323021
-0.073059 0.652753 1.319439
-0.073059 0.652960 1.319605
-0.073059 0.653488 1.320027
-0.073059 0.654428 1.320779
0.150282 0.655838 1.321909
0.395062 0.657767 1.323458
0.557781 0.660252 1.325458
0.700043 0.663325 1.327940
0.832967 0.667010 1.330927
-0.073059 0.782665 1.329695
-0.073059 0.782829 1.329859
-0.073059 0.783246 1.330276
-0.073059 0.783989 1.331021
-0.073059 0.785105 1.332139
0.285088 0.786632 1.333672
0.493540 0.788603 1.335652
0.653566 0.791044 1.338108
0.796468 0.793978 1.341065
-0.073059 0.912609 1.342298
-0.073059 0.912743 1.342460
-0.073059 0.913084 1.342872
-0.073059 0.913691 1.343607
-0.073059 0.914604 1.344711
-0.073059 0.915854 1.346225
0.394928 0.917468 1.348180
0.589052 0.919470 1.350606
0.747793 0.921879 1.353526
-0.073059 1.042573 1.357304
-0.073059 1.042685 1.357463
-0.073059 1.042971 1.357869
-0.073059 1.043480 1.358593
-0.073059 1.044245 1.359682
-0.073059 1.045294 1.361173
0.203632 1.046649 1.363099
0.496509 1.048331 1.365489
0.682881 1.050356 1.368366
-0.073059 0.010920 1.480502
-0.073059 0.014407 1.480644
0.044282 0.023283 1.481005
0.263884 0.039112 1.481649
0.405319 0.059752 1.482618
0.533520 0.081595 1.483945
0.656429 0.104113 1.485660
0.776650 0.127031 1.487788
0.895316 0.150204 1.490352
-0.073059 0.136337 1.481230
-0.073059 0.137626 1.481371
-0.023051 0.140853 1.481733
0.251273 0.146431 1.482376
0.397900 0.154439 1.483344
0.528287 0.164773 1.484670
0.652426 0.177211 1.486384
0.773437 0.191479 1.488511
0.892652 0.207296 1.491073
-0.073059 0.264222 1.483080
-0.073059 0.264854 1.483221
-0.073059 0.266454 1.483582
0.215340 0.269280 1.484224
0.378203 0.273468 1.485191
0.514662 0.279095 1.486515
0.642090 0.286186 1.488226
0.765178 0.294723 1.490349
0.885824 0.304655 1.492907
-0.073059 0.393479 1.486372
-0.073059 0.393872 1.486513
-0.073059 0.394869 1.486872
0.125094 0.396640 1.487513
0.339569 0.399288 1.488476
0.489159 0.402884 1.489796
0.623105 0.407481 1.491502
0.750153 0.413107 1.493620
0.873470 0.419776 1.496170
-0.073059 0.523123 1.491307
-0.073059 0.523398 1.491448
-0.073059 0.524098 1.491805
-0.073059 0.525343 1.492443
0.268705 0.527210 1.493402
0.447284 0.529758 1.494717
0.593045 0.533032 1.496415
0.726773 0.537066 1.498523
0.854434 0.541886 1.501062
-0.073059 0.652923 1.498042
-0.073059 0.653130 1.498181
-0.073059 0.653657 1.498537
-0.073059 0.654597 1.499171
0.098062 0.656007 1.500124
0.380314 0.657935 1.501430
0.548323 0.660419 1.503119
0.693013 0.663491 1.505214
0.827377 0.667175 1.507738
-0.073059 0.782799 1.506696
-0.073059 0.782963 1.506835
-0.073059 0.783380 1.507188
-0.073059 0.784122 1.507817
-0.073059 0.785238 1.508763
0.262736 0.786765 1.510059
0.482460 0.788736 1.511734
0.645874 0.791176 1.513813
0.790537 0.794109 1.516318
-0.073059 0.912719 1.517363
-0.073059 0.912853 1.517500
-0.073059 0.913193 1.517850
-0.073059 0.913801 1.518473
-0.073059 0.914713 1.519410
-0.073059 0.915963 1.520694
0.380174 0.917577 1.522353
0.580243 0.919578 1.524413
0.741347 0.921987 1.526894
-0.073059 1.042664 1.530106
-0.073059 1.042777 1.530242
-0.073059 1.043062 1.530588
-0.073059 1.043571 1.531204
-0.073059 1.044337 1.532130
-0.073059 1.045386 1.533400
0.169179 1.046741 1.535041
0.485514 1.048422 1.537077
0.675619 1.050447 1.539531
