滤镜资源/Professional Luts Collection/Lutify.me Professional/Utility LUTs/White Balance/6500 Kelvin - 3200 Kelvin - 1.21 CTB.cube
# Created by: Lutify.me
# Copyright: (c) Copyright Lutify.me 2015
# Website: https://lutify.me
LUT_3D_SIZE 5
0.000000 0.000000 0.000000
0.225261 0.012363 0.025022
0.454983 0.050992 0.087186
0.684705 0.098736 0.151234
0.914427 0.146480 0.215282
-0.073059 0.262233 0.099399
0.164110 0.264484 0.111299
0.431713 0.271557 0.143182
0.671144 0.284375 0.189138
0.905198 0.302973 0.242687
-0.073059 0.522259 0.225956
-0.073059 0.523237 0.231312
0.343708 0.526355 0.247609
0.625054 0.532189 0.275452
0.874727 0.541061 0.313004
-0.073059 0.782286 0.352513
-0.073059 0.782867 0.355720
-0.073059 0.784727 0.365776
0.523307 0.788227 0.383919
0.812944 0.793606 0.410093
-0.073059 1.042313 0.479070
-0.073059 1.042711 0.481272
-0.073059 1.043986 0.488249
0.277056 1.046391 0.501109
0.702905 1.050099 0.520229
-0.025035 0.000556 0.388913
0.219736 0.012919 0.391761
0.452618 0.051462 0.400727
0.683303 0.099016 0.417034
0.913467 0.146672 0.440824
-0.073059 0.262334 0.403254
0.156221 0.264584 0.405978
0.429188 0.271655 0.414568
0.669705 0.284467 0.430233
0.904226 0.303059 0.453170
-0.073059 0.522303 0.445485
-0.073059 0.523281 0.447895
0.340362 0.526399 0.455518
0.623477 0.532232 0.469510
0.873710 0.541103 0.490190
-0.073059 0.782312 0.513985
-0.073059 0.782893 0.516001
-0.073059 0.784753 0.522400
0.521325 0.788253 0.534233
0.811823 0.793631 0.551919
-0.073059 1.042331 0.601592
-0.073059 1.042729 0.603243
-0.073059 1.044004 0.608498
0.272719 1.046409 0.618278
0.701550 1.050117 0.633035
-0.073059 0.002337 0.752776
0.200869 0.014700 0.754012
0.444929 0.052951 0.757958
0.678781 0.099909 0.765346
0.910381 0.147285 0.776601
-0.073059 0.262660 0.759085
0.127591 0.264907 0.760307
0.420962 0.271968 0.764211
0.665063 0.284763 0.771521
0.901097 0.303334 0.782660
-0.073059 0.522444 0.778871
-0.073059 0.523421 0.780053
0.329354 0.526539 0.783829
0.618382 0.532369 0.790903
0.870436 0.541238 0.801692
-0.073059 0.782396 0.814583
-0.073059 0.782977 0.815698
-0.073059 0.784836 0.819260
0.514907 0.788336 0.825940
0.808216 0.793713 0.836142
-0.073059 1.042388 0.866124
-0.073059 1.042786 0.867153
-0.073059 1.044061 0.870441
0.258236 1.046466 0.876614
0.697181 1.050174 0.886056
-0.073059 0.005706 1.116639
0.158550 0.018069 1.117374
0.429922 0.055690 1.119726
0.670123 0.101577 1.124155
0.904508 0.148438 1.130965
-0.073059 0.263274 1.120399
0.040071 0.265515 1.121131
0.404842 0.272558 1.123473
0.656170 0.285323 1.127882
0.895144 0.303853 1.134662
-0.073059 0.522711 1.132348
-0.073059 0.523687 1.133069
0.307239 0.526802 1.135378
0.608599 0.532629 1.139726
0.864202 0.541492 1.146413
-0.073059 0.782554 1.154489
-0.073059 0.783135 1.155192
-0.073059 0.784994 1.157442
0.502486 0.788493 1.161680
0.801338 0.793869 1.168200
-0.073059 1.042497 1.187681
-0.073059 1.042895 1.188358
-0.073059 1.044169 1.190525
0.227938 1.046574 1.194607
0.688822 1.050281 1.200889
-0.073059 0.010920 1.480502
0.044282 0.023283 1.481005
0.405319 0.059752 1.482618
0.656429 0.104113 1.485660
0.895316 0.150204 1.490352
-0.073059 0.264222 1.483080
-0.073059 0.266454 1.483582
0.378203 0.273468 1.485191
0.642090 0.286186 1.488226
0.885824 0.304655 1.492907
-0.073059 0.523123 1.491307
-0.073059 0.524098 1.491805
0.268705 0.527210 1.493402
0.593045 0.533032 1.496415
0.854434 0.541886 1.501062
-0.073059 0.782799 1.506696
-0.073059 0.783380 1.507188
-0.073059 0.785238 1.508763
0.482460 0.788736 1.511734
0.790537 0.794109 1.516318
-0.073059 1.042664 1.530106
-0.073059 1.043062 1.530588
-0.073059 1.044337 1.532130
0.169179 1.046741 1.535041
0.675619 1.050447 1.539531
