滤镜资源/Professional Luts Collection/Lutify.me Professional/Utility LUTs/White Balance/6500 Kelvin - 5500 Kelvin - 0.21 CTB.cube
# Created by: Lutify.me
# Copyright: (c) Copyright Lutify.me 2015
# Website: https://lutify.me
LUT_3D_SIZE 5
0.000000 0.000000 0.000000
0.245419 0.001970 0.003039
0.491663 0.008287 0.012787
0.737908 0.020230 0.031216
0.984153 0.038716 0.057289
-0.038018 0.251184 0.015199
0.237775 0.251562 0.018238
0.488403 0.252772 0.027986
0.735976 0.255040 0.046080
0.982831 0.258506 0.068412
-0.073059 0.502154 0.060517
0.211138 0.502318 0.062773
0.477755 0.502843 0.069633
0.729732 0.503833 0.081327
0.978574 0.505361 0.097063
-0.073059 0.753125 0.112551
0.146621 0.753222 0.113903
0.456767 0.753534 0.118139
0.717735 0.754124 0.125773
0.970458 0.755035 0.136771
-0.073059 1.004095 0.164585
-0.073059 1.004162 0.165514
0.421674 1.004376 0.168454
0.698633 1.004779 0.173869
0.957715 1.005404 0.181914
-0.003098 0.000077 0.270400
0.244806 0.002047 0.270936
0.491399 0.008364 0.272647
0.737751 0.020307 0.275848
0.984045 0.038793 0.280719
-0.041116 0.251199 0.273068
0.237140 0.251577 0.273598
0.488136 0.252786 0.275290
0.735818 0.255054 0.278456
0.982723 0.258520 0.283274
-0.073059 0.502161 0.281428
0.210411 0.502325 0.281940
0.477481 0.502849 0.283574
0.729573 0.503840 0.286633
0.978465 0.505368 0.291293
-0.073059 0.753129 0.296485
0.145548 0.753226 0.296967
0.456477 0.753538 0.298504
0.717572 0.754127 0.301386
0.970348 0.755039 0.305782
-0.073059 1.004098 0.318154
-0.073059 1.004164 0.318596
0.421354 1.004378 0.320011
0.698465 1.004782 0.322666
0.957603 1.005407 0.326724
-0.013035 0.000324 0.537121
0.242829 0.002294 0.537353
0.490548 0.008611 0.538096
0.737246 0.020554 0.539498
0.983700 0.039040 0.541659
-0.051053 0.251246 0.538280
0.235089 0.251625 0.538511
0.487278 0.252834 0.539253
0.735311 0.255101 0.540651
0.982377 0.258566 0.542806
-0.073059 0.502181 0.541977
0.208063 0.502345 0.542206
0.476599 0.502870 0.542941
0.729061 0.503860 0.544327
0.978117 0.505388 0.546464
-0.073059 0.753141 0.548879
0.142050 0.753238 0.549105
0.455544 0.753550 0.549828
0.717049 0.754140 0.551193
0.969996 0.755051 0.553296
-0.073059 1.004106 0.559351
-0.073059 1.004173 0.559571
0.420323 1.004387 0.560277
0.697923 1.004790 0.561609
0.957245 1.005415 0.563663
-0.031822 0.000791 0.803842
0.239040 0.002761 0.803980
0.488936 0.009078 0.804422
0.736291 0.021021 0.805257
0.983046 0.039508 0.806547
-0.069840 0.251336 0.804531
0.231156 0.251714 0.804669
0.485652 0.252923 0.805110
0.734353 0.255189 0.805944
0.981722 0.258653 0.807233
-0.073059 0.502220 0.806737
0.203540 0.502384 0.806874
0.474927 0.502909 0.807314
0.728091 0.503899 0.808145
0.977458 0.505427 0.809429
-0.073059 0.753164 0.810885
0.135188 0.753261 0.811021
0.453774 0.753573 0.811458
0.716058 0.754163 0.812284
0.969330 0.755074 0.813559
-0.073059 1.004122 0.817252
-0.073059 1.004189 0.817387
0.418366 1.004402 0.817819
0.696897 1.004806 0.818636
0.956567 1.005431 0.819899
-0.060901 0.001514 1.070563
0.233037 0.003484 1.070657
0.486427 0.009801 1.070960
0.734809 0.021744 1.071532
0.982033 0.040230 1.072417
-0.073059 0.251475 1.071035
0.224914 0.251853 1.071129
0.483121 0.253060 1.071432
0.732866 0.255326 1.072004
0.980707 0.258787 1.072888
-0.073059 0.502280 1.072547
0.196314 0.502444 1.072642
0.472324 0.502969 1.072944
0.726588 0.503959 1.073515
0.976438 0.505486 1.074397
-0.073059 0.753200 1.075399
0.123826 0.753297 1.075493
0.451017 0.753609 1.075794
0.714522 0.754198 1.076363
0.968298 0.755109 1.077242
-0.073059 1.004146 1.079793
-0.073059 1.004213 1.079887
0.415314 1.004427 1.080186
0.695305 1.004831 1.080752
0.955517 1.005455 1.081627
