滤镜资源/Professional Luts Collection/Lutify.me Professional/Utility LUTs/White Balance/6500 Kelvin - 5500 Kelvin - 0.21 CTB.cube
# Created by: Lutify.me
# Copyright: (c) Copyright Lutify.me 2015
# Website: https://lutify.me
LUT_3D_SIZE 9
0.000000 0.000000 0.000000
0.122296 0.000556 0.000857
0.245419 0.001970 0.003039
0.368541 0.004492 0.006931
0.491663 0.008287 0.012787
0.614786 0.013493 0.020820
0.737908 0.020230 0.031216
0.861031 0.028605 0.043985
0.984153 0.038716 0.057289
-0.010723 0.125699 0.004287
0.117785 0.125922 0.005144
0.243291 0.126489 0.007326
0.367229 0.127493 0.011218
0.490746 0.128991 0.017074
0.614096 0.131018 0.025107
0.737364 0.133595 0.035503
0.860586 0.136732 0.047883
0.983780 0.140427 0.060579
-0.038018 0.251184 0.015199
0.105486 0.251291 0.016056
0.237775 0.251562 0.018238
0.363863 0.252046 0.022130
0.488403 0.252772 0.027986
0.612336 0.253763 0.036019
0.735976 0.255040 0.046080
0.859452 0.256617 0.056974
0.982831 0.258506 0.068412
-0.073059 0.376669 0.034660
0.079479 0.376735 0.035517
0.227562 0.376903 0.037699
0.357765 0.377203 0.041562
0.484187 0.377653 0.047011
0.609181 0.378269 0.053880
0.733491 0.379065 0.061957
0.857426 0.380051 0.071021
0.981134 0.381238 0.080873
-0.073059 0.502154 0.060517
0.018842 0.502201 0.061159
0.211138 0.502318 0.062773
0.348344 0.502528 0.065577
0.477755 0.502843 0.069633
0.604393 0.503275 0.074912
0.729732 0.503833 0.081327
0.854365 0.504526 0.088756
0.978574 0.505361 0.097063
-0.073059 0.627640 0.086534
-0.073059 0.627674 0.087018
0.185983 0.627763 0.088241
0.334895 0.627921 0.090386
0.468751 0.628158 0.093532
0.597745 0.628483 0.097703
0.724534 0.628904 0.102874
0.850142 0.629427 0.108989
0.975047 0.630057 0.115970
-0.073059 0.753125 0.112551
-0.073059 0.753152 0.112934
0.146621 0.753222 0.113903
0.316462 0.753347 0.115611
0.456767 0.753534 0.118139
0.588999 0.753791 0.121524
0.717735 0.754124 0.125773
0.844636 0.754537 0.130869
0.970458 0.755035 0.136771
-0.073059 0.878610 0.138568
-0.073059 0.878632 0.138881
0.072975 0.878690 0.139674
0.291592 0.878791 0.141078
0.441298 0.878944 0.143164
0.577888 0.879155 0.145976
0.709164 0.879426 0.149536
0.837725 0.879764 0.153844
0.964712 0.880171 0.158884
-0.073059 1.004095 0.164585
-0.073059 1.004114 0.164848
-0.073059 1.004162 0.165514
0.257765 1.004247 0.166694
0.421674 1.004376 0.168454
0.564100 1.004552 0.170837
0.698633 1.004779 0.173869
0.829280 1.005063 0.177562
0.957715 1.005404 0.181914
-0.000874 0.000022 0.137039
0.121935 0.000577 0.137356
0.245246 0.001991 0.138158
0.368434 0.004513 0.139576
0.491589 0.008309 0.141685
0.614730 0.013515 0.144526
0.737864 0.020252 0.148122
0.860994 0.028627 0.152470
0.984123 0.038738 0.157556
-0.011597 0.125707 0.138614
0.117411 0.125931 0.138927
0.243116 0.126497 0.139720
0.367122 0.127502 0.141123
0.490672 0.128999 0.143208
0.614040 0.131026 0.146020
0.737319 0.133603 0.149578
0.860550 0.136740 0.153885
0.983750 0.140434 0.158924
-0.038892 0.251188 0.142544
0.105070 0.251295 0.142848
0.237596 0.251567 0.143619
0.363755 0.252050 0.144984
0.488327 0.252776 0.147014
0.612280 0.253767 0.149753
0.735931 0.255044 0.153223
0.859416 0.256621 0.157427
0.982800 0.258510 0.162352
-0.073059 0.376672 0.149293
0.078945 0.376738 0.149583
0.227373 0.376906 0.150319
0.357655 0.377205 0.151623
0.484111 0.377655 0.153563
0.609124 0.378272 0.156184
0.733447 0.379067 0.159510
0.857390 0.380054 0.163546
0.981104 0.381241 0.168284
-0.073059 0.502156 0.158898
0.017969 0.502202 0.159170
0.210933 0.502320 0.159860
0.348229 0.502530 0.161084
0.477678 0.502845 0.162907
0.604336 0.503277 0.165375
0.729687 0.503835 0.168511
0.854328 0.504528 0.172326
0.978543 0.505363 0.176816
-0.073059 0.627641 0.171165
-0.073059 0.627676 0.171417
0.185748 0.627764 0.172056
0.334775 0.627922 0.173189
0.468672 0.628159 0.174880
0.597687 0.628485 0.177171
0.724489 0.628905 0.180090
0.850105 0.629428 0.183649
0.975016 0.630058 0.187850
-0.073059 0.753126 0.185775
-0.073059 0.753153 0.186006
0.146319 0.753223 0.186591
0.316334 0.753348 0.187631
0.456685 0.753535 0.189183
0.588939 0.753792 0.191291
0.717689 0.754125 0.193982
0.844599 0.754538 0.197271
0.970427 0.755036 0.201163
-0.073059 0.878611 0.202365
-0.073059 0.878633 0.202575
0.072403 0.878690 0.203109
0.291451 0.878792 0.204057
0.441213 0.878945 0.205474
0.577828 0.879155 0.207401
0.709117 0.879427 0.209866
0.837687 0.879765 0.212886
0.964681 0.880172 0.216470
-0.073059 1.004096 0.220586
-0.073059 1.004115 0.220777
-0.073059 1.004163 0.221262
0.257602 1.004248 0.222124
0.421584 1.004376 0.223415
0.564038 1.004552 0.225172
0.698586 1.004780 0.227422
0.829242 1.005063 0.230186
0.957683 1.005405 0.233473
-0.003098 0.000077 0.270400
0.121009 0.000633 0.270551
0.244806 0.002047 0.270936
0.368162 0.004569 0.271620
0.491399 0.008364 0.272647
0.614587 0.013570 0.274047
0.737751 0.020307 0.275848
0.860902 0.028682 0.278067
0.984045 0.038793 0.280719
-0.013821 0.125730 0.271155
0.116451 0.125953 0.271306
0.242672 0.126520 0.271690
0.366849 0.127524 0.272372
0.490481 0.129021 0.273395
0.613897 0.131047 0.274792
0.737206 0.133624 0.276586
0.860457 0.136761 0.278799
0.983672 0.140454 0.281442
-0.041116 0.251199 0.273068
0.104005 0.251306 0.273218
0.237140 0.251577 0.273598
0.363479 0.252061 0.274275
0.488136 0.252786 0.275290
0.612136 0.253778 0.276675
0.735818 0.255054 0.278456
0.859324 0.256631 0.280651
0.982723 0.258520 0.283274
-0.073059 0.376678 0.276441
0.077575 0.376744 0.276589
0.226894 0.376912 0.276964
0.357373 0.377212 0.277631
0.483917 0.377662 0.278632
0.608979 0.378278 0.279998
0.733333 0.379074 0.281754
0.857297 0.380060 0.283919
0.981026 0.381247 0.286507
-0.073059 0.502161 0.281428
0.015744 0.502207 0.281573
0.210411 0.502325 0.281940
0.347938 0.502534 0.282594
0.477481 0.502849 0.283574
0.604190 0.503281 0.284912
0.729573 0.503840 0.286633
0.854235 0.504533 0.288755
0.978465 0.505368 0.291293
-0.073059 0.627644 0.288106
-0.073059 0.627679 0.288246
0.185148 0.627768 0.288603
0.334469 0.627925 0.289239
0.468470 0.628163 0.290193
0.597539 0.628488 0.291496
0.724373 0.628909 0.293171
0.850011 0.629431 0.295238
0.974938 0.630061 0.297712
-0.073059 0.753129 0.296485
-0.073059 0.753156 0.296621
0.145548 0.753226 0.296967
0.316007 0.753351 0.297582
0.456477 0.753538 0.298504
0.588788 0.753795 0.299764
0.717572 0.754127 0.301386
0.844504 0.754540 0.303387
0.970348 0.755039 0.305782
-0.073059 0.878613 0.306528
-0.073059 0.878636 0.306658
0.070931 0.878693 0.306991
0.291091 0.878794 0.307582
0.440995 0.878948 0.308469
0.577673 0.879158 0.309681
0.708998 0.879429 0.311241
0.837592 0.879767 0.313168
0.964601 0.880174 0.315476
-0.073059 1.004098 0.318154
-0.073059 1.004117 0.318279
-0.073059 1.004164 0.318596
0.257186 1.004250 0.319162
0.421354 1.004378 0.320011
0.563878 1.004554 0.321172
0.698465 1.004782 0.322666
0.829145 1.005065 0.324512
0.957603 1.005407 0.326724
-0.007066 0.000176 0.403760
0.119342 0.000731 0.403854
0.244019 0.002145 0.404092
0.367677 0.004667 0.404516
0.491059 0.008463 0.405153
0.614331 0.013669 0.406025
0.737549 0.020406 0.407151
0.860738 0.028781 0.408544
0.983907 0.038892 0.410218
-0.017789 0.125769 0.404228
0.114721 0.125993 0.404321
0.241877 0.126559 0.404559
0.366361 0.127563 0.404983
0.490141 0.129060 0.405619
0.613641 0.131085 0.406490
0.737005 0.133662 0.407613
0.860293 0.136797 0.409005
0.983534 0.140490 0.410677
-0.045083 0.251218 0.405415
0.102079 0.251324 0.405508
0.236324 0.251596 0.405745
0.362986 0.252080 0.406167
0.487794 0.252805 0.406801
0.611879 0.253797 0.407669
0.735616 0.255073 0.408789
0.859159 0.256650 0.410175
0.982585 0.258538 0.411842
-0.073059 0.376690 0.407522
0.075079 0.376756 0.407615
0.226036 0.376924 0.407850
0.356870 0.377224 0.408270
0.483571 0.377674 0.408900
0.608721 0.378290 0.409762
0.733130 0.379086 0.410875
0.857131 0.380072 0.412252
0.980887 0.381259 0.413908
-0.073059 0.502169 0.410668
0.011777 0.502215 0.410760
0.209477 0.502333 0.410993
0.347418 0.502542 0.411408
0.477129 0.502858 0.412032
0.603929 0.503290 0.412887
0.729368 0.503848 0.413989
0.854069 0.504541 0.415354
0.978326 0.505376 0.416995
-0.073059 0.627651 0.414936
-0.073059 0.627685 0.415026
0.184073 0.627774 0.415256
0.333924 0.627932 0.415666
0.468110 0.628169 0.416283
0.597274 0.628494 0.417126
0.724167 0.628915 0.418215
0.849844 0.629437 0.419563
0.974798 0.630068 0.421183
-0.073059 0.753133 0.420379
-0.073059 0.753161 0.420468
0.144161 0.753231 0.420694
0.315424 0.753355 0.421098
0.456105 0.753543 0.421704
0.588519 0.753800 0.422534
0.717363 0.754132 0.423606
0.844336 0.754545 0.424933
0.970207 0.755043 0.426528
-0.073059 0.878617 0.427026
-0.073059 0.878640 0.427113
0.068245 0.878697 0.427336
0.290447 0.878798 0.427731
0.440607 0.878952 0.428326
0.577396 0.879162 0.429141
0.708786 0.879433 0.430191
0.837421 0.879771 0.431493
0.964460 0.880178 0.433059
-0.073059 1.004101 0.434884
-0.073059 1.004120 0.434969
-0.073059 1.004168 0.435186
0.256442 1.004253 0.435573
0.420943 1.004382 0.436155
0.563593 1.004558 0.436951
0.698248 1.004785 0.437979
0.828972 1.005069 0.439252
0.957460 1.005410 0.440783
-0.013035 0.000324 0.537121
0.116791 0.000880 0.537186
0.242829 0.002294 0.537353
0.366945 0.004816 0.537650
0.490548 0.008611 0.538096
0.613947 0.013817 0.538708
0.737246 0.020554 0.539498
0.860490 0.028929 0.540479
0.983700 0.039040 0.541659
-0.023758 0.125829 0.537448
0.112070 0.126052 0.537513
0.240675 0.126618 0.537680
0.365626 0.127622 0.537977
0.489629 0.129118 0.538423
0.613256 0.131143 0.539034
0.736701 0.133718 0.539824
0.860045 0.136852 0.540803
0.983327 0.140543 0.541983
-0.051053 0.251246 0.538280
0.099118 0.251353 0.538345
0.235089 0.251625 0.538511
0.362243 0.252108 0.538808
0.487278 0.252834 0.539253
0.611493 0.253825 0.539863
0.735311 0.255101 0.540651
0.858910 0.256678 0.541629
0.982377 0.258566 0.542806
-0.073059 0.376708 0.539760
0.071193 0.376774 0.539825
0.224737 0.376942 0.539990
0.356111 0.377241 0.540285
0.483050 0.377691 0.540729
0.608332 0.378307 0.541337
0.732824 0.379103 0.542122
0.856882 0.380089 0.543097
0.980679 0.381276 0.544270
-0.073059 0.502181 0.541977
0.005807 0.502228 0.542041
0.208063 0.502345 0.542206
0.346634 0.502555 0.542500
0.476599 0.502870 0.542941
0.603536 0.503302 0.543546
0.729061 0.503860 0.544327
0.853819 0.504553 0.545297
0.978117 0.505388 0.546464
-0.073059 0.627660 0.544999
-0.073059 0.627695 0.545064
0.182442 0.627783 0.545227
0.333102 0.627941 0.545519
0.467567 0.628178 0.545957
0.596876 0.628504 0.546557
0.723857 0.628924 0.547333
0.849592 0.629447 0.548296
0.974588 0.630077 0.549455
-0.073059 0.753141 0.548879
-0.073059 0.753168 0.548943
0.142050 0.753238 0.549105
0.314543 0.753363 0.549394
0.455544 0.753550 0.549828
0.588113 0.753807 0.550424
0.717049 0.754140 0.551193
0.844082 0.754553 0.552147
0.969996 0.755051 0.553296
-0.073059 0.878623 0.553655
-0.073059 0.878646 0.553718
0.064041 0.878703 0.553878
0.289476 0.878804 0.554164
0.440021 0.878958 0.554593
0.576980 0.879168 0.555182
0.708467 0.879439 0.555943
0.837164 0.879777 0.556886
0.964247 0.880184 0.558023
-0.073059 1.004106 0.559351
-0.073059 1.004125 0.559413
-0.073059 1.004173 0.559571
0.255318 1.004258 0.559853
0.420323 1.004387 0.560277
0.563164 1.004563 0.560858
0.697923 1.004790 0.561609
0.828712 1.005074 0.562541
0.957245 1.005415 0.563663
-0.021225 0.000528 0.670481
0.113202 0.001083 0.670531
0.241186 0.002497 0.670656
0.365939 0.005019 0.670879
0.489846 0.008815 0.671216
0.613420 0.014021 0.671676
0.736830 0.020758 0.672272
0.860150 0.029133 0.673012
0.983415 0.039244 0.673903
-0.031948 0.125911 0.670728
0.108334 0.126134 0.670777
0.239014 0.126700 0.670902
0.364615 0.127703 0.671126
0.488925 0.129198 0.671462
0.612728 0.131221 0.671922
0.736285 0.133795 0.672518
0.859705 0.136928 0.673257
0.983042 0.140617 0.674148
-0.059242 0.251285 0.671354
0.094921 0.251392 0.671403
0.233384 0.251664 0.671528
0.361220 0.252147 0.671752
0.486570 0.252872 0.672087
0.610963 0.253864 0.672547
0.734894 0.255140 0.673142
0.858570 0.256716 0.673880
0.982091 0.258604 0.674770
-0.073059 0.376732 0.672469
0.065572 0.376798 0.672518
0.222942 0.376966 0.672643
0.355066 0.377265 0.672866
0.482335 0.377715 0.673201
0.607799 0.378331 0.673660
0.732405 0.379127 0.674253
0.856541 0.380113 0.674990
0.980393 0.381300 0.675878
-0.073059 0.502198 0.674143
-0.002382 0.502244 0.674192
0.206105 0.502362 0.674317
0.345555 0.502572 0.674539
0.475871 0.502887 0.674873
0.602997 0.503319 0.675330
0.728638 0.503877 0.675922
0.853475 0.504570 0.676656
0.977830 0.505405 0.677541
-0.073059 0.627673 0.676431
-0.073059 0.627707 0.676480
0.180179 0.627796 0.676604
0.331970 0.627954 0.676824
0.466821 0.628191 0.677157
0.596329 0.628516 0.677612
0.723430 0.628937 0.678201
0.849247 0.629459 0.678933
0.974300 0.630089 0.679814
-0.073059 0.753151 0.679376
-0.073059 0.753178 0.679425
0.139100 0.753248 0.679548
0.313330 0.753373 0.679768
0.454773 0.753560 0.680098
0.587555 0.753817 0.680551
0.716617 0.754150 0.681137
0.843733 0.754563 0.681864
0.969706 0.755061 0.682741
-0.073059 0.878631 0.683015
-0.073059 0.878654 0.683063
0.057911 0.878711 0.683186
0.288137 0.878813 0.683404
0.439217 0.878966 0.683732
0.576409 0.879176 0.684182
0.708028 0.879448 0.684764
0.836812 0.879785 0.685486
0.963954 0.880193 0.686356
-0.073059 1.004113 0.687375
-0.073059 1.004132 0.687422
-0.073059 1.004180 0.687544
0.253767 1.004265 0.687760
0.419471 1.004393 0.688086
0.562575 1.004570 0.688532
0.697476 1.004797 0.689109
0.828355 1.005080 0.689825
0.956950 1.005422 0.690689
-0.031822 0.000791 0.803842
0.108392 0.001347 0.803881
0.239040 0.002761 0.803980
0.364631 0.005283 0.804156
0.488936 0.009078 0.804422
0.612736 0.014284 0.804786
0.736291 0.021021 0.805257
0.859710 0.029397 0.805841
0.983046 0.039508 0.806547
-0.042545 0.126017 0.804036
0.103315 0.126239 0.804075
0.236846 0.126805 0.804174
0.363301 0.127807 0.804351
0.488012 0.129301 0.804616
0.612043 0.131323 0.804980
0.735745 0.133895 0.805451
0.859264 0.137025 0.806035
0.982673 0.140712 0.806740
-0.069840 0.251336 0.804531
0.089233 0.251443 0.804570
0.231156 0.251714 0.804669
0.359891 0.252197 0.804845
0.485652 0.252923 0.805110
0.610276 0.253914 0.805474
0.734353 0.255189 0.805944
0.858128 0.256765 0.806529
0.981722 0.258653 0.807233
-0.073059 0.376763 0.805413
0.057703 0.376829 0.805451
0.220595 0.376997 0.805550
0.353710 0.377297 0.805726
0.481406 0.377746 0.805991
0.607107 0.378363 0.806354
0.731861 0.379158 0.806824
0.856098 0.380144 0.807407
0.980023 0.381331 0.808111
-0.073059 0.502220 0.806737
-0.012980 0.502266 0.806775
0.203540 0.502384 0.806874
0.344153 0.502593 0.807050
0.474927 0.502909 0.807314
0.602298 0.503341 0.807676
0.728091 0.503899 0.808145
0.853031 0.504592 0.808727
0.977458 0.505427 0.809429
-0.073059 0.627689 0.808548
-0.073059 0.627724 0.808587
0.177204 0.627812 0.808685
0.330497 0.627970 0.808860
0.465854 0.628207 0.809124
0.595620 0.628533 0.809485
0.722878 0.628953 0.809953
0.848799 0.629476 0.810533
0.973926 0.630106 0.811233
-0.073059 0.753164 0.810885
-0.073059 0.753191 0.810924
0.135188 0.753261 0.811021
0.311752 0.753386 0.811196
0.453774 0.753573 0.811458
0.586833 0.753830 0.811818
0.716058 0.754163 0.812284
0.843281 0.754576 0.812862
0.969330 0.755074 0.813559
-0.073059 0.878642 0.813778
-0.073059 0.878664 0.813816
0.049211 0.878721 0.813913
0.286394 0.878823 0.814087
0.438173 0.878976 0.814348
0.575669 0.879186 0.814707
0.707461 0.879458 0.815170
0.836356 0.879796 0.815745
0.963576 0.880203 0.816440
-0.073059 1.004122 0.817252
-0.073059 1.004141 0.817290
-0.073059 1.004189 0.817387
0.251744 1.004274 0.817559
0.418366 1.004402 0.817819
0.561811 1.004578 0.818176
0.696897 1.004806 0.818636
0.827893 1.005089 0.819209
0.956567 1.005431 0.819899
-0.044997 0.001119 0.937202
0.102122 0.001674 0.937234
0.236342 0.003088 0.937315
0.362997 0.005610 0.937459
0.487801 0.009406 0.937676
0.611885 0.014612 0.937974
0.735620 0.021349 0.938359
0.859162 0.029724 0.938837
0.982588 0.039835 0.939414
-0.055720 0.126148 0.937361
0.096747 0.126371 0.937393
0.234119 0.126935 0.937474
0.361660 0.127937 0.937618
0.486875 0.129429 0.937835
0.611191 0.131449 0.938133
0.735073 0.134018 0.938517
0.858716 0.137146 0.938995
0.982214 0.140829 0.939572
-0.073059 0.251399 0.937766
0.081692 0.251506 0.937797
0.228352 0.251777 0.937878
0.358231 0.252260 0.938022
0.484507 0.252985 0.938239
0.609420 0.253976 0.938536
0.733680 0.255251 0.938921
0.857579 0.256827 0.939399
0.981262 0.258714 0.939975
-0.073059 0.376802 0.938486
0.046696 0.376868 0.938518
0.217637 0.377036 0.938599
0.352014 0.377335 0.938743
0.480249 0.377785 0.938959
0.606246 0.378401 0.939256
0.731185 0.379197 0.939640
0.855547 0.380183 0.940118
0.979562 0.381369 0.940694
-0.073059 0.502247 0.939569
-0.026154 0.502294 0.939601
0.200302 0.502411 0.939681
0.342400 0.502621 0.939825
0.473750 0.502936 0.940041
0.601428 0.503368 0.940338
0.727411 0.503926 0.940722
0.852477 0.504619 0.941198
0.976996 0.505454 0.941773
-0.073059 0.627710 0.941052
-0.073059 0.627744 0.941084
0.173430 0.627833 0.941164
0.328656 0.627991 0.941308
0.464648 0.628228 0.941523
0.594737 0.628553 0.941819
0.722191 0.628974 0.942202
0.848242 0.629496 0.942678
0.973462 0.630126 0.943252
-0.073059 0.753180 0.942966
-0.073059 0.753208 0.942998
0.130161 0.753277 0.943078
0.309777 0.753402 0.943221
0.452527 0.753589 0.943437
0.585933 0.753846 0.943732
0.715363 0.754179 0.944114
0.842720 0.754592 0.944588
0.968863 0.755090 0.945160
-0.073059 0.878655 0.945339
-0.073059 0.878678 0.945371
0.036766 0.878735 0.945451
0.284209 0.878836 0.945593
0.436871 0.878990 0.945808
0.574747 0.879200 0.946102
0.706754 0.879471 0.946483
0.835788 0.879809 0.946955
0.963105 0.880216 0.947526
-0.073059 1.004133 0.948193
-0.073059 1.004152 0.948225
-0.073059 1.004200 0.948304
0.249203 1.004285 0.948446
0.416986 1.004413 0.948660
0.560860 1.004590 0.948953
0.696176 1.004817 0.949332
0.827317 1.005100 0.949803
0.956092 1.005442 0.950371
-0.060901 0.001514 1.070563
0.094051 0.002070 1.070589
0.233037 0.003484 1.070657
0.361012 0.006006 1.070778
0.486427 0.009801 1.070960
0.610855 0.015007 1.071210
0.734809 0.021744 1.071532
0.858501 0.030119 1.071933
0.982033 0.040230 1.072417
-0.071624 0.126306 1.070696
0.088244 0.126529 1.070723
0.230778 0.127093 1.070790
0.359667 0.128093 1.070911
0.485497 0.129583 1.071093
0.610160 0.131601 1.071343
0.734262 0.134168 1.071665
0.858054 0.137292 1.072066
0.981660 0.140971 1.072550
-0.073059 0.251475 1.071035
0.071731 0.251582 1.071062
0.224914 0.251853 1.071129
0.356214 0.252336 1.071250
0.483121 0.253060 1.071432
0.608385 0.254051 1.071681
0.732866 0.255326 1.072004
0.856916 0.256901 1.072405
0.980707 0.258787 1.072888
-0.073059 0.376849 1.071639
0.031191 0.376915 1.071666
0.214005 0.377083 1.071733
0.349954 0.377382 1.071854
0.478847 0.377832 1.072036
0.605204 0.378448 1.072285
0.730368 0.379243 1.072607
0.854882 0.380229 1.073008
0.979006 0.381415 1.073491
-0.073059 0.502280 1.072547
-0.042059 0.502326 1.072574
0.196314 0.502444 1.072642
0.340269 0.502654 1.072762
0.472324 0.502969 1.072944
0.600375 0.503401 1.073193
0.726588 0.503959 1.073515
0.851809 0.504652 1.073915
0.976438 0.505486 1.074397
-0.073059 0.627734 1.073792
-0.073059 0.627769 1.073818
0.168755 0.627858 1.073886
0.326417 0.628015 1.074006
0.463187 0.628253 1.074187
0.593669 0.628578 1.074436
0.721360 0.628999 1.074757
0.847569 0.629521 1.075157
0.972901 0.630151 1.075639
-0.073059 0.753200 1.075399
-0.073059 0.753227 1.075426
0.123826 0.753297 1.075493
0.307373 0.753421 1.075613
0.451017 0.753609 1.075794
0.584845 0.753866 1.076042
0.714522 0.754198 1.076363
0.842041 0.754611 1.076761
0.968298 0.755109 1.077242
-0.073059 0.878671 1.077393
-0.073059 0.878694 1.077419
0.020861 0.878751 1.077487
0.281544 0.878852 1.077607
0.435292 0.879006 1.077787
0.573631 0.879216 1.078034
0.705899 0.879487 1.078354
0.835102 0.879825 1.078752
0.962536 0.880232 1.079232
-0.073059 1.004146 1.079793
-0.073059 1.004165 1.079820
-0.073059 1.004213 1.079887
0.246094 1.004298 1.080006
0.415314 1.004427 1.080186
0.559709 1.004603 1.080433
0.695305 1.004831 1.080752
0.826622 1.005114 1.081148
0.955517 1.005455 1.081627
