滤镜资源/Lutify.me Free 3D LUTs Package/Capture One/Mac/Lutify.me Raw Styles/75%/LM-RAW-Hiddenite-75.costyle
<?xml version="1.0"?>
<SL Engine="1000">
	<E K="ICCProfile" V="LM-RAW-Hiddenite-75.icm" />
	<E K="Name" V="LM-RAW-Hiddenite" />
	<E K="StyleSource" V="Styles" />
	<E K="UUID" V="3C921EEE-9DEA-901A-9262-36969CC720C9" />
</SL>
