滤镜资源/Lutify.me Free 3D LUTs Package/Capture One/Mac/Lutify.me Raw Styles/75%/LM-RAW-Hackmanite-75.costyle
<?xml version="1.0"?>
<SL Engine="1000">
	<E K="ICCProfile" V="LM-RAW-Hackmanite-75.icm" />
	<E K="Name" V="LM-RAW-Hackmanite" />
	<E K="StyleSource" V="Styles" />
	<E K="UUID" V="89A3753E-AD10-9B65-B079-8719AE0935A8" />
</SL>
