滤镜资源/Lutify.me Free 3D LUTs Package/Capture One/Mac/Lutify.me JPG Styles/75%/LM-JPG-Hilutite-75.costyle
<?xml version="1.0"?>
<SL Engine="1000">
	<E K="ICCProfile" V="LM-JPG-Hilutite-75.icm" />
	<E K="Name" V="LM-JPG-Hilutite" />
	<E K="StyleSource" V="Styles" />
	<E K="UUID" V="985F803D-329B-4924-9155-CDDB44C3D11C" />
</SL>
