滤镜资源/Lutify.me Free 3D LUTs Package/Capture One/Windows/Lutify.me JPG Styles/75%/LM-JPG-Heulandite-75.costyle
<?xml version="1.0"?>
<SL Engine="1000">
	<E K="ICCProfile" V="LM-JPG-Heulandite-75.icm" />
	<E K="Name" V="LM-JPG-Heulandite" />
	<E K="StyleSource" V="Styles" />
	<E K="UUID" V="8B2C327C-BE8C-495E-BC2F-75019F9F18DE" />
</SL>
