滤镜资源/Lutify.me Free 3D LUTs Package/Capture One/Windows/Lutify.me JPG Styles/75%/LM-JPG-Hackmanite-75.costyle
<?xml version="1.0"?>
<SL Engine="1000">
	<E K="ICCProfile" V="LM-JPG-Hackmanite-75.icm" />
	<E K="Name" V="LM-JPG-Hackmanite" />
	<E K="StyleSource" V="Styles" />
	<E K="UUID" V="3E8D94C8-F179-49E2-8030-34AD9F4B3C78" />
</SL>
