滤镜资源/Lutify.me Free 3D LUTs Package/Capture One/Windows/Lutify.me JPG Styles/75%/LM-JPG-Herderite-75.costyle
<?xml version="1.0"?>
<SL Engine="1000">
	<E K="ICCProfile" V="LM-JPG-Herderite-75.icm" />
	<E K="Name" V="LM-JPG-Herderite" />
	<E K="StyleSource" V="Styles" />
	<E K="UUID" V="9D82A4AF-9998-4243-A18B-2E372EA82F27" />
</SL>
