滤镜资源/Lutify.me Free 3D LUTs Package/Capture One/Windows/Lutify.me JPG Styles/75%/LM-JPG-Howlite-75.costyle
<?xml version="1.0"?>
<SL Engine="1000">
	<E K="ICCProfile" V="LM-JPG-Howlite-75.icm" />
	<E K="Name" V="LM-JPG-Howlite" />
	<E K="StyleSource" V="Styles" />
	<E K="UUID" V="4192793B-DB8A-4C7E-9F85-4E07C189C33C" />
</SL>
