滤镜资源/Lutify.me Free 3D LUTs Package/3D LUTs/Monitoring LUTs/Generic Log/Herderite - Log.cube
# Website: https://lutify.me
# Contact: help@lutify.me
# Copyright: (c) Copyright Lutify.me 2016, G.T. Colord LTD
# Created by: Lutify.me
LUT_3D_SIZE 17
0.000000 0.000000 0.000000
0.017813 0.001242 0.001280
0.043478 0.003495 0.003582
0.082512 0.007877 0.008013
0.151836 0.016795 0.017030
0.271216 0.033142 0.033861
0.429301 0.054935 0.057399
0.583943 0.075834 0.081875
0.716659 0.092807 0.104849
0.821601 0.104893 0.125650
0.907671 0.114021 0.145350
0.923920 0.115723 0.155216
0.923998 0.115801 0.161099
0.924038 0.115841 0.164165
0.924055 0.115858 0.165436
0.924062 0.115865 0.165934
0.924072 0.115875 0.166682
0.002778 0.014287 0.002298
0.013345 0.014778 0.002619
0.038442 0.016720 0.003681
0.078385 0.020080 0.007341
0.148691 0.027213 0.015795
0.269168 0.039262 0.032446
0.427962 0.054748 0.055906
0.583114 0.075714 0.080452
0.716145 0.092738 0.103329
0.821279 0.104850 0.124171
0.907423 0.113985 0.143956
0.923909 0.115715 0.154016
0.923980 0.115783 0.159799
0.924022 0.115825 0.162918
0.924039 0.115842 0.164208
0.924046 0.115849 0.164714
0.924056 0.115859 0.165474
0.008001 0.035057 0.006603
0.013465 0.035086 0.006867
0.033009 0.036618 0.007481
0.072121 0.040823 0.009474
0.144879 0.047276 0.015937
0.266933 0.058972 0.031584
0.426741 0.070350 0.054491
0.582046 0.075896 0.078614
0.715478 0.092649 0.101354
0.820860 0.104794 0.122231
0.907102 0.113938 0.142094
0.923896 0.115703 0.152424
0.923958 0.115761 0.158079
0.924000 0.115803 0.161267
0.924017 0.115820 0.162585
0.924024 0.115827 0.163102
0.924035 0.115838 0.163877
0.018187 0.066622 0.015035
0.018078 0.066302 0.014944
0.033896 0.067274 0.015935
0.066026 0.071249 0.017170
0.134642 0.080786 0.021389
0.263379 0.092673 0.032491
0.425210 0.105532 0.053200
0.581430 0.111095 0.076576
0.714645 0.104302 0.098548
0.820124 0.104696 0.118825
0.906534 0.113855 0.138666
0.923870 0.115683 0.149524
0.923918 0.115721 0.155002
0.923960 0.115763 0.158281
0.923978 0.115781 0.159651
0.923986 0.115789 0.160188
0.923996 0.115799 0.160993
0.039746 0.122525 0.032809
0.039629 0.122244 0.032713
0.039483 0.121885 0.032592
0.070710 0.124331 0.035068
0.125115 0.133693 0.037374
0.246979 0.152834 0.045966
0.421347 0.166472 0.056495
0.581029 0.175329 0.075456
0.715643 0.174911 0.095107
0.820943 0.161982 0.113895
0.906087 0.136324 0.132046
0.923812 0.115637 0.142796
0.923865 0.115679 0.148906
0.923892 0.115701 0.152025
0.923903 0.115710 0.153306
0.923908 0.115713 0.153806
0.923914 0.115718 0.154557
0.081395 0.221351 0.067189
0.081317 0.221169 0.067124
0.081217 0.220932 0.067041
0.081039 0.220515 0.066894
0.135409 0.225679 0.072309
0.233305 0.246267 0.077206
0.394117 0.274604 0.091370
0.565161 0.290041 0.096474
0.712942 0.293126 0.101666
0.825160 0.287960 0.108364
0.911512 0.276967 0.123151
0.931517 0.260570 0.132872
0.930688 0.247158 0.138470
0.930205 0.239393 0.141536
0.930004 0.236164 0.142799
0.929921 0.234865 0.143285
0.929801 0.232875 0.144142
0.138139 0.354173 0.114014
0.138092 0.354063 0.113976
0.138031 0.353920 0.113925
0.137925 0.353670 0.113837
0.137697 0.353134 0.113649
0.241876 0.368317 0.125645
0.382190 0.398964 0.132381
0.536960 0.428550 0.155178
0.683047 0.447054 0.155168
0.799150 0.452790 0.155447
0.892117 0.451082 0.155279
0.921322 0.443560 0.153084
0.922213 0.436372 0.150747
0.922714 0.432329 0.149432
0.922929 0.430588 0.148866
0.923015 0.429897 0.148641
0.923145 0.428846 0.148300
0.193819 0.486609 0.159986
0.193791 0.486540 0.159963
0.193754 0.486451 0.159932
0.193689 0.486293 0.159879
0.193550 0.485956 0.159764
0.193216 0.485147 0.159488
0.386821 0.525444 0.178733
0.532006 0.551553 0.187024
0.668850 0.576551 0.213485
0.782304 0.593368 0.217157
0.873739 0.600535 0.215352
0.910582 0.599809 0.213638
0.910555 0.596002 0.212045
0.910540 0.593881 0.211158
0.910534 0.592974 0.210778
0.910532 0.592615 0.210628
0.910528 0.592068 0.210399
0.240980 0.604211 0.198903
0.240964 0.604168 0.198889
0.240942 0.604111 0.198871
0.240903 0.604011 0.198840
0.240821 0.603798 0.198772
0.240624 0.603285 0.198610
0.337441 0.615310 0.210710
0.528982 0.667793 0.223375
0.666651 0.687234 0.233960
0.781378 0.705593 0.253657
0.868631 0.718173 0.268314
0.914490 0.722872 0.273137
0.914344 0.720642 0.271966
0.914263 0.719404 0.271316
0.914228 0.718875 0.271038
0.914214 0.718666 0.270928
0.914193 0.718348 0.270761
0.275791 0.699976 0.227646
0.275781 0.699948 0.227638
0.275769 0.699912 0.227627
0.275747 0.699847 0.227609
0.275700 0.699711 0.227571
0.275587 0.699382 0.227477
0.275345 0.698675 0.227277
0.497259 0.744744 0.253640
0.654290 0.784803 0.256046
0.777139 0.797288 0.269328
0.870141 0.809987 0.283202
0.930464 0.818546 0.292855
0.932697 0.817607 0.293024
0.932557 0.816850 0.292894
0.932498 0.816527 0.292838
0.932474 0.816400 0.292816
0.932438 0.816205 0.292782
0.301004 0.777245 0.248450
0.300998 0.777225 0.248445
0.300990 0.777199 0.248438
0.300975 0.777152 0.248426
0.300944 0.777054 0.248401
0.300870 0.776816 0.248339
0.300710 0.776306 0.248208
0.369304 0.783767 0.255844
0.628430 0.851675 0.279558
0.765854 0.876115 0.285423
0.864217 0.884618 0.294801
0.926146 0.891692 0.302660
0.946328 0.894223 0.305828
0.946232 0.893668 0.305739
0.946191 0.893431 0.305701
0.946175 0.893337 0.305686
0.946151 0.893195 0.305663
0.316254 0.826691 0.261017
0.316254 0.826691 0.261017
0.316254 0.826691 0.261017
0.316254 0.826691 0.261017
0.316254 0.826691 0.261017
0.316254 0.826691 0.261017
0.316254 0.826691 0.261017
0.316254 0.826691 0.261017
0.589065 0.887448 0.293232
0.747283 0.927460 0.294276
0.858435 0.938220 0.305406
0.921511 0.942858 0.310771
0.954799 0.945334 0.313760
0.954723 0.944871 0.313688
0.954690 0.944673 0.313658
0.954677 0.944595 0.313646
0.954658 0.944476 0.313628
0.316254 0.826691 0.261017
0.316254 0.826691 0.261017
0.316254 0.826691 0.261017
0.316254 0.826691 0.261017
0.316254 0.826691 0.261017
0.316254 0.826691 0.261017
0.316254 0.826691 0.261017
0.316254 0.826691 0.261017
0.540243 0.871944 0.290530
0.725921 0.923545 0.295231
0.845221 0.939272 0.304636
0.912026 0.945709 0.310721
0.948515 0.949025 0.313839
0.955505 0.949646 0.314423
0.955505 0.949646 0.314423
0.955505 0.949646 0.314423
0.955505 0.949646 0.314423
0.316254 0.826691 0.261017
0.316254 0.826691 0.261017
0.316254 0.826691 0.261017
0.316254 0.826691 0.261017
0.316254 0.826691 0.261017
0.316254 0.826691 0.261017
0.316254 0.826691 0.261017
0.316254 0.826691 0.261017
0.507057 0.859918 0.289032
0.712900 0.920576 0.295502
0.837187 0.938441 0.303857
0.906141 0.945175 0.310218
0.943356 0.948566 0.313409
0.955505 0.949646 0.314423
0.955505 0.949646 0.314423
0.955505 0.949646 0.314423
0.955505 0.949646 0.314423
0.316254 0.826691 0.261017
0.316254 0.826691 0.261017
0.316254 0.826691 0.261017
0.316254 0.826691 0.261017
0.316254 0.826691 0.261017
0.316254 0.826691 0.261017
0.316254 0.826691 0.261017
0.316254 0.826691 0.261017
0.490331 0.854386 0.287322
0.707119 0.919243 0.295599
0.833701 0.938081 0.303519
0.903583 0.944937 0.309995
0.941134 0.948368 0.313223
0.955505 0.949646 0.314423
0.955505 0.949646 0.314423
0.955505 0.949646 0.314423
0.955505 0.949646 0.314423
0.316254 0.826691 0.261017
0.316254 0.826691 0.261017
0.316254 0.826691 0.261017
0.316254 0.826691 0.261017
0.316254 0.826691 0.261017
0.316254 0.826691 0.261017
0.316254 0.826691 0.261017
0.316254 0.826691 0.261017
0.482144 0.852793 0.285798
0.704749 0.918678 0.295610
0.832310 0.937937 0.303384
0.902553 0.944838 0.309904
0.940250 0.948290 0.313149
0.955505 0.949646 0.314423
0.955505 0.949646 0.314423
0.955505 0.949646 0.314423
0.955505 0.949646 0.314423
0.316254 0.826691 0.261017
0.316254 0.826691 0.261017
0.316254 0.826691 0.261017
0.316254 0.826691 0.261017
0.316254 0.826691 0.261017
0.316254 0.826691 0.261017
0.316254 0.826691 0.261017
0.316254 0.826691 0.261017
0.468930 0.850221 0.283339
0.701117 0.917813 0.295626
0.830107 0.937704 0.303162
0.900986 0.944687 0.309764
0.938906 0.948170 0.313037
0.955505 0.949646 0.314423
0.955505 0.949646 0.314423
0.955505 0.949646 0.314423
0.955505 0.949646 0.314423
0.001094 0.000000 0.010579
0.016222 0.001912 0.012793
0.042323 0.003734 0.015567
0.081661 0.007844 0.019906
0.151185 0.016768 0.028940
0.270829 0.033162 0.045924
0.429092 0.054970 0.069814
0.583855 0.075901 0.094829
0.716646 0.092863 0.118195
0.821645 0.105003 0.138777
0.907740 0.114134 0.157087
0.924075 0.115878 0.166940
0.924143 0.115946 0.172031
0.924178 0.115981 0.174715
0.924193 0.115996 0.175832
0.924199 0.116002 0.176327
0.924208 0.116011 0.177088
0.002018 0.011665 0.011054
0.012178 0.012128 0.011883
0.037612 0.013795 0.014052
0.077397 0.017196 0.018359
0.147943 0.024381 0.027424
0.268682 0.036449 0.044307
0.427747 0.054776 0.068182
0.583025 0.075783 0.093263
0.716125 0.092785 0.116569
0.821320 0.104957 0.137415
0.907486 0.114093 0.155722
0.924059 0.115862 0.165735
0.924128 0.115931 0.170901
0.924164 0.115967 0.173621
0.924179 0.115982 0.174753
0.924185 0.115988 0.175197
0.924194 0.115997 0.175866
0.006571 0.032086 0.013112
0.011560 0.032021 0.013797
0.031488 0.033409 0.014990
0.072074 0.037141 0.017388
0.144057 0.044005 0.025805
0.266398 0.055820 0.042847
0.426385 0.067387 0.066455
0.581945 0.075630 0.091228
0.715454 0.092691 0.114623
0.820897 0.104897 0.135598
0.907157 0.114039 0.153913
0.924038 0.115841 0.164144
0.924108 0.115911 0.169409
0.924145 0.115948 0.172178
0.924160 0.115963 0.173330
0.924166 0.115969 0.173781
0.924175 0.115978 0.174462
0.016567 0.064393 0.018641
0.016439 0.064067 0.018632
0.032281 0.064850 0.020697
0.064684 0.068774 0.022317
0.134536 0.077989 0.026895
0.262791 0.089968 0.040725
0.424836 0.102579 0.064384
0.581215 0.107919 0.088766
0.714555 0.101577 0.111426
0.820154 0.104790 0.132269
0.906593 0.113958 0.151071
0.924000 0.115803 0.161270
0.924072 0.115875 0.166723
0.924110 0.115913 0.169584
0.924126 0.115929 0.170772
0.924132 0.115935 0.171238
0.924141 0.115944 0.171939
0.038950 0.120548 0.032153
0.038845 0.120284 0.032066
0.038707 0.119939 0.031953
0.069083 0.122251 0.034418
0.123877 0.131563 0.037295
0.246790 0.150610 0.047020
0.421302 0.164048 0.060849
0.580747 0.172963 0.084924
0.715486 0.172495 0.107294
0.820831 0.159272 0.126961
0.906037 0.133312 0.145261
0.923916 0.115720 0.154814
0.923992 0.115795 0.160663
0.924033 0.115836 0.163747
0.924050 0.115853 0.165024
0.924056 0.115859 0.165525
0.924066 0.115869 0.166276
0.080820 0.220002 0.066713
0.080742 0.219818 0.066649
0.080640 0.219580 0.066564
0.080461 0.219161 0.066417
0.134143 0.224218 0.071734
0.232420 0.244764 0.076715
0.393866 0.273143 0.090761
0.565197 0.288427 0.095934
0.713272 0.291340 0.101806
0.824977 0.286336 0.117481
0.911426 0.275229 0.135668
0.931512 0.258770 0.146063
0.930682 0.245189 0.151767
0.930220 0.237473 0.154613
0.930021 0.234196 0.155772
0.929940 0.232878 0.156219
0.929810 0.230858 0.156879
0.137793 0.353360 0.113729
0.137747 0.353251 0.113690
0.137686 0.353107 0.113640
0.137579 0.352856 0.113551
0.137350 0.352319 0.113363
0.241051 0.367356 0.125319
0.381654 0.398058 0.132085
0.536731 0.427709 0.154770
0.682961 0.446156 0.154811
0.799139 0.451843 0.155108
0.892161 0.450084 0.154930
0.921453 0.442504 0.152740
0.922351 0.435287 0.150964
0.922875 0.431198 0.152670
0.923101 0.429440 0.153392
0.923191 0.428740 0.153677
0.923331 0.427675 0.154116
0.193609 0.486099 0.159812
0.193580 0.486030 0.159789
0.193543 0.485941 0.159759
0.193478 0.485782 0.159704
0.193339 0.485446 0.159590
0.193004 0.484634 0.159313
0.386328 0.524856 0.178531
0.531672 0.550985 0.186843
0.668633 0.576036 0.213359
0.782209 0.592831 0.216908
0.873678 0.599981 0.215118
0.910578 0.599246 0.213403
0.910551 0.595435 0.211808
0.910536 0.593310 0.210919
0.910530 0.592401 0.210538
0.910528 0.592040 0.210387
0.910524 0.591494 0.210158
0.240856 0.603888 0.198801
0.240839 0.603844 0.198787
0.240817 0.603788 0.198769
0.240778 0.603687 0.198737
0.240696 0.603474 0.198670
0.240499 0.602962 0.198507
0.336774 0.614888 0.210515
0.528684 0.667417 0.223269
0.666443 0.686876 0.233853
0.781244 0.705268 0.253583
0.868516 0.717849 0.268244
0.914468 0.722542 0.272963
0.914322 0.720310 0.271791
0.914241 0.719071 0.271141
0.914206 0.718541 0.270863
0.914192 0.718332 0.270753
0.914171 0.718014 0.270586
0.275720 0.699769 0.227587
0.275710 0.699740 0.227579
0.275698 0.699704 0.227569
0.275676 0.699640 0.227550
0.275629 0.699503 0.227511
0.275516 0.699174 0.227418
0.275274 0.698466 0.227218
0.496948 0.744470 0.253555
0.654098 0.784571 0.255966
0.777009 0.797059 0.269266
0.870052 0.809776 0.283158
0.930385 0.818337 0.292813
0.932660 0.817404 0.292989
0.932520 0.816647 0.292859
0.932460 0.816324 0.292803
0.932437 0.816195 0.292781
0.932401 0.816002 0.292747
0.300958 0.777096 0.248411
0.300951 0.777075 0.248406
0.300943 0.777049 0.248399
0.300928 0.777003 0.248387
0.300897 0.776903 0.248362
0.300823 0.776666 0.248301
0.300664 0.776156 0.248169
0.368610 0.783512 0.255707
0.628242 0.851490 0.279510
0.765732 0.875948 0.285379
0.864128 0.884455 0.294761
0.926077 0.891539 0.302630
0.946302 0.894074 0.305804
0.946207 0.893519 0.305715
0.946166 0.893282 0.305677
0.946150 0.893188 0.305662
0.946125 0.893046 0.305639
0.316254 0.826691 0.261017
0.316254 0.826691 0.261017
0.316254 0.826691 0.261017
0.316254 0.826691 0.261017
0.316254 0.826691 0.261017
0.316254 0.826691 0.261017
0.316254 0.826691 0.261017
0.316254 0.826691 0.261017
0.588884 0.887388 0.293233
0.747156 0.927311 0.294242
0.858347 0.938080 0.305371
0.921436 0.942718 0.310738
0.954778 0.945210 0.313740
0.954702 0.944746 0.313669
0.954670 0.944549 0.313639
0.954657 0.944471 0.313627
0.954638 0.944351 0.313608
0.316254 0.826691 0.261017
0.316254 0.826691 0.261017
0.316254 0.826691 0.261017
0.316254 0.826691 0.261017
0.316254 0.826691 0.261017
0.316254 0.826691 0.261017
0.316254 0.826691 0.261017
0.316254 0.826691 0.261017
0.540010 0.871869 0.290511
0.725825 0.923523 0.295233
0.845160 0.939265 0.304630
0.911983 0.945705 0.310717
0.948477 0.949021 0.313836
0.955505 0.949646 0.314423
0.955505 0.949646 0.314423
0.955505 0.949646 0.314423
0.955505 0.949646 0.314423
0.316254 0.826691 0.261017
0.316254 0.826691 0.261017
0.316254 0.826691 0.261017
0.316254 0.826691 0.261017
0.316254 0.826691 0.261017
0.316254 0.826691 0.261017
0.316254 0.826691 0.261017
0.316254 0.826691 0.261017
0.506778 0.859822 0.289006
0.712799 0.920553 0.295505
0.837125 0.938435 0.303851
0.906096 0.945171 0.310214
0.943316 0.948562 0.313405
0.955505 0.949646 0.314423
0.955505 0.949646 0.314423
0.955505 0.949646 0.314423
0.955505 0.949646 0.314423
0.316254 0.826691 0.261017
0.316254 0.826691 0.261017
0.316254 0.826691 0.261017
0.316254 0.826691 0.261017
0.316254 0.826691 0.261017
0.316254 0.826691 0.261017
0.316254 0.826691 0.261017
0.316254 0.826691 0.261017
0.489971 0.854316 0.287255
0.707012 0.919218 0.295600
0.833638 0.938074 0.303513
0.903536 0.944932 0.309991
0.941095 0.948365 0.313220
0.955505 0.949646 0.314423
0.955505 0.949646 0.314423
0.955505 0.949646 0.314423
0.955505 0.949646 0.314423
0.316254 0.826691 0.261017
0.316254 0.826691 0.261017
0.316254 0.826691 0.261017
0.316254 0.826691 0.261017
0.316254 0.826691 0.261017
0.316254 0.826691 0.261017
0.316254 0.826691 0.261017
0.316254 0.826691 0.261017
0.481766 0.852719 0.285728
0.704642 0.918653 0.295610
0.832247 0.937930 0.303378
0.902506 0.944833 0.309899
0.940211 0.948286 0.313146
0.955505 0.949646 0.314423
0.955505 0.949646 0.314423
0.955505 0.949646 0.314423
0.955505 0.949646 0.314423
0.316254 0.826691 0.261017
0.316254 0.826691 0.261017
0.316254 0.826691 0.261017
0.316254 0.826691 0.261017
0.316254 0.826691 0.261017
0.316254 0.826691 0.261017
0.316254 0.826691 0.261017
0.316254 0.826691 0.261017
0.468521 0.850141 0.283263
0.701009 0.917787 0.295626
0.830041 0.937698 0.303156
0.900939 0.944683 0.309760
0.938866 0.948167 0.313034
0.955505 0.949646 0.314423
0.955505 0.949646 0.314423
0.955505 0.949646 0.314423
0.955505 0.949646 0.314423
0.003017 0.000000 0.025130
0.016447 0.002858 0.026785
0.039610 0.005515 0.031701
0.079604 0.008962 0.037347
0.150371 0.016769 0.046099
0.270345 0.033222 0.063247
0.428881 0.055067 0.087153
0.583772 0.076009 0.111801
0.716675 0.093013 0.134067
0.821712 0.105146 0.153982
0.907827 0.114279 0.171454
0.924248 0.116051 0.180604
0.924307 0.116110 0.185657
0.924338 0.116141 0.188347
0.924351 0.116154 0.189471
0.924356 0.116159 0.189913
0.924364 0.116167 0.190580
0.002493 0.007286 0.026373
0.012614 0.008675 0.025858
0.035065 0.011457 0.029940
0.075615 0.014110 0.035239
0.146997 0.020698 0.044216
0.268076 0.032898 0.061427
0.427533 0.054872 0.085542
0.582937 0.075887 0.110382
0.716158 0.092937 0.132750
0.821384 0.105097 0.152699
0.907580 0.114244 0.170310
0.924235 0.116038 0.179419
0.924294 0.116097 0.184530
0.924325 0.116128 0.187248
0.924338 0.116141 0.188385
0.924343 0.116146 0.188831
0.924351 0.116154 0.189504
0.005385 0.028303 0.026739
0.009083 0.028203 0.027078
0.029699 0.029585 0.028942
0.071225 0.033021 0.033296
0.143044 0.039984 0.042432
0.265765 0.051784 0.059606
0.426061 0.063835 0.083686
0.581851 0.075729 0.108494
0.715486 0.092840 0.131100
0.820959 0.105034 0.151003
0.907257 0.114196 0.168801
0.924217 0.116020 0.177859
0.924277 0.116080 0.183047
0.924308 0.116111 0.185804
0.924322 0.116125 0.186956
0.924327 0.116130 0.187409
0.924335 0.116138 0.188091
0.014753 0.061581 0.030875
0.014647 0.061242 0.030898
0.029285 0.061979 0.032846
0.063144 0.065558 0.036086
0.135116 0.074050 0.041031
0.262096 0.086394 0.057205
0.424435 0.099188 0.081146
0.580953 0.103792 0.105986
0.714455 0.098038 0.128290
0.820209 0.104921 0.147933
0.906690 0.114113 0.166086
0.924184 0.115987 0.175172
0.924246 0.116049 0.180392
0.924279 0.116082 0.183220
0.924292 0.116095 0.184402
0.924298 0.116101 0.184865
0.924306 0.116109 0.185565
0.035876 0.118419 0.042284
0.035750 0.118155 0.042283
0.035586 0.117810 0.042280
0.067074 0.119851 0.047221
0.122607 0.129021 0.050753
0.247801 0.147528 0.060044
0.421267 0.161054 0.076677
0.580448 0.170060 0.101569
0.715288 0.169316 0.124517
0.820699 0.155620 0.143446
0.905987 0.129374 0.160485
0.924112 0.115915 0.169735
0.924178 0.115981 0.174661
0.924212 0.116015 0.177471
0.924227 0.116030 0.178721
0.924232 0.116035 0.179212
0.924241 0.116044 0.179951
0.080067 0.218238 0.066092
0.079988 0.218052 0.066026
0.079886 0.217812 0.065942
0.079674 0.217397 0.065970
0.132486 0.222327 0.071690
0.231307 0.242846 0.078042
0.393929 0.271249 0.094328
0.565901 0.286178 0.104083
0.715068 0.288522 0.115588
0.824869 0.284299 0.134167
0.911359 0.272958 0.152801
0.931513 0.256366 0.162037
0.930661 0.242567 0.167052
0.930162 0.234921 0.169642
0.929943 0.231584 0.170704
0.929855 0.230241 0.171117
0.929721 0.228182 0.171736
0.137343 0.352302 0.113357
0.137296 0.352192 0.113318
0.137236 0.352048 0.113268
0.137128 0.351796 0.113179
0.136899 0.351256 0.112990
0.239976 0.366105 0.124894
0.380958 0.396878 0.131700
0.536432 0.426612 0.154237
0.682847 0.444988 0.154346
0.799125 0.450610 0.154667
0.892399 0.448767 0.156044
0.921694 0.441033 0.162114
0.922949 0.433672 0.165363
0.923819 0.429514 0.167165
0.924353 0.427693 0.167837
0.924579 0.426966 0.168094
0.924923 0.425860 0.168483
0.193335 0.485435 0.159586
0.193306 0.485366 0.159563
0.193269 0.485277 0.159532
0.193204 0.485119 0.159478
0.193065 0.484782 0.159363
0.192729 0.483968 0.159086
0.385686 0.524091 0.178268
0.531237 0.550246 0.186609
0.668351 0.575366 0.213196
0.782085 0.592133 0.216586
0.873597 0.599259 0.214813
0.910573 0.598515 0.213097
0.910546 0.594696 0.211498
0.910531 0.592567 0.210607
0.910525 0.591656 0.210226
0.910522 0.591295 0.210075
0.910519 0.590746 0.209846
0.240694 0.603468 0.198668
0.240677 0.603425 0.198654
0.240655 0.603367 0.198636
0.240616 0.603267 0.198604
0.240534 0.603054 0.198537
0.240337 0.602540 0.198374
0.335906 0.614341 0.210262
0.528297 0.666929 0.223132
0.666174 0.686412 0.233713
0.781069 0.704846 0.253487
0.868368 0.717429 0.268153
0.914440 0.722113 0.272738
0.914294 0.719878 0.271565
0.914212 0.718637 0.270913
0.914177 0.718108 0.270635
0.914164 0.717897 0.270525
0.914143 0.717580 0.270358
0.275627 0.699499 0.227510
0.275618 0.699470 0.227502
0.275605 0.699434 0.227492
0.275583 0.699370 0.227474
0.275536 0.699233 0.227435
0.275424 0.698903 0.227342
0.275181 0.698196 0.227141
0.496543 0.744113 0.253444
0.653849 0.784270 0.255864
0.776839 0.796762 0.269186
0.869936 0.809502 0.283100
0.930281 0.818064 0.292759
0.932611 0.817140 0.292944
0.932471 0.816382 0.292813
0.932411 0.816059 0.292757
0.932388 0.815931 0.292735
0.932352 0.815737 0.292701
0.300896 0.776900 0.248361
0.300890 0.776880 0.248356
0.300882 0.776854 0.248349
0.300867 0.776808 0.248337
0.300837 0.776709 0.248312
0.300762 0.776472 0.248250
0.300602 0.775961 0.248118
0.367701 0.783179 0.255527
0.627997 0.851249 0.279448
0.765574 0.875730 0.285321
0.864011 0.884243 0.294709
0.925988 0.891340 0.302591
0.946269 0.893881 0.305773
0.946173 0.893325 0.305684
0.946132 0.893088 0.305646
0.946116 0.892994 0.305630
0.946092 0.892852 0.305608
0.316254 0.826691 0.261017
0.316254 0.826691 0.261017
0.316254 0.826691 0.261017
0.316254 0.826691 0.261017
0.316254 0.826691 0.261017
0.316254 0.826691 0.261017
0.316254 0.826691 0.261017
0.316254 0.826691 0.261017
0.588650 0.887310 0.293234
0.746991 0.927116 0.294197
0.858234 0.937898 0.305325
0.921340 0.942537 0.310694
0.954752 0.945048 0.313716
0.954676 0.944584 0.313644
0.954643 0.944387 0.313614
0.954631 0.944309 0.313602
0.954611 0.944190 0.313584
0.316254 0.826691 0.261017
0.316254 0.826691 0.261017
0.316254 0.826691 0.261017
0.316254 0.826691 0.261017
0.316254 0.826691 0.261017
0.316254 0.826691 0.261017
0.316254 0.826691 0.261017
0.316254 0.826691 0.261017
0.539708 0.871772 0.290488
0.725699 0.923495 0.295236
0.845082 0.939257 0.304622
0.911925 0.945700 0.310712
0.948426 0.949017 0.313832
0.955505 0.949646 0.314423
0.955505 0.949646 0.314423
0.955505 0.949646 0.314423
0.955505 0.949646 0.314423
0.316254 0.826691 0.261017
0.316254 0.826691 0.261017
0.316254 0.826691 0.261017
0.316254 0.826691 0.261017
0.316254 0.826691 0.261017
0.316254 0.826691 0.261017
0.316254 0.826691 0.261017
0.316254 0.826691 0.261017
0.506414 0.859696 0.288972
0.712667 0.920523 0.295507
0.837045 0.938426 0.303843
0.906037 0.945165 0.310209
0.943265 0.948558 0.313401
0.955505 0.949646 0.314423
0.955505 0.949646 0.314423
0.955505 0.949646 0.314423
0.955505 0.949646 0.314423
0.316254 0.826691 0.261017
0.316254 0.826691 0.261017
0.316254 0.826691 0.261017
0.316254 0.826691 0.261017
0.316254 0.826691 0.261017
0.316254 0.826691 0.261017
0.316254 0.826691 0.261017
0.316254 0.826691 0.261017
0.489502 0.854225 0.287168
0.706875 0.919185 0.295600
0.833557 0.938066 0.303505
0.903476 0.944927 0.309986
0.941043 0.948360 0.313215
0.955505 0.949646 0.314423
0.955505 0.949646 0.314423
0.955505 0.949646 0.314423
0.955505 0.949646 0.314423
0.316254 0.826691 0.261017
0.316254 0.826691 0.261017
0.316254 0.826691 0.261017
0.316254 0.826691 0.261017
0.316254 0.826691 0.261017
0.316254 0.826691 0.261017
0.316254 0.826691 0.261017
0.316254 0.826691 0.261017
0.481274 0.852623 0.285637
0.704503 0.918620 0.295611
0.832163 0.937922 0.303370
0.902446 0.944828 0.309894
0.940158 0.948282 0.313142
0.955505 0.949646 0.314423
0.955505 0.949646 0.314423
0.955505 0.949646 0.314423
0.955505 0.949646 0.314423
0.316254 0.826691 0.261017
0.316254 0.826691 0.261017
0.316254 0.826691 0.261017
0.316254 0.826691 0.261017
0.316254 0.826691 0.261017
0.316254 0.826691 0.261017
0.316254 0.826691 0.261017
0.316254 0.826691 0.261017
0.467989 0.850037 0.283164
0.700868 0.917753 0.295627
0.829956 0.937689 0.303147
0.900879 0.944677 0.309754
0.938814 0.948162 0.313029
0.955505 0.949646 0.314423
0.955505 0.949646 0.314423
0.955505 0.949646 0.314423
0.955505 0.949646 0.314423
0.007182 0.000000 0.047328
0.018874 0.003095 0.047314
0.040379 0.007798 0.053372
0.074502 0.012971 0.062096
0.146256 0.020103 0.074247
0.269561 0.033337 0.090151
0.428521 0.055255 0.113455
0.583673 0.076209 0.137286
0.716706 0.093278 0.159281
0.821858 0.105410 0.177962
0.907998 0.114550 0.194561
0.924513 0.116313 0.202907
0.924577 0.116371 0.207511
0.924611 0.116403 0.209985
0.924626 0.116416 0.211026
0.924631 0.116421 0.211435
