滤镜资源/Lutify.me Free 3D LUTs Package/3D LUTs/Monitoring LUTs/Generic Log/Heulandite - Log.cube
# Website: https://lutify.me
# Contact: help@lutify.me
# Copyright: (c) Copyright Lutify.me 2016, G.T. Colord LTD
# Created by: Lutify.me
LUT_3D_SIZE 17
0.012207 0.008179 0.009064
0.027310 0.008676 0.007331
0.061754 0.010535 0.003884
0.123158 0.014601 0.000175
0.217619 0.021010 0.000017
0.339159 0.023089 0.000031
0.469506 0.024675 0.000008
0.548340 0.023979 0.000026
0.618759 0.023754 0.000008
0.687011 0.023981 0.000008
0.754618 0.025163 0.000000
0.774054 0.023812 0.000000
0.781733 0.021019 0.000086
0.785742 0.019560 0.000132
0.787403 0.018956 0.000150
0.788054 0.018719 0.000158
0.789031 0.018363 0.000169
0.018759 0.018554 0.012094
0.027466 0.018175 0.009434
0.049472 0.018416 0.004750
0.094495 0.019590 0.001218
0.177964 0.025200 0.000007
0.311394 0.026876 0.000017
0.468044 0.025148 0.000006
0.547224 0.024428 0.000028
0.617440 0.024181 0.000004
0.685625 0.024376 0.000007
0.753180 0.025550 0.000000
0.772975 0.024157 0.000000
0.780034 0.021637 0.000067
0.784111 0.020153 0.000113
0.785798 0.019540 0.000132
0.786459 0.019299 0.000140
0.787452 0.018938 0.000151
0.027545 0.041371 0.018790
0.032743 0.038245 0.017663
0.051708 0.035675 0.012198
0.083902 0.034638 0.003831
0.148145 0.037732 0.000022
0.257415 0.041079 0.000003
0.419204 0.031111 0.000027
0.545256 0.025119 0.000031
0.615726 0.024736 0.000001
0.683807 0.024895 0.000007
0.751265 0.026067 0.000000
0.771542 0.024615 0.000000
0.777786 0.022455 0.000042
0.781953 0.020939 0.000089
0.783676 0.020312 0.000108
0.784351 0.020066 0.000116
0.785364 0.019697 0.000127
0.038628 0.081307 0.037030
0.038517 0.080923 0.036830
0.054523 0.073991 0.034159
0.084816 0.066450 0.022792
0.153283 0.066507 0.000022
0.251556 0.077310 0.000000
0.376192 0.067831 0.000000
0.496665 0.040978 0.000000
0.599112 0.029396 0.000006
0.680617 0.025806 0.000006
0.747767 0.027018 0.000000
0.768934 0.025449 0.000000
0.773861 0.023873 0.000000
0.778049 0.022359 0.000045
0.779841 0.021707 0.000065
0.780542 0.021452 0.000073
0.781594 0.021069 0.000085
0.058031 0.139186 0.068826
0.057928 0.138937 0.068680
0.057798 0.138610 0.068489
0.085824 0.131830 0.063680
0.150836 0.117021 0.034515
0.267009 0.123661 0.000006
0.393989 0.139814 0.000000
0.498893 0.132508 0.000011
0.551336 0.098039 0.000025
0.633755 0.054292 0.000017
0.733106 0.036766 0.000004
0.762883 0.027385 0.000000
0.768378 0.025627 0.000000
0.771184 0.024730 0.000000
0.772336 0.024361 0.000000
0.772786 0.024217 0.000000
0.773461 0.024001 0.000000
0.099099 0.223326 0.116490
0.099020 0.223176 0.116412
0.098918 0.222982 0.116312
0.098737 0.222640 0.116134
0.126918 0.219650 0.107834
0.273893 0.198376 0.034037
0.430720 0.217702 0.000672
0.533952 0.232945 0.000029
0.607543 0.238366 0.000009
0.659071 0.233252 0.000031
0.718851 0.217541 0.000000
0.725098 0.193684 0.000000
0.718895 0.173671 0.000000
0.714658 0.161150 0.000000
0.712017 0.154318 0.000004
0.710886 0.151407 0.000006
0.709303 0.147247 0.000009
0.146821 0.323674 0.164434
0.146791 0.323597 0.164403
0.146751 0.323495 0.164362
0.146682 0.323317 0.164291
0.146535 0.322936 0.164139
0.223706 0.326510 0.164328
0.423767 0.311376 0.029214
0.563761 0.335135 0.004741
0.663361 0.353005 0.001838
0.726979 0.358974 0.000961
0.788662 0.363847 0.000017
0.806203 0.360824 0.000031
0.803116 0.355594 0.000031
0.801379 0.352653 0.000031
0.800631 0.351386 0.000031
0.800334 0.350883 0.000031
0.799883 0.350119 0.000031
0.175121 0.413274 0.194301
0.175111 0.413232 0.194291
0.175098 0.413178 0.194277
0.175076 0.413081 0.194253
0.175028 0.412875 0.194201
0.174913 0.412380 0.194076
0.366779 0.415163 0.185371
0.541346 0.419188 0.026527
0.663169 0.439709 0.012202
0.753363 0.455164 0.006643
0.824238 0.464009 0.002341
0.866311 0.481574 0.073964
0.865645 0.478701 0.071330
0.865274 0.477101 0.069863
0.865115 0.476417 0.069235
0.865052 0.476146 0.068986
0.864957 0.475733 0.068608
0.185957 0.490916 0.205599
0.185956 0.490883 0.205597
0.185953 0.490841 0.205595
0.185949 0.490767 0.205591
0.185940 0.490609 0.205581
0.185919 0.490229 0.205559
0.205780 0.515587 0.190977
0.492002 0.512585 0.138490
0.628740 0.515768 0.032251
0.755374 0.532947 0.023596
0.834440 0.542749 0.011747
0.881860 0.571025 0.128723
0.881831 0.569433 0.128273
0.881815 0.568550 0.128024
0.881808 0.568173 0.127917
0.881805 0.568023 0.127875
0.881801 0.567797 0.127811
0.182357 0.577634 0.201291
0.182361 0.577605 0.201295
0.182365 0.577567 0.201300
0.182373 0.577501 0.201309
0.182390 0.577359 0.201327
0.182431 0.577018 0.201373
0.182519 0.576285 0.201471
0.399858 0.606507 0.171335
0.588317 0.601021 0.082848
0.722154 0.607733 0.035101
0.826850 0.614498 0.037220
0.882593 0.640907 0.135255
0.883911 0.641378 0.142016
0.883944 0.640706 0.141699
0.883958 0.640419 0.141565
0.883964 0.640306 0.141511
0.883973 0.640133 0.141430
0.159928 0.670613 0.182454
0.159938 0.670585 0.182460
0.159950 0.670549 0.182469
0.159971 0.670484 0.182484
0.160018 0.670346 0.182517
0.160129 0.670012 0.182597
0.160369 0.669297 0.182768
0.156046 0.696156 0.155636
0.532599 0.681809 0.093898
0.680317 0.694693 0.034457
0.807657 0.703626 0.039421
0.867704 0.711754 0.093149
0.876912 0.719726 0.154563
0.876948 0.719066 0.154769
0.876963 0.718784 0.154856
0.876969 0.718672 0.154891
0.876978 0.718503 0.154944
0.132233 0.741699 0.164978
0.132233 0.741699 0.164978
0.132233 0.741699 0.164978
0.132233 0.741699 0.164978
0.132233 0.741699 0.164978
0.132233 0.741699 0.164978
0.132233 0.741699 0.164978
0.132233 0.741699 0.164978
0.465145 0.759287 0.081325
0.643959 0.746001 0.033167
0.788334 0.764519 0.035283
0.859609 0.770525 0.047991
0.876470 0.781372 0.144192
0.876460 0.780864 0.144185
0.876456 0.780647 0.144182
0.876455 0.780561 0.144181
0.876452 0.780431 0.144179
0.132233 0.741699 0.164978
0.132233 0.741699 0.164978
0.132233 0.741699 0.164978
0.132233 0.741699 0.164978
0.132233 0.741699 0.164978
0.132233 0.741699 0.164978
0.132233 0.741699 0.164978
0.132233 0.741699 0.164978
0.389042 0.773171 0.095168
0.618369 0.743393 0.039405
0.770087 0.764499 0.026086
0.849830 0.772859 0.043723
0.873245 0.783336 0.121004
0.876556 0.786102 0.144257
0.876556 0.786102 0.144257
0.876556 0.786102 0.144257
0.876556 0.786102 0.144257
0.132233 0.741699 0.164978
0.132233 0.741699 0.164978
0.132233 0.741699 0.164978
0.132233 0.741699 0.164978
0.132233 0.741699 0.164978
0.132233 0.741699 0.164978
0.132233 0.741699 0.164978
0.132233 0.741699 0.164978
0.330625 0.782942 0.104988
0.603524 0.741413 0.043519
0.759263 0.763046 0.023243
0.844092 0.772032 0.042005
0.870801 0.781295 0.103841
0.876556 0.786102 0.144257
0.876556 0.786102 0.144257
0.876556 0.786102 0.144257
0.876556 0.786102 0.144257
0.132233 0.741699 0.164978
0.132233 0.741699 0.164978
0.132233 0.741699 0.164978
0.132233 0.741699 0.164978
0.132233 0.741699 0.164978
0.132233 0.741699 0.164978
0.132233 0.741699 0.164978
0.132233 0.741699 0.164978
0.298587 0.788301 0.109175
0.596958 0.740557 0.045351
0.754567 0.762415 0.022010
0.841391 0.771717 0.041539
0.869749 0.780416 0.096450
0.876556 0.786102 0.144257
0.876556 0.786102 0.144257
0.876556 0.786102 0.144257
0.876556 0.786102 0.144257
0.132233 0.741699 0.164978
0.132233 0.741699 0.164978
0.132233 0.741699 0.164978
0.132233 0.741699 0.164978
0.132233 0.741699 0.164978
0.132233 0.741699 0.164978
0.132233 0.741699 0.164978
0.132233 0.741699 0.164978
0.283858 0.788610 0.111067
0.594299 0.740233 0.046109
0.752692 0.762163 0.021518
0.840184 0.771616 0.041514
0.869330 0.780066 0.093509
0.876556 0.786102 0.144257
0.876556 0.786102 0.144257
0.876556 0.786102 0.144257
0.876556 0.786102 0.144257
0.132233 0.741699 0.164978
0.132233 0.741699 0.164978
0.132233 0.741699 0.164978
0.132233 0.741699 0.164978
0.132233 0.741699 0.164978
0.132233 0.741699 0.164978
0.132233 0.741699 0.164978
0.132233 0.741699 0.164978
0.260083 0.789108 0.114122
0.590224 0.739737 0.047270
0.749448 0.761688 0.021448
0.838349 0.771463 0.041476
0.868693 0.779535 0.089038
0.876556 0.786102 0.144257
0.876556 0.786102 0.144257
0.876556 0.786102 0.144257
0.876556 0.786102 0.144257
0.009829 0.010311 0.014176
0.022474 0.010550 0.016333
0.061246 0.010539 0.012349
0.124466 0.013258 0.006696
0.222529 0.015699 0.000278
0.340519 0.018005 0.000031
0.477703 0.019794 0.000022
0.557444 0.019594 0.000002
0.628863 0.019647 0.000027
0.699473 0.020033 0.000012
0.766759 0.021083 0.000051
0.789368 0.018241 0.000173
0.796024 0.015819 0.000248
0.799533 0.014542 0.000287
0.800994 0.014011 0.000304
0.801560 0.013807 0.000451
0.802410 0.013503 0.000712
0.009951 0.018121 0.019681
0.018111 0.018905 0.021045
0.043637 0.018513 0.016754
0.093194 0.020409 0.011729
0.191246 0.020883 0.002170
0.325303 0.020764 0.000023
0.475759 0.020419 0.000025
0.555959 0.020075 0.000000
0.627037 0.020176 0.000030
0.697980 0.020428 0.000010
0.764832 0.021705 0.000032
0.787794 0.018813 0.000155
0.794547 0.016356 0.000231
0.798103 0.015063 0.000271
0.799582 0.014524 0.000288
0.800163 0.014313 0.000295
0.801038 0.013995 0.000304
0.019671 0.037019 0.023694
0.024490 0.036422 0.023787
0.044038 0.033585 0.020053
0.076871 0.033073 0.012965
0.148449 0.033512 0.004535
0.266046 0.033611 0.000000
0.430891 0.025391 0.000004
0.554029 0.020698 0.000003
0.625187 0.020752 0.000028
0.695993 0.020955 0.000008
0.762285 0.022531 0.000005
0.785713 0.019570 0.000131
0.792597 0.017066 0.000209
0.796216 0.015749 0.000250
0.797722 0.015201 0.000267
0.798313 0.014986 0.000274
0.799202 0.014663 0.000284
0.034117 0.076615 0.038737
0.033932 0.076184 0.038593
0.049213 0.071221 0.036139
0.080614 0.063464 0.026160
0.148642 0.063084 0.004653
0.248807 0.069257 0.000006
0.367440 0.054942 0.000026
0.508168 0.033611 0.000001
0.611174 0.024527 0.000021
0.692369 0.021924 0.000003
0.759179 0.023379 0.000000
0.781957 0.020937 0.000089
0.789086 0.018343 0.000169
0.792825 0.016983 0.000212
0.794379 0.016418 0.000229
0.794988 0.016196 0.000236
0.795904 0.015863 0.000246
0.057325 0.137299 0.067728
0.057231 0.137040 0.067578
0.057110 0.136703 0.067382
0.084486 0.129995 0.062717
0.149226 0.115171 0.034238
0.264695 0.121207 0.000013
0.390563 0.135697 0.000000
0.493845 0.123963 0.000020
0.545025 0.084791 0.000019
0.648687 0.046829 0.000008
0.744857 0.032198 0.000023
0.773692 0.023927 0.000000
0.781163 0.021226 0.000080
0.785195 0.019759 0.000126
0.786865 0.019152 0.000144
0.787519 0.018913 0.000152
0.788502 0.018556 0.000163
0.098515 0.222218 0.115915
0.098435 0.222067 0.115837
0.098332 0.221871 0.115735
0.098151 0.221527 0.115556
0.125998 0.218506 0.107214
0.273125 0.197214 0.033305
0.429962 0.216624 0.000632
0.533156 0.231769 0.000029
0.606391 0.236801 0.000010
0.657604 0.228148 0.000031
0.718484 0.211411 0.000005
0.724901 0.186992 0.000000
0.718579 0.166807 0.000000
0.713647 0.153006 0.000004
0.711057 0.146312 0.000007
0.709988 0.143523 0.000008
0.708245 0.138873 0.000007
0.146597 0.323097 0.164203
0.146567 0.323019 0.164172
0.146527 0.322917 0.164131
0.146458 0.322738 0.164060
0.146310 0.322356 0.163907
0.222736 0.325997 0.164022
0.423455 0.310795 0.029132
0.563483 0.334492 0.004654
0.663074 0.352351 0.001835
0.726617 0.358262 0.000906
0.788239 0.363122 0.000018
0.805750 0.360055 0.000031
0.802670 0.354772 0.000030
0.801020 0.351621 0.000022
0.800311 0.350268 0.000019
0.800029 0.349729 0.000018
0.799617 0.348895 0.000018
0.175048 0.412962 0.194223
0.175038 0.412920 0.194212
0.175026 0.412866 0.194198
0.175003 0.412769 0.194174
0.174955 0.412563 0.194122
0.174840 0.412067 0.193997
0.366389 0.414744 0.185403
0.541217 0.418771 0.026386
0.663066 0.439355 0.012071
0.753213 0.454820 0.006639
0.824071 0.463657 0.002340
0.866213 0.481149 0.073574
0.865546 0.478273 0.070937
0.865174 0.476670 0.069468
0.865015 0.475984 0.068838
0.864952 0.475712 0.068589
0.864856 0.475300 0.068211
0.185944 0.490676 0.205585
0.185942 0.490643 0.205583
0.185940 0.490601 0.205581
0.185936 0.490527 0.205577
0.185927 0.490369 0.205567
0.185905 0.489989 0.205545
0.205269 0.515167 0.190945
0.491795 0.512330 0.138584
0.628649 0.515500 0.032213
0.755281 0.532711 0.023545
0.834356 0.542497 0.011649
0.881856 0.570789 0.128656
0.881826 0.569196 0.128206
0.881810 0.568312 0.127956
0.881803 0.567934 0.127850
0.881801 0.567785 0.127807
0.881796 0.567558 0.127743
0.182383 0.577419 0.201319
0.182386 0.577390 0.201323
0.182391 0.577352 0.201328
0.182399 0.577285 0.201337
0.182416 0.577143 0.201356
0.182457 0.576803 0.201402
0.182545 0.576070 0.201500
0.399539 0.606310 0.171466
0.588201 0.600805 0.082897
0.722060 0.607509 0.035087
0.826800 0.614299 0.037209
0.882581 0.640699 0.135046
0.883920 0.641198 0.141931
0.883953 0.640526 0.141615
0.883967 0.640239 0.141479
0.883973 0.640125 0.141426
0.883982 0.639953 0.141345
0.159998 0.670404 0.182503
0.160008 0.670375 0.182510
0.160020 0.670339 0.182519
0.160042 0.670274 0.182535
0.160088 0.670135 0.182568
0.160200 0.669802 0.182647
0.160439 0.669087 0.182818
0.156093 0.695748 0.155879
0.532456 0.681629 0.094030
0.680213 0.694505 0.034515
0.807583 0.703423 0.039413
0.867679 0.711544 0.093079
0.876921 0.719550 0.154618
0.876957 0.718888 0.154824
0.876972 0.718606 0.154912
0.876979 0.718495 0.154946
0.876988 0.718326 0.154999
0.132233 0.741699 0.164978
0.132233 0.741699 0.164978
0.132233 0.741699 0.164978
0.132233 0.741699 0.164978
0.132233 0.741699 0.164978
0.132233 0.741699 0.164978
0.132233 0.741699 0.164978
0.132233 0.741699 0.164978
0.464885 0.759337 0.081380
0.643859 0.745862 0.033243
0.788262 0.764379 0.035332
0.859583 0.770372 0.047882
0.876467 0.781236 0.144190
0.876458 0.780727 0.144183
0.876454 0.780511 0.144180
0.876452 0.780425 0.144179
0.876450 0.780294 0.144177
0.132233 0.741699 0.164978
0.132233 0.741699 0.164978
0.132233 0.741699 0.164978
0.132233 0.741699 0.164978
0.132233 0.741699 0.164978
0.132233 0.741699 0.164978
0.132233 0.741699 0.164978
0.132233 0.741699 0.164978
0.388658 0.773238 0.095230
0.618259 0.743378 0.039436
0.770006 0.764488 0.026065
0.849788 0.772853 0.043710
0.873227 0.783321 0.120875
0.876556 0.786102 0.144257
0.876556 0.786102 0.144257
0.876556 0.786102 0.144257
0.876556 0.786102 0.144257
0.132233 0.741699 0.164978
0.132233 0.741699 0.164978
0.132233 0.741699 0.164978
0.132233 0.741699 0.164978
0.132233 0.741699 0.164978
0.132233 0.741699 0.164978
0.132233 0.741699 0.164978
0.132233 0.741699 0.164978
0.330087 0.783040 0.105058
0.603408 0.741398 0.043551
0.759180 0.763035 0.023222
0.844047 0.772026 0.041992
0.870782 0.781279 0.103709
0.876556 0.786102 0.144257
0.876556 0.786102 0.144257
0.876556 0.786102 0.144257
0.876556 0.786102 0.144257
0.132233 0.741699 0.164978
0.132233 0.741699 0.164978
0.132233 0.741699 0.164978
0.132233 0.741699 0.164978
0.132233 0.741699 0.164978
0.132233 0.741699 0.164978
0.132233 0.741699 0.164978
0.132233 0.741699 0.164978
0.297940 0.788315 0.109258
0.596839 0.740542 0.045385
0.754482 0.762404 0.021988
0.841336 0.771713 0.041538
0.869730 0.780400 0.096318
0.876556 0.786102 0.144257
0.876556 0.786102 0.144257
0.876556 0.786102 0.144257
0.876556 0.786102 0.144257
0.132233 0.741699 0.164978
0.132233 0.741699 0.164978
0.132233 0.741699 0.164978
0.132233 0.741699 0.164978
0.132233 0.741699 0.164978
0.132233 0.741699 0.164978
0.132233 0.741699 0.164978
0.132233 0.741699 0.164978
0.283178 0.788624 0.111155
0.594179 0.740218 0.046143
0.752607 0.762152 0.021496
0.840130 0.771612 0.041513
0.869311 0.780051 0.093377
0.876556 0.786102 0.144257
0.876556 0.786102 0.144257
0.876556 0.786102 0.144257
0.876556 0.786102 0.144257
0.132233 0.741699 0.164978
0.132233 0.741699 0.164978
0.132233 0.741699 0.164978
0.132233 0.741699 0.164978
0.132233 0.741699 0.164978
0.132233 0.741699 0.164978
0.132233 0.741699 0.164978
0.132233 0.741699 0.164978
0.259347 0.789123 0.114217
0.590102 0.739722 0.047305
0.749351 0.761674 0.021447
0.838294 0.771458 0.041475
0.868675 0.779519 0.088905
0.876556 0.786102 0.144257
0.876556 0.786102 0.144257
0.876556 0.786102 0.144257
0.876556 0.786102 0.144257
0.005665 0.013521 0.018091
0.015612 0.014589 0.029437
0.051347 0.014527 0.030815
0.122240 0.014718 0.022343
0.226787 0.012029 0.010361
0.356771 0.008065 0.001720
0.495015 0.011625 0.000476
0.574418 0.013110 0.000027
0.644695 0.014087 0.000069
0.716576 0.014221 0.000727
0.784916 0.014446 0.000458
0.806336 0.012097 0.001920
0.811978 0.010076 0.003656
0.814981 0.009000 0.004581
0.816237 0.008550 0.004967
0.816731 0.008373 0.005119
0.817475 0.008107 0.005348
0.006801 0.018189 0.021894
0.012776 0.019107 0.025485
0.037768 0.019019 0.030261
0.100990 0.018543 0.023298
0.204935 0.016588 0.011611
0.353317 0.008639 0.001029
0.492391 0.012303 0.000382
0.572542 0.013647 0.000020
0.643077 0.014557 0.000001
0.714853 0.014750 0.000623
0.783319 0.014950 0.000428
0.805012 0.012571 0.001513
0.810719 0.010527 0.003269
0.813755 0.009439 0.004203
0.815024 0.008985 0.004594
0.815522 0.008806 0.004747
0.816274 0.008537 0.004978
0.007104 0.033043 0.033164
0.009744 0.032976 0.034220
0.027126 0.034464 0.037971
0.067871 0.033887 0.030331
0.147556 0.034451 0.020481
0.291247 0.024682 0.001591
0.458345 0.016278 0.000100
0.570076 0.014350 0.000015
0.641164 0.015085 0.000004
0.712579 0.015450 0.000487
0.781214 0.015615 0.000389
0.803270 0.013195 0.000977
0.809064 0.011119 0.002760
0.812142 0.010017 0.003707
0.813429 0.009556 0.004103
0.813934 0.009375 0.004258
0.814696 0.009102 0.004493
0.021301 0.068880 0.044936
0.021092 0.068456 0.044793
0.036553 0.067622 0.044291
0.070646 0.061556 0.038747
0.141115 0.060860 0.020504
0.253543 0.056266 0.000180
0.368080 0.042119 0.000029
0.525684 0.025322 0.000031
0.630499 0.017953 0.000021
0.708470 0.016719 0.000247
0.777436 0.016812 0.000319
0.800130 0.014325 0.000294
0.806099 0.012182 0.001847
0.809257 0.011050 0.002819
0.810576 0.010578 0.003225
0.811094 0.010392 0.003384
0.811875 0.010113 0.003625
0.046999 0.129727 0.072281
0.046802 0.129437 0.072177
0.046547 0.129059 0.072040
0.074006 0.125681 0.067876
0.141112 0.112020 0.047557
0.257467 0.113042 0.000000
0.384277 0.126024 0.000019
0.486781 0.111350 0.000002
0.548838 0.070729 0.000008
0.669178 0.037817 0.000000
0.762494 0.025089 0.000000
0.793022 0.016911 0.000214
0.799463 0.014568 0.000287
0.802837 0.013350 0.000844
0.804233 0.012850 0.001273
0.804781 0.012654 0.001442
0.805606 0.012358 0.001696
0.097751 0.220770 0.115162
0.097671 0.220617 0.115083
0.097567 0.220421 0.114981
0.097311 0.220031 0.114886
0.124261 0.216880 0.106507
0.271381 0.195004 0.031538
0.427271 0.213625 0.000579
0.528494 0.226892 0.000015
0.601157 0.230103 0.000019
0.655651 0.220563 0.000022
0.718826 0.204740 0.000016
0.725061 0.179869 0.000000
0.718188 0.158448 0.000008
0.712203 0.142235 0.000013
0.709417 0.134869 0.000015
0.708295 0.131909 0.000016
0.706575 0.127376 0.000017
0.146305 0.322344 0.163903
0.146275 0.322266 0.163871
0.146236 0.322164 0.163831
0.146166 0.321984 0.163759
0.146017 0.321600 0.163606
0.221471 0.325328 0.163624
0.423050 0.310038 0.029024
0.563122 0.333654 0.004540
0.662699 0.351499 0.001832
0.726145 0.357334 0.000834
0.787749 0.362072 0.000019
0.805466 0.358415 0.000007
0.802702 0.352687 0.000019
0.801161 0.349496 0.000030
0.800538 0.348113 0.000027
0.800294 0.347563 0.000025
0.799923 0.346725 0.000023
0.174954 0.412557 0.194120
0.174944 0.412514 0.194110
0.174931 0.412459 0.194096
0.174909 0.412363 0.194072
0.174861 0.412157 0.194020
0.174746 0.411659 0.193894
0.365879 0.414200 0.185445
0.541050 0.418230 0.026204
0.662933 0.438894 0.011900
0.753017 0.454372 0.006634
0.823852 0.463199 0.002339
0.866085 0.480597 0.073069
0.865417 0.477716 0.070426
0.865044 0.476109 0.068953
0.864885 0.475422 0.068323
0.864821 0.475150 0.068073
0.864726 0.474736 0.067694
0.185926 0.490364 0.205567
0.185925 0.490332 0.205565
0.185922 0.490289 0.205563
0.185918 0.490215 0.205559
0.185909 0.490057 0.205549
0.185887 0.489676 0.205527
0.204605 0.514621 0.190904
0.491524 0.511998 0.138707
0.628531 0.515154 0.032163
0.755159 0.532407 0.023479
0.834247 0.542171 0.011522
0.881850 0.570483 0.128570
0.881821 0.568888 0.128119
0.881805 0.568003 0.127869
0.881798 0.567625 0.127762
0.881795 0.567475 0.127720
0.881791 0.567248 0.127656
0.182416 0.577140 0.201357
0.182420 0.577110 0.201361
0.182424 0.577072 0.201366
0.182432 0.577006 0.201375
0.182449 0.576864 0.201394
0.182490 0.576522 0.201439
0.182578 0.575789 0.201537
0.399124 0.606054 0.171636
0.588051 0.600524 0.082960
0.721939 0.607218 0.035068
0.826735 0.614040 0.037196
0.882565 0.640428 0.134773
0.883931 0.640963 0.141821
0.883965 0.640291 0.141504
0.883979 0.640004 0.141369
0.883985 0.639890 0.141315
0.883993 0.639718 0.141234
0.160090 0.670130 0.182569
0.160099 0.670102 0.182576
0.160112 0.670066 0.182584
0.160133 0.670001 0.182600
0.160180 0.669863 0.182633
0.160291 0.669529 0.182712
0.160531 0.668813 0.182883
0.156153 0.695215 0.156196
0.532270 0.681398 0.094201
0.680081 0.694259 0.034590
0.807488 0.703159 0.039402
0.867647 0.711271 0.092986
0.876934 0.719319 0.154690
0.876970 0.718658 0.154896
0.876985 0.718375 0.154984
0.876991 0.718264 0.155018
0.877000 0.718095 0.155071
0.132233 0.741699 0.164978
0.132233 0.741699 0.164978
0.132233 0.741699 0.164978
0.132233 0.741699 0.164978
0.132233 0.741699 0.164978
0.132233 0.741699 0.164978
0.132233 0.741699 0.164978
0.132233 0.741699 0.164978
0.464547 0.759402 0.081452
0.643729 0.745681 0.033342
0.788169 0.764197 0.035395
0.859550 0.770175 0.047741
0.876464 0.781058 0.144188
0.876454 0.780550 0.144181
0.876451 0.780333 0.144178
0.876449 0.780247 0.144177
0.876447 0.780117 0.144175
0.132233 0.741699 0.164978
0.132233 0.741699 0.164978
0.132233 0.741699 0.164978
0.132233 0.741699 0.164978
0.132233 0.741699 0.164978
0.132233 0.741699 0.164978
0.132233 0.741699 0.164978
0.132233 0.741699 0.164978
0.388161 0.773326 0.095310
0.618116 0.743359 0.039475
0.769900 0.764474 0.026037
0.849731 0.772845 0.043693
0.873203 0.783301 0.120707
0.876556 0.786102 0.144257
0.876556 0.786102 0.144257
0.876556 0.786102 0.144257
0.876556 0.786102 0.144257
0.132233 0.741699 0.164978
0.132233 0.741699 0.164978
0.132233 0.741699 0.164978
0.132233 0.741699 0.164978
0.132233 0.741699 0.164978
0.132233 0.741699 0.164978
0.132233 0.741699 0.164978
0.132233 0.741699 0.164978
0.329386 0.783167 0.105150
0.603258 0.741378 0.043593
0.759071 0.763020 0.023193
0.843990 0.772017 0.041975
0.870758 0.781259 0.103539
0.876556 0.786102 0.144257
0.876556 0.786102 0.144257
0.876556 0.786102 0.144257
0.876556 0.786102 0.144257
0.132233 0.741699 0.164978
0.132233 0.741699 0.164978
0.132233 0.741699 0.164978
0.132233 0.741699 0.164978
0.132233 0.741699 0.164978
0.132233 0.741699 0.164978
0.132233 0.741699 0.164978
0.132233 0.741699 0.164978
0.297097 0.788332 0.109366
0.596684 0.740523 0.045429
0.754373 0.762389 0.021959
0.841266 0.771707 0.041537
0.869706 0.780380 0.096146
0.876556 0.786102 0.144257
0.876556 0.786102 0.144257
0.876556 0.786102 0.144257
0.876556 0.786102 0.144257
0.132233 0.741699 0.164978
0.132233 0.741699 0.164978
0.132233 0.741699 0.164978
0.132233 0.741699 0.164978
0.132233 0.741699 0.164978
0.132233 0.741699 0.164978
0.132233 0.741699 0.164978
0.132233 0.741699 0.164978
0.282293 0.788642 0.111268
0.594023 0.740199 0.046187
0.752488 0.762135 0.021483
0.840059 0.771606 0.041512
0.869287 0.780030 0.093203
0.876556 0.786102 0.144257
0.876556 0.786102 0.144257
0.876556 0.786102 0.144257
0.876556 0.786102 0.144257
0.132233 0.741699 0.164978
0.132233 0.741699 0.164978
0.132233 0.741699 0.164978
0.132233 0.741699 0.164978
0.132233 0.741699 0.164978
0.132233 0.741699 0.164978
0.132233 0.741699 0.164978
0.132233 0.741699 0.164978
0.258389 0.789143 0.114340
0.589944 0.739703 0.047350
0.749225 0.761655 0.021446
0.838223 0.771452 0.041473
0.868650 0.779498 0.088732
0.876556 0.786102 0.144257
0.876556 0.786102 0.144257
0.876556 0.786102 0.144257
0.876556 0.786102 0.144257
0.000576 0.019077 0.025899
0.000624 0.022997 0.033684
0.024505 0.027663 0.064607
0.100309 0.024467 0.063806
0.216566 0.019571 0.048072
0.367286 0.002997 0.023557
0.515101 0.003571 0.012619
0.600574 0.003585 0.007586
0.670797 0.004590 0.007028
0.739550 0.006397 0.008363
0.809711 0.005659 0.008060
0.828099 0.004449 0.011750
0.828720 0.004438 0.016450
0.829054 0.004432 0.018975
0.829195 0.004430 0.020037
0.829250 0.004429 0.020456
