滤镜资源/Lutify.me Free 3D LUTs Package/3D LUTs/Monitoring LUTs/Generic Log/Hilutite - Log.cube
# Website: https://lutify.me
# Contact: help@lutify.me
# Copyright: (c) Copyright Lutify.me 2016, G.T. Colord LTD
# Created by: Lutify.me
LUT_3D_SIZE 5
0.000000 0.000000 0.008636
0.124855 0.000000 0.000096
0.643110 0.000000 0.000466
0.832503 0.000000 0.008256
0.833914 0.000000 0.012462
0.000161 0.106126 0.084991
0.131972 0.087724 0.016323
0.522728 0.076421 0.000031
0.824687 0.000000 0.002681
0.830338 0.000000 0.003719
0.178516 0.632206 0.203865
0.178508 0.631640 0.203953
0.613553 0.572270 0.081395
0.864918 0.590690 0.049095
0.864831 0.588311 0.048203
0.201904 0.903687 0.141815
0.201904 0.903687 0.141815
0.445494 0.868830 0.135361
0.869914 0.839037 0.171020
0.876282 0.839874 0.182678
0.201904 0.903687 0.141815
0.201904 0.903687 0.141815
0.366501 0.884238 0.137841
0.861159 0.837886 0.154994
0.876282 0.839874 0.182678
0.000000 0.000000 0.034724
0.097280 0.017407 0.109708
0.670040 0.000000 0.065487
0.840514 0.000000 0.082373
0.840733 0.000000 0.085522
0.000000 0.086952 0.112147
0.044902 0.114186 0.150581
0.695801 0.026814 0.060563
0.840038 0.000000 0.075514
0.840268 0.000000 0.078822
0.178455 0.628009 0.204521
0.178447 0.627437 0.204610
0.612516 0.568567 0.080782
0.864798 0.587425 0.047871
0.864710 0.585025 0.046970
0.201904 0.903687 0.141815
0.201904 0.903687 0.141815
0.442830 0.869347 0.135315
0.869579 0.838993 0.170407
0.876282 0.839874 0.182678
0.201904 0.903687 0.141815
0.201904 0.903687 0.141815
0.362806 0.884978 0.137913
0.860808 0.837847 0.154485
0.876282 0.839874 0.182678
0.000000 0.114997 0.164950
0.000011 0.121507 0.172324
0.488392 0.187992 0.482770
0.741448 0.150299 0.531400
0.740964 0.150724 0.532139
0.000000 0.114516 0.164453
0.000000 0.114559 0.164497
0.483464 0.188062 0.479896
0.742470 0.149403 0.529842
0.741983 0.149830 0.530584
0.000000 0.548453 0.537449
0.000000 0.547759 0.537313
0.605826 0.667286 0.696619
0.940171 0.661522 0.649013
0.941590 0.657327 0.648936
0.123475 0.915551 0.572440
0.123438 0.915535 0.572608
0.381439 0.931895 0.628689
0.909760 0.913504 0.659674
0.920767 0.914193 0.663747
0.126627 0.916237 0.562258
0.126564 0.916230 0.562425
0.252584 0.924172 0.592161
0.900184 0.911456 0.646150
0.919750 0.912576 0.652117
0.000028 0.203129 0.260952
0.000028 0.203150 0.260978
0.282960 0.356082 0.762639
0.730896 0.240784 0.749390
0.730896 0.240784 0.749390
0.000027 0.202891 0.260661
0.000027 0.202912 0.260687
0.274489 0.358262 0.749490
0.730892 0.240755 0.749353
0.730896 0.240784 0.749390
0.000016 0.442969 0.598005
0.000017 0.442320 0.597178
0.373113 0.597123 0.851758
0.850809 0.537187 0.859517
0.849574 0.531843 0.858544
0.089659 0.872351 0.835458
0.089176 0.872258 0.835555
0.172682 0.879698 0.848249
0.926002 0.936968 0.927592
0.948706 0.935682 0.927254
0.139445 0.882784 0.829027
0.139451 0.882785 0.829076
0.139532 0.882795 0.829768
0.916008 0.958613 0.924731
0.949571 0.956196 0.926649
0.000031 0.203857 0.261841
0.000031 0.203857 0.261841
0.272903 0.359589 0.747633
0.730896 0.240784 0.749390
0.730896 0.240784 0.749390
0.000031 0.203857 0.261841
0.000031 0.203857 0.261841
0.264874 0.360939 0.734412
0.730896 0.240784 0.749390
0.730896 0.240784 0.749390
0.000007 0.419544 0.570713
0.000008 0.418870 0.569745
0.317398 0.573037 0.846482
0.838311 0.496352 0.853275
0.836617 0.489317 0.851766
0.064554 0.870635 0.863716
0.064020 0.870545 0.863768
0.087853 0.872111 0.868280
0.916824 0.933134 0.945515
0.946789 0.933313 0.946688
0.141079 0.883464 0.854705
0.141080 0.883466 0.854749
0.141089 0.883489 0.855366
0.913630 0.954705 0.943835
0.951233 0.960602 0.950958
