滤镜资源/Lutify.me Free 3D LUTs Package/3D LUTs/Monitoring LUTs/Generic Log/Hilutite - Log.cube
# Website: https://lutify.me
# Contact: help@lutify.me
# Copyright: (c) Copyright Lutify.me 2016, G.T. Colord LTD
# Created by: Lutify.me
LUT_3D_SIZE 9
0.000000 0.000000 0.008636
0.000076 0.000000 0.004338
0.124855 0.000000 0.000096
0.375893 0.000000 0.000000
0.643110 0.000000 0.000466
0.811717 0.000000 0.002449
0.832503 0.000000 0.008256
0.833599 0.000000 0.011524
0.833914 0.000000 0.012462
0.000000 0.011906 0.025805
0.000016 0.004990 0.010196
0.090114 0.004929 0.000000
0.309867 0.000067 0.000002
0.638227 0.000000 0.000031
0.808141 0.000000 0.001866
0.831740 0.000000 0.005982
0.832879 0.000000 0.009376
0.833205 0.000000 0.010349
0.000161 0.106126 0.084991
0.000000 0.105528 0.084594
0.131972 0.087724 0.016323
0.309964 0.099854 0.000031
0.522728 0.076421 0.000031
0.781530 0.000000 0.000000
0.824687 0.000000 0.002681
0.829087 0.000000 0.003489
0.830338 0.000000 0.003719
0.125668 0.317140 0.194785
0.125567 0.316883 0.194719
0.125254 0.316083 0.194513
0.395385 0.282615 0.035653
0.650573 0.308994 0.000031
0.796844 0.330327 0.000009
0.812334 0.322046 0.000020
0.809878 0.317676 0.000015
0.809139 0.316360 0.000014
0.178516 0.632206 0.203865
0.178514 0.632068 0.203886
0.178508 0.631640 0.203953
0.284759 0.625192 0.202319
0.613553 0.572270 0.081395
0.824579 0.577877 0.021628
0.864918 0.590690 0.049095
0.864851 0.588858 0.048408
0.864831 0.588311 0.048203
0.187399 0.854030 0.144443
0.187389 0.853981 0.144451
0.187358 0.853830 0.144474
0.187199 0.853050 0.144596
0.539706 0.786654 0.122402
0.794124 0.781730 0.111223
0.870214 0.785805 0.141801
0.870149 0.784962 0.141373
0.870129 0.784711 0.141245
0.201904 0.903687 0.141815
0.201904 0.903687 0.141815
0.201904 0.903687 0.141815
0.201904 0.903687 0.141815
0.445494 0.868830 0.135361
0.768396 0.831740 0.129957
0.869914 0.839037 0.171020
0.876282 0.839874 0.182678
0.876282 0.839874 0.182678
0.201904 0.903687 0.141815
0.201904 0.903687 0.141815
0.201904 0.903687 0.141815
0.201904 0.903687 0.141815
0.386808 0.880307 0.136487
0.755779 0.831052 0.130162
0.863189 0.838153 0.158710
0.876282 0.839874 0.182678
0.876282 0.839874 0.182678
0.201904 0.903687 0.141815
0.201904 0.903687 0.141815
0.201904 0.903687 0.141815
0.201904 0.903687 0.141815
0.366501 0.884238 0.137841
0.751853 0.830809 0.130181
0.861159 0.837886 0.154994
0.876282 0.839874 0.182678
0.876282 0.839874 0.182678
0.000000 0.000000 0.014766
0.000845 0.000000 0.032445
0.155815 0.000004 0.016280
0.407527 0.000000 0.005286
0.667712 0.000001 0.007719
0.823611 0.000020 0.017426
0.836843 0.000000 0.028050
0.837078 0.000000 0.031429
0.837146 0.000000 0.032411
0.000000 0.006318 0.038607
0.000000 0.011834 0.050504
0.100523 0.009879 0.031443
0.380694 0.000000 0.001916
0.665108 0.000002 0.006630
0.822712 0.000017 0.015471
0.836683 0.000000 0.025738
0.836923 0.000000 0.029201
0.836993 0.000000 0.030207
0.000000 0.101796 0.089980
0.000000 0.101159 0.089706
0.125948 0.090289 0.042116
0.312503 0.090365 0.000015
0.529046 0.052511 0.000023
0.820548 0.000021 0.005370
0.835929 0.000000 0.018474
0.836416 0.000000 0.021906
0.836492 0.000000 0.022995
0.124922 0.315236 0.194295
0.124821 0.314978 0.194228
0.124505 0.314171 0.194020
0.394654 0.280727 0.033922
0.649635 0.307291 0.000031
0.796232 0.328501 0.000011
0.815810 0.320249 0.000031
0.814746 0.315749 0.000027
0.814507 0.314323 0.000023
0.178501 0.631188 0.204024
0.178499 0.631049 0.204046
0.178493 0.630620 0.204113
0.283560 0.624521 0.202582
0.613301 0.571372 0.081247
0.824513 0.577110 0.021221
0.864889 0.589897 0.048798
0.864822 0.588062 0.048109
0.864801 0.587514 0.047904
0.187326 0.853670 0.144499
0.187316 0.853622 0.144507
0.187285 0.853471 0.144530
0.187126 0.852690 0.144652
0.539278 0.786334 0.122383
0.793953 0.781389 0.111175
0.870186 0.785441 0.141616
0.870120 0.784597 0.141187
0.870101 0.784346 0.141059
0.201904 0.903687 0.141815
0.201904 0.903687 0.141815
0.201904 0.903687 0.141815
0.201904 0.903687 0.141815
0.444850 0.868955 0.135350
0.768244 0.831732 0.129959
0.869832 0.839026 0.170871
0.876282 0.839874 0.182678
0.876282 0.839874 0.182678
0.201904 0.903687 0.141815
0.201904 0.903687 0.141815
0.201904 0.903687 0.141815
0.201904 0.903687 0.141815
0.386022 0.880459 0.136539
0.755621 0.831043 0.130164
0.863106 0.838142 0.158558
0.876282 0.839874 0.182678
0.876282 0.839874 0.182678
0.201904 0.903687 0.141815
0.201904 0.903687 0.141815
0.201904 0.903687 0.141815
0.201904 0.903687 0.141815
0.365607 0.884411 0.137900
0.751688 0.830798 0.130181
0.861075 0.837875 0.154840
0.876282 0.839874 0.182678
0.876282 0.839874 0.182678
0.000000 0.000000 0.034724
0.000000 0.005958 0.055508
0.097280 0.017407 0.109708
0.400597 0.000000 0.072719
0.670040 0.000000 0.065487
0.827419 0.000025 0.074611
0.840514 0.000000 0.082373
0.840684 0.000000 0.084806
0.840733 0.000000 0.085522
0.000000 0.003847 0.040525
0.000000 0.007728 0.050664
0.082973 0.020250 0.107154
0.398122 0.000000 0.070313
0.668905 0.000000 0.063706
0.826896 0.000025 0.072884
0.840401 0.000000 0.080736
0.840572 0.000000 0.083197
0.840622 0.000000 0.083921
0.000000 0.086952 0.112147
0.000000 0.086291 0.111828
0.044902 0.114186 0.150581
0.361813 0.102930 0.105590
0.695801 0.026814 0.060563
0.825256 0.000028 0.067361
0.840038 0.000000 0.075514
0.840215 0.000000 0.078070
0.840268 0.000000 0.078822
0.107446 0.315375 0.224535
0.107091 0.315136 0.224510
0.105990 0.314391 0.224430
0.396489 0.299561 0.130389
0.668208 0.303618 0.003278
0.852011 0.316085 0.001182
0.885764 0.309371 0.024528
0.887279 0.304384 0.028679
0.887979 0.302766 0.030046
0.178455 0.628009 0.204521
0.178453 0.627870 0.204543
0.178447 0.627437 0.204610
0.279752 0.622447 0.203405
0.612516 0.568567 0.080782
0.824297 0.574707 0.020001
0.864798 0.587425 0.047871
0.864730 0.585577 0.047177
0.864710 0.585025 0.046970
0.187098 0.852552 0.144674
0.187088 0.852502 0.144681
0.187057 0.852350 0.144705
0.186897 0.851567 0.144827
0.537901 0.785341 0.122358
0.793424 0.780326 0.111028
0.870098 0.784305 0.141039
0.870033 0.783458 0.140608
0.870013 0.783206 0.140480
0.201904 0.903687 0.141815
0.201904 0.903687 0.141815
0.201904 0.903687 0.141815
0.201904 0.903687 0.141815
0.442830 0.869347 0.135315
0.767772 0.831706 0.129967
0.869579 0.838993 0.170407
0.876282 0.839874 0.182678
0.876282 0.839874 0.182678
0.201904 0.903687 0.141815
0.201904 0.903687 0.141815
0.201904 0.903687 0.141815
0.201904 0.903687 0.141815
0.383551 0.880937 0.136704
0.755131 0.831017 0.130172
0.862847 0.838108 0.158084
0.876282 0.839874 0.182678
0.876282 0.839874 0.182678
0.201904 0.903687 0.141815
0.201904 0.903687 0.141815
0.201904 0.903687 0.141815
0.201904 0.903687 0.141815
0.362806 0.884978 0.137913
0.751175 0.830764 0.130180
0.860808 0.837847 0.154485
0.876282 0.839874 0.182678
0.876282 0.839874 0.182678
0.000000 0.049076 0.097330
0.000000 0.049099 0.097354
0.000000 0.088300 0.150081
0.273527 0.106677 0.273929
0.629626 0.072357 0.281528
0.858604 0.037489 0.273826
0.874096 0.035364 0.277572
0.873427 0.036419 0.279058
0.873228 0.036733 0.279499
0.000000 0.048816 0.097057
0.000000 0.048839 0.097081
0.000000 0.084113 0.144202
0.271060 0.106420 0.272964
0.628862 0.071983 0.280674
0.858586 0.036916 0.272848
0.874542 0.034662 0.276583
0.873871 0.035720 0.278073
0.873672 0.036034 0.278515
0.000000 0.052072 0.100126
0.000000 0.051548 0.099629
0.000000 0.073183 0.128063
0.263230 0.105624 0.269927
0.626477 0.070811 0.277998
0.858535 0.035122 0.269782
0.875938 0.032461 0.273485
0.875259 0.033531 0.274990
0.875058 0.033848 0.275438
0.000000 0.280112 0.289495
0.000001 0.279879 0.289391
0.000001 0.279151 0.289063
0.256083 0.355145 0.403191
0.693589 0.350879 0.347206
0.906361 0.328615 0.318336
0.941366 0.304256 0.310401
0.944537 0.295812 0.308396
0.945503 0.293302 0.307804
0.090818 0.635080 0.367542
0.090677 0.634936 0.367595
0.090236 0.634489 0.367762
0.195399 0.648013 0.384946
0.643127 0.637021 0.380533
0.854420 0.659235 0.359887
0.894092 0.664726 0.363390
0.894212 0.663367 0.364493
0.894247 0.662959 0.364817
0.172513 0.856882 0.291005
0.172481 0.856845 0.291162
0.172379 0.856731 0.291647
0.171856 0.856141 0.294120
0.560284 0.834322 0.293246
0.814911 0.814178 0.309017
0.892212 0.818057 0.336039
0.892406 0.817804 0.338765
0.892464 0.817728 0.339569
0.201904 0.903687 0.141815
0.201904 0.903687 0.141815
0.201904 0.903687 0.141815
0.201904 0.903687 0.141815
0.434389 0.876467 0.154845
0.772307 0.841328 0.186319
0.876192 0.851690 0.234884
0.884767 0.853491 0.248042
0.884924 0.853740 0.249269
0.201904 0.903687 0.141815
0.201904 0.903687 0.141815
0.201904 0.903687 0.141815
0.201904 0.903687 0.141815
0.370194 0.883523 0.137595
0.752543 0.830855 0.130183
0.861510 0.837932 0.155636
0.876282 0.839874 0.182678
0.876282 0.839874 0.182678
0.201904 0.903687 0.141815
0.201904 0.903687 0.141815
0.201904 0.903687 0.141815
0.201904 0.903687 0.141815
0.347521 0.888153 0.137420
0.748522 0.830586 0.130172
0.859400 0.837726 0.153137
0.876282 0.839874 0.182678
0.876282 0.839874 0.182678
0.000000 0.114997 0.164950
0.000000 0.115008 0.164960
0.000011 0.121507 0.172324
0.034268 0.235043 0.355168
0.488392 0.187992 0.482770
0.715957 0.155272 0.526248
0.741448 0.150299 0.531400
0.741075 0.150626 0.531969
0.740964 0.150724 0.532139
0.000000 0.114881 0.164829
0.000000 0.114891 0.164840
0.000000 0.118518 0.168846
0.030439 0.233680 0.352015
0.487199 0.188009 0.482074
0.715548 0.155208 0.525790
0.741697 0.150081 0.531021
0.741322 0.150409 0.531592
0.741212 0.150507 0.531761
0.000000 0.114516 0.164453
0.000000 0.114526 0.164464
0.000000 0.114559 0.164497
0.018253 0.229358 0.341996
0.483464 0.188062 0.479896
0.714273 0.155009 0.524365
0.742470 0.149403 0.529842
0.742095 0.149732 0.530414
0.741983 0.149830 0.530584
0.000013 0.234862 0.285129
0.000014 0.234575 0.284823
0.000015 0.233679 0.283868
0.066877 0.308259 0.411277
0.532061 0.309141 0.552766
0.785438 0.260463 0.577305
0.811768 0.225482 0.570664
0.804901 0.214795 0.566476
0.802635 0.211359 0.565166
0.000000 0.548453 0.537449
0.000000 0.548284 0.537416
0.000000 0.547759 0.537313
0.000000 0.545049 0.536782
0.605826 0.667286 0.696619
0.888897 0.667370 0.656058
0.940171 0.661522 0.649013
0.941264 0.658292 0.648954
0.941590 0.657327 0.648936
0.052333 0.840540 0.572892
0.052275 0.840480 0.572914
0.052094 0.840295 0.572982
0.051163 0.839338 0.573329
0.535994 0.872907 0.664692
0.841575 0.854069 0.673694
0.920410 0.856442 0.685537
0.920460 0.855866 0.685804
0.920474 0.855695 0.685884
0.123475 0.915551 0.572440
0.123466 0.915547 0.572481
0.123438 0.915535 0.572608
0.123295 0.915469 0.573262
0.381439 0.931895 0.628689
0.818524 0.921509 0.652844
0.909760 0.913504 0.659674
0.920747 0.914160 0.663516
0.920767 0.914193 0.663747
0.125751 0.916137 0.564582
0.125736 0.916135 0.564623
0.125689 0.916130 0.564748
0.125446 0.916102 0.565391
0.288247 0.926453 0.602162
0.806234 0.922509 0.642675
0.902420 0.911932 0.649188
0.919966 0.912919 0.654584
0.919986 0.912952 0.654821
0.126627 0.916237 0.562258
0.126612 0.916236 0.562299
0.126564 0.916230 0.562425
0.126320 0.916202 0.563074
0.252584 0.924172 0.592161
0.802363 0.922819 0.639534
0.900184 0.911456 0.646150
0.919729 0.912542 0.651877
0.919750 0.912576 0.652117
0.000007 0.171214 0.224010
0.000007 0.171221 0.224018
0.000007 0.171241 0.224040
0.000000 0.255328 0.358897
0.406336 0.294424 0.670854
0.694031 0.214742 0.677874
0.721027 0.206693 0.687691
0.721064 0.206790 0.687929
0.721076 0.206819 0.687999
0.000008 0.171140 0.223928
0.000008 0.171146 0.223936
0.000008 0.171167 0.223958
0.000000 0.254010 0.356577
0.403380 0.294659 0.672394
0.693493 0.214828 0.677542
0.721002 0.206628 0.687533
0.721039 0.206725 0.687771
0.721051 0.206754 0.687842
0.000009 0.170908 0.223674
0.000009 0.170914 0.223681
0.000009 0.170935 0.223704
0.000001 0.249814 0.349214
0.394137 0.295394 0.677211
0.691815 0.215096 0.676508
0.720924 0.206428 0.687042
0.720962 0.206525 0.687280
0.720973 0.206554 0.687351
0.000013 0.169707 0.222357
0.000013 0.169713 0.222364
0.000013 0.169734 0.222387
0.000000 0.225308 0.307617
0.342943 0.299951 0.700571
0.682962 0.216517 0.671096
0.720523 0.205389 0.684499
0.720561 0.205487 0.684739
0.720572 0.205517 0.684811
0.000031 0.490843 0.613842
0.000031 0.490684 0.613710
0.000031 0.490189 0.613299
0.000030 0.487635 0.611164
0.488888 0.637928 0.806247
0.821304 0.613152 0.819765
0.869182 0.610191 0.822896
0.868500 0.606950 0.822568
0.868295 0.605979 0.822469
0.000015 0.801712 0.766497
0.000015 0.801654 0.766523
0.000014 0.801474 0.766603
0.000013 0.800546 0.767016
0.415866 0.832996 0.815720
0.848216 0.860748 0.858297
0.943744 0.861190 0.848687
0.944160 0.860074 0.848802
0.944284 0.859742 0.848836
0.124477 0.880220 0.750330
0.124376 0.880198 0.750349
0.124061 0.880133 0.750409
0.122437 0.879794 0.750713
0.278086 0.898907 0.778045
0.815779 0.946247 0.851990
0.923299 0.934662 0.856180
0.939599 0.934900 0.858356
0.939598 0.934768 0.858455
0.131706 0.882572 0.747585
0.131707 0.882569 0.747602
0.131711 0.882561 0.747652
0.131732 0.882516 0.747913
0.140712 0.883331 0.749844
0.802045 0.952449 0.849108
0.917805 0.943510 0.853260
0.939780 0.942170 0.854217
0.939790 0.942183 0.854299
0.131630 0.882734 0.746649
0.131631 0.882731 0.746665
0.131635 0.882722 0.746716
0.131656 0.882677 0.746977
0.131712 0.882559 0.747662
0.797368 0.952237 0.848099
0.915912 0.943787 0.852235
0.938607 0.941976 0.853274
0.939679 0.942036 0.853371
0.000028 0.203129 0.260952
0.000028 0.203134 0.260958
0.000028 0.203150 0.260978
0.000000 0.270078 0.376097
0.282960 0.356082 0.762639
0.682616 0.263917 0.727055
0.730896 0.240784 0.749390
0.730896 0.240784 0.749390
0.730896 0.240784 0.749390
0.000028 0.203071 0.260881
0.000028 0.203076 0.260888
0.000028 0.203092 0.260907
0.000002 0.268605 0.373529
0.280910 0.356610 0.759456
0.681865 0.264186 0.726629
0.730896 0.240784 0.749390
0.730896 0.240784 0.749390
0.730896 0.240784 0.749390
0.000027 0.202891 0.260661
0.000027 0.202896 0.260668
0.000027 0.202912 0.260687
0.000016 0.263541 0.364749
0.274489 0.358262 0.749490
0.679522 0.265024 0.725304
0.730892 0.240755 0.749353
0.730896 0.240784 0.749390
0.730896 0.240784 0.749390
0.000023 0.201960 0.259525
0.000023 0.201965 0.259531
0.000023 0.201981 0.259551
0.000000 0.236127 0.312118
0.244738 0.361008 0.696123
0.666011 0.270602 0.718474
0.730725 0.239492 0.747730
0.730741 0.239611 0.747883
0.730746 0.239647 0.747928
0.000016 0.442969 0.598005
0.000016 0.442811 0.597804
0.000017 0.442320 0.597178
0.000021 0.439771 0.593934
0.373113 0.597123 0.851758
0.786091 0.555108 0.848765
0.850809 0.537187 0.859517
0.849857 0.533075 0.858768
0.849574 0.531843 0.858544
0.000004 0.786077 0.851830
0.000004 0.785997 0.851820
0.000004 0.785745 0.851789
0.000003 0.784447 0.851630
0.332323 0.813562 0.892125
0.819460 0.850794 0.916339
0.922690 0.847441 0.916473
0.922952 0.846442 0.916522
0.922866 0.846155 0.916490
0.089659 0.872351 0.835458
0.089541 0.872328 0.835482
0.089176 0.872258 0.835555
0.087292 0.871893 0.835932
0.172682 0.879698 0.848249
0.781683 0.926592 0.909079
0.926002 0.936968 0.927592
0.948675 0.935846 0.927228
0.948706 0.935682 0.927254
0.139525 0.882794 0.829712
0.139527 0.882795 0.829724
0.139531 0.882795 0.829762
0.139554 0.882798 0.829952
0.139613 0.882805 0.830452
0.785177 0.941513 0.904102
0.918562 0.958529 0.925610
0.946349 0.956507 0.927080
0.949592 0.955506 0.927296
0.139445 0.882784 0.829027
0.139446 0.882784 0.829039
0.139451 0.882785 0.829076
0.139473 0.882788 0.829267
0.139532 0.882795 0.829768
0.779990 0.940941 0.902767
0.916008 0.958613 0.924731
0.944473 0.957767 0.926396
0.949571 0.956196 0.926649
0.000031 0.203857 0.261841
0.000031 0.203857 0.261841
0.000031 0.203857 0.261841
0.000013 0.265245 0.367492
0.275152 0.358927 0.751069
0.679703 0.265489 0.725804
0.730896 0.240784 0.749390
0.730896 0.240784 0.749390
0.730896 0.240784 0.749390
0.000031 0.203857 0.261841
0.000031 0.203857 0.261841
0.000031 0.203857 0.261841
0.000018 0.263625 0.364671
0.273032 0.359551 0.747830
0.678897 0.265894 0.725435
0.730896 0.240784 0.749390
0.730896 0.240784 0.749390
0.730896 0.240784 0.749390
0.000031 0.203857 0.261841
0.000031 0.203857 0.261841
0.000031 0.203857 0.261841
0.000031 0.258419 0.355444
0.266855 0.360756 0.737815
0.676351 0.267209 0.724314
0.730896 0.240784 0.749390
0.730896 0.240784 0.749390
0.730896 0.240784 0.749390
0.000031 0.203857 0.261841
0.000031 0.203857 0.261841
0.000031 0.203857 0.261841
0.000008 0.231497 0.303298
0.236146 0.363600 0.685051
0.662065 0.275654 0.719307
0.730896 0.240784 0.749390
0.730896 0.240784 0.749390
0.730896 0.240784 0.749390
0.000001 0.425645 0.579372
0.000001 0.425478 0.579152
0.000000 0.424955 0.578464
0.000003 0.422372 0.574777
0.329120 0.579417 0.850152
0.776972 0.526943 0.850243
0.841098 0.507929 0.855758
0.839842 0.502713 0.854639
0.839465 0.501144 0.854303
0.000017 0.773520 0.862467
0.000017 0.773451 0.862461
0.000017 0.773237 0.862444
0.000019 0.772128 0.862356
0.309172 0.807310 0.902414
0.812224 0.846477 0.929919
0.916942 0.843774 0.923044
0.918295 0.842962 0.922944
0.918205 0.842655 0.922869
0.070773 0.871012 0.857874
0.070641 0.870991 0.857898
0.070232 0.870928 0.857971
0.068115 0.870597 0.858352
0.112735 0.874300 0.865462
0.767709 0.923967 0.930955
0.918594 0.933629 0.943445
0.948019 0.934260 0.944487
0.947963 0.934097 0.944490
0.141002 0.883281 0.849708
0.141002 0.883281 0.849719
0.141002 0.883282 0.849753
0.141005 0.883289 0.849926
0.139904 0.883081 0.850466
0.778430 0.937968 0.921180
0.915694 0.951684 0.940201
0.945615 0.955372 0.945747
0.950693 0.954863 0.945981
0.140992 0.883258 0.849087
0.140992 0.883258 0.849097
0.140993 0.883259 0.849131
0.140995 0.883266 0.849304
0.141003 0.883282 0.849759
0.777493 0.939061 0.919519
0.913793 0.955944 0.939791
0.943655 0.960061 0.945129
0.951136 0.959954 0.945584
0.000031 0.203857 0.261841
0.000031 0.203857 0.261841
0.000031 0.203857 0.261841
0.000018 0.263526 0.364498
0.272903 0.359589 0.747633
0.678847 0.265919 0.725413
0.730896 0.240784 0.749390
0.730896 0.240784 0.749390
0.730896 0.240784 0.749390
0.000031 0.203857 0.261841
0.000031 0.203857 0.261841
0.000031 0.203857 0.261841
0.000023 0.261871 0.361615
0.270775 0.360215 0.744384
0.678041 0.266324 0.725044
0.730896 0.240784 0.749390
0.730896 0.240784 0.749390
0.730896 0.240784 0.749390
0.000031 0.203857 0.261841
0.000031 0.203857 0.261841
0.000031 0.203857 0.261841
0.000031 0.256738 0.351890
0.264874 0.360939 0.734412
0.675414 0.267762 0.723986
0.730896 0.240784 0.749390
0.730896 0.240784 0.749390
0.730896 0.240784 0.749390
0.000031 0.203857 0.261841
0.000031 0.203857 0.261841
0.000031 0.203857 0.261841
0.000017 0.229602 0.300116
0.234047 0.363794 0.681444
0.661107 0.276221 0.718971
0.730896 0.240784 0.749390
0.730896 0.240784 0.749390
0.730896 0.240784 0.749390
0.000007 0.419544 0.570713
0.000008 0.419381 0.570479
0.000008 0.418870 0.569745
0.000012 0.416224 0.565943
0.317398 0.573037 0.846482
0.772650 0.516981 0.847350
0.838311 0.496352 0.853275
0.837009 0.490944 0.852115
0.836617 0.489317 0.851766
0.000020 0.770919 0.862261
0.000020 0.770850 0.862255
0.000021 0.770633 0.862238
0.000022 0.769517 0.862149
0.302350 0.804885 0.901810
0.810650 0.844152 0.930608
0.915905 0.841462 0.922446
0.917625 0.840686 0.922391
0.917533 0.840376 0.922315
0.064554 0.870635 0.863716
0.064425 0.870613 0.863728
0.064020 0.870545 0.863768
0.061939 0.870194 0.863970
0.087853 0.872111 0.868280
0.766101 0.922694 0.934721
0.916824 0.933134 0.945515
0.946830 0.933485 0.946732
0.946789 0.933313 0.946688
0.141088 0.883487 0.855316
0.141089 0.883487 0.855327
0.141089 0.883488 0.855360
0.140468 0.883369 0.855578
0.135828 0.882523 0.856405
0.772817 0.937583 0.927232
0.913441 0.950405 0.945179
0.943766 0.954019 0.950103
0.950622 0.954563 0.950534
0.141079 0.883464 0.854705
0.141079 0.883465 0.854716
0.141080 0.883466 0.854749
0.141082 0.883472 0.854919
0.141089 0.883489 0.855366
0.776678 0.938987 0.924558
0.913630 0.954705 0.943835
0.943047 0.959306 0.949426
0.951233 0.960602 0.950958
