滤镜资源/Lutify.me Free 3D LUTs Package/3D LUTs/Monitoring LUTs/Generic Log/Hilutite - Log.cube
# Website: https://lutify.me
# Contact: help@lutify.me
# Copyright: (c) Copyright Lutify.me 2016, G.T. Colord LTD
# Created by: Lutify.me
LUT_3D_SIZE 17
0.000000 0.000000 0.008636
0.000000 0.000000 0.007698
0.000076 0.000000 0.004338
0.044826 0.000000 0.000526
0.124855 0.000000 0.000096
0.234431 0.000000 0.000000
0.375893 0.000000 0.000000
0.516209 0.000000 0.000000
0.643110 0.000000 0.000466
0.736855 0.000000 0.001377
0.811717 0.000000 0.002449
0.830997 0.000000 0.003840
0.832503 0.000000 0.008256
0.833278 0.000000 0.010567
0.833599 0.000000 0.011524
0.833725 0.000000 0.011899
0.833914 0.000000 0.012462
0.000000 0.000171 0.015894
0.000000 0.000001 0.009200
0.000000 0.000000 0.003280
0.031237 0.000000 0.000147
0.101649 0.000000 0.000000
0.212130 0.000000 0.000000
0.373028 0.000000 0.000000
0.513568 0.000000 0.000000
0.640986 0.000000 0.000277
0.734969 0.000000 0.001221
0.810184 0.000000 0.002199
0.829797 0.000000 0.003620
0.832175 0.000000 0.007278
0.832963 0.000000 0.009627
0.833289 0.000000 0.010599
0.833417 0.000000 0.010980
0.833608 0.000000 0.011552
0.000000 0.011906 0.025805
0.000000 0.008929 0.023398
0.000016 0.004990 0.010196
0.032363 0.003488 0.000332
0.090114 0.004929 0.000000
0.175310 0.005706 0.000000
0.309867 0.000067 0.000002
0.509231 0.000000 0.000000
0.638227 0.000000 0.000031
0.732496 0.000000 0.001018
0.808141 0.000000 0.001866
0.828205 0.000000 0.003327
0.831740 0.000000 0.005982
0.832546 0.000000 0.008383
0.832879 0.000000 0.009376
0.833009 0.000000 0.009765
0.833205 0.000000 0.010349
0.000000 0.048663 0.047026
0.000000 0.048289 0.046783
0.000993 0.042308 0.042703
0.043149 0.036636 0.015533
0.105912 0.035737 0.000008
0.183100 0.039999 0.000014
0.281571 0.034153 0.000001
0.407992 0.008957 0.000010
0.610829 0.000003 0.000003
0.728156 0.000000 0.000660
0.804395 0.000000 0.001251
0.825305 0.000000 0.002794
0.830783 0.000000 0.003801
0.831791 0.000000 0.006134
0.832138 0.000000 0.007166
0.832273 0.000000 0.007570
0.832476 0.000000 0.008177
0.000161 0.106126 0.084991
0.000078 0.105866 0.084818
0.000000 0.105528 0.084594
0.045695 0.098988 0.080076
0.131972 0.087724 0.016323
0.214833 0.090396 0.000018
0.309964 0.099854 0.000031
0.422382 0.097369 0.000007
0.522728 0.076421 0.000031
0.632200 0.032436 0.000031
0.781530 0.000000 0.000000
0.818578 0.000000 0.001558
0.824687 0.000000 0.002681
0.827807 0.000000 0.003254
0.829087 0.000000 0.003489
0.829587 0.000000 0.003581
0.830338 0.000000 0.003719
0.052781 0.193813 0.140830
0.052673 0.193654 0.140743
0.052533 0.193449 0.140631
0.052285 0.193087 0.140432
0.134891 0.184930 0.136949
0.253243 0.167902 0.014377
0.369909 0.176319 0.000028
0.487235 0.189899 0.000029
0.584124 0.198901 0.000012
0.665908 0.202803 0.000005
0.735579 0.197408 0.000031
0.749562 0.180730 0.000017
0.746391 0.164782 0.000031
0.744153 0.154836 0.000031
0.742414 0.149612 0.000031
0.741658 0.147430 0.000031
0.740582 0.144135 0.000031
0.125668 0.317140 0.194785
0.125625 0.317029 0.194757
0.125567 0.316883 0.194719
0.125468 0.316628 0.194653
0.125254 0.316083 0.194513
0.245720 0.298872 0.191473
0.395385 0.282615 0.035653
0.543151 0.293761 0.000031
0.650573 0.308994 0.000031
0.736303 0.322362 0.000018
0.796844 0.330327 0.000009
0.815384 0.327477 0.000027
0.812334 0.322046 0.000020
0.810617 0.318991 0.000017
0.809878 0.317676 0.000015
0.809585 0.317154 0.000015
0.809139 0.316360 0.000014
0.168054 0.471746 0.216739
0.168041 0.471652 0.216738
0.168024 0.471532 0.216736
0.167993 0.471318 0.216732
0.167928 0.470862 0.216725
0.167771 0.469767 0.216707
0.363541 0.435809 0.200472
0.510126 0.427287 0.082974
0.657044 0.427669 0.011732
0.755849 0.443789 0.000031
0.824872 0.458254 0.000031
0.860739 0.462075 0.000031
0.859755 0.458343 0.000031
0.859206 0.456265 0.000031
0.858972 0.455376 0.000031
0.858879 0.455023 0.000031
0.858738 0.454487 0.000031
0.178516 0.632206 0.203865
0.178515 0.632146 0.203874
0.178514 0.632068 0.203886
0.178512 0.631932 0.203908
0.178508 0.631640 0.203953
0.178497 0.630937 0.204063
0.284759 0.625192 0.202319
0.470091 0.574830 0.162348
0.613553 0.572270 0.081395
0.730101 0.568434 0.033771
0.824579 0.577877 0.021628
0.865004 0.593002 0.049963
0.864918 0.590690 0.049095
0.864871 0.589406 0.048614
0.864851 0.588858 0.048408
0.864843 0.588640 0.048326
0.864831 0.588311 0.048203
0.180517 0.763802 0.169939
0.180517 0.763764 0.169951
0.180516 0.763716 0.169967
0.180514 0.763629 0.169996
0.180511 0.763446 0.170056
0.180503 0.763005 0.170202
0.180486 0.762057 0.170515
0.406728 0.720376 0.154654
0.581272 0.688713 0.111707
0.706904 0.688799 0.076016
0.805416 0.689296 0.060272
0.861084 0.695253 0.090282
0.863411 0.694465 0.094385
0.863353 0.693488 0.093922
0.863328 0.693071 0.093724
0.863318 0.692906 0.093646
0.863304 0.692655 0.093527
0.187399 0.854030 0.144443
0.187395 0.854009 0.144447
0.187389 0.853981 0.144451
0.187379 0.853933 0.144458
0.187358 0.853830 0.144474
0.187308 0.853582 0.144513
0.187199 0.853050 0.144596
0.270785 0.850026 0.141356
0.539706 0.786654 0.122402
0.685061 0.776778 0.107492
0.794124 0.781730 0.111223
0.853214 0.783673 0.121360
0.870214 0.785805 0.141801
0.870168 0.785214 0.141501
0.870149 0.784962 0.141373
0.870141 0.784862 0.141322
0.870129 0.784711 0.141245
0.201904 0.903687 0.141815
0.201904 0.903687 0.141815
0.201904 0.903687 0.141815
0.201904 0.903687 0.141815
0.201904 0.903687 0.141815
0.201904 0.903687 0.141815
0.201904 0.903687 0.141815
0.201904 0.903687 0.141815
0.500803 0.858057 0.133650
0.662280 0.825541 0.131398
0.782887 0.830430 0.128508
0.845147 0.833307 0.140539
0.875792 0.835815 0.179326
0.875739 0.835379 0.178965
0.875717 0.835193 0.178812
0.875708 0.835119 0.178751
0.875694 0.835007 0.178658
0.201904 0.903687 0.141815
0.201904 0.903687 0.141815
0.201904 0.903687 0.141815
0.201904 0.903687 0.141815
0.201904 0.903687 0.141815
0.201904 0.903687 0.141815
0.201904 0.903687 0.141815
0.201904 0.903687 0.141815
0.445494 0.868830 0.135361
0.637503 0.827093 0.132883
0.768396 0.831740 0.129957
0.835686 0.835758 0.134351
0.869914 0.839037 0.171020
0.876282 0.839874 0.182678
0.876282 0.839874 0.182678
0.876282 0.839874 0.182678
0.876282 0.839874 0.182678
0.201904 0.903687 0.141815
0.201904 0.903687 0.141815
0.201904 0.903687 0.141815
0.201904 0.903687 0.141815
0.201904 0.903687 0.141815
0.201904 0.903687 0.141815
0.201904 0.903687 0.141815
0.201904 0.903687 0.141815
0.406109 0.876409 0.136766
0.625335 0.830178 0.133562
0.759597 0.831260 0.130100
0.830104 0.835318 0.131377
0.865213 0.838419 0.162416
0.876282 0.839874 0.182678
0.876282 0.839874 0.182678
0.876282 0.839874 0.182678
0.876282 0.839874 0.182678
0.201904 0.903687 0.141815
0.201904 0.903687 0.141815
0.201904 0.903687 0.141815
0.201904 0.903687 0.141815
0.201904 0.903687 0.141815
0.201904 0.903687 0.141815
0.201904 0.903687 0.141815
0.201904 0.903687 0.141815
0.386808 0.880307 0.136487
0.619841 0.831546 0.133707
0.755779 0.831052 0.130162
0.827686 0.835148 0.130589
0.863189 0.838153 0.158710
0.876282 0.839874 0.182678
0.876282 0.839874 0.182678
0.876282 0.839874 0.182678
0.876282 0.839874 0.182678
0.201904 0.903687 0.141815
0.201904 0.903687 0.141815
0.201904 0.903687 0.141815
0.201904 0.903687 0.141815
0.201904 0.903687 0.141815
0.201904 0.903687 0.141815
0.201904 0.903687 0.141815
0.201904 0.903687 0.141815
0.379040 0.881811 0.137005
0.617474 0.832104 0.133573
0.754255 0.830969 0.130186
0.826717 0.835092 0.130564
0.862384 0.838047 0.157236
0.876282 0.839874 0.182678
0.876282 0.839874 0.182678
0.876282 0.839874 0.182678
0.876282 0.839874 0.182678
0.201904 0.903687 0.141815
0.201904 0.903687 0.141815
0.201904 0.903687 0.141815
0.201904 0.903687 0.141815
0.201904 0.903687 0.141815
0.201904 0.903687 0.141815
0.201904 0.903687 0.141815
0.201904 0.903687 0.141815
0.366501 0.884238 0.137841
0.613848 0.832959 0.133367
0.751853 0.830809 0.130181
0.825244 0.835007 0.130526
0.861159 0.837886 0.154994
0.876282 0.839874 0.182678
0.876282 0.839874 0.182678
0.876282 0.839874 0.182678
0.876282 0.839874 0.182678
0.000000 0.000000 0.011015
0.000000 0.000000 0.017654
0.002173 0.000000 0.014808
0.054052 0.000000 0.009754
0.146938 0.000000 0.002662
0.254896 0.000000 0.000215
0.391810 0.000000 0.000440
0.533164 0.000000 0.001227
0.657429 0.000000 0.002575
0.749214 0.000007 0.003963
0.820841 0.000000 0.006584
0.833979 0.000000 0.012656
0.835265 0.000000 0.016492
0.835943 0.000000 0.018514
0.836225 0.000000 0.019356
0.836269 0.000000 0.019785
0.836316 0.000000 0.020459
0.000000 0.000000 0.021421
0.000000 0.000000 0.026473
0.000000 0.000000 0.021847
0.029505 0.000000 0.015974
0.119567 0.000000 0.007363
0.241610 0.000000 0.000013
0.388672 0.000000 0.000295
0.530563 0.000000 0.001039
0.655935 0.000001 0.002091
0.747766 0.000007 0.003678
0.820341 0.000000 0.005576
0.833674 0.000000 0.011749
0.834979 0.000000 0.015641
0.835666 0.000000 0.017690
0.835952 0.000000 0.018542
0.836065 0.000000 0.018877
0.836234 0.000000 0.019381
0.000000 0.008730 0.029479
0.000000 0.009356 0.031068
0.000000 0.006679 0.025086
0.025770 0.005562 0.015586
0.101596 0.001910 0.004396
0.195060 0.001137 0.000105
0.341378 0.000000 0.000000
0.527233 0.000000 0.000797
0.653463 0.000000 0.001750
0.745842 0.000006 0.003297
0.819683 0.000000 0.004239
0.833272 0.000000 0.010550
0.834603 0.000000 0.014517
0.835302 0.000000 0.016602
0.835593 0.000000 0.017471
0.835707 0.000000 0.017811
0.835879 0.000000 0.018323
0.000000 0.045687 0.049260
0.000000 0.045298 0.049088
0.000000 0.042138 0.046551
0.037756 0.037332 0.026246
0.108669 0.032700 0.000011
0.185310 0.034285 0.000014
0.282523 0.023767 0.000001
0.428406 0.001794 0.000000
0.635034 0.000000 0.000183
0.742341 0.000005 0.002597
0.816793 0.000000 0.003527
0.832546 0.000000 0.008385
0.833924 0.000000 0.012494
0.834647 0.000000 0.014649
0.834947 0.000000 0.015544
0.835065 0.000000 0.015895
0.835242 0.000000 0.016423
0.000000 0.104199 0.083704
0.000000 0.103937 0.083529
0.000000 0.103595 0.083300
0.043107 0.097053 0.078826
0.130295 0.085967 0.015957
0.213432 0.088553 0.000016
0.309363 0.097101 0.000031
0.422882 0.091739 0.000002
0.522000 0.066630 0.000012
0.653539 0.020272 0.000031
0.802457 0.000005 0.000331
0.830595 0.000000 0.003766
0.832393 0.000000 0.007928
0.833172 0.000000 0.010251
0.833495 0.000000 0.011214
0.833621 0.000000 0.011591
0.833811 0.000000 0.012157
0.051980 0.192642 0.140187
0.051871 0.192482 0.140099
0.051729 0.192275 0.139985
0.051480 0.191912 0.139786
0.133362 0.183949 0.136290
0.252323 0.166765 0.013911
0.368803 0.175270 0.000026
0.486061 0.188826 0.000029
0.583115 0.197724 0.000014
0.666308 0.200888 0.000028
0.737292 0.194295 0.000039
0.751331 0.176175 0.000031
0.748048 0.159269 0.000031
0.745007 0.147982 0.000031
0.743211 0.142651 0.000031
0.742438 0.140412 0.000031
0.741072 0.136606 0.000031
0.125344 0.316313 0.194572
0.125301 0.316202 0.194544
0.125243 0.316056 0.194506
0.125143 0.315800 0.194440
0.124929 0.315253 0.194299
0.245002 0.298105 0.191291
0.395067 0.281795 0.034902
0.542678 0.293042 0.000031
0.650166 0.308254 0.000031
0.735923 0.321583 0.000018
0.796512 0.329516 0.000009
0.814936 0.326679 0.000026
0.812046 0.321237 0.000019
0.811235 0.318206 0.000016
0.810882 0.316903 0.000014
0.810741 0.316384 0.000014
0.810508 0.315584 0.000015
0.167955 0.471055 0.216728
0.167942 0.470961 0.216726
0.167925 0.470842 0.216725
0.167894 0.470627 0.216721
0.167829 0.470172 0.216713
0.167672 0.469074 0.216695
0.363202 0.435202 0.200492
0.509939 0.426589 0.082582
0.656995 0.427121 0.011471
0.755724 0.443270 0.000031
0.824759 0.457735 0.000031
0.860593 0.461523 0.000031
0.859608 0.457787 0.000031
0.859059 0.455705 0.000031
0.858824 0.454813 0.000031
0.858731 0.454460 0.000031
0.858589 0.453925 0.000031
0.178509 0.631764 0.203934
0.178508 0.631703 0.203943
0.178507 0.631626 0.203955
0.178505 0.631488 0.203977
0.178501 0.631196 0.204023
0.178491 0.630494 0.204132
0.284238 0.624899 0.202434
0.469888 0.574456 0.162478
0.613444 0.571879 0.081330
0.730043 0.568052 0.033764
0.824550 0.577543 0.021451
0.864991 0.592659 0.049834
0.864906 0.590345 0.048966
0.864858 0.589061 0.048484
0.864838 0.588511 0.048278
0.864830 0.588294 0.048197
0.864818 0.587964 0.048073
0.180512 0.763524 0.170030
0.180512 0.763486 0.170043
0.180511 0.763437 0.170059
0.180509 0.763351 0.170088
0.180506 0.763167 0.170148
0.180498 0.762726 0.170294
0.180481 0.761778 0.170607
0.406449 0.720167 0.154773
0.581134 0.688465 0.111743
0.706791 0.688532 0.075983
0.805338 0.689020 0.060087
0.861028 0.694975 0.090075
0.863396 0.694203 0.094260
0.863337 0.693226 0.093798
0.863313 0.692808 0.093600
0.863303 0.692643 0.093521
0.863288 0.692393 0.093403
0.187367 0.853874 0.144468
0.187363 0.853852 0.144471
0.187357 0.853825 0.144475
0.187347 0.853777 0.144483
0.187326 0.853673 0.144499
0.187276 0.853426 0.144537
0.187167 0.852894 0.144620
0.270100 0.850036 0.141368
0.539520 0.786514 0.122393
0.684940 0.776627 0.107439
0.794050 0.781581 0.111202
0.853160 0.783521 0.121266
0.870202 0.785647 0.141721
0.870156 0.785056 0.141420
0.870136 0.784803 0.141292
0.870129 0.784704 0.141242
0.870117 0.784552 0.141164
0.201904 0.903687 0.141815
0.201904 0.903687 0.141815
0.201904 0.903687 0.141815
0.201904 0.903687 0.141815
0.201904 0.903687 0.141815
0.201904 0.903687 0.141815
0.201904 0.903687 0.141815
0.201904 0.903687 0.141815
0.500619 0.858095 0.133661
0.662145 0.825415 0.131351
0.782801 0.830308 0.128438
0.845092 0.833188 0.140525
0.875778 0.835698 0.179229
0.875725 0.835261 0.178868
0.875702 0.835075 0.178715
0.875694 0.835002 0.178654
0.875680 0.834890 0.178561
0.201904 0.903687 0.141815
0.201904 0.903687 0.141815
0.201904 0.903687 0.141815
0.201904 0.903687 0.141815
0.201904 0.903687 0.141815
0.201904 0.903687 0.141815
0.201904 0.903687 0.141815
0.201904 0.903687 0.141815
0.445214 0.868885 0.135356
0.637412 0.827115 0.132888
0.768330 0.831737 0.129958
0.835645 0.835754 0.134329
0.869878 0.839032 0.170956
0.876282 0.839874 0.182678
0.876282 0.839874 0.182678
0.876282 0.839874 0.182678
0.876282 0.839874 0.182678
0.201904 0.903687 0.141815
0.201904 0.903687 0.141815
0.201904 0.903687 0.141815
0.201904 0.903687 0.141815
0.201904 0.903687 0.141815
0.201904 0.903687 0.141815
0.201904 0.903687 0.141815
0.201904 0.903687 0.141815
0.405780 0.876476 0.136759
0.625240 0.830202 0.133568
0.759529 0.831257 0.130101
0.830061 0.835314 0.131354
0.865177 0.838414 0.162349
0.876282 0.839874 0.182678
0.876282 0.839874 0.182678
0.876282 0.839874 0.182678
0.876282 0.839874 0.182678
0.201904 0.903687 0.141815
0.201904 0.903687 0.141815
0.201904 0.903687 0.141815
0.201904 0.903687 0.141815
0.201904 0.903687 0.141815
0.201904 0.903687 0.141815
0.201904 0.903687 0.141815
0.201904 0.903687 0.141815
0.386466 0.880373 0.136510
0.619735 0.831571 0.133701
0.755710 0.831048 0.130163
0.827642 0.835146 0.130588
0.863153 0.838148 0.158644
0.876282 0.839874 0.182678
0.876282 0.839874 0.182678
0.876282 0.839874 0.182678
0.876282 0.839874 0.182678
0.201904 0.903687 0.141815
0.201904 0.903687 0.141815
0.201904 0.903687 0.141815
0.201904 0.903687 0.141815
0.201904 0.903687 0.141815
0.201904 0.903687 0.141815
0.201904 0.903687 0.141815
0.201904 0.903687 0.141815
0.378681 0.881880 0.137029
0.617368 0.832129 0.133567
0.754186 0.830965 0.130187
0.826674 0.835090 0.130563
0.862347 0.838042 0.157169
0.876282 0.839874 0.182678
0.876282 0.839874 0.182678
0.876282 0.839874 0.182678
0.876282 0.839874 0.182678
0.201904 0.903687 0.141815
0.201904 0.903687 0.141815
0.201904 0.903687 0.141815
0.201904 0.903687 0.141815
0.201904 0.903687 0.141815
0.201904 0.903687 0.141815
0.201904 0.903687 0.141815
0.201904 0.903687 0.141815
0.366112 0.884313 0.137867
0.613740 0.832984 0.133361
0.751781 0.830804 0.130181
0.825200 0.835005 0.130525
0.861123 0.837881 0.154927
0.876282 0.839874 0.182678
0.876282 0.839874 0.182678
0.876282 0.839874 0.182678
0.876282 0.839874 0.182678
0.000000 0.000000 0.014766
0.000000 0.000000 0.025358
0.000845 0.000000 0.032445
0.056515 0.000000 0.025473
0.155815 0.000004 0.016280
0.275361 0.000000 0.005960
0.407527 0.000000 0.005286
0.545835 0.000000 0.006818
0.667712 0.000001 0.007719
0.755527 0.000007 0.012237
0.823611 0.000020 0.017426
0.836532 0.000000 0.023574
0.836843 0.000000 0.028050
0.837009 0.000000 0.030433
0.837078 0.000000 0.031429
0.837105 0.000000 0.031821
0.837146 0.000000 0.032411
0.000000 0.000000 0.022149
0.000000 0.000000 0.027579
0.000000 0.000000 0.036608
0.039356 0.000000 0.028766
0.140422 0.000041 0.018860
0.273497 0.000000 0.004883
0.405884 0.000000 0.004507
0.544519 0.000000 0.006253
0.666737 0.000001 0.007115
0.755173 0.000007 0.011285
0.823223 0.000019 0.016584
0.836459 0.000000 0.022524
0.836774 0.000000 0.027051
0.836941 0.000000 0.029460
0.837011 0.000000 0.030467
0.837039 0.000000 0.030862
0.837080 0.000000 0.031459
0.000000 0.006318 0.038607
0.000000 0.007330 0.040693
0.000000 0.011834 0.050504
0.013861 0.012864 0.041211
0.100523 0.009879 0.031443
0.224943 0.001246 0.012013
0.380694 0.000000 0.001916
0.542752 0.000000 0.005510
0.665108 0.000002 0.006630
0.754711 0.000006 0.010025
0.822712 0.000017 0.015471
0.836363 0.000000 0.021142
0.836683 0.000000 0.025738
0.836852 0.000000 0.028180
0.836923 0.000000 0.029201
0.836951 0.000000 0.029602
0.836993 0.000000 0.030207
0.000000 0.041637 0.056398
0.000000 0.041245 0.056220
0.000000 0.044554 0.059549
0.024677 0.041484 0.048432
0.112333 0.035022 0.022356
0.207569 0.024010 0.001050
0.304455 0.012250 0.000018
0.478265 0.000000 0.000602
0.658377 0.000015 0.004167
0.753889 0.000005 0.007735
0.821804 0.000014 0.013468
0.836058 0.000000 0.018858
0.836519 0.000000 0.023386
0.836693 0.000000 0.025891
0.836766 0.000000 0.026938
0.836795 0.000000 0.027349
0.836838 0.000000 0.027968
0.000000 0.101796 0.089980
0.000000 0.101519 0.089862
0.000000 0.101159 0.089706
0.033623 0.100016 0.086018
0.125948 0.090289 0.042116
0.215676 0.084631 0.000000
0.312503 0.090365 0.000015
0.424597 0.082241 0.000017
0.529046 0.052511 0.000023
0.691956 0.005598 0.000006
0.820548 0.000021 0.005370
0.834685 0.000000 0.014762
0.835929 0.000000 0.018474
0.836340 0.000000 0.020798
0.836416 0.000000 0.021906
0.836447 0.000000 0.022340
0.836492 0.000000 0.022995
0.050931 0.191111 0.139345
0.050821 0.190950 0.139257
0.050679 0.190742 0.139142
0.050387 0.190387 0.139111
0.131216 0.182813 0.135749
0.251797 0.165536 0.014124
0.368226 0.173823 0.000013
0.486207 0.187072 0.000015
0.583914 0.195410 0.000013
0.667814 0.197389 0.000025
0.739637 0.189363 0.000045
0.753195 0.169600 0.000031
0.757341 0.148942 0.000037
0.757465 0.134120 0.000044
0.757151 0.127534 0.000045
0.757002 0.124894 0.000046
0.756751 0.120860 0.000047
0.124922 0.315236 0.194295
0.124878 0.315124 0.194266
0.124821 0.314978 0.194228
0.124720 0.314720 0.194162
0.124505 0.314171 0.194020
0.244068 0.297106 0.191053
0.394654 0.280727 0.033922
0.542061 0.292105 0.000031
0.649635 0.307291 0.000031
0.735427 0.320567 0.000018
0.796232 0.328501 0.000011
0.817311 0.325757 0.000024
0.815810 0.320249 0.000031
0.815003 0.317154 0.000031
0.814746 0.315749 0.000027
0.814652 0.315183 0.000025
0.814507 0.314323 0.000023
0.167827 0.470158 0.216713
0.167813 0.470064 0.216712
0.167796 0.469943 0.216710
0.167766 0.469729 0.216706
0.167700 0.469273 0.216699
0.167543 0.468172 0.216681
0.362761 0.434413 0.200518
0.509696 0.425681 0.082073
0.656933 0.426409 0.011131
0.755561 0.442596 0.000031
0.824611 0.457058 0.000031
0.860404 0.460806 0.000031
0.859417 0.457063 0.000031
0.858867 0.454976 0.000031
0.858631 0.454084 0.000031
0.858538 0.453729 0.000031
0.858396 0.453192 0.000031
0.178501 0.631188 0.204024
0.178500 0.631128 0.204033
0.178499 0.631049 0.204046
0.178497 0.630912 0.204067
0.178493 0.630620 0.204113
0.178483 0.629917 0.204223
0.283560 0.624521 0.202582
0.469625 0.573970 0.162647
0.613301 0.571372 0.081247
0.729966 0.567557 0.033754
0.824513 0.577110 0.021221
0.864975 0.592215 0.049667
0.864889 0.589897 0.048798
0.864842 0.588611 0.048315
0.864822 0.588062 0.048109
0.864814 0.587844 0.048028
0.864801 0.587514 0.047904
0.180506 0.763162 0.170150
0.180505 0.763124 0.170163
0.180504 0.763075 0.170179
0.180503 0.762989 0.170207
0.180500 0.762805 0.170268
0.180492 0.762364 0.170414
0.180475 0.761415 0.170727
0.406085 0.719896 0.154927
0.580955 0.688143 0.111790
0.706645 0.688186 0.075940
0.805237 0.688662 0.059847
0.860953 0.694614 0.089805
0.863375 0.693862 0.094099
0.863317 0.692884 0.093636
0.863292 0.692467 0.093438
0.863282 0.692301 0.093360
0.863268 0.692051 0.093241
0.187326 0.853670 0.144499
0.187321 0.853649 0.144503
0.187316 0.853622 0.144507
0.187306 0.853574 0.144514
0.187285 0.853471 0.144530
0.187234 0.853223 0.144569
0.187126 0.852690 0.144652
0.269203 0.850050 0.141384
0.539278 0.786334 0.122383
0.684783 0.776429 0.107368
0.793953 0.781389 0.111175
0.853091 0.783323 0.121143
0.870186 0.785441 0.141616
0.870140 0.784849 0.141315
0.870120 0.784597 0.141187
0.870113 0.784497 0.141136
0.870101 0.784346 0.141059
0.201904 0.903687 0.141815
0.201904 0.903687 0.141815
0.201904 0.903687 0.141815
0.201904 0.903687 0.141815
0.201904 0.903687 0.141815
0.201904 0.903687 0.141815
0.201904 0.903687 0.141815
0.201904 0.903687 0.141815
0.500379 0.858145 0.133675
0.661969 0.825251 0.131290
0.782689 0.830149 0.128346
0.845023 0.833034 0.140507
0.875759 0.835545 0.179103
0.875707 0.835109 0.178742
0.875684 0.834923 0.178589
0.875675 0.834849 0.178528
0.875662 0.834738 0.178436
0.201904 0.903687 0.141815
0.201904 0.903687 0.141815
0.201904 0.903687 0.141815
0.201904 0.903687 0.141815
0.201904 0.903687 0.141815
0.201904 0.903687 0.141815
0.201904 0.903687 0.141815
0.201904 0.903687 0.141815
0.444850 0.868955 0.135350
0.637295 0.827145 0.132895
0.768244 0.831732 0.129959
0.835590 0.835750 0.134300
0.869832 0.839026 0.170871
0.876282 0.839874 0.182678
0.876282 0.839874 0.182678
0.876282 0.839874 0.182678
0.876282 0.839874 0.182678
0.201904 0.903687 0.141815
0.201904 0.903687 0.141815
0.201904 0.903687 0.141815
0.201904 0.903687 0.141815
0.201904 0.903687 0.141815
0.201904 0.903687 0.141815
0.201904 0.903687 0.141815
0.201904 0.903687 0.141815
0.405353 0.876563 0.136749
0.625117 0.830233 0.133575
0.759441 0.831252 0.130102
0.830006 0.835310 0.131325
0.865131 0.838408 0.162264
0.876282 0.839874 0.182678
0.876282 0.839874 0.182678
0.876282 0.839874 0.182678
0.876282 0.839874 0.182678
0.201904 0.903687 0.141815
0.201904 0.903687 0.141815
0.201904 0.903687 0.141815
0.201904 0.903687 0.141815
0.201904 0.903687 0.141815
0.201904 0.903687 0.141815
0.201904 0.903687 0.141815
0.201904 0.903687 0.141815
0.386022 0.880459 0.136539
0.619597 0.831603 0.133694
0.755621 0.831043 0.130164
0.827586 0.835142 0.130587
0.863106 0.838142 0.158558
0.876282 0.839874 0.182678
0.876282 0.839874 0.182678
0.876282 0.839874 0.182678
0.876282 0.839874 0.182678
0.201904 0.903687 0.141815
0.201904 0.903687 0.141815
0.201904 0.903687 0.141815
0.201904 0.903687 0.141815
0.201904 0.903687 0.141815
0.201904 0.903687 0.141815
0.201904 0.903687 0.141815
0.201904 0.903687 0.141815
0.378214 0.881970 0.137060
0.617229 0.832162 0.133559
0.754094 0.830959 0.130188
0.826617 0.835086 0.130562
0.862300 0.838036 0.157082
0.876282 0.839874 0.182678
0.876282 0.839874 0.182678
0.876282 0.839874 0.182678
0.876282 0.839874 0.182678
0.201904 0.903687 0.141815
0.201904 0.903687 0.141815
0.201904 0.903687 0.141815
0.201904 0.903687 0.141815
0.201904 0.903687 0.141815
0.201904 0.903687 0.141815
0.201904 0.903687 0.141815
0.201904 0.903687 0.141815
0.365607 0.884411 0.137900
0.613599 0.833018 0.133353
0.751688 0.830798 0.130181
0.825143 0.835002 0.130523
0.861075 0.837875 0.154840
0.876282 0.839874 0.182678
0.876282 0.839874 0.182678
0.876282 0.839874 0.182678
0.876282 0.839874 0.182678
0.000000 0.000000 0.020865
0.000000 0.000000 0.030422
0.000000 0.000000 0.057914
0.034191 0.000199 0.061470
0.143639 0.000000 0.049397
0.269170 0.000000 0.031356
0.408272 0.000000 0.024584
0.548555 0.000000 0.024640
0.668820 0.000000 0.027112
0.757116 0.000009 0.031642
0.825169 0.000024 0.037549
0.837889 0.000000 0.043280
0.838149 0.000000 0.047284
0.838289 0.000000 0.049435
0.838348 0.000000 0.050340
0.838371 0.000000 0.050697
