滤镜资源/Professional Luts Collection/Triune-Digital-Cinematic-LUTs/3D LUTs (3DL)/LOG/BW/Casino Royale 2 - LOG.3dl
# Created by Benjamin (IWLTBAP) : http://luts.iwltbap.com
# Copyright: (C) Copyright 2016 Triune Films and IWLTBAP
# Blockbuster LUTs Pack
0 64 128 192 256 320 384 448 512 576 640 704 768 832 896 960 1023
19 19 83
19 19 83
26 26 90
28 28 91
32 32 95
38 38 101
46 46 108
50 50 112
62 62 123
64 64 125
67 67 128
67 67 128
72 72 132
77 77 137
79 79 139
79 79 139
78 78 138
25 25 89
28 28 91
25 25 89
32 32 95
42 42 104
41 41 103
50 50 112
52 52 114
59 59 120
65 65 126
71 71 132
70 70 130
69 69 130
75 75 135
79 79 139
80 80 140
79 79 139
36 36 99
37 37 100
39 39 102
49 49 111
53 53 114
55 55 117
64 64 125
69 69 130
68 68 128
80 80 140
88 88 148
87 87 146
82 82 141
78 78 138
79 79 139
82 82 141
84 84 144
47 47 109
47 47 109
54 54 115
60 60 121
64 64 125
72 72 132
73 73 133
83 83 142
94 94 152
104 104 162
116 116 173
129 129 185
128 128 185
129 129 186
129 129 186
128 128 185
128 128 184
62 62 123
61 61 122
61 61 122
72 72 133
80 80 140
83 83 143
92 92 151
102 102 160
124 124 180
150 150 205
175 175 228
184 184 237
183 183 236
182 182 235
182 182 234
183 183 235
187 187 239
73 73 133
77 77 137
82 82 142
87 87 146
93 93 152
115 115 173
125 125 182
145 145 200
179 179 232
212 212 263
246 246 294
265 265 311
262 262 309
262 262 309
265 265 312
269 269 315
273 273 319
97 97 155
100 100 158
103 103 161
100 100 159
127 127 184
165 165 219
197 197 249
223 223 272
256 256 304
294 294 339
326 326 368
353 353 394
356 356 397
358 358 399
365 365 405
372 372 412
381 381 419
122 122 179
123 123 180
123 123 179
126 126 182
163 163 217
214 214 264
260 260 307
303 303 347
347 347 388
377 377 416
409 409 446
454 454 488
467 467 500
462 462 495
465 465 497
470 470 503
480 480 512
160 160 214
167 167 220
171 171 224
175 175 228
203 203 254
257 257 304
317 317 360
379 379 418
436 436 470
478 478 510
510 510 540
552 552 579
574 574 599
572 572 597
578 578 602
587 587 611
599 599 622
223 223 272
229 229 278
236 236 285
243 243 291
258 258 305
299 299 344
358 358 398
434 434 469
507 507 536
571 571 597
615 615 637
664 664 683
701 701 717
710 710 726
714 714 729
712 712 728
716 716 731
296 296 341
301 301 346
305 305 349
309 309 353
313 313 357
347 347 388
404 404 441
484 484 515
574 574 599
648 648 668
729 729 743
791 791 801
849 849 855
873 873 877
876 876 880
877 877 881
883 883 886
352 352 393
364 364 404
374 374 413
381 381 419
387 387 425
405 405 442
470 470 502
558 558 584
636 636 657
724 724 739
823 823 831
930 930 931
994 994 990
1023 1023 1016
1028 1028 1022
1034 1034 1027
1040 1040 1033
422 422 457
433 433 468
444 444 478
453 453 487
461 461 494
467 467 499
530 530 558
611 611 634
702 702 718
803 803 812
908 908 910
1034 1034 1027
1131 1131 1117
1177 1177 1160
1188 1188 1170
1200 1200 1181
1208 1208 1189
482 482 514
485 485 516
488 488 519
495 495 526
506 506 536
518 518 547
558 558 585
649 649 669
742 742 756
843 843 849
957 957 955
1075 1075 1065
1208 1208 1189
1311 1311 1285
1331 1331 1303
1342 1342 1314
1353 1353 1323
495 495 526
501 501 532
505 505 535
507 507 537
517 517 546
528 528 556
554 554 581
641 641 661
737 737 750
834 834 841
961 961 959
1071 1071 1061
1214 1214 1194
1324 1324 1297
1368 1368 1338
1383 1383 1352
1398 1398 1366
505 505 535
515 515 544
521 521 550
524 524 553
526 526 554
535 535 563
560 560 586
639 639 660
738 738 752
831 831 838
962 962 960
1076 1076 1067
1202 1202 1184
1335 1335 1307
1398 1398 1365
1403 1403 1371
1419 1419 1385
516 516 545
525 525 554
535 535 563
541 541 568
543 543 570
544 544 572
569 569 594
651 651 671
751 751 764
846 846 852
979 979 975
1102 1102 1090
1214 1214 1195
1353 1353 1324
1428 1428 1393
1433 1433 1398
1439 1439 1403
19 19 83
26 26 90
29 29 92
34 34 97
39 39 101
44 44 106
48 48 110
54 54 116
61 61 122
67 67 127
72 72 132
70 70 130
72 72 132
77 77 137
78 78 138
77 77 137
77 77 137
20 20 84
24 24 88
33 33 96
36 36 99
37 37 100
44 44 107
52 52 114
57 57 118
65 65 125
69 69 130
77 77 137
76 76 136
77 77 137
82 82 142
84 84 143
83 83 142
82 82 142
38 38 100
35 35 98
38 38 101
49 49 111
54 54 116
58 58 119
64 64 125
70 70 131
71 71 132
82 82 141
93 93 152
92 92 151
88 88 147
85 85 145
88 88 148
93 93 151
95 95 154
48 48 110
49 49 110
54 54 115
59 59 120
67 67 128
71 71 131
76 76 136
87 87 146
101 101 160
116 116 173
132 132 188
141 141 197
143 143 198
144 144 199
142 142 198
141 141 196
141 141 196
66 66 126
67 67 128
68 68 129
72 72 132
85 85 144
92 92 151
102 102 160
113 113 170
137 137 192
166 166 220
194 194 246
203 203 254
207 207 258
205 205 256
205 205 256
207 207 258
211 211 262
74 74 134
76 76 136
80 80 140
89 89 148
105 105 163
133 133 189
144 144 199
163 163 217
202 202 254
236 236 285
266 266 313
286 286 331
284 284 329
284 284 329
285 285 331
288 288 333
291 291 336
99 99 158
102 102 160
104 104 162
104 104 162
143 143 198
182 182 234
219 219 269
244 244 293
278 278 324
316 316 359
352 352 393
379 379 418
384 384 423
387 387 425
389 389 428
393 393 431
401 401 438
132 132 188
137 137 193
136 136 192
139 139 195
182 182 234
237 237 285
282 282 327
327 327 369
368 368 408
407 407 444
437 437 472
483 483 514
493 493 524
489 489 520
491 491 522
496 496 527
506 506 536
178 178 231
185 185 238
189 189 241
195 195 247
220 220 270
278 278 324
339 339 381
401 401 439
462 462 495
502 502 532
537 537 565
582 582 606
609 609 632
607 607 630
611 611 634
618 618 640
630 630 652
244 244 292
250 250 298
257 257 305
267 267 313
281 281 327
325 325 368
381 381 420
459 459 493
530 530 558
597 597 620
645 645 665
692 692 709
738 738 752
743 743 757
751 751 764
754 754 766
757 757 770
322 322 365
329 329 371
333 333 375
336 336 378
340 340 381
374 374 413
429 429 464
508 508 538
600 600 624
679 679 697
767 767 779
831 831 838
894 894 897
914 914 916
919 919 920
921 921 922
926 926 926
387 387 425
390 390 428
400 400 437
409 409 445
415 415 451
432 432 467
499 499 529
585 585 609
669 669 687
763 763 775
868 868 872
977 977 974
1041 1041 1033
1078 1078 1068
1081 1081 1071
1083 1083 1073
1088 1088 1077
450 450 484
463 463 496
474 474 506
484 484 516
492 492 523
498 498 528
559 559 586
648 648 668
741 741 754
844 844 851
953 953 952
1071 1071 1061
1179 1179 1162
1233 1233 1212
1240 1240 1218
1248 1248 1226
1255 1255 1232
514 514 543
516 516 545
519 519 548
528 528 556
540 540 568
552 552 579
593 593 617
687 687 705
787 787 798
890 890 893
1008 1008 1003
1130 1130 1116
1264 1264 1241
1375 1375 1344
1384 1384 1353
1389 1389 1357
1399 1399 1367
524 524 553
534 534 562
537 537 565
541 541 569
553 553 580
564 564 590
592 592 616
674 674 692
777 777 788
884 884 888
1009 1009 1004
1124 1124 1111
1263 1263 1240
1380 1380 1349
1425 1425 1390
1434 1434 1399
1449 1449 1413
534 534 562
548 548 575
555 555 581
559 559 585
564 564 590
573 573 599
597 597 620
678 678 696
780 780 791
882 882 886
1009 1009 1003
1123 1123 1110
1256 1256 1233
1383 1383 1351
1446 1446 1410
1457 1457 1420
1472 1472 1434
544 544 571
558 558 585
568 568 594
576 576 601
581 581 605
582 582 607
605 605 628
688 688 705
791 791 802
897 897 900
1025 1025 1019
1148 1148 1133
1267 1267 1244
1400 1400 1367
1476 1476 1438
1487 1487 1448
1492 1492 1453
29 29 92
30 30 93
42 42 105
46 46 108
50 50 112
54 54 116
63 63 123
75 75 135
77 77 137
96 96 155
109 109 167
109 109 167
112 112 169
113 113 171
113 113 171
113 113 170
110 110 168
27 27 91
33 33 96
41 41 103
46 46 109
50 50 111
53 53 114
60 60 121
71 71 132
76 76 136
97 97 156
115 115 173
116 116 173
113 113 171
112 112 170
113 113 171
112 112 169
109 109 167
38 38 101
41 41 104
49 49 111
55 55 117
60 60 121
68 68 129
77 77 137
81 81 141
90 90 149
111 111 168
122 122 179
123 123 180
117 117 174
114 114 171
115 115 172
113 113 171
112 112 170
50 50 112
51 51 113
59 59 120
65 65 126
72 72 132
77 77 137
86 86 145
94 94 153
109 109 166
122 122 178
142 142 197
146 146 202
150 150 205
154 154 209
152 152 207
150 150 205
152 152 206
66 66 126
66 66 126
66 66 127
75 75 135
83 83 143
96 96 155
105 105 163
123 123 180
147 147 202
178 178 231
211 211 261
218 218 268
221 221 271
225 225 274
225 225 275
226 226 275
229 229 278
76 76 136
77 77 137
79 79 139
89 89 148
110 110 168
143 143 199
159 159 213
179 179 232
215 215 265
254 254 302
284 284 329
306 306 350
304 304 349
305 305 349
307 307 351
308 308 351
310 310 353
97 97 156
100 100 158
104 104 162
108 108 166
152 152 207
197 197 249
238 238 287
264 264 311
299 299 343
336 336 378
374 374 413
401 401 439
406 406 443
410 410 447
411 411 448
415 415 451
422 422 458
136 136 192
141 141 197
145 145 200
148 148 203
194 194 246
255 255 302
304 304 348
348 348 389
389 389 427
430 430 465
461 461 494
504 504 535
518 518 547
518 518 547
520 520 549
523 523 552
529 529 558
192 192 243
199 199 250
207 207 258
215 215 265
238 238 287
298 298 343
361 361 401
421 421 457
482 482 514
528 528 556
559 559 585
611 611 633
636 636 657
637 637 658
640 640 661
648 648 668
659 659 678
267 267 314
272 272 318
277 277 323
286 286 331
302 302 346
347 347 388
401 401 438
481 481 512
553 553 580
621 621 642
671 671 690
723 723 738
773 773 784
773 773 784
780 780 790
785 785 795
790 790 800
345 345 386
351 351 391
358 358 398
361 361 402
365 365 404
399 399 437
455 455 488
534 534 562
625 625 647
709 709 724
799 799 809
870 870 874
935 935 935
951 951 950
955 955 954
958 958 956
964 964 962
419 419 455
422 422 458
428 428 463
436 436 471
442 442 476
458 458 491
527 527 555
611 611 633
697 697 713
795 795 805
910 910 911
1020 1020 1014
1086 1086 1076
1131 1131 1117
1133 1133 1119
1129 1129 1115
1133 1133 1119
479 479 511
493 493 523
501 501 532
510 510 540
520 520 549
530 530 558
587 587 612
681 681 699
775 775 786
874 874 878
997 997 992
1106 1106 1094
1225 1225 1205
1287 1287 1262
1293 1293 1268
1298 1298 1272
1305 1305 1279
545 545 572
548 548 575
550 550 577
559 559 585
573 573 598
586 586 611
627 627 649
720 720 735
827 827 835
938 938 938
1059 1059 1050
1183 1183 1166
1311 1311 1285
1425 1425 1391
1443 1443 1407
1441 1441 1406
1447 1447 1411
556 556 582
565 565 591
568 568 594
572 572 598
586 586 610
598 598 622
628 628 649
709 709 724
815 815 824
930 930 931
1058 1058 1050
1181 1181 1164
1309 1309 1283
1435 1435 1400
1489 1489 1451
1489 1489 1450
1497 1497 1458
563 563 589
578 578 603
587 587 611
592 592 615
598 598 622
610 610 632
633 633 654
715 715 730
819 819 827
931 931 932
1057 1057 1048
1171 1171 1154
1308 1308 1281
1429 1429 1395
1498 1498 1458
1514 1514 1474
1523 1523 1482
572 572 598
587 587 611
601 601 624
609 609 632
616 616 638
620 620 642
641 641 662
725 725 739
830 830 837
949 949 948
1075 1075 1065
1191 1191 1173
1320 1320 1293
1448 1448 1412
1518 1518 1478
1535 1535 1493
1545 1545 1503
38 38 101
45 45 107
57 57 118
75 75 135
97 97 156
118 118 175
145 145 200
154 154 208
173 173 226
212 212 262
236 236 285
235 235 284
238 238 287
241 241 289
241 241 289
237 237 286
236 236 285
44 44 106
49 49 111
55 55 116
69 69 130
90 90 149
111 111 169
136 136 192
150 150 205
171 171 225
202 202 253
235 235 284
234 234 283
229 229 278
232 232 281
237 237 286
237 237 286
