滤镜资源/Professional Luts Collection/Triune-Digital-Cinematic-LUTs/3D LUTs (3DL)/LOG/BW/Casino Royale 2 - LOG.3dl
# Created by Benjamin (IWLTBAP) : http://luts.iwltbap.com
# Copyright: (C) Copyright 2016 Triune Films and IWLTBAP
# Blockbuster LUTs Pack
0 256 512 768 1023
19 19 83
32 32 95
62 62 123
72 72 132
78 78 138
62 62 123
80 80 140
124 124 180
183 183 236
187 187 239
160 160 214
203 203 254
436 436 470
574 574 599
599 599 622
422 422 457
461 461 494
702 702 718
1131 1131 1117
1208 1208 1189
516 516 545
543 543 570
751 751 764
1214 1214 1195
1439 1439 1403
98 98 157
220 220 270
319 319 362
402 402 439
405 405 442
199 199 250
310 310 354
454 454 488
525 525 554
522 522 551
288 288 333
325 325 368
560 560 586
707 707 723
713 713 728
535 535 563
572 572 597
839 839 846
1308 1308 1282
1400 1400 1367
646 646 666
698 698 714
916 916 917
1419 1419 1385
1663 1663 1612
789 789 799
1032 1032 1025
1456 1456 1419
1663 1663 1612
1674 1674 1622
1014 1014 1008
1207 1207 1188
1658 1658 1607
1862 1862 1797
1859 1859 1794
1412 1412 1379
1458 1458 1421
2099 2099 2018
2443 2443 2338
2451 2451 2345
1597 1597 1551
1636 1636 1587
2050 2050 1972
2561 2561 2447
2643 2643 2523
1448 1448 1412
1505 1505 1465
1786 1786 1726
2323 2323 2226
2581 2581 2466
1478 1478 1440
1740 1740 1683
2294 2294 2199
2661 2661 2540
2692 2692 2569
1869 1869 1804
2050 2050 1972
2557 2557 2444
2910 2910 2772
2916 2916 2777
2722 2722 2597
2772 2772 2643
3213 3213 3053
3467 3467 3289
3486 3486 3307
3122 3122 2969
3148 3148 2993
3371 3371 3200
3660 3660 3469
3707 3707 3513
3159 3159 3004
3197 3197 3039
3340 3340 3172
3667 3667 3476
3758 3758 3560
1620 1620 1572
1879 1879 1813
2416 2416 2312
2770 2770 2642
2817 2817 2685
1952 1952 1881
2121 2121 2038
2623 2623 2505
2963 2963 2821
3001 3001 2856
2847 2847 2713
2890 2890 2753
3302 3302 3137
3541 3541 3358
3577 3577 3392
3398 3398 3226
3430 3430 3256
3590 3590 3404
3803 3803 3602
3852 3852 3648
3592 3592 3406
3625 3625 3437
3705 3705 3511
3871 3871 3666
3918 3918 3709
