滤镜资源/Professional Luts Collection/Triune-Digital-Cinematic-LUTs/3D LUTs (3DL)/LOG/BW/Casino Royale 2 - LOG.3dl
# Created by Benjamin (IWLTBAP) : http://luts.iwltbap.com
# Copyright: (C) Copyright 2016 Triune Films and IWLTBAP
# Blockbuster LUTs Pack
0 128 256 384 512 640 768 896 1023
19 19 83
26 26 90
32 32 95
46 46 108
62 62 123
67 67 128
72 72 132
79 79 139
78 78 138
36 36 99
39 39 102
53 53 114
64 64 125
68 68 128
88 88 148
82 82 141
79 79 139
84 84 144
62 62 123
61 61 122
80 80 140
92 92 151
124 124 180
175 175 228
183 183 236
182 182 234
187 187 239
97 97 155
103 103 161
127 127 184
197 197 249
256 256 304
326 326 368
356 356 397
365 365 405
381 381 419
160 160 214
171 171 224
203 203 254
317 317 360
436 436 470
510 510 540
574 574 599
578 578 602
599 599 622
296 296 341
305 305 349
313 313 357
404 404 441
574 574 599
729 729 743
849 849 855
876 876 880
883 883 886
422 422 457
444 444 478
461 461 494
530 530 558
702 702 718
908 908 910
1131 1131 1117
1188 1188 1170
1208 1208 1189
495 495 526
505 505 535
517 517 546
554 554 581
737 737 750
961 961 959
1214 1214 1194
1368 1368 1338
1398 1398 1366
516 516 545
535 535 563
543 543 570
569 569 594
751 751 764
979 979 975
1214 1214 1195
1428 1428 1393
1439 1439 1403
29 29 92
42 42 105
50 50 112
63 63 123
77 77 137
109 109 167
112 112 169
113 113 171
110 110 168
38 38 101
49 49 111
60 60 121
77 77 137
90 90 149
122 122 179
117 117 174
115 115 172
112 112 170
66 66 126
66 66 127
83 83 143
105 105 163
147 147 202
211 211 261
221 221 271
225 225 275
229 229 278
97 97 156
104 104 162
152 152 207
238 238 287
299 299 343
374 374 413
406 406 443
411 411 448
422 422 458
192 192 243
207 207 258
238 238 287
361 361 401
482 482 514
559 559 585
636 636 657
640 640 661
659 659 678
345 345 386
358 358 398
365 365 404
455 455 488
625 625 647
799 799 809
935 935 935
955 955 954
964 964 962
479 479 511
501 501 532
520 520 549
587 587 612
775 775 786
997 997 992
1225 1225 1205
1293 1293 1268
1305 1305 1279
556 556 582
568 568 594
586 586 610
628 628 649
815 815 824
1058 1058 1050
1309 1309 1283
1489 1489 1451
1497 1497 1458
572 572 598
601 601 624
616 616 638
641 641 662
830 830 837
1075 1075 1065
1320 1320 1293
1518 1518 1478
1545 1545 1503
98 98 157
134 134 190
220 220 270
279 279 325
319 319 362
396 396 434
402 402 439
399 399 437
405 405 442
119 119 176
151 151 205
226 226 275
288 288 333
315 315 359
388 388 426
385 385 423
390 390 428
392 392 430
199 199 250
213 213 264
310 310 354
377 377 416
454 454 488
520 520 549
525 525 554
517 517 546
522 522 551
250 250 298
260 260 307
331 331 373
440 440 475
537 537 565
605 605 628
621 621 643
610 610 633
624 624 646
288 288 333
299 299 343
325 325 368
444 444 478
560 560 586
634 634 655
707 707 723
708 708 724
713 713 728
385 385 423
398 398 436
409 409 445
497 497 527
672 672 690
852 852 858
1009 1009 1004
1031 1031 1025
1052 1052 1044
535 535 563
555 555 581
572 572 597
640 640 660
839 839 846
1069 1069 1060
1308 1308 1282
1385 1385 1353
1400 1400 1367
621 621 643
642 642 662
657 657 677
695 695 712
902 902 904
1157 1157 1142
1410 1410 1376
1602 1602 1555
1616 1616 1568
646 646 666
673 673 691
698 698 714
715 715 730
916 916 917
1177 1177 1160
1419 1419 1385
1637 1637 1588
1663 1663 1612
357 357 397
400 400 437
532 532 560
682 682 699
813 813 822
923 923 924
930 930 930
939 939 938
952 952 951
366 366 406
394 394 431
517 517 546
650 650 670
771 771 783
887 887 891
911 911 912
918 918 919
927 927 928
521 521 550
534 534 562
685 685 702
841 841 848
973 973 971
1097 1097 1086
1138 1138 1124
1130 1130 1116
1149 1149 1134
649 649 669
671 671 690
767 767 779
1008 1008 1003
1152 1152 1137
1304 1304 1278
1380 1380 1349
1374 1374 1343
1375 1375 1344
742 742 755
758 758 770
776 776 787
1021 1021 1015
1229 1229 1209
1384 1384 1353
1501 1501 1462
1494 1494 1455
1503 1503 1463
777 777 788
799 799 808
806 806 815
970 970 967
1166 1166 1150
1397 1397 1364
1565 1565 1520
1571 1571 1527
1580 1580 1535
775 775 786
796 796 805
817 817 825
863 863 868
1067 1067 1058
1307 1307 1281
1520 1520 1479
1587 1587 1542
1593 1593 1547
713 713 728
737 737 750
756 756 768
769 769 780
988 988 985
1248 1248 1226
1500 1500 1461
1702 1702 1648
1739 1739 1683
721 721 736
749 749 762
777 777 788
803 803 813
996 996 992
1270 1270 1247
1522 1522 1481
1767 1767 1709
1781 1781 1721
789 789 799
827 827 835
1032 1032 1025
1255 1255 1232
1456 1456 1419
1630 1630 1581
1663 1663 1612
1661 1661 1610
1674 1674 1622
770 770 781
785 785 795
985 985 981
1209 1209 1190
1425 1425 1391
1594 1594 1547
1636 1636 1587
1650 1650 1600
1668 1668 1617
1014 1014 1008
1037 1037 1030
1207 1207 1188
1428 1428 1394
1658 1658 1607
1805 1805 1744
1862 1862 1797
1850 1850 1786
1859 1859 1794
1225 1225 1204
1249 1249 1227
1350 1350 1321
1648 1648 1598
1891 1891 1825
2075 2075 1996
2189 2189 2101
2172 2172 2085
2180 2180 2092
1412 1412 1379
1441 1441 1406
1458 1458 1421
1785 1785 1726
2099 2099 2018
2282 2282 2188
2443 2443 2338
2435 2435 2330
2451 2451 2345
1540 1540 1498
1570 1570 1526
1591 1591 1545
1793 1793 1733
2127 2127 2043
2387 2387 2285
2542 2542 2430
2564 2564 2450
2569 2569 2455
1597 1597 1551
1616 1616 1568
1636 1636 1587
1711 1711 1657
2050 2050 1972
2320 2320 2223
2561 2561 2447
2639 2639 2520
2643 2643 2523
1497 1497 1457
1526 1526 1484
1550 1550 1507
1570 1570 1525
1870 1870 1804
2137 2137 2053
2415 2415 2311
2619 2619 2501
2622 2622 2504
1448 1448 1412
1480 1480 1442
1505 1505 1465
1520 1520 1479
1786 1786 1726
2058 2058 1980
2323 2323 2226
2561 2561 2447
2581 2581 2466
1334 1334 1306
1358 1358 1328
1603 1603 1557
1867 1867 1802
2125 2125 2042
2374 2374 2273
2420 2420 2316
2425 2425 2320
2436 2436 2331
1335 1335 1307
1359 1359 1329
1580 1580 1535
1850 1850 1786
2108 2108 2026
2364 2364 2264
2418 2418 2315
2427 2427 2323
2446 2446 2341
1598 1598 1551
1622 1622 1574
1788 1788 1728
2038 2038 1961
2292 2292 2197
2508 2508 2398
2572 2572 2458
2567 2567 2453
2574 2574 2460
1891 1891 1824
1918 1918 1849
1990 1990 1916
2290 2290 2195
2540 2540 2428
2762 2762 2634
2871 2871 2735
2867 2867 2732
2866 2866 2731
2126 2126 2043
2151 2151 2066
2175 2175 2088
2460 2460 2353
2758 2758 2631
2954 2954 2813
3103 3103 2952
3112 3112 2959
3124 3124 2970
2342 2342 2244
2376 2376 2275
2399 2399 2296
2566 2566 2452
2875 2875 2739
3123 3123 2970
3257 3257 3094
3287 3287 3122
3295 3295 3130
2469 2469 2361
2495 2495 2386
2522 2522 2411
2565 2565 2451
2880 2880 2744
3140 3140 2986
3302 3302 3137
3371 3371 3201
3380 3380 3209
2425 2425 2321
2464 2464 2357
2494 2494 2385
2515 2515 2404
2783 2783 2654
3085 3085 2934
3261 3261 3098
3405 3405 3232
3409 3409 3236
2395 2395 2292
2413 2413 2310
2463 2463 2356
2476 2476 2368
2710 2710 2586
3046 3046 2899
3226 3226 3066
3383 3383 3212
3407 3407 3234
1478 1478 1440
1503 1503 1464
1740 1740 1683
1994 1994 1920
2294 2294 2199
2572 2572 2457
2661 2661 2540
2682 2682 2560
2692 2692 2569
1538 1538 1496
1592 1592 1546
1791 1791 1731
2054 2054 1976
2346 2346 2247
2618 2618 2500
2728 2728 2603
2753 2753 2626
2767 2767 2639
1869 1869 1804
1904 1904 1836
2050 2050 1972
2312 2312 2216
2557 2557 2444
2776 2776 2647
2910 2910 2772
2909 2909 2771
2916 2916 2777
2340 2340 2242
2376 2376 2275
2436 2436 2331
2747 2747 2621
2951 2951 2810
3133 3133 2980
3256 3256 3093
3267 3267 3104
3278 3278 3114
2722 2722 2597
2747 2747 2620
2772 2772 2643
2985 2985 2841
3213 3213 3053
3351 3351 3182
3467 3467 3289
3477 3477 3300
3486 3486 3307
2943 2943 2803
2973 2973 2830
2991 2991 2847
3086 3086 2936
3324 3324 3157
3484 3484 3305
3583 3583 3398
3612 3612 3425
3616 3616 3428
3122 3122 2969
3134 3134 2980
3148 3148 2993
3171 3171 3014
3371 3371 3200
3532 3532 3350
3660 3660 3469
3711 3711 3516
3707 3707 3513
3162 3162 3007
3182 3182 3025
3210 3210 3050
3231 3231 3071
3372 3372 3201
3541 3541 3359
3675 3675 3483
3749 3749 3552
3757 3757 3560
3159 3159 3004
3178 3178 3021
3197 3197 3039
3219 3219 3059
3340 3340 3172
3524 3524 3343
3667 3667 3476
3749 3749 3552
3758 3758 3560
1551 1551 1508
1587 1587 1541
1798 1798 1737
2056 2056 1977
2353 2353 2254
2621 2621 2503
2709 2709 2585
2739 2739 2613
2767 2767 2639
1618 1618 1570
1676 1676 1624
1849 1849 1785
2103 2103 2022
2409 2409 2306
2672 2672 2550
2784 2784 2654
2807 2807 2676
2843 2843 2710
1895 1895 1828
1948 1948 1877
2071 2071 1991
2321 2321 2224
2567 2567 2453
2793 2793 2663
2922 2922 2783
2933 2933 2793
2946 2946 2806
2384 2384 2282
2421 2421 2317
2454 2454 2348
2761 2761 2634
2971 2971 2829
3153 3153 2998
3288 3288 3124
3299 3299 3134
3318 3318 3151
2792 2792 2662
2821 2821 2689
2848 2848 2714
3038 3038 2891
3272 3272 3108
3411 3411 3237
3521 3521 3340
3551 3551 3368
3545 3545 3362
3119 3119 2966
3148 3148 2993
3167 3167 3011
3231 3231 3070
3439 3439 3263
3591 3591 3405
3683 3683 3490
3716 3716 3522
3725 3725 3530
3352 3352 3183
3384 3384 3213
3397 3397 3225
3412 3412 3239
3565 3565 3381
3700 3700 3506
3790 3790 3591
3831 3831 3628
3833 3833 3631
3540 3540 3358
3558 3558 3375
3571 3571 3386
3582 3582 3397
3650 3650 3460
3768 3768 3570
3846 3846 3643
3893 3893 3686
3897 3897 3690
3532 3532 3350
3554 3554 3371
3577 3577 3393
3589 3589 3403
3642 3642 3453
3764 3764 3566
3845 3845 3642
3901 3901 3694
3904 3904 3697
1620 1620 1572
1667 1667 1616
1879 1879 1813
2109 2109 2027
2416 2416 2312
2668 2668 2547
2770 2770 2642
2797 2797 2667
2817 2817 2685
1707 1707 1653
1753 1753 1695
1911 1911 1843
2165 2165 2079
2464 2464 2357
2718 2718 2593
2848 2848 2714
2879 2879 2743
2903 2903 2765
1952 1952 1881
1995 1995 1921
2121 2121 2038
2370 2370 2269
2623 2623 2505
2838 2838 2705
2963 2963 2821
2977 2977 2834
3001 3001 2856
2434 2434 2329
2467 2467 2360
2504 2504 2394
2803 2803 2672
3017 3017 2871
3195 3195 3037
3313 3313 3147
3334 3334 3166
3349 3349 3180
2847 2847 2713
2869 2869 2734
2890 2890 2753
3078 3078 2928
3302 3302 3137
3432 3432 3257
3541 3541 3358
3569 3569 3385
3577 3577 3392
3155 3155 3000
3189 3189 3032
3210 3210 3051
3266 3266 3103
3465 3465 3288
3602 3602 3415
3697 3697 3504
3737 3737 3541
3739 3739 3543
3398 3398 3226
3419 3419 3245
3430 3430 3256
3446 3446 3271
3590 3590 3404
3715 3715 3521
3803 3803 3602
3841 3841 3638
3852 3852 3648
3573 3573 3389
3579 3579 3394
3591 3591 3405
3611 3611 3424
3687 3687 3494
3790 3790 3590
3859 3859 3654
3908 3908 3700
3905 3905 3698
3592 3592 3406
3610 3610 3422
3625 3625 3437
3645 3645 3455
3705 3705 3511
3805 3805 3604
3871 3871 3666
3912 3912 3704
3918 3918 3709
