滤镜资源/Professional Luts Collection/Triune-Digital-Cinematic-LUTs/3D LUTs (3DL)/LOG/BW/Noir 1 - LOG.3dl
# Created by Benjamin (IWLTBAP) : http://luts.iwltbap.com
# Copyright: (C) Copyright 2016 Triune Films and IWLTBAP
# Blockbuster LUTs Pack
0 128 256 384 512 640 768 896 1023
16 16 80
67 67 128
166 166 220
281 281 327
424 424 460
551 551 578
570 570 596
580 580 605
599 599 622
62 62 123
128 128 184
221 221 271
339 339 381
480 480 511
621 621 643
637 637 657
652 652 671
674 674 692
133 133 189
155 155 209
338 338 380
473 473 505
625 625 647
790 790 800
852 852 858
859 859 865
874 874 878
220 220 270
247 247 295
386 386 424
631 631 652
800 800 809
988 988 984
1076 1076 1066
1093 1093 1082
1121 1121 1108
337 337 379
365 365 405
434 434 469
692 692 709
982 982 979
1181 1181 1163
1327 1327 1299
1348 1348 1319
1362 1362 1332
469 469 502
493 493 524
517 517 547
754 754 767
1055 1055 1047
1386 1386 1355
1592 1592 1546
1625 1625 1576
1646 1646 1596
613 613 635
628 628 649
660 660 679
806 806 815
1134 1134 1120
1479 1479 1440
1830 1830 1768
1924 1924 1855
1949 1949 1878
672 672 690
701 701 718
737 737 751
794 794 803
1117 1117 1104
1469 1469 1431
1850 1850 1786
2103 2103 2022
2130 2130 2047
684 684 701
719 719 734
757 757 770
809 809 818
1107 1107 1095
1470 1470 1433
1852 1852 1788
2134 2134 2050
2173 2173 2086
80 80 140
162 162 216
264 264 310
385 385 424
532 532 560
669 669 688
686 686 703
701 701 717
718 718 733
128 128 185
203 203 254
307 307 351
428 428 464
556 556 583
697 697 714
710 710 725
716 716 732
739 739 752
153 153 208
178 178 231
371 371 410
499 499 530
659 659 678
833 833 840
884 884 887
892 892 895
917 917 919
246 246 295
280 280 326
414 414 451
653 653 672
827 827 834
1018 1018 1012
1128 1128 1115
1144 1144 1129
1164 1164 1148
357 357 397
388 388 426
468 468 500
727 727 741
1018 1018 1013
1220 1220 1200
1377 1377 1346
1395 1395 1363
1409 1409 1376
491 491 522
524 524 553
556 556 582
789 789 799
1097 1097 1086
1426 1426 1392
1641 1641 1591
1682 1682 1630
1712 1712 1657
640 640 661
681 681 699
709 709 725
841 841 848
1168 1168 1152
1516 1516 1476
1885 1885 1819
1973 1973 1901
2000 2000 1925
707 707 723
741 741 754
778 778 789
831 831 838
1153 1153 1137
1512 1512 1471
1894 1894 1827
2158 2158 2072
2172 2172 2086
714 714 730
752 752 765
802 802 811
841 841 848
1149 1149 1134
1508 1508 1468
1883 1883 1816
2181 2181 2094
2221 2221 2131
178 178 231
270 270 316
456 456 490
603 603 626
760 760 772
920 920 921
944 944 943
957 957 955
965 965 963
223 223 273
294 294 339
482 482 514
624 624 646
773 773 784
927 927 928
943 943 942
956 956 954
981 981 978
331 331 373
357 357 398
624 624 645
778 778 789
944 944 943
1120 1120 1107
1172 1172 1155
1179 1179 1162
1196 1196 1178
375 375 414
411 411 448
584 584 609
837 837 844
1011 1011 1006
1193 1193 1175
1293 1293 1268
1298 1298 1273
1320 1320 1293
420 420 456
451 451 485
523 523 552
784 784 795
1068 1068 1058
1265 1265 1242
1428 1428 1393
1443 1443 1407
1447 1447 1411
519 519 548
552 552 578
586 586 610
811 811 820
1116 1116 1103
1450 1450 1414
1668 1668 1617
1723 1723 1668
1749 1749 1692
662 662 681
705 705 721
743 743 756
871 871 875
1196 1196 1178
1545 1545 1502
1907 1907 1839
2015 2015 1939
2032 2032 1955
746 746 759
785 785 795
821 821 829
869 869 873
1192 1192 1174
1546 1546 1503
1931 1931 1862
2219 2219 2129
2231 2231 2141
756 756 769
795 795 805
845 845 851
894 894 897
1192 1192 1174
1554 1554 1510
1935 1935 1865
2239 2239 2148
2279 2279 2185
303 303 347
383 383 422
599 599 623
850 850 856
1036 1036 1029
1221 1221 1201
1241 1241 1220
1259 1259 1236
1276 1276 1252
327 327 370
389 389 427
601 601 624
838 838 845
1015 1015 1010
1207 1207 1188
1250 1250 1228
1269 1269 1246
1286 1286 1261
473 473 505
501 501 532
763 763 775
1021 1021 1015
1206 1206 1187
1390 1390 1358
1465 1465 1427
1472 1472 1435
1492 1492 1453
617 617 640
652 652 672
818 818 826
1197 1197 1179
1393 1393 1361
1591 1591 1545
1708 1708 1654
1715 1715 1661
1725 1725 1670
682 682 700
719 719 734
770 770 781
1159 1159 1143
1471 1471 1433
1674 1674 1622
1847 1847 1783
1853 1853 1789
1872 1872 1806
730 730 744
770 770 782
810 810 819
1081 1081 1071
1405 1405 1372
1739 1739 1683
1945 1945 1874
1983 1983 1910
2005 2005 1930
774 774 786
814 814 823
854 854 860
978 978 975
1313 1313 1286
1651 1651 1601
2005 2005 1930
2113 2113 2030
2127 2127 2044
793 793 802
831 831 839
870 870 874
900 900 903
1224 1224 1204
1580 1580 1535
1960 1960 1888
2272 2272 2179
2289 2289 2195
802 802 811
842 842 849
889 889 892
933 933 933
1217 1217 1197
1579 1579 1534
1960 1960 1888
2289 2289 2194
2332 2332 2234
461 461 494
529 529 557
756 756 768
1033 1033 1026
1339 1339 1311
1538 1538 1495
1583 1583 1538
1599 1599 1552
1612 1612 1565
466 466 499
501 501 532
740 740 754
1017 1017 1012
1322 1322 1295
1525 1525 1483
1593 1593 1547
1612 1612 1564
1627 1627 1579
623 623 645
656 656 676
898 898 900
1182 1182 1165
1478 1478 1440
1684 1684 1632
1768 1768 1710
1781 1781 1722
1800 1800 1740
785 785 796
825 825 833
967 967 964
1368 1368 1337
1688 1688 1635
1896 1896 1828
2030 2030 1953
2036 2036 1959
2060 2060 1982
962 962 960
1003 1003 998
1043 1043 1036
1446 1446 1410
1880 1880 1814
2098 2098 2017
2282 2282 2188
2298 2298 2203
2315 2315 2219
1041 1041 1034
1080 1080 1069
1117 1117 1105
1382 1382 1351
1840 1840 1776
2186 2186 2098
2395 2395 2293
2452 2452 2346
2470 2470 2362
1104 1104 1092
1150 1150 1135
1188 1188 1170
1296 1296 1271
1759 1759 1701
2121 2121 2038
2466 2466 2359
2578 2578 2463
2600 2600 2483
1097 1097 1086
1145 1145 1131
1192 1192 1174
1234 1234 1213
1625 1625 1577
1988 1988 1914
2342 2342 2244
2648 2648 2529
2674 2674 2552
1089 1089 1078
1138 1138 1123
1190 1190 1172
1222 1222 1202
1573 1573 1528
1936 1936 1866
2299 2299 2203
2618 2618 2500
2656 2656 2535
640 640 661
673 673 691
932 932 932
1221 1221 1201
1543 1543 1501
1873 1873 1807
1942 1942 1872
1968 1968 1896
1978 1978 1905
650 650 670
688 688 705
912 912 914
1210 1210 1191
1540 1540 1497
1866 1866 1801
1955 1955 1884
1978 1978 1905
1997 1997 1923
778 778 789
825 825 833
1040 1040 1032
1335 1335 1307
1645 1645 1596
1980 1980 1906
2087 2087 2006
2101 2101 2019
2116 2116 2033
973 973 970
1012 1012 1007
1120 1120 1107
1538 1538 1496
1874 1874 1809
2194 2194 2106
2363 2363 2263
2367 2367 2267
2383 2383 2281
1161 1161 1146
1210 1210 1191
1256 1256 1234
1621 1621 1573
2073 2073 1993
2412 2412 2309
2611 2611 2493
2633 2633 2514
2644 2644 2525
1373 1373 1342
1409 1409 1376
1449 1449 1413
1682 1682 1629
2158 2158 2072
2607 2607 2490
2825 2825 2693
2886 2886 2750
2898 2898 2760
1447 1447 1411
1498 1498 1459
1540 1540 1498
1619 1619 1571
2095 2095 2014
2567 2567 2452
2894 2894 2757
3028 3028 2881
3035 3035 2888
1471 1471 1433
1514 1514 1473
1566 1566 1522
1618 1618 1570
1973 1973 1900
2460 2460 2354
2820 2820 2688
3115 3115 2962
3135 3135 2981
1453 1453 1416
1502 1502 1462
1561 1561 1517
1603 1603 1556
1918 1918 1849
2413 2413 2310
2766 2766 2638
3075 3075 2926
3130 3130 2976
684 684 701
711 711 726
944 944 944
1245 1245 1224
1589 1589 1543
1941 1941 1871
2082 2082 2002
2087 2087 2007
2110 2110 2028
712 712 727
755 755 768
957 957 955
1265 1265 1242
1595 1595 1549
1951 1951 1880
2138 2138 2054
2153 2153 2068
2173 2173 2087
852 852 858
908 908 910
1081 1081 1071
1382 1382 1350
1704 1704 1651
2051 2051 1973
2266 2266 2173
2285 2285 2191
2309 2309 2213
1106 1106 1094
1151 1151 1136
1224 1224 1203
1648 1648 1598
1984 1984 1910
2326 2326 2229
2615 2615 2497
2640 2640 2521
2657 2657 2536
1362 1362 1332
1400 1400 1368
1444 1444 1408
1778 1778 1719
2240 2240 2149
2587 2587 2471
2899 2899 2761
2945 2945 2804
2956 2956 2815
1587 1587 1542
1635 1635 1586
1676 1676 1624
1863 1863 1798
2340 2340 2242
2795 2795 2665
3113 3113 2961
3189 3189 3032
3207 3207 3048
1798 1798 1738
1853 1853 1789
1903 1903 1835
1957 1957 1886
2410 2410 2307
2876 2876 2740
3282 3282 3118
3410 3410 3237
3419 3419 3245
1859 1859 1794
1909 1909 1841
1956 1956 1885
1995 1995 1921
2311 2311 2214
2804 2804 2674
3233 3233 3072
3502 3502 3323
3526 3526 3345
1853 1853 1789
1899 1899 1832
1944 1944 1874
1989 1989 1915
2262 2262 2169
2753 2753 2626
3197 3197 3039
3485 3485 3307
3533 3533 3351
709 709 725
738 738 752
951 951 950
1254 1254 1231
1589 1589 1544
1948 1948 1877
2102 2102 2021
2143 2143 2059
2149 2149 2065
736 736 750
786 786 796
960 960 959
1281 1281 1256
1610 1610 1562
1967 1967 1894
2156 2156 2070
2198 2198 2109
2203 2203 2114
855 855 860
912 912 914
1062 1062 1053
1358 1358 1328
1686 1686 1633
2030 2030 1954
2264 2264 2171
2295 2295 2200
2321 2321 2224
1113 1113 1100
1159 1159 1144
1207 1207 1188
1621 1621 1573
1967 1967 1894
2308 2308 2212
2613 2613 2496
2656 2656 2536
2673 2673 2551
1371 1371 1340
1417 1417 1384
1461 1461 1424
1771 1771 1712
2232 2232 2141
2586 2586 2470
2914 2914 2775
3003 3003 2859
3023 3023 2877
1646 1646 1597
1706 1706 1652
1757 1757 1699
1896 1896 1829
2386 2386 2285
2849 2849 2715
3164 3164 3008
3330 3330 3162
3344 3344 3176
1953 1953 1882
2001 2001 1926
2050 2050 1972
2100 2100 2019
2526 2526 2415
2994 2994 2850
3395 3395 3223
3608 3608 3421
3624 3624 3436
2222 2222 2132
2274 2274 2180
2328 2328 2231
2370 2370 2270
2629 2629 2510
3094 3094 2943
3498 3498 3318
3806 3806 3605
3829 3829 3627
2243 2243 2151
2290 2290 2195
2328 2328 2230
2373 2373 2272
2581 2581 2466
3053 3053 2905
3467 3467 3290
3793 3793 3593
3840 3840 3637
727 727 741
757 757 769
972 972 969
1275 1275 1251
1605 1605 1559
1966 1966 1894
2138 2138 2054
2165 2165 2079
2192 2192 2104
764 764 776
813 813 821
982 982 979
1297 1297 1271
1624 1624 1575
1981 1981 1908
2199 2199 2110
2226 2226 2136
2246 2246 2154
883 883 887
933 933 933
1056 1056 1048
1364 1364 1334
1697 1697 1644
2038 2038 1961
2300 2300 2204
2330 2330 2233
2358 2358 2258
1130 1130 1116
1166 1166 1150
1214 1214 1194
1626 1626 1578
1974 1974 1901
2319 2319 2222
2633 2633 2514
2664 2664 2543
2704 2704 2580
1397 1397 1364
1449 1449 1413
1482 1482 1444
1777 1777 1718
2248 2248 2156
2590 2590 2474
2922 2922 2783
3016 3016 2871
3042 3042 2895
1666 1666 1615
1720 1720 1665
1767 1767 1709
1909 1909 1841
2389 2389 2287
2846 2846 2712
3170 3170 3014
3338 3338 3170
3367 3367 3197
1978 1978 1905
2024 2024 1948
2070 2070 1990
2107 2107 2025
2538 2538 2425
2992 2992 2848
3403 3403 3230
3626 3626 3438
3647 3647 3458
2240 2240 2149
2289 2289 2195
2353 2353 2254
2403 2403 2301
2644 2644 2525
3116 3116 2964
3519 3519 3339
3829 3829 3627
3869 3869 3664
2310 2310 2214
2360 2360 2260
2418 2418 2314
2470 2470 2363
2659 2659 2539
3132 3132 2979
3535 3535 3353
3849 3849 3645
3918 3918 3709
