滤镜资源/Professional Luts Collection/Triune-Digital-Cinematic-LUTs/3D LUTs (3DL)/LOG/BW/Noir 1 - LOG.3dl
# Created by Benjamin (IWLTBAP) : http://luts.iwltbap.com
# Copyright: (C) Copyright 2016 Triune Films and IWLTBAP
# Blockbuster LUTs Pack
0 256 512 768 1023
16 16 80
166 166 220
424 424 460
570 570 596
599 599 622
133 133 189
338 338 380
625 625 647
852 852 858
874 874 878
337 337 379
434 434 469
982 982 979
1327 1327 1299
1362 1362 1332
613 613 635
660 660 679
1134 1134 1120
1830 1830 1768
1949 1949 1878
684 684 701
757 757 770
1107 1107 1095
1852 1852 1788
2173 2173 2086
178 178 231
456 456 490
760 760 772
944 944 943
965 965 963
331 331 373
624 624 645
944 944 943
1172 1172 1155
1196 1196 1178
420 420 456
523 523 552
1068 1068 1058
1428 1428 1393
1447 1447 1411
662 662 681
743 743 756
1196 1196 1178
1907 1907 1839
2032 2032 1955
756 756 769
845 845 851
1192 1192 1174
1935 1935 1865
2279 2279 2185
461 461 494
756 756 768
1339 1339 1311
1583 1583 1538
1612 1612 1565
623 623 645
898 898 900
1478 1478 1440
1768 1768 1710
1800 1800 1740
962 962 960
1043 1043 1036
1880 1880 1814
2282 2282 2188
2315 2315 2219
1104 1104 1092
1188 1188 1170
1759 1759 1701
2466 2466 2359
2600 2600 2483
1089 1089 1078
1190 1190 1172
1573 1573 1528
2299 2299 2203
2656 2656 2535
684 684 701
944 944 944
1589 1589 1543
2082 2082 2002
2110 2110 2028
852 852 858
1081 1081 1071
1704 1704 1651
2266 2266 2173
2309 2309 2213
1362 1362 1332
1444 1444 1408
2240 2240 2149
2899 2899 2761
2956 2956 2815
1798 1798 1738
1903 1903 1835
2410 2410 2307
3282 3282 3118
3419 3419 3245
1853 1853 1789
1944 1944 1874
2262 2262 2169
3197 3197 3039
3533 3533 3351
727 727 741
972 972 969
1605 1605 1559
2138 2138 2054
2192 2192 2104
883 883 887
1056 1056 1048
1697 1697 1644
2300 2300 2204
2358 2358 2258
1397 1397 1364
1482 1482 1444
2248 2248 2156
2922 2922 2783
3042 3042 2895
1978 1978 1905
2070 2070 1990
2538 2538 2425
3403 3403 3230
3647 3647 3458
2310 2310 2214
2418 2418 2314
2659 2659 2539
3535 3535 3353
3918 3918 3709
