滤镜资源/Professional Luts Collection/Triune-Digital-Cinematic-LUTs/3D LUTs (3DL)/LOG/BW/Noir 1 - LOG.3dl
# Created by Benjamin (IWLTBAP) : http://luts.iwltbap.com
# Copyright: (C) Copyright 2016 Triune Films and IWLTBAP
# Blockbuster LUTs Pack
0 64 128 192 256 320 384 448 512 576 640 704 768 832 896 960 1023
16 16 80
33 33 96
67 67 128
108 108 166
166 166 220
217 217 267
281 281 327
347 347 388
424 424 460
487 487 519
551 551 578
567 567 593
570 570 596
573 573 599
580 580 605
589 589 614
599 599 622
33 33 96
51 51 113
86 86 146
124 124 181
177 177 230
229 229 279
288 288 333
355 355 395
421 421 457
497 497 527
561 561 587
579 579 604
585 585 609
588 588 612
597 597 620
608 608 631
617 617 640
62 62 123
71 71 131
128 128 184
176 176 229
221 221 271
280 280 326
339 339 381
407 407 444
480 480 511
558 558 584
621 621 643
630 630 651
637 637 657
645 645 665
652 652 671
661 661 681
674 674 692
92 92 151
101 101 160
142 142 197
218 218 268
276 276 322
340 340 382
408 408 445
469 469 502
550 550 577
627 627 648
715 715 730
726 726 741
731 731 745
739 739 753
747 747 760
755 755 768
766 766 778
133 133 189
140 140 196
155 155 209
248 248 296
338 338 380
407 407 444
473 473 505
550 550 577
625 625 647
710 710 726
790 790 800
849 849 855
852 852 858
854 854 860
859 859 865
866 866 871
874 874 878
184 184 237
191 191 243
197 197 248
271 271 318
364 364 404
467 467 500
546 546 573
633 633 655
705 705 721
801 801 810
882 882 885
953 953 952
958 958 956
963 963 961
971 971 969
984 984 980
998 998 993
220 220 270
235 235 284
247 247 295
287 287 332
386 386 424
502 502 533
631 631 652
711 711 727
800 800 809
883 883 887
988 988 984
1064 1064 1055
1076 1076 1066
1083 1083 1072
1093 1093 1082
1107 1107 1095
1121 1121 1108
285 285 330
298 298 342
308 308 352
323 323 365
408 408 444
530 530 558
661 661 680
799 799 809
893 893 896
981 981 978
1080 1080 1070
1174 1174 1158
1199 1199 1180
1204 1204 1185
1209 1209 1190
1218 1218 1198
1233 1233 1212
337 337 379
352 352 392
365 365 405
377 377 416
434 434 469
566 566 591
692 692 709
833 833 840
982 982 979
1084 1084 1073
1181 1181 1163
1281 1281 1256
1327 1327 1299
1339 1339 1310
1348 1348 1319
1355 1355 1326
1362 1362 1332
394 394 431
409 409 446
424 424 460
437 437 472
465 465 497
582 582 606
726 726 740
869 869 874
1027 1027 1021
1179 1179 1162
1284 1284 1259
1390 1390 1358
1471 1471 1433
1481 1481 1443
1485 1485 1446
1488 1488 1449
1496 1496 1457
469 469 502
482 482 514
493 493 524
505 505 535
517 517 547
614 614 636
754 754 767
903 903 905
1055 1055 1047
1225 1225 1205
1386 1386 1355
1502 1502 1462
1592 1592 1546
1616 1616 1568
1625 1625 1576
1635 1635 1586
1646 1646 1596
537 537 565
550 550 577
562 562 588
575 575 600
588 588 612
633 633 654
783 783 793
933 933 933
1090 1090 1079
1269 1269 1246
1432 1432 1397
1608 1608 1561
1727 1727 1672
1776 1776 1718
1780 1780 1721
1783 1783 1723
1792 1792 1732
613 613 635
620 620 642
628 628 649
644 644 664
660 660 679
674 674 692
806 806 815
970 970 967
1134 1134 1120
1297 1297 1271
1479 1479 1440
1665 1665 1614
1830 1830 1768
1915 1915 1847
1924 1924 1855
1934 1934 1864
1949 1949 1878
660 660 680
674 674 692
687 687 705
704 704 720
723 723 738
741 741 754
810 810 819
976 976 973
1146 1146 1131
1319 1319 1292
1497 1497 1458
1688 1688 1635
1875 1875 1810
2029 2029 1952
2056 2056 1977
2069 2069 1990
2084 2084 2004
672 672 690
688 688 705
701 701 718
717 717 733
737 737 751
756 756 768
794 794 803
949 949 948
1117 1117 1104
1295 1295 1270
1469 1469 1431
1666 1666 1615
1850 1850 1786
2033 2033 1956
2103 2103 2022
2117 2117 2034
2130 2130 2047
678 678 696
695 695 712
711 711 727
727 727 742
747 747 760
767 767 778
796 796 806
927 927 927
1094 1094 1083
1280 1280 1256
1460 1460 1424
1644 1644 1594
1839 1839 1776
2028 2028 1952
2119 2119 2036
2138 2138 2054
2152 2152 2067
684 684 701
701 701 718
719 719 734
737 737 751
757 757 770
777 777 788
809 809 818
940 940 939
1107 1107 1095
1285 1285 1260
1470 1470 1433
1645 1645 1595
1852 1852 1788
2038 2038 1961
2134 2134 2050
2153 2153 2068
2173 2173 2086
34 34 97
64 64 125
103 103 161
146 146 201
186 186 238
247 247 295
306 306 350
370 370 410
445 445 479
507 507 537
568 568 593
584 584 608
589 589 613
593 593 616
603 603 626
615 615 637
624 624 646
45 45 108
65 65 126
100 100 159
142 142 197
189 189 241
240 240 289
301 301 345
366 366 405
443 443 477
518 518 547
588 588 612
606 606 629
613 613 636
616 616 638
626 626 647
637 637 658
647 647 667
69 69 129
84 84 144
139 139 194
187 187 239
229 229 279
295 295 339
355 355 395
422 422 458
492 492 523
571 571 596
640 640 661
654 654 674
652 652 672
659 659 678
666 666 685
676 676 694
688 688 706
99 99 158
112 112 169
151 151 205
229 229 279
289 289 334
350 350 391
417 417 454
489 489 520
568 568 594
647 647 667
729 729 744
747 747 760
751 751 764
760 760 772
768 768 780
776 776 787
787 787 797
143 143 199
154 154 208
166 166 220
258 258 305
357 357 397
420 420 456
490 490 521
564 564 590
643 643 663
727 727 741
816 816 825
864 864 869
871 871 876
872 872 877
875 875 879
881 881 884
888 888 892
192 192 244
209 209 259
214 214 265
283 283 329
382 382 421
486 486 518
565 565 591
651 651 671
730 730 744
822 822 830
903 903 905
976 976 973
981 981 978
984 984 980
994 994 989
1006 1006 1001
1019 1019 1013
235 235 284
252 252 300
263 263 310
300 300 344
403 403 440
522 522 551
643 643 663
731 731 745
816 816 824
902 902 904
1005 1005 1000
1090 1090 1079
1105 1105 1093
1113 1113 1100
1121 1121 1108
1132 1132 1118
1145 1145 1130
294 294 339
311 311 354
322 322 365
338 338 380
428 428 464
547 547 574
677 677 695
814 814 822
912 912 913
1003 1003 998
1101 1101 1090
1196 1196 1177
1223 1223 1202
1229 1229 1208
1239 1239 1217
1249 1249 1227
1264 1264 1241
347 347 388
364 364 404
377 377 416
391 391 429
451 451 485
577 577 602
710 710 726
851 851 856
1000 1000 996
1103 1103 1091
1202 1202 1183
1303 1303 1277
1353 1353 1324
1365 1365 1335
1374 1374 1343
1380 1380 1349
1386 1386 1355
411 411 447
427 427 462
442 442 476
456 456 489
480 480 512
599 599 622
740 740 754
888 888 891
1047 1047 1039
1201 1201 1182
1309 1309 1282
1411 1411 1377
1491 1491 1452
1506 1506 1466
1513 1513 1473
1517 1517 1477
1526 1526 1484
481 481 513
500 500 531
512 512 542
525 525 553
539 539 567
633 633 654
774 774 785
925 925 926
1075 1075 1066
1244 1244 1223
1410 1410 1377
1523 1523 1482
1615 1615 1567
1640 1640 1591
1656 1656 1606
1670 1670 1619
1680 1680 1628
547 547 574
572 572 597
584 584 609
596 596 619
606 606 629
657 657 677
801 801 810
952 952 950
1113 1113 1101
1285 1285 1261
1451 1451 1415
1629 1629 1580
1749 1749 1692
1797 1797 1737
1805 1805 1744
1811 1811 1750
1822 1822 1760
627 627 648
645 645 665
655 655 674
671 671 689
685 685 702
699 699 715
823 823 831
984 984 981
1152 1152 1137
1316 1316 1290
1498 1498 1458
1685 1685 1633
1860 1860 1795
1936 1936 1866
1948 1948 1877
1961 1961 1889
1976 1976 1903
679 679 697
695 695 712
708 708 724
724 724 738
740 740 754
758 758 770
833 833 840
996 996 992
1167 1167 1151
1333 1333 1305
1514 1514 1473
1704 1704 1650
1894 1894 1827
2057 2057 1978
2078 2078 1998
2088 2088 2007
2103 2103 2021
689 689 706
706 706 722
720 720 735
739 739 753
758 758 770
777 777 788
814 814 822
966 966 964
1137 1137 1123
1317 1317 1290
1491 1491 1452
1690 1690 1637
1874 1874 1808
2057 2057 1979
2129 2129 2045
2139 2139 2055
2153 2153 2067
693 693 710
712 712 728
728 728 743
747 747 761
772 772 783
791 791 801
812 812 821
945 945 945
1114 1114 1101
1299 1299 1274
1481 1481 1442
1673 1673 1621
1859 1859 1794
2051 2051 1973
2143 2143 2058
2162 2162 2076
2176 2176 2089
699 699 715
718 718 733
736 736 750
757 757 770
782 782 792
802 802 811
825 825 832
959 959 958
1129 1129 1115
1304 1304 1278
1490 1490 1451
1674 1674 1623
1870 1870 1804
2061 2061 1982
2158 2158 2072
2177 2177 2090
2197 2197 2108
80 80 140
98 98 156
162 162 216
210 210 261
264 264 310
325 325 367
385 385 424
461 461 494
532 532 560
606 606 629
669 669 688
682 682 699
686 686 703
692 692 709
701 701 717
710 710 726
718 718 733
87 87 147
99 99 157
164 164 218
206 206 257
256 256 303
313 313 357
381 381 419
455 455 489
528 528 556
606 606 629
667 667 686
685 685 702
687 687 704
693 693 710
703 703 719
711 711 726
718 718 733
128 128 185
136 136 192
203 203 254
261 261 308
307 307 351
366 366 406
428 428 464
492 492 523
556 556 583
629 629 651
697 697 714
710 710 725
710 710 725
713 713 728
716 716 732
725 725 739
739 739 752
136 136 192
148 148 203
191 191 243
276 276 322
337 337 379
394 394 432
456 456 490
524 524 552
597 597 621
672 672 691
740 740 754
768 768 779
772 772 783
778 778 789
785 785 795
793 793 803
804 804 813
153 153 208
163 163 217
178 178 231
267 267 314
371 371 410
428 428 463
499 499 530
578 578 603
659 659 678
738 738 751
833 833 840
877 877 881
884 884 887
889 889 893
892 892 895
906 906 908
917 917 919
198 198 250
215 215 266
230 230 279
289 289 334
394 394 432
502 502 532
578 578 603
663 663 682
743 743 756
835 835 842
922 922 923
989 989 986
994 994 990
1001 1001 996
1013 1013 1008
1023 1023 1016
1034 1034 1027
246 246 295
263 263 310
280 280 326
310 310 354
414 414 451
536 536 564
653 653 672
745 745 758
827 827 834
922 922 923
1018 1018 1012
1111 1111 1098
1128 1128 1115
1136 1136 1121
1144 1144 1129
1152 1152 1137
1164 1164 1148
304 304 348
321 321 364
339 339 380
353 353 394
445 445 479
560 560 586
692 692 709
828 828 836
922 922 923
1021 1021 1015
1119 1119 1106
1212 1212 1192
1248 1248 1226
1257 1257 1234
1267 1267 1244
1278 1278 1254
1292 1292 1267
357 357 397
374 374 413
388 388 426
401 401 439
468 468 500
589 589 613
727 727 741
867 867 872
1018 1018 1013
1120 1120 1107
1220 1220 1200
1321 1321 1294
1377 1377 1346
1387 1387 1356
1395 1395 1363
1403 1403 1370
1409 1409 1376
428 428 463
443 443 477
458 458 491
471 471 504
495 495 526
618 618 640
754 754 767
904 904 906
1063 1063 1054
1220 1220 1200
1329 1329 1301
1429 1429 1395
1507 1507 1467
1533 1533 1491
1538 1538 1496
1541 1541 1499
1549 1549 1506
491 491 522
510 510 539
524 524 553
538 538 566
556 556 582
649 649 669
789 789 799
940 940 940
1097 1097 1086
1264 1264 1241
1426 1426 1392
1547 1547 1504
1641 1641 1591
1666 1666 1615
1682 1682 1630
1700 1700 1646
1712 1712 1657
558 558 585
583 583 608
606 606 629
618 618 641
627 627 648
673 673 691
819 819 827
971 971 968
1131 1131 1117
1303 1303 1277
1465 1465 1428
1649 1649 1599
1767 1767 1709
1817 1817 1755
1825 1825 1763
1836 1836 1772
1850 1850 1786
640 640 661
659 659 678
681 681 699
697 697 714
709 709 725
721 721 736
841 841 848
1010 1010 1005
1168 1168 1152
1334 1334 1306
1516 1516 1476
1703 1703 1649
1885 1885 1819
1960 1960 1888
1973 1973 1901
1987 1987 1913
2000 2000 1925
697 697 714
713 713 729
729 729 744
745 745 758
760 760 772
776 776 787
853 853 859
1017 1017 1012
1186 1186 1169
1353 1353 1323
1536 1536 1494
1724 1724 1669
1917 1917 1848
2084 2084 2004
2105 2105 2023
2111 2111 2028
2122 2122 2039
707 707 723
725 725 739
741 741 754
760 760 772
778 778 789
795 795 804
831 831 838
987 987 983
1153 1153 1137
1337 1337 1309
1512 1512 1471
1704 1704 1650
1894 1894 1827
2085 2085 2004
2158 2158 2072
2163 2163 2077
2172 2172 2086
710 710 725
729 729 743
747 747 760
766 766 778
793 793 803
812 812 821
830 830 837
963 963 961
1137 1137 1123
1316 1316 1289
1496 1496 1457
1696 1696 1642
1873 1873 1808
2074 2074 1994
2168 2168 2082
2188 2188 2100
2198 2198 2109
714 714 730
733 733 747
752 752 765
774 774 785
802 802 811
826 826 834
841 841 848
979 979 975
1149 1149 1134
1325 1325 1297
1508 1508 1468
1706 1706 1652
1883 1883 1816
2083 2083 2003
2181 2181 2094
2201 2201 2112
2221 2221 2131
125 125 182
140 140 196
210 210 261
290 290 335
356 356 397
413 413 450
484 484 515
558 558 584
636 636 657
718 718 733
785 785 796
796 796 806
804 804 813
817 817 825
825 825 832
830 830 837
837 837 844
126 126 183
140 140 196
203 203 254
289 289 334
349 349 390
409 409 446
482 482 513
558 558 584
635 635 656
724 724 739
794 794 803
805 805 814
806 806 815
818 818 826
830 830 838
840 840 846
