滤镜资源/Professional Luts Collection/Triune-Digital-Cinematic-LUTs/3D LUTs (CUBE)/LOG/300 - LOG.cube
#Created by Benjamin (IWLTBAP) : http://luts.iwltbap.com
#Copyright: (C) Copyright 2016 Triune Films and IWLTBAP
TITLE "Blockbuster LUTs Pack (LOG)"
#LUT size
LUT_3D_SIZE 5
#LUT data points
DOMAIN_MIN 0.000000 0.000000 0.000000
DOMAIN_MAX 0.903226 0.903226 0.903226
0.000000 0.000000 0.000000
0.163635 0.004150 0.001373
0.423157 0.025513 0.010040
0.669739 0.059509 0.030609
0.725952 0.068115 0.037598
0.014771 0.119934 0.004303
0.121674 0.110535 0.004700
0.379333 0.126617 0.013794
0.673401 0.141754 0.040833
0.732208 0.132904 0.045563
0.071381 0.330566 0.030396
0.117340 0.320618 0.030182
0.327026 0.309113 0.035065
0.616821 0.333008 0.065552
0.747162 0.336761 0.076874
0.138092 0.569855 0.077850
0.171417 0.559845 0.076752
0.324493 0.545624 0.079010
0.567139 0.538971 0.088043
0.766876 0.558899 0.109741
0.187012 0.727631 0.111084
0.225891 0.730072 0.112457
0.323120 0.738037 0.116882
0.576508 0.760162 0.129517
0.821625 0.784668 0.144989
0.001801 0.004944 0.129913
0.164490 0.009949 0.132355
0.428131 0.040649 0.146576
0.683838 0.070160 0.146729
0.739563 0.075409 0.135742
0.022522 0.125397 0.108551
0.141907 0.129150 0.110504
0.395782 0.131378 0.110870
0.681519 0.144165 0.114532
0.740051 0.132935 0.101929
0.074463 0.330841 0.085144
0.122009 0.325806 0.079193
0.332794 0.313599 0.075287
0.628448 0.339050 0.106506
0.763000 0.342194 0.117950
0.138428 0.567627 0.113403
0.179718 0.566193 0.118408
0.331390 0.552826 0.120453
0.579559 0.549744 0.130951
0.785828 0.573822 0.154907
0.190033 0.730621 0.147705
0.240692 0.746765 0.156433
0.335297 0.753845 0.161224
0.589508 0.776428 0.174530
0.837128 0.801056 0.190338
0.020996 0.044647 0.370453
0.187897 0.049103 0.368774
0.428162 0.065277 0.370758
0.684723 0.100494 0.385498
0.742462 0.106354 0.377747
0.052063 0.157532 0.344849
0.169281 0.160675 0.348541
0.400391 0.153717 0.345276
0.693390 0.165985 0.361664
0.757965 0.153076 0.350922
0.090332 0.342621 0.311371
0.130402 0.337860 0.306549
0.375610 0.351166 0.318695
0.677673 0.363495 0.326660
0.810303 0.360657 0.320984
0.150482 0.574585 0.288879
0.192352 0.574280 0.287720
0.374969 0.594574 0.296478
0.620361 0.586548 0.285645
0.835632 0.611145 0.291779
0.199615 0.740570 0.259338
0.249359 0.755157 0.260803
0.358856 0.784546 0.261078
0.605469 0.798523 0.246857
0.850311 0.815308 0.236725
0.035675 0.078217 0.561707
0.198395 0.083771 0.571075
0.449036 0.099243 0.592834
0.701599 0.123840 0.617126
0.755920 0.132629 0.624817
0.071350 0.188812 0.575012
0.187347 0.193756 0.590881
0.427124 0.186768 0.602661
0.697968 0.184906 0.611908
0.766327 0.174927 0.605682
0.122406 0.376984 0.579773
0.163147 0.372772 0.575836
0.428711 0.403290 0.603668
0.694580 0.400604 0.602539
0.836548 0.405640 0.607697
0.168640 0.589142 0.543030
0.211304 0.589417 0.541718
0.391602 0.611938 0.557434
0.690369 0.654266 0.589874
0.901611 0.660187 0.597290
0.225433 0.767578 0.521271
0.276886 0.783722 0.524658
0.376984 0.811005 0.528900
0.683258 0.885651 0.576111
0.934479 0.904175 0.572662
0.040741 0.086975 0.609589
0.196869 0.092377 0.618134
0.448334 0.106354 0.638641
0.708618 0.130951 0.664185
0.759918 0.136292 0.668976
0.075134 0.192780 0.621887
0.186005 0.196686 0.637604
0.428589 0.189362 0.651794
0.702301 0.188110 0.673676
0.773193 0.182404 0.679626
0.129639 0.382538 0.650330
0.172913 0.381348 0.657318
0.443146 0.419800 0.709686
0.715027 0.421539 0.731842
0.845978 0.412811 0.740906
0.192291 0.612335 0.690033
0.241486 0.618408 0.701691
0.422882 0.646942 0.740143
0.729034 0.697540 0.807922
0.922272 0.695557 0.825531
0.244934 0.789825 0.724731
0.298523 0.807678 0.739502
0.389618 0.833832 0.761475
0.705994 0.912842 0.841675
0.989594 0.966858 0.918793
