滤镜资源/Professional Luts Collection/Triune-Digital-Cinematic-LUTs/3D LUTs (CUBE)/LOG/300 - LOG.cube
#Created by Benjamin (IWLTBAP) : http://luts.iwltbap.com
#Copyright: (C) Copyright 2016 Triune Films and IWLTBAP
TITLE "Blockbuster LUTs Pack (LOG)"
#LUT size
LUT_3D_SIZE 8
#LUT data points
DOMAIN_MIN 0.000000 0.000000 0.000000
DOMAIN_MAX 0.903226 0.903226 0.903226
0.000000 0.000000 0.000000
0.064575 0.001068 0.000214
0.198456 0.006073 0.002106
0.344940 0.018372 0.006409
0.503815 0.035767 0.014771
0.655762 0.057709 0.029266
0.694275 0.063110 0.033569
0.725952 0.068115 0.037598
0.003326 0.045044 0.000977
0.042694 0.040558 0.001190
0.177277 0.044464 0.002960
0.325256 0.049316 0.006683
0.484009 0.057892 0.014191
0.648193 0.081146 0.031433
0.695801 0.087799 0.036774
0.727783 0.092255 0.040283
0.022522 0.148285 0.005981
0.041107 0.142883 0.005615
0.149139 0.137604 0.006500
0.291870 0.147614 0.010345
0.453217 0.156189 0.024414
0.628967 0.165649 0.039642
0.704895 0.161896 0.046967
0.736359 0.160217 0.049408
0.054596 0.267273 0.018524
0.073853 0.262787 0.017944
0.145721 0.254822 0.018280
0.265991 0.249786 0.021729
0.416687 0.260498 0.036835
0.590271 0.273804 0.053772
0.707886 0.276123 0.064606
0.741119 0.274841 0.066742
0.089294 0.396606 0.043304
0.108398 0.391785 0.042908
0.143677 0.383545 0.042389
0.262360 0.377075 0.044861
0.392029 0.370544 0.048615
0.548950 0.380707 0.064789
0.717804 0.401825 0.083557
0.751831 0.400024 0.085815
0.127991 0.534027 0.070862
0.147614 0.530182 0.070526
0.166534 0.521912 0.069366
0.261932 0.513489 0.070587
0.389435 0.507263 0.073639
0.528503 0.501953 0.079315
0.706421 0.523224 0.099426
0.762665 0.527069 0.105438
0.173889 0.685547 0.102142
0.193115 0.681335 0.101624
0.211365 0.673248 0.100525
0.266083 0.664490 0.100494
0.399231 0.661743 0.104614
0.540527 0.659027 0.108765
0.691315 0.657501 0.115082
0.792908 0.667480 0.126434
0.187012 0.727631 0.111084
0.209076 0.729065 0.111877
0.231689 0.730713 0.112732
0.257812 0.732971 0.114105
0.393524 0.743469 0.119995
0.538208 0.756500 0.127228
0.691620 0.770691 0.135986
0.821625 0.784668 0.144989
0.000000 0.001312 0.054443
0.064240 0.002472 0.053833
0.201172 0.008759 0.053436
0.350708 0.021851 0.051971
0.507324 0.038483 0.053253
0.658722 0.059662 0.052582
0.697540 0.065369 0.056885
0.729065 0.069763 0.060486
0.005798 0.048584 0.045105
0.055573 0.045959 0.040985
0.186096 0.046967 0.038116
0.328949 0.049957 0.034180
0.486084 0.059662 0.036835
0.650299 0.083130 0.054688
0.699097 0.089264 0.059357
0.731049 0.094513 0.063538
0.023865 0.148773 0.025452
0.046387 0.146759 0.022858
0.152924 0.140625 0.024292
0.297577 0.150574 0.033600
0.459076 0.157104 0.046722
0.632416 0.165802 0.062500
0.708069 0.162201 0.069275
0.739197 0.160736 0.072296
0.055359 0.267426 0.038788
0.078491 0.266479 0.041229
0.149750 0.258453 0.041687
0.270325 0.253906 0.045624
0.422852 0.264893 0.060760
0.596985 0.276825 0.076874
0.718201 0.279785 0.087708
0.750427 0.276520 0.089905
0.090027 0.396240 0.063202
0.112885 0.395355 0.066010
0.147217 0.387604 0.065521
0.266388 0.380188 0.068176
0.396027 0.374207 0.071777
0.556610 0.386627 0.089447
0.730225 0.409149 0.107727
0.763489 0.406189 0.110443
0.128906 0.533630 0.091095
0.152100 0.533813 0.093964
0.170654 0.525879 0.092896
0.266296 0.517883 0.094299
0.395325 0.511932 0.097137
0.534149 0.506927 0.103210
0.714661 0.530640 0.124695
0.774353 0.535797 0.130585
0.174347 0.684967 0.121857
0.199371 0.687317 0.125397
0.218689 0.680023 0.124939
0.272766 0.671692 0.124908
0.406891 0.669128 0.128693
0.547943 0.666077 0.133240
0.699951 0.665466 0.140289
0.802673 0.675873 0.152496
0.189056 0.729584 0.131805
0.217560 0.738892 0.137024
0.240387 0.740784 0.137817
0.265472 0.742554 0.139191
0.401520 0.753448 0.145538
0.545990 0.766205 0.152618
0.699707 0.780334 0.161713
0.830475 0.794434 0.171051
0.003662 0.006866 0.162048
0.077637 0.009003 0.162079
0.199677 0.017181 0.164154
0.345978 0.036621 0.173431
0.509003 0.053864 0.180115
0.667664 0.072662 0.182312
0.709045 0.076691 0.173553
0.741028 0.080170 0.169891
0.012878 0.060303 0.150848
0.070740 0.062622 0.153503
0.186401 0.059265 0.152039
0.332336 0.062286 0.158691
0.494476 0.072754 0.163239
0.662170 0.091980 0.165283
0.714630 0.098541 0.158081
0.745270 0.102325 0.155151
0.031494 0.154022 0.134247
0.055328 0.153534 0.132996
0.173035 0.158539 0.137756
0.316162 0.158173 0.137878
0.472839 0.162537 0.139435
0.640564 0.169495 0.141571
0.717285 0.164917 0.134155
0.747925 0.162994 0.131592
0.060974 0.270447 0.122192
0.084351 0.269928 0.121765
0.161682 0.270599 0.121338
0.280823 0.262848 0.114502
0.435760 0.272247 0.117035
0.606964 0.279327 0.119049
0.726898 0.280365 0.114319
0.758179 0.276154 0.112701
0.091766 0.395355 0.107910
0.115387 0.395630 0.107788
0.150696 0.391144 0.102417
0.268188 0.381744 0.093170
0.398499 0.376556 0.095184
0.562714 0.390686 0.114105
0.739594 0.413086 0.131683
0.773621 0.410278 0.134430
0.129395 0.531677 0.111328
0.152557 0.532104 0.114410
0.174286 0.527649 0.116272
0.268677 0.520325 0.117889
0.398682 0.515167 0.121399
0.539612 0.511810 0.127502
0.722015 0.536713 0.150024
0.785431 0.542999 0.156006
0.174316 0.682831 0.142975
0.200409 0.686401 0.146698
0.225433 0.685333 0.149475
0.277924 0.677673 0.149200
0.412903 0.674561 0.153687
0.554352 0.672485 0.158569
0.706757 0.671539 0.165741
0.810883 0.682739 0.178375
0.190369 0.730988 0.152954
0.219025 0.739594 0.157532
0.248444 0.749542 0.163025
0.271515 0.751129 0.164581
0.408417 0.762238 0.171417
0.552856 0.775177 0.178650
0.706329 0.789124 0.187805
0.839172 0.803314 0.196838
0.014252 0.031799 0.298523
0.088745 0.032715 0.295959
0.214508 0.039062 0.297668
0.348694 0.048706 0.298401
0.503479 0.071228 0.309204
0.667206 0.089478 0.318665
0.709320 0.093567 0.311157
0.741791 0.097595 0.308380
0.028290 0.080353 0.284882
0.081360 0.080963 0.286621
0.200012 0.075623 0.284424
0.332611 0.070984 0.283356
0.489410 0.091034 0.294769
0.661926 0.110443 0.305145
0.717804 0.116638 0.299377
0.749176 0.119049 0.295898
0.048859 0.171753 0.268799
0.072266 0.170471 0.267487
0.190002 0.176727 0.273651
0.318024 0.171539 0.270477
0.476929 0.175751 0.278381
0.651886 0.181244 0.283661
0.734406 0.175476 0.277344
0.765778 0.172913 0.273285
0.069458 0.277557 0.250244
0.093109 0.276886 0.249695
0.168610 0.276642 0.249207
0.304016 0.283600 0.255157
0.459015 0.283112 0.255554
0.631165 0.289825 0.259521
0.754578 0.291901 0.258850
0.784851 0.286804 0.253448
0.101959 0.402771 0.237427
0.124786 0.402588 0.236694
0.156250 0.398010 0.232330
0.293396 0.405273 0.238647
0.425568 0.400391 0.233002
0.603638 0.420166 0.241760
0.775940 0.432587 0.244507
0.806824 0.425720 0.236450
0.135925 0.536530 0.223663
0.159943 0.536865 0.223999
0.181763 0.532532 0.219208
0.290741 0.542450 0.224304
0.421967 0.536255 0.216949
0.563202 0.531403 0.209991
0.744873 0.555542 0.219482
0.808655 0.558258 0.214417
0.177582 0.683777 0.211670
0.204895 0.687653 0.212555
0.229736 0.686432 0.209656
0.290039 0.690948 0.207275
0.422638 0.684784 0.198944
0.561005 0.678802 0.193024
0.709991 0.674988 0.190308
0.818176 0.687042 0.203949
0.192932 0.733551 0.188690
0.222076 0.742645 0.191528
0.251343 0.751434 0.191803
0.278931 0.759247 0.190094
0.413300 0.770050 0.196686
0.558411 0.784058 0.205170
0.711670 0.797485 0.214355
0.846832 0.811462 0.223236
0.026489 0.057129 0.444153
0.097351 0.058746 0.441223
0.224274 0.062134 0.441040
0.364197 0.071259 0.443756
0.510559 0.082611 0.445129
0.667053 0.106476 0.455444
0.709717 0.112213 0.449677
0.740906 0.114960 0.447601
0.040588 0.100952 0.429504
0.090027 0.101379 0.430237
0.210846 0.094299 0.428345
0.347839 0.092163 0.428497
0.494324 0.103546 0.430786
0.659241 0.127930 0.443054
0.716766 0.134247 0.439026
0.750031 0.137970 0.438507
0.064362 0.191559 0.414520
0.088654 0.189728 0.412567
0.204926 0.195526 0.418518
0.336212 0.190918 0.416809
0.477753 0.188354 0.415222
0.645630 0.197510 0.426025
0.735931 0.192810 0.424194
0.767334 0.189484 0.421997
0.087860 0.295685 0.395416
0.110870 0.294647 0.394287
0.184875 0.296417 0.396545
0.324615 0.304108 0.403809
0.463409 0.299377 0.400299
0.641846 0.309265 0.413086
0.773956 0.310822 0.414795
0.804871 0.306122 0.410095
0.111298 0.409393 0.374146
0.134521 0.410156 0.374207
0.161743 0.405212 0.369690
0.300964 0.413757 0.377563
0.459198 0.429901 0.389709
0.635101 0.438660 0.394867
0.805267 0.447296 0.399384
0.837128 0.440155 0.393097
0.146942 0.544342 0.362640
0.170837 0.544952 0.363068
0.193146 0.540558 0.358673
0.299164 0.550537 0.364532
0.460602 0.573944 0.378662
0.605682 0.569611 0.373413
0.793610 0.595978 0.385406
0.857971 0.593689 0.379395
0.189545 0.692017 0.351929
0.216095 0.695862 0.353577
0.242859 0.696716 0.352386
0.298309 0.699707 0.351166
0.464417 0.727478 0.367279
0.603699 0.720795 0.359894
0.752960 0.716034 0.352814
0.860962 0.725708 0.357239
0.206238 0.747559 0.331940
0.235291 0.756378 0.333801
0.264648 0.765533 0.334198
0.292694 0.773590 0.329498
0.449127 0.812988 0.344666
0.591522 0.821777 0.338379
0.741608 0.831787 0.332062
0.875702 0.841614 0.325592
0.035431 0.077087 0.555237
0.103119 0.078888 0.558777
0.232788 0.084015 0.566498
0.374542 0.092285 0.576141
0.525726 0.104523 0.587036
0.676483 0.118317 0.594879
0.723053 0.125153 0.593384
0.753296 0.129486 0.592407
0.050476 0.119904 0.558899
0.095276 0.119781 0.563446
0.219666 0.112152 0.566223
0.360565 0.115479 0.571899
0.510590 0.125854 0.579437
0.668152 0.140228 0.586700
0.728241 0.149231 0.585144
0.758972 0.153687 0.583557
0.077942 0.211609 0.560364
0.102783 0.210419 0.561218
0.217499 0.216919 0.570618
0.350128 0.211090 0.570496
0.496582 0.208496 0.569977
0.651611 0.207703 0.570587
0.741913 0.206238 0.570740
0.772186 0.203918 0.568237
0.104492 0.315277 0.548767
0.129272 0.315216 0.549316
0.199951 0.316864 0.550629
0.348236 0.329590 0.563263
0.491272 0.326233 0.561798
0.646393 0.326447 0.562225
0.782501 0.337982 0.572510
0.812958 0.332611 0.568909
0.130798 0.429718 0.530060
0.155029 0.430511 0.530304
0.178253 0.425049 0.525024
0.327454 0.440948 0.538330
0.494629 0.463226 0.557739
0.645142 0.461731 0.555908
0.820251 0.473572 0.570374
0.854858 0.464874 0.563965
0.156372 0.551971 0.507843
0.181183 0.553497 0.509064
0.202911 0.548676 0.504059
0.307617 0.560516 0.512390
0.470764 0.583832 0.529510
0.644745 0.608215 0.548035
0.823761 0.617615 0.556152
0.888550 0.614441 0.553497
0.202454 0.703033 0.500397
0.229462 0.707581 0.503235
0.255707 0.707733 0.501831
0.307495 0.709564 0.501648
0.474396 0.737823 0.520874
0.644012 0.762695 0.539734
0.793945 0.758453 0.534180
0.910309 0.773651 0.547211
0.221619 0.762909 0.481323
0.251434 0.773285 0.484863
0.280518 0.782104 0.485413
0.308716 0.790466 0.482147
0.461182 0.828827 0.500427
0.634857 0.869843 0.525085
0.785065 0.881744 0.524384
0.923065 0.892426 0.521576
0.038208 0.082031 0.582367
0.101318 0.083801 0.585175
0.231720 0.089020 0.593994
0.374054 0.097137 0.605438
0.525604 0.109314 0.619720
0.679474 0.123749 0.634613
0.726837 0.129822 0.639862
0.758026 0.134033 0.644196
0.051605 0.120941 0.587006
0.091064 0.120422 0.591949
0.217468 0.113159 0.597107
0.360291 0.120789 0.608002
0.512817 0.132385 0.622101
0.672852 0.148285 0.638519
0.733429 0.155060 0.645172
0.765015 0.160370 0.649902
0.080780 0.214539 0.599335
0.105804 0.214508 0.602722
0.217743 0.220276 0.616943
0.352203 0.215851 0.625214
0.501892 0.214294 0.636444
0.662323 0.217224 0.651581
0.746826 0.208649 0.655212
0.778015 0.206818 0.659821
0.111298 0.322418 0.615356
0.136292 0.322968 0.619232
0.203949 0.324646 0.629059
0.360992 0.344482 0.656189
0.509277 0.344208 0.668121
0.668976 0.346680 0.682312
0.792023 0.345123 0.692139
0.823059 0.342163 0.696136
0.143066 0.442078 0.634460
0.168152 0.443451 0.638245
0.192505 0.440063 0.641174
0.350037 0.466034 0.673157
0.522522 0.492737 0.707916
0.677368 0.494049 0.719208
0.829407 0.493530 0.726044
0.865479 0.490173 0.724915
0.177826 0.573486 0.655884
0.205078 0.577057 0.661560
0.231781 0.576843 0.664215
0.338440 0.594238 0.681976
0.504944 0.620392 0.707520
0.680115 0.646149 0.732819
0.835114 0.645142 0.733917
0.904541 0.648529 0.738556
0.214722 0.713348 0.656250
0.243530 0.718933 0.659973
0.269012 0.718170 0.658295
0.315460 0.720581 0.658447
0.484009 0.748383 0.680511
0.656219 0.774567 0.703888
0.831482 0.799896 0.732422
0.946198 0.803345 0.737579
0.237030 0.780334 0.639648
0.267090 0.790253 0.643402
0.296661 0.799072 0.644897
0.325348 0.806824 0.641632
0.473297 0.846252 0.663269
0.649689 0.887573 0.694092
0.829651 0.930786 0.730011
0.970703 0.942902 0.730774
0.040741 0.086975 0.609589
0.100677 0.088470 0.612061
0.231720 0.093689 0.620636
0.373749 0.101410 0.631744
0.526672 0.113464 0.646240
0.681732 0.128143 0.661377
0.730530 0.133392 0.666504
0.759918 0.136292 0.668976
0.053009 0.123901 0.613678
0.090149 0.123322 0.618195
0.217529 0.117950 0.623505
0.361359 0.125885 0.635101
0.513672 0.137207 0.649323
0.674622 0.152557 0.665039
0.738068 0.159302 0.671936
0.767212 0.162384 0.675110
0.082794 0.217072 0.625702
0.107666 0.217010 0.629150
0.217865 0.222839 0.644135
0.353058 0.217926 0.651154
0.502960 0.216705 0.662781
0.664124 0.219452 0.678619
0.752289 0.211212 0.682800
0.780090 0.206299 0.684662
0.113556 0.324219 0.641571
0.138702 0.325104 0.645630
0.204773 0.327332 0.655487
0.363556 0.347198 0.683807
0.511688 0.347443 0.696198
0.671478 0.349945 0.710022
0.797058 0.348297 0.720978
0.824310 0.341492 0.721771
0.145325 0.444366 0.660706
0.170837 0.445557 0.665100
0.195435 0.441925 0.668610
0.351868 0.468811 0.700745
0.524689 0.495758 0.735962
0.679565 0.496582 0.748566
0.833313 0.497681 0.761688
0.867493 0.489990 0.762390
0.181274 0.574951 0.682281
0.209961 0.580780 0.689362
0.236908 0.581451 0.695587
0.341522 0.598877 0.718048
0.510834 0.626984 0.753967
0.688446 0.656738 0.793518
0.844696 0.658966 0.808228
0.910919 0.653076 0.811859
0.224731 0.722198 0.711090
0.254120 0.728394 0.719421
0.282104 0.731049 0.725800
0.327667 0.733337 0.735138
0.500549 0.766235 0.773438
0.675995 0.795654 0.813934
0.855438 0.826202 0.859283
0.959351 0.821869 0.866089
0.244934 0.789825 0.724731
0.275879 0.800446 0.733490
0.306122 0.810181 0.741516
0.336029 0.819214 0.748962
0.480835 0.857971 0.783997
0.660675 0.901947 0.829254
0.842804 0.946594 0.878754
0.989594 0.966858 0.918793
