滤镜资源/Professional Luts Collection/Triune-Digital-Cinematic-LUTs/3D LUTs (CUBE)/LOG/300 - LOG.cube
#Created by Benjamin (IWLTBAP) : http://luts.iwltbap.com
#Copyright: (C) Copyright 2016 Triune Films and IWLTBAP
TITLE "Blockbuster LUTs Pack (LOG)"
#LUT size
LUT_3D_SIZE 32
#LUT data points
0.000000 0.000000 0.000000
0.003754 0.000122 0.000000
0.014801 0.000427 0.000000
0.035980 0.000610 0.000000
0.064575 0.001068 0.000214
0.097290 0.002075 0.000824
0.129700 0.002808 0.001251
0.163635 0.004150 0.001373
0.198456 0.006073 0.002106
0.234192 0.008362 0.003204
0.270844 0.011078 0.003937
0.307159 0.014343 0.005188
0.344940 0.018372 0.006409
0.383698 0.021729 0.007843
0.423157 0.025513 0.010040
0.463318 0.029938 0.012177
0.503815 0.035767 0.014771
0.545105 0.041779 0.017670
0.587311 0.047729 0.021973
0.629913 0.054047 0.026642
0.655762 0.057709 0.029266
0.669739 0.059509 0.030609
0.678101 0.060608 0.031586
0.686279 0.061951 0.032593
0.694275 0.063110 0.033569
0.702301 0.064423 0.034668
0.710236 0.065704 0.035706
0.718018 0.066956 0.036713
0.725952 0.068115 0.037598
0.733917 0.069244 0.038513
0.741882 0.070496 0.039398
0.749725 0.071625 0.040253
0.000275 0.003143 0.000092
0.003235 0.003143 0.000092
0.012329 0.003418 0.000092
0.031250 0.003754 0.000183
0.060486 0.004059 0.000214
0.092926 0.005096 0.000824
0.125702 0.005859 0.001404
0.159546 0.007080 0.001495
0.194183 0.008850 0.002106
0.230042 0.012024 0.003265
0.267059 0.015137 0.003967
0.303101 0.018311 0.005188
0.341064 0.022491 0.006439
0.379944 0.025848 0.007721
0.419525 0.029510 0.009979
0.459808 0.035950 0.012207
0.500244 0.041199 0.014496
0.541382 0.047363 0.017517
0.584412 0.053528 0.022522
0.627258 0.059723 0.027100
0.654877 0.063660 0.029907
0.670166 0.065704 0.031586
0.678436 0.066803 0.032410
0.686584 0.068054 0.033447
0.694794 0.069427 0.034515
0.702728 0.070496 0.035400
0.710663 0.071747 0.036407
0.718567 0.072998 0.037445
0.726440 0.074066 0.038330
0.734436 0.075256 0.039215
0.742432 0.076569 0.040009
0.750366 0.077759 0.040863
0.001007 0.011719 0.000336
0.003937 0.011017 0.000336
0.010620 0.010315 0.000305
0.028015 0.010010 0.000366
0.056458 0.009216 0.000488
0.089111 0.009338 0.000885
0.121490 0.008942 0.001434
0.155518 0.010132 0.001587
0.190002 0.012390 0.002197
0.225769 0.016083 0.003235
0.262695 0.019287 0.004059
0.299194 0.022522 0.005249
0.336853 0.026581 0.006317
0.375793 0.030060 0.007782
0.415527 0.035370 0.009979
0.455841 0.041443 0.012207
0.496582 0.047058 0.014465
0.537994 0.053040 0.017700
0.580566 0.058990 0.022583
0.624176 0.065399 0.027588
0.653900 0.069580 0.030579
0.670685 0.071838 0.032410
0.678864 0.072998 0.033264
0.686981 0.074280 0.034241
0.695129 0.075531 0.035461
0.703186 0.076691 0.036316
0.711121 0.077759 0.037140
0.719025 0.078918 0.038239
0.726959 0.080048 0.039032
0.735016 0.081177 0.039825
0.742920 0.082489 0.040771
0.750946 0.083801 0.041656
0.002045 0.027222 0.000671
0.004944 0.026337 0.000671
0.009430 0.025208 0.000641
0.024628 0.023621 0.000580
0.049347 0.022888 0.001007
0.082520 0.022888 0.001038
0.114899 0.022034 0.001587
0.150269 0.022522 0.002106
0.184204 0.022675 0.002502
0.219818 0.023895 0.003174
0.256500 0.025299 0.004181
0.293396 0.026642 0.005219
0.330658 0.030426 0.006226
0.369751 0.035828 0.007843
0.409393 0.041016 0.009735
0.449585 0.046509 0.012054
0.490479 0.052490 0.014343
0.532135 0.058319 0.017578
0.573883 0.064148 0.022247
0.618317 0.070953 0.027679
0.652466 0.075439 0.031128
0.671692 0.078064 0.033234
0.679443 0.079163 0.034058
0.687317 0.080475 0.035187
0.695465 0.081787 0.036163
0.703522 0.082886 0.037048
0.711456 0.084015 0.038025
0.719421 0.085114 0.038818
0.727448 0.086151 0.039734
0.735474 0.087311 0.040558
0.743500 0.088684 0.041473
0.751465 0.089935 0.042358
0.003326 0.045044 0.000977
0.006317 0.044098 0.001038
0.009277 0.043182 0.001129
0.022095 0.041840 0.001251
0.042694 0.040558 0.001190
0.073212 0.040405 0.001740
0.107361 0.041443 0.001770
0.141846 0.042450 0.002380
0.177277 0.044464 0.002960
0.213501 0.044952 0.003784
0.250305 0.046539 0.004578
0.287933 0.048187 0.005798
0.325256 0.049316 0.006683
0.363739 0.050751 0.008057
0.402893 0.051697 0.009827
0.443176 0.052246 0.011932
0.484009 0.057892 0.014191
0.525787 0.063354 0.017456
0.567261 0.069183 0.021881
0.612061 0.076141 0.027618
0.648193 0.081146 0.031433
0.672211 0.084351 0.033966
0.680054 0.085449 0.034912
0.687805 0.086548 0.035767
0.695801 0.087799 0.036774
0.703857 0.088959 0.037628
0.711823 0.090088 0.038544
0.719727 0.091125 0.039429
0.727783 0.092255 0.040283
0.735870 0.093414 0.041168
0.743927 0.094757 0.042084
0.751953 0.096069 0.042908
0.004974 0.064392 0.001526
0.007751 0.063446 0.001495
0.010742 0.062439 0.001556
0.019470 0.060944 0.001678
0.041870 0.059570 0.001862
0.067352 0.058746 0.001923
0.098969 0.061981 0.002472
0.133575 0.064728 0.002655
0.169098 0.067291 0.003357
0.205078 0.069702 0.004059
0.241821 0.070282 0.005188
0.279327 0.072296 0.005951
0.317963 0.074188 0.007202
0.357849 0.075684 0.008423
0.396973 0.076904 0.010345
0.436890 0.078278 0.012421
0.477203 0.080261 0.015137
0.518646 0.082458 0.019104
0.561066 0.085175 0.023163
0.605011 0.087738 0.027893
0.644592 0.090424 0.031952
0.672791 0.091461 0.034912
0.680573 0.091431 0.035583
0.688416 0.092651 0.036469
0.696350 0.093781 0.037354
0.704254 0.095032 0.038300
0.712250 0.096222 0.039185
0.720245 0.097260 0.040009
0.728210 0.098358 0.040863
0.736298 0.099548 0.041870
0.744385 0.100708 0.042694
0.752472 0.102081 0.043610
0.008240 0.091553 0.002930
0.011719 0.090546 0.002869
0.015747 0.089569 0.002838
0.020203 0.087769 0.002716
0.041656 0.085999 0.002777
0.067383 0.085144 0.002747
0.094696 0.084503 0.003235
0.126099 0.086639 0.003754
0.160034 0.090118 0.004364
0.196442 0.092987 0.005035
0.233002 0.095123 0.005768
0.271240 0.097046 0.006958
0.309082 0.098419 0.007751
0.348328 0.099792 0.009155
0.388855 0.101929 0.011230
0.429932 0.103516 0.014252
0.472046 0.104767 0.017883
0.512482 0.106781 0.021515
0.555389 0.109467 0.025635
0.598694 0.111847 0.029755
0.639832 0.113739 0.033875
0.673981 0.114899 0.037628
0.682861 0.112549 0.038483
0.690338 0.109833 0.038818
0.697968 0.108368 0.039368
0.705902 0.108582 0.040131
0.713867 0.108948 0.040863
0.721558 0.108887 0.041656
0.729462 0.108887 0.042328
0.737335 0.108734 0.043091
0.745453 0.109680 0.043945
0.753571 0.110870 0.044830
0.014771 0.119934 0.004303
0.019409 0.119110 0.004272
0.024139 0.118134 0.004211
0.028595 0.115997 0.004120
0.041412 0.114105 0.004028
0.067474 0.112579 0.003937
0.094086 0.112061 0.004303
0.121674 0.110535 0.004700
0.153870 0.112915 0.005341
0.187866 0.115570 0.006042
0.223785 0.118347 0.006744
0.262299 0.121185 0.007568
0.300842 0.123230 0.008728
0.338806 0.124603 0.010010
0.379333 0.126617 0.013794
0.420105 0.128815 0.017365
0.462982 0.131531 0.021271
0.505981 0.132843 0.024811
0.548370 0.134766 0.028809
0.592499 0.137482 0.033051
0.636169 0.139923 0.037170
0.673401 0.141754 0.040833
0.685883 0.139526 0.041901
0.693390 0.137024 0.042328
0.700989 0.134613 0.042847
0.708771 0.134003 0.043518
0.716522 0.133728 0.044189
0.724304 0.133484 0.044891
0.732208 0.132904 0.045563
0.740265 0.132477 0.046326
0.748413 0.133453 0.047180
0.756470 0.134613 0.048157
0.022522 0.148285 0.005981
0.027222 0.147522 0.005920
0.032043 0.146698 0.005859
0.036530 0.144714 0.005737
0.041107 0.142883 0.005615
0.067566 0.140839 0.005615
0.093353 0.139893 0.005707
0.120819 0.139038 0.006104
0.149139 0.137604 0.006500
0.182526 0.140106 0.007141
0.215790 0.141663 0.007812
0.252991 0.144531 0.008606
0.291870 0.147614 0.010345
0.331451 0.149963 0.013824
0.370178 0.151825 0.016724
0.410980 0.153656 0.020416
0.453217 0.156189 0.024414
0.495361 0.158752 0.027374
0.540314 0.161499 0.032257
0.583588 0.163330 0.035889
0.628967 0.165649 0.039642
0.670197 0.167450 0.043671
0.689392 0.166321 0.045441
0.697205 0.164062 0.046234
0.704895 0.161896 0.046967
0.712891 0.161621 0.047852
0.720703 0.161194 0.048523
0.728455 0.160645 0.049011
0.736359 0.160217 0.049408
0.744324 0.159790 0.049927
0.752472 0.160980 0.050964
0.760681 0.162354 0.051880
0.029999 0.177307 0.007996
0.034790 0.176483 0.007904
0.039581 0.175568 0.007843
0.044189 0.173798 0.007721
0.048798 0.171844 0.007538
0.067108 0.169800 0.007721
0.092987 0.168121 0.007812
0.120239 0.167114 0.007904
0.148712 0.165955 0.008270
0.177612 0.164948 0.008667
0.210602 0.166351 0.009583
0.244629 0.167816 0.010681
0.283051 0.171936 0.014038
0.322113 0.174927 0.016968
0.362091 0.177856 0.020721
0.401733 0.179413 0.023560
0.443909 0.182251 0.027222
0.486481 0.184937 0.031036
0.529388 0.187042 0.035065
0.574280 0.189850 0.039307
0.619202 0.193054 0.043671
0.664764 0.195343 0.047791
0.689850 0.195160 0.050110
0.697937 0.192444 0.050507
0.705902 0.189453 0.050812
0.714264 0.189209 0.051788
0.722473 0.189087 0.052582
0.730865 0.188660 0.053162
0.739044 0.188354 0.053680
0.747437 0.187988 0.054199
0.755829 0.188995 0.054871
0.764069 0.190033 0.055847
0.038269 0.206451 0.010651
0.043121 0.205902 0.010773
0.047913 0.205261 0.010803
0.052521 0.203796 0.010803
0.057098 0.201904 0.010590
0.067505 0.199310 0.010315
0.092377 0.197235 0.010345
0.119446 0.195984 0.010254
0.147644 0.194855 0.010834
0.176239 0.193787 0.011475
0.206329 0.192566 0.011658
0.239532 0.193359 0.012817
0.274628 0.195770 0.016479
0.313446 0.199921 0.020325
0.352875 0.202515 0.023315
0.393341 0.205597 0.027191
0.434174 0.207642 0.030121
0.477600 0.211487 0.034668
0.519745 0.213226 0.038391
0.564636 0.216827 0.043030
0.609497 0.219025 0.046692
0.655823 0.222321 0.051392
0.689667 0.223846 0.054871
0.698151 0.221191 0.055328
0.706543 0.218323 0.055695
0.714600 0.217010 0.056274
0.722504 0.216339 0.056915
0.730713 0.215790 0.057617
0.739105 0.215576 0.058228
0.747681 0.215393 0.058777
0.756256 0.216614 0.059509
0.764740 0.217773 0.060364
0.046661 0.236786 0.014252
0.051514 0.235901 0.014130
0.056396 0.235229 0.014130
0.061127 0.234009 0.014160
0.065552 0.232239 0.013977
0.069916 0.230133 0.013733
0.091309 0.227448 0.013550
0.118958 0.225830 0.013336
0.146332 0.224457 0.013885
0.175446 0.223267 0.014526
0.205017 0.222168 0.014648
0.235504 0.220459 0.015076
0.269592 0.221710 0.018707
0.305786 0.224365 0.022583
0.343903 0.227631 0.026367
0.384094 0.231049 0.029877
0.425690 0.234222 0.033600
0.467957 0.237366 0.037750
0.511047 0.240356 0.041412
0.554199 0.242889 0.045868
0.599854 0.246490 0.050110
0.645935 0.249146 0.054626
0.685760 0.251587 0.058838
0.698425 0.250092 0.059723
0.706818 0.247925 0.060181
0.714935 0.246552 0.061035
0.722992 0.246002 0.061737
0.731049 0.245331 0.062469
0.739410 0.244812 0.063110
0.747925 0.244629 0.064056
0.756744 0.246094 0.065155
0.765503 0.247406 0.066254
0.054596 0.267273 0.018524
0.059540 0.266541 0.018494
0.064392 0.265625 0.018402
0.069153 0.264252 0.018188
0.073853 0.262787 0.017944
0.078461 0.260864 0.017639
0.091919 0.258759 0.017548
0.118195 0.256409 0.017853
0.145721 0.254822 0.018280
0.174622 0.253418 0.019257
0.204437 0.252228 0.019897
0.234711 0.251221 0.020599
0.265991 0.249786 0.021729
0.300537 0.250763 0.025360
0.337158 0.253357 0.029083
0.374847 0.255981 0.032959
0.416687 0.260498 0.036835
0.458069 0.263367 0.041016
0.501648 0.266846 0.044739
0.544800 0.269958 0.049286
0.590271 0.273804 0.053772
0.635864 0.276672 0.057800
0.682129 0.279694 0.062744
0.698364 0.278320 0.064331
0.707886 0.276123 0.064606
0.716156 0.274872 0.064911
0.724548 0.275024 0.065338
0.732849 0.275055 0.065887
0.741119 0.274841 0.066742
0.749725 0.274750 0.067719
0.758301 0.275848 0.068695
0.766876 0.277069 0.069672
0.062714 0.298462 0.024323
0.067596 0.297699 0.024292
0.072571 0.296753 0.024231
0.077423 0.295715 0.024139
0.082275 0.294434 0.023987
0.086853 0.292633 0.023651
0.092102 0.290527 0.023285
0.117798 0.288666 0.023956
0.145508 0.286591 0.024414
0.174622 0.284454 0.024658
0.203278 0.283234 0.025604
0.233124 0.281830 0.025848
0.264771 0.280609 0.027039
0.295868 0.278992 0.028168
0.331909 0.281036 0.031799
0.368561 0.282654 0.035980
0.407013 0.285370 0.039673
0.448517 0.289093 0.043884
0.491150 0.293274 0.047974
0.535431 0.296753 0.052612
0.580750 0.300598 0.057037
0.626556 0.304260 0.062286
0.673279 0.307953 0.066376
0.697449 0.308441 0.068298
0.710327 0.306976 0.069458
0.718384 0.305115 0.070099
0.726501 0.304749 0.070892
0.734741 0.304688 0.071442
0.743469 0.304474 0.071930
0.752106 0.304443 0.072632
0.760895 0.305725 0.073669
0.769745 0.307251 0.074799
0.071381 0.330566 0.030396
0.076111 0.329559 0.030334
0.080811 0.328522 0.030273
0.085693 0.327362 0.030182
0.090668 0.326263 0.030182
0.095581 0.324463 0.030029
0.100464 0.322449 0.029907
0.117340 0.320618 0.030182
0.144592 0.317932 0.030060
0.173584 0.315948 0.030334
0.202545 0.314423 0.031250
0.232666 0.313202 0.031647
0.263336 0.311493 0.032410
0.294983 0.310730 0.033600
0.327026 0.309113 0.035065
0.364105 0.311340 0.038818
0.401337 0.312988 0.042542
0.439758 0.315887 0.046478
0.481201 0.318970 0.050690
0.525024 0.323364 0.055237
0.570679 0.327728 0.060242
0.616821 0.333008 0.065552
0.665680 0.337646 0.070190
0.697113 0.339203 0.073090
0.713470 0.338837 0.074463
0.721802 0.336914 0.074707
0.730164 0.336609 0.075256
0.738800 0.336792 0.076111
0.747162 0.336761 0.076874
0.755524 0.336792 0.077667
0.764343 0.338318 0.078674
0.773041 0.339905 0.079620
0.080414 0.363464 0.037140
0.085236 0.362457 0.037048
0.090027 0.361481 0.036987
0.094757 0.360138 0.036865
0.099762 0.359039 0.036652
0.104584 0.357178 0.036346
0.109375 0.355103 0.036072
0.114105 0.352875 0.035858
0.144226 0.350677 0.036072
0.173218 0.348785 0.036438
0.202301 0.346893 0.037048
0.232574 0.345581 0.037842
0.262970 0.344116 0.038635
0.293976 0.342773 0.039398
0.325836 0.341003 0.040405
0.359467 0.340118 0.041962
0.396606 0.341919 0.045837
0.434448 0.343842 0.049408
0.473511 0.346100 0.053406
0.515015 0.349579 0.057739
0.560333 0.354706 0.062805
0.605927 0.359497 0.067963
0.654205 0.365021 0.073608
0.693024 0.369141 0.077026
0.715820 0.369934 0.079163
0.724152 0.367950 0.079529
0.732422 0.367859 0.079987
0.740753 0.367615 0.080414
0.749084 0.367645 0.081085
0.757751 0.367554 0.081665
0.766602 0.369141 0.082672
0.775574 0.371033 0.083801
0.089294 0.396606 0.043304
0.093964 0.395630 0.043243
0.098785 0.394592 0.043182
0.103455 0.393158 0.043091
0.108398 0.391785 0.042908
0.113190 0.390045 0.042633
0.118073 0.388123 0.042297
0.122833 0.385895 0.042053
0.143677 0.383545 0.042389
0.173187 0.382111 0.042480
0.202087 0.380127 0.042786
0.232513 0.378571 0.043976
0.262360 0.377075 0.044861
0.292786 0.374329 0.045074
0.324646 0.372833 0.046082
0.357880 0.371429 0.046783
0.392029 0.370544 0.048615
0.430328 0.372986 0.052917
0.469177 0.375641 0.056915
0.507843 0.377411 0.060364
0.548950 0.380707 0.064789
0.595520 0.386536 0.070526
0.643707 0.392914 0.075958
0.687408 0.398865 0.081055
0.717804 0.401825 0.083557
0.726257 0.399658 0.084015
0.734802 0.399506 0.084503
0.743439 0.399841 0.085114
0.751831 0.400024 0.085815
0.760529 0.400330 0.086609
0.769287 0.401917 0.087646
0.778107 0.403625 0.088715
0.098419 0.430115 0.049744
0.103516 0.429474 0.049835
0.108704 0.428864 0.049957
0.113647 0.427979 0.049988
0.118622 0.426575 0.049835
0.123260 0.424652 0.049530
0.127716 0.422333 0.049103
0.131989 0.419525 0.048492
0.143646 0.417206 0.048462
0.172760 0.415802 0.049347
0.202026 0.413391 0.049500
0.231598 0.411743 0.049896
0.261536 0.409576 0.050964
0.292542 0.408020 0.051056
0.324280 0.406189 0.051849
0.356598 0.404816 0.052765
0.390564 0.403412 0.054321
0.425110 0.403015 0.055786
0.463745 0.405609 0.060028
0.502869 0.407806 0.064331
0.542816 0.409576 0.068420
0.585175 0.413544 0.072998
0.633972 0.421539 0.079407
0.682129 0.428406 0.084534
0.719482 0.433716 0.088318
0.730133 0.432495 0.089142
0.738739 0.432190 0.089905
0.747406 0.432495 0.090820
0.756012 0.432526 0.091583
0.764435 0.432556 0.092163
0.772980 0.434265 0.093079
0.781677 0.435852 0.093903
0.108246 0.463989 0.056427
0.113464 0.463379 0.056580
0.118622 0.462799 0.056702
0.123688 0.461914 0.056763
0.128387 0.460907 0.056641
0.132935 0.458923 0.056396
0.137482 0.457092 0.056183
0.141937 0.454620 0.055725
0.146240 0.451752 0.055115
0.172180 0.450165 0.055664
0.202087 0.448212 0.056061
0.231201 0.445923 0.056305
0.261200 0.443665 0.056915
0.292847 0.442474 0.057770
0.324615 0.440186 0.058289
0.356750 0.438782 0.059235
0.390686 0.437958 0.060547
0.424255 0.436066 0.062164
0.458862 0.435608 0.063629
0.497833 0.437653 0.067535
0.538574 0.440643 0.072266
0.580475 0.444183 0.076447
0.624603 0.449402 0.082123
0.673157 0.456635 0.087708
0.715027 0.463318 0.091949
0.732056 0.464111 0.093597
0.740875 0.463593 0.094452
0.749908 0.464142 0.095428
0.759003 0.464600 0.096375
0.767853 0.464874 0.097137
0.776520 0.466400 0.098053
0.785065 0.468201 0.098938
0.117645 0.498383 0.063293
0.122681 0.497650 0.063293
0.127930 0.497040 0.063416
0.132996 0.496185 0.063507
0.138031 0.495087 0.063385
0.142853 0.493378 0.063202
0.147552 0.491547 0.062988
0.151947 0.489136 0.062653
0.156342 0.486755 0.062317
0.172089 0.484497 0.062225
0.201080 0.482391 0.062500
0.231598 0.480072 0.062836
0.262115 0.478882 0.064148
0.292755 0.476562 0.064362
0.324921 0.475342 0.065521
0.357178 0.473755 0.065979
0.389648 0.472076 0.067444
0.423981 0.470703 0.068878
0.458282 0.469757 0.069885
0.493500 0.468567 0.071350
0.533234 0.470856 0.075653
0.575775 0.474854 0.079956
0.619507 0.479797 0.085693
0.664307 0.485138 0.090820
0.712402 0.492859 0.096313
0.735107 0.495911 0.098785
0.743103 0.495087 0.099243
0.751343 0.495331 0.099945
0.759979 0.495789 0.100708
0.769318 0.496552 0.101868
0.778687 0.498688 0.103058
0.787842 0.500763 0.104279
0.127991 0.534027 0.070862
0.132935 0.533234 0.070831
0.137817 0.532440 0.070770
0.142639 0.531250 0.070679
0.147614 0.530182 0.070526
0.152435 0.528534 0.070312
0.157257 0.526703 0.070068
0.161896 0.524384 0.069733
0.166534 0.521912 0.069366
0.173645 0.519379 0.069000
0.200714 0.518127 0.069092
0.231018 0.515869 0.070221
0.261932 0.513489 0.070587
0.292908 0.511475 0.071014
0.324524 0.509827 0.071991
0.356445 0.508026 0.072632
0.389435 0.507263 0.073639
0.422455 0.505371 0.075104
0.457306 0.503784 0.076111
0.492340 0.502808 0.077484
0.528503 0.501953 0.079315
0.570221 0.505402 0.083954
0.615082 0.511566 0.089630
0.660492 0.517181 0.094238
0.706421 0.523224 0.099426
0.737915 0.527771 0.103455
0.745728 0.526184 0.103851
0.754181 0.526489 0.104645
0.762665 0.527069 0.105438
0.771332 0.527802 0.106140
0.780243 0.529785 0.107086
0.789093 0.532166 0.108063
0.138092 0.569855 0.077850
0.142700 0.568787 0.077759
0.147369 0.567780 0.077698
0.152100 0.566620 0.077698
0.157104 0.565430 0.077637
0.161865 0.563751 0.077362
0.166748 0.562164 0.077057
0.171417 0.559845 0.076752
0.176056 0.557404 0.076355
0.180786 0.555023 0.076080
0.200012 0.553406 0.076721
0.231659 0.551819 0.077118
0.261902 0.549561 0.077911
0.293823 0.548706 0.078766
0.324493 0.545624 0.079010
0.357758 0.544861 0.080383
0.390289 0.542755 0.080902
0.424408 0.542725 0.082123
0.458984 0.541595 0.083527
0.495056 0.540710 0.084595
0.530151 0.539185 0.086243
0.567139 0.538971 0.088043
0.611237 0.544434 0.092834
0.656769 0.550018 0.098114
0.702850 0.555939 0.103485
0.740967 0.561066 0.108063
0.752045 0.559631 0.108551
0.759369 0.559143 0.109131
0.766876 0.558899 0.109741
0.774414 0.558838 0.110596
0.783325 0.561096 0.111908
0.792297 0.563477 0.113159
0.148499 0.606873 0.085297
0.153442 0.606171 0.085297
0.158325 0.605225 0.085236
0.163269 0.604156 0.085205
0.168213 0.602966 0.085297
0.173126 0.601532 0.085358
0.177917 0.599762 0.085327
0.182587 0.597443 0.085205
0.187256 0.595001 0.084839
0.191742 0.592346 0.084442
0.196350 0.589630 0.083832
0.232269 0.589264 0.084991
0.263550 0.587158 0.085236
0.294617 0.584839 0.085876
0.326874 0.584229 0.086975
0.357391 0.580566 0.087189
0.392212 0.580933 0.088806
0.424652 0.578735 0.089264
0.460388 0.578094 0.090088
0.497131 0.578796 0.092438
0.533447 0.578583 0.093353
0.570007 0.577515 0.095123
0.609009 0.578033 0.096924
0.653259 0.583069 0.101685
0.699493 0.589417 0.107513
0.743408 0.595978 0.112976
0.759338 0.595459 0.114258
0.767487 0.594849 0.114838
0.775024 0.594788 0.115387
0.782532 0.594360 0.115997
0.790497 0.595795 0.116913
0.798462 0.597351 0.118042
0.159576 0.643707 0.092957
0.164673 0.642944 0.092926
0.169647 0.642212 0.093048
0.174591 0.641266 0.093140
0.179443 0.640198 0.093048
0.184082 0.638794 0.092896
0.188812 0.637177 0.092743
0.193481 0.635132 0.092651
0.198090 0.632568 0.092377
0.202850 0.630127 0.092072
0.207794 0.627686 0.091949
0.232147 0.626648 0.092438
0.264984 0.625977 0.092773
0.296539 0.623871 0.093170
0.330170 0.623047 0.094696
0.361877 0.621643 0.095123
0.395386 0.620422 0.095856
0.429688 0.619476 0.097137
0.464691 0.619232 0.098724
0.500153 0.617798 0.099487
0.536346 0.617462 0.101013
0.573395 0.617462 0.102844
0.611725 0.617493 0.104126
0.650208 0.617249 0.106079
0.695465 0.623260 0.111328
0.741394 0.630035 0.116943
0.764709 0.631470 0.119110
0.776031 0.631104 0.120117
0.783661 0.630981 0.120972
0.791077 0.630951 0.121887
0.799072 0.632233 0.122803
0.807037 0.633789 0.123688
0.173889 0.685547 0.102142
0.178680 0.684570 0.102051
0.183472 0.683533 0.101959
0.188293 0.682343 0.101776
0.193115 0.681335 0.101624
0.198029 0.680176 0.101410
0.202515 0.678345 0.101166
0.206787 0.675781 0.100739
0.211365 0.673248 0.100525
0.215729 0.670197 0.100067
0.220184 0.667450 0.099731
0.231689 0.665588 0.099945
0.266083 0.664490 0.100494
0.298950 0.663574 0.101135
0.332214 0.662323 0.101746
0.365570 0.661957 0.103149
0.399231 0.661743 0.104614
0.433502 0.660950 0.105499
0.469269 0.659790 0.106720
0.504517 0.659698 0.107452
0.540527 0.659027 0.108765
0.576996 0.658417 0.110474
0.614807 0.657715 0.111816
0.652740 0.657318 0.113342
0.691315 0.657501 0.115082
0.737701 0.664001 0.120972
0.769196 0.667145 0.124298
0.785034 0.667542 0.125610
0.792908 0.667480 0.126434
0.800507 0.667358 0.127289
0.808533 0.668915 0.128418
0.816528 0.670563 0.129639
0.179565 0.702515 0.105957
0.184875 0.702759 0.106171
0.190063 0.702911 0.106323
0.195465 0.703186 0.106476
0.200836 0.703522 0.106598
0.206177 0.703857 0.106781
0.211792 0.704132 0.106903
0.217194 0.703888 0.106964
0.222656 0.703766 0.107178
0.227722 0.702667 0.107117
0.232910 0.701630 0.107086
0.237915 0.700562 0.107086
0.266815 0.701141 0.107697
0.301849 0.701752 0.109161
0.336273 0.703125 0.110413
0.369568 0.703186 0.111389
0.403595 0.703461 0.112671
0.437866 0.702179 0.113678
0.472870 0.701752 0.114807
0.508942 0.700958 0.116150
0.544769 0.700317 0.116760
0.580841 0.699463 0.118469
0.618134 0.699493 0.119751
0.656158 0.699127 0.120850
0.694611 0.698944 0.122864
0.733765 0.698883 0.124817
0.772614 0.703918 0.129486
0.793549 0.704987 0.131348
0.801147 0.704834 0.132263
0.808960 0.704803 0.133118
0.817169 0.706512 0.134247
0.825256 0.708160 0.135406
0.182159 0.711029 0.107697
0.187500 0.711365 0.107941
0.192810 0.711700 0.108093
0.198242 0.711823 0.108307
0.203674 0.712189 0.108490
0.209015 0.712524 0.108643
0.214722 0.712891 0.108795
0.220367 0.713440 0.109039
0.226044 0.713745 0.109192
0.231781 0.714203 0.109619
0.237152 0.714203 0.109772
0.242523 0.713989 0.109894
0.259979 0.714966 0.110352
0.295074 0.716888 0.111572
0.330688 0.719421 0.113647
0.365570 0.721069 0.114960
0.399872 0.722961 0.116089
0.435699 0.724915 0.118317
0.470795 0.725952 0.119202
0.507660 0.727997 0.121399
0.544739 0.730225 0.122437
0.581055 0.731201 0.124542
0.619385 0.732544 0.126221
0.657318 0.733582 0.127502
0.696411 0.735321 0.129700
0.735687 0.736725 0.132141
0.773712 0.737793 0.134155
0.803436 0.740936 0.137268
0.810547 0.741058 0.137695
0.817596 0.741028 0.138153
0.825073 0.742401 0.138947
0.832550 0.743958 0.139679
0.184631 0.719360 0.109406
0.190033 0.719696 0.109589
0.195404 0.720062 0.109772
0.200928 0.720367 0.109924
0.206390 0.720520 0.110107
0.211761 0.720886 0.110291
0.217438 0.721252 0.110474
0.223236 0.721680 0.110687
0.228882 0.722198 0.110931
0.234558 0.722809 0.111420
0.240326 0.723328 0.111816
0.245880 0.723633 0.112061
0.259064 0.724579 0.112488
0.290802 0.726654 0.113129
0.326294 0.729828 0.115631
0.361725 0.732819 0.116852
0.396210 0.735077 0.118561
