滤镜资源/Professional Luts Collection/Triune-Digital-Cinematic-LUTs/3D LUTs (CUBE)/LOG/3h10 to Yuma - LOG.cube
#Created by Benjamin (IWLTBAP) : http://luts.iwltbap.com
#Copyright: (C) Copyright 2016 Triune Films and IWLTBAP
TITLE "Blockbuster LUTs Pack (LOG)"
#LUT size
LUT_3D_SIZE 8
#LUT data points
DOMAIN_MIN 0.000000 0.000000 0.000000
DOMAIN_MAX 0.903226 0.903226 0.903226
0.018738 0.012329 0.007721
0.074188 0.002167 0.001953
0.207916 0.000000 0.000000
0.347626 0.021179 0.005249
0.508514 0.064270 0.010345
0.611572 0.080444 0.003143
0.643890 0.087891 0.000427
0.656677 0.089905 0.000000
0.080139 0.111450 0.014679
0.106232 0.079559 0.006683
0.237213 0.042328 0.008240
0.394684 0.040771 0.000153
0.516876 0.068268 0.004578
0.620117 0.085754 0.002960
0.652679 0.091339 0.001129
0.669678 0.096100 0.002655
0.168060 0.250549 0.081268
0.168152 0.239410 0.070770
0.257538 0.210114 0.032990
0.417572 0.163727 0.004395
0.561340 0.122894 0.000092
0.663025 0.115967 0.001282
0.688232 0.114594 0.002960
0.698700 0.113922 0.001312
0.247406 0.408264 0.130981
0.251099 0.401855 0.131592
0.284058 0.384460 0.114075
0.430939 0.347137 0.082947
0.581390 0.298218 0.049255
0.714569 0.235901 0.019653
0.760040 0.192474 0.010315
0.768463 0.181122 0.008881
0.350464 0.550659 0.189056
0.355225 0.547668 0.186096
0.360504 0.536560 0.182648
0.456848 0.519806 0.155792
0.603394 0.488739 0.131805
0.745483 0.442108 0.110291
0.833557 0.391663 0.099365
0.843933 0.369934 0.092377
0.470367 0.676849 0.248444
0.475250 0.676453 0.248749
0.476776 0.672089 0.244751
0.503510 0.660004 0.228851
0.619934 0.638184 0.212433
0.753754 0.612976 0.188354
0.867432 0.577728 0.178223
0.887207 0.552765 0.173035
0.569305 0.783783 0.317871
0.575958 0.786133 0.317841
0.579315 0.782379 0.315125
0.590210 0.775238 0.307922
0.639191 0.762115 0.297028
0.760895 0.744293 0.283173
0.874084 0.722534 0.266998
0.887970 0.700378 0.266083
0.591766 0.805817 0.334442
0.602417 0.810913 0.338409
0.612122 0.814087 0.340637
0.618347 0.813599 0.338654
0.655640 0.810547 0.338104
0.761841 0.808929 0.327759
0.870178 0.799957 0.330902
0.890778 0.788147 0.352173
0.002716 0.002808 0.048462
0.062836 0.000702 0.030945
0.220001 0.000458 0.010773
0.376495 0.033813 0.013153
0.523315 0.064636 0.011444
0.619446 0.081726 0.006500
0.645538 0.086151 0.009735
0.664642 0.090088 0.006927
0.043121 0.085388 0.078156
0.085571 0.068726 0.050964
0.236359 0.037537 0.022675
0.374725 0.035156 0.007141
0.517181 0.067413 0.006561
0.628693 0.087921 0.011444
0.660248 0.093262 0.006317
0.675140 0.096008 0.007446
0.155884 0.239349 0.092743
0.163361 0.235291 0.088928
0.248322 0.204254 0.058319
0.413391 0.161652 0.019196
0.559235 0.119598 0.005188
0.659851 0.112762 0.004730
0.690430 0.114288 0.005981
0.701294 0.115753 0.012573
0.240356 0.403076 0.142700
0.244263 0.398499 0.141418
0.279266 0.380432 0.132324
0.426514 0.343994 0.094574
0.582184 0.295502 0.055084
0.709625 0.230194 0.022003
0.758789 0.192932 0.016724
0.765198 0.178925 0.016785
0.348114 0.550507 0.199860
0.351044 0.545624 0.194672
0.355347 0.534576 0.194550
0.452393 0.518219 0.165741
0.600555 0.485138 0.139099
0.742737 0.439087 0.117126
0.830566 0.389038 0.107635
0.843384 0.367981 0.103119
0.468964 0.678192 0.258392
0.470276 0.674988 0.254700
0.472656 0.671112 0.250397
0.501068 0.661346 0.244232
0.617401 0.639313 0.216339
0.752625 0.610291 0.198883
0.866791 0.574646 0.183716
0.885071 0.550690 0.185760
0.573456 0.788055 0.330109
0.574890 0.785370 0.326965
0.578064 0.782806 0.323639
0.587311 0.774017 0.315735
0.638702 0.762115 0.306946
0.759308 0.744659 0.291138
0.872711 0.722015 0.275513
0.887848 0.700012 0.271820
0.597412 0.811462 0.349060
0.603699 0.812683 0.349609
0.611481 0.814545 0.350067
0.616821 0.813782 0.348480
0.653412 0.811768 0.345642
0.760040 0.809143 0.331573
0.868774 0.798981 0.339203
0.890808 0.788177 0.354706
0.000427 0.005890 0.175415
0.026855 0.000336 0.146210
0.195557 0.001221 0.114777
0.356781 0.026184 0.069458
0.518616 0.063141 0.043579
0.622314 0.083679 0.035187
0.650909 0.087494 0.027924
0.664734 0.089142 0.033112
0.021790 0.075928 0.198425
0.044739 0.055969 0.184723
0.201874 0.028992 0.137817
0.370667 0.037567 0.057678
0.520050 0.068817 0.036255
0.632111 0.087952 0.029053
0.660675 0.092072 0.030060
0.674835 0.094269 0.027740
0.132782 0.223541 0.210632
0.135284 0.217224 0.198730
0.218170 0.189087 0.164185
0.387939 0.143372 0.105225
0.543457 0.112579 0.033386
0.658081 0.111328 0.030365
0.694092 0.113922 0.019226
0.703979 0.114960 0.017792
0.220398 0.398926 0.221252
0.222961 0.392120 0.211090
0.261292 0.375336 0.198792
0.415588 0.341400 0.144104
0.574646 0.289429 0.088715
0.705566 0.224915 0.036896
0.755371 0.186829 0.023712
0.764130 0.176208 0.026276
0.339233 0.548645 0.228333
0.344391 0.545380 0.228851
0.346039 0.531342 0.215637
0.445862 0.515900 0.181641
0.596832 0.480591 0.151672
0.739502 0.436371 0.126862
0.828918 0.384460 0.113953
0.840210 0.361755 0.108063
0.461304 0.674683 0.272522
0.466614 0.673462 0.265625
0.469849 0.668945 0.261200
0.494781 0.656189 0.255890
0.614655 0.638336 0.233215
0.748932 0.608368 0.207611
0.863037 0.572327 0.191711
0.882996 0.546997 0.195557
0.573486 0.790436 0.342285
0.575073 0.787964 0.338684
0.574188 0.782043 0.333862
0.583313 0.773376 0.329376
0.630310 0.760681 0.313599
0.755341 0.743622 0.299927
0.871063 0.720703 0.284393
0.887665 0.698669 0.277710
0.598450 0.814240 0.360962
0.605103 0.814667 0.360565
0.611237 0.815735 0.362305
0.614166 0.813354 0.358948
0.652283 0.813538 0.356262
0.755280 0.810028 0.339325
0.867096 0.799194 0.345154
0.891052 0.788879 0.359009
0.000000 0.005371 0.271484
0.014343 0.008240 0.276917
0.156921 0.006775 0.267334
0.339142 0.022247 0.208160
0.491028 0.059875 0.184448
0.607178 0.079224 0.160248
0.632690 0.081909 0.155670
0.650635 0.085968 0.148163
0.000610 0.066223 0.326599
0.014008 0.051819 0.306458
0.144287 0.022125 0.274170
0.329498 0.026489 0.212646
0.490723 0.062927 0.175842
0.608032 0.082397 0.151031
0.645416 0.088776 0.145905
0.661560 0.092743 0.142578
0.105377 0.202820 0.340149
0.110046 0.196869 0.334595
0.171844 0.167297 0.302917
0.343414 0.121368 0.247223
0.506958 0.100616 0.186340
0.626495 0.100555 0.134430
0.670715 0.105225 0.123077
0.684479 0.105408 0.110901
0.178406 0.379486 0.356598
0.181335 0.374023 0.348755
0.211761 0.357635 0.332153
0.372192 0.324402 0.285736
0.540009 0.267487 0.225006
0.684296 0.207520 0.159485
0.743805 0.166840 0.113220
0.754730 0.156677 0.100922
0.296997 0.536224 0.360138
0.301483 0.533508 0.357849
0.307526 0.526672 0.343201
0.409973 0.507568 0.309021
0.562683 0.475708 0.267517
0.719086 0.428680 0.204315
0.822723 0.372437 0.162292
0.832642 0.348846 0.149261
0.435211 0.674103 0.359528
0.440613 0.672424 0.358582
0.443115 0.665283 0.350006
0.472290 0.658295 0.335266
0.594788 0.635376 0.300446
0.736847 0.603790 0.249359
0.855011 0.566193 0.222565
0.882751 0.544830 0.215668
0.558319 0.787750 0.382233
0.562042 0.785736 0.380798
0.562439 0.780365 0.374146
0.572296 0.773224 0.358521
0.620453 0.760956 0.337860
0.746857 0.739563 0.310516
0.868622 0.717346 0.290070
0.887360 0.695862 0.284302
0.593323 0.815033 0.382263
0.598419 0.813751 0.378510
0.603851 0.811859 0.371155
0.610748 0.813873 0.370850
0.648346 0.812866 0.365601
0.749542 0.809601 0.349548
0.864990 0.800018 0.350952
0.891144 0.789734 0.363495
0.001984 0.039856 0.400177
0.011322 0.040802 0.410950
0.115356 0.040466 0.406830
0.296539 0.034119 0.363983
0.467865 0.056549 0.321869
0.588898 0.076141 0.301147
0.617737 0.080200 0.282776
0.632874 0.081421 0.276367
0.000580 0.066895 0.425507
0.009552 0.061981 0.422638
0.104004 0.052307 0.401703
0.281586 0.036224 0.360413
0.457977 0.056702 0.318665
0.586792 0.078552 0.286987
0.625946 0.085175 0.276978
0.642548 0.087158 0.267334
0.074768 0.181641 0.463318
0.074890 0.172394 0.461121
0.123199 0.145966 0.447266
0.291107 0.111877 0.398438
0.454834 0.081451 0.333618
0.588715 0.094513 0.286469
0.640045 0.096863 0.266052
0.650452 0.096497 0.259308
0.159546 0.359863 0.484497
0.161774 0.350433 0.480560
0.179718 0.336884 0.468384
0.324341 0.297150 0.437683
0.486298 0.244293 0.381042
0.626160 0.181091 0.311798
0.696198 0.153687 0.272858
0.707611 0.147552 0.259521
0.258972 0.525940 0.499481
0.263153 0.521332 0.496429
0.264679 0.509491 0.485291
0.363678 0.490509 0.460876
0.518036 0.460571 0.417572
0.676392 0.409637 0.363800
0.794159 0.344452 0.314880
0.811218 0.316620 0.292694
0.392487 0.669922 0.497314
0.394562 0.667206 0.497345
0.394806 0.659424 0.489655
0.422150 0.649780 0.473511
0.547852 0.628815 0.440186
0.697723 0.599609 0.401825
0.832031 0.559845 0.354126
0.871429 0.533966 0.334320
0.520996 0.785889 0.502472
0.522400 0.781952 0.500641
0.524506 0.777618 0.488434
0.532318 0.771179 0.480530
0.586243 0.758148 0.458801
0.716461 0.740417 0.421417
0.843567 0.713715 0.390656
0.885925 0.693207 0.366821
0.562683 0.813812 0.487549
0.567719 0.813232 0.482208
0.576447 0.814972 0.476807
0.584290 0.814789 0.468567
0.624725 0.812469 0.454681
0.729706 0.809723 0.428436
0.854950 0.800629 0.406219
0.890594 0.786591 0.403412
0.001434 0.062042 0.489563
0.011444 0.064636 0.503906
0.120880 0.069214 0.505157
0.275635 0.063629 0.480743
0.442688 0.065277 0.447784
0.563324 0.077942 0.428467
0.593872 0.082489 0.422577
0.610779 0.083405 0.414612
0.003052 0.083954 0.517975
0.007843 0.079834 0.524139
0.081512 0.071533 0.510651
0.260254 0.065887 0.483612
0.424591 0.068634 0.465698
0.557678 0.080811 0.430725
0.601562 0.086304 0.414062
0.617462 0.087280 0.408295
0.025421 0.140961 0.557129
0.029327 0.139771 0.561829
0.071381 0.123322 0.562836
0.239014 0.102417 0.520752
0.401276 0.085785 0.468414
0.548309 0.089691 0.425690
0.612854 0.096222 0.399963
0.629730 0.096741 0.392792
0.144409 0.311432 0.611633
0.146942 0.304901 0.601776
0.165710 0.284393 0.590851
0.277344 0.250549 0.559753
0.430634 0.211029 0.517212
0.567993 0.156006 0.455353
0.645721 0.133972 0.410431
0.659821 0.130585 0.393463
0.246063 0.506348 0.628693
0.249420 0.500732 0.622253
0.245056 0.488617 0.610718
0.326538 0.468933 0.590027
0.468048 0.434998 0.559418
0.626984 0.387390 0.513184
0.737793 0.309784 0.455414
0.756653 0.283447 0.439117
0.364014 0.656006 0.624908
0.368927 0.655151 0.625061
0.367432 0.647278 0.620605
0.386932 0.634125 0.602936
0.507782 0.617737 0.578430
0.650635 0.586823 0.540833
0.785278 0.538849 0.491852
0.833282 0.509338 0.466553
0.480133 0.777344 0.626282
0.483337 0.775299 0.623657
0.487976 0.773315 0.620148
0.492920 0.765137 0.607086
0.545990 0.753174 0.591003
0.676849 0.736206 0.554993
0.806152 0.707947 0.521729
0.875732 0.684082 0.496002
0.527893 0.809662 0.609222
0.540253 0.814240 0.605347
0.547272 0.814941 0.597839
0.552582 0.814270 0.591553
0.589294 0.815430 0.579468
0.695343 0.812286 0.556885
0.819672 0.804810 0.527863
0.889252 0.792297 0.520020
0.001251 0.070129 0.514984
0.014404 0.068176 0.519196
0.106934 0.068726 0.523499
0.276093 0.069061 0.506561
0.426086 0.069550 0.499969
0.554688 0.079590 0.460449
0.580261 0.082855 0.465057
0.595001 0.083801 0.461639
0.000763 0.085754 0.541199
0.005615 0.081482 0.546539
0.082184 0.075378 0.533600
0.251251 0.070923 0.511017
0.409698 0.073944 0.503418
0.547913 0.084625 0.474152
0.588074 0.088165 0.468658
0.604126 0.089752 0.468536
0.021210 0.141998 0.593658
0.021240 0.134308 0.592133
0.063049 0.112274 0.573364
0.218414 0.104126 0.560944
0.377228 0.092468 0.523834
0.533203 0.095123 0.493011
0.588959 0.096802 0.485535
0.608948 0.097137 0.478302
0.141418 0.282349 0.649597
0.136749 0.270020 0.652405
0.150360 0.249725 0.641510
0.250061 0.222168 0.626465
0.384857 0.171936 0.582672
0.527039 0.132721 0.535736
0.605957 0.122772 0.508331
0.618134 0.119659 0.499115
0.220428 0.472351 0.694702
0.224731 0.467621 0.699738
0.225952 0.456940 0.695190
0.298187 0.434021 0.685211
0.432709 0.398468 0.667053
0.573364 0.335724 0.623108
0.676239 0.262054 0.580475
0.692963 0.240265 0.564697
0.337524 0.636108 0.734436
0.341156 0.633362 0.735718
0.340851 0.626923 0.737244
0.364868 0.619019 0.729889
0.472870 0.593231 0.707306
0.609894 0.557068 0.670471
0.731293 0.509979 0.627228
0.777405 0.479187 0.605682
0.458405 0.765533 0.752228
0.463501 0.765350 0.753632
0.461914 0.759186 0.748840
0.466980 0.753357 0.737732
0.519012 0.742493 0.715424
0.634521 0.724701 0.691162
0.764984 0.699432 0.655670
0.847412 0.672455 0.623688
0.512024 0.813385 0.735962
0.518280 0.814850 0.732178
0.524567 0.815796 0.726257
0.530945 0.815735 0.720551
0.564636 0.814117 0.706665
0.661011 0.812408 0.686127
0.781921 0.808441 0.660797
0.885925 0.795166 0.636871
0.000671 0.071899 0.528656
0.012360 0.069763 0.533142
0.108337 0.071350 0.533783
0.274811 0.066315 0.502808
0.417175 0.068787 0.496582
0.548126 0.080780 0.480896
0.585083 0.088562 0.481720
0.597534 0.087891 0.481964
0.001587 0.083038 0.549133
0.006165 0.081696 0.556061
0.083618 0.076813 0.546661
0.248749 0.071838 0.525726
0.405609 0.077057 0.519562
0.541870 0.084625 0.492798
0.586731 0.090179 0.484039
0.605103 0.093384 0.487610
0.017151 0.133667 0.599823
0.017517 0.129089 0.600037
0.059357 0.113068 0.594452
0.220398 0.103058 0.567932
0.379181 0.096497 0.539795
0.525452 0.096344 0.511810
0.591431 0.099182 0.500824
0.609863 0.100220 0.494720
0.134674 0.268799 0.663361
0.136719 0.260925 0.659119
0.160553 0.246979 0.657745
0.245148 0.212769 0.637756
0.375641 0.162659 0.595276
0.516266 0.128845 0.551025
0.600433 0.120605 0.518066
0.616730 0.120453 0.513733
0.221741 0.469330 0.715790
0.226471 0.463684 0.718353
0.227234 0.450653 0.718353
0.292450 0.424408 0.706665
0.426544 0.386688 0.682037
0.560242 0.322906 0.638672
0.666382 0.247894 0.597198
0.678589 0.223633 0.582550
0.336060 0.633087 0.752533
0.337830 0.627075 0.752075
0.336365 0.618866 0.753693
0.358246 0.609436 0.745605
0.462982 0.579865 0.733734
0.595856 0.545837 0.704681
0.714966 0.494720 0.672974
0.762451 0.462280 0.656464
0.460510 0.761169 0.781952
0.463867 0.759155 0.783386
0.466888 0.756287 0.785187
0.465851 0.745453 0.780975
0.514587 0.733093 0.772644
0.621429 0.714264 0.753662
0.741089 0.685577 0.728363
0.817902 0.656830 0.710541
0.509644 0.807587 0.789551
0.515228 0.807983 0.791870
0.526184 0.811646 0.795471
0.531769 0.811829 0.794098
0.560791 0.813507 0.794861
0.641571 0.809021 0.785217
0.751892 0.801727 0.770630
0.858765 0.789856 0.748962
