滤镜资源/Professional Luts Collection/Triune-Digital-Cinematic-LUTs/3D LUTs (CUBE)/LOG/3h10 to Yuma - LOG.cube
#Created by Benjamin (IWLTBAP) : http://luts.iwltbap.com
#Copyright: (C) Copyright 2016 Triune Films and IWLTBAP
TITLE "Blockbuster LUTs Pack (LOG)"
#LUT size
LUT_3D_SIZE 32
#LUT data points
0.018738 0.012329 0.007721
0.019867 0.010651 0.006775
0.030426 0.005005 0.004791
0.047546 0.003479 0.001678
0.074188 0.002167 0.001953
0.098633 0.002960 0.002289
0.131348 0.000153 0.000214
0.163727 0.000000 0.000000
0.207916 0.000000 0.000000
0.240753 0.000153 0.002869
0.287109 0.015198 0.001648
0.312500 0.011932 0.003021
0.347626 0.021179 0.005249
0.392487 0.031036 0.000671
0.429993 0.038879 0.012878
0.474182 0.055542 0.002197
0.508514 0.064270 0.010345
0.539551 0.068787 0.006042
0.565216 0.070587 0.000549
0.595734 0.077057 0.006927
0.611572 0.080444 0.003143
0.622589 0.082520 0.001770
0.629761 0.084259 0.001312
0.636902 0.086029 0.000854
0.643890 0.087891 0.000427
0.648834 0.089844 0.000061
0.651611 0.089996 0.000000
0.654144 0.089966 0.000000
0.656677 0.089905 0.000000
0.659210 0.089813 0.000000
0.661743 0.089783 0.000000
0.664246 0.089722 0.000000
0.021637 0.019501 0.008575
0.026947 0.016388 0.006897
0.036285 0.011169 0.005249
0.053131 0.009613 0.002045
0.081482 0.006470 0.003448
0.107086 0.006714 0.004059
0.134491 0.003174 0.000427
0.176086 0.003021 0.000031
0.211365 0.002136 0.000336
0.246155 0.003632 0.005676
0.294312 0.020081 0.003906
0.321533 0.015259 0.000458
0.352417 0.024628 0.006256
0.396454 0.033447 0.004395
0.434784 0.042603 0.009338
0.477631 0.057190 0.000366
0.511414 0.065735 0.009064
0.541443 0.069824 0.006073
0.566650 0.071777 0.001556
0.597595 0.078796 0.006775
0.614136 0.081818 0.003052
0.625153 0.083435 0.001923
0.632355 0.085083 0.001495
0.639496 0.086914 0.001038
0.645905 0.088928 0.000610
0.651062 0.090607 0.000244
0.655090 0.091736 0.000763
0.657776 0.091797 0.000885
0.660309 0.091766 0.000885
0.662872 0.091705 0.000885
0.665375 0.091675 0.000885
0.667877 0.091614 0.000885
0.033356 0.042938 0.011993
0.036987 0.037079 0.009888
0.046265 0.028320 0.009338
0.067535 0.021210 0.004059
0.095795 0.017059 0.006866
0.116638 0.011505 0.008270
0.140045 0.006073 0.001404
0.186646 0.006104 0.000061
0.215027 0.004456 0.000702
0.252075 0.007477 0.008606
0.297638 0.021332 0.007080
0.328217 0.020325 0.000153
0.357605 0.027985 0.006775
0.399994 0.035797 0.008148
0.439331 0.046234 0.005676
0.480621 0.059235 0.000366
0.514313 0.067078 0.007904
0.543182 0.070862 0.006226
0.568787 0.073120 0.003510
0.599823 0.080719 0.005707
0.616669 0.083191 0.002991
0.628693 0.084900 0.001678
0.634979 0.086029 0.001678
0.642181 0.087738 0.001251
0.648071 0.089783 0.000763
0.653381 0.091400 0.000427
0.657410 0.092499 0.000946
0.661255 0.093506 0.001648
0.663971 0.093628 0.001770
0.666504 0.093567 0.001770
0.669006 0.093536 0.001770
0.671539 0.093475 0.001770
0.051270 0.072388 0.012482
0.054260 0.067352 0.011566
0.058868 0.060486 0.010925
0.071960 0.048401 0.007629
0.099213 0.043060 0.006165
0.126984 0.031738 0.008484
0.159821 0.020813 0.003815
0.201538 0.016418 0.001038
0.236542 0.012573 0.000580
0.267151 0.015717 0.011292
0.301392 0.022949 0.011139
0.334076 0.026642 0.000641
0.364471 0.030792 0.004639
0.401855 0.037628 0.007935
0.441864 0.049133 0.001129
0.479584 0.059692 0.002930
0.516174 0.067902 0.007416
0.543488 0.071655 0.006256
0.569366 0.074524 0.005798
0.599335 0.082031 0.003296
0.618958 0.084564 0.002991
0.632416 0.086426 0.001312
0.638245 0.087311 0.001526
0.644348 0.088684 0.001465
0.650391 0.090546 0.000977
0.655640 0.092163 0.000610
0.659729 0.093262 0.001068
0.663574 0.094299 0.001801
0.667358 0.095337 0.002502
0.670135 0.095459 0.002625
0.672638 0.095428 0.002625
0.675140 0.095367 0.002625
0.080139 0.111450 0.014679
0.076996 0.105743 0.015442
0.073578 0.099762 0.016296
0.082092 0.090515 0.016968
0.106232 0.079559 0.006683
0.124817 0.068207 0.007202
0.163330 0.055756 0.006500
0.206146 0.049988 0.006561
0.237213 0.042328 0.008240
0.282898 0.039490 0.004303
0.321167 0.039490 0.013580
0.358826 0.044006 0.007050
0.394684 0.040771 0.000153
0.418152 0.044739 0.004547
0.452209 0.055573 0.010895
0.480286 0.061127 0.004486
0.516876 0.068268 0.004578
0.545654 0.072815 0.004608
0.570312 0.076202 0.005768
0.598541 0.083282 0.001007
0.620117 0.085754 0.002960
0.636200 0.087952 0.000977
0.641876 0.088837 0.001190
0.646912 0.089783 0.001526
0.652679 0.091339 0.001129
0.657990 0.092926 0.000763
0.662048 0.094086 0.001251
0.665863 0.095093 0.001953
0.669678 0.096100 0.002655
0.673492 0.097107 0.003326
0.676270 0.097260 0.003510
0.678802 0.097260 0.003510
0.106567 0.143890 0.027130
0.106934 0.141479 0.022583
0.106659 0.137970 0.019409
0.100922 0.126953 0.019836
0.107941 0.118469 0.023254
0.134064 0.110535 0.010162
0.157135 0.099152 0.012817
0.209229 0.091370 0.011505
0.241333 0.085358 0.002563
0.288635 0.076141 0.009491
0.325226 0.072571 0.007111
0.362701 0.060150 0.002106
0.398346 0.060944 0.002441
0.439301 0.059692 0.004089
0.474487 0.068604 0.010406
0.500244 0.074493 0.002472
0.529755 0.074463 0.001556
0.558411 0.079346 0.003967
0.579529 0.082611 0.002594
0.601532 0.085754 0.005280
0.625793 0.088257 0.001404
0.640686 0.089783 0.000580
0.645020 0.090393 0.000916
0.650055 0.091309 0.001129
0.655060 0.092255 0.001343
0.660278 0.093719 0.000977
0.664368 0.094849 0.001404
0.668213 0.095886 0.002106
0.672028 0.096893 0.002808
0.675812 0.097900 0.003510
0.679596 0.098907 0.004211
0.682465 0.099091 0.004364
0.135773 0.184204 0.063629
0.134094 0.180267 0.059601
0.133301 0.176208 0.053558
0.132233 0.171051 0.046173
0.131226 0.155487 0.032227
0.143036 0.144928 0.028076
0.179718 0.142426 0.024475
0.213501 0.137085 0.026093
0.244080 0.121826 0.015411
0.282715 0.112976 0.003235
0.326935 0.102722 0.007446
0.368988 0.097412 0.003845
0.408356 0.085327 0.009064
0.440460 0.078705 0.001160
0.483734 0.081177 0.002075
0.514893 0.086334 0.001587
0.539429 0.085175 0.003143
0.568787 0.089386 0.010284
0.593445 0.091827 0.000366
0.617554 0.094147 0.005127
0.639709 0.095398 0.001343
0.653259 0.096283 0.000671
0.656769 0.096405 0.000549
0.659637 0.096191 0.000702
0.663086 0.096313 0.000946
0.666779 0.096741 0.001068
0.668610 0.096802 0.002045
0.671875 0.097534 0.002655
0.675415 0.098328 0.003235
0.678955 0.099121 0.003845
0.682739 0.100464 0.004517
0.686523 0.101898 0.005188
0.153931 0.218445 0.075989
0.153992 0.216034 0.074524
0.153778 0.213104 0.072357
0.153076 0.208862 0.069397
0.153229 0.201447 0.061890
0.167480 0.188477 0.062408
0.181763 0.181702 0.040344
0.210541 0.176941 0.015533
0.251404 0.168640 0.022491
0.290100 0.155640 0.015900
0.331116 0.143188 0.005676
0.370361 0.133820 0.008759
0.402954 0.120453 0.006256
0.446716 0.112183 0.001587
0.485352 0.103210 0.003265
0.518738 0.101227 0.001831
0.555115 0.098206 0.003601
0.580322 0.100128 0.000702
0.606567 0.101685 0.005768
0.632141 0.103363 0.002991
0.653015 0.105225 0.001312
0.665649 0.104126 0.002441
0.671600 0.104126 0.001617
0.675171 0.104523 0.001404
0.678040 0.104828 0.001251
0.681458 0.105621 0.001312
0.682861 0.105560 0.002197
0.683624 0.105225 0.003418
0.684265 0.104858 0.004730
0.685089 0.104614 0.006042
0.688324 0.105743 0.006897
0.692078 0.107147 0.007599
0.168060 0.250549 0.081268
0.168549 0.248505 0.079102
0.168823 0.246338 0.076660
0.168518 0.242859 0.073700
0.168152 0.239410 0.070770
0.176086 0.231750 0.069427
0.188232 0.224976 0.054840
0.218567 0.216431 0.048920
0.257538 0.210114 0.032990
0.293671 0.199829 0.027618
0.335266 0.188751 0.020081
0.379669 0.177307 0.009216
0.417572 0.163727 0.004395
0.456818 0.153564 0.000702
0.493103 0.144073 0.006470
0.525024 0.129822 0.004242
0.561340 0.122894 0.000092
0.593506 0.118256 0.003754
0.616241 0.115173 0.000427
0.640381 0.112671 0.001526
0.663025 0.115967 0.001282
0.678833 0.115997 0.006927
0.683899 0.115570 0.005005
0.685028 0.114532 0.003540
0.688232 0.114594 0.002960
0.692169 0.115601 0.002899
0.694885 0.115356 0.002380
0.696930 0.114532 0.001495
0.698700 0.113922 0.001312
0.699585 0.113800 0.002899
0.701202 0.114166 0.004272
0.702850 0.114502 0.005676
0.178223 0.290222 0.097015
0.178864 0.287964 0.095367
0.179565 0.285431 0.094543
0.179382 0.281433 0.093140
0.179626 0.277405 0.091827
0.183655 0.269104 0.087830
0.201263 0.264862 0.082672
0.225830 0.255707 0.070068
0.259857 0.249023 0.059570
0.300659 0.241852 0.048615
0.336487 0.226593 0.035065
0.372284 0.215881 0.027344
0.421295 0.206360 0.018555
0.460144 0.196259 0.012695
0.497406 0.184387 0.007141
0.533417 0.172424 0.007141
0.566010 0.158508 0.004639
0.601807 0.145294 0.000092
0.631439 0.137207 0.003204
0.649414 0.135010 0.001862
0.670197 0.128357 0.004333
0.691895 0.130859 0.003510
0.700836 0.130005 0.008270
0.702332 0.128235 0.009430
0.702576 0.126740 0.007538
0.704559 0.126434 0.006805
0.706787 0.126099 0.005981
0.708710 0.124969 0.004700
0.710510 0.123688 0.003632
0.712280 0.122375 0.002472
0.714905 0.121704 0.001556
0.717499 0.121063 0.000702
0.196075 0.330353 0.115356
0.196381 0.327637 0.113983
0.196167 0.325012 0.111572
0.195740 0.321442 0.108459
0.195282 0.317688 0.104218
0.196533 0.312836 0.101440
0.211761 0.309692 0.101746
0.233551 0.304657 0.091644
0.267914 0.298737 0.074982
0.303040 0.288239 0.063568
0.340698 0.274811 0.056000
0.387634 0.262024 0.047485
0.413849 0.247406 0.047180
0.462891 0.238556 0.026306
0.502197 0.225983 0.016052
0.538940 0.216827 0.011383
0.573486 0.201782 0.007294
0.612457 0.188690 0.009827
0.640076 0.173492 0.002655
0.670288 0.158936 0.000427
0.691040 0.156006 0.003510
0.705109 0.149445 0.008881
0.720581 0.144653 0.000824
0.722382 0.142853 0.001770
0.724152 0.141052 0.004089
0.726135 0.139801 0.006714
0.728180 0.139008 0.008911
0.730103 0.138184 0.009949
0.731842 0.136932 0.009033
0.733917 0.135895 0.008026
0.736877 0.135620 0.006805
0.739929 0.135345 0.005524
0.226135 0.373199 0.122894
0.226990 0.372070 0.122314
0.227295 0.370422 0.121185
0.226837 0.367859 0.119995
0.225952 0.365143 0.118683
0.224060 0.360260 0.115662
0.228149 0.351990 0.111969
0.246277 0.346832 0.110291
0.275360 0.341949 0.097565
0.308105 0.336823 0.083466
0.346436 0.326019 0.085510
0.391663 0.317596 0.075287
0.428467 0.305725 0.057922
0.467834 0.289124 0.048248
0.505463 0.273743 0.040894
0.540894 0.259216 0.031158
0.580139 0.246674 0.020874
0.616882 0.229279 0.015686
0.645203 0.210052 0.004364
0.675262 0.203033 0.004547
0.704376 0.188202 0.009949
0.722809 0.179413 0.006378
0.732056 0.169830 0.008209
0.739075 0.166321 0.006104
0.743225 0.162994 0.003845
0.745331 0.160645 0.003662
0.746979 0.158783 0.003876
0.747772 0.156433 0.004211
0.749390 0.154755 0.004700
0.752258 0.154144 0.005341
0.755615 0.154449 0.006195
0.759033 0.154816 0.007019
0.247406 0.408264 0.130981
0.248505 0.407471 0.130463
0.249847 0.406250 0.131409
0.250702 0.404114 0.132080
0.251099 0.401855 0.131592
0.250916 0.399200 0.129578
0.255096 0.395172 0.127869
0.264099 0.389923 0.123199
0.284058 0.384460 0.114075
0.313843 0.376312 0.105499
0.349701 0.369415 0.103760
0.391296 0.355957 0.095642
0.430939 0.347137 0.082947
0.473755 0.338684 0.079590
0.512085 0.327332 0.063568
0.546387 0.315277 0.063293
0.581390 0.298218 0.049255
0.619690 0.280975 0.036591
0.658081 0.264435 0.030334
0.684052 0.248322 0.016815
0.714569 0.235901 0.019653
0.734039 0.220215 0.010529
0.756897 0.209015 0.012909
0.760071 0.199707 0.012024
0.760040 0.192474 0.010315
0.760712 0.188080 0.009827
0.763672 0.185638 0.008942
0.765991 0.183228 0.008911
0.768463 0.181122 0.008881
0.770050 0.179016 0.009155
0.771698 0.177856 0.009705
0.773438 0.176819 0.010315
0.270935 0.441559 0.143433
0.271637 0.440277 0.142029
0.272705 0.439636 0.140930
0.273590 0.438812 0.139740
0.274414 0.437164 0.140076
0.274933 0.434723 0.140991
0.275452 0.431915 0.141693
0.284149 0.429260 0.140167
0.298370 0.426575 0.132263
0.326294 0.420166 0.127594
0.354309 0.413910 0.118958
0.397766 0.404968 0.111023
0.440002 0.397980 0.108398
0.477875 0.383209 0.097412
0.516602 0.372711 0.091644
0.551971 0.362000 0.080902
0.591003 0.349335 0.068787
0.626038 0.332825 0.063629
0.658691 0.321136 0.053253
0.693634 0.301422 0.048157
0.721008 0.284637 0.036377
0.747894 0.269470 0.035217
0.767914 0.253967 0.027802
0.779449 0.244904 0.024597
0.782349 0.237610 0.024567
0.783356 0.231567 0.024353
0.784698 0.227417 0.023926
0.786194 0.223419 0.023773
0.787506 0.218933 0.023346
0.789001 0.214386 0.022583
0.792023 0.212646 0.022156
0.795044 0.211243 0.021790
0.296875 0.479706 0.156494
0.298065 0.479034 0.155396
0.299377 0.478333 0.155151
0.300293 0.476898 0.154816
0.300934 0.475250 0.153168
0.300781 0.472687 0.151031
0.300476 0.469757 0.148743
0.304718 0.465027 0.143127
0.315704 0.462250 0.154388
0.332306 0.458557 0.140900
0.365875 0.451843 0.134705
0.401489 0.445374 0.129761
0.444702 0.441315 0.118408
0.482056 0.429993 0.109070
0.519196 0.418610 0.107666
0.556183 0.407776 0.106049
0.596039 0.395874 0.095123
0.629303 0.385895 0.089752
0.666656 0.369598 0.079193
0.700714 0.354706 0.075195
0.731354 0.340851 0.065826
0.755402 0.320404 0.059174
0.780029 0.307892 0.057587
0.791809 0.295715 0.053192
0.797760 0.283600 0.046539
0.800934 0.275360 0.041962
0.804565 0.270050 0.039124
0.806763 0.264954 0.038605
0.808777 0.260223 0.038116
0.810425 0.256134 0.037506
0.813049 0.253998 0.037659
0.816254 0.252350 0.038208
0.325745 0.516968 0.173828
0.326965 0.516541 0.174103
0.328491 0.515961 0.174164
0.329834 0.515045 0.173828
0.330902 0.514191 0.173523
0.331268 0.512604 0.172699
0.331512 0.510834 0.171753
0.331390 0.508728 0.170288
0.338776 0.501495 0.162323
0.349915 0.500275 0.156342
0.375397 0.494812 0.147949
0.408112 0.488922 0.140778
0.448914 0.478943 0.133240
0.484192 0.469116 0.131012
0.522827 0.462372 0.126892
0.560699 0.450439 0.113556
0.597504 0.441986 0.114563
0.632782 0.433441 0.109131
0.668701 0.420654 0.102783
0.708893 0.410675 0.095795
0.740997 0.392059 0.087158
0.767456 0.377655 0.089294
0.787079 0.361542 0.075378
0.805573 0.349152 0.080048
0.815430 0.336578 0.075256
0.816711 0.326477 0.069794
0.818390 0.320984 0.066498
0.820801 0.316437 0.064514
0.823700 0.312653 0.062866
0.826508 0.308594 0.061005
0.829895 0.306641 0.060303
0.832916 0.304596 0.060059
0.350464 0.550659 0.189056
0.351715 0.550385 0.187653
0.352905 0.550018 0.186523
0.354034 0.549072 0.186188
0.355225 0.547668 0.186096
0.356079 0.545685 0.185791
0.356567 0.543243 0.185272
0.356567 0.540161 0.184631
0.360504 0.536560 0.182648
0.370605 0.533630 0.175537
0.389130 0.530853 0.171539
0.416138 0.522888 0.163147
0.456848 0.519806 0.155792
0.493744 0.516510 0.150665
0.528290 0.505188 0.138336
0.565704 0.498077 0.137146
0.603394 0.488739 0.131805
0.635101 0.475830 0.126465
0.673767 0.467377 0.115082
0.711761 0.456665 0.116547
0.745483 0.442108 0.110291
0.774292 0.429749 0.102753
0.793427 0.415924 0.102875
0.819153 0.403351 0.099426
0.833557 0.391663 0.099365
0.836212 0.384521 0.097839
0.839539 0.380493 0.096924
0.841827 0.375458 0.094940
0.843933 0.369934 0.092377
0.845734 0.363800 0.089386
0.848267 0.360901 0.088104
0.850708 0.358429 0.087158
0.380890 0.584167 0.204102
0.382080 0.583710 0.203705
0.383057 0.583252 0.203461
0.383820 0.582642 0.202637
0.384277 0.581726 0.201813
0.384216 0.580200 0.200836
0.384094 0.578491 0.199799
0.383972 0.576141 0.198761
0.386688 0.573547 0.198425
0.398407 0.571167 0.200806
0.407257 0.566467 0.186218
0.426453 0.562744 0.182800
0.460876 0.553894 0.180023
0.499023 0.549835 0.167542
0.534546 0.543243 0.163605
0.572388 0.535370 0.156311
0.608032 0.530396 0.151733
0.640411 0.520660 0.144745
0.673828 0.511353 0.138580
0.712921 0.502899 0.124664
0.748993 0.489349 0.128693
0.777374 0.475830 0.121338
0.803375 0.465881 0.119995
0.828918 0.453949 0.122498
0.846863 0.442627 0.119110
0.849823 0.435547 0.116455
0.853027 0.430939 0.114899
0.856018 0.426880 0.112549
0.858887 0.422119 0.112427
0.861572 0.417145 0.112213
0.864716 0.414398 0.112152
0.867920 0.411835 0.111877
0.410553 0.617401 0.215179
0.411682 0.617157 0.214294
0.412659 0.616791 0.213409
0.413849 0.616394 0.212738
0.415039 0.615814 0.212189
0.415100 0.614319 0.210968
0.415161 0.612762 0.209961
0.414948 0.610840 0.210022
0.414490 0.608368 0.210968
0.420074 0.601593 0.208466
0.432800 0.602081 0.204834
0.445404 0.600281 0.202942
0.469604 0.592438 0.197815
0.501404 0.583374 0.189270
0.542023 0.580536 0.186707
0.573517 0.573853 0.176636
0.613312 0.567810 0.170654
0.644958 0.559082 0.164856
0.679413 0.549194 0.154816
0.716797 0.541656 0.152496
0.749542 0.531281 0.141296
0.782593 0.522186 0.129822
0.811310 0.511353 0.136505
0.833221 0.497955 0.133820
0.854218 0.487732 0.137756
0.860016 0.479706 0.136688
0.862671 0.474976 0.135193
0.865509 0.471222 0.134430
0.868286 0.467529 0.131989
0.871094 0.464142 0.129028
0.874481 0.462585 0.127289
0.877991 0.461212 0.125641
0.442230 0.649475 0.231323
0.443634 0.649384 0.230957
0.445038 0.649292 0.230408
0.445862 0.648468 0.229797
0.446503 0.647400 0.229462
0.446686 0.645935 0.228821
0.446564 0.644073 0.228119
0.446259 0.641998 0.227936
0.445435 0.639465 0.227814
0.449554 0.638611 0.226074
0.458069 0.636902 0.222015
0.467957 0.634460 0.221466
0.484833 0.627869 0.213196
0.515350 0.625183 0.206482
0.548706 0.617798 0.202606
0.580536 0.607666 0.198059
0.615784 0.605530 0.189331
0.648773 0.598602 0.187500
0.681305 0.590027 0.182281
0.717224 0.579407 0.167603
0.753235 0.572693 0.172150
0.788055 0.561371 0.162384
0.819153 0.551453 0.151550
0.839325 0.541077 0.147491
0.863220 0.531799 0.152863
0.872314 0.523956 0.152954
0.875946 0.518890 0.151764
0.878296 0.515320 0.151337
0.879913 0.511230 0.150818
0.883545 0.506470 0.149475
0.887177 0.504486 0.149719
0.890656 0.502625 0.149933
0.470367 0.676849 0.248444
0.471710 0.676727 0.248657
0.472839 0.676544 0.248840
0.474060 0.676392 0.248749
0.475250 0.676453 0.248749
0.475922 0.675995 0.248260
0.476501 0.675354 0.247589
0.476807 0.673950 0.246460
0.476776 0.672089 0.244751
0.477173 0.669922 0.243774
0.484436 0.666718 0.242798
0.491150 0.661987 0.237213
0.503510 0.660004 0.228851
0.524323 0.656067 0.231171
0.558502 0.652527 0.224854
0.590240 0.645752 0.217957
0.619934 0.638184 0.212433
0.651215 0.635956 0.206177
0.687866 0.629974 0.202301
0.717926 0.620056 0.195587
0.753754 0.612976 0.188354
0.791473 0.605469 0.180450
0.819000 0.593628 0.179718
0.843201 0.585693 0.180908
0.867432 0.577728 0.178223
0.878906 0.565460 0.176483
0.882874 0.559479 0.174896
0.886200 0.555878 0.174500
0.887207 0.552765 0.173035
0.888458 0.549225 0.172943
0.889740 0.547516 0.173859
0.890930 0.545990 0.174805
0.495331 0.701416 0.264282
0.496399 0.701233 0.264496
0.497437 0.701019 0.264709
0.498352 0.700653 0.264740
0.499451 0.700287 0.263672
0.499908 0.699371 0.262177
0.500458 0.698547 0.261017
0.500916 0.697418 0.260925
0.500916 0.695862 0.260925
0.501099 0.694397 0.261414
0.505554 0.690948 0.260498
0.516846 0.690582 0.249420
0.526611 0.689850 0.253601
0.540009 0.686584 0.252625
0.563477 0.680511 0.244781
0.591949 0.676605 0.238342
0.625427 0.672516 0.229950
0.653809 0.663300 0.227203
0.687134 0.660736 0.220886
0.722687 0.654572 0.214813
0.756622 0.648743 0.215454
0.787872 0.642334 0.208374
0.823120 0.636536 0.204346
0.846039 0.625702 0.200867
0.867432 0.615631 0.202820
0.879395 0.607117 0.202026
0.882263 0.600861 0.199799
0.884796 0.597076 0.198700
0.885864 0.593750 0.199860
0.886963 0.590729 0.199677
0.887939 0.589661 0.199036
0.888947 0.588715 0.198486
0.522583 0.733337 0.282959
0.524231 0.733948 0.283417
0.525757 0.734436 0.283783
0.527130 0.734802 0.284058
0.528259 0.734375 0.283936
0.529144 0.733459 0.283539
0.529877 0.732361 0.283020
0.530945 0.731232 0.282715
0.531219 0.729156 0.282257
0.531036 0.726562 0.281433
0.530823 0.724365 0.280853
0.540955 0.722382 0.272736
0.550354 0.720306 0.272430
0.559601 0.714966 0.266785
0.574524 0.712616 0.263977
0.597504 0.707367 0.259064
0.625824 0.699768 0.253723
0.661224 0.697754 0.248291
0.693054 0.693054 0.244843
0.725250 0.687042 0.239166
0.756134 0.677582 0.230774
0.788269 0.673126 0.228821
0.824585 0.666168 0.223602
0.849182 0.659149 0.218781
0.874176 0.654816 0.217102
0.882782 0.645782 0.222198
0.884216 0.640350 0.221680
0.885162 0.636566 0.220154
0.885925 0.633057 0.219086
0.886597 0.629333 0.217987
0.887421 0.627594 0.219940
0.888550 0.626221 0.222015
0.547913 0.758911 0.300049
0.549683 0.759552 0.300171
0.551270 0.759979 0.300140
0.552734 0.760345 0.300018
0.554443 0.760620 0.299866
0.555969 0.760498 0.299408
0.557404 0.760315 0.299072
0.558258 0.759460 0.298615
0.558624 0.757965 0.297882
0.558929 0.756439 0.297089
0.558899 0.754669 0.296265
0.563110 0.752014 0.294403
0.571259 0.748260 0.294128
0.582184 0.745605 0.289978
0.589691 0.741272 0.286926
0.607330 0.736450 0.283508
0.633148 0.731812 0.275940
0.665283 0.726501 0.266357
0.693573 0.724823 0.264801
0.728333 0.720306 0.261841
0.758850 0.713562 0.253448
0.790680 0.706604 0.251282
0.824310 0.699982 0.244385
0.853638 0.692291 0.243225
0.873810 0.685150 0.237671
0.880768 0.678162 0.245117
0.884918 0.672974 0.244293
0.886414 0.669861 0.243866
0.887146 0.667999 0.244080
0.887909 0.666443 0.244659
0.888672 0.665771 0.245850
0.889465 0.664215 0.246002
0.569305 0.783783 0.317871
0.571075 0.784515 0.317993
0.572876 0.785309 0.318115
0.574402 0.785858 0.318054
0.575958 0.786133 0.317841
0.577332 0.785950 0.317719
0.578491 0.785553 0.317383
0.579193 0.784332 0.316589
0.579315 0.782379 0.315125
0.579254 0.780212 0.313538
0.579254 0.778137 0.312012
0.580719 0.776550 0.311218
0.590210 0.775238 0.307922
0.599823 0.772858 0.308319
0.606964 0.769135 0.303589
0.620544 0.766602 0.298584
0.639191 0.762115 0.297028
0.669037 0.757294 0.290680
0.699768 0.752258 0.290222
0.729797 0.749298 0.282654
0.760895 0.744293 0.283173
0.790527 0.740540 0.284607
0.824921 0.735016 0.276184
0.850952 0.729279 0.272369
0.874084 0.722534 0.266998
0.881775 0.715454 0.267731
0.885223 0.707916 0.265991
0.886749 0.702789 0.266571
0.887970 0.700378 0.266083
0.888824 0.698395 0.267242
0.889618 0.697845 0.269470
0.890381 0.697510 0.271790
0.577454 0.793274 0.323975
0.580139 0.794586 0.324951
0.582764 0.795898 0.325958
0.585449 0.797180 0.326935
0.588043 0.798309 0.327850
0.590576 0.798981 0.328461
0.593170 0.799683 0.329132
0.595276 0.800079 0.329437
0.596313 0.799744 0.328979
0.596954 0.798920 0.328217
0.597687 0.798096 0.327576
0.598907 0.797516 0.326721
0.606415 0.796722 0.323883
0.614838 0.795959 0.321289
0.624084 0.795135 0.322968
0.635468 0.793365 0.318085
0.648590 0.789917 0.315887
0.676056 0.786987 0.313049
0.704193 0.782349 0.306671
0.734283 0.778351 0.306610
0.760803 0.770386 0.301910
0.795410 0.766113 0.299072
0.824707 0.761108 0.299164
0.851440 0.756500 0.297424
0.871582 0.751007 0.297272
0.880493 0.747681 0.296600
0.885193 0.741913 0.298065
0.887848 0.738312 0.295135
0.888794 0.736298 0.294464
0.889648 0.734100 0.294128
0.890533 0.733063 0.294647
0.891388 0.732086 0.295258
0.582336 0.797516 0.327545
0.584961 0.798828 0.328552
0.587677 0.800171 0.329559
0.590363 0.801453 0.330536
0.592926 0.802612 0.331421
0.595490 0.803284 0.332062
0.598114 0.804016 0.332764
0.600555 0.804718 0.333344
0.602020 0.804718 0.333160
0.603424 0.804626 0.332916
0.604614 0.804413 0.332581
0.606262 0.804291 0.332031
0.610992 0.804230 0.331024
0.618835 0.803528 0.327881
0.629456 0.803741 0.329987
0.639435 0.802765 0.325073
0.650970 0.800934 0.328369
0.677887 0.800110 0.322449
0.703827 0.797302 0.317108
0.734009 0.795105 0.317688
0.762543 0.792999 0.313690
0.793365 0.788879 0.312592
0.825256 0.785248 0.309357
0.852692 0.781799 0.316956
0.872284 0.775940 0.318512
0.879517 0.769989 0.315399
0.882721 0.761993 0.320740
0.887756 0.761627 0.316498
0.888794 0.760529 0.315338
0.889740 0.759338 0.314850
0.890686 0.759125 0.315613
0.891632 0.758820 0.316406
0.587097 0.801666 0.330994
0.589722 0.802979 0.332031
0.592407 0.804291 0.333038
0.595062 0.805603 0.334015
0.597687 0.806763 0.334930
0.600250 0.807434 0.335602
0.602875 0.808197 0.336273
0.605408 0.809052 0.336914
0.606995 0.809174 0.336792
0.608521 0.809235 0.336700
0.609924 0.809235 0.336456
0.611145 0.808990 0.335876
0.615234 0.809265 0.335022
0.621246 0.808380 0.333984
0.632141 0.808563 0.333588
0.642670 0.809143 0.333588
0.653473 0.806427 0.333466
