滤镜资源/Professional Luts Collection/Triune-Digital-Cinematic-LUTs/3D LUTs (CUBE)/LOG/3h10 to Yuma - LOG.cube
#Created by Benjamin (IWLTBAP) : http://luts.iwltbap.com
#Copyright: (C) Copyright 2016 Triune Films and IWLTBAP
TITLE "Blockbuster LUTs Pack (LOG)"
#LUT size
LUT_3D_SIZE 5
#LUT data points
DOMAIN_MIN 0.000000 0.000000 0.000000
DOMAIN_MAX 0.903226 0.903226 0.903226
0.018738 0.012329 0.007721
0.163727 0.000000 0.000000
0.429993 0.038879 0.012878
0.622589 0.082520 0.001770
0.656677 0.089905 0.000000
0.153931 0.218445 0.075989
0.210541 0.176941 0.015533
0.485352 0.103210 0.003265
0.665649 0.104126 0.002441
0.684265 0.104858 0.004730
0.296875 0.479706 0.156494
0.304718 0.465027 0.143127
0.519196 0.418610 0.107666
0.755402 0.320404 0.059174
0.808777 0.260223 0.038116
0.495331 0.701416 0.264282
0.500916 0.697418 0.260925
0.563477 0.680511 0.244781
0.787872 0.642334 0.208374
0.885864 0.593750 0.199860
0.591766 0.805817 0.334442
0.610596 0.813995 0.340759
0.634186 0.812408 0.336029
0.790161 0.806824 0.322174
0.890778 0.788147 0.352173
0.000458 0.002472 0.135132
0.153809 0.001160 0.099396
0.447906 0.048737 0.029175
0.638458 0.085052 0.023224
0.665558 0.088287 0.018097
0.109039 0.188782 0.172302
0.184662 0.157166 0.137451
0.471191 0.097870 0.029907
0.671417 0.104645 0.015656
0.691956 0.106201 0.012024
0.285461 0.476654 0.193909
0.295837 0.463562 0.179047
0.512512 0.415710 0.128662
0.754272 0.318298 0.076324
0.802032 0.254517 0.055725
0.498352 0.708191 0.288422
0.497833 0.698273 0.277802
0.558655 0.681030 0.262390
0.785431 0.640045 0.222473
0.885834 0.590546 0.209991
0.599304 0.814240 0.358459
0.611267 0.816254 0.360046
0.630859 0.812225 0.355438
0.788300 0.806854 0.334015
0.891052 0.788879 0.358215
0.001831 0.032135 0.357178
0.089600 0.026031 0.335052
0.400940 0.037201 0.261078
0.604767 0.077606 0.229950
0.642548 0.082916 0.213684
0.057281 0.155609 0.406097
0.104462 0.121613 0.371643
0.399170 0.070953 0.285889
0.626068 0.092407 0.209808
0.662994 0.096222 0.190918
0.212402 0.453888 0.432312
0.221893 0.441772 0.416290
0.444977 0.393494 0.355835
0.719879 0.285065 0.248352
0.785645 0.224365 0.197906
0.445618 0.704041 0.433197
0.450073 0.696564 0.427856
0.510437 0.676575 0.387604
0.756439 0.634308 0.323761
0.884918 0.584564 0.275360
0.580688 0.813538 0.430725
0.591797 0.813995 0.421631
0.617615 0.813873 0.408478
0.777832 0.809052 0.369293
0.891174 0.789795 0.369476
0.001373 0.063904 0.495483
0.056396 0.065826 0.511932
0.353851 0.062744 0.474243
0.575348 0.081726 0.445038
0.602295 0.084167 0.442078
0.008850 0.121552 0.564484
0.039520 0.103546 0.554382
0.321655 0.088135 0.514862
0.569092 0.090820 0.455719
0.615692 0.091583 0.430420
0.181000 0.405609 0.652069
0.183075 0.389404 0.640717
0.359863 0.332275 0.598938
0.616241 0.235077 0.495392
0.681824 0.176483 0.446655
0.386139 0.685944 0.666748
0.389221 0.676697 0.654083
0.445343 0.657349 0.632507
0.685699 0.619965 0.571014
0.837738 0.554077 0.504303
0.525696 0.814087 0.639038
0.538208 0.816223 0.636200
0.560760 0.814117 0.617523
0.717072 0.812866 0.576965
0.888275 0.791626 0.544586
0.000671 0.071899 0.528656
0.070007 0.068726 0.528320
0.345581 0.070404 0.513062
0.566406 0.083466 0.477600
0.597534 0.087891 0.481964
0.007385 0.119232 0.591888
0.035156 0.105347 0.589142
0.306213 0.087280 0.544617
0.558105 0.091400 0.496399
0.608612 0.095978 0.490021
0.168793 0.370972 0.685822
0.171295 0.347992 0.689240
0.331085 0.289124 0.661957
0.562744 0.185486 0.581238
0.636322 0.149811 0.542389
0.367737 0.667480 0.761414
0.371399 0.660706 0.762970
0.419312 0.636475 0.753601
0.637726 0.587280 0.712830
0.775085 0.513397 0.674194
0.509644 0.807587 0.789551
0.524811 0.811646 0.795990
0.541626 0.812500 0.795013
0.667389 0.808380 0.781067
0.858765 0.789856 0.748962
