滤镜资源/Professional Luts Collection/Triune-Digital-Cinematic-LUTs/3D LUTs (CUBE)/LOG/Captain America Civil War - LOG.cube
#Created by Benjamin (IWLTBAP) : http://luts.iwltbap.com
#Copyright: (C) Copyright 2016 Triune Films and IWLTBAP
TITLE "Blockbuster LUTs Pack (LOG)"
#LUT size
LUT_3D_SIZE 8
#LUT data points
DOMAIN_MIN 0.000000 0.000000 0.000000
DOMAIN_MAX 0.903226 0.903226 0.903226
0.001221 0.001709 0.000366
0.095337 0.023529 0.017273
0.243652 0.054840 0.040283
0.438293 0.109467 0.074554
0.628479 0.183228 0.113770
0.735779 0.226807 0.125397
0.761810 0.237885 0.133545
0.783447 0.248932 0.140564
0.004333 0.070465 0.006531
0.066559 0.074799 0.016357
0.215729 0.090881 0.039703
0.402130 0.125427 0.068817
0.608154 0.193634 0.111938
0.731506 0.244293 0.124908
0.767334 0.259766 0.136139
0.789673 0.270081 0.144196
0.000000 0.185577 0.013458
0.016541 0.181702 0.014648
0.171265 0.178711 0.028107
0.341248 0.204956 0.069000
0.556519 0.262054 0.113861
0.724274 0.309875 0.128632
0.782104 0.324524 0.145996
0.804443 0.330994 0.156830
0.000000 0.315063 0.044678
0.016541 0.311035 0.044830
0.074158 0.322235 0.039276
0.309875 0.313416 0.038696
0.524048 0.353210 0.124115
0.715302 0.400024 0.143860
0.797699 0.424500 0.165985
0.817291 0.427216 0.178772
0.012268 0.466003 0.095703
0.028656 0.461029 0.096100
0.058929 0.455688 0.094971
0.160980 0.481140 0.072174
0.492920 0.472473 0.090485
0.703308 0.516296 0.171295
0.818817 0.535736 0.185181
0.834564 0.533264 0.199402
0.047272 0.624115 0.151733
0.062103 0.618988 0.154205
0.075256 0.609985 0.153229
0.154175 0.613190 0.154327
0.290497 0.632843 0.094452
0.671875 0.643219 0.099243
0.827118 0.653748 0.221527
0.855499 0.648529 0.237457
0.075012 0.769196 0.195068
0.092102 0.762085 0.200012
0.108582 0.753265 0.201050
0.151581 0.747314 0.200836
0.262054 0.764313 0.224701
0.523682 0.788483 0.118134
0.805237 0.775360 0.157166
0.870514 0.774414 0.286224
0.083893 0.804443 0.212433
0.100922 0.801697 0.217377
0.118561 0.800629 0.221741
0.139374 0.801971 0.224243
0.250031 0.820374 0.247894
0.373016 0.845978 0.263916
0.735535 0.872620 0.160431
0.883057 0.878662 0.158905
0.003021 0.005371 0.064087
0.094269 0.011780 0.066711
0.242554 0.050873 0.083771
0.439453 0.104004 0.110840
0.630920 0.180725 0.140259
0.736725 0.225220 0.140900
0.762451 0.237427 0.148438
0.783722 0.248779 0.156067
0.005280 0.069092 0.051819
0.056061 0.070343 0.056702
0.219330 0.085846 0.069733
0.405975 0.119446 0.091827
0.608185 0.191406 0.126465
0.731781 0.242584 0.140137
0.767090 0.259064 0.152130
0.789154 0.269867 0.160034
0.000000 0.183228 0.038391
0.016541 0.180817 0.034210
0.169159 0.177063 0.044769
0.343201 0.201904 0.083984
0.560150 0.260925 0.128784
0.729767 0.308807 0.144684
0.786255 0.324310 0.164948
0.806580 0.330353 0.176056
0.000000 0.312805 0.067688
0.016541 0.310883 0.066467
0.073273 0.319244 0.066223
0.308502 0.311005 0.056274
0.528809 0.354370 0.139740
0.721069 0.401520 0.160126
0.800171 0.424164 0.187439
0.818115 0.426727 0.202484
0.010651 0.463165 0.121490
0.027740 0.460266 0.118073
0.057831 0.455414 0.115936
0.159882 0.480774 0.097015
0.497711 0.476135 0.109985
0.707184 0.518585 0.187439
0.815521 0.532471 0.207855
0.830505 0.529236 0.222534
0.046448 0.621246 0.174377
0.061951 0.617767 0.173065
0.075348 0.609222 0.172211
0.153900 0.612885 0.174042
0.283691 0.621155 0.140106
0.676727 0.645905 0.121521
0.823395 0.649872 0.237854
0.852844 0.645630 0.254272
0.075409 0.764923 0.217133
0.092957 0.762268 0.218658
0.109039 0.753296 0.219238
0.151367 0.747345 0.219269
0.261719 0.763641 0.244171
0.527893 0.788361 0.145599
0.802399 0.772919 0.178864
0.869690 0.772400 0.303925
0.084198 0.802185 0.235107
0.102448 0.803192 0.236877
0.119995 0.801880 0.241364
0.139587 0.802460 0.243652
0.250458 0.821747 0.268005
0.372864 0.846588 0.283264
0.732971 0.870941 0.192261
0.883789 0.878662 0.178650
0.003540 0.024017 0.216187
0.066315 0.022614 0.212708
0.230499 0.021759 0.197113
0.418671 0.094055 0.196991
0.631378 0.173981 0.221375
0.741272 0.229492 0.243469
0.763489 0.242126 0.246979
0.780365 0.247498 0.249603
0.002350 0.088715 0.184631
0.038300 0.072479 0.187164
0.204498 0.059113 0.178650
0.406555 0.112396 0.181213
0.611511 0.183838 0.207123
0.737366 0.244171 0.228088
0.768005 0.260681 0.232452
0.786499 0.269562 0.239166
0.000000 0.184296 0.160187
0.016541 0.180878 0.158905
0.124542 0.188629 0.179047
0.354553 0.196167 0.158661
0.568481 0.251068 0.197296
0.734894 0.305450 0.208099
0.786041 0.322784 0.223969
0.802399 0.326263 0.230316
0.000122 0.307831 0.169434
0.016663 0.305817 0.163666
0.071198 0.314453 0.151093
0.295349 0.302704 0.105804
0.536530 0.352875 0.176208
0.727844 0.402863 0.194885
0.802094 0.422943 0.216492
0.818237 0.424713 0.228760
0.008118 0.457794 0.171265
0.024811 0.455627 0.166199
0.052765 0.451477 0.152100
0.156403 0.477478 0.127869
0.498413 0.476532 0.127411
0.709808 0.520233 0.204651
0.814270 0.529907 0.234528
0.829102 0.526611 0.249969
0.045441 0.617737 0.196045
0.060974 0.614288 0.194122
0.074921 0.606659 0.190765
0.152557 0.610840 0.192505
0.272156 0.611542 0.175842
0.678711 0.648254 0.142303
0.819733 0.645844 0.254333
0.849579 0.641693 0.270264
0.076233 0.761475 0.238190
0.093353 0.758881 0.238739
0.109650 0.752533 0.237427
0.149658 0.745819 0.236176
0.260498 0.762299 0.263397
0.526886 0.783966 0.179108
0.799988 0.769714 0.203064
0.868988 0.769745 0.320312
0.084930 0.801117 0.256195
0.103149 0.801758 0.258026
0.121582 0.803436 0.261200
0.139496 0.803680 0.263367
0.250427 0.822510 0.287567
0.372253 0.846649 0.302399
0.731995 0.869873 0.214203
0.883331 0.878448 0.197388
0.024109 0.034088 0.392456
0.080200 0.034912 0.382690
0.200714 0.037018 0.364105
0.382446 0.039429 0.327362
0.576843 0.170197 0.356750
0.733643 0.232300 0.403137
0.760284 0.246460 0.402435
0.779297 0.255829 0.402924
0.014984 0.104675 0.352509
0.053833 0.071747 0.361450
0.167267 0.062653 0.350433
0.355591 0.058472 0.310944
0.557159 0.175934 0.333771
0.731354 0.248108 0.388306
0.764587 0.265961 0.389984
0.783905 0.276337 0.391479
0.000427 0.203491 0.305969
0.016968 0.199585 0.302704
0.094391 0.195312 0.316284
0.320465 0.168945 0.306213
0.553284 0.242004 0.321472
0.728943 0.310150 0.375793
0.780914 0.326569 0.382812
0.798035 0.330078 0.383118
0.000000 0.308197 0.300751
0.016541 0.304718 0.296448
0.068848 0.304657 0.294373
0.204346 0.300354 0.300446
0.521759 0.350830 0.325226
0.713745 0.406494 0.375946
0.795563 0.423431 0.378876
0.814545 0.423981 0.375183
0.014771 0.452637 0.318268
0.029724 0.448639 0.312683
0.049927 0.439697 0.300690
0.150513 0.471466 0.293396
0.474426 0.470795 0.225616
0.696625 0.517792 0.347534
0.814087 0.528259 0.362244
0.831848 0.524597 0.358673
0.048065 0.615662 0.305450
0.063690 0.611115 0.300995
0.078705 0.604095 0.292328
0.155975 0.609192 0.284546
0.269440 0.610992 0.274719
0.672058 0.654022 0.231293
0.811157 0.635376 0.312958
0.844788 0.634033 0.317566
0.079163 0.760376 0.299194
0.095642 0.757629 0.295837
0.110474 0.750946 0.287170
0.147827 0.743469 0.277832
0.258698 0.758453 0.295746
0.512146 0.769501 0.234497
0.795929 0.764862 0.228912
0.868500 0.766815 0.335297
0.087463 0.802399 0.289062
0.105164 0.802765 0.288330
0.122955 0.803802 0.286011
0.141052 0.805115 0.283478
0.248535 0.822205 0.306335
0.371490 0.848724 0.324860
0.727295 0.868561 0.238617
0.883240 0.878357 0.217072
0.047089 0.034027 0.598602
0.100525 0.033478 0.584808
0.200012 0.033966 0.572998
0.368256 0.035828 0.541412
0.641846 0.096252 0.540314
0.820496 0.160889 0.578278
0.841583 0.193909 0.570984
0.855774 0.209686 0.567322
0.036072 0.080170 0.571808
0.075165 0.064301 0.568695
0.175140 0.056946 0.554474
0.331390 0.051544 0.517548
0.603821 0.101685 0.510284
0.802399 0.187103 0.554626
0.826324 0.224152 0.550842
0.828705 0.249023 0.546783
0.013184 0.213013 0.493622
0.033539 0.200592 0.498199
0.121277 0.136841 0.535645
0.276794 0.118530 0.495514
0.540100 0.171722 0.475037
0.750397 0.267975 0.518127
0.774475 0.318848 0.515869
0.796539 0.322815 0.514862
0.016602 0.336700 0.459778
0.029022 0.326355 0.448486
0.075867 0.318909 0.444031
0.169312 0.298035 0.469055
0.504303 0.307251 0.465027
0.708221 0.395355 0.501221
0.805420 0.420837 0.513153
0.825043 0.421814 0.510284
0.031097 0.464264 0.451904
0.046600 0.458923 0.446045
0.065369 0.450745 0.437531
0.161194 0.467987 0.450256
0.365692 0.444061 0.455078
0.681183 0.512970 0.494537
0.820435 0.529358 0.511078
0.840790 0.528137 0.505219
0.057068 0.616577 0.457489
0.072388 0.612610 0.452545
0.086609 0.604919 0.443359
0.156921 0.606934 0.438904
0.263947 0.617523 0.423370
0.646149 0.633240 0.438538
0.823547 0.651031 0.483673
0.861694 0.651093 0.483093
0.086487 0.758331 0.448792
0.102966 0.754944 0.442200
0.118347 0.748688 0.432831
0.153229 0.742676 0.417572
0.266602 0.760834 0.429565
0.460632 0.755646 0.422638
0.799561 0.778076 0.396637
0.870911 0.766449 0.428833
0.098816 0.807678 0.425537
0.116882 0.809753 0.422546
0.133820 0.809326 0.417053
0.150726 0.809601 0.407379
0.254944 0.826965 0.418610
0.377747 0.856964 0.433197
0.728302 0.877289 0.347534
0.885773 0.882446 0.292847
0.062683 0.046844 0.767151
0.117004 0.046051 0.757690
0.237701 0.051544 0.752960
0.425415 0.082397 0.767395
0.683075 0.137329 0.754333
0.854462 0.166229 0.771362
0.882874 0.173096 0.766113
0.903687 0.187744 0.765686
0.061371 0.096588 0.762360
0.094818 0.078613 0.759491
0.213074 0.073334 0.752014
0.384766 0.091736 0.756866
0.656433 0.145996 0.736206
0.841644 0.181427 0.752563
0.881104 0.189667 0.747559
0.900696 0.208405 0.745728
0.040070 0.211548 0.712036
0.063263 0.201508 0.715210
0.163879 0.149475 0.748505
0.315887 0.156067 0.743622
0.583008 0.180664 0.690033
0.808350 0.228180 0.712311
0.873047 0.248505 0.710083
0.891846 0.257019 0.707855
0.043671 0.365021 0.655396
0.058563 0.357513 0.652191
0.097931 0.336029 0.653290
0.198456 0.323730 0.673096
0.469055 0.276001 0.666107
0.751831 0.349152 0.667114
0.866577 0.362823 0.677521
0.886230 0.365112 0.670258
0.043365 0.486176 0.614410
0.059387 0.483398 0.609375
0.075287 0.474030 0.598602
0.170105 0.480713 0.610809
0.329376 0.461884 0.626495
0.703888 0.486084 0.642334
0.828430 0.520447 0.641479
0.853333 0.528870 0.642334
0.067810 0.618225 0.611237
0.083649 0.614868 0.606720
0.098114 0.607452 0.597748
0.165863 0.607574 0.596161
0.279724 0.633362 0.618317
0.613220 0.638733 0.626587
0.832092 0.668518 0.650726
0.876709 0.665710 0.649170
0.105499 0.770020 0.623779
0.120758 0.765564 0.618011
0.134186 0.756348 0.607605
0.165192 0.748596 0.596039
0.280212 0.763733 0.600037
0.417175 0.771881 0.591553
0.793640 0.798859 0.584259
0.899017 0.800934 0.630219
0.118988 0.822906 0.602875
0.133484 0.818359 0.594635
0.150391 0.818359 0.587738
0.167236 0.818817 0.577026
0.271606 0.838135 0.577118
0.400848 0.880432 0.597321
0.701813 0.897095 0.562592
0.901703 0.903656 0.430756
0.076294 0.062561 0.811707
0.126251 0.055023 0.797516
0.253265 0.063873 0.791931
0.434387 0.098846 0.824249
0.678955 0.142395 0.801575
0.862885 0.171509 0.832581
0.897430 0.177002 0.841278
0.919128 0.200104 0.847809
0.075867 0.113037 0.807678
0.104767 0.086792 0.801239
0.229309 0.082520 0.795959
0.402100 0.112488 0.826111
0.652252 0.155823 0.798462
0.850342 0.187714 0.828339
0.897247 0.196045 0.842163
0.920227 0.221497 0.849762
0.057678 0.235016 0.771423
0.080994 0.217133 0.769775
0.191162 0.169403 0.808868
0.351776 0.179199 0.827850
0.601562 0.204590 0.800079
0.822418 0.228790 0.831085
0.899628 0.248657 0.846619
0.922302 0.259430 0.854095
0.062012 0.376556 0.765442
0.079376 0.357239 0.763062
0.130310 0.332916 0.765961
0.275757 0.312744 0.806793
0.494934 0.277924 0.822632
0.774048 0.328979 0.830505
0.907867 0.376343 0.859985
0.928162 0.379028 0.862122
0.068085 0.520538 0.764984
0.081207 0.510773 0.756104
0.095673 0.500092 0.751221
0.206146 0.505493 0.770020
0.356171 0.512878 0.812256
0.710754 0.456818 0.852234
0.903015 0.517151 0.855286
0.925201 0.515350 0.849670
0.103455 0.651733 0.784973
0.115265 0.641510 0.776306
0.127350 0.630005 0.767426
0.195801 0.628937 0.767761
0.322693 0.648468 0.790955
0.574097 0.660614 0.825470
0.872925 0.668152 0.836914
0.924713 0.665619 0.825562
0.141205 0.786255 0.793488
0.154236 0.777588 0.784149
0.168182 0.769745 0.775177
0.196533 0.762024 0.764709
0.312042 0.776489 0.775818
0.436493 0.809387 0.809418
0.778137 0.826324 0.830322
0.915314 0.824768 0.810791
0.149536 0.836090 0.772125
0.166321 0.836334 0.767303
0.183655 0.837097 0.761292
0.200562 0.837311 0.752319
0.296997 0.855011 0.755493
0.417633 0.897156 0.784180
0.663574 0.932037 0.801422
0.927155 0.942108 0.740143
0.092773 0.073700 0.839478
0.144745 0.069153 0.833038
0.279419 0.079529 0.832550
0.445618 0.111053 0.870605
0.680389 0.146271 0.837616
0.868195 0.173920 0.872406
0.905426 0.197876 0.883331
0.927795 0.214050 0.888733
0.091278 0.117950 0.836670
0.121887 0.100861 0.835968
0.255310 0.097809 0.833984
0.419281 0.124451 0.869965
0.654480 0.161621 0.838684
0.855560 0.190308 0.869080
0.906494 0.218781 0.884857
0.928925 0.234619 0.890411
0.074188 0.237030 0.803223
0.098328 0.226746 0.806244
0.210449 0.182678 0.841003
0.371033 0.187225 0.866608
0.606415 0.211334 0.843231
0.825378 0.230682 0.870941
0.908539 0.261444 0.889008
0.930267 0.267090 0.892944
0.074799 0.363525 0.801147
0.096588 0.352142 0.805969
0.146759 0.328400 0.803589
0.295715 0.305786 0.846649
0.503754 0.281891 0.868103
0.776215 0.325928 0.872040
0.915863 0.383270 0.897858
0.936615 0.390106 0.900940
0.075928 0.521698 0.793030
0.092133 0.517731 0.791626
0.106140 0.506287 0.786377
0.219055 0.509613 0.802826
0.366333 0.514801 0.849579
0.705444 0.450500 0.895020
0.912323 0.525818 0.899384
0.938232 0.526886 0.902161
0.109406 0.649841 0.808411
0.125885 0.645782 0.807831
0.138794 0.635162 0.802155
0.206665 0.633362 0.806152
0.334045 0.653564 0.837860
0.552094 0.670349 0.887146
0.887207 0.682922 0.917084
0.948456 0.680908 0.924622
0.155853 0.796417 0.852142
0.171936 0.791962 0.849762
0.185669 0.781311 0.843597
0.213226 0.773590 0.842865
0.326294 0.789673 0.867615
0.452576 0.824921 0.917511
0.782471 0.848572 0.950317
0.950745 0.830200 0.953827
0.171753 0.861176 0.874573
0.188782 0.861267 0.874207
0.204742 0.857758 0.870911
0.222717 0.859375 0.873108
0.315063 0.878113 0.890594
0.447449 0.913300 0.925415
0.694611 0.953033 0.963440
0.941284 0.961761 0.971130
