滤镜资源/Professional Luts Collection/Triune-Digital-Cinematic-LUTs/3D LUTs (CUBE)/LOG/Captain America Civil War - LOG.cube
#Created by Benjamin (IWLTBAP) : http://luts.iwltbap.com
#Copyright: (C) Copyright 2016 Triune Films and IWLTBAP
TITLE "Blockbuster LUTs Pack (LOG)"
#LUT size
LUT_3D_SIZE 32
#LUT data points
0.001221 0.001709 0.000366
0.009521 0.004089 0.001953
0.033295 0.010345 0.006378
0.063568 0.016754 0.011871
0.095337 0.023529 0.017273
0.130554 0.031006 0.023346
0.167419 0.039154 0.029449
0.206512 0.047791 0.035522
0.243652 0.054840 0.040283
0.284668 0.063293 0.046021
0.335022 0.074707 0.054321
0.388184 0.091278 0.064148
0.438293 0.109467 0.074554
0.491547 0.129059 0.085907
0.542206 0.147247 0.096588
0.587006 0.164825 0.105927
0.628479 0.183228 0.113770
0.666992 0.199921 0.118134
0.692017 0.209900 0.115234
0.718628 0.220276 0.120422
0.735779 0.226807 0.125397
0.745331 0.230621 0.128326
0.750885 0.233063 0.130096
0.756470 0.235474 0.131805
0.761810 0.237885 0.133545
0.766998 0.240204 0.134979
0.772339 0.242950 0.136658
0.777893 0.245972 0.138611
0.783447 0.248932 0.140564
0.788971 0.251923 0.142456
0.794800 0.255035 0.144440
0.800598 0.258118 0.146454
0.001892 0.007812 0.001129
0.007324 0.008972 0.002197
0.028076 0.014709 0.006195
0.058228 0.020874 0.011719
0.090363 0.027618 0.017120
0.125336 0.035034 0.023132
0.161560 0.042725 0.028931
0.201111 0.051819 0.035034
0.238068 0.058990 0.039825
0.278076 0.067017 0.045319
0.327850 0.077484 0.053284
0.381073 0.093536 0.063049
0.432098 0.111542 0.073517
0.485291 0.131256 0.084839
0.537567 0.150116 0.095947
0.583099 0.167999 0.105377
0.624664 0.186218 0.113647
0.664886 0.203827 0.118805
0.690674 0.214081 0.116089
0.717255 0.224518 0.120239
0.735382 0.231537 0.125366
0.746124 0.235748 0.128693
0.751709 0.238190 0.130402
0.757263 0.240662 0.132172
0.762848 0.243073 0.133942
0.768127 0.245270 0.135345
0.773468 0.247955 0.137024
0.779083 0.250977 0.139069
0.784821 0.254059 0.141327
0.790558 0.257172 0.143494
0.796356 0.260284 0.145508
0.802216 0.263397 0.147522
0.003693 0.024475 0.003235
0.009003 0.024292 0.004181
0.021301 0.025665 0.006500
0.052307 0.031342 0.012024
0.085083 0.035706 0.017517
0.119843 0.041168 0.023102
0.156036 0.046967 0.028595
0.195343 0.055603 0.034485
0.232483 0.063293 0.039368
0.271667 0.070923 0.044678
0.319916 0.080597 0.052185
0.373535 0.095734 0.061890
0.425415 0.113495 0.072296
0.478516 0.133270 0.083679
0.531952 0.152954 0.095306
0.578796 0.171082 0.104858
0.620789 0.189270 0.113464
0.662079 0.207397 0.119232
0.689178 0.218170 0.116913
0.715424 0.228516 0.119965
0.735046 0.236084 0.125366
0.746979 0.240875 0.128998
0.752502 0.243378 0.130768
0.758118 0.245819 0.132538
0.763855 0.248383 0.134399
0.769440 0.250732 0.135986
0.774963 0.253235 0.137909
0.780670 0.256256 0.140167
0.786438 0.259369 0.142426
0.792175 0.262482 0.144562
0.797974 0.265564 0.146606
0.803833 0.268646 0.148621
0.005768 0.045929 0.006042
0.010742 0.045959 0.006836
0.018890 0.046448 0.008301
0.042419 0.049561 0.012604
0.078400 0.053070 0.018677
0.112823 0.056763 0.024017
0.148590 0.061707 0.029205
0.187317 0.067291 0.034302
0.224579 0.073944 0.039215
0.263428 0.079041 0.044067
0.308350 0.085480 0.050720
0.362823 0.097260 0.060181
0.415955 0.114594 0.070587
0.468414 0.134186 0.081818
0.523315 0.154663 0.094147
0.571655 0.172852 0.103607
0.614746 0.191589 0.112915
0.655731 0.209229 0.118958
0.686005 0.221832 0.118103
0.711792 0.231873 0.119354
0.734344 0.240601 0.125366
0.747955 0.246155 0.129456
0.753845 0.248779 0.131439
0.759644 0.251404 0.133423
0.765533 0.254059 0.135345
0.771179 0.256409 0.136963
0.776703 0.258942 0.138855
0.782318 0.261658 0.141144
0.788025 0.264679 0.143524
0.793793 0.267731 0.145660
0.799622 0.270844 0.147705
0.805420 0.273926 0.149689
0.004333 0.070465 0.006531
0.008972 0.070465 0.007019
0.013763 0.070343 0.007690
0.030762 0.072052 0.010376
0.066559 0.074799 0.016357
0.104889 0.076538 0.024811
0.140411 0.080139 0.030243
0.178192 0.085144 0.035065
0.215729 0.090881 0.039703
0.253326 0.097687 0.044128
0.294067 0.103485 0.049713
0.346252 0.112549 0.058441
0.402130 0.125427 0.068817
0.456238 0.141785 0.080017
0.512634 0.160004 0.092773
0.564056 0.175262 0.102448
0.608154 0.193634 0.111938
0.649231 0.211090 0.118683
0.682678 0.225372 0.119354
0.708221 0.235107 0.119141
0.731506 0.244293 0.124908
0.749817 0.251770 0.130127
0.755615 0.254486 0.132111
0.761475 0.257111 0.134125
0.767334 0.259766 0.136139
0.772919 0.262146 0.137756
0.778473 0.264648 0.139648
0.784058 0.267365 0.141907
0.789673 0.270081 0.144196
0.795441 0.273041 0.146454
0.801331 0.276184 0.148651
0.807129 0.279297 0.150696
0.002319 0.097046 0.006836
0.006622 0.096863 0.007202
0.011383 0.096680 0.007721
0.021210 0.096649 0.009125
0.047943 0.099121 0.012512
0.092407 0.099854 0.020538
0.132233 0.100677 0.032043
0.169250 0.104004 0.036377
0.206238 0.108887 0.040833
0.243530 0.115417 0.045227
0.283234 0.123016 0.050262
0.328033 0.131409 0.057404
0.383698 0.142914 0.067169
0.438904 0.157715 0.077789
0.497040 0.175842 0.091217
0.552399 0.193726 0.102966
0.599823 0.210022 0.112183
0.642334 0.224792 0.119751
0.677734 0.236267 0.121429
0.704407 0.243622 0.119568
0.731415 0.252136 0.125214
0.751862 0.258331 0.130920
0.757355 0.260071 0.132782
0.763275 0.262817 0.134827
0.769135 0.265472 0.136841
0.774750 0.267853 0.138428
0.780304 0.270386 0.140350
0.785919 0.273071 0.142639
0.791504 0.275818 0.144897
0.797089 0.278503 0.147034
0.802917 0.281494 0.149261
0.808777 0.284668 0.151733
0.001251 0.125488 0.008759
0.005432 0.125275 0.009186
0.009552 0.125092 0.009583
0.013733 0.124054 0.009918
0.032684 0.126099 0.011108
0.063019 0.127075 0.011932
0.119415 0.123932 0.023987
0.159698 0.126343 0.039124
0.198181 0.129639 0.043060
0.234741 0.134644 0.046967
0.272308 0.142181 0.051575
0.314728 0.151947 0.057709
0.363586 0.162903 0.066193
0.419647 0.176331 0.076172
0.478821 0.191833 0.088928
0.536743 0.210083 0.102875
0.588623 0.226929 0.112427
0.633545 0.242432 0.120911
0.673157 0.255219 0.124573
0.701447 0.262817 0.121399
0.731354 0.271027 0.126709
0.756592 0.278931 0.133179
0.762695 0.278992 0.135193
0.767792 0.278473 0.136841
0.773102 0.279022 0.138611
0.778625 0.280609 0.140411
0.783936 0.282135 0.142426
0.789154 0.283661 0.144684
0.794464 0.285278 0.146851
0.799744 0.286926 0.148926
0.805359 0.289520 0.151245
0.811035 0.292297 0.153687
0.000183 0.155273 0.010773
0.004333 0.154907 0.011169
0.008423 0.154449 0.011566
0.012512 0.153351 0.011932
0.023346 0.153961 0.013000
0.047028 0.156677 0.013062
0.080078 0.155975 0.012482
0.143250 0.150269 0.026215
0.187195 0.155060 0.045410
0.227600 0.157867 0.049988
0.264618 0.162354 0.053894
0.304138 0.171722 0.059357
0.348236 0.183105 0.066528
0.398987 0.196014 0.075409
0.458679 0.211792 0.087738
0.518066 0.227631 0.101898
0.572205 0.243774 0.112946
0.621796 0.259369 0.121490
0.667480 0.274048 0.127777
0.696625 0.281982 0.124084
0.729401 0.291260 0.128052
0.758606 0.300568 0.135345
0.767670 0.302094 0.138489
0.772766 0.301697 0.140076
0.778351 0.301727 0.142273
0.784180 0.303253 0.144440
0.789825 0.304779 0.146637
0.795074 0.306244 0.149292
0.800354 0.307617 0.151978
0.805481 0.308777 0.154327
0.811127 0.311432 0.157013
0.816772 0.314117 0.159729
0.000000 0.185577 0.013458
0.004150 0.185181 0.013702
0.008240 0.184723 0.014130
0.012421 0.183167 0.014404
0.016541 0.181702 0.014648
0.037689 0.185699 0.016235
0.061859 0.188690 0.015381
0.102661 0.187622 0.013885
0.171265 0.178711 0.028107
0.216919 0.185425 0.052704
0.258270 0.188232 0.057770
0.297485 0.193207 0.062164
0.341248 0.204956 0.069000
0.388306 0.217651 0.077026
0.441711 0.231384 0.087524
0.499939 0.246796 0.100983
0.556519 0.262054 0.113861
0.607819 0.276611 0.122650
0.658661 0.291565 0.129547
0.692169 0.300293 0.127411
0.724274 0.309875 0.128632
0.756775 0.321045 0.136841
0.771027 0.324524 0.141815
0.776611 0.324493 0.143890
0.782104 0.324524 0.145996
0.787964 0.326202 0.148224
0.793732 0.327789 0.150452
0.799103 0.329346 0.153625
0.804443 0.330994 0.156830
0.809814 0.332642 0.160004
0.815613 0.335602 0.163208
0.821350 0.338593 0.166443
0.000000 0.218140 0.020142
0.004150 0.217712 0.020294
0.008240 0.217133 0.020477
0.012421 0.215546 0.020447
0.016541 0.214050 0.020508
0.031219 0.214539 0.021698
0.051544 0.219208 0.022156
0.079102 0.220886 0.017975
0.129608 0.218445 0.015259
0.202393 0.209442 0.030457
0.248444 0.217010 0.060211
0.292206 0.220062 0.066467
0.336365 0.227814 0.072235
0.385071 0.241730 0.080566
0.434662 0.254120 0.090393
0.487579 0.267059 0.102081
0.543579 0.281921 0.114410
0.598206 0.296417 0.124512
0.649567 0.310669 0.130768
0.689728 0.321777 0.131683
0.719940 0.329315 0.130768
0.755402 0.342743 0.139130
0.773621 0.348145 0.145386
0.779266 0.347992 0.147736
0.784912 0.347595 0.150055
0.790802 0.349152 0.152405
0.796631 0.350800 0.154816
0.801941 0.352356 0.158173
0.807220 0.354004 0.161591
0.812561 0.355621 0.164917
0.818207 0.358521 0.168304
0.823883 0.361511 0.171661
0.000000 0.250122 0.027954
0.004150 0.249725 0.028137
0.008240 0.249329 0.028229
0.012421 0.248077 0.028259
0.016541 0.246582 0.028259
0.025360 0.245361 0.028656
0.045105 0.248657 0.029785
0.066101 0.252411 0.027649
0.094238 0.254456 0.019562
0.156097 0.250854 0.016632
0.236572 0.242615 0.033264
0.282745 0.250214 0.066040
0.330872 0.255920 0.076660
0.379883 0.265839 0.084351
0.430206 0.278442 0.094360
0.481873 0.290131 0.105011
0.535004 0.303009 0.116455
0.589813 0.317352 0.126434
0.643158 0.332031 0.133789
0.686859 0.343842 0.135742
0.717377 0.351532 0.134125
0.751495 0.362793 0.140900
0.777161 0.372009 0.149963
0.782593 0.371918 0.152283
0.788086 0.371582 0.154724
0.793793 0.372589 0.157013
0.799408 0.374084 0.159485
0.804504 0.375488 0.162903
0.809662 0.377106 0.166473
0.815002 0.378784 0.169952
0.820557 0.381653 0.173370
0.826141 0.384552 0.176819
0.000000 0.281952 0.035797
0.004150 0.281372 0.036041
0.008240 0.281036 0.036224
0.012421 0.280060 0.036224
0.016541 0.278931 0.036255
0.020691 0.277069 0.036011
0.038391 0.278412 0.036804
0.059784 0.283661 0.035614
0.080811 0.288574 0.030090
0.111786 0.291565 0.020905
0.188812 0.283173 0.017822
0.270691 0.276459 0.035217
0.322357 0.284607 0.075195
0.374725 0.293518 0.089600
0.424194 0.303040 0.098419
0.475769 0.314636 0.108734
0.528839 0.327179 0.119629
0.581604 0.340454 0.129517
0.634705 0.354767 0.137482
0.683716 0.368164 0.141510
0.716278 0.374817 0.137878
0.748688 0.385284 0.142914
0.778778 0.396454 0.153503
0.787323 0.397919 0.157898
0.792572 0.397644 0.160431
0.797943 0.398010 0.162689
0.803314 0.399200 0.165436
0.808136 0.400482 0.169067
0.813019 0.401672 0.172699
0.818115 0.403137 0.176117
0.823608 0.405884 0.179565
0.829071 0.408630 0.183014
0.000000 0.315063 0.044678
0.004150 0.314270 0.044891
0.008240 0.313599 0.045044
0.012421 0.312408 0.044983
0.016541 0.311035 0.044830
0.020691 0.309418 0.044678
0.032318 0.310028 0.044952
0.053162 0.314148 0.043701
0.074158 0.322235 0.039276
0.097290 0.327057 0.029999
0.141174 0.329865 0.021149
0.227295 0.317474 0.019135
0.309875 0.313416 0.038696
0.367828 0.322113 0.087921
0.419922 0.331268 0.103851
0.470367 0.341187 0.113403
0.524048 0.353210 0.124115
0.576813 0.366425 0.133667
0.628235 0.380280 0.141388
0.679047 0.393524 0.147186
0.715302 0.400024 0.143860
0.746826 0.408661 0.145264
0.780396 0.421204 0.155945
0.791565 0.424225 0.162292
0.797699 0.424500 0.165985
0.802979 0.424713 0.168304
0.808014 0.425507 0.171387
0.812622 0.426361 0.175110
0.817291 0.427216 0.178772
0.822357 0.428284 0.182037
0.827728 0.430878 0.185577
0.833099 0.433563 0.189117
0.000061 0.351318 0.055420
0.004181 0.350494 0.055573
0.008270 0.349457 0.055725
0.012421 0.348114 0.055786
0.016541 0.346588 0.055725
0.020691 0.344421 0.055481
0.025391 0.342499 0.055206
0.046143 0.346924 0.056152
0.068176 0.355011 0.053772
0.093719 0.363342 0.046143
0.123169 0.367523 0.029572
0.191010 0.363953 0.022461
0.273743 0.351227 0.021637
0.356445 0.352936 0.050110
0.414764 0.361115 0.105011
0.467194 0.370819 0.119507
0.519012 0.381348 0.129578
0.573120 0.394501 0.139313
0.623596 0.407837 0.146637
0.672394 0.419250 0.151581
0.713013 0.427094 0.151001
0.745544 0.434082 0.149506
0.777924 0.444794 0.156586
0.794403 0.450378 0.165100
0.802490 0.451752 0.170349
0.807648 0.451569 0.172943
0.812347 0.452240 0.176117
0.816650 0.452728 0.179749
0.821442 0.453430 0.183167
0.826324 0.454254 0.186523
0.831573 0.456573 0.189972
0.836792 0.458893 0.193542
0.001831 0.389221 0.068237
0.006104 0.388519 0.068359
0.010315 0.387817 0.068512
0.014313 0.386536 0.068512
0.018280 0.385132 0.068420
0.022125 0.382904 0.067993
0.026123 0.380554 0.067535
0.040527 0.380890 0.067596
0.065460 0.386932 0.067963
0.091339 0.396667 0.065277
0.117401 0.404419 0.053711
0.155151 0.406952 0.028107
0.238525 0.396484 0.025391
0.322571 0.388031 0.027496
0.403748 0.393219 0.064850
0.462128 0.401459 0.125702
0.516693 0.412445 0.136108
0.568604 0.423889 0.144531
0.619049 0.436096 0.151733
0.667023 0.446991 0.156708
0.709930 0.454895 0.156799
0.743896 0.460815 0.153778
0.775513 0.469635 0.158081
0.797424 0.477570 0.168549
0.807037 0.479492 0.174744
0.811920 0.478973 0.177643
0.816559 0.479340 0.180786
0.820648 0.479370 0.184540
0.825104 0.479675 0.187927
0.829559 0.479980 0.191193
0.834503 0.481903 0.194580
0.839569 0.484009 0.197998
0.006866 0.427216 0.081726
0.011078 0.426361 0.081909
0.015259 0.425568 0.082153
0.019409 0.424377 0.082214
0.023560 0.423035 0.082184
0.027649 0.420959 0.081787
0.031738 0.418854 0.081268
0.035919 0.416595 0.080566
0.062744 0.420380 0.080811
0.088165 0.427887 0.080902
0.113739 0.438232 0.078033
0.139862 0.444336 0.062927
0.184570 0.443390 0.032043
0.281738 0.430298 0.029938
0.372711 0.428772 0.034393
0.447968 0.431732 0.079987
0.507965 0.441528 0.141327
0.564362 0.454773 0.150482
0.614899 0.466339 0.157104
0.662018 0.476990 0.161865
0.707764 0.485748 0.163605
0.743683 0.489380 0.158081
0.774628 0.496002 0.159698
0.799225 0.503906 0.170532
0.811707 0.506592 0.179352
0.816315 0.505493 0.182220
0.820923 0.505951 0.185455
0.824951 0.505951 0.189392
0.828979 0.506073 0.193298
0.833069 0.506042 0.197113
0.837402 0.507324 0.201080
0.841980 0.508942 0.204742
0.012268 0.466003 0.095703
0.016388 0.464996 0.095856
0.020477 0.463898 0.096008
0.024536 0.462524 0.096100
0.028656 0.461029 0.096100
0.032745 0.458984 0.095856
0.036774 0.456787 0.095459
0.040833 0.454468 0.094879
0.058929 0.455688 0.094971
0.083740 0.459930 0.094879
0.108490 0.467285 0.094940
0.133881 0.476471 0.093048
0.160980 0.481140 0.072174
0.220734 0.478058 0.034576
0.324371 0.465546 0.035828
0.420319 0.467896 0.040375
0.492920 0.472473 0.090485
0.555084 0.483551 0.155457
0.609985 0.497528 0.162170
0.657074 0.507935 0.167236
0.703308 0.516296 0.171295
0.742249 0.519867 0.166321
0.775299 0.524872 0.163177
0.803314 0.532837 0.172241
0.818817 0.535736 0.185181
0.822754 0.533997 0.187988
0.826935 0.533722 0.191315
0.830658 0.533417 0.195374
0.834564 0.533264 0.199402
0.838318 0.532898 0.203491
0.842316 0.533905 0.208008
0.846436 0.535065 0.212372
0.016541 0.505096 0.110413
0.020538 0.503723 0.110504
0.024628 0.502441 0.110535
0.028687 0.500854 0.110504
0.032684 0.499146 0.110382
0.036682 0.496796 0.110016
0.040680 0.494385 0.109711
0.044708 0.491974 0.109283
0.054718 0.491852 0.109100
0.078522 0.494965 0.110138
0.102570 0.499268 0.110168
0.127197 0.507355 0.110657
0.152740 0.514557 0.106506
0.183868 0.516266 0.080780
0.266571 0.513428 0.037445
0.375885 0.501831 0.041290
0.469879 0.507080 0.047302
0.539337 0.516846 0.093353
0.600800 0.526855 0.165009
0.650024 0.539276 0.173004
0.696228 0.546875 0.177307
0.737823 0.551025 0.176117
0.773651 0.554291 0.171722
0.805481 0.561646 0.174652
0.824951 0.565399 0.189301
0.829742 0.563904 0.192657
0.833496 0.562805 0.196045
0.836884 0.562042 0.200317
0.840271 0.561249 0.204651
0.843719 0.560516 0.209381
0.847565 0.561188 0.214081
0.851440 0.562012 0.218689
0.023254 0.547394 0.126099
0.027039 0.545959 0.126404
0.030823 0.544495 0.126617
0.034576 0.542816 0.126740
0.038300 0.541046 0.126740
0.041809 0.538330 0.126282
0.045624 0.535522 0.125824
0.049469 0.532593 0.125092
0.053406 0.530060 0.124023
0.074585 0.532043 0.124756
0.099426 0.536011 0.126099
0.124542 0.541107 0.127289
0.150116 0.547974 0.126770
0.175934 0.551971 0.119537
0.212128 0.551514 0.088348
0.324768 0.545868 0.041077
0.436676 0.540070 0.045532
0.521027 0.551147 0.049622
0.587433 0.561615 0.099060
0.641602 0.569000 0.171448
0.688171 0.577789 0.183044
0.730652 0.581573 0.184998
0.770050 0.585022 0.181763
0.804779 0.590820 0.182922
0.827728 0.595184 0.195831
0.835785 0.594482 0.200592
0.839386 0.592957 0.202362
0.842926 0.591919 0.205627
0.846161 0.590790 0.209351
0.849457 0.589722 0.213287
0.852966 0.589905 0.217773
0.856567 0.590302 0.222290
0.034149 0.587494 0.140228
0.037872 0.586182 0.140656
0.041626 0.584900 0.141144
0.045288 0.583313 0.141418
0.048920 0.581665 0.141571
0.052338 0.579437 0.141479
0.055695 0.576904 0.141296
0.058990 0.574158 0.140839
0.062347 0.571472 0.139771
0.074982 0.569519 0.138824
0.099396 0.572388 0.139618
0.124847 0.576263 0.140991
0.151031 0.581360 0.142059
0.178162 0.587830 0.140717
0.203888 0.589020 0.130890
0.244995 0.588898 0.098083
0.378967 0.581451 0.045441
0.493286 0.582458 0.049652
0.569366 0.596527 0.051788
0.631287 0.603668 0.096252
0.680542 0.608917 0.177856
0.722900 0.614044 0.195831
0.766083 0.617249 0.192139
0.802856 0.621155 0.194214
0.829254 0.624176 0.209778
0.839813 0.623627 0.216797
0.843353 0.621735 0.217590
0.847076 0.620819 0.218994
0.850861 0.620056 0.220856
0.854309 0.618927 0.223145
0.858032 0.619171 0.226288
0.861755 0.619507 0.230042
0.047272 0.624115 0.151733
0.051056 0.622986 0.152435
0.054779 0.621796 0.153076
0.058441 0.620392 0.153687
0.062103 0.618988 0.154205
0.065460 0.617004 0.154327
0.068787 0.614838 0.154449
0.071960 0.612274 0.154083
0.075256 0.609985 0.153229
0.080444 0.607452 0.152191
0.102142 0.606659 0.151794
0.128082 0.609680 0.153107
0.154175 0.613190 0.154327
0.181915 0.619293 0.155457
0.209564 0.625641 0.153900
0.235077 0.625122 0.138245
0.290497 0.632843 0.094452
0.437195 0.620422 0.049103
0.546051 0.628174 0.053192
0.613312 0.637512 0.053467
0.671875 0.643219 0.099243
0.716980 0.646027 0.189636
0.756622 0.648926 0.206207
0.797241 0.651428 0.210663
0.827118 0.653748 0.221527
0.842926 0.651733 0.234375
0.846710 0.649536 0.235504
0.851074 0.649017 0.236481
0.855499 0.648529 0.237457
0.859558 0.647980 0.238190
0.863708 0.648651 0.239807
0.867645 0.649139 0.242004
0.058929 0.658783 0.163391
0.062958 0.657532 0.164154
0.066986 0.656311 0.164886
0.070984 0.654877 0.165497
0.074768 0.653442 0.166077
0.078247 0.651550 0.166382
0.081818 0.649750 0.166718
0.085144 0.647552 0.166687
0.088531 0.645325 0.165955
0.091888 0.643066 0.165192
0.106293 0.641266 0.164398
0.132172 0.642548 0.165131
0.157532 0.644989 0.165741
0.183685 0.649994 0.166718
0.209961 0.657074 0.168976
0.236420 0.662018 0.171539
0.268494 0.660919 0.153961
0.350464 0.677368 0.076202
0.495544 0.661804 0.054108
0.592285 0.668182 0.056549
0.653137 0.675720 0.059845
0.709686 0.680878 0.105194
0.749084 0.678375 0.198822
0.788910 0.681549 0.228210
0.823151 0.681519 0.236511
0.844452 0.681763 0.247375
0.850769 0.679413 0.249359
0.855103 0.678528 0.250793
0.859619 0.678009 0.252136
0.864136 0.677490 0.253510
0.868683 0.678253 0.255310
0.873230 0.679138 0.257111
0.066193 0.694489 0.174774
0.070099 0.693207 0.175537
0.074036 0.691620 0.176208
0.078003 0.690094 0.176880
0.082092 0.688629 0.177582
0.086090 0.686829 0.178101
0.090057 0.684753 0.178589
0.093872 0.682495 0.178619
0.097656 0.680603 0.177917
0.101227 0.678162 0.177155
0.104858 0.675812 0.176422
0.132446 0.676575 0.176819
0.157593 0.678955 0.177948
0.182495 0.682556 0.179047
0.208344 0.688293 0.184143
0.235199 0.694885 0.189056
0.262054 0.697754 0.191467
0.298706 0.695831 0.170807
0.406006 0.713440 0.076050
0.550232 0.703430 0.063019
0.632172 0.706207 0.064697
0.688202 0.715698 0.074799
0.740387 0.712524 0.122772
0.781097 0.709320 0.218750
0.818512 0.710632 0.249939
0.843964 0.712311 0.261444
0.853302 0.710938 0.264282
0.858002 0.709991 0.265686
0.862335 0.709412 0.266815
0.866699 0.708893 0.267792
0.871246 0.709839 0.269623
0.875854 0.710907 0.271515
0.071564 0.730560 0.184845
0.075562 0.729126 0.185699
0.079498 0.727631 0.186462
0.083435 0.725922 0.187103
0.087341 0.724274 0.187653
0.091187 0.722229 0.188049
0.095062 0.720215 0.188538
0.098969 0.717987 0.188721
0.102875 0.715973 0.188110
0.106720 0.713928 0.187469
0.110535 0.711670 0.186798
0.128906 0.711090 0.187042
0.154541 0.712921 0.188538
0.180084 0.715912 0.191742
0.206696 0.720520 0.197296
0.234100 0.726349 0.203491
0.262878 0.734009 0.210388
0.289551 0.732758 0.208557
0.333893 0.731354 0.186310
0.464020 0.751617 0.088043
0.598663 0.743408 0.077240
0.667236 0.746460 0.082947
0.719940 0.751251 0.103485
0.771851 0.743347 0.146088
0.813507 0.741638 0.231720
0.841125 0.743500 0.272430
0.855133 0.743286 0.276611
0.862030 0.742523 0.278473
0.866516 0.741943 0.279785
0.871002 0.741547 0.280853
0.875702 0.742645 0.282166
0.880371 0.743866 0.283478
0.075012 0.769196 0.195068
0.079285 0.767517 0.196350
0.083557 0.765961 0.197571
0.087830 0.763947 0.198822
0.092102 0.762085 0.200012
0.096161 0.760254 0.200684
0.100250 0.758148 0.201324
0.104431 0.755432 0.201599
0.108582 0.753265 0.201050
0.112366 0.750977 0.199890
0.116119 0.748779 0.198761
0.124878 0.746857 0.198547
0.151581 0.747314 0.200836
0.177734 0.749542 0.204865
0.205383 0.752716 0.211334
0.233154 0.757355 0.217834
0.262054 0.764313 0.224701
0.291748 0.771149 0.230255
0.318573 0.766388 0.224731
0.370026 0.763489 0.204651
0.523682 0.788483 0.118134
0.639252 0.782257 0.105957
0.700928 0.782562 0.116943
0.751953 0.781403 0.127472
0.805237 0.775360 0.157166
0.841522 0.773865 0.230133
0.858002 0.774567 0.262604
0.866486 0.774597 0.278503
0.870514 0.774414 0.286224
0.874756 0.774048 0.291534
0.879639 0.775085 0.292938
0.884796 0.776520 0.294128
0.078430 0.783295 0.202271
0.082672 0.782532 0.203491
0.087067 0.781982 0.204865
0.091370 0.781403 0.206207
0.095642 0.780884 0.207581
0.099915 0.780365 0.208923
0.104187 0.779907 0.210266
0.108490 0.779144 0.211212
0.112915 0.778992 0.211487
0.117157 0.778290 0.211395
0.121429 0.777710 0.211334
0.125671 0.777069 0.211365
0.148956 0.777344 0.214386
0.176941 0.779175 0.219391
0.204559 0.782928 0.225006
0.232544 0.787415 0.231232
0.261566 0.793335 0.238129
0.292023 0.801453 0.245972
0.322083 0.807037 0.249268
0.347992 0.798004 0.239136
0.445465 0.803314 0.205963
0.586517 0.816284 0.158020
0.675171 0.812378 0.144836
0.731323 0.814575 0.144531
0.784363 0.813782 0.140228
0.835052 0.809052 0.155121
0.861938 0.806549 0.203339
0.875336 0.806244 0.230042
0.879791 0.805603 0.239777
0.883820 0.805328 0.247772
0.888214 0.806488 0.254120
0.892639 0.807739 0.260406
0.080139 0.790466 0.205627
0.084412 0.789734 0.206848
0.088715 0.789032 0.208160
0.093140 0.788452 0.209534
0.097473 0.787903 0.210876
0.101746 0.787384 0.212219
0.106110 0.786957 0.213562
0.110504 0.786713 0.214752
0.114990 0.786865 0.215332
0.119507 0.787109 0.215759
0.123962 0.787262 0.216125
0.128387 0.787292 0.216400
0.142334 0.788330 0.218170
0.170685 0.790314 0.223602
0.198975 0.794800 0.229523
0.227295 0.799835 0.235809
0.256561 0.806122 0.242950
0.287140 0.814789 0.251495
0.318726 0.825073 0.259125
0.347443 0.825562 0.256897
0.399170 0.821533 0.243225
0.529205 0.834198 0.204163
0.639343 0.836395 0.179901
0.709229 0.838898 0.164856
0.764252 0.846313 0.147614
0.816528 0.844391 0.142456
0.856445 0.842743 0.155670
0.879333 0.840576 0.167023
0.884705 0.839844 0.175781
0.889648 0.839417 0.186401
0.894592 0.840271 0.194183
0.899658 0.841156 0.201752
0.081818 0.797516 0.208893
0.086121 0.796753 0.210175
0.090424 0.796051 0.211456
0.094788 0.795319 0.212769
0.099152 0.794769 0.214081
0.103516 0.794250 0.215424
0.107849 0.793793 0.216766
0.112244 0.793549 0.217957
0.116791 0.793762 0.218536
0.121246 0.793976 0.219116
0.125793 0.794220 0.219635
0.130310 0.794556 0.220032
0.140839 0.795502 0.221313
0.166351 0.797760 0.226074
0.194855 0.802246 0.232300
0.223724 0.808289 0.238892
0.252747 0.814453 0.245789
