滤镜资源/Professional Luts Collection/Triune-Digital-Cinematic-LUTs/3D LUTs (CUBE)/LOG/Captain America Civil War - LOG.cube
#Created by Benjamin (IWLTBAP) : http://luts.iwltbap.com
#Copyright: (C) Copyright 2016 Triune Films and IWLTBAP
TITLE "Blockbuster LUTs Pack (LOG)"
#LUT size
LUT_3D_SIZE 5
#LUT data points
DOMAIN_MIN 0.000000 0.000000 0.000000
DOMAIN_MAX 0.903226 0.903226 0.903226
0.001221 0.001709 0.000366
0.206512 0.047791 0.035522
0.542206 0.147247 0.096588
0.745331 0.230621 0.128326
0.783447 0.248932 0.140564
0.000183 0.155273 0.010773
0.143250 0.150269 0.026215
0.458679 0.211792 0.087738
0.758606 0.300568 0.135345
0.800354 0.307617 0.151978
0.001831 0.389221 0.068237
0.040527 0.380890 0.067596
0.403748 0.393219 0.064850
0.743896 0.460815 0.153778
0.825104 0.479675 0.187927
0.058929 0.658783 0.163391
0.085144 0.647552 0.166687
0.209961 0.657074 0.168976
0.709686 0.680878 0.105194
0.859619 0.678009 0.252136
0.083893 0.804443 0.212433
0.114044 0.800385 0.221161
0.191986 0.808014 0.234406
0.440613 0.847778 0.243164
0.883057 0.878662 0.158905
0.003937 0.015076 0.173431
0.197327 0.017303 0.166656
0.544067 0.134521 0.187134
0.749725 0.231445 0.213043
0.782654 0.248596 0.215820
0.001556 0.153198 0.129364
0.107086 0.157623 0.148407
0.473145 0.194153 0.155121
0.762054 0.297516 0.191620
0.798004 0.302246 0.196075
0.000000 0.382324 0.132812
0.037262 0.377319 0.114777
0.401917 0.392090 0.093567
0.751465 0.463593 0.189301
0.823303 0.475922 0.231384
0.058197 0.652954 0.202667
0.085175 0.645081 0.199585
0.207977 0.654816 0.203613
0.711365 0.682800 0.150909
0.855408 0.672577 0.280609
0.084595 0.800842 0.251373
0.116821 0.803162 0.255676
0.192230 0.810181 0.268799
0.429260 0.844360 0.286560
0.883514 0.878479 0.192719
0.035522 0.030762 0.503571
0.157623 0.033142 0.473633
0.503082 0.052490 0.426300
0.748413 0.239319 0.483765
0.782806 0.260101 0.475250
0.008362 0.183624 0.402954
0.099579 0.127655 0.439728
0.416443 0.130035 0.387604
0.756714 0.299103 0.453857
0.793274 0.302582 0.449219
0.008057 0.378448 0.377014
0.034760 0.369385 0.365570
0.272247 0.360931 0.372223
0.741455 0.461761 0.441895
0.826447 0.474060 0.438995
0.061340 0.649170 0.377808
0.088196 0.640045 0.364655
0.209869 0.649933 0.346863
0.698395 0.680756 0.348389
0.854065 0.668243 0.392944
0.092590 0.805756 0.352936
0.123230 0.806213 0.348236
0.192383 0.813019 0.343323
0.413513 0.842987 0.347900
0.883728 0.878601 0.227173
0.065094 0.049530 0.778534
0.205536 0.050842 0.762024
0.566254 0.111542 0.764099
0.875732 0.171997 0.805084
0.912537 0.197906 0.815887
0.050873 0.198364 0.745758
0.157104 0.139008 0.780914
0.485077 0.164978 0.782593
0.861572 0.219055 0.783722
0.906860 0.227997 0.775452
0.044189 0.439392 0.684845
0.071350 0.426178 0.675568
0.260986 0.417297 0.713379
0.786194 0.417847 0.709930
0.896484 0.427765 0.707001
0.080231 0.656403 0.655823
0.107239 0.648071 0.645050
0.224335 0.654175 0.645691
0.668182 0.686737 0.674744
0.886536 0.705688 0.688049
0.125183 0.824310 0.643280
0.153534 0.822876 0.631683
0.215942 0.827759 0.616486
0.434845 0.891327 0.641418
0.912537 0.919373 0.518951
0.092773 0.073700 0.839478
0.242279 0.075348 0.829895
0.569916 0.133759 0.850098
0.889313 0.192810 0.879364
0.927795 0.214050 0.888733
0.077576 0.209778 0.808838
0.186829 0.161255 0.839111
0.490967 0.182068 0.874115
0.874146 0.223724 0.877441
0.929199 0.248993 0.891449
0.071259 0.456024 0.789337
0.102478 0.437042 0.786926
0.332947 0.418335 0.849426
0.807556 0.409241 0.885681
0.938477 0.454987 0.901917
0.120972 0.684845 0.817596
0.146149 0.671448 0.810242
0.267670 0.672760 0.823517
0.616852 0.721497 0.908783
0.950806 0.716461 0.932434
0.171753 0.861176 0.874573
0.200226 0.857330 0.870178
0.256195 0.864960 0.877258
0.485779 0.923950 0.937347
0.941284 0.961761 0.971130
