滤镜资源/Professional Luts Collection/Triune-Digital-Cinematic-LUTs/3D LUTs (CUBE)/LOG/Guardians of the Galaxy - LOG.cube
#Created by Benjamin (IWLTBAP) : http://luts.iwltbap.com
#Copyright: (C) Copyright 2016 Triune Films and IWLTBAP
TITLE "Blockbuster LUTs Pack (LOG)"
#LUT size
LUT_3D_SIZE 32
#LUT data points
0.000000 0.000000 0.000000
0.001190 0.000000 0.000580
0.018494 0.006012 0.006256
0.057953 0.014862 0.009949
0.095703 0.022308 0.011810
0.135345 0.030029 0.014526
0.173584 0.038696 0.015625
0.213470 0.046509 0.016052
0.251678 0.054352 0.014557
0.290680 0.062012 0.012299
0.330292 0.069397 0.010040
0.370117 0.077301 0.008911
0.408173 0.086761 0.008667
0.448425 0.096466 0.010132
0.492035 0.106384 0.013428
0.537811 0.116730 0.016418
0.584717 0.127289 0.020752
0.631897 0.138336 0.025482
0.680023 0.150665 0.029327
0.728424 0.164520 0.032562
0.757202 0.172974 0.034058
0.772156 0.177734 0.035004
0.780853 0.180237 0.035339
0.789337 0.182922 0.035736
0.798065 0.185699 0.036072
0.806488 0.188446 0.036346
0.815155 0.191071 0.036682
0.823639 0.193634 0.037048
0.832153 0.196503 0.037262
0.840240 0.199341 0.037537
0.848267 0.202148 0.037811
0.856537 0.204803 0.038025
0.000000 0.001648 0.001312
0.000946 0.004456 0.004059
0.011078 0.011261 0.008575
0.051788 0.020142 0.012360
0.090424 0.026703 0.015015
0.130676 0.034882 0.016907
0.169189 0.043243 0.018127
0.209564 0.051025 0.018494
0.248596 0.059021 0.017029
0.287994 0.066742 0.015015
0.327606 0.074066 0.012360
0.367706 0.081970 0.010864
0.406616 0.091370 0.010803
0.446320 0.101166 0.011963
0.489319 0.111023 0.014801
0.535034 0.121124 0.018402
0.581787 0.131378 0.022430
0.628937 0.142151 0.027222
0.676971 0.154388 0.031219
0.725800 0.168518 0.033936
0.756653 0.177704 0.035675
0.773682 0.182953 0.036438
0.782074 0.185577 0.036804
0.790802 0.188171 0.037109
0.799286 0.190918 0.037476
0.807892 0.193573 0.037811
0.816284 0.196289 0.038147
0.825012 0.199097 0.038422
0.833252 0.201752 0.038910
0.841339 0.204620 0.039154
0.849579 0.207336 0.039459
0.857666 0.210144 0.039734
0.000000 0.023773 0.009277
0.000946 0.022827 0.010529
0.003113 0.025635 0.015167
0.045105 0.031525 0.018219
0.084900 0.036530 0.018768
0.125610 0.042389 0.020264
0.164948 0.048523 0.020721
0.205444 0.056091 0.020599
0.244934 0.063751 0.019836
0.284882 0.071198 0.017731
0.324524 0.078644 0.015167
0.364838 0.086731 0.013367
0.404633 0.096008 0.012360
0.443604 0.105865 0.013947
0.486633 0.115631 0.016418
0.531891 0.125641 0.019684
0.578644 0.135315 0.023987
0.626068 0.146240 0.028534
0.673676 0.158417 0.032501
0.722595 0.172302 0.035583
0.755798 0.182220 0.037079
0.774811 0.188080 0.037964
0.783569 0.190857 0.038239
0.791992 0.193542 0.038849
0.800629 0.196136 0.039154
0.809082 0.198883 0.039429
0.817444 0.201599 0.039734
0.826141 0.204407 0.040009
0.834381 0.207153 0.040283
0.842651 0.209808 0.040527
0.850708 0.212524 0.040833
0.858795 0.215515 0.040955
0.000000 0.050354 0.014343
0.000946 0.049835 0.016449
0.002411 0.049469 0.019714
0.034760 0.054321 0.026581
0.078308 0.057312 0.024902
0.120239 0.062378 0.026489
0.160675 0.067657 0.027649
0.201508 0.072784 0.027313
0.241089 0.077087 0.025513
0.281158 0.081146 0.022308
0.320190 0.086029 0.018219
0.359955 0.091370 0.015381
0.400726 0.100403 0.014526
0.439056 0.110565 0.014832
0.481232 0.119873 0.017822
0.526306 0.129333 0.020752
0.573151 0.139221 0.024994
0.620178 0.149628 0.029663
0.667664 0.161621 0.033508
0.716553 0.175415 0.036560
0.754333 0.186737 0.038330
0.776245 0.193390 0.039612
0.784729 0.196136 0.039886
0.793335 0.198822 0.040253
0.801788 0.201599 0.040527
0.810211 0.204132 0.040771
0.818848 0.206848 0.041077
0.827301 0.209717 0.041321
0.835724 0.212555 0.041443
0.843689 0.215332 0.041718
0.851807 0.217987 0.041931
0.860107 0.220825 0.042175
0.000000 0.076996 0.017822
0.000946 0.076538 0.019867
0.001892 0.075897 0.021942
0.017914 0.076691 0.029755
0.067902 0.085175 0.035950
0.116425 0.085083 0.031586
0.157715 0.090790 0.033478
0.198975 0.096100 0.034149
0.238556 0.101715 0.032990
0.279541 0.105347 0.030243
0.319397 0.109131 0.025909
0.359406 0.113953 0.022308
0.399261 0.119263 0.019989
0.438110 0.125031 0.018555
0.477783 0.130035 0.020020
0.520447 0.134521 0.022034
0.567017 0.143127 0.026123
0.613953 0.153168 0.030823
0.661621 0.165070 0.034576
0.710388 0.178711 0.037476
0.750183 0.190521 0.039612
0.777466 0.199036 0.040833
0.785950 0.201569 0.041168
0.794678 0.204254 0.041443
0.803101 0.207031 0.041718
0.811646 0.209656 0.042053
0.820129 0.212585 0.042206
0.828735 0.215149 0.042572
0.837006 0.217987 0.042999
0.845215 0.221008 0.043091
0.853271 0.223877 0.043274
0.861389 0.226685 0.043549
0.000000 0.104614 0.022125
0.000946 0.104065 0.023407
0.001892 0.103333 0.025391
0.003815 0.102783 0.028900
0.045593 0.109222 0.039886
0.103790 0.116089 0.041504
0.155212 0.113983 0.038239
0.197144 0.118774 0.039429
0.238037 0.124176 0.038422
0.278412 0.129211 0.035889
0.318512 0.134216 0.031952
0.358704 0.138458 0.028198
0.399323 0.143524 0.025848
0.439941 0.148438 0.024506
0.478546 0.154327 0.025299
0.520935 0.159027 0.028168
0.565063 0.163940 0.031586
0.610626 0.169647 0.035217
0.656799 0.177643 0.037811
0.704285 0.187653 0.039886
0.748016 0.198181 0.041412
0.779083 0.205536 0.042145
0.787384 0.207245 0.042328
0.795898 0.209991 0.042816
0.804565 0.212494 0.043152
0.812927 0.215302 0.043396
0.821533 0.218109 0.043640
0.829987 0.220947 0.043823
0.838409 0.223755 0.044037
0.846497 0.226715 0.044098
0.854584 0.229553 0.044373
0.862885 0.232361 0.044647
0.000000 0.132324 0.025848
0.000946 0.132202 0.027344
0.001892 0.131775 0.029266
0.002838 0.130524 0.030823
0.024750 0.133881 0.041412
0.076782 0.143097 0.048492
0.145264 0.146515 0.048492
0.194977 0.143524 0.045044
0.237305 0.147705 0.043701
0.278534 0.152435 0.040710
0.319214 0.157043 0.036407
0.359802 0.161896 0.032837
0.400085 0.167023 0.030945
0.440521 0.172089 0.029694
0.479492 0.177185 0.030579
0.521637 0.181396 0.034210
0.564728 0.185974 0.037140
0.609314 0.190826 0.040558
0.654816 0.198730 0.042938
0.701385 0.207825 0.044830
0.746643 0.217804 0.046356
0.783264 0.225983 0.047211
0.792084 0.225952 0.046722
0.799866 0.225494 0.046112
0.807770 0.226166 0.045776
0.815887 0.227753 0.045715
0.824280 0.229431 0.045959
0.832397 0.231079 0.045868
0.840485 0.233002 0.045837
0.848541 0.234680 0.045868
0.856689 0.237701 0.045990
0.864838 0.240509 0.046234
0.000000 0.161041 0.029480
0.000946 0.161102 0.031403
0.001892 0.160858 0.032806
0.004089 0.159760 0.034149
0.011383 0.160126 0.038208
0.052032 0.169220 0.051483
0.113556 0.175232 0.054535
0.186859 0.177246 0.054810
0.235199 0.173889 0.050659
0.278809 0.176453 0.045654
0.319824 0.180817 0.040894
0.361725 0.185364 0.037384
0.402252 0.190521 0.035828
0.442596 0.195465 0.034882
0.481873 0.200348 0.036377
0.523254 0.204895 0.040253
0.565826 0.209259 0.043243
0.609314 0.214417 0.045563
0.653625 0.220917 0.047760
0.699524 0.229279 0.049622
0.746216 0.238708 0.051727
0.785767 0.247833 0.052521
0.798889 0.248993 0.052460
0.806274 0.248444 0.052002
0.813873 0.248108 0.051605
0.821808 0.249329 0.051422
0.829712 0.250885 0.051331
0.837891 0.252136 0.051239
0.845795 0.253571 0.051056
0.853638 0.255096 0.050934
0.861877 0.258240 0.050934
0.869873 0.261414 0.050934
0.000519 0.189636 0.033295
0.003052 0.189728 0.034637
0.005951 0.189636 0.036346
0.008240 0.188629 0.037628
0.010529 0.187653 0.039154
0.033173 0.193939 0.050079
0.082703 0.203278 0.058044
0.157043 0.207306 0.064697
0.228088 0.208832 0.060944
0.276550 0.204224 0.053528
0.320648 0.205627 0.046265
0.362854 0.209595 0.042236
0.404633 0.214111 0.039795
0.444672 0.218872 0.039673
0.484985 0.223267 0.042999
0.526947 0.227844 0.046204
0.568787 0.232697 0.049133
0.611786 0.237976 0.051514
0.654694 0.243469 0.053131
0.698975 0.251099 0.054718
0.745575 0.259735 0.056427
0.787445 0.269318 0.057343
0.806122 0.272461 0.057129
0.813477 0.271790 0.056885
0.820679 0.271667 0.056213
0.828522 0.273041 0.056122
0.836609 0.274841 0.055939
0.844330 0.275940 0.055939
0.852203 0.277496 0.055939
0.859985 0.279419 0.055817
0.868134 0.282593 0.055847
0.876099 0.285858 0.055725
0.004791 0.217896 0.037201
0.007202 0.217926 0.038483
0.009552 0.217834 0.039948
0.011963 0.216919 0.041046
0.014221 0.216003 0.042389
0.023041 0.217255 0.047821
0.058319 0.227448 0.059296
0.122559 0.236450 0.062469
0.200806 0.238464 0.075165
0.269196 0.239594 0.067719
0.318604 0.234650 0.056091
0.364349 0.235168 0.048431
0.407135 0.238678 0.043518
0.446777 0.243103 0.044220
0.488281 0.247131 0.048828
0.530548 0.252045 0.052155
0.572723 0.256714 0.055115
0.614868 0.262268 0.057068
0.657196 0.268005 0.058472
0.700531 0.274170 0.060394
0.745697 0.282501 0.061584
0.791931 0.292572 0.062531
0.815491 0.297302 0.062347
0.822510 0.296997 0.061798
0.829559 0.296478 0.061157
0.837128 0.297699 0.060944
0.844788 0.299408 0.060760
0.852234 0.300659 0.060455
0.860199 0.302582 0.060272
0.868347 0.304749 0.060242
0.876617 0.308350 0.060211
0.884491 0.311920 0.059998
0.008759 0.245422 0.040985
0.010956 0.245392 0.041962
0.013214 0.245361 0.043396
0.015320 0.244568 0.044617
0.017822 0.243744 0.045624
0.022705 0.243439 0.048706
0.040466 0.249329 0.056335
0.090057 0.264252 0.065186
0.173798 0.267853 0.071838
0.248199 0.273041 0.077972
0.311432 0.269897 0.073486
0.361938 0.264679 0.060028
0.409363 0.264496 0.048492
0.449738 0.268433 0.048370
0.492157 0.272705 0.053009
0.534821 0.277161 0.057190
0.576691 0.281464 0.060272
0.618134 0.286591 0.061981
0.659760 0.292297 0.063416
0.702209 0.298401 0.064850
0.746063 0.305939 0.066010
0.791534 0.315460 0.066711
0.824799 0.322845 0.066650
0.831787 0.322388 0.066040
0.838562 0.321808 0.065491
0.846069 0.322662 0.065186
0.853607 0.324097 0.065002
0.861115 0.325378 0.064728
0.869080 0.327484 0.064423
0.876953 0.329773 0.064301
0.885162 0.333405 0.064270
0.893494 0.337097 0.064117
0.012390 0.273438 0.044495
0.014801 0.273254 0.045898
0.016968 0.273224 0.047180
0.019073 0.272675 0.048065
0.021423 0.271820 0.048981
0.023499 0.270294 0.049988
0.033905 0.272552 0.056244
0.065521 0.283844 0.062531
0.132996 0.298706 0.068878
0.225494 0.296661 0.084045
0.293579 0.305542 0.077698
0.354706 0.300903 0.078125
0.405457 0.295563 0.062164
0.451324 0.295471 0.052612
0.495575 0.299011 0.056580
0.538635 0.303040 0.061157
0.580994 0.307404 0.064453
0.621948 0.312164 0.066193
0.663696 0.317902 0.067719
0.705475 0.324036 0.069061
0.747437 0.330872 0.069916
0.791809 0.339844 0.070404
0.830750 0.348969 0.069977
0.842072 0.349823 0.069427
0.849182 0.349182 0.069183
0.856171 0.349701 0.068634
0.863312 0.351227 0.068298
0.870941 0.352509 0.067963
0.878571 0.354340 0.067688
0.886230 0.356689 0.067444
0.894226 0.360474 0.067108
0.902527 0.364258 0.066650
0.015991 0.301025 0.048004
0.018188 0.300964 0.048950
0.020508 0.300873 0.050018
0.022583 0.300323 0.051147
0.024658 0.299438 0.052155
0.027008 0.298035 0.052917
0.033264 0.298248 0.056213
0.050598 0.304413 0.062683
0.097656 0.320465 0.066071
0.191223 0.328339 0.077637
0.275543 0.332275 0.082794
0.336426 0.338806 0.082336
0.398926 0.333832 0.079315
0.449585 0.329041 0.061951
0.495972 0.327728 0.058533
0.542542 0.330383 0.064392
0.584442 0.334808 0.067688
0.626160 0.339508 0.069946
0.667328 0.344543 0.071472
0.708923 0.350769 0.072144
0.751373 0.357849 0.073273
0.794128 0.366211 0.073425
0.837708 0.376312 0.072937
0.852417 0.378387 0.072144
0.860596 0.378326 0.071533
0.867767 0.378601 0.071136
0.875061 0.379822 0.070679
0.882233 0.381470 0.069977
0.889618 0.383209 0.069611
0.897522 0.385742 0.069305
0.905762 0.389709 0.068909
0.914429 0.394073 0.068451
0.019775 0.328918 0.051880
0.021790 0.328857 0.052887
0.024170 0.328644 0.053345
0.026184 0.328247 0.054199
0.028229 0.327576 0.055420
0.030212 0.326141 0.056122
0.032776 0.324860 0.057159
0.044586 0.327606 0.063171
0.073669 0.340759 0.065277
0.145874 0.362244 0.074646
0.245483 0.357513 0.090332
0.321899 0.367035 0.082397
0.380219 0.372101 0.091156
0.444000 0.367310 0.079407
0.492981 0.362732 0.065125
0.540833 0.361084 0.064606
0.586578 0.363617 0.068665
0.629364 0.367401 0.072449
0.670837 0.372284 0.073975
0.712708 0.378357 0.075104
0.754303 0.385254 0.075500
0.796661 0.393829 0.075409
0.841431 0.403961 0.075012
0.862762 0.408020 0.073669
0.873230 0.408630 0.072906
0.880127 0.408539 0.072540
0.887512 0.409973 0.072083
0.894989 0.411652 0.071533
0.902435 0.413269 0.071014
0.910217 0.416199 0.070190
0.918610 0.420654 0.069580
0.927032 0.424896 0.068909
0.023499 0.357330 0.056458
0.025543 0.357178 0.057159
0.027527 0.357056 0.057770
0.029816 0.356537 0.058289
0.031738 0.355743 0.059052
0.033691 0.354218 0.059601
0.035583 0.352661 0.060211
0.042969 0.353180 0.063202
0.059509 0.358948 0.069183
0.109253 0.377289 0.067627
0.204742 0.393890 0.086761
0.293701 0.390411 0.098541
0.366058 0.401398 0.084045
0.424561 0.406219 0.096436
0.489777 0.402130 0.076599
0.538635 0.398102 0.071259
0.584686 0.396332 0.070892
0.629547 0.398010 0.071350
0.673492 0.401764 0.075378
0.715546 0.407471 0.076660
0.757660 0.414093 0.076660
0.800171 0.422791 0.076355
0.844269 0.432709 0.075500
0.873474 0.440063 0.073456
0.887024 0.441345 0.072723
0.893616 0.440948 0.072357
0.900818 0.442169 0.071838
0.907928 0.443359 0.071411
0.915192 0.445435 0.070587
0.923096 0.448364 0.070160
0.931549 0.452820 0.070221
0.939514 0.457550 0.070343
0.027374 0.386261 0.061371
0.029358 0.386017 0.061615
0.031311 0.385803 0.062225
0.033539 0.385162 0.063019
0.035492 0.384277 0.063354
0.037323 0.382751 0.063721
0.039062 0.380951 0.063751
0.041168 0.379333 0.063965
0.054962 0.382782 0.069885
0.082306 0.396423 0.068756
0.162537 0.417511 0.079407
0.258667 0.420685 0.100189
0.341217 0.426910 0.099792
0.409882 0.437897 0.087158
0.469238 0.441620 0.096863
0.535583 0.438538 0.078918
0.582886 0.435516 0.077759
0.628387 0.434326 0.077087
0.672729 0.434082 0.076416
0.718384 0.439209 0.076019
0.761658 0.445587 0.076660
0.804565 0.453796 0.076355
0.847717 0.464020 0.075928
0.881561 0.472351 0.076263
0.900421 0.476807 0.076416
0.906616 0.475830 0.075928
0.913940 0.477264 0.075928
0.921234 0.478821 0.075928
0.928345 0.480621 0.076080
0.935333 0.483215 0.076447
0.942841 0.487671 0.077118
0.950928 0.492188 0.077850
0.031097 0.414886 0.068298
0.033142 0.414764 0.068634
0.035187 0.414642 0.069000
0.037170 0.414337 0.069244
0.039215 0.413544 0.069275
0.041077 0.412079 0.068909
0.042847 0.410461 0.069061
0.044617 0.408600 0.068939
0.053802 0.409271 0.071594
0.067078 0.413361 0.076904
0.125824 0.432281 0.073090
0.217590 0.454071 0.099457
0.304840 0.449615 0.113953
0.388702 0.463531 0.096802
0.454712 0.475494 0.089020
0.514160 0.478302 0.093872
0.579102 0.476929 0.086273
0.626678 0.474457 0.084473
0.672028 0.473053 0.083618
0.717224 0.473511 0.082977
0.762726 0.478210 0.082245
0.807495 0.485870 0.081299
0.850922 0.495819 0.082397
0.888458 0.505707 0.083221
0.913879 0.512970 0.083923
0.920044 0.512268 0.083527
0.927032 0.513428 0.083557
0.933868 0.515015 0.083679
0.940735 0.516663 0.083832
0.947296 0.519135 0.084229
0.954498 0.523163 0.085022
0.961487 0.527557 0.085938
0.035004 0.444824 0.075867
0.036987 0.445007 0.075562
0.038971 0.445251 0.075256
0.040924 0.445190 0.075165
0.043091 0.444702 0.074860
0.044983 0.443512 0.074677
0.046783 0.441864 0.074463
0.048492 0.439972 0.074615
0.053375 0.438934 0.075287
0.065613 0.441345 0.077332
0.091644 0.452820 0.071899
0.174622 0.467407 0.087097
0.263763 0.488159 0.117859
0.349365 0.484314 0.123138
0.434784 0.500214 0.091583
0.500031 0.515533 0.088287
0.558441 0.517975 0.093048
0.622620 0.517670 0.093567
0.670685 0.516113 0.091187
0.715759 0.514252 0.090454
0.761932 0.515076 0.089355
0.807831 0.520172 0.088806
0.853088 0.529114 0.089020
0.893951 0.540100 0.090454
0.923767 0.548889 0.091492
0.931427 0.548553 0.091156
0.938080 0.549103 0.091125
0.944824 0.550262 0.091187
0.951294 0.551880 0.091370
0.957703 0.554230 0.092377
0.962524 0.557953 0.094543
0.967377 0.561646 0.096466
0.038879 0.478210 0.080017
0.040894 0.478424 0.079712
0.042877 0.478577 0.078918
0.044830 0.478424 0.079193
0.047028 0.478180 0.078827
0.048859 0.477142 0.077911
0.050690 0.475891 0.077087
0.052460 0.474335 0.076630
0.054382 0.472382 0.076782
0.064697 0.473114 0.077332
0.078064 0.476685 0.078918
0.138428 0.485504 0.082611
0.217834 0.499603 0.103363
0.306274 0.518005 0.130890
0.393677 0.522064 0.124603
0.477875 0.538391 0.090942
0.543457 0.557800 0.094696
0.601868 0.561218 0.098083
0.665222 0.560547 0.101410
0.713165 0.558929 0.099091
0.760773 0.558014 0.097412
0.806824 0.558563 0.096710
0.852509 0.564026 0.096619
0.895264 0.573578 0.098114
0.927185 0.582672 0.101196
0.939392 0.584198 0.101898
0.945709 0.584106 0.101898
0.951111 0.585175 0.102203
0.956543 0.586578 0.103058
0.960846 0.588409 0.104828
0.964996 0.591919 0.107147
0.969208 0.595703 0.109802
0.043030 0.512726 0.082947
0.044983 0.513214 0.082458
0.046997 0.513977 0.081635
0.049042 0.513947 0.080170
0.051331 0.513763 0.079651
0.053223 0.512695 0.079193
0.055145 0.511627 0.077667
0.056854 0.510040 0.077515
0.058685 0.507965 0.076782
0.064850 0.507416 0.075317
0.079254 0.506622 0.077820
0.110504 0.508911 0.083527
0.181061 0.516998 0.095520
0.260376 0.533264 0.120422
0.345428 0.548004 0.142426
0.435455 0.560394 0.125977
0.518951 0.579132 0.097839
0.584778 0.601624 0.102051
0.644897 0.606873 0.104675
0.707642 0.605438 0.109253
0.756317 0.603577 0.108093
0.803894 0.601471 0.106018
0.849213 0.600983 0.106293
0.892303 0.606842 0.107635
0.930878 0.615997 0.111420
0.945831 0.619507 0.113678
0.950256 0.619171 0.113647
0.954681 0.620453 0.114441
0.959137 0.621704 0.115204
0.963257 0.623474 0.117218
0.967621 0.626770 0.119446
0.971802 0.629852 0.122009
0.049347 0.546661 0.085938
0.052002 0.547241 0.085205
0.054291 0.547607 0.084167
0.056488 0.547668 0.083496
0.058960 0.547699 0.082855
0.061157 0.547028 0.082611
0.063629 0.545837 0.082062
0.065857 0.544067 0.081024
0.067810 0.541840 0.080750
0.071686 0.539612 0.080170
0.086029 0.536560 0.081268
0.103302 0.535614 0.086609
0.151733 0.539276 0.095093
0.222809 0.546692 0.112213
0.299988 0.568481 0.137024
0.383087 0.580841 0.151581
0.476471 0.600769 0.128723
0.558990 0.622406 0.105011
0.626587 0.647308 0.109283
0.687469 0.654510 0.112366
0.749695 0.650085 0.117737
0.796265 0.645691 0.118988
0.842621 0.643097 0.118378
0.886169 0.643402 0.118988
0.926910 0.649475 0.122009
0.948639 0.655304 0.126160
0.952911 0.654510 0.126434
0.957245 0.655701 0.127258
0.961487 0.656891 0.128204
0.965546 0.658600 0.130341
0.969513 0.661255 0.133148
0.973511 0.664093 0.136017
0.059357 0.578918 0.092316
0.062225 0.579224 0.092529
0.065308 0.579407 0.092560
0.068268 0.579285 0.092010
0.071259 0.579041 0.091919
0.073853 0.578156 0.091064
0.076569 0.577240 0.090912
0.078827 0.575653 0.090302
0.081299 0.573608 0.089783
0.083801 0.571442 0.089325
0.094360 0.569122 0.090118
0.112030 0.566315 0.093628
0.132355 0.566223 0.100067
0.191223 0.571198 0.109100
0.262329 0.581818 0.129913
0.339478 0.605743 0.153870
0.423492 0.617767 0.159576
0.517120 0.642242 0.132355
0.601562 0.667847 0.112427
0.668457 0.693451 0.116913
0.727753 0.699524 0.122070
0.789948 0.692261 0.127380
0.833862 0.687012 0.131439
0.878754 0.685333 0.131561
0.920502 0.687042 0.133453
0.947906 0.691864 0.139374
0.954285 0.691742 0.140778
0.958618 0.692078 0.142181
0.962799 0.692810 0.143494
0.966644 0.693909 0.145752
0.970551 0.696075 0.148895
0.974487 0.698517 0.151489
0.071991 0.610107 0.105682
0.074890 0.610474 0.106110
0.078064 0.610718 0.106110
0.081055 0.610840 0.106201
0.083984 0.610840 0.105896
0.086914 0.610474 0.105591
0.089386 0.609741 0.105164
0.091583 0.608185 0.104309
0.094086 0.606445 0.103149
0.096100 0.604004 0.102295
0.098297 0.601929 0.101562
0.118011 0.600220 0.105133
0.134949 0.598297 0.110016
0.170746 0.599548 0.116455
0.232758 0.604004 0.128662
0.302246 0.618896 0.147949
0.381409 0.645264 0.171692
0.469971 0.658905 0.165985
0.564911 0.687775 0.132019
0.647980 0.716553 0.120850
0.711029 0.739563 0.128174
0.767609 0.742310 0.134827
0.828186 0.735748 0.138855
0.871857 0.731964 0.143280
0.912018 0.729980 0.147247
0.944763 0.732178 0.153595
0.953827 0.730957 0.156403
0.958710 0.730621 0.157501
0.962891 0.730927 0.158813
0.966827 0.730499 0.160736
0.970795 0.732178 0.163330
0.974762 0.734039 0.165833
0.084564 0.641113 0.118134
0.087982 0.641815 0.118591
0.090790 0.642639 0.119598
0.094147 0.643127 0.119995
0.097015 0.643311 0.120575
0.100037 0.642883 0.120178
0.102722 0.642456 0.120209
0.105316 0.641235 0.119934
0.107513 0.639771 0.118988
0.109924 0.638184 0.118378
0.111938 0.635956 0.117401
0.124451 0.635254 0.119202
0.141296 0.633270 0.124023
0.157776 0.631866 0.129395
0.211243 0.635101 0.135223
0.276001 0.639893 0.150208
0.344879 0.658600 0.167206
0.428375 0.688965 0.190063
0.521545 0.703888 0.172028
0.617767 0.737061 0.134766
0.694672 0.766266 0.132843
0.751434 0.783447 0.142456
0.806488 0.787018 0.148132
0.864594 0.782288 0.152924
0.907227 0.779236 0.158234
0.940399 0.776642 0.165741
0.952667 0.774506 0.170807
0.959229 0.773468 0.172394
0.963318 0.772583 0.178406
0.967224 0.771423 0.183105
0.971283 0.772247 0.191376
0.975098 0.774017 0.200592
0.097626 0.672943 0.131653
0.100494 0.673706 0.132690
0.103821 0.674530 0.133331
0.106689 0.675201 0.134277
0.109619 0.675446 0.135162
0.112366 0.675446 0.135529
0.115265 0.675262 0.135895
0.117676 0.674377 0.135742
0.120117 0.672913 0.135773
0.122406 0.671265 0.134857
0.124573 0.669434 0.134338
0.130646 0.668884 0.135162
0.148712 0.668976 0.140076
0.164703 0.667114 0.145538
0.194794 0.667603 0.150543
0.254364 0.671783 0.158081
0.318695 0.680054 0.172943
0.396088 0.704712 0.189331
0.481995 0.731171 0.196991
0.578857 0.757294 0.179474
0.670166 0.793488 0.160736
0.738312 0.813721 0.149902
0.792969 0.828735 0.163116
0.842072 0.833313 0.163879
0.898438 0.828308 0.168549
0.937286 0.825409 0.174377
0.954010 0.820587 0.182709
0.962311 0.817596 0.205566
0.965912 0.815460 0.216705
0.969147 0.813202 0.227509
0.972839 0.813599 0.238586
0.976807 0.815216 0.244934
0.102844 0.685760 0.138367
0.106354 0.687561 0.139771
0.109558 0.689056 0.141144
0.113037 0.690826 0.142700
0.116364 0.692078 0.143677
0.119446 0.693451 0.144745
0.122589 0.694580 0.146393
0.125397 0.695221 0.147247
0.128418 0.695709 0.148224
0.131287 0.695679 0.148712
0.133972 0.695770 0.149658
0.136566 0.695679 0.150330
0.152161 0.697876 0.156128
0.168762 0.698517 0.164276
0.186066 0.698669 0.170776
0.240021 0.705017 0.175354
0.302673 0.709778 0.186096
0.373840 0.726318 0.200714
0.453461 0.766357 0.207916
0.542206 0.789551 0.195038
0.640015 0.820740 0.193695
0.717133 0.843353 0.208893
0.781372 0.859711 0.202606
0.830292 0.872437 0.215729
0.876801 0.877563 0.198608
0.930145 0.872864 0.186127
0.953003 0.866272 0.192139
0.964478 0.861450 0.244415
0.968475 0.858704 0.253906
0.972137 0.856659 0.263153
0.975922 0.857025 0.269104
0.979675 0.857727 0.273590
0.105865 0.692719 0.142059
0.109009 0.694519 0.143646
0.112457 0.696075 0.145294
0.115936 0.697845 0.146545
0.118988 0.699066 0.147949
0.122498 0.700409 0.149139
0.125732 0.701569 0.150482
0.128754 0.702637 0.151733
0.131927 0.703705 0.153107
0.134827 0.704559 0.154114
0.137817 0.705261 0.155273
0.140991 0.705902 0.156555
0.150208 0.708313 0.161011
0.168060 0.710602 0.170105
0.184845 0.711914 0.178528
0.223785 0.717194 0.185120
0.286224 0.725464 0.193329
0.354523 0.738068 0.207367
0.428986 0.779022 0.212280
0.515503 0.828369 0.213531
0.611481 0.841187 0.204803
0.696686 0.865143 0.227844
0.762878 0.882385 0.244690
0.817932 0.895508 0.247589
0.865051 0.909149 0.258545
0.906647 0.913727 0.247650
0.949524 0.908081 0.202026
0.965149 0.899384 0.268219
0.969116 0.896759 0.277771
0.972931 0.894226 0.286041
0.976746 0.894318 0.289581
0.980499 0.894684 0.293060
0.108795 0.699493 0.145905
0.112061 0.701294 0.147125
0.115448 0.702881 0.148926
0.119080 0.704681 0.150177
0.122223 0.705933 0.151550
0.125519 0.707062 0.153046
0.128662 0.708374 0.154205
0.131836 0.709412 0.155365
0.134949 0.710388 0.157104
0.137787 0.711304 0.158508
0.140900 0.712158 0.159882
0.143921 0.713043 0.161377
0.151215 0.715302 0.164978
0.167023 0.718018 0.173920
0.184082 0.720428 0.183167
0.212036 0.724945 0.192139
0.273499 0.734924 0.198425
