滤镜资源/Professional Luts Collection/Triune-Digital-Cinematic-LUTs/3D LUTs (CUBE)/LOG/Guardians of the Galaxy - LOG.cube
#Created by Benjamin (IWLTBAP) : http://luts.iwltbap.com
#Copyright: (C) Copyright 2016 Triune Films and IWLTBAP
TITLE "Blockbuster LUTs Pack (LOG)"
#LUT size
LUT_3D_SIZE 5
#LUT data points
DOMAIN_MIN 0.000000 0.000000 0.000000
DOMAIN_MAX 0.903226 0.903226 0.903226
0.000000 0.000000 0.000000
0.213470 0.046509 0.016052
0.492035 0.106384 0.013428
0.772156 0.177734 0.035004
0.832153 0.196503 0.037262
0.000000 0.161041 0.029480
0.186859 0.177246 0.054810
0.481873 0.200348 0.036377
0.785767 0.247833 0.052521
0.845795 0.253571 0.051056
0.023499 0.357330 0.056458
0.042969 0.353180 0.063202
0.489777 0.402130 0.076599
0.800171 0.422791 0.076355
0.915192 0.445435 0.070587
0.059357 0.578918 0.092316
0.078827 0.575653 0.090302
0.262329 0.581818 0.129913
0.789948 0.692261 0.127380
0.962799 0.692810 0.143494
0.111450 0.706177 0.149628
0.134735 0.715729 0.160187
0.182129 0.727966 0.186279
0.664429 0.884003 0.237396
0.969360 0.943756 0.298553
0.000000 0.037354 0.191498
0.225006 0.067108 0.193268
0.517181 0.103516 0.144104
0.789398 0.177185 0.136749
0.845245 0.198212 0.124023
0.001007 0.162170 0.171143
0.134430 0.186096 0.180817
0.478821 0.195465 0.115631
0.786255 0.245331 0.092529
0.849274 0.252747 0.077362
0.025482 0.357635 0.109955
0.043701 0.349091 0.105713
0.479187 0.404266 0.124390
0.794464 0.419373 0.094818
0.915833 0.445007 0.087280
0.053314 0.568451 0.152435
0.068573 0.573212 0.150360
0.241028 0.582306 0.157074
0.786835 0.694611 0.159058
0.963196 0.699005 0.179993
0.097321 0.707672 0.206207
0.117279 0.718018 0.219421
0.157715 0.729156 0.241364
0.657928 0.889374 0.297363
0.969696 0.947662 0.346191
0.000000 0.100830 0.422852
0.158020 0.131592 0.435181
0.558594 0.157684 0.392731
0.827820 0.207367 0.372253
0.875519 0.216919 0.360016
0.004547 0.190918 0.393372
0.082703 0.217285 0.400452
0.509979 0.232544 0.388153
0.814240 0.243469 0.342834
0.876038 0.243866 0.328064
0.031952 0.382996 0.392487
0.047180 0.376984 0.385010
0.351471 0.454376 0.429047
0.780182 0.436646 0.333435
0.916168 0.474335 0.333984
0.063202 0.612701 0.368500
0.078156 0.614624 0.373566
0.156647 0.586151 0.352081
0.773804 0.705231 0.334290
0.966431 0.718475 0.364136
0.082703 0.721405 0.348724
0.097870 0.731873 0.351501
0.129547 0.733276 0.352264
0.645294 0.902313 0.372498
0.969849 0.951660 0.390289
0.000000 0.151703 0.606964
0.109528 0.183624 0.626587
0.502930 0.221008 0.624969
0.827789 0.265259 0.622162
0.867310 0.275055 0.623749
0.004883 0.237671 0.610718
0.068176 0.251648 0.618347
0.379028 0.262817 0.653015
0.811920 0.303192 0.625732
0.867432 0.299652 0.606506
0.037811 0.412292 0.638733
0.051758 0.403900 0.633514
0.209991 0.450684 0.658325
0.775665 0.468567 0.667450
0.904572 0.506744 0.674561
0.075165 0.656189 0.669952
0.091095 0.659180 0.673920
0.179993 0.678955 0.674652
0.710297 0.746521 0.705048
0.947693 0.755432 0.678711
0.096436 0.848083 0.677216
0.113190 0.855255 0.673279
0.146393 0.867615 0.696960
0.513031 0.966248 0.660461
0.965302 0.985626 0.674255
0.000000 0.164307 0.653198
0.103027 0.194275 0.672455
0.489716 0.226959 0.671265
0.830444 0.279449 0.678436
0.869385 0.289093 0.681793
0.003723 0.244751 0.653717
0.063538 0.257172 0.664856
0.352020 0.270264 0.691986
0.810364 0.312103 0.692871
0.871979 0.321472 0.700317
0.038879 0.421143 0.703918
0.052460 0.414764 0.710144
0.204773 0.467682 0.759216
0.776306 0.488495 0.819763
0.928436 0.523651 0.836121
0.075653 0.652740 0.804565
0.090912 0.650360 0.811584
0.187469 0.691650 0.845032
0.668762 0.757874 0.903931
0.946381 0.779083 0.911560
0.104828 0.831055 0.862091
0.123566 0.840485 0.873566
0.155884 0.858093 0.892242
0.474304 0.956909 0.958984
0.941437 0.995270 0.941467
