滤镜资源/Professional Luts Collection/Triune-Digital-Cinematic-LUTs/3D LUTs (CUBE)/LOG/Guardians of the Galaxy - LOG.cube
#Created by Benjamin (IWLTBAP) : http://luts.iwltbap.com
#Copyright: (C) Copyright 2016 Triune Films and IWLTBAP
TITLE "Blockbuster LUTs Pack (LOG)"
#LUT size
LUT_3D_SIZE 8
#LUT data points
DOMAIN_MIN 0.000000 0.000000 0.000000
DOMAIN_MAX 0.903226 0.903226 0.903226
0.000000 0.000000 0.000000
0.095703 0.022308 0.011810
0.251678 0.054352 0.014557
0.408173 0.086761 0.008667
0.584717 0.127289 0.020752
0.757202 0.172974 0.034058
0.798065 0.185699 0.036072
0.832153 0.196503 0.037262
0.000000 0.076996 0.017822
0.067902 0.085175 0.035950
0.238556 0.101715 0.032990
0.399261 0.119263 0.019989
0.567017 0.143127 0.026123
0.750183 0.190521 0.039612
0.803101 0.207031 0.041718
0.837006 0.217987 0.042999
0.000519 0.189636 0.033295
0.010529 0.187653 0.039154
0.228088 0.208832 0.060944
0.404633 0.214111 0.039795
0.568787 0.232697 0.049133
0.745575 0.259735 0.056427
0.820679 0.271667 0.056213
0.852203 0.277496 0.055939
0.015991 0.301025 0.048004
0.024658 0.299438 0.052155
0.097656 0.320465 0.066071
0.398926 0.333832 0.079315
0.584442 0.334808 0.067688
0.751373 0.357849 0.073273
0.860596 0.378326 0.071533
0.889618 0.383209 0.069611
0.031097 0.414886 0.068298
0.039215 0.413544 0.069275
0.053802 0.409271 0.071594
0.304840 0.449615 0.113953
0.579102 0.476929 0.086273
0.762726 0.478210 0.082245
0.913879 0.512970 0.083923
0.940735 0.516663 0.083832
0.049347 0.546661 0.085938
0.058960 0.547699 0.082855
0.067810 0.541840 0.080750
0.151733 0.539276 0.095093
0.476471 0.600769 0.128723
0.749695 0.650085 0.117737
0.926910 0.649475 0.122009
0.961487 0.656891 0.128204
0.097626 0.672943 0.131653
0.109619 0.675446 0.135162
0.120117 0.672913 0.135773
0.148712 0.668976 0.140076
0.318695 0.680054 0.172943
0.670166 0.793488 0.160736
0.898438 0.828308 0.168549
0.965912 0.815460 0.216705
0.111450 0.706177 0.149628
0.125214 0.712494 0.155609
0.137604 0.716553 0.161316
0.151520 0.720947 0.168488
0.263611 0.746552 0.198853
0.574280 0.862244 0.219391
0.846008 0.931030 0.286987
0.969360 0.943756 0.298553
0.000000 0.015015 0.098480
0.093140 0.030823 0.103058
0.250183 0.057312 0.072113
0.412079 0.090546 0.050079
0.587585 0.128113 0.051880
0.760803 0.175171 0.049774
0.802551 0.188385 0.051849
0.835999 0.199005 0.053284
0.000000 0.076263 0.083710
0.053711 0.083649 0.082397
0.233978 0.099365 0.065186
0.396851 0.115997 0.039490
0.566040 0.143066 0.037262
0.751862 0.192078 0.047485
0.806000 0.209259 0.048279
0.839722 0.220703 0.048920
0.001953 0.186951 0.053101
0.011810 0.184570 0.056244
0.220856 0.208954 0.079376
0.400116 0.213562 0.056274
0.565338 0.231476 0.059631
0.744202 0.258881 0.064117
0.822815 0.272217 0.062256
0.854523 0.278717 0.061493
0.016968 0.299438 0.066101
0.026001 0.297241 0.070862
0.087463 0.319031 0.086945
0.392853 0.335419 0.101562
0.582214 0.334869 0.078979
0.748657 0.356506 0.082886
0.861725 0.378296 0.077881
0.891571 0.384460 0.076050
0.031952 0.414520 0.090240
0.040283 0.413208 0.091644
0.054291 0.406708 0.092499
0.291351 0.452576 0.126556
0.575531 0.478455 0.100372
0.761505 0.478302 0.095032
0.914642 0.514038 0.094360
0.940948 0.518188 0.095673
0.048370 0.541168 0.120941
0.056396 0.545166 0.117950
0.064270 0.542419 0.113251
0.140625 0.539246 0.113251
0.463623 0.598602 0.156494
0.748322 0.652283 0.134674
0.926392 0.651123 0.141327
0.962158 0.660156 0.149994
0.088898 0.673889 0.165070
0.101532 0.677948 0.171265
0.111298 0.675446 0.171814
0.137909 0.670685 0.173126
0.306946 0.681732 0.194092
0.665100 0.794037 0.200958
0.897949 0.830719 0.187073
0.965973 0.818207 0.259705
0.104004 0.707458 0.182739
0.117188 0.713959 0.191711
0.128571 0.718201 0.196869
0.140137 0.723083 0.201538
0.250183 0.752197 0.227509
0.569611 0.867340 0.256378
0.845520 0.933868 0.320038
0.969604 0.945770 0.326355
0.000000 0.045105 0.222900
0.068115 0.062592 0.232452
0.268585 0.079437 0.222382
0.435211 0.096527 0.190582
0.609436 0.126923 0.169830
0.774811 0.168793 0.169373
0.816711 0.184906 0.158661
0.848022 0.196014 0.153961
0.000000 0.090912 0.207764
0.033295 0.103790 0.211792
0.247162 0.116119 0.214600
0.414093 0.113678 0.172150
0.581543 0.135803 0.151947
0.762421 0.185242 0.149719
0.815216 0.202972 0.140472
0.846954 0.215088 0.136078
0.005768 0.192078 0.200806
0.015503 0.189850 0.197937
0.160461 0.223938 0.216064
0.389038 0.224640 0.174835
0.565796 0.226501 0.135345
0.739014 0.250458 0.117676
0.824493 0.268433 0.105682
0.856506 0.275787 0.101379
0.019867 0.312714 0.166534
0.028687 0.310791 0.167816
0.076813 0.312805 0.180023
0.376740 0.344849 0.181183
0.577667 0.337585 0.116516
0.741974 0.353882 0.106323
0.861115 0.375610 0.092499
0.891022 0.382751 0.088928
0.033356 0.415131 0.135284
0.041595 0.412689 0.133362
0.054230 0.404175 0.126495
0.269012 0.455170 0.143677
0.569458 0.478638 0.127869
0.757507 0.476288 0.109589
0.913818 0.512756 0.109711
0.939850 0.517761 0.113190
0.049011 0.531403 0.151062
0.057251 0.532562 0.151947
0.064697 0.530975 0.147888
0.124573 0.537994 0.137665
0.449585 0.594360 0.183441
0.745026 0.652588 0.151062
0.923859 0.651886 0.160217
0.962311 0.662476 0.169403
0.077393 0.672272 0.196075
0.089661 0.676270 0.202362
0.099854 0.675140 0.204498
0.125488 0.669739 0.204285
0.293610 0.684052 0.215637
0.656952 0.791870 0.235748
0.896545 0.832642 0.204071
0.966400 0.820679 0.294312
0.095428 0.706940 0.214050
0.107422 0.713684 0.222595
0.117584 0.718475 0.228394
0.127655 0.723145 0.233154
0.231079 0.754333 0.255981
0.564117 0.873291 0.286652
0.844330 0.936584 0.352112
0.969696 0.948273 0.352264
0.000000 0.080231 0.352600
0.049011 0.097687 0.360565
0.223602 0.112762 0.371033
0.457275 0.132294 0.337372
0.638367 0.152527 0.312805
0.804230 0.185364 0.300812
0.843872 0.192261 0.288177
0.872681 0.198608 0.282196
0.000000 0.119629 0.338531
0.024506 0.128723 0.339569
0.189026 0.142242 0.356750
0.433655 0.146423 0.327087
0.614471 0.162262 0.299866
0.790161 0.194000 0.283966
0.842651 0.204224 0.271515
0.869354 0.210754 0.263519
0.008179 0.205444 0.326721
0.017273 0.202271 0.324493
0.116150 0.237091 0.340515
0.399139 0.248901 0.338104
0.584930 0.230560 0.287354
0.757751 0.237457 0.257904
0.842041 0.247681 0.238342
0.872955 0.258514 0.237061
0.023132 0.317627 0.326355
0.031982 0.316528 0.324554
0.073029 0.325226 0.322632
0.275879 0.376587 0.356354
0.562012 0.370087 0.309113
0.736084 0.358551 0.253784
0.865753 0.380676 0.227020
0.898865 0.394562 0.228271
0.037811 0.458801 0.318573
0.046448 0.454834 0.311340
0.057343 0.443695 0.301971
0.157257 0.463806 0.319183
0.545776 0.507263 0.305420
0.752991 0.490295 0.243530
0.908997 0.515869 0.216003
0.936981 0.525543 0.222809
0.054810 0.557068 0.288177
0.063568 0.558838 0.291229
0.070587 0.550201 0.283173
0.107452 0.529816 0.265594
0.406891 0.593842 0.266937
0.736603 0.658051 0.248718
0.918793 0.657349 0.233612
0.963440 0.668732 0.247681
0.073517 0.663391 0.288788
0.082458 0.666382 0.292786
0.089600 0.662170 0.287231
0.106506 0.658569 0.276764
0.262299 0.683136 0.261383
0.644287 0.787872 0.274658
0.893219 0.832092 0.219421
0.966248 0.820801 0.325562
0.080475 0.699097 0.261475
0.091522 0.707550 0.266144
0.103760 0.713348 0.266296
0.117157 0.718903 0.263489
0.211090 0.754211 0.286743
0.552582 0.881500 0.316223
0.840515 0.939117 0.383118
0.969818 0.950317 0.377655
0.000000 0.121185 0.494110
0.038269 0.133728 0.498505
0.186646 0.154236 0.504425
0.423523 0.175781 0.494904
0.653442 0.186157 0.450256
0.806305 0.216888 0.443787
0.850037 0.228333 0.438019
0.877258 0.237152 0.436371
0.000000 0.154022 0.478943
0.017273 0.159241 0.477142
0.150360 0.178192 0.492737
0.392151 0.182648 0.488800
0.630249 0.195801 0.439789
0.794250 0.226898 0.432007
0.850525 0.242157 0.427185
0.878662 0.250641 0.425903
0.009674 0.226501 0.460236
0.018433 0.225555 0.457397
0.098022 0.253265 0.464508
0.300385 0.259399 0.493011
0.598053 0.268188 0.445343
0.765900 0.270538 0.421326
0.851898 0.280212 0.413116
0.880066 0.283752 0.410583
0.025574 0.328247 0.457550
0.034485 0.325958 0.455261
0.065552 0.331268 0.452179
0.215973 0.370483 0.481110
0.561157 0.391693 0.479004
0.741364 0.365906 0.428741
0.866974 0.377136 0.414337
0.899261 0.388489 0.417389
0.041992 0.455078 0.465271
0.050934 0.454315 0.464233
0.060394 0.445679 0.454895
0.154358 0.486206 0.476013
0.443970 0.536682 0.506592
0.729858 0.532562 0.462799
0.898956 0.545349 0.437042
0.933136 0.561249 0.448303
0.061768 0.622009 0.479004
0.071533 0.627106 0.480743
0.078766 0.618256 0.468262
0.113373 0.599365 0.464355
0.274750 0.623047 0.464020
0.718292 0.681488 0.435150
0.906555 0.673676 0.428558
0.958466 0.688782 0.444061
0.081482 0.723236 0.451141
0.090942 0.729584 0.460205
0.098389 0.725952 0.458435
0.113647 0.717133 0.453430
0.195312 0.707458 0.453491
0.607422 0.786682 0.427673
0.885468 0.849457 0.421997
0.967804 0.839417 0.471344
0.086700 0.757904 0.425751
0.095642 0.766479 0.430298
0.103699 0.766571 0.429626
0.111481 0.763855 0.424500
0.182190 0.784760 0.451569
0.521515 0.924316 0.437805
0.836914 0.950409 0.491425
0.969330 0.961823 0.465881
0.000000 0.150085 0.600769
0.032257 0.162292 0.608734
0.151764 0.190643 0.621918
0.362274 0.195190 0.628632
0.637115 0.227234 0.593811
0.808838 0.254150 0.595764
0.844025 0.258698 0.586823
0.866943 0.263855 0.582825
0.000000 0.182129 0.599701
0.011688 0.186829 0.604828
0.117310 0.203125 0.618805
0.318115 0.208374 0.620178
0.602295 0.241180 0.595764
0.795502 0.264679 0.587677
0.842438 0.271179 0.576752
0.867188 0.279449 0.577454
0.010284 0.253723 0.595398
0.018616 0.255005 0.595703
0.088165 0.271149 0.597198
0.235535 0.282043 0.624023
0.537933 0.297424 0.613495
0.767090 0.307526 0.583618
0.843842 0.310669 0.571442
0.870483 0.316010 0.572571
0.028412 0.351044 0.599365
0.036652 0.348389 0.598389
0.059601 0.350586 0.592712
0.167480 0.383331 0.607452
0.450195 0.377899 0.645874
0.742737 0.402802 0.609589
0.859436 0.418365 0.604584
0.891144 0.432068 0.611298
0.046112 0.465149 0.606110
0.054901 0.464233 0.606354
0.062225 0.454468 0.597229
0.141541 0.477570 0.604218
0.345490 0.512115 0.643127
0.724915 0.548309 0.654907
0.887695 0.554382 0.632751
0.922852 0.567139 0.635376
0.068329 0.615631 0.626251
0.077728 0.618927 0.630310
0.085510 0.612976 0.623932
0.124329 0.611420 0.614349
0.247803 0.679810 0.672974
0.662384 0.703827 0.663055
0.887177 0.705780 0.633881
0.946289 0.717651 0.636597
0.089142 0.790619 0.651276
0.098694 0.797485 0.656464
0.107025 0.795624 0.652832
0.122223 0.789246 0.648895
0.213348 0.808838 0.680420
0.460907 0.797485 0.621277
0.864716 0.857819 0.598541
0.968933 0.845123 0.611328
0.094757 0.832031 0.616913
0.103729 0.835602 0.616211
0.113037 0.838531 0.619873
0.121399 0.838043 0.616821
0.202698 0.874847 0.664246
0.424103 0.972992 0.662506
0.818512 0.962494 0.629089
0.966949 0.981964 0.632141
0.000000 0.156982 0.626709
0.028137 0.168518 0.634705
0.139526 0.195892 0.647644
0.345581 0.203674 0.652283
0.621857 0.238617 0.634796
0.808380 0.267273 0.645020
0.845490 0.275513 0.647400
0.867676 0.281433 0.648895
0.000000 0.185822 0.626678
0.006653 0.189636 0.633301
0.112823 0.206085 0.648895
0.302521 0.217316 0.651703
0.583435 0.252075 0.643677
0.793762 0.279236 0.646851
0.844971 0.292511 0.655640
0.867737 0.299286 0.658356
0.009735 0.259338 0.631226
0.017914 0.261139 0.634491
0.083771 0.275574 0.640839
0.208160 0.294678 0.674103
0.520996 0.297333 0.678101
0.762115 0.323090 0.671112
0.847748 0.330841 0.677612
0.870636 0.333618 0.678589
0.029022 0.359192 0.658020
0.037323 0.357300 0.661896
0.058228 0.361847 0.665283
0.159943 0.387634 0.683228
0.391937 0.392303 0.739166
0.727844 0.412170 0.734650
0.874359 0.441162 0.751770
0.900421 0.452301 0.758606
0.048370 0.480072 0.704407
0.056854 0.480316 0.710938
0.064117 0.473145 0.711334
0.137909 0.498871 0.733582
0.311646 0.545776 0.787842
0.688049 0.545502 0.825989
0.905090 0.584473 0.824615
0.931122 0.598450 0.821899
0.069885 0.618347 0.767242
0.078827 0.619080 0.773621
0.086517 0.613007 0.771729
0.119293 0.619598 0.776703
0.248199 0.680267 0.814911
0.589050 0.696991 0.842010
0.879578 0.716949 0.830017
0.937134 0.738403 0.829712
0.094208 0.773499 0.799744
0.103455 0.776886 0.804108
0.112427 0.775635 0.802948
0.127258 0.771454 0.798401
0.232056 0.819397 0.826965
0.463409 0.856781 0.851288
0.821106 0.874451 0.819458
0.951538 0.862061 0.795685
0.102081 0.839508 0.788483
0.112000 0.844818 0.790222
0.122559 0.851257 0.791138
0.132812 0.857605 0.787689
0.224396 0.912201 0.839050
0.381042 0.976898 0.884094
0.707367 0.978943 0.760010
0.957825 0.989258 0.785675
0.000000 0.164307 0.653198
0.026062 0.175415 0.661316
0.131989 0.202209 0.674438
0.334900 0.209900 0.674133
0.611725 0.245575 0.665009
0.806580 0.272308 0.671661
0.848511 0.284698 0.682587
0.869385 0.289093 0.681793
0.000000 0.191101 0.652161
0.005249 0.194305 0.659424
0.110260 0.211884 0.675110
0.293793 0.225433 0.676697
0.574097 0.257874 0.672180
0.791260 0.286438 0.678223
0.848633 0.301392 0.691223
0.870087 0.306641 0.691101
0.009399 0.263977 0.655853
0.017456 0.265930 0.660278
0.081909 0.279297 0.667694
0.191620 0.302460 0.700043
0.506470 0.296082 0.707703
0.756836 0.328400 0.702759
0.852081 0.337189 0.712769
0.873993 0.338806 0.711609
0.029144 0.362366 0.682159
0.037415 0.361267 0.686920
0.057526 0.365631 0.690887
0.157562 0.388306 0.708099
0.378174 0.397278 0.765839
0.729065 0.418793 0.772064
0.884644 0.448425 0.791077
0.908752 0.454407 0.793884
0.048553 0.482727 0.728729
0.057098 0.483368 0.736023
0.064301 0.475586 0.736633
0.138824 0.507324 0.764709
0.311462 0.556885 0.818909
0.685486 0.561005 0.857330
0.911865 0.594513 0.868164
0.941559 0.598816 0.869080
0.069855 0.617584 0.790192
0.078766 0.617950 0.796295
0.086731 0.613037 0.797516
0.122894 0.628265 0.812592
0.266632 0.705017 0.867157
0.619537 0.723633 0.897552
0.875580 0.730286 0.901672
0.947906 0.746429 0.907227
0.094513 0.769348 0.848358
0.103607 0.768951 0.851898
0.112701 0.765472 0.853790
0.127075 0.758850 0.855499
0.236389 0.812347 0.888763
0.475739 0.851288 0.920990
0.797546 0.860352 0.919739
0.941071 0.875092 0.920685
0.104828 0.831055 0.862091
0.115234 0.836273 0.868042
0.126160 0.841919 0.875366
0.136749 0.846924 0.881866
0.221863 0.900116 0.912140
0.360779 0.952759 0.957092
0.703461 0.975250 0.953735
0.941437 0.995270 0.941467
