滤镜资源/Professional Luts Collection/Triune-Digital-Cinematic-LUTs/3D LUTs (CUBE)/LOG/Harry Potter - LOG.cube
#Created by Benjamin (IWLTBAP) : http://luts.iwltbap.com
#Copyright: (C) Copyright 2016 Triune Films and IWLTBAP
TITLE "Blockbuster LUTs Pack (LOG)"
#LUT size
LUT_3D_SIZE 8
#LUT data points
DOMAIN_MIN 0.000000 0.000000 0.000000
DOMAIN_MAX 0.903226 0.903226 0.903226
0.000000 0.000031 0.025452
0.012421 0.000732 0.039764
0.184723 0.041687 0.041412
0.364105 0.081299 0.033386
0.532196 0.107697 0.056061
0.661926 0.134888 0.074371
0.689117 0.143982 0.078796
0.708313 0.153137 0.083984
0.000000 0.063019 0.052643
0.009125 0.057098 0.044281
0.169708 0.070862 0.037842
0.349579 0.090149 0.015198
0.515167 0.111053 0.047852
0.656677 0.138458 0.070618
0.691681 0.149933 0.076202
0.710052 0.159271 0.081726
0.000000 0.151245 0.095459
0.003784 0.146942 0.092224
0.118591 0.150024 0.074463
0.339081 0.154449 0.014252
0.500977 0.155640 0.014984
0.650818 0.158600 0.033203
0.699768 0.168274 0.049988
0.716400 0.176086 0.064392
0.062958 0.260040 0.154297
0.073334 0.256927 0.151794
0.131958 0.258789 0.148010
0.297119 0.280548 0.119385
0.506531 0.271973 0.035736
0.652588 0.254669 0.045471
0.715576 0.244995 0.054749
0.728882 0.242126 0.061890
0.145691 0.399139 0.241913
0.154358 0.397186 0.239594
0.170715 0.393463 0.234802
0.310516 0.413727 0.220612
0.484467 0.435974 0.175781
0.677917 0.415222 0.089844
0.757690 0.385986 0.073853
0.766052 0.378540 0.082275
0.240753 0.557312 0.351440
0.251007 0.555359 0.349243
0.259827 0.549408 0.344086
0.350159 0.560486 0.340210
0.507599 0.572205 0.305603
0.651215 0.576477 0.245300
0.790833 0.543610 0.145721
0.805054 0.539734 0.173492
0.363495 0.698486 0.446991
0.373749 0.696899 0.445282
0.382294 0.692596 0.441650
0.419342 0.691315 0.437775
0.554291 0.703583 0.425079
0.676178 0.707275 0.387817
0.779694 0.700470 0.338135
0.832214 0.689819 0.327545
0.398560 0.729858 0.470795
0.413910 0.732208 0.471741
0.430511 0.734741 0.472717
0.450958 0.737854 0.473816
0.571594 0.755463 0.475311
0.688751 0.769196 0.464508
0.781494 0.775696 0.425507
0.840729 0.782104 0.453339
0.000000 0.001282 0.087616
0.012024 0.003906 0.094513
0.170227 0.045624 0.094666
0.356049 0.083618 0.084991
0.529846 0.109924 0.084015
0.661285 0.135925 0.087524
0.689331 0.145264 0.091553
0.708557 0.154419 0.096436
0.000000 0.065643 0.091644
0.008850 0.061584 0.089050
0.169647 0.070984 0.077820
0.347778 0.090668 0.059235
0.513000 0.111877 0.067810
0.655945 0.139465 0.084198
0.691864 0.151184 0.089233
0.710297 0.160461 0.094391
0.000000 0.152435 0.107788
0.003784 0.147369 0.104523
0.112396 0.148895 0.088135
0.338928 0.151855 0.033020
0.501434 0.152313 0.034821
0.651489 0.157104 0.050323
0.700897 0.169617 0.070190
0.717468 0.177795 0.081390
0.061981 0.261353 0.165192
0.070648 0.256348 0.162567
0.128693 0.258606 0.159210
0.291382 0.278931 0.131592
0.506409 0.269409 0.050751
0.652374 0.252441 0.057953
0.715973 0.241943 0.064545
0.729218 0.239838 0.072357
0.143463 0.399200 0.252930
0.151886 0.396637 0.251099
0.167511 0.392365 0.246185
0.300385 0.413605 0.235016
0.480469 0.435638 0.189331
0.678162 0.413788 0.096130
0.757141 0.383331 0.082184
0.765656 0.377350 0.093811
0.237274 0.557190 0.362305
0.247437 0.555054 0.360809
0.255005 0.548676 0.355530
0.340729 0.558960 0.352600
0.503326 0.572906 0.320160
0.649261 0.577087 0.258972
0.789978 0.541565 0.150146
0.804871 0.539154 0.183258
0.361237 0.698700 0.456848
0.369873 0.696472 0.455139
0.378082 0.692169 0.451538
0.414490 0.690918 0.447876
0.549011 0.703430 0.436981
0.674347 0.707397 0.400085
0.778290 0.700134 0.347473
0.831604 0.690338 0.340454
0.397400 0.730988 0.480743
0.412170 0.732941 0.481903
0.428772 0.735474 0.482910
0.448608 0.738556 0.484100
0.569336 0.756592 0.486908
0.687408 0.770416 0.476288
0.780457 0.777008 0.438904
0.839935 0.783966 0.468872
0.000000 0.028198 0.166473
0.011505 0.038635 0.169037
0.122681 0.064941 0.180634
0.317871 0.092468 0.178009
0.511353 0.127167 0.181763
0.661530 0.157257 0.183350
0.691498 0.164398 0.176422
0.710968 0.171021 0.173798
0.000000 0.084778 0.172089
0.008362 0.081085 0.167358
0.096161 0.086823 0.171814
0.308044 0.098938 0.164581
0.496094 0.126129 0.164093
0.655731 0.155609 0.165375
0.693573 0.165283 0.158905
0.712280 0.171997 0.156555
0.000000 0.160889 0.181549
0.003784 0.157104 0.177063
0.075714 0.157928 0.174896
0.317719 0.158051 0.145264
0.505890 0.147095 0.119659
0.654083 0.162506 0.119507
0.702393 0.175171 0.120911
0.718231 0.182037 0.123535
0.057678 0.268341 0.216095
0.067322 0.264801 0.211365
0.114685 0.258698 0.204254
0.274323 0.276917 0.176178
0.510345 0.260803 0.079468
0.651917 0.244873 0.077789
0.716339 0.235535 0.075836
0.729462 0.235321 0.082947
0.141541 0.403076 0.280121
0.149200 0.399658 0.276154
0.161621 0.390991 0.266113
0.285553 0.412079 0.251587
0.473602 0.433990 0.204437
0.677063 0.410339 0.102234
0.756409 0.379211 0.091095
0.765503 0.376282 0.107117
0.233948 0.556122 0.372833
0.242645 0.553406 0.370697
0.250305 0.547028 0.366547
0.328796 0.554352 0.362213
0.496399 0.572083 0.335083
0.646210 0.576965 0.273834
0.788635 0.538422 0.153931
0.804718 0.538025 0.194458
0.358185 0.697998 0.466034
0.366577 0.695740 0.464264
0.373657 0.691071 0.461121
0.407776 0.689514 0.457642
0.541687 0.702362 0.448853
0.671875 0.706940 0.412659
0.776428 0.699890 0.359253
0.830933 0.691223 0.356720
0.396484 0.732300 0.491028
0.410828 0.734131 0.492004
0.427307 0.736328 0.493378
0.445404 0.739136 0.494476
0.567017 0.757782 0.498901
0.685608 0.771576 0.488434
0.779175 0.778442 0.453705
0.839111 0.786194 0.486298
0.000000 0.076660 0.254608
0.010895 0.079987 0.254944
0.100800 0.092499 0.265533
0.272949 0.118195 0.286743
0.476440 0.152496 0.306152
0.657654 0.208405 0.332611
0.692902 0.218781 0.327484
0.715088 0.226105 0.325500
0.000000 0.108002 0.260254
0.007751 0.102936 0.252747
0.076233 0.106934 0.257080
0.250641 0.123260 0.273834
0.455750 0.151367 0.288116
0.650940 0.204102 0.311676
0.695923 0.217896 0.307831
0.716858 0.224396 0.305206
0.000000 0.176331 0.281342
0.003784 0.172852 0.276428
0.073059 0.168945 0.267212
0.225433 0.182709 0.277771
0.442474 0.190430 0.271942
0.649780 0.208893 0.276276
0.706390 0.221436 0.270264
0.723969 0.224884 0.266571
0.015167 0.282166 0.314453
0.037231 0.278748 0.309448
0.102936 0.276917 0.303436
0.193054 0.285980 0.306030
0.475311 0.291229 0.265442
0.660431 0.264557 0.229919
0.727325 0.244263 0.206299
0.737976 0.253632 0.213898
0.135223 0.414062 0.370331
0.143677 0.411926 0.366760
0.154327 0.405640 0.357819
0.224640 0.415039 0.359863
0.446198 0.442932 0.322449
0.683441 0.409454 0.179169
0.759521 0.378326 0.160522
0.768585 0.386749 0.190826
0.226959 0.562714 0.438080
0.235260 0.560883 0.434448
0.241028 0.554504 0.425720
0.293427 0.552826 0.423126
0.464569 0.576233 0.403290
0.640442 0.584015 0.338715
0.788116 0.532745 0.170593
0.805145 0.539490 0.227539
0.355865 0.701294 0.499207
0.363892 0.699402 0.496613
0.368652 0.693787 0.490143
0.395294 0.688599 0.482849
0.530151 0.701538 0.472015
0.668335 0.706512 0.431335
0.773224 0.698517 0.371643
0.830017 0.690918 0.372589
0.397675 0.735779 0.509735
0.410034 0.736633 0.508484
0.425385 0.738007 0.506927
0.443939 0.740082 0.505554
0.563141 0.758789 0.511536
0.682770 0.772614 0.501373
0.777344 0.780029 0.470306
0.838226 0.788452 0.504028
0.000000 0.109863 0.354614
0.010223 0.111664 0.353882
0.114014 0.120300 0.362000
0.249054 0.143036 0.382904
0.444763 0.184052 0.428802
0.639374 0.246857 0.473907
0.681610 0.267303 0.479797
0.709106 0.280029 0.485077
0.000000 0.133423 0.356750
0.007233 0.129181 0.350281
0.094574 0.131073 0.353577
0.227356 0.146637 0.369507
0.421661 0.186005 0.411224
0.630768 0.244049 0.453918
0.686768 0.270020 0.465027
0.712891 0.281891 0.470276
0.002533 0.199738 0.384521
0.006409 0.195129 0.378174
0.097839 0.192566 0.372070
0.200836 0.201813 0.378815
0.391449 0.232239 0.408020
0.614929 0.260468 0.427734
0.697754 0.281342 0.439606
0.721741 0.287109 0.440308
0.054688 0.304016 0.430359
0.070984 0.300873 0.425781
0.114716 0.298981 0.420837
0.188080 0.302399 0.417328
0.368042 0.337769 0.439941
0.628967 0.351105 0.435486
0.726654 0.331146 0.415588
0.741882 0.327545 0.407806
0.115234 0.426331 0.471924
0.125336 0.424744 0.468719
0.136383 0.418762 0.460358
0.211273 0.432190 0.465149
0.340149 0.453766 0.473877
0.665619 0.457458 0.418915
0.764648 0.444885 0.400238
0.774963 0.441620 0.395142
0.227264 0.572510 0.527008
0.235352 0.570465 0.523895
0.240540 0.564331 0.516571
0.285126 0.567200 0.513855
0.411194 0.583557 0.519348
0.636078 0.602173 0.480530
0.789856 0.572479 0.376923
0.807648 0.574493 0.396149
0.354034 0.707336 0.577240
0.360352 0.705475 0.574188
0.364685 0.701111 0.568054
0.382294 0.697174 0.559570
0.503662 0.706299 0.560822
0.656799 0.718018 0.532776
0.771912 0.713104 0.484039
0.825043 0.709381 0.492706
0.394257 0.743591 0.585754
0.406647 0.745270 0.584747
0.420593 0.747070 0.582489
0.437439 0.749084 0.578491
0.552795 0.763977 0.589783
0.676605 0.780090 0.579865
0.775909 0.787170 0.541260
0.832733 0.796387 0.576691
0.000214 0.135773 0.440186
0.033234 0.138702 0.443634
0.135986 0.152161 0.465485
0.246948 0.178467 0.505280
0.422333 0.218811 0.553864
0.629852 0.287445 0.617462
0.672821 0.310089 0.626709
0.698456 0.325317 0.632629
0.005035 0.160431 0.456146
0.034454 0.158325 0.454285
0.125092 0.163727 0.466034
0.228333 0.185120 0.499023
0.398773 0.224518 0.545258
0.618347 0.288727 0.606018
0.675049 0.314819 0.616852
0.700256 0.328552 0.621643
0.058990 0.230438 0.507141
0.072784 0.227051 0.502289
0.127838 0.226349 0.500244
0.206512 0.238739 0.516022
0.366150 0.268250 0.547302
0.597839 0.315552 0.592224
0.682434 0.332062 0.600494
0.705475 0.338654 0.601715
0.103699 0.332153 0.563202
0.113861 0.330444 0.559601
0.144592 0.328979 0.555298
0.205841 0.333160 0.553589
0.337097 0.358063 0.571228
0.589783 0.404327 0.604858
0.709778 0.411926 0.608459
0.728394 0.405487 0.600555
0.137787 0.448303 0.603424
0.147919 0.447540 0.600739
0.155701 0.441071 0.591675
0.225372 0.455688 0.600525
0.334198 0.471313 0.601837
0.590485 0.510284 0.622711
0.743500 0.512085 0.617065
0.760071 0.507202 0.605408
0.210114 0.577484 0.633545
0.220337 0.576569 0.630859
0.227448 0.571564 0.623779
0.275696 0.576630 0.622467
0.379181 0.595032 0.631470
0.584564 0.619995 0.635193
0.763763 0.617310 0.604980
0.794159 0.611023 0.595154
0.345978 0.712463 0.673096
0.353271 0.710999 0.670624
0.359131 0.707336 0.665192
0.374329 0.703156 0.657928
0.477417 0.714325 0.660217
0.635193 0.728088 0.665222
0.757263 0.731812 0.642609
0.816803 0.725403 0.622345
0.395020 0.752319 0.680206
0.408447 0.754028 0.679443
0.423584 0.755920 0.678009
0.440613 0.757812 0.674744
0.547485 0.772919 0.683380
0.662170 0.788055 0.688141
0.762970 0.799500 0.671570
0.824036 0.808228 0.692108
0.004639 0.142853 0.465088
0.047028 0.145508 0.468201
0.139191 0.159363 0.491058
0.242798 0.185608 0.531128
0.412781 0.227203 0.580902
0.621552 0.293915 0.645172
0.672485 0.322357 0.667297
0.698456 0.339783 0.678223
0.012207 0.165192 0.480927
0.045532 0.163116 0.480042
0.129944 0.169434 0.494629
0.226776 0.194580 0.532257
0.389130 0.235657 0.580872
0.608643 0.298248 0.643188
0.674438 0.331604 0.670319
0.700134 0.347687 0.680573
0.074890 0.236969 0.539673
0.086761 0.234558 0.537933
0.136414 0.235931 0.541443
0.210266 0.249817 0.562805
0.355988 0.282227 0.600342
0.583862 0.331909 0.651093
0.681305 0.360168 0.680817
0.704895 0.368103 0.687531
0.121521 0.344025 0.617584
0.131683 0.343048 0.617493
0.159088 0.342743 0.619202
0.218445 0.349548 0.627228
0.329254 0.372314 0.649261
0.569763 0.415680 0.685547
0.704559 0.443329 0.714172
0.725555 0.445160 0.717712
0.162994 0.464050 0.685944
0.174042 0.464447 0.686676
0.182861 0.460175 0.685211
0.249664 0.475189 0.699280
0.346191 0.490204 0.713318
0.569855 0.519623 0.730438
0.728943 0.540863 0.745972
0.750244 0.537415 0.743866
0.230042 0.592804 0.739166
0.241699 0.593231 0.740112
0.250702 0.589905 0.738007
0.298309 0.596161 0.741821
0.388702 0.611511 0.751190
0.575134 0.632507 0.756165
0.734772 0.644257 0.757507
0.775177 0.641876 0.753479
0.320557 0.710876 0.764954
0.330231 0.710480 0.763336
0.338318 0.707733 0.759521
0.354706 0.704865 0.754761
0.445740 0.716949 0.758881
0.610840 0.734680 0.761566
0.732513 0.744263 0.761688
0.801727 0.741089 0.750488
0.382111 0.757904 0.766327
0.393921 0.760010 0.765625
0.406555 0.761963 0.763977
0.421753 0.764008 0.760651
0.528503 0.778809 0.764526
0.655457 0.796356 0.770599
0.747620 0.807892 0.772949
0.816101 0.816040 0.774475
0.011749 0.149689 0.490326
0.063263 0.152527 0.493958
0.143707 0.166565 0.515961
0.240936 0.192383 0.553864
0.408142 0.234070 0.602173
0.618439 0.301300 0.664307
0.670624 0.328583 0.685699
0.698212 0.346069 0.697876
0.025146 0.171112 0.505585
0.058289 0.168732 0.504089
0.135620 0.176575 0.519348
0.226593 0.201538 0.555267
0.384979 0.242462 0.602356
0.605469 0.305908 0.662628
0.672607 0.337952 0.688599
0.700012 0.354614 0.700378
0.084381 0.242645 0.562164
0.094543 0.240601 0.560883
0.141998 0.242340 0.564880
0.212158 0.255798 0.584747
0.352295 0.287994 0.621063
0.579346 0.338684 0.670654
0.679016 0.363800 0.697876
0.704346 0.373230 0.706604
0.127716 0.347748 0.637390
0.137787 0.346985 0.637451
0.163422 0.346497 0.639038
0.221954 0.353638 0.649323
0.327759 0.375488 0.669342
0.566071 0.418488 0.702606
0.702454 0.444550 0.730225
0.724579 0.448853 0.735474
0.168121 0.466064 0.702881
0.179230 0.466461 0.703583
0.188171 0.462494 0.702423
0.252838 0.477173 0.715576
0.345978 0.491730 0.733887
0.566986 0.519531 0.748962
0.726532 0.538086 0.764374
0.749054 0.540192 0.765869
0.234131 0.593597 0.754028
0.245636 0.593872 0.754913
0.255646 0.591248 0.754852
0.302460 0.597870 0.761139
0.388397 0.613464 0.774597
0.569305 0.634857 0.786438
0.730103 0.643982 0.793549
0.770660 0.645203 0.793854
0.324005 0.713501 0.793091
0.334747 0.713684 0.793762
0.343994 0.711945 0.793884
0.359863 0.709778 0.794434
0.450378 0.721313 0.801117
0.591461 0.737640 0.810059
0.728027 0.748779 0.816193
0.792084 0.748718 0.818176
0.379639 0.759674 0.806335
0.392365 0.762146 0.807556
0.405731 0.764618 0.808777
0.420013 0.767181 0.809998
0.521698 0.781952 0.815948
0.645844 0.799683 0.824280
0.740509 0.812256 0.830444
0.811249 0.821503 0.836121
