滤镜资源/Professional Luts Collection/Triune-Digital-Cinematic-LUTs/3D LUTs (CUBE)/LOG/Harry Potter - LOG.cube
#Created by Benjamin (IWLTBAP) : http://luts.iwltbap.com
#Copyright: (C) Copyright 2016 Triune Films and IWLTBAP
TITLE "Blockbuster LUTs Pack (LOG)"
#LUT size
LUT_3D_SIZE 5
#LUT data points
DOMAIN_MIN 0.000000 0.000000 0.000000
DOMAIN_MAX 0.903226 0.903226 0.903226
0.000000 0.000031 0.025452
0.139801 0.022217 0.043091
0.444519 0.095673 0.048889
0.672150 0.138123 0.076019
0.708313 0.153137 0.083984
0.000000 0.129364 0.084473
0.066742 0.126190 0.065674
0.420074 0.137024 0.012695
0.679840 0.156891 0.052063
0.713959 0.169769 0.075195
0.109436 0.326691 0.194244
0.129761 0.320618 0.188019
0.396179 0.363373 0.147705
0.692810 0.326050 0.057007
0.744080 0.307098 0.074249
0.271820 0.595459 0.377167
0.288025 0.590240 0.372284
0.441528 0.602997 0.357452
0.689056 0.610229 0.267212
0.813232 0.578705 0.208069
0.398560 0.729858 0.470795
0.426483 0.734100 0.472473
0.508026 0.746765 0.476624
0.714661 0.771332 0.459106
0.840729 0.782104 0.453339
0.000000 0.015228 0.145844
0.071014 0.046295 0.157654
0.422424 0.106567 0.153748
0.673553 0.152100 0.153107
0.710236 0.163055 0.145477
0.000000 0.136353 0.155853
0.033600 0.133209 0.150482
0.418518 0.129913 0.106049
0.679535 0.161469 0.109589
0.714294 0.172302 0.110443
0.106445 0.330872 0.225464
0.123718 0.319092 0.213287
0.384735 0.359619 0.170166
0.690704 0.318939 0.073364
0.743744 0.302460 0.090942
0.265137 0.594788 0.395782
0.279816 0.588440 0.391510
0.424622 0.601318 0.380920
0.684814 0.610504 0.291290
0.812988 0.578339 0.229218
0.396515 0.731842 0.488342
0.423584 0.735443 0.490448
0.503143 0.747955 0.495026
0.712616 0.773560 0.480042
0.839325 0.785645 0.481903
0.000000 0.093567 0.304657
0.062378 0.102753 0.309631
0.352844 0.147217 0.350647
0.671509 0.238251 0.409271
0.714081 0.254761 0.406158
0.000000 0.167084 0.324677
0.038483 0.159363 0.312134
0.308624 0.184631 0.334869
0.674744 0.242676 0.370178
0.720886 0.253021 0.364380
0.077484 0.353546 0.393890
0.098938 0.346130 0.382782
0.253021 0.367401 0.390167
0.699493 0.353302 0.313660
0.756378 0.343384 0.300323
0.259857 0.604462 0.497192
0.269592 0.598053 0.488861
0.360291 0.599670 0.483307
0.678162 0.623077 0.412537
0.814331 0.591583 0.329895
0.393372 0.739532 0.543762
0.419952 0.743195 0.542572
0.491882 0.750824 0.540741
0.707275 0.776917 0.517059
0.837799 0.789612 0.513367
0.000763 0.137604 0.446289
0.115692 0.149994 0.465240
0.319733 0.199158 0.538391
0.651764 0.304382 0.642792
0.698334 0.334625 0.661652
0.046783 0.212769 0.505432
0.112793 0.210785 0.506256
0.276337 0.241882 0.551910
0.643402 0.324554 0.636414
0.701782 0.341675 0.641266
0.129944 0.395966 0.618652
0.145264 0.390533 0.609589
0.255737 0.404572 0.613403
0.634094 0.467499 0.651520
0.741699 0.464630 0.645752
0.241028 0.613922 0.671906
0.256439 0.610229 0.665283
0.340149 0.619629 0.664368
0.633331 0.655762 0.672668
0.796173 0.646790 0.638519
0.392029 0.754120 0.702637
0.415497 0.757233 0.700714
0.478424 0.765228 0.698883
0.685974 0.793640 0.710480
0.822418 0.810608 0.713928
0.011749 0.149689 0.490326
0.125061 0.162170 0.509125
0.310577 0.209869 0.576263
0.647858 0.316345 0.676422
0.698212 0.346069 0.697876
0.070496 0.221161 0.545227
0.122772 0.219604 0.546722
0.271240 0.249878 0.590698
0.632111 0.333679 0.677734
0.701813 0.362518 0.702911
0.146210 0.404877 0.671417
0.163483 0.402283 0.671295
0.271606 0.420013 0.693420
0.616974 0.474274 0.732147
0.737610 0.491516 0.751587
0.255157 0.625122 0.765198
0.273895 0.623932 0.766083
0.354095 0.634735 0.776276
0.617249 0.666260 0.794678
0.775757 0.672272 0.800323
0.379639 0.759674 0.806335
0.402496 0.763947 0.808472
0.452637 0.772278 0.812286
0.670868 0.803101 0.825989
0.811249 0.821503 0.836121
