滤镜资源/Professional Luts Collection/Triune-Digital-Cinematic-LUTs/3D LUTs (CUBE)/LOG/Harry Potter - LOG.cube
#Created by Benjamin (IWLTBAP) : http://luts.iwltbap.com
#Copyright: (C) Copyright 2016 Triune Films and IWLTBAP
TITLE "Blockbuster LUTs Pack (LOG)"
#LUT size
LUT_3D_SIZE 32
#LUT data points
0.000000 0.000031 0.025452
0.001190 0.000031 0.026947
0.004547 0.000183 0.031342
0.008484 0.000427 0.036285
0.012421 0.000732 0.039764
0.030396 0.001251 0.042236
0.084076 0.006439 0.043365
0.139801 0.022217 0.043091
0.184723 0.041687 0.041412
0.230286 0.056335 0.037933
0.275970 0.065399 0.033356
0.321686 0.073761 0.030884
0.364105 0.081299 0.033386
0.404327 0.088684 0.041077
0.444519 0.095673 0.048889
0.488403 0.101624 0.053864
0.532196 0.107697 0.056061
0.570801 0.114197 0.059967
0.607239 0.121399 0.065735
0.641846 0.129120 0.071320
0.661926 0.134888 0.074371
0.672150 0.138123 0.076019
0.677826 0.140076 0.076935
0.683472 0.142029 0.077850
0.689117 0.143982 0.078796
0.694061 0.146210 0.080017
0.698853 0.148499 0.081299
0.703613 0.150818 0.082611
0.708313 0.153137 0.083984
0.712616 0.155548 0.085419
0.716919 0.157959 0.086853
0.721252 0.160431 0.088379
0.000000 0.001160 0.027588
0.000946 0.001038 0.027100
0.003845 0.001526 0.030731
0.007782 0.002930 0.035797
0.011963 0.004700 0.039368
0.028351 0.006378 0.041748
0.078796 0.011353 0.042816
0.136200 0.025208 0.042603
0.181396 0.042358 0.040436
0.227142 0.057312 0.036652
0.273071 0.066772 0.031738
0.318329 0.074982 0.028198
0.361572 0.082672 0.029663
0.401672 0.089874 0.037476
0.441528 0.096893 0.046326
0.485413 0.102783 0.051361
0.529663 0.108765 0.054596
0.568390 0.115234 0.058807
0.604980 0.122345 0.064697
0.639832 0.130005 0.070374
0.661255 0.135986 0.073639
0.672760 0.139648 0.075470
0.678406 0.141602 0.076385
0.684052 0.143524 0.077301
0.689728 0.145477 0.078247
0.694550 0.147705 0.079498
0.699310 0.150024 0.080750
0.704071 0.152313 0.082062
0.708740 0.154633 0.083466
0.713013 0.157074 0.084930
0.717316 0.159485 0.086365
0.721649 0.161926 0.087891
0.000000 0.004883 0.033997
0.000946 0.003876 0.032776
0.003113 0.003387 0.030884
0.007050 0.005798 0.035645
0.011200 0.008728 0.039185
0.025238 0.012115 0.041443
0.073944 0.016571 0.042236
0.131927 0.028625 0.042053
0.177734 0.044739 0.040039
0.223816 0.058563 0.035645
0.269775 0.068115 0.029907
0.315216 0.076202 0.026001
0.358276 0.083862 0.026337
0.398743 0.091064 0.033539
0.438354 0.098022 0.043182
0.482056 0.103973 0.048737
0.526855 0.109772 0.053101
0.565948 0.116211 0.057526
0.602600 0.123230 0.063446
0.637543 0.130798 0.069244
0.660492 0.137024 0.072815
0.673431 0.141144 0.074799
0.679077 0.143097 0.075714
0.684692 0.145020 0.076630
0.690369 0.146973 0.077606
0.695129 0.149231 0.078857
0.699768 0.151550 0.080200
0.704529 0.153839 0.081482
0.709167 0.156158 0.082886
0.713409 0.158600 0.084381
0.717682 0.161011 0.085876
0.722015 0.163452 0.087402
0.000000 0.028473 0.043243
0.000946 0.027466 0.041962
0.002411 0.026367 0.040100
0.006042 0.026093 0.037170
0.010162 0.026825 0.040314
0.020203 0.030060 0.041809
0.066681 0.034851 0.041687
0.127502 0.042908 0.040710
0.174438 0.053040 0.038513
0.219849 0.062439 0.034119
0.265106 0.069946 0.027985
0.309814 0.077026 0.023590
0.353119 0.084717 0.022888
0.393921 0.091858 0.029388
0.433380 0.098755 0.039124
0.476349 0.104767 0.046997
0.521240 0.110443 0.051147
0.561310 0.116852 0.055878
0.598022 0.123688 0.061676
0.633240 0.131104 0.067780
0.659485 0.138031 0.071869
0.674103 0.142670 0.074158
0.679749 0.144592 0.075104
0.685364 0.146515 0.075989
0.691040 0.148438 0.076965
0.695740 0.150726 0.078217
0.700348 0.153046 0.079590
0.704987 0.155365 0.080933
0.709625 0.157684 0.082336
0.713867 0.160095 0.083832
0.718140 0.162537 0.085327
0.722412 0.164978 0.086884
0.000000 0.063019 0.052643
0.000946 0.061188 0.051514
0.001892 0.059296 0.050323
0.004883 0.057404 0.047424
0.009125 0.057098 0.044281
0.014435 0.057556 0.044922
0.056396 0.059692 0.043274
0.121979 0.063965 0.041046
0.169708 0.070862 0.037842
0.215057 0.075653 0.032654
0.260590 0.079651 0.024963
0.306305 0.084412 0.017273
0.349579 0.090149 0.015198
0.390167 0.095276 0.019867
0.428894 0.100830 0.031433
0.470490 0.105743 0.043213
0.515167 0.111053 0.047852
0.556427 0.117432 0.053375
0.593445 0.124176 0.059662
0.628967 0.131439 0.066254
0.656677 0.138458 0.070618
0.674805 0.144165 0.073425
0.680389 0.146118 0.074341
0.686035 0.148041 0.075256
0.691681 0.149933 0.076202
0.696381 0.152222 0.077484
0.700958 0.154541 0.078827
0.705566 0.156891 0.080200
0.710052 0.159271 0.081726
0.714294 0.161652 0.083221
0.718567 0.164062 0.084686
0.722809 0.166534 0.086273
0.000000 0.087463 0.063202
0.000946 0.086304 0.062134
0.001892 0.085052 0.061066
0.003815 0.083252 0.058929
0.007996 0.082794 0.055145
0.012451 0.082886 0.051239
0.042572 0.083649 0.048126
0.115936 0.085205 0.044556
0.164978 0.088013 0.040131
0.210358 0.091858 0.034454
0.256348 0.094727 0.025635
0.301117 0.097260 0.016418
0.345551 0.100464 0.009247
0.386322 0.103912 0.010895
0.425568 0.107697 0.017944
0.467834 0.111877 0.025482
0.512573 0.116028 0.032166
0.553162 0.121582 0.044312
0.590302 0.127350 0.055023
0.625061 0.133423 0.063080
0.655243 0.140137 0.068634
0.675690 0.146027 0.072357
0.681152 0.147675 0.073456
0.686737 0.149567 0.074341
0.692352 0.151489 0.075287
0.696960 0.153778 0.076691
0.701538 0.156128 0.078033
0.706116 0.158478 0.079407
0.710571 0.160828 0.080933
0.714783 0.163239 0.082489
0.719025 0.165649 0.084015
0.723297 0.168060 0.085571
0.000000 0.108398 0.074097
0.000946 0.107544 0.073303
0.001892 0.106659 0.072479
0.002838 0.105194 0.071259
0.006744 0.104401 0.068634
0.011261 0.104095 0.063782
0.024628 0.104706 0.058228
0.102020 0.105072 0.052368
0.158936 0.106720 0.045807
0.206238 0.109192 0.038025
0.252655 0.111816 0.028473
0.298035 0.114105 0.017944
0.341949 0.116272 0.008972
0.383057 0.117981 0.008179
0.421814 0.119385 0.013458
0.463715 0.120880 0.016510
0.509308 0.122681 0.014954
0.550110 0.126282 0.020996
0.588196 0.131897 0.036072
0.623108 0.138214 0.051483
0.654755 0.145020 0.061554
0.678375 0.151794 0.067322
0.683990 0.153015 0.069519
0.688873 0.153961 0.071411
0.694061 0.155243 0.072906
0.698456 0.157257 0.074524
0.702789 0.159332 0.076202
0.707153 0.161377 0.077911
0.711487 0.163452 0.079590
0.715546 0.165497 0.081329
0.719696 0.167877 0.082947
0.723907 0.170288 0.084595
0.000000 0.129364 0.084473
0.000946 0.128632 0.083801
0.001892 0.127747 0.083099
0.002838 0.126190 0.082001
0.005310 0.125183 0.080719
0.009918 0.125122 0.078125
0.020691 0.125122 0.072296
0.066742 0.126190 0.065674
0.144684 0.127075 0.057343
0.200165 0.128510 0.047150
0.248474 0.130615 0.033966
0.295776 0.132629 0.021149
0.340149 0.134216 0.010223
0.381653 0.135956 0.007385
0.420074 0.137024 0.012695
0.459686 0.137604 0.016968
0.504333 0.137115 0.013580
0.546783 0.137512 0.013214
0.584930 0.139404 0.019470
0.620697 0.143524 0.029846
0.653717 0.149902 0.041718
0.679840 0.156891 0.052063
0.687500 0.159454 0.058258
0.692261 0.160645 0.061859
0.697083 0.161865 0.066010
0.701324 0.163849 0.068329
0.705566 0.165833 0.070648
0.709839 0.167877 0.073059
0.713959 0.169769 0.075195
0.717804 0.171631 0.077332
0.721832 0.173889 0.079224
0.725952 0.176239 0.080933
0.000000 0.151245 0.095459
0.000946 0.150574 0.094879
0.001892 0.149841 0.094238
0.002838 0.148346 0.093231
0.003784 0.146942 0.092224
0.008667 0.146942 0.090851
0.017242 0.147247 0.088104
0.062012 0.147919 0.081360
0.118591 0.150024 0.074463
0.184174 0.151093 0.063263
0.243469 0.151947 0.046661
0.293030 0.153229 0.027832
0.339081 0.154449 0.014252
0.381073 0.154968 0.009125
0.419617 0.155853 0.013031
0.458313 0.156433 0.017487
0.500977 0.155640 0.014984
0.543365 0.154602 0.013397
0.581055 0.154663 0.019043
0.616638 0.155731 0.026947
0.650818 0.158600 0.033203
0.679718 0.164032 0.037750
0.690948 0.166901 0.042633
0.695343 0.167603 0.046448
0.699768 0.168274 0.049988
0.703949 0.170105 0.053406
0.708191 0.172119 0.057007
0.712402 0.174103 0.060822
0.716400 0.176086 0.064392
0.720215 0.178070 0.067535
0.724213 0.180389 0.069946
0.728271 0.182770 0.072235
0.000031 0.174896 0.107697
0.000977 0.174286 0.107147
0.001923 0.173584 0.106537
0.003540 0.172119 0.105560
0.004578 0.170715 0.104553
0.009216 0.170105 0.103485
0.022552 0.170502 0.102051
0.068756 0.171234 0.098480
0.116791 0.173309 0.091522
0.160858 0.176361 0.084351
0.226471 0.177917 0.068573
0.289886 0.177765 0.045044
0.337952 0.178314 0.022797
0.381287 0.178925 0.013885
0.420380 0.178558 0.015961
0.458618 0.178436 0.019745
0.499695 0.177307 0.017181
0.541931 0.176239 0.014709
0.579224 0.174957 0.020172
0.613953 0.173798 0.027924
0.647247 0.173920 0.035126
0.679230 0.175964 0.035980
0.693878 0.179138 0.039581
0.698395 0.179382 0.041351
0.702728 0.179443 0.043396
0.706940 0.180634 0.045715
0.711212 0.182068 0.048279
0.715485 0.183411 0.050903
0.719147 0.184998 0.054504
0.722687 0.186829 0.058258
0.726379 0.189301 0.061951
0.729980 0.191711 0.065735
0.002258 0.200958 0.121674
0.003326 0.200348 0.121124
0.004150 0.199799 0.120544
0.009613 0.198456 0.119598
0.013977 0.197052 0.118622
0.017395 0.195892 0.117615
0.048004 0.196411 0.116638
0.081573 0.197510 0.114838
0.120789 0.199219 0.110168
0.156860 0.202515 0.102753
0.202759 0.206635 0.094818
0.273041 0.208557 0.074249
0.335449 0.207489 0.047363
0.381592 0.207153 0.026581
0.421539 0.206329 0.021851
0.459900 0.204803 0.024292
0.500824 0.202515 0.018921
0.542786 0.200867 0.015167
0.579987 0.199280 0.020721
0.614044 0.197479 0.029633
0.645874 0.195282 0.038452
0.676880 0.195862 0.039856
0.697113 0.196259 0.041687
0.701263 0.195129 0.042694
0.705414 0.194519 0.044312
0.709473 0.194946 0.046173
0.713715 0.195984 0.048309
0.717987 0.196991 0.050476
0.721436 0.198517 0.054657
0.724915 0.199890 0.058472
0.728485 0.202087 0.062408
0.731781 0.204437 0.066742
0.025787 0.229218 0.137177
0.029114 0.228638 0.136688
0.029755 0.228119 0.136169
0.033203 0.227081 0.135345
0.037140 0.225922 0.134460
0.042816 0.224152 0.133270
0.071442 0.224548 0.132568
0.097046 0.226318 0.131775
0.124573 0.228241 0.129486
0.157928 0.231293 0.123688
0.198456 0.236542 0.115234
0.249268 0.242157 0.106567
0.319000 0.243530 0.083405
0.380035 0.241913 0.057098
0.422913 0.239258 0.038483
0.461945 0.237488 0.031219
0.503632 0.234863 0.021027
0.546326 0.231964 0.011566
0.583221 0.228149 0.020508
0.617432 0.226013 0.031433
0.648315 0.223846 0.042633
0.676941 0.222382 0.046051
0.700165 0.221771 0.047302
0.706024 0.219116 0.047852
0.709503 0.216614 0.048370
0.713013 0.215088 0.049103
0.716949 0.215118 0.050568
0.721008 0.215851 0.052734
0.724274 0.217010 0.057220
0.727600 0.218323 0.061523
0.731140 0.220642 0.065918
0.734314 0.223633 0.070953
0.062958 0.260040 0.154297
0.065674 0.259521 0.153900
0.069855 0.259094 0.153473
0.071747 0.258148 0.152740
0.073334 0.256927 0.151794
0.076965 0.255188 0.150604
0.087585 0.254944 0.149750
0.109741 0.256744 0.149414
0.131958 0.258789 0.148010
0.162537 0.262024 0.144714
0.200989 0.267334 0.137939
0.245178 0.274261 0.128571
0.297119 0.280548 0.119385
0.365967 0.281097 0.094116
0.422821 0.278473 0.068024
0.465179 0.275177 0.051605
0.506531 0.271973 0.035736
0.549927 0.267700 0.017273
0.588257 0.262939 0.019501
0.622040 0.258087 0.032715
0.652588 0.254669 0.045471
0.680054 0.252472 0.051697
0.704773 0.251404 0.053436
0.711853 0.248413 0.054443
0.715576 0.244995 0.054749
0.718781 0.242584 0.055115
0.722229 0.241241 0.055725
0.725769 0.241058 0.057648
0.728882 0.242126 0.061890
0.732025 0.243225 0.066162
0.735474 0.245483 0.070801
0.738647 0.249115 0.076477
0.090271 0.292725 0.173401
0.092682 0.292236 0.172943
0.095123 0.291840 0.172455
0.097198 0.291077 0.171783
0.099091 0.290100 0.170990
0.100830 0.288544 0.169830
0.103119 0.286804 0.168518
0.119263 0.289062 0.168457
0.140594 0.292114 0.168060
0.168549 0.295807 0.165588
0.206360 0.301880 0.161621
0.247711 0.308563 0.153381
0.294586 0.316223 0.143341
0.348358 0.323029 0.133636
0.412201 0.323334 0.108215
0.466156 0.318848 0.081512
0.510864 0.314209 0.065063
0.554596 0.309784 0.047028
0.594238 0.303894 0.033813
0.628937 0.297791 0.040436
0.659454 0.292297 0.046234
0.685120 0.286865 0.055145
0.709503 0.284332 0.058289
0.719177 0.281250 0.060272
0.723663 0.277893 0.061066
0.726562 0.275085 0.061401
0.729828 0.273773 0.061920
0.732971 0.273590 0.064270
0.735840 0.274323 0.068756
0.738770 0.275238 0.073242
0.742126 0.277740 0.077942
0.745270 0.281799 0.084045
0.109436 0.326691 0.194244
0.111664 0.326111 0.193756
0.113922 0.325806 0.193268
0.115967 0.324982 0.192474
0.117950 0.323975 0.191589
0.119568 0.322266 0.190277
0.121216 0.320557 0.188934
0.129761 0.320618 0.188019
0.149841 0.325256 0.188843
0.174347 0.329529 0.187897
0.208771 0.333984 0.183746
0.251556 0.341064 0.178375
0.297424 0.348969 0.168152
0.346161 0.357452 0.157837
0.396179 0.363373 0.147705
0.455017 0.362793 0.122467
0.511078 0.358307 0.093811
0.558868 0.352661 0.074951
0.599457 0.346863 0.062836
0.635925 0.339630 0.055847
0.666321 0.332611 0.054047
0.692810 0.326050 0.057007
0.714783 0.319153 0.062012
0.728455 0.315643 0.064148
0.733551 0.311737 0.065125
0.735840 0.308167 0.065674
0.738678 0.306335 0.066376
0.741425 0.306305 0.069427
0.744080 0.307098 0.074249
0.746704 0.307831 0.079010
0.749847 0.310272 0.083923
0.753326 0.315155 0.090485
0.127350 0.362091 0.216980
0.129578 0.361694 0.216583
0.131897 0.361450 0.216156
0.133972 0.360779 0.215454
0.136017 0.359924 0.214600
0.137665 0.358276 0.213226
0.139435 0.356659 0.211853
0.141022 0.354584 0.210205
0.159576 0.358307 0.210480
0.181213 0.363922 0.211487
0.214569 0.368530 0.208160
0.256714 0.373688 0.202393
0.304840 0.381256 0.195099
0.348999 0.388855 0.183350
0.395264 0.396301 0.172302
0.441254 0.400604 0.161682
0.497620 0.399628 0.137024
0.555695 0.394897 0.107147
0.603149 0.388641 0.087280
0.640289 0.381531 0.078339
0.672974 0.374146 0.069733
0.700348 0.366699 0.065186
0.722870 0.359070 0.066101
0.737610 0.351990 0.066467
0.745270 0.347809 0.068420
0.747192 0.343506 0.068848
0.749939 0.341583 0.069366
0.752472 0.341614 0.072571
0.754944 0.342072 0.076965
0.757446 0.342316 0.081238
0.760437 0.344788 0.086243
0.763672 0.350067 0.094635
0.145691 0.399139 0.241913
0.147949 0.398865 0.241577
0.150238 0.398621 0.241150
0.152344 0.398041 0.240448
0.154358 0.397186 0.239594
0.156128 0.395782 0.238403
0.157867 0.394196 0.237030
0.159485 0.392242 0.235382
0.170715 0.393463 0.234802
0.191010 0.397675 0.234802
0.223236 0.404205 0.234039
0.264221 0.408508 0.228058
0.310516 0.413727 0.220612
0.356262 0.420532 0.211517
0.397827 0.427155 0.198975
0.440216 0.433014 0.187286
0.484467 0.435974 0.175781
0.540192 0.434998 0.151245
0.598328 0.429413 0.119904
0.642975 0.422333 0.100403
0.677917 0.415222 0.089844
0.707123 0.408295 0.081635
0.731140 0.400269 0.074707
0.748047 0.392090 0.072449
0.757690 0.385986 0.073853
0.759247 0.381165 0.074280
0.761749 0.378601 0.074493
0.763885 0.378571 0.078186
0.766052 0.378540 0.082275
0.768402 0.378540 0.086456
0.771301 0.381592 0.092834
0.774200 0.386963 0.102875
0.165619 0.438232 0.268677
0.168091 0.437927 0.268280
0.170441 0.437622 0.267792
0.172607 0.437012 0.267090
0.174744 0.436127 0.266235
0.176544 0.434723 0.264954
0.178253 0.433105 0.263611
0.179688 0.431061 0.261902
0.185944 0.430573 0.260742
0.206360 0.434479 0.260834
0.236664 0.440491 0.260712
0.274139 0.445923 0.257385
0.315460 0.448883 0.249451
0.362457 0.454132 0.240723
0.405121 0.459351 0.228638
0.444092 0.465240 0.215820
0.483948 0.469727 0.203522
0.527222 0.471710 0.191193
0.582550 0.470093 0.166412
0.637512 0.464172 0.133911
0.680511 0.455902 0.112976
0.712616 0.449219 0.101776
0.737915 0.441559 0.092712
0.756866 0.432922 0.087006
0.768433 0.426025 0.088440
0.770630 0.420929 0.088379
0.772644 0.418213 0.089508
0.774689 0.418121 0.093414
0.776642 0.417755 0.096985
0.778809 0.417603 0.100708
0.781494 0.420868 0.107941
0.784271 0.425903 0.117920
0.188568 0.477936 0.295837
0.191376 0.477692 0.295502
0.193878 0.477386 0.295013
0.196198 0.476776 0.294312
0.198730 0.476135 0.293488
0.200623 0.474640 0.292114
0.202576 0.473206 0.290741
0.204193 0.471313 0.289062
0.206390 0.469299 0.287323
0.225616 0.471741 0.286713
0.254059 0.478088 0.287598
0.285980 0.482910 0.285706
0.324310 0.486725 0.280304
0.366943 0.489868 0.272064
0.412354 0.494446 0.262177
0.451355 0.498566 0.248077
0.489288 0.503143 0.232941
0.527374 0.506134 0.220215
0.569153 0.506409 0.207184
0.621643 0.504791 0.184296
0.674194 0.497894 0.149628
0.714661 0.488953 0.127014
0.742615 0.481720 0.115021
0.763489 0.473633 0.107269
0.776855 0.466705 0.106934
0.780853 0.461792 0.109131
0.782684 0.459290 0.111237
0.784790 0.459503 0.115631
0.786835 0.459412 0.119507
0.788879 0.459320 0.123291
0.791382 0.462585 0.131073
0.794006 0.466888 0.140533
0.214050 0.517700 0.323639
0.216766 0.517334 0.323242
0.219482 0.516998 0.322754
0.221954 0.516418 0.322113
0.224518 0.515747 0.321350
0.227020 0.514648 0.320282
0.229553 0.513245 0.318939
0.231812 0.511505 0.317291
0.233917 0.509460 0.315430
0.245483 0.509735 0.314178
0.269562 0.513641 0.313477
0.300751 0.519806 0.313690
0.336548 0.523956 0.310059
0.375702 0.526672 0.302917
0.418121 0.530151 0.294617
0.460266 0.534119 0.284027
0.497711 0.537598 0.268250
0.533112 0.540619 0.251587
0.570679 0.542572 0.238190
0.611023 0.542114 0.224762
0.659851 0.540283 0.204254
0.708160 0.531647 0.166718
0.744812 0.521240 0.141388
0.768585 0.513916 0.129791
0.785156 0.506012 0.126160
0.790710 0.502441 0.131744
0.792358 0.500183 0.134644
0.794373 0.500397 0.139954
0.796448 0.500671 0.144440
0.798462 0.500549 0.148285
0.800873 0.503845 0.157806
0.803284 0.507446 0.167450
0.240753 0.557312 0.351440
0.243439 0.557007 0.351044
0.246063 0.556641 0.350586
0.248505 0.555939 0.349884
0.251007 0.555359 0.349243
0.253326 0.554260 0.348267
0.255737 0.553101 0.347229
0.257782 0.551239 0.345673
0.259827 0.549408 0.344086
0.263702 0.547760 0.342438
0.284882 0.550018 0.341553
0.314758 0.555023 0.341370
0.350159 0.560486 0.340210
0.388641 0.564087 0.334564
0.427765 0.566498 0.326508
0.469360 0.569672 0.317505
0.507599 0.572205 0.305603
0.542175 0.574707 0.289154
0.576202 0.576813 0.272339
0.613190 0.577911 0.258667
0.651215 0.576477 0.245300
0.696167 0.573395 0.224915
0.739014 0.563904 0.186615
0.770905 0.552704 0.158234
0.790833 0.543610 0.145721
0.799713 0.541016 0.156219
0.801208 0.539032 0.160828
0.803070 0.539490 0.167786
0.805054 0.539734 0.173492
0.807037 0.539764 0.178162
0.809296 0.543182 0.189148
0.811615 0.546753 0.199982
0.271820 0.595459 0.377167
0.274292 0.595215 0.376862
0.276794 0.594940 0.376556
0.279297 0.594482 0.376007
0.281677 0.593964 0.375458
0.283691 0.592926 0.374603
0.285828 0.591919 0.373749
0.288025 0.590240 0.372284
0.290100 0.588257 0.370667
0.291962 0.586334 0.369049
0.305054 0.586456 0.367889
0.331604 0.589447 0.367218
0.361725 0.593475 0.366211
0.402924 0.600037 0.363983
0.441528 0.602997 0.357452
0.479767 0.605011 0.349365
0.517639 0.606995 0.339783
0.553223 0.608948 0.326904
0.586182 0.610992 0.310211
0.618683 0.612427 0.294067
0.652893 0.612183 0.280273
0.689056 0.610229 0.267212
0.729309 0.605743 0.247437
0.766602 0.595123 0.206848
0.793579 0.583344 0.176300
0.806915 0.578857 0.181549
0.809692 0.577484 0.190033
0.811432 0.577942 0.198944
0.813232 0.578705 0.208069
0.815125 0.579376 0.215057
0.817230 0.582642 0.226807
0.819336 0.586029 0.238678
0.302979 0.631897 0.401764
0.305634 0.631714 0.401459
0.308136 0.631348 0.401001
0.310822 0.630829 0.400452
0.313721 0.630371 0.399841
0.316559 0.629669 0.399078
0.319153 0.628632 0.398132
0.321564 0.627258 0.396851
0.323944 0.625732 0.395508
0.325836 0.623779 0.393860
0.327667 0.621857 0.392273
0.354462 0.624359 0.391541
0.380341 0.627045 0.390778
0.414795 0.631805 0.388885
0.455170 0.637207 0.385681
0.492065 0.639160 0.378815
0.529327 0.640778 0.370483
0.563782 0.642242 0.360931
0.597687 0.643921 0.347656
0.626801 0.645081 0.331451
0.658112 0.645813 0.315613
0.689423 0.644836 0.303345
0.722534 0.642212 0.291351
0.758148 0.636810 0.272156
0.790863 0.625885 0.232758
0.812134 0.617493 0.217377
0.816742 0.615723 0.227997
0.818787 0.616669 0.239319
0.820648 0.617676 0.249634
0.822357 0.618835 0.259857
0.824341 0.622192 0.271881
0.826324 0.625580 0.283936
0.333344 0.666138 0.425079
0.336029 0.665802 0.424652
0.338745 0.665466 0.424255
0.341217 0.664917 0.423676
0.343719 0.664368 0.423096
0.346283 0.663513 0.422333
0.348663 0.662598 0.421509
0.350647 0.661194 0.420319
0.352875 0.659637 0.418945
0.355042 0.658051 0.417511
0.357239 0.656311 0.415955
0.374603 0.657440 0.415222
0.400665 0.660217 0.414825
0.430695 0.663574 0.413635
0.467346 0.668060 0.410828
0.504639 0.671417 0.406067
0.541656 0.673462 0.399292
0.575104 0.674591 0.391083
0.608643 0.675690 0.381592
0.638916 0.676636 0.367889
0.665802 0.677429 0.352173
0.693787 0.677612 0.338470
0.722443 0.676178 0.327698
0.752625 0.673187 0.316833
0.784454 0.666992 0.297882
0.812347 0.657593 0.267609
0.822083 0.653717 0.267395
0.825165 0.653320 0.276978
0.827057 0.653870 0.286346
0.828613 0.655243 0.298706
0.830292 0.658722 0.314240
0.832062 0.662354 0.328552
0.363495 0.698486 0.446991
0.366089 0.698273 0.446716
0.368835 0.698029 0.446411
0.371216 0.697418 0.445801
0.373749 0.696899 0.445282
0.376190 0.696320 0.444702
0.378693 0.695526 0.443970
0.380585 0.694092 0.442841
0.382294 0.692596 0.441650
0.383667 0.690826 0.440247
0.385437 0.689178 0.438904
0.391998 0.688385 0.437775
0.419342 0.691315 0.437775
0.449371 0.694580 0.437378
0.483154 0.697937 0.434784
0.518646 0.701080 0.430450
0.554291 0.703583 0.425079
0.587494 0.705231 0.418549
0.618683 0.706146 0.410645
0.650787 0.706970 0.401276
0.676178 0.707275 0.387817
0.700562 0.707306 0.373596
0.726196 0.706238 0.359802
0.752045 0.703918 0.349121
0.779694 0.700470 0.338135
0.808472 0.695923 0.322601
0.824829 0.690430 0.311462
0.830017 0.690247 0.322418
0.832214 0.689819 0.327545
0.833832 0.690826 0.338806
0.835602 0.693695 0.353088
0.837341 0.696930 0.368103
0.375519 0.710388 0.454926
0.378876 0.710907 0.455170
0.382629 0.711456 0.455353
0.386322 0.712006 0.455536
0.389923 0.712585 0.455750
0.393555 0.713165 0.455994
0.397522 0.713806 0.456207
0.400940 0.713928 0.456085
0.404419 0.714203 0.456116
0.407501 0.713928 0.455750
0.410858 0.713745 0.455475
0.414062 0.713562 0.455139
0.436432 0.716309 0.455566
0.467346 0.720398 0.456207
0.499695 0.724182 0.455048
0.534424 0.727936 0.451843
0.567780 0.731232 0.448456
0.599182 0.732697 0.442902
0.629242 0.733917 0.436401
0.658936 0.734741 0.428558
0.685822 0.734863 0.419525
0.709198 0.734985 0.407196
0.732361 0.734711 0.393707
0.755646 0.733032 0.380615
0.779602 0.730286 0.369659
0.804382 0.727356 0.360809
0.826477 0.723907 0.351105
0.833588 0.723785 0.364502
0.835876 0.723328 0.369415
0.837463 0.724579 0.381866
0.839172 0.727203 0.396210
0.840851 0.729950 0.410706
0.382202 0.716949 0.459351
0.385681 0.717499 0.459595
0.389496 0.718109 0.459839
0.393250 0.718689 0.460022
0.397064 0.719269 0.460236
0.400818 0.719910 0.460480
0.404785 0.720490 0.460693
0.408783 0.721130 0.460907
0.412689 0.721710 0.461090
0.416870 0.722382 0.461365
0.421051 0.722931 0.461517
0.424957 0.723297 0.461517
0.438751 0.725342 0.462097
0.469452 0.729950 0.463196
0.501740 0.734528 0.463348
0.535706 0.738525 0.461121
0.569061 0.742828 0.458771
0.601135 0.746124 0.455444
0.631866 0.748718 0.450775
0.660858 0.750824 0.445343
0.688751 0.752533 0.439056
0.714203 0.753815 0.430939
0.736511 0.754517 0.418976
0.758789 0.754700 0.406464
0.781189 0.753937 0.396606
0.803040 0.752045 0.388458
0.824890 0.750336 0.383118
0.836090 0.751282 0.399963
0.838226 0.751740 0.407776
0.839752 0.753052 0.420380
0.841461 0.755524 0.434479
0.843140 0.758057 0.448700
0.389832 0.723358 0.464661
0.393463 0.723907 0.464905
0.397400 0.724548 0.465179
0.401215 0.725159 0.465424
0.405029 0.725739 0.465668
0.409210 0.726379 0.465912
0.413208 0.727020 0.466125
0.417267 0.727631 0.466400
0.421234 0.728271 0.466644
0.425690 0.728943 0.466888
0.430054 0.729645 0.467194
0.434357 0.730316 0.467438
0.444977 0.731964 0.468048
0.472534 0.736267 0.469421
0.504761 0.741364 0.470703
0.538177 0.746033 0.470001
0.570496 0.750305 0.468536
