滤镜资源/Professional Luts Collection/Triune-Digital-Cinematic-LUTs/3D LUTs (CUBE)/LOG/House of Cards - LOG.cube
#Created by Benjamin (IWLTBAP) : http://luts.iwltbap.com
#Copyright: (C) Copyright 2016 Triune Films and IWLTBAP
TITLE "Blockbuster LUTs Pack (LOG)"
#LUT size
LUT_3D_SIZE 5
#LUT data points
DOMAIN_MIN 0.000000 0.000000 0.000000
DOMAIN_MAX 0.903226 0.903226 0.903226
0.000000 0.000000 0.000000
0.227936 0.033112 0.022308
0.535461 0.091217 0.074432
0.802399 0.153961 0.123596
0.858429 0.169128 0.134521
0.040222 0.170593 0.026520
0.175262 0.154785 0.026947
0.483276 0.166382 0.067902
0.796204 0.210907 0.123474
0.858246 0.213562 0.135071
0.101379 0.404968 0.076019
0.148621 0.403503 0.081329
0.412384 0.359222 0.076141
0.734039 0.371155 0.122314
0.858795 0.373749 0.141968
0.184326 0.651093 0.139679
0.215332 0.645691 0.141693
0.372162 0.632172 0.138123
0.656342 0.579407 0.135681
0.862610 0.576294 0.162384
0.237183 0.794464 0.180359
0.265106 0.800049 0.185425
0.354218 0.817017 0.205872
0.598969 0.789520 0.180328
0.877991 0.782837 0.200989
0.026947 0.012939 0.206146
0.183228 0.033661 0.158386
0.506378 0.096222 0.175354
0.805908 0.172028 0.207611
0.872528 0.195038 0.209503
0.043457 0.147034 0.141541
0.198456 0.194794 0.176270
0.494934 0.201935 0.163177
0.803162 0.231201 0.178467
0.866180 0.226624 0.174164
0.101196 0.392548 0.123016
0.156311 0.417175 0.130737
0.413971 0.368988 0.104492
0.733917 0.381592 0.149933
0.863495 0.384583 0.170685
0.183441 0.640228 0.165375
0.222351 0.653839 0.177094
0.371704 0.634094 0.165009
0.655945 0.586273 0.163452
0.865570 0.582977 0.190613
0.233124 0.789612 0.206299
0.271515 0.811859 0.221100
0.355255 0.821045 0.237488
0.598999 0.795898 0.211182
0.880920 0.793579 0.230560
0.048981 0.037109 0.513824
0.166260 0.037292 0.466644
0.430908 0.080963 0.388062
0.735565 0.150787 0.391754
0.798584 0.167938 0.385864
0.090057 0.189484 0.498718
0.186951 0.190399 0.481598
0.427460 0.197357 0.393036
0.754059 0.232880 0.389252
0.822815 0.228271 0.375061
0.095673 0.342621 0.344421
0.143555 0.352325 0.348999
0.458191 0.459747 0.439148
0.762268 0.461456 0.413452
0.895020 0.454193 0.393372
0.173859 0.606781 0.317627
0.211609 0.616730 0.321075
0.411102 0.688507 0.387238
0.674316 0.640045 0.317413
0.884644 0.627014 0.302521
0.231171 0.777557 0.297363
0.267792 0.792572 0.301605
0.366180 0.835236 0.326141
0.598877 0.805206 0.261658
0.885803 0.803711 0.267365
0.082947 0.065979 0.743317
0.172119 0.060120 0.713562
0.394745 0.082123 0.682648
0.672089 0.134033 0.629364
0.733856 0.147919 0.631042
0.128693 0.205658 0.792023
0.197510 0.190765 0.771423
0.398987 0.187805 0.719482
0.677673 0.204163 0.638214
0.751984 0.200867 0.619965
0.167938 0.407135 0.746918
0.202332 0.405273 0.743683
0.442627 0.461487 0.766998
0.696533 0.458862 0.673401
0.838745 0.460297 0.656982
0.153961 0.560425 0.581024
0.199341 0.570892 0.584778
0.396057 0.624115 0.625031
0.720093 0.727539 0.710419
0.926270 0.721039 0.685150
0.203033 0.731018 0.526886
0.247620 0.748566 0.532776
0.339600 0.785248 0.549103
0.660431 0.899109 0.646210
0.918091 0.878235 0.582855
0.094147 0.073120 0.799042
0.179138 0.066895 0.768982
0.384857 0.083069 0.743225
0.665771 0.131989 0.684662
0.720276 0.145905 0.676605
0.137146 0.201202 0.842865
0.200470 0.184509 0.823120
0.391388 0.180176 0.778717
0.661591 0.194763 0.710144
0.733337 0.194641 0.692108
0.183228 0.416229 0.845245
0.219757 0.415833 0.853027
0.434631 0.453217 0.876251
0.677368 0.451965 0.813660
0.802765 0.444977 0.777344
0.214203 0.601166 0.792877
0.250122 0.603210 0.802185
0.405273 0.636597 0.841736
0.704773 0.724792 0.917755
0.893311 0.721313 0.879425
0.206238 0.707367 0.740723
0.249512 0.723602 0.751495
0.333344 0.756104 0.774811
0.661591 0.870056 0.873291
0.962952 0.967651 0.959564
