滤镜资源/Professional Luts Collection/Triune-Digital-Cinematic-LUTs/3D LUTs (CUBE)/LOG/House of Cards - LOG.cube
#Created by Benjamin (IWLTBAP) : http://luts.iwltbap.com
#Copyright: (C) Copyright 2016 Triune Films and IWLTBAP
TITLE "Blockbuster LUTs Pack (LOG)"
#LUT size
LUT_3D_SIZE 8
#LUT data points
DOMAIN_MIN 0.000000 0.000000 0.000000
DOMAIN_MAX 0.903226 0.903226 0.903226
0.000000 0.000000 0.000000
0.112152 0.013794 0.011261
0.270721 0.038269 0.026550
0.445221 0.074738 0.057953
0.627045 0.113281 0.091370
0.788177 0.150940 0.121063
0.826111 0.160309 0.128326
0.858429 0.169128 0.134521
0.012146 0.079498 0.009491
0.084351 0.074188 0.011841
0.242065 0.080414 0.025238
0.420074 0.097717 0.053894
0.603973 0.127197 0.088226
0.776031 0.165375 0.119659
0.826111 0.176819 0.128448
0.859100 0.185791 0.134430
0.049042 0.201874 0.031952
0.071960 0.200745 0.036804
0.207855 0.181244 0.031799
0.382690 0.185638 0.052185
0.565826 0.199921 0.083435
0.749969 0.224182 0.115875
0.825897 0.228790 0.129517
0.858734 0.232422 0.135742
0.082642 0.335327 0.058807
0.101471 0.333801 0.063293
0.185913 0.326660 0.059937
0.342682 0.297363 0.059143
0.525879 0.300629 0.084503
0.708984 0.313629 0.113525
0.825348 0.321075 0.133240
0.858826 0.321320 0.139404
0.122192 0.475433 0.093414
0.139923 0.474030 0.095306
0.178131 0.474121 0.097565
0.310730 0.447235 0.084961
0.481964 0.421112 0.091888
0.665741 0.424744 0.117554
0.826569 0.432465 0.141327
0.858978 0.428650 0.146027
0.174957 0.614746 0.131134
0.189758 0.613159 0.131744
0.206512 0.608978 0.132660
0.313782 0.621246 0.143280
0.448425 0.571686 0.118744
0.622070 0.548462 0.126526
0.805725 0.550079 0.150940
0.861420 0.545898 0.158691
0.223267 0.756683 0.170013
0.237335 0.755493 0.170471
0.253937 0.751801 0.171326
0.305542 0.753693 0.176056
0.434387 0.735382 0.166901
0.582733 0.694977 0.152985
0.761414 0.672394 0.163727
0.865295 0.668091 0.175568
0.237183 0.794464 0.180359
0.252441 0.796112 0.182770
0.270020 0.801331 0.186157
0.294067 0.807312 0.190247
0.431305 0.827301 0.231110
0.558136 0.793243 0.183746
0.728119 0.780914 0.183258
0.877991 0.782837 0.200989
0.012360 0.006317 0.097717
0.088196 0.014954 0.075287
0.253967 0.043945 0.081726
0.445038 0.082977 0.100952
0.631439 0.122894 0.119904
0.789886 0.156219 0.136536
0.828705 0.166260 0.143372
0.861359 0.174103 0.149139
0.020355 0.070953 0.065460
0.097931 0.093811 0.082306
0.249664 0.096008 0.074982
0.423309 0.106293 0.080048
0.606323 0.132355 0.102661
0.777954 0.170807 0.134583
0.828735 0.183136 0.143799
0.861664 0.191315 0.149780
0.047302 0.197052 0.055695
0.076843 0.204956 0.061035
0.209015 0.187683 0.049774
0.383820 0.192047 0.068024
0.567413 0.206024 0.098938
0.750702 0.229065 0.131226
0.829315 0.235474 0.145264
0.861969 0.238495 0.151550
0.081268 0.330231 0.077545
0.106384 0.338898 0.085602
0.185791 0.328400 0.075653
0.343781 0.303162 0.074921
0.526337 0.306732 0.100128
0.709961 0.322205 0.129089
0.829071 0.329468 0.150360
0.861450 0.329407 0.155579
0.120758 0.470673 0.108643
0.144684 0.479523 0.115723
0.178558 0.475342 0.113098
0.310303 0.448608 0.099792
0.481812 0.424805 0.106750
0.666107 0.428680 0.132721
0.828156 0.438232 0.157440
0.861572 0.433868 0.162323
0.171356 0.610504 0.145966
0.194397 0.617798 0.151642
0.208282 0.610931 0.148895
0.314087 0.622437 0.159027
0.447784 0.573090 0.133850
0.621460 0.549744 0.141174
0.805389 0.552124 0.165985
0.862091 0.548889 0.173889
0.220642 0.753693 0.184479
0.241608 0.759705 0.189056
0.255493 0.753204 0.186981
0.305786 0.754761 0.191589
0.434235 0.736664 0.182404
0.582306 0.696228 0.167908
0.760529 0.673523 0.178497
0.865814 0.668915 0.190247
0.235901 0.791992 0.195068
0.256165 0.801025 0.200684
0.271698 0.804138 0.202209
0.294098 0.809631 0.206451
0.431641 0.828979 0.249756
0.559875 0.797180 0.200714
0.729492 0.785065 0.199432
0.879486 0.788971 0.217072
0.029053 0.012939 0.247498
0.089325 0.018250 0.223267
0.216858 0.039032 0.188599
0.399658 0.075409 0.193359
0.596436 0.116669 0.209534
0.773254 0.158264 0.225311
0.820129 0.169159 0.223969
0.858887 0.184296 0.227448
0.048340 0.089264 0.235626
0.097137 0.092224 0.228333
0.215759 0.096619 0.189453
0.391144 0.110016 0.188843
0.585968 0.138794 0.200684
0.772827 0.181976 0.217773
0.834137 0.199707 0.219818
0.874878 0.215607 0.225189
0.051117 0.171509 0.167542
0.079590 0.177826 0.170380
0.234314 0.230347 0.210022
0.400452 0.232056 0.199280
0.579559 0.237885 0.194977
0.758209 0.253235 0.199127
0.837646 0.253693 0.196869
0.869598 0.254578 0.196106
0.083038 0.311615 0.154327
0.107452 0.318207 0.156677
0.203979 0.360077 0.181519
0.354218 0.331787 0.152954
0.532349 0.329742 0.151306
0.712006 0.336334 0.161194
0.831940 0.336426 0.168091
0.864624 0.334473 0.171417
0.119354 0.461731 0.146576
0.139740 0.469482 0.148895
0.186249 0.487183 0.156464
0.314240 0.458313 0.126007
0.483887 0.432953 0.123810
0.666931 0.436768 0.148682
0.831970 0.444489 0.174377
0.864838 0.441040 0.179291
0.168579 0.604431 0.161072
0.190552 0.610687 0.166809
0.217529 0.619324 0.174103
0.312622 0.622009 0.174255
0.450409 0.579773 0.151703
0.621826 0.558044 0.159241
0.806274 0.559113 0.182800
0.866089 0.556122 0.191315
0.217194 0.746948 0.198547
0.237457 0.753204 0.204041
0.262878 0.761200 0.212189
0.305786 0.755615 0.208618
0.433044 0.737183 0.197723
0.583771 0.701019 0.184937
0.761871 0.680817 0.195190
0.868866 0.675476 0.207611
0.232208 0.788757 0.210083
0.253357 0.798950 0.216125
0.276642 0.815582 0.228027
0.294556 0.814819 0.225739
0.431091 0.830597 0.268433
0.560394 0.800659 0.218201
0.728973 0.788879 0.216553
0.881592 0.795166 0.235687
0.040161 0.025391 0.422119
0.089844 0.020874 0.394531
0.199860 0.037262 0.364380
0.356567 0.065704 0.318359
0.551819 0.108002 0.322174
0.733002 0.152405 0.331268
0.780884 0.163666 0.327667
0.816895 0.173370 0.327728
0.062683 0.099335 0.422180
0.099274 0.089752 0.401611
0.202789 0.088776 0.361542
0.347534 0.095459 0.310974
0.541046 0.132507 0.314575
0.731445 0.176239 0.325317
0.792328 0.190735 0.322357
0.828827 0.199066 0.322510
0.083313 0.200104 0.371002
0.104553 0.201538 0.370148
0.226257 0.231750 0.387634
0.364227 0.232727 0.335144
0.546631 0.246094 0.331085
0.734955 0.263794 0.331177
0.822266 0.264893 0.323822
0.856171 0.264984 0.320099
0.079010 0.284332 0.282715
0.109100 0.290314 0.286224
0.204010 0.320099 0.307556
0.381836 0.383301 0.362091
0.552399 0.383606 0.345795
0.730957 0.388855 0.333496
0.853577 0.387482 0.321716
0.885193 0.382782 0.313110
0.115295 0.429810 0.262787
0.136414 0.435974 0.265137
0.176178 0.453064 0.273865
0.352173 0.506958 0.327087
0.502411 0.482269 0.288940
0.681061 0.480804 0.278259
0.846252 0.484314 0.274689
0.878845 0.476807 0.268524
0.168335 0.589417 0.260376
0.188446 0.593567 0.261749
0.212860 0.599487 0.263458
0.343536 0.658051 0.306458
0.467712 0.614349 0.259857
0.631744 0.586243 0.233856
0.813080 0.579956 0.235443
0.873840 0.573334 0.232147
0.215942 0.735291 0.254852
0.234436 0.739594 0.255981
0.259003 0.747467 0.259308
0.319946 0.775421 0.276123
0.438080 0.750580 0.242859
0.585632 0.712402 0.213928
0.763367 0.687286 0.212585
0.872101 0.681519 0.225067
0.230255 0.784851 0.237549
0.250427 0.793579 0.239990
0.277893 0.810730 0.248505
0.301636 0.822937 0.253296
0.428833 0.831970 0.286469
0.558075 0.804382 0.236725
0.726593 0.792511 0.234100
0.884277 0.801208 0.256470
0.057495 0.048615 0.605438
0.091217 0.044647 0.584076
0.192139 0.046783 0.554962
0.335175 0.064972 0.514557
0.505768 0.096161 0.463562
0.692871 0.141113 0.463867
0.743317 0.154999 0.455780
0.779755 0.163239 0.451782
0.075470 0.101257 0.600067
0.101166 0.093079 0.584747
0.192444 0.084167 0.549835
0.324249 0.092010 0.506866
0.497223 0.121796 0.455505
0.690460 0.166412 0.455475
0.755157 0.182953 0.449738
0.790833 0.191406 0.448090
0.107086 0.224915 0.588745
0.126465 0.225494 0.586792
0.219299 0.225677 0.568237
0.348755 0.228363 0.522736
0.502502 0.233765 0.467926
0.690704 0.253571 0.461975
0.780243 0.256378 0.451569
0.813904 0.256409 0.445648
0.118378 0.321503 0.511047
0.138794 0.322845 0.511078
0.212311 0.335419 0.518799
0.377991 0.384796 0.545135
0.518921 0.386230 0.496368
0.699951 0.397369 0.490234
0.831543 0.402740 0.482178
0.865082 0.397766 0.474091
0.111267 0.402161 0.411072
0.136871 0.410919 0.415588
0.170563 0.416779 0.417328
0.345245 0.473206 0.464233
0.531433 0.534424 0.515808
0.701904 0.532715 0.499908
0.869843 0.534912 0.487518
0.903076 0.528137 0.477020
0.147736 0.556213 0.383484
0.167267 0.560547 0.384552
0.197449 0.566986 0.389099
0.326660 0.609344 0.430756
0.499359 0.659363 0.482574
0.651581 0.634918 0.445068
0.833160 0.633636 0.429169
0.897461 0.626862 0.417908
0.208435 0.705719 0.377502
0.228577 0.709747 0.378845
0.250854 0.715271 0.382233
0.310547 0.740082 0.400391
0.478546 0.800690 0.457397
0.614594 0.768280 0.413269
0.782867 0.744507 0.379120
0.894104 0.733002 0.364441
0.235321 0.769745 0.366577
0.256165 0.778717 0.370361
0.278687 0.788025 0.372711
0.302185 0.796936 0.370453
0.442780 0.853851 0.415344
0.574097 0.837250 0.374359
0.736786 0.819977 0.335968
0.894897 0.822083 0.341919
0.080688 0.064972 0.735443
0.113251 0.062073 0.722565
0.198120 0.060028 0.703674
0.316223 0.069427 0.687988
0.483612 0.094696 0.646149
0.650360 0.128326 0.609436
0.706024 0.141235 0.602844
0.741974 0.151886 0.598785
0.093475 0.104858 0.747833
0.116211 0.097443 0.737976
0.195801 0.084686 0.710358
0.312775 0.097015 0.689697
0.472290 0.121460 0.648376
0.647064 0.154572 0.605896
0.716675 0.171387 0.598602
0.752045 0.180695 0.594696
0.139465 0.242584 0.783234
0.153992 0.235382 0.774811
0.226257 0.225311 0.746857
0.341736 0.220947 0.709564
0.478882 0.225647 0.663391
0.644623 0.236084 0.607635
0.741119 0.241272 0.594543
0.774353 0.239868 0.588104
0.155304 0.349915 0.731110
0.174438 0.350342 0.730103
0.235260 0.358459 0.733154
0.369415 0.382172 0.731415
0.503204 0.381439 0.684601
0.654297 0.384613 0.627960
0.789886 0.392456 0.618622
0.822327 0.388428 0.610382
0.161346 0.448700 0.650787
0.181732 0.450317 0.650238
0.202301 0.448090 0.645721
0.355103 0.487854 0.669495
0.517853 0.533295 0.700775
0.670532 0.536499 0.653534
0.843018 0.544617 0.646790
0.878418 0.539093 0.637299
0.143494 0.530212 0.548553
0.169830 0.537262 0.552002
0.195831 0.540375 0.551361
0.315399 0.571747 0.573883
0.492371 0.626617 0.618469
0.682159 0.688751 0.672333
0.853973 0.686584 0.653534
0.921387 0.681549 0.641785
0.183960 0.676605 0.513153
0.204620 0.680878 0.513580
0.230591 0.687286 0.515717
0.289124 0.709106 0.530396
0.466797 0.760834 0.583771
0.648621 0.812836 0.635742
0.803864 0.788666 0.597717
0.916229 0.782837 0.582520
0.209259 0.736603 0.490204
0.231628 0.746124 0.493195
0.257782 0.756378 0.496490
0.281036 0.767395 0.496460
0.434265 0.823944 0.544647
0.615967 0.888947 0.597748
0.762543 0.874298 0.557312
0.913483 0.866608 0.532715
0.087708 0.069061 0.767273
0.117401 0.066345 0.755402
0.195190 0.063354 0.735687
0.311401 0.072449 0.723450
0.475006 0.096497 0.688843
0.642242 0.126129 0.657196
0.693146 0.139160 0.649170
0.727936 0.145966 0.651093
0.096649 0.102905 0.777588
0.117065 0.095459 0.770020
0.191315 0.080963 0.745941
0.309509 0.096710 0.733276
0.464294 0.121429 0.703430
0.636078 0.152588 0.668427
0.700195 0.166382 0.658295
0.735413 0.175079 0.660553
0.143463 0.239685 0.825104
0.156403 0.233368 0.819733
0.227966 0.220764 0.799805
0.335907 0.215240 0.772552
0.469727 0.219513 0.743561
0.628815 0.227814 0.699371
0.716339 0.227844 0.678650
0.748474 0.227539 0.677277
0.171478 0.358124 0.821472
0.190826 0.359375 0.825714
0.248535 0.367554 0.837585
0.364410 0.374237 0.830414
0.494354 0.377106 0.800171
0.638306 0.378845 0.760162
0.757446 0.379791 0.727692
0.789062 0.375580 0.726257
0.186646 0.467590 0.794647
0.207703 0.469360 0.799316
0.227966 0.466980 0.805115
0.361572 0.497589 0.836609
0.513885 0.535828 0.862427
0.653503 0.533630 0.825470
0.802277 0.531799 0.780487
0.839203 0.527222 0.771790
0.202209 0.573120 0.763336
0.223022 0.575378 0.768555
0.244965 0.573517 0.769531
0.335571 0.590393 0.787018
0.494171 0.636169 0.818115
0.669922 0.686829 0.852753
0.827026 0.690948 0.813385
0.899109 0.689728 0.803955
0.189575 0.653809 0.681793
0.213440 0.659546 0.684692
0.236176 0.662659 0.684998
0.283875 0.671082 0.688385
0.457367 0.725769 0.730072
0.639130 0.781128 0.774506
0.830383 0.840607 0.824219
0.941772 0.834229 0.808197
0.192078 0.714478 0.642700
0.215210 0.724213 0.645569
0.240692 0.734680 0.647217
0.267731 0.745514 0.645874
0.422607 0.803528 0.687653
0.612671 0.868439 0.738464
0.796234 0.929626 0.787506
0.937225 0.919006 0.753998
0.094147 0.073120 0.799042
0.123138 0.070587 0.787842
0.199554 0.066956 0.767578
0.310150 0.073883 0.756012
0.470062 0.097046 0.724823
0.637726 0.125763 0.690186
0.688446 0.137970 0.681610
0.720276 0.145905 0.676605
0.100128 0.103607 0.807800
0.117737 0.096405 0.801239
0.195038 0.084198 0.777893
0.307892 0.098663 0.765381
0.458588 0.121796 0.738922
0.631042 0.153137 0.701965
0.696686 0.165771 0.690796
0.728485 0.173340 0.685333
0.150024 0.238770 0.854797
0.162048 0.231934 0.849396
0.230377 0.218903 0.830322
0.335724 0.212616 0.803467
0.465271 0.217224 0.775421
0.623383 0.225647 0.732208
0.711670 0.223785 0.708038
0.739563 0.221069 0.700775
0.177795 0.361450 0.856903
0.197449 0.362549 0.861084
0.253235 0.370300 0.873779
0.363220 0.369934 0.860138
0.490173 0.373413 0.830963
0.630768 0.376160 0.793579
0.752289 0.375397 0.758362
0.779816 0.369751 0.749268
0.194183 0.470215 0.831787
0.213989 0.471619 0.836182
0.233398 0.469147 0.841858
0.360474 0.498596 0.871155
0.511169 0.531769 0.891785
0.649689 0.530121 0.857056
0.794434 0.526917 0.815216
0.828156 0.520355 0.805237
0.209167 0.577179 0.801575
0.230042 0.579102 0.806732
0.250671 0.578217 0.812164
0.335785 0.593536 0.833466
0.493011 0.637421 0.871704
0.667725 0.688507 0.914215
0.817383 0.688141 0.883728
0.881195 0.681183 0.865204
0.215607 0.673553 0.764252
0.236511 0.675903 0.770203
0.259430 0.676971 0.777344
0.299347 0.680481 0.788513
0.462128 0.730255 0.831268
0.638123 0.781158 0.878387
0.821869 0.834290 0.930145
0.931396 0.841156 0.922760
0.206238 0.707367 0.740723
0.230499 0.716339 0.747040
0.256348 0.725952 0.753021
0.283997 0.735779 0.760406
0.426514 0.791565 0.803741
0.614105 0.855042 0.859985
0.800781 0.915924 0.913513
0.962952 0.967651 0.959564
