滤镜资源/Professional Luts Collection/Triune-Digital-Cinematic-LUTs/3D LUTs (CUBE)/LOG/House of Cards - LOG.cube
#Created by Benjamin (IWLTBAP) : http://luts.iwltbap.com
#Copyright: (C) Copyright 2016 Triune Films and IWLTBAP
TITLE "Blockbuster LUTs Pack (LOG)"
#LUT size
LUT_3D_SIZE 32
#LUT data points
0.000000 0.000000 0.000000
0.009857 0.001251 0.001038
0.037537 0.004517 0.003632
0.075134 0.008850 0.007172
0.112152 0.013794 0.011261
0.149750 0.019714 0.015320
0.186707 0.025970 0.018921
0.227936 0.033112 0.022308
0.270721 0.038269 0.026550
0.314301 0.047729 0.033813
0.356995 0.055725 0.041626
0.400848 0.065460 0.049500
0.445221 0.074738 0.057953
0.489166 0.084869 0.066223
0.535461 0.091217 0.074432
0.581329 0.104156 0.083221
0.627045 0.113281 0.091370
0.672913 0.123413 0.100769
0.716797 0.133484 0.107697
0.761200 0.143616 0.116211
0.788177 0.150940 0.121063
0.802399 0.153961 0.123596
0.810028 0.155762 0.125244
0.817963 0.157928 0.126770
0.826111 0.160309 0.128326
0.834198 0.162598 0.129822
0.842316 0.164948 0.131348
0.850525 0.167175 0.132843
0.858429 0.169128 0.134521
0.866333 0.171173 0.136169
0.874329 0.173187 0.137787
0.882355 0.175232 0.139374
0.001282 0.006927 0.000732
0.009125 0.007385 0.001312
0.032928 0.010315 0.003571
0.069122 0.014526 0.006866
0.106079 0.019623 0.010925
0.144531 0.025787 0.015015
0.181305 0.031891 0.018707
0.222992 0.038544 0.022095
0.265289 0.042908 0.026245
0.309357 0.051971 0.033234
0.351776 0.059540 0.040741
0.395844 0.069000 0.048706
0.440338 0.078522 0.057098
0.484772 0.088562 0.065460
0.530914 0.094574 0.073883
0.576843 0.107086 0.082367
0.622803 0.116974 0.090820
0.668610 0.126801 0.099976
0.712616 0.136841 0.107086
0.757446 0.147003 0.115570
0.786194 0.154785 0.120850
0.802368 0.158051 0.123657
0.810181 0.159851 0.125275
0.818115 0.162018 0.126801
0.826202 0.164368 0.128326
0.834351 0.166687 0.129822
0.842468 0.169037 0.131378
0.850525 0.171295 0.132904
0.858582 0.173279 0.134521
0.866577 0.175323 0.136108
0.874603 0.177338 0.137726
0.882629 0.179352 0.139343
0.004425 0.025574 0.002563
0.011932 0.024689 0.003143
0.029999 0.024475 0.004364
0.063507 0.027039 0.007111
0.099731 0.029938 0.010712
0.138885 0.034302 0.014740
0.176361 0.038147 0.018524
0.217651 0.043671 0.021942
0.259277 0.047668 0.025665
0.304016 0.055695 0.032410
0.346588 0.063568 0.039764
0.390503 0.072418 0.048004
0.435059 0.082123 0.056061
0.480011 0.091797 0.064575
0.525940 0.097961 0.073273
0.571930 0.109802 0.081329
0.618317 0.120697 0.090240
0.664062 0.130005 0.098999
0.708160 0.139893 0.106415
0.753052 0.150452 0.114716
0.783997 0.158600 0.120667
0.802185 0.162262 0.123840
0.810333 0.163940 0.125275
0.818237 0.166168 0.126801
0.826355 0.168457 0.128326
0.834381 0.170837 0.129852
0.842377 0.173187 0.131409
0.850647 0.175446 0.132904
0.858826 0.177460 0.134460
0.866852 0.179474 0.136047
0.874878 0.181549 0.137695
0.882874 0.183533 0.139282
0.007721 0.052185 0.005341
0.015228 0.052002 0.006592
0.026764 0.050323 0.006744
0.056549 0.048645 0.007996
0.092499 0.050262 0.011108
0.130890 0.053619 0.015106
0.170074 0.056396 0.018829
0.209229 0.058014 0.021820
0.251251 0.059906 0.024933
0.296082 0.063141 0.031250
0.339172 0.069427 0.038422
0.382812 0.075287 0.047028
0.427429 0.085205 0.054657
0.472900 0.094543 0.063232
0.518158 0.101562 0.072083
0.564392 0.111786 0.079773
0.611298 0.123962 0.089264
0.656738 0.132660 0.097473
0.701111 0.142578 0.105408
0.745880 0.153320 0.113342
0.781372 0.162292 0.120392
0.802002 0.166473 0.123962
0.810211 0.168121 0.125366
0.818237 0.170258 0.126831
0.826233 0.172638 0.128418
0.834229 0.174988 0.129913
0.842255 0.177368 0.131470
0.850525 0.179626 0.132935
0.859070 0.181641 0.134399
0.867096 0.183655 0.136017
0.875122 0.185699 0.137634
0.883148 0.187714 0.139221
0.012146 0.079498 0.009491
0.020081 0.079559 0.010406
0.029236 0.079834 0.011353
0.051697 0.078033 0.011383
0.084351 0.074188 0.011841
0.122162 0.075195 0.015686
0.162231 0.078033 0.019684
0.202118 0.080170 0.022888
0.242065 0.080414 0.025238
0.287231 0.082550 0.029968
0.330872 0.086731 0.037628
0.375031 0.091705 0.046539
0.420074 0.097717 0.053894
0.465332 0.104218 0.061951
0.510193 0.109222 0.070862
0.556671 0.114319 0.078430
0.603973 0.127197 0.088226
0.649048 0.135254 0.095856
0.694000 0.145325 0.104462
0.738617 0.156281 0.112000
0.776031 0.165375 0.119659
0.801941 0.170685 0.124115
0.810181 0.172302 0.125519
0.818115 0.174438 0.126923
0.826111 0.176819 0.128448
0.834106 0.179169 0.130005
0.842072 0.181549 0.131531
0.850342 0.183777 0.132996
0.859100 0.185791 0.134430
0.867371 0.187836 0.135986
0.875366 0.189850 0.137604
0.883392 0.191864 0.139191
0.019073 0.108612 0.014832
0.026276 0.108215 0.015900
0.035187 0.108612 0.017273
0.051788 0.108643 0.018280
0.077911 0.104309 0.016235
0.116577 0.100403 0.017456
0.152588 0.101410 0.020386
0.194366 0.102570 0.023987
0.233978 0.104492 0.026825
0.277740 0.104462 0.030121
0.321930 0.107025 0.036987
0.366272 0.111542 0.045624
0.412445 0.115417 0.053894
0.456177 0.122070 0.061066
0.502502 0.128021 0.069183
0.548004 0.133484 0.078033
0.595825 0.141937 0.086334
0.640930 0.148346 0.095032
0.685608 0.155151 0.103027
0.730042 0.163574 0.110718
0.771606 0.171417 0.118774
0.801910 0.175598 0.124298
0.810181 0.176483 0.125641
0.818085 0.178650 0.127014
0.825958 0.181000 0.128510
0.833954 0.183380 0.130066
0.841949 0.185760 0.131561
0.850220 0.188019 0.133057
0.858978 0.190002 0.134491
0.867615 0.192017 0.135925
0.875671 0.194031 0.137543
0.883636 0.196045 0.139160
0.029877 0.139740 0.020508
0.035858 0.139343 0.021820
0.043457 0.139648 0.023193
0.050781 0.139038 0.024292
0.077942 0.136810 0.023773
0.108093 0.129395 0.020660
0.146301 0.126343 0.023376
0.184113 0.127808 0.025574
0.225372 0.127930 0.028320
0.268799 0.128937 0.031219
0.313782 0.129700 0.037384
0.357422 0.132965 0.044647
0.401520 0.136993 0.052948
0.445953 0.141388 0.061035
0.492676 0.145905 0.068237
0.540100 0.152679 0.076965
0.586823 0.159271 0.085175
0.632660 0.165771 0.093994
0.677521 0.172363 0.101685
0.721893 0.179779 0.109680
0.764679 0.187347 0.117035
0.800598 0.191528 0.124695
0.810059 0.190887 0.126190
0.818024 0.190460 0.127502
0.825806 0.191162 0.128845
0.833588 0.192780 0.130188
0.841614 0.194427 0.131714
0.849915 0.195831 0.133209
0.858734 0.196991 0.134613
0.867493 0.198181 0.135986
0.876038 0.200073 0.137451
0.884064 0.202026 0.139099
0.040222 0.170593 0.026520
0.045380 0.170227 0.027802
0.051361 0.170349 0.029205
0.057190 0.169495 0.030457
0.073730 0.171356 0.033020
0.103943 0.164307 0.028229
0.137360 0.158813 0.026001
0.175262 0.154785 0.026947
0.215851 0.153900 0.029572
0.259277 0.154205 0.032135
0.302643 0.155640 0.037262
0.348175 0.157135 0.044434
0.392639 0.159729 0.051880
0.437836 0.163605 0.060120
0.483276 0.166382 0.067902
0.529633 0.172882 0.075928
0.576050 0.179504 0.084320
0.622925 0.185822 0.092285
0.667908 0.192169 0.100647
0.714172 0.198853 0.108704
0.758179 0.205750 0.116394
0.796204 0.210907 0.123474
0.809875 0.210388 0.126465
0.818115 0.209015 0.128143
0.825836 0.208954 0.129486
0.833618 0.210205 0.130798
0.841431 0.211548 0.132141
0.849457 0.212799 0.133606
0.858246 0.213562 0.135071
0.867065 0.214417 0.136475
0.875854 0.216278 0.137939
0.884705 0.218201 0.139404
0.049042 0.201874 0.031952
0.053986 0.201447 0.033173
0.060120 0.201935 0.034454
0.066010 0.201324 0.035614
0.071960 0.200745 0.036804
0.101715 0.201416 0.038940
0.132843 0.192413 0.033905
0.170044 0.185547 0.031250
0.207855 0.181244 0.031799
0.248871 0.180084 0.033600
0.294403 0.182129 0.039703
0.338318 0.183777 0.044830
0.382690 0.185638 0.052185
0.428467 0.186981 0.059692
0.473816 0.191437 0.067566
0.520294 0.193848 0.075165
0.565826 0.199921 0.083435
0.613708 0.205994 0.091949
0.659027 0.209503 0.100342
0.703796 0.215820 0.107727
0.749969 0.224182 0.115875
0.790680 0.230438 0.123016
0.809479 0.231628 0.126251
0.817688 0.230194 0.127899
0.825897 0.228790 0.129517
0.834076 0.229126 0.131073
0.842041 0.230011 0.132507
0.850098 0.231262 0.134003
0.858734 0.232422 0.135742
0.867310 0.233612 0.137451
0.875946 0.235718 0.139221
0.884766 0.237640 0.140656
0.056946 0.234161 0.038177
0.061584 0.233673 0.039093
0.067291 0.234039 0.040283
0.072845 0.233398 0.041351
0.078461 0.232697 0.042297
0.101440 0.234985 0.045105
0.130920 0.228699 0.041168
0.163300 0.220093 0.037903
0.200195 0.213501 0.036987
0.240326 0.209106 0.037750
0.283295 0.208710 0.039734
0.329132 0.210266 0.047241
0.372498 0.212067 0.053009
0.418579 0.213501 0.060699
0.463715 0.215149 0.067505
0.510132 0.219360 0.075317
0.556061 0.221619 0.082916
0.604187 0.226501 0.091949
0.648987 0.232910 0.099304
0.694489 0.236633 0.107513
0.739899 0.244354 0.115143
0.785767 0.251526 0.123383
0.809723 0.253540 0.127197
0.817841 0.252380 0.128632
0.826019 0.250977 0.130127
0.834229 0.251068 0.131653
0.842377 0.251343 0.133209
0.850525 0.251770 0.134644
0.858673 0.252777 0.135986
0.867096 0.253845 0.137543
0.875671 0.256042 0.139282
0.884216 0.258362 0.141022
0.062469 0.268188 0.045288
0.067688 0.267426 0.045898
0.074554 0.267822 0.046539
0.081390 0.267303 0.047028
0.087952 0.266571 0.047668
0.099670 0.267761 0.048798
0.129913 0.271332 0.052032
0.158936 0.258453 0.045135
0.193512 0.250580 0.042877
0.232117 0.244019 0.042419
0.273499 0.238007 0.043060
0.318176 0.237915 0.048431
0.363037 0.239685 0.054810
0.407562 0.241058 0.060760
0.453705 0.241943 0.068176
0.500366 0.243805 0.075562
0.546600 0.247650 0.083344
0.593842 0.250031 0.091705
0.638916 0.255432 0.098572
0.683075 0.259674 0.106750
0.729889 0.265442 0.114655
0.775574 0.271851 0.122803
0.809570 0.275604 0.128326
0.817902 0.274780 0.129700
0.826202 0.273499 0.131195
0.834473 0.273285 0.132721
0.842712 0.273621 0.134308
0.850922 0.273804 0.135925
0.859039 0.274628 0.137329
0.867188 0.275665 0.138580
0.875275 0.277679 0.139984
0.883392 0.279755 0.141388
0.072296 0.301941 0.050659
0.076508 0.301147 0.051605
0.081757 0.300995 0.052917
0.087006 0.300415 0.054138
0.093018 0.299774 0.054901
0.099243 0.298920 0.054993
0.126007 0.303070 0.058258
0.158173 0.298523 0.054596
0.187225 0.287170 0.049255
0.225342 0.279480 0.046753
0.264740 0.273865 0.047821
0.308014 0.268188 0.050354
0.351868 0.267639 0.056580
0.396881 0.269836 0.062073
0.443939 0.269989 0.069580
0.490814 0.271881 0.075623
0.536804 0.274414 0.083527
0.583282 0.277710 0.091919
0.628448 0.281738 0.099030
0.673462 0.285645 0.106293
0.719177 0.287567 0.114227
0.765320 0.292694 0.121979
0.804840 0.297729 0.128723
0.817322 0.297272 0.130890
0.825623 0.296631 0.132294
0.833923 0.296814 0.133728
0.842224 0.297760 0.135193
0.850403 0.298248 0.136780
0.858521 0.298248 0.138489
0.866638 0.298401 0.140198
0.874725 0.299622 0.141907
0.882812 0.301147 0.143585
0.082642 0.335327 0.058807
0.086700 0.334717 0.059662
0.091614 0.334778 0.060944
0.096527 0.334534 0.062195
0.101471 0.333801 0.063293
0.107025 0.332947 0.063751
0.124634 0.334625 0.065186
0.156494 0.338684 0.067993
0.185913 0.326660 0.059937
0.219238 0.317322 0.055542
0.257996 0.308533 0.052307
0.298859 0.302307 0.054871
0.342682 0.297363 0.059143
0.386627 0.297302 0.063629
0.433960 0.298431 0.070953
0.478577 0.299805 0.076874
0.525879 0.300629 0.084503
0.571320 0.303741 0.091583
0.618774 0.306458 0.099091
0.664001 0.310303 0.106537
0.708984 0.313629 0.113525
0.754120 0.318695 0.121429
0.799286 0.322784 0.128784
0.815613 0.322601 0.131531
0.825348 0.321075 0.133240
0.833588 0.320160 0.134766
0.841858 0.320312 0.136292
0.850250 0.321014 0.137817
0.858826 0.321320 0.139404
0.867432 0.321594 0.141022
0.876007 0.322937 0.142670
0.884125 0.324219 0.144409
0.092224 0.369934 0.066956
0.096222 0.369507 0.067474
0.100952 0.369354 0.068085
0.105927 0.369476 0.068909
0.110748 0.369263 0.069763
0.115570 0.368469 0.070282
0.121246 0.367493 0.070618
0.152588 0.371490 0.074554
0.186920 0.373718 0.076508
0.215576 0.356018 0.064850
0.250977 0.346802 0.061340
0.289246 0.339966 0.060486
0.334595 0.333344 0.063324
0.377014 0.328186 0.066895
0.423126 0.327362 0.072784
0.468750 0.328583 0.078491
0.514832 0.329956 0.085571
0.560638 0.331543 0.091949
0.607788 0.333771 0.099274
0.654053 0.337219 0.106598
0.698792 0.340912 0.114136
0.745026 0.344177 0.121979
0.790222 0.348907 0.129272
0.813354 0.349243 0.132751
0.825592 0.348083 0.134674
0.833679 0.346619 0.135925
0.841827 0.346497 0.137360
0.850067 0.346375 0.138763
0.858368 0.346283 0.140045
0.866669 0.346313 0.141327
0.875153 0.347656 0.142853
0.883698 0.349091 0.144470
0.101379 0.404968 0.076019
0.105194 0.404541 0.076385
0.109711 0.404388 0.076630
0.114441 0.404510 0.077118
0.119171 0.404480 0.077820
0.124268 0.403442 0.078278
0.129547 0.402039 0.078613
0.148621 0.403503 0.081329
0.184265 0.407990 0.084930
0.213898 0.400177 0.079193
0.245361 0.385742 0.070282
0.283722 0.377838 0.067841
0.325104 0.370239 0.067413
0.367859 0.362915 0.070221
0.412384 0.359222 0.076141
0.458374 0.357574 0.080750
0.504852 0.359253 0.087372
0.549072 0.360962 0.094208
0.596130 0.362396 0.100098
0.642670 0.366058 0.107849
0.688141 0.367523 0.115295
0.734039 0.371155 0.122314
0.779572 0.374664 0.130127
0.811584 0.376740 0.135254
0.826172 0.375763 0.137085
0.834015 0.374084 0.137756
0.842072 0.373840 0.138977
0.850372 0.373779 0.140350
0.858795 0.373749 0.141968
0.867218 0.373718 0.143616
0.875458 0.374847 0.144989
0.883728 0.376038 0.146332
0.109955 0.439514 0.084961
0.113739 0.439331 0.085358
0.118134 0.439362 0.085602
0.122803 0.439789 0.086090
0.127411 0.439911 0.086548
0.132416 0.438721 0.086609
0.137787 0.437225 0.086609
0.143127 0.435425 0.086487
0.181122 0.441345 0.089966
0.216553 0.445618 0.093872
0.242859 0.427765 0.082947
0.279633 0.416687 0.076843
0.316925 0.407623 0.075775
0.358734 0.400879 0.075928
0.402771 0.395355 0.079193
0.447296 0.389984 0.083221
0.492676 0.388824 0.088593
0.538666 0.390442 0.095428
0.586395 0.391327 0.101562
0.631409 0.393860 0.109100
0.677094 0.396271 0.116089
0.723206 0.398926 0.122772
0.769775 0.402374 0.130096
0.805542 0.403870 0.136261
0.826538 0.403656 0.139221
0.834229 0.401581 0.140137
0.842133 0.401367 0.141052
0.850311 0.401184 0.142242
0.859009 0.401031 0.144012
0.867676 0.400635 0.145630
0.876068 0.401855 0.147308
0.884491 0.403137 0.148987
0.122192 0.475433 0.093414
0.126068 0.474884 0.093872
0.130249 0.474060 0.094177
0.134949 0.473999 0.094818
0.139923 0.474030 0.095306
0.144928 0.473358 0.095459
0.149963 0.472290 0.095459
0.154907 0.470947 0.095367
0.178131 0.474121 0.097565
0.211731 0.478607 0.100952
0.246124 0.476746 0.102142
0.274902 0.457916 0.088837
0.310730 0.447235 0.084961
0.351166 0.440369 0.084259
0.393555 0.431244 0.084930
0.437225 0.426178 0.088196
0.481964 0.421112 0.091888
0.528442 0.420898 0.097168
0.574646 0.420776 0.104004
0.621216 0.422882 0.110291
0.665741 0.424744 0.117554
0.711395 0.427765 0.124115
0.758453 0.429108 0.131592
0.798645 0.432068 0.137360
0.826569 0.432465 0.141327
0.834564 0.430450 0.142365
0.842316 0.429932 0.143311
0.850311 0.429474 0.144470
0.858978 0.428650 0.146027
0.867340 0.428558 0.147400
0.876007 0.429535 0.149109
0.884644 0.430573 0.150848
0.132416 0.511475 0.102142
0.136353 0.510956 0.102539
0.141083 0.509857 0.102722
0.146332 0.509552 0.103333
0.150970 0.509155 0.103882
0.155640 0.508453 0.104065
0.160553 0.507690 0.104126
0.165283 0.506500 0.104034
0.177643 0.506744 0.105133
0.210144 0.509888 0.107971
0.246063 0.515167 0.112549
0.274841 0.501617 0.103851
0.306824 0.487823 0.095459
0.344391 0.478271 0.092621
0.386200 0.470215 0.092010
0.427856 0.463898 0.092529
0.472839 0.458221 0.096527
0.517853 0.452911 0.101105
0.562531 0.451294 0.106293
0.609680 0.452393 0.112701
0.654663 0.454193 0.118622
0.699707 0.456848 0.124969
0.746002 0.457520 0.131531
0.791779 0.460449 0.138245
0.825348 0.461395 0.143799
0.834961 0.459198 0.145111
0.842865 0.458191 0.146179
0.851013 0.457703 0.147339
0.859650 0.456909 0.148651
0.868134 0.456512 0.149902
0.876526 0.457886 0.151337
0.884888 0.459320 0.152802
0.146210 0.545654 0.110443
0.149841 0.545319 0.110809
0.153656 0.544800 0.111237
0.158539 0.545197 0.112152
0.163757 0.544983 0.112823
0.168823 0.544006 0.113129
0.173889 0.543182 0.113495
0.178833 0.541931 0.113678
0.183716 0.540527 0.113708
0.210266 0.543976 0.117706
0.246002 0.548126 0.121277
0.281677 0.552185 0.123993
0.306183 0.531403 0.110077
0.341614 0.519775 0.103455
0.378906 0.509979 0.101013
0.420532 0.502441 0.100922
0.462921 0.495056 0.101837
0.507385 0.489594 0.104950
0.551727 0.484680 0.108856
0.598022 0.483093 0.114746
0.643280 0.483978 0.120422
0.688934 0.485443 0.127167
0.735474 0.486572 0.133728
0.782257 0.489624 0.140228
0.820282 0.490234 0.146149
0.835266 0.488647 0.148163
0.843323 0.487396 0.149292
0.851654 0.487030 0.150635
0.860321 0.486481 0.152039
0.868958 0.486206 0.153473
0.877441 0.487213 0.154785
0.885925 0.488342 0.156067
0.161194 0.579742 0.121887
0.164856 0.579193 0.122131
0.168427 0.578461 0.121979
0.172699 0.578430 0.122253
0.177277 0.578552 0.122986
0.181427 0.578125 0.123535
0.185089 0.577332 0.123688
0.188660 0.576202 0.123810
0.192413 0.574890 0.124115
0.212128 0.575958 0.125580
0.245239 0.580322 0.128601
0.280670 0.584747 0.131622
0.310822 0.579285 0.128723
0.340393 0.559723 0.116608
0.374756 0.550476 0.111206
0.413849 0.540680 0.109741
0.454987 0.533691 0.109467
0.497864 0.527466 0.110870
0.541382 0.522644 0.113739
0.586090 0.517395 0.118042
0.632019 0.514923 0.123596
0.678711 0.516632 0.129272
0.723663 0.517578 0.135437
0.771545 0.518280 0.142273
0.814911 0.520721 0.148743
0.835236 0.519836 0.151733
0.843170 0.517853 0.152863
0.851196 0.516998 0.154022
0.859680 0.516052 0.155426
0.868225 0.514893 0.156860
0.876831 0.515930 0.158264
0.885498 0.517059 0.159668
0.174957 0.614746 0.131134
0.178558 0.614319 0.131500
0.181915 0.613495 0.131439
0.185669 0.613129 0.131531
0.189758 0.613159 0.131744
0.193970 0.612579 0.131958
0.198151 0.611725 0.132202
0.202148 0.610321 0.132294
0.206512 0.608978 0.132660
0.213470 0.608215 0.133209
0.242889 0.612366 0.135773
0.277649 0.617249 0.139099
0.313782 0.621246 0.143280
0.340759 0.604401 0.131836
0.373840 0.589294 0.123383
0.409790 0.579132 0.119446
0.448425 0.571686 0.118744
0.490082 0.564178 0.117889
0.532654 0.557892 0.120178
0.576599 0.552277 0.123108
0.622070 0.548462 0.126526
0.667358 0.547211 0.132507
0.713287 0.546936 0.137695
0.759460 0.548676 0.144684
0.805725 0.550079 0.150940
0.836823 0.549988 0.155121
0.844940 0.547638 0.156067
0.853210 0.546783 0.157410
0.861420 0.545898 0.158691
0.869568 0.545044 0.159973
0.878143 0.545746 0.161407
0.886749 0.546661 0.162720
0.184326 0.651093 0.139679
0.188171 0.650421 0.139954
0.192291 0.649139 0.140289
0.196899 0.648041 0.140930
0.201752 0.647339 0.141754
0.206116 0.646881 0.141785
0.210815 0.646545 0.141815
0.215332 0.645691 0.141693
0.219330 0.644653 0.141357
0.223572 0.643402 0.141174
0.243164 0.644989 0.142487
0.277222 0.649200 0.147583
0.312531 0.653442 0.151428
0.348297 0.657959 0.154846
0.372162 0.632172 0.138123
0.405914 0.618805 0.131531
0.443298 0.609741 0.127838
0.482941 0.601929 0.126984
0.523926 0.594360 0.126770
0.566498 0.588593 0.129272
0.612396 0.583527 0.132477
0.656342 0.579407 0.135681
0.702209 0.576416 0.141357
0.747925 0.578125 0.147064
0.795624 0.578522 0.153564
0.834351 0.579437 0.158936
0.846344 0.577728 0.160339
0.854553 0.576843 0.161377
0.862610 0.576294 0.162384
0.870605 0.575775 0.163330
0.878723 0.576477 0.164642
0.886932 0.577301 0.165955
0.196625 0.685120 0.150635
0.200439 0.684723 0.150848
0.204559 0.683929 0.150696
0.209381 0.683258 0.150635
0.214600 0.683105 0.150940
0.219604 0.682709 0.151215
0.224487 0.682068 0.151489
0.229279 0.681030 0.151672
0.233704 0.679779 0.151794
0.237457 0.678314 0.151764
0.241180 0.676971 0.151611
0.276276 0.682800 0.155609
0.308533 0.687531 0.158905
0.345154 0.690094 0.163391
0.376648 0.682281 0.157745
0.403351 0.660431 0.144928
0.438934 0.649475 0.138733
0.476929 0.640991 0.136505
0.516327 0.633270 0.135101
0.556976 0.625214 0.136108
0.601898 0.619904 0.138702
0.645538 0.615051 0.141296
0.692261 0.609711 0.145203
0.736389 0.607880 0.150055
0.783661 0.608704 0.156830
0.828888 0.610443 0.162231
0.845764 0.608215 0.164398
0.854462 0.607330 0.165344
0.862732 0.606445 0.166504
0.871063 0.605499 0.167664
0.879303 0.606018 0.168976
0.887787 0.606659 0.170258
0.210388 0.721222 0.158569
0.214172 0.720703 0.158936
0.218018 0.719910 0.159241
0.222107 0.719025 0.159607
0.226654 0.718903 0.160400
0.230774 0.718353 0.160797
0.234711 0.717804 0.161011
0.238434 0.716644 0.161072
0.242188 0.715210 0.161102
0.246460 0.713867 0.161255
0.250854 0.712585 0.160889
0.273804 0.715485 0.163239
0.308228 0.719238 0.167542
0.341156 0.723267 0.171448
0.379089 0.727600 0.175232
0.404907 0.706818 0.161255
0.436371 0.690826 0.152405
0.471649 0.680573 0.147156
0.509888 0.671265 0.144867
0.549835 0.663086 0.144440
0.590790 0.656982 0.144714
0.636169 0.651398 0.147400
0.681030 0.646210 0.150238
0.726196 0.641083 0.154327
0.772430 0.639130 0.159790
0.820404 0.638733 0.165924
0.844482 0.637817 0.169159
0.856476 0.636719 0.170532
0.864410 0.636261 0.171204
0.872253 0.635834 0.171906
0.880188 0.636749 0.172852
0.888672 0.637482 0.173981
0.223267 0.756683 0.170013
0.226990 0.756439 0.170288
0.230499 0.756104 0.170441
0.233673 0.755371 0.170227
0.237335 0.755493 0.170471
0.241669 0.755432 0.170807
0.245911 0.754700 0.171082
0.249878 0.753265 0.171173
0.253937 0.751801 0.171326
0.258575 0.750305 0.171539
0.263031 0.749023 0.171539
0.273499 0.748901 0.172333
0.305542 0.753693 0.176056
0.339508 0.757538 0.180084
0.374695 0.762146 0.185059
0.411743 0.765930 0.188751
0.434387 0.735382 0.166901
0.465912 0.721924 0.160034
0.504150 0.710968 0.155670
0.543121 0.702545 0.153381
0.582733 0.694977 0.152985
0.626373 0.687836 0.153625
0.670990 0.682098 0.156158
0.714630 0.677277 0.159973
0.761414 0.672394 0.163727
0.807831 0.670197 0.168182
0.840210 0.669647 0.172211
0.857391 0.668823 0.174469
0.865295 0.668091 0.175568
0.873230 0.667267 0.176666
0.881256 0.667938 0.177948
0.889557 0.668701 0.179321
0.228149 0.770905 0.173767
0.231903 0.771240 0.174225
0.235535 0.771393 0.174652
0.238922 0.771454 0.174927
0.242889 0.772644 0.175446
0.247559 0.773682 0.176056
0.252655 0.774719 0.176758
0.257477 0.775208 0.177277
0.262390 0.775757 0.177795
0.267334 0.775818 0.178192
0.272308 0.776001 0.178589
0.277222 0.776215 0.179108
0.303986 0.781372 0.183746
0.337067 0.788330 0.187714
0.371368 0.793304 0.193329
0.408112 0.797028 0.201843
0.438202 0.786896 0.189606
0.464142 0.764923 0.175049
0.497681 0.752991 0.167847
0.536194 0.742310 0.165588
0.575378 0.733795 0.162231
0.617554 0.725861 0.161163
0.660706 0.718658 0.162231
0.705750 0.713623 0.165771
0.751068 0.708496 0.169647
0.797546 0.704010 0.173157
0.835358 0.701538 0.177155
0.858154 0.700775 0.179932
0.866272 0.699615 0.180695
0.874329 0.698517 0.181458
0.882477 0.698853 0.182495
0.890717 0.699280 0.183594
0.230957 0.778717 0.175812
0.234711 0.779083 0.176270
0.238373 0.779236 0.176697
0.241760 0.779205 0.177155
0.245911 0.780273 0.178070
0.250580 0.781342 0.178741
0.255493 0.782562 0.179474
0.260376 0.783813 0.180145
0.265320 0.785034 0.180847
0.270447 0.786346 0.181549
0.275757 0.787354 0.182373
0.280884 0.788330 0.183167
0.296997 0.792328 0.186157
0.330170 0.799957 0.190552
0.362946 0.803741 0.198608
0.400360 0.808990 0.208649
0.439758 0.813751 0.221100
0.460480 0.791473 0.186615
0.490601 0.779388 0.177216
0.526855 0.769714 0.173187
0.567902 0.763153 0.170624
0.607971 0.756256 0.169006
0.651367 0.749451 0.168976
0.695129 0.745209 0.171417
0.740753 0.741730 0.174835
0.786072 0.737183 0.178864
0.830048 0.733917 0.182404
0.859253 0.729706 0.184662
0.867584 0.728821 0.185699
0.875916 0.728271 0.186707
0.884308 0.728882 0.187988
0.892670 0.729645 0.189301
0.233917 0.786530 0.177917
0.237671 0.786835 0.178406
0.241333 0.787079 0.178864
0.244751 0.786987 0.179291
0.249054 0.788116 0.180359
0.253265 0.789368 0.181274
0.257874 0.790710 0.182068
0.262787 0.791901 0.182800
0.267670 0.793213 0.183502
0.272797 0.794586 0.184235
0.278198 0.795776 0.185120
0.283478 0.797028 0.186035
0.295563 0.800262 0.188324
0.324677 0.806488 0.193756
0.357574 0.811188 0.202240
0.395264 0.817078 0.214233
0.434753 0.821899 0.227081
