滤镜资源/Professional Luts Collection/Triune-Digital-Cinematic-LUTs/3D LUTs (CUBE)/LOG/Indiana Jones - LOG.cube
#Created by Benjamin (IWLTBAP) : http://luts.iwltbap.com
#Copyright: (C) Copyright 2016 Triune Films and IWLTBAP
TITLE "Blockbuster LUTs Pack (LOG)"
#LUT size
LUT_3D_SIZE 32
#LUT data points
0.007416 0.011292 0.008881
0.012329 0.011658 0.008728
0.025452 0.013336 0.009399
0.044220 0.015442 0.010834
0.065857 0.018066 0.012238
0.095001 0.019958 0.010742
0.132080 0.023438 0.013824
0.181030 0.029327 0.019257
0.233398 0.035889 0.024017
0.286652 0.042816 0.026947
0.342590 0.050293 0.027740
0.397339 0.057556 0.029388
0.444305 0.063995 0.031219
0.489380 0.070099 0.033936
0.538147 0.077148 0.039642
0.584656 0.082703 0.043945
0.627258 0.088196 0.045807
0.665009 0.093353 0.045532
0.699890 0.097992 0.047394
0.731812 0.102051 0.050354
0.750000 0.103851 0.052216
0.759338 0.104706 0.053406
0.764709 0.105133 0.054413
0.769867 0.105743 0.054779
0.775269 0.106171 0.055786
0.780151 0.106567 0.056061
0.784851 0.106964 0.056091
0.789703 0.107330 0.056244
0.794495 0.107697 0.056519
0.799591 0.108246 0.056580
0.804504 0.108795 0.056763
0.809296 0.109436 0.057129
0.007172 0.015442 0.009003
0.011169 0.015533 0.009399
0.023163 0.016449 0.009277
0.039703 0.019226 0.010651
0.061829 0.021454 0.012115
0.089142 0.023560 0.010956
0.124268 0.026611 0.012970
0.172455 0.032379 0.018158
0.222198 0.038879 0.022980
0.275024 0.045715 0.026031
0.329315 0.053253 0.027527
0.385437 0.060577 0.029602
0.434235 0.067810 0.030731
0.480927 0.073975 0.033783
0.529297 0.080475 0.039032
0.576111 0.086609 0.043427
0.621307 0.092285 0.045258
0.659790 0.097809 0.044800
0.696350 0.101959 0.046356
0.729889 0.106659 0.049927
0.749603 0.108765 0.052216
0.759979 0.109894 0.053253
0.765411 0.110535 0.054169
0.770874 0.110992 0.054871
0.775909 0.111603 0.055450
0.781372 0.112183 0.056061
0.786163 0.112671 0.056580
0.791016 0.113007 0.056702
0.795807 0.113403 0.056732
0.800629 0.113953 0.057007
0.805664 0.114441 0.057617
0.810547 0.115112 0.057404
0.007263 0.026245 0.010376
0.010864 0.025726 0.010345
0.019409 0.025513 0.010193
0.036743 0.026184 0.010284
0.058228 0.027069 0.011963
0.083923 0.028503 0.011353
0.116913 0.030151 0.011566
0.163361 0.035553 0.017120
0.212128 0.041077 0.022186
0.263733 0.048553 0.025696
0.315674 0.056549 0.027283
0.372681 0.063629 0.029602
0.423615 0.070862 0.030884
0.471741 0.077850 0.033142
0.519348 0.084106 0.038116
0.566895 0.090668 0.042908
0.613770 0.096558 0.044495
0.653931 0.102325 0.043823
0.692139 0.106201 0.044922
0.726685 0.110809 0.049255
0.748566 0.113800 0.051483
0.760681 0.115051 0.053101
0.766113 0.115692 0.054047
0.771332 0.116608 0.054321
0.776642 0.116943 0.055603
0.782104 0.117584 0.056122
0.787445 0.118225 0.056854
0.792419 0.118713 0.056854
0.797302 0.119019 0.057312
0.801819 0.119629 0.057678
0.806824 0.120087 0.057831
0.811676 0.120697 0.057953
0.009247 0.039032 0.011383
0.012146 0.039032 0.011108
0.018768 0.038116 0.011475
0.031281 0.038635 0.011261
0.052063 0.039459 0.011993
0.076904 0.040955 0.012390
0.106995 0.041931 0.010590
0.150452 0.045044 0.016388
0.196655 0.049164 0.020142
0.248383 0.054413 0.025055
0.298920 0.059814 0.027985
0.355835 0.066101 0.029205
0.409668 0.073883 0.030609
0.458923 0.080963 0.032532
0.506531 0.087372 0.036987
0.555145 0.093872 0.041962
0.602936 0.100403 0.043671
0.645813 0.106171 0.043518
0.684753 0.110657 0.043457
0.721222 0.114594 0.047424
0.747620 0.118439 0.051239
0.761414 0.120056 0.053284
0.766632 0.120941 0.053558
0.772003 0.121674 0.054413
0.777527 0.122345 0.055298
0.782837 0.123016 0.055725
0.788025 0.123779 0.056335
0.793549 0.124329 0.057312
0.798370 0.124878 0.057678
0.803406 0.125214 0.057983
0.808075 0.125824 0.058197
0.812866 0.126312 0.058380
0.010071 0.053131 0.012848
0.012817 0.053131 0.012970
0.016663 0.052704 0.012573
0.028076 0.052734 0.011871
0.044952 0.053711 0.012085
0.068481 0.055481 0.012329
0.097626 0.056885 0.010559
0.136993 0.059967 0.014191
0.181427 0.063965 0.018219
0.229309 0.068878 0.022888
0.278687 0.073853 0.025940
0.329346 0.080658 0.028503
0.389160 0.086548 0.031799
0.444427 0.092316 0.032562
0.496033 0.097198 0.037872
0.543976 0.099548 0.040741
0.592438 0.105225 0.043091
0.636932 0.111176 0.042816
0.677429 0.115784 0.043182
0.715088 0.119476 0.047028
0.744415 0.123444 0.050964
0.761719 0.125610 0.053284
0.767212 0.126221 0.054169
0.772491 0.127045 0.054749
0.777832 0.127869 0.055206
0.783020 0.128632 0.055786
0.788391 0.129303 0.056213
0.793701 0.129974 0.056946
0.798981 0.130585 0.057831
0.803558 0.131256 0.057709
0.808472 0.131714 0.058075
0.813141 0.132294 0.058258
0.010284 0.069122 0.013916
0.013672 0.068573 0.014160
0.017395 0.068146 0.013672
0.024170 0.067932 0.013214
0.041046 0.068573 0.012421
0.059875 0.070740 0.012512
0.087799 0.072388 0.011078
0.123352 0.075043 0.012207
0.170563 0.079590 0.017242
0.214081 0.084442 0.020935
0.262390 0.089661 0.025116
0.311127 0.096558 0.027740
0.364807 0.102570 0.031097
0.424164 0.108612 0.033081
0.476807 0.118011 0.036011
0.528015 0.124725 0.040619
0.574738 0.131195 0.041199
0.621155 0.133118 0.040894
0.664673 0.132172 0.044159
0.707123 0.131317 0.048187
0.740631 0.132660 0.051544
0.761902 0.132385 0.054382
0.767334 0.132019 0.054321
0.772827 0.132599 0.055176
0.778168 0.133392 0.055939
0.783234 0.134247 0.056000
0.788361 0.135010 0.056335
0.793732 0.135681 0.057129
0.798767 0.136444 0.057404
0.803680 0.137115 0.057556
0.808228 0.137817 0.057617
0.813110 0.138245 0.057983
0.011597 0.085419 0.015350
0.015411 0.085052 0.014923
0.017975 0.084991 0.014923
0.020844 0.084229 0.014801
0.035065 0.085236 0.014374
0.054260 0.087494 0.014130
0.078491 0.088959 0.012207
0.111786 0.091431 0.010590
0.157837 0.096375 0.015533
0.204102 0.101654 0.019745
0.250000 0.107391 0.024292
0.297302 0.112671 0.026337
0.349823 0.118256 0.029602
0.404877 0.124268 0.033447
0.457703 0.132751 0.035156
0.509857 0.145020 0.038208
0.560577 0.154114 0.040436
0.606018 0.160767 0.042511
0.648865 0.161194 0.046783
0.691925 0.159821 0.052185
0.728210 0.159363 0.054321
0.757416 0.156677 0.054779
0.764709 0.153229 0.055450
0.771149 0.149811 0.055695
0.777405 0.147644 0.056183
0.782959 0.147064 0.056396
0.788208 0.146790 0.056763
0.793488 0.146271 0.057037
0.798553 0.146057 0.056976
0.803375 0.145569 0.057465
0.808258 0.146179 0.057251
0.812927 0.146790 0.057404
0.011383 0.103363 0.016602
0.014526 0.103516 0.016571
0.018311 0.103210 0.016174
0.022064 0.102142 0.015869
0.029449 0.102753 0.015900
0.047546 0.105255 0.015137
0.071014 0.107971 0.014069
0.098053 0.108887 0.010681
0.142853 0.113525 0.014160
0.192078 0.119415 0.018463
0.241882 0.126038 0.023438
0.289581 0.130249 0.025391
0.336853 0.134613 0.027893
0.388977 0.140717 0.031616
0.440918 0.148529 0.035645
0.490692 0.159790 0.037415
0.541809 0.171143 0.039093
0.590088 0.181305 0.041229
0.631989 0.188141 0.044922
0.675415 0.191528 0.051666
0.711884 0.195374 0.053192
0.743225 0.193970 0.052948
0.754974 0.188538 0.053802
0.762360 0.183289 0.054077
0.769073 0.178772 0.054321
0.774933 0.176971 0.054810
0.780640 0.175323 0.054993
0.786530 0.173553 0.054932
0.792511 0.171600 0.054840
0.797974 0.170013 0.054871
0.802734 0.170624 0.054993
0.807556 0.171234 0.055206
0.010437 0.122528 0.017883
0.014587 0.122223 0.017242
0.016846 0.122742 0.017426
0.020691 0.121857 0.017181
0.023865 0.121368 0.017303
0.042480 0.123627 0.016418
0.063293 0.128265 0.016113
0.092621 0.130402 0.013336
0.123901 0.132202 0.012756
0.175232 0.138214 0.016724
0.228943 0.144318 0.021423
0.276306 0.149109 0.023987
0.325989 0.153595 0.025970
0.377075 0.159698 0.029449
0.425995 0.166931 0.032593
0.474609 0.175446 0.037201
0.524170 0.185730 0.039215
0.571564 0.195709 0.039062
0.613342 0.204681 0.040039
0.654846 0.211548 0.044861
0.694122 0.216248 0.049561
0.726471 0.219696 0.050934
0.742279 0.218842 0.050873
0.749939 0.215851 0.051270
0.757690 0.212280 0.051666
0.764099 0.211639 0.052429
0.770630 0.211426 0.052917
0.776337 0.209991 0.053284
0.782013 0.208832 0.053528
0.787781 0.207642 0.053894
0.792999 0.208191 0.053925
0.798218 0.208923 0.053864
0.011322 0.144073 0.019348
0.014496 0.144165 0.019318
0.017303 0.144287 0.019531
0.021484 0.143066 0.019165
0.024750 0.142517 0.018829
0.037720 0.143860 0.018738
0.056946 0.148773 0.017914
0.082703 0.153442 0.017181
0.116119 0.156555 0.016632
0.155823 0.157928 0.014709
0.209686 0.163239 0.019012
0.261566 0.168976 0.022430
0.310944 0.175110 0.024414
0.364014 0.182068 0.025909
0.414978 0.188690 0.028717
0.460144 0.194061 0.032501
0.507233 0.200714 0.037750
0.554291 0.211334 0.036865
0.596252 0.221313 0.035614
0.637238 0.228485 0.038208
0.679138 0.235504 0.043854
0.713654 0.239807 0.046661
0.732635 0.240509 0.047028
0.739960 0.239044 0.047455
0.747437 0.237305 0.047516
0.754089 0.237366 0.048065
0.760712 0.237732 0.048828
0.767334 0.238007 0.049255
0.773621 0.238068 0.050049
0.779968 0.238190 0.050629
0.785645 0.239258 0.050659
0.790680 0.240112 0.051025
0.013489 0.167084 0.022064
0.016602 0.167572 0.021973
0.020691 0.167450 0.021912
0.024780 0.166748 0.021393
0.027649 0.166290 0.021210
0.035126 0.166412 0.021362
0.053345 0.170349 0.020538
0.075592 0.175262 0.020294
0.106628 0.178284 0.019287
0.145111 0.179688 0.015900
0.189941 0.182617 0.017822
0.245636 0.189636 0.021881
0.298401 0.197723 0.022980
0.351807 0.205048 0.024414
0.403564 0.210846 0.025665
0.450897 0.215393 0.029572
0.496887 0.220947 0.034302
0.541718 0.229156 0.035339
0.585571 0.239716 0.033356
0.625244 0.246307 0.034698
0.664703 0.252319 0.039032
0.702057 0.258636 0.042847
0.726776 0.261169 0.043945
0.732971 0.259521 0.044373
0.739563 0.257599 0.044617
0.745972 0.257507 0.044647
0.752655 0.258057 0.044708
0.759247 0.258636 0.045013
0.765900 0.259399 0.045258
0.772430 0.260101 0.045898
0.778778 0.261688 0.046265
0.784698 0.263275 0.046906
0.017639 0.192352 0.025482
0.020844 0.192780 0.024994
0.023590 0.193268 0.025116
0.027679 0.192566 0.024597
0.031464 0.191956 0.024323
0.034363 0.191132 0.024261
0.050140 0.193756 0.023071
0.072754 0.197601 0.022064
0.096954 0.201477 0.021973
0.135010 0.203522 0.018951
0.177582 0.204437 0.018585
0.228302 0.210114 0.021454
0.284607 0.219818 0.022278
0.343781 0.228271 0.024445
0.395111 0.234009 0.025635
0.442902 0.238342 0.027374
0.489227 0.243347 0.031433
0.533966 0.251190 0.032745
0.575897 0.258820 0.032013
0.614532 0.264709 0.031769
0.653229 0.269897 0.035370
0.690033 0.276154 0.038879
0.719452 0.281372 0.040558
0.728607 0.280792 0.041229
0.734955 0.279358 0.041382
0.740997 0.278992 0.041992
0.747223 0.279572 0.041748
0.753662 0.280182 0.042175
0.760101 0.280853 0.042419
0.766541 0.281738 0.042877
0.772949 0.283539 0.043091
0.779053 0.285370 0.043457
0.019226 0.216766 0.028198
0.023468 0.217102 0.027618
0.026398 0.217834 0.027893
0.030090 0.217529 0.027466
0.034363 0.217010 0.027100
0.037628 0.216614 0.026794
0.048035 0.217834 0.026123
0.068176 0.221558 0.024414
0.090607 0.226318 0.023499
0.122955 0.228149 0.022308
0.167877 0.229309 0.020630
0.216614 0.232269 0.020905
0.268890 0.242493 0.023102
0.338837 0.253693 0.025146
0.391968 0.259033 0.026520
0.436981 0.261932 0.027802
0.481598 0.265625 0.029602
0.525421 0.272736 0.030518
0.568115 0.279877 0.030121
0.606415 0.285309 0.029755
0.642120 0.290039 0.032166
0.678040 0.295837 0.035522
0.711609 0.300629 0.037537
0.723328 0.301147 0.037689
0.730560 0.300446 0.037781
0.736511 0.299896 0.038330
0.742340 0.300110 0.038422
0.748352 0.300507 0.038269
0.754669 0.300873 0.038513
0.761108 0.301270 0.038940
0.767578 0.302948 0.039703
0.773987 0.304840 0.039917
0.021210 0.241058 0.030182
0.025360 0.241730 0.029999
0.028809 0.242645 0.029633
0.031860 0.243225 0.029480
0.036224 0.243042 0.029694
0.040039 0.242767 0.029327
0.045044 0.241943 0.028992
0.063049 0.247498 0.027069
0.083740 0.252502 0.025543
0.115967 0.254303 0.023956
0.158020 0.256348 0.021118
0.202911 0.259979 0.019623
0.255402 0.267029 0.023163
0.322205 0.277069 0.024841
0.387939 0.285278 0.026611
0.432129 0.286591 0.027802
0.473969 0.288666 0.028625
0.516479 0.293396 0.029480
0.559662 0.300751 0.028748
0.598846 0.306641 0.028839
0.633331 0.312195 0.029694
0.667877 0.317078 0.032074
0.700867 0.321594 0.033691
0.717224 0.322235 0.034088
0.726379 0.321747 0.034393
0.732391 0.320801 0.034760
0.738129 0.320831 0.035095
0.743713 0.321014 0.035126
0.749725 0.321320 0.035034
0.756134 0.321625 0.035767
0.762054 0.323029 0.035583
0.768280 0.324402 0.036255
0.023346 0.267151 0.032990
0.026367 0.268127 0.033264
0.031189 0.268372 0.033295
0.034241 0.269012 0.033661
0.038605 0.269012 0.033295
0.042969 0.268494 0.032959
0.046600 0.268280 0.032410
0.058594 0.270996 0.030884
0.078644 0.277039 0.028076
0.107422 0.279846 0.025970
0.145538 0.282135 0.021423
0.192047 0.285217 0.017975
0.239258 0.291077 0.021759
0.304779 0.299866 0.023407
0.370972 0.310364 0.024414
0.427368 0.313629 0.025787
0.467285 0.313690 0.026489
0.507996 0.316437 0.027374
0.550323 0.321960 0.027985
0.589661 0.328552 0.028168
0.624573 0.334137 0.028351
0.657227 0.338867 0.028381
0.688965 0.342407 0.029053
0.711029 0.344177 0.030212
0.721863 0.343536 0.030518
0.727844 0.342346 0.031006
0.733765 0.342285 0.031311
0.739655 0.342346 0.031494
0.745483 0.342346 0.032135
0.751465 0.342499 0.032471
0.757324 0.343628 0.032654
0.763184 0.344879 0.032776
0.025391 0.294098 0.038330
0.029694 0.294617 0.037750
0.033112 0.295441 0.037842
0.037323 0.295441 0.037903
0.041351 0.295776 0.036926
0.044128 0.295898 0.036591
0.048553 0.295135 0.035828
0.052124 0.294464 0.035492
0.073792 0.301514 0.030701
0.098206 0.305084 0.027649
0.132141 0.307220 0.022949
0.181213 0.308990 0.017548
0.225067 0.313385 0.018677
0.281616 0.320038 0.020844
0.346588 0.328522 0.022186
0.409637 0.336670 0.024323
0.460846 0.340179 0.024231
0.499481 0.341675 0.024933
0.540375 0.344666 0.026093
0.579346 0.350189 0.026398
0.614105 0.355957 0.026581
0.647522 0.361572 0.025940
0.678925 0.364349 0.025726
0.703949 0.366302 0.026367
0.719086 0.366608 0.027252
0.724884 0.364838 0.027588
0.730713 0.364655 0.027802
0.736481 0.364655 0.027924
0.742249 0.364594 0.028564
0.747925 0.364532 0.028961
0.753510 0.365631 0.028839
0.758850 0.366882 0.028900
0.027649 0.322449 0.043182
0.032654 0.322968 0.042175
0.036530 0.323883 0.041595
0.040924 0.324005 0.041107
0.043610 0.324615 0.040497
0.047241 0.324066 0.039429
0.051025 0.323975 0.038483
0.055084 0.323242 0.037048
0.069244 0.325623 0.034393
0.090576 0.329407 0.029572
0.121063 0.331909 0.025024
0.168335 0.334412 0.018066
0.213745 0.337463 0.016754
0.255402 0.341888 0.017792
0.323059 0.346680 0.019897
0.386108 0.354706 0.021790
0.444458 0.363434 0.021484
0.490326 0.366638 0.022064
0.530151 0.369446 0.022888
0.569336 0.372437 0.023499
0.603455 0.377960 0.022766
0.637634 0.384674 0.021881
0.669800 0.388702 0.021515
0.697693 0.390472 0.022278
0.717316 0.391144 0.023071
0.723053 0.389191 0.023712
0.728607 0.388519 0.024200
0.734314 0.388092 0.024597
0.739990 0.388031 0.024597
0.745392 0.387970 0.024872
0.750732 0.389069 0.025116
0.756195 0.390289 0.024841
0.032288 0.351227 0.044769
0.034973 0.352417 0.044678
0.040070 0.352631 0.043701
0.043854 0.353119 0.043091
0.047668 0.353027 0.042145
0.050690 0.352539 0.041199
0.054047 0.351837 0.040222
0.057892 0.351013 0.038605
0.066833 0.350861 0.036346
0.087494 0.354340 0.032501
0.110382 0.357635 0.027924
0.157288 0.360931 0.020508
0.205048 0.363312 0.015015
0.244019 0.366913 0.015137
0.301544 0.368713 0.016266
0.365692 0.374756 0.019226
0.423218 0.382782 0.019226
0.476074 0.391205 0.018616
0.518677 0.394714 0.019012
0.558136 0.397247 0.019806
0.593262 0.401215 0.019012
0.627838 0.407166 0.018066
0.660553 0.412262 0.017212
0.690338 0.414276 0.018066
0.713715 0.415070 0.019318
0.720795 0.413361 0.019623
0.726410 0.412384 0.020081
0.732025 0.411987 0.020355
0.737549 0.411530 0.020782
0.742859 0.411530 0.021057
0.748199 0.412506 0.021027
0.753510 0.413574 0.020966
0.035583 0.379059 0.045746
0.038666 0.380127 0.045441
0.043579 0.380157 0.044342
0.046570 0.380737 0.044098
0.050842 0.380951 0.043091
0.053802 0.380493 0.042084
0.057465 0.379700 0.040405
0.060730 0.378876 0.039520
0.064819 0.377930 0.038696
0.083344 0.381683 0.035675
0.107452 0.385651 0.029358
0.148987 0.388916 0.021851
0.199890 0.391449 0.015594
0.240570 0.395325 0.013092
0.287018 0.396667 0.012421
0.349060 0.398376 0.015778
0.408813 0.406311 0.016296
0.458160 0.413055 0.015533
0.504791 0.418701 0.015381
0.546906 0.422485 0.015991
0.582733 0.425507 0.015961
0.616669 0.429840 0.016327
0.650421 0.434540 0.016663
0.680786 0.437653 0.017090
0.706268 0.438538 0.017426
0.717102 0.437317 0.017578
0.722870 0.436188 0.017609
0.728607 0.435730 0.017700
0.734314 0.435181 0.017822
0.739838 0.434845 0.017853
0.745056 0.435699 0.017914
0.750336 0.436554 0.018036
0.038483 0.405975 0.046448
0.041473 0.407074 0.045990
0.045959 0.407562 0.045410
0.049438 0.408112 0.045074
0.053345 0.408539 0.044220
0.056854 0.408966 0.042999
0.059723 0.408997 0.042389
0.063385 0.408447 0.041473
0.067291 0.407623 0.040436
0.078735 0.410645 0.038177
0.104370 0.415131 0.032135
0.141479 0.418427 0.023560
0.194458 0.420166 0.015778
0.238007 0.424652 0.012390
0.280304 0.426208 0.012695
0.332214 0.425629 0.013245
0.393127 0.429230 0.014099
0.443207 0.436188 0.014679
0.489136 0.441589 0.015228
0.531616 0.444885 0.015717
0.570770 0.449036 0.016083
0.604492 0.453003 0.016479
0.638306 0.457001 0.016815
0.668823 0.460663 0.017151
0.698578 0.462463 0.017548
0.712616 0.461792 0.017761
0.718628 0.460327 0.017822
0.724396 0.459930 0.017914
0.730011 0.459534 0.017975
0.735626 0.459106 0.018005
0.741180 0.459839 0.018097
0.746643 0.460541 0.018188
0.042206 0.433502 0.047791
0.045349 0.434601 0.047455
0.048523 0.435516 0.047211
0.053009 0.435760 0.045929
0.056488 0.436554 0.045074
0.058960 0.437469 0.044220
0.062317 0.437744 0.043640
0.065186 0.437714 0.042603
0.068512 0.437469 0.042267
0.074127 0.437378 0.041046
0.100067 0.443054 0.034943
0.133759 0.447052 0.025208
0.187347 0.449036 0.016815
0.232178 0.452362 0.013062
0.273468 0.454285 0.013123
0.319946 0.453094 0.013519
0.377441 0.453491 0.014160
0.430084 0.460632 0.014923
0.475250 0.465851 0.015442
0.517578 0.469330 0.015869
0.554932 0.470520 0.016174
0.591980 0.476196 0.016632
0.625824 0.480377 0.017029
0.656891 0.484009 0.017303
0.687256 0.486450 0.017670
0.708069 0.486755 0.017914
0.714020 0.485168 0.018005
0.719788 0.484772 0.018066
0.725647 0.484406 0.018127
0.731354 0.484131 0.018188
0.736969 0.484894 0.018311
0.742523 0.485718 0.018402
0.044495 0.461700 0.048981
0.047577 0.463074 0.048340
0.050903 0.464233 0.047150
0.054810 0.464752 0.046204
0.057770 0.465729 0.045807
0.061707 0.466095 0.044678
0.064636 0.467010 0.043854
0.067444 0.467377 0.042480
0.071442 0.466339 0.042389
0.074738 0.465668 0.041901
0.093353 0.469147 0.037659
0.129852 0.473846 0.026825
0.179047 0.477051 0.017426
0.225098 0.479126 0.013733
0.265808 0.479797 0.013550
0.312408 0.478363 0.013885
0.362457 0.476532 0.014282
0.418274 0.485382 0.015167
0.467224 0.493896 0.015839
0.509033 0.496918 0.016266
0.544434 0.497070 0.016479
0.576965 0.497620 0.016754
0.613831 0.504211 0.017242
0.645172 0.508240 0.017548
0.675781 0.511047 0.017822
0.701019 0.511871 0.018066
0.709534 0.509979 0.018127
0.715240 0.509430 0.018219
0.720886 0.509216 0.018250
0.726837 0.508942 0.018372
0.732391 0.509735 0.018433
0.737976 0.510620 0.018524
0.046906 0.491516 0.049561
0.050964 0.492188 0.048676
0.053986 0.493164 0.047760
0.057678 0.494049 0.046478
0.061218 0.495056 0.045135
0.063812 0.496155 0.044373
0.067780 0.496307 0.043518
0.070679 0.496399 0.043121
0.073944 0.495850 0.041931
0.077850 0.494812 0.040924
0.081665 0.493958 0.039856
0.120300 0.499786 0.029633
0.169800 0.504150 0.019043
0.217590 0.505524 0.014435
0.256317 0.505432 0.013947
0.305420 0.503845 0.014313
0.351349 0.503662 0.014648
0.403931 0.510284 0.015350
0.457031 0.520721 0.016144
0.499359 0.525421 0.016663
0.534851 0.525696 0.016907
0.568329 0.525360 0.017120
0.598328 0.525574 0.017334
0.633881 0.532654 0.017761
0.665070 0.536377 0.018066
0.693970 0.537842 0.018311
0.705383 0.536041 0.018402
0.711273 0.535065 0.018402
0.716675 0.534271 0.018433
0.722229 0.533478 0.018494
0.727539 0.533875 0.018585
0.733063 0.534576 0.018677
0.050842 0.521576 0.050537
0.053833 0.522491 0.049591
0.057465 0.523438 0.048279
0.060699 0.524353 0.047211
0.063416 0.525238 0.046112
0.067169 0.525421 0.044434
0.070160 0.525757 0.042877
0.073334 0.525574 0.041840
0.077209 0.524689 0.040802
0.080688 0.523895 0.039795
0.084656 0.522705 0.038635
0.115784 0.526123 0.031952
0.162262 0.530151 0.020020
0.207855 0.531464 0.015167
0.246490 0.531219 0.014740
0.298126 0.529755 0.014801
0.344788 0.528931 0.015228
0.388397 0.534851 0.015533
0.442871 0.544891 0.016357
0.488068 0.552521 0.016937
0.525513 0.554443 0.017242
0.558716 0.554565 0.017487
0.590698 0.554108 0.017792
0.619507 0.554016 0.017914
0.654633 0.561005 0.018372
0.685089 0.563049 0.018616
0.700043 0.561523 0.018677
0.707733 0.559784 0.018646
0.712830 0.558594 0.018646
0.718048 0.557587 0.018677
0.723297 0.557861 0.018707
0.728607 0.558289 0.018829
0.054443 0.552612 0.053223
0.056732 0.553406 0.051849
0.060303 0.553711 0.049896
0.063507 0.554108 0.048615
0.067352 0.554138 0.046631
0.069641 0.554718 0.044708
0.073273 0.554810 0.042969
0.077057 0.554321 0.040985
0.080231 0.553833 0.040009
0.084076 0.552460 0.038788
0.086426 0.551849 0.037811
0.107422 0.552429 0.034973
0.156586 0.557678 0.021179
0.200073 0.558960 0.015869
0.239685 0.558746 0.015411
0.289459 0.556732 0.015472
0.337555 0.555420 0.015717
0.380737 0.559265 0.016022
0.426605 0.568207 0.016418
0.474945 0.576691 0.017059
0.513458 0.581329 0.017487
0.547943 0.582977 0.017761
0.579529 0.582611 0.018036
0.610840 0.581940 0.018311
0.640564 0.581421 0.018463
0.674561 0.587463 0.018890
0.694336 0.587311 0.018951
0.705017 0.585388 0.018951
0.709930 0.584137 0.018951
0.714935 0.582764 0.018951
0.719757 0.582703 0.018951
0.724731 0.582703 0.018982
0.054962 0.565918 0.054169
0.058228 0.567139 0.052399
0.062103 0.568024 0.050568
0.065674 0.569153 0.048767
0.068695 0.570526 0.046783
0.072144 0.571594 0.044830
0.074890 0.573090 0.043030
0.079315 0.573608 0.040924
0.084351 0.574341 0.038696
0.088013 0.574707 0.037598
0.091217 0.575256 0.036926
0.101013 0.575592 0.035004
0.145111 0.581390 0.023163
0.194092 0.585327 0.016754
0.236420 0.585693 0.016266
0.284027 0.584625 0.016296
0.332520 0.583679 0.016418
0.372681 0.584717 0.016510
0.413239 0.590729 0.016724
0.458374 0.598511 0.017120
0.498810 0.604675 0.017578
0.534637 0.608459 0.017914
0.567169 0.609741 0.018250
0.598785 0.609436 0.018555
0.630981 0.608643 0.018799
0.660950 0.608551 0.018982
0.687622 0.612366 0.019226
0.702271 0.611511 0.019257
0.707306 0.610168 0.019257
0.712311 0.608795 0.019257
0.717163 0.608643 0.019257
0.722046 0.608612 0.019257
0.056183 0.572601 0.054413
0.058990 0.574097 0.052612
0.062622 0.575134 0.050934
0.066162 0.576233 0.049103
0.068909 0.577789 0.047211
0.071777 0.579193 0.045410
0.075439 0.580261 0.043365
0.079895 0.581299 0.041016
0.086029 0.582581 0.038574
0.090637 0.584045 0.036774
0.095520 0.584808 0.035522
0.104401 0.586029 0.034149
0.131439 0.589966 0.026947
0.182037 0.596100 0.017151
0.225677 0.597992 0.016724
0.270660 0.597809 0.016602
0.321716 0.597687 0.016754
0.363800 0.598511 0.016846
0.403625 0.604187 0.016998
0.441376 0.611450 0.017120
0.484802 0.619324 0.017548
0.521362 0.625031 0.017944
0.555298 0.628937 0.018341
0.587585 0.630920 0.018677
0.618591 0.631927 0.018951
0.650635 0.632202 0.019226
0.678162 0.633728 0.019379
0.699005 0.636444 0.019531
0.704437 0.636475 0.019562
0.709839 0.636322 0.019623
0.714630 0.636444 0.019623
0.719604 0.636444 0.019623
0.057373 0.579132 0.054657
0.060150 0.580658 0.052887
0.062805 0.582153 0.051483
0.066528 0.583221 0.049347
0.069550 0.584656 0.047272
0.072998 0.585785 0.045288
0.075806 0.587219 0.043579
0.079620 0.588623 0.041687
0.086578 0.589600 0.038940
0.092468 0.590942 0.036621
0.098145 0.591980 0.034393
0.107178 0.593536 0.032959
0.127930 0.596741 0.027283
0.172638 0.602600 0.017365
0.217987 0.605957 0.017120
0.261108 0.606995 0.016907
0.311615 0.607422 0.016998
