滤镜资源/Professional Luts Collection/Triune-Digital-Cinematic-LUTs/3D LUTs (CUBE)/LOG/Indiana Jones - LOG.cube
#Created by Benjamin (IWLTBAP) : http://luts.iwltbap.com
#Copyright: (C) Copyright 2016 Triune Films and IWLTBAP
TITLE "Blockbuster LUTs Pack (LOG)"
#LUT size
LUT_3D_SIZE 5
#LUT data points
DOMAIN_MIN 0.000000 0.000000 0.000000
DOMAIN_MAX 0.903226 0.903226 0.903226
0.007416 0.011292 0.008881
0.181030 0.029327 0.019257
0.538147 0.077148 0.039642
0.759338 0.104706 0.053406
0.794495 0.107697 0.056519
0.011383 0.103363 0.016602
0.098053 0.108887 0.010681
0.440918 0.148529 0.035645
0.743225 0.193970 0.052948
0.792511 0.171600 0.054840
0.023346 0.267151 0.032990
0.058594 0.270996 0.030884
0.370972 0.310364 0.024414
0.657227 0.338867 0.028381
0.745483 0.342346 0.032135
0.044495 0.461700 0.048981
0.067444 0.467377 0.042480
0.265808 0.479797 0.013550
0.576965 0.497620 0.016754
0.720886 0.509216 0.018250
0.057770 0.586090 0.054901
0.081360 0.595428 0.041077
0.212097 0.612000 0.017303
0.502869 0.640045 0.017914
0.698792 0.666260 0.019867
0.025116 0.024292 0.131378
0.138397 0.022827 0.124695
0.503357 0.062439 0.149811
0.731049 0.090332 0.160797
0.767456 0.094818 0.147827
0.017792 0.105164 0.099121
0.125732 0.135254 0.124176
0.542633 0.198853 0.148071
0.783844 0.203766 0.126465
0.820221 0.182190 0.115204
0.023804 0.263367 0.075867
0.059418 0.280212 0.066559
0.383728 0.306854 0.047699
0.670929 0.342560 0.056213
0.765747 0.348785 0.063141
0.045197 0.457977 0.079651
0.069855 0.473206 0.071899
0.281219 0.479797 0.026550
0.590790 0.507965 0.025238
0.733765 0.513031 0.026611
0.058258 0.585052 0.086487
0.105682 0.609680 0.065460
0.238403 0.625031 0.030670
0.511322 0.646759 0.025970
0.709473 0.677307 0.028015
0.051208 0.032837 0.294556
0.129181 0.034119 0.315948
0.444244 0.042633 0.309357
0.667572 0.068298 0.318237
0.697632 0.071106 0.310120
0.059235 0.135162 0.302826
0.143677 0.180908 0.410217
0.497345 0.118164 0.339111
0.743622 0.136749 0.341339
0.763916 0.123749 0.318604
0.063019 0.282837 0.293762
0.087158 0.295929 0.307556
0.465027 0.450287 0.416504
0.778870 0.488281 0.402252
0.862976 0.473969 0.359985
0.067047 0.470734 0.265991
0.087372 0.479401 0.266083
0.292816 0.568207 0.247314
0.615784 0.548920 0.128906
0.775726 0.552277 0.125793
0.057922 0.566772 0.179840
0.086090 0.600983 0.164642
0.246887 0.648132 0.112732
0.526062 0.656555 0.038757
0.720642 0.687683 0.036163
0.068665 0.029175 0.390594
0.133575 0.030640 0.399628
0.459808 0.048706 0.495483
0.685211 0.067230 0.496887
0.709106 0.067932 0.496185
0.088898 0.141235 0.457031
0.158112 0.164917 0.549988
0.407257 0.102234 0.508820
0.684845 0.103912 0.494598
0.712891 0.093079 0.484741
0.105591 0.314636 0.497589
0.127197 0.332489 0.515167
0.412720 0.493439 0.670349
0.788849 0.428925 0.617706
0.877686 0.442078 0.605347
0.116119 0.494110 0.502899
0.135651 0.503082 0.511261
0.255310 0.589569 0.568848
0.727173 0.718567 0.647003
0.904388 0.726776 0.627136
0.124817 0.631012 0.505585
0.145203 0.649475 0.515564
0.189087 0.711548 0.534790
0.591827 0.853943 0.606323
0.837128 0.831970 0.454895
0.072723 0.027527 0.411285
0.132599 0.030243 0.417908
0.436371 0.048248 0.518005
0.687683 0.067078 0.523529
0.712494 0.067291 0.524109
0.090607 0.132660 0.472504
0.158051 0.157013 0.566650
0.381958 0.102020 0.538361
0.688660 0.100494 0.531525
0.717773 0.092651 0.527771
0.116272 0.323944 0.550751
0.139709 0.341553 0.573914
0.376678 0.503662 0.741516
0.782928 0.365753 0.691742
0.861572 0.369690 0.685699
0.134399 0.499390 0.598236
0.154541 0.510925 0.613739
0.257965 0.608826 0.708344
0.736816 0.757874 0.808044
0.916626 0.745667 0.801910
0.152588 0.642273 0.643585
0.172974 0.657593 0.657867
0.212067 0.697479 0.689087
0.550598 0.865875 0.802856
0.947754 0.939270 0.848694
