滤镜资源/Professional Luts Collection/Triune-Digital-Cinematic-LUTs/3D LUTs (CUBE)/LOG/Indiana Jones - LOG.cube
#Created by Benjamin (IWLTBAP) : http://luts.iwltbap.com
#Copyright: (C) Copyright 2016 Triune Films and IWLTBAP
TITLE "Blockbuster LUTs Pack (LOG)"
#LUT size
LUT_3D_SIZE 8
#LUT data points
DOMAIN_MIN 0.000000 0.000000 0.000000
DOMAIN_MAX 0.903226 0.903226 0.903226
0.007416 0.011292 0.008881
0.065857 0.018066 0.012238
0.233398 0.035889 0.024017
0.444305 0.063995 0.031219
0.627258 0.088196 0.045807
0.750000 0.103851 0.052216
0.775269 0.106171 0.055786
0.794495 0.107697 0.056519
0.010071 0.053131 0.012848
0.044952 0.053711 0.012085
0.181427 0.063965 0.018219
0.389160 0.086548 0.031799
0.592438 0.105225 0.043091
0.744415 0.123444 0.050964
0.777832 0.127869 0.055206
0.798981 0.130585 0.057831
0.010437 0.122528 0.017883
0.023865 0.121368 0.017303
0.123901 0.132202 0.012756
0.325989 0.153595 0.025970
0.524170 0.185730 0.039215
0.694122 0.216248 0.049561
0.757690 0.212280 0.051666
0.782013 0.208832 0.053528
0.019226 0.216766 0.028198
0.034363 0.217010 0.027100
0.090607 0.226318 0.023499
0.268890 0.242493 0.023102
0.481598 0.265625 0.029602
0.642120 0.290039 0.032166
0.730560 0.300446 0.037781
0.754669 0.300873 0.038513
0.027649 0.322449 0.043182
0.043610 0.324615 0.040497
0.069244 0.325623 0.034393
0.213745 0.337463 0.016754
0.444458 0.363434 0.021484
0.603455 0.377960 0.022766
0.717316 0.391144 0.023071
0.739990 0.388031 0.024597
0.042206 0.433502 0.047791
0.056488 0.436554 0.045074
0.068512 0.437469 0.042267
0.187347 0.449036 0.016815
0.377441 0.453491 0.014160
0.554932 0.470520 0.016174
0.687256 0.486450 0.017670
0.725647 0.484406 0.018127
0.054443 0.552612 0.053223
0.067352 0.554138 0.046631
0.080231 0.553833 0.040009
0.156586 0.557678 0.021179
0.337555 0.555420 0.015717
0.513458 0.581329 0.017487
0.640564 0.581421 0.018463
0.709930 0.584137 0.018951
0.057770 0.586090 0.054901
0.070587 0.591705 0.047058
0.087097 0.596832 0.039093
0.123749 0.602722 0.028534
0.305115 0.613831 0.017181
0.462097 0.632568 0.017487
0.601837 0.655212 0.019073
0.698792 0.666260 0.019867
0.013031 0.015930 0.059967
0.060760 0.016602 0.058105
0.226929 0.035553 0.065552
0.442383 0.061737 0.070953
0.623108 0.082123 0.076935
0.747375 0.100250 0.077423
0.771851 0.102966 0.080414
0.788330 0.104492 0.080414
0.011749 0.052582 0.045776
0.050201 0.057770 0.048676
0.228088 0.075531 0.056122
0.446198 0.097961 0.059875
0.619110 0.109558 0.066376
0.754730 0.127228 0.072296
0.787689 0.131927 0.076416
0.805389 0.134155 0.078644
0.013367 0.120819 0.032593
0.025848 0.124390 0.031799
0.129791 0.133789 0.024292
0.347931 0.159912 0.041107
0.544525 0.194885 0.057953
0.708923 0.221588 0.068146
0.770874 0.212433 0.072540
0.794312 0.208801 0.073822
0.020538 0.215179 0.042725
0.035339 0.221375 0.042297
0.092102 0.229065 0.036621
0.280853 0.243469 0.034851
0.494049 0.269135 0.044556
0.652130 0.294220 0.048218
0.740295 0.303864 0.055084
0.766571 0.304840 0.057648
0.028809 0.321106 0.058228
0.046448 0.330139 0.056061
0.070648 0.329926 0.050476
0.223389 0.340363 0.029480
0.454132 0.366028 0.034119
0.611420 0.382355 0.035492
0.728058 0.394836 0.038239
0.749512 0.391937 0.039795
0.041351 0.432678 0.065735
0.056854 0.440918 0.061188
0.071533 0.441101 0.058136
0.196136 0.448456 0.029541
0.391052 0.457947 0.020416
0.563599 0.477386 0.021057
0.693146 0.489014 0.022339
0.733459 0.487213 0.022949
0.054138 0.550537 0.071228
0.071228 0.561340 0.061523
0.090576 0.560577 0.055023
0.168243 0.563263 0.036255
0.347443 0.559479 0.020630
0.520111 0.583588 0.022095
0.646362 0.585205 0.023193
0.716400 0.585785 0.023560
0.057587 0.585571 0.073761
0.074738 0.599457 0.062408
0.103180 0.604675 0.052948
0.143127 0.610413 0.043213
0.317108 0.620300 0.022034
0.466248 0.637238 0.022095
0.608276 0.658936 0.023682
0.705017 0.672699 0.024506
0.025940 0.026917 0.157898
0.065765 0.024536 0.157104
0.172577 0.024384 0.146118
0.379791 0.043488 0.161346
0.583252 0.069580 0.171936
0.706818 0.085693 0.181885
0.734894 0.088226 0.177765
0.758148 0.090790 0.175568
0.027283 0.067200 0.140411
0.059296 0.075073 0.167358
0.191040 0.057709 0.155914
0.416107 0.078644 0.168488
0.605713 0.095764 0.175018
0.740753 0.111450 0.186615
0.769745 0.114746 0.171844
0.789398 0.117798 0.165894
0.021576 0.125275 0.119080
0.035919 0.128052 0.122040
0.162476 0.176483 0.166687
0.433411 0.217041 0.178101
0.619446 0.246368 0.182404
0.755707 0.239502 0.157074
0.807861 0.232605 0.146179
0.826965 0.228088 0.144531
0.024872 0.213745 0.110809
0.040222 0.218903 0.113068
0.100372 0.254089 0.113525
0.304382 0.255768 0.079498
0.518524 0.289062 0.084473
0.670349 0.311066 0.082550
0.754761 0.309418 0.076416
0.779205 0.310425 0.076202
0.029053 0.319550 0.093842
0.045715 0.329987 0.092072
0.073547 0.339417 0.076874
0.231506 0.341644 0.043121
0.461548 0.365082 0.047791
0.617889 0.384613 0.049500
0.737335 0.398743 0.054779
0.758942 0.396454 0.056763
0.041962 0.430054 0.082001
0.057190 0.438263 0.079010
0.073212 0.444458 0.073883
0.203003 0.449554 0.043823
0.401337 0.460236 0.032959
0.569946 0.480927 0.032623
0.699432 0.491394 0.030579
0.742249 0.489136 0.034576
0.054382 0.546753 0.088593
0.069855 0.557068 0.081268
0.097900 0.564209 0.071869
0.176361 0.566437 0.053253
0.356873 0.563232 0.025421
0.526184 0.584991 0.026703
0.651825 0.587372 0.027832
0.723358 0.587830 0.028198
0.057953 0.585144 0.090637
0.074127 0.598602 0.081909
0.118042 0.612305 0.069183
0.159668 0.617706 0.059723
0.330170 0.625702 0.026886
0.471710 0.641327 0.026733
0.614075 0.663879 0.028351
0.711090 0.678833 0.029175
0.040863 0.032532 0.253235
0.075287 0.026001 0.248657
0.156982 0.029816 0.258270
0.333008 0.030518 0.241974
0.550812 0.059082 0.266754
0.669556 0.071381 0.270203
0.683044 0.070496 0.258331
0.704224 0.073059 0.255829
0.043610 0.075317 0.250549
0.080566 0.083862 0.291809
0.155212 0.060791 0.278259
0.332825 0.047272 0.241516
0.554657 0.077393 0.265167
0.689514 0.093628 0.273560
0.717529 0.095825 0.264343
0.740265 0.098816 0.261597
0.044739 0.144440 0.239410
0.061005 0.155365 0.254974
0.153015 0.205872 0.340149
0.435974 0.182495 0.314972
0.624390 0.209686 0.319824
0.764801 0.196198 0.309326
0.813324 0.182129 0.295471
0.826996 0.171448 0.284424
0.046173 0.224976 0.229919
0.061981 0.232819 0.237610
0.111389 0.273376 0.276093
0.364532 0.360138 0.340851
0.596497 0.396881 0.335815
0.750275 0.406281 0.324371
0.833282 0.401093 0.292786
0.849731 0.391937 0.282837
0.055115 0.334503 0.232819
0.069550 0.343475 0.239044
0.087921 0.352295 0.243744
0.268005 0.433044 0.257263
0.482300 0.413269 0.166382
0.647522 0.443115 0.180450
0.772430 0.447906 0.156769
0.798218 0.444092 0.152832
0.050598 0.422943 0.188843
0.063721 0.429779 0.187073
0.077454 0.441589 0.177917
0.196014 0.487762 0.147125
0.413025 0.471527 0.090607
0.587433 0.490173 0.084442
0.715424 0.506348 0.076965
0.760986 0.500092 0.073730
0.053192 0.536346 0.145966
0.069885 0.549316 0.138702
0.084320 0.556244 0.128357
0.193817 0.574493 0.093933
0.370300 0.568665 0.049438
0.532166 0.584259 0.033020
0.655182 0.586548 0.032410
0.731293 0.589325 0.032867
0.058685 0.583130 0.119324
0.073242 0.596741 0.112915
0.101044 0.610840 0.097687
0.165192 0.622772 0.080139
0.338898 0.629669 0.036469
0.477356 0.644745 0.031342
0.618408 0.669739 0.032990
0.717438 0.684723 0.033813
0.059814 0.033295 0.336578
0.085114 0.031128 0.327332
0.150940 0.037415 0.371155
0.348602 0.041229 0.387787
0.559418 0.060028 0.376129
0.660797 0.069031 0.374969
0.679932 0.069702 0.367065
0.696259 0.070404 0.364258
0.064789 0.078827 0.347504
0.092163 0.081757 0.377228
0.143311 0.059418 0.368713
0.319092 0.054565 0.375000
0.537567 0.070465 0.364044
0.660553 0.084351 0.368011
0.691437 0.086761 0.363403
0.711060 0.089020 0.362183
0.068695 0.158875 0.353790
0.084991 0.170715 0.371796
0.171234 0.220612 0.481964
0.380035 0.148529 0.441742
0.585144 0.141357 0.393799
0.723145 0.151367 0.400085
0.767395 0.145844 0.391846
0.782471 0.143799 0.384979
0.072937 0.243195 0.354340
0.087402 0.252258 0.366241
0.135315 0.303253 0.414886
0.346710 0.396820 0.502472
0.604645 0.366333 0.475098
0.765930 0.393616 0.473297
0.855804 0.398773 0.456512
0.870361 0.389099 0.447266
0.077271 0.341309 0.353241
0.090027 0.348572 0.360199
0.105042 0.357025 0.367432
0.237976 0.450043 0.435455
0.549438 0.531281 0.488861
0.731232 0.559204 0.482727
0.855469 0.557587 0.451782
0.875366 0.551270 0.443665
0.085205 0.455078 0.361908
0.097626 0.464508 0.368225
0.110443 0.472015 0.371613
0.180969 0.532684 0.399231
0.425018 0.613525 0.434235
0.633240 0.591919 0.333282
0.780762 0.602722 0.317902
0.824005 0.589752 0.289612
0.085449 0.562622 0.332855
0.098358 0.572784 0.335419
0.108765 0.576843 0.330566
0.132721 0.594208 0.322144
0.336121 0.678436 0.333740
0.527313 0.642242 0.165680
0.693176 0.649292 0.158752
0.779541 0.647461 0.155731
0.070984 0.571014 0.265564
0.085571 0.587219 0.270630
0.098480 0.605927 0.263000
0.110748 0.625854 0.244537
0.289520 0.703766 0.234070
0.491058 0.675232 0.098114
0.631836 0.695709 0.062469
0.744293 0.714172 0.054077
0.068390 0.029388 0.388062
0.090088 0.028046 0.381042
0.152466 0.033081 0.416565
0.312164 0.048248 0.479156
0.575836 0.059570 0.492462
0.673309 0.067383 0.484253
0.692566 0.068024 0.476898
0.706390 0.068359 0.474854
0.074249 0.069550 0.408234
0.095367 0.070129 0.425140
0.145142 0.052826 0.420929
0.280457 0.062531 0.471344
0.560394 0.072845 0.487732
0.667450 0.081146 0.478546
0.693237 0.082123 0.470459
0.708008 0.082642 0.468628
0.091461 0.167511 0.460266
0.104797 0.176514 0.473022
0.179321 0.209290 0.578461
0.303680 0.139221 0.527893
0.551727 0.122711 0.497711
0.674896 0.125275 0.475739
0.722839 0.119812 0.472626
0.739838 0.117828 0.471191
0.097504 0.263519 0.469269
0.110474 0.275146 0.480957
0.155609 0.322479 0.532715
0.318848 0.409973 0.636749
0.582916 0.308685 0.602295
0.747162 0.297424 0.559845
0.834656 0.309143 0.553467
0.852997 0.314850 0.552155
0.102051 0.357208 0.467804
0.114075 0.365479 0.475922
0.126831 0.373444 0.485016
0.240784 0.477051 0.570129
0.522125 0.560883 0.633942
0.739258 0.543762 0.613037
0.872833 0.553772 0.599792
0.892487 0.547668 0.587555
0.108490 0.463501 0.473572
0.119873 0.469482 0.479889
0.131226 0.473541 0.483337
0.186890 0.519135 0.517365
0.428101 0.625092 0.580505
0.689209 0.679962 0.616852
0.856201 0.696167 0.603577
0.899170 0.691132 0.590210
0.119568 0.586792 0.489349
0.130554 0.592468 0.494476
0.141907 0.597534 0.497284
0.166107 0.621094 0.510925
0.303375 0.713257 0.554749
0.611725 0.772064 0.579041
0.767487 0.751740 0.490295
0.858032 0.745819 0.466827
0.117493 0.624664 0.472107
0.129456 0.637817 0.478577
0.141052 0.652039 0.482758
0.152802 0.668854 0.482788
0.238556 0.759308 0.509460
0.513702 0.832581 0.555786
0.692871 0.808014 0.401154
0.815948 0.808289 0.369598
0.069977 0.028198 0.398926
0.089600 0.026337 0.391357
0.150726 0.032196 0.423950
0.289246 0.047852 0.489410
0.564789 0.058228 0.509308
0.675262 0.066650 0.509583
0.696808 0.067230 0.509277
0.710938 0.067657 0.509735
0.075684 0.063568 0.417480
0.095825 0.066101 0.440216
0.144043 0.049469 0.431946
0.255371 0.061890 0.483978
0.545288 0.070801 0.509033
0.669312 0.080414 0.510254
0.698181 0.081116 0.510651
0.712433 0.081818 0.510925
0.094177 0.162262 0.477234
0.107635 0.169830 0.490753
0.178162 0.204346 0.595581
0.272217 0.135590 0.550293
0.526154 0.116272 0.530945
0.675598 0.121368 0.524414
0.715515 0.112793 0.522949
0.733063 0.110413 0.525879
0.106018 0.267670 0.512360
0.118591 0.278381 0.526520
0.159393 0.316498 0.575623
0.290405 0.405487 0.698853
0.554993 0.263641 0.666016
0.730804 0.225342 0.607544
0.802246 0.232025 0.608459
0.822968 0.238800 0.613953
0.118134 0.372406 0.546570
0.131409 0.382904 0.559265
0.145203 0.392761 0.573578
0.240143 0.486359 0.673462
0.492249 0.576630 0.742401
0.721680 0.513702 0.731445
0.867126 0.513123 0.705444
0.888733 0.520782 0.704071
0.127747 0.470886 0.571411
0.139404 0.478088 0.580750
0.150818 0.483032 0.587524
0.207855 0.539734 0.642670
0.388306 0.640930 0.714905
0.690491 0.713135 0.757294
0.862091 0.701172 0.739777
0.911377 0.704773 0.736206
0.138428 0.587341 0.591492
0.149261 0.592133 0.596252
0.159760 0.594757 0.598999
0.180969 0.605682 0.608002
0.308746 0.699097 0.665375
0.582916 0.778412 0.715698
0.839966 0.830658 0.743683
0.925262 0.826050 0.737915
0.141907 0.640839 0.591919
0.153107 0.648804 0.596924
0.164825 0.659943 0.602356
0.177246 0.673889 0.606720
0.253448 0.760010 0.654938
0.488800 0.847687 0.695862
0.787231 0.901398 0.727386
0.895142 0.887360 0.657684
0.072723 0.027527 0.411285
0.090454 0.025787 0.403900
0.150604 0.031738 0.434296
0.274292 0.047791 0.500549
0.561768 0.057617 0.522766
0.674988 0.066650 0.523346
0.698029 0.067230 0.523560
0.712494 0.067291 0.524109
0.078278 0.061768 0.430115
0.098633 0.066772 0.456848
0.146210 0.051849 0.449524
0.252686 0.062531 0.500916
0.540497 0.069916 0.522705
0.669098 0.080292 0.523956
0.699554 0.081268 0.524567
0.714600 0.081787 0.525452
0.095703 0.157928 0.487122
0.109558 0.168671 0.504211
0.180267 0.202637 0.611420
0.267822 0.134552 0.565063
0.518158 0.114502 0.547546
0.678314 0.120880 0.541229
0.722260 0.113464 0.541016
0.733673 0.108551 0.539124
0.109222 0.268402 0.528625
0.122253 0.280548 0.543945
0.162720 0.319824 0.594238
0.292847 0.413574 0.717682
0.544159 0.283752 0.687988
0.735504 0.234589 0.634308
0.808533 0.240356 0.630249
0.820862 0.235901 0.628479
0.123291 0.376892 0.567719
0.136078 0.387054 0.579865
0.149536 0.396362 0.593872
0.241791 0.489105 0.693390
0.485138 0.583618 0.762177
0.718658 0.520111 0.751251
0.870422 0.523102 0.734650
0.887970 0.508270 0.728210
0.132080 0.473114 0.591095
0.143188 0.480103 0.599915
0.155548 0.486694 0.610229
0.211090 0.541077 0.666718
0.381683 0.645325 0.749207
0.691620 0.725006 0.798889
0.865082 0.713318 0.792206
0.913422 0.709015 0.789948
0.144958 0.587341 0.624329
0.155884 0.591492 0.630768
0.167572 0.595673 0.638458
0.189514 0.608887 0.656097
0.300690 0.704437 0.732574
0.586548 0.789764 0.790466
0.857208 0.852264 0.832306
0.931915 0.840942 0.829590
0.152588 0.642273 0.643585
0.164032 0.650909 0.651855
0.176147 0.660370 0.660065
0.188385 0.671753 0.669342
0.263031 0.747864 0.725372
0.478973 0.848114 0.789276
0.782440 0.909454 0.828796
0.947754 0.939270 0.848694
