滤镜资源/Professional Luts Collection/Triune-Digital-Cinematic-LUTs/3D LUTs (CUBE)/LOG/Inglourious Basterds - LOG.cube
#Created by Benjamin (IWLTBAP) : http://luts.iwltbap.com
#Copyright: (C) Copyright 2016 Triune Films and IWLTBAP
TITLE "Blockbuster LUTs Pack (LOG)"
#LUT size
LUT_3D_SIZE 5
#LUT data points
DOMAIN_MIN 0.000000 0.000000 0.000000
DOMAIN_MAX 0.903226 0.903226 0.903226
0.010803 0.010284 0.010773
0.216980 0.035583 0.042389
0.566162 0.085205 0.101471
0.845276 0.142609 0.163483
0.893829 0.153107 0.173065
0.028107 0.159698 0.032410
0.144989 0.148132 0.024139
0.507751 0.176086 0.085724
0.851868 0.228790 0.164429
0.906189 0.220886 0.177551
0.037720 0.357941 0.053284
0.078796 0.351166 0.053619
0.461029 0.352570 0.075653
0.803253 0.401337 0.148682
0.918701 0.419250 0.175323
0.065186 0.564453 0.093079
0.096985 0.560120 0.092773
0.387238 0.586121 0.091858
0.741272 0.588165 0.137451
0.927612 0.617859 0.189636
0.096069 0.706055 0.130096
0.131744 0.712921 0.131348
0.295044 0.758850 0.133942
0.661102 0.815033 0.158386
0.933228 0.821686 0.205505
0.021637 0.032135 0.196564
0.162445 0.033478 0.184296
0.521393 0.081726 0.218658
0.842194 0.144409 0.254089
0.893372 0.154633 0.251770
0.025391 0.156494 0.160767
0.125580 0.161682 0.165710
0.526947 0.193970 0.194275
0.861664 0.237976 0.230164
0.913300 0.226013 0.227325
0.039062 0.368134 0.131622
0.076782 0.356506 0.110901
0.459320 0.352783 0.110382
0.805023 0.408722 0.182922
0.922302 0.428497 0.211365
0.067535 0.570679 0.140259
0.099426 0.564880 0.136932
0.373871 0.588257 0.130066
0.742645 0.599213 0.174530
0.927795 0.625366 0.227112
0.099213 0.714600 0.173553
0.135651 0.719696 0.172119
0.277557 0.765137 0.172485
0.658600 0.820770 0.198212
0.934540 0.830994 0.243225
0.042572 0.085480 0.432739
0.155579 0.072510 0.418335
0.419373 0.073120 0.395172
0.793701 0.143494 0.441711
0.856720 0.162415 0.449554
0.042664 0.203094 0.408691
0.132538 0.211151 0.422882
0.421539 0.191467 0.392853
0.822601 0.255737 0.456451
0.889282 0.247986 0.454376
0.044952 0.368927 0.373993
0.075562 0.364136 0.369415
0.342682 0.412476 0.415619
0.813171 0.498810 0.480652
0.934143 0.500702 0.480316
0.100098 0.632660 0.405579
0.132874 0.630310 0.400696
0.272430 0.618835 0.343994
0.736725 0.634521 0.327972
0.933044 0.655640 0.355896
0.120209 0.757477 0.335236
0.149139 0.753906 0.311066
0.242767 0.765900 0.276428
0.654327 0.828461 0.259460
0.935760 0.838806 0.284363
0.066956 0.115173 0.609741
0.173523 0.108917 0.610992
0.376099 0.107300 0.620331
0.748199 0.158508 0.635895
0.816071 0.172363 0.654297
0.071198 0.245239 0.641449
0.165283 0.254547 0.672241
0.348633 0.212311 0.655457
0.746704 0.240112 0.649811
0.833008 0.226440 0.647369
0.084686 0.426453 0.656677
0.117096 0.425568 0.657043
0.359222 0.474640 0.714935
0.768158 0.509369 0.710510
0.919373 0.516205 0.730438
0.098083 0.608307 0.624664
0.131714 0.606842 0.623962
0.270386 0.625427 0.645142
0.722351 0.729187 0.704071
0.952942 0.740784 0.719879
0.147797 0.785858 0.636566
0.189697 0.798462 0.641479
0.271698 0.825836 0.649200
0.621460 0.904938 0.662964
0.951294 0.904053 0.594696
0.072723 0.123627 0.656616
0.176544 0.120178 0.658020
0.367188 0.116547 0.672913
0.736694 0.162598 0.676453
0.808807 0.182129 0.697784
0.081818 0.252655 0.689514
0.167938 0.261749 0.724518
0.349823 0.222168 0.711090
0.724915 0.242981 0.700073
0.819336 0.243073 0.719086
0.100342 0.446289 0.740814
0.134338 0.447937 0.750946
0.381714 0.491730 0.814331
0.729462 0.497833 0.802094
0.902100 0.507874 0.825012
0.124237 0.633820 0.779663
0.160614 0.635345 0.787201
0.316895 0.657410 0.821960
0.698914 0.745514 0.890137
0.941498 0.746429 0.893036
0.163300 0.788788 0.816986
0.200775 0.796570 0.823517
0.267883 0.810699 0.836212
0.547211 0.874146 0.887451
0.955444 0.945374 0.915955
