滤镜资源/Professional Luts Collection/Triune-Digital-Cinematic-LUTs/3D LUTs (CUBE)/LOG/Inglourious Basterds - LOG.cube
#Created by Benjamin (IWLTBAP) : http://luts.iwltbap.com
#Copyright: (C) Copyright 2016 Triune Films and IWLTBAP
TITLE "Blockbuster LUTs Pack (LOG)"
#LUT size
LUT_3D_SIZE 32
#LUT data points
0.010803 0.010284 0.010773
0.017670 0.010406 0.011505
0.037292 0.010834 0.013367
0.060272 0.011749 0.015778
0.088104 0.014038 0.019440
0.126007 0.019836 0.026489
0.168427 0.028107 0.035217
0.216980 0.035583 0.042389
0.267029 0.040466 0.047913
0.318024 0.047058 0.056396
0.368805 0.053772 0.065247
0.419159 0.061066 0.074188
0.468262 0.069183 0.082611
0.516479 0.077087 0.091553
0.566162 0.085205 0.101471
0.617767 0.094513 0.112793
0.673309 0.105011 0.125458
0.722961 0.115662 0.136871
0.767059 0.125305 0.146881
0.808044 0.134613 0.155731
0.832520 0.140015 0.160767
0.845276 0.142609 0.163483
0.852570 0.144073 0.165070
0.859528 0.145599 0.166412
0.866486 0.147217 0.167755
0.873322 0.148682 0.169128
0.880157 0.150146 0.170441
0.886963 0.151611 0.171722
0.893829 0.153107 0.173065
0.900665 0.154633 0.174591
0.907532 0.156250 0.176208
0.914093 0.157776 0.177582
0.011017 0.016022 0.011169
0.015625 0.015900 0.011108
0.032440 0.016205 0.012634
0.055206 0.017731 0.014954
0.082672 0.019806 0.018341
0.119537 0.025085 0.024963
0.161255 0.033112 0.033783
0.209991 0.040833 0.041595
0.259583 0.045685 0.047028
0.311035 0.051849 0.055176
0.361572 0.058411 0.063843
0.412354 0.065155 0.072845
0.462433 0.073242 0.081482
0.511475 0.081177 0.090576
0.560760 0.089233 0.100342
0.612457 0.098877 0.111572
0.668854 0.109528 0.124481
0.718933 0.120239 0.136078
0.764008 0.130341 0.146271
0.806061 0.140015 0.155487
0.832214 0.145874 0.160828
0.846710 0.148926 0.163788
0.853943 0.150421 0.165344
0.860962 0.152008 0.166748
0.867920 0.153473 0.168091
0.874817 0.154999 0.169525
0.881744 0.156494 0.170929
0.888519 0.157959 0.172241
0.895477 0.159454 0.173645
0.902344 0.161041 0.175232
0.909241 0.162598 0.176758
0.915833 0.164093 0.178192
0.012299 0.031830 0.012451
0.016632 0.030487 0.012329
0.026917 0.028931 0.011810
0.048920 0.029266 0.013428
0.076263 0.029572 0.016754
0.112427 0.032532 0.023193
0.154327 0.038391 0.032166
0.202576 0.045685 0.040649
0.251984 0.050812 0.046082
0.303772 0.056641 0.053833
0.354065 0.063354 0.062683
0.405243 0.069366 0.071594
0.455719 0.077271 0.080139
0.505981 0.085205 0.089569
0.554718 0.093811 0.099030
0.606354 0.103027 0.110107
0.663513 0.113892 0.123383
0.714569 0.124756 0.135254
0.760651 0.135315 0.145599
0.803314 0.145264 0.154968
0.831604 0.151794 0.160797
0.847900 0.155304 0.164154
0.855072 0.156891 0.165588
0.862091 0.158386 0.167023
0.869141 0.159698 0.168488
0.876099 0.161224 0.169983
0.883057 0.162811 0.171387
0.889923 0.164246 0.172729
0.896881 0.165771 0.174225
0.903748 0.167297 0.175812
0.910522 0.168823 0.177338
0.917145 0.170410 0.178833
0.014526 0.055084 0.015686
0.018799 0.053894 0.015625
0.025604 0.052307 0.015106
0.042755 0.049713 0.013916
0.065796 0.049316 0.014313
0.102173 0.050903 0.020325
0.144684 0.055023 0.029419
0.192169 0.059845 0.038605
0.241821 0.062988 0.044403
0.293732 0.065735 0.051666
0.343719 0.070251 0.061005
0.395172 0.073608 0.069794
0.446045 0.081085 0.078278
0.497314 0.089050 0.087921
0.545715 0.097870 0.097107
0.597229 0.106750 0.108032
0.654419 0.117737 0.121368
0.707275 0.128632 0.133789
0.754700 0.139648 0.144287
0.797699 0.149689 0.153778
0.830444 0.157715 0.160553
0.848999 0.161591 0.164398
0.856079 0.163208 0.165863
0.863037 0.164734 0.167267
0.870117 0.166077 0.168793
0.877197 0.167450 0.170349
0.884247 0.168976 0.171814
0.891235 0.170471 0.173187
0.898224 0.172058 0.174774
0.905121 0.173584 0.176392
0.911865 0.175110 0.177917
0.918488 0.176636 0.179413
0.017487 0.080566 0.020111
0.021912 0.079376 0.019836
0.026306 0.078186 0.019470
0.040588 0.076111 0.018188
0.060791 0.073792 0.016602
0.089874 0.072205 0.016663
0.133942 0.075745 0.026184
0.180847 0.080261 0.035919
0.230804 0.083954 0.042358
0.283020 0.086487 0.048462
0.333527 0.089905 0.057983
0.383087 0.092773 0.067017
0.435303 0.097076 0.076263
0.487762 0.102844 0.086029
0.537537 0.107727 0.095734
0.588715 0.111969 0.106262
0.645172 0.121979 0.119293
0.699310 0.132751 0.131989
0.748596 0.144104 0.143005
0.791626 0.154480 0.152557
0.826569 0.163727 0.159821
0.849976 0.167999 0.164734
0.857086 0.169586 0.166107
0.864044 0.171082 0.167572
0.871063 0.172485 0.169067
0.878174 0.173828 0.170654
0.885254 0.175140 0.172180
0.892426 0.176636 0.173706
0.899506 0.178314 0.175415
0.906494 0.179993 0.177032
0.913269 0.181610 0.178650
0.919952 0.183289 0.180115
0.020874 0.107117 0.024567
0.025452 0.105835 0.024200
0.029968 0.104675 0.023865
0.039062 0.102936 0.023163
0.058594 0.101013 0.021667
0.082855 0.097504 0.018402
0.122223 0.097809 0.021637
0.170715 0.101440 0.032654
0.222046 0.105499 0.040314
0.273346 0.108398 0.045990
0.324036 0.112091 0.055420
0.373566 0.115753 0.063721
0.423645 0.119385 0.072754
0.476654 0.125061 0.082397
0.528046 0.130524 0.092316
0.579865 0.136780 0.103485
0.636139 0.144226 0.117218
0.690308 0.151215 0.130371
0.741302 0.159760 0.141754
0.784912 0.167206 0.151337
0.823975 0.174072 0.159515
0.851166 0.175415 0.165192
0.858032 0.175751 0.166534
0.865082 0.177185 0.168030
0.872162 0.178619 0.169678
0.879303 0.180145 0.171265
0.886536 0.181519 0.172852
0.893768 0.182983 0.174469
0.900848 0.184753 0.176147
0.907867 0.186401 0.177795
0.914581 0.188049 0.179321
0.921265 0.189697 0.180878
0.024445 0.133301 0.028870
0.028931 0.132233 0.028473
0.033356 0.131348 0.028259
0.037628 0.129669 0.027924
0.055634 0.128265 0.027039
0.077820 0.126404 0.025208
0.112213 0.123291 0.021851
0.158691 0.124054 0.027985
0.212799 0.127808 0.037964
0.265228 0.130951 0.044006
0.315704 0.134552 0.052826
0.365387 0.138336 0.061066
0.414337 0.141998 0.069763
0.465912 0.147400 0.079163
0.518066 0.152618 0.088837
0.570679 0.159241 0.100403
0.627899 0.167419 0.114655
0.682007 0.176178 0.127411
0.733459 0.185455 0.138367
0.777924 0.192352 0.148407
0.819855 0.198120 0.157837
0.854004 0.199585 0.165833
0.861938 0.197327 0.167786
0.868591 0.194916 0.169525
0.875305 0.194000 0.171112
0.882355 0.194336 0.172668
0.889343 0.194702 0.174194
0.896118 0.195007 0.175751
0.903046 0.195374 0.177338
0.909790 0.195770 0.178864
0.916504 0.197327 0.180389
0.923218 0.198914 0.181946
0.028107 0.159698 0.032410
0.032532 0.158813 0.032104
0.036926 0.157990 0.032013
0.041138 0.156525 0.031799
0.052185 0.155396 0.031555
0.073120 0.154724 0.030884
0.103088 0.152985 0.028320
0.144989 0.148132 0.024139
0.201050 0.150818 0.034729
0.256592 0.153778 0.041962
0.308228 0.157593 0.050476
0.358246 0.161713 0.058838
0.406097 0.166077 0.066986
0.456024 0.170837 0.075958
0.507751 0.176086 0.085724
0.559326 0.182373 0.096710
0.615234 0.191040 0.110107
0.671539 0.200989 0.123413
0.723267 0.210846 0.134338
0.769135 0.218994 0.144501
0.813873 0.225159 0.155243
0.851868 0.228790 0.164429
0.863983 0.227203 0.167511
0.870972 0.224487 0.169403
0.877991 0.221771 0.171143
0.885162 0.221283 0.172852
0.892242 0.221039 0.174469
0.899292 0.221130 0.175995
0.906189 0.220886 0.177551
0.913055 0.220764 0.179199
0.919922 0.222656 0.180695
0.926697 0.224579 0.182190
0.029999 0.187866 0.036835
0.034760 0.187012 0.036621
0.039185 0.186310 0.036469
0.043427 0.184814 0.036346
0.047577 0.183319 0.036194
0.068848 0.183655 0.036377
0.092194 0.183563 0.034912
0.132507 0.180359 0.030334
0.184906 0.175720 0.030121
0.245941 0.177826 0.039703
0.299744 0.180969 0.047852
0.349976 0.185333 0.056305
0.398560 0.190216 0.064697
0.447968 0.194733 0.073456
0.498627 0.199677 0.082947
0.548981 0.205536 0.093689
0.603149 0.213684 0.106232
0.659698 0.223602 0.119446
0.712128 0.233795 0.130402
0.759613 0.242218 0.141174
0.805542 0.248810 0.152161
0.846863 0.254974 0.162109
0.865051 0.256134 0.166626
0.872345 0.254089 0.168488
0.879578 0.251862 0.170288
0.886902 0.252106 0.171967
0.894226 0.252533 0.173706
0.901276 0.252441 0.175323
0.908386 0.252533 0.177002
0.915436 0.252625 0.178711
0.922394 0.254364 0.180267
0.929321 0.256378 0.181824
0.030884 0.216492 0.040283
0.035767 0.215607 0.040039
0.040466 0.214935 0.040009
0.044769 0.213379 0.039795
0.049011 0.212036 0.039795
0.063812 0.211792 0.039948
0.085236 0.212463 0.038910
0.116669 0.213470 0.036041
0.167938 0.207306 0.031769
0.230652 0.203949 0.036438
0.289459 0.204346 0.044617
0.341888 0.209137 0.053711
0.390747 0.214508 0.062378
0.440338 0.219391 0.071228
0.490234 0.224091 0.080750
0.538940 0.229462 0.090637
0.590851 0.236298 0.102386
0.646973 0.246155 0.115387
0.700134 0.256104 0.126617
0.749664 0.265228 0.137726
0.797577 0.272736 0.149536
0.842865 0.280396 0.160431
0.865967 0.283997 0.165833
0.873260 0.282715 0.167603
0.880615 0.281128 0.169403
0.888000 0.281555 0.171112
0.895386 0.282135 0.172852
0.902832 0.282684 0.174652
0.910156 0.283203 0.176361
0.917419 0.283600 0.178131
0.924438 0.285370 0.179840
0.931366 0.287140 0.181488
0.031097 0.244659 0.042358
0.036072 0.243835 0.042206
0.040894 0.243256 0.042206
0.045410 0.242004 0.042236
0.049713 0.240631 0.042206
0.058807 0.239655 0.042328
0.079254 0.240540 0.041656
0.106628 0.242249 0.038910
0.147552 0.242096 0.037567
0.212646 0.234894 0.033813
0.276428 0.232178 0.041565
0.332703 0.233978 0.051147
0.384033 0.239471 0.060272
0.433563 0.244293 0.069427
0.482849 0.248840 0.078918
0.531281 0.254272 0.088806
0.581085 0.259766 0.099609
0.635712 0.268677 0.112061
0.690552 0.279297 0.123932
0.740967 0.288239 0.135010
0.788788 0.296265 0.146637
0.835388 0.304901 0.158051
0.868073 0.310822 0.165649
0.875153 0.309723 0.167328
0.882233 0.308136 0.169006
0.889587 0.308350 0.170715
0.897064 0.308929 0.172455
0.904480 0.309601 0.174225
0.911896 0.310455 0.175995
0.919128 0.311188 0.177673
0.926331 0.313171 0.179504
0.933533 0.315308 0.181244
0.032501 0.273376 0.043640
0.037506 0.272369 0.043549
0.042267 0.271606 0.043427
0.046722 0.270325 0.043335
0.050934 0.269012 0.043243
0.055237 0.267365 0.043304
0.073242 0.267639 0.042999
0.097839 0.270172 0.040894
0.131378 0.272552 0.040375
0.195557 0.268066 0.036438
0.262146 0.263092 0.038452
0.322052 0.260529 0.048370
0.376740 0.264771 0.058289
0.428314 0.269531 0.068176
0.476379 0.274353 0.077606
0.523956 0.279388 0.087372
0.573425 0.284149 0.097839
0.626526 0.292450 0.109406
0.680695 0.302612 0.121277
0.733063 0.311707 0.132721
0.781128 0.319733 0.144348
0.827515 0.328735 0.155670
0.866608 0.336914 0.164886
0.877808 0.337189 0.167511
0.884888 0.335999 0.169220
0.892120 0.335815 0.170898
0.899384 0.336639 0.172607
0.906799 0.337524 0.174347
0.914062 0.338257 0.176056
0.921234 0.339081 0.177734
0.928406 0.341125 0.179474
0.934998 0.343292 0.180969
0.032745 0.301697 0.045319
0.037750 0.300842 0.045166
0.042511 0.300171 0.045044
0.047150 0.299072 0.045074
0.051361 0.297699 0.044983
0.055695 0.296234 0.044952
0.067688 0.295532 0.045074
0.090149 0.297119 0.043610
0.119720 0.300751 0.043549
0.170288 0.301788 0.042755
0.247406 0.296753 0.039246
0.312622 0.290314 0.046509
0.368256 0.290741 0.056580
0.423950 0.295959 0.067657
0.472443 0.300537 0.077301
0.518738 0.304901 0.086609
0.566315 0.308899 0.096405
0.618683 0.316711 0.107361
0.673523 0.326538 0.119507
0.725464 0.335632 0.130829
0.773224 0.343628 0.142151
0.819672 0.352753 0.153320
0.864136 0.362274 0.163757
0.878723 0.363770 0.167236
0.887085 0.363159 0.169128
0.894196 0.362854 0.170807
0.901459 0.363495 0.172455
0.908661 0.364349 0.174164
0.915771 0.364990 0.175751
0.922791 0.365662 0.177338
0.929810 0.367706 0.179016
0.936035 0.369965 0.180389
0.034851 0.329926 0.048920
0.039612 0.329193 0.048859
0.044373 0.328461 0.048828
0.049011 0.327637 0.049042
0.053375 0.326630 0.049042
0.057587 0.325104 0.048950
0.062439 0.323547 0.048981
0.084351 0.324524 0.049042
0.112396 0.327820 0.047546
0.153076 0.331604 0.047760
0.227356 0.330444 0.044525
0.298279 0.324585 0.043579
0.359802 0.319550 0.055176
0.416016 0.321899 0.066132
0.468292 0.326935 0.076782
0.514130 0.330353 0.085907
0.561005 0.334015 0.095459
0.611755 0.340759 0.105957
0.665558 0.350372 0.117523
0.717682 0.359863 0.129028
0.765289 0.368134 0.140106
0.811798 0.376892 0.151062
0.856995 0.386780 0.161560
0.877960 0.390106 0.166595
0.888855 0.390411 0.169098
0.895935 0.389862 0.170715
0.903168 0.390747 0.172363
0.910187 0.391449 0.173950
0.917267 0.391968 0.175476
0.924255 0.392670 0.177094
0.930695 0.394684 0.178497
0.936981 0.396851 0.179901
0.037720 0.357941 0.053284
0.042480 0.357208 0.053192
0.047119 0.356506 0.053101
0.051636 0.355774 0.053223
0.056122 0.354858 0.053436
0.060272 0.353302 0.053284
0.064514 0.351715 0.053223
0.078796 0.351166 0.053619
0.106201 0.354156 0.051788
0.141663 0.358765 0.050842
0.201263 0.361206 0.050568
0.284607 0.358521 0.048218
0.348816 0.352417 0.053802
0.407379 0.349396 0.064697
0.461029 0.352570 0.075653
0.510315 0.356171 0.085388
0.556030 0.359772 0.094604
0.605164 0.365814 0.104645
0.657410 0.374512 0.115601
0.708893 0.384399 0.127106
0.756744 0.392883 0.137970
0.803253 0.401337 0.148682
0.847931 0.411255 0.159149
0.877075 0.417145 0.165863
0.890259 0.417908 0.168854
0.897339 0.417206 0.170532
0.904633 0.418030 0.172211
0.911713 0.418640 0.173798
0.918701 0.419250 0.175323
0.925385 0.419922 0.176880
0.931641 0.421875 0.178253
0.937866 0.424103 0.179749
0.040924 0.386108 0.058197
0.045654 0.385468 0.058167
0.050201 0.384766 0.058075
0.054535 0.384033 0.058136
0.058990 0.383240 0.058228
0.063446 0.381744 0.058167
0.067596 0.380127 0.057922
0.071747 0.378387 0.057678
0.100037 0.381012 0.056305
0.132263 0.385620 0.055695
0.181580 0.390228 0.055023
0.262634 0.391327 0.054016
0.332275 0.387207 0.053711
0.396118 0.379852 0.063049
0.450714 0.378357 0.073395
0.502533 0.381500 0.083740
0.551239 0.385834 0.093597
0.599121 0.391510 0.103516
0.649994 0.399475 0.114197
0.700287 0.408966 0.125458
0.747803 0.417603 0.136017
0.794861 0.426544 0.146667
0.839417 0.436493 0.157074
0.872955 0.443848 0.164795
0.891846 0.446411 0.169037
0.898956 0.445343 0.170685
0.906250 0.446014 0.172333
0.913330 0.446625 0.174011
0.920349 0.447266 0.175629
0.926544 0.447754 0.177094
0.932709 0.449554 0.178558
0.938995 0.451630 0.180328
0.044281 0.414612 0.063263
0.048859 0.414093 0.063232
0.053253 0.413452 0.063110
0.057739 0.412750 0.063232
0.062103 0.411987 0.063263
0.066589 0.410675 0.063171
0.070984 0.409241 0.063019
0.075134 0.407501 0.062653
0.093903 0.407990 0.062378
0.124481 0.412292 0.060669
0.165375 0.418213 0.059845
0.237976 0.421082 0.059174
0.316925 0.421814 0.060059
0.381195 0.415375 0.061920
0.440063 0.406921 0.071167
0.492279 0.407318 0.081299
0.543396 0.411591 0.091675
0.593018 0.417328 0.102173
0.642548 0.424927 0.112762
0.692017 0.434113 0.124146
0.738892 0.442535 0.134155
0.785767 0.452332 0.144623
0.831146 0.462860 0.155518
0.869049 0.471313 0.164307
0.894226 0.475586 0.170258
0.901398 0.474518 0.171906
0.908295 0.474457 0.173462
0.915253 0.474823 0.175018
0.921448 0.475189 0.176331
0.927582 0.475403 0.177765
0.933777 0.477112 0.179260
0.939911 0.479065 0.181396
0.048035 0.443634 0.068634
0.052551 0.443115 0.068604
0.056854 0.442596 0.068573
0.061249 0.441956 0.068634
0.065643 0.441315 0.068695
0.070251 0.440155 0.068634
0.074890 0.438812 0.068634
0.079102 0.437103 0.068176
0.089508 0.436279 0.067902
0.117950 0.439636 0.066681
0.153748 0.445404 0.065002
0.212982 0.449097 0.063721
0.298981 0.453949 0.065247
0.368652 0.452454 0.065887
0.430176 0.443085 0.070892
0.482910 0.436005 0.079071
0.533875 0.437592 0.089325
0.585602 0.443542 0.100464
0.634979 0.451050 0.111389
0.683899 0.459686 0.122803
0.729919 0.468353 0.132477
0.776581 0.478546 0.142731
0.822510 0.489624 0.153778
0.864410 0.498871 0.163879
0.894928 0.504028 0.171265
0.903351 0.503113 0.173340
0.910156 0.502899 0.175171
0.916473 0.503174 0.176849
0.922577 0.503479 0.178497
0.928650 0.503754 0.180054
0.934723 0.505371 0.181702
0.940674 0.507172 0.184174
0.051910 0.473022 0.074036
0.056244 0.472534 0.074005
0.060577 0.471954 0.073944
0.064941 0.471375 0.073975
0.069397 0.470947 0.074036
0.074036 0.469727 0.074005
0.078674 0.468506 0.073944
0.083130 0.467010 0.073669
0.087433 0.465424 0.073395
0.112183 0.468048 0.073730
0.144714 0.472565 0.070740
0.198059 0.479706 0.069763
0.281311 0.483643 0.069550
0.358185 0.488434 0.073090
0.415802 0.483704 0.073090
0.475189 0.472595 0.079102
0.525818 0.467285 0.087830
0.576294 0.470825 0.098572
0.626373 0.477844 0.110046
0.675812 0.486267 0.121490
0.721558 0.494965 0.130798
0.767548 0.505219 0.140839
0.814301 0.516449 0.152496
0.857513 0.525635 0.163177
0.891937 0.530914 0.171356
0.905090 0.531281 0.175018
0.911469 0.530884 0.176971
0.917633 0.531281 0.178894
0.923767 0.531494 0.180634
0.929810 0.531860 0.182404
0.935852 0.533356 0.184448
0.941895 0.535004 0.186829
0.055756 0.502747 0.079468
0.060150 0.502197 0.079407
0.064575 0.501678 0.079346
0.068970 0.501038 0.079346
0.073364 0.500641 0.079468
0.078064 0.499847 0.079498
0.082703 0.498810 0.079498
0.087280 0.497345 0.079315
0.091736 0.495911 0.079163
0.107971 0.497223 0.079865
0.137909 0.500946 0.077728
0.187744 0.511047 0.076782
0.263763 0.512177 0.074677
0.345795 0.520233 0.078735
0.407715 0.521484 0.080261
0.462585 0.514526 0.082672
0.518066 0.503784 0.088287
0.566803 0.501099 0.097534
0.616364 0.505829 0.108398
0.665558 0.513092 0.119324
0.712555 0.522247 0.128998
0.758759 0.532410 0.139282
0.805725 0.543182 0.151215
0.850189 0.552460 0.162567
0.889893 0.558380 0.172150
0.906769 0.559631 0.177399
0.912781 0.558777 0.179413
0.918945 0.559174 0.181488
0.924988 0.559631 0.183502
0.931122 0.559875 0.185547
0.937256 0.561432 0.187714
0.943420 0.562988 0.189911
0.060272 0.533203 0.085938
0.064606 0.532745 0.085815
0.069061 0.532227 0.085724
0.073486 0.531586 0.085602
0.078033 0.531311 0.085785
0.082672 0.530640 0.085815
0.087311 0.529755 0.085846
0.091858 0.528351 0.085724
0.096497 0.527039 0.085602
0.103729 0.526367 0.085785
0.132538 0.530701 0.086334
0.173279 0.538391 0.082306
0.247345 0.544647 0.081726
0.327637 0.548920 0.082947
0.399902 0.555084 0.086700
0.452148 0.555328 0.089966
0.506317 0.547394 0.092651
0.557831 0.540192 0.099884
0.605652 0.537842 0.107697
0.654663 0.542633 0.117737
0.702026 0.549866 0.127014
0.750397 0.559753 0.138367
0.797546 0.570312 0.150696
0.841644 0.578979 0.161560
0.882660 0.585754 0.172028
0.908386 0.588928 0.180389
0.914459 0.587769 0.182465
0.920563 0.588074 0.184631
0.926483 0.588348 0.186737
0.932495 0.588654 0.188751
0.938721 0.590149 0.190735
0.944824 0.591797 0.192719
0.065186 0.564453 0.093079
0.069550 0.563995 0.092896
0.074005 0.563538 0.092773
0.078552 0.562958 0.092621
0.083191 0.562683 0.092773
0.087799 0.561981 0.092865
0.092468 0.561371 0.092926
0.096985 0.560120 0.092773
0.101624 0.558594 0.092743
0.106384 0.557434 0.092682
0.125885 0.559845 0.093872
0.163605 0.565643 0.091644
0.231720 0.579285 0.090546
0.311432 0.578644 0.087982
0.387238 0.586121 0.091858
0.445740 0.591034 0.096710
0.492645 0.591156 0.099579
0.545959 0.584290 0.103760
0.596558 0.579010 0.110931
0.645477 0.577118 0.118317
0.693390 0.580688 0.126526
0.741272 0.588165 0.137451
0.789215 0.598633 0.150116
0.832642 0.606659 0.160461
0.874023 0.613953 0.171600
0.906158 0.618683 0.182373
0.915619 0.617859 0.185577
0.921783 0.617798 0.187714
0.927612 0.617859 0.189636
0.933716 0.618042 0.191315
0.939880 0.619598 0.193146
0.945953 0.621185 0.194916
0.071014 0.596863 0.101196
0.075439 0.596375 0.100983
0.079926 0.595673 0.100739
0.084503 0.595032 0.100494
0.089264 0.594940 0.100708
0.093964 0.594482 0.100861
0.098663 0.593781 0.100922
0.103363 0.592621 0.100830
0.107941 0.591187 0.100616
0.112701 0.589966 0.100494
0.117676 0.589050 0.100494
0.157349 0.595551 0.101685
0.212646 0.609589 0.097961
0.298889 0.615051 0.096741
0.374847 0.619354 0.098389
0.438660 0.626373 0.103546
0.485535 0.632080 0.108429
0.530151 0.633667 0.112396
0.581726 0.626648 0.115387
0.634308 0.621521 0.122253
0.684082 0.618622 0.128357
0.732147 0.621429 0.137329
0.778137 0.627808 0.148163
0.822937 0.636749 0.159637
0.864075 0.643066 0.171051
0.901978 0.649475 0.183777
0.915680 0.649200 0.188049
0.922668 0.648956 0.190247
0.928528 0.648804 0.191833
0.934357 0.648621 0.193268
0.940460 0.649994 0.195007
0.946503 0.651398 0.196716
0.078217 0.630524 0.110199
0.082672 0.630035 0.109924
0.087250 0.629547 0.109711
0.091797 0.628876 0.109497
0.096588 0.628784 0.109680
0.101318 0.628265 0.109711
0.106079 0.627655 0.109772
0.110779 0.626556 0.109680
0.115509 0.625092 0.109528
0.120575 0.624329 0.109467
0.125702 0.623444 0.109375
0.154114 0.628571 0.111145
0.201996 0.640198 0.104462
0.282654 0.654694 0.107697
0.361328 0.654114 0.106018
0.428802 0.662903 0.111115
0.478668 0.668610 0.115753
0.523651 0.674377 0.121948
0.569000 0.676453 0.125916
0.618408 0.669067 0.126099
0.671173 0.662903 0.131317
0.720306 0.659912 0.137360
0.767517 0.662476 0.146973
0.811981 0.667603 0.157349
0.854095 0.673889 0.171387
0.893890 0.679535 0.184052
0.913788 0.680664 0.189850
0.923615 0.680298 0.192688
0.929443 0.679962 0.194122
0.935242 0.679688 0.195465
0.941193 0.680939 0.197052
0.947174 0.682220 0.198608
0.086609 0.666870 0.120056
0.091095 0.666382 0.119720
0.095734 0.665924 0.119415
0.100281 0.665039 0.119080
0.105133 0.664917 0.119171
0.109955 0.664764 0.119293
0.114777 0.664368 0.119385
0.119415 0.663208 0.119232
0.124207 0.661957 0.119171
0.129395 0.661224 0.119049
0.134705 0.660553 0.118958
0.148712 0.663177 0.119843
0.199463 0.674957 0.115784
0.271576 0.690155 0.116699
0.348663 0.692078 0.115875
0.417175 0.698242 0.117981
0.471344 0.704956 0.123230
0.516876 0.711578 0.129608
0.561646 0.717346 0.135315
0.606384 0.718597 0.137054
0.654327 0.710968 0.135376
0.706665 0.704163 0.139709
0.754578 0.700653 0.146393
0.799866 0.701935 0.158051
0.841949 0.705261 0.170990
0.884308 0.710815 0.184570
0.910889 0.713135 0.191772
0.924591 0.713379 0.195435
0.930481 0.713043 0.196777
0.936310 0.712585 0.198059
0.942230 0.713745 0.199554
0.948151 0.714966 0.201080
0.090302 0.681915 0.124115
0.095093 0.682434 0.124023
0.099945 0.683014 0.123932
0.104767 0.683533 0.123871
0.109894 0.684601 0.124207
0.115112 0.685791 0.124634
0.120270 0.686951 0.125061
0.125488 0.687561 0.125336
0.130829 0.688354 0.125610
0.136719 0.689392 0.126007
0.142670 0.690521 0.126465
0.149384 0.692413 0.127014
0.187439 0.701752 0.125458
0.263519 0.721863 0.124359
0.339355 0.729034 0.126282
0.405762 0.733948 0.125610
0.462830 0.742035 0.130676
0.509247 0.748108 0.136261
0.553467 0.753479 0.141937
0.597809 0.757935 0.144775
0.642639 0.759003 0.145782
0.689331 0.750366 0.142517
0.739594 0.743011 0.149963
0.786194 0.739319 0.159332
0.830383 0.739990 0.172333
0.873871 0.743103 0.184235
0.907776 0.746735 0.193573
0.925903 0.747589 0.198334
0.931793 0.747101 0.199707
0.937683 0.746643 0.201080
0.943634 0.747711 0.202545
0.949493 0.748871 0.204041
0.092224 0.690002 0.126190
0.097046 0.690643 0.126099
0.101868 0.691193 0.126007
0.106750 0.691803 0.125946
0.111938 0.692963 0.126312
0.117218 0.694214 0.126740
0.122406 0.695404 0.127136
0.127777 0.696625 0.127563
0.133484 0.698029 0.127899
0.139984 0.700531 0.128662
0.146149 0.702606 0.129242
0.152893 0.705048 0.129791
0.175293 0.711273 0.130585
0.244873 0.731934 0.125641
0.319550 0.743469 0.129974
0.389893 0.748535 0.129639
0.448669 0.758087 0.133545
0.498199 0.765778 0.138550
0.543121 0.773010 0.144714
0.587280 0.780670 0.149017
0.632233 0.786438 0.151520
0.676575 0.787079 0.152496
0.722778 0.779419 0.154633
0.770874 0.773712 0.164093
0.817505 0.772278 0.173309
0.862732 0.775085 0.184723
0.901581 0.778717 0.194794
0.926361 0.780853 0.201050
0.932556 0.780975 0.202545
0.938690 0.780945 0.204041
0.944733 0.782013 0.205566
0.950745 0.783112 0.207062
0.094177 0.697998 0.128113
0.098969 0.698669 0.128082
0.103760 0.699249 0.127991
0.108673 0.699890 0.127960
0.113892 0.701019 0.128296
0.119232 0.702393 0.128723
0.124542 0.703735 0.129181
0.129822 0.704987 0.129578
0.135529 0.706329 0.129852
0.142059 0.708740 0.130402
0.148499 0.711060 0.131012
0.155365 0.713898 0.131744
0.172546 0.718842 0.132629
0.227936 0.736450 0.125061
0.306152 0.752197 0.132355
0.378906 0.758636 0.132751
0.436920 0.767517 0.135559
