滤镜资源/Professional Luts Collection/Triune-Digital-Cinematic-LUTs/3D LUTs (CUBE)/LOG/Inglourious Basterds - LOG.cube
#Created by Benjamin (IWLTBAP) : http://luts.iwltbap.com
#Copyright: (C) Copyright 2016 Triune Films and IWLTBAP
TITLE "Blockbuster LUTs Pack (LOG)"
#LUT size
LUT_3D_SIZE 8
#LUT data points
DOMAIN_MIN 0.000000 0.000000 0.000000
DOMAIN_MAX 0.903226 0.903226 0.903226
0.010803 0.010284 0.010773
0.088104 0.014038 0.019440
0.267029 0.040466 0.047913
0.468262 0.069183 0.082611
0.673309 0.105011 0.125458
0.832520 0.140015 0.160767
0.866486 0.147217 0.167755
0.893829 0.153107 0.173065
0.017487 0.080566 0.020111
0.060791 0.073792 0.016602
0.230804 0.083954 0.042358
0.435303 0.097076 0.076263
0.645172 0.121979 0.119293
0.826569 0.163727 0.159821
0.871063 0.172485 0.169067
0.899506 0.178314 0.175415
0.029999 0.187866 0.036835
0.047577 0.183319 0.036194
0.184906 0.175720 0.030121
0.398560 0.190216 0.064697
0.603149 0.213684 0.106232
0.805542 0.248810 0.152161
0.879578 0.251862 0.170288
0.908386 0.252533 0.177002
0.032745 0.301697 0.045319
0.051361 0.297699 0.044983
0.119720 0.300751 0.043549
0.368256 0.290741 0.056580
0.566315 0.308899 0.096405
0.773224 0.343628 0.142151
0.887085 0.363159 0.169128
0.915771 0.364990 0.175751
0.044281 0.414612 0.063263
0.062103 0.411987 0.063263
0.093903 0.407990 0.062378
0.316925 0.421814 0.060059
0.543396 0.411591 0.091675
0.738892 0.442535 0.134155
0.894226 0.475586 0.170258
0.921448 0.475189 0.176331
0.060272 0.533203 0.085938
0.078033 0.531311 0.085785
0.096497 0.527039 0.085602
0.247345 0.544647 0.081726
0.506317 0.547394 0.092651
0.702026 0.549866 0.127014
0.882660 0.585754 0.172028
0.926483 0.588348 0.186737
0.086609 0.666870 0.120056
0.105133 0.664917 0.119171
0.124207 0.661957 0.119171
0.199463 0.674957 0.115784
0.471344 0.704956 0.123230
0.654327 0.710968 0.135376
0.841949 0.705261 0.170990
0.930481 0.713043 0.196777
0.096069 0.706055 0.130096
0.115875 0.709198 0.130219
0.137482 0.714233 0.131653
0.169647 0.725433 0.134430
0.429626 0.774292 0.136871
0.616577 0.809418 0.155701
0.796631 0.809326 0.174591
0.933228 0.821686 0.205505
0.011261 0.012421 0.097046
0.075623 0.014404 0.091980
0.248138 0.040344 0.108215
0.457886 0.068909 0.131104
0.670563 0.103668 0.157379
0.831573 0.138977 0.179382
0.866302 0.146210 0.186249
0.893127 0.152008 0.191315
0.013397 0.073334 0.077728
0.059296 0.072449 0.076202
0.236237 0.088867 0.092560
0.448792 0.101562 0.111511
0.654022 0.123810 0.140991
0.829254 0.164154 0.178986
0.874115 0.173340 0.188171
0.901398 0.179108 0.194214
0.027771 0.188721 0.065186
0.046906 0.183777 0.060425
0.182312 0.175659 0.053436
0.400299 0.192657 0.087402
0.609039 0.216736 0.127411
0.808685 0.252411 0.171997
0.882965 0.255707 0.190155
0.911469 0.256653 0.196777
0.031097 0.303802 0.071198
0.050385 0.299805 0.069672
0.116974 0.300293 0.068878
0.368042 0.291321 0.077301
0.568573 0.310791 0.115906
0.775269 0.347717 0.161530
0.889709 0.368622 0.188934
0.918335 0.370789 0.195587
0.043732 0.417053 0.088043
0.061493 0.414368 0.087494
0.093414 0.408813 0.087067
0.314575 0.423340 0.082153
0.545227 0.413422 0.111298
0.740265 0.447540 0.153687
0.896362 0.481110 0.190582
0.922699 0.481262 0.199036
0.061615 0.536987 0.111725
0.079254 0.534790 0.110779
0.097626 0.529236 0.109619
0.242096 0.548706 0.104980
0.505798 0.552246 0.115936
0.703766 0.556091 0.147919
0.880859 0.590118 0.192993
0.926483 0.592651 0.208649
0.087921 0.670135 0.144440
0.106964 0.668793 0.143250
0.125824 0.663879 0.141693
0.194977 0.675934 0.143158
0.469757 0.707336 0.144684
0.653015 0.715820 0.157135
0.840576 0.709229 0.192444
0.931305 0.717255 0.217957
0.097687 0.710510 0.154114
0.117645 0.713776 0.153931
0.139465 0.717346 0.153961
0.170166 0.729950 0.157074
0.427307 0.778198 0.159271
0.614685 0.812408 0.176453
0.796326 0.814789 0.196320
0.933960 0.827423 0.226959
0.022949 0.038696 0.229950
0.082336 0.036530 0.224304
0.194580 0.039032 0.213959
0.402313 0.058929 0.225220
0.624268 0.097168 0.254547
0.821991 0.143311 0.280853
0.862030 0.150543 0.276855
0.892548 0.157013 0.277924
0.025787 0.096588 0.212830
0.067841 0.095856 0.215332
0.177826 0.085175 0.205353
0.398682 0.096405 0.218414
0.625702 0.121857 0.245850
0.828308 0.168640 0.271393
0.874969 0.175476 0.267670
0.902985 0.181152 0.268494
0.029114 0.186798 0.189880
0.048279 0.184509 0.187836
0.149200 0.196991 0.199951
0.405334 0.218964 0.211945
0.628052 0.239838 0.231140
0.821228 0.267975 0.247223
0.894623 0.268860 0.250580
0.921143 0.267242 0.251495
0.033844 0.318512 0.190369
0.052673 0.316589 0.187378
0.117767 0.312927 0.172852
0.362946 0.298706 0.148438
0.574890 0.319763 0.170074
0.778503 0.357880 0.198334
0.893280 0.374481 0.212555
0.921021 0.375366 0.216187
0.047668 0.429260 0.157959
0.064880 0.425323 0.149109
0.092773 0.414001 0.130676
0.306641 0.423889 0.107178
0.543793 0.414032 0.132690
0.739716 0.451019 0.173431
0.898041 0.485626 0.212280
0.923584 0.485535 0.220886
0.063171 0.541016 0.141205
0.080444 0.537994 0.138306
0.099030 0.532410 0.136292
0.230865 0.552460 0.130371
0.502777 0.555450 0.138580
0.703552 0.560852 0.169464
0.878784 0.593536 0.214478
0.926971 0.596649 0.230469
0.089691 0.673584 0.170349
0.108307 0.671295 0.168793
0.127808 0.666473 0.166351
0.190948 0.678162 0.169434
0.467224 0.708923 0.166290
0.651093 0.718933 0.178436
0.838776 0.711975 0.213654
0.932190 0.720612 0.239044
0.099731 0.716125 0.180084
0.119446 0.718323 0.179565
0.142029 0.722198 0.178558
0.169769 0.733032 0.180847
0.426056 0.783112 0.184204
0.613037 0.815643 0.197510
0.794647 0.819427 0.218811
0.934723 0.832245 0.248779
0.034302 0.069305 0.364746
0.085693 0.062286 0.355377
0.178833 0.061157 0.349030
0.337982 0.059204 0.332123
0.580505 0.090515 0.348480
0.789246 0.137573 0.385010
0.834442 0.150574 0.385773
0.870819 0.160156 0.388916
0.032135 0.123474 0.352234
0.071228 0.124359 0.356262
0.166168 0.103607 0.339752
0.321594 0.086456 0.320831
0.572296 0.113159 0.338867
0.791199 0.168610 0.380768
0.852142 0.185211 0.386444
0.886200 0.193726 0.390228
0.031067 0.210754 0.331146
0.050903 0.209930 0.331024
0.147400 0.221863 0.346100
0.327026 0.220398 0.334045
0.592316 0.246552 0.359283
0.806580 0.291992 0.402344
0.888916 0.289154 0.401550
0.916840 0.283234 0.397491
0.032990 0.307831 0.309387
0.052063 0.306793 0.308502
0.114075 0.310669 0.313995
0.267242 0.333801 0.334686
0.578705 0.382538 0.356384
0.787689 0.423279 0.393951
0.906311 0.432129 0.400360
0.930206 0.427643 0.394623
0.052368 0.439117 0.317169
0.071289 0.440674 0.317749
0.098083 0.439240 0.314270
0.227875 0.462280 0.317139
0.544037 0.449707 0.274414
0.746521 0.498688 0.319916
0.903595 0.519836 0.332886
0.929413 0.516144 0.327332
0.081757 0.581970 0.319580
0.099152 0.579407 0.314301
0.115570 0.572083 0.301239
0.199890 0.557037 0.256409
0.492126 0.577911 0.224213
0.706207 0.582733 0.246796
0.877502 0.607208 0.276520
0.929016 0.607544 0.279816
0.102203 0.698395 0.269653
0.118835 0.693176 0.259460
0.134766 0.683929 0.245758
0.185272 0.675903 0.223724
0.457367 0.712158 0.207886
0.647980 0.721680 0.209015
0.835480 0.712158 0.234619
0.932739 0.722321 0.260712
0.104309 0.727875 0.226746
0.122986 0.728333 0.221252
0.143250 0.728058 0.212769
0.169189 0.734619 0.204865
0.421448 0.789001 0.211029
0.609894 0.818207 0.218536
0.791351 0.824402 0.241150
0.935425 0.836700 0.272339
0.050781 0.096405 0.499878
0.097870 0.093018 0.492554
0.184631 0.082123 0.482208
0.310913 0.083923 0.470947
0.525146 0.095459 0.464020
0.757874 0.141296 0.494232
0.810516 0.154541 0.499634
0.846527 0.165100 0.505341
0.049255 0.148926 0.490936
0.083435 0.148193 0.494324
0.175415 0.125122 0.476532
0.292725 0.106689 0.458740
0.506195 0.117310 0.452820
0.753906 0.168762 0.487549
0.821350 0.186249 0.498505
0.858490 0.198944 0.506531
0.049225 0.237427 0.475830
0.067108 0.237183 0.476471
0.159576 0.250549 0.498413
0.281403 0.218445 0.469666
0.530121 0.238617 0.464447
0.763367 0.275391 0.504547
0.858459 0.289215 0.523468
0.889984 0.290985 0.526245
0.050232 0.329376 0.456055
0.068054 0.329193 0.456451
0.127655 0.335480 0.464905
0.269440 0.361389 0.496674
0.518829 0.387177 0.497681
0.764587 0.436920 0.548462
0.899475 0.453400 0.571625
0.925476 0.451233 0.570007
0.052734 0.429443 0.435760
0.071320 0.429291 0.435638
0.093781 0.425629 0.431824
0.220306 0.451294 0.456360
0.449310 0.511749 0.511200
0.741943 0.559875 0.538025
0.912537 0.579132 0.564606
0.940430 0.574677 0.561768
0.081299 0.570679 0.447845
0.102234 0.574066 0.450226
0.122314 0.573730 0.448853
0.212494 0.595856 0.467651
0.400787 0.640411 0.500366
0.691620 0.642548 0.457458
0.881531 0.669525 0.497345
0.938660 0.666107 0.494415
0.141113 0.753876 0.492828
0.161255 0.755035 0.493042
0.179565 0.751587 0.487915
0.219818 0.748138 0.479919
0.347504 0.740753 0.432922
0.640228 0.761841 0.390625
0.834930 0.748871 0.394501
0.938629 0.757965 0.413330
0.149597 0.795349 0.465271
0.169403 0.798553 0.462433
0.187317 0.799316 0.451630
0.200531 0.794647 0.426544
0.317810 0.796844 0.377319
0.602631 0.837646 0.365601
0.785828 0.842010 0.337128
0.937012 0.851654 0.360321
0.066986 0.113983 0.602692
0.108002 0.113129 0.606659
0.194641 0.102997 0.605133
0.304504 0.104553 0.613342
0.470154 0.109283 0.601379
0.723450 0.150391 0.609955
0.779938 0.160583 0.617828
0.820282 0.166534 0.622559
0.066986 0.165527 0.611725
0.098999 0.162964 0.615936
0.187164 0.144012 0.612183
0.290710 0.129547 0.613678
0.452209 0.134491 0.600616
0.715271 0.177765 0.606598
0.789703 0.189789 0.616028
0.830688 0.195007 0.619080
0.070038 0.268860 0.628693
0.088013 0.268463 0.631317
0.187744 0.282867 0.659576
0.290222 0.254181 0.636444
0.438293 0.233490 0.611359
0.704834 0.265686 0.612671
0.821564 0.268463 0.624146
0.863007 0.271790 0.631409
0.074249 0.366821 0.619293
0.092712 0.368011 0.620941
0.150604 0.378174 0.635986
0.289948 0.404327 0.672119
0.434235 0.386200 0.650543
0.720062 0.423340 0.652985
0.878265 0.438629 0.681458
0.912079 0.442261 0.686859
0.078064 0.463287 0.599213
0.097046 0.464325 0.600800
0.116394 0.460999 0.597870
0.241699 0.487671 0.630493
0.424133 0.525696 0.670776
0.716339 0.566040 0.674438
0.903442 0.591095 0.708801
0.932892 0.586670 0.707733
0.086914 0.570740 0.582428
0.106323 0.571350 0.583496
0.124969 0.567932 0.580261
0.205688 0.578186 0.592285
0.380646 0.618683 0.634460
0.678589 0.692017 0.670868
0.887512 0.709961 0.689789
0.951691 0.708954 0.692902
0.127014 0.721527 0.604309
0.147125 0.722778 0.605560
0.167175 0.721588 0.603912
0.207947 0.724030 0.606232
0.364105 0.756226 0.634216
0.612854 0.810791 0.650604
0.839722 0.804291 0.612122
0.950745 0.808441 0.628876
0.154297 0.794647 0.611023
0.178162 0.802460 0.614594
0.201874 0.810608 0.616058
0.225922 0.819824 0.614532
0.349274 0.851654 0.629669
0.547791 0.891388 0.630676
0.795990 0.899872 0.567322
0.946533 0.891693 0.537476
0.068420 0.118713 0.629852
0.108704 0.117798 0.632080
0.196014 0.110352 0.633026
0.302338 0.109894 0.645844
0.457886 0.112152 0.638519
0.706421 0.153015 0.645660
0.774658 0.166229 0.662476
0.813263 0.176758 0.673737
0.071747 0.165985 0.637604
0.099152 0.163483 0.644775
0.187775 0.145447 0.643005
0.289246 0.136536 0.651428
0.439484 0.140228 0.651428
0.693268 0.182190 0.652130
0.780518 0.201691 0.674835
0.819153 0.211121 0.686157
0.077332 0.275391 0.670135
0.096527 0.275543 0.675354
0.188416 0.290253 0.712402
0.291382 0.264099 0.694824
0.425323 0.244263 0.687134
0.672089 0.270844 0.679413
0.796082 0.275452 0.701569
0.833771 0.274536 0.709381
0.087860 0.384460 0.697205
0.107086 0.386780 0.703827
0.161072 0.397308 0.724823
0.308594 0.427551 0.767273
0.450867 0.407715 0.755402
0.674011 0.412384 0.734344
0.846191 0.431427 0.764404
0.881470 0.432617 0.772156
0.101410 0.493164 0.722351
0.121124 0.495453 0.728271
0.140930 0.494476 0.733948
0.267761 0.519623 0.771362
0.450470 0.549896 0.808197
0.668915 0.573944 0.817841
0.883972 0.587219 0.820435
0.918671 0.585907 0.821442
0.114960 0.600037 0.744812
0.134613 0.601685 0.749542
0.153656 0.599426 0.750153
0.233307 0.612579 0.767731
0.408997 0.641510 0.794891
0.646027 0.703949 0.831024
0.870361 0.715088 0.823395
0.940094 0.716736 0.825043
0.131226 0.719757 0.748077
0.151245 0.720459 0.748444
0.169891 0.717529 0.745392
0.204346 0.715210 0.742615
0.361420 0.741425 0.763428
0.548309 0.780121 0.786835
0.835632 0.833069 0.802185
0.951782 0.834167 0.804138
0.139862 0.775513 0.731567
0.162384 0.780731 0.732635
0.186249 0.786316 0.732758
0.210510 0.792511 0.729919
0.332916 0.822144 0.745422
0.507141 0.867035 0.769073
0.796906 0.928314 0.773529
0.954163 0.928864 0.748108
0.072723 0.123627 0.656616
0.111298 0.122803 0.659180
0.198456 0.117249 0.660431
0.302399 0.115509 0.672638
0.453430 0.116882 0.671143
0.692627 0.155701 0.668030
0.769714 0.170410 0.685516
0.808807 0.182129 0.697784
0.077942 0.169250 0.664062
0.101196 0.167786 0.674652
0.191498 0.153412 0.674347
0.291016 0.144196 0.681793
0.433990 0.149200 0.684174
0.676300 0.185883 0.677490
0.775177 0.207214 0.698425
0.814362 0.216736 0.710205
0.082886 0.281097 0.698761
0.105225 0.282349 0.705750
0.193054 0.298645 0.742706
0.295166 0.270996 0.724640
0.425201 0.249664 0.717499
0.660797 0.271576 0.704773
0.793488 0.278717 0.725403
0.828857 0.275513 0.731659
0.093323 0.391235 0.728027
0.112610 0.393951 0.734741
0.165405 0.404541 0.754578
0.316895 0.434570 0.795837
0.457886 0.417999 0.786591
0.669281 0.418243 0.767334
0.844604 0.434387 0.787262
0.877045 0.432129 0.792297
0.107086 0.499573 0.752350
0.126709 0.501770 0.757965
0.146454 0.500580 0.763611
0.276062 0.525024 0.799469
0.452576 0.552826 0.834534
0.660553 0.576141 0.846130
0.882111 0.584900 0.847351
0.917267 0.581299 0.850830
0.120178 0.605133 0.773682
0.139862 0.606720 0.778351
0.160034 0.605713 0.782501
0.242371 0.619141 0.803894
0.414856 0.645630 0.836090
0.634583 0.706512 0.882507
0.862976 0.714996 0.880035
0.937408 0.715698 0.887360
0.147247 0.729218 0.802246
0.168274 0.730072 0.805817
0.188812 0.728729 0.808838
0.223267 0.727814 0.814972
0.377411 0.749298 0.843781
0.548279 0.785004 0.875458
0.832458 0.840302 0.902954
0.949005 0.836975 0.905273
0.163300 0.788788 0.816986
0.184753 0.793274 0.820862
0.206177 0.797729 0.824371
0.227814 0.802185 0.828156
0.344757 0.825867 0.850250
0.508118 0.864563 0.881653
0.782471 0.929230 0.915436
0.955444 0.945374 0.915955
