滤镜资源/Professional Luts Collection/Triune-Digital-Cinematic-LUTs/3D LUTs (CUBE)/LOG/Interstellar - LOG.cube
#Created by Benjamin (IWLTBAP) : http://luts.iwltbap.com
#Copyright: (C) Copyright 2016 Triune Films and IWLTBAP
TITLE "Blockbuster LUTs Pack (LOG)"
#LUT size
LUT_3D_SIZE 32
#LUT data points
0.000000 0.000000 0.016388
0.001190 0.000000 0.017212
0.004547 0.006714 0.019135
0.013672 0.016754 0.022034
0.048645 0.027985 0.026276
0.083954 0.043640 0.034180
0.119598 0.059906 0.043671
0.157623 0.075836 0.051239
0.196472 0.090515 0.058441
0.237396 0.105438 0.066040
0.279114 0.121094 0.075714
0.315979 0.140961 0.087677
0.362305 0.158447 0.106110
0.411560 0.174622 0.126740
0.462006 0.191467 0.148773
0.512756 0.208221 0.171204
0.561462 0.225800 0.193176
0.607819 0.243011 0.213867
0.653412 0.261749 0.232300
0.698029 0.281158 0.248993
0.724182 0.292847 0.258057
0.737488 0.298767 0.262878
0.745239 0.302429 0.265472
0.752869 0.306030 0.267914
0.760254 0.309479 0.270477
0.767578 0.312958 0.272766
0.774933 0.316345 0.275024
0.782318 0.319885 0.277222
0.789673 0.323425 0.279419
0.796692 0.326874 0.281555
0.803741 0.330353 0.283905
0.810699 0.333862 0.285919
0.000000 0.003510 0.015259
0.000946 0.003571 0.016907
0.003845 0.008636 0.018097
0.007782 0.017761 0.021667
0.043518 0.026978 0.025330
0.078735 0.041077 0.032990
0.114136 0.057037 0.041962
0.152649 0.074219 0.050110
0.191528 0.089874 0.057404
0.232605 0.104492 0.065002
0.274506 0.120178 0.074463
0.311890 0.139648 0.086334
0.357513 0.156952 0.104645
0.406586 0.173431 0.125061
0.457123 0.190491 0.146698
0.508026 0.207794 0.169098
0.557068 0.225220 0.191162
0.603607 0.242493 0.211761
0.649628 0.261566 0.230316
0.694702 0.281219 0.247223
0.722595 0.293518 0.257141
0.737671 0.300476 0.262238
0.745453 0.304138 0.265045
0.753052 0.307587 0.267487
0.760468 0.311005 0.269745
0.767975 0.314606 0.272278
0.775391 0.318146 0.274536
0.782562 0.321625 0.276855
0.789856 0.325134 0.279053
0.796814 0.328339 0.281219
0.803894 0.331970 0.283203
0.810913 0.335510 0.285278
0.000000 0.020844 0.014252
0.000946 0.019775 0.015259
0.003113 0.018524 0.017517
0.007050 0.022369 0.019409
0.038879 0.031097 0.024628
0.073547 0.041718 0.032074
0.109039 0.054840 0.040649
0.147339 0.071991 0.049164
0.186462 0.088776 0.056580
0.227661 0.103607 0.064148
0.269623 0.119049 0.073364
0.307617 0.138062 0.085114
0.352661 0.155304 0.103149
0.401428 0.172150 0.123138
0.451782 0.189392 0.144623
0.502655 0.206909 0.166870
0.552399 0.224731 0.188965
0.599518 0.242157 0.209656
0.645599 0.261230 0.228180
0.690704 0.280884 0.245209
0.721069 0.294189 0.255890
0.738007 0.302063 0.261780
0.745667 0.305695 0.264496
0.753357 0.309326 0.267059
0.760742 0.312836 0.269318
0.768127 0.316223 0.271606
0.775787 0.319763 0.273834
0.782837 0.323273 0.276337
0.790100 0.326752 0.278625
0.797119 0.330139 0.280762
0.803986 0.333649 0.282806
0.811066 0.337250 0.284790
0.000000 0.042969 0.017151
0.000946 0.041901 0.017975
0.002411 0.040344 0.019714
0.006042 0.038849 0.022919
0.035065 0.039825 0.020599
0.068787 0.051636 0.030731
0.103668 0.063507 0.039551
0.141754 0.074249 0.048340
0.180603 0.087372 0.055328
0.221527 0.102844 0.063141
0.263184 0.117981 0.071747
0.301270 0.135101 0.083160
0.345093 0.152710 0.100494
0.393646 0.169800 0.120056
0.444153 0.187561 0.141357
0.495087 0.205383 0.163391
0.544861 0.222961 0.185455
0.592499 0.240814 0.206390
0.638763 0.259979 0.224701
0.684296 0.279663 0.241882
0.718811 0.294891 0.254639
0.738586 0.303741 0.261383
0.746185 0.307373 0.263916
0.753693 0.310944 0.266632
0.761108 0.314484 0.268890
0.768524 0.317993 0.271149
0.775940 0.321564 0.273407
0.783173 0.325134 0.275635
0.790283 0.328461 0.278046
0.797424 0.331909 0.280182
0.804260 0.335388 0.282257
0.811218 0.338989 0.284241
0.000000 0.069672 0.018646
0.000946 0.068481 0.019348
0.001892 0.067230 0.020142
0.004883 0.070587 0.023468
0.016907 0.067657 0.027283
0.068176 0.059509 0.024567
0.101837 0.072601 0.035522
0.137421 0.087891 0.046448
0.175751 0.098999 0.054565
0.217560 0.108643 0.062012
0.259888 0.120361 0.071167
0.297882 0.135956 0.082703
0.340515 0.153198 0.099213
0.387573 0.169830 0.118042
0.436798 0.186920 0.138367
0.487213 0.203888 0.159851
0.537628 0.221527 0.181854
0.585327 0.239471 0.202820
0.631592 0.258667 0.221313
0.677765 0.278534 0.238983
0.714081 0.294373 0.252014
0.738770 0.305695 0.260803
0.746460 0.309357 0.263275
0.754059 0.312927 0.265717
0.761322 0.316254 0.268097
0.768860 0.319824 0.270599
0.776276 0.323364 0.272919
0.783630 0.326904 0.275208
0.790588 0.330475 0.277374
0.797699 0.333954 0.279480
0.804779 0.337433 0.281555
0.811554 0.340820 0.283600
0.000000 0.098969 0.017212
0.000946 0.097717 0.017731
0.001892 0.097046 0.018127
0.003815 0.100037 0.017578
0.007996 0.101898 0.019440
0.045837 0.095520 0.026031
0.099426 0.082611 0.031891
0.138214 0.095337 0.041046
0.175018 0.110748 0.049652
0.213348 0.126221 0.058685
0.255585 0.136322 0.067719
0.297913 0.148529 0.079498
0.338257 0.162659 0.095856
0.385254 0.177582 0.115021
0.433258 0.193451 0.134918
0.482574 0.209534 0.156067
0.531677 0.225830 0.177338
0.578461 0.243134 0.197205
0.624725 0.261047 0.216095
0.670471 0.279053 0.234406
0.710663 0.295776 0.249573
0.739044 0.308044 0.259796
0.746643 0.311096 0.262604
0.754242 0.314697 0.265015
0.761414 0.318268 0.267395
0.768921 0.321838 0.269745
0.776581 0.325470 0.272308
0.783997 0.329071 0.274628
0.791260 0.332458 0.276917
0.798035 0.335846 0.278931
0.805054 0.339325 0.281006
0.811829 0.342804 0.283081
0.000000 0.127472 0.013458
0.000946 0.127594 0.013336
0.001892 0.127838 0.012909
0.002838 0.128662 0.011597
0.006744 0.135681 0.005310
0.034485 0.129578 0.013855
0.082092 0.120026 0.032532
0.133087 0.109039 0.038330
0.176025 0.120422 0.045166
0.215668 0.136139 0.052307
0.254425 0.152374 0.060791
0.294983 0.167908 0.072723
0.334869 0.182953 0.086609
0.382599 0.196289 0.106567
0.431305 0.208923 0.128143
0.480743 0.223267 0.149597
0.529114 0.237610 0.170624
0.575439 0.253967 0.190216
0.620789 0.270111 0.209229
0.665253 0.286804 0.227509
0.707092 0.303314 0.243744
0.740051 0.316742 0.256012
0.748474 0.319336 0.259674
0.755829 0.321228 0.262878
0.762695 0.323792 0.265533
0.770050 0.326721 0.267944
0.777344 0.329865 0.270508
0.784515 0.333038 0.273010
0.791748 0.336121 0.275452
0.798706 0.339020 0.277679
0.805420 0.342529 0.279846
0.812347 0.346069 0.281769
0.000000 0.156921 0.010193
0.000946 0.157806 0.008575
0.001892 0.158997 0.007233
0.002838 0.159515 0.004852
0.005310 0.165405 0.000000
0.014954 0.163818 0.000000
0.074524 0.156433 0.017273
0.120636 0.145233 0.038391
0.169586 0.135864 0.048431
0.214935 0.146637 0.049988
0.256897 0.162964 0.054840
0.296906 0.180237 0.068390
0.336700 0.197235 0.083069
0.380890 0.213379 0.099792
0.429382 0.228210 0.119751
0.478821 0.242615 0.140839
0.527618 0.255432 0.162231
0.574158 0.270142 0.182251
0.618805 0.285187 0.201050
0.663513 0.301666 0.219330
0.706177 0.317535 0.235992
0.740967 0.331177 0.249634
0.752502 0.334412 0.254578
0.759338 0.335358 0.257782
0.765869 0.336273 0.261047
0.773041 0.339020 0.263702
0.779999 0.341583 0.266510
0.787048 0.344330 0.268951
0.793762 0.346893 0.271362
0.800537 0.349548 0.273773
0.807343 0.352997 0.276031
0.814545 0.356567 0.278076
0.000000 0.186493 0.007996
0.000946 0.187195 0.006714
0.001892 0.188416 0.004639
0.002838 0.188782 0.002289
0.003784 0.189575 0.000000
0.008575 0.197968 0.000000
0.054474 0.193970 0.000000
0.114410 0.180084 0.029419
0.161285 0.174042 0.039612
0.207916 0.164032 0.054962
0.253967 0.173859 0.053680
0.298065 0.191803 0.065887
0.343506 0.209595 0.083679
0.389008 0.226166 0.101288
0.434540 0.242096 0.118866
0.479767 0.257812 0.136139
0.526245 0.274384 0.153748
0.572754 0.292114 0.171021
0.618774 0.308105 0.190369
0.663177 0.322968 0.208954
0.705841 0.337738 0.226227
0.743073 0.351227 0.241119
0.758759 0.355438 0.247742
0.765015 0.355469 0.251251
0.770966 0.355499 0.254456
0.777649 0.357697 0.257263
0.784576 0.359772 0.259949
0.791260 0.361877 0.262878
0.798065 0.364258 0.265350
0.804382 0.366730 0.267639
0.811188 0.370026 0.269806
0.817932 0.373291 0.272034
0.000000 0.214661 0.007782
0.000946 0.215240 0.006317
0.001892 0.215973 0.004120
0.002838 0.216644 0.001007
0.003784 0.217194 0.000000
0.007111 0.225983 0.000000
0.031464 0.228455 0.000000
0.096954 0.219635 0.006409
0.151459 0.205719 0.040558
0.200500 0.200867 0.054657
0.246765 0.192657 0.060822
0.293030 0.202271 0.061768
0.347443 0.221130 0.082886
0.397491 0.238647 0.102997
0.444550 0.255371 0.121124
0.490051 0.272064 0.138123
0.534180 0.290100 0.153351
0.577332 0.309235 0.167267
0.618744 0.328247 0.181366
0.662598 0.347626 0.197144
0.705750 0.365326 0.212769
0.746552 0.379944 0.229095
0.766449 0.384857 0.237732
0.772491 0.383911 0.241638
0.778168 0.382690 0.245483
0.784515 0.383759 0.248322
0.790924 0.385437 0.251190
0.797150 0.386932 0.253784
0.803467 0.388763 0.256378
0.809784 0.390381 0.259186
0.816345 0.393524 0.261261
0.822937 0.396942 0.263214
0.000000 0.240875 0.007599
0.000946 0.241333 0.006317
0.001892 0.242035 0.004028
0.002838 0.242828 0.000549
0.003784 0.243347 0.000000
0.005768 0.247131 0.000000
0.010284 0.258575 0.000000
0.075500 0.257599 0.000000
0.138245 0.242157 0.018433
0.191650 0.237091 0.041412
0.240814 0.227417 0.075378
0.287415 0.222778 0.067139
0.338806 0.231903 0.073883
0.398651 0.250031 0.100494
0.454651 0.269440 0.123138
0.501465 0.287750 0.139923
0.545319 0.306641 0.154205
0.586548 0.324707 0.167999
0.627991 0.343781 0.181915
0.667450 0.363922 0.193817
0.707550 0.385895 0.205078
0.746399 0.406677 0.216064
0.773865 0.420166 0.224213
0.779755 0.420044 0.227631
0.784729 0.418213 0.231445
0.790894 0.418396 0.234894
0.797211 0.419342 0.237915
0.803467 0.420166 0.241119
0.809814 0.421509 0.243835
0.815765 0.422607 0.246613
0.821564 0.425171 0.248383
0.827209 0.428009 0.250275
0.000000 0.268280 0.005463
0.000946 0.267639 0.005249
0.001892 0.267609 0.004059
0.002838 0.267944 0.000916
0.003784 0.268860 0.000000
0.004700 0.269226 0.000000
0.008759 0.280243 0.000000
0.054596 0.287750 0.000000
0.120575 0.281311 0.000000
0.178864 0.264099 0.027313
0.231659 0.269348 0.042999
0.280670 0.254364 0.088257
0.331879 0.252716 0.075989
0.389679 0.262329 0.089966
0.451111 0.282227 0.116760
0.508087 0.302948 0.138733
0.555298 0.322998 0.154449
0.595245 0.341492 0.167236
0.634888 0.360077 0.180573
0.674744 0.379456 0.192871
0.713318 0.401184 0.203186
0.750427 0.424072 0.211578
0.780670 0.443817 0.217682
0.789062 0.447815 0.219788
0.793274 0.449097 0.221130
0.798187 0.451202 0.222412
0.804321 0.453430 0.224579
0.810303 0.456207 0.226349
0.815796 0.458374 0.228149
0.821381 0.460388 0.230072
0.824188 0.461182 0.231232
0.826477 0.461273 0.232025
0.000000 0.295868 0.003326
0.000946 0.295410 0.002686
0.001892 0.294861 0.002045
0.002838 0.293640 0.001404
0.003784 0.293365 0.000000
0.004700 0.294128 0.000000
0.007355 0.301422 0.000000
0.035858 0.309265 0.000000
0.099976 0.318268 0.000000
0.165283 0.307129 0.000000
0.217560 0.302155 0.014069
0.271149 0.309601 0.052063
0.326355 0.291565 0.092194
0.381989 0.290222 0.086609
0.443481 0.299103 0.104523
0.503082 0.316467 0.130707
0.555603 0.337677 0.149323
0.603027 0.358185 0.166046
0.642181 0.376648 0.178741
0.679108 0.395874 0.189331
0.716156 0.416443 0.199310
0.754028 0.439331 0.208038
0.788544 0.463409 0.213867
0.799469 0.469788 0.216003
0.805969 0.472595 0.217834
0.810120 0.475403 0.218201
0.814667 0.478760 0.218628
0.819397 0.482025 0.219238
0.823883 0.484619 0.219757
0.826569 0.485321 0.220490
0.828369 0.485626 0.220947
0.829407 0.485382 0.221252
0.000000 0.322693 0.004059
0.000946 0.322205 0.003754
0.001892 0.321442 0.003021
0.002838 0.320618 0.000854
0.003784 0.319794 0.000000
0.004700 0.318695 0.000000
0.005798 0.320038 0.000000
0.012543 0.331543 0.000000
0.087433 0.340149 0.000000
0.151031 0.346619 0.000000
0.205505 0.333862 0.001465
0.254242 0.342377 0.000000
0.325256 0.353363 0.073975
0.375854 0.331146 0.092224
0.436798 0.330902 0.099213
0.495819 0.336456 0.116669
0.550720 0.353516 0.139740
0.599640 0.372162 0.158142
0.644165 0.392731 0.173615
0.683899 0.412292 0.185913
0.719055 0.432220 0.194885
0.755005 0.454956 0.202148
0.790466 0.479462 0.208130
0.806488 0.490265 0.210571
0.814941 0.495148 0.212128
0.820343 0.497986 0.213470
0.824921 0.501129 0.213898
0.829865 0.504486 0.214355
0.833588 0.506470 0.215027
0.834198 0.505524 0.215302
0.835114 0.505432 0.215271
0.836060 0.505188 0.215363
0.000000 0.347687 0.011322
0.000946 0.347229 0.010712
0.001892 0.346680 0.009827
0.002838 0.345978 0.008148
0.003784 0.345398 0.006470
0.004700 0.344482 0.003632
0.005646 0.345306 0.000000
0.008759 0.354736 0.000000
0.075684 0.364105 0.000000
0.140625 0.376007 0.000000
0.197327 0.371552 0.000000
0.241760 0.369629 0.000000
0.314423 0.383270 0.033264
0.377075 0.399109 0.087097
0.431213 0.373474 0.102936
0.489899 0.372131 0.110748
0.542542 0.375671 0.122498
0.594177 0.390900 0.145111
0.639801 0.407471 0.164154
0.682709 0.427856 0.178619
0.722748 0.449677 0.189545
0.757111 0.471130 0.196899
0.791290 0.495880 0.201294
0.812866 0.511749 0.203369
0.822998 0.517853 0.205170
0.827850 0.520050 0.206329
0.833008 0.523621 0.206879
0.837311 0.526215 0.207428
0.840149 0.527863 0.207550
0.840515 0.526917 0.207489
0.841400 0.526825 0.207581
0.842377 0.526489 0.207825
0.000000 0.371002 0.020813
0.000946 0.370728 0.019745
0.001892 0.371033 0.017334
0.002838 0.370697 0.015045
0.003784 0.371826 0.010193
0.004700 0.372833 0.003326
0.005646 0.374847 0.000000
0.006592 0.376434 0.000000
0.065002 0.388916 0.000000
0.131683 0.400665 0.000000
0.188873 0.405701 0.000000
0.236542 0.398895 0.000000
0.286804 0.412872 0.000000
0.368286 0.424500 0.058868
0.429718 0.444061 0.108002
0.485443 0.416473 0.113647
0.538208 0.415253 0.121033
0.585724 0.416809 0.128845
0.632874 0.428955 0.146851
0.676788 0.444916 0.165833
0.717896 0.464294 0.179504
0.756683 0.487701 0.188568
0.791107 0.511444 0.193542
0.814819 0.530090 0.194794
0.829285 0.541290 0.195251
0.834045 0.543579 0.196075
0.838623 0.547241 0.196075
0.839813 0.548340 0.195312
0.842407 0.549133 0.195801
0.843567 0.548096 0.196930
0.844543 0.547974 0.197021
0.845490 0.547943 0.197052
0.000000 0.400146 0.014435
0.000946 0.400482 0.012207
0.001892 0.401428 0.008728
0.002838 0.403015 0.002502
0.003784 0.405060 0.000000
0.004700 0.406586 0.000000
0.005646 0.407928 0.000000
0.006592 0.409058 0.000000
0.053741 0.413239 0.000000
0.122375 0.424103 0.000000
0.180542 0.435272 0.000000
0.230042 0.430603 0.000000
0.277008 0.434692 0.000000
0.341003 0.455383 0.000000
0.416046 0.467712 0.077606
0.478424 0.488647 0.116882
0.533112 0.461090 0.122986
0.581451 0.458282 0.129517
0.626068 0.458832 0.137207
0.669434 0.466766 0.146637
0.710846 0.483185 0.163269
0.750275 0.501770 0.176575
0.787537 0.526886 0.182526
0.817383 0.549591 0.184540
0.834442 0.562897 0.186676
0.837219 0.565002 0.187347
0.838074 0.567688 0.185699
0.838989 0.567993 0.185699
0.839935 0.567993 0.185699
0.840881 0.566956 0.185699
0.841827 0.566864 0.185669
0.842773 0.566803 0.185669
0.000000 0.434143 0.000000
0.000946 0.434418 0.000000
0.001892 0.435577 0.000000
0.002838 0.437500 0.000000
0.003784 0.437592 0.000000
0.004700 0.438568 0.000000
0.005646 0.437958 0.000000
0.015717 0.436890 0.000000
0.046997 0.438171 0.000000
0.113373 0.447327 0.000000
0.172455 0.459320 0.000000
0.223572 0.459412 0.000000
0.269073 0.459167 0.000000
0.318970 0.477234 0.000000
0.402161 0.498383 0.023712
0.466919 0.516144 0.097870
0.522034 0.535645 0.126221
0.575439 0.507721 0.134033
0.621399 0.503204 0.139343
0.663788 0.501678 0.147369
0.704102 0.505585 0.155670
0.743439 0.522278 0.164459
0.781281 0.540924 0.173157
0.816986 0.566162 0.181732
0.835358 0.583954 0.186371
0.836487 0.585907 0.186523
0.837341 0.587982 0.186615
0.838287 0.587463 0.186584
0.839233 0.586823 0.186554
0.840240 0.585846 0.186523
0.841187 0.585663 0.186554
0.842102 0.585602 0.186523
0.000000 0.467682 0.000000
0.000946 0.467926 0.000000
0.001892 0.469177 0.000000
0.002838 0.471130 0.000000
0.003784 0.471436 0.000000
0.004700 0.470459 0.000000
0.013733 0.469818 0.000000
0.027344 0.468628 0.000000
0.040436 0.467682 0.000000
0.099335 0.475037 0.000000
0.161102 0.487000 0.000000
0.215759 0.487518 0.000000
0.261322 0.487427 0.000000
0.310211 0.498291 0.000000
0.364258 0.522034 0.000000
0.452454 0.543243 0.038605
0.508209 0.564606 0.102325
0.561005 0.584625 0.134125
0.613464 0.557404 0.148438
0.657806 0.548889 0.150024
0.698425 0.544861 0.157196
0.737518 0.545380 0.164551
0.775757 0.562775 0.173248
0.812714 0.580719 0.181641
0.834381 0.600403 0.186890
0.836029 0.604279 0.187134
0.836975 0.604736 0.187164
0.837891 0.603943 0.187134
0.838867 0.603119 0.187103
0.839844 0.602203 0.187103
0.840790 0.601990 0.187103
0.841736 0.601959 0.187073
0.000000 0.501190 0.000000
0.000946 0.501404 0.000000
0.001892 0.501740 0.000000
0.002838 0.501495 0.000000
0.003784 0.501984 0.000000
0.004700 0.501984 0.000000
0.014862 0.501953 0.000000
0.027863 0.501862 0.000000
0.040344 0.501801 0.000000
0.080200 0.506348 0.000000
0.147949 0.512390 0.000000
0.206604 0.513672 0.000000
0.253387 0.515900 0.000000
0.302429 0.520752 0.000000
0.348175 0.539673 0.000000
0.405579 0.567139 0.000000
0.492859 0.589264 0.041168
0.542603 0.611847 0.088043
0.595642 0.633331 0.134674
0.648499 0.608185 0.159058
0.691498 0.595032 0.161652
0.731506 0.588989 0.166504
0.769135 0.585724 0.173340
0.806641 0.602570 0.181732
0.833405 0.618256 0.187622
0.835663 0.622803 0.187866
0.836609 0.622192 0.187866
0.837585 0.621307 0.187805
0.838531 0.620361 0.187775
0.839478 0.619629 0.187744
0.840424 0.619385 0.187744
0.841370 0.619202 0.187744
0.000000 0.521515 0.018707
0.000946 0.521179 0.016968
0.002686 0.520996 0.014191
0.007874 0.520874 0.009186
0.016602 0.520966 0.006317
0.025543 0.521210 0.003326
0.036133 0.521759 0.000305
0.045929 0.522095 0.000000
0.056580 0.522552 0.000000
0.073639 0.524078 0.000000
0.133270 0.534668 0.000000
0.197449 0.536743 0.000000
0.244537 0.541168 0.000000
0.296326 0.546692 0.000000
0.341309 0.561554 0.000000
0.387604 0.584381 0.000000
0.450287 0.613098 0.000000
0.526154 0.635712 0.023743
0.571075 0.657104 0.064423
0.626099 0.681488 0.123932
0.679962 0.658783 0.166656
0.722504 0.640137 0.173248
0.762207 0.631866 0.175934
0.799805 0.626434 0.181976
0.831665 0.641022 0.188812
0.835114 0.645325 0.189056
0.836182 0.641937 0.188904
0.837189 0.640594 0.188843
0.838135 0.639618 0.188782
0.839142 0.638092 0.188782
0.840057 0.637970 0.188751
0.840973 0.637939 0.188721
0.029236 0.538757 0.040527
0.030334 0.538605 0.038910
0.032562 0.538422 0.037018
0.036407 0.538422 0.033722
0.042633 0.538879 0.031006
0.050079 0.539520 0.029022
0.058258 0.540070 0.026947
0.066620 0.540649 0.023987
0.075928 0.541290 0.020905
0.085358 0.542267 0.017639
0.122742 0.549896 0.008911
0.187592 0.557373 0.009125
0.238739 0.563171 0.013000
0.290771 0.571503 0.009827
0.337006 0.581146 0.000000
0.379059 0.604370 0.000000
0.428925 0.630524 0.000000
0.488464 0.657776 0.000000
0.555237 0.679565 0.004974
0.595551 0.701447 0.036041
0.652435 0.728851 0.088654
0.710388 0.708038 0.175354
0.751892 0.683838 0.185028
0.791534 0.673492 0.185760
0.827911 0.665741 0.189728
0.834229 0.672943 0.190887
0.835724 0.667877 0.190552
0.836670 0.666443 0.190460
0.837677 0.665070 0.190369
0.838593 0.663666 0.190186
0.839539 0.663544 0.190186
0.840485 0.663452 0.190125
0.058167 0.555115 0.062164
0.059174 0.554932 0.060822
0.061371 0.554871 0.059509
0.065369 0.555206 0.057404
0.070709 0.555756 0.055450
0.076599 0.556549 0.053467
0.083527 0.557220 0.051117
0.090240 0.557983 0.048370
0.097839 0.558807 0.044983
0.105988 0.559845 0.041473
0.114319 0.561066 0.038086
0.179230 0.575348 0.027283
0.233337 0.581848 0.028687
0.285095 0.592316 0.024872
0.334412 0.604431 0.013062
0.377777 0.623444 0.000000
0.418365 0.648621 0.000000
0.466919 0.675598 0.000000
0.521149 0.701569 0.000000
0.579895 0.725006 0.000000
0.614594 0.744293 0.000000
0.669098 0.775146 0.032654
0.739136 0.754425 0.185089
0.781982 0.726776 0.194061
0.819214 0.712646 0.196014
0.832397 0.701263 0.194397
0.834717 0.695831 0.193542
0.835938 0.693726 0.193146
0.837006 0.692261 0.192932
0.838043 0.690796 0.192688
0.838989 0.690674 0.192657
0.839935 0.690582 0.192657
0.018799 0.637543 0.011108
0.023438 0.634888 0.013611
0.029633 0.632599 0.015594
0.037964 0.630493 0.017151
0.047150 0.628815 0.018188
0.056396 0.626556 0.019623
0.066772 0.624939 0.019958
0.077820 0.622162 0.021088
0.089294 0.618561 0.022766
0.100739 0.615173 0.024628
0.112549 0.611664 0.026367
0.152435 0.625336 0.009125
0.208923 0.638489 0.000000
0.255920 0.652985 0.000000
0.307465 0.666077 0.000000
0.355591 0.675079 0.000000
0.406097 0.695953 0.000000
0.453461 0.714630 0.000000
0.496094 0.730957 0.000000
0.540436 0.753510 0.000000
0.594666 0.774597 0.000000
0.628235 0.787964 0.000000
0.683319 0.819397 0.000000
0.768524 0.798828 0.194733
0.812683 0.768921 0.201935
0.827576 0.748627 0.203552
0.831360 0.735931 0.200775
0.833038 0.729736 0.199615
0.834045 0.727600 0.199310
0.835114 0.725098 0.198914
0.836060 0.725037 0.198914
0.837006 0.725311 0.198883
0.003906 0.685883 0.000000
0.011505 0.684448 0.000000
0.020233 0.683197 0.000000
0.030884 0.681763 0.000000
0.040405 0.681580 0.000000
0.049896 0.681519 0.000000
0.061493 0.681641 0.000000
0.070343 0.682648 0.000000
0.079590 0.683167 0.000000
0.089081 0.683868 0.000000
0.099030 0.682709 0.000000
0.121796 0.682190 0.000000
0.183044 0.684875 0.000000
0.227966 0.689880 0.000000
0.279938 0.711884 0.000000
0.336273 0.735535 0.000000
0.390869 0.755280 0.000000
0.441254 0.769714 0.000000
0.485779 0.781464 0.000000
0.526184 0.792023 0.000000
0.565033 0.804840 0.000000
0.608643 0.822418 0.000000
0.644440 0.830627 0.000000
0.697205 0.859009 0.000000
0.798065 0.839905 0.202148
0.829987 0.807770 0.205841
0.831970 0.786743 0.205261
0.832977 0.776245 0.205139
0.833679 0.773621 0.205261
0.834320 0.771118 0.205383
0.835236 0.771149 0.205414
0.836182 0.771301 0.205444
0.000000 0.716400 0.000000
0.000946 0.716614 0.000000
0.001892 0.717010 0.000000
0.002838 0.717834 0.000000
0.003784 0.719238 0.000000
0.007355 0.720703 0.000000
0.022430 0.722809 0.000000
0.043854 0.723633 0.000000
0.060516 0.724701 0.000000
0.077332 0.724091 0.000000
0.090668 0.723755 0.000000
0.104340 0.724030 0.000000
0.157349 0.736542 0.000000
0.209076 0.755402 0.000000
0.256775 0.776154 0.000000
0.316437 0.797943 0.000000
0.374207 0.817322 0.000000
0.427460 0.830597 0.000000
0.474792 0.838318 0.000000
0.516205 0.844421 0.000000
0.554932 0.850739 0.000000
0.591125 0.856903 0.000000
0.628754 0.866577 0.000000
0.661865 0.873260 0.000000
0.713379 0.897003 0.000000
0.827881 0.878998 0.203094
0.834808 0.840057 0.207977
0.837006 0.825104 0.206116
0.837860 0.822388 0.205872
0.838684 0.819519 0.205627
0.839630 0.820129 0.205658
0.840576 0.821167 0.205811
0.000000 0.738556 0.000000
0.000946 0.738770 0.000000
0.001892 0.739166 0.000000
0.002838 0.740051 0.000000
0.003784 0.741272 0.000000
0.004700 0.742706 0.000000
0.005646 0.744904 0.000000
0.006989 0.747070 0.000000
0.033478 0.749359 0.000000
0.053406 0.751862 0.000000
0.071411 0.753815 0.000000
0.087097 0.755341 0.000000
0.126251 0.763397 0.000000
0.188293 0.781891 0.000000
0.234589 0.801392 0.000000
0.295502 0.822174 0.000000
0.356110 0.843506 0.000000
0.412415 0.860779 0.000000
0.461945 0.872711 0.000000
0.504608 0.879333 0.000000
0.544312 0.886505 0.000000
0.581421 0.892120 0.000000
0.616608 0.896454 0.000000
0.652374 0.901581 0.000000
0.684540 0.912506 0.000000
0.733795 0.929108 0.000000
0.832184 0.901184 0.186401
0.838165 0.867340 0.211243
0.839081 0.864960 0.210968
0.839966 0.862946 0.210571
0.840912 0.863037 0.210693
0.841858 0.863708 0.210876
0.000000 0.759491 0.000000
0.000946 0.759705 0.000000
0.001892 0.760193 0.000000
0.002838 0.761322 0.000000
0.003784 0.762482 0.000000
0.004700 0.764038 0.000000
0.005646 0.765778 0.000000
0.006592 0.768036 0.000000
0.007538 0.770355 0.000000
0.027130 0.772614 0.000000
0.048737 0.775177 0.000000
0.071747 0.777588 0.000000
0.107056 0.783722 0.000000
0.171997 0.799500 0.000000
0.223419 0.819061 0.000000
0.280304 0.839478 0.000000
0.342407 0.860870 0.000000
