滤镜资源/Professional Luts Collection/Triune-Digital-Cinematic-LUTs/3D LUTs (CUBE)/LOG/Interstellar - LOG.cube
#Created by Benjamin (IWLTBAP) : http://luts.iwltbap.com
#Copyright: (C) Copyright 2016 Triune Films and IWLTBAP
TITLE "Blockbuster LUTs Pack (LOG)"
#LUT size
LUT_3D_SIZE 5
#LUT data points
DOMAIN_MIN 0.000000 0.000000 0.000000
DOMAIN_MAX 0.903226 0.903226 0.903226
0.000000 0.000000 0.016388
0.157623 0.075836 0.051239
0.462006 0.191467 0.148773
0.737488 0.298767 0.262878
0.789673 0.323425 0.279419
0.000000 0.156921 0.010193
0.120636 0.145233 0.038391
0.429382 0.228210 0.119751
0.740967 0.331177 0.249634
0.793762 0.346893 0.271362
0.000000 0.347687 0.011322
0.008759 0.354736 0.000000
0.431213 0.373474 0.102936
0.757111 0.471130 0.196899
0.840149 0.527863 0.207550
0.029236 0.538757 0.040527
0.066620 0.540649 0.023987
0.337006 0.581146 0.000000
0.710388 0.708038 0.175354
0.837677 0.665070 0.190369
0.000000 0.780151 0.000000
0.006592 0.788513 0.000000
0.213806 0.833221 0.000000
0.566803 0.918976 0.000000
0.813446 0.928802 0.016144
0.000000 0.094543 0.171875
0.222321 0.119629 0.169647
0.505920 0.201385 0.198303
0.742004 0.296906 0.287750
0.789581 0.317108 0.302612
0.000000 0.153503 0.158813
0.108459 0.152954 0.168823
0.446228 0.215485 0.153473
0.738586 0.320618 0.267365
0.794464 0.341522 0.284912
0.000000 0.343323 0.044464
0.008148 0.347168 0.024231
0.434143 0.378052 0.110535
0.749451 0.469482 0.198395
0.835815 0.529236 0.209412
0.028778 0.539185 0.063904
0.058258 0.539001 0.038666
0.334930 0.579132 0.020508
0.706787 0.705475 0.181213
0.837646 0.665192 0.197021
0.000000 0.790985 0.006592
0.006592 0.793793 0.006592
0.206757 0.827545 0.006592
0.563446 0.922516 0.006592
0.813538 0.928680 0.023834
0.000000 0.230377 0.392639
0.122589 0.216064 0.375183
0.617828 0.309906 0.343048
0.811951 0.379669 0.387451
0.849030 0.396332 0.400421
0.000000 0.238922 0.364685
0.017365 0.251099 0.390320
0.561646 0.305542 0.338440
0.802338 0.381256 0.383942
0.846680 0.391357 0.387573
0.000000 0.389465 0.400146
0.006744 0.396454 0.396210
0.415710 0.440826 0.448608
0.752502 0.473938 0.421967
0.856812 0.494965 0.397125
0.000000 0.564697 0.366333
0.006592 0.540741 0.337097
0.289948 0.600311 0.175415
0.697906 0.708160 0.202606
0.837433 0.682373 0.217529
0.000000 0.785156 0.108917
0.006592 0.798737 0.044312
0.158325 0.834351 0.020966
0.552917 0.927216 0.016937
0.813538 0.928680 0.030426
0.000000 0.328003 0.561859
0.048370 0.328308 0.533112
0.561737 0.411224 0.517670
0.850922 0.491608 0.645355
0.878174 0.520691 0.687683
0.000000 0.352295 0.588135
0.016235 0.356476 0.603699
0.510986 0.388977 0.537231
0.838654 0.492889 0.630890
0.866333 0.508118 0.641296
0.000000 0.432587 0.635559
0.006592 0.436615 0.639252
0.179993 0.443207 0.723389
0.800690 0.532257 0.646790
0.873322 0.563324 0.655945
0.000000 0.636902 0.720306
0.006592 0.639282 0.708649
0.031006 0.670532 0.725983
0.758606 0.746063 0.740692
0.924011 0.754089 0.726746
0.000000 0.896667 0.800812
0.006592 0.920959 0.787750
0.019653 0.910553 0.673676
0.551361 0.989075 0.396149
0.900299 0.936646 0.508392
0.000000 0.357483 0.611725
0.021637 0.358673 0.579071
0.571533 0.418549 0.569946
0.875092 0.498779 0.700775
0.924133 0.511292 0.738678
0.000000 0.378387 0.644806
0.015503 0.381592 0.654175
0.391235 0.362061 0.635559
0.865509 0.495514 0.697388
0.937164 0.512115 0.747467
0.000000 0.459930 0.710327
0.006592 0.467163 0.723053
0.081421 0.467865 0.801575
0.845428 0.499023 0.803711
0.995972 0.540436 0.837280
0.000000 0.618500 0.837250
0.006592 0.625671 0.844391
0.030029 0.643127 0.865906
0.605133 0.673218 0.923492
0.997162 0.708466 0.916199
0.000000 0.775146 0.914551
0.006592 0.789459 0.920105
0.018219 0.805908 0.925537
0.266205 0.873596 0.951111
0.976440 0.980621 0.952515
