滤镜资源/Professional Luts Collection/Triune-Digital-Cinematic-LUTs/3D LUTs (CUBE)/LOG/Interstellar - LOG.cube
#Created by Benjamin (IWLTBAP) : http://luts.iwltbap.com
#Copyright: (C) Copyright 2016 Triune Films and IWLTBAP
TITLE "Blockbuster LUTs Pack (LOG)"
#LUT size
LUT_3D_SIZE 8
#LUT data points
DOMAIN_MIN 0.000000 0.000000 0.000000
DOMAIN_MAX 0.903226 0.903226 0.903226
0.000000 0.000000 0.016388
0.048645 0.027985 0.026276
0.196472 0.090515 0.058441
0.362305 0.158447 0.106110
0.561462 0.225800 0.193176
0.724182 0.292847 0.258057
0.760254 0.309479 0.270477
0.789673 0.323425 0.279419
0.000000 0.069672 0.018646
0.016907 0.067657 0.027283
0.175751 0.098999 0.054565
0.340515 0.153198 0.099213
0.537628 0.221527 0.181854
0.714081 0.294373 0.252014
0.761322 0.316254 0.268097
0.790588 0.330475 0.277374
0.000000 0.186493 0.007996
0.003784 0.189575 0.000000
0.161285 0.174042 0.039612
0.343506 0.209595 0.083679
0.526245 0.274384 0.153748
0.705841 0.337738 0.226227
0.770966 0.355499 0.254456
0.798065 0.364258 0.265350
0.000000 0.295868 0.003326
0.003784 0.293365 0.000000
0.099976 0.318268 0.000000
0.326355 0.291565 0.092194
0.555603 0.337677 0.149323
0.716156 0.416443 0.199310
0.805969 0.472595 0.217834
0.823883 0.484619 0.219757
0.000000 0.400146 0.014435
0.003784 0.405060 0.000000
0.053741 0.413239 0.000000
0.277008 0.434692 0.000000
0.533112 0.461090 0.122986
0.710846 0.483185 0.163269
0.834442 0.562897 0.186676
0.839935 0.567993 0.185699
0.000000 0.521515 0.018707
0.016602 0.520966 0.006317
0.056580 0.522552 0.000000
0.244537 0.541168 0.000000
0.450287 0.613098 0.000000
0.679962 0.658783 0.166656
0.831665 0.641022 0.188812
0.838135 0.639618 0.188782
0.003906 0.685883 0.000000
0.040405 0.681580 0.000000
0.079590 0.683167 0.000000
0.183044 0.684875 0.000000
0.390869 0.755280 0.000000
0.565033 0.804840 0.000000
0.798065 0.839905 0.202148
0.833679 0.773621 0.205261
0.000000 0.780151 0.000000
0.003784 0.783447 0.000000
0.007538 0.790741 0.000000
0.083771 0.801483 0.000000
0.332184 0.872650 0.000000
0.529327 0.914307 0.000000
0.671234 0.935211 0.000000
0.813446 0.928802 0.016144
0.000000 0.040344 0.085388
0.076263 0.046295 0.091858
0.218689 0.083496 0.095184
0.363068 0.139374 0.126801
0.558289 0.218262 0.206055
0.722900 0.290680 0.263367
0.760071 0.307617 0.276062
0.789520 0.321533 0.285004
0.000000 0.065430 0.079254
0.018677 0.061401 0.077118
0.179230 0.108307 0.084229
0.339966 0.162720 0.099945
0.536682 0.221985 0.184784
0.713745 0.293488 0.256714
0.761993 0.315613 0.272980
0.791199 0.329865 0.282257
0.000000 0.182281 0.019684
0.003784 0.187225 0.023254
0.161621 0.175201 0.054260
0.338379 0.209747 0.084167
0.524078 0.272369 0.157227
0.703064 0.333038 0.230896
0.770355 0.352661 0.259491
0.797638 0.361755 0.270325
0.000000 0.295105 0.013885
0.003784 0.292114 0.011932
0.091827 0.320801 0.003784
0.332794 0.296875 0.097961
0.560089 0.340424 0.154419
0.713715 0.416168 0.201355
0.801849 0.471771 0.219208
0.820435 0.483917 0.221497
0.000000 0.399994 0.025970
0.003784 0.403290 0.006409
0.044403 0.413422 0.003784
0.276581 0.434906 0.003784
0.538788 0.466888 0.128571
0.717346 0.487915 0.168335
0.833710 0.564423 0.189453
0.839874 0.569122 0.189514
0.000732 0.521729 0.028442
0.014709 0.520752 0.013397
0.053680 0.521637 0.003784
0.241943 0.540924 0.007446
0.448181 0.612823 0.003784
0.678925 0.658905 0.170380
0.831268 0.644867 0.192780
0.838165 0.639709 0.192596
0.002808 0.687775 0.003784
0.035583 0.684143 0.003784
0.075531 0.685425 0.003784
0.178040 0.688202 0.003784
0.388306 0.751251 0.003784
0.563812 0.803802 0.003784
0.796143 0.837891 0.205658
0.833466 0.772247 0.209167
0.000000 0.784912 0.003784
0.003784 0.786072 0.003784
0.007538 0.792328 0.003784
0.078125 0.802032 0.003784
0.325958 0.867157 0.003784
0.527649 0.916321 0.003784
0.669434 0.935181 0.003784
0.813629 0.928619 0.021606
0.000000 0.113464 0.202606
0.034973 0.107941 0.196014
0.273071 0.146637 0.198090
0.452576 0.193054 0.217987
0.597076 0.241455 0.236389
0.734650 0.297302 0.287018
0.767059 0.310028 0.297852
0.793304 0.321228 0.306183
0.000000 0.115082 0.185272
0.008362 0.121094 0.192474
0.239471 0.143341 0.186798
0.417358 0.183197 0.199921
0.569855 0.232788 0.223755
0.720642 0.293488 0.280945
0.764404 0.311401 0.295654
0.791504 0.322968 0.304291
0.000000 0.185730 0.186737
0.003784 0.186676 0.184814
0.141968 0.189484 0.205750
0.354065 0.225006 0.183441
0.528107 0.243988 0.190796
0.697876 0.312653 0.252899
0.770111 0.341125 0.277283
0.797638 0.352631 0.285919
0.000000 0.316101 0.139160
0.003784 0.305786 0.118500
0.016235 0.336151 0.066010
0.332092 0.305267 0.144501
0.542450 0.340576 0.151581
0.700073 0.413818 0.199585
0.794403 0.468079 0.219971
0.817108 0.478119 0.226410
0.000000 0.386505 0.075897
0.003784 0.388000 0.068146
0.009766 0.420471 0.009766
0.272644 0.433289 0.021851
0.533569 0.465607 0.131531
0.713074 0.486511 0.169830
0.831390 0.564575 0.192078
0.839813 0.570435 0.193359
0.000000 0.520905 0.049927
0.009094 0.520447 0.037140
0.042664 0.519867 0.015686
0.235626 0.538513 0.017731
0.442383 0.611816 0.007538
0.676239 0.657440 0.173889
0.831024 0.643372 0.196503
0.838043 0.641449 0.196472
0.000000 0.689545 0.007538
0.006683 0.693634 0.007538
0.058807 0.693359 0.007538
0.167480 0.695557 0.007538
0.382172 0.741119 0.007538
0.562134 0.802063 0.007538
0.794098 0.834442 0.209259
0.833191 0.769196 0.212982
0.000000 0.792267 0.007538
0.003784 0.793243 0.007538
0.007538 0.796875 0.007538
0.056213 0.804535 0.007538
0.319031 0.857574 0.007538
0.524231 0.918854 0.007538
0.667358 0.934082 0.007538
0.813538 0.928680 0.024780
0.000000 0.193848 0.331421
0.010895 0.187103 0.319733
0.203064 0.173492 0.350830
0.514893 0.259033 0.306061
0.665405 0.297516 0.327148
0.789093 0.349487 0.359802
0.817871 0.356354 0.360565
0.842041 0.363098 0.361725
0.000000 0.193848 0.319611
0.007751 0.192780 0.317780
0.158508 0.182129 0.334473
0.480255 0.252472 0.298340
0.643616 0.289734 0.316650
0.776825 0.343384 0.350464
0.816772 0.353149 0.350586
0.840881 0.360748 0.351562
0.000000 0.214020 0.298950
0.003784 0.217346 0.300964
0.057312 0.237976 0.340851
0.422089 0.271393 0.306030
0.606903 0.297638 0.312897
0.751465 0.340973 0.335205
0.817108 0.355133 0.331940
0.831604 0.361298 0.327057
0.000000 0.319824 0.323486
0.003784 0.326019 0.324158
0.015717 0.340118 0.334503
0.302521 0.352295 0.365753
0.549225 0.371857 0.344055
0.709869 0.385803 0.330078
0.813690 0.423553 0.320801
0.839233 0.429535 0.311646
0.000000 0.499420 0.354980
0.003784 0.482910 0.330353
0.009064 0.452728 0.285675
0.210815 0.480774 0.172272
0.532776 0.495239 0.259064
0.696045 0.505554 0.198242
0.809021 0.575500 0.204224
0.830292 0.585266 0.207520
0.000000 0.483856 0.253815
0.003784 0.471222 0.233612
0.007538 0.453857 0.203949
0.194122 0.554230 0.094391
0.449463 0.612793 0.054779
0.671997 0.661346 0.184967
0.829163 0.643341 0.206207
0.837708 0.649658 0.205383
0.000000 0.660187 0.150299
0.003784 0.656525 0.142334
0.007538 0.660309 0.122986
0.120850 0.718994 0.016205
0.371033 0.725159 0.014374
0.558441 0.798920 0.012665
0.790802 0.829193 0.212616
0.832703 0.764740 0.216736
0.000000 0.797150 0.013733
0.003784 0.800079 0.013245
0.007538 0.806396 0.012421
0.015656 0.808441 0.011322
0.307922 0.850464 0.011322
0.518646 0.919800 0.011322
0.663635 0.933105 0.011322
0.813751 0.928528 0.030579
0.000000 0.263519 0.454163
0.010223 0.259552 0.440765
0.155579 0.250061 0.424957
0.466644 0.321838 0.398560
0.699829 0.361115 0.378021
0.805542 0.393829 0.425598
0.835480 0.406342 0.441650
0.852234 0.417358 0.455566
0.000000 0.264252 0.445007
0.007050 0.262756 0.440613
0.122284 0.251343 0.416931
0.434326 0.311646 0.388824
0.680878 0.353058 0.366760
0.795197 0.390350 0.411438
0.834351 0.407104 0.432953
0.852020 0.417969 0.446838
0.000000 0.276337 0.423096
0.003784 0.275848 0.422119
0.020508 0.287689 0.455170
0.370789 0.286407 0.436920
0.646240 0.356842 0.377777
0.772430 0.393799 0.404053
0.835327 0.416290 0.430054
0.852173 0.425934 0.440857
0.000000 0.328644 0.437622
0.003784 0.333771 0.441681
0.015076 0.350006 0.461273
0.192505 0.365509 0.517242
0.601318 0.407166 0.433563
0.743774 0.429352 0.441650
0.839355 0.450684 0.449402
0.854889 0.455536 0.448608
0.000000 0.462097 0.484528
0.003784 0.467377 0.482910
0.008301 0.467285 0.475800
0.029175 0.511566 0.515808
0.527222 0.526825 0.534119
0.722412 0.560028 0.535522
0.852783 0.570160 0.505157
0.875854 0.569275 0.492859
0.000000 0.677887 0.566589
0.003784 0.678650 0.563080
0.007538 0.664276 0.540283
0.022858 0.606567 0.455963
0.424744 0.630463 0.345490
0.693573 0.681610 0.403107
0.840881 0.679352 0.409576
0.875153 0.695190 0.406586
0.000000 0.737640 0.425598
0.003784 0.723022 0.412689
0.007538 0.700043 0.395264
0.015533 0.663177 0.355194
0.332092 0.769562 0.171570
0.595856 0.802185 0.171936
0.787018 0.823486 0.233948
0.839203 0.766022 0.268005
0.000000 0.821808 0.335388
0.003784 0.817657 0.309113
0.007538 0.814026 0.272705
0.011322 0.808990 0.214722
0.227753 0.913818 0.031769
0.502014 0.929626 0.029694
0.669403 0.938812 0.027466
0.818573 0.928131 0.075989
0.000000 0.323700 0.554962
0.009491 0.324615 0.545380
0.119171 0.323303 0.519745
0.450409 0.369843 0.487457
0.666534 0.427734 0.534058
0.831177 0.475525 0.607330
0.859589 0.491364 0.631287
0.863525 0.495941 0.627502
0.000000 0.332092 0.563354
0.006287 0.332336 0.560852
0.076965 0.326813 0.525208
0.364197 0.335815 0.519470
0.644531 0.422058 0.520325
0.820770 0.470490 0.589294
0.855103 0.485535 0.609924
0.859985 0.490601 0.606934
0.000000 0.348297 0.566101
0.003784 0.346649 0.565918
0.019867 0.350861 0.588959
0.230682 0.338013 0.545258
0.600616 0.422028 0.514130
0.797424 0.466370 0.564728
0.849640 0.479004 0.577240
0.856049 0.483643 0.575928
0.000000 0.386078 0.575562
0.003784 0.390076 0.579895
0.014404 0.394501 0.589386
0.065369 0.390869 0.632355
0.584839 0.413025 0.582733
0.767120 0.487915 0.577789
0.847961 0.509094 0.591003
0.860718 0.519104 0.598633
0.000000 0.455414 0.614349
0.003784 0.461151 0.619080
0.007690 0.462769 0.617004
0.028534 0.492249 0.662262
0.372101 0.503204 0.734131
0.751282 0.562775 0.638062
0.862885 0.597290 0.654938
0.879181 0.603058 0.655731
0.000000 0.603577 0.670471
0.003784 0.606110 0.665344
0.007538 0.604523 0.655853
0.022217 0.625549 0.665283
0.206268 0.666809 0.714905
0.717102 0.705505 0.701080
0.869995 0.722229 0.698212
0.915192 0.718933 0.683624
0.000000 0.823975 0.750580
0.003784 0.825043 0.748901
0.007538 0.823730 0.744019
0.014862 0.827057 0.736206
0.036957 0.786011 0.618134
0.605133 0.816589 0.500397
0.831604 0.837830 0.534363
0.910461 0.811737 0.580658
0.000000 0.909180 0.731964
0.003784 0.904938 0.700409
0.007538 0.900146 0.661346
0.011322 0.892181 0.606506
0.031067 0.890167 0.494415
0.480255 0.987854 0.308594
0.737854 0.952484 0.371277
0.886871 0.932007 0.443054
0.000000 0.340424 0.582733
0.008850 0.340698 0.573242
0.102264 0.341553 0.544617
0.395569 0.363098 0.534424
0.660400 0.443604 0.569305
0.832611 0.492523 0.653992
0.874359 0.504822 0.683807
0.903290 0.521301 0.719696
0.000000 0.348450 0.591797
0.005554 0.348053 0.590118
0.052673 0.345856 0.554535
0.327881 0.362640 0.543304
0.639404 0.440613 0.565125
0.818970 0.492096 0.647522
0.876648 0.508453 0.687286
0.907471 0.523682 0.723358
0.000000 0.368652 0.612213
0.003784 0.368469 0.614807
0.019196 0.373901 0.638885
0.206970 0.370483 0.589813
0.625122 0.423096 0.589722
0.793549 0.493469 0.648041
0.885040 0.515350 0.699707
0.920593 0.525574 0.733459
0.000000 0.410889 0.641876
0.003784 0.414948 0.648712
0.013672 0.417786 0.661133
0.033539 0.419250 0.716156
0.377533 0.361420 0.736176
0.820099 0.467163 0.704590
0.955780 0.504913 0.754700
0.974792 0.525848 0.779419
0.000000 0.491119 0.723389
0.003784 0.498749 0.733459
0.007538 0.500366 0.737976
0.027893 0.518402 0.773682
0.229858 0.510468 0.834869
0.695343 0.513153 0.827179
0.983276 0.554413 0.823578
0.980804 0.584503 0.809937
0.000000 0.588501 0.800903
0.003784 0.594421 0.806488
0.007538 0.596283 0.807220
0.021515 0.610901 0.820526
0.042725 0.617401 0.838074
0.576141 0.643616 0.879700
0.937714 0.682190 0.836395
0.937408 0.716858 0.809875
0.000000 0.731415 0.856842
0.003784 0.732758 0.852997
0.007538 0.732269 0.845917
0.014191 0.733673 0.837402
0.036316 0.761627 0.848541
0.429169 0.802643 0.863220
0.867462 0.857330 0.845001
0.951599 0.857513 0.841064
0.000000 0.815125 0.871277
0.003784 0.825562 0.868896
0.007538 0.838257 0.865967
0.011322 0.856598 0.860291
0.030304 0.915985 0.867096
0.070435 0.954437 0.812134
0.760284 0.983856 0.664307
0.938660 0.959839 0.698975
0.000000 0.357483 0.611725
0.008514 0.358032 0.602295
0.084534 0.358887 0.570770
0.362488 0.377899 0.565399
0.667755 0.450439 0.598022
0.842957 0.494629 0.682434
0.897797 0.502625 0.716125
0.924133 0.511292 0.738678
0.000000 0.364410 0.620697
0.005249 0.363953 0.618774
0.026917 0.362854 0.581268
0.306396 0.374969 0.559784
0.649445 0.444763 0.594299
0.828766 0.495331 0.677063
0.904541 0.503174 0.720428
0.930389 0.512329 0.742798
0.000000 0.383698 0.645386
0.003784 0.383453 0.647339
0.018921 0.387604 0.668854
0.195618 0.385834 0.614594
0.631866 0.420929 0.643341
0.822601 0.482025 0.679352
0.927673 0.498108 0.735413
0.946075 0.511444 0.754578
0.000000 0.419983 0.667175
0.003784 0.425476 0.676270
0.013367 0.427094 0.687225
0.033234 0.431793 0.745728
0.342224 0.373840 0.762299
0.821655 0.466919 0.749542
0.984314 0.491425 0.795410
0.989044 0.517609 0.807068
0.000000 0.500580 0.749695
0.003784 0.507996 0.758789
0.007538 0.510773 0.763916
0.027496 0.524109 0.793976
0.204193 0.515656 0.852051
0.642670 0.497162 0.855621
0.979126 0.554016 0.862122
0.997162 0.575531 0.866150
0.000000 0.591675 0.820374
0.003784 0.598267 0.826447
0.007538 0.600494 0.830109
0.021027 0.615143 0.845428
0.042267 0.620361 0.863922
0.517609 0.632690 0.916840
0.923370 0.672333 0.903015
0.997162 0.678131 0.908173
0.000000 0.708862 0.885468
0.003784 0.712402 0.888214
0.007538 0.713196 0.890015
0.013733 0.714294 0.891846
0.035767 0.727478 0.904572
0.361328 0.735382 0.914917
0.827148 0.819550 0.923279
0.990692 0.819855 0.932007
0.000000 0.775146 0.914551
0.003784 0.784637 0.918518
0.007538 0.790100 0.920624
0.011322 0.795135 0.922180
0.029602 0.823273 0.932404
0.051666 0.862000 0.947327
0.689209 0.920746 0.954773
0.976440 0.980621 0.952515
