滤镜资源/Professional Luts Collection/Triune-Digital-Cinematic-LUTs/3D LUTs (CUBE)/LOG/Mad Max Fury Road - LOG.cube
#Created by Benjamin (IWLTBAP) : http://luts.iwltbap.com
#Copyright: (C) Copyright 2016 Triune Films and IWLTBAP
TITLE "Blockbuster LUTs Pack (LOG)"
#LUT size
LUT_3D_SIZE 32
#LUT data points
0.023407 0.044312 0.050140
0.025940 0.045410 0.050964
0.033997 0.049194 0.053040
0.060120 0.053680 0.056122
0.089996 0.061096 0.060547
0.124298 0.070801 0.066162
0.159973 0.081451 0.071808
0.200745 0.091309 0.072296
0.244812 0.099945 0.063995
0.292358 0.106689 0.043457
0.340546 0.115173 0.033295
0.388123 0.128448 0.038879
0.431763 0.139221 0.044312
0.483459 0.149506 0.053650
0.537140 0.161560 0.085175
0.591309 0.173462 0.115875
0.645355 0.184998 0.142822
0.697754 0.196381 0.166565
0.749786 0.207825 0.181885
0.793335 0.217133 0.190399
0.818695 0.222626 0.195221
0.831787 0.225342 0.197632
0.839294 0.227051 0.198975
0.846863 0.228729 0.200348
0.854095 0.230377 0.201660
0.861359 0.231934 0.202850
0.868805 0.233704 0.204102
0.876251 0.235413 0.205292
0.883606 0.237122 0.206482
0.890930 0.238739 0.207642
0.898315 0.240448 0.208771
0.905640 0.242188 0.209961
0.023834 0.048737 0.050323
0.025543 0.048767 0.051270
0.032013 0.051605 0.052917
0.055664 0.055695 0.056152
0.085754 0.061981 0.060211
0.119781 0.071167 0.065643
0.155060 0.081329 0.071228
0.195648 0.091675 0.073120
0.239746 0.100769 0.065491
0.287720 0.107666 0.045685
0.336121 0.115784 0.032745
0.383759 0.128113 0.038422
0.427338 0.139618 0.043793
0.479462 0.149750 0.052795
0.532928 0.162262 0.082947
0.587128 0.174255 0.113647
0.641296 0.185944 0.140747
0.694153 0.197540 0.164337
0.747131 0.209412 0.180481
0.791290 0.218964 0.189178
0.818207 0.224731 0.194275
0.832886 0.227875 0.196991
0.840393 0.229584 0.198334
0.847931 0.231232 0.199615
0.855255 0.232910 0.200897
0.862549 0.234589 0.202148
0.869995 0.236298 0.203400
0.877472 0.238037 0.204590
0.884766 0.239746 0.205688
0.892029 0.241455 0.206848
0.899384 0.243195 0.208008
0.906738 0.244873 0.209229
0.024780 0.061371 0.051208
0.026398 0.060272 0.052094
0.031189 0.059052 0.053436
0.052277 0.061401 0.056519
0.081451 0.065094 0.060211
0.115204 0.072296 0.065216
0.150238 0.081390 0.070679
0.190491 0.091980 0.073822
0.234650 0.101440 0.066681
0.282867 0.108612 0.047943
0.331635 0.116150 0.031830
0.379700 0.128143 0.037537
0.423370 0.139496 0.042877
0.474640 0.150085 0.052002
0.528259 0.162720 0.080597
0.582581 0.174957 0.111267
0.636810 0.186768 0.138367
0.690308 0.198547 0.162048
0.743958 0.211060 0.178955
0.788635 0.220551 0.187836
0.817596 0.226837 0.193268
0.834106 0.230591 0.196289
0.841675 0.232239 0.197571
0.849213 0.233978 0.198883
0.856506 0.235657 0.200104
0.863831 0.237366 0.201385
0.871246 0.238983 0.202667
0.878723 0.240753 0.203888
0.886017 0.242493 0.205017
0.893219 0.244202 0.206085
0.900543 0.245911 0.207245
0.907867 0.247620 0.208435
0.026794 0.079712 0.050964
0.028503 0.078339 0.052063
0.031281 0.076477 0.053711
0.051788 0.073303 0.056030
0.080688 0.076080 0.057953
0.111877 0.081055 0.064941
0.146301 0.087860 0.070892
0.185760 0.095612 0.074280
0.228973 0.103882 0.068298
0.276581 0.110779 0.050995
0.324738 0.116943 0.031647
0.372955 0.127960 0.036774
0.416870 0.139099 0.042145
0.467163 0.149719 0.049561
0.520538 0.162567 0.076447
0.575256 0.175079 0.107239
0.629761 0.187073 0.134796
0.683289 0.199066 0.158264
0.737000 0.211853 0.176575
0.783447 0.221710 0.185944
0.816681 0.229126 0.192139
0.835327 0.233215 0.195526
0.842926 0.234985 0.196838
0.850464 0.236725 0.198120
0.857788 0.238403 0.199341
0.865082 0.240051 0.200592
0.872528 0.241760 0.201904
0.880005 0.243500 0.203125
0.887329 0.245270 0.204285
0.894501 0.246948 0.205322
0.901764 0.248688 0.206390
0.909027 0.250488 0.207581
0.026581 0.101196 0.054047
0.028900 0.099854 0.054138
0.031067 0.098694 0.054565
0.044006 0.098358 0.057068
0.079376 0.092499 0.055908
0.114563 0.091248 0.060883
0.145050 0.098297 0.068604
0.182465 0.105835 0.072571
0.225281 0.111206 0.068268
0.273193 0.116486 0.051636
0.321838 0.122009 0.031525
0.369690 0.131592 0.036438
0.412476 0.142853 0.041504
0.462891 0.152496 0.048309
0.513824 0.164429 0.072388
0.567688 0.175507 0.102722
0.622528 0.187592 0.130798
0.676025 0.199707 0.153961
0.730194 0.212769 0.174347
0.778015 0.222992 0.183960
0.813232 0.230743 0.190552
0.836792 0.236023 0.194794
0.844391 0.237793 0.196075
0.851807 0.239441 0.197388
0.859131 0.241241 0.198608
0.866486 0.242950 0.199799
0.873810 0.244751 0.200958
0.881287 0.246399 0.202209
0.888641 0.248199 0.203369
0.895874 0.249908 0.204498
0.903137 0.251678 0.205566
0.910431 0.253510 0.206726
0.033875 0.124481 0.051300
0.035461 0.123352 0.052063
0.038116 0.123535 0.052063
0.044678 0.125061 0.051514
0.071686 0.122070 0.053467
0.116272 0.111328 0.056427
0.151794 0.109711 0.061157
0.186523 0.115967 0.061859
0.225464 0.123016 0.059357
0.270813 0.126923 0.047455
0.319885 0.131042 0.028687
0.366791 0.140594 0.034668
0.411713 0.151184 0.040009
0.460938 0.160980 0.046692
0.511200 0.173248 0.066437
0.564362 0.184723 0.096619
0.619232 0.195801 0.124878
0.671997 0.207031 0.147522
0.724731 0.218140 0.169189
0.773285 0.227112 0.180969
0.811707 0.234467 0.188568
0.838562 0.239532 0.193817
0.845856 0.240784 0.195251
0.853271 0.242462 0.196564
0.860596 0.244110 0.197784
0.867950 0.245819 0.198975
0.875244 0.247589 0.200104
0.882599 0.249451 0.201294
0.889954 0.251160 0.202484
0.897247 0.252869 0.203674
0.904572 0.254669 0.204773
0.911865 0.256561 0.205872
0.040497 0.149048 0.049347
0.043030 0.148926 0.049286
0.046265 0.149841 0.048737
0.049591 0.150391 0.047882
0.069244 0.150299 0.046906
0.106384 0.144745 0.052856
0.160248 0.131378 0.037079
0.195862 0.128326 0.044556
0.234406 0.134491 0.037598
0.274384 0.139740 0.027649
0.316956 0.145630 0.025757
0.363800 0.155701 0.031311
0.411835 0.165985 0.037811
0.458008 0.175415 0.043396
0.511475 0.183350 0.053558
0.563049 0.196411 0.085144
0.617828 0.206757 0.115509
0.671112 0.217865 0.140015
0.723022 0.228790 0.162109
0.772278 0.238495 0.175995
0.812378 0.245880 0.183960
0.843781 0.251312 0.190277
0.851318 0.251465 0.192230
0.857788 0.251343 0.194031
0.864441 0.251740 0.195587
0.871429 0.252838 0.197021
0.878479 0.254089 0.198334
0.885468 0.255310 0.199646
0.892334 0.256409 0.200958
0.899323 0.257538 0.202332
0.906586 0.259247 0.203430
0.913910 0.261047 0.204498
0.047028 0.175049 0.047943
0.050049 0.175690 0.047241
0.053345 0.176514 0.046295
0.056549 0.176605 0.045135
0.066406 0.179230 0.041718
0.099792 0.174500 0.045685
0.141907 0.165314 0.058258
0.204407 0.151154 0.012817
0.244385 0.147980 0.016083
0.283020 0.155487 0.018951
0.320801 0.162750 0.023529
0.362518 0.171265 0.028778
0.409668 0.180298 0.035034
0.455536 0.191193 0.040192
0.508881 0.200134 0.048004
0.565582 0.207947 0.067474
0.616852 0.219421 0.103149
0.670990 0.230652 0.130219
0.722656 0.241699 0.153015
0.772858 0.252258 0.170258
0.815063 0.260315 0.178650
0.848724 0.266602 0.185089
0.859650 0.267212 0.187714
0.865814 0.266632 0.189636
0.871948 0.266083 0.191528
0.878662 0.266876 0.192963
0.885498 0.267853 0.194305
0.892395 0.268890 0.195709
0.899048 0.269623 0.197113
0.905731 0.270477 0.198517
0.912933 0.272217 0.199646
0.920105 0.273987 0.200714
0.054230 0.201263 0.048431
0.057404 0.201935 0.047699
0.060608 0.202759 0.046600
0.063354 0.202972 0.044647
0.066589 0.203186 0.043060
0.092133 0.204254 0.039764
0.136688 0.198212 0.050079
0.182037 0.187561 0.056488
0.248688 0.172943 0.006927
0.289886 0.172424 0.017517
0.329712 0.180206 0.022675
0.372192 0.188782 0.027924
0.413696 0.195587 0.033081
0.456543 0.204865 0.038361
0.509644 0.213013 0.046051
0.566681 0.219055 0.055237
0.618317 0.232239 0.086121
0.671204 0.245514 0.115906
0.723724 0.257050 0.140778
0.774200 0.268036 0.162964
0.817322 0.276337 0.172150
0.853302 0.283051 0.179047
0.869080 0.284943 0.182465
0.874878 0.284210 0.184357
0.880768 0.283447 0.186310
0.887573 0.284424 0.187714
0.894409 0.285461 0.189117
0.901154 0.286194 0.190521
0.907471 0.287231 0.191895
0.914093 0.288086 0.193329
0.921204 0.290161 0.194397
0.928009 0.292297 0.195465
0.059265 0.226746 0.047058
0.062317 0.227478 0.045990
0.065430 0.228333 0.044739
0.068512 0.228546 0.043365
0.071869 0.228943 0.041595
0.086487 0.233887 0.034393
0.126923 0.231232 0.040283
0.176788 0.219208 0.058380
0.235840 0.214905 0.025238
0.294037 0.196289 0.009735
0.339142 0.197510 0.021027
0.381836 0.206238 0.026703
0.424255 0.214386 0.032104
0.467743 0.219788 0.038330
0.516968 0.224731 0.045868
0.569489 0.231506 0.053955
0.621490 0.243347 0.071289
0.673279 0.258453 0.101349
0.724854 0.272247 0.128265
0.776459 0.285156 0.150360
0.819855 0.294983 0.163940
0.859589 0.303650 0.171326
0.879425 0.306946 0.175598
0.885071 0.306030 0.177582
0.890717 0.304993 0.179657
0.897003 0.305725 0.181183
0.903381 0.306427 0.182831
0.909760 0.307037 0.184479
0.916229 0.308167 0.185730
0.922668 0.309265 0.186951
0.929565 0.311493 0.187927
0.936432 0.313782 0.188965
0.064941 0.251343 0.046722
0.067963 0.251953 0.045502
0.071014 0.252686 0.044250
0.074036 0.252808 0.042938
0.077454 0.253479 0.040924
0.085236 0.256744 0.035736
0.117188 0.261200 0.033051
0.167816 0.253326 0.046722
0.220825 0.240204 0.061554
0.288544 0.238495 0.000000
0.343109 0.220825 0.012665
0.389954 0.223663 0.024780
0.436401 0.231079 0.032104
0.488312 0.236877 0.039337
0.538269 0.241272 0.047577
0.581573 0.245087 0.054138
0.629181 0.256165 0.071991
0.678589 0.270691 0.095459
0.727692 0.285736 0.120544
0.777893 0.299347 0.142487
0.822235 0.311127 0.157898
0.861572 0.322266 0.164368
0.889709 0.330048 0.168640
0.895172 0.330109 0.169891
0.900543 0.329620 0.171478
0.906677 0.329956 0.173096
0.912872 0.330750 0.174591
0.919037 0.331512 0.176117
0.925385 0.332397 0.177551
0.931641 0.333282 0.178955
0.938507 0.335449 0.179932
0.945312 0.337830 0.180847
0.071106 0.276947 0.046265
0.073761 0.276886 0.045410
0.076752 0.277405 0.044006
0.079773 0.277618 0.042389
0.083069 0.278290 0.040192
0.086304 0.278778 0.037231
0.109833 0.283905 0.031097
0.157013 0.288116 0.033966
0.213837 0.274780 0.054413
0.284973 0.268677 0.009277
0.337341 0.258728 0.001709
0.395325 0.246033 0.016022
0.449341 0.248077 0.030212
0.506744 0.253418 0.040802
0.561310 0.259491 0.048798
0.608368 0.267548 0.060852
0.648102 0.275085 0.079163
0.687012 0.283875 0.099762
0.734650 0.298889 0.123199
0.783051 0.314087 0.144440
0.826172 0.327942 0.153503
0.864441 0.339447 0.158844
0.896942 0.349243 0.163269
0.906128 0.350647 0.164948
0.911560 0.350647 0.166321
0.917389 0.351471 0.167389
0.923798 0.352936 0.168518
0.930023 0.354401 0.169525
0.935944 0.355835 0.170349
0.941925 0.357544 0.171051
0.948486 0.360199 0.171570
0.954956 0.362671 0.172180
0.076843 0.303223 0.042450
0.079102 0.302643 0.042175
0.081635 0.302673 0.040833
0.084320 0.302673 0.038757
0.087402 0.303223 0.035309
0.090607 0.304047 0.030975
0.104004 0.307739 0.023926
0.145844 0.311768 0.026703
0.205231 0.312408 0.038330
0.262817 0.298950 0.059937
0.340240 0.300629 0.000000
0.391479 0.287750 0.004303
0.455292 0.273712 0.020050
0.520477 0.274353 0.037628
0.579407 0.278748 0.049561
0.628784 0.289093 0.067474
0.670959 0.299011 0.089539
0.712036 0.308197 0.111023
0.744507 0.313568 0.126709
0.790588 0.327850 0.144989
0.834290 0.341644 0.150513
0.870789 0.354126 0.153687
0.906647 0.366882 0.155945
0.917877 0.370117 0.156830
0.923737 0.370911 0.157745
0.929413 0.371552 0.158997
0.935486 0.373016 0.159912
0.941620 0.374451 0.160980
0.947754 0.375824 0.162109
0.951324 0.377136 0.162537
0.955292 0.379364 0.162445
0.958862 0.381195 0.161194
0.081238 0.329163 0.036438
0.083527 0.328735 0.035706
0.085785 0.328217 0.034882
0.088379 0.328156 0.032623
0.091339 0.328766 0.029144
0.094574 0.329834 0.024017
0.099030 0.331024 0.018829
0.137634 0.336029 0.018005
0.195648 0.341797 0.024231
0.259827 0.336670 0.046051
0.326111 0.333801 0.032135
0.395081 0.334961 0.000000
0.450836 0.317322 0.008087
0.525116 0.302948 0.025360
0.592041 0.301361 0.044769
0.642090 0.310455 0.070465
0.689972 0.321198 0.097839
0.731018 0.331299 0.118530
0.770538 0.340118 0.131592
0.808044 0.348267 0.139740
0.842957 0.356079 0.146454
0.878845 0.368073 0.149414
0.915161 0.381226 0.149750
0.931854 0.386688 0.150543
0.939362 0.388733 0.150909
0.944550 0.389557 0.151398
0.948608 0.391174 0.151459
0.951630 0.392761 0.151550
0.955078 0.393921 0.150482
0.956818 0.395477 0.149475
0.958557 0.397919 0.148132
0.960358 0.400482 0.147247
0.084625 0.354492 0.033752
0.087097 0.354309 0.031982
0.089355 0.353882 0.031036
0.092285 0.354614 0.027039
0.095367 0.355682 0.022247
0.098969 0.357513 0.014465
0.103149 0.357788 0.010864
0.129913 0.361298 0.008423
0.188263 0.367981 0.014160
0.253998 0.371185 0.036194
0.311554 0.361969 0.056000
0.394745 0.370392 0.004974
0.462097 0.375275 0.000000
0.519348 0.347504 0.013275
0.595062 0.333099 0.030884
0.654297 0.334900 0.065887
0.700073 0.344452 0.097290
0.746582 0.353058 0.115692
0.787903 0.363434 0.123474
0.825958 0.372772 0.130585
0.861938 0.380188 0.136414
0.887787 0.383240 0.143036
0.922760 0.396240 0.143860
0.944977 0.404480 0.142731
0.948700 0.406708 0.141937
0.950592 0.407104 0.141968
0.952393 0.408447 0.141663
0.954163 0.409882 0.141327
0.956787 0.411072 0.139954
0.958557 0.412781 0.139374
0.960327 0.415131 0.138458
0.962097 0.417694 0.137146
0.089172 0.381866 0.023773
0.092316 0.383240 0.018219
0.095520 0.384674 0.012634
0.098877 0.386383 0.006775
0.103119 0.387482 0.003448
0.107941 0.388031 0.001648
0.114349 0.387909 0.000000
0.121582 0.386688 0.000000
0.181885 0.393738 0.006134
0.247253 0.402588 0.018677
0.309387 0.395142 0.049042
0.375641 0.397980 0.049927
0.460571 0.406799 0.000000
0.527771 0.415497 0.005188
0.588013 0.381348 0.026398
0.655823 0.368530 0.056793
0.710846 0.369995 0.079865
0.754303 0.377228 0.094757
0.801361 0.385681 0.111206
0.839966 0.395416 0.118408
0.878998 0.406006 0.124207
0.907410 0.410950 0.128906
0.935974 0.417969 0.132904
0.945038 0.419983 0.134125
0.950714 0.424164 0.131287
0.952454 0.424713 0.131226
0.954193 0.426361 0.130402
0.955933 0.427765 0.129883
0.958618 0.429321 0.128418
0.960388 0.430756 0.128113
0.962097 0.433167 0.126343
0.964752 0.435608 0.123871
0.097412 0.414673 0.003296
0.100983 0.416382 0.002411
0.105286 0.417297 0.000000
0.110107 0.417694 0.000000
0.115692 0.417694 0.000000
0.122070 0.416748 0.000000
0.129150 0.415894 0.000000
0.136444 0.415009 0.000000
0.175323 0.419220 0.000000
0.237946 0.427490 0.008606
0.304352 0.426453 0.041382
0.365417 0.423828 0.054016
0.443237 0.437073 0.032043
0.519592 0.443634 0.009644
0.587433 0.454834 0.037140
0.649963 0.417358 0.051819
0.712524 0.404480 0.062073
0.764374 0.405487 0.080719
0.805298 0.410126 0.091644
0.850983 0.419006 0.101044
0.891357 0.429047 0.108643
0.922272 0.437317 0.111267
0.938049 0.443939 0.112976
0.947144 0.446320 0.114258
0.952515 0.444824 0.117767
0.954254 0.445038 0.117584
0.956909 0.445923 0.116089
0.958649 0.446808 0.115540
0.960419 0.447693 0.115082
0.962158 0.449249 0.114532
0.963928 0.451935 0.113281
0.966583 0.454498 0.110748
0.108704 0.447449 0.000000
0.113708 0.447113 0.000000
0.119354 0.446869 0.000000
0.125275 0.446320 0.000000
0.131622 0.445984 0.000000
0.137726 0.445343 0.000000
0.144623 0.444672 0.000000
0.151398 0.443604 0.000000
0.171539 0.444824 0.000000
0.230591 0.452698 0.000000
0.297577 0.454895 0.027191
0.358795 0.451752 0.050690
0.426605 0.459900 0.046051
0.510773 0.476410 0.019348
0.575470 0.482819 0.033112
0.643524 0.495544 0.037872
0.706390 0.456451 0.053680
0.766113 0.442474 0.062073
0.815826 0.441986 0.079834
0.853668 0.444855 0.091705
0.896973 0.453064 0.098328
0.927155 0.461212 0.100861
0.937500 0.468689 0.103027
0.948395 0.475128 0.103271
0.955933 0.477844 0.104248
0.958069 0.474945 0.104279
0.959839 0.474274 0.104614
0.961609 0.473938 0.104156
0.963409 0.474731 0.104706
0.965179 0.475555 0.104279
0.966949 0.477661 0.104126
0.968750 0.477783 0.103973
0.117676 0.480713 0.000000
0.122772 0.480621 0.000000
0.128326 0.480682 0.000000
0.134155 0.480530 0.000000
0.140778 0.480316 0.000000
0.147308 0.479431 0.000000
0.154724 0.478607 0.000000
0.162903 0.477356 0.000000
0.171082 0.476074 0.000000
0.219391 0.482330 0.000000
0.286163 0.483704 0.012451
0.351654 0.482391 0.049011
0.412598 0.484985 0.052734
0.488373 0.500977 0.033112
0.570679 0.517578 0.033173
0.629791 0.526520 0.033417
0.695862 0.538910 0.037262
0.760162 0.499023 0.054199
0.816833 0.481781 0.061432
0.864960 0.479279 0.079163
0.899414 0.480286 0.092316
0.926910 0.487152 0.098602
0.938141 0.492584 0.099030
0.948425 0.500000 0.097656
0.957855 0.505768 0.096344
0.961273 0.505829 0.097687
0.963013 0.505310 0.097107
0.964783 0.505646 0.097443
0.966553 0.505951 0.098114
0.968353 0.505859 0.097870
0.970154 0.507599 0.097717
0.971985 0.509613 0.098206
0.126465 0.507446 0.000000
0.131592 0.507629 0.000000
0.137054 0.507965 0.000000
0.143066 0.508301 0.000000
0.149719 0.508759 0.000000
0.156738 0.509033 0.000000
0.164368 0.509094 0.000000
0.172150 0.509186 0.000000
0.179840 0.508820 0.000000
0.210968 0.511353 0.000000
0.272369 0.510773 0.001373
0.340271 0.511230 0.038452
0.403687 0.512085 0.057343
0.471405 0.524109 0.046295
0.549957 0.543823 0.033112
0.626862 0.559662 0.033508
0.682526 0.572205 0.033752
0.744629 0.583069 0.036194
0.809235 0.540710 0.054230
0.866760 0.522644 0.059296
0.909821 0.517212 0.076843
0.927582 0.515228 0.090942
0.937805 0.519012 0.091827
0.948181 0.523895 0.093231
0.959106 0.531342 0.091980
0.963593 0.533508 0.091095
0.965332 0.533142 0.091400
0.967102 0.533569 0.091309
0.968903 0.534271 0.091461
0.970642 0.534821 0.091125
0.972443 0.536804 0.091248
0.975189 0.538422 0.090729
0.136993 0.529541 0.000000
0.142395 0.529877 0.000000
0.147827 0.530243 0.000000
0.153870 0.530579 0.000000
0.159973 0.530884 0.000000
0.167236 0.531342 0.000000
0.174805 0.531830 0.000000
0.182587 0.532104 0.000000
0.190796 0.532562 0.000000
0.204102 0.533752 0.000000
0.260132 0.535980 0.000092
0.327789 0.537811 0.026642
0.394958 0.540863 0.058350
0.458954 0.548492 0.055145
0.530273 0.565125 0.034943
0.609436 0.587616 0.033508
0.680725 0.603973 0.033875
0.731750 0.617462 0.034119
0.792084 0.628876 0.034668
0.855957 0.586639 0.053101
0.907745 0.563934 0.058960
0.929413 0.554199 0.072083
0.938507 0.549713 0.085480
0.948853 0.552032 0.087585
0.959198 0.556732 0.087585
0.966064 0.560699 0.087402
0.967804 0.559814 0.087372
0.969543 0.559906 0.086334
0.971313 0.560944 0.087158
0.973114 0.561005 0.087677
0.974915 0.561615 0.086975
0.976715 0.562134 0.087494
0.148315 0.550049 0.009735
0.153961 0.550720 0.008850
0.159821 0.551483 0.007843
0.166412 0.552277 0.006592
0.173126 0.553070 0.005127
0.180237 0.553619 0.003387
0.187714 0.554382 0.001923
0.195099 0.554840 0.000549
0.203156 0.555359 0.000031
0.211639 0.555756 0.000000
0.247009 0.558441 0.000000
0.316803 0.561920 0.021332
0.383301 0.566528 0.052917
0.448181 0.572296 0.066437
0.518524 0.589111 0.045258
0.590546 0.608673 0.033508
0.664612 0.630707 0.033844
0.729309 0.646515 0.034210
0.777954 0.662415 0.034546
0.836578 0.674469 0.034943
0.902771 0.631805 0.050507
0.931366 0.605103 0.056061
0.940491 0.592316 0.064117
0.949585 0.585205 0.079315
0.960052 0.585297 0.080475
0.968536 0.588654 0.079468
0.970306 0.586395 0.081573
0.972076 0.585632 0.083252
0.973846 0.584839 0.083984
0.975616 0.584045 0.082489
0.977356 0.584381 0.081390
0.979187 0.584229 0.081787
0.162201 0.574799 0.023346
0.167969 0.574280 0.024200
0.174072 0.573944 0.024811
0.180542 0.574097 0.023987
0.187561 0.576141 0.020477
0.194458 0.577637 0.017029
0.201477 0.579102 0.013580
0.208679 0.578857 0.012024
0.216736 0.578979 0.009888
0.225128 0.577820 0.009613
0.234161 0.578308 0.006958
0.303986 0.584198 0.019012
0.372925 0.592896 0.045074
0.440582 0.599915 0.070038
0.507751 0.614716 0.057037
0.579102 0.633453 0.034515
0.646332 0.652649 0.033875
0.714386 0.673889 0.034271
0.776398 0.690948 0.034668
0.822266 0.707245 0.035065
0.879669 0.719421 0.035156
0.933716 0.681366 0.045685
0.942535 0.647552 0.054016
0.951721 0.632538 0.060944
0.960785 0.623138 0.074219
0.969849 0.620300 0.076416
0.973663 0.618286 0.076355
0.975586 0.616577 0.076385
0.977356 0.614349 0.076508
0.978149 0.611725 0.077698
0.979950 0.611176 0.077881
0.981750 0.611084 0.078094
0.184021 0.665222 0.000000
0.187714 0.665985 0.000000
0.194061 0.665131 0.000000
0.199982 0.663055 0.000000
0.203705 0.660736 0.000000
0.210114 0.658936 0.000000
0.217224 0.656830 0.000000
0.223145 0.655396 0.000000
0.230438 0.654572 0.000000
0.238129 0.652710 0.000000
0.246155 0.650024 0.000000
0.291534 0.651459 0.000000
0.359436 0.658875 0.000000
0.426392 0.661957 0.000000
0.494385 0.669189 0.002960
0.565857 0.684326 0.032074
0.633575 0.697510 0.034119
0.694458 0.708496 0.034393
0.758118 0.723785 0.034790
0.819397 0.739014 0.035126
0.863800 0.751770 0.035187
0.917175 0.763855 0.035126
0.946014 0.728668 0.039215
0.954681 0.692657 0.049469
0.963104 0.672974 0.060211
0.972168 0.662048 0.075378
0.976562 0.654541 0.077179
0.978271 0.648926 0.077332
0.980011 0.645660 0.076752
0.981750 0.644012 0.076599
0.983551 0.643860 0.076782
0.985382 0.643951 0.076935
0.192810 0.700928 0.000000
0.199249 0.700378 0.000000
0.207397 0.699982 0.000000
0.213684 0.698029 0.000000
0.218933 0.697052 0.000000
0.226440 0.696533 0.000000
0.234497 0.695648 0.000000
0.241455 0.692902 0.000000
0.247681 0.690369 0.000000
0.255371 0.689209 0.000000
0.263672 0.686707 0.000000
0.281433 0.684662 0.000000
0.342010 0.694244 0.000000
0.406708 0.711578 0.000000
0.478546 0.729187 0.000000
0.551483 0.742920 0.000000
0.621368 0.753021 0.011932
0.684723 0.760162 0.034821
0.742188 0.765289 0.035065
0.798889 0.772797 0.035126
0.860168 0.786072 0.035126
0.901001 0.793213 0.035126
0.944824 0.804230 0.035126
0.956390 0.772858 0.035217
0.966003 0.734985 0.042236
0.975403 0.714661 0.055786
0.980530 0.699341 0.070892
0.983093 0.690887 0.076843
0.983826 0.688416 0.078156
0.985535 0.686371 0.078400
0.987274 0.686432 0.078979
0.989044 0.686310 0.079315
0.191925 0.733612 0.000000
0.197540 0.735107 0.000000
0.204895 0.736816 0.000000
0.212280 0.738373 0.000000
0.219574 0.739899 0.000000
0.226929 0.741577 0.000000
0.234680 0.743408 0.000000
0.243134 0.744263 0.000000
0.251312 0.745697 0.000000
0.259369 0.745453 0.000000
0.267761 0.745483 0.000000
0.276489 0.745300 0.000000
0.326355 0.755219 0.000000
0.391449 0.769379 0.000000
0.463776 0.786163 0.000000
0.538239 0.800934 0.006683
0.609863 0.811890 0.023010
0.674469 0.815796 0.033600
0.733276 0.818542 0.035278
0.788391 0.820709 0.035217
0.841553 0.822449 0.035126
0.898285 0.828613 0.035065
0.931427 0.830688 0.035004
0.953094 0.844330 0.035034
0.964844 0.813904 0.035278
0.976593 0.776581 0.035278
0.985229 0.752228 0.042145
0.988342 0.741974 0.053894
0.989960 0.738861 0.057983
0.990540 0.737213 0.062469
0.992218 0.738098 0.065094
0.993927 0.738251 0.067230
0.197693 0.751190 0.000000
0.200897 0.752716 0.000000
0.206207 0.754364 0.000000
0.212952 0.755951 0.000000
0.219818 0.757599 0.000000
0.228149 0.759338 0.000000
0.236206 0.761200 0.000000
0.244476 0.762939 0.000000
0.252838 0.764984 0.000000
0.261597 0.766937 0.000000
0.270325 0.768677 0.000000
0.279724 0.770203 0.000000
0.308685 0.776459 0.000000
0.373901 0.791962 0.000000
0.443298 0.807678 0.001495
0.519562 0.824005 0.013275
0.594635 0.839233 0.031067
0.661957 0.847687 0.034271
0.720459 0.850464 0.035278
0.776489 0.854095 0.035278
0.830811 0.856903 0.035126
0.881165 0.857056 0.035065
0.928497 0.859039 0.035004
0.949768 0.863129 0.035004
0.961487 0.875031 0.035034
0.973297 0.846954 0.035217
0.984497 0.809296 0.035278
0.992035 0.798523 0.035278
0.993896 0.797852 0.037445
0.995728 0.797394 0.039917
0.997559 0.798431 0.042023
0.999420 0.799957 0.044098
0.203888 0.767700 0.000000
0.206604 0.769165 0.000000
0.209442 0.770752 0.000000
0.214417 0.772308 0.000000
0.220795 0.773895 0.000000
0.228790 0.775665 0.000000
0.237518 0.777496 0.000000
0.245972 0.779297 0.000000
0.254395 0.781097 0.000000
0.263000 0.782867 0.000000
0.272247 0.784851 0.000000
0.282013 0.787170 0.000000
0.303864 0.792114 0.000000
0.360657 0.805389 0.000000
0.430756 0.821777 0.000610
0.507050 0.839447 0.018005
0.580994 0.854675 0.034332
