滤镜资源/Professional Luts Collection/Triune-Digital-Cinematic-LUTs/3D LUTs (CUBE)/LOG/Mad Max Fury Road - LOG.cube
#Created by Benjamin (IWLTBAP) : http://luts.iwltbap.com
#Copyright: (C) Copyright 2016 Triune Films and IWLTBAP
TITLE "Blockbuster LUTs Pack (LOG)"
#LUT size
LUT_3D_SIZE 5
#LUT data points
DOMAIN_MIN 0.000000 0.000000 0.000000
DOMAIN_MAX 0.903226 0.903226 0.903226
0.023407 0.044312 0.050140
0.200745 0.091309 0.072296
0.537140 0.161560 0.085175
0.831787 0.225342 0.197632
0.883606 0.237122 0.206482
0.047028 0.175049 0.047943
0.204407 0.151154 0.012817
0.508881 0.200134 0.048004
0.848724 0.266602 0.185089
0.899048 0.269623 0.197113
0.084625 0.354492 0.033752
0.129913 0.361298 0.008423
0.595062 0.333099 0.030884
0.887787 0.383240 0.143036
0.956787 0.411072 0.139954
0.148315 0.550049 0.009735
0.195099 0.554840 0.000549
0.518524 0.589111 0.045258
0.931366 0.605103 0.056061
0.973846 0.584839 0.083984
0.209839 0.782318 0.000000
0.247833 0.793427 0.000000
0.421356 0.831146 0.004822
0.863617 0.886505 0.035126
0.993988 0.877197 0.035156
0.003693 0.095581 0.180908
0.246490 0.108459 0.183044
0.559875 0.159302 0.162292
0.835083 0.223297 0.236206
0.880890 0.232086 0.241516
0.000000 0.159271 0.158875
0.129272 0.158691 0.155426
0.506073 0.190430 0.095551
0.841858 0.255188 0.213104
0.895935 0.261688 0.218689
0.080078 0.348907 0.068604
0.109100 0.357513 0.027863
0.589203 0.332123 0.043671
0.878540 0.384338 0.148254
0.955933 0.410797 0.148804
0.143463 0.547821 0.026886
0.188049 0.551117 0.016052
0.508026 0.584473 0.071960
0.930725 0.605652 0.069977
0.973846 0.587433 0.093231
0.211090 0.785309 0.013824
0.244934 0.795013 0.013824
0.409302 0.824951 0.015625
0.858185 0.888092 0.048950
0.993988 0.873962 0.048981
0.008453 0.184998 0.351685
0.054230 0.184967 0.363647
0.685944 0.237854 0.332825
0.941925 0.278259 0.361938
0.942749 0.289276 0.362183
0.004272 0.211731 0.314362
0.040039 0.212036 0.320312
0.617981 0.250031 0.308990
0.880310 0.294495 0.349731
0.935669 0.296936 0.348663
0.000000 0.353729 0.315094
0.014008 0.349335 0.309204
0.419952 0.391541 0.378113
0.819702 0.395844 0.346863
0.955353 0.395447 0.331055
0.000000 0.511475 0.240967
0.016205 0.495209 0.221649
0.428772 0.572327 0.187714
0.916626 0.599121 0.119476
0.974915 0.598328 0.125610
0.208740 0.784668 0.053192
0.230011 0.797699 0.050293
0.370697 0.815216 0.043945
0.843750 0.886353 0.070679
0.994019 0.868591 0.062866
0.012024 0.256866 0.486603
0.054565 0.260254 0.495636
0.575104 0.309021 0.534851
0.930237 0.370361 0.619965
0.957733 0.384125 0.635193
0.010010 0.303253 0.496979
0.041779 0.298065 0.495422
0.483246 0.321594 0.544098
0.916382 0.385223 0.602753
0.957642 0.388733 0.590302
0.000000 0.380157 0.479065
0.013214 0.379272 0.479797
0.089508 0.399170 0.536987
0.849731 0.439819 0.578613
0.959442 0.459625 0.580811
0.000000 0.576508 0.526764
0.013519 0.574493 0.523468
0.064606 0.587860 0.535889
0.749146 0.670074 0.633514
0.972504 0.686096 0.598145
0.000000 0.817383 0.530151
0.013824 0.815674 0.485138
0.041168 0.814148 0.381897
0.734039 0.889191 0.338959
0.994049 0.841827 0.346527
0.014160 0.274658 0.517731
0.054596 0.277130 0.524017
0.555023 0.320740 0.597565
0.924927 0.373474 0.671844
0.964203 0.390564 0.709961
0.011475 0.319550 0.529419
0.041534 0.313385 0.526184
0.331757 0.327881 0.632935
0.899933 0.387024 0.668976
0.964630 0.405060 0.715912
0.003632 0.395630 0.532043
0.017426 0.392517 0.535645
0.087646 0.404572 0.581146
0.808319 0.422729 0.705505
0.968597 0.469635 0.761047
0.000000 0.566772 0.596100
0.013214 0.569550 0.602173
0.059937 0.577759 0.619934
0.396637 0.633240 0.825287
0.963440 0.641205 0.813812
0.000000 0.727570 0.654846
0.013519 0.733124 0.659088
0.037323 0.743500 0.666992
0.129364 0.807037 0.716614
0.987518 0.898621 0.826080
