滤镜资源/Professional Luts Collection/Triune-Digital-Cinematic-LUTs/3D LUTs (CUBE)/LOG/Mad Max Fury Road - LOG.cube
#Created by Benjamin (IWLTBAP) : http://luts.iwltbap.com
#Copyright: (C) Copyright 2016 Triune Films and IWLTBAP
TITLE "Blockbuster LUTs Pack (LOG)"
#LUT size
LUT_3D_SIZE 8
#LUT data points
DOMAIN_MIN 0.000000 0.000000 0.000000
DOMAIN_MAX 0.903226 0.903226 0.903226
0.023407 0.044312 0.050140
0.089996 0.061096 0.060547
0.244812 0.099945 0.063995
0.431763 0.139221 0.044312
0.645355 0.184998 0.142822
0.818695 0.222626 0.195221
0.854095 0.230377 0.201660
0.883606 0.237122 0.206482
0.026581 0.101196 0.054047
0.079376 0.092499 0.055908
0.225281 0.111206 0.068268
0.412476 0.142853 0.041504
0.622528 0.187592 0.130798
0.813232 0.230743 0.190552
0.859131 0.241241 0.198608
0.888641 0.248199 0.203369
0.054230 0.201263 0.048431
0.066589 0.203186 0.043060
0.248688 0.172943 0.006927
0.413696 0.195587 0.033081
0.618317 0.232239 0.086121
0.817322 0.276337 0.172150
0.880768 0.283447 0.186310
0.907471 0.287231 0.191895
0.076843 0.303223 0.042450
0.087402 0.303223 0.035309
0.205231 0.312408 0.038330
0.455292 0.273712 0.020050
0.670959 0.299011 0.089539
0.834290 0.341644 0.150513
0.923737 0.370911 0.157745
0.947754 0.375824 0.162109
0.097412 0.414673 0.003296
0.115692 0.417694 0.000000
0.175323 0.419220 0.000000
0.443237 0.437073 0.032043
0.712524 0.404480 0.062073
0.891357 0.429047 0.108643
0.952515 0.444824 0.117767
0.960419 0.447693 0.115082
0.136993 0.529541 0.000000
0.159973 0.530884 0.000000
0.190796 0.532562 0.000000
0.394958 0.540863 0.058350
0.680725 0.603973 0.033875
0.907745 0.563934 0.058960
0.959198 0.556732 0.087585
0.971313 0.560944 0.087158
0.192810 0.700928 0.000000
0.218933 0.697052 0.000000
0.247681 0.690369 0.000000
0.342010 0.694244 0.000000
0.621368 0.753021 0.011932
0.860168 0.786072 0.035126
0.966003 0.734985 0.042236
0.983826 0.688416 0.078156
0.209839 0.782318 0.000000
0.223907 0.788391 0.000000
0.256378 0.795258 0.000000
0.299072 0.804352 0.000000
0.570282 0.859619 0.032684
0.811737 0.882233 0.035217
0.956421 0.894379 0.034943
0.993988 0.877197 0.035156
0.002594 0.067200 0.113647
0.101501 0.066162 0.112213
0.240814 0.091064 0.108124
0.420288 0.123840 0.072052
0.631561 0.177002 0.159515
0.815948 0.220490 0.204163
0.852234 0.228271 0.210663
0.881195 0.234558 0.215668
0.007812 0.094482 0.097900
0.052887 0.090363 0.091919
0.212830 0.116852 0.099396
0.413666 0.148224 0.050293
0.618347 0.187225 0.134308
0.812012 0.229340 0.198456
0.858826 0.239838 0.206757
0.888153 0.246613 0.211609
0.049255 0.194916 0.060577
0.061859 0.198212 0.058807
0.241364 0.171387 0.018219
0.408081 0.194550 0.039337
0.611816 0.229065 0.093872
0.813080 0.271942 0.180389
0.878387 0.279510 0.194946
0.905579 0.283264 0.200562
0.075256 0.300507 0.053802
0.085846 0.300354 0.047760
0.196991 0.312134 0.045959
0.453400 0.273895 0.027863
0.662750 0.297577 0.090057
0.826172 0.340363 0.154022
0.919739 0.368347 0.165131
0.943756 0.373383 0.169220
0.095795 0.411774 0.014008
0.113037 0.416290 0.007935
0.168610 0.417633 0.007935
0.438019 0.435333 0.041199
0.717072 0.407104 0.071045
0.884277 0.428345 0.111298
0.953369 0.447571 0.119568
0.960419 0.448730 0.119934
0.135254 0.527924 0.007935
0.158112 0.529541 0.007935
0.187225 0.530609 0.007935
0.388641 0.539215 0.066772
0.678040 0.602386 0.041779
0.911163 0.566437 0.066833
0.958893 0.556305 0.093475
0.971375 0.562134 0.094208
0.192719 0.698364 0.007935
0.218903 0.694641 0.007935
0.245514 0.688080 0.007935
0.336548 0.689697 0.007935
0.616791 0.749847 0.020203
0.856842 0.782990 0.043060
0.965668 0.738739 0.049469
0.983826 0.686340 0.085571
0.210114 0.783051 0.007935
0.223755 0.789001 0.007935
0.255005 0.795380 0.007935
0.295227 0.803650 0.007935
0.564026 0.858948 0.039795
0.808899 0.883087 0.043121
0.955994 0.892700 0.042877
0.993988 0.875244 0.043091
0.004364 0.107025 0.203796
0.027374 0.106598 0.206238
0.299011 0.125275 0.207825
0.489319 0.150269 0.172241
0.662415 0.187866 0.207886
0.824280 0.222565 0.240875
0.860962 0.229492 0.245667
0.887146 0.234619 0.249054
0.001343 0.118103 0.183960
0.019531 0.118866 0.186768
0.260895 0.132019 0.194122
0.441132 0.149567 0.152771
0.625946 0.185852 0.183746
0.810303 0.225800 0.234100
0.858337 0.235046 0.240967
0.884949 0.240417 0.244690
0.000000 0.184113 0.178070
0.007874 0.181213 0.175537
0.161652 0.186707 0.181854
0.392487 0.202637 0.134888
0.593231 0.211121 0.144714
0.796997 0.254852 0.210571
0.875092 0.269379 0.220154
0.902679 0.274048 0.223297
0.056824 0.298615 0.116058
0.070190 0.291718 0.104675
0.144226 0.316223 0.074738
0.433624 0.273560 0.047546
0.639862 0.295837 0.089020
0.805115 0.332550 0.164612
0.913605 0.363770 0.175873
0.938751 0.369843 0.178619
0.084564 0.395966 0.075745
0.100586 0.407806 0.048859
0.147797 0.417175 0.020477
0.424988 0.430664 0.059235
0.708618 0.404663 0.078339
0.876190 0.426758 0.115753
0.953400 0.448792 0.126404
0.960388 0.448090 0.123871
0.130829 0.526337 0.017731
0.152039 0.526886 0.015808
0.180481 0.527466 0.015808
0.378571 0.536255 0.074097
0.671722 0.598999 0.049622
0.905670 0.563751 0.074738
0.958405 0.555786 0.100555
0.971375 0.561981 0.099884
0.189392 0.695312 0.015808
0.215118 0.688141 0.015808
0.241547 0.687744 0.015808
0.329254 0.685303 0.015808
0.610229 0.743439 0.028503
0.853638 0.779755 0.050934
0.965149 0.735962 0.057983
0.983765 0.684601 0.092499
0.211517 0.786346 0.015808
0.222870 0.790985 0.015808
0.252808 0.796875 0.015808
0.289368 0.803162 0.015808
0.553833 0.853485 0.045563
0.805389 0.884430 0.051056
0.955444 0.890564 0.050781
0.993988 0.873474 0.050934
0.007080 0.159546 0.299774
0.028503 0.155853 0.296997
0.162628 0.158752 0.343628
0.564880 0.200958 0.279053
0.755859 0.225220 0.309479
0.860565 0.258850 0.324249
0.902222 0.262360 0.322144
0.935150 0.264862 0.320892
0.005463 0.170776 0.283234
0.021057 0.165314 0.279755
0.097015 0.169647 0.315887
0.526703 0.201111 0.268250
0.728027 0.225281 0.298096
0.847687 0.259796 0.314789
0.903351 0.263947 0.311798
0.935913 0.266479 0.310059
0.000031 0.195770 0.253662
0.007751 0.195648 0.254120
0.047302 0.210022 0.276672
0.460205 0.230377 0.278564
0.663239 0.243927 0.274384
0.818604 0.273315 0.298157
0.910400 0.273163 0.290253
0.939331 0.271881 0.284576
0.000000 0.294037 0.261536
0.007874 0.292572 0.259552
0.034210 0.297729 0.263275
0.324188 0.315552 0.304474
0.589020 0.328033 0.258026
0.784210 0.312653 0.275909
0.921906 0.340271 0.279297
0.950104 0.341614 0.274200
0.000000 0.423889 0.216797
0.009094 0.416077 0.209320
0.039764 0.401337 0.195679
0.344421 0.435577 0.176453
0.662445 0.418518 0.150604
0.845490 0.439117 0.190491
0.953308 0.468414 0.200623
0.960022 0.458069 0.204651
0.050873 0.460846 0.175751
0.068665 0.461304 0.168884
0.096344 0.481537 0.153564
0.325989 0.535309 0.107330
0.652161 0.595764 0.079163
0.889862 0.561768 0.099945
0.957672 0.558533 0.117401
0.971405 0.565125 0.114441
0.155670 0.680634 0.048889
0.175507 0.692932 0.039642
0.215149 0.710083 0.037445
0.303619 0.701050 0.033966
0.593689 0.728027 0.043243
0.847443 0.774475 0.061707
0.963226 0.729828 0.067688
0.982758 0.680634 0.099945
0.214569 0.793518 0.028809
0.224274 0.796295 0.027740
0.244781 0.799225 0.026001
0.284943 0.803802 0.023712
0.539185 0.845245 0.048096
0.798004 0.885986 0.058960
0.954437 0.888885 0.058685
0.993988 0.870544 0.058899
0.009796 0.211975 0.405548
0.029510 0.207153 0.399170
0.063080 0.213379 0.419464
0.483582 0.246246 0.410004
0.792328 0.275787 0.377686
0.931732 0.295349 0.402496
0.958893 0.303619 0.409790
0.967896 0.311829 0.416626
0.008728 0.222809 0.391022
0.022522 0.216522 0.384888
0.057495 0.215607 0.397095
0.443054 0.241791 0.401489
0.766724 0.274475 0.368195
0.922241 0.296143 0.388214
0.959045 0.307281 0.398468
0.967651 0.315033 0.404144
0.005127 0.243439 0.362366
0.012756 0.242004 0.362579
0.047089 0.243561 0.369110
0.354980 0.251495 0.414490
0.721069 0.291687 0.359497
0.890381 0.311188 0.379913
0.957764 0.322601 0.385101
0.962128 0.326172 0.386566
0.000000 0.295685 0.346100
0.007660 0.297028 0.347900
0.030518 0.302216 0.356110
0.077026 0.329590 0.409424
0.655609 0.341827 0.369049
0.828308 0.348633 0.386566
0.910187 0.368835 0.397003
0.942810 0.368164 0.393524
0.000000 0.414734 0.372314
0.007812 0.414795 0.371368
0.017212 0.411133 0.366394
0.066223 0.441010 0.392792
0.520599 0.471252 0.452972
0.765106 0.497101 0.417206
0.933838 0.485535 0.420166
0.959503 0.461609 0.408600
0.000000 0.582794 0.372803
0.007935 0.572205 0.362457
0.015808 0.554901 0.345123
0.052094 0.511597 0.300446
0.544891 0.576843 0.296722
0.834686 0.579498 0.269073
0.955322 0.593018 0.318420
0.970734 0.598053 0.313660
0.023651 0.666321 0.256470
0.041656 0.652740 0.252625
0.055359 0.630768 0.246429
0.104309 0.596863 0.224060
0.519348 0.706635 0.174286
0.812775 0.761902 0.180542
0.960388 0.715973 0.119537
0.981171 0.686554 0.220825
0.160431 0.770905 0.180603
0.181793 0.768494 0.147858
0.203400 0.773865 0.116089
0.227112 0.787140 0.079803
0.480255 0.828430 0.074188
0.769684 0.880768 0.097504
0.953247 0.885193 0.092529
0.994049 0.850311 0.088135
0.011810 0.254395 0.482269
0.029938 0.253296 0.481049
0.063324 0.260925 0.498718
0.432281 0.290894 0.519958
0.711700 0.326599 0.516937
0.912659 0.362640 0.585144
0.946533 0.367065 0.583649
0.958282 0.372467 0.578979
0.011200 0.271942 0.484161
0.023376 0.267761 0.481567
0.058044 0.266937 0.491119
0.341156 0.285278 0.528839
0.686218 0.327759 0.505554
0.902344 0.365021 0.566315
0.946777 0.370392 0.563568
0.961304 0.373474 0.558136
0.008911 0.302612 0.479553
0.016388 0.301453 0.480896
0.048065 0.295898 0.476013
0.090027 0.301666 0.513214
0.630493 0.339844 0.499420
0.878387 0.374847 0.536072
0.950867 0.372681 0.525940
0.966095 0.379730 0.532288
0.003265 0.327484 0.448181
0.011108 0.325378 0.447845
0.033173 0.321381 0.447540
0.074921 0.335876 0.477234
0.547394 0.357605 0.505035
0.839111 0.402588 0.521088
0.949158 0.413239 0.528534
0.965118 0.422607 0.536560
0.000000 0.409760 0.454529
0.007629 0.411346 0.456543
0.015472 0.409210 0.454956
0.059967 0.426971 0.478149
0.157776 0.466614 0.595978
0.768738 0.487549 0.566833
0.944275 0.481781 0.551331
0.964752 0.483124 0.547394
0.000000 0.543457 0.494171
0.007751 0.543762 0.493774
0.015503 0.540039 0.489288
0.045715 0.547363 0.495270
0.098755 0.596893 0.545135
0.705536 0.631287 0.599213
0.918243 0.654297 0.569031
0.970215 0.649170 0.555573
0.000000 0.746368 0.546661
0.007935 0.745758 0.536560
0.015808 0.732330 0.507263
0.031158 0.708191 0.476929
0.086334 0.683899 0.411926
0.708191 0.739899 0.438110
0.953888 0.724243 0.397247
0.980194 0.724121 0.438538
0.000000 0.809784 0.391357
0.007935 0.808502 0.365479
0.015808 0.805023 0.348053
0.024139 0.801453 0.326355
0.226349 0.805695 0.267975
0.691620 0.885864 0.280731
0.948792 0.884857 0.326630
0.994049 0.841278 0.289825
0.012909 0.264343 0.499695
0.029572 0.262970 0.498047
0.062561 0.270264 0.513885
0.356659 0.295441 0.560272
0.687408 0.332672 0.572632
0.900604 0.365936 0.625183
0.950104 0.376434 0.656708
0.960510 0.390015 0.673981
0.012177 0.280304 0.502136
0.022980 0.276764 0.500336
0.057434 0.276367 0.509277
0.267212 0.304626 0.568237
0.657593 0.335358 0.570526
0.883392 0.371552 0.622162
0.950806 0.384796 0.659943
0.960419 0.397736 0.676147
0.009857 0.319183 0.512238
0.017334 0.318634 0.514404
0.047546 0.314545 0.512512
0.085083 0.320770 0.542786
0.602631 0.345337 0.584320
0.844177 0.385315 0.621429
0.951385 0.400818 0.668701
0.961090 0.411621 0.681030
0.006042 0.349762 0.499451
0.013702 0.350067 0.502350
0.033722 0.353119 0.513428
0.074036 0.362244 0.535706
0.334045 0.359497 0.659454
0.789673 0.406128 0.640717
0.955963 0.437073 0.700012
0.963104 0.448486 0.700867
0.000000 0.436890 0.529083
0.007477 0.439331 0.533783
0.014923 0.437958 0.536682
0.058960 0.449493 0.559204
0.103455 0.467804 0.624390
0.678131 0.451172 0.727600
0.950165 0.485168 0.722992
0.962372 0.499939 0.706879
0.000000 0.536652 0.570740
0.007568 0.539612 0.575195
0.015045 0.537750 0.575470
0.042999 0.545044 0.585754
0.091766 0.554413 0.602142
0.399658 0.602173 0.775787
0.895081 0.622833 0.739349
0.957489 0.630249 0.736908
0.000000 0.674316 0.611908
0.007721 0.673737 0.611389
0.015411 0.670135 0.608185
0.029053 0.666870 0.605103
0.075348 0.681702 0.616760
0.147217 0.758820 0.696747
0.864838 0.778259 0.729706
0.979492 0.789612 0.718353
0.000000 0.755371 0.625916
0.007874 0.762817 0.627930
0.015686 0.771881 0.630829
0.023621 0.785553 0.634308
0.063568 0.821381 0.648926
0.126801 0.886719 0.526672
0.852234 0.885193 0.591461
0.991486 0.854767 0.534973
0.014160 0.274658 0.517731
0.030304 0.273010 0.515503
0.062897 0.280121 0.529968
0.285370 0.308319 0.597687
0.677979 0.336609 0.607147
0.892303 0.368988 0.658875
0.950378 0.376251 0.683472
0.964203 0.390564 0.709961
0.013611 0.289459 0.519562
0.023712 0.286041 0.517761
0.057770 0.286194 0.525726
0.231567 0.314240 0.591309
0.649841 0.337921 0.606293
0.874054 0.374359 0.654816
0.951935 0.383331 0.686249
0.964386 0.398956 0.713257
0.010590 0.329102 0.531433
0.018097 0.328217 0.532990
0.047516 0.323547 0.530151
0.084747 0.331238 0.560760
0.591766 0.348633 0.627808
0.835876 0.386017 0.654510
0.953064 0.397522 0.693878
0.964935 0.412048 0.719604
0.006866 0.361847 0.523163
0.014496 0.362732 0.526550
0.033691 0.365356 0.536865
0.073608 0.372406 0.556122
0.231049 0.364502 0.671722
0.780548 0.401001 0.676971
0.957550 0.430145 0.723755
0.967926 0.448120 0.747162
0.000000 0.443848 0.548431
0.007446 0.446564 0.553467
0.014832 0.445190 0.556488
0.058624 0.452209 0.575470
0.102509 0.466583 0.631866
0.602905 0.447754 0.755402
0.950012 0.473938 0.760437
0.968842 0.496033 0.773956
0.000000 0.540253 0.586700
0.007538 0.542969 0.590607
0.015015 0.542419 0.593384
0.041809 0.549622 0.605988
0.089996 0.556793 0.623474
0.232666 0.600281 0.795715
0.887329 0.583527 0.815643
0.965088 0.606323 0.808228
0.000000 0.662445 0.631165
0.007660 0.662781 0.633362
0.015259 0.661011 0.635010
0.027740 0.657532 0.637238
0.072327 0.664825 0.650604
0.125793 0.691132 0.715454
0.773499 0.754242 0.835815
0.953888 0.756927 0.837982
0.000000 0.727570 0.654846
0.007721 0.730438 0.657166
0.015411 0.734131 0.659729
0.023132 0.736633 0.661896
0.060730 0.754425 0.675201
0.115295 0.790283 0.700256
0.594635 0.881561 0.850006
0.987518 0.898621 0.826080
