滤镜资源/Professional Luts Collection/Triune-Digital-Cinematic-LUTs/3D LUTs (CUBE)/LOG/Minority Report - LOG.cube
#Created by Benjamin (IWLTBAP) : http://luts.iwltbap.com
#Copyright: (C) Copyright 2016 Triune Films and IWLTBAP
TITLE "Blockbuster LUTs Pack (LOG)"
#LUT size
LUT_3D_SIZE 32
#LUT data points
0.008545 0.012421 0.023621
0.011993 0.012451 0.023895
0.021851 0.013336 0.025085
0.037872 0.014587 0.022034
0.060455 0.016571 0.024719
0.090729 0.020325 0.031250
0.121613 0.025421 0.035522
0.155457 0.033813 0.040009
0.190948 0.043427 0.045044
0.228058 0.050781 0.048981
0.266327 0.058624 0.054413
0.302094 0.069641 0.061646
0.342285 0.079437 0.076233
0.383331 0.088531 0.091095
0.424683 0.096527 0.102783
0.469238 0.106750 0.114655
0.516388 0.117096 0.128601
0.566620 0.127808 0.142181
0.620117 0.138763 0.155243
0.677460 0.149445 0.167542
0.713104 0.155823 0.173431
0.731262 0.158966 0.176636
0.742004 0.160706 0.178375
0.752899 0.162476 0.180084
0.763855 0.164429 0.182037
0.774902 0.166351 0.184021
0.786194 0.168427 0.185913
0.797485 0.170563 0.187744
0.808746 0.172791 0.189514
0.819275 0.174713 0.190948
0.829742 0.176422 0.192108
0.840118 0.178192 0.193268
0.008606 0.015747 0.024048
0.011353 0.015625 0.024292
0.019745 0.016205 0.025238
0.033722 0.017181 0.021515
0.056458 0.019012 0.024567
0.086121 0.022491 0.030426
0.117096 0.027222 0.035187
0.150848 0.036346 0.039581
0.186310 0.046387 0.044891
0.223480 0.054077 0.048706
0.262115 0.061920 0.054230
0.297791 0.072357 0.060944
0.337982 0.082214 0.074982
0.379150 0.091431 0.089966
0.420410 0.099854 0.102142
0.464905 0.109680 0.113556
0.511597 0.120178 0.127533
0.561951 0.131073 0.140900
0.615112 0.142151 0.153717
0.672760 0.152740 0.166443
0.710785 0.159607 0.172791
0.731323 0.163330 0.176422
0.742065 0.165100 0.178131
0.752930 0.166901 0.179901
0.763763 0.168732 0.181763
0.774872 0.170776 0.183716
0.786224 0.172791 0.185577
0.797455 0.174957 0.187500
0.808624 0.177216 0.189331
0.819153 0.179169 0.190765
0.829712 0.181000 0.191895
0.840118 0.182831 0.193054
0.009125 0.029602 0.026459
0.011810 0.028198 0.026459
0.018005 0.026825 0.026886
0.031189 0.023315 0.022644
0.052185 0.024139 0.024658
0.080719 0.026215 0.029602
0.112366 0.029510 0.034698
0.145996 0.038696 0.039124
0.181427 0.048981 0.044434
0.218781 0.057495 0.048370
0.257568 0.065094 0.053802
0.293365 0.075012 0.060333
0.333435 0.084961 0.073669
0.374542 0.094299 0.088837
0.416016 0.103302 0.101379
0.460144 0.112549 0.112305
0.506592 0.123169 0.126312
0.557190 0.134308 0.139679
0.609894 0.145416 0.152100
0.667328 0.156036 0.165009
0.708282 0.163452 0.172241
0.731354 0.167694 0.176147
0.742096 0.169525 0.177917
0.753021 0.171356 0.179718
0.763794 0.173157 0.181488
0.774841 0.175171 0.183441
0.786255 0.177307 0.185364
0.797455 0.179504 0.187256
0.808533 0.181732 0.189117
0.819061 0.183655 0.190552
0.829681 0.185486 0.191711
0.840118 0.187378 0.192749
0.009674 0.049164 0.028748
0.012360 0.047821 0.028992
0.016571 0.046509 0.029724
0.027924 0.042450 0.028717
0.047241 0.037201 0.023560
0.073303 0.040649 0.029053
0.104675 0.044708 0.034912
0.139984 0.049316 0.039307
0.175079 0.056427 0.044128
0.212769 0.063751 0.048523
0.250977 0.069550 0.053009
0.286987 0.076904 0.059265
0.326721 0.087219 0.071564
0.367676 0.096497 0.086639
0.409668 0.106445 0.100464
0.453033 0.115570 0.110840
0.499115 0.125793 0.124207
0.549377 0.137054 0.137939
0.601349 0.148041 0.149902
0.658569 0.158722 0.162872
0.705200 0.167328 0.171448
0.731659 0.172089 0.175873
0.742188 0.174042 0.177673
0.753143 0.175873 0.179474
0.763947 0.177765 0.181274
0.774872 0.179779 0.183228
0.786163 0.181854 0.185120
0.797363 0.184052 0.187073
0.808441 0.186310 0.188873
0.819061 0.188263 0.190247
0.829681 0.190033 0.191376
0.840118 0.191986 0.192444
0.010864 0.071625 0.031006
0.013458 0.070221 0.030914
0.016052 0.069092 0.031189
0.024872 0.069458 0.033203
0.040436 0.061615 0.027252
0.066681 0.057037 0.026031
0.098114 0.062378 0.033051
0.132965 0.068939 0.039398
0.168671 0.074371 0.044312
0.207306 0.079407 0.049194
0.245514 0.083984 0.053192
0.281403 0.090240 0.059875
0.320770 0.098480 0.070770
0.361206 0.105286 0.084656
0.402954 0.113007 0.099060
0.445679 0.119049 0.109436
0.491913 0.128510 0.122253
0.541077 0.139618 0.135834
0.592926 0.150696 0.147797
0.649506 0.161652 0.160492
0.698730 0.170563 0.170013
0.731689 0.176605 0.175507
0.742279 0.178589 0.177277
0.753113 0.180542 0.179138
0.763947 0.182373 0.180939
0.775055 0.184448 0.182922
0.786224 0.186462 0.184875
0.797516 0.188690 0.186859
0.808472 0.190948 0.188599
0.818970 0.192841 0.189941
0.829681 0.194672 0.191071
0.840210 0.196594 0.192230
0.012665 0.096954 0.033905
0.015228 0.095703 0.033936
0.017883 0.094910 0.034241
0.023468 0.095337 0.035065
0.036438 0.090118 0.029541
0.052307 0.085602 0.030487
0.090668 0.080078 0.031525
0.127686 0.085754 0.037018
0.163910 0.092499 0.042450
0.200348 0.099823 0.047729
0.238800 0.104614 0.052032
0.277039 0.109283 0.058655
0.314789 0.116119 0.069092
0.355591 0.122803 0.081573
0.396912 0.130737 0.096375
0.439514 0.137726 0.108643
0.485107 0.144775 0.120789
0.532288 0.153015 0.133087
0.583923 0.161194 0.145020
0.639191 0.169373 0.157349
0.693634 0.176971 0.168518
0.731750 0.182007 0.175018
0.742310 0.183136 0.176849
0.753113 0.185181 0.178741
0.763916 0.187042 0.180634
0.774994 0.189087 0.182617
0.786255 0.191132 0.184570
0.797638 0.193359 0.186584
0.808563 0.195587 0.188324
0.819061 0.197510 0.189636
0.829681 0.199310 0.190826
0.840271 0.201202 0.191986
0.014313 0.121887 0.037659
0.016998 0.121490 0.037537
0.019684 0.121307 0.037750
0.022400 0.120941 0.037933
0.034149 0.121002 0.034210
0.050568 0.115326 0.033447
0.076050 0.109955 0.038483
0.118286 0.105713 0.036926
0.159637 0.110687 0.041138
0.196625 0.117279 0.044891
0.233185 0.124420 0.048462
0.270691 0.131256 0.055145
0.308563 0.138153 0.063660
0.350220 0.145752 0.076111
0.391510 0.151855 0.091003
0.434540 0.157776 0.105316
0.479095 0.163940 0.117706
0.526245 0.172333 0.129761
0.576843 0.180145 0.141571
0.630768 0.187836 0.153076
0.686218 0.194427 0.164703
0.731110 0.199707 0.172699
0.743378 0.199219 0.175262
0.754150 0.198395 0.177612
0.764526 0.198517 0.179688
0.775513 0.199707 0.181763
0.786530 0.200897 0.183716
0.797638 0.202118 0.185760
0.808472 0.203400 0.187622
0.818970 0.204346 0.188965
0.829529 0.206116 0.190125
0.840088 0.208008 0.191315
0.016144 0.148102 0.041687
0.018829 0.148163 0.041412
0.021545 0.148224 0.041412
0.024200 0.147736 0.041321
0.031158 0.148438 0.038605
0.046936 0.144958 0.034973
0.069916 0.140900 0.040894
0.103271 0.134216 0.043213
0.148926 0.131348 0.042664
0.191986 0.135742 0.045135
0.229706 0.142639 0.046448
0.267334 0.150208 0.052917
0.304840 0.158295 0.061737
0.344727 0.167145 0.072296
0.385712 0.174347 0.085449
0.429047 0.180847 0.100128
0.473572 0.186340 0.113556
0.521088 0.194092 0.125854
0.571472 0.202209 0.137848
0.625122 0.209106 0.148651
0.680786 0.216309 0.159393
0.729462 0.222290 0.168732
0.746613 0.222321 0.172607
0.756805 0.221039 0.175171
0.767059 0.219757 0.177612
0.777618 0.220520 0.179718
0.788330 0.221497 0.181915
0.799072 0.222168 0.183838
0.809601 0.222504 0.185608
0.819977 0.223022 0.187134
0.830505 0.224670 0.188293
0.841095 0.226532 0.189362
0.018585 0.175262 0.045685
0.021240 0.175201 0.045349
0.023926 0.175415 0.045319
0.026581 0.174835 0.045074
0.029144 0.174072 0.044189
0.043640 0.175354 0.039368
0.062958 0.172974 0.041626
0.095245 0.166229 0.050568
0.134491 0.161194 0.046448
0.180756 0.157166 0.047699
0.223846 0.161804 0.047302
0.263641 0.169525 0.052643
0.303314 0.178192 0.062408
0.343475 0.187347 0.073486
0.383331 0.194885 0.084320
0.424774 0.201752 0.097137
0.468384 0.209259 0.109192
0.515656 0.217987 0.119751
0.566315 0.226379 0.132111
0.619507 0.232880 0.143768
0.676666 0.241119 0.155640
0.728973 0.248199 0.165192
0.752747 0.248749 0.170105
0.762451 0.246887 0.172424
0.771667 0.244904 0.174530
0.781738 0.245178 0.176392
0.791779 0.245270 0.178162
0.801880 0.245239 0.179901
0.811981 0.245544 0.181610
0.821991 0.246094 0.183044
0.832367 0.247833 0.184387
0.843170 0.249664 0.185852
0.021088 0.202423 0.050720
0.023743 0.202423 0.050476
0.026428 0.202515 0.050385
0.029083 0.202057 0.050140
0.031677 0.201385 0.049255
0.041168 0.203857 0.045929
0.059052 0.204193 0.045197
0.082947 0.199280 0.050110
0.124939 0.192688 0.059723
0.166870 0.187134 0.051361
0.214081 0.184479 0.052307
0.256073 0.188599 0.052063
0.299866 0.197479 0.062286
0.341980 0.207153 0.074585
0.382965 0.215088 0.085815
0.424988 0.222717 0.098297
0.468170 0.230927 0.109009
0.514465 0.240723 0.118622
0.561340 0.249695 0.127869
0.613190 0.257965 0.138000
0.670105 0.268890 0.148926
0.729034 0.277466 0.159119
0.758667 0.278137 0.164246
0.768158 0.275940 0.166656
0.777466 0.273499 0.169159
0.787506 0.273438 0.171295
0.797119 0.273163 0.173004
0.806671 0.272858 0.174622
0.816742 0.272766 0.176422
0.827484 0.273041 0.178650
0.838226 0.274811 0.180481
0.849243 0.276978 0.182404
0.023773 0.230804 0.057495
0.026367 0.230713 0.057404
0.028992 0.230835 0.057343
0.031525 0.230438 0.057037
0.034027 0.229614 0.056061
0.039429 0.229889 0.054291
0.054169 0.233795 0.051117
0.075867 0.232910 0.053284
0.111572 0.224670 0.060211
0.156891 0.221069 0.063141
0.200439 0.215271 0.060150
0.248047 0.213165 0.057098
0.290039 0.216125 0.057831
0.337341 0.226318 0.073120
0.383057 0.235657 0.087097
0.426147 0.244476 0.099426
0.469757 0.253265 0.109833
0.515381 0.262726 0.119720
0.563049 0.271820 0.128967
0.610840 0.280182 0.136688
0.665009 0.292450 0.144501
0.722443 0.304443 0.152527
0.763519 0.309631 0.155975
0.772888 0.307922 0.157623
0.781372 0.304962 0.159851
0.791290 0.304260 0.162262
0.801239 0.304108 0.164520
0.811493 0.304016 0.166901
0.821960 0.304077 0.169128
0.832123 0.304016 0.171448
0.842224 0.305481 0.173157
0.852264 0.307037 0.174835
0.027008 0.260803 0.064880
0.029602 0.260193 0.064911
0.032288 0.259979 0.064941
0.034851 0.259552 0.064697
0.037292 0.258881 0.063721
0.039703 0.257721 0.062683
0.051727 0.261200 0.058655
0.071960 0.263855 0.058990
0.095276 0.259216 0.061371
0.144379 0.250549 0.070892
0.189026 0.249176 0.062561
0.234467 0.243164 0.069275
0.280701 0.240204 0.060791
0.328064 0.245361 0.068848
0.377045 0.255676 0.085205
0.424652 0.266022 0.099274
0.470428 0.275360 0.110931
0.515015 0.284851 0.120056
0.561920 0.294189 0.128937
0.610352 0.302673 0.136780
0.663483 0.313751 0.143860
0.719543 0.326111 0.150452
0.766632 0.335083 0.152252
0.780823 0.335571 0.152985
0.789001 0.334656 0.153534
0.797821 0.334656 0.154205
0.807983 0.335266 0.155731
0.818512 0.336151 0.157532
0.828491 0.336639 0.159180
0.838226 0.337128 0.160950
0.845337 0.337646 0.162140
0.851868 0.337860 0.163208
0.030243 0.290436 0.071594
0.032776 0.289948 0.071594
0.035339 0.289459 0.071716
0.037842 0.288330 0.071716
0.040283 0.287323 0.070953
0.042755 0.286377 0.069763
0.050354 0.288391 0.066498
0.069122 0.291473 0.066406
0.090637 0.292847 0.065186
0.126099 0.285614 0.068146
0.177368 0.281525 0.070282
0.222473 0.280792 0.063568
0.269623 0.273438 0.071930
0.317657 0.272552 0.068848
0.369019 0.277863 0.080688
0.416779 0.286621 0.096436
0.464447 0.296509 0.108795
0.514404 0.307373 0.120148
0.560730 0.317017 0.128632
0.607086 0.325104 0.134766
0.660004 0.335999 0.142578
0.716003 0.347687 0.149170
0.770264 0.359192 0.150513
0.788422 0.360596 0.150940
0.799408 0.360199 0.151733
0.808258 0.360535 0.152191
0.817627 0.361694 0.152740
0.826996 0.362701 0.153381
0.836090 0.363525 0.154205
0.843414 0.363434 0.155304
0.849731 0.363800 0.156250
0.855438 0.364044 0.157104
0.033539 0.319244 0.077881
0.036102 0.318909 0.078278
0.038666 0.318451 0.078522
0.041168 0.317627 0.078552
0.043610 0.316437 0.077942
0.045959 0.314758 0.077057
0.048767 0.313812 0.075317
0.064484 0.316681 0.070770
0.086975 0.318604 0.070435
0.110596 0.319244 0.070557
0.164764 0.313599 0.077087
0.214539 0.312683 0.068481
0.261322 0.315521 0.071899
0.307709 0.307068 0.074554
0.360260 0.308044 0.080139
0.408813 0.309601 0.090240
0.456085 0.318085 0.104431
0.506592 0.327850 0.116638
0.556000 0.338654 0.126190
0.604584 0.347992 0.133911
0.656189 0.358002 0.141083
0.710938 0.369141 0.146210
0.766846 0.381012 0.148315
0.793396 0.384766 0.149017
0.808533 0.385620 0.149719
0.818542 0.385834 0.150269
0.827728 0.386841 0.150879
0.837311 0.387970 0.151672
0.845520 0.388428 0.152344
0.850586 0.387451 0.152954
0.856110 0.387665 0.153412
0.861572 0.387848 0.153870
0.036469 0.346680 0.084625
0.039062 0.346313 0.084930
0.041626 0.346069 0.085175
0.044189 0.345367 0.085205
0.046692 0.344513 0.084930
0.049072 0.342743 0.084015
0.051483 0.341675 0.082123
0.060486 0.343292 0.076508
0.083191 0.345245 0.075592
0.107361 0.348541 0.076416
0.149048 0.345428 0.081390
0.204041 0.343567 0.085205
0.255981 0.345642 0.075134
0.301971 0.352234 0.081635
0.349152 0.341156 0.083649
0.401611 0.341125 0.089935
0.447357 0.342285 0.096588
0.498413 0.350708 0.110321
0.548035 0.359619 0.121033
0.598572 0.369385 0.130829
0.653961 0.379303 0.138824
0.706757 0.390106 0.142731
0.761505 0.402802 0.145477
0.798218 0.409607 0.146057
0.816437 0.411407 0.147430
0.825867 0.411194 0.148285
0.835358 0.412323 0.148590
0.844116 0.413055 0.148926
0.851501 0.413330 0.149292
0.856476 0.412445 0.149475
0.861969 0.412567 0.149841
0.867401 0.412720 0.150391
0.039551 0.374359 0.092224
0.042114 0.374084 0.092316
0.044647 0.374115 0.092255
0.047211 0.373627 0.092163
0.049805 0.373596 0.091553
0.052124 0.372620 0.089691
0.054504 0.371826 0.087250
0.057037 0.370667 0.085114
0.081085 0.373291 0.082520
0.105164 0.376709 0.083496
0.135376 0.376984 0.086609
0.192017 0.374023 0.093353
0.244415 0.377472 0.084076
0.293274 0.379120 0.084442
0.340179 0.388123 0.090942
0.391602 0.376434 0.093903
0.441071 0.376923 0.100281
0.489624 0.377197 0.102570
0.542145 0.383911 0.113373
0.590973 0.391052 0.124725
0.643646 0.399048 0.133453
0.700256 0.410980 0.138031
0.755249 0.424194 0.141602
0.795593 0.432587 0.141479
0.820923 0.437195 0.143036
0.830261 0.436920 0.143799
0.839233 0.438324 0.144012
0.844971 0.438293 0.143799
0.852112 0.438263 0.144348
0.857971 0.437164 0.145020
0.863495 0.437256 0.145355
0.868988 0.437500 0.145691
0.042572 0.403870 0.096619
0.045166 0.403900 0.096497
0.047760 0.404083 0.096130
0.050385 0.404510 0.095337
0.052887 0.404236 0.093414
0.055328 0.403412 0.091461
0.058105 0.402435 0.089508
0.061005 0.401184 0.087616
0.078003 0.401154 0.088043
0.102783 0.405151 0.090637
0.128693 0.407990 0.092133
0.178925 0.404907 0.098114
0.231750 0.407043 0.102325
0.283325 0.414276 0.093964
0.328033 0.414490 0.093903
0.377228 0.424530 0.100586
0.430939 0.413361 0.104309
0.480591 0.412628 0.107544
0.532623 0.413239 0.110535
0.581390 0.414246 0.114288
0.633545 0.422028 0.125244
0.689087 0.431702 0.133789
0.746185 0.446411 0.138550
0.794159 0.457123 0.139130
0.824524 0.462891 0.140137
0.831696 0.462555 0.140472
0.837097 0.463196 0.139709
0.842651 0.462921 0.139984
0.848175 0.462555 0.140228
0.853760 0.461609 0.140442
0.859100 0.461670 0.140533
0.864502 0.461792 0.140656
0.045898 0.436859 0.101227
0.048492 0.436829 0.100922
0.051086 0.437042 0.100189
0.053619 0.436829 0.098236
0.056702 0.435730 0.097351
0.059479 0.434540 0.095551
0.063019 0.432709 0.094879
0.066528 0.430634 0.094177
0.075775 0.429871 0.094360
0.099091 0.432983 0.096588
0.123657 0.436951 0.098511
0.162048 0.435974 0.103455
0.216949 0.435608 0.108154
0.268433 0.443573 0.100037
0.320160 0.449554 0.101379
0.363953 0.453033 0.103668
0.413513 0.464752 0.110504
0.468262 0.451660 0.113281
0.519958 0.449738 0.114166
0.570496 0.448364 0.117310
0.621704 0.448700 0.122559
0.677307 0.457825 0.129852
0.734436 0.468506 0.137207
0.790619 0.482452 0.141785
0.825317 0.490936 0.144073
0.831665 0.490387 0.144135
0.836914 0.490601 0.144348
0.842163 0.489624 0.144257
0.847412 0.488495 0.144135
0.852631 0.487305 0.143982
0.857849 0.487396 0.143982
0.863129 0.487549 0.143982
0.049774 0.470459 0.109985
0.052338 0.470398 0.109619
0.054901 0.470551 0.108521
0.057404 0.470490 0.106354
0.060638 0.469788 0.105377
0.064117 0.467773 0.104614
0.067657 0.465942 0.103912
0.071289 0.463959 0.103180
0.074982 0.462036 0.102539
0.095459 0.464539 0.103546
0.120819 0.469238 0.106293
0.146027 0.467773 0.111267
0.201782 0.466705 0.116058
0.252289 0.471130 0.115234
0.304291 0.483002 0.109009
0.356018 0.487518 0.110321
0.398895 0.495300 0.114563
0.448761 0.507172 0.121124
0.505463 0.493286 0.123291
0.557800 0.489471 0.123535
0.610413 0.486938 0.126465
0.665070 0.486237 0.132263
0.722382 0.495972 0.140686
0.780914 0.506226 0.145813
0.821625 0.516144 0.147919
0.831757 0.517151 0.148193
0.837158 0.516388 0.148224
0.842346 0.515198 0.148041
0.847473 0.513885 0.147797
0.852631 0.512665 0.147614
0.857849 0.512665 0.147644
0.863251 0.513092 0.147797
0.053833 0.503876 0.119141
0.056366 0.503876 0.118713
0.059021 0.503845 0.117981
0.061707 0.502808 0.116241
0.064819 0.502228 0.115234
0.068115 0.501129 0.114471
0.071686 0.499908 0.113770
0.075287 0.498444 0.112885
0.078949 0.496979 0.112030
0.092010 0.497955 0.111786
0.117188 0.500305 0.114960
0.142609 0.499725 0.121063
0.177612 0.498596 0.124573
0.237488 0.500092 0.125610
0.285980 0.509277 0.120331
0.340698 0.521973 0.116913
0.390656 0.529510 0.120636
0.433716 0.538666 0.125458
0.483368 0.551453 0.131531
0.541718 0.538147 0.133942
0.596313 0.529846 0.132843
0.650696 0.526367 0.135834
0.708679 0.524658 0.141388
0.768463 0.534637 0.148407
0.818939 0.544006 0.152100
0.832397 0.545715 0.152435
0.837738 0.544006 0.152252
0.843048 0.542816 0.152130
0.848450 0.541809 0.152008
0.853790 0.540680 0.151886
0.859222 0.540863 0.152008
0.864502 0.540985 0.152039
0.059753 0.533508 0.131042
0.062286 0.533295 0.130798
0.064850 0.532806 0.130127
0.067474 0.531799 0.128601
0.070526 0.531158 0.127838
0.073761 0.530334 0.127228
0.077179 0.529602 0.126740
0.080627 0.528351 0.125977
0.084259 0.527313 0.125214
0.089996 0.526489 0.124390
0.112457 0.530060 0.124237
0.138641 0.529449 0.128998
0.163544 0.530182 0.134399
0.211884 0.531464 0.135590
0.271118 0.537994 0.131531
0.322205 0.549164 0.123260
0.377014 0.564178 0.126099
0.425995 0.572540 0.130859
0.468109 0.582520 0.135956
0.519012 0.596954 0.141235
0.577240 0.582916 0.141235
0.635590 0.572906 0.143433
0.693726 0.567871 0.144592
0.753510 0.565430 0.149292
0.810577 0.574158 0.153839
0.832458 0.577271 0.155762
0.838165 0.573853 0.155823
0.843811 0.572571 0.155975
0.849396 0.571411 0.156158
0.854797 0.569977 0.156006
0.860168 0.570221 0.156097
0.865448 0.570496 0.156219
0.066132 0.562866 0.143921
0.068695 0.562683 0.143677
0.071228 0.562042 0.143005
0.073883 0.561188 0.141724
0.076904 0.560638 0.140900
0.080109 0.559875 0.140228
0.083405 0.559204 0.139648
0.086731 0.558075 0.138855
0.090179 0.557068 0.138123
0.093689 0.555847 0.137299
0.107880 0.557709 0.136566
0.134216 0.559387 0.138062
0.159821 0.560455 0.143555
0.188965 0.563568 0.146820
0.254974 0.567963 0.145477
0.307220 0.578278 0.133759
0.360901 0.592773 0.132263
0.411865 0.605103 0.135986
0.460449 0.616150 0.141205
0.503082 0.627136 0.145020
0.556854 0.644653 0.150696
0.618011 0.630646 0.149902
0.676849 0.614990 0.152832
0.736938 0.610016 0.153137
0.799011 0.606781 0.155945
0.827332 0.611328 0.158112
0.836151 0.606964 0.158020
0.841949 0.605560 0.158234
0.847565 0.604279 0.158478
0.853241 0.603027 0.158661
0.858734 0.603271 0.158905
0.864258 0.603668 0.159271
0.072540 0.592072 0.157318
0.075043 0.591675 0.156860
0.077637 0.591003 0.156250
0.080536 0.590485 0.155548
0.083618 0.590088 0.154999
0.086731 0.589600 0.154358
0.090027 0.588898 0.153656
0.093262 0.587921 0.152710
0.096619 0.587036 0.151733
0.100067 0.586182 0.150726
0.103577 0.585144 0.149750
0.130219 0.589966 0.149200
0.155884 0.590942 0.153687
0.181244 0.594482 0.157867
0.235321 0.601501 0.158966
0.294708 0.608154 0.150299
0.346313 0.621063 0.139923
0.396942 0.635468 0.142120
0.446930 0.649994 0.146118
0.496399 0.663330 0.150085
0.537994 0.673676 0.153687
0.591400 0.695251 0.159393
0.657471 0.680695 0.159454
0.722107 0.660858 0.161163
0.782257 0.653625 0.162598
0.820312 0.646667 0.162598
0.833374 0.642548 0.162689
0.839783 0.640503 0.162567
0.845673 0.639252 0.162567
0.851532 0.638000 0.162598
0.857178 0.638336 0.162903
0.862823 0.638763 0.163177
0.074615 0.656097 0.156860
0.077393 0.654266 0.157104
0.080322 0.652496 0.157288
0.083557 0.650726 0.157501
0.086914 0.649231 0.157654
0.090271 0.647217 0.157806
0.093750 0.645416 0.157654
0.097412 0.642670 0.157593
0.101044 0.639526 0.157501
0.104767 0.636505 0.157501
0.108612 0.633270 0.157654
0.126373 0.639343 0.156006
0.152466 0.643341 0.156250
0.177795 0.649567 0.154816
0.210785 0.654144 0.153442
0.270142 0.656311 0.151581
0.328308 0.669830 0.153046
0.380188 0.680756 0.153687
0.428497 0.690277 0.153778
0.480133 0.704803 0.156281
0.530029 0.715820 0.159912
0.570892 0.723480 0.162384
0.627869 0.745361 0.168427
0.697540 0.730438 0.169098
0.767914 0.708984 0.169617
0.809845 0.696228 0.171112
0.827148 0.687134 0.169708
0.835938 0.682709 0.169434
0.841736 0.681030 0.169495
0.847595 0.679169 0.169586
0.853241 0.679657 0.170013
0.858673 0.680389 0.170441
0.077606 0.705048 0.157379
0.080414 0.703400 0.156891
0.083557 0.701935 0.156494
0.086945 0.700195 0.156128
0.090485 0.699371 0.155945
0.094025 0.698608 0.155914
0.097809 0.697815 0.155884
0.101410 0.697174 0.155945
0.105103 0.696259 0.155945
0.108856 0.695282 0.155975
0.112701 0.693359 0.155853
0.121338 0.691895 0.156067
0.147430 0.691589 0.156006
0.172485 0.692596 0.154755
0.198364 0.705170 0.156555
0.232880 0.717987 0.160950
0.302307 0.730103 0.166168
0.360229 0.739563 0.167847
0.413666 0.746796 0.166565
0.462830 0.751862 0.166046
0.511566 0.760193 0.167145
0.562958 0.769836 0.170044
0.605225 0.773834 0.171783
0.665100 0.794128 0.177795
0.741730 0.780914 0.178375
0.802124 0.759155 0.177856
0.823425 0.742523 0.176788
0.834930 0.734131 0.176666
0.840149 0.731812 0.176819
0.845367 0.729614 0.176971
0.850769 0.730164 0.177338
0.856140 0.730835 0.177734
0.078857 0.735901 0.166199
0.081390 0.735870 0.165985
0.084045 0.735992 0.165771
0.087189 0.736328 0.165497
0.090210 0.736969 0.165405
0.093872 0.737518 0.165100
0.097687 0.738617 0.164917
0.102295 0.738373 0.164551
0.106750 0.738708 0.164490
0.111176 0.737427 0.164093
0.115295 0.736664 0.163940
0.119629 0.736450 0.163940
0.142334 0.746094 0.168762
0.169067 0.757751 0.171265
0.195496 0.770569 0.173706
0.222473 0.783539 0.174957
0.254700 0.795990 0.176758
0.329193 0.803772 0.181183
0.395691 0.808441 0.182251
0.448090 0.811462 0.180359
0.496765 0.814972 0.180054
0.545197 0.817505 0.179901
0.596710 0.821686 0.180725
0.641418 0.824677 0.182281
0.704315 0.841309 0.185669
0.788269 0.829559 0.187225
0.819855 0.802216 0.183716
0.835663 0.790649 0.182434
0.841156 0.787994 0.182312
0.846893 0.785431 0.182190
0.852417 0.786133 0.182617
0.857819 0.787323 0.182953
0.080658 0.755432 0.170593
0.083160 0.755524 0.170502
0.085724 0.755676 0.170441
0.088348 0.756134 0.170410
0.091003 0.756866 0.170441
0.093719 0.757812 0.170532
0.097168 0.758972 0.170532
0.101318 0.760193 0.170471
0.106354 0.761597 0.170532
0.111176 0.763031 0.170532
0.115936 0.764130 0.170685
0.120514 0.765076 0.170837
0.134430 0.771851 0.173645
0.162018 0.785431 0.177979
0.188660 0.796478 0.179382
0.215973 0.809906 0.181488
0.244019 0.826019 0.183380
0.295624 0.837677 0.186340
0.373932 0.845734 0.190063
0.430725 0.850281 0.190735
0.481873 0.856873 0.190399
0.530945 0.860535 0.189819
0.580048 0.861633 0.189148
0.631714 0.862183 0.188629
0.682312 0.869415 0.190765
0.744537 0.880096 0.192322
0.810089 0.863983 0.192383
0.833893 0.839752 0.189270
0.839508 0.837738 0.189240
0.845093 0.835999 0.189209
0.850494 0.836426 0.189514
0.855835 0.837402 0.189819
0.082275 0.773926 0.174622
0.084839 0.774048 0.174561
0.087433 0.774445 0.174561
0.090057 0.775085 0.174652
0.092712 0.775970 0.174744
0.095367 0.776978 0.174835
0.098083 0.778137 0.175018
0.101318 0.779602 0.175140
0.105072 0.781128 0.175262
0.110199 0.782684 0.175446
0.115234 0.784454 0.175690
0.120636 0.786224 0.175873
0.131714 0.790924 0.177124
0.157501 0.803864 0.181702
0.184540 0.815613 0.183929
0.211395 0.828613 0.186005
0.239716 0.845398 0.188446
