滤镜资源/Professional Luts Collection/Triune-Digital-Cinematic-LUTs/3D LUTs (CUBE)/LOG/Minority Report - LOG.cube
#Created by Benjamin (IWLTBAP) : http://luts.iwltbap.com
#Copyright: (C) Copyright 2016 Triune Films and IWLTBAP
TITLE "Blockbuster LUTs Pack (LOG)"
#LUT size
LUT_3D_SIZE 8
#LUT data points
DOMAIN_MIN 0.000000 0.000000 0.000000
DOMAIN_MAX 0.903226 0.903226 0.903226
0.008545 0.012421 0.023621
0.060455 0.016571 0.024719
0.190948 0.043427 0.045044
0.342285 0.079437 0.076233
0.516388 0.117096 0.128601
0.713104 0.155823 0.173431
0.763855 0.164429 0.182037
0.808746 0.172791 0.189514
0.010864 0.071625 0.031006
0.040436 0.061615 0.027252
0.168671 0.074371 0.044312
0.320770 0.098480 0.070770
0.491913 0.128510 0.122253
0.698730 0.170563 0.170013
0.763947 0.182373 0.180939
0.808472 0.190948 0.188599
0.018585 0.175262 0.045685
0.029144 0.174072 0.044189
0.134491 0.161194 0.046448
0.303314 0.178192 0.062408
0.468384 0.209259 0.109192
0.676666 0.241119 0.155640
0.771667 0.244904 0.174530
0.811981 0.245544 0.181610
0.030243 0.290436 0.071594
0.040283 0.287323 0.070953
0.090637 0.292847 0.065186
0.269623 0.273438 0.071930
0.464447 0.296509 0.108795
0.660004 0.335999 0.142578
0.799408 0.360199 0.151733
0.836090 0.363525 0.154205
0.042572 0.403870 0.096619
0.052887 0.404236 0.093414
0.078003 0.401154 0.088043
0.231750 0.407043 0.102325
0.430939 0.413361 0.104309
0.633545 0.422028 0.125244
0.824524 0.462891 0.140137
0.848175 0.462555 0.140228
0.059753 0.533508 0.131042
0.070526 0.531158 0.127838
0.084259 0.527313 0.125214
0.163544 0.530182 0.134399
0.377014 0.564178 0.126099
0.577240 0.582916 0.141235
0.810577 0.574158 0.153839
0.849396 0.571411 0.156158
0.077606 0.705048 0.157379
0.090485 0.699371 0.155945
0.105103 0.696259 0.155945
0.147430 0.691589 0.156006
0.302307 0.730103 0.166168
0.511566 0.760193 0.167145
0.741730 0.780914 0.178375
0.840149 0.731812 0.176819
0.084198 0.793396 0.178833
0.094543 0.795563 0.178925
0.105255 0.800659 0.179779
0.128235 0.808472 0.180969
0.236664 0.858673 0.191864
0.460205 0.889618 0.198578
0.663666 0.901978 0.196716
0.833771 0.900635 0.198761
0.009583 0.019714 0.090637
0.071350 0.021210 0.096130
0.205963 0.041107 0.106354
0.345093 0.072754 0.123688
0.517700 0.114563 0.162415
0.716858 0.156342 0.193756
0.768524 0.165100 0.202301
0.812683 0.173126 0.209625
0.011597 0.063721 0.081543
0.042389 0.061188 0.081726
0.173187 0.080444 0.090912
0.322845 0.103088 0.094147
0.492859 0.129822 0.139526
0.702515 0.171448 0.189209
0.769348 0.183411 0.200623
0.813934 0.191864 0.208374
0.019196 0.172516 0.064575
0.030151 0.172577 0.064728
0.137085 0.163940 0.069794
0.301880 0.178345 0.078705
0.468719 0.209137 0.127350
0.677612 0.238495 0.173737
0.774933 0.243286 0.193787
0.816223 0.245361 0.201416
0.030731 0.289185 0.087830
0.040833 0.286102 0.087952
0.089630 0.294952 0.083069
0.274353 0.277069 0.090881
0.469299 0.298920 0.127350
0.661316 0.336304 0.159637
0.800659 0.360535 0.169281
0.838074 0.364319 0.171906
0.043152 0.403625 0.113647
0.053497 0.403931 0.110748
0.076904 0.402588 0.104553
0.232269 0.408752 0.122192
0.434814 0.417145 0.122894
0.640472 0.425171 0.143707
0.828308 0.465149 0.157898
0.852295 0.464752 0.158813
0.060547 0.533356 0.147644
0.071198 0.532349 0.144806
0.084595 0.527832 0.141449
0.162811 0.531403 0.152283
0.377319 0.564941 0.142853
0.577972 0.584351 0.158691
0.813446 0.576935 0.171814
0.853790 0.572540 0.174530
0.078430 0.707764 0.174286
0.090820 0.702728 0.172943
0.105408 0.699188 0.172516
0.146698 0.695526 0.172546
0.302307 0.727875 0.181244
0.512482 0.761353 0.184021
0.743011 0.780304 0.195160
0.844452 0.731476 0.193787
0.085205 0.797302 0.194794
0.095581 0.799469 0.196014
0.106232 0.803986 0.196686
0.127716 0.811035 0.197571
0.235077 0.856750 0.207275
0.460571 0.892883 0.215454
0.663544 0.903381 0.213379
0.837372 0.901733 0.215881
0.011749 0.053467 0.215729
0.072937 0.056152 0.217163
0.233398 0.069763 0.230408
0.392670 0.099213 0.245911
0.548096 0.124786 0.254456
0.727966 0.159302 0.286530
0.778198 0.167267 0.287109
0.819122 0.174194 0.289062
0.015961 0.092407 0.199890
0.045746 0.093719 0.203979
0.205231 0.098389 0.217407
0.365570 0.114532 0.225311
0.520935 0.135925 0.237183
0.710724 0.172974 0.273743
0.777374 0.183929 0.277863
0.818878 0.190826 0.280304
0.024841 0.172638 0.195465
0.035461 0.171326 0.193268
0.143921 0.182068 0.214386
0.319092 0.196411 0.206451
0.482635 0.199493 0.208649
0.680450 0.231262 0.240173
0.784027 0.239227 0.250061
0.825378 0.242615 0.252686
0.037048 0.297699 0.185211
0.046265 0.292023 0.175079
0.082214 0.305420 0.161865
0.277710 0.287018 0.165039
0.463135 0.301514 0.162994
0.655853 0.335541 0.187500
0.799591 0.359009 0.189301
0.840149 0.361603 0.191376
0.044525 0.397949 0.157074
0.054749 0.397583 0.154449
0.071777 0.408051 0.134552
0.229126 0.408875 0.144928
0.432343 0.416748 0.139648
0.638397 0.425354 0.160767
0.830780 0.465912 0.175079
0.857056 0.466156 0.176849
0.060791 0.531952 0.167236
0.071777 0.531403 0.164856
0.084229 0.527985 0.160126
0.160919 0.531067 0.170471
0.375885 0.564758 0.159821
0.577515 0.584259 0.175995
0.816620 0.575989 0.189880
0.858185 0.573395 0.192505
0.076691 0.707428 0.192108
0.089752 0.710236 0.191589
0.104645 0.705688 0.190735
0.144836 0.701172 0.189911
0.300629 0.721893 0.195953
0.512054 0.760651 0.200714
0.743866 0.778839 0.211548
0.847992 0.730347 0.211212
0.086426 0.803162 0.211243
0.096802 0.805206 0.212463
0.107422 0.809326 0.214203
0.125153 0.814880 0.214783
0.232819 0.851807 0.222107
0.459656 0.897095 0.232727
0.664154 0.904144 0.230469
0.841614 0.902985 0.233368
0.022583 0.098114 0.358368
0.073395 0.097168 0.355011
0.214691 0.101532 0.373383
0.422852 0.131592 0.372955
0.593414 0.154816 0.384674
0.784973 0.187500 0.411133
0.833984 0.191681 0.405029
0.874054 0.197601 0.404053
0.022644 0.132446 0.344360
0.054260 0.130798 0.342560
0.185883 0.133087 0.359253
0.394745 0.146576 0.358521
0.566315 0.166718 0.369507
0.766479 0.199738 0.396729
0.833649 0.206635 0.392029
0.873840 0.212372 0.390808
0.031097 0.197327 0.327759
0.041870 0.197021 0.327484
0.126282 0.213837 0.350891
0.351105 0.222107 0.356323
0.529022 0.230743 0.361542
0.728699 0.248505 0.374146
0.837952 0.247192 0.369812
0.869781 0.248566 0.365051
0.043518 0.296783 0.335083
0.054321 0.297943 0.335144
0.089050 0.304688 0.341583
0.270966 0.328949 0.378754
0.477325 0.337189 0.371185
0.677307 0.336761 0.361023
0.835602 0.347717 0.349335
0.875519 0.345764 0.339050
0.063904 0.452911 0.362915
0.072021 0.443726 0.349518
0.082581 0.425659 0.323425
0.177277 0.447174 0.298920
0.437408 0.448608 0.300415
0.639008 0.444275 0.258759
0.828247 0.477478 0.256836
0.866150 0.479553 0.252533
0.064301 0.514923 0.306488
0.073273 0.507965 0.296600
0.081055 0.496094 0.278442
0.153473 0.547943 0.260590
0.383331 0.575256 0.268341
0.582245 0.589752 0.232117
0.826355 0.579315 0.238678
0.867950 0.579315 0.233643
0.078857 0.688263 0.278412
0.088562 0.684784 0.273926
0.098206 0.683777 0.264404
0.138824 0.720459 0.235474
0.295685 0.712463 0.224213
0.510590 0.758575 0.222900
0.743164 0.775177 0.227875
0.851166 0.727478 0.228485
0.087982 0.807648 0.237427
0.098419 0.811188 0.237000
0.109131 0.817108 0.235748
0.122070 0.820007 0.232483
0.229584 0.848694 0.238251
0.456451 0.899658 0.249908
0.662750 0.905060 0.247375
0.845703 0.903931 0.250702
0.046417 0.142029 0.506470
0.089020 0.144470 0.502075
0.215179 0.149658 0.510437
0.400146 0.167999 0.506744
0.633209 0.191132 0.500854
0.810394 0.213928 0.536957
0.861938 0.222076 0.544006
0.894348 0.229553 0.551056
0.045807 0.174103 0.493805
0.073944 0.172363 0.491730
0.189911 0.170715 0.494690
0.374634 0.179138 0.494446
0.608215 0.202026 0.485565
0.793304 0.227539 0.518616
0.860992 0.239014 0.530426
0.894714 0.246185 0.537598
0.038208 0.236084 0.475983
0.051758 0.234680 0.474213
0.126862 0.243958 0.491272
0.335480 0.243042 0.507233
0.565582 0.260864 0.484039
0.757080 0.277100 0.501740
0.863770 0.283325 0.518555
0.896973 0.285828 0.524078
0.049896 0.317444 0.473267
0.060699 0.318604 0.475067
0.093506 0.325714 0.485291
0.253876 0.351044 0.532257
0.513031 0.357483 0.512543
0.713989 0.363647 0.520782
0.870148 0.370972 0.521851
0.903717 0.370239 0.518921
0.066071 0.434479 0.496643
0.076508 0.434937 0.495789
0.088226 0.430206 0.488831
0.150269 0.453339 0.518677
0.438751 0.491821 0.576294
0.670929 0.510132 0.582764
0.885620 0.508026 0.559937
0.926697 0.501312 0.543915
0.091919 0.627319 0.566803
0.102112 0.627228 0.564697
0.110443 0.614990 0.547241
0.144714 0.578400 0.493225
0.357269 0.613525 0.479126
0.601715 0.635925 0.461792
0.843445 0.634552 0.465942
0.915222 0.639252 0.460541
0.097046 0.747253 0.490173
0.105438 0.736450 0.479980
0.112946 0.718231 0.465240
0.130646 0.688477 0.440399
0.243256 0.772919 0.407715
0.526794 0.795227 0.435547
0.754547 0.781128 0.332367
0.867157 0.744049 0.347168
0.102570 0.834930 0.446716
0.111511 0.833099 0.433655
0.120056 0.831116 0.415375
0.127655 0.827423 0.387085
0.220306 0.906738 0.341522
0.445435 0.914215 0.345093
0.675018 0.915924 0.341980
0.862427 0.908478 0.324646
0.059906 0.181854 0.634613
0.099731 0.184021 0.633545
0.212524 0.192566 0.641998
0.401428 0.209564 0.658142
0.607849 0.233246 0.693848
0.840942 0.264038 0.764679
0.891296 0.274231 0.783478
0.911011 0.278198 0.778168
0.060486 0.215576 0.643372
0.086456 0.213043 0.641602
0.185333 0.210205 0.636658
0.364136 0.219818 0.658417
0.580383 0.244690 0.678070
0.826721 0.276001 0.745087
0.890472 0.285706 0.759460
0.910767 0.290131 0.755280
0.059082 0.280670 0.648163
0.074799 0.278290 0.646301
0.144348 0.282898 0.659302
0.305084 0.286255 0.664429
0.534821 0.297363 0.665985
0.791229 0.316223 0.714874
0.891296 0.316772 0.722504
0.912750 0.316864 0.719879
0.059387 0.358917 0.648285
0.071075 0.359680 0.650848
0.109741 0.360138 0.657318
0.221436 0.367401 0.683014
0.495300 0.373016 0.704742
0.744537 0.395966 0.719604
0.890167 0.403961 0.726624
0.916199 0.406921 0.729401
0.073059 0.454559 0.663666
0.083862 0.456329 0.666626
0.094147 0.452850 0.661865
0.154968 0.470612 0.695526
0.402618 0.509033 0.766296
0.691040 0.516632 0.752106
0.900269 0.534515 0.756561
0.927612 0.534058 0.752136
0.090912 0.589539 0.705200
0.101135 0.588989 0.701660
0.110596 0.583893 0.692841
0.152557 0.594574 0.703491
0.262512 0.633301 0.745728
0.639648 0.692871 0.768005
0.881165 0.708527 0.757416
0.947632 0.704254 0.745483
0.133179 0.813141 0.753143
0.143311 0.813446 0.751709
0.152100 0.810120 0.747528
0.170807 0.809784 0.741547
0.211456 0.780273 0.692627
0.536896 0.836548 0.679108
0.811005 0.831879 0.646790
0.942383 0.816925 0.662445
0.152802 0.891602 0.737305
0.157959 0.891418 0.723389
0.159912 0.890961 0.705231
0.159698 0.888672 0.679169
0.202667 0.891846 0.627686
0.432526 0.958740 0.594788
0.755371 0.941132 0.628906
0.919373 0.928925 0.596649
0.063812 0.193298 0.670105
0.100555 0.194824 0.668579
0.206177 0.202271 0.672150
0.385223 0.217865 0.694183
0.597015 0.241913 0.740784
0.840210 0.275085 0.819153
0.906128 0.282684 0.835724
0.930237 0.299377 0.852997
0.065552 0.224579 0.680023
0.087402 0.221649 0.680450
0.177734 0.217041 0.671844
0.355103 0.236084 0.699066
0.571228 0.256134 0.736847
0.820801 0.291077 0.816162
0.908203 0.301819 0.838531
0.931732 0.318359 0.855652
0.063568 0.293701 0.701385
0.080414 0.292450 0.703705
0.145721 0.297180 0.723602
0.297302 0.299896 0.724548
0.535400 0.309235 0.763519
0.781738 0.331879 0.820343
0.912872 0.339935 0.846588
0.934814 0.350983 0.861389
0.063080 0.375641 0.731262
0.073853 0.376801 0.737183
0.112091 0.377594 0.748230
0.204865 0.386292 0.786407
0.440216 0.385040 0.820190
0.738525 0.402832 0.846771
0.924713 0.424774 0.871399
0.944641 0.437408 0.880493
0.079865 0.481812 0.795441
0.091125 0.485809 0.803741
0.101379 0.484039 0.807434
0.162903 0.498322 0.834961
0.370819 0.519592 0.873962
0.681732 0.517822 0.888824
0.929535 0.537659 0.895935
0.950531 0.553314 0.890228
0.103943 0.607849 0.849121
0.116913 0.611084 0.852722
0.127563 0.609131 0.852417
0.172455 0.618713 0.858948
0.244629 0.627594 0.866180
0.621033 0.692078 0.900024
0.893921 0.707825 0.891754
0.948578 0.714935 0.879974
0.146240 0.769531 0.863220
0.156219 0.769104 0.861176
0.164459 0.764587 0.856262
0.180115 0.759155 0.850037
0.247162 0.777710 0.857513
0.480255 0.824066 0.874817
0.834930 0.859711 0.880920
0.953094 0.854919 0.873322
0.161804 0.845612 0.858582
0.173309 0.851807 0.857422
0.185181 0.858337 0.855164
0.197449 0.866241 0.850555
0.272003 0.898956 0.852722
0.353027 0.927460 0.836761
0.747772 0.968597 0.811737
0.940796 0.953094 0.798401
0.067505 0.204712 0.706543
0.102997 0.206146 0.705536
0.200897 0.212311 0.703400
0.375946 0.229553 0.729492
0.593201 0.249176 0.779388
0.841980 0.278168 0.847626
0.911743 0.285919 0.863037
0.932800 0.298920 0.873047
0.069458 0.234711 0.715637
0.090240 0.231873 0.716522
0.173279 0.226990 0.705933
0.347626 0.244446 0.727631
0.570312 0.264862 0.779358
0.823090 0.294800 0.845978
0.913330 0.305023 0.865723
0.934204 0.317902 0.875580
0.065002 0.304108 0.738983
0.083710 0.302460 0.741791
0.146454 0.307007 0.761139
0.292938 0.307678 0.756317
0.536163 0.313995 0.812073
0.783875 0.334534 0.848572
0.917053 0.340790 0.873047
0.937042 0.348083 0.880920
0.064606 0.382263 0.764465
0.075806 0.384491 0.771698
0.113342 0.384216 0.781097
0.207031 0.395844 0.823059
0.431213 0.393158 0.850128
0.739655 0.403198 0.874664
0.928345 0.424103 0.896210
0.947479 0.435974 0.901520
0.081268 0.488831 0.829102
0.092468 0.492462 0.835449
0.102875 0.491241 0.838867
0.168793 0.502838 0.858612
0.364746 0.522003 0.892578
0.662170 0.517395 0.908386
0.925415 0.537140 0.922516
0.956055 0.556610 0.925537
0.109894 0.611420 0.869965
0.123047 0.614960 0.873810
0.134705 0.614105 0.876343
0.178833 0.624329 0.885406
0.243469 0.633087 0.895416
0.603394 0.690430 0.936218
0.884766 0.697571 0.941406
0.962921 0.702179 0.944824
0.151001 0.763428 0.897186
0.162445 0.765350 0.899597
0.173279 0.764038 0.901520
0.190735 0.761841 0.904175
0.256042 0.773987 0.915833
0.476685 0.804779 0.932800
0.825256 0.853729 0.953613
0.963104 0.838379 0.958710
0.169830 0.836975 0.912262
0.182007 0.842529 0.914825
0.193512 0.846344 0.916779
0.204773 0.849731 0.918518
0.266266 0.866455 0.927216
0.345093 0.889618 0.937653
0.710297 0.941559 0.963074
0.954803 0.970367 0.966949
