滤镜资源/Professional Luts Collection/Triune-Digital-Cinematic-LUTs/3D LUTs (CUBE)/LOG/Minority Report - LOG.cube
#Created by Benjamin (IWLTBAP) : http://luts.iwltbap.com
#Copyright: (C) Copyright 2016 Triune Films and IWLTBAP
TITLE "Blockbuster LUTs Pack (LOG)"
#LUT size
LUT_3D_SIZE 5
#LUT data points
DOMAIN_MIN 0.000000 0.000000 0.000000
DOMAIN_MAX 0.903226 0.903226 0.903226
0.008545 0.012421 0.023621
0.155457 0.033813 0.040009
0.424683 0.096527 0.102783
0.731262 0.158966 0.176636
0.808746 0.172791 0.189514
0.016144 0.148102 0.041687
0.103271 0.134216 0.043213
0.385712 0.174347 0.085449
0.729462 0.222290 0.168732
0.809601 0.222504 0.185608
0.036469 0.346680 0.084625
0.060486 0.343292 0.076508
0.349152 0.341156 0.083649
0.706757 0.390106 0.142731
0.851501 0.413330 0.149292
0.066132 0.562866 0.143921
0.086731 0.558075 0.138855
0.254974 0.567963 0.145477
0.618011 0.630646 0.149902
0.847565 0.604279 0.158478
0.084198 0.793396 0.178833
0.102539 0.799103 0.179474
0.181396 0.831543 0.187714
0.510193 0.895905 0.198364
0.833771 0.900635 0.198761
0.011017 0.044098 0.183105
0.190369 0.055817 0.197021
0.454346 0.102936 0.214691
0.742584 0.159973 0.266174
0.814423 0.171906 0.267487
0.020935 0.144012 0.165588
0.114655 0.147827 0.176697
0.401733 0.171173 0.170837
0.739136 0.218536 0.232483
0.820648 0.221008 0.234528
0.037903 0.344177 0.130676
0.060089 0.342529 0.122833
0.351318 0.344879 0.114960
0.704285 0.390656 0.173248
0.855225 0.415192 0.178558
0.067230 0.562042 0.175323
0.086975 0.559387 0.169556
0.254211 0.569946 0.181030
0.616211 0.630890 0.179993
0.854828 0.605927 0.190369
0.086121 0.801910 0.207153
0.104492 0.806641 0.209534
0.179260 0.831573 0.215729
0.511017 0.900543 0.228516
0.840515 0.902679 0.228973
0.035706 0.121704 0.434021
0.177551 0.126190 0.436646
0.526184 0.159393 0.436279
0.822662 0.206177 0.468567
0.889099 0.217773 0.470947
0.032349 0.198669 0.405212
0.103210 0.205231 0.416107
0.469116 0.221558 0.418976
0.808228 0.252808 0.450897
0.885742 0.248291 0.446503
0.054321 0.363892 0.412781
0.072845 0.361816 0.408600
0.352905 0.409393 0.473450
0.734650 0.419037 0.460968
0.900604 0.418579 0.432709
0.076599 0.576752 0.403015
0.091553 0.560974 0.384216
0.219391 0.598511 0.348267
0.623627 0.641113 0.283783
0.873047 0.622437 0.285461
0.090546 0.801575 0.312744
0.108429 0.812531 0.292877
0.169678 0.843414 0.279083
0.507721 0.906769 0.275421
0.847809 0.904846 0.259430
0.060883 0.184570 0.643433
0.169678 0.191315 0.643463
0.495026 0.225220 0.683167
0.871765 0.274109 0.803986
0.923859 0.293732 0.828369
0.062683 0.270111 0.671021
0.131378 0.271912 0.684174
0.447205 0.279541 0.705231
0.854095 0.314392 0.793640
0.916992 0.313416 0.793152
0.068665 0.415741 0.705780
0.086823 0.414246 0.704742
0.298401 0.438171 0.769012
0.787109 0.456299 0.784882
0.926056 0.468414 0.778900
0.097290 0.632385 0.757477
0.114777 0.628967 0.749786
0.184326 0.646790 0.762177
0.705627 0.745178 0.800201
0.949463 0.750702 0.780365
0.159424 0.883636 0.781647
0.186707 0.897766 0.776154
0.201965 0.899048 0.725189
0.544739 0.962036 0.651581
0.927216 0.932281 0.647247
0.067505 0.204712 0.706543
0.159149 0.208496 0.700348
0.495331 0.239532 0.754974
0.883606 0.281982 0.856140
0.932800 0.298920 0.873047
0.068481 0.286774 0.735748
0.132263 0.287811 0.748474
0.411102 0.287903 0.771271
0.859924 0.320435 0.856689
0.935455 0.331879 0.877869
0.073059 0.434143 0.796600
0.091980 0.435974 0.806549
0.269684 0.453369 0.867188
0.787262 0.456238 0.897827
0.952393 0.488739 0.913300
0.121338 0.646820 0.877350
0.142548 0.649689 0.882355
0.214447 0.662354 0.895538
0.678528 0.739563 0.942383
0.963623 0.734955 0.948761
0.169830 0.836975 0.912262
0.190674 0.845642 0.916260
0.226349 0.856201 0.922028
0.413513 0.904205 0.946411
0.954803 0.970367 0.966949
