滤镜资源/Professional Luts Collection/Triune-Digital-Cinematic-LUTs/3D LUTs (CUBE)/LOG/Prometheus - LOG.cube
#Created by Benjamin (IWLTBAP) : http://luts.iwltbap.com
#Copyright: (C) Copyright 2016 Triune Films and IWLTBAP
TITLE "Blockbuster LUTs Pack (LOG)"
#LUT size
LUT_3D_SIZE 5
#LUT data points
DOMAIN_MIN 0.000000 0.000000 0.000000
DOMAIN_MAX 0.903226 0.903226 0.903226
0.000000 0.000000 0.000000
0.277649 0.033844 0.011932
0.532501 0.119080 0.092072
0.769562 0.202972 0.157104
0.818054 0.220703 0.169891
0.000000 0.186249 0.065613
0.199646 0.183655 0.056091
0.492004 0.216949 0.088440
0.731415 0.250610 0.141266
0.784485 0.256042 0.155701
0.052399 0.380829 0.154022
0.075989 0.370331 0.143250
0.447815 0.402985 0.157654
0.718231 0.418945 0.166809
0.825195 0.422089 0.185150
0.127960 0.579498 0.247162
0.141632 0.568695 0.234253
0.228790 0.548309 0.206177
0.662964 0.601471 0.246979
0.878601 0.619080 0.244537
0.179047 0.710938 0.305573
0.198242 0.716400 0.304779
0.237732 0.714996 0.292816
0.470856 0.740326 0.279083
0.898041 0.832184 0.358978
0.000000 0.040436 0.253082
0.263367 0.055328 0.237488
0.508209 0.101105 0.170532
0.739349 0.194611 0.208252
0.788727 0.216827 0.211548
0.000000 0.216217 0.240601
0.133362 0.201691 0.225433
0.481171 0.192688 0.156738
0.725098 0.238434 0.184174
0.783264 0.247406 0.187592
0.058472 0.390747 0.225098
0.080017 0.380310 0.207672
0.431488 0.405365 0.205322
0.718628 0.416534 0.193787
0.830597 0.417236 0.208771
0.131409 0.585846 0.290771
0.147583 0.578583 0.279205
0.224915 0.550873 0.239227
0.655487 0.604858 0.282745
0.883881 0.623901 0.274109
0.182892 0.719727 0.345856
0.203583 0.728760 0.347290
0.243530 0.732086 0.337738
0.451935 0.750092 0.328857
0.897736 0.848846 0.412567
0.025421 0.081238 0.510468
0.190155 0.087402 0.477722
0.485107 0.115356 0.428070
0.745789 0.191772 0.378235
0.797058 0.213440 0.366028
0.025879 0.250122 0.430756
0.111084 0.230499 0.431641
0.445190 0.222656 0.438110
0.726257 0.237671 0.355469
0.793060 0.244568 0.345306
0.073975 0.419617 0.430939
0.091980 0.411499 0.426361
0.326294 0.419189 0.449188
0.708466 0.404541 0.342804
0.828308 0.399628 0.325287
0.145111 0.607300 0.446320
0.160950 0.601349 0.437317
0.235046 0.581299 0.392731
0.639984 0.620300 0.402710
0.895264 0.636597 0.359924
0.194061 0.741455 0.448608
0.214081 0.750824 0.445831
0.252289 0.759033 0.424408
0.431427 0.763123 0.390015
0.902618 0.862762 0.457947
0.056152 0.120239 0.713837
0.165558 0.120087 0.650513
0.415070 0.108917 0.663452
0.698212 0.169952 0.646301
0.750854 0.186523 0.647156
0.051544 0.277435 0.639648
0.104614 0.254242 0.646301
0.340881 0.220306 0.682312
0.672729 0.210205 0.645294
0.751190 0.214264 0.626068
0.100922 0.450134 0.650696
0.115448 0.439514 0.646088
0.260437 0.420227 0.655701
0.640747 0.404083 0.662872
0.784241 0.381622 0.607666
0.163757 0.632599 0.648987
0.181000 0.628510 0.647247
0.249908 0.612976 0.639099
0.567688 0.663544 0.676392
0.888184 0.668152 0.620178
0.215118 0.782227 0.648956
0.235901 0.793396 0.651367
0.271698 0.801086 0.643036
0.465302 0.839447 0.641876
0.918182 0.916473 0.685944
0.064880 0.131409 0.757385
0.161072 0.127991 0.688263
0.393799 0.111816 0.701538
0.689117 0.167206 0.690186
0.741852 0.182739 0.692291
0.056244 0.279785 0.680267
0.104919 0.256897 0.687164
0.329773 0.218323 0.718018
0.660370 0.205933 0.705048
0.733917 0.208130 0.700806
0.107941 0.454926 0.712006
0.123566 0.446259 0.717194
0.252075 0.419861 0.736908
0.607727 0.378876 0.779053
0.756073 0.375763 0.758575
0.175079 0.646667 0.766388
0.192230 0.643066 0.772949
0.259735 0.631622 0.784637
0.530609 0.676758 0.857727
0.860687 0.688843 0.881805
0.228851 0.806915 0.813934
0.251862 0.816620 0.825104
0.295746 0.830170 0.840485
0.528564 0.894867 0.905365
0.936401 0.964478 0.965912
