滤镜资源/Professional Luts Collection/Triune-Digital-Cinematic-LUTs/3D LUTs (CUBE)/LOG/Prometheus - LOG.cube
#Created by Benjamin (IWLTBAP) : http://luts.iwltbap.com
#Copyright: (C) Copyright 2016 Triune Films and IWLTBAP
TITLE "Blockbuster LUTs Pack (LOG)"
#LUT size
LUT_3D_SIZE 32
#LUT data points
0.000000 0.000000 0.000000
0.001190 0.000000 0.000000
0.034821 0.000000 0.000000
0.098480 0.000000 0.000000
0.146271 0.000000 0.000000
0.191559 0.009674 0.000000
0.234222 0.021820 0.000000
0.277649 0.033844 0.011932
0.316528 0.046204 0.022766
0.352966 0.058807 0.034698
0.388855 0.071167 0.046844
0.424438 0.083160 0.058594
0.459106 0.094452 0.069489
0.495148 0.106232 0.080688
0.532501 0.119080 0.092072
0.570099 0.132172 0.103149
0.608887 0.145416 0.114410
0.648499 0.158600 0.125549
0.690186 0.173065 0.136841
0.732727 0.188782 0.147522
0.756989 0.198059 0.153778
0.769562 0.202972 0.157104
0.776337 0.205505 0.158752
0.783356 0.208069 0.160736
0.790039 0.210815 0.162659
0.797058 0.213287 0.164520
0.804016 0.215729 0.166290
0.811005 0.218170 0.168030
0.818054 0.220703 0.169891
0.824829 0.223419 0.171600
0.831635 0.225891 0.173492
0.838287 0.228363 0.175385
0.000000 0.000946 0.000000
0.000946 0.000946 0.000000
0.019623 0.000946 0.000000
0.091339 0.000946 0.000000
0.141876 0.003906 0.000000
0.188599 0.017090 0.000000
0.231781 0.028534 0.000000
0.275665 0.040070 0.010559
0.315277 0.052063 0.021667
0.352234 0.064514 0.034119
0.388275 0.076874 0.046387
0.423767 0.088684 0.058136
0.445679 0.102264 0.063812
0.476837 0.113068 0.073364
0.509552 0.124481 0.083160
0.543365 0.136749 0.093140
0.578796 0.149994 0.103485
0.615631 0.163513 0.113312
0.688049 0.177460 0.136078
0.730988 0.192688 0.147003
0.757202 0.202850 0.153748
0.771088 0.208282 0.157532
0.777954 0.210785 0.159393
0.785004 0.213287 0.161163
0.791809 0.216064 0.162903
0.798889 0.218445 0.164642
0.805817 0.220856 0.166443
0.812805 0.223267 0.168304
0.819855 0.225891 0.170135
0.826538 0.228455 0.171997
0.833405 0.230957 0.173920
0.839996 0.233368 0.175598
0.000000 0.003510 0.000000
0.000946 0.003296 0.000000
0.003113 0.006897 0.000000
0.065338 0.015930 0.000000
0.136292 0.016052 0.000000
0.185852 0.023987 0.000000
0.231293 0.034241 0.000000
0.273315 0.046265 0.008759
0.313507 0.057922 0.020233
0.350952 0.070190 0.033081
0.379791 0.082916 0.042206
0.411133 0.094025 0.052368
0.441925 0.104767 0.062164
0.473419 0.115204 0.071808
0.505859 0.126892 0.081879
0.539520 0.138855 0.091858
0.574585 0.151764 0.101990
0.611450 0.165558 0.112152
0.649445 0.179199 0.122681
0.690063 0.193573 0.133484
0.718445 0.203918 0.140991
0.735657 0.210205 0.145386
0.743195 0.213196 0.147278
0.786896 0.218628 0.161377
0.793884 0.221252 0.162994
0.800781 0.223633 0.164764
0.807800 0.225983 0.166565
0.814606 0.228424 0.168457
0.821594 0.231079 0.170288
0.828308 0.233521 0.172211
0.835083 0.235992 0.174164
0.841766 0.238403 0.175995
0.000000 0.042755 0.004669
0.000946 0.041992 0.001831
0.002411 0.042877 0.000000
0.021820 0.045776 0.012054
0.113495 0.050995 0.000153
0.175995 0.051483 0.000000
0.224365 0.053955 0.000305
0.268250 0.059692 0.007782
0.306274 0.068268 0.017822
0.341492 0.076904 0.027985
0.373718 0.086304 0.039734
0.405762 0.095795 0.050110
0.436768 0.106567 0.060120
0.467987 0.117249 0.069794
0.500305 0.128571 0.079895
0.533844 0.140472 0.089874
0.568390 0.152924 0.099854
0.605133 0.166687 0.110077
0.642792 0.180176 0.120331
0.682861 0.194397 0.131348
0.715363 0.206116 0.139984
0.734741 0.213135 0.144989
0.742279 0.216064 0.146942
0.749878 0.218750 0.148865
0.757385 0.221649 0.150635
0.764771 0.224487 0.152435
0.772095 0.227325 0.154327
0.779205 0.230316 0.156250
0.786530 0.233093 0.158112
0.793732 0.236053 0.160034
0.800781 0.238770 0.161896
0.807892 0.241577 0.163757
0.000000 0.083008 0.024567
0.000946 0.081085 0.022980
0.001892 0.078796 0.020721
0.004883 0.080933 0.032990
0.068726 0.078827 0.021667
0.154053 0.085571 0.018127
0.212616 0.088593 0.016754
0.261017 0.090515 0.018951
0.301331 0.095551 0.025238
0.337219 0.100128 0.032074
0.370636 0.105164 0.039307
0.402191 0.111115 0.048370
0.432800 0.118286 0.058136
0.463348 0.126038 0.067719
0.495209 0.134155 0.077698
0.528076 0.142700 0.087708
0.562500 0.154602 0.097931
0.598724 0.167877 0.108093
0.636414 0.181335 0.118408
0.675842 0.195343 0.129120
0.709961 0.207275 0.138245
0.734039 0.216034 0.144531
0.741669 0.218964 0.146423
0.749237 0.221649 0.148254
0.756775 0.224335 0.150085
0.764130 0.227234 0.152039
0.771393 0.230103 0.153961
0.778656 0.233124 0.155884
0.785950 0.235870 0.157806
0.793091 0.238861 0.159698
0.800354 0.241577 0.161591
0.807556 0.244293 0.163330
0.000000 0.119537 0.039429
0.000946 0.118347 0.038727
0.001892 0.116241 0.037994
0.003815 0.120026 0.049408
0.031891 0.109253 0.042236
0.113403 0.112701 0.032135
0.194122 0.117767 0.030701
0.250519 0.121613 0.029236
0.294464 0.125977 0.033539
0.334473 0.132202 0.039673
0.370239 0.137512 0.047394
0.403351 0.141632 0.054810
0.434052 0.145813 0.062134
0.463806 0.150330 0.069946
0.494019 0.155792 0.077881
0.525543 0.161896 0.086273
0.557587 0.169250 0.095367
0.591614 0.177917 0.105255
0.628326 0.188324 0.115265
0.667450 0.199615 0.126160
0.705139 0.211090 0.136444
0.733337 0.219727 0.143829
0.741150 0.221985 0.145874
0.748566 0.224640 0.147827
0.756012 0.227448 0.149750
0.763580 0.230255 0.151672
0.771027 0.233002 0.153625
0.778320 0.236053 0.155548
0.785400 0.238800 0.157410
0.792694 0.241760 0.159393
0.800018 0.244415 0.161377
0.807068 0.247101 0.162994
0.000000 0.153442 0.053131
0.000946 0.152893 0.051758
0.001892 0.151703 0.051025
0.002838 0.155121 0.062531
0.014191 0.146301 0.057983
0.065460 0.136505 0.050873
0.156921 0.147614 0.044250
0.233673 0.150879 0.041443
0.284180 0.153870 0.041412
0.326233 0.159729 0.046967
0.364685 0.166168 0.053192
0.399353 0.172211 0.061157
0.431976 0.177917 0.069427
0.464020 0.183197 0.076599
0.495270 0.186737 0.083099
0.526855 0.190460 0.089600
0.558075 0.194427 0.097015
0.590942 0.199463 0.105408
0.625061 0.205383 0.113922
0.661652 0.213806 0.123444
0.698425 0.223053 0.133331
0.730865 0.231873 0.142151
0.739777 0.232941 0.144714
0.747406 0.233521 0.146851
0.755005 0.234924 0.148895
0.762360 0.236969 0.150848
0.769897 0.239166 0.152832
0.777405 0.241486 0.154633
0.784760 0.243744 0.156586
0.792084 0.245911 0.158630
0.799225 0.248444 0.160706
0.806610 0.251312 0.162659
0.000000 0.186249 0.065613
0.000946 0.185699 0.064331
0.001892 0.188416 0.075378
0.002838 0.185242 0.073547
0.006775 0.181183 0.070374
0.038544 0.170776 0.066162
0.105957 0.166718 0.057251
0.199646 0.183655 0.056091
0.271698 0.185608 0.054474
0.319244 0.187408 0.054352
0.358063 0.193573 0.059479
0.394257 0.199982 0.065826
0.427338 0.205719 0.072723
0.459686 0.211426 0.080414
0.492004 0.216949 0.088440
0.524597 0.221893 0.096405
0.557648 0.226807 0.103424
0.591705 0.230835 0.109894
0.627014 0.234650 0.116608
0.661926 0.239136 0.124420
0.697998 0.244904 0.133179
0.731415 0.250610 0.141266
0.743042 0.251526 0.144562
0.749481 0.250946 0.146301
0.756165 0.250610 0.148163
0.763367 0.252014 0.150055
0.770538 0.253448 0.151917
0.777527 0.254669 0.153870
0.784485 0.256042 0.155701
0.791443 0.257629 0.157654
0.798859 0.260376 0.159790
0.806183 0.262909 0.161835
0.000000 0.219391 0.088013
0.000946 0.218170 0.086914
0.001892 0.217102 0.085571
0.005402 0.214264 0.083679
0.008911 0.211426 0.082184
0.031189 0.204468 0.077637
0.069977 0.191986 0.072632
0.149109 0.200256 0.064423
0.242401 0.221832 0.069000
0.308289 0.222473 0.069702
0.353119 0.222473 0.069153
0.390289 0.226715 0.073059
0.424866 0.232697 0.078186
0.457550 0.238373 0.083954
0.489258 0.243652 0.091583
0.521118 0.248718 0.099243
0.554016 0.253967 0.107330
0.589081 0.259155 0.114960
0.625580 0.264099 0.122528
0.661133 0.267761 0.128998
0.697296 0.271576 0.135834
0.731201 0.275848 0.143097
0.747894 0.276459 0.147156
0.754700 0.274811 0.148773
0.761475 0.273651 0.150146
0.768616 0.274078 0.152008
0.775787 0.274750 0.153687
0.782593 0.275604 0.155518
0.789612 0.276611 0.157349
0.796326 0.277435 0.158813
0.803680 0.279602 0.160767
0.811188 0.282227 0.162872
0.004578 0.247650 0.099335
0.008392 0.246429 0.098022
0.011932 0.245270 0.096619
0.014740 0.242828 0.094666
0.017822 0.240326 0.092865
0.030121 0.235413 0.088287
0.052979 0.226837 0.085602
0.110107 0.217316 0.076782
0.191772 0.237610 0.074097
0.282349 0.257843 0.083923
0.342041 0.257111 0.085144
0.384308 0.256317 0.084351
0.420288 0.259796 0.086884
0.454529 0.265411 0.091522
0.487549 0.270813 0.096527
0.519165 0.275635 0.103210
0.551788 0.280029 0.110474
0.586212 0.284302 0.118225
0.621765 0.289032 0.125916
0.658813 0.294312 0.133728
0.695618 0.298706 0.140839
0.733795 0.303284 0.148010
0.753601 0.304260 0.152069
0.760071 0.302277 0.153046
0.766754 0.300110 0.154053
0.774078 0.300140 0.155792
0.781677 0.300568 0.157379
0.788910 0.300781 0.159027
0.796204 0.301392 0.160919
0.803253 0.302155 0.162781
0.810730 0.304138 0.164795
0.818298 0.306274 0.166840
0.014740 0.275146 0.110718
0.017914 0.273834 0.109406
0.021057 0.272797 0.107910
0.023590 0.270660 0.106049
0.026337 0.268402 0.104279
0.032654 0.265167 0.101318
0.049713 0.260162 0.097504
0.081085 0.249298 0.092499
0.153473 0.248474 0.082794
0.236633 0.274994 0.087372
0.319672 0.290039 0.099487
0.373993 0.290161 0.101288
0.413574 0.288940 0.100189
0.449158 0.291412 0.100922
0.483429 0.296265 0.104858
0.516815 0.301025 0.108856
0.549225 0.305511 0.115082
0.583557 0.309265 0.121826
0.618439 0.312622 0.128998
0.654755 0.317108 0.136505
0.692230 0.321686 0.143982
0.730835 0.326813 0.151794
0.760345 0.329956 0.157593
0.766846 0.328583 0.158539
0.773132 0.326660 0.159576
0.780304 0.326385 0.160767
0.787445 0.326416 0.162415
0.794434 0.326355 0.163971
0.801758 0.326599 0.165588
0.809204 0.327240 0.167114
0.816803 0.328979 0.169220
0.824341 0.330841 0.171173
0.024719 0.302032 0.121796
0.027435 0.301025 0.120667
0.030334 0.299805 0.119202
0.033112 0.298187 0.117615
0.035492 0.296295 0.116302
0.037933 0.293945 0.114532
0.051178 0.290161 0.109924
0.071564 0.284088 0.107361
0.116058 0.273590 0.098419
0.197937 0.282867 0.090698
0.283813 0.311615 0.104279
0.355316 0.320984 0.115509
0.403961 0.320892 0.117432
0.442139 0.319244 0.115173
0.477448 0.320831 0.114349
0.511414 0.325043 0.117706
0.545563 0.329315 0.121704
0.580322 0.333923 0.127258
0.615631 0.337372 0.133331
0.651489 0.340454 0.140198
0.688629 0.344299 0.147003
0.727203 0.349121 0.154541
0.761536 0.352997 0.161499
0.772156 0.352386 0.163269
0.778931 0.350952 0.164337
0.785675 0.350403 0.165771
0.792877 0.350800 0.167053
0.799591 0.350891 0.168579
0.806702 0.350891 0.170013
0.814178 0.351501 0.171906
0.821808 0.353027 0.173950
0.829376 0.354645 0.175690
0.034088 0.328674 0.132690
0.037018 0.327911 0.131805
0.039978 0.326874 0.130585
0.042358 0.325562 0.129456
0.044952 0.323792 0.128021
0.047150 0.321716 0.126465
0.055176 0.319000 0.122955
0.071045 0.314606 0.118530
0.096466 0.308533 0.116486
0.162872 0.302643 0.104370
0.247162 0.321320 0.105774
0.326202 0.344299 0.121979
0.387543 0.349426 0.130798
0.433167 0.349030 0.131989
0.470428 0.347168 0.128296
0.505859 0.348877 0.127472
0.539917 0.352478 0.130219
0.575043 0.356964 0.134338
0.611786 0.361328 0.139343
0.648315 0.364777 0.144745
0.685669 0.367767 0.150635
0.724304 0.372040 0.158020
0.763092 0.375946 0.165558
0.776550 0.375641 0.167938
0.784546 0.374481 0.169067
0.791473 0.373779 0.170319
0.798340 0.373749 0.171692
0.805298 0.373840 0.173004
0.812103 0.373871 0.174408
0.819427 0.374176 0.175934
0.826965 0.375763 0.177704
0.834351 0.377441 0.179565
0.043579 0.355194 0.143585
0.046143 0.354614 0.142792
0.048950 0.353638 0.141693
0.051697 0.352570 0.140747
0.053955 0.351044 0.139374
0.056427 0.349152 0.138245
0.059235 0.346924 0.136414
0.072876 0.343018 0.130341
0.091370 0.340118 0.127563
0.130615 0.333191 0.122162
0.213043 0.336212 0.114655
0.294800 0.358093 0.123505
0.365051 0.373779 0.137848
0.418762 0.376495 0.144928
0.461578 0.375641 0.144714
0.498871 0.374084 0.140991
0.533783 0.375824 0.140442
0.568726 0.379547 0.142883
0.605621 0.383759 0.146790
0.643951 0.388245 0.151123
0.682007 0.392029 0.155853
0.721191 0.395386 0.162292
0.761688 0.399200 0.169434
0.780823 0.399506 0.172760
0.791138 0.398712 0.174469
0.797821 0.397461 0.175537
0.804810 0.397522 0.177002
0.811951 0.397827 0.178406
0.818787 0.397919 0.179565
0.825897 0.398071 0.181000
0.832764 0.399658 0.182922
0.839935 0.401245 0.184845
0.052399 0.380829 0.154022
0.055206 0.380249 0.153320
0.057983 0.379669 0.152344
0.060333 0.378510 0.151520
0.062866 0.377319 0.150208
0.065002 0.375488 0.148956
0.067352 0.373413 0.147369
0.075989 0.370331 0.143250
0.091522 0.367157 0.137512
0.117462 0.365417 0.136841
0.173126 0.358856 0.127136
0.265198 0.371521 0.129028
0.338470 0.392273 0.141907
0.398285 0.401031 0.151703
0.447815 0.402985 0.157654
0.489960 0.401947 0.157013
0.526672 0.400635 0.153687
0.562134 0.402740 0.153412
0.598541 0.406433 0.155823
0.637848 0.410309 0.158417
0.678223 0.414795 0.161438
0.718231 0.418945 0.166809
0.758606 0.422699 0.173553
0.785706 0.424103 0.178101
0.797974 0.423309 0.179779
0.804291 0.421936 0.181000
0.811157 0.421783 0.182434
0.818085 0.421814 0.183716
0.825195 0.422089 0.185150
0.831879 0.422455 0.186768
0.838928 0.424011 0.188690
0.846100 0.425476 0.190643
0.061676 0.407257 0.164795
0.064331 0.406494 0.163910
0.066711 0.405518 0.162811
0.069214 0.404572 0.162018
0.071655 0.403229 0.160706
0.073669 0.401367 0.159424
0.075775 0.399475 0.157806
0.077881 0.397003 0.156036
0.094299 0.393524 0.149658
0.112091 0.391968 0.146027
0.150543 0.390808 0.145813
0.224243 0.389465 0.136261
0.310394 0.405273 0.144836
0.375549 0.423065 0.157990
0.428009 0.427368 0.164581
0.476135 0.429413 0.169891
0.517303 0.428223 0.169556
0.554504 0.427399 0.166473
0.591278 0.429291 0.166016
0.630554 0.432770 0.167053
0.671631 0.436707 0.168854
0.713074 0.440948 0.172424
0.755310 0.445984 0.178284
0.787292 0.449066 0.183411
0.804901 0.449127 0.186340
0.811066 0.447449 0.187103
0.817993 0.447357 0.188477
0.824738 0.447296 0.189636
0.831787 0.447479 0.191132
0.838440 0.447632 0.192688
0.845581 0.449249 0.194519
0.852875 0.450989 0.196411
0.071320 0.434845 0.176483
0.073853 0.433685 0.175201
0.076141 0.432709 0.174194
0.078644 0.431366 0.172882
0.080780 0.429932 0.171661
0.082825 0.428162 0.170258
0.084534 0.425934 0.168427
0.086578 0.423279 0.166412
0.096649 0.419525 0.161560
0.112488 0.416992 0.156677
0.135681 0.417450 0.155212
0.185913 0.416107 0.152283
0.273651 0.421204 0.148926
0.350342 0.438202 0.160400
0.409363 0.452209 0.172791
0.457336 0.453949 0.177704
0.504059 0.455902 0.182159
0.544891 0.454773 0.182343
0.582703 0.453491 0.178955
0.623108 0.455719 0.177124
0.664337 0.459106 0.177429
0.707428 0.463318 0.178864
0.750824 0.468658 0.183929
0.788483 0.474121 0.189728
0.812836 0.476898 0.193634
0.819092 0.475250 0.194397
0.825836 0.475037 0.195526
0.832733 0.475067 0.196808
0.839294 0.475128 0.197968
0.846008 0.475128 0.199402
0.852936 0.476685 0.201141
0.860260 0.478546 0.203217
0.081360 0.462067 0.188416
0.083832 0.461090 0.187134
0.086182 0.459869 0.185760
0.088409 0.458618 0.184570
0.090698 0.457153 0.183075
0.092468 0.455200 0.181396
0.094177 0.452972 0.179504
0.095978 0.450043 0.177307
0.100830 0.446655 0.173431
0.115021 0.442688 0.167847
0.131775 0.440735 0.163757
0.162964 0.443237 0.164368
0.226257 0.443878 0.159180
0.315887 0.452728 0.162048
0.385437 0.469421 0.175323
0.438904 0.480347 0.186829
0.485931 0.480804 0.190765
0.532593 0.482544 0.194916
0.573547 0.481720 0.194885
0.614258 0.480286 0.190521
0.657501 0.482727 0.187469
0.700897 0.486694 0.187531
0.745819 0.491852 0.190430
0.788483 0.498962 0.196564
0.819214 0.503784 0.201538
0.827271 0.503021 0.202545
0.834045 0.503174 0.203644
0.841187 0.503693 0.204895
0.847748 0.504272 0.206024
0.854431 0.504547 0.207367
0.861450 0.506165 0.209106
0.868530 0.508179 0.211151
0.092102 0.489899 0.201569
0.094452 0.489044 0.200134
0.096680 0.487976 0.198914
0.099060 0.486908 0.197418
0.101105 0.485565 0.195831
0.103088 0.483459 0.194031
0.104736 0.481262 0.192047
0.106201 0.478546 0.189758
0.107910 0.475494 0.187378
0.118652 0.470032 0.180206
0.134125 0.466766 0.174774
0.153900 0.465881 0.171295
0.191620 0.470337 0.173859
0.266510 0.473358 0.168793
0.351288 0.483368 0.174377
0.415070 0.498230 0.188721
0.466827 0.508087 0.200287
0.514099 0.508270 0.204254
0.561584 0.509949 0.207916
0.605438 0.509247 0.206177
0.649567 0.507568 0.199951
0.694153 0.511169 0.198151
0.739838 0.516296 0.198151
0.784637 0.523376 0.203644
0.821320 0.529846 0.209473
0.834961 0.530487 0.211395
0.841827 0.530518 0.212189
0.848907 0.531219 0.213501
0.855804 0.532135 0.214661
0.863007 0.532867 0.215942
0.870300 0.535126 0.217773
0.877197 0.537415 0.219849
0.103271 0.518982 0.216217
0.105469 0.517761 0.214539
0.107758 0.516876 0.213196
0.109985 0.515594 0.211487
0.112061 0.514221 0.209839
0.114136 0.512604 0.208130
0.115814 0.510315 0.206055
0.117279 0.507568 0.203735
0.118744 0.504822 0.201416
0.125366 0.500580 0.196014
0.137634 0.494873 0.188293
0.153870 0.491425 0.182892
0.177643 0.491913 0.180664
0.221283 0.498535 0.183868
0.302155 0.503265 0.180298
0.382202 0.513367 0.186829
0.442902 0.526947 0.201813
0.494507 0.536438 0.213776
0.542694 0.536835 0.218231
0.592255 0.538635 0.220642
0.639954 0.537842 0.217590
0.687042 0.537140 0.210510
0.732574 0.541077 0.208588
0.779541 0.548035 0.211426
0.823608 0.556366 0.217896
0.842346 0.558960 0.220642
0.848999 0.558533 0.221558
0.856140 0.559174 0.222778
0.863220 0.560181 0.224030
0.870117 0.561157 0.225403
0.877441 0.563324 0.227234
0.884735 0.565704 0.229248
0.114960 0.548584 0.231323
0.117279 0.547394 0.229584
0.119354 0.546387 0.227814
0.121613 0.544952 0.225952
0.123596 0.543518 0.224182
0.125580 0.541901 0.222382
0.127289 0.539856 0.220490
0.128815 0.537262 0.218292
0.130615 0.534821 0.216187
0.133148 0.531952 0.213470
0.144470 0.526428 0.205627
0.157715 0.520416 0.197723
0.175690 0.516785 0.192139
0.202972 0.519470 0.192596
0.247986 0.527466 0.195251
0.329712 0.533447 0.192413
0.409058 0.543884 0.199707
0.469818 0.556274 0.214722
0.522919 0.566315 0.227356
0.572754 0.567230 0.232483
0.625885 0.569092 0.233734
0.676849 0.568298 0.229401
0.725647 0.568542 0.222198
0.773224 0.573761 0.221252
0.820282 0.582123 0.226135
0.849579 0.587738 0.230743
0.856537 0.587250 0.231476
0.863434 0.588013 0.232574
0.870483 0.589111 0.233856
0.877502 0.590210 0.235229
0.884888 0.592468 0.237061
0.892059 0.594910 0.239075
0.127960 0.579498 0.247162
0.130249 0.578491 0.245575
0.132355 0.577698 0.243958
0.134613 0.576447 0.242218
0.136597 0.575348 0.240448
0.138611 0.573395 0.238464
0.140228 0.571442 0.236511
0.141632 0.568695 0.234253
0.143280 0.566071 0.232025
0.144714 0.563446 0.229797
0.152130 0.559265 0.224365
0.165070 0.552887 0.215881
0.178741 0.546753 0.208466
0.198822 0.543793 0.203888
0.228790 0.548309 0.206177
0.273468 0.556274 0.206207
0.354828 0.563873 0.205078
0.434174 0.574799 0.212433
0.497650 0.587006 0.227722
0.552460 0.597534 0.241577
0.605225 0.599518 0.247314
0.662964 0.601471 0.246979
0.716492 0.600311 0.239807
0.766937 0.601898 0.234192
0.815918 0.608917 0.235901
0.853638 0.615997 0.240875
0.864685 0.616943 0.242401
0.871582 0.617920 0.243530
0.878601 0.619080 0.244537
0.885651 0.620270 0.246002
0.892822 0.622894 0.247894
0.900024 0.625519 0.249939
0.140839 0.611237 0.263245
0.143158 0.610565 0.261749
0.145264 0.609528 0.260101
0.147522 0.608643 0.258728
0.149567 0.607635 0.257111
0.151733 0.606262 0.255341
0.153351 0.604248 0.253387
0.154846 0.601929 0.251312
0.156494 0.599243 0.249146
0.157837 0.596344 0.246674
0.159180 0.593353 0.244232
0.172974 0.586853 0.234741
0.185272 0.579620 0.225739
0.200745 0.574127 0.219330
0.222565 0.572327 0.216461
0.254333 0.578644 0.220398
0.300964 0.586761 0.219208
0.378571 0.595520 0.218170
0.457947 0.606873 0.225555
0.526062 0.619232 0.241699
0.583435 0.629883 0.255676
0.641907 0.633209 0.261932
0.704376 0.634460 0.257324
0.759277 0.634247 0.249451
0.809753 0.636719 0.247375
0.855957 0.645203 0.251770
0.871552 0.647491 0.254150
0.879486 0.648682 0.255432
0.886688 0.649902 0.256744
0.893402 0.651184 0.258118
0.900696 0.653900 0.260071
0.907867 0.656769 0.262177
0.153320 0.643158 0.276733
0.155884 0.643097 0.276306
0.158173 0.642639 0.275177
0.160583 0.641846 0.274109
0.162964 0.641296 0.273041
0.165070 0.640320 0.271637
0.167023 0.638550 0.269897
0.168488 0.636200 0.267883
0.169800 0.633392 0.265747
0.171082 0.630768 0.263580
0.172333 0.627655 0.261353
0.181458 0.622772 0.254700
0.193420 0.615143 0.245087
0.205963 0.608398 0.237244
0.223450 0.602966 0.230469
0.245758 0.602142 0.229248
0.278076 0.608978 0.233643
0.328552 0.618469 0.232422
0.403412 0.627869 0.231445
0.483368 0.640442 0.239258
0.556335 0.652924 0.255554
0.618256 0.664124 0.269531
0.683655 0.667786 0.274261
0.748322 0.668182 0.264679
0.802551 0.668793 0.260101
0.851715 0.673676 0.263428
0.875153 0.677704 0.266541
0.886078 0.679626 0.268555
0.893158 0.680908 0.269806
0.899750 0.682281 0.271484
0.906799 0.684906 0.273651
0.913666 0.687744 0.276123
0.165619 0.675507 0.290070
0.167938 0.675415 0.289398
0.170532 0.675354 0.288940
0.173004 0.674866 0.288239
0.175354 0.674408 0.287476
0.177734 0.673798 0.286682
0.179871 0.672638 0.285309
0.181427 0.670502 0.283417
0.182953 0.667999 0.281464
0.184601 0.665405 0.279480
0.186066 0.662994 0.277496
0.190002 0.659637 0.274323
0.203033 0.654144 0.266205
0.215607 0.647827 0.258453
0.229370 0.640381 0.250763
0.247803 0.635101 0.245209
0.271179 0.634979 0.244446
0.303558 0.641418 0.248169
0.357269 0.651001 0.247528
0.431610 0.661133 0.244446
0.512787 0.675323 0.253754
0.590515 0.688293 0.269592
0.660980 0.699829 0.281433
0.729950 0.702515 0.281006
0.793945 0.702698 0.272644
0.844879 0.705780 0.274597
0.876984 0.708923 0.278870
0.892212 0.710938 0.282227
0.898804 0.712341 0.284058
0.905090 0.713623 0.286194
0.911957 0.716492 0.288818
0.918701 0.719513 0.291718
0.170776 0.689148 0.296021
0.173615 0.689850 0.296021
0.176483 0.690765 0.295868
0.179352 0.691406 0.295746
0.182220 0.692352 0.295624
0.185059 0.692993 0.295471
0.187439 0.693237 0.294739
0.189728 0.692780 0.293823
0.192108 0.692444 0.292786
0.194000 0.691345 0.291718
0.196198 0.690521 0.290405
0.198090 0.689362 0.289062
0.209351 0.686279 0.283325
0.222839 0.682343 0.276794
0.236603 0.677887 0.270874
0.253052 0.672272 0.264587
0.272888 0.668701 0.260864
0.298767 0.670135 0.262085
0.331207 0.675812 0.265564
0.387512 0.684875 0.264282
0.467285 0.695709 0.257263
0.550873 0.711609 0.267242
0.634857 0.726868 0.284790
0.709198 0.736664 0.290405
0.779175 0.739227 0.289703
0.838226 0.740784 0.286255
0.877197 0.744568 0.292542
0.895905 0.746307 0.298828
0.902252 0.746490 0.300873
0.907928 0.747131 0.303772
0.913910 0.749481 0.307281
0.919861 0.751892 0.311035
0.173615 0.696411 0.299347
0.176331 0.697418 0.299377
0.179199 0.698334 0.299377
0.182068 0.699127 0.299316
0.184937 0.699860 0.299042
0.187836 0.700806 0.298920
0.190460 0.701111 0.298431
0.192841 0.701141 0.297821
0.195129 0.701172 0.296906
0.197632 0.701202 0.296234
0.200073 0.701141 0.295502
0.202240 0.700958 0.294556
0.209198 0.700256 0.291962
0.223206 0.697784 0.286102
0.236938 0.694946 0.280853
0.252625 0.690826 0.275574
0.271545 0.687286 0.270966
0.294464 0.687042 0.270569
0.324097 0.692505 0.274872
0.361755 0.700623 0.278198
0.431580 0.711670 0.271851
0.512634 0.724792 0.266022
0.598724 0.743347 0.280396
0.688843 0.760986 0.294830
0.761139 0.770020 0.299042
0.825500 0.775604 0.303772
0.871216 0.780365 0.311188
0.896484 0.784363 0.320404
0.902283 0.784668 0.322968
0.907379 0.785400 0.326965
0.912201 0.787659 0.331696
0.917053 0.789856 0.336426
0.176422 0.703705 0.302399
0.179260 0.704712 0.302429
0.182037 0.705536 0.302429
0.184784 0.706543 0.302460
0.187531 0.707367 0.302460
0.190460 0.708313 0.302368
0.193115 0.708679 0.301971
0.195587 0.708771 0.301361
0.198029 0.708862 0.300537
0.200287 0.708984 0.299957
0.202759 0.709076 0.299347
0.205261 0.709198 0.298492
0.210480 0.709106 0.296875
0.223389 0.708191 0.292419
0.237335 0.706238 0.287811
0.252563 0.703705 0.283325
0.270569 0.700470 0.278503
