滤镜资源/Professional Luts Collection/Triune-Digital-Cinematic-LUTs/3D LUTs (CUBE)/LOG/Prometheus - LOG.cube
#Created by Benjamin (IWLTBAP) : http://luts.iwltbap.com
#Copyright: (C) Copyright 2016 Triune Films and IWLTBAP
TITLE "Blockbuster LUTs Pack (LOG)"
#LUT size
LUT_3D_SIZE 8
#LUT data points
DOMAIN_MIN 0.000000 0.000000 0.000000
DOMAIN_MAX 0.903226 0.903226 0.903226
0.000000 0.000000 0.000000
0.146271 0.000000 0.000000
0.316528 0.046204 0.022766
0.459106 0.094452 0.069489
0.608887 0.145416 0.114410
0.756989 0.198059 0.153778
0.790039 0.210815 0.162659
0.818054 0.220703 0.169891
0.000000 0.083008 0.024567
0.068726 0.078827 0.021667
0.301331 0.095551 0.025238
0.432800 0.118286 0.058136
0.562500 0.154602 0.097931
0.709961 0.207275 0.138245
0.756775 0.224335 0.150085
0.785950 0.235870 0.157806
0.000000 0.219391 0.088013
0.008911 0.211426 0.082184
0.242401 0.221832 0.069000
0.424866 0.232697 0.078186
0.554016 0.253967 0.107330
0.697296 0.271576 0.135834
0.761475 0.273651 0.150146
0.789612 0.276611 0.157349
0.034088 0.328674 0.132690
0.044952 0.323792 0.128021
0.096466 0.308533 0.116486
0.387543 0.349426 0.130798
0.539917 0.352478 0.130219
0.685669 0.367767 0.150635
0.784546 0.374481 0.169067
0.812103 0.373871 0.174408
0.071320 0.434845 0.176483
0.080780 0.429932 0.171661
0.096649 0.419525 0.161560
0.273651 0.421204 0.148926
0.504059 0.455902 0.182159
0.664337 0.459106 0.177429
0.812836 0.476898 0.193634
0.839294 0.475128 0.197968
0.114960 0.548584 0.231323
0.123596 0.543518 0.224182
0.130615 0.534821 0.216187
0.175690 0.516785 0.192139
0.409058 0.543884 0.199707
0.625885 0.569092 0.233734
0.820282 0.582123 0.226135
0.870483 0.589111 0.233856
0.165619 0.675507 0.290070
0.175354 0.674408 0.287476
0.182953 0.667999 0.281464
0.203033 0.654144 0.266205
0.271179 0.634979 0.244446
0.512787 0.675323 0.253754
0.793945 0.702698 0.272644
0.898804 0.712341 0.284058
0.179047 0.710938 0.305573
0.190491 0.714752 0.305817
0.200684 0.716461 0.304138
0.211517 0.716827 0.301178
0.270050 0.709717 0.284210
0.395172 0.729889 0.292236
0.736206 0.798798 0.307251
0.898041 0.832184 0.358978
0.000000 0.005493 0.140717
0.120758 0.021912 0.140594
0.315552 0.038391 0.077026
0.440430 0.086121 0.097076
0.576721 0.137695 0.125824
0.720856 0.195526 0.155121
0.758057 0.210419 0.164368
0.823608 0.224701 0.189178
0.000000 0.100220 0.126099
0.042114 0.093018 0.117554
0.293091 0.080688 0.064362
0.424561 0.106384 0.079254
0.556763 0.146851 0.110260
0.706726 0.202118 0.150543
0.755157 0.221008 0.162537
0.784912 0.233002 0.170288
0.000000 0.226196 0.125763
0.012573 0.220123 0.118896
0.227112 0.222382 0.100006
0.422424 0.232605 0.100098
0.555145 0.248871 0.121796
0.694885 0.264343 0.148193
0.760590 0.268097 0.163330
0.788940 0.272552 0.170074
0.036926 0.333618 0.162659
0.048096 0.329407 0.159882
0.094910 0.314575 0.146973
0.377228 0.350464 0.158173
0.536804 0.353790 0.152679
0.688568 0.366974 0.165802
0.787933 0.372559 0.182800
0.814941 0.371765 0.188690
0.073547 0.438690 0.202606
0.083679 0.435181 0.198975
0.099670 0.425720 0.189667
0.250549 0.418488 0.174500
0.497284 0.457977 0.209137
0.663055 0.460449 0.197449
0.816345 0.475525 0.207367
0.842499 0.473083 0.211670
0.117310 0.553162 0.256989
0.127014 0.549469 0.250061
0.134460 0.541107 0.241516
0.176666 0.520599 0.214203
0.394348 0.542328 0.218811
0.621552 0.571198 0.254883
0.821716 0.584290 0.242920
0.873627 0.591614 0.250305
0.167114 0.678955 0.312439
0.177826 0.679626 0.311279
0.186127 0.674347 0.306030
0.206116 0.661499 0.290619
0.270844 0.638641 0.264282
0.500732 0.675507 0.272736
0.791595 0.707123 0.294891
0.899780 0.717499 0.306213
0.181152 0.715851 0.328156
0.193085 0.721252 0.329498
0.203949 0.724274 0.328857
0.215240 0.726501 0.327179
0.272766 0.719421 0.309235
0.389282 0.734131 0.315186
0.731598 0.804565 0.332031
0.896942 0.841980 0.390625
0.000000 0.050110 0.287964
0.082794 0.066986 0.281982
0.299927 0.067139 0.266052
0.451233 0.083801 0.209351
0.579437 0.127197 0.201782
0.728027 0.188843 0.227783
0.764557 0.204224 0.227448
0.793213 0.216217 0.229309
0.000000 0.132385 0.274719
0.037445 0.130341 0.259796
0.260925 0.119904 0.259735
0.432495 0.101562 0.192657
0.558807 0.135437 0.188843
0.711487 0.197174 0.216431
0.757507 0.215424 0.217529
0.785126 0.226379 0.219421
0.011658 0.249664 0.260803
0.025360 0.243835 0.257233
0.162750 0.235138 0.261566
0.404938 0.228699 0.207367
0.543488 0.228149 0.181488
0.686615 0.251190 0.195282
0.757965 0.262115 0.201721
0.788055 0.267212 0.204742
0.046387 0.350067 0.261627
0.057281 0.345825 0.257660
0.098816 0.339508 0.246735
0.348755 0.358154 0.241821
0.528961 0.359619 0.214844
0.689178 0.365051 0.195374
0.790070 0.368561 0.197876
0.815369 0.366241 0.200470
0.077698 0.445679 0.255890
0.087341 0.442017 0.250977
0.101746 0.432068 0.233948
0.225983 0.417084 0.205231
0.488678 0.459198 0.235077
0.660675 0.461151 0.218506
0.818298 0.472595 0.221436
0.845276 0.469849 0.225281
0.118774 0.555359 0.280731
0.128143 0.551910 0.274414
0.136292 0.544769 0.266052
0.177856 0.524567 0.237671
0.377411 0.540131 0.238159
0.615295 0.572083 0.275360
0.821686 0.584869 0.258942
0.875824 0.592438 0.265503
0.168945 0.681824 0.337006
0.179657 0.682739 0.335541
0.188629 0.679169 0.331268
0.208344 0.667908 0.315521
0.270386 0.641754 0.284119
0.490753 0.674774 0.290619
0.788147 0.710510 0.317230
0.899445 0.722504 0.329987
0.183411 0.720917 0.351624
0.195435 0.726593 0.352722
0.206909 0.731018 0.352997
0.217438 0.733612 0.351471
0.274963 0.728394 0.333344
0.387085 0.739471 0.336182
0.726074 0.808990 0.354736
0.898529 0.850922 0.419464
0.011932 0.073975 0.427887
0.078003 0.081177 0.395782
0.263306 0.075928 0.406586
0.423004 0.101074 0.374237
0.580750 0.129639 0.330261
0.728058 0.188110 0.318481
0.767822 0.204926 0.314758
0.797577 0.216187 0.314362
0.005310 0.151123 0.414978
0.046509 0.147949 0.373566
0.208405 0.141022 0.395081
0.404053 0.121002 0.365845
0.560760 0.139648 0.320465
0.711395 0.197388 0.307739
0.763763 0.217224 0.306061
0.794800 0.229065 0.307068
0.026428 0.267578 0.375793
0.038116 0.261566 0.373688
0.142426 0.249603 0.380188
0.355652 0.256104 0.388519
0.535858 0.238098 0.322235
0.682434 0.252716 0.296021
0.761536 0.264252 0.297424
0.794739 0.268555 0.296906
0.055115 0.365570 0.376434
0.066010 0.361786 0.375214
0.104095 0.354950 0.373260
0.272217 0.359650 0.393341
0.515564 0.366089 0.343597
0.675110 0.350769 0.287292
0.782562 0.352264 0.281158
0.811798 0.352570 0.280487
0.088257 0.464569 0.379944
0.097809 0.460999 0.376923
0.110077 0.451874 0.368134
0.198456 0.453644 0.363098
0.457153 0.475281 0.365509
0.657074 0.474518 0.328796
0.826080 0.470490 0.288239
0.853973 0.466858 0.284485
0.129303 0.571716 0.387848
0.138306 0.568665 0.382904
0.145630 0.561157 0.372375
0.186493 0.545776 0.341614
0.309906 0.546356 0.327240
0.603973 0.580505 0.345245
0.824158 0.589264 0.302704
0.881104 0.595367 0.299377
0.175201 0.692261 0.404846
0.185333 0.692627 0.401794
0.193878 0.688293 0.393311
0.212982 0.679138 0.370544
0.271637 0.649506 0.320831
0.476898 0.673645 0.315063
0.781616 0.711792 0.338409
0.898254 0.725647 0.352356
0.187134 0.728394 0.388641
0.198822 0.733887 0.386658
0.209747 0.737793 0.381866
0.220245 0.740234 0.374603
0.276886 0.737732 0.357727
0.383575 0.743774 0.355194
0.718658 0.812927 0.375275
0.901337 0.859009 0.445465
0.036377 0.092773 0.593872
0.077393 0.096191 0.515106
0.218689 0.094452 0.543610
0.387878 0.094666 0.528198
0.552734 0.133331 0.489838
0.723938 0.183868 0.457123
0.768158 0.201202 0.446930
0.795227 0.210175 0.437073
0.025848 0.163239 0.573975
0.051819 0.162720 0.497772
0.186829 0.144562 0.525116
0.363525 0.119171 0.523682
0.529144 0.145538 0.478546
0.708679 0.193451 0.445953
0.764282 0.213745 0.432495
0.791840 0.222412 0.423523
0.040833 0.284698 0.493286
0.051147 0.277985 0.491486
0.130585 0.263824 0.493347
0.292847 0.263458 0.520660
0.500336 0.247192 0.495972
0.674744 0.245850 0.436768
0.758545 0.257599 0.410309
0.789520 0.261139 0.402802
0.067230 0.381653 0.488953
0.077789 0.377777 0.488251
0.111023 0.367615 0.487030
0.244476 0.368866 0.502197
0.463287 0.375427 0.507477
0.652924 0.352295 0.431030
0.767090 0.353088 0.402405
0.797241 0.353363 0.397247
0.094910 0.474365 0.487152
0.104858 0.471497 0.486420
0.115417 0.463593 0.480438
0.194885 0.462280 0.486450
0.381012 0.478577 0.506104
0.645966 0.479340 0.444458
0.816284 0.457214 0.386047
0.846100 0.453735 0.380066
0.138458 0.584839 0.497070
0.148010 0.582489 0.494629
0.155701 0.576080 0.487915
0.192352 0.561920 0.471771
0.302338 0.571869 0.465210
0.587616 0.600952 0.471497
0.829742 0.610535 0.422852
0.894897 0.606873 0.402740
0.185760 0.709564 0.513885
0.197266 0.712128 0.514862
0.206451 0.709442 0.510468
0.223572 0.700287 0.497192
0.287445 0.685120 0.460480
0.422028 0.687836 0.438873
0.772339 0.736816 0.464783
0.897217 0.756134 0.476105
0.200256 0.753540 0.504913
0.212067 0.759766 0.505219
0.222992 0.763947 0.502075
0.232758 0.765839 0.494507
0.289978 0.770752 0.472473
0.387787 0.770844 0.449036
0.718384 0.835754 0.466400
0.909210 0.883606 0.529846
0.054871 0.118866 0.707703
0.082672 0.119385 0.625702
0.200714 0.118561 0.649658
0.325867 0.097931 0.651428
0.521729 0.130402 0.645660
0.679718 0.165009 0.625946
0.727905 0.180206 0.616241
0.761444 0.190430 0.607971
0.044067 0.178833 0.702393
0.055511 0.177551 0.623840
0.173218 0.151123 0.640594
0.306641 0.133667 0.653259
0.493134 0.147125 0.647675
0.663300 0.176544 0.617859
0.726685 0.194916 0.606567
0.759735 0.204620 0.597900
0.056854 0.302429 0.627350
0.066101 0.294281 0.627167
0.124756 0.276672 0.628357
0.261139 0.250244 0.641296
0.441864 0.236450 0.661835
0.629517 0.232361 0.613556
0.727631 0.238861 0.591248
0.761322 0.241608 0.575195
0.082977 0.399811 0.621277
0.091827 0.394196 0.620453
0.118530 0.380127 0.618164
0.213531 0.370392 0.623444
0.380524 0.360931 0.649658
0.608246 0.347626 0.626221
0.740601 0.328796 0.577759
0.782104 0.338898 0.561584
0.110596 0.491516 0.612579
0.120270 0.488129 0.611908
0.128571 0.480682 0.606079
0.193176 0.468475 0.608063
0.331726 0.479034 0.627106
0.595978 0.490997 0.640137
0.782440 0.456177 0.566650
0.818298 0.456451 0.547729
0.148712 0.597992 0.614502
0.158661 0.595947 0.614441
0.166718 0.589539 0.609619
0.203522 0.578888 0.604004
0.299316 0.586151 0.613525
0.520996 0.621979 0.637726
0.812225 0.625061 0.580475
0.878265 0.617035 0.562469
0.196869 0.727936 0.628052
0.208710 0.731812 0.630768
0.218536 0.730408 0.628723
0.235565 0.723267 0.620789
0.300110 0.710876 0.604584
0.422394 0.723785 0.595215
0.761963 0.765228 0.607605
0.905609 0.788605 0.615784
0.211853 0.776245 0.618317
0.223999 0.783478 0.620789
0.235382 0.788239 0.619720
0.245605 0.790588 0.613892
0.302704 0.796967 0.604797
0.418518 0.819794 0.601746
0.704010 0.862946 0.604248
0.917786 0.911591 0.655670
0.059509 0.124756 0.732819
0.080902 0.126038 0.650909
0.193695 0.122833 0.671753
0.320892 0.103149 0.676239
0.508820 0.131439 0.679535
0.668213 0.161621 0.664948
0.716827 0.175018 0.666382
0.746979 0.184601 0.668060
0.047485 0.178986 0.728363
0.055115 0.176697 0.650330
0.169250 0.149261 0.666565
0.302338 0.142731 0.683624
0.471436 0.146332 0.688812
0.649902 0.174194 0.670898
0.711273 0.188293 0.670959
0.741455 0.197266 0.672668
0.060730 0.304230 0.661407
0.070190 0.296875 0.664337
0.123413 0.278564 0.669373
0.249786 0.246063 0.683655
0.415619 0.231476 0.713440
0.617828 0.233093 0.695984
0.705200 0.226898 0.683807
0.737122 0.229309 0.683563
0.090057 0.405701 0.678925
0.099213 0.401062 0.682404
0.122711 0.386841 0.688354
0.206757 0.371124 0.696899
0.353058 0.347382 0.719788
0.583099 0.332306 0.740570
0.714661 0.322784 0.715485
0.745880 0.322723 0.715027
0.122498 0.501648 0.701813
0.132385 0.499359 0.705750
0.140686 0.492737 0.707703
0.196899 0.477295 0.716278
0.307770 0.475372 0.736450
0.533325 0.457703 0.793213
0.739471 0.440094 0.753601
0.778351 0.442871 0.748657
0.162659 0.614502 0.734833
0.173004 0.613464 0.738800
0.181854 0.608215 0.738281
0.217438 0.598755 0.739197
0.300507 0.596222 0.747223
0.462585 0.621521 0.779358
0.767944 0.633148 0.799683
0.843964 0.617188 0.785461
0.205994 0.744049 0.754272
0.217377 0.746826 0.758209
0.227539 0.745422 0.757629
0.245026 0.739655 0.753723
0.325104 0.741455 0.757599
0.452057 0.760468 0.773254
0.730164 0.804169 0.807770
0.905212 0.809296 0.788666
0.223389 0.798889 0.745056
0.235321 0.804993 0.747772
0.247467 0.809998 0.748413
0.258881 0.813385 0.744507
0.327850 0.829590 0.752563
0.460388 0.866302 0.776031
0.647095 0.892426 0.782196
0.911316 0.932983 0.799133
0.064880 0.131409 0.757385
0.081512 0.132477 0.675568
0.190582 0.127625 0.694061
0.319244 0.108826 0.699371
0.496033 0.130188 0.704254
0.663116 0.161987 0.690582
0.711914 0.173676 0.691040
0.741852 0.182739 0.692291
0.051788 0.182648 0.752411
0.088806 0.170807 0.760468
0.168152 0.152985 0.688324
0.299255 0.148895 0.705597
0.460968 0.146545 0.711151
0.645599 0.176117 0.696838
0.706573 0.187103 0.695496
0.736816 0.195557 0.696503
0.063416 0.306183 0.684723
0.072784 0.298889 0.687592
0.124512 0.281158 0.692535
0.247040 0.247772 0.704254
0.405396 0.232178 0.731995
0.612640 0.232941 0.721527
0.702087 0.224457 0.707764
0.732544 0.225311 0.706604
0.092651 0.407928 0.701569
0.102051 0.403503 0.705383
0.123810 0.388611 0.711151
0.206665 0.372467 0.719147
0.347992 0.346161 0.739441
0.572388 0.325592 0.763733
0.713257 0.321594 0.740204
0.741150 0.318329 0.737488
0.125000 0.503143 0.724152
0.134979 0.500916 0.728363
0.143280 0.494110 0.730347
0.197662 0.478699 0.739227
0.307251 0.476532 0.759125
0.522369 0.451660 0.815948
0.738403 0.440125 0.787445
0.777039 0.443451 0.786316
0.163971 0.614807 0.756256
0.174194 0.613892 0.760590
0.183472 0.609406 0.763153
0.218170 0.601013 0.769562
0.303192 0.600769 0.785736
0.474640 0.632507 0.833008
0.763885 0.637085 0.862366
0.847595 0.642029 0.865601
0.208405 0.746887 0.796326
0.219666 0.749115 0.802826
0.229767 0.747192 0.806946
0.245972 0.741150 0.810333
0.327637 0.745148 0.825836
0.458893 0.770844 0.858704
0.743591 0.816406 0.912109
0.891327 0.820007 0.922089
0.228851 0.806915 0.813934
0.241608 0.812408 0.820374
0.255402 0.817749 0.826508
0.269348 0.822571 0.832062
0.347229 0.846497 0.856873
0.487732 0.885345 0.894836
0.714661 0.924042 0.933960
0.936401 0.964478 0.965912
