滤镜资源/Professional Luts Collection/Triune-Digital-Cinematic-LUTs/3D LUTs (CUBE)/LOG/Saving Private Ryan - LOG.cube
#Created by Benjamin (IWLTBAP) : http://luts.iwltbap.com
#Copyright: (C) Copyright 2016 Triune Films and IWLTBAP
TITLE "Blockbuster LUTs Pack (LOG)"
#LUT size
LUT_3D_SIZE 32
#LUT data points
0.001099 0.003937 0.003723
0.005829 0.003815 0.003571
0.018982 0.003174 0.002747
0.035645 0.002960 0.002258
0.055145 0.004486 0.003510
0.077606 0.006622 0.005188
0.106110 0.009857 0.007996
0.139465 0.014618 0.012207
0.172302 0.019775 0.016693
0.208527 0.026062 0.022614
0.247986 0.031982 0.028473
0.290039 0.036987 0.033661
0.329529 0.042419 0.039429
0.370056 0.049652 0.046722
0.412415 0.057465 0.054413
0.455750 0.065430 0.062714
0.498962 0.073273 0.070740
0.541534 0.080933 0.078461
0.585205 0.088837 0.086456
0.628906 0.096619 0.094452
0.654999 0.101227 0.099121
0.668488 0.103607 0.101501
0.676147 0.104950 0.102875
0.683838 0.106323 0.104279
0.691528 0.107666 0.105621
0.699127 0.108978 0.106964
0.706635 0.110291 0.108276
0.714172 0.111572 0.109619
0.721771 0.112915 0.111023
0.729218 0.114227 0.112274
0.736664 0.115540 0.113586
0.744141 0.116882 0.114929
0.001953 0.010345 0.004669
0.005585 0.009979 0.004486
0.016846 0.009094 0.003632
0.032959 0.008026 0.002502
0.052673 0.009247 0.003754
0.074890 0.011353 0.005371
0.102570 0.014343 0.007996
0.136169 0.018951 0.012115
0.169739 0.024445 0.016846
0.206329 0.030823 0.022888
0.245575 0.036682 0.028687
0.287872 0.041504 0.034058
0.328339 0.046997 0.040009
0.369049 0.054169 0.047211
0.411133 0.061829 0.054779
0.454620 0.069794 0.063080
0.497528 0.077423 0.070984
0.540283 0.084991 0.078705
0.584015 0.092834 0.086700
0.628021 0.100677 0.094727
0.655823 0.105591 0.099701
0.671143 0.108276 0.102417
0.678741 0.109680 0.103790
0.686432 0.111023 0.105164
0.694061 0.112335 0.106537
0.701477 0.113617 0.107849
0.708984 0.114899 0.109161
0.716553 0.116211 0.110504
0.724060 0.117523 0.111847
0.731415 0.118774 0.113098
0.738831 0.120087 0.114380
0.746216 0.121368 0.115723
0.004333 0.028442 0.007812
0.007782 0.026672 0.007355
0.015656 0.023041 0.005615
0.031158 0.020020 0.003998
0.050507 0.017456 0.004272
0.072388 0.017761 0.005707
0.099457 0.019043 0.008087
0.132660 0.023315 0.012085
0.166779 0.029388 0.016968
0.203827 0.035767 0.023102
0.242889 0.041260 0.028778
0.285400 0.045929 0.034363
0.326691 0.051453 0.040558
0.367554 0.058624 0.047668
0.409668 0.066254 0.055176
0.453033 0.073944 0.063354
0.495758 0.081482 0.071167
0.538849 0.089020 0.078918
0.582397 0.096771 0.086884
0.626617 0.104614 0.094910
0.656555 0.109894 0.100311
0.673828 0.113007 0.103394
0.681427 0.114349 0.104767
0.688995 0.115662 0.106110
0.696655 0.117035 0.107452
0.703979 0.118286 0.108765
0.711365 0.119568 0.110046
0.718903 0.120850 0.111359
0.726349 0.122131 0.112671
0.733704 0.123383 0.113922
0.741028 0.124664 0.115234
0.748199 0.125885 0.116455
0.007446 0.051697 0.011627
0.011017 0.050201 0.011200
0.016235 0.047089 0.009918
0.029724 0.041351 0.007172
0.048981 0.036987 0.006195
0.070435 0.036377 0.007233
0.097931 0.036804 0.009521
0.129700 0.038879 0.013092
0.164490 0.042542 0.018158
0.201355 0.045563 0.023987
0.239288 0.047882 0.029053
0.280365 0.049927 0.034119
0.322876 0.055634 0.040710
0.363617 0.062897 0.047699
0.405731 0.070465 0.055145
0.449097 0.077820 0.063263
0.491486 0.085114 0.070923
0.534760 0.092712 0.078674
0.578217 0.100342 0.086670
0.622437 0.108154 0.094604
0.656952 0.114197 0.100830
0.676514 0.117676 0.104309
0.684052 0.118988 0.105682
0.691589 0.120361 0.107025
0.699127 0.121704 0.108368
0.706573 0.123016 0.109680
0.713898 0.124237 0.110931
0.721252 0.125519 0.112213
0.728607 0.126801 0.113495
0.735931 0.128052 0.114807
0.743164 0.129242 0.116058
0.750214 0.130432 0.117218
0.011383 0.076569 0.016205
0.014832 0.075104 0.015747
0.018097 0.072784 0.014740
0.029022 0.067688 0.011841
0.047455 0.061340 0.009369
0.068787 0.060059 0.009796
0.095642 0.060272 0.011383
0.128082 0.061951 0.015350
0.162659 0.064819 0.020660
0.202789 0.068420 0.027069
0.242004 0.070251 0.032227
0.282715 0.071869 0.037415
0.324249 0.074799 0.043671
0.364807 0.078094 0.050323
0.404816 0.080200 0.056396
0.445038 0.082520 0.063171
0.487244 0.088867 0.070709
0.530304 0.096313 0.078400
0.573914 0.103912 0.086365
0.618500 0.111877 0.094421
0.654755 0.118103 0.100922
0.679077 0.122437 0.105286
0.686493 0.123749 0.106567
0.694031 0.125092 0.107941
0.701569 0.126465 0.109283
0.708893 0.127716 0.110535
0.716278 0.128967 0.111847
0.723633 0.130249 0.113129
0.730865 0.131470 0.114380
0.738129 0.132690 0.115662
0.745178 0.133850 0.116852
0.752197 0.135040 0.118042
0.016602 0.103760 0.022125
0.020111 0.102417 0.021667
0.023346 0.100220 0.020538
0.030090 0.096344 0.018219
0.048004 0.090271 0.014343
0.068176 0.088287 0.014587
0.092255 0.087830 0.015594
0.123383 0.088165 0.017914
0.159943 0.090759 0.023987
0.199585 0.093964 0.030273
0.240234 0.096924 0.035980
0.283112 0.099487 0.041504
0.325562 0.102509 0.047699
0.367462 0.105591 0.054382
0.408356 0.107178 0.060394
0.448975 0.108887 0.066986
0.489929 0.111603 0.073730
0.531281 0.115021 0.080780
0.573517 0.117981 0.087952
0.616516 0.121490 0.095123
0.655212 0.125275 0.101746
0.682159 0.128113 0.106384
0.688995 0.128510 0.107483
0.696411 0.129852 0.108795
0.704041 0.131165 0.110199
0.711334 0.132446 0.111511
0.718597 0.133728 0.112732
0.725891 0.134979 0.114044
0.733185 0.136200 0.115295
0.740234 0.137390 0.116516
0.747192 0.138550 0.117676
0.754242 0.139709 0.118896
0.022339 0.129944 0.028229
0.025818 0.128662 0.027771
0.029144 0.126770 0.026733
0.032196 0.124084 0.025421
0.048401 0.118439 0.021057
0.068634 0.116943 0.020905
0.088959 0.116180 0.021637
0.117126 0.116669 0.023163
0.153870 0.117767 0.027649
0.194885 0.120972 0.034393
0.236877 0.124512 0.040009
0.281555 0.127838 0.045502
0.326050 0.131226 0.051788
0.367920 0.133972 0.058197
0.409119 0.135406 0.064148
0.450928 0.137054 0.070770
0.492340 0.138733 0.077728
0.533630 0.140594 0.084045
0.576202 0.142609 0.090820
0.619232 0.144379 0.098022
0.658783 0.146057 0.104645
0.690186 0.148163 0.109894
0.697357 0.145630 0.110779
0.703400 0.143707 0.111511
0.709900 0.142883 0.112427
0.716705 0.143188 0.113556
0.723511 0.143524 0.114655
0.730225 0.143707 0.115723
0.736908 0.144012 0.116760
0.743317 0.144196 0.117767
0.750214 0.145294 0.118896
0.757080 0.146332 0.120056
0.028625 0.157410 0.034607
0.032074 0.156006 0.033752
0.035431 0.154114 0.032623
0.038849 0.151306 0.031342
0.048706 0.147217 0.028778
0.069122 0.145630 0.027954
0.089355 0.145416 0.028900
0.110992 0.144714 0.029938
0.146545 0.146393 0.032959
0.188019 0.148346 0.038483
0.231171 0.152222 0.044220
0.276886 0.155396 0.049255
0.322937 0.158875 0.055023
0.366272 0.161499 0.061371
0.408936 0.163330 0.067810
0.450989 0.164673 0.074799
0.493103 0.165802 0.081116
0.535126 0.168121 0.087433
0.577454 0.170410 0.094055
0.620361 0.173248 0.101349
0.661255 0.175568 0.108215
0.695496 0.176971 0.113953
0.706268 0.173553 0.115295
0.712189 0.169830 0.115845
0.718353 0.166565 0.116486
0.725006 0.165558 0.117432
0.731476 0.164917 0.118347
0.737976 0.164337 0.119324
0.744293 0.163544 0.120178
0.750671 0.162872 0.121063
0.757538 0.163483 0.122192
0.764496 0.164307 0.123352
0.034851 0.185272 0.040833
0.038483 0.183624 0.039795
0.042145 0.181915 0.038757
0.045593 0.179230 0.037506
0.049011 0.176544 0.036255
0.069611 0.174866 0.035217
0.089844 0.175232 0.036285
0.112030 0.175507 0.037476
0.138062 0.175018 0.038635
0.179718 0.177734 0.043030
0.224213 0.181549 0.048645
0.271149 0.184204 0.053680
0.319183 0.187531 0.058868
0.363983 0.190033 0.064758
0.407654 0.191223 0.071838
0.451843 0.193176 0.078918
0.493744 0.193787 0.084961
0.535217 0.195557 0.090851
0.576782 0.198303 0.097137
0.618713 0.201935 0.104370
0.659607 0.204926 0.111298
0.696198 0.206726 0.117340
0.712616 0.204926 0.119720
0.719116 0.201965 0.120483
0.725525 0.199036 0.121155
0.732269 0.198242 0.122192
0.738922 0.197540 0.123199
0.745544 0.196625 0.124207
0.752228 0.195892 0.125153
0.758759 0.195038 0.126068
0.765503 0.195923 0.127106
0.772247 0.196960 0.128265
0.041473 0.213776 0.046448
0.045227 0.212433 0.045563
0.048889 0.210938 0.044617
0.052307 0.208344 0.043518
0.055786 0.206055 0.042603
0.070038 0.205322 0.042664
0.090454 0.205780 0.043304
0.111664 0.205444 0.044220
0.135864 0.205750 0.045624
0.168823 0.206360 0.047729
0.214874 0.211151 0.052979
0.263062 0.214050 0.058289
0.314270 0.216858 0.063416
0.360809 0.219269 0.069519
0.404572 0.220123 0.075867
0.450134 0.221283 0.082520
0.493561 0.222198 0.088928
0.534698 0.223999 0.094696
0.575897 0.227325 0.100830
0.617584 0.231689 0.107941
0.658112 0.235596 0.115051
0.697845 0.237854 0.122284
0.718231 0.236694 0.125305
0.724670 0.233612 0.125793
0.731079 0.230286 0.126373
0.737732 0.229218 0.127289
0.744293 0.228333 0.128174
0.750824 0.227325 0.129059
0.757385 0.226501 0.129822
0.763824 0.225586 0.130463
0.770599 0.226318 0.131409
0.777588 0.227112 0.132568
0.048126 0.242889 0.052368
0.051819 0.241455 0.051544
0.055573 0.240540 0.051147
0.059296 0.239166 0.050903
0.063019 0.237610 0.050659
0.071320 0.236298 0.050598
0.091034 0.236725 0.051025
0.112183 0.235992 0.051117
0.134735 0.236053 0.051636
0.164978 0.237213 0.053589
0.203735 0.238647 0.056305
0.252258 0.244202 0.062561
0.302795 0.246155 0.067596
0.356354 0.249664 0.074860
0.400940 0.250275 0.080322
0.446503 0.251221 0.086639
0.490784 0.252136 0.092957
0.532959 0.254272 0.098938
0.575134 0.257812 0.105255
0.616669 0.262909 0.112152
0.657349 0.266510 0.120300
0.696960 0.268951 0.127258
0.724854 0.268799 0.131226
0.730743 0.265656 0.131561
0.736664 0.262360 0.131989
0.742950 0.260803 0.132690
0.749451 0.259735 0.133545
0.755920 0.258667 0.134125
0.762329 0.257721 0.134735
0.768860 0.256775 0.135284
0.775787 0.257324 0.136200
0.782745 0.257996 0.137299
0.055328 0.273926 0.059235
0.059174 0.273315 0.059174
0.063019 0.272705 0.059113
0.066742 0.271454 0.058960
0.070435 0.270081 0.058777
0.073975 0.268066 0.058441
0.091461 0.268005 0.058594
0.113373 0.268036 0.058533
0.134552 0.267548 0.058472
0.162384 0.268555 0.059448
0.201263 0.270172 0.062164
0.241333 0.272369 0.065826
0.290558 0.276550 0.072510
0.346344 0.279297 0.079315
0.396545 0.281616 0.085480
0.442230 0.282135 0.091003
0.487061 0.283569 0.097412
0.530090 0.285431 0.103394
0.572510 0.289124 0.109619
0.614258 0.293152 0.117218
0.655792 0.296967 0.125305
0.696106 0.299347 0.131927
0.728729 0.300354 0.136566
0.738251 0.297913 0.137695
0.744110 0.294861 0.138092
0.750061 0.292877 0.138519
0.756256 0.291840 0.139069
0.762451 0.290863 0.139648
0.768616 0.289673 0.140167
0.775116 0.288696 0.140717
0.781860 0.289154 0.141754
0.788788 0.289734 0.142639
0.063538 0.306641 0.067535
0.067413 0.306183 0.067505
0.071198 0.305634 0.067413
0.074738 0.304260 0.067169
0.078400 0.302765 0.066895
0.082031 0.300964 0.066589
0.093506 0.300262 0.066650
0.115356 0.300995 0.066986
0.136505 0.300476 0.066742
0.162659 0.300140 0.066498
0.200317 0.301727 0.069000
0.242554 0.304688 0.073700
0.282379 0.307373 0.078430
0.333435 0.308716 0.083221
0.389923 0.313538 0.091125
0.438202 0.314545 0.096527
0.483978 0.315796 0.102386
0.526917 0.318359 0.108551
0.569855 0.320648 0.115051
0.612061 0.324188 0.122650
0.653839 0.327454 0.130157
0.694977 0.330139 0.136658
0.732941 0.332062 0.141998
0.745422 0.330109 0.143311
0.752319 0.327118 0.143768
0.758026 0.324921 0.144165
0.764069 0.323822 0.144745
0.770203 0.322784 0.145325
0.776398 0.321655 0.145844
0.782776 0.320557 0.146393
0.789612 0.320984 0.147186
0.796570 0.321594 0.148071
0.072662 0.340393 0.076416
0.076569 0.339996 0.076447
0.080566 0.339386 0.076447
0.084412 0.338440 0.076233
0.088287 0.337311 0.076080
0.091980 0.335632 0.075745
0.096100 0.333649 0.075256
0.117462 0.334106 0.076202
0.139984 0.334717 0.076599
0.164368 0.334259 0.076447
0.201569 0.334869 0.077637
0.242462 0.337982 0.082153
0.283600 0.340668 0.087372
0.324066 0.342041 0.090881
0.379242 0.344330 0.096222
0.431549 0.347778 0.102875
0.479126 0.348846 0.108032
0.523621 0.350739 0.114227
0.567200 0.352783 0.121307
0.609924 0.355225 0.128357
0.652191 0.358337 0.135437
0.693665 0.360718 0.141388
0.732635 0.362915 0.146759
0.750793 0.361633 0.148895
0.760223 0.359375 0.149780
0.766022 0.356812 0.150208
0.772430 0.355774 0.150879
0.778992 0.354797 0.151703
0.785583 0.353699 0.152344
0.792206 0.352783 0.153076
0.799103 0.353271 0.153961
0.806091 0.353851 0.154816
0.082428 0.374786 0.085907
0.086487 0.374451 0.085968
0.090576 0.374084 0.086029
0.094421 0.372986 0.085846
0.098297 0.371704 0.085571
0.101990 0.369965 0.085205
0.105682 0.368103 0.084839
0.119446 0.367645 0.085236
0.143066 0.368713 0.086487
0.167603 0.368713 0.086487
0.202423 0.369324 0.087616
0.242035 0.372101 0.091156
0.282501 0.374634 0.095917
0.324463 0.375977 0.099915
0.368256 0.376587 0.102509
0.422729 0.380463 0.109192
0.472412 0.382141 0.114899
0.518433 0.383514 0.120300
0.563721 0.385193 0.127106
0.607452 0.387238 0.134460
0.650269 0.389587 0.141022
0.691711 0.392273 0.146790
0.731262 0.394379 0.152191
0.756866 0.394470 0.155365
0.768677 0.392029 0.156525
0.774750 0.389191 0.156860
0.781311 0.388062 0.157471
0.787933 0.386963 0.158173
0.794586 0.385956 0.158813
0.801178 0.384918 0.159454
0.808289 0.385345 0.160431
0.815430 0.385895 0.161438
0.092590 0.409210 0.095581
0.096619 0.408630 0.095520
0.100647 0.408081 0.095428
0.104706 0.407379 0.095459
0.108734 0.406708 0.095398
0.112427 0.404999 0.095032
0.116150 0.403168 0.094635
0.119812 0.401062 0.094238
0.146027 0.403320 0.096100
0.170258 0.404938 0.097290
0.202148 0.405670 0.098785
0.240753 0.407318 0.101501
0.280731 0.409668 0.105408
0.323456 0.411285 0.109344
0.368195 0.411163 0.111755
0.412354 0.412842 0.115112
0.463684 0.415924 0.121826
0.511353 0.417969 0.127502
0.558624 0.418762 0.133423
0.603638 0.420074 0.140442
0.647583 0.422028 0.147247
0.689667 0.424500 0.152893
0.729584 0.426758 0.158112
0.760132 0.427216 0.161804
0.777832 0.425446 0.163757
0.783905 0.422150 0.163910
0.790558 0.420990 0.164490
0.797241 0.419952 0.165131
0.803925 0.418884 0.165710
0.810547 0.417664 0.166229
0.817657 0.418060 0.167145
0.824890 0.418579 0.168121
0.102753 0.444092 0.105286
0.106903 0.443970 0.105438
0.111115 0.443756 0.105560
0.115204 0.443207 0.105560
0.119202 0.442535 0.105530
0.123077 0.441284 0.105408
0.126831 0.439697 0.105133
0.130524 0.437775 0.104767
0.148254 0.439026 0.106262
0.172455 0.440399 0.107727
0.202911 0.441681 0.110413
0.241486 0.443390 0.113007
0.281647 0.445526 0.115967
0.322357 0.446594 0.118805
0.367737 0.445953 0.121185
0.411713 0.447723 0.124512
0.453857 0.449371 0.128143
0.503265 0.452423 0.135010
0.550934 0.453217 0.140442
0.598694 0.453827 0.146210
0.643799 0.455322 0.153076
0.686737 0.457153 0.159302
0.726868 0.459015 0.163879
0.762482 0.460175 0.168304
0.787140 0.459351 0.171112
0.793274 0.456146 0.171143
0.799835 0.454651 0.171448
0.806488 0.453522 0.171906
0.813202 0.452332 0.172424
0.819855 0.451050 0.172943
0.826965 0.451538 0.173981
0.834686 0.452087 0.175018
0.113037 0.480347 0.115753
0.117279 0.480347 0.115967
0.121521 0.480316 0.116180
0.125671 0.480042 0.116364
0.129730 0.479553 0.116425
0.133606 0.478394 0.116394
0.137451 0.477020 0.116272
0.141174 0.475189 0.115967
0.150909 0.474701 0.116638
0.174713 0.476898 0.118988
0.201508 0.477661 0.121216
0.242767 0.479584 0.124481
0.283295 0.481812 0.127319
0.325165 0.483826 0.129456
0.367157 0.483307 0.131531
0.411987 0.485138 0.135498
0.453369 0.486237 0.138550
0.493683 0.486908 0.142029
0.543121 0.488312 0.147797
0.592010 0.487976 0.152588
0.639038 0.489441 0.158661
0.683258 0.491211 0.165405
0.724518 0.492676 0.170654
0.764374 0.493530 0.174988
0.794800 0.493378 0.178162
0.802856 0.490326 0.178406
0.809387 0.488525 0.178711
0.816071 0.487366 0.179138
0.823059 0.486176 0.179688
0.830322 0.485138 0.180237
0.838135 0.485687 0.181183
0.846039 0.486328 0.182190
0.123627 0.518036 0.127228
0.127899 0.518341 0.127777
0.132111 0.518280 0.128082
0.136230 0.517944 0.128265
0.140381 0.517456 0.128448
0.144287 0.516266 0.128510
0.148193 0.515167 0.128601
0.151947 0.513611 0.128418
0.155640 0.511688 0.128174
0.177216 0.513672 0.130585
0.203491 0.515259 0.132751
0.240082 0.516968 0.135437
0.284760 0.518463 0.138458
0.327576 0.520477 0.140564
0.369263 0.521637 0.142670
0.412476 0.523956 0.146759
0.454254 0.525604 0.150604
0.493286 0.524689 0.152710
0.533783 0.523163 0.155090
0.585632 0.523102 0.159882
0.633667 0.524017 0.165283
0.678741 0.525848 0.171265
0.721741 0.526947 0.177002
0.764618 0.527802 0.182068
0.799316 0.527374 0.185211
0.812775 0.524872 0.185974
0.819885 0.522766 0.186249
0.827454 0.521759 0.186829
0.835022 0.520630 0.187378
0.842499 0.519623 0.187927
0.850311 0.520142 0.188904
0.858154 0.520844 0.189911
0.134094 0.556061 0.139343
0.138306 0.556030 0.139709
0.142548 0.556061 0.140198
0.146667 0.555908 0.140594
0.150879 0.555603 0.140900
0.154968 0.554596 0.140930
0.158844 0.553162 0.140839
0.162628 0.551514 0.140717
0.166443 0.549652 0.140503
0.180267 0.550201 0.141785
0.205200 0.553253 0.144440
0.240173 0.554291 0.146545
0.285217 0.555359 0.149200
0.329346 0.557281 0.151520
0.371338 0.559235 0.153778
0.413055 0.561981 0.157562
0.455109 0.564392 0.162140
0.494507 0.563232 0.164368
0.533875 0.560760 0.165680
0.577209 0.558624 0.167847
0.628387 0.558868 0.172302
0.673676 0.559998 0.177521
0.717682 0.561127 0.183075
0.761963 0.562073 0.188873
0.805054 0.562134 0.192749
0.824524 0.560181 0.194214
0.831543 0.557739 0.194397
0.839020 0.556641 0.194946
0.846649 0.555725 0.195526
0.854309 0.554565 0.196075
0.862549 0.555084 0.196991
0.870667 0.555573 0.197754
0.144714 0.593597 0.151520
0.148987 0.593536 0.151764
0.153198 0.593384 0.152008
0.157410 0.593048 0.152283
0.161621 0.592804 0.152557
0.165771 0.591980 0.152649
0.169830 0.591003 0.152710
0.173737 0.589325 0.152618
0.177673 0.587891 0.152618
0.183838 0.586792 0.152863
0.207489 0.589630 0.155365
0.241913 0.591064 0.157471
0.286072 0.592072 0.159698
0.329926 0.594086 0.162323
0.371857 0.596130 0.164703
0.413727 0.599152 0.168488
0.455536 0.601990 0.173096
0.496490 0.602325 0.176575
0.536163 0.599945 0.177917
0.575775 0.597168 0.179077
0.620117 0.595093 0.180908
0.667389 0.594482 0.184723
0.713104 0.595093 0.189301
0.758301 0.595764 0.194733
0.804688 0.596191 0.199524
0.836060 0.595032 0.201935
0.842957 0.592133 0.202026
0.850494 0.591064 0.202576
0.858185 0.590027 0.203094
0.865967 0.588989 0.203400
0.874207 0.589325 0.203949
0.882446 0.589783 0.204498
0.155579 0.630951 0.163177
0.159912 0.631042 0.163513
0.164185 0.631104 0.163788
0.168457 0.630890 0.164093
0.172668 0.630615 0.164337
0.176758 0.629791 0.164459
0.180969 0.629120 0.164642
0.185059 0.627869 0.164734
0.188995 0.626373 0.164642
0.192902 0.624817 0.164551
0.209106 0.626099 0.166016
0.239685 0.628113 0.168121
0.285889 0.628845 0.170410
0.329315 0.630646 0.172882
0.371521 0.632935 0.176086
0.413483 0.635864 0.179749
0.455261 0.638947 0.183716
0.496490 0.640045 0.187408
0.538116 0.639160 0.190155
0.577759 0.636810 0.191406
0.616974 0.633972 0.192261
0.657654 0.631195 0.193848
0.706390 0.629150 0.196625
0.755219 0.629730 0.201294
0.803589 0.629608 0.205597
0.842712 0.629425 0.209290
0.853973 0.626892 0.209869
0.861572 0.625671 0.210358
0.869446 0.624603 0.210510
0.877472 0.623535 0.210724
0.885040 0.623871 0.211548
0.892548 0.624207 0.212341
0.167328 0.670166 0.175690
0.171539 0.670166 0.175995
0.175720 0.669952 0.176239
0.179993 0.669830 0.176575
0.184296 0.669769 0.176971
0.188507 0.669281 0.177246
0.192596 0.668457 0.177399
0.196594 0.667175 0.177338
0.200562 0.665649 0.177216
0.204437 0.663849 0.177002
0.208405 0.662262 0.176910
0.239807 0.665314 0.179138
0.281921 0.666321 0.181152
0.328400 0.667786 0.184052
0.371552 0.670258 0.187378
0.413055 0.672546 0.190948
0.454529 0.675446 0.194733
0.496094 0.677216 0.198059
0.537598 0.677063 0.200958
0.578491 0.676117 0.203644
0.617310 0.673187 0.204041
0.655212 0.670166 0.204956
0.692810 0.666534 0.206482
0.751770 0.664215 0.208466
0.800873 0.663910 0.212250
0.847961 0.664734 0.216888
0.864410 0.662384 0.217987
0.872620 0.660889 0.218262
0.879547 0.659698 0.218750
0.886597 0.658386 0.219238
0.894012 0.658722 0.220184
0.901550 0.659149 0.221069
0.179504 0.710236 0.188568
0.183624 0.710083 0.188904
0.187866 0.710052 0.189301
0.192047 0.709778 0.189575
0.196198 0.709503 0.189911
0.200287 0.708740 0.190063
0.204346 0.707916 0.190216
0.208221 0.706482 0.190186
0.212128 0.704834 0.189972
0.216064 0.703094 0.189758
0.219879 0.701080 0.189453
0.241089 0.702240 0.190796
0.279053 0.703888 0.192352
0.325806 0.705841 0.195343
0.370728 0.708099 0.198547
0.412079 0.710052 0.202026
0.453247 0.712402 0.205719
0.495392 0.714233 0.209106
0.537689 0.714294 0.211731
0.578186 0.713989 0.214539
0.617340 0.712036 0.216278
0.654541 0.708557 0.216278
0.692139 0.704559 0.216675
0.732544 0.701660 0.218506
0.794128 0.699951 0.220367
0.846680 0.699158 0.223724
0.870361 0.697662 0.225891
0.881012 0.695923 0.226624
0.887939 0.694641 0.227051
0.894684 0.693390 0.227509
0.901825 0.693665 0.228271
0.909027 0.694031 0.229126
0.191589 0.750183 0.201324
0.195618 0.749908 0.201630
0.199707 0.749634 0.201874
0.203674 0.748932 0.202026
0.207703 0.748383 0.202209
0.211731 0.747681 0.202301
0.215790 0.746796 0.202454
0.219574 0.745087 0.202271
0.223419 0.743378 0.202118
0.227203 0.741364 0.201813
0.231049 0.739502 0.201569
0.240173 0.738373 0.201813
0.277100 0.741119 0.203827
0.322723 0.743408 0.206573
0.367981 0.745361 0.209442
0.410736 0.747345 0.212830
0.452087 0.749268 0.216370
0.494476 0.751099 0.219543
0.536682 0.751038 0.221924
0.577271 0.750549 0.224182
0.616486 0.749512 0.226318
0.654053 0.747070 0.227722
0.691406 0.743103 0.227570
0.731567 0.739929 0.228607
0.774841 0.737213 0.230042
0.835297 0.735992 0.232330
0.872894 0.733124 0.233673
0.888824 0.731079 0.234650
0.895599 0.729797 0.235077
0.902374 0.728455 0.235443
0.909424 0.728729 0.236237
0.916473 0.729065 0.237030
0.196411 0.766144 0.206268
0.200714 0.766754 0.206879
0.205078 0.767426 0.207428
0.209503 0.768127 0.207977
0.213867 0.768707 0.208527
0.218201 0.769226 0.209015
0.222595 0.769806 0.209564
0.226868 0.769775 0.209900
0.231171 0.769897 0.210297
0.235382 0.769440 0.210571
0.239685 0.769196 0.210907
0.243988 0.768646 0.210938
0.268494 0.771454 0.212372
0.315430 0.776215 0.215912
0.362457 0.779175 0.218842
0.407684 0.782654 0.222839
0.450439 0.785583 0.226624
0.492310 0.786804 0.229248
0.534882 0.787842 0.231934
0.575714 0.787018 0.233673
0.615326 0.785950 0.235382
0.652802 0.784454 0.237427
0.690491 0.781403 0.238129
0.730133 0.777954 0.238220
0.770172 0.775269 0.239655
0.814972 0.772339 0.241364
0.863495 0.770752 0.243256
0.888428 0.767975 0.243835
0.897675 0.765961 0.243591
0.906677 0.763885 0.243530
0.915344 0.763641 0.243927
0.922333 0.764038 0.244690
0.199066 0.774780 0.208954
0.203400 0.775421 0.209534
0.207733 0.776062 0.210144
0.212097 0.776764 0.210693
0.216461 0.777283 0.211243
0.220825 0.777802 0.211792
0.225220 0.778381 0.212341
0.229645 0.778961 0.212891
0.233978 0.779358 0.213257
0.238495 0.779938 0.213776
0.243011 0.780548 0.214325
0.247559 0.780792 0.214600
0.261993 0.783020 0.215698
0.300903 0.789215 0.219086
0.350616 0.793091 0.222260
0.397766 0.797546 0.226532
0.442017 0.801941 0.230896
0.485077 0.805450 0.234406
0.528351 0.808716 0.237610
0.570221 0.810211 0.239807
0.611053 0.811035 0.241577
0.649353 0.811249 0.243683
0.687866 0.810608 0.245544
0.726746 0.809479 0.247070
0.766174 0.807861 0.247803
0.808289 0.806854 0.250183
0.850708 0.805267 0.252228
0.882568 0.803955 0.254120
0.890381 0.802887 0.254272
0.899506 0.801392 0.254150
0.908386 0.801178 0.254364
0.917328 0.801025 0.254608
0.201660 0.783234 0.211548
0.205963 0.783905 0.212158
0.210327 0.784546 0.212799
0.214691 0.785126 0.213348
0.219025 0.785675 0.213898
0.223389 0.786224 0.214508
0.227753 0.786804 0.215088
0.232208 0.787354 0.215607
0.236572 0.787872 0.216064
0.240997 0.788361 0.216492
0.245544 0.789032 0.216980
0.250183 0.789673 0.217377
0.260956 0.791412 0.218079
0.291962 0.797302 0.221069
0.341583 0.802307 0.224548
0.389984 0.807434 0.228882
0.435120 0.812439 0.233490
