滤镜资源/Professional Luts Collection/Triune-Digital-Cinematic-LUTs/3D LUTs (CUBE)/LOG/Saving Private Ryan - LOG.cube
#Created by Benjamin (IWLTBAP) : http://luts.iwltbap.com
#Copyright: (C) Copyright 2016 Triune Films and IWLTBAP
TITLE "Blockbuster LUTs Pack (LOG)"
#LUT size
LUT_3D_SIZE 5
#LUT data points
DOMAIN_MIN 0.000000 0.000000 0.000000
DOMAIN_MAX 0.903226 0.903226 0.903226
0.001099 0.003937 0.003723
0.139465 0.014618 0.012207
0.412415 0.057465 0.054413
0.668488 0.103607 0.101501
0.721771 0.112915 0.111023
0.028625 0.157410 0.034607
0.110992 0.144714 0.029938
0.408936 0.163330 0.067810
0.695496 0.176971 0.113953
0.744293 0.163544 0.120178
0.082428 0.374786 0.085907
0.119446 0.367645 0.085236
0.368256 0.376587 0.102509
0.691711 0.392273 0.146790
0.794586 0.385956 0.158813
0.155579 0.630951 0.163177
0.185059 0.627869 0.164734
0.371521 0.632935 0.176086
0.657654 0.631195 0.193848
0.869446 0.624603 0.210510
0.204224 0.791718 0.214172
0.234741 0.795715 0.218262
0.333984 0.809448 0.226288
0.640167 0.836151 0.249298
0.890198 0.845551 0.265869
0.009430 0.010254 0.161163
0.141205 0.018372 0.158508
0.406860 0.055481 0.168762
0.674347 0.103577 0.184021
0.724762 0.112335 0.178894
0.026703 0.147705 0.154327
0.114990 0.145813 0.149353
0.409698 0.162292 0.159912
0.701538 0.170624 0.173370
0.748962 0.160675 0.161804
0.075378 0.366486 0.136292
0.117096 0.367950 0.131897
0.372986 0.377441 0.139923
0.690094 0.396057 0.183960
0.796417 0.390900 0.197601
0.148956 0.620117 0.189270
0.182983 0.624878 0.198212
0.370209 0.633728 0.212891
0.657806 0.633728 0.230316
0.870239 0.629211 0.249603
0.198669 0.784943 0.242249
0.233185 0.795654 0.252228
0.330231 0.810425 0.263245
0.639801 0.841400 0.287048
0.889618 0.850830 0.303192
0.026398 0.026215 0.400543
0.146973 0.030029 0.386292
0.382843 0.053589 0.387054
0.648987 0.099518 0.395721
0.715668 0.111481 0.383362
0.037628 0.154358 0.389526
0.117981 0.151367 0.385864
0.371033 0.147308 0.371918
0.684784 0.158630 0.378906
0.756073 0.155579 0.359406
0.077271 0.369049 0.379883
0.102478 0.361847 0.370819
0.352936 0.390228 0.385742
0.702087 0.412628 0.398499
0.829834 0.393402 0.381134
0.132904 0.606506 0.359558
0.161011 0.603333 0.351929
0.357056 0.634338 0.368591
0.651917 0.641754 0.370453
0.859009 0.646973 0.382294
0.181244 0.761566 0.326202
0.217529 0.773315 0.326782
0.307831 0.811859 0.344421
0.631195 0.847015 0.352264
0.890076 0.855804 0.343353
0.048187 0.046936 0.584076
0.157867 0.047638 0.578339
0.397247 0.071991 0.602783
0.637909 0.098877 0.614990
0.693420 0.108215 0.617767
0.058899 0.163361 0.614410
0.141846 0.161926 0.620483
0.361664 0.153625 0.617645
0.648804 0.147858 0.618652
0.715637 0.143402 0.604706
0.092102 0.377960 0.632874
0.117218 0.371063 0.625519
0.342712 0.400238 0.636047
0.644470 0.400360 0.626404
0.791077 0.389313 0.619019
0.135498 0.606628 0.613861
0.161896 0.603699 0.609436
0.280060 0.621979 0.613831
0.639404 0.664215 0.636932
0.864410 0.669189 0.642242
0.174438 0.767090 0.586975
0.203766 0.774139 0.582672
0.266846 0.792328 0.576294
0.615417 0.864655 0.612366
0.898682 0.885925 0.612946
0.053589 0.051849 0.627991
0.159424 0.052216 0.622833
0.393829 0.074677 0.644501
0.640625 0.100861 0.660339
0.689026 0.107971 0.660278
0.063721 0.161560 0.656403
0.142487 0.159546 0.661438
0.352478 0.146790 0.661163
0.638580 0.144745 0.677887
0.706238 0.142456 0.673523
0.096344 0.377228 0.697449
0.122864 0.371796 0.699890
0.339478 0.398743 0.722839
0.609344 0.393829 0.731537
0.763580 0.383118 0.739532
0.141937 0.606720 0.738647
0.168488 0.603058 0.742004
0.279419 0.615631 0.758026
0.610901 0.662109 0.809326
0.822571 0.656250 0.811279
0.177826 0.771942 0.772614
0.206696 0.778473 0.776917
0.260864 0.793915 0.788116
0.559540 0.851929 0.836182
0.904449 0.915131 0.877502
