滤镜资源/Professional Luts Collection/Triune-Digital-Cinematic-LUTs/3D LUTs (CUBE)/LOG/Saving Private Ryan - LOG.cube
#Created by Benjamin (IWLTBAP) : http://luts.iwltbap.com
#Copyright: (C) Copyright 2016 Triune Films and IWLTBAP
TITLE "Blockbuster LUTs Pack (LOG)"
#LUT size
LUT_3D_SIZE 8
#LUT data points
DOMAIN_MIN 0.000000 0.000000 0.000000
DOMAIN_MAX 0.903226 0.903226 0.903226
0.001099 0.003937 0.003723
0.055145 0.004486 0.003510
0.172302 0.019775 0.016693
0.329529 0.042419 0.039429
0.498962 0.073273 0.070740
0.654999 0.101227 0.099121
0.691528 0.107666 0.105621
0.721771 0.112915 0.111023
0.011383 0.076569 0.016205
0.047455 0.061340 0.009369
0.162659 0.064819 0.020660
0.324249 0.074799 0.043671
0.487244 0.088867 0.070709
0.654755 0.118103 0.100922
0.701569 0.126465 0.109283
0.730865 0.131470 0.114380
0.034851 0.185272 0.040833
0.049011 0.176544 0.036255
0.138062 0.175018 0.038635
0.319183 0.187531 0.058868
0.493744 0.193787 0.084961
0.659607 0.204926 0.111298
0.725525 0.199036 0.121155
0.752228 0.195892 0.125153
0.063538 0.306641 0.067535
0.078400 0.302765 0.066895
0.136505 0.300476 0.066742
0.282379 0.307373 0.078430
0.483978 0.315796 0.102386
0.653839 0.327454 0.130157
0.752319 0.327118 0.143768
0.776398 0.321655 0.145844
0.102753 0.444092 0.105286
0.119202 0.442535 0.105530
0.148254 0.439026 0.106262
0.281647 0.445526 0.115967
0.453857 0.449371 0.128143
0.643799 0.455322 0.153076
0.787140 0.459351 0.171112
0.813202 0.452332 0.172424
0.144714 0.593597 0.151520
0.161621 0.592804 0.152557
0.177673 0.587891 0.152618
0.286072 0.592072 0.159698
0.455536 0.601990 0.173096
0.620117 0.595093 0.180908
0.804688 0.596191 0.199524
0.858185 0.590027 0.203094
0.191589 0.750183 0.201324
0.207703 0.748383 0.202209
0.223419 0.743378 0.202118
0.277100 0.741119 0.203827
0.452087 0.749268 0.216370
0.616486 0.749512 0.226318
0.774841 0.737213 0.230042
0.895599 0.729797 0.235077
0.204224 0.791718 0.214172
0.221588 0.793976 0.216583
0.239197 0.796265 0.218719
0.260040 0.799103 0.220520
0.430206 0.819550 0.235260
0.601227 0.834869 0.247894
0.756531 0.841034 0.257263
0.890198 0.845551 0.265869
0.003235 0.003693 0.068237
0.056488 0.006439 0.068726
0.175659 0.020966 0.075226
0.326599 0.041351 0.082001
0.491150 0.070526 0.097168
0.649719 0.099518 0.112366
0.687866 0.106323 0.118988
0.717957 0.111481 0.124176
0.008850 0.063812 0.065643
0.046234 0.059021 0.061798
0.163025 0.064575 0.063354
0.322571 0.072388 0.071136
0.486206 0.089111 0.087708
0.654694 0.118317 0.115875
0.703064 0.126740 0.124390
0.732178 0.131744 0.129425
0.032013 0.177887 0.058746
0.048950 0.175568 0.056885
0.141174 0.175262 0.059845
0.319611 0.188507 0.080109
0.492584 0.195648 0.104218
0.661682 0.204620 0.129333
0.727570 0.197906 0.138550
0.753174 0.193634 0.141602
0.061096 0.303558 0.086365
0.078979 0.303772 0.088562
0.137695 0.301727 0.087708
0.286530 0.308990 0.100220
0.483795 0.317383 0.122711
0.654236 0.329437 0.150330
0.753387 0.329651 0.164368
0.777161 0.323608 0.166351
0.099518 0.441010 0.122925
0.118988 0.442169 0.125549
0.147980 0.438507 0.126282
0.285217 0.446930 0.137909
0.456512 0.450836 0.149353
0.643127 0.457581 0.173737
0.788300 0.462799 0.192993
0.813934 0.455292 0.194366
0.141266 0.588104 0.166382
0.160797 0.591553 0.171387
0.176697 0.586792 0.171722
0.284973 0.593262 0.180939
0.456635 0.604279 0.194336
0.619690 0.597015 0.201721
0.803528 0.598633 0.221161
0.858521 0.592468 0.224518
0.187836 0.744598 0.216675
0.206421 0.746796 0.220734
0.222107 0.742126 0.220978
0.272369 0.739685 0.224304
0.452850 0.750122 0.237061
0.617310 0.750336 0.246460
0.773102 0.738342 0.250244
0.895233 0.732239 0.256287
0.201202 0.788147 0.230194
0.220764 0.794006 0.235840
0.238251 0.796417 0.238281
0.258148 0.799774 0.240967
0.428925 0.821198 0.256073
0.601532 0.837219 0.268829
0.756958 0.844269 0.278687
0.889893 0.848450 0.286957
0.011383 0.012512 0.191986
0.062134 0.014740 0.188782
0.172150 0.023315 0.189087
0.319641 0.041382 0.195862
0.496124 0.071381 0.202393
0.664703 0.101562 0.209320
0.703094 0.108673 0.205688
0.732330 0.113831 0.204834
0.015839 0.063568 0.185760
0.051758 0.060822 0.183228
0.159302 0.056519 0.178314
0.309723 0.064880 0.182190
0.485870 0.087250 0.188660
0.661682 0.118408 0.199799
0.709778 0.126740 0.196503
0.737518 0.131409 0.195221
0.033203 0.177277 0.184052
0.048553 0.173431 0.179901
0.143768 0.178802 0.182068
0.312286 0.188202 0.183411
0.497345 0.198792 0.193146
0.671234 0.204010 0.200714
0.737335 0.193176 0.193848
0.761169 0.188782 0.190155
0.057770 0.299530 0.172729
0.073334 0.297943 0.169800
0.135956 0.305328 0.170532
0.294800 0.313324 0.169983
0.482178 0.323029 0.180359
0.656738 0.332611 0.191193
0.756561 0.330902 0.190125
0.780243 0.324310 0.188721
0.092346 0.433167 0.162811
0.110962 0.435059 0.162567
0.144745 0.436737 0.159637
0.286011 0.445740 0.161438
0.456970 0.449951 0.170471
0.641693 0.458344 0.195160
0.789490 0.465179 0.215881
0.815002 0.457550 0.217163
0.136841 0.579956 0.181793
0.156677 0.583893 0.185669
0.175507 0.583771 0.190277
0.280823 0.592133 0.202271
0.456512 0.604492 0.215576
0.618134 0.597717 0.223022
0.802094 0.600372 0.243378
0.859436 0.594574 0.247192
0.183502 0.737122 0.231750
0.201904 0.739380 0.235657
0.220459 0.739288 0.239624
0.263947 0.737213 0.243286
0.450500 0.748810 0.257690
0.616943 0.750641 0.267273
0.772095 0.739197 0.270935
0.893738 0.734619 0.278778
0.197937 0.784027 0.246307
0.217682 0.790405 0.252106
0.237427 0.796417 0.257874
0.255707 0.799652 0.260651
0.425903 0.821869 0.277374
0.598907 0.839661 0.290894
0.755646 0.847504 0.301056
0.889526 0.851501 0.308624
0.015198 0.018066 0.327148
0.066162 0.019287 0.318481
0.176178 0.028198 0.318542
0.307465 0.041199 0.318359
0.477173 0.069061 0.325287
0.646393 0.098938 0.328857
0.702087 0.108978 0.319244
0.742249 0.115906 0.315979
0.019440 0.066925 0.318542
0.053925 0.064240 0.317627
0.159760 0.060089 0.308685
0.296967 0.059662 0.305145
0.466583 0.084869 0.312531
0.650574 0.116974 0.317291
0.720917 0.129181 0.308990
0.759369 0.135040 0.305389
0.036713 0.179596 0.315643
0.052063 0.175140 0.311249
0.135132 0.180420 0.314178
0.287262 0.178711 0.304840
0.468750 0.187378 0.311340
0.675964 0.188049 0.308777
0.762573 0.181366 0.297668
0.789276 0.180573 0.293640
0.060638 0.302185 0.311920
0.075409 0.299652 0.308441
0.125854 0.300446 0.305450
0.274475 0.315613 0.314636
0.475372 0.332703 0.321228
0.668945 0.338837 0.326904
0.785980 0.332458 0.322449
0.812683 0.322906 0.314209
0.090271 0.433075 0.303558
0.105225 0.432831 0.301575
0.126282 0.428040 0.293854
0.277161 0.453125 0.304077
0.451752 0.460449 0.305786
0.637756 0.475433 0.321411
0.792694 0.481506 0.329681
0.820709 0.472778 0.320892
0.125061 0.570160 0.288452
0.141602 0.569672 0.285248
0.158417 0.566071 0.277618
0.274048 0.589081 0.293304
0.449951 0.601440 0.298767
0.615326 0.602814 0.297424
0.793701 0.608795 0.309204
0.854797 0.602386 0.303925
0.171021 0.716827 0.281616
0.189819 0.719208 0.281952
0.209534 0.721344 0.281464
0.257050 0.732788 0.288879
0.440765 0.744293 0.295471
0.610687 0.751160 0.297638
0.767944 0.739044 0.292175
0.890015 0.736145 0.302887
0.192444 0.776428 0.273468
0.212769 0.784363 0.277374
0.233490 0.792114 0.279572
0.255005 0.800171 0.281189
0.417297 0.821564 0.298431
0.593414 0.841431 0.314026
0.752808 0.850464 0.324432
0.889557 0.854309 0.331360
0.032654 0.033875 0.470886
0.078949 0.032318 0.459747
0.181793 0.038879 0.456665
0.321564 0.053589 0.462524
0.463959 0.067841 0.457123
0.625336 0.095490 0.462585
0.672241 0.104126 0.457153
0.704468 0.109985 0.454193
0.033051 0.072510 0.462006
0.066437 0.070770 0.460876
0.162079 0.063995 0.445648
0.304291 0.069427 0.449554
0.453491 0.083893 0.445374
0.624023 0.112854 0.452576
0.684265 0.123871 0.449310
0.715546 0.129333 0.446289
0.047699 0.185059 0.460449
0.062561 0.181824 0.456360
0.146637 0.187042 0.456787
0.281647 0.184937 0.448486
0.450836 0.182251 0.442352
0.630188 0.189453 0.448425
0.715271 0.183380 0.442902
0.749268 0.178375 0.434845
0.068451 0.306305 0.454193
0.082947 0.303650 0.452087
0.130249 0.303619 0.449219
0.262451 0.320953 0.455414
0.441772 0.320343 0.447754
0.636322 0.331451 0.455475
0.778931 0.322906 0.444580
0.813263 0.313477 0.434021
0.093658 0.436584 0.447968
0.108307 0.435181 0.445465
0.125549 0.429565 0.438202
0.232513 0.446259 0.446716
0.432617 0.464905 0.456604
0.633881 0.484222 0.468231
0.809570 0.481537 0.465332
0.845245 0.470367 0.454315
0.124969 0.573730 0.440277
0.140015 0.572845 0.437927
0.154633 0.568512 0.431396
0.226776 0.577332 0.430481
0.439819 0.610962 0.448883
0.608643 0.612122 0.451874
0.786713 0.628906 0.468445
0.851715 0.624237 0.465454
0.160309 0.712311 0.424164
0.176697 0.712311 0.421326
0.192963 0.709503 0.415649
0.231018 0.708984 0.407990
0.429047 0.746887 0.438477
0.603516 0.751129 0.441681
0.761810 0.752686 0.441315
0.878113 0.756714 0.450043
0.176361 0.762085 0.396942
0.194946 0.766876 0.395355
0.214203 0.771820 0.392487
0.235168 0.775696 0.384552
0.399933 0.824249 0.420532
0.585358 0.844147 0.428345
0.747955 0.859589 0.428497
0.893280 0.865448 0.422852
0.047394 0.046173 0.577698
0.090363 0.044403 0.571869
0.185059 0.049042 0.574188
0.322205 0.062927 0.586212
0.473389 0.079498 0.596558
0.614899 0.094757 0.595459
0.663635 0.102814 0.590302
0.695526 0.108337 0.588715
0.050385 0.082550 0.587524
0.080353 0.080200 0.588379
0.170563 0.071411 0.578003
0.303009 0.078949 0.582336
0.461456 0.096710 0.593658
0.611877 0.111938 0.589294
0.675232 0.122345 0.584686
0.707428 0.127991 0.582245
0.060486 0.193573 0.603485
0.076508 0.189667 0.601562
0.161041 0.193329 0.603058
0.280304 0.188446 0.596039
0.443817 0.189301 0.591644
0.608521 0.179901 0.584747
0.702332 0.171051 0.577881
0.732422 0.169525 0.572571
0.079010 0.314331 0.601074
0.093109 0.311890 0.598419
0.138153 0.311371 0.595917
0.271362 0.328247 0.600769
0.428986 0.327515 0.598419
0.609680 0.327301 0.590057
0.749451 0.325073 0.588715
0.776184 0.318024 0.582428
0.100677 0.439301 0.591858
0.115601 0.438019 0.589050
0.130096 0.431702 0.581848
0.235840 0.446991 0.589233
0.422913 0.471710 0.601013
0.601318 0.472504 0.592682
0.776550 0.475708 0.597504
0.814545 0.465240 0.588104
0.127014 0.572754 0.582031
0.142242 0.572205 0.580261
0.156891 0.568329 0.574677
0.223267 0.575897 0.575409
0.398041 0.601532 0.589081
0.600342 0.625336 0.601501
0.785065 0.636139 0.611511
0.861755 0.629700 0.605682
0.161102 0.713715 0.573395
0.176331 0.712891 0.571167
0.191254 0.709686 0.566162
0.222595 0.708191 0.560883
0.361420 0.730286 0.567657
0.595001 0.765015 0.591919
0.760101 0.764557 0.592438
0.879700 0.772064 0.600159
0.173615 0.765503 0.551056
0.190308 0.769379 0.549194
0.207489 0.773651 0.545624
0.225647 0.778992 0.538177
0.342133 0.805786 0.537018
0.576447 0.854401 0.574280
0.747314 0.871094 0.577637
0.898956 0.881226 0.576630
0.050537 0.049164 0.603088
0.090454 0.047119 0.597382
0.183380 0.051239 0.598938
0.318512 0.064453 0.612030
0.471069 0.081360 0.627075
0.617188 0.096710 0.634521
0.661011 0.103058 0.634369
0.692627 0.108398 0.635864
0.053192 0.081787 0.613159
0.079773 0.079102 0.614502
0.169983 0.069977 0.606079
0.299194 0.080963 0.615234
0.457794 0.098907 0.632782
0.613953 0.115143 0.641937
0.670349 0.122284 0.640900
0.703217 0.127716 0.642395
0.064209 0.192047 0.638611
0.081390 0.188538 0.639008
0.162933 0.191437 0.645203
0.276794 0.184967 0.645233
0.433014 0.184662 0.648438
0.601105 0.181488 0.660339
0.690948 0.164673 0.658142
0.721893 0.163361 0.657745
0.083435 0.315369 0.661102
0.098114 0.312927 0.662292
0.140533 0.311249 0.667511
0.269501 0.327698 0.678802
0.414886 0.326508 0.682556
0.581726 0.326508 0.690643
0.724487 0.319489 0.696198
0.754120 0.311707 0.694519
0.107147 0.441223 0.686951
0.122375 0.440216 0.687531
0.137115 0.435272 0.687286
0.242004 0.448792 0.699860
0.416962 0.474518 0.721161
0.573212 0.472321 0.730743
0.744415 0.469971 0.729340
0.785828 0.464569 0.724335
0.133942 0.574677 0.709137
0.149231 0.573853 0.710724
0.163879 0.569366 0.708832
0.225922 0.576080 0.711670
0.384705 0.599518 0.729034
0.570007 0.622314 0.747620
0.749420 0.624542 0.739777
0.832520 0.624756 0.739136
0.162140 0.711731 0.711670
0.177551 0.711304 0.710205
0.192413 0.708008 0.706085
0.220398 0.705933 0.702484
0.342224 0.730621 0.716156
0.556183 0.753296 0.733063
0.757050 0.780823 0.749542
0.880157 0.783081 0.750702
0.176514 0.770203 0.694702
0.192810 0.773651 0.692780
0.209534 0.777496 0.689514
0.226624 0.782074 0.683350
0.320007 0.810730 0.692780
0.519012 0.842468 0.702057
0.742218 0.890778 0.729706
0.902008 0.900726 0.729523
0.053589 0.051849 0.627991
0.092163 0.049896 0.622681
0.183990 0.053589 0.623871
0.316742 0.065887 0.635345
0.468689 0.082703 0.650757
0.616211 0.098389 0.660339
0.661743 0.104004 0.660339
0.689026 0.107971 0.660278
0.056274 0.082703 0.637848
0.081543 0.080078 0.639130
0.171600 0.072357 0.631256
0.296783 0.082458 0.639435
0.453644 0.099762 0.655426
0.611664 0.117035 0.667847
0.670685 0.123505 0.667847
0.698883 0.127136 0.666779
0.066925 0.192017 0.662506
0.084381 0.188660 0.662872
0.164093 0.191315 0.669189
0.274933 0.183167 0.668121
0.425964 0.182617 0.672089
0.593597 0.179840 0.683716
0.686493 0.164764 0.683807
0.713562 0.160004 0.680878
0.084961 0.314667 0.684998
0.099823 0.312500 0.686310
0.142578 0.310699 0.691498
0.269257 0.326050 0.702484
0.411438 0.324646 0.705750
0.574127 0.323151 0.711121
0.721741 0.317780 0.721069
0.749176 0.308105 0.718353
0.108643 0.440491 0.710754
0.123932 0.439667 0.711365
0.138672 0.434723 0.711212
0.242371 0.447632 0.723480
0.413239 0.472473 0.744934
0.567474 0.470703 0.754944
0.733734 0.464966 0.759247
0.772552 0.457520 0.758881
0.134552 0.571838 0.732117
0.149811 0.570923 0.733673
0.164795 0.566986 0.734955
0.224915 0.573364 0.742706
0.382446 0.596436 0.766968
0.572815 0.622864 0.796082
0.728760 0.619232 0.797241
0.808990 0.614380 0.798584
0.164093 0.710510 0.757965
0.179504 0.709900 0.759460
0.194458 0.706543 0.760681
0.220215 0.702942 0.764709
0.335693 0.726135 0.787994
0.544769 0.749481 0.816376
0.746552 0.780792 0.841400
0.867218 0.779144 0.846619
0.177826 0.771942 0.772614
0.194031 0.775269 0.774628
0.210938 0.779510 0.777649
0.228119 0.784058 0.781006
0.318176 0.812836 0.803619
0.505341 0.844330 0.829132
0.721283 0.888519 0.858490
0.904449 0.915131 0.877502
