滤镜资源/Professional Luts Collection/Triune-Digital-Cinematic-LUTs/3D LUTs (CUBE)/LOG/Star Wars The Force Awakens - LOG.cube
#Created by Benjamin (IWLTBAP) : http://luts.iwltbap.com
#Copyright: (C) Copyright 2016 Triune Films and IWLTBAP
TITLE "Blockbuster LUTs Pack (LOG)"
#LUT size
LUT_3D_SIZE 8
#LUT data points
DOMAIN_MIN 0.000000 0.000000 0.000000
DOMAIN_MAX 0.903226 0.903226 0.903226
0.010071 0.002747 0.001923
0.091370 0.017548 0.009399
0.228821 0.040314 0.021759
0.397034 0.063599 0.041809
0.595428 0.118744 0.078156
0.739166 0.158234 0.095703
0.773407 0.170044 0.100189
0.805847 0.183868 0.104340
0.016296 0.072418 0.010712
0.066010 0.070435 0.010864
0.194672 0.082428 0.027649
0.367859 0.085022 0.036926
0.570068 0.129425 0.073547
0.731567 0.176544 0.095245
0.772827 0.191040 0.100830
0.804077 0.204010 0.104980
0.030823 0.179840 0.030304
0.048401 0.175049 0.029388
0.168396 0.170105 0.021484
0.319061 0.178772 0.035461
0.477142 0.206512 0.068298
0.717590 0.260315 0.095978
0.786560 0.265076 0.103912
0.815063 0.270142 0.108307
0.021545 0.302002 0.042053
0.041687 0.297241 0.038879
0.114471 0.303131 0.024109
0.304016 0.291534 0.031860
0.479431 0.310730 0.059662
0.682587 0.356049 0.107178
0.793762 0.398041 0.130127
0.817810 0.407196 0.144623
0.041992 0.432800 0.074341
0.059265 0.429138 0.070953
0.093079 0.423737 0.063446
0.262909 0.422180 0.041138
0.479340 0.428955 0.061890
0.664337 0.457306 0.090851
0.827087 0.523682 0.155945
0.839020 0.525940 0.191376
0.081146 0.593231 0.125336
0.097290 0.589264 0.121948
0.114716 0.583191 0.116882
0.226044 0.596680 0.062164
0.455383 0.564362 0.062622
0.654449 0.597046 0.085388
0.839447 0.645050 0.135345
0.871216 0.634766 0.166718
0.137634 0.740051 0.169983
0.154877 0.736176 0.168304
0.173126 0.730988 0.166260
0.226471 0.728180 0.165436
0.429138 0.765472 0.084839
0.640167 0.763519 0.081573
0.805725 0.771301 0.183807
0.884277 0.763824 0.212524
0.151520 0.784821 0.185181
0.169098 0.785553 0.186523
0.188110 0.787323 0.189728
0.213928 0.790161 0.194855
0.394348 0.847229 0.168549
0.620819 0.861664 0.155884
0.769348 0.868195 0.202545
0.905151 0.885620 0.239746
0.019928 0.016663 0.077911
0.096191 0.020752 0.075073
0.234650 0.039551 0.074310
0.397614 0.063263 0.081635
0.600861 0.120880 0.106720
0.739349 0.156738 0.110870
0.774536 0.168182 0.114960
0.806366 0.182983 0.119843
0.019836 0.076233 0.062378
0.063812 0.068909 0.062347
0.206085 0.078308 0.058441
0.369446 0.082886 0.062500
0.569336 0.128204 0.089020
0.732483 0.174957 0.110321
0.774292 0.189606 0.115723
0.804657 0.203949 0.120728
0.030853 0.178314 0.049652
0.048950 0.173340 0.046631
0.167633 0.168060 0.039703
0.312561 0.174133 0.058746
0.481903 0.201263 0.085175
0.718536 0.257294 0.111572
0.786530 0.263000 0.119324
0.814484 0.268036 0.124207
0.021393 0.301636 0.062042
0.042206 0.296509 0.059692
0.107758 0.304047 0.044434
0.302216 0.292236 0.049744
0.484497 0.311157 0.077545
0.684052 0.355255 0.121552
0.788208 0.398682 0.149200
0.816193 0.408539 0.168213
0.042419 0.432159 0.093109
0.061066 0.429626 0.090637
0.093567 0.425476 0.083832
0.257233 0.429504 0.060760
0.484406 0.432312 0.080658
0.673279 0.461365 0.107971
0.822693 0.524841 0.186920
0.836975 0.527496 0.213531
0.080872 0.591187 0.142761
0.096741 0.586700 0.139923
0.113312 0.579987 0.136169
0.216583 0.598145 0.084747
0.459564 0.568268 0.081696
0.655060 0.597137 0.101959
0.834076 0.640015 0.160004
0.867126 0.630859 0.191345
0.137695 0.738983 0.187164
0.154724 0.735291 0.185547
0.172852 0.729797 0.183563
0.224213 0.726349 0.183716
0.423279 0.767395 0.106384
0.637665 0.762360 0.099548
0.803040 0.767639 0.203949
0.883423 0.761200 0.231934
0.152100 0.785461 0.202881
0.169830 0.785736 0.204102
0.188446 0.787323 0.207031
0.213409 0.790375 0.212494
0.388855 0.836273 0.203522
0.619019 0.860077 0.181122
0.767120 0.866699 0.222015
0.904480 0.884949 0.259277
0.043732 0.056213 0.211060
0.102020 0.047852 0.209351
0.229309 0.049927 0.193024
0.424774 0.076904 0.181000
0.626007 0.125244 0.186188
0.746643 0.161285 0.195587
0.779053 0.175903 0.194214
0.806763 0.192841 0.199860
0.041199 0.111542 0.187927
0.080139 0.094971 0.193176
0.214294 0.081360 0.177277
0.397858 0.090912 0.165131
0.596283 0.135925 0.174316
0.741333 0.176910 0.182495
0.778259 0.193359 0.182953
0.805023 0.209381 0.188049
0.037811 0.195984 0.169830
0.055969 0.190704 0.166260
0.150726 0.189362 0.175110
0.339996 0.174500 0.135437
0.535645 0.191223 0.147675
0.725708 0.245850 0.164398
0.787994 0.259644 0.165771
0.813904 0.266296 0.168304
0.026093 0.309387 0.155853
0.045898 0.303650 0.144836
0.105469 0.302246 0.129181
0.296173 0.295349 0.102783
0.493530 0.311890 0.137268
0.688599 0.356934 0.151367
0.782959 0.401855 0.184204
0.818726 0.410217 0.193542
0.043976 0.431183 0.137421
0.062317 0.427429 0.130341
0.091217 0.426361 0.118256
0.251160 0.436890 0.082581
0.483307 0.432770 0.098206
0.678223 0.462830 0.124817
0.818512 0.526276 0.217285
0.830963 0.527618 0.241821
0.079987 0.587524 0.160950
0.096252 0.583527 0.157684
0.112640 0.576019 0.154755
0.208710 0.588562 0.121796
0.462616 0.572906 0.100342
0.657867 0.601837 0.119324
0.828003 0.634521 0.184296
0.864960 0.627625 0.214111
0.136871 0.737122 0.204773
0.154541 0.734283 0.203308
0.172394 0.728943 0.201782
0.221466 0.725067 0.200806
0.412994 0.767670 0.128418
0.634369 0.760284 0.119019
0.799805 0.763855 0.223633
0.882233 0.758636 0.251495
0.153107 0.786682 0.221069
0.170837 0.787109 0.222595
0.189636 0.788116 0.225555
0.211578 0.790619 0.229919
0.382660 0.826843 0.236633
0.617279 0.857819 0.205566
0.765411 0.865295 0.240723
0.903564 0.884552 0.280273
0.058838 0.112823 0.352417
0.116425 0.077759 0.357941
0.219879 0.081726 0.340485
0.379028 0.081665 0.310333
0.604614 0.137177 0.307159
0.751373 0.198090 0.341187
0.781982 0.212097 0.342590
0.810120 0.227173 0.349915
0.045837 0.159515 0.328094
0.089050 0.148560 0.329407
0.192627 0.110504 0.332367
0.359650 0.095001 0.293121
0.603027 0.153412 0.293396
0.747192 0.214569 0.323273
0.783813 0.230804 0.325195
0.810181 0.244965 0.332825
0.041046 0.229889 0.305267
0.055206 0.225403 0.301575
0.149719 0.225006 0.312073
0.350922 0.217804 0.290222
0.574432 0.225311 0.284882
0.739502 0.284607 0.306580
0.794830 0.289856 0.307922
0.814392 0.290466 0.310089
0.042023 0.323608 0.296448
0.054993 0.320953 0.291718
0.111938 0.316986 0.288879
0.255402 0.312347 0.290375
0.527496 0.340515 0.286102
0.702881 0.374878 0.305115
0.815216 0.404938 0.315552
0.840240 0.406860 0.317902
0.063568 0.450623 0.297546
0.078033 0.444977 0.289581
0.098328 0.437347 0.273376
0.215942 0.461243 0.256714
0.494629 0.464600 0.203796
0.668762 0.509460 0.311829
0.806702 0.540680 0.347168
0.831055 0.539185 0.345581
0.086273 0.587891 0.272064
0.100189 0.582489 0.265472
0.113342 0.571716 0.253876
0.200562 0.588501 0.239624
0.435028 0.614899 0.171204
0.672394 0.627380 0.181702
0.818268 0.627106 0.255432
0.861359 0.625244 0.264618
0.139374 0.733765 0.265015
0.154388 0.729828 0.260620
0.169281 0.724152 0.253693
0.216827 0.724945 0.243530
0.398132 0.768127 0.169342
0.632874 0.760956 0.146423
0.794647 0.758179 0.243713
0.881042 0.754761 0.271210
0.155060 0.788269 0.251099
0.172791 0.789001 0.250916
0.191528 0.790283 0.249908
0.210968 0.791321 0.247803
0.372223 0.818024 0.273346
0.613892 0.856079 0.228027
0.761780 0.863800 0.259796
0.903351 0.884216 0.301056
0.106415 0.135773 0.523956
0.155029 0.097443 0.532471
0.241852 0.099762 0.506744
0.361633 0.105408 0.490814
0.589355 0.178467 0.455414
0.757751 0.241150 0.505219
0.801147 0.254974 0.505249
0.831085 0.265442 0.504211
0.087982 0.193512 0.481049
0.128815 0.169037 0.497284
0.225037 0.123016 0.498169
0.339874 0.120483 0.481293
0.561096 0.186707 0.435242
0.744476 0.251343 0.479034
0.800934 0.270508 0.481903
0.830139 0.281738 0.485840
0.070862 0.273560 0.445923
0.087860 0.268219 0.442169
0.179016 0.245514 0.468994
0.327698 0.195953 0.489441
0.539459 0.253296 0.416901
0.742096 0.311615 0.460724
0.813293 0.324341 0.469910
0.834320 0.324066 0.468964
0.076904 0.361572 0.435089
0.091888 0.358673 0.431122
0.139282 0.351471 0.427917
0.254669 0.339691 0.458252
0.519653 0.365997 0.438141
0.721008 0.404907 0.460480
0.836060 0.437866 0.477631
0.859589 0.437134 0.473907
0.093475 0.483490 0.432770
0.108002 0.480042 0.428589
0.124329 0.470123 0.419678
0.222870 0.471649 0.428070
0.454559 0.468262 0.432617
0.682098 0.529144 0.464203
0.842529 0.544952 0.478058
0.871704 0.542694 0.470795
0.128571 0.637085 0.442047
0.143158 0.633240 0.437256
0.154846 0.623352 0.426331
0.217896 0.612000 0.403564
0.391541 0.610962 0.420044
0.669586 0.645599 0.400208
0.817719 0.670532 0.473480
0.870514 0.675812 0.476196
0.163300 0.758545 0.410767
0.177185 0.753021 0.401733
0.190826 0.743683 0.392670
0.222137 0.729980 0.377625
0.362518 0.742645 0.402771
0.635376 0.766846 0.368134
0.797394 0.762024 0.378143
0.884277 0.762054 0.391327
0.177002 0.807770 0.393738
0.193298 0.806335 0.389374
0.209473 0.804901 0.382996
0.225128 0.802704 0.372711
0.361542 0.826355 0.396118
0.595856 0.857269 0.353271
0.761841 0.864594 0.349640
0.904388 0.886993 0.380615
0.137634 0.162140 0.658081
0.184174 0.127380 0.675995
0.278473 0.126617 0.664001
0.430573 0.149872 0.654572
0.641144 0.224274 0.640472
0.801575 0.290527 0.675751
0.839935 0.302032 0.681610
0.863129 0.307434 0.682373
0.130127 0.208038 0.645844
0.161774 0.195038 0.657867
0.260742 0.149261 0.675995
0.400757 0.159851 0.647980
0.610718 0.227966 0.626587
0.785156 0.303345 0.660828
0.834869 0.317627 0.667603
0.857941 0.323425 0.667572
0.124237 0.317505 0.620911
0.137329 0.304565 0.620209
0.213562 0.276306 0.643860
0.378418 0.247681 0.660583
0.564331 0.280304 0.612366
0.749634 0.345337 0.631073
0.827209 0.355194 0.641846
0.851593 0.355743 0.641174
0.128357 0.423950 0.604980
0.143066 0.418274 0.602539
0.187195 0.405212 0.602692
0.292877 0.381897 0.615387
0.549377 0.387115 0.623810
0.720428 0.428436 0.611725
0.831055 0.444397 0.617676
0.864014 0.448883 0.617371
0.132446 0.533813 0.591583
0.147339 0.531342 0.588165
0.161469 0.523193 0.579315
0.262482 0.524902 0.589691
0.466644 0.519135 0.616852
0.704651 0.549774 0.609772
0.867279 0.563995 0.623138
0.898071 0.568481 0.622955
0.157684 0.656006 0.590240
0.172485 0.652496 0.585602
0.185486 0.644989 0.576599
0.255219 0.643951 0.573792
0.406647 0.655273 0.584869
0.667633 0.662354 0.595001
0.841309 0.697327 0.619843
0.907654 0.696808 0.627350
0.213409 0.799042 0.604919
0.229248 0.795868 0.600342
0.243958 0.789215 0.591736
0.275360 0.781860 0.580170
0.382507 0.774445 0.560333
0.629364 0.786713 0.572235
0.810242 0.805664 0.561310
0.920349 0.814026 0.587463
0.231628 0.849823 0.588989
0.246948 0.848145 0.580780
0.262024 0.846100 0.570038
0.275269 0.843506 0.553711
0.375275 0.847290 0.541382
0.586670 0.878387 0.555664
0.780823 0.905396 0.539276
0.928650 0.916595 0.561432
0.144501 0.172028 0.688446
0.190002 0.144562 0.705627
0.286926 0.138702 0.701630
0.442749 0.164886 0.690582
0.657776 0.239594 0.682861
0.812927 0.299744 0.718994
0.857330 0.313416 0.734497
0.885620 0.323456 0.748718
0.138397 0.212891 0.679352
0.165680 0.203308 0.688446
0.269989 0.158356 0.715393
0.418427 0.179382 0.691315
0.633209 0.249542 0.681671
0.799988 0.315735 0.716431
0.857758 0.333984 0.736664
0.886200 0.344574 0.751373
0.139038 0.328400 0.671906
0.152954 0.315521 0.674927
0.223907 0.294342 0.687866
0.396637 0.275085 0.722565
0.602783 0.311005 0.693451
0.771912 0.360626 0.713928
0.858795 0.375763 0.742126
0.886993 0.381042 0.755951
0.148804 0.447174 0.683258
0.165222 0.442169 0.686310
0.211395 0.434143 0.694611
0.333984 0.423157 0.709106
0.567657 0.409882 0.744812
0.745789 0.443573 0.724396
0.868134 0.473083 0.760010
0.894958 0.479156 0.770905
0.171509 0.568390 0.711975
0.189056 0.567932 0.713104
0.205902 0.562744 0.712830
0.321014 0.567261 0.722351
0.508545 0.565186 0.753723
0.731201 0.552551 0.760010
0.875061 0.594208 0.778259
0.903656 0.596344 0.777283
0.214874 0.694458 0.744080
0.232788 0.692780 0.744141
0.248291 0.686859 0.740448
0.320129 0.684631 0.738281
0.449524 0.687653 0.738281
0.692993 0.702881 0.764771
0.859863 0.721619 0.772583
0.925598 0.715302 0.765961
0.260101 0.818604 0.758911
0.275574 0.814850 0.753448
0.289703 0.808289 0.744812
0.317322 0.799408 0.732727
0.436951 0.803894 0.732819
0.622345 0.831757 0.757904
0.821472 0.839539 0.754791
0.936951 0.856689 0.770142
0.276703 0.871887 0.747375
0.294373 0.872284 0.743439
0.312286 0.873291 0.738342
0.329926 0.874451 0.729675
0.433716 0.892426 0.733734
0.561951 0.917664 0.740387
0.793640 0.941376 0.735809
0.945740 0.954803 0.731049
0.151123 0.183075 0.716675
0.196136 0.162842 0.732971
0.297882 0.152161 0.737915
0.455566 0.181335 0.723206
0.669525 0.251678 0.717590
0.820190 0.303864 0.749695
0.868256 0.319702 0.767151
0.894806 0.331177 0.778473
0.145813 0.222137 0.708496
0.170563 0.213379 0.715149
0.280853 0.172211 0.747528
0.430634 0.195190 0.722626
0.649353 0.264404 0.717743
0.807404 0.320404 0.747253
0.868774 0.340698 0.769135
0.895172 0.352722 0.780548
0.149536 0.339752 0.706482
0.163757 0.328064 0.708649
0.235138 0.309052 0.715302
0.406494 0.289673 0.751495
0.623260 0.325012 0.731842
0.779602 0.363708 0.744965
0.870850 0.381531 0.774689
0.897003 0.387268 0.785217
0.157623 0.456451 0.714996
0.174713 0.453125 0.717834
0.222046 0.446991 0.723663
0.350067 0.436432 0.738678
0.573120 0.415833 0.780884
0.752106 0.443726 0.755402
0.878998 0.478455 0.791718
0.905396 0.481873 0.802002
0.184875 0.577789 0.742004
0.202698 0.576935 0.742706
0.220001 0.571899 0.742340
0.333832 0.574005 0.749603
0.514465 0.574036 0.779846
0.736359 0.553009 0.794586
0.882690 0.598511 0.810699
0.916260 0.602570 0.821045
0.227661 0.700653 0.771240
0.245758 0.699036 0.771545
0.263275 0.694122 0.770966
0.334747 0.691986 0.773224
0.462769 0.698212 0.781097
0.692932 0.714172 0.817993
0.868896 0.722046 0.835480
0.940308 0.734802 0.851379
0.280670 0.830933 0.810760
0.298126 0.828613 0.810028
0.314819 0.823944 0.808960
0.343048 0.817474 0.807404
0.459625 0.824554 0.819183
0.630005 0.851532 0.847748
0.836090 0.864685 0.874146
0.955963 0.872589 0.882019
0.302094 0.893250 0.834503
0.320496 0.895233 0.836029
0.339325 0.897186 0.837402
0.358215 0.899323 0.838654
0.456665 0.914551 0.849213
0.588837 0.938538 0.869934
0.792358 0.970032 0.899872
0.968872 0.984406 0.904633
