滤镜资源/Professional Luts Collection/Triune-Digital-Cinematic-LUTs/3D LUTs (CUBE)/LOG/Star Wars The Force Awakens - LOG.cube
#Created by Benjamin (IWLTBAP) : http://luts.iwltbap.com
#Copyright: (C) Copyright 2016 Triune Films and IWLTBAP
TITLE "Blockbuster LUTs Pack (LOG)"
#LUT size
LUT_3D_SIZE 32
#LUT data points
0.010071 0.002747 0.001923
0.017029 0.003418 0.002594
0.037781 0.005859 0.004242
0.064087 0.012665 0.006531
0.091370 0.017548 0.009399
0.122131 0.025482 0.012787
0.153656 0.032623 0.016113
0.189514 0.038605 0.020355
0.228821 0.040314 0.021759
0.267395 0.040283 0.022400
0.306213 0.043488 0.025574
0.347137 0.051941 0.033142
0.397034 0.063599 0.041809
0.450867 0.077606 0.051636
0.500916 0.091675 0.061188
0.548279 0.104980 0.069275
0.595428 0.118744 0.078156
0.639587 0.131012 0.084503
0.678833 0.140503 0.088470
0.717010 0.150970 0.092957
0.739166 0.158234 0.095703
0.751038 0.161835 0.097351
0.758057 0.164368 0.098206
0.765381 0.166992 0.099335
0.773407 0.170044 0.100189
0.781281 0.173004 0.101044
0.789368 0.176361 0.102173
0.797485 0.180084 0.103210
0.805847 0.183868 0.104340
0.813904 0.187378 0.105408
0.822174 0.191071 0.106445
0.828339 0.193329 0.107239
0.010712 0.008026 0.002075
0.015564 0.008026 0.003510
0.032043 0.011047 0.005188
0.057312 0.016907 0.006073
0.083313 0.021667 0.008850
0.115356 0.029480 0.012177
0.149017 0.036713 0.015594
0.184631 0.043182 0.020081
0.223389 0.045715 0.022095
0.262817 0.045685 0.022186
0.301941 0.047424 0.024658
0.342590 0.054993 0.032349
0.391357 0.066864 0.041077
0.445374 0.080536 0.050690
0.496490 0.094910 0.060455
0.543732 0.107971 0.068695
0.590668 0.121765 0.077362
0.636536 0.135223 0.084351
0.675995 0.145111 0.088440
0.714264 0.155457 0.092621
0.737762 0.162903 0.095642
0.751129 0.167297 0.097443
0.758270 0.169647 0.098450
0.765320 0.172211 0.099365
0.772766 0.174835 0.100433
0.780731 0.178009 0.101227
0.788666 0.181274 0.102325
0.796997 0.185028 0.103516
0.805267 0.188843 0.104492
0.813385 0.192474 0.105560
0.821686 0.196167 0.106628
0.827789 0.198364 0.107635
0.011200 0.024994 0.003815
0.015106 0.023346 0.004303
0.027161 0.023376 0.006073
0.054230 0.027222 0.006836
0.077850 0.030548 0.009094
0.106720 0.034821 0.012360
0.141510 0.041534 0.016327
0.179016 0.047424 0.019958
0.217407 0.050964 0.021973
0.257721 0.051483 0.022797
0.296722 0.052704 0.024017
0.337524 0.058441 0.030914
0.385345 0.069702 0.040100
0.438965 0.083130 0.049652
0.491180 0.098145 0.059479
0.538452 0.111084 0.067780
0.585938 0.125061 0.076508
0.632782 0.138885 0.084106
0.673492 0.149567 0.088440
0.711182 0.159729 0.092407
0.736542 0.167755 0.095581
0.751343 0.172546 0.097565
0.758392 0.175110 0.098602
0.765411 0.177704 0.099518
0.772522 0.180145 0.100494
0.780121 0.182892 0.101532
0.788147 0.186401 0.102600
0.796478 0.190094 0.103729
0.804688 0.193726 0.104706
0.812958 0.197449 0.105835
0.821014 0.201172 0.106781
0.827271 0.203308 0.107697
0.012848 0.049561 0.007294
0.017609 0.048523 0.007416
0.025238 0.047424 0.007446
0.044830 0.046509 0.009552
0.075256 0.048584 0.007843
0.101929 0.051514 0.011780
0.132019 0.055420 0.017181
0.161987 0.060486 0.023224
0.204559 0.064026 0.025177
0.250244 0.062500 0.023285
0.289368 0.059937 0.023804
0.330322 0.061371 0.029297
0.376770 0.071716 0.038330
0.429901 0.085114 0.048279
0.482880 0.100067 0.057800
0.530640 0.113586 0.066681
0.578064 0.127228 0.074921
0.626160 0.141663 0.083221
0.668488 0.153198 0.088104
0.706665 0.163727 0.092163
0.735199 0.172485 0.095612
0.751556 0.177979 0.097809
0.758575 0.180420 0.098846
0.765656 0.182983 0.099701
0.772705 0.185547 0.100647
0.779785 0.188141 0.101654
0.787598 0.191406 0.102722
0.795807 0.195099 0.103760
0.804108 0.198883 0.104828
0.812317 0.202576 0.105835
0.820557 0.206238 0.106934
0.826630 0.208435 0.107697
0.016296 0.072418 0.010712
0.021027 0.071564 0.010803
0.025757 0.070587 0.010803
0.039398 0.071320 0.011261
0.066010 0.070435 0.010864
0.099335 0.070221 0.010651
0.130707 0.074249 0.014343
0.156281 0.077209 0.023529
0.194672 0.082428 0.027649
0.228760 0.085602 0.032745
0.274841 0.084442 0.031128
0.320679 0.079651 0.028198
0.367859 0.085022 0.036926
0.419769 0.094574 0.046875
0.473297 0.106018 0.056122
0.522491 0.116760 0.065338
0.570068 0.129425 0.073547
0.618713 0.144226 0.082153
0.663177 0.156891 0.087769
0.701874 0.167847 0.091675
0.731567 0.176544 0.095245
0.751801 0.183533 0.097931
0.758636 0.186005 0.098846
0.765808 0.188477 0.099945
0.772827 0.191040 0.100830
0.779877 0.193634 0.101746
0.787231 0.196625 0.102875
0.795654 0.200256 0.103912
0.804077 0.204010 0.104980
0.812225 0.207794 0.105988
0.820496 0.211639 0.107056
0.826874 0.213776 0.107910
0.019501 0.096588 0.014771
0.024261 0.095703 0.014465
0.027985 0.094879 0.014282
0.037445 0.093201 0.013794
0.059418 0.094452 0.013550
0.089722 0.092072 0.012451
0.124237 0.093323 0.014252
0.159546 0.097015 0.018433
0.190491 0.100586 0.027344
0.224670 0.103882 0.032654
0.261108 0.106506 0.034393
0.294098 0.109406 0.037170
0.341583 0.108337 0.040283
0.406799 0.113586 0.044952
0.460266 0.123352 0.054260
0.511810 0.134827 0.063599
0.560913 0.146332 0.072266
0.609253 0.158051 0.080872
0.655701 0.169861 0.087372
0.696014 0.178070 0.091461
0.728943 0.185211 0.095245
0.752319 0.190613 0.098206
0.758667 0.191803 0.098969
0.765656 0.194366 0.100006
0.772827 0.196869 0.100983
0.779907 0.199463 0.101898
0.787292 0.202393 0.103058
0.795715 0.205750 0.104218
0.804138 0.209473 0.105194
0.812317 0.213104 0.106354
0.820557 0.216980 0.107239
0.827026 0.218964 0.108185
0.023285 0.122833 0.019501
0.027710 0.121918 0.019196
0.032684 0.120697 0.018646
0.036102 0.119568 0.018585
0.054626 0.118866 0.017456
0.081421 0.117096 0.015717
0.115479 0.115265 0.013702
0.150452 0.118622 0.018097
0.189240 0.120880 0.021698
0.226318 0.123718 0.026550
0.253021 0.126587 0.036438
0.292114 0.129181 0.036194
0.323151 0.132874 0.040466
0.363922 0.136383 0.047211
0.422668 0.140747 0.054596
0.494720 0.152863 0.062317
0.549225 0.165039 0.070312
0.600494 0.177643 0.079620
0.647064 0.190430 0.086823
0.688995 0.200867 0.091461
0.724945 0.208527 0.095428
0.753387 0.214142 0.099030
0.760498 0.213074 0.099854
0.766541 0.211548 0.100525
0.772858 0.211212 0.101318
0.779724 0.212677 0.102203
0.787231 0.214539 0.103271
0.795746 0.216522 0.104431
0.804291 0.218536 0.105560
0.812500 0.221008 0.106567
0.820801 0.224701 0.107635
0.827118 0.226624 0.108521
0.028198 0.150726 0.024780
0.032104 0.150391 0.024780
0.036774 0.149292 0.024841
0.040955 0.147644 0.024475
0.052643 0.146698 0.023865
0.072510 0.147156 0.021057
0.104340 0.139984 0.016541
0.140442 0.141785 0.017944
0.177551 0.145294 0.021637
0.220245 0.145874 0.024231
0.257782 0.147247 0.024841
0.286804 0.150024 0.036194
0.316193 0.154022 0.041534
0.359985 0.160706 0.045349
0.393524 0.165619 0.053345
0.443848 0.172455 0.061249
0.509735 0.183411 0.070557
0.585144 0.199188 0.079620
0.634888 0.212402 0.085693
0.680634 0.225159 0.091553
0.721100 0.235199 0.095825
0.752502 0.241272 0.099640
0.765015 0.240570 0.101074
0.772736 0.238403 0.101898
0.778717 0.236969 0.102600
0.784546 0.237518 0.103333
0.791290 0.238831 0.104218
0.798370 0.240601 0.105286
0.806641 0.241913 0.106384
0.814636 0.243439 0.107361
0.823212 0.246399 0.108551
0.828674 0.247955 0.109467
0.030823 0.179840 0.030304
0.034729 0.179413 0.030365
0.039825 0.178497 0.029694
0.044678 0.176605 0.029358
0.048401 0.175049 0.029388
0.070038 0.176361 0.027557
0.095001 0.176086 0.022705
0.130768 0.166809 0.020020
0.168396 0.170105 0.021484
0.206909 0.172455 0.024384
0.249634 0.172150 0.025024
0.286285 0.173981 0.026367
0.319061 0.178772 0.035461
0.348633 0.183258 0.047241
0.391907 0.191223 0.052917
0.437622 0.199097 0.060181
0.477142 0.206512 0.068298
0.533508 0.217255 0.077637
0.602631 0.234528 0.088837
0.666687 0.248444 0.094879
0.717590 0.260315 0.095978
0.756378 0.268280 0.100922
0.773132 0.269653 0.102478
0.779907 0.267517 0.103180
0.786560 0.265076 0.103912
0.794098 0.265228 0.104828
0.800629 0.267334 0.106201
0.807861 0.268677 0.107269
0.815063 0.270142 0.108307
0.822235 0.271698 0.109344
0.829407 0.274567 0.110474
0.834747 0.276031 0.111359
0.030609 0.210358 0.035095
0.035858 0.209564 0.034668
0.039978 0.208984 0.034607
0.044769 0.207153 0.034180
0.048706 0.205811 0.033966
0.064575 0.205658 0.032471
0.083649 0.207855 0.027374
0.117004 0.204346 0.023224
0.160095 0.194489 0.023651
0.196442 0.198730 0.024323
0.240112 0.201843 0.026337
0.279755 0.199585 0.026489
0.315918 0.203644 0.030365
0.353485 0.210419 0.038635
0.389526 0.215668 0.053680
0.427643 0.223236 0.062744
0.482422 0.233429 0.068115
0.527283 0.243622 0.077209
0.573181 0.253784 0.086761
0.635620 0.269257 0.097137
0.701172 0.284241 0.104462
0.760529 0.299805 0.108704
0.783813 0.301971 0.106293
0.790314 0.299164 0.105377
0.797455 0.296753 0.105774
0.805817 0.297394 0.106842
0.812531 0.299591 0.108490
0.818604 0.301605 0.109711
0.825073 0.303711 0.111115
0.831360 0.306152 0.112671
0.837585 0.308502 0.113831
0.842896 0.310150 0.114716
0.027740 0.240356 0.037262
0.032379 0.239929 0.037201
0.036926 0.239594 0.036682
0.042236 0.238037 0.035950
0.046783 0.236603 0.035645
0.056213 0.235718 0.034698
0.076385 0.238007 0.030090
0.099365 0.240753 0.024109
0.144104 0.231354 0.025024
0.192719 0.225342 0.026093
0.230927 0.229248 0.026978
0.274780 0.231689 0.027466
0.310822 0.229492 0.029755
0.349182 0.235962 0.036987
0.390656 0.243042 0.044067
0.436218 0.251343 0.059814
0.476105 0.259247 0.071259
0.527435 0.269501 0.079590
0.587006 0.281158 0.087311
0.630890 0.293304 0.096893
0.680145 0.305511 0.104980
0.738953 0.321289 0.112274
0.778595 0.335815 0.118835
0.789001 0.338043 0.120789
0.800903 0.339661 0.120117
0.811432 0.341522 0.122803
0.819672 0.342865 0.122589
0.827393 0.342651 0.122040
0.834015 0.341217 0.120850
0.841248 0.342041 0.117493
0.846588 0.342804 0.117828
0.852203 0.344208 0.118988
0.023224 0.271545 0.038818
0.027191 0.270996 0.038574
0.032776 0.270203 0.037994
0.038025 0.269043 0.037079
0.043427 0.267365 0.035950
0.048248 0.265656 0.035461
0.068817 0.267792 0.031677
0.091217 0.271851 0.025391
0.122894 0.270538 0.024597
0.174347 0.258514 0.026489
0.226807 0.257660 0.026886
0.266022 0.259705 0.028625
0.309265 0.261292 0.031006
0.346405 0.262512 0.036865
0.387695 0.268677 0.044312
0.433472 0.276459 0.051910
0.482849 0.285706 0.063049
0.532440 0.295959 0.080963
0.574615 0.305176 0.090698
0.637451 0.317932 0.099121
0.692657 0.329987 0.104279
0.731323 0.345917 0.112640
0.766388 0.361572 0.120575
0.780029 0.365845 0.124054
0.789581 0.367188 0.125885
0.798462 0.369507 0.129730
0.806702 0.373230 0.132843
0.815521 0.377441 0.134979
0.824677 0.380188 0.140503
0.834412 0.383453 0.145264
0.843170 0.387787 0.148499
0.849640 0.391541 0.154907
0.021545 0.302002 0.042053
0.025269 0.301483 0.041626
0.030670 0.300415 0.041016
0.036377 0.298706 0.039978
0.041687 0.297241 0.038879
0.046356 0.296051 0.037750
0.059631 0.296722 0.034119
0.083649 0.300842 0.027191
0.114471 0.303131 0.024109
0.152924 0.298309 0.025269
0.210510 0.289642 0.026154
0.260925 0.291626 0.027405
0.304016 0.291534 0.031860
0.345428 0.292023 0.037567
0.385864 0.295593 0.044220
0.431335 0.302765 0.051819
0.479431 0.310730 0.059662
0.529968 0.317871 0.068237
0.585968 0.331116 0.089142
0.629395 0.343323 0.099854
0.682587 0.356049 0.107178
0.742615 0.372162 0.112091
0.778778 0.392761 0.122406
0.788727 0.397247 0.127289
0.793762 0.398041 0.130127
0.798492 0.399109 0.132629
0.804291 0.401581 0.136658
0.810364 0.404205 0.140717
0.817810 0.407196 0.144623
0.826385 0.410431 0.148346
0.833282 0.414307 0.154480
0.840424 0.418549 0.160919
0.020966 0.333496 0.047882
0.024719 0.332550 0.047302
0.030273 0.331512 0.046509
0.035950 0.329987 0.045471
0.040863 0.328674 0.044495
0.045959 0.326782 0.042908
0.051544 0.325256 0.041290
0.076813 0.329346 0.033783
0.105682 0.332916 0.026215
0.147217 0.332397 0.026794
0.189453 0.327789 0.027802
0.251556 0.322906 0.028076
0.296814 0.326019 0.031006
0.343018 0.323456 0.038544
0.386139 0.325134 0.044983
0.430084 0.329681 0.051727
0.477722 0.336914 0.059692
0.526886 0.343964 0.068024
0.577850 0.352325 0.077301
0.638611 0.367523 0.094635
0.686890 0.383301 0.106812
0.725128 0.398956 0.114685
0.775818 0.420776 0.126648
0.801666 0.428711 0.132294
0.810944 0.431000 0.136383
0.815033 0.431946 0.141113
0.820038 0.434265 0.145813
0.824921 0.436615 0.150330
0.829834 0.438629 0.154724
0.834595 0.440735 0.159302
0.839752 0.444336 0.164825
0.844971 0.448029 0.170624
0.025330 0.365234 0.055359
0.028259 0.364685 0.054749
0.033447 0.363983 0.054108
0.037994 0.362610 0.053345
0.044220 0.360657 0.051788
0.048889 0.358917 0.050781
0.053925 0.357056 0.049744
0.069763 0.357635 0.044403
0.098267 0.364716 0.032227
0.136169 0.362000 0.029999
0.182678 0.361511 0.031433
0.234009 0.361206 0.033600
0.290466 0.356720 0.033691
0.336456 0.359650 0.037140
0.387817 0.357208 0.046387
0.431244 0.359680 0.052582
0.476288 0.364166 0.059357
0.524292 0.370941 0.068085
0.573547 0.378021 0.076691
0.623657 0.388580 0.084717
0.679382 0.403717 0.094177
0.737000 0.428009 0.112732
0.768219 0.448181 0.128693
0.790680 0.460205 0.141907
0.806854 0.463623 0.148956
0.818573 0.464539 0.152283
0.824158 0.464935 0.157166
0.829468 0.466125 0.162964
0.840759 0.468750 0.163361
0.847870 0.469788 0.165985
0.853455 0.472778 0.171478
0.857483 0.475677 0.178101
0.029999 0.398590 0.064697
0.035767 0.398071 0.064301
0.041656 0.396698 0.063049
0.045837 0.395477 0.062469
0.050079 0.394318 0.061615
0.055267 0.392365 0.060333
0.060333 0.390656 0.059082
0.063965 0.388794 0.057648
0.096558 0.393463 0.047668
0.128937 0.399811 0.036560
0.169006 0.390808 0.034119
0.220123 0.392548 0.036438
0.276794 0.392334 0.037659
0.328552 0.391357 0.039551
0.381714 0.395050 0.045319
0.433502 0.392761 0.054016
0.477539 0.394928 0.060760
0.521942 0.399170 0.067657
0.569427 0.406006 0.075928
0.618622 0.416138 0.084351
0.669403 0.428009 0.091156
0.720673 0.443359 0.097595
0.774719 0.472534 0.121338
0.802734 0.490173 0.145386
0.815094 0.496521 0.158081
0.816559 0.495056 0.164001
0.819855 0.496063 0.170105
0.824402 0.497559 0.176025
0.830902 0.499664 0.181427
0.838440 0.499878 0.184387
0.844147 0.502350 0.191772
0.849396 0.504944 0.199921
0.041992 0.432800 0.074341
0.045776 0.432098 0.073883
0.050232 0.431335 0.072845
0.055267 0.430176 0.071808
0.059265 0.429138 0.070953
0.063721 0.427490 0.069580
0.068176 0.425537 0.068542
0.072479 0.423492 0.066925
0.093079 0.423737 0.063446
0.123718 0.431702 0.051086
0.159485 0.435730 0.040863
0.209442 0.421692 0.038544
0.262909 0.422180 0.041138
0.324432 0.423584 0.043213
0.372589 0.428040 0.045532
0.430389 0.431519 0.053772
0.479340 0.428955 0.061890
0.522186 0.431824 0.068787
0.566254 0.436493 0.076111
0.613770 0.445221 0.083801
0.664337 0.457306 0.090851
0.714844 0.470612 0.096741
0.764130 0.489746 0.103455
0.807861 0.511505 0.118958
0.827087 0.523682 0.155945
0.830383 0.523621 0.165985
0.833160 0.524078 0.175507
0.835968 0.524841 0.184052
0.839020 0.525940 0.191376
0.842560 0.527069 0.196960
0.846527 0.528992 0.202362
0.851044 0.530975 0.207245
0.054321 0.473602 0.086456
0.059326 0.472412 0.085724
0.063354 0.471680 0.084930
0.067719 0.470795 0.084259
0.071442 0.469604 0.083374
0.075470 0.467834 0.082367
0.079712 0.465637 0.080750
0.083893 0.462646 0.079010
0.094330 0.460419 0.076477
0.121582 0.461670 0.070190
0.152008 0.473480 0.053192
0.202118 0.464661 0.044861
0.252808 0.452148 0.043762
0.313080 0.451141 0.045288
0.374847 0.460236 0.049194
0.420502 0.465454 0.051819
0.472656 0.467987 0.061005
0.521423 0.466461 0.069733
0.567230 0.472015 0.076843
0.612915 0.478271 0.084076
0.661163 0.487183 0.090179
0.710419 0.499969 0.095490
0.760651 0.519318 0.103058
0.809937 0.542267 0.113434
0.841949 0.553314 0.126282
0.849152 0.552856 0.131409
0.852905 0.552460 0.141663
0.851379 0.549713 0.159576
0.853394 0.550049 0.172791
0.855194 0.550232 0.186127
0.858887 0.551971 0.195251
0.863251 0.553894 0.201416
0.064789 0.513367 0.099121
0.068695 0.512817 0.098419
0.073242 0.512238 0.097626
0.077332 0.511658 0.096710
0.081573 0.510681 0.096008
0.085968 0.508850 0.094818
0.090179 0.506927 0.093597
0.094330 0.504547 0.092041
0.098053 0.502014 0.090515
0.122070 0.502167 0.085114
0.151520 0.508789 0.069702
0.192657 0.514313 0.052917
0.250488 0.495117 0.049927
0.302185 0.484863 0.049988
0.369019 0.488983 0.052124
0.418579 0.497223 0.054626
0.462494 0.502380 0.058685
0.513184 0.505676 0.067657
0.563568 0.506012 0.077148
0.611084 0.513062 0.084259
0.659332 0.520782 0.089905
0.708649 0.531647 0.095398
0.758972 0.552002 0.101868
0.807465 0.572784 0.113342
0.841919 0.581512 0.130127
0.854279 0.582794 0.135345
0.860779 0.582733 0.137756
0.866791 0.583130 0.140015
0.871216 0.581787 0.141174
0.875641 0.580688 0.142212
0.880096 0.580719 0.143921
0.884430 0.580933 0.145691
0.073547 0.554535 0.112366
0.077820 0.553467 0.111572
0.082062 0.552765 0.110840
0.085815 0.552002 0.109955
0.089966 0.551056 0.109222
0.094788 0.549469 0.108063
0.099121 0.547760 0.107147
0.103638 0.545929 0.105865
0.108093 0.543640 0.104492
0.123962 0.545410 0.098633
0.152649 0.550720 0.081635
0.178406 0.557220 0.060669
0.242462 0.546326 0.057465
0.297546 0.526550 0.055573
0.364594 0.522278 0.056580
0.415833 0.527344 0.057678
0.459229 0.533691 0.059540
0.502136 0.539734 0.065399
0.554016 0.545013 0.074982
0.605652 0.546875 0.084229
0.655548 0.555908 0.088776
0.706207 0.570007 0.094147
0.755432 0.587646 0.100037
0.803192 0.603180 0.112976
0.842682 0.610962 0.134216
0.856537 0.611206 0.144623
0.862183 0.609863 0.147827
0.867584 0.609375 0.151276
0.871979 0.608307 0.152313
0.876251 0.606873 0.153534
0.880493 0.606812 0.155640
0.884613 0.606689 0.157806
0.081146 0.593231 0.125336
0.084991 0.592377 0.124634
0.088715 0.591583 0.123871
0.093018 0.590424 0.122833
0.097290 0.589264 0.121948
0.101074 0.588135 0.121307
0.105621 0.586884 0.120087
0.110138 0.585083 0.118378
0.114716 0.583191 0.116882
0.121735 0.581879 0.115326
0.151672 0.590088 0.101501
0.180725 0.599854 0.066681
0.226044 0.596680 0.062164
0.291626 0.576416 0.061523
0.349030 0.563141 0.061920
0.409546 0.560120 0.061340
0.455383 0.564362 0.062622
0.497650 0.571777 0.065247
0.542572 0.580139 0.071289
0.596558 0.589996 0.079407
0.654449 0.597046 0.085388
0.703522 0.610779 0.091644
0.750854 0.625366 0.100433
0.797913 0.636353 0.112946
0.839447 0.645050 0.135345
0.857605 0.641449 0.156525
0.861908 0.637543 0.161591
0.866699 0.636078 0.165894
0.871216 0.634766 0.166718
0.875793 0.633575 0.167725
0.880280 0.633453 0.169525
0.884521 0.633484 0.171295
0.089874 0.630737 0.137695
0.093964 0.629913 0.136993
0.098206 0.629211 0.136292
0.102203 0.628510 0.135406
0.106476 0.627625 0.134857
0.111023 0.626007 0.133850
0.115204 0.625000 0.132782
0.119965 0.623016 0.130920
0.124207 0.621399 0.129364
0.129028 0.619629 0.127686
0.148193 0.621613 0.122772
0.185577 0.634796 0.096954
0.224976 0.641083 0.070862
0.277222 0.629852 0.065765
0.334747 0.611359 0.065826
0.393402 0.602661 0.065460
0.450775 0.599823 0.066132
0.495239 0.604553 0.067413
0.538788 0.614594 0.068359
0.585663 0.628357 0.073456
0.645386 0.647522 0.079773
0.699005 0.657318 0.088898
0.745728 0.666168 0.100739
0.790924 0.670441 0.119049
0.830597 0.671570 0.145508
0.855377 0.669495 0.169464
0.862488 0.666016 0.176178
0.867279 0.664215 0.180389
0.872131 0.663300 0.180511
0.877045 0.662292 0.180603
0.881897 0.662506 0.181335
0.886749 0.662811 0.182220
0.101807 0.664886 0.148071
0.105804 0.664246 0.147583
0.109924 0.663452 0.147095
0.114349 0.662781 0.146484
0.118439 0.662231 0.146057
0.122833 0.661346 0.145538
0.127136 0.660248 0.144775
0.131897 0.658783 0.143005
0.136505 0.657104 0.141327
0.141602 0.655212 0.139221
0.146484 0.653595 0.137482
0.187073 0.662292 0.125275
0.223419 0.677582 0.104889
0.269775 0.682892 0.078674
0.321960 0.666992 0.069733
0.374023 0.651581 0.069244
0.437653 0.644226 0.068085
0.492523 0.644562 0.069458
0.538666 0.650757 0.070435
0.586090 0.667389 0.071747
0.637390 0.685730 0.074127
0.691895 0.705811 0.086884
0.743286 0.709656 0.104126
0.785431 0.708008 0.126801
0.822754 0.703827 0.155060
0.852997 0.698639 0.181244
0.865784 0.696625 0.185913
0.871490 0.695099 0.189728
0.876160 0.693817 0.190094
0.880829 0.692627 0.190521
0.885742 0.692841 0.191467
0.890625 0.693085 0.192169
0.121704 0.704498 0.159973
0.125671 0.703522 0.159302
0.129608 0.702545 0.159027
0.133636 0.701233 0.158539
0.137787 0.700348 0.158295
0.142029 0.699005 0.157684
0.146362 0.697571 0.157196
0.150238 0.695740 0.156372
0.154175 0.693756 0.155579
0.158020 0.691559 0.154572
0.162201 0.689331 0.153717
0.188599 0.690582 0.148773
0.228058 0.700439 0.143921
0.267914 0.722626 0.126770
0.322754 0.731293 0.088257
0.370270 0.711914 0.073975
0.426880 0.702179 0.072083
0.484070 0.694061 0.072296
0.537384 0.695221 0.072845
0.588867 0.707458 0.073486
0.640472 0.724854 0.074158
0.685760 0.740112 0.084564
0.733582 0.751434 0.112488
0.775665 0.740570 0.145630
0.813232 0.732819 0.173920
0.848755 0.731201 0.190887
0.867157 0.728912 0.197113
0.876312 0.727386 0.200043
0.880859 0.726227 0.200439
0.885468 0.725037 0.200714
0.890228 0.725372 0.201965
0.895050 0.725647 0.203430
0.137634 0.740051 0.169983
0.141724 0.739044 0.169586
0.146027 0.738190 0.169098
0.150330 0.737000 0.168701
0.154877 0.736176 0.168304
0.159393 0.735321 0.167816
0.164032 0.734253 0.167450
0.168549 0.732574 0.166901
0.173126 0.730988 0.166260
0.177399 0.729340 0.165802
0.181549 0.727356 0.165009
0.191864 0.725769 0.164368
0.226471 0.728180 0.165436
0.267242 0.742249 0.162109
0.316742 0.772766 0.126587
0.373535 0.774323 0.101654
0.429138 0.765472 0.084839
0.484436 0.755890 0.077789
0.538300 0.753326 0.077118
0.589050 0.756104 0.077698
0.640167 0.763519 0.081573
0.684631 0.778076 0.093933
0.725037 0.786591 0.114655
0.763428 0.782227 0.157043
0.805725 0.771301 0.183807
0.843506 0.767853 0.200989
0.867126 0.766449 0.208313
0.879395 0.765137 0.212128
0.884277 0.763824 0.212524
0.888947 0.762482 0.212708
0.893799 0.762848 0.213593
0.898651 0.763367 0.214355
0.142578 0.756470 0.175232
0.146729 0.756561 0.175018
0.151276 0.756653 0.174835
0.155762 0.756897 0.174713
0.160278 0.757172 0.174835
0.165344 0.757538 0.174744
0.170135 0.758118 0.174683
0.175079 0.758057 0.174469
0.180298 0.758026 0.174316
0.185364 0.757294 0.174500
0.190247 0.756744 0.174927
0.195251 0.756226 0.175323
0.223633 0.759033 0.180267
0.262817 0.765686 0.187958
0.311798 0.794464 0.166443
0.364777 0.818024 0.135437
0.425995 0.821991 0.115295
0.488556 0.813324 0.103088
0.541687 0.810516 0.101227
0.589722 0.810364 0.100769
0.638153 0.809479 0.098297
0.681335 0.816101 0.109009
0.718994 0.819916 0.132294
0.751678 0.812622 0.166962
0.793213 0.812073 0.192841
0.837067 0.807892 0.210999
0.867950 0.805511 0.217712
0.884216 0.804138 0.223297
0.888977 0.802643 0.223419
0.893494 0.801239 0.223663
0.898468 0.801727 0.224335
0.903564 0.802338 0.225037
0.145721 0.766174 0.178833
0.150024 0.766235 0.178558
0.154388 0.766327 0.178467
0.158722 0.766541 0.178314
0.163239 0.766907 0.178162
0.167786 0.767242 0.178864
0.172699 0.767700 0.178864
0.177551 0.768219 0.178955
0.182831 0.769012 0.179138
0.188416 0.769501 0.179749
0.193970 0.770142 0.180756
0.199341 0.770325 0.181458
0.216553 0.772491 0.185577
0.253662 0.777313 0.195679
0.300110 0.792511 0.194122
0.352203 0.822418 0.161743
0.412048 0.841431 0.136475
0.478302 0.844635 0.126282
0.538879 0.841339 0.123352
0.586823 0.840942 0.126221
0.632324 0.842285 0.127014
0.674377 0.843323 0.129669
0.710999 0.842499 0.150208
0.745422 0.840790 0.174896
0.781311 0.838165 0.196991
0.823853 0.842712 0.217133
0.866730 0.842499 0.226257
0.890533 0.840363 0.230194
0.895416 0.839355 0.230408
0.900269 0.838257 0.230621
0.905334 0.838623 0.231628
0.910400 0.839355 0.233154
0.148773 0.775482 0.182404
0.153229 0.775482 0.182617
0.157440 0.775635 0.182526
0.161896 0.776031 0.182465
0.166138 0.776337 0.182312
0.170776 0.776611 0.182922
0.175507 0.776978 0.183746
0.180542 0.777557 0.184509
0.185394 0.778107 0.184662
0.190674 0.778717 0.184845
0.196686 0.779480 0.186249
0.202454 0.780060 0.187714
0.215271 0.781830 0.190460
0.248383 0.786163 0.199524
0.289124 0.795868 0.206177
0.341949 0.819183 0.187683
0.401337 0.846985 0.153564
