滤镜资源/Professional Luts Collection/Triune-Digital-Cinematic-LUTs/3D LUTs (CUBE)/LOG/Star Wars The Force Awakens - LOG.cube
#Created by Benjamin (IWLTBAP) : http://luts.iwltbap.com
#Copyright: (C) Copyright 2016 Triune Films and IWLTBAP
TITLE "Blockbuster LUTs Pack (LOG)"
#LUT size
LUT_3D_SIZE 5
#LUT data points
DOMAIN_MIN 0.000000 0.000000 0.000000
DOMAIN_MAX 0.903226 0.903226 0.903226
0.010071 0.002747 0.001923
0.189514 0.038605 0.020355
0.500916 0.091675 0.061188
0.751038 0.161835 0.097351
0.805847 0.183868 0.104340
0.028198 0.150726 0.024780
0.140442 0.141785 0.017944
0.393524 0.165619 0.053345
0.752502 0.241272 0.099640
0.806641 0.241913 0.106384
0.025330 0.365234 0.055359
0.069763 0.357635 0.044403
0.387817 0.357208 0.046387
0.737000 0.428009 0.112732
0.840759 0.468750 0.163361
0.089874 0.630737 0.137695
0.119965 0.623016 0.130920
0.334747 0.611359 0.065826
0.699005 0.657318 0.088898
0.872131 0.663300 0.180511
0.151520 0.784821 0.185181
0.183380 0.786804 0.188843
0.283691 0.800873 0.212250
0.659576 0.862854 0.160645
0.905151 0.885620 0.239746
0.040009 0.046204 0.175873
0.196960 0.043701 0.164551
0.522736 0.100250 0.160248
0.757263 0.161560 0.171783
0.806030 0.187866 0.173431
0.035828 0.163147 0.141083
0.129059 0.157013 0.145386
0.445709 0.149658 0.119751
0.757568 0.230865 0.149292
0.807190 0.237457 0.146667
0.027344 0.364075 0.108185
0.067566 0.355194 0.092316
0.388824 0.359528 0.077698
0.726471 0.429047 0.144928
0.836456 0.468872 0.203461
0.089813 0.626862 0.168610
0.117920 0.617706 0.163971
0.322571 0.625000 0.097656
0.694275 0.653473 0.119934
0.868835 0.658325 0.217926
0.152924 0.786407 0.216614
0.184479 0.787537 0.220032
0.281464 0.801300 0.245056
0.657013 0.858948 0.200317
0.903748 0.884644 0.274994
0.082520 0.126526 0.432007
0.198914 0.090729 0.424316
0.465637 0.117462 0.373749
0.771088 0.226074 0.418274
0.819427 0.243927 0.423035
0.055908 0.234222 0.379761
0.146667 0.218445 0.388000
0.432190 0.191010 0.342560
0.771149 0.282990 0.399292
0.816223 0.280548 0.393433
0.060913 0.394806 0.362457
0.088684 0.386688 0.351379
0.342041 0.381165 0.355347
0.737671 0.462372 0.399139
0.855072 0.477173 0.395477
0.108948 0.639893 0.345612
0.132721 0.629578 0.330383
0.280731 0.629089 0.327179
0.704895 0.666199 0.286438
0.872894 0.673218 0.365234
0.160583 0.791809 0.313263
0.191620 0.792755 0.308563
0.276550 0.803131 0.314392
0.651794 0.852997 0.263641
0.903076 0.884369 0.311951
0.139648 0.164185 0.665863
0.253235 0.129761 0.682953
0.548248 0.186218 0.653503
0.829193 0.302368 0.704254
0.876556 0.316284 0.722870
0.128693 0.292633 0.644348
0.204590 0.263062 0.669617
0.492981 0.254059 0.674377
0.808807 0.345673 0.687408
0.864990 0.344635 0.690186
0.141449 0.492859 0.643646
0.166656 0.482880 0.634186
0.388184 0.463684 0.653198
0.758270 0.491699 0.651367
0.875549 0.505280 0.649567
0.179626 0.696228 0.634033
0.205261 0.688080 0.623260
0.331848 0.687256 0.614197
0.710602 0.708008 0.633636
0.915955 0.739105 0.664551
0.245087 0.856293 0.631958
0.277374 0.858551 0.624146
0.333069 0.854889 0.595825
0.655609 0.895477 0.596436
0.934692 0.927277 0.605042
0.151123 0.183075 0.716675
0.267181 0.148926 0.744019
0.577820 0.218170 0.716949
0.846802 0.312012 0.759064
0.894806 0.331177 0.778473
0.146942 0.308411 0.705231
0.215302 0.282806 0.713593
0.511353 0.277710 0.739441
0.826843 0.351898 0.756287
0.895782 0.368744 0.782837
0.167877 0.517700 0.727631
0.197357 0.512787 0.728973
0.425903 0.502777 0.753754
0.780151 0.503082 0.774445
0.910461 0.537476 0.812134
0.239838 0.731628 0.780060
0.270782 0.726685 0.779388
0.396912 0.724335 0.782257
0.731628 0.751129 0.828827
0.945160 0.768738 0.858734
0.302094 0.893250 0.834503
0.334717 0.896759 0.836945
0.394073 0.904175 0.841766
0.643555 0.948975 0.879913
0.968872 0.984406 0.904633
