滤镜资源/Professional Luts Collection/Triune-Digital-Cinematic-LUTs/3D LUTs (CUBE)/LOG/The Book of Eli - LOG.cube
#Created by Benjamin (IWLTBAP) : http://luts.iwltbap.com
#Copyright: (C) Copyright 2016 Triune Films and IWLTBAP
TITLE "Blockbuster LUTs Pack (LOG)"
#LUT size
LUT_3D_SIZE 32
#LUT data points
0.028687 0.027069 0.024780
0.033112 0.027618 0.025299
0.045441 0.029327 0.026459
0.060577 0.031433 0.027405
0.074402 0.033264 0.028778
0.090851 0.033783 0.030060
0.107208 0.035126 0.031586
0.124146 0.037903 0.033936
0.141327 0.040131 0.036072
0.159271 0.041718 0.037140
0.179993 0.044495 0.038025
0.199005 0.047150 0.040833
0.218140 0.049316 0.042389
0.238464 0.052368 0.046936
0.258179 0.055908 0.050110
0.282654 0.060028 0.054138
0.310242 0.064972 0.058624
0.339020 0.071014 0.063385
0.366760 0.075378 0.065613
0.396210 0.078094 0.069183
0.418610 0.081482 0.073120
0.430817 0.083527 0.075256
0.437256 0.084930 0.076294
0.443329 0.086548 0.077332
0.449219 0.088013 0.078369
0.455017 0.089417 0.079468
0.460785 0.090912 0.080627
0.466675 0.092590 0.081818
0.472534 0.094299 0.083069
0.478424 0.095886 0.084961
0.484375 0.097382 0.086731
0.490295 0.098267 0.088287
0.031403 0.032227 0.026703
0.034882 0.032745 0.027130
0.045532 0.034149 0.028137
0.060608 0.036255 0.028778
0.074890 0.037811 0.030182
0.091187 0.038483 0.031433
0.107330 0.039429 0.032745
0.124390 0.042114 0.035004
0.141693 0.044525 0.037354
0.160370 0.046234 0.038574
0.180237 0.049133 0.040161
0.199249 0.052032 0.042145
0.218567 0.054108 0.043793
0.238770 0.056763 0.048340
0.258698 0.060150 0.051819
0.283081 0.064331 0.055725
0.310547 0.069580 0.060303
0.339386 0.075470 0.065369
0.367584 0.080078 0.067505
0.397797 0.083496 0.071167
0.421387 0.086975 0.075134
0.435303 0.089355 0.077698
0.441162 0.090790 0.078857
0.447205 0.092316 0.079865
0.453186 0.093719 0.080811
0.459045 0.095215 0.081909
0.464935 0.096924 0.083160
0.470856 0.098572 0.084412
0.476837 0.100311 0.086090
0.482635 0.101868 0.087860
0.488617 0.103241 0.089569
0.494843 0.104065 0.091187
0.037933 0.045685 0.031555
0.041107 0.045288 0.031586
0.048828 0.045410 0.031982
0.063141 0.046173 0.032013
0.077209 0.045776 0.032684
0.092499 0.044708 0.033264
0.108063 0.044189 0.034088
0.124634 0.046478 0.036285
0.141571 0.048889 0.038696
0.160583 0.051239 0.040771
0.180298 0.054169 0.042755
0.199341 0.056915 0.043823
0.218414 0.058655 0.045044
0.238800 0.061310 0.049500
0.259460 0.064697 0.053802
0.283325 0.068604 0.057190
0.310333 0.073883 0.061768
0.340088 0.079987 0.067047
0.368347 0.084778 0.070099
0.398926 0.088776 0.074005
0.424133 0.092468 0.077118
0.439148 0.095154 0.080139
0.445099 0.096588 0.081329
0.451080 0.098022 0.082275
0.457031 0.099396 0.083221
0.462952 0.100769 0.084229
0.468964 0.102661 0.085541
0.474945 0.104431 0.086975
0.480988 0.106171 0.088928
0.486908 0.107727 0.090790
0.492889 0.108948 0.092407
0.499115 0.109802 0.094086
0.045410 0.064178 0.037415
0.048615 0.063538 0.037384
0.053619 0.062714 0.037384
0.065796 0.061432 0.037079
0.080658 0.061157 0.037781
0.096741 0.061340 0.039185
0.112396 0.060791 0.040009
0.128235 0.060059 0.041107
0.143799 0.059998 0.042664
0.161407 0.059845 0.044159
0.179993 0.060852 0.046082
0.198029 0.061401 0.045929
0.217194 0.063171 0.046539
0.238068 0.066040 0.050690
0.258972 0.068878 0.055511
0.281830 0.072357 0.058258
0.308655 0.077698 0.062622
0.338928 0.083618 0.067688
0.367493 0.089294 0.072601
0.398102 0.093781 0.076843
0.426575 0.097839 0.079071
0.442871 0.100739 0.082458
0.448761 0.102234 0.083557
0.454712 0.103638 0.084503
0.460632 0.104980 0.085480
0.466675 0.106476 0.086548
0.472687 0.108276 0.087799
0.478912 0.110107 0.089630
0.485138 0.111816 0.091827
0.491150 0.113403 0.093628
0.497131 0.114532 0.095215
0.503418 0.115387 0.096893
0.052216 0.080597 0.041931
0.055542 0.080139 0.041992
0.058655 0.079468 0.041962
0.069092 0.078613 0.042267
0.084076 0.077820 0.043671
0.100250 0.078278 0.044739
0.115936 0.077942 0.045624
0.131714 0.077759 0.047394
0.147797 0.077576 0.049286
0.165436 0.077484 0.051056
0.183319 0.077454 0.052643
0.202209 0.078125 0.054016
0.219849 0.077393 0.052399
0.239655 0.077667 0.053558
0.259186 0.076752 0.057648
0.280579 0.076660 0.059509
0.307587 0.082489 0.064209
0.336761 0.086853 0.068085
0.366333 0.093292 0.074097
0.396759 0.098389 0.079315
0.426300 0.102722 0.080505
0.446289 0.106110 0.084625
0.452393 0.107758 0.085815
0.458374 0.109314 0.086823
0.464417 0.110840 0.087830
0.470551 0.112396 0.089020
0.476776 0.114105 0.090210
0.483337 0.115814 0.092346
0.489838 0.117493 0.094452
0.496094 0.119019 0.096375
0.502228 0.119995 0.097839
0.508606 0.120880 0.099365
0.057678 0.096375 0.046539
0.061127 0.096527 0.047302
0.064575 0.096222 0.047577
0.071594 0.095825 0.048065
0.085388 0.095367 0.049255
0.101044 0.094391 0.050201
0.117523 0.094604 0.051239
0.134277 0.096008 0.053467
0.149719 0.094910 0.054718
0.166992 0.094055 0.055389
0.184906 0.094421 0.057190
0.204285 0.095520 0.060333
0.223297 0.096222 0.060059
0.243103 0.096863 0.059814
0.264221 0.097870 0.063904
0.289001 0.098816 0.067200
0.314453 0.101349 0.070679
0.340485 0.100098 0.070312
0.369232 0.104126 0.076782
0.399139 0.108704 0.084686
0.430634 0.111694 0.085052
0.450348 0.112488 0.087158
0.456024 0.113251 0.088165
0.462250 0.114868 0.089539
0.468384 0.116516 0.090851
0.474518 0.118164 0.092224
0.481323 0.119751 0.093262
0.488373 0.121399 0.094788
0.494934 0.123138 0.096924
0.501251 0.124603 0.098907
0.507568 0.125519 0.100433
0.513977 0.126404 0.102020
0.062012 0.111115 0.049194
0.065277 0.111298 0.050079
0.068604 0.111450 0.050934
0.071930 0.111206 0.051697
0.086884 0.112915 0.054749
0.101837 0.111084 0.054932
0.118103 0.110596 0.056244
0.135101 0.112579 0.059021
0.152344 0.114655 0.061676
0.169342 0.113129 0.061310
0.186066 0.111145 0.061249
0.205109 0.111237 0.063812
0.224579 0.113495 0.066711
0.244659 0.114777 0.067230
0.267090 0.116028 0.068115
0.292755 0.117432 0.071381
0.317474 0.119354 0.074615
0.344910 0.119263 0.075897
0.375671 0.122437 0.080475
0.408264 0.129456 0.091766
0.440063 0.131622 0.093689
0.463409 0.133026 0.098328
0.468567 0.131683 0.098541
0.472626 0.130096 0.098328
0.477600 0.129761 0.098633
0.483978 0.130371 0.099060
0.490631 0.131165 0.099609
0.497314 0.131744 0.100037
0.503418 0.132324 0.101013
0.508698 0.132629 0.102356
0.514984 0.133362 0.103943
0.521545 0.134399 0.105347
0.064728 0.125397 0.050385
0.068298 0.125916 0.051514
0.071777 0.126190 0.052490
0.074982 0.125793 0.053314
0.084808 0.127380 0.056519
0.102997 0.128662 0.059906
0.119049 0.127747 0.060608
0.135559 0.128693 0.062469
0.153229 0.131439 0.065704
0.171112 0.131683 0.067596
0.187683 0.129639 0.067078
0.206940 0.129547 0.068817
0.226837 0.131866 0.072266
0.247437 0.133026 0.074341
0.269135 0.134155 0.074615
0.293182 0.134003 0.074921
0.319611 0.136627 0.078857
0.349030 0.140778 0.083221
0.379089 0.142487 0.085754
0.413391 0.148010 0.093140
0.446106 0.151611 0.100616
0.473389 0.154938 0.107422
0.483002 0.154694 0.109222
0.488068 0.152618 0.109711
0.493805 0.151367 0.109558
0.501007 0.152069 0.110321
0.507874 0.152527 0.110748
0.514526 0.152985 0.111267
0.520874 0.153168 0.111542
0.526398 0.153137 0.111572
0.532379 0.154236 0.112213
0.538788 0.155518 0.113220
0.068573 0.140808 0.053711
0.071808 0.140472 0.053192
0.075073 0.140289 0.053314
0.078400 0.140137 0.054321
0.081757 0.140045 0.055328
0.101501 0.143433 0.060486
0.118927 0.143860 0.062897
0.135773 0.145264 0.064209
0.153381 0.148071 0.067291
0.171875 0.149475 0.070190
0.189972 0.149536 0.073120
0.209442 0.149567 0.075104
0.230133 0.150574 0.076843
0.250671 0.151886 0.078979
0.271606 0.152832 0.081573
0.297455 0.154144 0.082947
0.324005 0.156250 0.085602
0.351105 0.158783 0.090576
0.383514 0.163940 0.093628
0.417419 0.168671 0.100403
0.451263 0.173370 0.110077
0.482666 0.177338 0.114258
0.497772 0.177002 0.118286
0.503052 0.175079 0.119171
0.508209 0.172913 0.120087
0.514984 0.173004 0.121155
0.522247 0.173737 0.121613
0.529388 0.174591 0.122162
0.535919 0.175537 0.122620
0.541229 0.175934 0.122528
0.547455 0.177368 0.122803
0.553650 0.178955 0.123230
0.073181 0.158081 0.060303
0.076813 0.158173 0.060211
0.080444 0.158142 0.060120
0.083710 0.157501 0.059723
0.086945 0.156586 0.059052
0.100311 0.158051 0.061310
0.118591 0.160034 0.064697
0.136505 0.162506 0.066833
0.153595 0.165039 0.069916
0.171387 0.165985 0.072571
0.190460 0.167572 0.076660
0.211060 0.169983 0.080292
0.231476 0.170715 0.082336
0.253052 0.170380 0.082520
0.276215 0.173431 0.086365
0.305115 0.176514 0.089722
0.330994 0.177917 0.094971
0.358246 0.182617 0.104950
0.389648 0.186584 0.103546
0.421509 0.190918 0.109863
0.457520 0.195648 0.119781
0.492950 0.200897 0.121735
0.512695 0.200989 0.125061
0.518036 0.199005 0.126007
0.523438 0.197021 0.127045
0.529816 0.196655 0.128448
0.535278 0.195984 0.129150
0.541443 0.195770 0.129822
0.548065 0.196564 0.130066
0.554169 0.197296 0.130127
0.560547 0.199005 0.130371
0.567017 0.200531 0.130798
0.079926 0.178375 0.067963
0.083649 0.178436 0.067657
0.087372 0.178528 0.067322
0.090881 0.178070 0.066986
0.094360 0.177307 0.066406
0.101929 0.176788 0.066376
0.120575 0.180023 0.070038
0.138824 0.182495 0.072998
0.155243 0.183716 0.076630
0.173187 0.186005 0.079865
0.190521 0.186310 0.080933
0.211304 0.188293 0.085022
0.231232 0.189636 0.086578
0.254944 0.191559 0.089142
0.278564 0.192322 0.089722
0.309296 0.197174 0.095184
0.339478 0.201660 0.103363
0.367645 0.207245 0.115417
0.399902 0.214417 0.116791
0.428711 0.216431 0.121399
0.464294 0.220337 0.128601
0.501373 0.224609 0.130157
0.530518 0.227661 0.133026
0.535736 0.225861 0.133575
0.540375 0.223511 0.133911
0.545532 0.222382 0.134491
0.551331 0.221588 0.135223
0.557190 0.221100 0.136078
0.563232 0.220886 0.136993
0.569214 0.220856 0.137421
0.576569 0.222382 0.138580
0.584229 0.225067 0.140503
0.088043 0.199677 0.073456
0.091431 0.199677 0.073883
0.095062 0.199921 0.074524
0.098633 0.199677 0.074432
0.102173 0.199310 0.074524
0.105347 0.198212 0.074341
0.122284 0.200897 0.076721
0.141541 0.203613 0.079285
0.158386 0.205536 0.085083
0.175537 0.207153 0.088593
0.192902 0.207153 0.089417
0.212311 0.208496 0.090454
0.234589 0.212036 0.094116
0.258850 0.216217 0.098907
0.283325 0.217163 0.100220
0.314056 0.222656 0.106689
0.346344 0.228210 0.115204
0.377655 0.232880 0.123291
0.409943 0.241272 0.129120
0.439819 0.244598 0.134979
0.476715 0.249573 0.139526
0.514771 0.253784 0.143463
0.548889 0.259735 0.149963
0.557098 0.258820 0.151001
0.562469 0.257629 0.151459
0.567719 0.256104 0.151855
0.573669 0.256042 0.152985
0.579071 0.255859 0.153595
0.584198 0.255188 0.153870
0.589355 0.254608 0.154053
0.596069 0.256195 0.155670
0.603394 0.258362 0.157593
0.097046 0.221588 0.079132
0.100464 0.221802 0.079498
0.103851 0.221954 0.079803
0.107330 0.221741 0.080688
0.110931 0.221558 0.081635
0.114441 0.221161 0.082550
0.125214 0.222229 0.084167
0.144592 0.225647 0.087555
0.164124 0.229858 0.095154
0.180573 0.230164 0.096771
0.199036 0.231750 0.096405
0.217285 0.231964 0.097290
0.238892 0.234894 0.101501
0.263000 0.238953 0.106354
0.289307 0.244171 0.112183
0.319672 0.249481 0.117615
0.351196 0.256256 0.126526
0.385620 0.262512 0.134583
0.418457 0.267883 0.137573
0.452148 0.271362 0.143585
0.489960 0.279083 0.149750
0.530151 0.287415 0.158936
0.568451 0.295776 0.167603
0.580688 0.296631 0.170593
0.585907 0.294250 0.171173
0.590332 0.292358 0.171600
0.595947 0.292145 0.172485
0.601715 0.292511 0.173737
0.607483 0.292725 0.175018
0.613129 0.292755 0.176056
0.619751 0.294678 0.178253
0.626617 0.297119 0.180908
0.107178 0.244690 0.086884
0.110779 0.244965 0.087738
0.114380 0.245148 0.088684
0.117859 0.245056 0.089569
0.121399 0.245026 0.090546
0.124878 0.244629 0.091400
0.128967 0.244537 0.092773
0.147827 0.248596 0.099274
0.167084 0.252991 0.105072
0.185699 0.256561 0.106934
0.202820 0.257263 0.105530
0.222595 0.258148 0.107391
0.242737 0.260529 0.110260
0.266968 0.264008 0.114899
0.293304 0.270142 0.120880
0.325928 0.276947 0.128418
0.357513 0.284454 0.137787
0.390472 0.291870 0.145691
0.427521 0.296844 0.147583
0.464783 0.302368 0.155212
0.503326 0.311981 0.160583
0.547272 0.326385 0.177979
0.585815 0.334412 0.187103
0.602844 0.336060 0.192322
0.611694 0.335541 0.195038
0.615936 0.332794 0.194489
0.620972 0.331909 0.194855
0.626465 0.332092 0.196259
0.632202 0.332672 0.198059
0.637787 0.333191 0.199615
0.644867 0.336029 0.202789
0.651764 0.338959 0.205841
0.111023 0.272339 0.098389
0.114441 0.272919 0.099548
0.117889 0.273560 0.100677
0.121216 0.273712 0.101624
0.124573 0.273590 0.102386
0.127960 0.272583 0.102814
0.131500 0.271637 0.103516
0.143341 0.273376 0.107147
0.162567 0.275635 0.110046
0.183289 0.281677 0.115082
0.204376 0.286865 0.118256
0.223694 0.286957 0.118164
0.246124 0.287537 0.122040
0.272034 0.292419 0.129456
0.297882 0.297546 0.130676
0.329987 0.303558 0.136841
0.362335 0.312408 0.150879
0.396149 0.321594 0.158600
0.435455 0.328583 0.158905
0.477692 0.336273 0.168671
0.516815 0.346649 0.176544
0.561737 0.362549 0.196960
0.600494 0.372742 0.210632
0.629608 0.380371 0.221375
0.640350 0.381104 0.224243
0.644684 0.379456 0.224487
0.651093 0.380432 0.226624
0.657684 0.381683 0.228973
0.664062 0.382812 0.231140
0.669495 0.383118 0.232574
0.675079 0.384125 0.234039
0.680817 0.385498 0.235352
0.114929 0.299927 0.108093
0.118286 0.300751 0.109406
0.121552 0.301392 0.110474
0.124756 0.301575 0.111450
0.128052 0.301636 0.112427
0.131256 0.301086 0.113220
0.134369 0.300110 0.113495
0.137543 0.298950 0.113800
0.157440 0.301056 0.117126
0.180084 0.307404 0.122192
0.201508 0.313873 0.126953
0.227325 0.317108 0.131836
0.250671 0.319397 0.137115
0.276611 0.325256 0.144409
0.303131 0.328918 0.146362
0.332306 0.330200 0.144379
0.367065 0.341583 0.159119
0.403809 0.351257 0.169830
0.445129 0.361816 0.174438
0.488007 0.371857 0.186401
0.534027 0.386871 0.200378
0.573364 0.396759 0.214783
0.616486 0.411438 0.231201
0.650208 0.420654 0.242676
0.666687 0.424286 0.248566
0.671173 0.422668 0.249329
0.677521 0.423859 0.251526
0.682678 0.423859 0.252747
0.687866 0.423920 0.253998
0.692566 0.423462 0.254913
0.698181 0.424988 0.256927
0.704254 0.426849 0.258606
0.114929 0.329742 0.115875
0.118195 0.329376 0.115723
0.121490 0.328918 0.115570
0.124878 0.329468 0.116760
0.128143 0.329407 0.117859
0.131592 0.328552 0.118347
0.135010 0.327515 0.118896
0.138397 0.326355 0.119690
0.152588 0.328491 0.124146
0.173248 0.332581 0.128418
0.201752 0.344513 0.135010
0.230988 0.349548 0.141083
0.258240 0.353607 0.148346
0.284912 0.358856 0.154968
0.313293 0.362915 0.160248
0.342712 0.364990 0.159607
0.377350 0.374878 0.168915
0.416748 0.384552 0.178040
0.455627 0.393921 0.187836
0.499908 0.407318 0.203369
0.544434 0.422760 0.219391
0.586151 0.436310 0.236694
0.631561 0.449951 0.252045
0.666687 0.460632 0.263947
0.690308 0.468292 0.274323
0.694702 0.466187 0.273956
0.700012 0.465851 0.274719
0.705658 0.466034 0.275726
0.711212 0.466705 0.277527
0.716217 0.466522 0.278656
0.722443 0.469086 0.282318
0.728516 0.471558 0.285858
0.112915 0.359222 0.126678
0.116180 0.358459 0.126282
0.119476 0.357819 0.126007
0.123108 0.357147 0.125824
0.127808 0.356689 0.125763
0.132507 0.355713 0.125519
0.137146 0.354828 0.125610
0.140228 0.353424 0.125977
0.148529 0.354279 0.128601
0.171722 0.359039 0.135559
0.203278 0.370361 0.142670
0.236816 0.379791 0.150452
0.268036 0.388702 0.158203
0.296051 0.395386 0.166107
0.325867 0.398132 0.170868
0.355713 0.401978 0.176544
0.388580 0.409058 0.184479
0.429138 0.422455 0.194855
0.468536 0.430817 0.204956
0.512360 0.442078 0.216522
0.554932 0.456757 0.233917
0.596649 0.469604 0.249268
0.642914 0.485229 0.268555
0.682953 0.500824 0.286896
0.710968 0.509247 0.298370
0.717834 0.508636 0.299927
0.722717 0.507721 0.300415
0.727661 0.507935 0.301758
0.732574 0.508301 0.303131
0.737762 0.509216 0.305023
0.743896 0.511932 0.308533
0.749817 0.514526 0.312073
0.109985 0.388611 0.138763
0.113647 0.388153 0.138763
0.118134 0.387939 0.138763
0.122528 0.387512 0.138641
0.127075 0.387085 0.138519
0.131622 0.385956 0.138123
0.136566 0.385223 0.138214
0.141815 0.384583 0.138794
0.147125 0.383820 0.139252
0.171082 0.388641 0.144562
0.202972 0.395538 0.150330
0.238312 0.406860 0.157227
0.273804 0.420593 0.171173
0.306488 0.430267 0.184296
0.340271 0.435822 0.187683
0.369751 0.439606 0.193634
0.401062 0.444885 0.201050
0.440643 0.455994 0.210754
0.482574 0.465027 0.221344
0.522858 0.475006 0.231262
0.564819 0.490723 0.249023
0.607544 0.504028 0.265717
0.651215 0.517975 0.284058
0.695221 0.537354 0.305847
0.726807 0.546082 0.321320
0.738281 0.548370 0.326019
0.743073 0.548157 0.327087
0.748383 0.549194 0.329102
0.753418 0.549622 0.330658
0.758881 0.550842 0.333344
0.765259 0.554016 0.337433
0.770844 0.555908 0.340057
0.129425 0.421051 0.150787
0.132843 0.420685 0.150665
0.136230 0.420319 0.150604
0.139557 0.419861 0.150482
0.143066 0.419525 0.150604
0.146454 0.418823 0.150604
0.150604 0.417755 0.150330
0.154816 0.416931 0.150635
0.158997 0.415985 0.150940
0.174316 0.417694 0.153595
0.203308 0.423370 0.159302
0.237823 0.434601 0.165527
0.277588 0.449097 0.178375
0.316925 0.461121 0.194702
0.350616 0.468353 0.203918
0.385315 0.477325 0.211578
0.420380 0.485413 0.220520
0.454529 0.491730 0.228180
0.494843 0.500061 0.238464
0.537567 0.513672 0.253265
0.579468 0.527344 0.270172
0.620728 0.540466 0.287689
0.661072 0.552155 0.303070
0.701263 0.568054 0.322754
0.739838 0.583496 0.347260
0.757172 0.589386 0.355804
0.763031 0.589722 0.357605
0.769379 0.591278 0.360138
0.774506 0.592041 0.361786
0.778687 0.591675 0.362671
0.783478 0.592957 0.364502
0.788483 0.594299 0.366638
0.136688 0.455414 0.160034
0.140503 0.455414 0.160248
0.144257 0.455231 0.160431
0.148010 0.454834 0.160553
0.151794 0.454529 0.160614
0.155670 0.453705 0.160614
0.159637 0.452515 0.160431
0.164917 0.450867 0.160980
0.170959 0.449249 0.162018
0.179199 0.447968 0.163574
0.203430 0.452240 0.168732
0.237427 0.458649 0.174194
0.279022 0.472961 0.185699
0.325348 0.491455 0.203430
0.364899 0.504791 0.219849
0.404053 0.518311 0.233673
0.436859 0.524261 0.241455
0.472076 0.531830 0.251709
0.512115 0.542175 0.265717
0.551117 0.550293 0.276520
0.595886 0.566589 0.296478
0.635529 0.578522 0.311859
0.671143 0.587311 0.324646
0.708801 0.599945 0.340973
0.747284 0.613586 0.363159
0.772064 0.623138 0.375854
0.777161 0.622894 0.377258
0.782501 0.623840 0.379517
0.787689 0.624664 0.381561
0.792542 0.625000 0.383087
0.798035 0.626862 0.385590
0.803650 0.629028 0.388428
0.137482 0.487579 0.172516
0.140991 0.487152 0.171417
0.144836 0.487091 0.170563
0.148956 0.487244 0.169739
0.153290 0.486938 0.169556
0.157684 0.486145 0.169495
0.163239 0.485962 0.170197
0.168060 0.484589 0.170929
0.172180 0.482727 0.171326
0.177612 0.480713 0.171997
0.198792 0.480133 0.176849
0.238647 0.487885 0.185272
0.278839 0.498016 0.194489
0.325439 0.515930 0.212067
0.376862 0.539276 0.234619
0.417755 0.552155 0.249481
0.453522 0.562408 0.267059
0.492828 0.571472 0.279541
0.533142 0.581879 0.292969
0.569092 0.589386 0.303894
0.607117 0.600067 0.317230
0.646118 0.610809 0.331268
0.679932 0.619110 0.343903
0.714722 0.629486 0.358917
0.752167 0.641022 0.377228
0.782593 0.653259 0.395660
0.790344 0.654633 0.398804
0.795685 0.656097 0.401031
0.800873 0.657440 0.403259
0.805939 0.658173 0.405151
0.811310 0.660309 0.408051
0.817108 0.662170 0.410706
0.169403 0.521088 0.188751
0.174133 0.521118 0.188843
0.179138 0.521088 0.189240
0.183807 0.520844 0.189392
0.188049 0.520264 0.189331
0.192047 0.519470 0.189087
0.195404 0.518219 0.188477
0.198364 0.516876 0.188263
0.201172 0.515533 0.188019
0.204590 0.514191 0.188324
0.209381 0.512787 0.189240
0.249359 0.520050 0.199158
0.287659 0.529236 0.206787
0.326630 0.540863 0.222168
0.380249 0.565277 0.249573
0.429993 0.583038 0.266846
0.473602 0.598877 0.290680
0.514984 0.607819 0.304626
0.550446 0.616608 0.316650
0.584381 0.623474 0.327332
0.618439 0.631866 0.338074
0.654785 0.642548 0.351562
0.689545 0.650391 0.364258
0.722900 0.658600 0.378357
0.757690 0.669159 0.395416
0.792603 0.684265 0.416443
0.803650 0.687469 0.422211
0.808990 0.688263 0.424103
0.813965 0.689178 0.425934
0.819397 0.690002 0.428040
0.824829 0.691895 0.430878
0.830078 0.693787 0.433502
0.193115 0.551788 0.206116
0.197784 0.551697 0.206390
0.202393 0.551605 0.206696
0.206879 0.551331 0.206879
0.211548 0.551147 0.207245
0.215363 0.550140 0.206818
0.219482 0.549469 0.206848
0.223511 0.548767 0.207306
0.227539 0.548035 0.207794
0.231842 0.547516 0.208282
0.235657 0.546600 0.208527
0.261993 0.553009 0.216553
0.297119 0.560638 0.225861
0.333313 0.569061 0.236694
0.381439 0.587891 0.259918
0.439484 0.612946 0.285950
0.492523 0.634766 0.314545
0.534454 0.646667 0.333679
0.569489 0.655914 0.344757
0.600494 0.659790 0.349060
0.632324 0.666077 0.360077
0.665649 0.675598 0.374054
0.698120 0.682404 0.385681
0.732697 0.692200 0.402496
0.764252 0.698944 0.413910
0.797455 0.710999 0.431000
0.813599 0.716492 0.440765
0.821167 0.717896 0.444275
0.826233 0.718689 0.446442
0.831268 0.719513 0.448334
0.836548 0.721161 0.450745
0.841553 0.722626 0.452881
0.216858 0.583313 0.224518
0.221222 0.582977 0.224701
0.225708 0.582672 0.224976
0.230316 0.582550 0.225555
0.235260 0.582642 0.226562
0.240601 0.583252 0.227478
0.245575 0.583557 0.227936
0.249359 0.582855 0.228088
0.253021 0.582001 0.228088
0.256775 0.581238 0.228302
0.260742 0.580566 0.228577
0.272369 0.582733 0.231842
0.306519 0.590088 0.242310
0.340576 0.596222 0.250549
0.383057 0.609253 0.268005
0.442413 0.637268 0.298553
0.497589 0.661072 0.332214
0.546875 0.681091 0.356750
0.584473 0.692383 0.371124
0.614075 0.697510 0.378632
0.645935 0.703278 0.386963
0.676086 0.708710 0.395782
0.707275 0.714600 0.406342
0.740173 0.723053 0.422333
0.771027 0.731659 0.435516
0.803223 0.740021 0.448639
0.825378 0.747040 0.460419
0.835083 0.748444 0.464508
0.839386 0.748779 0.466217
0.843689 0.748932 0.467804
0.848724 0.750580 0.470459
0.853729 0.752167 0.473145
0.227814 0.596222 0.232941
0.232605 0.596771 0.233582
0.238007 0.597656 0.234802
0.243683 0.598877 0.236023
0.249481 0.600372 0.237091
0.255707 0.602173 0.238495
0.261688 0.603790 0.239777
0.267303 0.604980 0.240936
0.272430 0.605927 0.242096
0.277039 0.606293 0.242889
0.281738 0.606720 0.243683
0.286804 0.607452 0.244843
0.314331 0.612915 0.253418
0.352325 0.623627 0.266968
0.394135 0.637299 0.283386
0.444977 0.658142 0.309967
0.500793 0.683594 0.340820
0.558441 0.712250 0.375763
0.599609 0.726776 0.395782
0.629791 0.733124 0.406067
0.658661 0.738281 0.413452
0.687347 0.742828 0.421844
0.715302 0.746002 0.429504
0.745636 0.752625 0.441315
0.777924 0.760834 0.454315
0.807648 0.770111 0.469238
0.833313 0.776794 0.480713
0.847107 0.779388 0.486633
0.851501 0.779419 0.488007
0.855499 0.779419 0.489166
0.860321 0.781708 0.491821
0.865173 0.784088 0.494476
0.233704 0.602966 0.237305
0.238586 0.603699 0.238129
0.243683 0.604767 0.239319
0.249512 0.606262 0.240570
0.255310 0.607758 0.241821
0.261108 0.609253 0.243011
0.267120 0.610901 0.244476
0.273163 0.612671 0.246124
0.279022 0.614349 0.248047
0.284698 0.615936 0.249817
0.289978 0.617188 0.251221
0.295624 0.618591 0.252930
0.312683 0.621826 0.258301
0.349823 0.632019 0.272278
0.392670 0.647736 0.288513
0.439697 0.666321 0.310883
0.494019 0.691223 0.340637
0.551971 0.720795 0.376251
0.599396 0.742004 0.403381
0.636017 0.754211 0.421814
0.663879 0.760620 0.430756
0.692352 0.767395 0.440399
0.721436 0.771393 0.450317
0.751068 0.778473 0.459961
0.784363 0.788147 0.474640
0.812988 0.796448 0.486237
0.842529 0.806091 0.499939
0.860840 0.810425 0.506714
0.865509 0.811279 0.508728
0.869720 0.811615 0.510254
0.874298 0.813324 0.512756
0.879028 0.815247 0.515350
0.241272 0.610687 0.242920
0.246307 0.611481 0.243866
0.251129 0.612732 0.245117
0.255890 0.613922 0.246277
0.261292 0.615326 0.247528
0.267120 0.616821 0.248749
0.272705 0.618134 0.249695
0.278656 0.619690 0.251282
0.284546 0.621399 0.253204
0.290466 0.623230 0.255280
0.296204 0.624878 0.257050
0.301971 0.626434 0.258972
0.315002 0.629089 0.263214
0.347931 0.637573 0.275757
0.391296 0.653717 0.292084
0.436676 0.672272 0.312469
0.488922 0.696045 0.340637
