滤镜资源/Professional Luts Collection/Triune-Digital-Cinematic-LUTs/3D LUTs (CUBE)/LOG/The Walking Dead - LOG.cube
#Created by Benjamin (IWLTBAP) : http://luts.iwltbap.com
#Copyright: (C) Copyright 2016 Triune Films and IWLTBAP
TITLE "Blockbuster LUTs Pack (LOG)"
#LUT size
LUT_3D_SIZE 32
#LUT data points
0.011322 0.012421 0.017670
0.017303 0.012360 0.017395
0.038391 0.012848 0.016998
0.080658 0.017548 0.021423
0.131348 0.024414 0.027985
0.185455 0.031403 0.034973
0.228882 0.037201 0.041199
0.265198 0.042358 0.046997
0.310486 0.049103 0.054108
0.364166 0.056854 0.062195
0.424377 0.066284 0.071808
0.484314 0.076019 0.081573
0.539825 0.084473 0.090485
0.591400 0.095062 0.097839
0.644897 0.105286 0.105652
0.694733 0.116119 0.112976
0.742523 0.124512 0.119568
0.791138 0.133209 0.126831
0.838837 0.142609 0.133942
0.884003 0.149017 0.140472
0.911835 0.153625 0.146545
0.920502 0.155884 0.150055
0.925140 0.156677 0.151550
0.929718 0.157440 0.152924
0.934265 0.158234 0.154541
0.938599 0.158966 0.155823
0.942871 0.159668 0.157043
0.947174 0.160431 0.158356
0.951355 0.161072 0.159393
0.955475 0.161560 0.160431
0.959564 0.162109 0.161499
0.963654 0.162659 0.162506
0.012024 0.017853 0.017792
0.016602 0.017883 0.017700
0.033386 0.017944 0.016998
0.072449 0.021820 0.020508
0.122986 0.028412 0.027008
0.177826 0.035431 0.033997
0.225006 0.041565 0.040558
0.261963 0.046814 0.046387
0.305054 0.053284 0.053345
0.359039 0.061066 0.061340
0.418365 0.070251 0.070831
0.477631 0.079865 0.080353
0.532928 0.090973 0.088715
0.584686 0.101593 0.096130
0.638733 0.111298 0.104004
0.688965 0.122131 0.111420
0.736877 0.130615 0.118073
0.785522 0.139008 0.125214
0.833527 0.148438 0.132385
0.879211 0.155090 0.139008
0.908600 0.159851 0.145050
0.919067 0.162476 0.149017
0.923767 0.163239 0.150604
0.928436 0.164032 0.152039
0.932892 0.164764 0.153534
0.937256 0.165558 0.154816
0.941589 0.166290 0.156067
0.945892 0.166992 0.157379
0.950104 0.167633 0.158478
0.954224 0.168213 0.159454
0.958344 0.168732 0.160553
0.962433 0.169250 0.161530
0.013641 0.032715 0.018188
0.018158 0.031586 0.018097
0.028381 0.030212 0.017670
0.061859 0.031219 0.018982
0.113892 0.035706 0.025665
0.169067 0.041107 0.032990
0.219238 0.045990 0.039673
0.261322 0.051514 0.046082
0.300903 0.057648 0.052643
0.353271 0.065155 0.060455
0.411652 0.074066 0.069641
0.470306 0.085297 0.078735
0.525574 0.097229 0.086945
0.577698 0.107605 0.094421
0.631836 0.117157 0.102203
0.682953 0.127991 0.109863
0.731140 0.136688 0.116638
0.779663 0.144653 0.123657
0.827820 0.154144 0.130859
0.873871 0.160919 0.137512
0.905365 0.165955 0.143799
0.917694 0.168915 0.148132
0.922394 0.169739 0.149658
0.927155 0.170532 0.151276
0.931610 0.171265 0.152710
0.935974 0.172058 0.153961
0.940308 0.172791 0.155273
0.944611 0.173492 0.156494
0.948853 0.174133 0.157562
0.952972 0.174713 0.158539
0.957123 0.175293 0.159607
0.961182 0.175812 0.160553
0.013794 0.055542 0.018433
0.018188 0.054108 0.018433
0.024994 0.052368 0.018433
0.043854 0.047638 0.017761
0.095764 0.050385 0.022400
0.154114 0.055756 0.030640
0.209351 0.060425 0.038239
0.260529 0.065094 0.045776
0.297028 0.068665 0.051880
0.345245 0.073303 0.059296
0.402039 0.080170 0.067993
0.460754 0.091583 0.076782
0.515015 0.102539 0.084625
0.567566 0.112915 0.092285
0.621887 0.122437 0.100067
0.673920 0.132996 0.107971
0.722626 0.142212 0.114899
0.770813 0.149841 0.121704
0.819397 0.159088 0.128937
0.865662 0.166260 0.135651
0.901581 0.171875 0.142303
0.916229 0.175232 0.147064
0.920990 0.176056 0.148590
0.925720 0.176880 0.150116
0.930145 0.177673 0.151459
0.934601 0.178375 0.152740
0.938934 0.179138 0.153961
0.943298 0.179840 0.155304
0.947510 0.180511 0.156342
0.951599 0.181091 0.157257
0.955750 0.181702 0.158325
0.959839 0.182281 0.159302
0.013641 0.086334 0.018829
0.018005 0.085205 0.018768
0.022369 0.083954 0.018707
0.036499 0.081665 0.018646
0.067200 0.078094 0.018372
0.129364 0.079956 0.024933
0.190399 0.084351 0.033997
0.249847 0.088531 0.042969
0.290649 0.094452 0.049255
0.334656 0.100952 0.055878
0.389648 0.107056 0.064026
0.448669 0.116119 0.072784
0.502197 0.122070 0.080872
0.554932 0.128235 0.088898
0.610077 0.133575 0.097229
0.664520 0.138824 0.105957
0.713654 0.147339 0.112976
0.761505 0.154938 0.119598
0.810822 0.163910 0.126984
0.857330 0.171692 0.133698
0.895020 0.177246 0.140076
0.914795 0.181519 0.146027
0.919617 0.182312 0.147552
0.924316 0.183167 0.149017
0.928802 0.183899 0.150391
0.933167 0.184631 0.151550
0.937561 0.185364 0.152771
0.941925 0.186096 0.154053
0.946167 0.186768 0.155090
0.950256 0.187347 0.155945
0.954315 0.187988 0.156921
0.958466 0.188568 0.157959
0.013275 0.117035 0.019409
0.017487 0.115997 0.019196
0.021790 0.114807 0.019073
0.030518 0.113037 0.018829
0.051819 0.110260 0.018250
0.096771 0.106903 0.018402
0.159912 0.109711 0.027252
0.224457 0.114380 0.037170
0.279572 0.119995 0.045563
0.324005 0.126617 0.052460
0.375793 0.132996 0.059937
0.432465 0.140472 0.068085
0.487396 0.146820 0.076324
0.540100 0.152466 0.084259
0.594727 0.158722 0.092468
0.649567 0.164581 0.101074
0.700348 0.170715 0.108612
0.748260 0.174469 0.115448
0.798279 0.179352 0.123230
0.846405 0.183594 0.130585
0.888519 0.186737 0.137512
0.913177 0.188873 0.144867
0.918182 0.188568 0.146484
0.922943 0.189331 0.147919
0.927490 0.190094 0.149384
0.931854 0.190826 0.150482
0.936188 0.191559 0.151611
0.940582 0.192261 0.152893
0.944794 0.192993 0.153870
0.948914 0.193604 0.154785
0.952942 0.194183 0.155640
0.957123 0.194733 0.156677
0.013275 0.146942 0.020264
0.017517 0.146210 0.020233
0.021667 0.145203 0.020081
0.025818 0.143372 0.019806
0.043182 0.141907 0.019012
0.074066 0.139282 0.018005
0.126465 0.136139 0.018829
0.190521 0.139648 0.029755
0.256927 0.144775 0.039734
0.306549 0.151672 0.047241
0.358337 0.158234 0.054932
0.415802 0.165314 0.063263
0.471313 0.170776 0.071594
0.524597 0.175995 0.079590
0.578949 0.181549 0.087799
0.632935 0.187103 0.096130
0.684692 0.193420 0.103882
0.733429 0.197937 0.110809
0.782776 0.202393 0.118073
0.831451 0.206573 0.125519
0.875122 0.209900 0.132477
0.906342 0.211639 0.140381
0.912964 0.209137 0.142731
0.918732 0.206390 0.144745
0.923981 0.204651 0.146637
0.928741 0.204254 0.147919
0.933411 0.203949 0.149261
0.938110 0.203400 0.150696
0.942596 0.202972 0.151947
0.946960 0.202393 0.153015
0.951111 0.202881 0.153900
0.955261 0.203400 0.154907
0.013214 0.177429 0.020355
0.017395 0.176849 0.020386
0.021606 0.176056 0.020386
0.025757 0.174164 0.020386
0.036774 0.172821 0.020203
0.057556 0.170807 0.019379
0.101410 0.168457 0.018463
0.155823 0.165100 0.020386
0.220673 0.169037 0.032349
0.286560 0.175415 0.041718
0.339661 0.182648 0.049774
0.398804 0.190216 0.058319
0.453369 0.195465 0.066376
0.506836 0.199921 0.074341
0.561920 0.204712 0.082794
0.614075 0.209686 0.090668
0.665375 0.215454 0.098114
0.715912 0.221161 0.105591
0.764374 0.225372 0.112366
0.813019 0.229218 0.119720
0.858917 0.233704 0.127594
0.896454 0.236298 0.135529
0.905701 0.234253 0.138092
0.911499 0.231537 0.139740
0.917175 0.228973 0.141571
0.922089 0.227966 0.142670
0.926910 0.227112 0.143707
0.931763 0.226196 0.144867
0.936462 0.225098 0.145935
0.941040 0.224152 0.147125
0.945282 0.224640 0.148102
0.949402 0.225128 0.148895
0.014404 0.208069 0.022400
0.018402 0.207672 0.022308
0.022461 0.207092 0.022186
0.026459 0.205353 0.022034
0.030457 0.203552 0.021759
0.050903 0.202393 0.020386
0.082245 0.199219 0.019409
0.129700 0.197083 0.018951
0.186310 0.193909 0.021637
0.252380 0.198792 0.035187
0.316467 0.205872 0.044281
0.379639 0.213470 0.053253
0.437042 0.219482 0.061584
0.490540 0.224182 0.069397
0.544830 0.228455 0.077576
0.595306 0.232391 0.085175
0.645844 0.236816 0.092407
0.696869 0.242523 0.099945
0.745941 0.246948 0.106995
0.794037 0.250946 0.114075
0.841187 0.255554 0.122833
0.882385 0.258667 0.131226
0.898529 0.257751 0.134674
0.904327 0.255341 0.136169
0.910004 0.252869 0.137695
0.914948 0.252075 0.138672
0.919891 0.251373 0.139618
0.924866 0.250427 0.140564
0.929565 0.249634 0.141510
0.934265 0.248779 0.142395
0.938538 0.249115 0.143066
0.942719 0.249573 0.143707
0.017273 0.238251 0.026733
0.021271 0.237885 0.026794
0.025299 0.237427 0.026825
0.029205 0.235992 0.026642
0.032990 0.234467 0.026306
0.046936 0.233368 0.025391
0.066620 0.230835 0.022675
0.109314 0.227386 0.020905
0.160248 0.225464 0.020996
0.217468 0.221405 0.023376
0.287506 0.227661 0.038147
0.356476 0.235992 0.047852
0.418457 0.242706 0.056641
0.474548 0.248169 0.064636
0.528717 0.252747 0.072601
0.579681 0.256134 0.080139
0.628265 0.258911 0.087341
0.678223 0.263580 0.094482
0.727631 0.268829 0.101746
0.775635 0.273529 0.109131
0.823273 0.278259 0.118103
0.868835 0.281708 0.126801
0.891357 0.281616 0.131134
0.897186 0.279083 0.132599
0.902924 0.276337 0.134003
0.908081 0.275421 0.135101
0.913208 0.274750 0.136169
0.918182 0.273987 0.137146
0.922974 0.273193 0.137970
0.927704 0.272461 0.138824
0.932068 0.272827 0.139557
0.936401 0.273254 0.140198
0.020599 0.268463 0.030823
0.024506 0.268036 0.030853
0.028381 0.267578 0.030823
0.032196 0.266052 0.030731
0.035950 0.264404 0.030487
0.044220 0.263000 0.030304
0.062592 0.262146 0.029236
0.091217 0.259033 0.026764
0.138458 0.257874 0.026245
0.192261 0.257965 0.027802
0.257019 0.255981 0.029663
0.328339 0.262512 0.042145
0.395111 0.269928 0.051544
0.455261 0.275696 0.059845
0.511230 0.280853 0.067719
0.564423 0.284851 0.075500
0.612793 0.286804 0.082520
0.659607 0.288727 0.089294
0.708466 0.293518 0.096222
0.756775 0.298859 0.104736
0.804962 0.303528 0.113678
0.851532 0.306458 0.122131
0.884308 0.307465 0.127655
0.890381 0.305054 0.129120
0.896240 0.302460 0.130493
0.901581 0.301331 0.131653
0.906799 0.300568 0.132721
0.911835 0.299744 0.133759
0.916656 0.298950 0.134613
0.921478 0.298126 0.135498
0.925995 0.298553 0.136261
0.930481 0.299072 0.136963
0.023193 0.304077 0.033661
0.027100 0.303711 0.033691
0.030945 0.303253 0.033752
0.034760 0.301941 0.033661
0.038483 0.300507 0.033508
0.042114 0.298248 0.033234
0.058472 0.297699 0.032806
0.079956 0.296387 0.032288
0.112915 0.293793 0.030670
0.165894 0.292908 0.032501
0.224121 0.294373 0.034119
0.300201 0.292877 0.037598
0.369812 0.299072 0.049255
0.432526 0.303833 0.054779
0.490845 0.309601 0.062408
0.545776 0.314087 0.070190
0.597504 0.316681 0.077515
0.644104 0.317322 0.084381
0.689514 0.319580 0.091461
0.737854 0.324524 0.100189
0.786285 0.329651 0.109070
0.833374 0.332184 0.117188
0.872864 0.333557 0.123779
0.883759 0.331635 0.125671
0.889618 0.329163 0.126984
0.895111 0.327698 0.128204
0.900421 0.327148 0.129272
0.905304 0.326447 0.130127
0.910248 0.325592 0.131012
0.915131 0.324829 0.131897
0.919708 0.325348 0.132568
0.924194 0.325867 0.133240
0.026459 0.339691 0.037231
0.030334 0.339447 0.037323
0.034180 0.339172 0.037384
0.037933 0.338074 0.037262
0.041687 0.336761 0.037231
0.045410 0.335022 0.037140
0.056091 0.334290 0.037048
0.074768 0.334381 0.036133
0.096436 0.332886 0.035217
0.133057 0.331085 0.034912
0.192261 0.331299 0.039825
0.264496 0.332642 0.040253
0.343018 0.331360 0.044891
0.409027 0.336731 0.056519
0.469574 0.340790 0.061249
0.525848 0.344269 0.066040
0.580811 0.348297 0.073608
0.630524 0.349518 0.080658
0.675720 0.350433 0.088654
0.720459 0.351746 0.096252
0.768036 0.356018 0.104309
0.814850 0.359100 0.112000
0.860657 0.360413 0.119904
0.875732 0.358765 0.122375
0.883148 0.356323 0.123871
0.888885 0.354614 0.125031
0.894135 0.353851 0.125977
0.899170 0.353180 0.126862
0.904175 0.352478 0.127747
0.909058 0.351746 0.128510
0.913666 0.352295 0.129242
0.918274 0.352936 0.129883
0.030426 0.376740 0.040985
0.034210 0.376587 0.040985
0.037994 0.376160 0.041016
0.041718 0.375366 0.041016
0.045380 0.374237 0.040894
0.048981 0.372498 0.040710
0.053131 0.370483 0.040588
0.072052 0.370819 0.040558
0.092194 0.371002 0.040283
0.113403 0.369659 0.038910
0.158325 0.367157 0.041199
0.229156 0.368652 0.046509
0.311798 0.370148 0.044861
0.383545 0.369202 0.050873
0.446411 0.373199 0.062683
0.505493 0.376587 0.066956
0.562439 0.379913 0.072266
0.616241 0.382111 0.078522
0.663788 0.384186 0.085754
0.707214 0.382660 0.092896
0.751526 0.383545 0.100342
0.797485 0.386261 0.107666
0.843658 0.387970 0.114929
0.865601 0.386627 0.118469
0.876312 0.384338 0.120422
0.882355 0.382202 0.121674
0.887665 0.381531 0.122620
0.892975 0.380829 0.123657
0.898041 0.380035 0.124512
0.903168 0.379395 0.125336
0.907898 0.379944 0.126007
0.912628 0.380615 0.126709
0.034302 0.413055 0.043701
0.038177 0.412781 0.043915
0.042023 0.412506 0.044067
0.045837 0.411743 0.044189
0.049530 0.410797 0.044189
0.053101 0.409027 0.044098
0.056641 0.407104 0.043976
0.068665 0.406494 0.043701
0.088257 0.406738 0.042816
0.110199 0.406830 0.043457
0.131866 0.404053 0.043243
0.192810 0.402710 0.049500
0.278015 0.404968 0.052063
0.354736 0.405243 0.048126
0.422394 0.405029 0.055450
0.483032 0.408722 0.068298
0.542633 0.411591 0.072571
0.598969 0.414398 0.078094
0.649841 0.415955 0.083557
0.696411 0.417389 0.089966
0.738281 0.414551 0.096497
0.781433 0.414612 0.103699
0.826508 0.415863 0.110565
0.857056 0.415955 0.115356
0.870026 0.413757 0.117493
0.876007 0.411316 0.118622
0.881439 0.410492 0.119568
0.886902 0.409760 0.120575
0.892212 0.408997 0.121429
0.897522 0.408325 0.122284
0.902435 0.408936 0.123016
0.907227 0.409607 0.123627
0.037018 0.448669 0.043945
0.040924 0.448425 0.044189
0.044800 0.448120 0.044464
0.048645 0.447357 0.044708
0.052429 0.446472 0.044922
0.056122 0.444550 0.045135
0.059845 0.442596 0.045349
0.063446 0.440277 0.045441
0.085571 0.441925 0.045258
0.106720 0.442780 0.045471
0.127441 0.441711 0.045837
0.161133 0.438721 0.047668
0.231018 0.437988 0.055573
0.325989 0.441315 0.054993
0.395386 0.439819 0.050659
0.458801 0.439819 0.059296
0.519226 0.443268 0.072876
0.579193 0.446045 0.077118
0.634155 0.447632 0.082031
0.682251 0.449066 0.087219
0.727356 0.449158 0.093109
0.768585 0.446289 0.099457
0.810089 0.444092 0.105957
0.844666 0.444458 0.111328
0.863617 0.443085 0.114197
0.869751 0.440369 0.115356
0.875305 0.439484 0.116241
0.880859 0.438782 0.117126
0.886414 0.438110 0.118042
0.891754 0.437256 0.118835
0.896729 0.437805 0.119446
0.901611 0.438477 0.120056
0.039642 0.486664 0.042938
0.043427 0.486389 0.043213
0.047272 0.485992 0.043457
0.051117 0.485382 0.043732
0.054871 0.484467 0.044006
0.058624 0.482880 0.044281
0.062439 0.481110 0.044647
0.066223 0.478973 0.045013
0.081329 0.478546 0.045349
0.102722 0.479218 0.046143
0.123230 0.479248 0.046844
0.144348 0.475861 0.048157
0.195190 0.473114 0.053589
0.287964 0.474609 0.058533
0.369232 0.475555 0.054993
0.435211 0.473785 0.051208
0.495331 0.474365 0.061707
0.556549 0.477386 0.076569
0.616180 0.479523 0.080750
0.667114 0.480621 0.084473
0.713501 0.481720 0.089539
0.757660 0.481140 0.094879
0.798187 0.477325 0.101166
0.833221 0.474426 0.106689
0.856964 0.472900 0.110260
0.863129 0.469849 0.111511
0.868927 0.468719 0.112396
0.874664 0.467865 0.113281
0.880249 0.467102 0.114105
0.885773 0.466095 0.114960
0.890747 0.466522 0.115509
0.895752 0.467102 0.116058
0.041718 0.524689 0.041016
0.045410 0.524231 0.041199
0.049164 0.523865 0.041412
0.052917 0.523132 0.041687
0.056702 0.522308 0.041962
0.060455 0.520905 0.042297
0.064209 0.519257 0.042633
0.067841 0.517029 0.042969
0.076599 0.515778 0.043549
0.097198 0.515350 0.044739
0.117615 0.514679 0.045715
0.137573 0.512268 0.046661
0.164581 0.508636 0.049561
0.241028 0.508545 0.058197
0.337738 0.510406 0.057953
0.410522 0.510681 0.053772
0.472809 0.507843 0.050110
0.533356 0.508972 0.063568
0.593842 0.511261 0.079651
0.649689 0.512512 0.081909
0.697937 0.513245 0.085419
0.743073 0.513702 0.089996
0.787292 0.513214 0.095978
0.825531 0.509399 0.101562
0.850677 0.505402 0.105560
0.857574 0.501373 0.106903
0.863190 0.498993 0.107910
0.868835 0.497650 0.108765
0.874542 0.496246 0.109680
0.879913 0.494965 0.110474
0.885040 0.495239 0.111023
0.890137 0.495697 0.111542
0.045074 0.564911 0.039734
0.048767 0.564331 0.039978
0.052429 0.563721 0.040161
0.056061 0.562805 0.040436
0.059662 0.561920 0.040649
0.063263 0.560089 0.040924
0.066833 0.558258 0.041199
0.070374 0.556000 0.041443
0.073792 0.553497 0.041656
0.092377 0.552643 0.043640
0.113159 0.551453 0.045349
0.132812 0.548981 0.046753
0.152832 0.544128 0.048950
0.201477 0.543243 0.052795
0.301910 0.544800 0.059235
0.380188 0.545288 0.055511
0.449493 0.544586 0.051239
0.510437 0.542175 0.048553
0.570190 0.543365 0.063873
0.628601 0.544830 0.079956
0.681061 0.545441 0.082520
0.727631 0.546021 0.085480
0.772583 0.546265 0.090454
0.815887 0.545502 0.096222
0.844208 0.542419 0.100494
0.854767 0.538025 0.102264
0.860291 0.534851 0.103241
0.865692 0.532837 0.104126
0.871033 0.530731 0.105011
0.876434 0.529236 0.105774
0.881805 0.529480 0.106323
0.887024 0.529724 0.106873
0.046173 0.601349 0.036621
0.049866 0.600739 0.036926
0.053558 0.600220 0.037201
0.057220 0.599365 0.037506
0.060852 0.598511 0.037781
0.064514 0.597137 0.038147
0.068146 0.595428 0.038483
0.071869 0.593353 0.039124
0.075623 0.591003 0.039886
0.087250 0.588898 0.041534
0.107269 0.586853 0.043854
0.127167 0.584686 0.045990
0.146881 0.580566 0.048492
0.178772 0.576141 0.048798
0.245880 0.578888 0.055450
0.347504 0.579285 0.057159
0.421692 0.579681 0.051971
0.488495 0.578125 0.048157
0.546204 0.575562 0.045868
0.604462 0.576263 0.062561
0.660614 0.577179 0.078796
0.710052 0.577820 0.082123
0.756592 0.578552 0.085938
0.801361 0.578888 0.091095
0.836731 0.576996 0.095428
0.851715 0.573883 0.097504
0.857605 0.570923 0.098541
0.863312 0.569397 0.099426
0.868835 0.567719 0.100250
0.874451 0.566162 0.101013
0.879913 0.566376 0.101562
0.885315 0.566681 0.102051
0.045807 0.634613 0.032806
0.049500 0.634216 0.033142
0.053162 0.633667 0.033447
0.056885 0.632935 0.033783
0.060547 0.632202 0.034119
0.064301 0.630951 0.034851
0.068085 0.629608 0.035675
0.071838 0.627533 0.036469
0.075592 0.625580 0.037231
0.081055 0.623474 0.038239
0.099976 0.621887 0.040985
0.120270 0.619751 0.043945
0.140045 0.616974 0.047058
0.167511 0.613525 0.047882
0.205414 0.611969 0.049438
0.310089 0.614014 0.055878
0.391418 0.611877 0.052216
0.462891 0.613708 0.047485
0.524994 0.610870 0.044464
0.580109 0.607300 0.041504
0.636139 0.607361 0.057617
0.689331 0.608246 0.075165
0.737457 0.609222 0.080902
0.784088 0.610657 0.086334
0.824310 0.610596 0.091064
0.848145 0.608002 0.093445
0.854279 0.604706 0.094299
0.860107 0.603241 0.095032
0.866028 0.601868 0.095734
0.871735 0.600586 0.096436
0.877319 0.600830 0.096985
0.882843 0.601166 0.097473
0.045227 0.668243 0.028870
0.048950 0.667816 0.029236
0.052704 0.667358 0.029602
0.056427 0.666779 0.030243
0.060120 0.666077 0.031036
0.063812 0.664703 0.031921
0.067505 0.663452 0.032715
0.071228 0.661591 0.033539
0.074860 0.659393 0.034332
0.078552 0.657135 0.035095
0.091431 0.655121 0.037354
0.113007 0.654175 0.041412
0.132690 0.651886 0.044983
0.156433 0.649994 0.046753
0.187286 0.647552 0.046082
0.248260 0.646667 0.050140
0.360657 0.646545 0.051483
0.434906 0.645264 0.046173
0.502319 0.646057 0.042877
0.560211 0.642517 0.040131
0.612122 0.637848 0.036102
0.665161 0.636688 0.051361
0.716736 0.638184 0.071198
0.764435 0.639923 0.080505
0.808350 0.641144 0.085754
0.839905 0.640442 0.089539
0.849884 0.637634 0.090820
0.856140 0.636108 0.091492
0.862366 0.634827 0.092163
0.868408 0.633575 0.092773
0.874115 0.633728 0.093201
0.879761 0.633911 0.093628
0.044159 0.700623 0.024902
0.047913 0.700287 0.025299
0.051636 0.699799 0.026215
0.055328 0.699219 0.027161
0.058990 0.698517 0.028046
0.062714 0.697540 0.028931
0.066467 0.696259 0.029846
0.070190 0.694519 0.030701
0.073944 0.692657 0.031586
0.077606 0.690460 0.032532
0.081329 0.688324 0.033508
0.105011 0.687988 0.038666
0.124939 0.686249 0.042755
0.146423 0.683990 0.045349
0.175323 0.682465 0.044922
0.213531 0.680023 0.045624
0.321594 0.679810 0.048340
0.406494 0.676727 0.043640
0.476746 0.676941 0.039307
0.537537 0.676086 0.036987
0.592529 0.671783 0.033508
0.641541 0.666748 0.029510
0.693726 0.666687 0.046173
0.743958 0.668549 0.068573
0.789337 0.669922 0.079498
0.828491 0.670410 0.084351
0.843170 0.668304 0.086456
0.850616 0.666962 0.087494
0.857147 0.665955 0.088379
0.863464 0.664886 0.089172
0.869507 0.665161 0.089783
0.875427 0.665436 0.090271
0.042603 0.730713 0.021332
0.046295 0.730652 0.022308
0.049896 0.730347 0.023254
0.053589 0.729919 0.024231
0.057220 0.729431 0.025116
0.060852 0.728455 0.026001
0.064545 0.727539 0.026947
0.068237 0.726013 0.027863
0.071869 0.724274 0.028839
0.075562 0.722382 0.029846
0.079193 0.720184 0.030792
0.095062 0.719574 0.034668
0.115509 0.718201 0.039429
0.136871 0.716766 0.042877
0.165894 0.716003 0.043152
0.203278 0.714233 0.043610
0.270233 0.711761 0.044128
0.377350 0.708527 0.040161
0.450348 0.705383 0.035431
0.513733 0.705963 0.032440
0.570068 0.704010 0.029724
0.621521 0.699738 0.026672
0.670227 0.696228 0.025330
0.721924 0.695862 0.041718
0.770020 0.697723 0.065125
0.813080 0.699188 0.077393
0.834259 0.697968 0.081390
0.844727 0.696686 0.082916
0.851471 0.695740 0.083862
0.857971 0.694794 0.084747
0.864136 0.695160 0.085388
0.870300 0.695618 0.085999
0.040039 0.760864 0.018341
0.043488 0.760681 0.019440
0.047058 0.760620 0.020447
0.050659 0.760132 0.021423
0.054321 0.759766 0.022400
0.057953 0.759277 0.023407
0.061523 0.758514 0.024323
0.065247 0.757080 0.025391
0.068970 0.755646 0.026428
0.072662 0.753723 0.027435
0.076385 0.751892 0.028473
0.084076 0.750671 0.030487
0.105347 0.750000 0.035889
0.127319 0.748962 0.039734
0.156555 0.748810 0.039917
0.196564 0.747528 0.040161
0.262665 0.744110 0.039429
0.344238 0.739258 0.036407
0.422913 0.734436 0.030731
0.486145 0.732758 0.027222
0.546051 0.733765 0.025055
0.600189 0.731445 0.024017
0.650818 0.727875 0.022797
0.698395 0.724213 0.021484
0.748322 0.724457 0.036774
0.795563 0.725922 0.059967
0.824402 0.726318 0.069824
0.839020 0.725616 0.075317
0.845764 0.724823 0.077942
0.852448 0.723969 0.080078
0.858887 0.724365 0.080841
0.865143 0.724762 0.081482
0.038910 0.772797 0.017334
0.042236 0.773438 0.018280
0.045593 0.774139 0.019226
0.049011 0.774750 0.020111
0.052338 0.775330 0.020966
0.055786 0.775909 0.021881
0.059143 0.776428 0.022766
0.062653 0.776520 0.023712
0.066071 0.776642 0.024597
0.069611 0.776306 0.025604
0.073151 0.776001 0.026550
0.076691 0.775574 0.027527
0.094055 0.776154 0.032013
0.117126 0.776978 0.035797
0.146881 0.778290 0.036011
0.188568 0.778015 0.034943
0.256226 0.774139 0.033539
0.319641 0.768921 0.030579
0.394958 0.764099 0.026733
0.459961 0.759888 0.023834
0.520905 0.760681 0.022217
0.578339 0.761658 0.021454
0.629272 0.758972 0.020508
0.678284 0.755585 0.019531
0.725922 0.752380 0.019135
0.775116 0.752380 0.033234
0.814423 0.753601 0.051575
0.834137 0.753235 0.061249
0.841034 0.752533 0.064026
0.847839 0.751984 0.066742
0.854492 0.752625 0.068817
0.860992 0.753357 0.070770
0.038300 0.778961 0.016876
0.041534 0.779724 0.017761
0.044891 0.780365 0.018646
0.048309 0.781006 0.019531
0.051575 0.781525 0.020416
0.054840 0.782043 0.021240
0.058197 0.782562 0.022156
0.061523 0.783081 0.023041
0.064880 0.783600 0.023926
0.068176 0.784119 0.024811
0.071533 0.784424 0.025696
0.074890 0.784607 0.026611
0.084839 0.785492 0.029175
0.107147 0.787567 0.033752
0.136169 0.789520 0.033600
0.172638 0.790070 0.032410
0.241699 0.788086 0.030914
0.302032 0.784668 0.027924
0.367737 0.781006 0.024902
0.437683 0.778839 0.022522
0.497528 0.778107 0.020508
0.555756 0.781982 0.019318
0.609344 0.782837 0.019104
0.659332 0.781158 0.018250
0.706848 0.779510 0.017639
0.755676 0.777588 0.017395
0.800903 0.778015 0.030548
0.829498 0.778656 0.043091
0.836578 0.778229 0.047028
0.843628 0.777740 0.050903
0.850372 0.778168 0.054047
0.857086 0.778717 0.057129
0.037659 0.784760 0.016479
0.040924 0.785400 0.017395
0.044189 0.786072 0.018250
0.047516 0.786713 0.019135
0.050812 0.787323 0.020020
0.054016 0.787781 0.020844
0.057220 0.788239 0.021667
0.060547 0.788757 0.022552
0.063843 0.789337 0.023407
0.067108 0.789917 0.024261
0.070343 0.790375 0.025116
0.073547 0.790771 0.025970
0.080994 0.791718 0.027863
0.100128 0.794128 0.032318
0.129364 0.797089 0.032166
0.162018 0.798126 0.030609
0.227203 0.796661 0.028992
