滤镜资源/Professional Luts Collection/Triune-Digital-Cinematic-LUTs/3D LUTs (CUBE)/LOG/The Grand Budapest Hotel - LOG.cube
#Created by Benjamin (IWLTBAP) : http://luts.iwltbap.com
#Copyright: (C) Copyright 2016 Triune Films and IWLTBAP
TITLE "Blockbuster LUTs Pack (LOG)"
#LUT size
LUT_3D_SIZE 32
#LUT data points
0.000000 0.000000 0.000000
0.017639 0.000000 0.000000
0.068817 0.001923 0.000580
0.107605 0.005463 0.000946
0.152313 0.009247 0.000580
0.204803 0.012787 0.000000
0.249634 0.015015 0.000000
0.296021 0.016693 0.000000
0.345886 0.018341 0.000000
0.402222 0.020111 0.003632
0.451050 0.022369 0.007568
0.499298 0.025787 0.010803
0.542389 0.027618 0.013824
0.588470 0.032349 0.016205
0.634827 0.037079 0.018585
0.672760 0.040161 0.020355
0.710815 0.045624 0.021790
0.749542 0.053314 0.022430
0.786224 0.062683 0.023438
0.822083 0.079010 0.025696
0.840057 0.086761 0.027588
0.849579 0.093079 0.030060
0.854736 0.096100 0.031586
0.859955 0.098633 0.032562
0.865387 0.100800 0.033020
0.870758 0.103790 0.034698
0.876007 0.107391 0.037384
0.881683 0.112091 0.041443
0.887238 0.116730 0.045654
0.891266 0.119446 0.048462
0.894806 0.121887 0.051392
0.898376 0.124298 0.054382
0.001343 0.003967 0.000671
0.009216 0.004242 0.000824
0.056305 0.005005 0.001068
0.096375 0.009064 0.002136
0.140503 0.013489 0.001709
0.191986 0.017029 0.000214
0.238586 0.019562 0.000000
0.286652 0.022125 0.000000
0.334290 0.024353 0.000000
0.393280 0.026184 0.001892
0.442291 0.029083 0.005920
0.491150 0.031708 0.009491
0.536163 0.033966 0.012756
0.582214 0.038239 0.015137
0.629486 0.043060 0.017670
0.668976 0.046295 0.019592
0.707214 0.051361 0.021088
0.746368 0.058960 0.021790
0.781708 0.066467 0.022583
0.818573 0.082184 0.024261
0.838013 0.089203 0.025177
0.848389 0.095734 0.027557
0.852844 0.097931 0.028442
0.857666 0.099518 0.028748
0.862793 0.102356 0.030029
0.867065 0.103821 0.030731
0.871368 0.105103 0.031281
0.876709 0.108154 0.033203
0.880798 0.110474 0.034912
0.881989 0.109833 0.034424
0.885742 0.111908 0.035980
0.889740 0.114532 0.038269
0.006439 0.017151 0.003174
0.010101 0.016266 0.003143
0.031769 0.015778 0.003265
0.081024 0.018646 0.003937
0.125580 0.020874 0.002380
0.176331 0.022644 0.001221
0.229065 0.023987 0.000000
0.276611 0.027527 0.000000
0.322205 0.029633 0.000000
0.383087 0.032623 0.000519
0.433380 0.035675 0.004059
0.482239 0.037170 0.008148
0.528870 0.039856 0.011505
0.575745 0.044098 0.014130
0.623962 0.048981 0.016724
0.664459 0.052277 0.018768
0.702881 0.056946 0.020355
0.742554 0.064453 0.021149
0.777466 0.070496 0.021729
0.814697 0.086151 0.023376
0.836212 0.092560 0.023560
0.847107 0.098755 0.025482
0.851562 0.100891 0.026276
0.855621 0.102905 0.026978
0.860565 0.104187 0.027039
0.864532 0.104736 0.027161
0.867310 0.105438 0.028229
0.871735 0.106964 0.029022
0.876068 0.108582 0.029388
0.876160 0.107544 0.029175
0.877258 0.107117 0.029022
0.881317 0.108490 0.029388
0.012817 0.033691 0.006744
0.016205 0.033173 0.006683
0.021301 0.032623 0.006592
0.055878 0.031677 0.006622
0.100525 0.036285 0.008118
0.149353 0.038666 0.004822
0.202362 0.039703 0.000702
0.252075 0.040924 0.000610
0.300323 0.041931 0.000214
0.362488 0.043488 0.000153
0.417572 0.043610 0.001587
0.470520 0.043030 0.006226
0.518982 0.046204 0.009735
0.566711 0.050171 0.012756
0.616089 0.055054 0.015503
0.657471 0.058563 0.017609
0.696228 0.062744 0.019348
0.736267 0.069611 0.020264
0.771637 0.075287 0.020905
0.808136 0.089905 0.022583
0.834045 0.096863 0.022186
0.846588 0.101624 0.023132
0.850677 0.103882 0.023926
0.854767 0.105469 0.024323
0.858917 0.107361 0.024963
0.862610 0.108521 0.025635
0.865234 0.108429 0.026093
0.867981 0.108154 0.026306
0.870789 0.108093 0.026367
0.871094 0.107697 0.026459
0.871399 0.107300 0.026581
0.872559 0.107086 0.026611
0.018982 0.050293 0.011169
0.022491 0.049927 0.011322
0.025940 0.049377 0.011536
0.042389 0.048279 0.011597
0.076874 0.049408 0.011932
0.124390 0.055084 0.010681
0.170074 0.056976 0.006927
0.223572 0.057739 0.004272
0.268158 0.058411 0.002716
0.325317 0.059784 0.001770
0.384094 0.061432 0.000519
0.442413 0.063477 0.000153
0.494598 0.064178 0.003998
0.547760 0.062317 0.009399
0.600067 0.062317 0.013245
0.646057 0.063232 0.016327
0.685852 0.066284 0.018250
0.725861 0.072266 0.019623
0.761963 0.077606 0.020325
0.796997 0.086517 0.021118
0.825104 0.096802 0.021729
0.841980 0.101624 0.021729
0.846069 0.102631 0.021790
0.850159 0.103577 0.021851
0.853943 0.105591 0.022552
0.856842 0.106628 0.023224
0.859314 0.106628 0.023712
0.861877 0.107178 0.024689
0.863800 0.107269 0.025238
0.863983 0.105957 0.024811
0.864410 0.104858 0.024475
0.864960 0.103729 0.024078
0.024933 0.068207 0.014557
0.028229 0.067719 0.014282
0.031433 0.067200 0.014404
0.037262 0.066162 0.014191
0.060577 0.065643 0.014374
0.098663 0.068573 0.016296
0.140350 0.073151 0.016510
0.190765 0.077148 0.011871
0.243011 0.077209 0.008484
0.296387 0.078430 0.005096
0.353607 0.079834 0.002655
0.413727 0.080383 0.000153
0.471985 0.081451 0.000153
0.523407 0.082001 0.003510
0.572815 0.083282 0.007629
0.621033 0.080536 0.012238
0.664490 0.079651 0.015442
0.704407 0.078705 0.017975
0.741577 0.082977 0.019012
0.778259 0.085052 0.020111
0.809814 0.094177 0.021057
0.833466 0.100494 0.021240
0.839325 0.101349 0.021179
0.843231 0.102417 0.021179
0.847321 0.104126 0.021423
0.850525 0.104401 0.021606
0.852722 0.103851 0.021942
0.855286 0.103424 0.022217
0.857208 0.103241 0.022583
0.857178 0.102203 0.022430
0.857330 0.101471 0.022369
0.857666 0.100800 0.022308
0.031891 0.085144 0.018494
0.034668 0.084686 0.017944
0.037476 0.084167 0.017609
0.039703 0.082977 0.017426
0.050537 0.082489 0.017487
0.083038 0.083527 0.017914
0.114594 0.085297 0.019012
0.164429 0.092865 0.020538
0.217407 0.096741 0.015045
0.266876 0.098175 0.011322
0.329285 0.098511 0.007202
0.386627 0.098846 0.004456
0.446655 0.102112 0.003784
0.502502 0.104065 0.002625
0.555908 0.105835 0.003418
0.606598 0.104584 0.006653
0.650879 0.099762 0.011566
0.691254 0.093658 0.015472
0.728760 0.095215 0.017242
0.762207 0.096802 0.018402
0.791290 0.096588 0.019623
0.814972 0.101715 0.020081
0.821716 0.102631 0.020355
0.827515 0.103149 0.020630
0.832916 0.103973 0.020905
0.836792 0.103973 0.021088
0.839630 0.103241 0.021301
0.842560 0.102417 0.021576
0.844574 0.101440 0.021851
0.845184 0.100708 0.021942
0.844788 0.099945 0.022064
0.844360 0.099274 0.022217
0.039795 0.102539 0.021637
0.042725 0.102356 0.021179
0.045654 0.102081 0.020935
0.048157 0.101105 0.020966
0.053711 0.100037 0.020233
0.070740 0.100677 0.020294
0.104828 0.102844 0.021271
0.141144 0.107330 0.023865
0.188721 0.112610 0.024567
0.234650 0.118317 0.020142
0.301147 0.120270 0.014526
0.359497 0.122284 0.011658
0.423615 0.122955 0.008575
0.481384 0.126282 0.006897
0.537506 0.127838 0.004425
0.593811 0.125763 0.003296
0.640411 0.125824 0.006195
0.685822 0.122192 0.010620
0.724945 0.118713 0.013672
0.754120 0.111633 0.016510
0.784943 0.111267 0.017853
0.807556 0.112000 0.018860
0.814056 0.110901 0.019409
0.819031 0.110352 0.019501
0.823975 0.109802 0.019562
0.827545 0.109680 0.019775
0.830200 0.108612 0.020081
0.832825 0.107483 0.020325
0.834717 0.106323 0.020721
0.833557 0.103516 0.020966
0.832001 0.101318 0.021240
0.830597 0.098511 0.021332
0.046967 0.120392 0.026642
0.049500 0.120026 0.026093
0.052002 0.119568 0.025574
0.054443 0.118530 0.024872
0.056732 0.117645 0.024780
0.068665 0.116852 0.023651
0.093414 0.119751 0.023926
0.129700 0.123138 0.024109
0.163757 0.127197 0.027985
0.210083 0.132385 0.028198
0.270874 0.139587 0.022095
0.334290 0.142487 0.018127
0.395691 0.146149 0.015411
0.459137 0.149597 0.012878
0.518280 0.151245 0.010406
0.572083 0.151001 0.007751
0.625519 0.151306 0.006897
0.675079 0.151093 0.009155
0.719788 0.148743 0.010101
0.752533 0.144440 0.012085
0.786560 0.140137 0.014038
0.811005 0.135590 0.015350
0.819397 0.130951 0.016266
0.821442 0.126251 0.017120
0.824249 0.123718 0.017761
0.827454 0.122986 0.017975
0.829834 0.121765 0.018280
0.832245 0.120453 0.018616
0.833527 0.118713 0.018951
0.831573 0.114868 0.019501
0.830231 0.112610 0.019836
0.829193 0.110657 0.020081
0.053436 0.138489 0.029785
0.055817 0.137878 0.029205
0.058228 0.137207 0.028534
0.060303 0.135773 0.027802
0.062592 0.135071 0.027710
0.071594 0.135559 0.027496
0.085236 0.135468 0.026276
0.116241 0.139160 0.025208
0.155304 0.143341 0.028229
0.190735 0.147705 0.032623
0.242615 0.154327 0.031464
0.311005 0.163239 0.025208
0.370636 0.168274 0.022583
0.438629 0.172577 0.019409
0.497711 0.173981 0.016357
0.556305 0.174683 0.013489
0.610535 0.176514 0.011566
0.666626 0.177612 0.010559
0.711121 0.175659 0.010162
0.751923 0.173767 0.010498
0.785461 0.171753 0.011047
0.815033 0.169250 0.011261
0.826904 0.165558 0.011658
0.829285 0.161163 0.012299
0.831543 0.155273 0.013214
0.834137 0.152832 0.013611
0.836975 0.151398 0.013855
0.839996 0.150177 0.014069
0.841736 0.147949 0.014313
0.840363 0.143738 0.014771
0.838928 0.141083 0.015137
0.837891 0.138702 0.015533
0.063873 0.160706 0.034393
0.066040 0.160095 0.033997
0.068237 0.159546 0.033539
0.070160 0.158356 0.032990
0.071838 0.157013 0.032623
0.075958 0.155548 0.032013
0.086823 0.154724 0.030273
0.105988 0.156830 0.028290
0.141754 0.161743 0.027222
0.181305 0.166473 0.034302
0.221893 0.172241 0.036926
0.282043 0.181519 0.034424
0.342529 0.188171 0.030029
0.413574 0.194489 0.026337
0.475952 0.197327 0.023071
0.537842 0.199554 0.020172
0.593994 0.201050 0.017487
0.649963 0.202118 0.014709
0.701599 0.204071 0.014679
0.743805 0.203156 0.014435
0.779480 0.202972 0.014130
0.812286 0.201111 0.013885
0.830811 0.199677 0.014008
0.834137 0.196259 0.013885
0.837585 0.192596 0.013733
0.840637 0.190521 0.013611
0.843201 0.188873 0.013550
0.845856 0.187195 0.013397
0.847778 0.185913 0.013306
0.847717 0.183350 0.013062
0.847778 0.182465 0.012878
0.847900 0.181763 0.012787
0.072998 0.184113 0.039917
0.074890 0.182861 0.039734
0.076843 0.181671 0.039642
0.078949 0.180603 0.039032
0.081116 0.179901 0.038330
0.083069 0.178772 0.037659
0.092041 0.177368 0.036346
0.105499 0.178101 0.033173
0.129059 0.181488 0.029877
0.167358 0.186646 0.032288
0.208862 0.194580 0.039429
0.259338 0.201538 0.043671
0.318695 0.208984 0.039612
0.388947 0.218903 0.035278
0.455414 0.225159 0.032043
0.514862 0.228241 0.028503
0.577881 0.230591 0.025299
0.637329 0.231750 0.022583
0.689941 0.232422 0.019623
0.735626 0.232635 0.018616
0.772095 0.231964 0.018646
0.807617 0.231720 0.018372
0.831940 0.230988 0.018066
0.837616 0.227753 0.017517
0.841187 0.224518 0.016998
0.844574 0.222595 0.016693
0.847412 0.221985 0.016602
0.850250 0.220795 0.016418
0.852448 0.219910 0.016327
0.852905 0.221527 0.016754
0.852905 0.222382 0.016998
0.852936 0.223267 0.017273
0.082672 0.208801 0.048706
0.084259 0.207336 0.047638
0.086060 0.205841 0.046509
0.087646 0.203888 0.045380
0.089111 0.202271 0.044434
0.090424 0.200470 0.043304
0.096924 0.200409 0.042236
0.107605 0.198975 0.039246
0.124084 0.202454 0.034332
0.154907 0.206909 0.032715
0.196045 0.215088 0.039856
0.246674 0.224304 0.048645
0.298859 0.231903 0.052551
0.362488 0.240967 0.045288
0.430359 0.250244 0.040649
0.496643 0.256927 0.037659
0.555328 0.259460 0.033875
0.617218 0.263977 0.031067
0.676331 0.265167 0.027802
0.723358 0.265259 0.025848
0.763031 0.266296 0.024261
0.802246 0.267700 0.024323
0.829865 0.267944 0.023956
0.837921 0.264221 0.023163
0.842163 0.260040 0.022339
0.845276 0.257568 0.021912
0.848572 0.256744 0.021759
0.851837 0.256104 0.021637
0.854065 0.255493 0.021606
0.854523 0.255615 0.021759
0.855042 0.257385 0.022217
0.855499 0.261261 0.023132
0.091644 0.233368 0.053345
0.093323 0.231903 0.052124
0.095428 0.231110 0.051514
0.097382 0.230042 0.050964
0.098938 0.228577 0.050385
0.099854 0.225952 0.049255
0.100861 0.223053 0.047974
0.112152 0.223602 0.044586
0.123627 0.222046 0.037689
0.148193 0.228424 0.034515
0.186066 0.234924 0.038605
0.236786 0.245483 0.049713
0.284943 0.253204 0.057129
0.344116 0.262421 0.059875
0.409241 0.272003 0.051666
0.472290 0.280853 0.046021
0.537354 0.287354 0.042664
0.600708 0.293030 0.039673
0.662201 0.296906 0.036926
0.712372 0.297699 0.034058
0.754578 0.300415 0.033264
0.793823 0.301208 0.031616
0.823029 0.301147 0.030457
0.835297 0.299438 0.029816
0.841614 0.296234 0.029053
0.844971 0.294037 0.028625
0.847717 0.293610 0.028534
0.850250 0.292755 0.028412
0.852539 0.291565 0.028198
0.853180 0.292053 0.028503
0.854095 0.294098 0.029053
0.854950 0.296234 0.029633
0.100891 0.258118 0.056885
0.102570 0.256744 0.056152
0.104401 0.255493 0.055359
0.106018 0.253723 0.054047
0.107361 0.251862 0.052979
0.108582 0.250031 0.052338
0.110046 0.248535 0.052063
0.116577 0.246857 0.049774
0.129608 0.247681 0.045715
0.145630 0.249969 0.037964
0.175629 0.257355 0.040222
0.224792 0.267456 0.049438
0.280182 0.279877 0.061646
0.332611 0.287537 0.068085
0.392395 0.299347 0.070892
0.454498 0.309387 0.062225
0.516693 0.315643 0.052307
0.584900 0.323456 0.048492
0.647827 0.329041 0.045410
0.702545 0.332825 0.043304
0.747498 0.334351 0.041901
0.786713 0.335846 0.039886
0.819214 0.336792 0.038452
0.835602 0.334229 0.037201
0.843048 0.330750 0.036133
0.846466 0.327728 0.035400
0.849762 0.326813 0.035187
0.853271 0.326630 0.035156
0.856049 0.326508 0.035217
0.856995 0.325470 0.035065
0.857849 0.325867 0.035217
0.858948 0.326447 0.035431
0.109100 0.282471 0.063110
0.110718 0.280945 0.061462
0.112305 0.279541 0.059875
0.113800 0.277893 0.058533
0.115356 0.276642 0.057678
0.116760 0.274963 0.056824
0.118134 0.272736 0.055725
0.119354 0.270203 0.054474
0.132629 0.271027 0.051636
0.148193 0.272552 0.045105
0.168213 0.278534 0.043854
0.208740 0.287445 0.048431
0.268127 0.301208 0.061890
0.323181 0.312012 0.072144
0.380249 0.323608 0.078522
0.442841 0.334595 0.079010
0.502441 0.343628 0.069458
0.570282 0.351074 0.057800
0.632538 0.359741 0.054749
0.691254 0.364960 0.052063
0.741119 0.367676 0.049469
0.782257 0.370361 0.048492
0.815430 0.372162 0.047516
0.835052 0.370331 0.046234
0.844513 0.369110 0.045746
0.847321 0.365692 0.044861
0.850525 0.364044 0.044342
0.853729 0.362427 0.043884
0.856445 0.361511 0.043640
0.858002 0.361084 0.043640
0.859680 0.362335 0.044098
0.860962 0.363037 0.044373
0.119019 0.307922 0.069550
0.120392 0.306427 0.067780
0.121887 0.305023 0.066620
0.123291 0.303436 0.065430
0.124634 0.301697 0.064423
0.125824 0.299500 0.063019
0.126923 0.297150 0.061523
0.128326 0.295349 0.060699
0.136993 0.295624 0.059723
0.150421 0.297272 0.056793
0.168121 0.299438 0.048187
0.198761 0.309509 0.050903
0.252808 0.322174 0.060852
0.314148 0.335907 0.074097
0.366333 0.345337 0.082306
0.431519 0.361145 0.089722
0.487152 0.369751 0.088501
0.553497 0.377716 0.075378
0.620972 0.386658 0.065216
0.681091 0.394501 0.060699
0.730865 0.398865 0.058228
0.773926 0.402161 0.057495
0.810608 0.404480 0.056488
0.835236 0.405060 0.055450
0.847992 0.403259 0.054565
0.851562 0.400604 0.053741
0.854736 0.399353 0.053345
0.858002 0.397797 0.052795
0.860901 0.396484 0.052368
0.862518 0.395905 0.052338
0.864075 0.397186 0.052856
0.865662 0.398529 0.053406
0.127075 0.331665 0.073608
0.128296 0.329803 0.072815
0.129547 0.327942 0.071991
0.130981 0.326324 0.070526
0.132629 0.325226 0.069824
0.134186 0.323700 0.069214
0.135345 0.321442 0.068359
0.136658 0.319550 0.067505
0.141235 0.319183 0.066925
0.153259 0.320648 0.065155
0.168854 0.322784 0.057220
0.193939 0.330627 0.054382
0.236511 0.343018 0.059448
0.300995 0.359070 0.074188
0.360107 0.373077 0.087036
0.419647 0.386322 0.096039
0.480225 0.398621 0.099945
0.541199 0.406647 0.096924
0.603821 0.417084 0.086365
0.666656 0.425140 0.077271
0.721466 0.430420 0.070557
0.765778 0.434631 0.067535
0.801880 0.437866 0.066437
0.831909 0.438751 0.065216
0.848297 0.436798 0.063965
0.852356 0.433807 0.063019
0.855835 0.432556 0.062622
0.859222 0.431854 0.062378
0.861969 0.430969 0.062103
0.863953 0.430054 0.061890
0.866180 0.430634 0.062103
0.868378 0.431335 0.062317
0.134125 0.353973 0.077972
0.135681 0.352692 0.077332
0.137268 0.351532 0.076752
0.138763 0.350128 0.076080
0.140106 0.348572 0.075409
0.141296 0.346558 0.074738
0.142609 0.344788 0.074188
0.144348 0.343597 0.073853
0.146088 0.342560 0.073547
0.156738 0.343811 0.072327
0.170380 0.346252 0.070038
0.191833 0.351349 0.058105
0.223267 0.363495 0.061737
0.284912 0.378937 0.072296
0.351349 0.397888 0.089142
0.415771 0.413605 0.101227
0.471863 0.423981 0.106812
0.529572 0.435089 0.109619
0.592773 0.444550 0.104004
0.658356 0.454773 0.093658
0.714020 0.459900 0.084259
0.761536 0.465393 0.079468
0.795258 0.468018 0.076355
0.830048 0.468842 0.073730
0.850037 0.467590 0.072266
0.856293 0.465454 0.071533
0.859436 0.463257 0.070862
0.862793 0.462006 0.070343
0.865753 0.460907 0.069977
0.867706 0.460175 0.069794
0.869873 0.460724 0.070007
0.872101 0.461426 0.070251
0.142456 0.377228 0.084351
0.143646 0.375519 0.083435
0.144836 0.373749 0.082428
0.145935 0.371887 0.081482
0.147461 0.370819 0.080994
0.148987 0.369690 0.080597
0.150452 0.368378 0.080139
0.151978 0.367218 0.079742
0.153595 0.366028 0.079376
0.160339 0.366119 0.078674
0.173126 0.368378 0.077515
0.193085 0.374359 0.069336
0.218048 0.384705 0.065033
0.269409 0.400879 0.072327
0.338440 0.419403 0.088776
0.407257 0.439056 0.104095
0.465210 0.450989 0.112427
0.522583 0.466095 0.119720
0.585968 0.475189 0.119781
0.646729 0.485535 0.113281
0.711121 0.494476 0.103943
0.760193 0.501160 0.097809
0.795959 0.502869 0.092682
0.829681 0.506317 0.089600
0.854248 0.503906 0.086365
0.863373 0.501099 0.084442
0.865967 0.497986 0.082916
0.868744 0.496338 0.082031
0.871429 0.494720 0.081116
0.873962 0.493073 0.080292
0.876556 0.493744 0.080597
0.879181 0.494537 0.080933
0.150879 0.399536 0.090546
0.151886 0.397614 0.089508
0.152893 0.395660 0.088440
0.153839 0.393463 0.087189
0.155334 0.392365 0.086578
0.156830 0.391266 0.086121
0.158356 0.390137 0.085632
0.159943 0.388916 0.085205
0.161652 0.388000 0.084900
0.164398 0.387146 0.084595
0.176636 0.389862 0.084412
0.194275 0.396057 0.082947
0.217621 0.403809 0.069641
0.251495 0.420990 0.074036
0.322937 0.443390 0.087738
0.395844 0.464355 0.105072
0.466888 0.486145 0.120300
0.517181 0.495544 0.126984
0.583344 0.509857 0.132599
0.642303 0.519226 0.133179
0.701050 0.530731 0.127960
0.755951 0.537537 0.118866
0.796356 0.541656 0.114105
0.829010 0.543182 0.109009
0.854950 0.541199 0.104553
0.869751 0.538177 0.101318
0.872162 0.534058 0.098999
0.875092 0.531525 0.097443
0.878021 0.530029 0.096527
0.881012 0.529327 0.096130
0.884430 0.530151 0.096344
0.887634 0.530365 0.096191
0.158630 0.420227 0.096161
0.160034 0.418884 0.095398
0.161072 0.417053 0.094452
0.161926 0.415070 0.093414
0.163025 0.413513 0.092621
0.164154 0.411743 0.091827
0.165283 0.409943 0.091003
0.167084 0.409210 0.090759
0.169434 0.409424 0.091003
0.171692 0.409241 0.091064
0.179657 0.410339 0.091278
0.196259 0.417542 0.093353
0.219879 0.428101 0.086456
0.245819 0.440887 0.077057
0.300171 0.461639 0.084778
0.381714 0.485931 0.104279
0.457153 0.510345 0.122681
0.517212 0.526367 0.133759
0.577423 0.536835 0.140503
0.637634 0.549316 0.143402
0.694183 0.559113 0.144135
0.750122 0.568481 0.137604
0.790924 0.572784 0.130951
0.825012 0.576874 0.126526
0.854614 0.574646 0.120880
0.874359 0.572693 0.117584
0.879364 0.568481 0.114685
0.882538 0.566071 0.113037
0.885803 0.563873 0.111481
0.888733 0.562164 0.110382
0.891968 0.561981 0.109985
0.895203 0.561768 0.109497
0.165314 0.440399 0.101929
0.166382 0.438507 0.100922
0.167389 0.436432 0.099823
0.168854 0.435211 0.099121
0.170532 0.434448 0.098724
0.172089 0.433502 0.098358
0.173218 0.431671 0.097565
0.174622 0.430328 0.097046
0.176758 0.430237 0.097198
0.179138 0.430359 0.097382
0.181427 0.430237 0.097504
0.198029 0.436157 0.099365
0.215118 0.443451 0.099396
0.241425 0.455048 0.080841
0.281128 0.477478 0.085693
0.365356 0.503296 0.101990
0.443817 0.528656 0.122406
0.512848 0.550842 0.137451
0.569824 0.561188 0.144836
0.632355 0.576263 0.151581
0.690582 0.587860 0.153473
0.741943 0.595062 0.151947
0.786957 0.601013 0.146667
0.823914 0.605774 0.142883
0.854065 0.604156 0.136292
0.879578 0.604523 0.133270
0.887207 0.600494 0.130157
0.890533 0.597504 0.127869
0.893341 0.594788 0.125763
0.895508 0.591583 0.123566
0.898132 0.590210 0.122223
0.901093 0.589661 0.121399
0.170837 0.458984 0.106720
0.172150 0.457336 0.105896
0.173523 0.455688 0.104980
0.174866 0.453918 0.104034
0.176025 0.452454 0.103424
0.177124 0.450867 0.102844
0.178284 0.449402 0.102325
0.180481 0.449249 0.102325
0.183075 0.449677 0.102661
0.185181 0.449493 0.102814
0.186981 0.448853 0.102753
0.198486 0.453125 0.104340
0.215973 0.461456 0.106018
0.238617 0.472839 0.097229
0.270203 0.491821 0.086853
0.341248 0.518127 0.098267
0.429840 0.546295 0.121155
0.508636 0.573914 0.140198
0.567474 0.587738 0.150421
0.626892 0.601349 0.157959
0.685791 0.614441 0.161804
0.736755 0.623016 0.162415
0.783844 0.628174 0.161713
0.820526 0.630066 0.155090
0.851837 0.634064 0.152008
0.879761 0.631287 0.144958
0.891113 0.626190 0.140442
0.895935 0.623535 0.138397
0.898834 0.622223 0.137421
0.901245 0.619598 0.135681
0.903687 0.618469 0.134644
0.906128 0.617371 0.133667
0.172028 0.469482 0.107666
0.173218 0.467865 0.106964
0.174377 0.466278 0.106201
0.175568 0.464600 0.105438
0.177338 0.463989 0.105194
0.179108 0.463287 0.104858
0.180603 0.462097 0.104370
0.182678 0.461731 0.104340
0.185394 0.462433 0.104797
0.188019 0.463043 0.105225
0.190704 0.463623 0.105682
0.196472 0.465820 0.106812
0.213165 0.473083 0.108673
0.232697 0.483612 0.106903
0.263458 0.501587 0.087219
0.318512 0.529083 0.096436
0.411652 0.559814 0.118317
0.497925 0.590576 0.140137
0.561096 0.610870 0.153442
0.618774 0.621765 0.160828
0.679291 0.637848 0.168060
0.734863 0.647461 0.169403
0.780762 0.654083 0.170044
0.817200 0.655853 0.167450
0.848724 0.658691 0.163696
0.875641 0.661774 0.161255
0.891235 0.653656 0.153778
0.897430 0.648956 0.150024
0.900360 0.646973 0.148499
0.901978 0.646942 0.148865
0.903839 0.648010 0.149689
0.905701 0.649170 0.150482
0.171661 0.472198 0.107361
0.172852 0.470825 0.106628
0.174042 0.469452 0.105896
0.175232 0.468048 0.105133
0.176971 0.467712 0.104858
0.178986 0.467743 0.104767
0.181000 0.467804 0.104675
0.183502 0.468750 0.105133
0.186401 0.470184 0.105682
0.189270 0.471466 0.106323
0.192108 0.472809 0.106934
0.194702 0.473907 0.107574
0.208588 0.480835 0.110443
0.225677 0.491028 0.113037
0.254944 0.507446 0.094604
0.297760 0.534424 0.095032
0.394135 0.567627 0.114258
0.483978 0.600891 0.137970
0.552551 0.625092 0.153625
0.612213 0.639984 0.163544
0.671204 0.654877 0.170959
0.728516 0.666290 0.174133
0.776031 0.673218 0.174744
0.813110 0.675873 0.173920
0.845764 0.679810 0.171783
0.874146 0.682373 0.169464
0.891632 0.678436 0.164307
0.897125 0.674744 0.162170
0.898987 0.673096 0.161285
0.900909 0.673218 0.161652
0.902924 0.674500 0.162506
0.904968 0.675720 0.163300
0.170807 0.472595 0.106720
0.171997 0.471222 0.105957
0.173187 0.469788 0.105194
0.174347 0.468384 0.104431
0.176147 0.468109 0.104187
0.178131 0.468109 0.104065
0.180145 0.468170 0.103973
0.182648 0.469269 0.104431
0.185669 0.471436 0.105438
0.188446 0.472839 0.105988
0.191284 0.474274 0.106567
0.194092 0.475677 0.107147
0.202148 0.480011 0.109131
0.220001 0.491547 0.113037
0.244781 0.506165 0.105743
0.279205 0.528290 0.091522
0.364441 0.563354 0.106964
0.458862 0.598694 0.132355
0.536774 0.627655 0.150940
0.605164 0.652374 0.165314
0.659546 0.661987 0.170807
0.721802 0.678619 0.176636
0.771301 0.687073 0.177917
0.810028 0.691406 0.177521
0.842957 0.695831 0.177094
0.872070 0.700134 0.176697
0.891052 0.697723 0.172394
0.899292 0.696259 0.171265
0.901062 0.695496 0.170959
0.902863 0.695190 0.171021
0.904663 0.696320 0.171936
0.906525 0.697540 0.172821
0.169983 0.472961 0.106049
0.171173 0.471558 0.105316
0.172363 0.470154 0.104523
0.173523 0.468719 0.103729
0.175293 0.468445 0.103455
0.177338 0.468475 0.103394
0.179321 0.468475 0.103271
0.181824 0.469604 0.103729
0.184845 0.471771 0.104767
0.187866 0.473938 0.105774
0.190643 0.475342 0.106354
0.193481 0.476807 0.106903
0.199707 0.480133 0.108276
0.215118 0.489777 0.112152
0.237579 0.503571 0.108765
0.271576 0.525269 0.089966
0.339905 0.558624 0.101746
