滤镜资源/Professional Luts Collection/Triune-Digital-Cinematic-LUTs/3D LUTs (CUBE)/LOG/The Lord of the Rings - LOG.cube
#Created by Benjamin (IWLTBAP) : http://luts.iwltbap.com
#Copyright: (C) Copyright 2016 Triune Films and IWLTBAP
TITLE "Blockbuster LUTs Pack (LOG)"
#LUT size
LUT_3D_SIZE 32
#LUT data points
0.005157 0.004669 0.004425
0.008118 0.004761 0.004639
0.016052 0.005188 0.004883
0.033020 0.005920 0.005524
0.054260 0.006714 0.006470
0.078186 0.009003 0.007751
0.102844 0.017822 0.015198
0.129303 0.025696 0.022705
0.154205 0.031860 0.028839
0.179199 0.037781 0.034515
0.206177 0.044373 0.041138
0.237396 0.051025 0.048248
0.268066 0.058105 0.055573
0.302979 0.068451 0.065704
0.348297 0.079193 0.076416
0.427368 0.094788 0.093567
0.502136 0.116516 0.116364
0.556366 0.134613 0.133545
0.617065 0.157074 0.155853
0.675690 0.178406 0.177155
0.698242 0.185852 0.184265
0.712585 0.190796 0.189148
0.723236 0.194519 0.193146
0.732483 0.197998 0.196411
0.739044 0.199982 0.198425
0.746277 0.202576 0.200928
0.754333 0.205200 0.203461
0.763611 0.208435 0.206848
0.771545 0.211060 0.209381
0.776550 0.212524 0.210968
0.783752 0.214783 0.213318
0.786926 0.215485 0.213776
0.005188 0.007080 0.004578
0.007782 0.007202 0.004730
0.014648 0.007507 0.005035
0.030090 0.008270 0.005707
0.051453 0.009277 0.006653
0.075745 0.014099 0.007996
0.100769 0.021362 0.015839
0.126984 0.029144 0.022766
0.152008 0.035217 0.029327
0.177551 0.040833 0.035492
0.203705 0.047638 0.041351
0.235535 0.055023 0.049194
0.266235 0.062531 0.056183
0.301270 0.072235 0.066467
0.347870 0.082672 0.076416
0.425903 0.097687 0.093323
0.500519 0.119202 0.115631
0.550568 0.135437 0.131378
0.607025 0.155853 0.151855
0.663666 0.176483 0.172333
0.694794 0.187225 0.183289
0.711212 0.193085 0.188782
0.721588 0.196716 0.192657
0.731018 0.200073 0.195984
0.738251 0.202637 0.198151
0.743988 0.204163 0.199921
0.751801 0.206787 0.202606
0.760834 0.209991 0.205780
0.768097 0.212219 0.208160
0.774719 0.214355 0.210144
0.780273 0.215942 0.211884
0.783142 0.216370 0.212341
0.005646 0.013397 0.004913
0.008057 0.013031 0.005157
0.013489 0.012939 0.005585
0.031219 0.012939 0.006134
0.050995 0.014008 0.006927
0.075104 0.018921 0.009399
0.098145 0.025299 0.016144
0.124237 0.032440 0.023682
0.150269 0.038208 0.029449
0.175140 0.044403 0.035614
0.201813 0.050598 0.041962
0.233765 0.059204 0.050385
0.264771 0.066620 0.057129
0.299377 0.076141 0.067352
0.349762 0.086212 0.076599
0.424500 0.100525 0.092712
0.498840 0.121399 0.114899
0.545380 0.136383 0.129852
0.599121 0.155548 0.148926
0.651093 0.173828 0.167450
0.688721 0.187317 0.180908
0.704346 0.192505 0.186035
0.713745 0.195923 0.189148
0.723785 0.199585 0.192810
0.733002 0.202759 0.196075
0.738800 0.204620 0.197784
0.745209 0.206482 0.199768
0.755035 0.210022 0.203339
0.761780 0.212128 0.205444
0.768799 0.214508 0.207703
0.776062 0.216736 0.210022
0.777985 0.216675 0.210144
0.006653 0.023499 0.005920
0.008911 0.024078 0.006165
0.013733 0.024445 0.006409
0.031647 0.026978 0.007111
0.051300 0.030212 0.007721
0.072723 0.033905 0.011719
0.096588 0.038757 0.017548
0.122162 0.043884 0.025696
0.147064 0.048004 0.031342
0.172913 0.052063 0.037506
0.198578 0.056335 0.042572
0.229065 0.062897 0.049866
0.261353 0.070374 0.058014
0.295471 0.079346 0.067200
0.352722 0.089172 0.076782
0.419769 0.102539 0.091614
0.493805 0.122742 0.112854
0.534943 0.135376 0.125977
0.589264 0.154541 0.145508
0.639832 0.172241 0.163239
0.681580 0.187073 0.178131
0.699127 0.192780 0.183716
0.706451 0.195435 0.186218
0.715363 0.198517 0.189178
0.725769 0.202209 0.192993
0.732239 0.204254 0.194916
0.738068 0.205963 0.196838
0.745483 0.208344 0.199219
0.752136 0.210449 0.201416
0.759277 0.212708 0.203705
0.766571 0.214905 0.206177
0.766541 0.214325 0.205200
0.007721 0.042816 0.007050
0.010864 0.043091 0.007263
0.016846 0.042908 0.007355
0.029999 0.045319 0.007721
0.051025 0.047577 0.010254
0.070892 0.051849 0.015137
0.094971 0.055206 0.021545
0.120941 0.061096 0.028809
0.145233 0.064850 0.034393
0.173950 0.070801 0.042358
0.199799 0.075348 0.048492
0.229401 0.079712 0.054169
0.261414 0.085327 0.061920
0.302338 0.089813 0.068787
0.349731 0.096039 0.077209
0.414856 0.105042 0.090149
0.487732 0.123383 0.110504
0.525818 0.135132 0.122986
0.581757 0.154541 0.143066
0.631073 0.171722 0.160278
0.672302 0.186005 0.174652
0.695038 0.193542 0.182129
0.700195 0.195068 0.183472
0.708679 0.198090 0.186554
0.718323 0.201385 0.190002
0.726501 0.204102 0.192688
0.732941 0.206024 0.194580
0.738861 0.208099 0.196594
0.743500 0.209229 0.197662
0.750000 0.211121 0.199677
0.756775 0.213196 0.201965
0.756866 0.212372 0.201233
0.013824 0.064148 0.009888
0.018524 0.063660 0.011017
0.022888 0.063690 0.011414
0.031372 0.064178 0.012878
0.051361 0.066772 0.016418
0.071289 0.069580 0.020203
0.093109 0.073242 0.025299
0.120087 0.078522 0.032318
0.144623 0.082092 0.038116
0.172699 0.086792 0.045349
0.199646 0.093719 0.052643
0.230011 0.097778 0.058594
0.264343 0.103485 0.065063
0.301880 0.108093 0.071198
0.366394 0.113800 0.080994
0.426941 0.122650 0.093048
0.478821 0.135590 0.108582
0.518951 0.143463 0.121613
0.570770 0.158173 0.139404
0.617310 0.172089 0.155365
0.660065 0.185425 0.169983
0.691345 0.194885 0.180634
0.696625 0.196167 0.182159
0.703522 0.198273 0.184296
0.712158 0.201263 0.187286
0.719818 0.203522 0.189972
0.728088 0.206390 0.192719
0.734100 0.208221 0.194580
0.738586 0.209595 0.195679
0.743408 0.210693 0.197052
0.747101 0.211426 0.197815
0.747162 0.210663 0.197113
0.022308 0.085022 0.017914
0.025665 0.085510 0.018188
0.030457 0.085205 0.019592
0.033813 0.084686 0.019531
0.050659 0.086700 0.022736
0.071564 0.089447 0.026306
0.093811 0.092377 0.030579
0.120728 0.098053 0.038208
0.144806 0.101532 0.042908
0.170929 0.105774 0.049072
0.199615 0.112030 0.056610
0.232147 0.118164 0.062347
0.269806 0.121735 0.067230
0.317627 0.125305 0.072632
0.373505 0.130432 0.081818
0.429108 0.139069 0.094055
0.474304 0.149445 0.108673
0.518036 0.158600 0.122986
0.567932 0.170013 0.139862
0.606018 0.179382 0.151611
0.649109 0.191345 0.166229
0.684753 0.201630 0.178162
0.692413 0.202393 0.180634
0.699799 0.203247 0.182892
0.706726 0.204529 0.185211
0.714172 0.206482 0.187592
0.722412 0.208984 0.190460
0.730377 0.211182 0.192993
0.735596 0.212006 0.194489
0.740662 0.212921 0.195984
0.743866 0.213531 0.196503
0.744812 0.212952 0.196167
0.029541 0.106750 0.025452
0.033051 0.106720 0.026581
0.035950 0.106964 0.026520
0.039368 0.105804 0.026581
0.049042 0.106506 0.028015
0.071899 0.110138 0.031952
0.094360 0.113556 0.036926
0.121002 0.118408 0.043427
0.145660 0.121521 0.048309
0.171570 0.126495 0.054993
0.201294 0.132599 0.062714
0.235077 0.137299 0.067047
0.275024 0.140961 0.069244
0.322754 0.142456 0.072815
0.376434 0.148560 0.081665
0.424011 0.157776 0.095032
0.469086 0.166718 0.109344
0.512787 0.174805 0.123199
0.565216 0.186798 0.140930
0.606995 0.194275 0.154144
0.647491 0.203613 0.166901
0.681732 0.212463 0.177826
0.694183 0.214447 0.181885
0.700592 0.214386 0.183746
0.704163 0.213623 0.184418
0.708893 0.214172 0.185699
0.714447 0.215210 0.187378
0.719696 0.216003 0.188782
0.726654 0.217316 0.191040
0.733826 0.218994 0.193237
0.737335 0.219482 0.193970
0.738861 0.219086 0.193848
0.038116 0.129242 0.033813
0.040924 0.129730 0.034393
0.044434 0.129700 0.034729
0.048309 0.128326 0.035004
0.051239 0.127655 0.035034
0.073029 0.131714 0.039673
0.095642 0.134583 0.044067
0.119598 0.137573 0.047852
0.145874 0.142426 0.053741
0.172119 0.147278 0.060486
0.200623 0.152435 0.065704
0.236328 0.156769 0.068909
0.279999 0.161743 0.071136
0.327148 0.163849 0.074188
0.374451 0.168762 0.082184
0.417938 0.177094 0.096130
0.463013 0.184509 0.109985
0.509918 0.194153 0.125061
0.557373 0.203888 0.140503
0.603546 0.213776 0.155609
0.648865 0.222992 0.170135
0.688324 0.231384 0.182617
0.703339 0.232819 0.186981
0.707916 0.231293 0.187897
0.712128 0.229980 0.188629
0.719086 0.230835 0.190918
0.725739 0.231873 0.192780
0.729187 0.231628 0.193451
0.733734 0.232056 0.194580
0.738342 0.232361 0.195831
0.739105 0.231750 0.195404
0.739899 0.230865 0.194763
0.045319 0.152100 0.041779
0.048798 0.152161 0.042206
0.053131 0.151917 0.042816
0.056030 0.151520 0.043243
0.059509 0.150940 0.043823
0.074310 0.153168 0.046722
0.097778 0.156860 0.051514
0.121185 0.159698 0.055237
0.145538 0.163300 0.059998
0.173157 0.168243 0.064941
0.202820 0.172974 0.068237
0.240143 0.178589 0.070709
0.282715 0.183319 0.072296
0.329956 0.186584 0.075836
0.371277 0.192413 0.085999
0.413666 0.198181 0.098328
0.462280 0.207489 0.113556
0.509064 0.216095 0.128510
0.557953 0.225433 0.144226
0.606628 0.236237 0.160126
0.646118 0.242828 0.171783
0.692932 0.253418 0.187073
0.716309 0.257568 0.194397
0.721100 0.255890 0.195526
0.723877 0.253418 0.195587
0.728516 0.252594 0.196625
0.732697 0.252319 0.197418
0.736572 0.251801 0.198212
0.743408 0.252655 0.200256
0.750732 0.253784 0.202576
0.752350 0.253693 0.202423
0.754181 0.253326 0.202423
0.053375 0.174591 0.049713
0.056854 0.175232 0.050842
0.060791 0.175018 0.051514
0.063721 0.174713 0.051910
0.067352 0.174164 0.052216
0.076050 0.174652 0.054260
0.099640 0.178436 0.059082
0.124176 0.181671 0.063171
0.147644 0.185822 0.067230
0.174042 0.191650 0.071930
0.205627 0.198944 0.074066
0.243317 0.204224 0.073181
0.283447 0.208496 0.074463
0.327972 0.213135 0.079315
0.368469 0.217621 0.090454
0.412445 0.223419 0.102905
0.461670 0.231140 0.117981
0.509979 0.239685 0.132996
0.560547 0.249908 0.149292
0.605042 0.257935 0.162842
0.648865 0.266541 0.176636
0.696472 0.276886 0.191956
0.725250 0.281525 0.200684
0.733276 0.281586 0.202911
0.741058 0.281189 0.205109
0.745575 0.280640 0.206177
0.750031 0.280365 0.207062
0.753754 0.279968 0.207886
0.757874 0.279602 0.208649
0.761688 0.279175 0.209351
0.765411 0.280212 0.210266
0.768250 0.280640 0.210754
0.063080 0.198761 0.058807
0.066681 0.199402 0.059906
0.070496 0.200195 0.060883
0.073547 0.200500 0.061890
0.077148 0.200531 0.062408
0.081055 0.199677 0.063080
0.100861 0.202759 0.067719
0.126617 0.206726 0.071777
0.151062 0.212189 0.075165
0.177917 0.219177 0.077881
0.206238 0.224915 0.075531
0.243347 0.230743 0.077240
0.283905 0.236481 0.076569
0.323212 0.239441 0.084625
0.365417 0.245453 0.095673
0.412048 0.251373 0.108795
0.463928 0.260742 0.124634
0.510498 0.267548 0.138580
0.561279 0.277832 0.154510
0.606995 0.285004 0.168335
0.654358 0.294098 0.183105
0.703583 0.304993 0.198975
0.741638 0.312866 0.210968
0.750427 0.311646 0.213074
0.753754 0.309296 0.213318
0.759796 0.308868 0.214752
0.766907 0.309784 0.217010
0.771729 0.309845 0.218140
0.776215 0.309662 0.219177
0.780273 0.309296 0.219940
0.783386 0.311066 0.220825
0.787476 0.312988 0.222015
0.072723 0.225769 0.069153
0.076111 0.226135 0.069763
0.079712 0.226440 0.070557
0.082458 0.226532 0.070892
0.086365 0.226196 0.071289
0.089691 0.225739 0.072174
0.103546 0.227631 0.075104
0.127197 0.231354 0.079468
0.152435 0.237885 0.081940
0.178986 0.247498 0.081818
0.206726 0.253265 0.080078
0.241730 0.259430 0.079590
0.279999 0.264160 0.081879
0.321198 0.269653 0.091583
0.365570 0.275940 0.103210
0.411652 0.282257 0.115814
0.462341 0.290253 0.130676
0.508453 0.296692 0.143768
0.558685 0.305237 0.159088
0.610291 0.315002 0.175232
0.658600 0.324554 0.190216
0.707947 0.335022 0.205963
0.749268 0.342072 0.218262
0.763794 0.343231 0.222382
0.771912 0.342285 0.224487
0.778381 0.341675 0.226105
0.783417 0.341278 0.227264
0.787750 0.340973 0.228241
0.792572 0.340759 0.229248
0.796875 0.340393 0.230133
0.799683 0.341370 0.230682
0.803406 0.342865 0.231720
0.082520 0.253082 0.079102
0.085815 0.253479 0.079834
0.088989 0.253845 0.080322
0.092377 0.253815 0.080688
0.095459 0.253784 0.081451
0.099457 0.252899 0.081604
0.104218 0.252380 0.082306
0.128693 0.259338 0.086639
0.153503 0.267639 0.088013
0.176636 0.277405 0.085632
0.207336 0.286957 0.085876
0.240479 0.291168 0.085602
0.279846 0.296417 0.091980
0.317810 0.298920 0.098846
0.364594 0.307526 0.111511
0.410736 0.312927 0.123352
0.462006 0.322449 0.138245
0.509857 0.328735 0.151428
0.561859 0.337982 0.167053
0.613159 0.346954 0.182434
0.659943 0.355225 0.196442
0.710205 0.365021 0.212189
0.758209 0.375153 0.227234
0.778015 0.376862 0.232788
0.787018 0.375977 0.234833
0.791901 0.373962 0.235565
0.798065 0.374176 0.237366
0.803925 0.374451 0.238831
0.809326 0.374298 0.240143
0.813782 0.374359 0.241058
0.817413 0.375702 0.242065
0.822113 0.377869 0.243469
0.091766 0.279572 0.087677
0.095398 0.280365 0.088898
0.098999 0.281586 0.089905
0.102936 0.281616 0.090515
0.106567 0.281738 0.091553
0.109802 0.281982 0.091248
0.112488 0.282501 0.090912
0.128876 0.286743 0.094360
0.152771 0.299011 0.094269
0.178040 0.311310 0.093475
0.206329 0.318665 0.093964
0.241760 0.324707 0.096893
0.278046 0.326904 0.102051
0.319214 0.333618 0.110321
0.366730 0.342590 0.121979
0.413300 0.349548 0.133759
0.463135 0.356445 0.146942
0.514404 0.364716 0.161316
0.564850 0.373383 0.175995
0.614990 0.381226 0.190491
0.667572 0.390961 0.206451
0.716003 0.400299 0.221222
0.763641 0.408997 0.235413
0.795135 0.414062 0.244934
0.806122 0.413269 0.247650
0.811768 0.411041 0.248627
0.816772 0.410278 0.249512
0.821442 0.409668 0.250427
0.826111 0.409363 0.251465
0.830872 0.409607 0.252686
0.835297 0.410919 0.253845
0.840363 0.412384 0.255219
0.104523 0.310028 0.100128
0.108063 0.312012 0.100250
0.111176 0.314331 0.100647
0.114777 0.315582 0.101044
0.118195 0.315979 0.102356
0.120880 0.316895 0.102112
0.124359 0.318298 0.101471
0.127594 0.318024 0.101471
0.152832 0.334473 0.102051
0.180328 0.346680 0.103729
0.209717 0.355133 0.104645
0.244507 0.358856 0.109558
0.281494 0.364014 0.116089
0.322266 0.370758 0.123932
0.366180 0.377411 0.132568
0.416199 0.386322 0.144867
0.466736 0.395142 0.158539
0.515472 0.401428 0.170898
0.568268 0.410461 0.185974
0.623444 0.421387 0.202454
0.677643 0.431335 0.218689
0.731110 0.442841 0.235138
0.778015 0.450439 0.248962
0.813293 0.454803 0.258881
0.828156 0.454010 0.262299
0.831329 0.450470 0.262115
0.836182 0.449799 0.263123
0.841644 0.449402 0.264252
0.847870 0.449036 0.265625
0.853149 0.449066 0.267059
0.858490 0.450989 0.268585
0.864288 0.453247 0.270355
0.118774 0.348724 0.110962
0.122589 0.351196 0.111176
0.125854 0.354004 0.111542
0.129669 0.355865 0.111786
0.132721 0.357513 0.112488
0.136047 0.358459 0.112366
0.138428 0.359070 0.111969
0.141541 0.359192 0.111664
0.156708 0.370758 0.113525
0.181885 0.383423 0.114471
0.212097 0.387054 0.116608
0.247589 0.394562 0.123322
0.284088 0.400940 0.129822
0.323212 0.406006 0.136566
0.368256 0.415405 0.146301
0.415863 0.422424 0.155609
0.466156 0.430511 0.167969
0.521027 0.441315 0.183167
0.575500 0.451843 0.198700
0.629761 0.461456 0.214172
0.681854 0.469879 0.228912
0.732208 0.478119 0.243469
0.783203 0.487030 0.258545
0.824524 0.493774 0.270355
0.848969 0.495850 0.277008
0.854156 0.493195 0.277618
0.860107 0.492767 0.278931
0.866821 0.492920 0.280640
0.872528 0.492310 0.281769
0.877899 0.492035 0.283112
0.883118 0.493988 0.284760
0.888428 0.496033 0.286285
0.134796 0.390778 0.122009
0.138611 0.393921 0.122375
0.142700 0.397217 0.122925
0.146332 0.399994 0.123535
0.149658 0.401978 0.124084
0.152802 0.402557 0.124237
0.155396 0.402771 0.124207
0.158234 0.402954 0.124054
0.165802 0.407898 0.124725
0.185669 0.419067 0.126068
0.216278 0.422607 0.130280
0.250153 0.430389 0.137054
0.285156 0.436188 0.143127
0.327179 0.446136 0.151978
0.370941 0.454712 0.160919
0.418732 0.462860 0.170502
0.466248 0.468506 0.179199
0.525604 0.483215 0.196411
0.575745 0.489380 0.208740
0.631561 0.500732 0.224762
0.687256 0.510681 0.240662
0.741455 0.521362 0.256531
0.791229 0.529205 0.270905
0.833954 0.534302 0.282562
0.861389 0.535065 0.289001
0.868683 0.532715 0.290283
0.875153 0.532654 0.291809
0.881134 0.532166 0.293304
0.886719 0.531464 0.294250
0.891785 0.530792 0.295227
0.896698 0.531860 0.296448
0.902039 0.533051 0.298004
0.154053 0.437042 0.135986
0.157623 0.439514 0.136597
0.161499 0.441772 0.137512
0.164978 0.443970 0.138123
0.168152 0.446320 0.138611
0.170929 0.446869 0.138641
0.173767 0.446991 0.138611
0.176056 0.446869 0.138397
0.178802 0.446960 0.138031
0.194366 0.450531 0.138824
0.219818 0.457977 0.144196
0.253235 0.465393 0.150421
0.289917 0.474884 0.158142
0.329041 0.482483 0.165649
0.374390 0.493744 0.175781
0.422943 0.503815 0.185944
0.473389 0.512421 0.196167
0.528412 0.523102 0.208588
0.583069 0.532745 0.222961
0.637054 0.542725 0.237671
0.694153 0.553619 0.253998
0.744965 0.561432 0.268127
0.797241 0.571838 0.283966
0.841980 0.576019 0.295319
0.877014 0.579620 0.304504
0.887146 0.576660 0.305817
0.891754 0.573792 0.306061
0.898010 0.573364 0.307526
0.904327 0.572876 0.308838
0.909576 0.572601 0.309967
0.915009 0.574005 0.311371
0.920471 0.575378 0.313049
0.173431 0.478790 0.151459
0.177338 0.481750 0.152283
0.181122 0.484985 0.153076
0.184692 0.487823 0.154114
0.188568 0.489868 0.154724
0.191315 0.490875 0.154907
0.194122 0.491302 0.154816
0.196228 0.489960 0.154419
0.198029 0.487762 0.153656
0.205841 0.485504 0.152985
0.223389 0.489197 0.155853
0.257355 0.502258 0.164886
0.292114 0.509705 0.171295
0.331940 0.519684 0.179901
0.374664 0.528687 0.188171
0.424133 0.541351 0.199463
0.477844 0.553894 0.211792
0.531586 0.564545 0.223328
0.586884 0.574524 0.235962
0.641968 0.585327 0.251251
0.695190 0.592102 0.264954
0.749725 0.603241 0.280914
0.799225 0.610565 0.294525
0.848907 0.619476 0.308777
0.889374 0.621948 0.318329
0.906891 0.622131 0.322601
0.911743 0.619415 0.322968
0.916718 0.617950 0.323517
0.921936 0.617004 0.324371
0.927307 0.616058 0.325226
0.933075 0.617279 0.326752
0.939056 0.618713 0.328522
0.192719 0.518951 0.167145
0.195770 0.520844 0.167175
0.198822 0.522522 0.167267
0.201477 0.524292 0.167328
0.203857 0.523071 0.166901
0.205933 0.522095 0.166626
0.208313 0.520691 0.166290
0.210114 0.518890 0.165649
0.212006 0.517273 0.165253
0.215363 0.516205 0.165009
0.233948 0.525208 0.170563
0.258301 0.533051 0.176056
0.294281 0.545074 0.184784
0.334259 0.556213 0.193481
0.379700 0.570587 0.204651
0.426239 0.580475 0.214081
0.478912 0.592224 0.225433
0.535278 0.606415 0.238800
0.588135 0.614655 0.249481
0.642273 0.623718 0.262665
0.699524 0.635010 0.278870
0.754822 0.645325 0.294403
0.805603 0.654175 0.308411
0.851837 0.658630 0.319580
0.898376 0.665344 0.332214
0.925079 0.666626 0.338531
0.928589 0.661957 0.337769
0.933472 0.659943 0.338226
0.938751 0.658936 0.339020
0.944305 0.658569 0.340057
0.950378 0.659760 0.341675
0.956787 0.660980 0.343445
0.210083 0.556396 0.181183
0.213379 0.558807 0.181824
0.216888 0.560852 0.182404
0.218811 0.559967 0.182037
0.221130 0.559479 0.182037
0.223602 0.558777 0.182037
0.225555 0.557892 0.181763
0.227325 0.556061 0.181061
0.229431 0.554932 0.181030
0.231384 0.553864 0.180695
0.241577 0.556030 0.182434
0.264435 0.567139 0.189270
0.292938 0.575653 0.195587
0.336365 0.591827 0.207001
0.379822 0.604218 0.216919
0.427704 0.618042 0.228149
0.482452 0.633270 0.240997
0.537445 0.645660 0.253571
0.594482 0.656830 0.266418
0.648438 0.666534 0.278473
0.702789 0.676422 0.292267
0.759277 0.687775 0.308044
0.808746 0.694122 0.320343
0.858887 0.702637 0.333832
0.904419 0.705902 0.344421
0.938477 0.709320 0.352936
0.945679 0.704834 0.353119
0.950562 0.702576 0.353333
0.955658 0.700653 0.353760
0.958557 0.699432 0.354370
0.960571 0.700500 0.355896
0.962433 0.701050 0.357391
0.226624 0.592590 0.195160
0.229431 0.593750 0.195526
0.231506 0.592621 0.194946
0.233307 0.591766 0.194611
0.235657 0.591431 0.194733
0.237823 0.590729 0.194519
0.239624 0.589722 0.194336
0.241486 0.588531 0.194092
0.244080 0.588379 0.194244
0.246582 0.588379 0.194580
0.249207 0.587982 0.194855
0.273010 0.601044 0.202606
0.295685 0.609894 0.208405
0.338104 0.626709 0.219971
0.382935 0.641022 0.230774
0.430420 0.655212 0.242126
0.483032 0.669464 0.254181
0.538788 0.683167 0.267548
0.595093 0.694305 0.279999
0.649689 0.704834 0.292297
0.703766 0.714386 0.304138
0.758026 0.723419 0.317719
0.810211 0.732666 0.331421
0.858490 0.738678 0.343201
0.907532 0.743744 0.355225
0.949951 0.750610 0.366486
0.959839 0.746307 0.367554
0.961395 0.743408 0.367767
0.962891 0.741119 0.368347
0.964294 0.738434 0.368439
0.966156 0.738464 0.370117
0.968231 0.739746 0.372894
0.242920 0.627869 0.209137
0.245270 0.627991 0.209381
0.247467 0.627716 0.209381
0.249664 0.627258 0.209320
0.252014 0.627350 0.209625
0.254913 0.628143 0.210114
0.257690 0.628357 0.210510
0.259949 0.627930 0.210693
0.262024 0.626892 0.210388
0.264069 0.626251 0.210449
0.266144 0.625366 0.210266
0.280426 0.631622 0.214264
0.302551 0.643768 0.221558
0.333984 0.654449 0.229034
0.382385 0.674286 0.242798
0.430542 0.689240 0.254303
0.482086 0.703369 0.266449
0.537170 0.715515 0.278595
0.595123 0.729736 0.292694
0.648560 0.739563 0.303864
0.702118 0.749268 0.315399
0.756989 0.759796 0.328003
0.810547 0.768555 0.341492
0.857544 0.773712 0.352539
0.908478 0.781433 0.365631
0.952271 0.784241 0.375549
0.964813 0.783081 0.380280
0.967194 0.780975 0.382477
0.968933 0.779755 0.384155
0.970306 0.777496 0.385010
0.972137 0.777069 0.386963
0.973907 0.776947 0.388947
0.256439 0.659363 0.221588
0.258270 0.658325 0.221161
0.260376 0.657928 0.221161
0.262543 0.657135 0.220917
0.264160 0.656158 0.220428
0.266357 0.655853 0.220398
0.268585 0.655548 0.220551
0.271027 0.655609 0.220917
0.273987 0.656006 0.221558
0.276794 0.656494 0.222198
0.279572 0.656952 0.222717
0.285736 0.658661 0.224121
0.308868 0.672394 0.232178
0.335632 0.685547 0.240234
0.380249 0.703094 0.252502
0.429260 0.719818 0.264832
0.479950 0.733582 0.276825
0.538177 0.750275 0.291443
0.594879 0.764618 0.305023
0.649414 0.776459 0.317291
0.702301 0.786377 0.328400
0.756409 0.795441 0.339600
0.807831 0.802338 0.350159
0.858276 0.809906 0.362701
0.907898 0.816864 0.375122
0.955505 0.823303 0.387024
0.968933 0.817383 0.391510
0.972412 0.814148 0.395081
0.974060 0.812775 0.397278
0.975861 0.812317 0.399048
0.977905 0.813354 0.401917
0.980011 0.814545 0.404877
0.261230 0.670715 0.225616
0.263000 0.670135 0.225342
0.265564 0.670227 0.225433
0.267914 0.670441 0.225586
0.269897 0.670288 0.225647
0.272491 0.671021 0.226166
0.275482 0.672333 0.226959
0.278320 0.673309 0.227600
0.281494 0.674805 0.228363
0.284790 0.676422 0.229492
0.288116 0.678131 0.230560
0.291351 0.679810 0.231720
0.310913 0.692627 0.238800
0.333405 0.703857 0.245483
0.373444 0.722534 0.257568
0.425140 0.744415 0.272430
0.476501 0.760742 0.285370
0.533325 0.777618 0.299835
0.590973 0.794037 0.314270
0.645111 0.805420 0.325775
0.697998 0.816711 0.337555
0.752045 0.826508 0.348907
0.806122 0.834900 0.359833
0.857849 0.843262 0.372009
0.907867 0.850922 0.384460
0.954651 0.854980 0.395020
0.973236 0.851959 0.403839
0.977631 0.847382 0.408173
0.979156 0.845245 0.409302
0.980927 0.844482 0.411163
0.982941 0.845184 0.413666
0.984924 0.846069 0.416504
0.263550 0.676300 0.227692
0.265411 0.675568 0.227478
0.267731 0.675751 0.227539
0.269958 0.675934 0.227753
0.272156 0.676208 0.227875
0.274963 0.677002 0.228302
0.277832 0.678345 0.229065
0.280914 0.679596 0.229767
0.284027 0.681335 0.230652
0.287659 0.683899 0.232300
0.291412 0.686340 0.233582
0.294800 0.688477 0.234741
0.306549 0.696899 0.239410
0.329407 0.710754 0.247284
0.364044 0.730316 0.258972
0.413391 0.750916 0.272888
0.466522 0.769775 0.286957
0.523102 0.789185 0.302185
0.581238 0.806793 0.316833
0.638000 0.823303 0.330841
0.691772 0.836212 0.343140
0.748016 0.849609 0.356079
0.802765 0.859619 0.367554
0.855530 0.869324 0.378937
0.904114 0.875977 0.390259
0.953644 0.883484 0.402527
0.975830 0.880188 0.410919
0.982452 0.877319 0.420197
0.984161 0.876282 0.422821
0.985962 0.875610 0.425476
0.987946 0.876251 0.428802
0.990021 0.877075 0.432312
0.265015 0.680695 0.229248
0.266876 0.680023 0.228821
0.269196 0.680634 0.229187
0.271576 0.680634 0.229248
0.273834 0.680786 0.229370
0.276581 0.681580 0.229767
0.279480 0.682983 0.230560
0.282532 0.684174 0.231323
0.285706 0.685974 0.232361
0.289520 0.688843 0.233826
0.293213 0.691650 0.235352
0.297058 0.694122 0.236847
0.306244 0.701141 0.240540
0.326904 0.714386 0.248016
0.354797 0.729401 0.256866
0.405945 0.756073 0.273560
0.459045 0.774811 0.287506
