滤镜资源/Professional Luts Collection/Triune-Digital-Cinematic-LUTs/3D LUTs (CUBE)/LOG/The Book of Eli - LOG.cube
#Created by Benjamin (IWLTBAP) : http://luts.iwltbap.com
#Copyright: (C) Copyright 2016 Triune Films and IWLTBAP
TITLE "Blockbuster LUTs Pack (LOG)"
#LUT size
LUT_3D_SIZE 8
#LUT data points
DOMAIN_MIN 0.000000 0.000000 0.000000
DOMAIN_MAX 0.903226 0.903226 0.903226
0.028687 0.027069 0.024780
0.074402 0.033264 0.028778
0.141327 0.040131 0.036072
0.218140 0.049316 0.042389
0.310242 0.064972 0.058624
0.418610 0.081482 0.073120
0.449219 0.088013 0.078369
0.472534 0.094299 0.083069
0.052216 0.080597 0.041931
0.084076 0.077820 0.043671
0.147797 0.077576 0.049286
0.219849 0.077393 0.052399
0.307587 0.082489 0.064209
0.426300 0.102722 0.080505
0.464417 0.110840 0.087830
0.489838 0.117493 0.094452
0.068573 0.140808 0.053711
0.081757 0.140045 0.055328
0.153381 0.148071 0.067291
0.230133 0.150574 0.076843
0.324005 0.156250 0.085602
0.451263 0.173370 0.110077
0.508209 0.172913 0.120087
0.535919 0.175537 0.122620
0.097046 0.221588 0.079132
0.110931 0.221558 0.081635
0.164124 0.229858 0.095154
0.238892 0.234894 0.101501
0.351196 0.256256 0.126526
0.489960 0.279083 0.149750
0.585907 0.294250 0.171173
0.607483 0.292725 0.175018
0.114929 0.329742 0.115875
0.128143 0.329407 0.117859
0.152588 0.328491 0.124146
0.258240 0.353607 0.148346
0.377350 0.374878 0.168915
0.544434 0.422760 0.219391
0.690308 0.468292 0.274323
0.711212 0.466705 0.277527
0.136688 0.455414 0.160034
0.151794 0.454529 0.160614
0.170959 0.449249 0.162018
0.279022 0.472961 0.185699
0.436859 0.524261 0.241455
0.595886 0.566589 0.296478
0.747284 0.613586 0.363159
0.787689 0.624664 0.381561
0.216858 0.583313 0.224518
0.235260 0.582642 0.226562
0.253021 0.582001 0.228088
0.306519 0.590088 0.242310
0.497589 0.661072 0.332214
0.645935 0.703278 0.386963
0.771027 0.731659 0.435516
0.839386 0.748779 0.466217
0.248962 0.618439 0.248627
0.268250 0.623260 0.253418
0.290497 0.628815 0.258728
0.316925 0.635559 0.267609
0.484283 0.698273 0.339539
0.664856 0.779846 0.445770
0.783203 0.811951 0.487762
0.881897 0.847687 0.533508
0.029266 0.028137 0.063538
0.077454 0.036224 0.069519
0.148773 0.046387 0.074036
0.221008 0.056335 0.079590
0.314362 0.069672 0.082581
0.421387 0.085693 0.088623
0.451263 0.090576 0.094299
0.474945 0.097046 0.099579
0.049866 0.076935 0.072968
0.083588 0.077576 0.073242
0.147736 0.076874 0.071808
0.219116 0.077911 0.074188
0.308929 0.084015 0.076202
0.428589 0.105225 0.093903
0.466278 0.112366 0.102875
0.492462 0.118988 0.110107
0.069183 0.141724 0.071625
0.082855 0.141144 0.071899
0.154114 0.148956 0.082703
0.230316 0.151031 0.091858
0.325806 0.156830 0.104279
0.454224 0.174164 0.125275
0.511230 0.173737 0.133606
0.539856 0.177704 0.136597
0.097839 0.222107 0.093323
0.112305 0.222351 0.097321
0.163696 0.228760 0.108276
0.241730 0.236359 0.117950
0.352844 0.255890 0.139771
0.492218 0.279541 0.164642
0.590973 0.297363 0.189423
0.613678 0.295715 0.193726
0.115173 0.330994 0.132843
0.128143 0.329926 0.134735
0.153229 0.327942 0.135437
0.256683 0.351776 0.161102
0.378265 0.377502 0.186066
0.545959 0.423401 0.234283
0.692169 0.468140 0.290985
0.712799 0.467163 0.294952
0.132843 0.450867 0.174042
0.148346 0.450073 0.175140
0.169708 0.447662 0.176270
0.274689 0.471405 0.199310
0.438629 0.526825 0.260681
0.594727 0.566864 0.312347
0.747528 0.614502 0.379852
0.788696 0.625336 0.397552
0.213654 0.582916 0.240112
0.232269 0.582428 0.241669
0.251251 0.582184 0.242340
0.301971 0.588043 0.257263
0.493225 0.658447 0.343903
0.645203 0.702850 0.401642
0.769135 0.730774 0.449677
0.840424 0.750244 0.482971
0.248108 0.620117 0.266510
0.267487 0.624878 0.270325
0.292023 0.631775 0.277008
0.318848 0.639801 0.285797
0.479797 0.697723 0.353760
0.665771 0.783508 0.462769
0.782013 0.812592 0.502106
0.882538 0.849487 0.547546
0.039337 0.037384 0.140808
0.092194 0.052673 0.156555
0.175079 0.072937 0.176605
0.251099 0.081879 0.172638
0.350952 0.097260 0.180786
0.458252 0.107666 0.182861
0.485168 0.112823 0.181152
0.509125 0.115570 0.179718
0.055725 0.080505 0.148773
0.088531 0.083313 0.151855
0.165253 0.093536 0.166656
0.244995 0.099182 0.167633
0.338715 0.105774 0.169861
0.459015 0.123138 0.178711
0.497467 0.130951 0.178284
0.521729 0.134857 0.178436
0.073242 0.144653 0.148926
0.088013 0.144958 0.149109
0.163177 0.158691 0.164551
0.238037 0.157410 0.160767
0.343262 0.168488 0.170410
0.471893 0.182587 0.183655
0.536835 0.190552 0.185913
0.559174 0.188965 0.185150
0.103363 0.225922 0.150848
0.114197 0.225098 0.151337
0.166077 0.232208 0.156952
0.255493 0.250275 0.176208
0.361755 0.263062 0.185120
0.499390 0.284546 0.197540
0.597931 0.300079 0.212952
0.621826 0.300079 0.216003
0.116089 0.330963 0.167419
0.128876 0.329193 0.164856
0.152039 0.323730 0.155518
0.257050 0.352844 0.174438
0.385162 0.381592 0.205414
0.547363 0.424774 0.250946
0.691406 0.467133 0.307526
0.713654 0.465546 0.311890
0.133545 0.449036 0.187958
0.151733 0.447601 0.189575
0.171936 0.444763 0.189758
0.265778 0.466522 0.212402
0.438965 0.527435 0.279480
0.591278 0.564758 0.327698
0.746002 0.613678 0.395355
0.788940 0.624664 0.413788
0.208069 0.582642 0.256470
0.229218 0.582062 0.256409
0.247437 0.580872 0.256104
0.296967 0.586029 0.271912
0.486481 0.653595 0.352509
0.643738 0.702240 0.416748
0.765106 0.727722 0.460236
0.839844 0.750275 0.498108
0.247589 0.624084 0.285370
0.268402 0.626892 0.288727
0.292694 0.633331 0.293793
0.317993 0.640930 0.302673
0.476685 0.698120 0.368988
0.665009 0.786133 0.477875
0.780609 0.814209 0.517426
0.882233 0.850006 0.561035
0.051666 0.051086 0.231293
0.099335 0.063934 0.244415
0.208771 0.111664 0.296844
0.315704 0.133392 0.312744
0.406158 0.133759 0.305450
0.528229 0.156219 0.321167
0.552032 0.154724 0.309021
0.570343 0.155823 0.304321
0.071899 0.098328 0.246704
0.103333 0.101288 0.251953
0.196991 0.127350 0.284393
0.301666 0.143555 0.302277
0.396881 0.146667 0.294647
0.526672 0.171661 0.316284
0.559357 0.171387 0.307007
0.579041 0.171082 0.301727
0.088654 0.159149 0.248047
0.104828 0.162537 0.252045
0.186249 0.182892 0.271301
0.273956 0.191193 0.286774
0.390900 0.203644 0.296265
0.525452 0.219452 0.312744
0.586945 0.223694 0.313141
0.605499 0.220001 0.312103
0.115082 0.237518 0.251831
0.131287 0.240234 0.252441
0.183289 0.252716 0.266022
0.279480 0.276855 0.291473
0.387512 0.282623 0.293793
0.535217 0.313690 0.316711
0.647491 0.337463 0.345428
0.674011 0.341827 0.347382
0.129852 0.343231 0.265442
0.143005 0.343689 0.264984
0.166321 0.345032 0.260529
0.279968 0.380707 0.296204
0.432129 0.428467 0.342072
0.577026 0.449493 0.354492
0.709747 0.483459 0.396118
0.726257 0.475922 0.388916
0.137238 0.471100 0.291412
0.152313 0.467651 0.288727
0.168121 0.458099 0.278870
0.261627 0.467834 0.282715
0.457947 0.548492 0.362244
0.600952 0.574982 0.389923
0.747833 0.616272 0.438538
0.793427 0.627747 0.454254
0.205078 0.590271 0.319824
0.227020 0.591431 0.319733
0.245819 0.589172 0.316589
0.291931 0.586639 0.312347
0.469879 0.643341 0.368744
0.642670 0.704712 0.442810
0.760284 0.723572 0.470581
0.837189 0.747711 0.510986
0.247742 0.630768 0.314911
0.269958 0.633881 0.317719
0.295319 0.638580 0.320648
0.318085 0.643127 0.321930
0.471954 0.696411 0.382660
0.660522 0.785614 0.490631
0.779449 0.816010 0.532379
0.882874 0.851013 0.575409
0.073029 0.071716 0.336304
0.110168 0.081512 0.348907
0.223267 0.126801 0.399597
0.389404 0.193054 0.466705
0.517334 0.211151 0.478973
0.586639 0.198883 0.452118
0.615601 0.204132 0.451050
0.641541 0.211487 0.454681
0.092346 0.115143 0.354736
0.117767 0.117706 0.358490
0.206909 0.141937 0.385193
0.373077 0.201874 0.455536
0.506348 0.225800 0.473755
0.585052 0.215149 0.451080
0.629578 0.228180 0.459137
0.652557 0.233246 0.459106
0.123322 0.195099 0.378723
0.141235 0.199554 0.382202
0.221497 0.218719 0.403015
0.346527 0.250336 0.435699
0.494598 0.285400 0.470337
0.601776 0.282990 0.468872
0.661011 0.283875 0.469757
0.675842 0.279388 0.466461
0.144623 0.273010 0.378357
0.160767 0.276855 0.383301
0.223022 0.305023 0.408600
0.329376 0.327545 0.431763
0.463715 0.349121 0.450714
0.601654 0.370819 0.468872
0.695923 0.385773 0.488647
0.712067 0.381714 0.485931
0.144440 0.366882 0.382843
0.159058 0.372498 0.385956
0.174988 0.373718 0.388245
0.321014 0.423584 0.433350
0.468536 0.460419 0.464722
0.605988 0.480316 0.485138
0.733734 0.507355 0.514465
0.755219 0.507751 0.517822
0.160431 0.492279 0.406982
0.177399 0.492676 0.409393
0.195984 0.488495 0.406494
0.298706 0.512817 0.426239
0.489105 0.581055 0.493530
0.639526 0.613831 0.527039
0.763306 0.635773 0.553650
0.802856 0.640472 0.559662
0.252869 0.633270 0.461548
0.270294 0.632904 0.460510
0.285736 0.629395 0.455780
0.322357 0.626129 0.447754
0.474091 0.658173 0.480499
0.657806 0.725189 0.556213
0.768982 0.738098 0.573425
0.847656 0.760803 0.600983
0.290070 0.676208 0.462158
0.307556 0.677765 0.460419
0.323822 0.677338 0.456482
0.340851 0.676941 0.448944
0.481384 0.716553 0.484711
0.650269 0.785828 0.558807
0.785492 0.828064 0.602234
0.888550 0.859619 0.629517
0.088562 0.088684 0.417725
0.126526 0.101105 0.434937
0.220581 0.131805 0.474915
0.418488 0.217743 0.570862
0.573273 0.262390 0.616638
0.678223 0.276794 0.629059
0.688416 0.265167 0.610168
0.697479 0.259430 0.596954
0.114075 0.137970 0.449982
0.135101 0.138458 0.455750
0.215881 0.150879 0.477814
0.399750 0.225647 0.563904
0.565399 0.276733 0.613525
0.680054 0.294617 0.626801
0.693634 0.281830 0.612274
0.702759 0.276215 0.594696
0.170105 0.243744 0.516998
0.185028 0.244080 0.520355
0.267181 0.261993 0.541473
0.389984 0.286682 0.567017
0.573486 0.351013 0.628784
0.691132 0.365753 0.649750
0.713440 0.336060 0.619263
0.720215 0.324829 0.607178
0.197144 0.341583 0.536804
0.215210 0.344574 0.539001
0.274628 0.368774 0.564697
0.410889 0.402100 0.596680
0.544830 0.422821 0.608368
0.686188 0.457825 0.646545
0.748138 0.442322 0.636688
0.764648 0.437866 0.634033
0.177246 0.428314 0.533752
0.199768 0.435577 0.539307
0.226715 0.440643 0.542847
0.398529 0.499207 0.598846
0.524231 0.510773 0.605988
0.657990 0.533691 0.627075
0.769501 0.546722 0.643829
0.788300 0.543762 0.643829
0.186432 0.531830 0.537231
0.208588 0.532928 0.539429
0.230377 0.531036 0.538269
0.364960 0.572357 0.577881
0.529266 0.617706 0.617645
0.658264 0.636841 0.640594
0.775299 0.652191 0.659149
0.815735 0.655212 0.661743
0.275818 0.654419 0.573547
0.297272 0.655914 0.575165
0.317932 0.655182 0.574677
0.360992 0.657806 0.576050
0.518433 0.700470 0.615936
0.670044 0.747437 0.666870
0.795258 0.771973 0.694336
0.865356 0.780396 0.701843
0.321411 0.703918 0.584198
0.345428 0.710968 0.587311
0.368652 0.716797 0.589020
0.392456 0.724030 0.590485
0.514984 0.755127 0.614929
0.654846 0.796906 0.653076
0.809235 0.857941 0.711456
0.903503 0.878113 0.725769
0.093903 0.094543 0.438782
0.127441 0.104797 0.453430
0.222076 0.135864 0.493011
0.418060 0.218658 0.587860
0.576874 0.267700 0.640594
0.690979 0.291870 0.670258
0.715790 0.293732 0.669250
0.727997 0.290894 0.665802
0.115051 0.136749 0.467133
0.134033 0.137085 0.472321
0.217499 0.152740 0.500549
0.397949 0.225372 0.584534
0.573181 0.285461 0.645966
0.694580 0.315094 0.677399
0.727844 0.318237 0.682312
0.740967 0.315857 0.679596
0.181030 0.253632 0.551086
0.196930 0.252930 0.554321
0.275879 0.269989 0.580261
0.398682 0.294373 0.610687
0.580292 0.353149 0.675079
0.706543 0.378693 0.707367
0.752502 0.370422 0.703644
0.762878 0.361633 0.699432
0.225128 0.374542 0.608002
0.244537 0.381378 0.616821
0.316101 0.407867 0.645477
0.451965 0.435547 0.679260
0.561920 0.433350 0.681885
0.714935 0.487823 0.738831
0.803436 0.504059 0.762634
0.816315 0.497070 0.761200
0.231720 0.476532 0.625549
0.254669 0.482788 0.637817
0.286011 0.493103 0.655457
0.457947 0.553192 0.716156
0.582428 0.564484 0.730804
0.697876 0.575073 0.750702
0.813965 0.601562 0.781494
0.832214 0.594147 0.777100
0.265106 0.589325 0.674500
0.290436 0.596588 0.681213
0.324951 0.602753 0.686676
0.441864 0.637573 0.725342
0.577789 0.663177 0.752686
0.689270 0.668732 0.759491
0.803467 0.684479 0.773895
0.843964 0.684967 0.777313
0.327148 0.690887 0.696442
0.351501 0.694305 0.699890
0.374359 0.695343 0.701660
0.411804 0.699280 0.703247
0.562805 0.740814 0.744537
0.693359 0.770630 0.774902
0.814636 0.792236 0.795044
0.878632 0.794586 0.799988
0.367950 0.741333 0.702606
0.389679 0.745361 0.703461
0.411774 0.751587 0.706085
0.432495 0.756622 0.705902
0.541077 0.786011 0.731567
0.679596 0.829712 0.769958
0.826843 0.878571 0.811127
0.921417 0.898254 0.824677
0.096039 0.098267 0.458496
0.128479 0.108276 0.472351
0.226318 0.141785 0.513275
0.418823 0.220215 0.604645
0.580627 0.271759 0.659149
0.694794 0.298126 0.690430
0.723999 0.302734 0.693390
0.739899 0.303589 0.692841
0.118500 0.140167 0.487396
0.135071 0.139252 0.490509
0.220642 0.158752 0.523773
0.397491 0.225159 0.599487
0.577179 0.290863 0.664825
0.697723 0.320282 0.698029
0.735565 0.326599 0.705292
0.752228 0.328613 0.705841
0.190308 0.256134 0.569977
0.204895 0.255707 0.572083
0.280182 0.273773 0.599457
0.402283 0.295563 0.626984
0.579346 0.351624 0.686707
0.709961 0.379059 0.722595
0.759888 0.376190 0.726227
0.768829 0.367401 0.721252
0.234009 0.386658 0.636047
0.254578 0.394958 0.646393
0.328705 0.418396 0.673157
0.461578 0.444672 0.704712
0.562622 0.431885 0.697205
0.718933 0.489868 0.754852
0.809662 0.508820 0.781433
0.824493 0.501038 0.780945
0.237366 0.486206 0.654175
0.261169 0.493317 0.664398
0.298126 0.503296 0.678223
0.465576 0.558441 0.736572
0.588745 0.570435 0.750580
0.700745 0.576233 0.768341
0.819214 0.604462 0.802368
0.842804 0.604095 0.807495
0.270386 0.593201 0.694977
0.296875 0.599945 0.700897
0.328583 0.605255 0.707062
0.446106 0.642395 0.748291
0.589508 0.675171 0.787720
0.702057 0.683868 0.802094
0.811371 0.694092 0.816498
0.858459 0.698608 0.830139
0.348114 0.706543 0.737518
0.376068 0.713959 0.746918
0.401489 0.718842 0.755707
0.439453 0.724731 0.765533
0.581024 0.762085 0.807312
0.714661 0.791687 0.843140
0.816589 0.794434 0.851166
0.885986 0.797485 0.858704
0.384247 0.756653 0.758240
0.408600 0.763428 0.763702
0.432343 0.771240 0.772247
0.455444 0.778656 0.780060
0.565582 0.811737 0.816406
0.703949 0.856232 0.858643
0.831696 0.887970 0.887756
0.927155 0.905762 0.903473
