滤镜资源/Professional Luts Collection/Triune-Digital-Cinematic-LUTs/3D LUTs (CUBE)/LOG/The Lord of the Rings - LOG.cube
#Created by Benjamin (IWLTBAP) : http://luts.iwltbap.com
#Copyright: (C) Copyright 2016 Triune Films and IWLTBAP
TITLE "Blockbuster LUTs Pack (LOG)"
#LUT size
LUT_3D_SIZE 8
#LUT data points
DOMAIN_MIN 0.000000 0.000000 0.000000
DOMAIN_MAX 0.903226 0.903226 0.903226
0.005157 0.004669 0.004425
0.054260 0.006714 0.006470
0.154205 0.031860 0.028839
0.268066 0.058105 0.055573
0.502136 0.116516 0.116364
0.698242 0.185852 0.184265
0.739044 0.199982 0.198425
0.771545 0.211060 0.209381
0.007721 0.042816 0.007050
0.051025 0.047577 0.010254
0.145233 0.064850 0.034393
0.261414 0.085327 0.061920
0.487732 0.123383 0.110504
0.672302 0.186005 0.174652
0.718323 0.201385 0.190002
0.743500 0.209229 0.197662
0.038116 0.129242 0.033813
0.051239 0.127655 0.035034
0.145874 0.142426 0.053741
0.279999 0.161743 0.071136
0.463013 0.184509 0.109985
0.648865 0.222992 0.170135
0.712128 0.229980 0.188629
0.733734 0.232056 0.194580
0.072723 0.225769 0.069153
0.086365 0.226196 0.071289
0.152435 0.237885 0.081940
0.279999 0.264160 0.081879
0.462341 0.290253 0.130676
0.658600 0.324554 0.190216
0.771912 0.342285 0.224487
0.792572 0.340759 0.229248
0.118774 0.348724 0.110962
0.132721 0.357513 0.112488
0.156708 0.370758 0.113525
0.284088 0.400940 0.129822
0.466156 0.430511 0.167969
0.681854 0.469879 0.228912
0.848969 0.495850 0.277008
0.872528 0.492310 0.281769
0.192719 0.518951 0.167145
0.203857 0.523071 0.166901
0.212006 0.517273 0.165253
0.294281 0.545074 0.184784
0.478912 0.592224 0.225433
0.699524 0.635010 0.278870
0.898376 0.665344 0.332214
0.938751 0.658936 0.339020
0.256439 0.659363 0.221588
0.264160 0.656158 0.220428
0.273987 0.656006 0.221558
0.308868 0.672394 0.232178
0.479950 0.733582 0.276825
0.702301 0.786377 0.328400
0.907898 0.816864 0.375122
0.974060 0.812775 0.397278
0.266449 0.684967 0.230377
0.275513 0.685577 0.230896
0.287201 0.690552 0.233795
0.305023 0.703674 0.240967
0.452393 0.777313 0.287323
0.678162 0.851257 0.345978
0.892059 0.897064 0.393188
0.989441 0.909607 0.434082
0.007874 0.007111 0.051544
0.065002 0.014374 0.058777
0.161621 0.039764 0.075653
0.280334 0.067139 0.095093
0.511139 0.119354 0.138184
0.695496 0.184845 0.193298
0.737640 0.199341 0.207764
0.770294 0.210571 0.218597
0.014038 0.049469 0.047363
0.054504 0.054688 0.051300
0.150970 0.070129 0.068085
0.273560 0.086334 0.082977
0.499847 0.127960 0.127594
0.704742 0.197266 0.195496
0.743195 0.209137 0.207336
0.771454 0.218292 0.216553
0.040741 0.132904 0.052551
0.053467 0.130585 0.052032
0.147766 0.144684 0.070740
0.286774 0.161560 0.083160
0.479889 0.185791 0.123932
0.667877 0.226318 0.184845
0.731415 0.233704 0.203644
0.747284 0.234314 0.207092
0.074799 0.228607 0.084656
0.087494 0.228180 0.086700
0.151550 0.242981 0.094452
0.282440 0.266235 0.094879
0.472107 0.291382 0.141235
0.673096 0.326813 0.202942
0.786713 0.344971 0.237396
0.806580 0.344208 0.241974
0.122162 0.359131 0.124542
0.135681 0.368439 0.124329
0.158081 0.377228 0.125549
0.282928 0.406128 0.139709
0.473267 0.434967 0.178589
0.690887 0.472870 0.240570
0.854523 0.499390 0.288361
0.877533 0.496674 0.293152
0.194000 0.520569 0.178741
0.206604 0.528778 0.180786
0.216309 0.529694 0.179962
0.290802 0.550873 0.194427
0.483490 0.596558 0.236328
0.707642 0.640350 0.291534
0.903778 0.668762 0.343170
0.947784 0.665619 0.351990
0.254425 0.655243 0.229218
0.264679 0.659515 0.229492
0.274780 0.660339 0.231018
0.308289 0.675476 0.240875
0.482574 0.735413 0.286957
0.710938 0.789520 0.339813
0.915405 0.818604 0.386017
0.975189 0.817841 0.410522
0.265137 0.682404 0.238586
0.277893 0.692169 0.241486
0.289093 0.696350 0.244019
0.303741 0.705170 0.248871
0.451416 0.778137 0.296173
0.684906 0.854858 0.356964
0.899811 0.904205 0.405792
0.990845 0.915619 0.448395
0.035065 0.028290 0.155670
0.083008 0.037445 0.160370
0.175323 0.054443 0.171448
0.353546 0.067993 0.195892
0.529175 0.127838 0.219727
0.704712 0.189026 0.260895
0.744568 0.202515 0.265594
0.774506 0.212433 0.271027
0.041687 0.073822 0.151855
0.075378 0.076782 0.154602
0.166656 0.079956 0.163483
0.324066 0.082733 0.176605
0.517120 0.131500 0.203949
0.693024 0.192413 0.245544
0.737366 0.206451 0.250946
0.757111 0.211884 0.252960
0.056641 0.150543 0.149841
0.069733 0.149170 0.147949
0.152313 0.152374 0.150757
0.299683 0.159973 0.155579
0.497223 0.190338 0.186096
0.689819 0.231659 0.231445
0.758789 0.241089 0.242126
0.777313 0.242432 0.243408
0.083099 0.247498 0.152405
0.094269 0.249451 0.149811
0.137543 0.253113 0.138702
0.278473 0.264740 0.138763
0.481537 0.293396 0.174225
0.682129 0.327789 0.222687
0.793396 0.343536 0.248688
0.815308 0.343903 0.252991
0.128265 0.376770 0.154205
0.139801 0.381317 0.151428
0.156677 0.380646 0.144928
0.278412 0.406342 0.153107
0.474304 0.435303 0.187653
0.691437 0.473450 0.250214
0.857269 0.500458 0.298340
0.878693 0.496613 0.302277
0.194183 0.520142 0.190186
0.206360 0.527527 0.191895
0.216827 0.530243 0.192200
0.281647 0.550385 0.201752
0.479889 0.593719 0.243958
0.707092 0.638580 0.299866
0.906708 0.670319 0.353271
0.952301 0.668945 0.363068
0.255035 0.655518 0.241425
0.265961 0.660889 0.242371
0.277435 0.665222 0.243927
0.307312 0.675964 0.249878
0.480865 0.734558 0.295288
0.711334 0.789673 0.348755
0.919525 0.820862 0.396790
0.976074 0.821075 0.422272
0.265472 0.682983 0.251221
0.277710 0.691406 0.253265
0.290558 0.699982 0.256134
0.304047 0.707611 0.259216
0.443359 0.774902 0.302124
0.686340 0.859192 0.367798
0.902100 0.910278 0.417145
0.992432 0.921600 0.462738
0.053894 0.044403 0.271332
0.099945 0.048096 0.299347
0.207855 0.041962 0.350647
0.355713 0.065613 0.338531
0.536072 0.130615 0.350586
0.713776 0.192963 0.377441
0.752136 0.205841 0.374603
0.774139 0.212372 0.372681
0.060364 0.088959 0.268280
0.085571 0.080994 0.292725
0.174347 0.068634 0.317841
0.340118 0.073486 0.326813
0.516571 0.131470 0.329895
0.687317 0.189911 0.352081
0.731567 0.203949 0.351227
0.744873 0.206482 0.348145
0.062195 0.159454 0.282776
0.073975 0.155914 0.281891
0.139313 0.151855 0.288757
0.295044 0.155243 0.286621
0.498383 0.191986 0.310760
0.685699 0.231903 0.338867
0.752258 0.236664 0.340393
0.765533 0.234863 0.337036
0.084656 0.258728 0.261780
0.093842 0.260590 0.264252
0.132141 0.259735 0.262268
0.272919 0.269073 0.265289
0.480896 0.307281 0.299469
0.685547 0.344910 0.336945
0.800659 0.362885 0.356567
0.821625 0.360931 0.354401
0.137970 0.386078 0.258545
0.147034 0.388763 0.257111
0.160522 0.391815 0.252441
0.262665 0.408783 0.262756
0.474091 0.443146 0.293243
0.700378 0.488464 0.340210
0.867737 0.515564 0.371674
0.890015 0.510284 0.368134
0.199646 0.525116 0.269714
0.211243 0.531586 0.269684
0.221619 0.535889 0.265106
0.275360 0.552063 0.270538
0.481750 0.601624 0.308472
0.710083 0.645355 0.340515
0.909821 0.676666 0.380829
0.954498 0.676575 0.387756
0.258850 0.659271 0.288208
0.268616 0.663361 0.286224
0.278320 0.664673 0.281647
0.308289 0.676422 0.283295
0.469910 0.730286 0.310333
0.708557 0.788605 0.360565
0.917542 0.820618 0.405518
0.976471 0.821960 0.433350
0.267975 0.686066 0.274414
0.279480 0.693634 0.274231
0.293030 0.702881 0.274658
0.305756 0.709778 0.274139
0.433868 0.776337 0.310699
0.680420 0.861847 0.376923
0.900482 0.914856 0.427307
0.993469 0.925873 0.475311
0.104218 0.059204 0.510376
0.147827 0.063568 0.546814
0.226471 0.065125 0.527863
0.360718 0.086365 0.505096
0.542267 0.131927 0.516266
0.730133 0.199463 0.541870
0.779846 0.217133 0.540741
0.809448 0.227112 0.538696
0.095520 0.085938 0.489258
0.120514 0.084900 0.494263
0.194397 0.080353 0.505676
0.345154 0.091248 0.503174
0.510223 0.127197 0.486328
0.680634 0.186523 0.495117
0.719147 0.197906 0.483582
0.717041 0.193817 0.466949
0.088989 0.159637 0.433472
0.102936 0.159119 0.454834
0.159821 0.158966 0.456757
0.300781 0.171021 0.458679
0.494537 0.192871 0.467346
0.678680 0.226868 0.482269
0.744873 0.231293 0.476074
0.764862 0.232513 0.472931
0.107788 0.261353 0.403656
0.117859 0.261780 0.412262
0.154114 0.267487 0.426086
0.268127 0.285187 0.432861
0.477661 0.314392 0.450165
0.685699 0.353760 0.481842
0.808044 0.373749 0.498383
0.833038 0.372650 0.496887
0.150543 0.391754 0.397430
0.160217 0.394165 0.401581
0.172424 0.397217 0.405243
0.247162 0.416077 0.413757
0.476685 0.461823 0.449341
0.701294 0.509308 0.492798
0.880737 0.546265 0.528961
0.907440 0.544098 0.526886
0.214142 0.539795 0.407135
0.223999 0.543213 0.407806
0.232727 0.543610 0.404510
0.286407 0.564514 0.415222
0.475220 0.613129 0.452820
0.713165 0.665100 0.496643
0.921936 0.707611 0.536530
0.963165 0.708374 0.545380
0.269531 0.670227 0.411285
0.281738 0.678101 0.414215
0.293152 0.680481 0.413361
0.318787 0.689667 0.413300
0.444366 0.739532 0.442047
0.710236 0.809631 0.496155
0.920929 0.844666 0.524384
0.984192 0.847351 0.561035
0.280060 0.701141 0.394318
0.293213 0.711578 0.397247
0.306213 0.719391 0.396881
0.320984 0.729156 0.394226
0.413177 0.794434 0.421570
0.681091 0.887482 0.483337
0.897003 0.933533 0.504578
0.994598 0.940674 0.557373
0.161987 0.092255 0.704803
0.180176 0.086029 0.680573
0.241913 0.086182 0.648041
0.370361 0.107422 0.644684
0.553528 0.152008 0.674835
0.753693 0.207794 0.718994
0.805115 0.226410 0.721069
0.731781 0.191711 0.628021
0.129517 0.099091 0.618164
0.160004 0.103394 0.655243
0.223236 0.101440 0.660675
0.344269 0.110168 0.646362
0.505676 0.140198 0.629791
0.649414 0.171478 0.614929
0.678223 0.178497 0.591125
0.702087 0.186035 0.589294
0.118622 0.166779 0.560974
0.135284 0.167542 0.588104
0.188934 0.173828 0.609283
0.293396 0.186737 0.612579
0.491516 0.203949 0.622559
0.670532 0.220917 0.628143
0.746429 0.227997 0.622925
0.768890 0.232056 0.619385
0.138611 0.273010 0.549652
0.151154 0.274414 0.563293
0.184998 0.280853 0.583649
0.259552 0.297363 0.592712
0.483673 0.335724 0.614655
0.690582 0.368561 0.642090
0.820557 0.387665 0.658417
0.843109 0.385468 0.653870
0.179810 0.405853 0.553589
0.190186 0.408447 0.560028
0.200378 0.408752 0.566193
0.270172 0.432312 0.581329
0.476471 0.480438 0.611389
0.705536 0.527405 0.652710
0.889221 0.565399 0.687286
0.917572 0.563690 0.684814
0.229919 0.547180 0.558167
0.240295 0.550934 0.563416
0.250641 0.553436 0.564270
0.300385 0.574158 0.575195
0.448334 0.623474 0.607117
0.712402 0.684387 0.658966
0.924011 0.730438 0.700714
0.972504 0.736877 0.709137
0.285889 0.685181 0.562103
0.295319 0.688232 0.563995
0.304504 0.687775 0.562347
0.328186 0.696472 0.564362
0.425598 0.755646 0.597992
0.709198 0.829193 0.660706
0.914246 0.860229 0.683777
0.992523 0.868530 0.717621
0.297058 0.719971 0.541962
0.310150 0.729248 0.547394
0.325165 0.739746 0.551514
0.342346 0.754547 0.551117
0.436890 0.827301 0.588928
0.679199 0.913544 0.648499
0.890442 0.952789 0.666046
0.994598 0.960083 0.741150
0.168579 0.096344 0.730530
0.184235 0.090942 0.704987
0.240662 0.088898 0.666992
0.365417 0.109222 0.667206
0.556488 0.157654 0.714600
0.753937 0.211884 0.760193
0.668396 0.166229 0.636810
0.667450 0.163025 0.614838
0.134338 0.099243 0.638794
0.165985 0.105774 0.685699
0.229370 0.104401 0.694824
0.333923 0.111176 0.673431
0.489075 0.137482 0.652130
0.625183 0.164185 0.637177
0.683685 0.180115 0.649261
0.708588 0.188171 0.653046
0.126343 0.168762 0.592651
0.142487 0.169403 0.618652
0.193756 0.176422 0.647369
0.265625 0.182922 0.653320
0.480469 0.205414 0.679932
0.666870 0.222260 0.705719
0.750000 0.227173 0.711914
0.771545 0.229156 0.712524
0.148865 0.273651 0.601471
0.161530 0.275360 0.616821
0.197296 0.285736 0.653290
0.263184 0.302612 0.674316
0.484955 0.351013 0.721558
0.694885 0.381805 0.760437
0.827026 0.395416 0.783813
0.853546 0.395966 0.789398
0.195007 0.407440 0.642670
0.206451 0.410919 0.654419
0.216919 0.409729 0.664795
0.292206 0.446045 0.707611
0.473114 0.502197 0.760590
0.719971 0.556152 0.814697
0.896088 0.580566 0.844025
0.924133 0.576904 0.841309
0.250702 0.552368 0.692200
0.259857 0.553192 0.698120
0.271973 0.557861 0.706787
0.328430 0.592499 0.736084
0.430237 0.641632 0.775116
0.725525 0.714874 0.833435
0.918121 0.741119 0.855286
0.978760 0.746765 0.857208
0.301483 0.689911 0.714355
0.314178 0.696594 0.720123
0.326874 0.702087 0.721375
0.350128 0.714111 0.726746
0.447144 0.776550 0.766205
0.698547 0.842590 0.815887
0.903473 0.867096 0.834534
0.994598 0.879456 0.849304
0.309540 0.727264 0.687714
0.329865 0.747711 0.701569
0.347382 0.762970 0.707764
0.364532 0.777802 0.709198
0.457184 0.850342 0.751221
0.657867 0.926880 0.797882
0.881470 0.964630 0.818726
0.994598 0.971863 0.868164
0.172302 0.098846 0.746399
0.187073 0.093414 0.721985
0.243073 0.093018 0.691406
0.362671 0.111237 0.687012
0.550079 0.157776 0.731842
0.613525 0.151825 0.639740
0.640411 0.155426 0.630066
0.670471 0.164032 0.639984
0.136780 0.099945 0.652527
0.170654 0.108307 0.706940
0.226410 0.105103 0.706909
0.320831 0.109619 0.688141
0.464752 0.128693 0.644897
0.624878 0.166595 0.661224
0.685333 0.182373 0.673859
0.712189 0.189331 0.680145
0.129700 0.170380 0.609467
0.145599 0.171570 0.633698
0.195496 0.179352 0.663788
0.260956 0.185211 0.673981
0.477020 0.207764 0.707520
0.666260 0.226807 0.734009
0.751923 0.229340 0.739868
0.773102 0.228790 0.739075
0.153778 0.276184 0.622040
0.166656 0.278900 0.637695
0.200348 0.288391 0.671936
0.268341 0.305450 0.701538
0.477661 0.351654 0.748352
0.694366 0.385437 0.790100
0.829041 0.398102 0.812378
0.855042 0.398224 0.817108
0.197571 0.405823 0.662109
0.208710 0.408569 0.672241
0.219543 0.408813 0.684143
0.296509 0.446503 0.735565
0.458527 0.500122 0.786743
0.717590 0.559875 0.846008
0.896515 0.583740 0.878052
0.925598 0.578522 0.881317
0.252045 0.548279 0.711914
0.261810 0.550018 0.719391
0.277039 0.558655 0.735016
0.334198 0.595276 0.771301
0.427094 0.644592 0.818756
0.721069 0.720490 0.888824
0.921906 0.751343 0.923584
0.982269 0.752502 0.930206
0.307526 0.688904 0.760040
0.322723 0.699280 0.772522
0.338165 0.708160 0.782745
0.363068 0.722748 0.798737
0.461975 0.786804 0.853363
0.692566 0.854889 0.915192
0.902863 0.879150 0.941162
0.994598 0.882111 0.944336
0.329773 0.746338 0.778595
0.347717 0.762238 0.791962
0.366364 0.778534 0.804657
0.384644 0.794678 0.817505
0.472015 0.863434 0.867706
0.631805 0.936859 0.922943
0.866913 0.970459 0.946381
0.994293 0.980469 0.969086
