滤镜资源/Professional Luts Collection/Triune-Digital-Cinematic-LUTs/3D LUTs (CUBE)/LOG/The Grand Budapest Hotel - LOG.cube
#Created by Benjamin (IWLTBAP) : http://luts.iwltbap.com
#Copyright: (C) Copyright 2016 Triune Films and IWLTBAP
TITLE "Blockbuster LUTs Pack (LOG)"
#LUT size
LUT_3D_SIZE 8
#LUT data points
DOMAIN_MIN 0.000000 0.000000 0.000000
DOMAIN_MAX 0.903226 0.903226 0.903226
0.000000 0.000000 0.000000
0.152313 0.009247 0.000580
0.345886 0.018341 0.000000
0.542389 0.027618 0.013824
0.710815 0.045624 0.021790
0.840057 0.086761 0.027588
0.865387 0.100800 0.033020
0.887238 0.116730 0.045654
0.018982 0.050293 0.011169
0.076874 0.049408 0.011932
0.268158 0.058411 0.002716
0.494598 0.064178 0.003998
0.685852 0.066284 0.018250
0.825104 0.096802 0.021729
0.853943 0.105591 0.022552
0.863800 0.107269 0.025238
0.046967 0.120392 0.026642
0.056732 0.117645 0.024780
0.163757 0.127197 0.027985
0.395691 0.146149 0.015411
0.625519 0.151306 0.006897
0.786560 0.140137 0.014038
0.824249 0.123718 0.017761
0.833527 0.118713 0.018951
0.082672 0.208801 0.048706
0.089111 0.202271 0.044434
0.124084 0.202454 0.034332
0.298859 0.231903 0.052551
0.555328 0.259460 0.033875
0.763031 0.266296 0.024261
0.842163 0.260040 0.022339
0.854065 0.255493 0.021606
0.119019 0.307922 0.069550
0.124634 0.301697 0.064423
0.136993 0.295624 0.059723
0.252808 0.322174 0.060852
0.487152 0.369751 0.088501
0.730865 0.398865 0.058228
0.847992 0.403259 0.054565
0.860901 0.396484 0.052368
0.150879 0.399536 0.090546
0.155334 0.392365 0.086578
0.161652 0.388000 0.084900
0.217621 0.403809 0.069641
0.466888 0.486145 0.120300
0.701050 0.530731 0.127960
0.854950 0.541199 0.104553
0.878021 0.530029 0.096527
0.172028 0.469482 0.107666
0.177338 0.463989 0.105194
0.185394 0.462433 0.104797
0.213165 0.473083 0.108673
0.411652 0.559814 0.118317
0.679291 0.637848 0.168060
0.848724 0.658691 0.163696
0.900360 0.646973 0.148499
0.168518 0.472046 0.104828
0.174133 0.468201 0.102570
0.183655 0.471558 0.103851
0.196960 0.479614 0.107300
0.326080 0.555725 0.099609
0.640015 0.664093 0.168518
0.834045 0.706879 0.180054
0.901642 0.720001 0.182037
0.030212 0.020081 0.118378
0.125488 0.023712 0.106873
0.340485 0.003662 0.071136
0.544952 0.015869 0.046082
0.709015 0.033813 0.046661
0.836365 0.089478 0.054474
0.862122 0.105133 0.062225
0.883087 0.120819 0.075226
0.026337 0.055115 0.077942
0.075653 0.060852 0.075867
0.263062 0.071869 0.059021
0.492401 0.059357 0.031219
0.683807 0.057159 0.034241
0.817352 0.092712 0.040253
0.845093 0.100922 0.041046
0.854492 0.101868 0.041107
0.047852 0.121429 0.053070
0.057312 0.118500 0.048431
0.173187 0.133331 0.051514
0.401978 0.147980 0.026672
0.632202 0.151306 0.017548
0.783661 0.136444 0.024872
0.819275 0.119843 0.029236
0.824890 0.112854 0.030579
0.082794 0.208618 0.069458
0.090546 0.204529 0.067291
0.127502 0.207275 0.059082
0.306122 0.235291 0.063293
0.565155 0.264038 0.043579
0.769623 0.267944 0.033325
0.844147 0.264160 0.031433
0.854034 0.259064 0.030457
0.119141 0.307129 0.091553
0.125824 0.303375 0.089142
0.136658 0.297302 0.078796
0.260315 0.325958 0.072144
0.494965 0.374237 0.097168
0.739136 0.403748 0.067780
0.852051 0.408936 0.064423
0.863342 0.403809 0.062256
0.149445 0.396698 0.104218
0.153839 0.389832 0.098450
0.160522 0.386169 0.095825
0.215973 0.402649 0.079285
0.472137 0.488495 0.129913
0.717102 0.537811 0.135986
0.859894 0.546661 0.114380
0.885437 0.538086 0.107635
0.168518 0.463745 0.115784
0.174530 0.459137 0.111847
0.183044 0.458679 0.112030
0.211212 0.471252 0.117798
0.420441 0.562195 0.128876
0.694550 0.641815 0.176300
0.855591 0.662384 0.171265
0.899384 0.653748 0.161255
0.165985 0.468445 0.115051
0.171783 0.464417 0.110260
0.181152 0.468201 0.110931
0.194244 0.476685 0.114655
0.329468 0.558350 0.107697
0.653564 0.670502 0.178589
0.841156 0.714722 0.189880
0.903015 0.727081 0.192719
0.061340 0.042023 0.258972
0.133820 0.041809 0.253052
0.294647 0.046326 0.248230
0.515015 0.035889 0.235626
0.707001 0.023987 0.192444
0.831451 0.060303 0.187317
0.854645 0.082489 0.175751
0.872498 0.097870 0.170105
0.062653 0.084991 0.213776
0.082367 0.076630 0.210876
0.234528 0.085327 0.214081
0.474457 0.048309 0.200867
0.678192 0.031281 0.158508
0.797668 0.043762 0.146393
0.821533 0.060516 0.134613
0.828156 0.056976 0.131256
0.063629 0.144928 0.177307
0.071472 0.139526 0.171875
0.165375 0.154358 0.177216
0.401489 0.175293 0.164398
0.624176 0.171875 0.136047
0.767975 0.122253 0.103699
0.801697 0.089386 0.083740
0.805695 0.077240 0.073303
0.089417 0.220032 0.152618
0.096497 0.215820 0.148621
0.123840 0.213135 0.139526
0.327393 0.255554 0.132294
0.582214 0.264526 0.072632
0.773041 0.266510 0.048370
0.843781 0.262817 0.040283
0.852448 0.259521 0.037964
0.120972 0.311737 0.136780
0.128052 0.308228 0.133057
0.139008 0.302490 0.123932
0.255493 0.325195 0.083252
0.496399 0.374298 0.104614
0.742249 0.404572 0.075867
0.853760 0.410797 0.072418
0.863708 0.406128 0.070496
0.151672 0.401306 0.137604
0.156860 0.395355 0.133148
0.162720 0.390076 0.127014
0.212250 0.400696 0.095856
0.472229 0.487854 0.137787
0.720428 0.538574 0.142883
0.862915 0.549530 0.123047
0.888611 0.542603 0.117432
0.168793 0.468597 0.146790
0.173889 0.461731 0.137695
0.181854 0.458344 0.127655
0.209320 0.469299 0.125977
0.415619 0.560272 0.134827
0.699097 0.643585 0.184265
0.858826 0.664917 0.179321
0.898743 0.659729 0.173065
0.166229 0.474426 0.150909
0.172363 0.469635 0.138672
0.180786 0.470490 0.130188
0.191864 0.475555 0.127014
0.312012 0.553284 0.112701
0.656189 0.674927 0.187164
0.843719 0.721802 0.199768
0.903961 0.734253 0.203278
0.091278 0.096588 0.413269
0.153473 0.062988 0.407471
0.292938 0.064941 0.416168
0.470825 0.071655 0.414703
0.643585 0.074921 0.409485
0.787872 0.088989 0.406982
0.828766 0.108246 0.392548
0.851776 0.115173 0.378387
0.095490 0.140717 0.368683
0.104065 0.109528 0.361755
0.215576 0.089539 0.369965
0.428162 0.078186 0.377075
0.614716 0.076080 0.376160
0.747528 0.067780 0.357391
0.775848 0.064545 0.340515
0.777466 0.061615 0.332611
0.096313 0.189911 0.324493
0.102966 0.183472 0.318085
0.140137 0.174805 0.316345
0.364960 0.196930 0.346161
0.599792 0.173889 0.328583
0.746460 0.114716 0.302887
0.762268 0.081024 0.314056
0.761322 0.077087 0.317047
0.107513 0.255066 0.291626
0.114746 0.250702 0.287720
0.140961 0.250000 0.287384
0.300415 0.283813 0.310028
0.562744 0.304047 0.293640
0.771057 0.304443 0.267639
0.840424 0.295135 0.253906
0.851227 0.291809 0.247955
0.129028 0.333191 0.266907
0.135498 0.329803 0.264740
0.144775 0.325928 0.260284
0.209045 0.340851 0.251007
0.517517 0.407227 0.252197
0.791260 0.411224 0.193268
0.897858 0.410858 0.163879
0.908691 0.405975 0.150574
0.155853 0.417236 0.250549
0.161896 0.412872 0.249146
0.168915 0.409790 0.244385
0.209839 0.428314 0.244537
0.458496 0.497711 0.201233
0.733459 0.542114 0.171783
0.865051 0.558838 0.148529
0.892151 0.552765 0.139648
0.170654 0.480774 0.229431
0.177002 0.477142 0.225464
0.185638 0.477142 0.220001
0.209686 0.485565 0.206848
0.399628 0.556641 0.146393
0.697998 0.644501 0.194855
0.858124 0.666595 0.188263
0.898987 0.662933 0.182831
0.167786 0.481903 0.196381
0.174774 0.480865 0.194641
0.183899 0.483673 0.188690
0.193756 0.487152 0.174438
0.289001 0.542633 0.116669
0.647858 0.677185 0.194244
0.842987 0.726410 0.208588
0.904968 0.740051 0.213013
0.111847 0.115814 0.561401
0.186310 0.083130 0.567688
0.315826 0.084930 0.575592
0.469391 0.086426 0.581238
0.620911 0.090637 0.575989
0.739197 0.105927 0.582550
0.772430 0.135925 0.578186
0.790466 0.145660 0.569183
0.119415 0.182953 0.511475
0.127625 0.141785 0.503601
0.221313 0.094208 0.512665
0.417603 0.090820 0.533966
0.580902 0.095337 0.525940
0.687103 0.104919 0.506927
0.708008 0.099213 0.487305
0.703949 0.094330 0.471252
0.119812 0.226349 0.459930
0.126831 0.222443 0.454803
0.163544 0.218994 0.454651
0.329102 0.213898 0.496094
0.548035 0.212769 0.497803
0.695831 0.162079 0.480469
0.709229 0.114044 0.463745
0.715668 0.109863 0.462463
0.130615 0.290070 0.429840
0.138245 0.287354 0.427948
0.163086 0.289673 0.428284
0.221710 0.290619 0.446442
0.525452 0.336578 0.492554
0.747406 0.312317 0.455048
0.828522 0.294189 0.431549
0.841461 0.284180 0.422089
0.146362 0.363159 0.406799
0.153564 0.361298 0.404846
0.162262 0.358459 0.401520
0.215607 0.378967 0.414276
0.482025 0.450775 0.465637
0.762756 0.465973 0.436005
0.889893 0.459106 0.411224
0.901062 0.452240 0.401794
0.164642 0.435791 0.382294
0.170563 0.431641 0.380066
0.178650 0.431000 0.378754
0.221222 0.453430 0.389038
0.374207 0.524445 0.394287
0.750153 0.598572 0.404541
0.931458 0.608734 0.369659
0.954468 0.594299 0.358551
0.183014 0.501923 0.363556
0.189392 0.499298 0.362976
0.198883 0.501678 0.363007
0.222504 0.514771 0.364319
0.313782 0.575958 0.362030
0.686554 0.692200 0.359436
0.903839 0.724243 0.331696
0.944550 0.703491 0.300537
0.180634 0.507843 0.341675
0.188416 0.509338 0.343781
0.199188 0.515778 0.345459
0.211365 0.524231 0.341034
0.278290 0.584137 0.349579
0.626282 0.726257 0.314850
0.869171 0.771271 0.298309
0.928284 0.776611 0.284332
0.135773 0.179413 0.657593
0.198944 0.095764 0.680969
0.348877 0.097656 0.694031
0.490356 0.099548 0.706787
0.626434 0.101105 0.714508
0.735260 0.103943 0.721344
0.761230 0.109406 0.720337
0.711121 0.096436 0.616180
0.134705 0.205811 0.609589
0.139160 0.167542 0.602600
0.245239 0.103455 0.626953
0.411072 0.100952 0.641022
0.552917 0.098541 0.631744
0.652130 0.098511 0.597504
0.664490 0.096954 0.567932
0.676300 0.097565 0.563354
0.138977 0.256195 0.575012
0.145630 0.251495 0.567017
0.180328 0.253174 0.564606
0.236908 0.226837 0.590637
0.510101 0.227997 0.623322
0.660217 0.164825 0.599792
0.695068 0.122925 0.580933
0.704193 0.120270 0.575439
0.148895 0.317627 0.552094
0.155792 0.315247 0.546875
0.179626 0.318817 0.545166
0.230042 0.333618 0.559570
0.490295 0.363403 0.642639
0.710602 0.370758 0.647614
0.800903 0.353058 0.637085
0.814178 0.346252 0.629486
0.163666 0.388275 0.534027
0.170959 0.387146 0.530731
0.178497 0.384521 0.526520
0.231659 0.406525 0.541138
0.398468 0.454254 0.615540
0.724762 0.505737 0.656372
0.870850 0.475433 0.617950
0.884857 0.464050 0.602509
0.179169 0.457977 0.512390
0.186005 0.455200 0.510803
0.194092 0.455566 0.509430
0.232941 0.477478 0.521149
0.326874 0.545868 0.566345
0.709473 0.655975 0.634338
0.930542 0.653961 0.594421
0.962677 0.645935 0.585754
0.190918 0.519135 0.487579
0.198090 0.518188 0.487762
0.207550 0.520844 0.489563
0.229553 0.532684 0.493347
0.300354 0.589447 0.516693
0.633362 0.747864 0.573700
0.921021 0.789185 0.567474
0.979614 0.765625 0.533691
0.188568 0.527039 0.464478
0.197937 0.531219 0.469482
0.210632 0.541351 0.474792
0.224091 0.554352 0.473694
0.294739 0.621124 0.497223
0.499146 0.747070 0.497986
0.879944 0.842316 0.534363
0.967285 0.856262 0.542572
0.138123 0.184570 0.672485
0.193024 0.098145 0.697174
0.348785 0.099243 0.712982
0.493195 0.101776 0.727509
0.629028 0.103729 0.739655
0.744385 0.125977 0.758667
0.663422 0.089813 0.612915
0.657959 0.087769 0.586456
0.134918 0.202393 0.626160
0.139374 0.163208 0.624146
0.251190 0.102112 0.648529
0.392303 0.101227 0.650848
0.532318 0.097168 0.639771
0.628082 0.094116 0.605621
0.661499 0.096710 0.608032
0.676331 0.097748 0.609619
0.142639 0.259491 0.597595
0.148834 0.256012 0.589630
0.180420 0.258087 0.585114
0.224335 0.260620 0.594482
0.487976 0.234985 0.666718
0.647797 0.151642 0.656891
0.688019 0.121429 0.645447
0.697784 0.117371 0.643127
0.154541 0.324371 0.593262
0.161163 0.322174 0.587830
0.184113 0.328094 0.588623
0.230591 0.345856 0.608582
0.452240 0.371002 0.725098
0.686066 0.373993 0.750061
0.786407 0.363403 0.753143
0.798981 0.358002 0.751862
0.173340 0.398987 0.604187
0.180756 0.398346 0.601257
0.188080 0.397095 0.600281
0.241638 0.427673 0.633362
0.334625 0.458466 0.709137
0.681732 0.516693 0.803650
0.843658 0.515900 0.809021
0.858765 0.512604 0.802795
0.189941 0.472748 0.616638
0.196747 0.471191 0.614960
0.206085 0.473602 0.616577
0.250092 0.504364 0.644928
0.317322 0.550781 0.685516
0.637054 0.669556 0.815460
0.894135 0.704041 0.837402
0.934235 0.685669 0.820435
0.203339 0.534851 0.609070
0.212921 0.538544 0.611206
0.223999 0.545898 0.614899
0.244690 0.561401 0.624390
0.316040 0.621277 0.659698
0.492462 0.735596 0.736725
0.905365 0.851685 0.816467
0.990784 0.844513 0.790924
0.201508 0.547546 0.584137
0.216064 0.562866 0.595428
0.229828 0.577179 0.602539
0.243500 0.590302 0.604553
0.307251 0.651154 0.635254
0.429474 0.750946 0.678314
0.848999 0.900879 0.760590
0.989410 0.925476 0.771149
0.138428 0.182587 0.684479
0.185760 0.097931 0.706909
0.345093 0.099518 0.721680
0.492096 0.102264 0.737518
0.615662 0.103149 0.742645
0.627594 0.086487 0.619263
0.641632 0.086578 0.602173
0.656952 0.087799 0.605164
0.134491 0.200195 0.634674
0.139557 0.166534 0.633606
0.236481 0.100677 0.646149
0.355927 0.099182 0.642395
0.512604 0.093079 0.626923
0.624268 0.093719 0.621613
0.662476 0.096863 0.627930
0.675415 0.097809 0.629486
0.143677 0.261566 0.605225
0.149200 0.257751 0.595978
0.179901 0.261841 0.589844
0.223358 0.268799 0.600830
0.479034 0.240051 0.689728
0.646301 0.170715 0.685150
0.688171 0.122101 0.666656
0.698151 0.117371 0.662964
0.155457 0.325653 0.602966
0.162720 0.324677 0.597168
0.184692 0.330536 0.597168
0.232788 0.351196 0.628479
0.429626 0.369507 0.742798
0.674164 0.376251 0.772552
0.783081 0.362885 0.776672
0.796967 0.359955 0.776154
0.173706 0.398560 0.615295
0.181030 0.398346 0.612762
0.188934 0.398285 0.612518
0.243256 0.430878 0.654449
0.330414 0.463562 0.721558
0.662170 0.515320 0.825500
0.837036 0.511047 0.835419
0.853210 0.506500 0.835571
0.190155 0.471161 0.630249
0.197327 0.470398 0.629303
0.208832 0.476624 0.637329
0.251892 0.509460 0.670746
0.312836 0.551239 0.711670
0.588165 0.654297 0.847931
0.879517 0.699829 0.895477
0.922668 0.701691 0.901520
0.205963 0.536560 0.642120
0.217133 0.544098 0.650574
0.229645 0.554749 0.661377
0.249481 0.571014 0.676971
0.320282 0.633850 0.728485
0.452148 0.728058 0.813385
0.866516 0.864319 0.933807
0.980377 0.874054 0.947296
0.211426 0.563934 0.649323
0.224121 0.576599 0.660919
0.237671 0.591614 0.672516
0.251801 0.606812 0.684937
0.314667 0.669525 0.729736
0.417297 0.753296 0.793304
0.741058 0.899506 0.909332
0.993073 0.974030 0.961945
