滤镜资源/Professional Luts Collection/Triune-Digital-Cinematic-LUTs/3D LUTs (CUBE)/LOG/The Matrix - LOG.cube
#Created by Benjamin (IWLTBAP) : http://luts.iwltbap.com
#Copyright: (C) Copyright 2016 Triune Films and IWLTBAP
TITLE "Blockbuster LUTs Pack (LOG)"
#LUT size
LUT_3D_SIZE 8
#LUT data points
DOMAIN_MIN 0.000000 0.000000 0.000000
DOMAIN_MAX 0.903226 0.903226 0.903226
0.003540 0.000000 0.007080
0.072052 0.000000 0.010620
0.207916 0.014160 0.031860
0.415527 0.046509 0.057129
0.661591 0.102142 0.084656
0.846191 0.151672 0.119843
0.884766 0.161835 0.130035
0.917755 0.173950 0.138580
0.008698 0.048676 0.019287
0.050659 0.046692 0.017242
0.174469 0.049500 0.038605
0.388519 0.068634 0.054413
0.636017 0.110199 0.078705
0.835999 0.166046 0.116852
0.887421 0.182770 0.130035
0.917755 0.191315 0.138580
0.048340 0.191742 0.057739
0.056091 0.184052 0.050842
0.154510 0.181702 0.043640
0.305389 0.200958 0.086029
0.567963 0.221466 0.100250
0.811707 0.242310 0.119873
0.891846 0.247467 0.133545
0.921326 0.250671 0.141846
0.110260 0.389771 0.104645
0.119080 0.382385 0.099640
0.163757 0.373810 0.084595
0.302338 0.371063 0.073792
0.487061 0.385986 0.141327
0.718109 0.407104 0.177551
0.866730 0.404053 0.182587
0.906281 0.395111 0.182129
0.177277 0.580444 0.159363
0.187103 0.574921 0.154572
0.203674 0.566742 0.142212
0.308472 0.559296 0.117676
0.493530 0.557190 0.123810
0.679596 0.559875 0.205994
0.842316 0.563477 0.242096
0.872437 0.558502 0.244385
0.254333 0.744446 0.222473
0.264282 0.740479 0.218597
0.268311 0.732086 0.208801
0.334320 0.725189 0.185150
0.487274 0.720123 0.156006
0.678131 0.713623 0.190735
0.841461 0.712982 0.271667
0.882080 0.707153 0.286835
0.335358 0.894928 0.295746
0.343872 0.891541 0.289062
0.350006 0.884338 0.281372
0.381836 0.877350 0.264618
0.490753 0.869019 0.232971
0.659912 0.863129 0.211273
0.839447 0.856323 0.264954
0.922455 0.851349 0.327606
0.378815 0.924835 0.332184
0.390503 0.927734 0.328644
0.402832 0.927734 0.325653
0.419098 0.927734 0.321564
0.535492 0.931274 0.313354
0.692566 0.934814 0.318695
0.861755 0.938995 0.353577
0.982086 0.950256 0.422272
0.000000 0.003540 0.054657
0.053467 0.007080 0.073730
0.181519 0.020355 0.086151
0.413391 0.049377 0.097443
0.654419 0.104370 0.117340
0.844635 0.152985 0.137787
0.884766 0.165405 0.147400
0.914246 0.174622 0.155945
0.000000 0.054932 0.069092
0.041992 0.045502 0.066742
0.191803 0.041779 0.065582
0.387268 0.066345 0.079712
0.632812 0.110016 0.097565
0.834686 0.165771 0.133911
0.887421 0.182770 0.147400
0.917755 0.191315 0.155334
0.047760 0.188660 0.074158
0.058533 0.179718 0.070557
0.152039 0.178101 0.060486
0.311768 0.194702 0.095306
0.581573 0.213776 0.108093
0.812775 0.240234 0.133789
0.891846 0.246338 0.150909
0.921326 0.249847 0.157990
0.109314 0.387115 0.118073
0.118774 0.379303 0.116577
0.161743 0.372406 0.099121
0.300049 0.368378 0.092773
0.488647 0.382568 0.152466
0.724335 0.403534 0.185577
0.876068 0.397308 0.189087
0.913971 0.389313 0.189056
0.176422 0.578613 0.171082
0.189240 0.573120 0.170074
0.202332 0.565063 0.159271
0.306396 0.560120 0.134674
0.494659 0.555511 0.137268
0.679871 0.558258 0.214996
0.845825 0.562195 0.251373
0.876801 0.555420 0.254059
0.253540 0.743225 0.234589
0.264954 0.739075 0.235138
0.271118 0.730469 0.228973
0.332703 0.723541 0.200684
0.485260 0.718475 0.174683
0.676575 0.711945 0.202332
0.839813 0.711151 0.283234
0.884583 0.705780 0.295227
0.333771 0.893951 0.307220
0.345764 0.890228 0.305695
0.352753 0.883057 0.298523
0.380066 0.876099 0.281250
0.489105 0.867737 0.248108
0.658295 0.861847 0.229950
0.838074 0.854950 0.275696
0.924683 0.849304 0.339508
0.381683 0.924835 0.348053
0.395538 0.924835 0.348053
0.407013 0.927734 0.344543
0.419861 0.927734 0.340729
0.533966 0.931274 0.330383
0.691010 0.934814 0.336060
0.860199 0.938995 0.373383
0.979187 0.950256 0.438965
0.000000 0.018127 0.127289
0.016083 0.022583 0.158600
0.165863 0.033844 0.183533
0.328308 0.081909 0.199310
0.607880 0.130066 0.223694
0.835663 0.165161 0.241669
0.881195 0.172485 0.239441
0.911346 0.184570 0.241486
0.000000 0.068878 0.141235
0.013184 0.058929 0.152191
0.161224 0.054535 0.174011
0.326233 0.085938 0.184387
0.598907 0.130615 0.202637
0.828766 0.175842 0.224365
0.881653 0.191010 0.227600
0.914246 0.201965 0.230957
0.033264 0.190735 0.178650
0.043152 0.184631 0.174713
0.144073 0.175598 0.169189
0.372345 0.164368 0.158081
0.604523 0.195618 0.168488
0.812103 0.234070 0.191620
0.892090 0.243958 0.198578
0.923004 0.247223 0.201233
0.110229 0.385223 0.179504
0.118774 0.377045 0.174622
0.164368 0.364288 0.174957
0.298492 0.362366 0.152069
0.505157 0.373657 0.183197
0.742798 0.389648 0.199127
0.887024 0.386200 0.197357
0.921234 0.378815 0.197021
0.178101 0.574432 0.202118
0.188110 0.569244 0.198334
0.203369 0.561035 0.190643
0.301208 0.555450 0.151001
0.489410 0.551910 0.153809
0.678406 0.554749 0.225739
0.851929 0.556458 0.262024
0.881836 0.549835 0.264313
0.251831 0.740295 0.248199
0.263275 0.736237 0.245819
0.273041 0.726929 0.244751
0.329102 0.720123 0.217682
0.481293 0.715118 0.192596
0.673401 0.708771 0.213226
0.840576 0.708221 0.294312
0.885406 0.702759 0.306885
0.331635 0.891693 0.320496
0.343536 0.887665 0.318573
0.353394 0.880615 0.314514
0.377045 0.873047 0.298157
0.483887 0.865601 0.262878
0.655609 0.859711 0.247559
0.835114 0.852997 0.285889
0.923981 0.845306 0.351166
0.381683 0.924835 0.363373
0.395538 0.924835 0.363953
0.412903 0.924835 0.363953
0.423035 0.927734 0.359863
0.529633 0.931274 0.346893
0.689453 0.934814 0.356934
0.860291 0.938995 0.390778
0.979187 0.950256 0.459229
0.000000 0.052490 0.216248
0.010895 0.050323 0.234894
0.112152 0.062073 0.303070
0.331207 0.097809 0.326508
0.528473 0.163574 0.347870
0.762604 0.210419 0.374084
0.818054 0.221313 0.372009
0.860687 0.227570 0.374939
0.000000 0.092285 0.224579
0.007751 0.085266 0.226715
0.083466 0.082367 0.291901
0.313751 0.102570 0.308105
0.511780 0.168060 0.328125
0.760529 0.218842 0.357086
0.833679 0.233002 0.358887
0.873047 0.239532 0.360413
0.000000 0.216125 0.280151
0.005219 0.207458 0.274994
0.102844 0.203766 0.274658
0.335052 0.182007 0.303162
0.540710 0.224731 0.310913
0.775543 0.260406 0.328674
0.875061 0.262512 0.329865
0.907288 0.265320 0.330536
0.087860 0.389008 0.319397
0.096924 0.380188 0.313324
0.139008 0.369690 0.308258
0.282715 0.362183 0.296875
0.582855 0.342621 0.277069
0.790955 0.354950 0.287811
0.910339 0.367615 0.297729
0.941528 0.362823 0.294342
0.179443 0.573059 0.312683
0.189392 0.567780 0.310333
0.201569 0.556305 0.301025
0.309174 0.545868 0.311768
0.495331 0.544769 0.277069
0.709747 0.540161 0.303223
0.887665 0.539124 0.318665
0.913391 0.534271 0.317505
0.253143 0.737488 0.329865
0.263184 0.732422 0.327148
0.271179 0.722290 0.317657
0.341919 0.712006 0.320679
0.471832 0.710541 0.268494
0.670105 0.704193 0.273346
0.845520 0.700928 0.325195
0.893097 0.696533 0.335693
0.331665 0.888153 0.366821
0.343079 0.884094 0.361725
0.351379 0.877167 0.355042
0.384277 0.866760 0.346802
0.475708 0.862823 0.294434
0.651031 0.856262 0.271210
0.830597 0.849487 0.297546
0.923035 0.842834 0.362396
0.381683 0.924835 0.387177
0.395538 0.925690 0.386078
0.412903 0.927612 0.383392
0.430267 0.927734 0.380768
0.526611 0.931274 0.366608
0.685516 0.934814 0.374329
0.857178 0.938995 0.409943
0.982086 0.950256 0.473083
0.000000 0.104706 0.320740
0.010223 0.104034 0.330292
0.027710 0.112640 0.396149
0.290192 0.133881 0.469635
0.544006 0.178619 0.494507
0.715912 0.247284 0.506958
0.768036 0.260895 0.507233
0.802490 0.272186 0.509338
0.000000 0.141449 0.324005
0.007050 0.134247 0.326172
0.024902 0.128296 0.373535
0.260406 0.141846 0.451172
0.524017 0.184723 0.476562
0.711304 0.255615 0.491699
0.779724 0.274292 0.495331
0.812775 0.282806 0.497650
0.000000 0.254547 0.373047
0.003784 0.245911 0.367523
0.088989 0.244080 0.376038
0.208191 0.226074 0.446991
0.513092 0.245209 0.458191
0.713226 0.295990 0.473114
0.806305 0.312012 0.476379
0.838409 0.314911 0.476715
0.012115 0.403870 0.445282
0.028625 0.399872 0.439484
0.084442 0.388824 0.433258
0.239014 0.386139 0.427094
0.554352 0.353790 0.461334
0.761932 0.372986 0.460754
0.889252 0.389862 0.462646
0.906586 0.393616 0.459839
0.134430 0.578033 0.482513
0.144409 0.572784 0.477264
0.152924 0.561340 0.465851
0.249329 0.554047 0.458527
0.460175 0.545074 0.446045
0.752380 0.524048 0.425018
0.936157 0.515381 0.424988
0.973999 0.503296 0.415253
0.258392 0.735687 0.471558
0.267242 0.730530 0.468781
0.272736 0.720520 0.459015
0.332611 0.710175 0.454407
0.477875 0.701721 0.468079
0.677643 0.698883 0.425079
0.880920 0.687714 0.448822
0.923553 0.681976 0.449158
0.331543 0.884003 0.489502
0.344208 0.879944 0.484375
0.352570 0.873108 0.477386
0.381409 0.862732 0.467285
0.500702 0.854462 0.472412
0.640381 0.852234 0.410828
0.829132 0.845612 0.432159
0.927032 0.837006 0.470673
0.387543 0.927734 0.504425
0.402008 0.927734 0.501648
0.417633 0.927734 0.498566
0.434448 0.927734 0.491272
0.550812 0.927734 0.501465
0.684540 0.934814 0.477600
0.852753 0.938995 0.506287
0.982086 0.950256 0.546082
0.000000 0.158020 0.404877
0.009491 0.160706 0.415802
0.027039 0.167328 0.467346
0.183777 0.186127 0.586945
0.537537 0.208893 0.640228
0.742004 0.262665 0.667267
0.777130 0.281281 0.657623
0.800354 0.294891 0.654633
0.000000 0.198517 0.422394
0.006287 0.194458 0.424103
0.024292 0.190582 0.457916
0.140198 0.197296 0.570526
0.504456 0.221344 0.626007
0.732147 0.270905 0.655640
0.777618 0.297119 0.645630
0.802704 0.308868 0.642609
0.000000 0.302582 0.472748
0.003784 0.296234 0.469452
0.092407 0.293915 0.477997
0.162537 0.289185 0.539459
0.455566 0.281128 0.618286
0.717743 0.308319 0.636383
0.788666 0.335297 0.624329
0.812225 0.341492 0.621735
0.000000 0.438141 0.545258
0.003784 0.433716 0.540710
0.062561 0.423462 0.535309
0.193024 0.429077 0.550690
0.398926 0.401642 0.619659
0.704071 0.414429 0.615631
0.836823 0.428802 0.627899
0.855377 0.432159 0.621307
0.084625 0.593140 0.614899
0.099274 0.588013 0.612091
0.110504 0.577484 0.600769
0.211090 0.572968 0.598572
0.425690 0.565338 0.585114
0.721802 0.535889 0.620087
0.919373 0.526154 0.627991
0.913940 0.538452 0.621735
0.196564 0.740387 0.651947
0.206207 0.735199 0.646759
0.213440 0.726685 0.636871
0.261780 0.715973 0.626556
0.402191 0.710022 0.618073
0.632904 0.700104 0.610443
0.911560 0.672028 0.585632
0.981415 0.660339 0.575470
0.332642 0.883026 0.648041
0.342621 0.878998 0.645447
0.351105 0.872223 0.636444
0.374176 0.862000 0.627014
0.483276 0.853119 0.629333
0.634644 0.844269 0.632965
0.841156 0.837677 0.600433
0.936066 0.832489 0.606201
0.403076 0.928375 0.649292
0.417664 0.928375 0.647949
0.432434 0.928375 0.643280
0.440369 0.928375 0.631165
0.539856 0.928375 0.635681
0.696533 0.931915 0.631317
0.853119 0.940125 0.632385
0.983704 0.953796 0.669342
0.000000 0.171631 0.425781
0.008850 0.172485 0.435303
0.026428 0.179535 0.482330
0.149841 0.197205 0.605225
0.514893 0.221893 0.669769
0.741669 0.264862 0.711426
0.792786 0.284790 0.717651
0.817871 0.297760 0.718506
0.000000 0.207794 0.440613
0.005554 0.203339 0.444031
0.023712 0.201965 0.476959
0.112793 0.211060 0.585907
0.474091 0.235809 0.666870
0.730835 0.277344 0.714050
0.797821 0.300690 0.721191
0.822266 0.314270 0.723541
0.000000 0.310242 0.497559
0.003784 0.307495 0.495911
0.092285 0.306000 0.507111
0.162109 0.307373 0.566681
0.401093 0.297638 0.686157
0.698944 0.323456 0.715881
0.809601 0.337402 0.730255
0.830841 0.344208 0.731293
0.000000 0.453308 0.584930
0.003784 0.449768 0.582245
0.048523 0.443756 0.583221
0.187164 0.450867 0.606964
0.349304 0.435303 0.685547
0.660339 0.433929 0.738312
0.831787 0.444824 0.750397
0.850098 0.448029 0.753693
0.072968 0.607971 0.685486
0.090759 0.604218 0.683105
0.103088 0.595032 0.678040
0.205872 0.593994 0.686279
0.362030 0.599213 0.713013
0.576782 0.564819 0.799713
0.869049 0.562500 0.779999
0.872986 0.568085 0.774628
0.128754 0.761780 0.775024
0.143219 0.757324 0.774811
0.158539 0.749573 0.767853
0.218323 0.740784 0.765167
0.347870 0.736053 0.764709
0.571198 0.728394 0.767029
0.870117 0.690857 0.785248
0.936401 0.679443 0.797363
0.233429 0.890533 0.819794
0.242249 0.885498 0.815308
0.251068 0.878143 0.809509
0.269653 0.867889 0.796295
0.382233 0.859619 0.786530
0.561768 0.853882 0.782196
0.808929 0.840057 0.778503
0.991394 0.817047 0.748352
0.325897 0.942780 0.812012
0.343933 0.941864 0.811371
0.360931 0.941864 0.806396
0.384003 0.939636 0.796082
0.498260 0.938995 0.793762
0.659729 0.942352 0.790161
0.847412 0.946045 0.772491
0.985626 0.957306 0.803070
0.000000 0.185211 0.446686
0.008514 0.186249 0.455444
0.026123 0.194397 0.498962
0.134399 0.206451 0.615265
0.496490 0.230560 0.696167
0.744385 0.268494 0.742828
0.793427 0.288361 0.747986
0.825806 0.301300 0.751495
0.000000 0.218994 0.460785
0.005249 0.214325 0.463470
0.023438 0.213196 0.494354
0.101593 0.222778 0.595490
0.455292 0.245087 0.693604
0.730499 0.281769 0.742920
0.799011 0.304871 0.753021
0.830841 0.315765 0.755707
0.000000 0.320007 0.513580
0.003784 0.314606 0.513977
0.094269 0.315338 0.526123
0.161957 0.316711 0.583466
0.374176 0.304077 0.714386
0.695770 0.329681 0.743225
0.805786 0.343384 0.761292
0.839935 0.345398 0.763336
0.000000 0.459534 0.600220
0.003784 0.455505 0.599548
0.042023 0.450134 0.599548
0.185455 0.456177 0.624939
0.338837 0.443970 0.707550
0.644745 0.433777 0.774567
0.823120 0.450348 0.783234
0.860565 0.445251 0.787598
0.067047 0.611542 0.700562
0.085663 0.606995 0.698914
0.100769 0.599121 0.693756
0.201355 0.597595 0.704956
0.340302 0.607513 0.741394
0.552917 0.564789 0.836151
0.842621 0.571472 0.826721
0.883820 0.565613 0.821442
0.127319 0.762909 0.792725
0.141724 0.758850 0.791199
0.158539 0.751190 0.788879
0.215607 0.743927 0.788483
0.321625 0.745850 0.809052
0.519714 0.746552 0.847961
0.829865 0.703461 0.861816
0.909485 0.698944 0.851196
0.132294 0.907898 0.877350
0.143738 0.904266 0.877838
0.150940 0.899933 0.873932
0.178650 0.889496 0.870758
0.294891 0.884674 0.878601
0.460327 0.882324 0.896545
0.782288 0.856934 0.901672
0.956299 0.831024 0.893799
0.235718 0.963745 0.907806
0.248718 0.963745 0.908447
0.265350 0.963745 0.907806
0.280487 0.963745 0.907806
0.414001 0.960205 0.908447
0.608459 0.960205 0.916229
0.805969 0.963745 0.934845
0.983612 0.969482 0.956055
