滤镜资源/Professional Luts Collection/Triune-Digital-Cinematic-LUTs/3D LUTs (CUBE)/LOG/The Ring - LOG.cube
#Created by Benjamin (IWLTBAP) : http://luts.iwltbap.com
#Copyright: (C) Copyright 2016 Triune Films and IWLTBAP
TITLE "Blockbuster LUTs Pack (LOG)"
#LUT size
LUT_3D_SIZE 32
#LUT data points
0.000000 0.000000 0.000000
0.002258 0.000000 0.000000
0.008636 0.000000 0.000000
0.016388 0.000000 0.000000
0.026855 0.000000 0.000000
0.041748 0.000000 0.000000
0.059631 0.000000 0.000000
0.079651 0.000580 0.000580
0.105560 0.003204 0.003204
0.132111 0.004425 0.003204
0.160889 0.008087 0.004913
0.192230 0.011780 0.006378
0.223694 0.015564 0.009155
0.256195 0.019562 0.013000
0.291656 0.027283 0.016846
0.326141 0.035065 0.020721
0.361145 0.042999 0.024689
0.397949 0.050964 0.031830
0.439240 0.062225 0.039886
0.478973 0.070312 0.047974
0.504578 0.076141 0.052887
0.518036 0.080017 0.055450
0.525696 0.082214 0.056915
0.532898 0.083923 0.058411
0.539856 0.085419 0.059875
0.546783 0.086884 0.061340
0.553741 0.088348 0.062836
0.560913 0.090057 0.064301
0.568604 0.092285 0.065765
0.576294 0.094482 0.067230
0.583984 0.096710 0.068726
0.591675 0.098907 0.070190
0.000000 0.001801 0.000000
0.001801 0.002533 0.000000
0.007294 0.002533 0.000000
0.015533 0.002533 0.000000
0.025848 0.002533 0.000000
0.039368 0.002533 0.000000
0.057678 0.002533 0.000000
0.077545 0.003265 0.000153
0.102875 0.006134 0.003204
0.130341 0.007263 0.003204
0.158081 0.010193 0.004456
0.189362 0.013916 0.006378
0.220306 0.017639 0.008759
0.252655 0.022217 0.012573
0.288910 0.029755 0.016418
0.322601 0.037567 0.020355
0.358734 0.045502 0.025055
0.395203 0.054260 0.031830
0.435852 0.064789 0.039459
0.475586 0.072906 0.047333
0.502838 0.078156 0.052551
0.518036 0.082520 0.055450
0.525696 0.084717 0.056915
0.533386 0.086945 0.058411
0.540588 0.088654 0.059875
0.547516 0.090149 0.061340
0.554474 0.091614 0.062836
0.561401 0.093079 0.064301
0.568604 0.094818 0.065765
0.576294 0.097015 0.067230
0.583984 0.099213 0.068726
0.591675 0.101410 0.070190
0.000000 0.006683 0.000000
0.001801 0.007050 0.000000
0.005920 0.008331 0.000000
0.015656 0.007751 0.000000
0.025299 0.006836 0.000000
0.037048 0.005981 0.000000
0.055878 0.005188 0.000000
0.076263 0.006531 0.000000
0.100037 0.008179 0.003143
0.127350 0.010101 0.003204
0.155609 0.012909 0.004028
0.186340 0.015991 0.006378
0.216644 0.019745 0.008301
0.249054 0.025055 0.012177
0.284943 0.032227 0.016052
0.319397 0.040039 0.019928
0.356079 0.047974 0.025391
0.392365 0.057495 0.031799
0.432190 0.067261 0.039825
0.471680 0.075439 0.046570
0.500946 0.081055 0.052185
0.518036 0.085052 0.055450
0.525696 0.087280 0.056915
0.533386 0.089508 0.058411
0.541077 0.091705 0.059875
0.548248 0.093414 0.061340
0.555206 0.094879 0.062836
0.562134 0.096313 0.064301
0.569092 0.097839 0.065765
0.576294 0.099548 0.067230
0.583984 0.101746 0.068726
0.591675 0.103943 0.070190
0.000000 0.016937 0.000000
0.001801 0.016357 0.000000
0.004578 0.015747 0.000000
0.011475 0.016205 0.000000
0.024048 0.015350 0.000000
0.036438 0.014343 0.000000
0.052582 0.013824 0.000641
0.075104 0.014496 0.000336
0.097565 0.014160 0.002441
0.123535 0.015808 0.003204
0.152893 0.017517 0.003387
0.181580 0.017853 0.006378
0.212189 0.021637 0.007690
0.243683 0.027435 0.011536
0.278931 0.034210 0.015381
0.314819 0.042053 0.019318
0.350281 0.049988 0.024231
0.387177 0.059814 0.031281
0.425659 0.068726 0.039368
0.465149 0.077454 0.045349
0.498688 0.083893 0.051788
0.518036 0.087616 0.055450
0.525696 0.089813 0.056915
0.533386 0.092010 0.058411
0.541077 0.094208 0.059875
0.548737 0.096405 0.061340
0.555969 0.098114 0.062836
0.562897 0.099609 0.064301
0.569855 0.101105 0.065765
0.576782 0.102539 0.067230
0.583984 0.104279 0.068726
0.591675 0.106476 0.070190
0.000000 0.028442 0.000000
0.001801 0.027863 0.000000
0.003601 0.027313 0.000000
0.009308 0.026978 0.000641
0.018890 0.026001 0.000732
0.033661 0.024597 0.000488
0.049835 0.024231 0.001099
0.070343 0.026123 0.003113
0.094574 0.026520 0.002777
0.121033 0.027252 0.003204
0.148499 0.029266 0.005280
0.176666 0.029877 0.006378
0.208740 0.031433 0.008270
0.238800 0.034241 0.010834
0.272583 0.039429 0.014740
0.309723 0.044373 0.018646
0.344055 0.051941 0.022919
0.381744 0.061096 0.030731
0.419952 0.071014 0.038818
0.458832 0.079437 0.044128
0.493835 0.086212 0.050812
0.518036 0.090851 0.055450
0.525696 0.092316 0.056915
0.533386 0.094513 0.058411
0.541077 0.096741 0.059875
0.548737 0.098938 0.061340
0.556427 0.101166 0.062836
0.563629 0.102875 0.064301
0.570557 0.104340 0.065765
0.577515 0.105835 0.067230
0.584442 0.107300 0.068726
0.591675 0.109009 0.070190
0.000000 0.043457 0.000977
0.001801 0.043243 0.000885
0.003601 0.042267 0.000702
0.007233 0.040527 0.000519
0.015198 0.041077 0.003052
0.029816 0.039490 0.003204
0.045410 0.038269 0.002960
0.065613 0.040222 0.003204
0.091095 0.041168 0.004150
0.117920 0.040894 0.005219
0.144897 0.042847 0.005066
0.172363 0.046082 0.007751
0.203308 0.047638 0.010498
0.235809 0.049530 0.013275
0.267975 0.054871 0.014252
0.302612 0.060211 0.019836
0.340057 0.065948 0.024536
0.376617 0.071594 0.031281
0.414337 0.078674 0.037567
0.453156 0.084808 0.044922
0.489807 0.090759 0.051025
0.518036 0.095337 0.056061
0.525696 0.096069 0.057404
0.533875 0.097565 0.058868
0.541565 0.099762 0.060394
0.549225 0.101959 0.061859
0.556915 0.104156 0.063293
0.564362 0.106140 0.064789
0.571289 0.107635 0.066254
0.578247 0.109100 0.067749
0.585175 0.110535 0.069183
0.592133 0.112030 0.070679
0.000000 0.065002 0.003754
0.001801 0.064270 0.003632
0.003601 0.064056 0.003510
0.005402 0.063171 0.003326
0.012817 0.060120 0.003113
0.021179 0.059967 0.003204
0.038635 0.058624 0.003204
0.059723 0.059387 0.005493
0.085693 0.060699 0.005188
0.113464 0.059021 0.006958
0.141632 0.061371 0.007751
0.169281 0.063263 0.009094
0.199402 0.066010 0.011810
0.231445 0.067230 0.013123
0.267090 0.071899 0.016327
0.299713 0.076263 0.021118
0.335205 0.080383 0.026703
0.370667 0.086243 0.031067
0.409119 0.092133 0.037628
0.448914 0.097839 0.045380
0.485199 0.103210 0.052704
0.517120 0.109192 0.058655
0.525696 0.109619 0.059937
0.533875 0.108795 0.060974
0.542297 0.108612 0.062164
0.550720 0.109375 0.063477
0.558441 0.110840 0.064819
0.565704 0.112152 0.066132
0.572510 0.113007 0.067474
0.579315 0.113800 0.068787
0.586243 0.115234 0.070282
0.593170 0.116638 0.071716
0.000000 0.091858 0.006592
0.001801 0.090973 0.006500
0.003601 0.089935 0.006378
0.005402 0.087952 0.006195
0.010101 0.086395 0.005951
0.018860 0.083710 0.005737
0.028961 0.083771 0.005463
0.049530 0.081848 0.007202
0.077423 0.083099 0.008087
0.106354 0.082672 0.007782
0.137024 0.083252 0.010681
0.166565 0.086334 0.011108
0.195007 0.087433 0.013672
0.227203 0.088470 0.015045
0.259827 0.092316 0.018463
0.293701 0.094971 0.022400
0.330261 0.098419 0.028870
0.367828 0.104797 0.034393
0.404083 0.108490 0.039032
0.443695 0.114197 0.046814
0.482330 0.119629 0.054565
0.516205 0.125397 0.060883
0.528687 0.126617 0.063080
0.535889 0.125916 0.064117
0.543182 0.125092 0.065186
0.550720 0.125488 0.066437
0.559113 0.125977 0.067749
0.567291 0.126434 0.068756
0.574982 0.126740 0.069275
0.582062 0.127167 0.070435
0.588989 0.128510 0.071899
0.595917 0.129913 0.073395
0.000000 0.119019 0.009460
0.001801 0.118225 0.009399
0.003601 0.117279 0.009277
0.005402 0.115417 0.009094
0.007172 0.113556 0.008881
0.016327 0.109375 0.008972
0.024902 0.109589 0.010406
0.037170 0.109589 0.009888
0.064331 0.108521 0.011047
0.097046 0.108185 0.011932
0.128571 0.109406 0.012939
0.161316 0.110443 0.013885
0.193268 0.111572 0.016937
0.222809 0.112671 0.020111
0.255493 0.113617 0.023346
0.290863 0.117828 0.026581
0.326935 0.120056 0.031281
0.361755 0.122772 0.036346
0.398956 0.128662 0.042816
0.438904 0.132812 0.049011
0.475372 0.138031 0.056000
0.512909 0.142487 0.061951
0.528900 0.143250 0.063293
0.536591 0.142700 0.064789
0.544281 0.141846 0.066254
0.551971 0.142334 0.067749
0.559631 0.142853 0.069214
0.567566 0.143555 0.070679
0.575989 0.144836 0.072144
0.583771 0.145477 0.072998
0.591431 0.146790 0.073700
0.599091 0.148224 0.074463
0.000000 0.149780 0.015289
0.001801 0.148895 0.015106
0.003601 0.147888 0.014923
0.005402 0.145905 0.014557
0.007172 0.143921 0.014160
0.013550 0.139130 0.013702
0.022308 0.136627 0.014160
0.031219 0.137817 0.014343
0.046295 0.136505 0.015808
0.082611 0.136566 0.015686
0.117645 0.134369 0.017334
0.152069 0.135132 0.018829
0.182892 0.135986 0.022003
0.218048 0.137115 0.024963
0.250732 0.139130 0.026855
0.283752 0.139832 0.031769
0.321075 0.143494 0.035034
0.357513 0.147919 0.041748
0.393524 0.149719 0.046021
0.432739 0.154785 0.053467
0.472748 0.159393 0.057983
0.512512 0.164825 0.065338
0.534698 0.166138 0.069153
0.541351 0.164642 0.069550
0.548187 0.162903 0.070160
0.555450 0.162903 0.071259
0.562775 0.163086 0.072357
0.570099 0.163147 0.073456
0.577423 0.163330 0.074554
0.585388 0.164154 0.075684
0.593842 0.166229 0.077118
0.602234 0.168396 0.078613
0.000000 0.178162 0.021210
0.001801 0.177368 0.021057
0.003601 0.176544 0.020905
0.005402 0.174927 0.020538
0.007172 0.173157 0.020142
0.010986 0.171021 0.019714
0.019562 0.167297 0.020905
0.028625 0.166687 0.020081
0.037537 0.166473 0.020844
0.058167 0.165253 0.023987
0.102539 0.165314 0.023956
0.139587 0.163361 0.024231
0.174316 0.163910 0.027130
0.209625 0.164825 0.030426
0.243469 0.165527 0.032928
0.279755 0.167450 0.036926
0.314178 0.168640 0.041870
0.351837 0.173431 0.046051
0.390015 0.176880 0.053314
0.428345 0.178986 0.057770
0.467255 0.181976 0.063263
0.509399 0.189148 0.069763
0.537994 0.191956 0.075104
0.545258 0.190063 0.075775
0.552521 0.188019 0.076416
0.559967 0.187500 0.077393
0.567474 0.187469 0.078522
0.574982 0.187408 0.079376
0.582520 0.187500 0.079803
0.589996 0.187531 0.080963
0.597656 0.188812 0.082397
0.605347 0.190247 0.083862
0.000000 0.212128 0.029877
0.001801 0.210327 0.029602
0.003601 0.208527 0.029327
0.005402 0.206024 0.028839
0.007172 0.204224 0.028320
0.008942 0.202332 0.028137
0.016632 0.200500 0.028503
0.025940 0.196716 0.029358
0.034943 0.198090 0.029541
0.044067 0.196350 0.029846
0.073669 0.194855 0.030487
0.120758 0.194519 0.032440
0.160706 0.195190 0.035370
0.199158 0.195679 0.038330
0.237366 0.196228 0.041260
0.271606 0.196655 0.044189
0.309692 0.197113 0.047241
0.346008 0.199524 0.053406
0.383118 0.203308 0.057861
0.422638 0.204102 0.062164
0.461853 0.208099 0.068634
0.502716 0.212769 0.074158
0.540161 0.215363 0.078125
0.550720 0.215057 0.079865
0.557587 0.214325 0.080902
0.564728 0.214142 0.082123
0.572083 0.214172 0.083435
0.579163 0.214203 0.084686
0.585754 0.214111 0.085999
0.593170 0.214172 0.086517
0.600861 0.215485 0.087219
0.608490 0.216858 0.087921
0.000000 0.244751 0.041412
0.001801 0.243866 0.041107
0.003601 0.242950 0.040741
0.005402 0.241180 0.040131
0.007172 0.238434 0.039429
0.008942 0.236267 0.038605
0.014008 0.235718 0.038788
0.023041 0.230286 0.038605
0.032166 0.227783 0.038330
0.041443 0.230469 0.040863
0.050659 0.228577 0.041046
0.089020 0.227081 0.041687
0.144531 0.226746 0.043701
0.185486 0.227020 0.046722
0.225616 0.225708 0.048431
0.263489 0.228607 0.052673
0.300323 0.229034 0.055695
0.339050 0.229584 0.058716
0.376648 0.230377 0.063965
0.415833 0.232941 0.067993
0.455627 0.236786 0.074158
0.497864 0.240540 0.078613
0.538635 0.243774 0.086060
0.553101 0.242584 0.086975
0.560883 0.240540 0.086639
0.567902 0.239594 0.086884
0.575562 0.240234 0.087982
0.583282 0.240753 0.089111
0.590942 0.240784 0.090240
0.597809 0.240814 0.091370
0.604706 0.242096 0.092773
0.611633 0.243530 0.094238
0.000000 0.277527 0.051666
0.001801 0.277405 0.052155
0.003601 0.277039 0.052582
0.005402 0.276184 0.052704
0.007172 0.274445 0.052094
0.008942 0.272003 0.051270
0.011017 0.269348 0.050323
0.020020 0.267853 0.049316
0.029327 0.264404 0.048279
0.038727 0.263519 0.050323
0.047974 0.263641 0.052094
0.061951 0.260162 0.051270
0.108551 0.258942 0.052246
0.166077 0.259552 0.055176
0.210449 0.257019 0.058197
0.250671 0.257507 0.059967
0.290680 0.259674 0.064209
0.329041 0.260437 0.067230
0.370880 0.262238 0.070312
0.408783 0.263153 0.074768
0.449463 0.265350 0.079620
0.488953 0.266907 0.085907
0.531403 0.270599 0.090759
0.551849 0.270020 0.094055
0.564636 0.269043 0.094391
0.572296 0.267731 0.094452
0.578888 0.267761 0.094849
0.585754 0.267822 0.095520
0.593079 0.267731 0.096619
0.600403 0.267792 0.097778
0.608063 0.269104 0.099182
0.615753 0.270477 0.100647
0.000000 0.315033 0.063416
0.001801 0.313904 0.063049
0.003601 0.312866 0.062714
0.005402 0.311432 0.062408
0.007172 0.310455 0.062714
0.008942 0.308258 0.062317
0.010742 0.305664 0.061615
0.016663 0.303375 0.061340
0.026367 0.301147 0.061005
0.035889 0.299377 0.061279
0.045197 0.296722 0.061646
0.054688 0.296692 0.060944
0.072540 0.294006 0.063629
0.129272 0.294525 0.064789
0.187592 0.292633 0.066742
0.233582 0.292023 0.069763
0.276855 0.291534 0.072845
0.319244 0.291168 0.075897
0.360596 0.294342 0.078979
0.400970 0.296021 0.082397
0.443176 0.298950 0.088318
0.482300 0.299377 0.091431
0.525604 0.303101 0.097961
0.556610 0.304291 0.102600
0.568115 0.301178 0.102875
0.574707 0.298218 0.102570
0.582916 0.297760 0.102722
0.590912 0.297424 0.103180
0.598419 0.297119 0.104187
0.605927 0.296844 0.105133
0.613586 0.298126 0.106537
0.621277 0.299530 0.107971
0.000000 0.354706 0.076202
0.001801 0.353638 0.075836
0.003601 0.352600 0.075531
0.005402 0.351105 0.075043
0.007172 0.349396 0.074493
0.008942 0.347260 0.074127
0.010742 0.345245 0.073975
0.012543 0.342133 0.072937
0.023285 0.340088 0.072998
0.032928 0.337006 0.072906
0.042358 0.332489 0.071777
0.051910 0.332794 0.072815
0.061401 0.333282 0.075531
0.081207 0.330627 0.075592
0.148987 0.329681 0.076538
0.211426 0.328156 0.078461
0.260376 0.328400 0.083221
0.304413 0.325562 0.084625
0.348694 0.327271 0.087708
0.392181 0.331604 0.091522
0.433350 0.332367 0.097107
0.477264 0.333801 0.101532
0.518463 0.335632 0.106201
0.554657 0.337982 0.108765
0.573822 0.335358 0.111877
0.580383 0.331543 0.112274
0.587128 0.330597 0.112457
0.594147 0.329956 0.112701
0.601654 0.329865 0.112946
0.609192 0.329651 0.113831
0.616821 0.330933 0.115295
0.624512 0.332336 0.116760
0.000000 0.395050 0.089172
0.001801 0.393280 0.088837
0.003601 0.391449 0.088501
0.005402 0.389374 0.088013
0.007172 0.387817 0.087433
0.008942 0.385529 0.086670
0.010742 0.383057 0.085785
0.012543 0.380951 0.085480
0.019867 0.379852 0.086243
0.029816 0.375183 0.085480
0.039398 0.371735 0.084869
0.049042 0.371429 0.084686
0.058624 0.369507 0.085724
0.068268 0.367584 0.087433
0.090088 0.367126 0.089630
0.174591 0.364532 0.089355
0.236237 0.364777 0.092072
0.284607 0.363892 0.095306
0.333496 0.363281 0.097595
0.378632 0.366241 0.101044
0.422180 0.368469 0.105927
0.466370 0.369171 0.109192
0.510620 0.370789 0.113831
0.549011 0.372009 0.119934
0.577393 0.372437 0.121674
0.585480 0.369568 0.121002
0.592010 0.366974 0.121887
0.598633 0.365082 0.122559
0.605255 0.363739 0.122803
0.612457 0.362823 0.122986
0.620117 0.364136 0.123688
0.627808 0.365479 0.124390
0.000000 0.433197 0.102203
0.001801 0.432159 0.101868
0.003601 0.431213 0.101501
0.005402 0.429810 0.101074
0.007172 0.427429 0.100525
0.008942 0.424774 0.099762
0.010742 0.422180 0.098907
0.012543 0.419067 0.097900
0.016724 0.416565 0.096954
0.026520 0.416107 0.099121
0.036346 0.412659 0.098022
0.046112 0.409180 0.096893
0.055725 0.408691 0.098907
0.065460 0.406738 0.099121
0.075287 0.406555 0.099670
0.105164 0.403717 0.101654
0.197876 0.402344 0.104248
0.261536 0.402039 0.105408
0.312347 0.402252 0.108490
0.362427 0.403198 0.112305
0.410278 0.403351 0.115417
0.454987 0.403259 0.118256
0.502258 0.406250 0.124207
0.542267 0.406708 0.127350
0.575653 0.406952 0.131256
0.585815 0.404724 0.132263
0.594238 0.403687 0.132294
0.602386 0.403290 0.132477
0.610077 0.402893 0.132660
0.617249 0.402069 0.132904
0.624146 0.402588 0.133545
0.631104 0.403259 0.134308
0.000000 0.475861 0.115356
0.001801 0.474731 0.115784
0.003601 0.473572 0.116150
0.005402 0.472107 0.116455
0.007172 0.470520 0.115906
0.008942 0.467896 0.114929
0.010742 0.465240 0.113953
0.012543 0.462128 0.112793
0.014343 0.458710 0.111542
0.023102 0.457428 0.110260
0.033203 0.454834 0.111328
0.043060 0.451111 0.110687
0.052765 0.449493 0.111572
0.062561 0.446930 0.111298
0.072388 0.447693 0.113037
0.082245 0.444702 0.113678
0.131348 0.443329 0.116455
0.224365 0.442291 0.117493
0.286835 0.440796 0.118896
0.341095 0.443237 0.123016
0.391388 0.440643 0.124512
0.441223 0.443390 0.130127
0.487946 0.441162 0.133331
0.532562 0.446320 0.139130
0.569794 0.443451 0.139435
0.585815 0.441925 0.141113
0.594238 0.440247 0.141754
0.602661 0.439758 0.142731
0.611053 0.439178 0.143646
0.619080 0.438751 0.144226
0.626740 0.439972 0.144897
0.634430 0.441406 0.145599
0.000000 0.520630 0.131348
0.001801 0.518677 0.130920
0.003601 0.516754 0.130463
0.005402 0.514496 0.129913
0.007172 0.512878 0.130005
0.008942 0.511230 0.129547
0.010742 0.509491 0.128754
0.012543 0.507050 0.127838
0.014343 0.503662 0.126831
0.020020 0.500275 0.125854
0.029877 0.498566 0.124786
0.039856 0.496124 0.124207
0.049744 0.492340 0.125702
0.059601 0.490417 0.124512
0.069489 0.487640 0.126282
0.079407 0.486359 0.125916
0.089386 0.484680 0.128754
0.158386 0.484161 0.129028
0.250458 0.483032 0.131256
0.313751 0.481598 0.134033
0.369080 0.482544 0.136932
0.421417 0.481506 0.139740
0.473175 0.481476 0.143799
0.520325 0.483521 0.148651
0.564545 0.484039 0.151398
0.587769 0.483215 0.153687
0.596252 0.480774 0.153870
0.604248 0.480011 0.154388
0.611755 0.479431 0.154480
0.619476 0.478668 0.154694
0.627899 0.479889 0.156097
0.636322 0.481232 0.157562
0.000000 0.568512 0.148132
0.001801 0.566528 0.146973
0.003601 0.564453 0.145752
0.005402 0.561981 0.144440
0.007172 0.559601 0.143646
0.008942 0.556976 0.142975
0.010742 0.554382 0.142242
0.012543 0.551086 0.141327
0.014343 0.548676 0.140411
0.016998 0.545654 0.139374
0.026337 0.543243 0.139374
0.036621 0.539856 0.139435
0.046600 0.537292 0.139252
0.056580 0.534637 0.139008
0.066467 0.533051 0.139984
0.076447 0.529022 0.138855
0.086487 0.528320 0.141174
0.096527 0.526794 0.142670
0.186218 0.526062 0.145538
0.274109 0.522919 0.146515
0.342712 0.524048 0.149414
0.398926 0.523529 0.152252
0.453735 0.523102 0.155090
0.506042 0.525696 0.161163
0.553345 0.525482 0.164001
0.587769 0.525696 0.165375
0.596924 0.522797 0.165192
0.605591 0.521851 0.166138
0.613281 0.520447 0.167084
0.620941 0.519104 0.168030
0.628662 0.520355 0.168701
0.636322 0.521759 0.169403
0.000000 0.608124 0.158966
0.001801 0.607910 0.159424
0.003601 0.607635 0.159882
0.005402 0.607147 0.160339
0.007172 0.605896 0.160065
0.008942 0.603363 0.158966
0.010742 0.601105 0.158142
0.012543 0.598145 0.157043
0.014343 0.594879 0.155823
0.016144 0.591492 0.154541
0.022522 0.587921 0.153198
0.033203 0.587524 0.154907
0.043396 0.581207 0.153625
0.053436 0.579407 0.152191
0.063385 0.576233 0.153870
0.073456 0.576324 0.153961
0.083527 0.573273 0.153961
0.093628 0.570496 0.156525
0.103790 0.568237 0.157104
0.214142 0.567017 0.160126
0.302826 0.567383 0.161896
0.370728 0.567444 0.164795
0.428314 0.567993 0.168365
0.484161 0.564423 0.170532
0.538940 0.568268 0.176636
0.579712 0.567261 0.178680
0.592010 0.562866 0.178375
0.601562 0.562134 0.178619
0.611053 0.561676 0.179382
0.620544 0.561218 0.180176
0.628662 0.561920 0.181580
0.636322 0.562561 0.183014
0.000000 0.657013 0.175751
0.001801 0.656494 0.176025
0.003601 0.655731 0.176239
0.005402 0.654877 0.176422
0.007172 0.654022 0.176605
0.008942 0.651672 0.175598
0.010742 0.648346 0.174011
0.012543 0.644531 0.172211
0.014343 0.641083 0.170959
0.016144 0.637573 0.170135
0.017944 0.634186 0.169861
0.029663 0.633026 0.169037
0.040039 0.629395 0.169861
0.050201 0.626617 0.169373
0.060303 0.622009 0.167908
0.070404 0.621094 0.169525
0.080505 0.618286 0.169373
0.090668 0.617950 0.171722
0.100861 0.612274 0.171967
0.112030 0.613190 0.173645
0.241852 0.612610 0.176239
0.329987 0.612335 0.180542
0.398010 0.610291 0.181366
0.461182 0.610901 0.184967
0.517395 0.609314 0.186432
0.569000 0.614014 0.192078
0.587830 0.608978 0.192169
0.597198 0.606384 0.192139
0.606506 0.604828 0.192200
0.615845 0.603088 0.192200
0.625031 0.603912 0.193176
0.634186 0.605225 0.194611
0.000000 0.709229 0.195709
0.001801 0.707336 0.194824
0.003601 0.705383 0.193604
0.005402 0.703125 0.192322
0.007172 0.700653 0.190918
0.008942 0.698608 0.190308
0.010742 0.696533 0.189667
0.012543 0.693726 0.188843
0.014343 0.690125 0.187500
0.016144 0.686310 0.186005
0.017944 0.683258 0.185455
0.025879 0.678955 0.186340
0.036591 0.676605 0.184937
0.046875 0.673645 0.183655
0.057098 0.671356 0.185211
0.067291 0.669098 0.185455
0.077423 0.666687 0.185364
0.087646 0.664612 0.186981
0.097870 0.662476 0.187805
0.108185 0.657379 0.187561
0.134766 0.657623 0.190460
0.269470 0.657501 0.193390
0.357391 0.657074 0.194580
0.428436 0.656372 0.199188
0.492249 0.654938 0.202148
0.550720 0.657379 0.205017
0.579651 0.655182 0.205841
0.593750 0.652710 0.205933
0.603058 0.651093 0.205963
0.612396 0.649536 0.206024
0.621582 0.649994 0.206696
0.630707 0.650635 0.207367
0.000000 0.756348 0.210114
0.001801 0.754761 0.209686
0.003601 0.752747 0.209290
0.005402 0.750092 0.208649
0.007172 0.747589 0.208069
0.008942 0.746338 0.207428
0.010742 0.745850 0.206726
0.012543 0.744354 0.205597
0.014343 0.742645 0.204468
0.016144 0.738708 0.203186
0.017944 0.734833 0.201965
0.021729 0.731476 0.201324
0.032928 0.725677 0.201691
0.043488 0.723999 0.201019
0.053802 0.720734 0.201508
0.064056 0.715637 0.201202
0.074280 0.715149 0.201080
0.084534 0.715179 0.201263
0.094818 0.708771 0.202850
0.105133 0.707092 0.203491
0.115509 0.706818 0.205505
0.166504 0.703888 0.206177
0.298035 0.703491 0.209106
0.386444 0.704498 0.212036
0.460449 0.704987 0.215851
0.523346 0.700989 0.217896
0.563721 0.698639 0.219391
0.584381 0.696472 0.219910
0.594788 0.695099 0.219940
0.605194 0.693573 0.219940
0.615143 0.694061 0.220612
0.624542 0.694702 0.221313
0.000000 0.776489 0.217133
0.001801 0.776459 0.217102
0.003601 0.776459 0.217102
0.005402 0.776154 0.217102
0.007172 0.775452 0.217102
0.008942 0.775146 0.217102
0.010742 0.775146 0.217102
0.012543 0.774445 0.216797
0.014343 0.775238 0.216553
0.016144 0.774780 0.216003
0.017944 0.773438 0.215485
0.019714 0.772003 0.214966
0.029022 0.770050 0.215210
0.039948 0.768158 0.214752
0.050446 0.767517 0.215881
0.060760 0.765564 0.216736
0.071106 0.762909 0.217651
0.081390 0.758514 0.215607
0.091705 0.760803 0.216675
0.102051 0.757782 0.219238
0.112488 0.753754 0.220398
0.122925 0.751862 0.221893
0.184753 0.752899 0.223877
0.327911 0.752258 0.226501
0.416016 0.749847 0.229065
0.490387 0.753113 0.234039
0.543182 0.748718 0.233582
0.573883 0.746857 0.234161
0.585266 0.744965 0.234894
0.596405 0.743164 0.235657
0.607086 0.743622 0.237061
0.617554 0.744263 0.238342
0.000000 0.787354 0.220856
0.001801 0.787354 0.220856
0.003601 0.787354 0.220856
0.005402 0.787354 0.220856
0.007172 0.787109 0.220856
0.008942 0.786865 0.220856
0.010742 0.786865 0.220856
0.012543 0.786865 0.220856
0.014343 0.786804 0.220856
0.016144 0.787720 0.220825
0.017944 0.787476 0.220734
0.019714 0.787018 0.220551
0.025208 0.786713 0.220428
0.036285 0.790314 0.222961
0.046936 0.787720 0.223022
0.057404 0.786682 0.222595
0.067810 0.791016 0.225464
0.078186 0.788239 0.226990
0.088531 0.787720 0.226776
0.098938 0.791656 0.229156
0.109406 0.791473 0.232605
0.119873 0.787689 0.233154
0.130432 0.789429 0.234985
0.227264 0.792450 0.239319
0.363983 0.793243 0.242035
0.450012 0.790802 0.243591
0.518677 0.796143 0.249329
0.563782 0.791473 0.250397
0.574219 0.790955 0.250549
0.584534 0.790466 0.250671
0.594482 0.791718 0.251343
0.604370 0.793091 0.252045
0.000000 0.798248 0.224548
0.001801 0.798248 0.224548
0.003601 0.798248 0.224548
0.005402 0.798248 0.224548
0.007172 0.798248 0.224548
0.008942 0.798248 0.224548
0.010742 0.798248 0.224548
0.012543 0.798248 0.224548
0.014343 0.798248 0.224548
0.016144 0.798248 0.224548
0.017944 0.798248 0.224548
0.019714 0.798248 0.224548
0.023834 0.798248 0.224548
0.033783 0.799957 0.225647
0.044525 0.802032 0.227753
0.055023 0.804382 0.227753
0.065369 0.803589 0.229034
