滤镜资源/Professional Luts Collection/Triune-Digital-Cinematic-LUTs/3D LUTs (CUBE)/LOG/The Revenant - LOG.cube
#Created by Benjamin (IWLTBAP) : http://luts.iwltbap.com
#Copyright: (C) Copyright 2016 Triune Films and IWLTBAP
TITLE "Blockbuster LUTs Pack (LOG)"
#LUT size
LUT_3D_SIZE 8
#LUT data points
DOMAIN_MIN 0.000000 0.000000 0.000000
DOMAIN_MAX 0.903226 0.903226 0.903226
0.000000 0.000000 0.000000
0.029694 0.002563 0.002594
0.120056 0.011749 0.013641
0.248505 0.039154 0.049042
0.401154 0.078766 0.090027
0.524200 0.104004 0.116913
0.554230 0.108551 0.121185
0.582520 0.113831 0.125824
0.005280 0.056671 0.021820
0.033142 0.048157 0.015289
0.136597 0.045197 0.030975
0.268524 0.060883 0.057770
0.403168 0.085541 0.089447
0.531281 0.110626 0.117920
0.568481 0.116791 0.124786
0.596039 0.122314 0.130371
0.023682 0.182373 0.105042
0.025482 0.174774 0.098969
0.134430 0.174561 0.096619
0.279968 0.160095 0.093719
0.420563 0.135773 0.106720
0.558716 0.140869 0.129608
0.613129 0.145325 0.139618
0.631561 0.145538 0.141113
0.067413 0.330170 0.196960
0.069244 0.322968 0.194366
0.084534 0.310120 0.186157
0.269287 0.334747 0.198608
0.444214 0.309479 0.186432
0.590149 0.249237 0.172607
0.669403 0.217041 0.168091
0.684814 0.204102 0.165649
0.118286 0.502075 0.306091
0.120422 0.496765 0.303284
0.123169 0.484039 0.293243
0.227448 0.485626 0.300873
0.436218 0.517944 0.317322
0.614471 0.483459 0.295166
0.746552 0.406189 0.267365
0.767670 0.382446 0.255737
0.169250 0.669617 0.418274
0.171570 0.664886 0.411957
0.172455 0.655182 0.407196
0.185211 0.641266 0.404114
0.398712 0.668304 0.429108
0.595856 0.692474 0.437500
0.777435 0.657562 0.420807
0.813782 0.613617 0.398529
0.219940 0.836548 0.533661
0.221375 0.829254 0.528046
0.223358 0.823090 0.522675
0.230438 0.813782 0.518036
0.343719 0.818054 0.525848
0.556549 0.843842 0.556793
0.747650 0.858154 0.567871
0.807983 0.848450 0.562866
0.232849 0.879303 0.567474
0.236938 0.880219 0.568298
0.240631 0.879974 0.567505
0.244690 0.879181 0.569641
0.292389 0.881409 0.571167
0.517059 0.935089 0.619843
0.702881 0.971771 0.656464
0.790649 0.980286 0.685699
0.000397 0.005371 0.030243
0.041321 0.005585 0.040527
0.147125 0.017059 0.057465
0.276184 0.048065 0.081421
0.413116 0.081421 0.105957
0.533966 0.106537 0.126129
0.565857 0.111847 0.132324
0.594025 0.116669 0.137726
0.004120 0.062988 0.070404
0.032043 0.055237 0.063110
0.148529 0.045227 0.063080
0.273163 0.059845 0.074554
0.412537 0.088928 0.102448
0.538818 0.113342 0.128601
0.582123 0.120697 0.136963
0.606384 0.125336 0.140259
0.023254 0.180054 0.116333
0.025848 0.174927 0.112335
0.132843 0.167603 0.113129
0.277252 0.153076 0.105469
0.428101 0.135742 0.118835
0.562195 0.141693 0.136871
0.615204 0.144836 0.145294
0.635468 0.145447 0.148224
0.067108 0.328705 0.205872
0.069458 0.323212 0.203674
0.080872 0.308594 0.196381
0.269989 0.331757 0.214905
0.445984 0.303650 0.194672
0.592529 0.245300 0.181915
0.668121 0.213409 0.175049
0.685822 0.202576 0.172943
0.117493 0.499481 0.315094
0.119659 0.494324 0.311005
0.122711 0.482910 0.305237
0.223907 0.484131 0.310883
0.433563 0.515625 0.326263
0.615906 0.479797 0.303558
0.748718 0.402100 0.275696
0.767029 0.377808 0.263000
0.170349 0.672638 0.427948
0.172455 0.667114 0.424072
0.173462 0.657959 0.418854
0.185486 0.642426 0.411560
0.395599 0.670074 0.438507
0.597046 0.693115 0.449860
0.779419 0.653992 0.429871
0.815765 0.610168 0.411469
0.218933 0.833374 0.540222
0.221832 0.830200 0.537689
0.223297 0.822479 0.532715
0.230072 0.812836 0.528809
0.341614 0.815857 0.536987
0.553833 0.844818 0.567841
0.747375 0.859314 0.580322
0.809937 0.848602 0.572235
0.232574 0.878296 0.578278
0.236694 0.879303 0.578278
0.240387 0.879150 0.578674
0.244354 0.878662 0.579224
0.292725 0.884216 0.587097
0.513641 0.935455 0.630066
0.703796 0.971985 0.669647
0.791199 0.982635 0.697998
0.002441 0.033539 0.112427
0.015778 0.031006 0.123932
0.154907 0.034271 0.154175
0.298920 0.059448 0.160522
0.448425 0.092438 0.178131
0.566254 0.115814 0.185425
0.597107 0.120148 0.185364
0.620850 0.124542 0.185211
0.006622 0.084137 0.152405
0.014099 0.076385 0.151031
0.150513 0.067078 0.162292
0.295074 0.069763 0.154846
0.440948 0.097931 0.172485
0.564789 0.120972 0.179199
0.600098 0.126587 0.176849
0.624786 0.129822 0.177277
0.027405 0.188721 0.202454
0.028320 0.179382 0.191132
0.124329 0.176666 0.196869
0.291229 0.153076 0.182617
0.437195 0.140961 0.170319
0.573761 0.145172 0.169220
0.625519 0.147339 0.170410
0.644714 0.147888 0.170471
0.068756 0.333801 0.270599
0.070404 0.325470 0.261902
0.077911 0.306702 0.246857
0.271057 0.329651 0.263519
0.446899 0.296631 0.226715
0.588318 0.237244 0.197113
0.671082 0.207672 0.185333
0.691467 0.200500 0.181671
0.118622 0.502258 0.343384
0.120575 0.496368 0.339020
0.121063 0.478943 0.324066
0.221191 0.484436 0.324768
0.431580 0.511566 0.340576
0.612549 0.476288 0.311890
0.751678 0.399811 0.284912
0.766479 0.371735 0.270721
0.169037 0.668182 0.438110
0.171875 0.664886 0.435516
0.173553 0.657623 0.431732
0.186279 0.643524 0.424194
0.392792 0.670197 0.451691
0.594910 0.690979 0.462341
0.776825 0.652618 0.438995
0.819000 0.607605 0.421783
0.219269 0.833954 0.551880
0.221466 0.828705 0.548248
0.222900 0.820892 0.543610
0.228638 0.809387 0.538544
0.335632 0.812958 0.546692
0.550201 0.842896 0.577728
0.748901 0.861389 0.593567
0.812775 0.847839 0.583313
0.232330 0.877533 0.589630
0.236511 0.878784 0.590302
0.240234 0.878571 0.589417
0.243927 0.878143 0.590942
0.284058 0.883453 0.598358
0.510529 0.935944 0.640778
0.704285 0.973907 0.683685
0.792603 0.981506 0.709106
0.008942 0.089966 0.220276
0.020233 0.092438 0.233093
0.108368 0.087830 0.257996
0.306732 0.093475 0.292480
0.473297 0.112183 0.295685
0.612335 0.137634 0.307556
0.642578 0.140747 0.296600
0.665955 0.144623 0.293304
0.014069 0.125458 0.253235
0.020660 0.118988 0.249756
0.077332 0.106781 0.261200
0.292023 0.104248 0.292572
0.458588 0.116913 0.290558
0.606873 0.141052 0.293274
0.645386 0.145203 0.283569
0.671661 0.150024 0.283844
0.035095 0.209503 0.319031
0.035767 0.200195 0.304749
0.069183 0.187866 0.297211
0.286469 0.185303 0.317780
0.461121 0.164215 0.302032
0.613312 0.166962 0.291931
0.659302 0.163574 0.273315
0.682159 0.164185 0.270203
0.070129 0.340607 0.387360
0.072205 0.333984 0.381042
0.080383 0.317596 0.365112
0.253906 0.330872 0.371368
0.453979 0.307037 0.351898
0.619476 0.250244 0.303925
0.711914 0.221771 0.282166
0.728363 0.210938 0.267029
0.122040 0.510498 0.459808
0.122833 0.501068 0.452576
0.124329 0.488770 0.436584
0.179047 0.480438 0.427521
0.423920 0.510925 0.447235
0.618713 0.470612 0.406250
0.767273 0.374542 0.339783
0.786316 0.344330 0.314575
0.174347 0.682343 0.529480
0.177063 0.678894 0.526031
0.176636 0.665497 0.512939
0.186829 0.647186 0.494690
0.372925 0.665863 0.506348
0.588898 0.694000 0.526031
0.780273 0.652405 0.487427
0.824310 0.603027 0.452789
0.220917 0.837891 0.600189
0.223450 0.833649 0.595764
0.224457 0.824707 0.586090
0.228821 0.810791 0.569916
0.324493 0.810760 0.568695
0.545685 0.838837 0.591003
0.748779 0.860565 0.606445
0.817902 0.848938 0.598877
0.232849 0.878754 0.613647
0.236877 0.879547 0.609222
0.240417 0.878937 0.608002
0.243774 0.877716 0.604279
0.277344 0.879852 0.612549
0.504761 0.934052 0.651886
0.703278 0.972229 0.694855
0.796967 0.981354 0.724091
0.022095 0.148346 0.343750
0.032745 0.149780 0.351379
0.049072 0.145844 0.365845
0.282166 0.152405 0.420135
0.480499 0.164459 0.456207
0.633759 0.172577 0.456696
0.671295 0.173065 0.439423
0.696503 0.175537 0.439209
0.027924 0.174408 0.372528
0.032532 0.166412 0.363617
0.047882 0.156738 0.365448
0.260529 0.159912 0.414917
0.460266 0.167480 0.446869
0.627319 0.175018 0.443329
0.677002 0.178101 0.432831
0.704529 0.179779 0.427887
0.042114 0.228271 0.421692
0.044769 0.224457 0.418030
0.056824 0.210236 0.406555
0.237915 0.221802 0.439087
0.446259 0.208313 0.456879
0.618164 0.195374 0.434937
0.688629 0.192902 0.415894
0.710663 0.191193 0.408264
0.076721 0.359344 0.509827
0.077820 0.350983 0.500580
0.084167 0.334991 0.487061
0.197998 0.334106 0.491302
0.441711 0.345428 0.510101
0.623566 0.295715 0.478729
0.729736 0.254669 0.436462
0.749786 0.242188 0.417847
0.125183 0.518158 0.584503
0.127686 0.513824 0.582916
0.128815 0.502686 0.571564
0.142639 0.480591 0.552917
0.398621 0.514771 0.575867
0.618530 0.511993 0.580627
0.790680 0.414276 0.508667
0.819824 0.378815 0.481110
0.178192 0.691559 0.662598
0.179932 0.685150 0.656128
0.180481 0.674652 0.645508
0.190582 0.657898 0.626984
0.330383 0.665619 0.629120
0.579285 0.696533 0.650879
0.786407 0.660217 0.626373
0.848816 0.596954 0.588257
0.225372 0.848999 0.722992
0.228027 0.845215 0.718536
0.229523 0.837708 0.709351
0.233368 0.824158 0.692780
0.264771 0.809021 0.677826
0.525787 0.849518 0.702148
0.739319 0.872894 0.726105
0.839813 0.867554 0.715790
0.225250 0.854584 0.726868
0.229401 0.855804 0.722290
0.233582 0.857086 0.717194
0.237793 0.858521 0.710968
0.258911 0.860596 0.702423
0.478638 0.910675 0.726837
0.698425 0.959229 0.760559
0.807953 0.976593 0.782623
0.033905 0.183197 0.428131
0.044037 0.184906 0.439240
0.062744 0.188110 0.465912
0.233154 0.207092 0.524811
0.455017 0.219940 0.583862
0.628265 0.227753 0.609100
0.676086 0.225952 0.605835
0.701904 0.225006 0.603455
0.040833 0.209320 0.467499
0.045288 0.203430 0.458710
0.063110 0.201233 0.473328
0.157410 0.205353 0.514526
0.431915 0.220947 0.571014
0.619873 0.234955 0.610901
0.682404 0.232178 0.604828
0.710968 0.227509 0.589722
0.052826 0.257568 0.525360
0.055695 0.253632 0.522095
0.070129 0.247772 0.524628
0.100433 0.232025 0.526672
0.406616 0.253296 0.575592
0.601501 0.254181 0.605255
0.688812 0.239655 0.585907
0.720703 0.237885 0.581696
0.081085 0.371582 0.622589
0.082275 0.363525 0.614075
0.088470 0.349274 0.598663
0.101898 0.327148 0.593231
0.397827 0.363983 0.631409
0.600494 0.333008 0.629791
0.726807 0.300079 0.608795
0.753235 0.286926 0.594421
0.134521 0.544830 0.726593
0.135071 0.534882 0.716156
0.134735 0.521179 0.699677
0.148773 0.499847 0.685242
0.350403 0.519409 0.702698
0.603638 0.535400 0.725464
0.783051 0.466187 0.689148
0.815521 0.428131 0.658722
0.182922 0.704010 0.796692
0.185547 0.700073 0.794128
0.185394 0.687683 0.782501
0.196228 0.675049 0.768890
0.252411 0.663971 0.756256
0.551453 0.708099 0.786926
0.778168 0.711151 0.797272
0.852264 0.675262 0.777405
0.216003 0.818695 0.848755
0.219849 0.818481 0.844604
0.223877 0.818665 0.834869
0.232697 0.821869 0.826599
0.253601 0.816956 0.813416
0.479126 0.847839 0.831818
0.724823 0.876862 0.851959
0.858978 0.885071 0.859894
0.216370 0.826630 0.839966
0.220123 0.826569 0.839539
0.223846 0.826447 0.839050
0.228333 0.828705 0.830200
0.248444 0.829773 0.825073
0.440002 0.871368 0.850433
0.683289 0.927063 0.883270
0.861267 0.964905 0.916687
0.036224 0.189392 0.445526
0.047211 0.195465 0.462830
0.063812 0.192596 0.479218
0.199280 0.210480 0.538391
0.445679 0.227020 0.598877
0.627716 0.244476 0.651794
0.673462 0.245941 0.652588
0.708557 0.249054 0.660858
0.042206 0.212463 0.479431
0.048157 0.212646 0.483978
0.065491 0.208618 0.497040
0.128540 0.210236 0.533691
0.421509 0.241180 0.605774
0.615204 0.252716 0.653961
0.681885 0.258881 0.666016
0.710480 0.257141 0.666107
0.055359 0.266449 0.551941
0.057800 0.260803 0.543427
0.070679 0.250427 0.542542
0.086182 0.238281 0.560883
0.377747 0.277740 0.626312
0.584778 0.273560 0.661194
0.684418 0.277405 0.679901
0.717896 0.275604 0.681488
0.081390 0.371826 0.659149
0.082367 0.363037 0.648438
0.089630 0.354034 0.646240
0.103699 0.335571 0.646454
0.351257 0.364899 0.688202
0.572510 0.343536 0.706543
0.709290 0.334259 0.725189
0.735229 0.330627 0.725006
0.135376 0.546692 0.796661
0.137695 0.541901 0.795471
0.137726 0.530029 0.786530
0.151093 0.508026 0.777344
0.285156 0.510040 0.791260
0.572357 0.539398 0.834686
0.760162 0.488342 0.824890
0.792389 0.466003 0.809509
0.190674 0.726074 0.880127
0.192627 0.720337 0.880463
0.192657 0.708221 0.880646
0.201691 0.692505 0.877136
0.215393 0.668945 0.879456
0.512054 0.709991 0.909760
0.760803 0.729950 0.942444
0.845276 0.702728 0.927673
0.216125 0.818542 0.870697
0.219910 0.818085 0.870087
0.223572 0.816956 0.870117
0.230133 0.815369 0.869629
0.255280 0.813843 0.869049
0.493561 0.860016 0.903625
0.734711 0.901947 0.940338
0.880676 0.909363 0.964447
0.247101 0.834442 0.866882
0.252747 0.834869 0.866699
0.251648 0.833649 0.865112
0.255188 0.833527 0.863800
0.322235 0.845459 0.869232
0.570587 0.900909 0.906464
0.817047 0.956909 0.945312
0.994751 0.996552 0.974030
0.039062 0.197327 0.467987
0.050354 0.205017 0.486267
0.067596 0.203949 0.503052
0.154968 0.211914 0.550140
0.438629 0.237976 0.616730
0.624329 0.251953 0.669006
0.673615 0.258148 0.682343
0.703644 0.260712 0.688690
0.045990 0.222504 0.504761
0.051361 0.221832 0.508179
0.067932 0.215942 0.515533
0.104431 0.214844 0.550598
0.410736 0.250824 0.623199
0.612122 0.262421 0.675842
0.678131 0.268951 0.693176
0.710663 0.272125 0.699310
0.056091 0.268768 0.562500
0.059967 0.268524 0.564087
0.072693 0.258270 0.560791
0.087952 0.243500 0.577759
0.365021 0.283386 0.638824
0.581573 0.280548 0.679291
0.680603 0.284515 0.701599
0.714325 0.289459 0.713867
0.081024 0.370544 0.669128
0.082397 0.363007 0.662506
0.090485 0.357147 0.663635
0.103699 0.336212 0.659973
0.329620 0.361176 0.702515
0.568176 0.349091 0.723145
0.702148 0.334778 0.737976
0.729858 0.334076 0.742188
0.134491 0.543732 0.812592
0.136902 0.539368 0.811005
0.136139 0.524933 0.799652
0.149811 0.505035 0.792297
0.266174 0.502747 0.801788
0.560608 0.532806 0.847473
0.748138 0.485107 0.842865
0.785461 0.461029 0.832581
0.189331 0.721710 0.884155
0.191925 0.717865 0.884308
0.192963 0.708771 0.884827
0.201355 0.692596 0.885712
0.216553 0.669586 0.887360
0.499359 0.706024 0.932831
0.746246 0.729248 0.971924
0.834259 0.695465 0.968292
0.216187 0.818298 0.877380
0.219940 0.817657 0.877777
0.223602 0.816498 0.878693
0.229645 0.814758 0.880035
0.320831 0.830170 0.890808
0.546478 0.878571 0.924988
0.758423 0.909729 0.959198
0.909241 0.924255 0.985077
0.349335 0.859589 0.895264
0.371643 0.864197 0.898254
0.397797 0.869659 0.902161
0.427948 0.875854 0.907501
0.553986 0.902466 0.926117
0.728577 0.940582 0.953217
0.926544 0.984406 0.988281
0.997009 0.997009 0.997009
