滤镜资源/Professional Luts Collection/Triune-Digital-Cinematic-LUTs/3D LUTs (CUBE)/LOG/The Conjuring - LOG.cube
#Created by Benjamin (IWLTBAP) : http://luts.iwltbap.com
#Copyright: (C) Copyright 2016 Triune Films and IWLTBAP
TITLE "Blockbuster LUTs Pack (LOG)"
#LUT size
LUT_3D_SIZE 5
#LUT data points
DOMAIN_MIN 0.000000 0.000000 0.000000
DOMAIN_MAX 0.903226 0.903226 0.903226
0.006958 0.007965 0.010254
0.103577 0.022278 0.019592
0.315155 0.063263 0.046234
0.505676 0.097229 0.071320
0.542938 0.102783 0.074860
0.018402 0.104584 0.030487
0.096008 0.108612 0.027740
0.353699 0.141815 0.064545
0.562622 0.166565 0.087769
0.588043 0.158722 0.089569
0.074005 0.253815 0.053650
0.120300 0.255798 0.047729
0.363281 0.274994 0.062531
0.630951 0.327759 0.129578
0.696930 0.334564 0.141541
0.184540 0.447479 0.105133
0.231079 0.455780 0.104736
0.426300 0.482544 0.100159
0.670990 0.515198 0.153717
0.813416 0.549744 0.204468
0.275208 0.591492 0.153015
0.326416 0.609406 0.159119
0.456543 0.650116 0.156952
0.718964 0.715363 0.178864
0.883331 0.742065 0.227600
0.007629 0.010010 0.092194
0.094330 0.024567 0.104828
0.300873 0.062225 0.119324
0.489227 0.099640 0.132507
0.527374 0.103943 0.126251
0.020905 0.103424 0.118622
0.093445 0.115479 0.124329
0.348175 0.151703 0.134094
0.554443 0.168365 0.136780
0.582336 0.157166 0.123505
0.047058 0.243500 0.092773
0.111511 0.261505 0.092102
0.373688 0.283661 0.097717
0.636505 0.339783 0.160156
0.707214 0.349457 0.174866
0.156097 0.430145 0.122314
0.214233 0.452759 0.138062
0.423187 0.492645 0.134003
0.675110 0.528442 0.188690
0.821533 0.566772 0.244598
0.241852 0.575470 0.175781
0.307343 0.609741 0.194824
0.444855 0.656799 0.203735
0.722687 0.732269 0.211487
0.889252 0.758514 0.261139
0.020477 0.038177 0.231812
0.092041 0.047241 0.233276
0.261810 0.076752 0.250275
0.475677 0.112091 0.261322
0.516449 0.118256 0.256744
0.035248 0.123718 0.259491
0.086456 0.135040 0.271332
0.282379 0.146973 0.265839
0.525513 0.176666 0.273346
0.559692 0.164642 0.258331
0.052643 0.253418 0.284698
0.072266 0.254608 0.283295
0.292908 0.333710 0.341949
0.640228 0.405243 0.367310
0.717529 0.390869 0.344269
0.081879 0.419281 0.286041
0.113068 0.426270 0.278748
0.385864 0.523956 0.306793
0.685974 0.576660 0.342468
0.839233 0.619934 0.390350
0.164886 0.526642 0.231140
0.230713 0.558441 0.240417
0.403931 0.663086 0.295227
0.719604 0.754669 0.283417
0.894745 0.774994 0.303864
0.035522 0.068390 0.346558
0.095551 0.070343 0.343933
0.248444 0.110748 0.386932
0.429413 0.128998 0.395844
0.477783 0.133850 0.396545
0.052460 0.155762 0.397461
0.100464 0.165924 0.414581
0.231110 0.173737 0.421906
0.467102 0.185974 0.421112
0.522858 0.174652 0.403839
0.076813 0.281921 0.450287
0.097748 0.283722 0.451447
0.262634 0.353088 0.516388
0.558472 0.398346 0.514984
0.694519 0.401672 0.503632
0.105988 0.422485 0.473389
0.129822 0.428589 0.477203
0.249634 0.487396 0.523529
0.670807 0.648163 0.610718
0.853027 0.677063 0.628540
0.128418 0.533783 0.470001
0.155945 0.552155 0.477753
0.226715 0.606293 0.502747
0.703033 0.808777 0.581238
0.920685 0.854095 0.617676
0.039459 0.076508 0.375000
0.096497 0.076660 0.370972
0.243561 0.115540 0.412018
0.428467 0.141937 0.433136
0.464142 0.141174 0.427887
0.055176 0.159180 0.422668
0.101776 0.168701 0.438812
0.223328 0.173431 0.446838
0.449341 0.199768 0.471375
0.499237 0.182861 0.452332
0.084015 0.288269 0.492950
0.106628 0.291779 0.501495
0.255371 0.355835 0.570343
0.454254 0.384308 0.593933
0.646332 0.410187 0.592957
0.120361 0.433197 0.562164
0.144348 0.439850 0.571808
0.250427 0.490540 0.625519
0.566528 0.631927 0.743225
0.797546 0.663391 0.739868
0.151215 0.550995 0.614929
0.179443 0.568726 0.630371
0.235321 0.607758 0.662750
0.550720 0.776215 0.788300
0.925476 0.900940 0.872131
