滤镜资源/Professional Luts Collection/Triune-Digital-Cinematic-LUTs/3D LUTs (CUBE)/LOG/The Lord of the Rings - LOG.cube
#Created by Benjamin (IWLTBAP) : http://luts.iwltbap.com
#Copyright: (C) Copyright 2016 Triune Films and IWLTBAP
TITLE "Blockbuster LUTs Pack (LOG)"
#LUT size
LUT_3D_SIZE 5
#LUT data points
DOMAIN_MIN 0.000000 0.000000 0.000000
DOMAIN_MAX 0.903226 0.903226 0.903226
0.005157 0.004669 0.004425
0.129303 0.025696 0.022705
0.348297 0.079193 0.076416
0.712585 0.190796 0.189148
0.771545 0.211060 0.209381
0.029541 0.106750 0.025452
0.121002 0.118408 0.043427
0.376434 0.148560 0.081665
0.681732 0.212463 0.177826
0.726654 0.217316 0.191040
0.091766 0.279572 0.087677
0.128876 0.286743 0.094360
0.366730 0.342590 0.121979
0.716003 0.400299 0.221222
0.826111 0.409363 0.251465
0.210083 0.556396 0.181183
0.227325 0.556061 0.181061
0.379822 0.604218 0.216919
0.759277 0.687775 0.308044
0.955658 0.700653 0.353760
0.266449 0.684967 0.230377
0.283997 0.688782 0.232849
0.350037 0.730194 0.255951
0.731232 0.863251 0.357605
0.989441 0.909607 0.434082
0.028381 0.022308 0.129211
0.146667 0.044708 0.142212
0.440826 0.096710 0.179932
0.723175 0.195526 0.246216
0.773041 0.211761 0.253082
0.046143 0.123444 0.122620
0.130981 0.130890 0.128632
0.400085 0.151917 0.147919
0.731476 0.225494 0.225677
0.781128 0.232788 0.231873
0.097931 0.296265 0.129639
0.123596 0.302673 0.120575
0.368774 0.342834 0.135864
0.732025 0.402863 0.240997
0.842590 0.414032 0.271790
0.209930 0.555115 0.200165
0.231476 0.567688 0.204071
0.378387 0.609344 0.233551
0.767334 0.690887 0.326355
0.958923 0.710510 0.376465
0.265137 0.682404 0.247650
0.287537 0.698608 0.252319
0.348145 0.737122 0.273071
0.743958 0.873230 0.378723
0.992035 0.920654 0.459473
0.072449 0.049957 0.372559
0.192047 0.050812 0.456085
0.443085 0.096588 0.422119
0.739441 0.202179 0.455933
0.784607 0.216797 0.446655
0.072540 0.138672 0.375366
0.133148 0.132294 0.381165
0.400848 0.146545 0.383789
0.718842 0.217438 0.413025
0.737122 0.211151 0.393188
0.114532 0.320618 0.324646
0.129059 0.319244 0.324707
0.368011 0.359009 0.352875
0.739838 0.429352 0.418152
0.859070 0.442596 0.431854
0.221191 0.566193 0.335907
0.238922 0.572784 0.333008
0.356628 0.614319 0.355377
0.771362 0.703796 0.427551
0.964996 0.734222 0.472290
0.272369 0.691528 0.328003
0.296783 0.709900 0.330627
0.354095 0.748474 0.338257
0.738190 0.885956 0.408844
0.993988 0.928253 0.481598
0.164429 0.093506 0.713348
0.222229 0.085358 0.658447
0.456451 0.128235 0.664917
0.776581 0.215424 0.741180
0.664154 0.161865 0.596191
0.120850 0.147491 0.581787
0.181732 0.153412 0.635040
0.395294 0.170074 0.647430
0.693970 0.200012 0.655151
0.732269 0.204407 0.631531
0.164703 0.340057 0.586365
0.182587 0.339417 0.601196
0.343109 0.384949 0.636505
0.751465 0.461609 0.697998
0.882996 0.476379 0.709778
0.249420 0.585815 0.598236
0.265350 0.588318 0.601959
0.357574 0.635223 0.628387
0.767853 0.735962 0.707977
0.979584 0.776550 0.746796
0.299744 0.721680 0.578339
0.327484 0.743683 0.590698
0.388794 0.794800 0.609253
0.739410 0.932983 0.698792
0.994598 0.963928 0.779938
0.172302 0.098846 0.746399
0.226776 0.092743 0.699768
0.453186 0.132538 0.706024
0.619019 0.149567 0.624420
0.670471 0.164032 0.639984
0.127777 0.148132 0.613190
0.185089 0.154724 0.666168
0.376953 0.167603 0.682709
0.688660 0.200317 0.710999
0.743042 0.208099 0.710266
0.174103 0.338867 0.640594
0.192993 0.340088 0.659760
0.331909 0.389984 0.736450
0.755219 0.478333 0.827026
0.891998 0.488647 0.851288
0.265717 0.583771 0.723663
0.290466 0.597473 0.745880
0.389099 0.656647 0.805603
0.775879 0.768005 0.907410
0.987122 0.785950 0.933960
0.329773 0.746338 0.778595
0.361786 0.774506 0.801453
0.420624 0.826721 0.840698
0.712311 0.954315 0.936676
0.994293 0.980469 0.969086
