滤镜资源/Professional Luts Collection/Triune-Digital-Cinematic-LUTs/3D LUTs (CUBE)/LOG/The Revenant - LOG.cube
#Created by Benjamin (IWLTBAP) : http://luts.iwltbap.com
#Copyright: (C) Copyright 2016 Triune Films and IWLTBAP
TITLE "Blockbuster LUTs Pack (LOG)"
#LUT size
LUT_3D_SIZE 32
#LUT data points
0.000000 0.000000 0.000000
0.002625 0.000031 0.000031
0.010010 0.000153 0.000153
0.019409 0.000397 0.000397
0.029694 0.002563 0.002594
0.046417 0.005524 0.006287
0.066742 0.004608 0.004608
0.096283 0.008423 0.008423
0.120056 0.011749 0.013641
0.150909 0.016144 0.019836
0.185181 0.025055 0.030609
0.216003 0.031738 0.037079
0.248505 0.039154 0.049042
0.282715 0.047272 0.056671
0.321594 0.058105 0.068939
0.359924 0.068359 0.080261
0.401154 0.078766 0.090027
0.435791 0.086517 0.098602
0.469055 0.093536 0.104767
0.502197 0.100098 0.111816
0.524200 0.104004 0.116913
0.533844 0.105133 0.118103
0.539307 0.105774 0.118744
0.546234 0.106964 0.119843
0.554230 0.108551 0.121185
0.562408 0.110168 0.122559
0.570557 0.111786 0.123932
0.577667 0.113068 0.125092
0.582520 0.113831 0.125824
0.587646 0.114868 0.126923
0.592804 0.116028 0.128021
0.597992 0.117126 0.129181
0.000549 0.004272 0.001404
0.002563 0.003265 0.001129
0.008911 0.003601 0.001251
0.019104 0.004181 0.001678
0.030884 0.006409 0.004425
0.047913 0.008606 0.008087
0.068298 0.007904 0.006042
0.098083 0.012268 0.009705
0.121918 0.014648 0.015106
0.156647 0.021057 0.024536
0.189514 0.029114 0.034943
0.221954 0.036407 0.040009
0.252777 0.042053 0.049103
0.286469 0.050629 0.059082
0.324646 0.060944 0.069489
0.362366 0.070892 0.082031
0.402527 0.080505 0.089539
0.437439 0.088501 0.098602
0.471191 0.095581 0.106110
0.502533 0.101593 0.111481
0.525635 0.105621 0.117371
0.536530 0.106873 0.118652
0.542480 0.107666 0.119446
0.549438 0.108917 0.120667
0.557251 0.110474 0.122040
0.565430 0.112030 0.123413
0.573578 0.113617 0.124786
0.581177 0.115143 0.126160
0.587067 0.116364 0.127441
0.592255 0.117493 0.128540
0.597504 0.118591 0.129669
0.602631 0.119659 0.130737
0.002014 0.015839 0.005219
0.003693 0.013550 0.004822
0.008423 0.010651 0.003784
0.020721 0.012421 0.004608
0.034088 0.013458 0.007996
0.050873 0.012756 0.010437
0.070801 0.011841 0.008270
0.098145 0.015381 0.010712
0.125305 0.018127 0.016876
0.156952 0.023590 0.024292
0.194458 0.033752 0.039825
0.227844 0.040741 0.043152
0.257202 0.045380 0.049805
0.290314 0.054260 0.061615
0.331360 0.065002 0.074707
0.364685 0.073547 0.082825
0.403625 0.082062 0.089142
0.438904 0.090454 0.098816
0.472626 0.097473 0.106354
0.503143 0.103149 0.111908
0.528015 0.107330 0.117645
0.540100 0.108856 0.119446
0.546478 0.109863 0.120422
0.553345 0.111115 0.121643
0.560577 0.112457 0.122955
0.568420 0.113953 0.124298
0.576538 0.115509 0.125610
0.583862 0.117004 0.127014
0.590485 0.118500 0.128571
0.596893 0.120026 0.130188
0.602020 0.121124 0.131317
0.607208 0.122192 0.132355
0.002960 0.033051 0.011444
0.004883 0.031006 0.011383
0.007874 0.028107 0.011383
0.018890 0.024261 0.008667
0.035706 0.027496 0.009613
0.058502 0.026428 0.014923
0.080231 0.024475 0.015381
0.104980 0.025604 0.015900
0.136047 0.027863 0.021698
0.160339 0.029083 0.025696
0.202301 0.040558 0.047302
0.231964 0.044891 0.049194
0.260040 0.048981 0.051392
0.292389 0.057343 0.063507
0.334717 0.068115 0.078583
0.365784 0.075592 0.082428
0.403503 0.083771 0.089294
0.438812 0.092072 0.098816
0.471802 0.098877 0.106537
0.502411 0.104431 0.112885
0.530609 0.109070 0.118011
0.544128 0.110962 0.120300
0.550385 0.112061 0.121460
0.557343 0.113312 0.122559
0.564545 0.114624 0.123871
0.571747 0.115906 0.125183
0.579529 0.117371 0.126465
0.586578 0.118896 0.127838
0.593262 0.120392 0.129486
0.600281 0.122162 0.131317
0.606659 0.123627 0.132904
0.611877 0.124725 0.134003
0.005280 0.056671 0.021820
0.006439 0.053894 0.020935
0.007568 0.051636 0.020569
0.017487 0.049805 0.022461
0.033142 0.048157 0.015289
0.053772 0.051422 0.018036
0.080841 0.047516 0.021759
0.108490 0.045776 0.024017
0.136597 0.045197 0.030975
0.172546 0.048523 0.036224
0.204346 0.051361 0.047211
0.238129 0.055542 0.053925
0.268524 0.060883 0.057770
0.303802 0.065186 0.066406
0.339844 0.073425 0.080139
0.367798 0.078156 0.082855
0.403168 0.085541 0.089447
0.439301 0.093750 0.099060
0.471741 0.100342 0.106354
0.502106 0.105835 0.113861
0.531281 0.110626 0.117920
0.548645 0.113251 0.121277
0.554321 0.114258 0.122437
0.561249 0.115509 0.123505
0.568481 0.116791 0.124786
0.575653 0.118042 0.126099
0.582550 0.119354 0.127319
0.589294 0.120758 0.128693
0.596039 0.122314 0.130371
0.603058 0.124054 0.132172
0.610077 0.125763 0.134033
0.616455 0.127289 0.135590
0.007843 0.085876 0.040649
0.010040 0.083527 0.037140
0.011658 0.081177 0.036346
0.014893 0.077087 0.035980
0.026276 0.077332 0.039185
0.050232 0.074463 0.029236
0.073486 0.077606 0.032227
0.109985 0.074860 0.036835
0.142853 0.074890 0.039429
0.169342 0.072754 0.045898
0.204102 0.071472 0.050690
0.236786 0.070770 0.055969
0.270996 0.074371 0.064209
0.302612 0.077332 0.069244
0.347137 0.082642 0.079987
0.382660 0.090179 0.087708
0.413696 0.095947 0.095825
0.446198 0.100891 0.102325
0.478882 0.106110 0.109070
0.506531 0.110016 0.114746
0.535370 0.113800 0.119324
0.554047 0.116058 0.122772
0.558960 0.116638 0.123566
0.565613 0.117798 0.124664
0.572784 0.119080 0.125946
0.579956 0.120361 0.127136
0.586426 0.121613 0.128448
0.592224 0.122772 0.129669
0.598358 0.124146 0.131226
0.605316 0.125824 0.132996
0.612366 0.127625 0.134888
0.619354 0.129150 0.136627
0.010590 0.117737 0.067352
0.011017 0.114685 0.063873
0.011780 0.111755 0.060059
0.014252 0.108917 0.056427
0.024994 0.105164 0.053680
0.047485 0.104034 0.056335
0.079926 0.107513 0.056488
0.112244 0.116364 0.062225
0.142639 0.107452 0.057404
0.167908 0.102112 0.052460
0.205353 0.098602 0.060577
0.238373 0.095673 0.064423
0.272095 0.091736 0.071167
0.307922 0.095215 0.073883
0.340973 0.093475 0.080444
0.383148 0.099396 0.090393
0.420502 0.105957 0.099579
0.454742 0.110687 0.106079
0.489197 0.116089 0.114349
0.518555 0.118103 0.117249
0.550354 0.122925 0.123566
0.571655 0.125336 0.128021
0.574646 0.124664 0.127991
0.578552 0.124451 0.128296
0.583374 0.124725 0.128937
0.589020 0.125610 0.129913
0.594757 0.126434 0.130951
0.599762 0.127045 0.131866
0.603790 0.127655 0.132965
0.608276 0.128418 0.134216
0.615234 0.130157 0.136017
0.622284 0.131500 0.137726
0.017059 0.153015 0.090698
0.017548 0.150879 0.088623
0.018402 0.148468 0.086517
0.019226 0.144867 0.083435
0.024292 0.139954 0.080048
0.045959 0.136292 0.079529
0.070465 0.134399 0.074249
0.100494 0.135254 0.071716
0.141235 0.149384 0.078949
0.171417 0.139282 0.074249
0.203979 0.131042 0.071381
0.239288 0.126587 0.075531
0.273071 0.121277 0.079956
0.307373 0.118652 0.082123
0.347107 0.118439 0.088959
0.383453 0.114655 0.096680
0.419861 0.116638 0.101807
0.455994 0.120300 0.109711
0.489777 0.124756 0.114380
0.523926 0.127136 0.120453
0.558441 0.132294 0.126556
0.587036 0.136353 0.133301
0.595032 0.136505 0.135162
0.597229 0.135620 0.134888
0.599426 0.134796 0.134583
0.603058 0.134796 0.134796
0.608765 0.135468 0.135712
0.613739 0.135834 0.136292
0.617584 0.135742 0.136566
0.621429 0.135864 0.137299
0.625946 0.136505 0.138458
0.630493 0.137115 0.139587
0.023682 0.182373 0.105042
0.024353 0.181427 0.104248
0.025024 0.180389 0.103302
0.025330 0.177917 0.101471
0.025482 0.174774 0.098969
0.038269 0.170593 0.099518
0.062805 0.170288 0.099792
0.100220 0.168823 0.098969
0.134430 0.174561 0.096619
0.171722 0.184570 0.096771
0.207581 0.173615 0.093323
0.244965 0.165649 0.090668
0.279968 0.160095 0.093719
0.314209 0.152344 0.092773
0.351868 0.146790 0.101685
0.386505 0.140137 0.106628
0.420563 0.135773 0.106720
0.458496 0.138184 0.113617
0.494263 0.136993 0.119690
0.525726 0.138245 0.123444
0.558716 0.140869 0.129608
0.590607 0.144897 0.135132
0.603577 0.146118 0.137878
0.608398 0.145752 0.138794
0.613129 0.145325 0.139618
0.618317 0.145386 0.140503
0.622437 0.145416 0.140717
0.626892 0.145477 0.140869
0.631561 0.145538 0.141113
0.635254 0.145081 0.141205
0.639648 0.145081 0.141541
0.644073 0.145081 0.141876
0.033386 0.216125 0.125763
0.033997 0.215027 0.125702
0.034546 0.213745 0.125549
0.034790 0.211365 0.124786
0.035095 0.209351 0.123322
0.036926 0.204620 0.119080
0.052429 0.202576 0.118347
0.084106 0.202972 0.121582
0.127838 0.205963 0.125183
0.169952 0.213257 0.125977
0.205292 0.220306 0.117279
0.242432 0.208221 0.115509
0.282806 0.199097 0.113922
0.321289 0.192413 0.115814
0.353912 0.183380 0.113800
0.391510 0.175751 0.119049
0.424957 0.165192 0.119202
0.465149 0.163177 0.123932
0.500092 0.160278 0.126831
0.533020 0.154755 0.130341
0.570648 0.156586 0.136749
0.598450 0.156708 0.141052
0.613068 0.156433 0.141388
0.617310 0.155884 0.141785
0.622131 0.155121 0.142029
0.627869 0.155151 0.142609
0.633789 0.155273 0.143494
0.639740 0.155487 0.144531
0.645935 0.155975 0.145538
0.650940 0.156006 0.145996
0.656525 0.156372 0.146393
0.662109 0.156586 0.146820
0.044708 0.252411 0.149994
0.045044 0.250671 0.148224
0.045349 0.248779 0.146484
0.045319 0.245972 0.144043
0.045563 0.243500 0.143097
0.047028 0.241486 0.143402
0.050568 0.238129 0.142517
0.071960 0.236237 0.140259
0.113464 0.240021 0.142456
0.158051 0.242615 0.146912
0.200928 0.251221 0.149963
0.245026 0.261932 0.142975
0.282013 0.250366 0.142670
0.321991 0.239227 0.137054
0.356049 0.224945 0.133484
0.395325 0.216095 0.134613
0.435059 0.205994 0.134888
0.470917 0.196747 0.137421
0.505035 0.188507 0.137665
0.541473 0.183228 0.141266
0.576141 0.176270 0.142151
0.607666 0.171356 0.147095
0.625092 0.170776 0.149139
0.628967 0.169220 0.148438
0.633484 0.168030 0.148071
0.638519 0.167786 0.148193
0.644135 0.167633 0.148590
0.649414 0.167267 0.148865
0.654083 0.166718 0.149109
0.660095 0.166687 0.149841
0.666748 0.167328 0.150879
0.673370 0.167908 0.151917
0.056458 0.290039 0.172302
0.057098 0.289062 0.171387
0.057739 0.288055 0.170532
0.058167 0.286285 0.169128
0.058075 0.283356 0.166595
0.057861 0.279755 0.164398
0.061005 0.276611 0.164337
0.068848 0.273895 0.164581
0.096924 0.276459 0.163788
0.145081 0.281250 0.168793
0.192719 0.286285 0.177734
0.238159 0.296021 0.180389
0.284454 0.308105 0.172668
0.323578 0.296204 0.168732
0.366364 0.281921 0.165955
0.402618 0.262756 0.161499
0.437805 0.252502 0.157990
0.474213 0.239044 0.154236
0.510864 0.227417 0.154114
0.541687 0.217407 0.151733
0.579926 0.211090 0.155609
0.614563 0.200226 0.157593
0.640076 0.192017 0.156067
0.645630 0.187775 0.155060
0.647797 0.184937 0.154541
0.651703 0.183350 0.154480
0.657593 0.182770 0.155090
0.663269 0.182068 0.155792
0.668396 0.181458 0.156219
0.672852 0.180756 0.156494
0.677948 0.180725 0.157043
0.683105 0.180725 0.157623
0.067413 0.330170 0.196960
0.067963 0.328735 0.196930
0.068512 0.327301 0.196899
0.068848 0.325043 0.196106
0.069244 0.322968 0.194366
0.069672 0.320892 0.191864
0.071564 0.318146 0.188873
0.075409 0.314789 0.187683
0.084534 0.310120 0.186157
0.128632 0.315155 0.190674
0.175598 0.322968 0.197235
0.224548 0.325073 0.202820
0.269287 0.334747 0.198608
0.323303 0.350708 0.201569
0.367310 0.340210 0.197205
0.404785 0.324982 0.192627
0.444214 0.309479 0.186432
0.483459 0.292297 0.181458
0.519257 0.275879 0.177734
0.556183 0.263885 0.176086
0.590149 0.249237 0.172607
0.623749 0.239899 0.174438
0.654266 0.229004 0.171082
0.665466 0.223511 0.169800
0.669403 0.217041 0.168091
0.672729 0.212311 0.166748
0.676422 0.209076 0.165771
0.680420 0.206635 0.165558
0.684814 0.204102 0.165649
0.689331 0.202057 0.165649
0.694977 0.201050 0.166321
0.700562 0.200500 0.166748
0.077484 0.368683 0.221558
0.078369 0.368378 0.221313
0.079132 0.367523 0.220520
0.079712 0.366119 0.219666
0.080200 0.364410 0.219391
0.080627 0.362396 0.218842
0.080811 0.359131 0.218201
0.084595 0.355255 0.213776
0.090057 0.353638 0.212891
0.108856 0.350372 0.211823
0.160431 0.357452 0.217407
0.214325 0.363037 0.223785
0.265930 0.371246 0.233032
0.314606 0.381439 0.228729
0.364990 0.396576 0.229309
0.405365 0.385559 0.223175
0.448334 0.368805 0.217621
0.490295 0.349670 0.213318
0.526123 0.333221 0.206177
0.562897 0.317230 0.202393
0.597961 0.298767 0.196136
0.630707 0.280426 0.191925
0.662720 0.266815 0.189850
0.678925 0.259491 0.188507
0.687927 0.253784 0.185822
0.693237 0.248932 0.183716
0.697998 0.245483 0.183136
0.702423 0.242126 0.182404
0.706543 0.238586 0.181458
0.711304 0.235443 0.180847
0.716919 0.233856 0.180939
0.722595 0.232422 0.181183
0.091095 0.413696 0.249146
0.091797 0.412933 0.249237
0.092407 0.411774 0.249146
0.092773 0.409882 0.248444
0.093018 0.407715 0.246979
0.092651 0.403412 0.243866
0.091949 0.398254 0.240173
0.094086 0.395081 0.240814
0.099518 0.395752 0.237915
0.105988 0.390015 0.235931
0.147339 0.393280 0.238861
0.201965 0.400391 0.248505
0.256622 0.410706 0.256775
0.304504 0.415222 0.259644
0.355499 0.427917 0.259216
0.402527 0.439911 0.253418
0.447357 0.433228 0.253204
0.489014 0.414764 0.243805
0.531311 0.395813 0.240540
0.569519 0.374725 0.233643
0.610077 0.357666 0.227814
0.644379 0.338196 0.222931
0.679199 0.321442 0.215790
0.699493 0.309845 0.214600
0.705353 0.297638 0.209534
0.708008 0.289154 0.205841
0.714050 0.284790 0.203918
0.720062 0.280579 0.202118
0.725769 0.276398 0.200500
0.730316 0.271912 0.198669
0.735504 0.269958 0.198334
0.740173 0.268372 0.197998
0.104187 0.456360 0.276245
0.104645 0.454926 0.276123
0.105194 0.453583 0.276031
0.105652 0.451965 0.275726
0.106232 0.450745 0.275665
0.106323 0.448059 0.274048
0.106293 0.444824 0.271667
0.105621 0.439850 0.268066
0.111237 0.439362 0.264618
0.114746 0.434479 0.263306
0.128052 0.431641 0.260406
0.182220 0.438477 0.267151
0.244720 0.447632 0.277588
0.294373 0.452484 0.285736
0.344666 0.460114 0.289093
0.396667 0.472107 0.285004
0.445496 0.485077 0.283661
0.488251 0.477203 0.280182
0.531067 0.456818 0.271759
0.575104 0.440582 0.267548
0.612396 0.417114 0.259583
0.651215 0.400421 0.252625
0.684418 0.378937 0.245697
0.715057 0.362610 0.241394
0.730865 0.352905 0.237823
0.734528 0.345428 0.234161
0.737640 0.338470 0.231567
0.740906 0.331848 0.229095
0.744232 0.325348 0.226715
0.748566 0.319733 0.224640
0.754822 0.317291 0.223572
0.761230 0.315063 0.222595
0.118286 0.502075 0.306091
0.118835 0.500977 0.305298
0.119476 0.499969 0.304565
0.119995 0.498627 0.303864
0.120422 0.496765 0.303284
0.120697 0.494568 0.302551
0.120819 0.491882 0.301575
0.120605 0.488159 0.299103
0.123169 0.484039 0.293243
0.126770 0.478882 0.291321
0.132263 0.470428 0.286865
0.165375 0.476471 0.291931
0.227448 0.485626 0.300873
0.283417 0.493958 0.310242
0.335724 0.497589 0.314056
0.385742 0.507507 0.317963
0.436218 0.517944 0.317322
0.482330 0.526703 0.313538
0.527832 0.526947 0.309937
0.571747 0.504181 0.301300
0.614471 0.483459 0.295166
0.655487 0.459198 0.283875
0.693085 0.441742 0.278198
0.724976 0.421722 0.273010
0.746552 0.406189 0.267365
0.751312 0.397339 0.262726
0.756805 0.392242 0.260376
0.762146 0.387451 0.258118
0.767670 0.382446 0.255737
0.772339 0.376953 0.252899
0.776825 0.373779 0.251862
0.781555 0.370239 0.250732
0.131927 0.546753 0.334595
0.132568 0.545685 0.333740
0.133148 0.544556 0.332855
0.133514 0.542725 0.331757
0.133881 0.540771 0.330688
0.133667 0.537140 0.328705
0.133270 0.532867 0.326233
0.133179 0.529541 0.324646
0.134766 0.527405 0.324768
0.138184 0.521881 0.318420
0.142181 0.518036 0.318207
0.156433 0.515808 0.317413
0.208130 0.522308 0.323486
0.271027 0.530121 0.330078
0.329376 0.541473 0.343353
0.379333 0.543945 0.346649
0.428192 0.554749 0.349701
0.477997 0.561707 0.347748
0.522614 0.569397 0.343048
0.570221 0.570740 0.338165
0.614929 0.548279 0.330627
0.654083 0.524567 0.322418
0.697235 0.504150 0.312683
0.730804 0.481598 0.305725
0.761200 0.466431 0.300964
0.767181 0.456055 0.295837
0.773254 0.450195 0.292877
0.779266 0.445282 0.290253
0.784851 0.440063 0.287048
0.789978 0.434021 0.284180
0.795258 0.429779 0.282562
0.800507 0.425903 0.281097
0.144531 0.588135 0.362122
0.144714 0.585846 0.360718
0.144897 0.583466 0.359253
0.145020 0.580811 0.357544
0.145538 0.579285 0.356628
0.145935 0.577545 0.355347
0.146454 0.576080 0.354126
0.146301 0.572693 0.351868
0.145691 0.567719 0.348969
0.150116 0.566711 0.349243
0.154938 0.564911 0.347656
0.159210 0.558838 0.345123
0.190491 0.556335 0.345306
0.258240 0.571899 0.358124
0.315277 0.579437 0.367249
0.364380 0.583588 0.371613
0.418518 0.591644 0.379120
0.467773 0.596344 0.379272
0.516571 0.604156 0.376526
0.565948 0.613312 0.373474
0.612305 0.614807 0.369812
0.653931 0.589447 0.356659
0.697449 0.568115 0.350800
0.734497 0.541138 0.337402
0.769775 0.522644 0.331726
0.782837 0.510651 0.326996
0.788330 0.503479 0.323334
0.793457 0.498016 0.320709
0.798401 0.492218 0.317841
0.803406 0.486664 0.314819
0.808624 0.483612 0.313110
0.813599 0.480835 0.311615
0.157196 0.629761 0.391266
0.158112 0.629486 0.390961
0.158997 0.629211 0.390717
0.159790 0.628693 0.390259
0.159943 0.626190 0.388702
0.159790 0.622742 0.386902
0.159607 0.619080 0.385071
0.159454 0.615570 0.382751
0.159576 0.612885 0.380096
0.160797 0.607452 0.374634
0.165344 0.605042 0.375488
0.169037 0.600159 0.371552
0.187103 0.602234 0.376007
0.240356 0.609802 0.380524
0.300232 0.616882 0.388306
0.356018 0.621246 0.397308
0.408844 0.631958 0.405334
0.458679 0.638580 0.413757
0.506439 0.644440 0.412903
0.556213 0.648529 0.406616
0.604401 0.655548 0.403748
0.656555 0.663483 0.405121
0.697693 0.632965 0.392059
0.737518 0.609741 0.381104
0.774933 0.587097 0.373291
0.790009 0.572632 0.367889
0.796387 0.563171 0.363098
0.802551 0.556641 0.360016
0.806793 0.551056 0.357208
0.811462 0.544739 0.353912
0.817352 0.540894 0.352356
0.823273 0.537201 0.350922
0.169250 0.669617 0.418274
0.169800 0.668365 0.416443
0.170349 0.667023 0.414612
0.170776 0.665436 0.412628
0.171570 0.664886 0.411957
0.172089 0.663452 0.411102
0.172333 0.661011 0.409851
0.172363 0.658112 0.408508
0.172455 0.655182 0.407196
0.173218 0.652924 0.406128
0.176208 0.646973 0.402039
0.181061 0.645142 0.401886
0.185211 0.641266 0.404114
0.225464 0.645996 0.404388
0.291656 0.657410 0.415955
0.344604 0.665405 0.423279
0.398712 0.668304 0.429108
0.443939 0.675018 0.435516
0.497833 0.686493 0.446045
0.544464 0.685822 0.440582
0.595856 0.692474 0.437500
0.646057 0.698608 0.436371
0.692078 0.703827 0.437653
0.736481 0.680298 0.427216
0.777435 0.657562 0.420807
0.799316 0.636780 0.410004
0.804596 0.625763 0.404419
0.810211 0.618835 0.401306
0.813782 0.613617 0.398529
0.817261 0.608704 0.395844
0.821381 0.605682 0.395111
0.825562 0.602875 0.394501
0.182404 0.712677 0.449005
0.182434 0.709930 0.447205
0.182465 0.707123 0.445251
0.182404 0.704071 0.443085
0.182434 0.701202 0.440857
0.182739 0.699097 0.438812
0.183228 0.697418 0.437012
0.183441 0.695068 0.434692
0.183197 0.691315 0.432434
0.183105 0.687836 0.430603
0.186737 0.688324 0.430328
0.192841 0.689484 0.431061
0.196594 0.684296 0.431305
0.212585 0.679321 0.428802
0.271393 0.692017 0.437225
0.330872 0.701050 0.446014
0.381500 0.705414 0.450256
0.434021 0.713989 0.460419
0.484131 0.719086 0.466156
0.536316 0.725952 0.474213
0.587250 0.730255 0.473297
0.635284 0.733368 0.469727
0.686279 0.739746 0.471069
0.733429 0.742889 0.465820
0.771820 0.724030 0.458801
0.799255 0.706268 0.452911
0.805542 0.695496 0.447174
0.810669 0.688873 0.443817
0.814972 0.683563 0.441711
0.819427 0.678284 0.439789
0.823425 0.675964 0.438873
0.827271 0.673828 0.437714
0.193970 0.751282 0.475372
0.194733 0.750610 0.475037
0.195465 0.749939 0.474579
0.196228 0.749146 0.473846
0.196899 0.748199 0.472961
0.197205 0.746124 0.471558
0.197510 0.744080 0.470184
0.197479 0.740936 0.468109
0.197876 0.739014 0.466095
0.198029 0.736237 0.463440
0.197693 0.732269 0.460602
0.202820 0.728821 0.459534
0.206757 0.723969 0.455841
0.216522 0.721619 0.457397
0.260895 0.727509 0.463196
0.317352 0.734344 0.468262
0.373322 0.743988 0.475952
0.428650 0.753418 0.486023
0.475525 0.756744 0.491119
0.525269 0.765869 0.499359
0.575653 0.767792 0.504883
0.629333 0.775360 0.505310
0.679535 0.777679 0.503601
0.726532 0.779541 0.501007
0.771149 0.782013 0.499237
0.797089 0.778259 0.498627
0.805756 0.768890 0.494080
0.810181 0.761444 0.490051
0.814270 0.754761 0.486542
0.818298 0.747864 0.482910
0.822662 0.744904 0.482239
0.827301 0.742462 0.482513
0.207031 0.794098 0.502838
0.207397 0.792297 0.501343
0.207825 0.790649 0.499908
0.208130 0.788696 0.498169
0.208435 0.786530 0.496429
0.208893 0.784973 0.495300
0.209381 0.783478 0.494537
0.209717 0.781372 0.493500
0.209869 0.778870 0.491974
0.210114 0.776367 0.490509
0.210541 0.774506 0.489410
0.214722 0.774200 0.490601
0.218384 0.768036 0.487122
0.222321 0.762665 0.485382
0.242737 0.761475 0.485565
0.303314 0.771851 0.494385
0.361176 0.777924 0.498016
0.412964 0.784790 0.508148
0.466461 0.795105 0.516479
0.516663 0.801514 0.525208
0.567261 0.809082 0.531494
0.617035 0.813263 0.537994
0.668915 0.816986 0.535736
0.718231 0.818512 0.536499
0.758301 0.817291 0.532166
0.787048 0.815948 0.533020
0.802826 0.813812 0.531311
0.810089 0.812500 0.530182
0.814514 0.811890 0.529907
0.818939 0.811340 0.529724
0.823181 0.812164 0.530731
0.827423 0.812073 0.530579
0.219940 0.836548 0.533661
0.220581 0.835632 0.532837
0.220917 0.833740 0.531219
0.221130 0.831421 0.529572
0.221375 0.829254 0.528046
0.222015 0.828186 0.527191
0.222717 0.827362 0.526428
0.223053 0.825256 0.524536
0.223358 0.823090 0.522675
0.223358 0.819885 0.520386
0.223328 0.816772 0.518066
0.224945 0.815186 0.517059
0.230438 0.813782 0.518036
0.234070 0.807617 0.514862
0.240936 0.803253 0.514099
0.278290 0.806427 0.517914
0.343719 0.818054 0.525848
0.401367 0.824921 0.534637
0.455811 0.832489 0.542633
0.505005 0.838806 0.547699
0.556549 0.843842 0.556793
0.607208 0.853027 0.567749
0.654877 0.856140 0.571411
0.703979 0.859467 0.570374
0.747650 0.858154 0.567871
0.776337 0.854858 0.566681
0.793823 0.852417 0.564941
0.803223 0.849762 0.563416
0.807983 0.848450 0.562866
0.812805 0.846863 0.562012
0.817352 0.847137 0.562775
0.821838 0.847717 0.563812
0.225800 0.855652 0.546692
0.227020 0.856476 0.547241
0.228210 0.857269 0.547729
0.229279 0.857544 0.547760
0.230042 0.857117 0.547424
0.230804 0.856567 0.546936
0.231445 0.855652 0.545990
0.231873 0.854095 0.544586
0.232849 0.854095 0.544464
0.233490 0.853149 0.544037
0.234100 0.851990 0.543854
0.234650 0.850708 0.543457
0.239471 0.850311 0.544220
0.243591 0.845306 0.540527
0.248779 0.844116 0.541962
0.275299 0.846649 0.545288
0.331085 0.853912 0.553070
0.387451 0.864105 0.560364
0.443848 0.871094 0.568604
0.492493 0.879181 0.575317
0.543335 0.884155 0.580750
0.598083 0.892395 0.590454
0.644165 0.895691 0.599091
0.691132 0.902283 0.607239
0.733246 0.900330 0.603973
0.761353 0.896149 0.599609
0.785492 0.891479 0.597717
0.798920 0.887512 0.594971
0.803467 0.885956 0.594269
0.808014 0.884552 0.593689
0.812408 0.884918 0.594604
0.816833 0.885437 0.595703
0.228912 0.865936 0.553711
0.230133 0.866730 0.554230
0.231354 0.867584 0.554779
0.232605 0.868408 0.555328
0.233704 0.868805 0.555481
0.234344 0.868042 0.554779
0.234985 0.867126 0.553864
0.235596 0.866150 0.553162
0.236206 0.865082 0.552368
0.237244 0.865479 0.552948
0.238159 0.865356 0.553528
0.239014 0.865051 0.553986
0.241943 0.865112 0.555115
0.247131 0.863068 0.555939
0.251495 0.859222 0.553711
0.263031 0.858948 0.552643
0.314789 0.870087 0.562897
0.375488 0.881989 0.570862
0.430206 0.895203 0.584198
0.484589 0.904968 0.594482
0.532532 0.911926 0.599640
0.584778 0.922058 0.609467
0.636169 0.929291 0.618591
0.680634 0.933380 0.627747
0.719849 0.938904 0.636017
0.750092 0.934540 0.633270
0.774719 0.930511 0.633698
0.792053 0.928833 0.630096
0.796844 0.927460 0.629364
0.801636 0.926025 0.628601
0.806183 0.926208 0.629395
0.810791 0.926575 0.630341
0.232025 0.875946 0.560730
0.233154 0.876465 0.561005
0.234283 0.877106 0.561493
0.235413 0.877655 0.561951
0.236511 0.878143 0.562439
0.237427 0.878021 0.562561
0.238251 0.877563 0.561981
0.238892 0.876801 0.561310
0.239532 0.875854 0.560638
0.240234 0.875214 0.560364
0.241241 0.875275 0.561066
0.242218 0.875488 0.561798
0.244476 0.875671 0.563446
0.249268 0.874298 0.563416
0.253448 0.869995 0.561890
0.260193 0.871033 0.561676
0.300385 0.876862 0.566193
