滤镜资源/Professional Luts Collection/Triune-Digital-Cinematic-LUTs/3D LUTs (CUBE)/LOG/The Conjuring - LOG.cube
#Created by Benjamin (IWLTBAP) : http://luts.iwltbap.com
#Copyright: (C) Copyright 2016 Triune Films and IWLTBAP
TITLE "Blockbuster LUTs Pack (LOG)"
#LUT size
LUT_3D_SIZE 32
#LUT data points
0.006958 0.007965 0.010254
0.010101 0.008179 0.010620
0.018707 0.008423 0.010864
0.029816 0.008911 0.011169
0.042816 0.011108 0.012390
0.058044 0.013153 0.013885
0.079010 0.017578 0.016541
0.103577 0.022278 0.019592
0.127869 0.027618 0.022980
0.156403 0.033569 0.026367
0.187408 0.039429 0.029999
0.220306 0.044617 0.032898
0.250458 0.050018 0.036346
0.282471 0.056732 0.041290
0.315155 0.063263 0.046234
0.348419 0.070099 0.051727
0.380585 0.076233 0.056732
0.412781 0.082092 0.061005
0.445953 0.088196 0.065186
0.477264 0.092896 0.068420
0.495911 0.095642 0.070282
0.505676 0.097229 0.071320
0.511169 0.098114 0.071930
0.516479 0.098846 0.072418
0.521851 0.099609 0.072845
0.527100 0.100342 0.073273
0.532410 0.101135 0.073792
0.537720 0.101929 0.074341
0.542938 0.102783 0.074860
0.548248 0.103729 0.075562
0.553650 0.104828 0.076294
0.559082 0.105927 0.077057
0.007385 0.011383 0.011169
0.010040 0.011719 0.011414
0.017578 0.012177 0.011810
0.028351 0.012512 0.011932
0.041992 0.014954 0.013153
0.057190 0.017059 0.014496
0.077606 0.021454 0.017151
0.102661 0.026031 0.020203
0.128265 0.031616 0.023804
0.157043 0.037262 0.027069
0.187836 0.043091 0.030640
0.221039 0.048645 0.033875
0.252258 0.054291 0.037445
0.284485 0.061005 0.042358
0.316895 0.067688 0.047302
0.350250 0.074585 0.052856
0.382324 0.080505 0.057648
0.414673 0.086243 0.061798
0.447754 0.092102 0.065826
0.479370 0.097046 0.069244
0.499084 0.099884 0.071106
0.510071 0.101624 0.072296
0.515320 0.102600 0.072968
0.520691 0.103333 0.073395
0.526093 0.104126 0.073792
0.531158 0.104889 0.074280
0.536377 0.105743 0.074829
0.541748 0.106537 0.075378
0.546906 0.107391 0.075928
0.552216 0.108398 0.076691
0.557556 0.109467 0.077423
0.563019 0.110535 0.078186
0.008514 0.020721 0.012939
0.011108 0.020294 0.013031
0.016876 0.020203 0.013092
0.027588 0.020294 0.013489
0.041748 0.021423 0.014374
0.057068 0.022705 0.015350
0.076752 0.025574 0.017792
0.101593 0.029694 0.020844
0.128204 0.035461 0.024567
0.157501 0.041046 0.027740
0.187988 0.046692 0.031250
0.221466 0.052521 0.034698
0.253571 0.058380 0.038452
0.286133 0.065277 0.043457
0.318604 0.072144 0.048553
0.351837 0.079010 0.053986
0.383728 0.084747 0.058533
0.416443 0.090393 0.062622
0.449341 0.095978 0.066437
0.481110 0.101105 0.070038
0.502228 0.104095 0.071930
0.514374 0.105988 0.073151
0.519592 0.106934 0.073792
0.524933 0.107849 0.074341
0.530396 0.108643 0.074799
0.535431 0.109436 0.075256
0.540497 0.110321 0.075867
0.545654 0.111115 0.076416
0.550995 0.112000 0.077057
0.556183 0.113037 0.077820
0.561584 0.114075 0.078522
0.566986 0.115173 0.079285
0.009979 0.034515 0.015717
0.012573 0.034119 0.015839
0.016632 0.033813 0.015839
0.026611 0.034088 0.015991
0.041687 0.035980 0.016998
0.059723 0.037964 0.018097
0.080780 0.040009 0.020844
0.103912 0.041412 0.023285
0.131531 0.045502 0.026703
0.160095 0.049042 0.029480
0.188507 0.051941 0.032135
0.219818 0.055634 0.034943
0.253204 0.062225 0.039276
0.285767 0.069092 0.044067
0.318420 0.076141 0.049438
0.351532 0.082947 0.054718
0.383209 0.088684 0.059265
0.416046 0.094238 0.063232
0.449066 0.099823 0.067047
0.480865 0.104858 0.070587
0.505127 0.108215 0.072723
0.518646 0.110291 0.073975
0.523987 0.111237 0.074554
0.529327 0.112213 0.075165
0.534729 0.113190 0.075775
0.539734 0.113953 0.076233
0.544678 0.114807 0.076813
0.549866 0.115753 0.077515
0.555084 0.116730 0.078217
0.560394 0.117706 0.078918
0.565643 0.118774 0.079620
0.570953 0.119873 0.080414
0.011383 0.050690 0.019135
0.014221 0.050507 0.019287
0.016937 0.050171 0.019257
0.025879 0.050476 0.019348
0.039093 0.051544 0.019592
0.058380 0.053802 0.020081
0.082092 0.056427 0.022736
0.108276 0.058380 0.026245
0.136353 0.061371 0.029846
0.170471 0.066284 0.033325
0.201660 0.069641 0.036285
0.232605 0.073608 0.039734
0.263885 0.078125 0.043823
0.294403 0.082062 0.047852
0.323547 0.085144 0.051788
0.351685 0.087616 0.055573
0.382935 0.092651 0.059845
0.415619 0.098145 0.063782
0.448822 0.103668 0.067566
0.481110 0.108795 0.071167
0.506470 0.112427 0.073456
0.523132 0.114960 0.074921
0.528351 0.115967 0.075592
0.533691 0.116943 0.076202
0.539093 0.117920 0.076782
0.543945 0.118744 0.077332
0.549042 0.119720 0.078003
0.554291 0.120758 0.078796
0.559479 0.121796 0.079559
0.564728 0.122803 0.080292
0.569946 0.123871 0.080994
0.575165 0.124908 0.081757
0.012817 0.068359 0.022766
0.015808 0.068115 0.022949
0.018585 0.067871 0.022980
0.024353 0.067749 0.022827
0.038086 0.069275 0.022858
0.054260 0.070190 0.022491
0.080048 0.073059 0.023926
0.108704 0.075745 0.027649
0.139740 0.078156 0.032562
0.174438 0.082672 0.036499
0.208527 0.087189 0.040222
0.242828 0.092651 0.044739
0.275696 0.097961 0.049347
0.306763 0.101837 0.052979
0.337402 0.105682 0.057343
0.366791 0.108765 0.061096
0.396057 0.110931 0.063904
0.426697 0.113708 0.067169
0.456757 0.115356 0.069763
0.486023 0.117676 0.072571
0.511322 0.119507 0.074585
0.528717 0.120728 0.076202
0.532928 0.120911 0.076691
0.538086 0.121918 0.077362
0.543427 0.122864 0.077942
0.548492 0.123901 0.078644
0.553467 0.124847 0.079376
0.558777 0.125885 0.080109
0.563965 0.126953 0.080841
0.569031 0.128113 0.081665
0.574158 0.129242 0.082428
0.579376 0.130341 0.083221
0.015045 0.086151 0.026825
0.018219 0.085999 0.027100
0.021210 0.085785 0.027161
0.023956 0.084961 0.026794
0.036652 0.086029 0.026642
0.052917 0.088562 0.026764
0.074127 0.089539 0.026398
0.104797 0.092773 0.027313
0.138336 0.095764 0.033569
0.175903 0.099945 0.039734
0.212402 0.105255 0.044220
0.249573 0.111389 0.049133
0.285645 0.117157 0.053772
0.316650 0.120667 0.057373
0.346619 0.123840 0.061035
0.378387 0.127350 0.064819
0.409119 0.129486 0.067505
0.440125 0.132050 0.070374
0.470337 0.134521 0.073029
0.499695 0.137146 0.075653
0.525055 0.139679 0.078674
0.545135 0.140961 0.081085
0.548309 0.139130 0.081207
0.550873 0.136963 0.081177
0.554230 0.135834 0.081299
0.558441 0.135895 0.081726
0.562714 0.135895 0.082123
0.566864 0.135773 0.082550
0.571075 0.135864 0.083099
0.575287 0.135925 0.083649
0.580200 0.136932 0.084442
0.585236 0.137970 0.085236
0.018402 0.104584 0.030487
0.021759 0.104523 0.030731
0.024750 0.104462 0.030640
0.027466 0.103607 0.030426
0.035217 0.103485 0.030029
0.051514 0.105774 0.029572
0.072601 0.107941 0.028656
0.096008 0.108612 0.027740
0.133453 0.112579 0.030609
0.172302 0.116791 0.040649
0.211731 0.122406 0.046753
0.250824 0.128601 0.052277
0.289215 0.134125 0.056488
0.322815 0.138489 0.060944
0.353699 0.141815 0.064545
0.386292 0.145477 0.068329
0.419373 0.148041 0.070801
0.451996 0.150757 0.073303
0.482880 0.154083 0.076141
0.512512 0.158295 0.079742
0.540070 0.163055 0.084045
0.562622 0.166565 0.087769
0.568390 0.165039 0.088287
0.570679 0.162598 0.088196
0.573242 0.160461 0.088104
0.576874 0.160004 0.088440
0.580566 0.159607 0.088806
0.584412 0.159271 0.089203
0.588043 0.158722 0.089569
0.591797 0.158203 0.089874
0.596680 0.159210 0.090576
0.601685 0.160278 0.091248
0.023163 0.123016 0.033630
0.026306 0.123199 0.033722
0.029327 0.123322 0.033691
0.032196 0.122803 0.033539
0.035095 0.122223 0.033295
0.051514 0.124084 0.032593
0.072052 0.126678 0.031006
0.096924 0.128662 0.029449
0.124725 0.129181 0.028198
0.167389 0.134216 0.035919
0.209686 0.140594 0.046448
0.251251 0.146210 0.053833
0.292664 0.152039 0.059052
0.328857 0.156555 0.063690
0.361023 0.159332 0.067230
0.395630 0.163208 0.070801
0.429535 0.165863 0.073212
0.461853 0.168274 0.075409
0.492462 0.172058 0.078827
0.522430 0.178070 0.083771
0.550598 0.184265 0.089020
0.574921 0.188446 0.093079
0.584351 0.188232 0.094452
0.587158 0.186462 0.094574
0.590088 0.184845 0.094788
0.594208 0.184845 0.095337
0.598297 0.184784 0.095856
0.602295 0.184540 0.096222
0.606323 0.184418 0.096680
0.610321 0.184296 0.097046
0.615204 0.185364 0.097839
0.620087 0.186523 0.098602
0.028198 0.142548 0.036407
0.031281 0.142700 0.036346
0.034393 0.142792 0.036224
0.037262 0.142212 0.035980
0.040100 0.141571 0.035736
0.051880 0.142853 0.035217
0.071106 0.145721 0.033752
0.094543 0.147797 0.031708
0.124146 0.149261 0.029480
0.157654 0.150146 0.029114
0.203979 0.158905 0.041809
0.248352 0.164276 0.053497
0.293976 0.170074 0.060425
0.333893 0.175171 0.065979
0.367554 0.178070 0.070160
0.403351 0.180664 0.072723
0.438690 0.183624 0.075409
0.470978 0.186707 0.078247
0.501495 0.191467 0.082581
0.531372 0.198547 0.088135
0.560486 0.206268 0.094177
0.587708 0.211639 0.099091
0.600342 0.212433 0.100830
0.603180 0.210571 0.100861
0.605835 0.208557 0.100800
0.609589 0.208191 0.101196
0.613373 0.207916 0.101685
0.617096 0.207611 0.102081
0.621063 0.207489 0.102600
0.624878 0.207214 0.103027
0.629517 0.208252 0.103851
0.634369 0.209534 0.104706
0.033905 0.162170 0.038879
0.036926 0.162262 0.038727
0.039886 0.162292 0.038605
0.042694 0.161774 0.038422
0.045898 0.161285 0.038208
0.053589 0.161713 0.037842
0.072174 0.165161 0.036438
0.094543 0.167358 0.034241
0.122314 0.169006 0.031708
0.158875 0.170685 0.029785
0.193909 0.173309 0.033020
0.240936 0.182556 0.048615
0.287354 0.186981 0.059631
0.336456 0.194305 0.067596
0.372986 0.197327 0.072144
0.409637 0.200195 0.075806
0.445709 0.203400 0.078949
0.479370 0.207245 0.082458
0.510742 0.213318 0.087585
0.540710 0.221771 0.094116
0.569214 0.228424 0.099548
0.596893 0.234619 0.105286
0.615753 0.237305 0.108704
0.618744 0.235474 0.108765
0.621613 0.233582 0.108765
0.625214 0.232880 0.109131
0.629089 0.232727 0.109589
0.632874 0.232422 0.110046
0.636780 0.232239 0.110474
0.640594 0.231995 0.110870
0.645050 0.232910 0.111664
0.649628 0.234009 0.112518
0.040680 0.183075 0.042114
0.044281 0.183167 0.041748
0.047852 0.183350 0.041626
0.051270 0.183167 0.041504
0.054718 0.182892 0.041229
0.057709 0.182098 0.040863
0.074402 0.184875 0.039612
0.098816 0.188385 0.036407
0.124542 0.189575 0.033661
0.159790 0.191742 0.031342
0.198303 0.193848 0.032166
0.232849 0.198364 0.039429
0.279785 0.205505 0.055267
0.331879 0.211823 0.066956
0.376495 0.217804 0.074127
0.414246 0.220245 0.078064
0.451843 0.225067 0.083527
0.486420 0.229126 0.087341
0.518524 0.236053 0.093170
0.549042 0.243805 0.099457
0.577637 0.250580 0.105316
0.605316 0.256958 0.111237
0.627991 0.261322 0.115692
0.633728 0.260284 0.116241
0.636719 0.258514 0.116272
0.640106 0.257477 0.116516
0.643951 0.257263 0.116974
0.647858 0.257111 0.117462
0.651581 0.256805 0.117920
0.655426 0.256653 0.118378
0.659912 0.257629 0.119232
0.664398 0.258698 0.120056
0.050385 0.205383 0.045349
0.054382 0.205841 0.045105
0.058197 0.206146 0.044800
0.061371 0.205841 0.044495
0.064667 0.205536 0.044220
0.067810 0.204926 0.043915
0.078949 0.206146 0.043182
0.105133 0.210297 0.039490
0.131989 0.212402 0.035950
0.163666 0.213928 0.033264
0.201050 0.216034 0.032806
0.240875 0.219208 0.037262
0.273743 0.224091 0.046539
0.323334 0.228271 0.060638
0.375305 0.237457 0.074097
0.418121 0.241943 0.080292
0.456512 0.246674 0.086426
0.491577 0.252045 0.092224
0.524933 0.258148 0.098145
0.556763 0.266418 0.105316
0.586182 0.273285 0.111298
0.613953 0.279999 0.117279
0.640289 0.285583 0.122467
0.648224 0.285461 0.123627
0.652039 0.283905 0.123840
0.655334 0.282715 0.123993
0.659119 0.282349 0.124451
0.662903 0.282257 0.124969
0.666626 0.282104 0.125458
0.670319 0.281952 0.125946
0.674774 0.282990 0.126801
0.679291 0.284180 0.127655
0.061646 0.229492 0.048950
0.065369 0.230072 0.048767
0.069366 0.230377 0.048492
0.073242 0.230377 0.048157
0.077087 0.230255 0.047821
0.080811 0.229767 0.047455
0.084961 0.229126 0.046844
0.112122 0.232727 0.043274
0.143829 0.236176 0.038727
0.174103 0.238220 0.036133
0.208466 0.239716 0.035248
0.246490 0.242310 0.037445
0.281891 0.246216 0.044769
0.316406 0.249329 0.053986
0.369476 0.255096 0.068451
0.417908 0.263763 0.081787
0.459106 0.268707 0.088745
0.496399 0.274841 0.095917
0.530884 0.281219 0.102631
0.563385 0.288818 0.110077
0.593964 0.296234 0.117035
0.622589 0.303497 0.123596
0.649597 0.309509 0.129089
0.661621 0.310455 0.130981
0.667267 0.309784 0.131653
0.670441 0.308533 0.131866
0.674255 0.308472 0.132416
0.678101 0.308350 0.132935
0.681854 0.308136 0.133453
0.685547 0.307953 0.133911
0.690063 0.309052 0.134796
0.694580 0.310242 0.135712
0.074005 0.253815 0.053650
0.078247 0.254456 0.053467
0.082367 0.255157 0.053314
0.086304 0.255432 0.053040
0.090637 0.255463 0.052551
0.095398 0.254883 0.051727
0.100494 0.254150 0.050720
0.120300 0.255798 0.047729
0.154480 0.259949 0.042847
0.186615 0.262878 0.039398
0.217224 0.264221 0.038727
0.251160 0.266815 0.039612
0.286896 0.268555 0.045044
0.323944 0.272736 0.054016
0.363281 0.274994 0.062531
0.415466 0.284210 0.078369
0.460266 0.291321 0.090729
0.499451 0.297516 0.098877
0.535797 0.304382 0.106720
0.569427 0.311432 0.113861
0.601288 0.319519 0.121613
0.630951 0.327759 0.129578
0.658752 0.334320 0.135742
0.675873 0.337250 0.139008
0.682709 0.336700 0.139923
0.685638 0.335083 0.139984
0.689362 0.334778 0.140472
0.693115 0.334717 0.141022
0.696930 0.334564 0.141541
0.700714 0.334503 0.142029
0.705231 0.335632 0.142883
0.709778 0.336884 0.143829
0.088623 0.279388 0.059326
0.093475 0.280029 0.058838
0.099243 0.280792 0.058350
0.104858 0.281219 0.057617
0.110229 0.281525 0.056793
0.115540 0.281036 0.055695
0.121033 0.280334 0.054413
0.126373 0.279419 0.053070
0.163971 0.285034 0.047852
0.195435 0.288208 0.044861
0.225586 0.290863 0.044128
0.257111 0.293060 0.045349
0.290497 0.294586 0.048096
0.330902 0.296936 0.055023
0.372406 0.299988 0.063477
0.409973 0.303833 0.073669
0.458252 0.313416 0.089203
0.500824 0.320831 0.100800
0.539093 0.327637 0.110199
0.574585 0.335083 0.117950
0.608307 0.343689 0.125885
0.638031 0.351562 0.133698
0.667267 0.359711 0.141602
0.688110 0.364166 0.146515
0.699036 0.365143 0.148712
0.701721 0.363007 0.148560
0.705505 0.362854 0.149017
0.709320 0.362793 0.149475
0.713196 0.362762 0.149994
0.716949 0.362549 0.150513
0.721527 0.363770 0.151398
0.726196 0.365143 0.152344
0.106323 0.305328 0.064178
0.111969 0.306244 0.063538
0.117615 0.307068 0.062866
0.123291 0.307495 0.062012
0.128815 0.307892 0.061096
0.133942 0.307922 0.060211
0.139191 0.307678 0.059204
0.144348 0.307037 0.058197
0.169159 0.310730 0.055420
0.201752 0.314423 0.053101
0.232117 0.317261 0.052338
0.265320 0.320618 0.052948
0.299042 0.322235 0.054657
0.336273 0.323151 0.057648
0.380615 0.325500 0.064667
0.419403 0.329132 0.074615
0.454346 0.334290 0.085114
0.500458 0.343811 0.100250
0.540558 0.351501 0.112701
0.578552 0.359406 0.122620
0.613953 0.368958 0.131470
0.645935 0.377441 0.139038
0.675842 0.385925 0.146729
0.701050 0.392944 0.153687
0.717316 0.396271 0.158112
0.720093 0.394226 0.158325
0.723572 0.393677 0.158997
0.727234 0.393463 0.159698
0.730927 0.393372 0.160400
0.734589 0.393188 0.161133
0.739044 0.394592 0.162445
0.743561 0.395966 0.163757
0.122650 0.332092 0.069672
0.128326 0.333038 0.069061
0.134033 0.333954 0.068359
0.139587 0.334625 0.067596
0.144928 0.335052 0.066956
0.149841 0.335022 0.066284
0.154877 0.334961 0.065582
0.159912 0.334534 0.064697
0.173523 0.336456 0.063904
0.207214 0.341309 0.063110
0.239349 0.344696 0.061798
0.274445 0.348969 0.060852
0.310669 0.352081 0.063019
0.347595 0.352020 0.063873
0.388123 0.351929 0.067780
0.430267 0.357300 0.077118
0.465515 0.361176 0.087006
0.499054 0.367096 0.097534
0.541412 0.375488 0.112183
0.580688 0.383453 0.124115
0.617798 0.394012 0.135620
0.652496 0.404175 0.144775
0.683807 0.413361 0.152374
0.711487 0.420776 0.160126
0.731903 0.425690 0.166077
0.736542 0.424652 0.167175
0.740356 0.424316 0.168274
0.744415 0.424622 0.169525
0.748352 0.424774 0.170715
0.752136 0.424835 0.171722
0.756653 0.426147 0.173096
0.761169 0.427612 0.174408
0.137360 0.359406 0.075928
0.142731 0.360840 0.076477
0.148438 0.362061 0.076294
0.153992 0.362762 0.075714
0.159882 0.363464 0.075287
0.165192 0.363647 0.075104
0.170380 0.363800 0.074890
0.175568 0.363586 0.074463
0.180847 0.363068 0.073730
0.213287 0.369171 0.073425
0.248566 0.373077 0.071350
0.283997 0.377502 0.069275
0.320831 0.381165 0.070587
0.359863 0.381653 0.070923
0.398224 0.381714 0.073181
0.439575 0.385956 0.081146
0.477661 0.391937 0.091034
0.511139 0.395233 0.100708
0.542023 0.400024 0.110168
0.582794 0.408447 0.123718
0.620911 0.419067 0.137024
0.656555 0.430359 0.149017
0.690857 0.441376 0.159515
0.721344 0.450317 0.168304
0.744232 0.454926 0.173737
0.752075 0.454620 0.175323
0.755707 0.453674 0.175812
0.760040 0.453888 0.176819
0.764313 0.454193 0.178040
0.768463 0.454498 0.179230
0.773132 0.456116 0.180878
0.777863 0.457855 0.182556
0.151154 0.388000 0.084869
0.157318 0.389404 0.085205
0.163422 0.390747 0.085510
0.169312 0.392029 0.085968
0.175598 0.393097 0.085999
0.181824 0.393677 0.085663
0.187317 0.393799 0.085266
0.192841 0.393585 0.084656
0.198547 0.393219 0.083893
0.220032 0.396454 0.083344
0.258606 0.403442 0.082062
0.295166 0.407196 0.078583
0.331390 0.410461 0.078369
0.370819 0.413116 0.079346
0.409607 0.414062 0.081055
0.449799 0.417114 0.086853
0.488312 0.423615 0.095917
0.522675 0.426758 0.104828
0.554688 0.430023 0.114136
0.585541 0.435120 0.123657
0.625641 0.446625 0.138458
0.661346 0.458038 0.151123
0.696503 0.469910 0.165619
0.727692 0.478668 0.175354
0.757141 0.485138 0.181763
0.768555 0.485992 0.184052
0.772095 0.484802 0.184601
0.776428 0.484985 0.185608
0.780762 0.485291 0.186615
0.785004 0.485352 0.187561
0.789856 0.486725 0.188751
0.794647 0.488312 0.190155
0.166351 0.417389 0.095642
0.172913 0.418915 0.095673
0.179474 0.420258 0.095734
0.185944 0.421448 0.095612
0.192627 0.422607 0.095490
0.199127 0.423401 0.095093
0.205536 0.423981 0.094696
0.211426 0.423950 0.094177
0.217621 0.423828 0.093842
0.227203 0.424164 0.093323
0.264832 0.431366 0.091553
0.304382 0.437256 0.088623
0.340546 0.440460 0.086914
0.379944 0.445068 0.088104
0.419342 0.447205 0.089600
0.459503 0.452576 0.095154
0.499939 0.457764 0.102905
0.536072 0.463135 0.111298
0.568451 0.464722 0.119263
0.599335 0.468781 0.129028
0.629578 0.474823 0.139099
0.666229 0.486481 0.153137
0.701080 0.497253 0.167389
0.733795 0.507294 0.180695
0.766296 0.515350 0.189636
0.785645 0.518311 0.193207
0.789093 0.516724 0.193573
0.793304 0.516785 0.194427
0.797546 0.516876 0.195282
0.801758 0.516968 0.196106
0.806702 0.518494 0.197327
0.811768 0.520111 0.198486
0.184540 0.447479 0.105133
0.191376 0.449280 0.105408
0.198242 0.451080 0.105652
0.204987 0.452667 0.105774
0.211487 0.453949 0.105774
0.217743 0.454742 0.105499
0.224518 0.455566 0.105255
0.231079 0.455780 0.104736
0.237335 0.455688 0.104156
0.243530 0.455505 0.103455
0.270020 0.460327 0.102448
0.312256 0.467285 0.098816
0.350037 0.472412 0.096985
0.387878 0.476593 0.096375
0.426300 0.482544 0.100159
0.467651 0.488647 0.104706
0.508087 0.493652 0.110474
0.546906 0.498444 0.118408
0.582001 0.502777 0.126343
0.614349 0.505676 0.135101
0.643250 0.510223 0.143951
0.670990 0.515198 0.153717
0.706177 0.526215 0.169464
0.739868 0.536072 0.182861
0.773926 0.544830 0.193939
0.798920 0.550598 0.201416
0.804932 0.549744 0.202820
0.809052 0.549652 0.203644
0.813416 0.549744 0.204468
0.817810 0.549835 0.205322
0.822876 0.551331 0.206512
0.827972 0.552917 0.207672
0.204468 0.480621 0.115845
0.210754 0.482147 0.116058
0.217133 0.483490 0.116211
0.223724 0.484863 0.116272
0.230499 0.486328 0.116455
0.237213 0.487335 0.116486
0.243774 0.487976 0.116394
0.250153 0.488220 0.116089
0.256592 0.488098 0.115387
0.262787 0.487885 0.114685
0.269104 0.487762 0.113983
0.317627 0.497375 0.111023
0.357544 0.503906 0.107635
0.396088 0.509521 0.106140
0.435394 0.517090 0.109802
0.475159 0.525787 0.115173
0.515961 0.531860 0.120422
0.556335 0.536896 0.126648
0.592468 0.541077 0.134369
0.625824 0.544952 0.141602
0.655975 0.546143 0.149292
0.682892 0.550293 0.159241
0.710663 0.554810 0.170258
0.745636 0.564667 0.183624
0.779816 0.574097 0.195801
0.809937 0.582581 0.206818
0.819153 0.582703 0.209656
0.823669 0.582458 0.210968
0.827850 0.582550 0.212372
0.832001 0.582520 0.213562
0.836823 0.584045 0.214905
0.841766 0.585602 0.216217
0.225830 0.515289 0.127045
0.232117 0.516846 0.127441
0.238861 0.518494 0.127838
0.245575 0.519806 0.128113
0.252289 0.521210 0.128448
0.258667 0.522095 0.128723
0.264954 0.522797 0.128723
0.271210 0.523071 0.128418
0.277679 0.523132 0.127930
0.284149 0.523102 0.127380
0.290344 0.522858 0.126740
0.324951 0.530609 0.125183
0.367432 0.537445 0.120178
0.407227 0.545746 0.117279
0.446198 0.553589 0.120575
0.485291 0.563019 0.125610
0.524384 0.571594 0.131134
0.564148 0.576721 0.136353
0.600983 0.579193 0.141541
0.635132 0.583282 0.148651
0.666016 0.585144 0.154694
0.694885 0.586243 0.162903
0.721680 0.589508 0.172882
0.750122 0.593628 0.183197
0.784576 0.603302 0.195892
0.814850 0.611115 0.207794
0.829132 0.613922 0.214050
0.835785 0.614227 0.216339
0.840088 0.614288 0.217712
0.844299 0.614410 0.219116
0.849060 0.615906 0.220856
0.853790 0.617432 0.222626
0.247742 0.550598 0.138824
0.254150 0.551941 0.139282
0.260590 0.553314 0.139648
0.266754 0.554321 0.139923
0.272980 0.555237 0.140015
0.279266 0.555969 0.139923
0.285645 0.556885 0.140015
0.291656 0.557098 0.139923
0.298187 0.557556 0.139740
0.304535 0.557526 0.139099
0.310974 0.557648 0.138550
0.327026 0.560425 0.137939
0.376404 0.572296 0.134521
0.417175 0.580841 0.130432
0.456940 0.591034 0.132233
0.496765 0.601685 0.136963
0.534088 0.610229 0.141357
0.572174 0.617676 0.146515
0.608765 0.620605 0.150879
0.644318 0.622345 0.156494
0.676117 0.624878 0.162750
0.705750 0.625214 0.168396
0.734894 0.626434 0.176147
0.761230 0.628876 0.185333
0.787415 0.630951 0.194427
0.819153 0.640137 0.207672
0.838379 0.644592 0.215851
0.847687 0.646057 0.220215
0.851898 0.646240 0.222198
0.855988 0.646271 0.224243
0.860657 0.647827 0.226410
0.865356 0.649414 0.228394
0.257904 0.565887 0.143829
0.264954 0.568237 0.144623
0.272217 0.570709 0.145508
0.279114 0.573029 0.146271
0.286102 0.575165 0.146912
0.293365 0.577515 0.147461
0.300903 0.580078 0.148102
0.307983 0.582001 0.148438
0.315491 0.584259 0.149048
0.322784 0.586090 0.149567
0.330353 0.588043 0.150055
0.338318 0.589478 0.149506
0.381470 0.601257 0.146667
0.425537 0.613129 0.143860
0.463776 0.623169 0.143219
0.504608 0.636383 0.146332
0.543304 0.647308 0.151855
0.579346 0.655212 0.156219
0.615723 0.660889 0.160278
0.651672 0.662323 0.164062
0.684937 0.661987 0.168640
0.715729 0.663696 0.174316
0.745605 0.663818 0.179810
0.772064 0.663666 0.186829
0.796417 0.666229 0.196747
0.821259 0.667847 0.205627
0.845856 0.674255 0.216309
0.857971 0.676331 0.222382
0.862061 0.676422 0.224365
0.866241 0.676636 0.226501
0.870850 0.678192 0.228668
0.875519 0.679840 0.230896
0.263733 0.574493 0.146820
0.270874 0.576904 0.147675
0.277924 0.579285 0.148560
0.284882 0.581604 0.149292
0.291962 0.583984 0.150146
0.299438 0.586517 0.151001
0.306946 0.589142 0.151703
0.314453 0.591736 0.152313
0.321991 0.594055 0.152679
0.330017 0.596893 0.153442
0.338257 0.599976 0.154510
0.346954 0.602203 0.154144
0.372955 0.610260 0.153076
0.421844 0.625000 0.150146
0.459808 0.635071 0.148621
0.500305 0.648804 0.150604
0.540924 0.662201 0.156128
0.578613 0.673004 0.161835
0.615082 0.682404 0.165253
0.652100 0.686859 0.168579
0.687317 0.688538 0.171722
0.720642 0.689819 0.177216
0.751984 0.692535 0.182312
0.778778 0.694183 0.189056
0.802979 0.696259 0.197571
0.826965 0.699066 0.206482
0.850677 0.701782 0.215607
0.867920 0.705688 0.224487
0.872070 0.706207 0.226562
0.876221 0.706604 0.228607
0.880768 0.708130 0.230652
0.885406 0.709900 0.232910
0.269501 0.583008 0.149841
0.276611 0.585419 0.150757
0.283508 0.587677 0.151520
0.290558 0.590057 0.152344
0.297943 0.592743 0.153381
0.305359 0.595367 0.154297
0.312775 0.598083 0.155273
0.320343 0.600647 0.155853
0.328033 0.603058 0.156281
0.335907 0.605621 0.156769
0.344116 0.608673 0.157623
0.353088 0.611389 0.157562
0.373047 0.617493 0.156219
0.417511 0.631805 0.154480
0.457794 0.643524 0.153015
0.497101 0.656677 0.154388
0.538300 0.671600 0.158997
