滤镜资源/Professional Luts Collection/Triune-Digital-Cinematic-LUTs/3D LUTs (CUBE)/LOG/The Grand Budapest Hotel - LOG.cube
#Created by Benjamin (IWLTBAP) : http://luts.iwltbap.com
#Copyright: (C) Copyright 2016 Triune Films and IWLTBAP
TITLE "Blockbuster LUTs Pack (LOG)"
#LUT size
LUT_3D_SIZE 5
#LUT data points
DOMAIN_MIN 0.000000 0.000000 0.000000
DOMAIN_MAX 0.903226 0.903226 0.903226
0.000000 0.000000 0.000000
0.296021 0.016693 0.000000
0.634827 0.037079 0.018585
0.849579 0.093079 0.030060
0.887238 0.116730 0.045654
0.039795 0.102539 0.021637
0.141144 0.107330 0.023865
0.537506 0.127838 0.004425
0.807556 0.112000 0.018860
0.834717 0.106323 0.020721
0.100891 0.258118 0.056885
0.116577 0.246857 0.049774
0.392395 0.299347 0.070892
0.786713 0.335846 0.039886
0.856049 0.326508 0.035217
0.158630 0.420227 0.096161
0.167084 0.409210 0.090759
0.300171 0.461639 0.084778
0.750122 0.568481 0.137604
0.885803 0.563873 0.111481
0.168518 0.472046 0.104828
0.180603 0.469391 0.102814
0.231720 0.501617 0.111298
0.701080 0.680847 0.175568
0.901642 0.720001 0.182037
0.056122 0.035736 0.220001
0.251923 0.040009 0.212860
0.634552 0.019501 0.160553
0.837158 0.069580 0.142731
0.872437 0.115021 0.148041
0.055542 0.121216 0.151184
0.140167 0.129944 0.152557
0.534882 0.143768 0.110687
0.789612 0.088959 0.066833
0.814514 0.087036 0.049500
0.102020 0.261353 0.113831
0.115875 0.250885 0.100739
0.397644 0.301758 0.086609
0.793976 0.338440 0.054382
0.857635 0.332245 0.050293
0.157074 0.418762 0.132202
0.167023 0.409515 0.122711
0.303101 0.462616 0.099854
0.766541 0.576050 0.150787
0.894714 0.573181 0.128357
0.166138 0.472626 0.140839
0.177826 0.466400 0.119263
0.226807 0.499084 0.129700
0.720673 0.693359 0.192413
0.903839 0.733124 0.200958
0.103455 0.111115 0.490479
0.269348 0.074860 0.497864
0.553589 0.082367 0.497681
0.776733 0.114594 0.499573
0.825684 0.135712 0.482574
0.107269 0.197693 0.404480
0.144531 0.182404 0.398834
0.470032 0.176117 0.428864
0.711182 0.095062 0.412811
0.725708 0.082214 0.395660
0.130188 0.310791 0.350250
0.142273 0.304382 0.344330
0.387421 0.362640 0.387238
0.806458 0.380005 0.343719
0.876953 0.368164 0.323151
0.166290 0.443970 0.311554
0.178314 0.439789 0.310059
0.262024 0.485443 0.309570
0.799713 0.591827 0.240112
0.930817 0.589081 0.201141
0.173737 0.496826 0.275146
0.188354 0.500519 0.273926
0.232483 0.533020 0.262970
0.711700 0.706116 0.217224
0.905884 0.743439 0.217926
0.137787 0.185394 0.662689
0.316467 0.097931 0.698029
0.562042 0.101562 0.720886
0.745941 0.104675 0.733337
0.658417 0.087769 0.573425
0.139374 0.244995 0.590820
0.172150 0.237579 0.579803
0.408142 0.201935 0.637482
0.662476 0.110138 0.606781
0.688324 0.104706 0.591217
0.161896 0.358215 0.571411
0.173615 0.354034 0.562042
0.276520 0.390533 0.605804
0.757996 0.442505 0.695190
0.841461 0.423798 0.675781
0.186371 0.480591 0.537994
0.199524 0.478729 0.536255
0.267822 0.521332 0.558319
0.772491 0.709412 0.681213
0.975159 0.696472 0.634399
0.191010 0.532532 0.496368
0.212128 0.547516 0.506195
0.257629 0.592377 0.518738
0.625000 0.803101 0.577423
0.974976 0.875580 0.603363
0.138428 0.182587 0.684479
0.309845 0.099060 0.718658
0.560760 0.103302 0.743744
0.628448 0.085144 0.599518
0.656952 0.087799 0.605164
0.141602 0.247406 0.610107
0.169617 0.240448 0.589874
0.374908 0.206818 0.655731
0.656586 0.107880 0.648193
0.686676 0.105499 0.647339
0.164734 0.361847 0.608887
0.177673 0.360291 0.601959
0.271423 0.406250 0.667114
0.722412 0.443146 0.803833
0.823883 0.430023 0.805573
0.194092 0.487549 0.632538
0.212219 0.495941 0.641266
0.285797 0.552124 0.698944
0.669800 0.713928 0.873108
0.940399 0.750671 0.915161
0.211426 0.563934 0.649323
0.234161 0.587494 0.669586
0.277283 0.635254 0.704712
0.462341 0.786835 0.820282
0.993073 0.974030 0.961945
