滤镜资源/Professional Luts Collection/Triune-Digital-Cinematic-LUTs/3D LUTs (CUBE)/LOG/The Ring - LOG.cube
#Created by Benjamin (IWLTBAP) : http://luts.iwltbap.com
#Copyright: (C) Copyright 2016 Triune Films and IWLTBAP
TITLE "Blockbuster LUTs Pack (LOG)"
#LUT size
LUT_3D_SIZE 8
#LUT data points
DOMAIN_MIN 0.000000 0.000000 0.000000
DOMAIN_MAX 0.903226 0.903226 0.903226
0.000000 0.000000 0.000000
0.026855 0.000000 0.000000
0.105560 0.003204 0.003204
0.223694 0.015564 0.009155
0.361145 0.042999 0.024689
0.504578 0.076141 0.052887
0.539856 0.085419 0.059875
0.568604 0.092285 0.065765
0.000000 0.028442 0.000000
0.018890 0.026001 0.000732
0.094574 0.026520 0.002777
0.208740 0.031433 0.008270
0.344055 0.051941 0.022919
0.493835 0.086212 0.050812
0.541077 0.096741 0.059875
0.570557 0.104340 0.065765
0.000000 0.119019 0.009460
0.007172 0.113556 0.008881
0.064331 0.108521 0.011047
0.193268 0.111572 0.016937
0.326935 0.120056 0.031281
0.475372 0.138031 0.056000
0.544281 0.141846 0.066254
0.575989 0.144836 0.072144
0.000000 0.244751 0.041412
0.007172 0.238434 0.039429
0.032166 0.227783 0.038330
0.144531 0.226746 0.043701
0.300323 0.229034 0.055695
0.455627 0.236786 0.074158
0.560883 0.240540 0.086639
0.590942 0.240784 0.090240
0.000000 0.395050 0.089172
0.007172 0.387817 0.087433
0.019867 0.379852 0.086243
0.058624 0.369507 0.085724
0.236237 0.364777 0.092072
0.422180 0.368469 0.105927
0.577393 0.372437 0.121674
0.605255 0.363739 0.122803
0.000000 0.568512 0.148132
0.007172 0.559601 0.143646
0.014343 0.548676 0.140411
0.046600 0.537292 0.139252
0.086487 0.528320 0.141174
0.342712 0.524048 0.149414
0.553345 0.525482 0.164001
0.613281 0.520447 0.167084
0.000000 0.756348 0.210114
0.007172 0.747589 0.208069
0.014343 0.742645 0.204468
0.032928 0.725677 0.201691
0.074280 0.715149 0.201080
0.115509 0.706818 0.205505
0.460449 0.704987 0.215851
0.594788 0.695099 0.219940
0.000000 0.809601 0.228241
0.007172 0.809601 0.228241
0.014343 0.809601 0.228241
0.022522 0.809601 0.228241
0.063660 0.812775 0.232025
0.105042 0.824554 0.241669
0.231934 0.834137 0.253754
0.554871 0.850067 0.269684
0.000000 0.000641 0.031830
0.035095 0.000000 0.035248
0.129608 0.006378 0.043884
0.245239 0.018860 0.050049
0.376587 0.047607 0.059204
0.509552 0.078857 0.069672
0.546967 0.088348 0.078827
0.577454 0.095215 0.083740
0.000000 0.034241 0.032990
0.020538 0.029053 0.029053
0.108246 0.029572 0.029572
0.219849 0.034149 0.032043
0.351105 0.054535 0.041504
0.501556 0.088959 0.069550
0.546967 0.098450 0.077606
0.577454 0.105347 0.081787
0.000000 0.120636 0.027130
0.007172 0.115356 0.021759
0.066040 0.111115 0.025177
0.197693 0.112946 0.035034
0.330444 0.121490 0.049713
0.484589 0.139648 0.074005
0.552490 0.142792 0.084076
0.581024 0.144104 0.088287
0.000000 0.245972 0.057495
0.007172 0.242523 0.056030
0.031799 0.230988 0.053741
0.143433 0.225281 0.059143
0.303711 0.228943 0.069641
0.457306 0.238342 0.089630
0.566681 0.242249 0.103424
0.594788 0.239532 0.105927
0.000000 0.395508 0.104584
0.007172 0.389771 0.101746
0.019501 0.381317 0.099548
0.058319 0.369263 0.099854
0.236420 0.366119 0.105713
0.425476 0.369324 0.120422
0.579437 0.372314 0.134247
0.607880 0.365662 0.135437
0.000000 0.564087 0.157837
0.007172 0.558258 0.155487
0.014343 0.547211 0.152710
0.046326 0.536133 0.149231
0.086182 0.529419 0.153625
0.341522 0.525146 0.161835
0.555603 0.526428 0.176361
0.615021 0.518738 0.178528
0.000000 0.756897 0.222107
0.007172 0.751465 0.220490
0.014343 0.738617 0.214386
0.032562 0.726593 0.211884
0.073944 0.716766 0.212067
0.115173 0.706299 0.215668
0.459137 0.699921 0.225159
0.597961 0.696014 0.232391
0.000000 0.809601 0.239319
0.007172 0.813538 0.240326
0.014343 0.813538 0.241272
0.022186 0.812744 0.241272
0.063202 0.817688 0.244476
0.104645 0.822601 0.252594
0.239105 0.834961 0.265686
0.557800 0.853058 0.280823
0.000000 0.014893 0.121277
0.024384 0.015472 0.128357
0.146240 0.016693 0.149445
0.279297 0.032013 0.168762
0.423920 0.061646 0.185547
0.565582 0.093689 0.195892
0.595825 0.100220 0.189514
0.625183 0.108246 0.186920
0.000000 0.052124 0.126923
0.015900 0.046539 0.122131
0.123901 0.043030 0.133362
0.255920 0.047424 0.149353
0.398682 0.068665 0.164001
0.546448 0.101898 0.175385
0.590454 0.111511 0.172638
0.616302 0.116638 0.169434
0.000000 0.144348 0.135406
0.007172 0.137909 0.129578
0.071442 0.130402 0.126251
0.217346 0.128387 0.128662
0.358398 0.134369 0.136108
0.508148 0.146118 0.145844
0.577576 0.149475 0.141602
0.603485 0.149811 0.140778
0.000000 0.260193 0.135254
0.007172 0.255280 0.131134
0.030884 0.244110 0.121582
0.149536 0.237915 0.117249
0.312775 0.237061 0.117523
0.467590 0.240417 0.121490
0.571075 0.241364 0.121338
0.600128 0.239532 0.121674
0.000000 0.398438 0.139740
0.007172 0.393036 0.134521
0.018555 0.380585 0.124725
0.057526 0.370300 0.116333
0.235992 0.365601 0.120605
0.423920 0.366699 0.133179
0.583252 0.372253 0.149750
0.614838 0.366974 0.153076
0.000000 0.565796 0.172394
0.007172 0.559357 0.169830
0.014343 0.546478 0.165619
0.045624 0.538239 0.166321
0.085571 0.526581 0.166016
0.341095 0.523712 0.175537
0.555695 0.525360 0.188446
0.618683 0.519653 0.193268
0.000000 0.753815 0.231567
0.007172 0.747955 0.229523
0.014343 0.741028 0.229187
0.031891 0.725677 0.225403
0.073425 0.714264 0.224091
0.114685 0.705933 0.227936
0.459991 0.701508 0.238922
0.598663 0.695374 0.245636
0.000000 0.812286 0.251160
0.007172 0.812775 0.251404
0.014343 0.816711 0.254333
0.021606 0.813721 0.254333
0.062653 0.816650 0.257538
0.104126 0.825043 0.265167
0.228821 0.837219 0.278290
0.558075 0.853302 0.292633
0.000000 0.060760 0.247406
0.020721 0.058807 0.252716
0.138397 0.059845 0.276062
0.298431 0.067657 0.303406
0.461609 0.088654 0.331116
0.619659 0.116821 0.350861
0.655457 0.122406 0.345642
0.684204 0.129486 0.343414
0.000000 0.088348 0.246979
0.014740 0.081177 0.243530
0.113464 0.076691 0.259338
0.276672 0.076599 0.283020
0.435577 0.094574 0.308228
0.599609 0.123322 0.329865
0.651825 0.133514 0.327545
0.680206 0.138916 0.325317
0.000000 0.169678 0.262573
0.007172 0.165527 0.257874
0.042206 0.157471 0.255676
0.236206 0.152985 0.266418
0.396851 0.156433 0.282410
0.559357 0.167908 0.296875
0.640472 0.169617 0.297699
0.668488 0.169464 0.295319
0.000000 0.290802 0.275085
0.007172 0.284485 0.270691
0.029877 0.275024 0.261719
0.156494 0.265930 0.259552
0.343292 0.262512 0.262512
0.510529 0.265106 0.268890
0.626251 0.266449 0.269806
0.655518 0.259552 0.265137
0.000000 0.430237 0.279297
0.007172 0.423798 0.274048
0.017242 0.411316 0.262726
0.056580 0.398743 0.252502
0.251526 0.390717 0.246368
0.449158 0.389008 0.249573
0.612457 0.389526 0.252411
0.642303 0.381622 0.243774
0.000000 0.586731 0.278900
0.007172 0.581085 0.274078
0.014343 0.568329 0.264038
0.044647 0.554871 0.252594
0.084625 0.542297 0.245300
0.348053 0.534729 0.240143
0.563782 0.531036 0.239258
0.628357 0.523254 0.233795
0.000000 0.760193 0.287750
0.007172 0.757019 0.285828
0.014343 0.744354 0.275238
0.030823 0.730408 0.261993
0.072510 0.714355 0.253815
0.113800 0.705017 0.249939
0.457153 0.699890 0.253204
0.603271 0.695129 0.259735
0.000000 0.817322 0.278137
0.007172 0.817505 0.275604
0.014343 0.816223 0.273163
0.021515 0.818176 0.269867
0.061584 0.821381 0.272827
0.103149 0.827881 0.280304
0.210236 0.841003 0.293427
0.560516 0.856720 0.308136
0.000000 0.121857 0.402161
0.019440 0.118805 0.401306
0.052704 0.118134 0.422852
0.295197 0.121948 0.455658
0.480194 0.131256 0.488861
0.656555 0.152069 0.518402
0.703644 0.158142 0.516418
0.736450 0.162415 0.516449
0.000000 0.141205 0.393951
0.013397 0.132629 0.386200
0.047363 0.126678 0.403992
0.270355 0.124664 0.430328
0.456360 0.135773 0.464905
0.640198 0.158508 0.496613
0.697052 0.164246 0.496704
0.731934 0.169922 0.497070
0.000000 0.209930 0.406982
0.007172 0.204193 0.399719
0.039001 0.193451 0.397614
0.226593 0.188232 0.415009
0.414307 0.189331 0.437805
0.599915 0.196594 0.464142
0.692200 0.197327 0.468811
0.722687 0.196228 0.467377
0.000000 0.324188 0.427795
0.007172 0.317810 0.422241
0.028687 0.306702 0.412170
0.121704 0.299133 0.413574
0.361267 0.293762 0.423340
0.548706 0.293243 0.437714
0.681702 0.293579 0.443848
0.710724 0.289429 0.438995
0.000000 0.465271 0.441833
0.007172 0.462891 0.437622
0.015808 0.448517 0.423218
0.055481 0.434540 0.415314
0.258545 0.427490 0.414703
0.481415 0.422668 0.418335
0.660400 0.419861 0.423065
0.695068 0.410919 0.416351
0.000000 0.626160 0.447937
0.007172 0.618011 0.441772
0.014343 0.607452 0.431427
0.043488 0.592438 0.417633
0.083588 0.580261 0.410553
0.368073 0.571228 0.406677
0.598511 0.566467 0.405182
0.674225 0.560486 0.401855
0.000000 0.802948 0.449493
0.007172 0.795898 0.443390
0.014343 0.785095 0.435516
0.029541 0.766235 0.420685
0.071442 0.752472 0.409119
0.112823 0.738770 0.398407
0.476746 0.731750 0.396088
0.631927 0.721497 0.389801
0.000000 0.857544 0.428284
0.007172 0.860046 0.425385
0.014343 0.856995 0.418396
0.021515 0.852264 0.405548
0.060425 0.853363 0.395050
0.102081 0.853210 0.386414
0.195374 0.861725 0.385071
0.569183 0.871918 0.384888
0.000000 0.171783 0.523102
0.018036 0.171783 0.528351
0.051422 0.173615 0.557373
0.258331 0.178223 0.599030
0.480438 0.188324 0.646851
0.683289 0.204224 0.696014
0.734253 0.206970 0.695038
0.773132 0.210876 0.698059
0.000000 0.192932 0.532806
0.011963 0.189148 0.531525
0.046204 0.185120 0.551239
0.223267 0.185822 0.587402
0.455444 0.194061 0.630219
0.661407 0.209656 0.674194
0.732147 0.214752 0.679382
0.768494 0.216095 0.682098
0.000000 0.259216 0.562103
0.007172 0.253693 0.556396
0.037781 0.246429 0.558075
0.149078 0.241150 0.578033
0.413849 0.235443 0.604248
0.621002 0.239105 0.640350
0.728760 0.238281 0.651062
0.762878 0.236542 0.651550
0.000000 0.366760 0.594421
0.007172 0.360718 0.588074
0.027405 0.348785 0.576935
0.065063 0.340454 0.580200
0.349823 0.331604 0.593018
0.569244 0.330414 0.615692
0.719757 0.328674 0.628723
0.755035 0.322784 0.625610
0.000000 0.504517 0.617371
0.007172 0.500885 0.613037
0.014618 0.485992 0.599243
0.054260 0.476410 0.592316
0.228363 0.464447 0.591278
0.495026 0.459686 0.601105
0.701569 0.457458 0.614014
0.740173 0.449097 0.608643
0.000000 0.665680 0.631531
0.007172 0.663818 0.628998
0.014343 0.651733 0.616669
0.042267 0.632721 0.601929
0.082489 0.619812 0.595367
0.371918 0.611420 0.592712
0.628906 0.605438 0.597168
0.717316 0.598785 0.595337
0.000000 0.848450 0.642761
0.007172 0.841766 0.636963
0.014343 0.829041 0.625427
0.028290 0.811615 0.607758
0.070282 0.796509 0.598328
0.111725 0.784698 0.589386
0.496399 0.774200 0.588043
0.670990 0.764801 0.582489
0.000000 0.911041 0.618317
0.007172 0.911530 0.615662
0.014343 0.907928 0.605530
0.021515 0.903931 0.593170
0.059082 0.904388 0.582550
0.100830 0.905090 0.573151
0.167145 0.910431 0.570587
0.599426 0.923279 0.570923
0.000000 0.184784 0.553833
0.016846 0.183563 0.558105
0.050262 0.186768 0.585846
0.234833 0.193146 0.631439
0.473663 0.202667 0.684540
0.680481 0.219604 0.737244
0.740601 0.226257 0.751404
0.782104 0.232147 0.764130
0.000000 0.202972 0.561493
0.010590 0.199677 0.563690
0.045105 0.196625 0.583984
0.189636 0.203003 0.628113
0.445923 0.210876 0.676849
0.661774 0.230042 0.733551
0.743530 0.239319 0.756042
0.780640 0.242523 0.765381
0.000000 0.274384 0.603638
0.007172 0.269226 0.603271
0.036499 0.263092 0.607452
0.078369 0.259369 0.636505
0.400116 0.260559 0.680939
0.621704 0.265045 0.729187
0.740601 0.265076 0.755859
0.780579 0.266235 0.768188
0.000000 0.386810 0.665771
0.007172 0.380493 0.663513
0.026001 0.372528 0.662506
0.063812 0.363220 0.674713
0.324646 0.360413 0.705200
0.567719 0.361328 0.743805
0.740601 0.364716 0.780762
0.778503 0.360931 0.786987
0.000000 0.533478 0.736298
0.007172 0.529327 0.733429
0.014343 0.517792 0.729309
0.053040 0.509644 0.735077
0.102234 0.498322 0.746765
0.489746 0.494568 0.772522
0.719391 0.496216 0.801361
0.772278 0.488464 0.802612
0.000000 0.706665 0.805786
0.007172 0.702087 0.804932
0.014343 0.690796 0.797363
0.040924 0.676544 0.792236
0.081268 0.664734 0.788757
0.345062 0.653290 0.792542
0.644684 0.648773 0.802399
0.748230 0.637543 0.799988
0.000000 0.895386 0.849091
0.007172 0.888214 0.842285
0.014343 0.875092 0.829865
0.026978 0.857697 0.813477
0.069061 0.844025 0.802887
0.110565 0.827423 0.792786
0.500183 0.821136 0.796692
0.699402 0.809448 0.793518
0.000000 0.963654 0.828918
0.007172 0.965118 0.824921
0.014343 0.964905 0.817535
0.021515 0.962372 0.804810
0.057648 0.960480 0.793335
0.099518 0.960022 0.785797
0.141754 0.967926 0.785126
0.624298 0.974670 0.786102
0.000000 0.198547 0.584564
0.016205 0.196350 0.588989
0.049683 0.199493 0.616760
0.211243 0.204987 0.661377
0.467255 0.214203 0.714508
0.679932 0.231689 0.770355
0.746460 0.238037 0.787018
0.783112 0.241974 0.795837
0.000000 0.216187 0.593567
0.009979 0.211334 0.593689
0.044586 0.209625 0.613678
0.149536 0.214813 0.657166
0.439758 0.222412 0.706879
0.661011 0.239960 0.764679
0.746735 0.249390 0.787262
0.785065 0.254059 0.798798
0.000000 0.282257 0.631256
0.007172 0.279907 0.633728
0.035980 0.273285 0.637054
0.073700 0.270294 0.668579
0.391998 0.269775 0.710571
0.620026 0.275299 0.762024
0.746460 0.275391 0.790253
0.784943 0.276154 0.801910
0.000000 0.393127 0.695068
0.007172 0.386932 0.691254
0.025421 0.379333 0.692932
0.063202 0.370392 0.702942
0.308716 0.367584 0.732178
0.564178 0.367188 0.772766
0.742554 0.370728 0.810364
0.783112 0.366608 0.820282
0.000000 0.538910 0.765381
0.007172 0.535858 0.765900
0.014343 0.524384 0.759125
0.052277 0.512695 0.764191
0.091705 0.503143 0.776398
0.484070 0.502747 0.808105
0.723450 0.503357 0.842957
0.776215 0.495667 0.849762
0.000000 0.713348 0.841553
0.007172 0.708557 0.837463
0.014343 0.697998 0.833466
0.039978 0.683685 0.833618
0.080383 0.673767 0.839020
0.321106 0.664215 0.854279
0.642944 0.662231 0.881012
0.758240 0.657257 0.893707
0.000000 0.906891 0.913940
0.007172 0.899963 0.910248
0.014343 0.892212 0.908569
0.026093 0.878418 0.903778
0.068054 0.862396 0.904266
0.109528 0.854218 0.913849
0.488953 0.846680 0.932343
0.715393 0.840363 0.946503
0.000000 0.988007 0.947723
0.007172 0.986023 0.945770
0.014343 0.985779 0.945526
0.021515 0.985779 0.945526
0.056305 0.985779 0.949524
0.098267 0.992340 0.961456
0.140533 0.994598 0.974762
0.641998 0.994293 0.987915
