滤镜资源/Professional Luts Collection/Triune-Digital-Cinematic-LUTs/3D LUTs (CUBE)/LOG/The Book of Eli - LOG.cube
#Created by Benjamin (IWLTBAP) : http://luts.iwltbap.com
#Copyright: (C) Copyright 2016 Triune Films and IWLTBAP
TITLE "Blockbuster LUTs Pack (LOG)"
#LUT size
LUT_3D_SIZE 5
#LUT data points
DOMAIN_MIN 0.000000 0.000000 0.000000
DOMAIN_MAX 0.903226 0.903226 0.903226
0.028687 0.027069 0.024780
0.124146 0.037903 0.033936
0.258179 0.055908 0.050110
0.430817 0.083527 0.075256
0.472534 0.094299 0.083069
0.064728 0.125397 0.050385
0.135559 0.128693 0.062469
0.269135 0.134155 0.074615
0.473389 0.154938 0.107422
0.520874 0.153168 0.111542
0.111023 0.272339 0.098389
0.143341 0.273376 0.107147
0.297882 0.297546 0.130676
0.561737 0.362549 0.196960
0.664062 0.382812 0.231140
0.137482 0.487579 0.172516
0.168060 0.484589 0.170929
0.376862 0.539276 0.234619
0.646118 0.610809 0.331268
0.800873 0.657440 0.403259
0.248962 0.618439 0.248627
0.284607 0.627167 0.256866
0.390106 0.658630 0.295135
0.693481 0.789307 0.456390
0.881897 0.847687 0.533508
0.036560 0.034180 0.119202
0.148438 0.062195 0.145630
0.285858 0.076935 0.144836
0.457336 0.103027 0.154541
0.499512 0.108887 0.152679
0.065826 0.126251 0.127472
0.140747 0.137024 0.140839
0.278748 0.136047 0.139130
0.492462 0.164764 0.158173
0.531189 0.154907 0.149048
0.113159 0.272491 0.138153
0.142670 0.269623 0.133575
0.301331 0.300720 0.160767
0.563690 0.363251 0.228394
0.666168 0.379242 0.253937
0.132568 0.482086 0.198273
0.159607 0.476013 0.196167
0.366394 0.532196 0.258881
0.643646 0.609406 0.357758
0.802856 0.657928 0.431519
0.247864 0.623169 0.280914
0.285706 0.630798 0.287537
0.389008 0.662720 0.325806
0.694702 0.793427 0.486359
0.882355 0.849884 0.557312
0.060059 0.059753 0.280548
0.185242 0.106842 0.334290
0.414215 0.171722 0.396118
0.578033 0.184692 0.391754
0.612671 0.187103 0.382568
0.100220 0.158600 0.308075
0.176880 0.173737 0.326904
0.386108 0.223053 0.381348
0.599030 0.238220 0.393280
0.626373 0.221222 0.377258
0.135712 0.297577 0.311310
0.163452 0.301514 0.316376
0.369080 0.365021 0.374023
0.611298 0.403412 0.409546
0.718933 0.425415 0.439056
0.172363 0.524048 0.363098
0.196991 0.515594 0.353333
0.359863 0.540283 0.374725
0.653046 0.624084 0.468262
0.809326 0.664368 0.517853
0.253479 0.644073 0.378052
0.294678 0.650177 0.379578
0.391449 0.674744 0.394867
0.692688 0.799164 0.527466
0.883636 0.851990 0.582764
0.090057 0.090271 0.422974
0.190338 0.121765 0.468018
0.504395 0.247498 0.607422
0.696014 0.284546 0.648376
0.715210 0.276672 0.638489
0.157471 0.217072 0.511536
0.236664 0.234283 0.540771
0.496643 0.308655 0.621979
0.714203 0.348236 0.669250
0.726501 0.309174 0.636902
0.200623 0.403107 0.572083
0.236206 0.410919 0.580383
0.488617 0.475555 0.643433
0.718048 0.519257 0.684021
0.786957 0.503387 0.674164
0.218811 0.572540 0.578522
0.258606 0.575500 0.581482
0.458740 0.627716 0.631470
0.698639 0.675751 0.681549
0.831512 0.690094 0.697876
0.330109 0.711914 0.612701
0.371155 0.721741 0.616974
0.454071 0.746307 0.630859
0.695740 0.817535 0.693359
0.907623 0.882996 0.750610
0.096039 0.098267 0.458496
0.193909 0.130188 0.504181
0.506470 0.250824 0.635376
0.711273 0.301575 0.693512
0.739899 0.303589 0.692841
0.168243 0.225159 0.550751
0.239532 0.240173 0.574554
0.492920 0.305237 0.651550
0.726044 0.352417 0.714294
0.759186 0.345337 0.712433
0.233978 0.437347 0.645905
0.280853 0.449341 0.662201
0.525024 0.505676 0.722839
0.741394 0.540833 0.770020
0.837311 0.557159 0.798187
0.285339 0.624817 0.707184
0.338196 0.633453 0.718475
0.525330 0.687408 0.779022
0.730072 0.711517 0.813171
0.864136 0.722748 0.836243
0.384247 0.756653 0.758240
0.426483 0.769318 0.770111
0.497131 0.790894 0.793915
0.736938 0.864075 0.866241
0.927155 0.905762 0.903473
