滤镜资源/Professional Luts Collection/Triune-Digital-Cinematic-LUTs/3D LUTs (CUBE)/LOG/The Walking Dead - LOG.cube
#Created by Benjamin (IWLTBAP) : http://luts.iwltbap.com
#Copyright: (C) Copyright 2016 Triune Films and IWLTBAP
TITLE "Blockbuster LUTs Pack (LOG)"
#LUT size
LUT_3D_SIZE 5
#LUT data points
DOMAIN_MIN 0.000000 0.000000 0.000000
DOMAIN_MAX 0.903226 0.903226 0.903226
0.011322 0.012421 0.017670
0.265198 0.042358 0.046997
0.644897 0.105286 0.105652
0.920502 0.155884 0.150055
0.951355 0.161072 0.159393
0.013214 0.177429 0.020355
0.155823 0.165100 0.020386
0.561920 0.204712 0.082794
0.896454 0.236298 0.135529
0.936462 0.225098 0.145935
0.034302 0.413055 0.043701
0.068665 0.406494 0.043701
0.422394 0.405029 0.055450
0.781433 0.414612 0.103699
0.892212 0.408997 0.121429
0.045227 0.668243 0.028870
0.071228 0.661591 0.033539
0.187286 0.647552 0.046082
0.665161 0.636688 0.051361
0.862366 0.634827 0.092163
0.036987 0.790558 0.016113
0.059570 0.794464 0.022064
0.124115 0.802765 0.031067
0.524414 0.798309 0.018372
0.830902 0.809357 0.027374
0.011444 0.012939 0.261871
0.234009 0.014923 0.243103
0.630890 0.094635 0.281677
0.919891 0.145782 0.302185
0.953613 0.150940 0.290955
0.048157 0.186066 0.206635
0.163605 0.180634 0.190216
0.576874 0.219482 0.211182
0.912628 0.244507 0.242737
0.950836 0.230255 0.232635
0.058960 0.425446 0.114258
0.087616 0.415222 0.102966
0.424591 0.410522 0.105927
0.787445 0.420135 0.151123
0.901123 0.412903 0.169830
0.059357 0.673004 0.062744
0.086517 0.666840 0.068420
0.190033 0.653595 0.091278
0.674164 0.646057 0.098267
0.871307 0.641663 0.133545
0.051788 0.800110 0.045319
0.076538 0.804565 0.053101
0.131226 0.811920 0.072510
0.535950 0.809601 0.057037
0.840302 0.819550 0.063171
0.015472 0.015961 0.573822
0.212433 0.017822 0.566589
0.599548 0.038879 0.573761
0.919006 0.078735 0.574249
0.959412 0.088867 0.561951
0.046173 0.175293 0.523254
0.146576 0.175262 0.525482
0.526917 0.167694 0.528656
0.898804 0.200958 0.530548
0.943573 0.186707 0.518677
0.117798 0.456604 0.402069
0.146698 0.448212 0.398376
0.446838 0.460846 0.463318
0.829956 0.464203 0.454834
0.938782 0.439514 0.429810
0.133148 0.713715 0.282776
0.161163 0.705383 0.281219
0.278473 0.686859 0.293762
0.696808 0.674866 0.303955
0.896057 0.662079 0.277740
0.098663 0.828400 0.156525
0.124695 0.830536 0.161743
0.175140 0.833496 0.167572
0.544464 0.826538 0.135193
0.849548 0.829865 0.103210
0.019623 0.020081 0.801361
0.219208 0.022308 0.809235
0.570099 0.039459 0.817810
0.888763 0.047333 0.842499
0.942596 0.047089 0.847321
0.053101 0.180359 0.774261
0.150818 0.174072 0.801544
0.495544 0.165741 0.815369
0.875824 0.143066 0.831207
0.946960 0.113129 0.820343
0.117126 0.448547 0.717529
0.144653 0.438660 0.714508
0.407593 0.462433 0.769684
0.801880 0.424011 0.775757
0.950623 0.390137 0.764374
0.198547 0.749207 0.608002
0.229004 0.740967 0.606049
0.373413 0.727386 0.626251
0.743317 0.735229 0.735229
0.959503 0.727997 0.724091
0.194336 0.892975 0.495148
0.230652 0.893433 0.499207
0.299957 0.896942 0.507019
0.588287 0.893890 0.590973
0.912079 0.901245 0.562042
0.021484 0.021332 0.857300
0.221497 0.023407 0.862091
0.563660 0.041534 0.866364
0.885101 0.043121 0.887177
0.938507 0.042816 0.893066
0.053894 0.177307 0.823883
0.151306 0.171326 0.852997
0.493744 0.159912 0.867767
0.864594 0.128632 0.889832
0.941315 0.107391 0.895905
0.112823 0.433868 0.786438
0.141815 0.426331 0.792358
0.401398 0.447418 0.864624
0.787323 0.415131 0.897064
0.941681 0.379272 0.905151
0.194916 0.738586 0.761108
0.223694 0.730286 0.767242
0.364777 0.716705 0.806213
0.708984 0.722565 0.937164
0.959900 0.698212 0.944214
0.242767 0.924652 0.726654
0.288025 0.926514 0.739990
0.366821 0.930847 0.762756
0.670471 0.940155 0.862152
0.966370 0.961487 0.963409
