滤镜资源/Professional Luts Collection/Triune-Digital-Cinematic-LUTs/3D LUTs (CUBE)/LOG/The Walking Dead - LOG.cube
#Created by Benjamin (IWLTBAP) : http://luts.iwltbap.com
#Copyright: (C) Copyright 2016 Triune Films and IWLTBAP
TITLE "Blockbuster LUTs Pack (LOG)"
#LUT size
LUT_3D_SIZE 8
#LUT data points
DOMAIN_MIN 0.000000 0.000000 0.000000
DOMAIN_MAX 0.903226 0.903226 0.903226
0.011322 0.012421 0.017670
0.131348 0.024414 0.027985
0.310486 0.049103 0.054108
0.539825 0.084473 0.090485
0.742523 0.124512 0.119568
0.911835 0.153625 0.146545
0.934265 0.158234 0.154541
0.951355 0.161072 0.159393
0.013641 0.086334 0.018829
0.067200 0.078094 0.018372
0.290649 0.094452 0.049255
0.502197 0.122070 0.080872
0.713654 0.147339 0.112976
0.895020 0.177246 0.140076
0.928802 0.183899 0.150391
0.946167 0.186768 0.155090
0.014404 0.208069 0.022400
0.030457 0.203552 0.021759
0.186310 0.193909 0.021637
0.437042 0.219482 0.061584
0.645844 0.236816 0.092407
0.841187 0.255554 0.122833
0.910004 0.252869 0.137695
0.929565 0.249634 0.141510
0.026459 0.339691 0.037231
0.041687 0.336761 0.037231
0.096436 0.332886 0.035217
0.343018 0.331360 0.044891
0.580811 0.348297 0.073608
0.768036 0.356018 0.104309
0.883148 0.356323 0.123871
0.904175 0.352478 0.127747
0.039642 0.486664 0.042938
0.054871 0.484467 0.044006
0.081329 0.478546 0.045349
0.195190 0.473114 0.053589
0.495331 0.474365 0.061707
0.713501 0.481720 0.089539
0.856964 0.472900 0.110260
0.880249 0.467102 0.114105
0.045807 0.634613 0.032806
0.060547 0.632202 0.034119
0.075592 0.625580 0.037231
0.140045 0.616974 0.047058
0.391418 0.611877 0.052216
0.636139 0.607361 0.057617
0.824310 0.610596 0.091064
0.866028 0.601868 0.095734
0.040039 0.760864 0.018341
0.054321 0.759766 0.022400
0.068970 0.755646 0.026428
0.105347 0.750000 0.035889
0.262665 0.744110 0.039429
0.546051 0.733765 0.025055
0.748322 0.724457 0.036774
0.845764 0.724823 0.077942
0.036987 0.790558 0.016113
0.050018 0.793060 0.019592
0.062805 0.795013 0.022919
0.077423 0.797119 0.026672
0.217804 0.802185 0.027618
0.467499 0.796478 0.019470
0.681610 0.806458 0.016785
0.830902 0.809357 0.027374
0.011383 0.013000 0.134247
0.103363 0.012939 0.119080
0.311371 0.044647 0.130432
0.535797 0.083801 0.154968
0.746552 0.127289 0.174622
0.917755 0.156921 0.185699
0.940277 0.160919 0.192505
0.957458 0.163177 0.197266
0.025757 0.085968 0.103363
0.069885 0.079346 0.091278
0.308289 0.094147 0.094421
0.506531 0.122955 0.118073
0.716522 0.149689 0.140594
0.901093 0.181274 0.177948
0.934692 0.187286 0.187286
0.952087 0.189819 0.191864
0.025818 0.211487 0.060577
0.041016 0.206696 0.056152
0.188019 0.196014 0.050140
0.438843 0.220581 0.082855
0.649353 0.239075 0.117889
0.845581 0.259033 0.154022
0.915222 0.255432 0.168579
0.935089 0.252319 0.173615
0.035706 0.343567 0.065613
0.051117 0.340942 0.065796
0.105347 0.337891 0.064026
0.345703 0.335388 0.074066
0.585419 0.353027 0.102600
0.772003 0.359772 0.132477
0.888214 0.359650 0.152283
0.909210 0.355469 0.156311
0.047943 0.490326 0.066559
0.063507 0.488312 0.067902
0.089813 0.482666 0.069946
0.185242 0.479340 0.079834
0.498505 0.478546 0.089233
0.717773 0.486420 0.116211
0.862061 0.476440 0.136627
0.885284 0.470093 0.140686
0.053986 0.638550 0.052734
0.068939 0.636078 0.054260
0.084381 0.629395 0.057892
0.150146 0.621613 0.069214
0.392303 0.615784 0.079285
0.641357 0.612823 0.083954
0.828674 0.614746 0.114868
0.871277 0.606232 0.119720
0.048431 0.764771 0.035706
0.063232 0.763733 0.040222
0.078369 0.759644 0.044739
0.115448 0.755005 0.055573
0.258911 0.749573 0.064148
0.551819 0.739197 0.049957
0.753906 0.729065 0.059235
0.851410 0.729187 0.100281
0.045563 0.795868 0.032928
0.059357 0.798645 0.036987
0.072876 0.800903 0.040955
0.087646 0.803253 0.045227
0.217468 0.810455 0.051727
0.474579 0.802673 0.041321
0.687805 0.812286 0.037476
0.836212 0.815308 0.047333
0.011871 0.013062 0.305817
0.091095 0.013824 0.296967
0.282806 0.016144 0.288513
0.526703 0.057709 0.312622
0.726776 0.109497 0.328247
0.901428 0.137970 0.340912
0.932800 0.143494 0.332947
0.951752 0.145538 0.328949
0.024017 0.080902 0.277863
0.062897 0.075165 0.273651
0.244507 0.066986 0.268555
0.491455 0.102783 0.287170
0.704865 0.141724 0.303802
0.893585 0.172394 0.319824
0.935120 0.179504 0.312805
0.953583 0.181793 0.309662
0.056885 0.222198 0.238373
0.073486 0.217651 0.232819
0.196960 0.217499 0.226410
0.483826 0.236115 0.224426
0.665192 0.254669 0.243591
0.859558 0.269409 0.262726
0.930084 0.262939 0.261353
0.948853 0.258667 0.259430
0.075562 0.366211 0.182312
0.090820 0.362793 0.179474
0.143890 0.357513 0.172333
0.355530 0.346588 0.163696
0.594818 0.362762 0.174316
0.778046 0.364899 0.183960
0.893921 0.362061 0.185333
0.914307 0.356781 0.185333
0.068481 0.499115 0.120880
0.083282 0.496979 0.119019
0.104889 0.489624 0.112183
0.190887 0.484100 0.108521
0.499298 0.480743 0.117676
0.720337 0.489227 0.143738
0.866943 0.477936 0.163239
0.890228 0.471924 0.167450
0.063263 0.641602 0.073669
0.078583 0.639160 0.075592
0.094910 0.632782 0.080048
0.160370 0.624969 0.092194
0.391205 0.618469 0.107269
0.644318 0.616394 0.111511
0.832397 0.617554 0.139374
0.876465 0.609283 0.144531
0.056580 0.767426 0.053009
0.071991 0.766541 0.058075
0.087555 0.762543 0.063080
0.124207 0.757660 0.074493
0.252441 0.753571 0.089600
0.556335 0.743866 0.076416
0.759216 0.733765 0.083710
0.856567 0.732727 0.123138
0.053894 0.801483 0.049530
0.068237 0.804199 0.054108
0.082397 0.806427 0.058594
0.096558 0.808624 0.063019
0.218689 0.817139 0.076996
0.479065 0.809448 0.065704
0.692169 0.817963 0.059601
0.841736 0.821045 0.068787
0.014130 0.014771 0.487732
0.087250 0.015289 0.483704
0.265930 0.017700 0.474091
0.499237 0.026520 0.484344
0.726715 0.067413 0.493347
0.887451 0.110168 0.493225
0.922241 0.117645 0.483551
0.942963 0.120819 0.478912
0.024231 0.075989 0.463867
0.060150 0.070892 0.465637
0.226074 0.062866 0.459015
0.466614 0.064117 0.460022
0.703369 0.101715 0.470337
0.874969 0.150757 0.474274
0.924011 0.155945 0.465363
0.945190 0.158356 0.461365
0.056244 0.217957 0.431641
0.072327 0.212860 0.429077
0.180389 0.217285 0.423340
0.389587 0.218231 0.430634
0.651642 0.235657 0.430237
0.850830 0.254028 0.438446
0.929108 0.246643 0.433563
0.949280 0.240326 0.430115
0.097351 0.376312 0.343384
0.113678 0.372742 0.343353
0.170868 0.370056 0.345490
0.355927 0.379883 0.382324
0.630554 0.389343 0.376038
0.803955 0.390045 0.376801
0.920715 0.382172 0.371979
0.940613 0.375610 0.367279
0.116974 0.527588 0.278931
0.133575 0.525940 0.278870
0.155182 0.519043 0.274292
0.258057 0.515533 0.281525
0.523376 0.506165 0.309662
0.742859 0.514679 0.313782
0.886139 0.494446 0.289398
0.908020 0.485901 0.281555
0.112183 0.667786 0.209839
0.127106 0.664581 0.208923
0.142273 0.656281 0.205750
0.212097 0.646454 0.212860
0.379059 0.637085 0.241425
0.655426 0.630737 0.214386
0.843109 0.628082 0.208618
0.887054 0.617188 0.200867
0.086060 0.782532 0.120148
0.101837 0.780334 0.124786
0.115723 0.774261 0.124390
0.148529 0.766785 0.127350
0.246704 0.759308 0.139709
0.559296 0.749451 0.114349
0.762238 0.736786 0.109375
0.861877 0.734955 0.147430
0.067474 0.809998 0.076935
0.081543 0.811981 0.080048
0.094482 0.813080 0.081299
0.106232 0.813721 0.080994
0.218262 0.822876 0.104767
0.481384 0.815918 0.091370
0.694489 0.823822 0.083221
0.846954 0.826935 0.091461
0.017151 0.017548 0.660400
0.091125 0.018036 0.657288
0.264862 0.020538 0.650757
0.476013 0.024841 0.652313
0.697052 0.047760 0.661591
0.889313 0.063873 0.664215
0.934326 0.067352 0.653351
0.959076 0.070679 0.648224
0.027313 0.077148 0.635345
0.061798 0.072083 0.637634
0.220551 0.062958 0.640167
0.443359 0.061615 0.631592
0.673157 0.082550 0.640900
0.878693 0.102325 0.645599
0.936523 0.106537 0.634247
0.960388 0.108948 0.629425
0.055420 0.209961 0.593750
0.072021 0.205566 0.590424
0.175079 0.210114 0.601715
0.360352 0.205597 0.608032
0.624756 0.199341 0.613617
0.854279 0.208313 0.613739
0.940125 0.195557 0.600281
0.960815 0.190948 0.595490
0.097565 0.373840 0.538025
0.114014 0.370758 0.538391
0.167023 0.365997 0.541260
0.324890 0.384155 0.567413
0.555573 0.376831 0.589142
0.796326 0.370331 0.571655
0.917236 0.363037 0.558136
0.940338 0.355591 0.551483
0.137848 0.536346 0.460083
0.154877 0.534607 0.459839
0.173859 0.527222 0.455597
0.292023 0.528809 0.471497
0.533173 0.539856 0.542297
0.769470 0.551056 0.548950
0.917450 0.524292 0.515076
0.938538 0.510437 0.501068
0.161041 0.696381 0.396027
0.176697 0.692963 0.394958
0.192810 0.684204 0.391113
0.273346 0.677063 0.402283
0.407013 0.674835 0.436005
0.679657 0.662262 0.454834
0.874329 0.662811 0.449677
0.921295 0.648956 0.428833
0.141876 0.814117 0.307892
0.160187 0.811554 0.312195
0.177429 0.805573 0.313293
0.214844 0.797546 0.318573
0.323792 0.792664 0.349854
0.580292 0.779663 0.355133
0.790131 0.769562 0.332275
0.891266 0.763733 0.332062
0.126465 0.845764 0.250641
0.144196 0.847565 0.256195
0.160431 0.848297 0.257812
0.174408 0.848297 0.253510
0.275879 0.856293 0.292297
0.498566 0.845978 0.270081
0.712982 0.849762 0.234772
0.867279 0.850922 0.222168
0.019501 0.019928 0.793457
0.095123 0.020599 0.796906
0.272217 0.022949 0.798615
0.466888 0.034271 0.798950
0.682373 0.044128 0.813934
0.865967 0.048035 0.820251
0.915436 0.048798 0.815399
0.945160 0.050415 0.813110
0.030243 0.077576 0.784393
0.064209 0.072113 0.794098
0.229095 0.063843 0.801941
0.435272 0.070465 0.790619
0.656738 0.079132 0.803864
0.853607 0.087555 0.809235
0.918243 0.088715 0.803345
0.947510 0.087738 0.799255
0.060333 0.214905 0.750397
0.077148 0.211060 0.750488
0.179810 0.210022 0.772308
0.361267 0.206909 0.781494
0.597931 0.197479 0.781921
0.825714 0.188934 0.786163
0.924347 0.170776 0.778778
0.951477 0.159668 0.772858
0.093384 0.360352 0.702423
0.109955 0.357361 0.702606
0.167053 0.356415 0.705658
0.320831 0.374725 0.737030
0.523743 0.362457 0.753113
0.778168 0.348999 0.751282
0.930817 0.321350 0.749786
0.958038 0.310638 0.743896
0.137817 0.533569 0.647705
0.154816 0.531677 0.647552
0.170685 0.523560 0.643860
0.287964 0.524017 0.663177
0.497437 0.545776 0.718842
0.748230 0.526459 0.734497
0.918579 0.495209 0.707672
0.947327 0.484161 0.698151
0.187225 0.707886 0.579193
0.203369 0.704437 0.578430
0.219543 0.696136 0.575500
0.305908 0.691376 0.588745
0.443634 0.689697 0.610596
0.705627 0.698334 0.698669
0.903503 0.700531 0.697083
0.958221 0.686737 0.682251
0.194061 0.846405 0.501068
0.214508 0.843475 0.504242
0.233978 0.837616 0.504730
0.274048 0.829590 0.509491
0.398529 0.823792 0.538025
0.599823 0.812408 0.605743
0.818573 0.804565 0.600037
0.930328 0.801544 0.595154
0.181183 0.883759 0.446930
0.201813 0.884644 0.450684
0.220764 0.884583 0.451172
0.238068 0.884003 0.447205
0.349396 0.891968 0.483337
0.528748 0.886230 0.533386
0.740112 0.890472 0.505829
0.903320 0.891724 0.495148
0.020142 0.020477 0.825104
0.093262 0.021301 0.828247
0.270355 0.023621 0.829254
0.463043 0.035553 0.830627
0.676575 0.045135 0.848816
0.859070 0.044189 0.858795
0.911011 0.044434 0.864136
0.940857 0.045288 0.867981
0.029785 0.072937 0.818878
0.061401 0.067444 0.829254
0.230133 0.058899 0.837463
0.432068 0.071991 0.830322
0.650055 0.080353 0.848083
0.844574 0.083618 0.859589
0.913025 0.082733 0.866302
0.942200 0.082153 0.869659
0.061340 0.213287 0.790863
0.078400 0.209595 0.794098
0.179932 0.207336 0.824066
0.362244 0.203247 0.840118
0.591888 0.193787 0.848541
0.814575 0.177917 0.863464
0.916809 0.156799 0.870453
0.944763 0.143707 0.872711
0.096436 0.359802 0.770294
0.113281 0.357025 0.772369
0.168640 0.354248 0.783783
0.320557 0.365448 0.828186
0.517303 0.352722 0.850586
0.765930 0.342834 0.864929
0.920135 0.310883 0.878815
0.949341 0.298096 0.881805
0.137421 0.529419 0.755920
0.153961 0.526611 0.758942
0.168671 0.517731 0.762482
0.289490 0.519043 0.790131
0.490753 0.540955 0.857788
0.722504 0.516449 0.885651
0.901428 0.481354 0.871857
0.939026 0.467590 0.868195
0.184235 0.700073 0.740234
0.200836 0.697601 0.743195
0.216187 0.690460 0.743530
0.300079 0.685516 0.761414
0.435333 0.681091 0.789642
0.674103 0.692780 0.875549
0.893585 0.677338 0.873810
0.960419 0.659393 0.863831
0.228058 0.864716 0.683533
0.249084 0.861755 0.685638
0.270599 0.855164 0.686737
0.309296 0.845306 0.690002
0.450623 0.841003 0.719604
0.648651 0.836121 0.780670
0.846313 0.839478 0.839874
0.966797 0.837189 0.836365
0.229645 0.916077 0.633453
0.253967 0.916931 0.637421
0.276642 0.916992 0.638580
0.297394 0.916412 0.634857
0.413086 0.922607 0.661072
0.596649 0.920929 0.717010
0.766479 0.930725 0.763550
0.936920 0.928802 0.746216
0.021484 0.021332 0.857300
0.094635 0.021820 0.858917
0.271637 0.024292 0.858582
0.461517 0.036804 0.859253
0.673248 0.046265 0.875824
0.854675 0.042084 0.883820
0.908722 0.042053 0.889374
0.938507 0.042816 0.893066
0.031219 0.072968 0.849792
0.062531 0.066986 0.860474
0.232788 0.061218 0.867157
0.431732 0.073303 0.858734
0.646667 0.081665 0.874817
0.840363 0.081787 0.884796
0.910767 0.080475 0.891205
0.940125 0.080353 0.894684
0.062286 0.213287 0.818390
0.079437 0.209320 0.821869
0.181671 0.207397 0.852905
0.363342 0.201569 0.866943
0.590942 0.192444 0.875763
0.811798 0.175629 0.891632
0.914337 0.151123 0.895111
0.942932 0.138519 0.897400
0.097595 0.359863 0.796295
0.114471 0.357483 0.798492
0.168213 0.353180 0.810303
0.321045 0.363922 0.854828
0.516479 0.350311 0.877563
0.763794 0.340332 0.892639
0.918732 0.306305 0.904938
0.948364 0.293304 0.907532
0.136414 0.525635 0.782593
0.152832 0.522797 0.785431
0.167297 0.513092 0.788666
0.291290 0.517334 0.816772
0.487061 0.536499 0.883148
0.714233 0.508331 0.909668
0.896667 0.476410 0.903900
0.936646 0.463562 0.906494
0.183167 0.696289 0.767670
0.199646 0.693573 0.770355
0.215057 0.686584 0.773743
0.295441 0.680450 0.795288
0.432800 0.676727 0.832153
0.664246 0.684113 0.926086
0.884705 0.671844 0.940918
0.952728 0.647827 0.934509
0.226837 0.860596 0.738647
0.247437 0.857178 0.744324
0.269165 0.850281 0.752075
0.304504 0.839630 0.764252
0.444794 0.833374 0.805878
0.627716 0.828247 0.873260
0.832733 0.836914 0.955536
0.962646 0.821716 0.954742
0.242767 0.924652 0.726654
0.269135 0.925903 0.734589
0.294342 0.926727 0.741821
0.319733 0.927948 0.748962
0.443726 0.936066 0.785126
0.619019 0.939392 0.842957
0.793640 0.956024 0.918884
0.966370 0.961487 0.963409
