滤镜资源/Professional Luts Collection/Triune-Digital-Cinematic-LUTs/3D LUTs (CUBE)/LOG/The Revenant - LOG.cube
#Created by Benjamin (IWLTBAP) : http://luts.iwltbap.com
#Copyright: (C) Copyright 2016 Triune Films and IWLTBAP
TITLE "Blockbuster LUTs Pack (LOG)"
#LUT size
LUT_3D_SIZE 5
#LUT data points
DOMAIN_MIN 0.000000 0.000000 0.000000
DOMAIN_MAX 0.903226 0.903226 0.903226
0.000000 0.000000 0.000000
0.096283 0.008423 0.008423
0.321594 0.058105 0.068939
0.533844 0.105133 0.118103
0.582520 0.113831 0.125824
0.017059 0.153015 0.090698
0.100494 0.135254 0.071716
0.347107 0.118439 0.088959
0.587036 0.136353 0.133301
0.617584 0.135742 0.136566
0.091095 0.413696 0.249146
0.094086 0.395081 0.240814
0.355499 0.427917 0.259216
0.644379 0.338196 0.222931
0.725769 0.276398 0.200500
0.182404 0.712677 0.449005
0.183441 0.695068 0.434692
0.271393 0.692017 0.437225
0.635284 0.733368 0.469727
0.814972 0.683563 0.441711
0.232849 0.879303 0.567474
0.239716 0.880066 0.568024
0.253937 0.875214 0.568848
0.565125 0.945618 0.627045
0.790649 0.980286 0.685699
0.001556 0.021362 0.086914
0.127167 0.023376 0.123230
0.358978 0.070038 0.141083
0.568115 0.114227 0.167511
0.610138 0.121948 0.166809
0.019348 0.158661 0.168243
0.097931 0.140320 0.157043
0.360077 0.119141 0.144440
0.594513 0.138428 0.160583
0.629486 0.138733 0.156952
0.091553 0.414246 0.282532
0.094696 0.398071 0.266174
0.352631 0.423248 0.281342
0.644226 0.334045 0.235321
0.728058 0.267578 0.212830
0.182648 0.712921 0.464142
0.185242 0.699829 0.455841
0.267029 0.689972 0.456757
0.637482 0.734558 0.491882
0.818604 0.681458 0.464081
0.232452 0.877808 0.586670
0.239349 0.878815 0.586578
0.254822 0.878937 0.592285
0.561188 0.944733 0.645416
0.792206 0.981812 0.706482
0.014191 0.117340 0.277527
0.037476 0.116089 0.296875
0.395905 0.128845 0.375580
0.637939 0.152985 0.370087
0.681671 0.156494 0.356506
0.031708 0.196045 0.352112
0.043762 0.179382 0.338043
0.364868 0.167664 0.374146
0.646637 0.169525 0.351776
0.690033 0.167450 0.337616
0.096802 0.426788 0.486572
0.098602 0.410706 0.467010
0.323486 0.421967 0.472809
0.675812 0.342377 0.413818
0.776215 0.277191 0.353546
0.188385 0.727234 0.611969
0.191345 0.715393 0.598297
0.212433 0.688873 0.572327
0.627869 0.740448 0.606415
0.840851 0.672974 0.546692
0.230103 0.869904 0.665955
0.237244 0.871552 0.659302
0.252411 0.874207 0.646545
0.551575 0.939301 0.682495
0.799347 0.980835 0.731140
0.034546 0.184937 0.433044
0.058716 0.189911 0.460541
0.342133 0.218842 0.562531
0.650909 0.235870 0.628357
0.705170 0.240387 0.640869
0.050415 0.246155 0.519043
0.063232 0.235260 0.511963
0.279846 0.255707 0.577606
0.640625 0.253723 0.634979
0.712708 0.243103 0.622131
0.108093 0.458801 0.700714
0.110168 0.444214 0.685303
0.181244 0.412994 0.672577
0.645569 0.414673 0.702515
0.779907 0.352509 0.660614
0.197479 0.750885 0.847931
0.200470 0.739105 0.838104
0.216583 0.712494 0.813568
0.591675 0.754517 0.841370
0.853394 0.746094 0.845795
0.216370 0.826660 0.845642
0.222992 0.826721 0.844147
0.236053 0.826721 0.841583
0.519287 0.886871 0.877930
0.896057 0.971588 0.936768
0.039062 0.197327 0.467987
0.062866 0.203278 0.492004
0.324249 0.236847 0.593079
0.652344 0.256439 0.679413
0.703644 0.260712 0.688690
0.053040 0.253723 0.544983
0.067078 0.246948 0.542603
0.238190 0.259308 0.604614
0.629700 0.272461 0.682465
0.714722 0.280121 0.705505
0.106720 0.453979 0.742065
0.107330 0.435059 0.727600
0.136566 0.399323 0.721069
0.612274 0.416473 0.777283
0.750671 0.378937 0.774353
0.201935 0.763031 0.882080
0.206024 0.754547 0.882477
0.220764 0.726624 0.883881
0.571960 0.762634 0.940308
0.842804 0.760101 0.980469
0.349335 0.859589 0.895264
0.390686 0.868134 0.901031
0.478851 0.886780 0.914886
0.788086 0.953735 0.964630
0.997009 0.997009 0.997009
