滤镜资源/Professional Luts Collection/Triune-Digital-Cinematic-LUTs/3D LUTs (CUBE)/LOG/The Matrix - LOG.cube
#Created by Benjamin (IWLTBAP) : http://luts.iwltbap.com
#Copyright: (C) Copyright 2016 Triune Films and IWLTBAP
TITLE "Blockbuster LUTs Pack (LOG)"
#LUT size
LUT_3D_SIZE 32
#LUT data points
0.003540 0.000000 0.007080
0.010162 0.000000 0.007080
0.032288 0.000000 0.007080
0.050537 0.000000 0.007080
0.072052 0.000000 0.010620
0.097961 0.003540 0.016510
0.127258 0.007080 0.021210
0.166382 0.010620 0.025543
0.207916 0.014160 0.031860
0.254059 0.017822 0.038910
0.304626 0.024841 0.045990
0.359741 0.035675 0.049835
0.415527 0.046509 0.057129
0.479675 0.061188 0.064728
0.540680 0.072418 0.070740
0.602386 0.086182 0.077820
0.661591 0.102142 0.084656
0.716827 0.114746 0.092743
0.769012 0.129272 0.100952
0.817596 0.144531 0.112701
0.846191 0.151672 0.119843
0.862457 0.155426 0.123596
0.870026 0.157593 0.125732
0.877380 0.159729 0.127869
0.884766 0.161835 0.130035
0.893402 0.164001 0.132172
0.902954 0.166138 0.134308
0.910400 0.170319 0.136444
0.917755 0.173950 0.138580
0.925140 0.176117 0.140747
0.932495 0.178253 0.142883
0.939850 0.180389 0.145020
0.003540 0.005249 0.007080
0.008759 0.005249 0.009216
0.026215 0.005249 0.007080
0.046661 0.005249 0.009216
0.066467 0.005249 0.012756
0.092133 0.007538 0.016296
0.122375 0.010040 0.021088
0.160950 0.013123 0.026886
0.201965 0.016205 0.030823
0.248413 0.022919 0.037750
0.298096 0.029968 0.044861
0.353271 0.039642 0.051666
0.411377 0.050598 0.056580
0.473480 0.063080 0.063660
0.536713 0.074921 0.070740
0.597229 0.087891 0.076996
0.657745 0.103058 0.083588
0.712067 0.118103 0.091675
0.764313 0.133423 0.099915
0.813477 0.146698 0.111755
0.844543 0.156433 0.119354
0.862457 0.160675 0.123596
0.870026 0.162781 0.125732
0.877930 0.164948 0.127869
0.886871 0.167084 0.130035
0.894257 0.169220 0.132172
0.902954 0.171387 0.134308
0.910400 0.173492 0.136444
0.917755 0.177063 0.138580
0.925140 0.179199 0.140747
0.932495 0.182709 0.142883
0.939850 0.185608 0.145020
0.003540 0.015015 0.007080
0.006622 0.014374 0.007080
0.017212 0.013672 0.010620
0.039551 0.013000 0.012482
0.059082 0.012268 0.016418
0.086273 0.012390 0.018646
0.117615 0.014282 0.022064
0.156860 0.014832 0.026337
0.198883 0.021057 0.032593
0.242584 0.025665 0.039673
0.293365 0.032776 0.043549
0.346893 0.042847 0.050812
0.405853 0.053802 0.056580
0.467407 0.064972 0.063660
0.531464 0.076996 0.070068
0.593475 0.091919 0.074402
0.652832 0.107025 0.082397
0.707886 0.122223 0.090546
0.759338 0.137543 0.099030
0.811096 0.149414 0.110687
0.843445 0.158936 0.118835
0.862457 0.165894 0.123596
0.870026 0.168030 0.125732
0.877930 0.170166 0.127869
0.887421 0.172333 0.130035
0.895660 0.174438 0.132172
0.903015 0.176575 0.134308
0.910400 0.178741 0.136444
0.917755 0.180878 0.138580
0.925140 0.183014 0.140747
0.932495 0.185822 0.142883
0.939850 0.190094 0.145020
0.004669 0.030273 0.011749
0.008759 0.029297 0.011383
0.014923 0.028168 0.010895
0.033478 0.026855 0.013733
0.050934 0.028137 0.019531
0.076355 0.027008 0.022766
0.107391 0.027283 0.028290
0.149200 0.028412 0.027954
0.190765 0.029755 0.034058
0.234253 0.033569 0.038086
0.284943 0.038269 0.045197
0.339386 0.044037 0.048920
0.395782 0.055054 0.056396
0.459473 0.066223 0.063660
0.521393 0.080353 0.068207
0.583496 0.094238 0.074280
0.643005 0.107544 0.081268
0.701935 0.123047 0.088745
0.752655 0.139496 0.099030
0.804077 0.152832 0.108856
0.842010 0.162170 0.118195
0.862457 0.171112 0.123596
0.870026 0.173279 0.125732
0.877930 0.175385 0.127869
0.887421 0.177521 0.130035
0.895660 0.179688 0.132172
0.903015 0.181824 0.134308
0.910400 0.183960 0.136444
0.917755 0.186127 0.138580
0.925140 0.188232 0.140747
0.932495 0.190399 0.142883
0.939850 0.193207 0.145020
0.008698 0.048676 0.019287
0.011444 0.047791 0.016785
0.014099 0.046814 0.015015
0.027374 0.045654 0.014435
0.050659 0.046692 0.017242
0.072968 0.045319 0.024780
0.099915 0.046875 0.029755
0.135040 0.048798 0.032898
0.174469 0.049500 0.038605
0.222778 0.051361 0.041168
0.275848 0.055847 0.043640
0.331146 0.060516 0.049652
0.388519 0.068634 0.054413
0.450592 0.076843 0.060150
0.514130 0.084869 0.066254
0.574829 0.095734 0.074188
0.636017 0.110199 0.078705
0.692535 0.125427 0.086853
0.746460 0.140778 0.098633
0.795868 0.156219 0.107025
0.835999 0.166046 0.116852
0.862640 0.174652 0.123596
0.870026 0.176971 0.125732
0.877930 0.179688 0.127869
0.887421 0.182770 0.130035
0.895660 0.184906 0.132172
0.903015 0.187073 0.134308
0.910400 0.189178 0.136444
0.917755 0.191315 0.138580
0.925140 0.193481 0.140747
0.932495 0.195618 0.142883
0.939850 0.197754 0.145020
0.013062 0.073914 0.027191
0.015839 0.072662 0.024689
0.021057 0.071289 0.022888
0.027710 0.069275 0.020752
0.047882 0.067505 0.021667
0.071381 0.067841 0.024414
0.095276 0.068695 0.030914
0.126740 0.071564 0.039154
0.162201 0.074585 0.043121
0.204285 0.077423 0.047638
0.255768 0.080200 0.050354
0.313416 0.083588 0.053131
0.376007 0.087982 0.056091
0.440735 0.095703 0.059814
0.503906 0.106018 0.065369
0.565094 0.116364 0.071991
0.627625 0.127899 0.080017
0.683990 0.140686 0.088135
0.736816 0.152863 0.096436
0.786469 0.164856 0.105011
0.832031 0.173462 0.115723
0.862640 0.178955 0.123596
0.870117 0.180145 0.125732
0.877930 0.182861 0.127869
0.887421 0.187164 0.130035
0.895660 0.190125 0.132172
0.903015 0.192261 0.134308
0.910400 0.194427 0.136444
0.917755 0.196564 0.138580
0.925140 0.198700 0.140747
0.932495 0.200867 0.142883
0.939850 0.202972 0.145020
0.021057 0.104797 0.035217
0.023834 0.103455 0.034912
0.026611 0.102020 0.033813
0.029114 0.099518 0.031128
0.045959 0.100037 0.026245
0.069641 0.097473 0.025574
0.097107 0.097229 0.028412
0.121613 0.100555 0.042114
0.155731 0.103912 0.048950
0.190399 0.109009 0.054077
0.233887 0.113007 0.056671
0.287567 0.116302 0.061951
0.350098 0.120483 0.061798
0.420532 0.125519 0.064301
0.491730 0.129181 0.066711
0.555847 0.140472 0.073273
0.615356 0.151520 0.078613
0.674286 0.162750 0.088043
0.730530 0.174011 0.094238
0.779877 0.184296 0.106140
0.826660 0.192444 0.113953
0.863098 0.198486 0.123291
0.871948 0.198212 0.125732
0.880920 0.197510 0.127869
0.888275 0.199677 0.130035
0.895660 0.201721 0.132172
0.903015 0.202942 0.134308
0.910400 0.204010 0.136444
0.917755 0.205200 0.138580
0.925140 0.206268 0.140747
0.932495 0.208313 0.142883
0.939850 0.210388 0.145020
0.033905 0.146149 0.047028
0.036469 0.144714 0.045380
0.038910 0.142944 0.042877
0.040924 0.139648 0.042267
0.049927 0.139923 0.038147
0.071167 0.138824 0.033905
0.095123 0.135406 0.033142
0.123047 0.135193 0.039429
0.152008 0.137970 0.049896
0.183929 0.143433 0.058929
0.222412 0.147949 0.065643
0.267822 0.154724 0.071747
0.319000 0.161652 0.076996
0.385254 0.167114 0.078583
0.455658 0.171722 0.082733
0.528198 0.175232 0.085022
0.600433 0.181793 0.086365
0.663635 0.188660 0.089844
0.719696 0.198608 0.095764
0.772766 0.206635 0.106384
0.821899 0.215271 0.115601
0.861359 0.223724 0.125732
0.873535 0.223907 0.128143
0.881470 0.222900 0.128998
0.890991 0.222015 0.130035
0.898529 0.222809 0.132172
0.905365 0.223633 0.134308
0.912201 0.224426 0.136444
0.918945 0.225067 0.138580
0.927917 0.225830 0.140747
0.934662 0.228363 0.142883
0.939850 0.230408 0.145020
0.048340 0.191742 0.057739
0.051117 0.190369 0.055176
0.052246 0.189606 0.054871
0.054169 0.186951 0.052643
0.056091 0.184052 0.050842
0.074036 0.184235 0.045959
0.095825 0.181885 0.041687
0.122589 0.181244 0.040894
0.154510 0.181702 0.043640
0.185883 0.184052 0.057861
0.219482 0.187164 0.068634
0.256348 0.193939 0.078186
0.305389 0.200958 0.086029
0.355499 0.207947 0.091583
0.421906 0.213959 0.097351
0.493591 0.218262 0.098877
0.567963 0.221466 0.100250
0.642578 0.224487 0.101288
0.705872 0.228210 0.103821
0.760895 0.234344 0.109955
0.811707 0.242310 0.119873
0.856171 0.249146 0.126190
0.875488 0.249908 0.130005
0.884460 0.248352 0.131409
0.891846 0.247467 0.133545
0.899200 0.249603 0.135712
0.906586 0.250031 0.137848
0.913940 0.250275 0.139984
0.921326 0.250671 0.141846
0.928680 0.251099 0.143494
0.936035 0.253845 0.145569
0.943420 0.255920 0.147675
0.064362 0.242126 0.067902
0.066833 0.240784 0.067413
0.068756 0.240021 0.067017
0.068634 0.239075 0.066376
0.071167 0.235474 0.063141
0.081482 0.233124 0.058167
0.100189 0.230988 0.054718
0.122986 0.230408 0.049652
0.153259 0.229614 0.048798
0.185699 0.228516 0.051483
0.218781 0.231262 0.062378
0.255768 0.234558 0.076935
0.296570 0.240540 0.088013
0.345276 0.246002 0.099304
0.401093 0.251129 0.108032
0.461334 0.258301 0.114960
0.533478 0.264221 0.118011
0.607086 0.266785 0.119446
0.677307 0.269135 0.120789
0.740906 0.272095 0.124939
0.798828 0.276001 0.126984
0.848145 0.282654 0.134003
0.875488 0.284180 0.139130
0.884460 0.283020 0.139587
0.891846 0.280884 0.140625
0.899200 0.280823 0.142578
0.906586 0.280701 0.144196
0.913940 0.280426 0.143768
0.921326 0.282074 0.145660
0.928680 0.282440 0.146271
0.936035 0.284393 0.147614
0.943420 0.286438 0.149750
0.078156 0.289185 0.079742
0.080719 0.289490 0.079498
0.083313 0.287903 0.079254
0.085388 0.286682 0.076782
0.087006 0.284302 0.074646
0.092651 0.280762 0.074005
0.106049 0.280640 0.066681
0.129578 0.278748 0.064911
0.153992 0.277130 0.058746
0.184540 0.277252 0.056580
0.221283 0.276611 0.058838
0.257202 0.277405 0.071899
0.296021 0.280792 0.087952
0.338440 0.284546 0.101135
0.388977 0.291565 0.114227
0.446411 0.296997 0.121246
0.506805 0.302612 0.128784
0.574219 0.309570 0.135254
0.644867 0.313141 0.138763
0.709015 0.316803 0.140656
0.770996 0.320374 0.143463
0.829742 0.320557 0.146301
0.871948 0.320801 0.147491
0.881409 0.317749 0.145630
0.890991 0.314514 0.147430
0.899200 0.312317 0.146729
0.906586 0.312286 0.148438
0.913940 0.312592 0.150604
0.921326 0.313080 0.152283
0.928680 0.313568 0.151764
0.936035 0.315491 0.153137
0.943420 0.317535 0.155243
0.092438 0.341309 0.092224
0.095001 0.339722 0.091949
0.097839 0.338318 0.090607
0.100342 0.335846 0.087677
0.101746 0.333130 0.087158
0.103516 0.329437 0.086395
0.115387 0.327972 0.080994
0.135925 0.325470 0.075500
0.157837 0.324493 0.073669
0.186768 0.323639 0.065796
0.220123 0.322693 0.061432
0.257690 0.321747 0.067596
0.298462 0.324585 0.080261
0.341797 0.327240 0.098938
0.388000 0.332367 0.114685
0.434753 0.339508 0.127411
0.494873 0.343323 0.138184
0.555389 0.350555 0.145386
0.619171 0.357849 0.152679
0.682465 0.361115 0.158356
0.743500 0.363953 0.160522
0.804688 0.365692 0.164642
0.852905 0.366791 0.165955
0.869904 0.362335 0.164185
0.881744 0.357788 0.162415
0.891846 0.354431 0.161011
0.899811 0.354156 0.162170
0.910309 0.351562 0.161285
0.919006 0.350525 0.160858
0.926880 0.350494 0.162018
0.934296 0.352386 0.162689
0.941711 0.352539 0.162598
0.110260 0.389771 0.104645
0.112854 0.388397 0.104095
0.115417 0.387726 0.102173
0.117615 0.385712 0.101257
0.119080 0.382385 0.099640
0.121429 0.378571 0.098938
0.126038 0.377686 0.094818
0.142944 0.377075 0.089844
0.163757 0.373810 0.084595
0.192108 0.372864 0.081909
0.222076 0.372009 0.073761
0.259583 0.371887 0.069641
0.302338 0.371063 0.073792
0.343292 0.374084 0.090759
0.387787 0.376801 0.109283
0.437042 0.379730 0.128510
0.487061 0.385986 0.141327
0.544220 0.392120 0.154968
0.604462 0.395874 0.162598
0.660706 0.403290 0.170013
0.718109 0.407104 0.177551
0.776550 0.411011 0.181213
0.834167 0.410889 0.184418
0.854126 0.407471 0.182373
0.866730 0.404053 0.182587
0.877960 0.401093 0.181702
0.886993 0.398682 0.180603
0.896912 0.397827 0.181641
0.906281 0.395111 0.182129
0.916565 0.394806 0.181152
0.925110 0.396667 0.181030
0.932495 0.398743 0.180969
0.127930 0.443054 0.117340
0.128998 0.441711 0.117096
0.130096 0.440094 0.116089
0.132721 0.437927 0.113190
0.134583 0.435486 0.112427
0.136444 0.432159 0.111816
0.138580 0.428436 0.110016
0.152618 0.428040 0.103302
0.170685 0.427155 0.098999
0.196960 0.423126 0.094696
0.225098 0.422302 0.088013
0.261475 0.422089 0.081085
0.301636 0.421936 0.078003
0.347687 0.421234 0.084137
0.392395 0.424072 0.102814
0.437805 0.425812 0.124939
0.488892 0.427704 0.142456
0.536926 0.433807 0.158051
0.592407 0.437927 0.168976
0.651520 0.441559 0.179962
0.701752 0.446136 0.187500
0.754089 0.450592 0.194641
0.809845 0.452972 0.199585
0.838379 0.451111 0.200867
0.854401 0.446594 0.199280
0.864044 0.443604 0.200256
0.874023 0.443512 0.199249
0.884033 0.441467 0.198303
0.894104 0.439758 0.198303
0.904083 0.439728 0.199768
0.912231 0.440216 0.199677
0.919647 0.440094 0.199615
0.143341 0.492950 0.130035
0.145905 0.491547 0.129791
0.148499 0.490143 0.129547
0.150818 0.488068 0.128082
0.153046 0.485718 0.125183
0.154785 0.482330 0.124542
0.156555 0.478729 0.121735
0.165375 0.477753 0.116852
0.180542 0.475311 0.111816
0.202881 0.473602 0.107513
0.231934 0.472534 0.103119
0.263428 0.471558 0.096771
0.301483 0.470306 0.087250
0.346741 0.469116 0.086395
0.394135 0.471344 0.096130
0.442352 0.469666 0.116852
0.488464 0.472137 0.137207
0.539948 0.476013 0.157349
0.586975 0.480103 0.171875
0.638031 0.483978 0.186432
0.692261 0.484375 0.196259
0.742767 0.487732 0.205109
0.793091 0.491302 0.212402
0.828857 0.490356 0.216278
0.844116 0.488617 0.215820
0.854614 0.485352 0.215515
0.864685 0.485077 0.214996
0.874695 0.482971 0.216644
0.884033 0.480743 0.215973
0.891937 0.479950 0.216400
0.900726 0.481873 0.218414
0.910278 0.481781 0.218384
0.161926 0.538574 0.144257
0.163391 0.537445 0.142609
0.166229 0.536377 0.142365
0.166595 0.534790 0.139648
0.168243 0.532990 0.138214
0.170105 0.530273 0.136871
0.171906 0.527435 0.133484
0.173553 0.524200 0.132568
0.192596 0.521973 0.126221
0.212708 0.521362 0.120483
0.237091 0.520447 0.115021
0.268707 0.519287 0.111755
0.304443 0.518280 0.102386
0.345734 0.516754 0.095856
0.395386 0.516144 0.094940
0.445404 0.515594 0.106659
0.492523 0.514832 0.130524
0.539276 0.517700 0.153931
0.588074 0.519043 0.174438
0.634918 0.521454 0.189331
0.681122 0.522980 0.200439
0.733154 0.524231 0.211670
0.782867 0.526489 0.219788
0.820160 0.528534 0.227966
0.841461 0.526703 0.228912
0.849670 0.522308 0.229889
0.858795 0.521729 0.229767
0.867950 0.521332 0.229614
0.875305 0.519196 0.231262
0.885284 0.519440 0.232880
0.893433 0.520142 0.233704
0.900848 0.520050 0.233704
0.177277 0.580444 0.159363
0.179871 0.579376 0.159088
0.182465 0.578217 0.157837
0.184845 0.576721 0.155029
0.187103 0.574921 0.154572
0.189056 0.572479 0.152313
0.190887 0.571838 0.149841
0.192535 0.569916 0.148895
0.203674 0.566742 0.142212
0.222839 0.566010 0.135925
0.244019 0.563293 0.129150
0.274323 0.563202 0.124786
0.308472 0.559296 0.117676
0.347290 0.559235 0.111511
0.394592 0.558441 0.104462
0.443146 0.557953 0.105927
0.493530 0.557190 0.123810
0.542053 0.556488 0.147705
0.587280 0.556732 0.168976
0.632843 0.558319 0.188782
0.679596 0.559875 0.205994
0.723022 0.561584 0.218201
0.770905 0.563202 0.229492
0.815704 0.564514 0.235779
0.842316 0.563477 0.242096
0.849670 0.561737 0.241821
0.857056 0.559052 0.241211
0.864594 0.558685 0.242737
0.872437 0.558502 0.244385
0.881927 0.556671 0.245911
0.890045 0.557922 0.245819
0.897400 0.558990 0.246674
0.196259 0.622589 0.172424
0.198822 0.621460 0.172150
0.201416 0.620361 0.171906
0.203857 0.618896 0.170502
0.206146 0.617157 0.169037
0.208099 0.614655 0.167816
0.209961 0.613953 0.166473
0.211609 0.612305 0.164398
0.215088 0.609161 0.160309
0.232788 0.605865 0.153687
0.252625 0.605804 0.145599
0.279419 0.604279 0.139404
0.312775 0.601959 0.133514
0.350586 0.601715 0.127014
0.393127 0.601196 0.118530
0.444183 0.599823 0.116730
0.492401 0.596863 0.119629
0.544495 0.595886 0.139618
0.589783 0.595032 0.165283
0.634125 0.595551 0.185944
0.677917 0.597137 0.206390
0.721344 0.598877 0.221191
0.765259 0.600555 0.232544
0.806519 0.601807 0.246948
0.840759 0.602783 0.251373
0.850952 0.598694 0.252808
0.860474 0.598236 0.254242
0.867950 0.595947 0.255859
0.875305 0.594940 0.255493
0.882690 0.593262 0.255585
0.890045 0.594482 0.257690
0.897400 0.596527 0.259796
0.215424 0.665131 0.189056
0.218018 0.664032 0.188812
0.220612 0.662903 0.188568
0.223022 0.661499 0.186127
0.225433 0.659973 0.184814
0.227386 0.657440 0.183685
0.229340 0.654907 0.182526
0.230225 0.651917 0.180328
0.229675 0.648651 0.176697
0.245575 0.648926 0.171143
0.265594 0.646118 0.165222
0.287292 0.645325 0.155396
0.317566 0.645020 0.150330
0.354553 0.641266 0.145935
0.393127 0.640869 0.136353
0.441711 0.640350 0.129822
0.490936 0.639709 0.127197
0.541260 0.636658 0.135162
0.588715 0.634674 0.155182
0.635345 0.633911 0.179443
0.677704 0.636414 0.201019
0.718933 0.636322 0.221436
0.764038 0.637878 0.239075
0.802216 0.639771 0.250488
0.839203 0.639130 0.259613
0.852783 0.637695 0.262604
0.860474 0.635284 0.263947
0.867950 0.633667 0.265594
0.875305 0.632507 0.267212
0.882690 0.631012 0.268860
0.890045 0.631409 0.270935
0.897400 0.633484 0.273071
0.234833 0.704651 0.206512
0.237366 0.703491 0.205963
0.239929 0.702332 0.204742
0.242340 0.700897 0.201935
0.244751 0.699860 0.201111
0.246735 0.698242 0.199585
0.246826 0.698120 0.198425
0.249237 0.695129 0.196259
0.249115 0.691833 0.192627
0.256866 0.688599 0.187927
0.276215 0.688751 0.182037
0.298462 0.685059 0.175171
0.323792 0.684967 0.167175
0.358337 0.684540 0.162323
0.397095 0.680725 0.155884
0.439545 0.680176 0.145721
0.489288 0.679657 0.142365
0.538025 0.677582 0.139954
0.587219 0.675812 0.148590
0.635010 0.673920 0.172852
0.679840 0.673126 0.197449
0.721100 0.673950 0.218475
0.759186 0.674500 0.238617
0.801056 0.676056 0.254089
0.841492 0.675873 0.268127
0.855621 0.675781 0.272491
0.862061 0.672577 0.273743
0.868896 0.671783 0.275360
0.875305 0.669830 0.277008
0.882690 0.670166 0.278625
0.890045 0.670593 0.280731
0.897400 0.670624 0.282837
0.254333 0.744446 0.222473
0.256897 0.743317 0.221985
0.259430 0.742798 0.221436
0.261841 0.741608 0.220764
0.264282 0.740479 0.218597
0.266357 0.738922 0.215576
0.267334 0.738159 0.214539
0.266602 0.735107 0.212341
0.268311 0.732086 0.208801
0.271362 0.728760 0.207642
0.289459 0.727081 0.201691
0.310333 0.725281 0.195251
0.334320 0.725189 0.185150
0.362793 0.725006 0.178680
0.400940 0.721069 0.173767
0.440247 0.720703 0.165558
0.487274 0.720123 0.156006
0.536194 0.716736 0.154144
0.583649 0.715271 0.154053
0.629822 0.714386 0.166138
0.678131 0.713623 0.190735
0.719696 0.712585 0.211884
0.761322 0.713684 0.233307
0.799774 0.713745 0.254608
0.841461 0.712982 0.271667
0.864258 0.711731 0.278900
0.871216 0.709900 0.282776
0.876709 0.708435 0.285004
0.882080 0.707153 0.286835
0.888977 0.707581 0.288483
0.894897 0.707336 0.290588
0.900970 0.708130 0.292694
0.273956 0.784454 0.238586
0.276520 0.783356 0.238098
0.279083 0.782196 0.237579
0.281555 0.780823 0.236938
0.283966 0.779327 0.234833
0.286072 0.777130 0.234344
0.288208 0.776794 0.232056
0.289154 0.775665 0.229492
0.288666 0.772522 0.228088
0.289734 0.769287 0.225006
0.301392 0.768250 0.219360
0.323059 0.765900 0.212891
0.345978 0.765015 0.205353
0.368896 0.763336 0.195404
0.404663 0.761627 0.190094
0.443848 0.760834 0.184814
0.485077 0.758392 0.175079
0.532043 0.756622 0.170502
0.579926 0.754913 0.167419
0.626373 0.753235 0.168304
0.672974 0.751495 0.180389
0.718048 0.749878 0.205109
0.759918 0.748810 0.230042
0.799927 0.750092 0.251526
0.837280 0.750153 0.269775
0.870483 0.748016 0.286652
0.878418 0.744232 0.289948
0.885101 0.744324 0.291565
0.891357 0.744141 0.293213
0.896088 0.742462 0.294891
0.901245 0.743652 0.296967
0.908051 0.745697 0.299072
0.293854 0.823181 0.256561
0.296448 0.822357 0.256348
0.298950 0.821320 0.256042
0.301361 0.820221 0.253876
0.303833 0.819122 0.252563
0.306061 0.817657 0.251617
0.308105 0.815643 0.248444
0.309113 0.813721 0.246735
0.308685 0.811401 0.245117
0.309692 0.808807 0.241791
0.311310 0.806274 0.241028
0.336609 0.803467 0.232819
0.358582 0.803131 0.225830
0.382996 0.801270 0.215515
0.410736 0.799042 0.208801
0.448242 0.798584 0.201416
0.485565 0.796417 0.195923
0.528442 0.796051 0.187012
0.574615 0.792847 0.184540
0.622559 0.791382 0.180023
0.667664 0.789703 0.182678
0.712738 0.788147 0.198242
0.758270 0.786560 0.223267
0.800446 0.786377 0.245392
0.838654 0.786255 0.266541
0.874237 0.786255 0.287231
0.884521 0.782501 0.292908
0.892700 0.782410 0.297668
0.897827 0.780609 0.300354
0.903931 0.779663 0.304138
0.911255 0.780212 0.306976
0.916473 0.780090 0.309052
0.313751 0.858673 0.274841
0.316315 0.857544 0.274353
0.318878 0.856384 0.273834
0.321320 0.857422 0.273163
0.323761 0.856964 0.271027
0.325958 0.855072 0.268097
0.328156 0.853058 0.267181
0.329163 0.850372 0.265137
0.328705 0.848816 0.261566
0.329803 0.846924 0.259613
0.331390 0.844238 0.257874
0.347046 0.841675 0.253021
0.370941 0.838837 0.245941
0.393463 0.838959 0.236176
0.418060 0.836578 0.226776
0.449463 0.836395 0.221466
0.488403 0.833954 0.215546
0.527496 0.831909 0.207581
0.572144 0.831085 0.201569
0.617096 0.827911 0.197235
0.663971 0.828003 0.196259
0.710938 0.824707 0.200012
0.753052 0.824707 0.216370
0.798737 0.821259 0.241486
0.837646 0.821167 0.263702
0.874023 0.821014 0.285339
0.894684 0.819733 0.300781
0.903168 0.818420 0.306610
0.908508 0.816650 0.310364
0.913483 0.814941 0.314178
0.919189 0.814758 0.318420
0.926514 0.814667 0.322662
0.335358 0.894928 0.295746
0.337402 0.894287 0.294952
0.339508 0.893707 0.293488
0.341431 0.892670 0.290405
0.343872 0.891541 0.289062
0.346222 0.890289 0.288239
0.348450 0.888794 0.285248
0.350250 0.886597 0.282684
0.350006 0.884338 0.281372
0.350311 0.881805 0.278290
0.351715 0.879303 0.274902
0.356720 0.876648 0.272156
0.381836 0.877350 0.264618
0.405029 0.874542 0.258850
0.428833 0.872253 0.250031
0.456940 0.872162 0.239594
0.490753 0.869019 0.232971
0.529144 0.869507 0.227661
0.569794 0.866180 0.218994
0.613068 0.866394 0.214478
0.659912 0.863129 0.211273
0.705414 0.861603 0.210907
0.751129 0.859833 0.215424
0.795197 0.858582 0.236298
0.839447 0.856323 0.264954
0.879028 0.855621 0.294769
0.905151 0.852570 0.314148
0.918243 0.850403 0.322357
0.922455 0.851349 0.327606
0.929047 0.849792 0.331390
0.934967 0.849609 0.335602
0.940186 0.849548 0.339844
0.351624 0.906097 0.307922
0.354675 0.906067 0.307892
0.357758 0.906067 0.307159
0.360809 0.906036 0.304993
0.363922 0.906311 0.304352
0.366852 0.908356 0.304321
0.368835 0.908356 0.303314
0.371429 0.907959 0.300507
0.372009 0.907593 0.299896
0.373260 0.906799 0.297333
0.375366 0.906311 0.294495
0.379364 0.905365 0.293579
0.398041 0.904327 0.289032
0.424377 0.903290 0.283966
0.448181 0.904327 0.277527
0.475555 0.904388 0.268341
0.502960 0.903046 0.260223
0.537231 0.902527 0.252167
0.576508 0.901398 0.245544
0.619690 0.898132 0.244537
0.666718 0.897430 0.245239
0.712189 0.894989 0.247345
0.757629 0.892609 0.249695
0.801483 0.890167 0.256073
0.845184 0.888062 0.279358
0.886963 0.885132 0.308380
0.918182 0.884460 0.331360
0.932617 0.882416 0.342102
0.938812 0.882599 0.345337
0.943512 0.881317 0.348602
0.948608 0.881134 0.352783
0.953918 0.881073 0.357025
0.360382 0.913635 0.314514
0.363464 0.913635 0.314514
0.366547 0.913635 0.313751
0.369629 0.913635 0.311615
0.372711 0.913635 0.310944
0.375702 0.913727 0.310944
0.376648 0.913727 0.310944
0.378540 0.913727 0.310028
0.381592 0.913696 0.307800
0.384491 0.913666 0.305756
0.387573 0.913757 0.303619
0.392395 0.915619 0.303314
0.404541 0.916321 0.303131
0.432800 0.915833 0.299194
0.459503 0.915314 0.294861
0.487946 0.915161 0.289764
0.519989 0.917206 0.284790
0.553253 0.917542 0.281433
0.590271 0.916595 0.279114
0.634125 0.915680 0.278290
0.679810 0.914856 0.281860
0.724701 0.914215 0.286102
0.769226 0.915710 0.289856
0.810852 0.914276 0.298767
0.854218 0.912842 0.313538
0.893280 0.912933 0.330780
0.929047 0.913971 0.348511
0.949341 0.910950 0.364960
0.955292 0.910614 0.369019
0.959625 0.911621 0.374573
0.964752 0.911469 0.380096
0.969971 0.911407 0.386444
0.368958 0.918976 0.322968
0.372040 0.918976 0.322968
0.375122 0.919708 0.322205
0.378204 0.920990 0.320099
0.381287 0.920990 0.319427
0.384369 0.920990 0.319427
0.387268 0.920990 0.319427
0.389069 0.920990 0.318573
0.392120 0.920990 0.316437
0.395203 0.920990 0.315918
0.398315 0.920990 0.314209
0.401703 0.921295 0.312347
0.412201 0.922485 0.312347
0.437653 0.922485 0.309387
0.468964 0.922485 0.307312
0.498016 0.924561 0.305267
0.529785 0.926025 0.300232
