滤镜资源/Professional Luts Collection/Triune-Digital-Cinematic-LUTs/3D LUTs (CUBE)/LOG/The Conjuring - LOG.cube
#Created by Benjamin (IWLTBAP) : http://luts.iwltbap.com
#Copyright: (C) Copyright 2016 Triune Films and IWLTBAP
TITLE "Blockbuster LUTs Pack (LOG)"
#LUT size
LUT_3D_SIZE 8
#LUT data points
DOMAIN_MIN 0.000000 0.000000 0.000000
DOMAIN_MAX 0.903226 0.903226 0.903226
0.006958 0.007965 0.010254
0.042816 0.011108 0.012390
0.127869 0.027618 0.022980
0.250458 0.050018 0.036346
0.380585 0.076233 0.056732
0.495911 0.095642 0.070282
0.521851 0.099609 0.072845
0.542938 0.102783 0.074860
0.011383 0.050690 0.019135
0.039093 0.051544 0.019592
0.136353 0.061371 0.029846
0.263885 0.078125 0.043823
0.382935 0.092651 0.059845
0.506470 0.112427 0.073456
0.539093 0.117920 0.076782
0.559479 0.121796 0.079559
0.023163 0.123016 0.033630
0.035095 0.122223 0.033295
0.124725 0.129181 0.028198
0.292664 0.152039 0.059052
0.429535 0.165863 0.073212
0.550598 0.184265 0.089020
0.590088 0.184845 0.094788
0.606323 0.184418 0.096680
0.050385 0.205383 0.045349
0.064667 0.205536 0.044220
0.131989 0.212402 0.035950
0.273743 0.224091 0.046539
0.456512 0.246674 0.086426
0.586182 0.273285 0.111298
0.652039 0.283905 0.123840
0.666626 0.282104 0.125458
0.106323 0.305328 0.064178
0.128815 0.307892 0.061096
0.169159 0.310730 0.055420
0.299042 0.322235 0.054657
0.454346 0.334290 0.085114
0.613953 0.368958 0.131470
0.717316 0.396271 0.158112
0.730927 0.393372 0.160400
0.166351 0.417389 0.095642
0.192627 0.422607 0.095490
0.217621 0.423828 0.093842
0.340546 0.440460 0.086914
0.499939 0.457764 0.102905
0.629578 0.474823 0.139099
0.766296 0.515350 0.189636
0.797546 0.516876 0.195282
0.247742 0.550598 0.138824
0.272980 0.555237 0.140015
0.298187 0.557556 0.139740
0.376404 0.572296 0.134521
0.534088 0.610229 0.141357
0.676117 0.624878 0.162750
0.787415 0.630951 0.194427
0.851898 0.646240 0.222198
0.275208 0.591492 0.153015
0.304016 0.601471 0.156525
0.334290 0.611969 0.159637
0.372253 0.623993 0.159576
0.536285 0.677917 0.161041
0.684326 0.713226 0.175171
0.804932 0.728363 0.198517
0.883331 0.742065 0.227600
0.006836 0.007721 0.046204
0.044464 0.011932 0.053009
0.131104 0.027832 0.059662
0.244781 0.048065 0.063568
0.366425 0.072144 0.074524
0.486328 0.093506 0.081085
0.513947 0.098083 0.083893
0.534943 0.100922 0.085785
0.011383 0.049408 0.057190
0.038910 0.051422 0.057953
0.136353 0.064636 0.060852
0.258270 0.076874 0.063202
0.380005 0.093475 0.073425
0.503693 0.113953 0.087646
0.538025 0.119171 0.090698
0.557434 0.122437 0.092804
0.018372 0.122070 0.049835
0.035065 0.122864 0.050659
0.129578 0.132202 0.045624
0.293549 0.155975 0.075928
0.428467 0.171356 0.090332
0.551514 0.187042 0.104034
0.591339 0.186676 0.109344
0.605743 0.184753 0.110565
0.042236 0.201477 0.059143
0.065826 0.208588 0.062378
0.137482 0.216980 0.054626
0.281952 0.230164 0.068176
0.458862 0.252136 0.102753
0.589630 0.279724 0.127472
0.657166 0.291046 0.140717
0.670990 0.288483 0.142151
0.091675 0.299622 0.078644
0.123566 0.309021 0.080536
0.165955 0.312225 0.074799
0.304840 0.328857 0.075500
0.460693 0.341370 0.104492
0.615631 0.375977 0.149963
0.722778 0.405792 0.178955
0.736359 0.402771 0.181396
0.151337 0.407928 0.105194
0.185699 0.421265 0.113373
0.209473 0.423401 0.113403
0.338409 0.445953 0.107544
0.504395 0.467102 0.122101
0.632660 0.482849 0.156921
0.770752 0.525177 0.211090
0.802612 0.526093 0.216095
0.228210 0.540100 0.151733
0.261078 0.553589 0.159454
0.286285 0.556763 0.160065
0.364105 0.574585 0.160431
0.533478 0.616394 0.159637
0.678802 0.633148 0.180328
0.789551 0.639130 0.212738
0.855347 0.654846 0.243622
0.256256 0.582916 0.165863
0.293213 0.601776 0.176575
0.322968 0.612579 0.180939
0.359100 0.626282 0.185974
0.533783 0.682953 0.183990
0.686890 0.722839 0.194122
0.808411 0.738312 0.215485
0.886597 0.751221 0.246033
0.007812 0.011383 0.108765
0.041046 0.016113 0.113037
0.114868 0.030823 0.123444
0.236084 0.052246 0.133423
0.358795 0.074951 0.141174
0.473877 0.098816 0.150513
0.504150 0.103516 0.146729
0.525879 0.106140 0.144623
0.013611 0.050751 0.121643
0.037781 0.052490 0.123322
0.118011 0.058136 0.125702
0.240509 0.073273 0.130859
0.362640 0.091919 0.138397
0.486511 0.116516 0.147614
0.523590 0.121246 0.143433
0.544128 0.123383 0.140686
0.024780 0.123016 0.139893
0.035461 0.122101 0.138306
0.117950 0.142395 0.151550
0.281891 0.166992 0.155090
0.419739 0.185883 0.162903
0.543121 0.196198 0.163483
0.586731 0.189209 0.154266
0.601562 0.186005 0.149902
0.031586 0.204346 0.132629
0.043701 0.206665 0.131653
0.123474 0.229797 0.140106
0.293457 0.247559 0.132629
0.458405 0.268707 0.153534
0.597321 0.292084 0.162628
0.664673 0.299011 0.162750
0.677032 0.294952 0.161011
0.064026 0.288452 0.107880
0.090515 0.296051 0.110809
0.152863 0.313477 0.108673
0.306488 0.334412 0.098999
0.463928 0.347107 0.125061
0.616119 0.382172 0.169312
0.727844 0.414825 0.200775
0.741577 0.411438 0.202820
0.135986 0.397766 0.116669
0.170410 0.410797 0.121948
0.203308 0.421417 0.130096
0.329559 0.449188 0.132050
0.505432 0.474121 0.141876
0.634491 0.490448 0.178345
0.773407 0.534332 0.234375
0.807831 0.536316 0.240967
0.208496 0.528351 0.163513
0.240479 0.541351 0.171021
0.274719 0.553864 0.179169
0.348022 0.573181 0.184357
0.529907 0.619568 0.180847
0.680939 0.640686 0.198669
0.791809 0.646851 0.233124
0.858795 0.663696 0.267761
0.237427 0.573090 0.178955
0.274200 0.592651 0.189423
0.312408 0.612671 0.201172
0.345093 0.625641 0.207031
0.530701 0.686798 0.210083
0.687683 0.731537 0.214844
0.810913 0.748322 0.234741
0.889984 0.760803 0.266266
0.014709 0.027161 0.187988
0.044586 0.028778 0.185150
0.110748 0.043518 0.196991
0.210693 0.060486 0.206665
0.349670 0.080841 0.212860
0.464172 0.104095 0.222382
0.495514 0.108673 0.218384
0.517883 0.111755 0.216309
0.021667 0.064941 0.200104
0.044189 0.067993 0.203979
0.104004 0.068542 0.201019
0.211304 0.075439 0.204315
0.350220 0.097076 0.211212
0.474213 0.122986 0.221954
0.515411 0.129425 0.218567
0.538666 0.132904 0.216705
0.031799 0.130585 0.218445
0.042603 0.130768 0.218475
0.099457 0.148132 0.235382
0.226257 0.158905 0.232513
0.388947 0.177979 0.234833
0.523132 0.197968 0.240845
0.572540 0.193146 0.231171
0.588318 0.188965 0.225708
0.042236 0.208130 0.233612
0.053162 0.209564 0.233856
0.092834 0.221619 0.242157
0.227173 0.264404 0.273468
0.445831 0.302795 0.281555
0.586975 0.327850 0.292664
0.667847 0.327362 0.282715
0.680695 0.316559 0.270752
0.052979 0.295319 0.236450
0.064240 0.299225 0.238098
0.082886 0.302368 0.235107
0.270844 0.368683 0.257324
0.462585 0.391418 0.266846
0.630463 0.433777 0.300659
0.751312 0.464233 0.318420
0.766510 0.457336 0.309113
0.079041 0.391266 0.214508
0.099152 0.394165 0.210205
0.124115 0.394592 0.203033
0.304291 0.458191 0.226593
0.497498 0.492554 0.225433
0.641937 0.517609 0.257599
0.782715 0.560486 0.305634
0.817932 0.561035 0.302856
0.164368 0.494659 0.196655
0.192932 0.506653 0.199799
0.228363 0.522369 0.204346
0.319733 0.568573 0.229584
0.520203 0.621826 0.222656
0.680206 0.649292 0.229889
0.792572 0.653442 0.255920
0.861481 0.671967 0.295776
0.209442 0.556763 0.196930
0.246613 0.577789 0.206665
0.288025 0.600128 0.215546
0.335480 0.625641 0.226074
0.523834 0.688904 0.237854
0.685822 0.739471 0.241272
0.811615 0.757599 0.257446
0.893188 0.770325 0.290070
0.026123 0.049255 0.275848
0.052429 0.047119 0.268707
0.111877 0.060272 0.277985
0.205200 0.081238 0.294525
0.313232 0.090424 0.293182
0.451141 0.112396 0.299683
0.487915 0.119690 0.298340
0.513428 0.124481 0.297516
0.032104 0.084229 0.286377
0.052155 0.086243 0.289185
0.102997 0.082031 0.280579
0.197235 0.095001 0.292297
0.314758 0.105896 0.291809
0.462097 0.132141 0.301300
0.509308 0.142273 0.301300
0.534576 0.147217 0.300446
0.043243 0.151031 0.308136
0.053955 0.151337 0.308350
0.104797 0.165985 0.322906
0.191833 0.170044 0.322388
0.343384 0.182434 0.318085
0.501709 0.203522 0.324860
0.562378 0.204926 0.318787
0.580261 0.201538 0.313019
0.052795 0.220642 0.325226
0.063965 0.222229 0.326447
0.100311 0.232208 0.334381
0.195892 0.269470 0.366150
0.363953 0.289581 0.364441
0.558502 0.319611 0.367706
0.654419 0.327271 0.363770
0.672302 0.321381 0.355194
0.064880 0.300140 0.337097
0.077332 0.302917 0.338623
0.091675 0.303741 0.337616
0.193481 0.348755 0.373871
0.378632 0.411438 0.413818
0.620422 0.467621 0.434479
0.743988 0.487244 0.442871
0.758759 0.475372 0.429077
0.082001 0.390625 0.344269
0.094849 0.394684 0.345734
0.107910 0.396820 0.344452
0.185730 0.433624 0.364227
0.456635 0.540619 0.402130
0.640778 0.569031 0.432251
0.795807 0.619324 0.475037
0.836426 0.621521 0.473145
0.107635 0.500366 0.342529
0.125458 0.507019 0.342346
0.145050 0.511475 0.338501
0.195282 0.523529 0.328461
0.488678 0.647461 0.387146
0.672577 0.679352 0.388245
0.801880 0.703125 0.429260
0.878235 0.724426 0.457214
0.130798 0.537415 0.306732
0.155731 0.546265 0.303467
0.184357 0.554565 0.300415
0.226532 0.563202 0.292938
0.489410 0.705658 0.376801
0.673431 0.759277 0.375122
0.813477 0.788361 0.374756
0.905762 0.804016 0.401428
0.034943 0.067200 0.342468
0.058502 0.062836 0.335175
0.112061 0.073792 0.344757
0.198395 0.096710 0.368134
0.303955 0.120300 0.390076
0.413788 0.124298 0.382965
0.458893 0.127075 0.377960
0.487244 0.131134 0.377228
0.041962 0.102539 0.362946
0.060089 0.104340 0.367279
0.105530 0.095184 0.356506
0.187714 0.110535 0.370636
0.298950 0.137787 0.395233
0.422272 0.142181 0.386047
0.480804 0.148621 0.382629
0.511597 0.154572 0.381958
0.054352 0.171356 0.396576
0.064972 0.171387 0.397766
0.115265 0.185486 0.414398
0.184113 0.186737 0.415283
0.296417 0.200867 0.419647
0.454376 0.209564 0.412201
0.539307 0.211060 0.403564
0.563080 0.209106 0.398926
0.065491 0.240234 0.417145
0.077698 0.242157 0.419006
0.112732 0.251434 0.427765
0.202087 0.288208 0.462372
0.305267 0.297760 0.473297
0.503174 0.327362 0.462555
0.636688 0.338593 0.458679
0.657776 0.335236 0.452667
0.080719 0.315277 0.435242
0.093323 0.318359 0.437347
0.105438 0.318085 0.435760
0.194702 0.356598 0.470062
0.334198 0.412720 0.520630
0.551025 0.455750 0.519104
0.724731 0.480957 0.524536
0.746033 0.472168 0.513824
0.096771 0.397247 0.445343
0.110260 0.401245 0.448120
0.123535 0.403015 0.448456
0.188263 0.431091 0.470459
0.338989 0.509857 0.533417
0.618530 0.604248 0.573242
0.794495 0.641235 0.597321
0.838257 0.639557 0.590210
0.117950 0.492004 0.453186
0.131592 0.496552 0.455536
0.145538 0.500275 0.456177
0.177307 0.514008 0.463409
0.331177 0.609375 0.520996
0.662048 0.721039 0.557220
0.806335 0.740845 0.587250
0.886688 0.760834 0.608521
0.124359 0.534668 0.444305
0.139984 0.544952 0.448425
0.156769 0.556610 0.452148
0.176971 0.572052 0.454834
0.344330 0.656616 0.468475
0.662842 0.788757 0.540283
0.814575 0.824493 0.543793
0.917969 0.845337 0.575897
0.037262 0.072113 0.359039
0.058716 0.066559 0.350708
0.110474 0.076630 0.358948
0.194855 0.098969 0.382782
0.297333 0.124298 0.409485
0.412109 0.134430 0.413788
0.444855 0.133759 0.409088
0.471741 0.136047 0.409027
0.043610 0.104034 0.377930
0.059631 0.104950 0.381897
0.104706 0.094574 0.371216
0.184296 0.113770 0.389832
0.290039 0.141632 0.418854
0.419495 0.158447 0.429810
0.462555 0.156006 0.421753
0.491852 0.158783 0.421753
0.056793 0.174347 0.417786
0.067902 0.174957 0.420624
0.116638 0.188660 0.439362
0.180389 0.189453 0.443970
0.280579 0.201996 0.454010
0.426361 0.224579 0.473206
0.505402 0.210815 0.455048
0.530914 0.205505 0.450684
0.071960 0.247375 0.455688
0.084564 0.249725 0.460236
0.118042 0.258820 0.474426
0.200012 0.292603 0.510864
0.290314 0.304138 0.527008
0.426910 0.327454 0.542603
0.593475 0.346680 0.538422
0.622253 0.342590 0.532745
0.092163 0.326447 0.499420
0.105042 0.329956 0.503845
0.117126 0.330536 0.506561
0.198303 0.365540 0.542236
0.323730 0.424988 0.604340
0.443604 0.441864 0.624146
0.663940 0.483337 0.618286
0.704620 0.481506 0.609497
0.112762 0.410522 0.536896
0.126312 0.414825 0.542084
0.139252 0.416382 0.544708
0.196503 0.440491 0.568542
0.319885 0.506805 0.628448
0.506561 0.582855 0.687164
0.737640 0.626923 0.680695
0.811371 0.634125 0.681671
0.134033 0.501343 0.560944
0.148346 0.506958 0.565491
0.162384 0.510468 0.567444
0.189209 0.519684 0.573212
0.315796 0.595398 0.632843
0.551453 0.702698 0.701721
0.803894 0.771637 0.730011
0.891174 0.784943 0.742584
0.141052 0.540955 0.554047
0.156067 0.549774 0.558746
0.171875 0.560089 0.563080
0.187958 0.571167 0.565552
0.291046 0.644135 0.614197
0.511780 0.760864 0.673889
0.812958 0.859009 0.710052
0.928680 0.879791 0.740204
0.039459 0.076508 0.375000
0.060089 0.070984 0.366882
0.110260 0.079681 0.373444
0.192413 0.100922 0.396057
0.293549 0.127228 0.424194
0.409271 0.143066 0.435730
0.444458 0.141632 0.430847
0.464142 0.141174 0.427887
0.045471 0.106903 0.393036
0.060608 0.107666 0.396942
0.105896 0.098297 0.386841
0.182037 0.116455 0.404083
0.285156 0.143372 0.432220
0.414276 0.167450 0.452301
0.461670 0.164917 0.445068
0.482910 0.162994 0.440155
0.058350 0.176666 0.432129
0.069641 0.177307 0.435059
0.117889 0.191010 0.454102
0.178497 0.190430 0.457306
0.273621 0.202118 0.468750
0.412201 0.225494 0.489014
0.498413 0.217499 0.477753
0.517029 0.206177 0.466705
0.074524 0.249908 0.471191
0.087158 0.252380 0.475861
0.119324 0.260803 0.490051
0.198517 0.292969 0.524719
0.285522 0.304718 0.541107
0.409332 0.323059 0.553375
0.578156 0.349762 0.561066
0.606964 0.342957 0.551666
0.094360 0.328064 0.514160
0.107208 0.331482 0.518555
0.119537 0.332397 0.521820
0.197601 0.365662 0.556122
0.319031 0.424438 0.618408
0.429718 0.440704 0.640320
0.638977 0.480438 0.642029
0.680084 0.478546 0.634827
0.114929 0.411285 0.552521
0.128387 0.415466 0.557648
0.141510 0.417480 0.562164
0.196350 0.440643 0.588135
0.316833 0.507019 0.652710
0.506104 0.586487 0.720154
0.679840 0.612061 0.716675
0.770660 0.623810 0.717407
0.139038 0.504272 0.594543
0.153900 0.510406 0.601715
0.168213 0.514252 0.607635
0.193390 0.522736 0.618713
0.312836 0.593018 0.681824
0.517944 0.686279 0.754700
0.785278 0.776031 0.802643
0.868469 0.782196 0.808105
0.151215 0.550995 0.614929
0.166779 0.560303 0.623077
0.183655 0.571503 0.632751
0.200562 0.582916 0.642303
0.299225 0.650452 0.697449
0.472748 0.744202 0.768524
0.773193 0.860077 0.831573
0.925476 0.900940 0.872131
