滤镜资源/Professional Luts Collection/Triune-Digital-Cinematic-LUTs/3D LUTs (CUBE)/LOG/The Matrix - LOG.cube
#Created by Benjamin (IWLTBAP) : http://luts.iwltbap.com
#Copyright: (C) Copyright 2016 Triune Films and IWLTBAP
TITLE "Blockbuster LUTs Pack (LOG)"
#LUT size
LUT_3D_SIZE 5
#LUT data points
DOMAIN_MIN 0.000000 0.000000 0.000000
DOMAIN_MAX 0.903226 0.903226 0.903226
0.003540 0.000000 0.007080
0.166382 0.010620 0.025543
0.540680 0.072418 0.070740
0.862457 0.155426 0.123596
0.917755 0.173950 0.138580
0.033905 0.146149 0.047028
0.123047 0.135193 0.039429
0.455658 0.171722 0.082733
0.861359 0.223724 0.125732
0.918945 0.225067 0.138580
0.143341 0.492950 0.130035
0.165375 0.477753 0.116852
0.394135 0.471344 0.096130
0.742767 0.487732 0.205109
0.884033 0.480743 0.215973
0.273956 0.784454 0.238586
0.289154 0.775665 0.229492
0.404663 0.761627 0.190094
0.718048 0.749878 0.205109
0.891357 0.744141 0.293213
0.378815 0.924835 0.332184
0.399780 0.927734 0.327789
0.474304 0.928375 0.318024
0.735443 0.934814 0.325134
0.982086 0.950256 0.422272
0.000000 0.014160 0.108276
0.131958 0.023987 0.153168
0.488037 0.092438 0.183319
0.855560 0.165833 0.216156
0.910675 0.181030 0.217712
0.006714 0.149506 0.149841
0.114075 0.135284 0.143188
0.490906 0.147430 0.140533
0.859009 0.219635 0.180725
0.921082 0.221680 0.182129
0.143036 0.486755 0.166321
0.164703 0.468933 0.156616
0.390930 0.465210 0.124573
0.748138 0.481110 0.221222
0.895691 0.472473 0.231781
0.272064 0.780273 0.261810
0.291687 0.769165 0.259827
0.399170 0.757812 0.217041
0.715118 0.746094 0.228516
0.893219 0.741272 0.313965
0.381683 0.924835 0.358154
0.407654 0.924835 0.360840
0.468292 0.928375 0.346893
0.732178 0.934814 0.357697
0.979187 0.950256 0.454010
0.000000 0.076019 0.264832
0.023560 0.082245 0.334198
0.432709 0.137665 0.408234
0.755035 0.238068 0.441406
0.827209 0.251404 0.440155
0.000000 0.197113 0.307648
0.075043 0.187653 0.311920
0.408752 0.193878 0.378143
0.778137 0.276001 0.411621
0.856171 0.276398 0.411682
0.112701 0.489838 0.398346
0.127869 0.472321 0.384033
0.370056 0.458496 0.370056
0.826965 0.436981 0.350830
0.957977 0.428741 0.350922
0.275299 0.775330 0.403564
0.291779 0.763306 0.391815
0.414246 0.746094 0.390900
0.709656 0.738892 0.345367
0.905701 0.731171 0.387543
0.382355 0.927734 0.440613
0.411041 0.927734 0.437592
0.480286 0.927734 0.437164
0.726105 0.934814 0.409821
0.981049 0.950256 0.484558
0.000000 0.162323 0.410095
0.022369 0.169403 0.453857
0.357666 0.200562 0.628326
0.767151 0.272156 0.692657
0.810577 0.294891 0.692749
0.000000 0.277771 0.466766
0.075592 0.273132 0.474915
0.243469 0.262024 0.638062
0.763672 0.308319 0.683807
0.809052 0.323730 0.667267
0.026672 0.524323 0.609344
0.060974 0.510956 0.598267
0.288055 0.511414 0.607513
0.759094 0.478363 0.660065
0.876770 0.488007 0.663727
0.208710 0.779175 0.694305
0.221527 0.769226 0.682617
0.316895 0.750397 0.665436
0.671509 0.738739 0.650665
0.984985 0.699585 0.618256
0.396393 0.931274 0.690735
0.421692 0.931274 0.684509
0.486389 0.928375 0.678680
0.733582 0.935455 0.662598
0.985626 0.953796 0.701263
0.000000 0.185211 0.446686
0.021637 0.191650 0.484253
0.315094 0.217072 0.671478
0.771515 0.279022 0.745087
0.825806 0.301300 0.751495
0.000000 0.290588 0.499390
0.071594 0.287994 0.506470
0.197601 0.275238 0.664032
0.756256 0.314026 0.750305
0.833740 0.327942 0.759247
0.009918 0.535675 0.651154
0.048615 0.525330 0.645935
0.253296 0.534637 0.685577
0.685730 0.501068 0.804718
0.871704 0.503082 0.802887
0.130219 0.800323 0.815948
0.156006 0.791260 0.810699
0.264923 0.779175 0.814758
0.571777 0.777649 0.869629
0.918793 0.730316 0.859924
0.235718 0.963745 0.907806
0.260132 0.963745 0.907806
0.314911 0.963745 0.908447
0.657227 0.960876 0.921692
0.983612 0.969482 0.956055
