滤镜资源/Professional Luts Collection/Triune-Digital-Cinematic-LUTs/3D LUTs (CUBE)/LOG/The Ring - LOG.cube
#Created by Benjamin (IWLTBAP) : http://luts.iwltbap.com
#Copyright: (C) Copyright 2016 Triune Films and IWLTBAP
TITLE "Blockbuster LUTs Pack (LOG)"
#LUT size
LUT_3D_SIZE 5
#LUT data points
DOMAIN_MIN 0.000000 0.000000 0.000000
DOMAIN_MAX 0.903226 0.903226 0.903226
0.000000 0.000000 0.000000
0.079651 0.000580 0.000580
0.291656 0.027283 0.016846
0.518036 0.080017 0.055450
0.568604 0.092285 0.065765
0.000000 0.091858 0.006592
0.049530 0.081848 0.007202
0.259827 0.092316 0.018463
0.516205 0.125397 0.060883
0.574982 0.126740 0.069275
0.000000 0.315033 0.063416
0.016663 0.303375 0.061340
0.187592 0.292633 0.066742
0.482300 0.299377 0.091431
0.598419 0.297119 0.104187
0.000000 0.608124 0.158966
0.012543 0.598145 0.157043
0.063385 0.576233 0.153870
0.370728 0.567444 0.164795
0.611053 0.561676 0.179382
0.000000 0.809601 0.228241
0.012543 0.809601 0.228241
0.042664 0.813416 0.231415
0.115448 0.826324 0.244171
0.554871 0.850067 0.269684
0.000000 0.009644 0.092285
0.113983 0.012787 0.117218
0.339325 0.040833 0.146088
0.563293 0.092773 0.161041
0.607574 0.103455 0.151245
0.000000 0.112244 0.105865
0.053741 0.099762 0.096558
0.291809 0.105927 0.106812
0.541534 0.130066 0.121490
0.591095 0.129150 0.113892
0.000000 0.320587 0.108063
0.015472 0.305725 0.095062
0.186890 0.293671 0.093323
0.487213 0.300629 0.118073
0.606171 0.300110 0.131348
0.000000 0.610535 0.182312
0.012543 0.597595 0.178528
0.062683 0.576935 0.175476
0.369019 0.566711 0.186188
0.616791 0.561157 0.200287
0.000000 0.811554 0.247894
0.012543 0.815979 0.251068
0.041840 0.814758 0.251068
0.114685 0.827209 0.264313
0.558075 0.853302 0.289368
0.000000 0.089905 0.322083
0.049103 0.087067 0.338898
0.388306 0.097473 0.394684
0.660187 0.135803 0.435791
0.712555 0.143524 0.427216
0.000000 0.164948 0.326904
0.033020 0.154144 0.322571
0.332306 0.148346 0.351654
0.636993 0.167938 0.390717
0.699310 0.162903 0.384644
0.000000 0.377289 0.356934
0.012817 0.361206 0.341949
0.204834 0.342133 0.332550
0.548492 0.340057 0.343231
0.680389 0.333984 0.340363
0.000000 0.648804 0.360687
0.012543 0.631989 0.348053
0.061005 0.609192 0.328461
0.382477 0.587585 0.312714
0.641602 0.578796 0.309326
0.000000 0.836151 0.344299
0.012543 0.836517 0.337463
0.039886 0.829559 0.318481
0.113068 0.836090 0.310699
0.561981 0.858185 0.316895
0.000000 0.174744 0.530792
0.042542 0.176239 0.555450
0.370819 0.186523 0.635620
0.710663 0.215210 0.721222
0.779022 0.223267 0.739227
0.000000 0.245850 0.569794
0.030853 0.237122 0.572845
0.302673 0.230682 0.627075
0.687347 0.240112 0.701233
0.771423 0.233093 0.705109
0.000000 0.445770 0.653351
0.012543 0.429596 0.635529
0.083862 0.408295 0.630280
0.589539 0.400238 0.657837
0.756866 0.391998 0.664368
0.000000 0.722809 0.683319
0.012543 0.708344 0.672913
0.058990 0.683899 0.650635
0.403107 0.663544 0.641815
0.715088 0.648010 0.641296
0.000000 0.926727 0.671021
0.012543 0.922821 0.660706
0.037354 0.915558 0.637695
0.110992 0.918488 0.621674
0.605042 0.934540 0.620087
0.000000 0.198547 0.584564
0.041138 0.198547 0.606567
0.351746 0.209076 0.685852
0.717041 0.235840 0.779388
0.783112 0.241974 0.795837
0.000000 0.262543 0.621277
0.029480 0.254059 0.623688
0.274353 0.251099 0.683960
0.686584 0.260193 0.774139
0.785309 0.263855 0.800049
0.000000 0.462158 0.730011
0.012543 0.450958 0.725708
0.077332 0.436005 0.741852
0.589813 0.433075 0.799927
0.779266 0.424500 0.831024
0.000000 0.757843 0.856812
0.012543 0.747314 0.852722
0.057129 0.722717 0.849792
0.365326 0.707031 0.873260
0.748474 0.700439 0.906219
0.000000 0.988007 0.947723
0.012543 0.985779 0.945526
0.034668 0.986755 0.947510
0.108765 0.992401 0.963715
0.641998 0.994293 0.987915
