滤镜资源/Lutify.me Free 3D LUTs Package/Capture One/Windows/Lutify.me JPG Styles/25%/LM-JPG-Hackmanite-25.costyle
<?xml version="1.0"?>
<SL Engine="1000">
	<E K="ICCProfile" V="LM-JPG-Hackmanite-25.icm" />
	<E K="Name" V="LM-JPG-Hackmanite" />
	<E K="StyleSource" V="Styles" />
	<E K="UUID" V="3E8D34C8-F173-49E2-8030-34AD3F4B3C78" />
</SL>
