滤镜资源/Lutify.me Free 3D LUTs Package/Capture One/Windows/Lutify.me JPG Styles/25%/LM-JPG-Hypersthene-25.costyle
<?xml version="1.0"?>
<SL Engine="1000">
	<E K="ICCProfile" V="LM-JPG-Hypersthene-25.icm" />
	<E K="Name" V="LM-JPG-Hypersthene" />
	<E K="StyleSource" V="Styles" />
	<E K="UUID" V="D232437E-5148-459F-A5F5-479CC81D88C4" />
</SL>
