滤镜资源/Professional Luts Collection/Lutify.me Professional/Cine Looks/Okenite.cube
# Created by: Lutify.me
# Copyright: (c) Copyright Lutify.me 2015
# Website: https://lutify.me
#LUT size
LUT_3D_SIZE 5
#LUT data points
0.000000 0.000000 0.000000
0.175995 0.000000 0.000000
0.363983 0.000000 0.000000
0.472961 0.000000 0.000000
0.547974 0.000000 0.000000
0.000000 0.190674 0.000000
0.257996 0.201782 0.000000
0.485992 0.188660 0.000000
0.611969 0.160431 0.000000
0.669922 0.140259 0.000000
0.000000 0.350891 0.000000
0.216980 0.407349 0.000000
0.575958 0.467804 0.000000
0.729919 0.449677 0.000000
0.789917 0.429504 0.000000
0.000000 0.472870 0.038788
0.159973 0.532288 0.000000
0.538940 0.604858 0.000000
0.765930 0.639130 0.000000
0.848938 0.635101 0.000000
0.000000 0.560516 0.146454
0.145996 0.603851 0.082489
0.501984 0.671356 0.010345
0.726929 0.714722 0.007294
0.855927 0.737915 0.000183
0.007996 0.000000 0.156647
0.155975 0.000000 0.163727
0.363983 0.000000 0.157654
0.489960 0.000000 0.146484
0.559937 0.000000 0.150513
0.005035 0.248108 0.177979
0.202972 0.212830 0.210480
0.464966 0.189667 0.198273
0.602966 0.154388 0.194244
0.666962 0.128204 0.192169
0.000000 0.386169 0.084534
0.121979 0.438568 0.201324
0.534973 0.488983 0.208435
0.707947 0.472839 0.205383
0.781921 0.446655 0.207397
0.000000 0.436554 0.163727
0.066010 0.583710 0.235870
0.481964 0.620972 0.200317
0.738922 0.667358 0.211487
0.833923 0.660278 0.221649
0.000000 0.517181 0.218567
0.134003 0.652222 0.289703
0.471954 0.695557 0.247040
0.695953 0.734863 0.246033
0.840942 0.762085 0.272430
0.042023 0.000000 0.276520
0.178986 0.000000 0.300873
0.367981 0.000000 0.306976
0.488953 0.000000 0.303925
0.555969 0.000000 0.304932
0.000000 0.204773 0.429901
0.207001 0.200775 0.417694
0.444977 0.169495 0.412598
0.584961 0.126160 0.405487
0.657928 0.099976 0.404480
0.000000 0.492004 0.414642
0.000000 0.427490 0.426819
0.507965 0.502075 0.465424
0.679932 0.476868 0.458313
0.761932 0.449677 0.455261
0.000000 0.539368 0.323212
0.000000 0.522217 0.362823
0.476959 0.658264 0.451202
0.709930 0.687469 0.469482
0.811951 0.679413 0.473541
0.000000 0.502075 0.321167
0.000000 0.599823 0.382141
0.463959 0.731842 0.455261
0.654938 0.750977 0.444092
0.819946 0.786255 0.473541
0.105011 0.000000 0.350647
0.217010 0.000000 0.368927
0.373993 0.000000 0.379089
0.485962 0.000000 0.379089
0.551941 0.000000 0.383148
0.016998 0.188660 0.509094
0.246002 0.166473 0.515198
0.446960 0.137238 0.518250
0.573944 0.085876 0.513153
0.646942 0.054626 0.511139
0.000000 0.419434 0.574097
0.013000 0.472839 0.616760
0.505951 0.492981 0.601532
0.663940 0.465790 0.596466
0.746918 0.438568 0.593414
0.000000 0.613922 0.562927
0.000000 0.498047 0.526367
0.125977 0.667328 0.616760
0.693939 0.698608 0.623901
0.795929 0.683472 0.619812
0.000000 0.617981 0.491821
0.000000 0.523224 0.481689
0.083008 0.694580 0.547699
0.678955 0.787262 0.619812
0.807922 0.806396 0.626923
0.171997 0.000000 0.390259
0.261993 0.000000 0.401428
0.391968 0.000000 0.410583
0.492981 0.000000 0.414612
0.551941 0.000000 0.418701
0.179993 0.159424 0.561920
0.304993 0.139252 0.566986
0.460968 0.096954 0.569031
0.572968 0.046539 0.566986
0.641937 0.022339 0.565979
0.000000 0.467834 0.662476
0.280975 0.487976 0.672638
0.521973 0.477905 0.676697
0.662933 0.451691 0.672638
0.737946 0.415375 0.668579
0.000000 0.518188 0.630005
0.000000 0.554443 0.657410
0.418976 0.682434 0.723419
0.693939 0.692566 0.715302
0.787933 0.682465 0.712250
0.000000 0.657257 0.650299
0.000000 0.553467 0.602539
0.000000 0.655243 0.662476
0.525940 0.791290 0.727478
0.791931 0.814484 0.731567
