滤镜资源/Professional Luts Collection/Lutify.me Professional/Cine Looks/Okenite.cube
# Created by: Lutify.me
# Copyright: (c) Copyright Lutify.me 2015
# Website: https://lutify.me
#LUT size
LUT_3D_SIZE 33
#LUT data points
0.000000 0.000000 0.000000
0.004028 0.000000 0.000000
0.019257 0.000000 0.000000
0.034882 0.000000 0.000000
0.062012 0.000000 0.000000
0.085480 0.000000 0.000000
0.113739 0.000000 0.000000
0.145386 0.000000 0.000000
0.175995 0.000000 0.000000
0.196625 0.000000 0.000000
0.230988 0.000000 0.000000
0.258484 0.000000 0.000000
0.286011 0.000000 0.000000
0.308746 0.000000 0.000000
0.326721 0.000000 0.000000
0.346344 0.000000 0.000000
0.363983 0.000000 0.000000
0.379730 0.000000 0.000000
0.395477 0.000000 0.000000
0.412842 0.000000 0.000000
0.430969 0.000000 0.000000
0.442719 0.000000 0.000000
0.453217 0.000000 0.000000
0.462219 0.000000 0.000000
0.472961 0.000000 0.000000
0.484833 0.000000 0.000000
0.493469 0.000000 0.000000
0.504578 0.000000 0.000000
0.512451 0.000000 0.000000
0.520691 0.000000 0.000000
0.532196 0.000000 0.000000
0.540100 0.000000 0.000000
0.547974 0.000000 0.000000
0.004028 0.007996 0.000000
0.007874 0.000183 0.000000
0.015625 0.000000 0.000000
0.034882 0.000000 0.000000
0.054871 0.000031 0.000000
0.082123 0.000000 0.000000
0.112366 0.000000 0.000000
0.136627 0.000000 0.000000
0.168884 0.000000 0.000000
0.196594 0.000000 0.000000
0.223114 0.000000 0.000000
0.251862 0.000000 0.000000
0.281982 0.000000 0.000000
0.307251 0.000000 0.000000
0.326721 0.000000 0.000000
0.346344 0.000000 0.000000
0.363861 0.000000 0.000000
0.383575 0.000000 0.000000
0.401459 0.000000 0.000000
0.418945 0.000000 0.000000
0.438721 0.000000 0.000000
0.450592 0.000000 0.000000
0.464966 0.000000 0.000000
0.473969 0.000000 0.000000
0.485718 0.000000 0.000000
0.496552 0.000000 0.000000
0.505341 0.000000 0.000000
0.516968 0.000000 0.000000
0.524689 0.000000 0.000000
0.536072 0.000000 0.000000
0.543945 0.000000 0.000000
0.552063 0.000000 0.000000
0.563721 0.000000 0.000000
0.003998 0.039246 0.000000
0.007874 0.015686 0.000000
0.023224 0.011780 0.000000
0.046387 0.011780 0.000000
0.073761 0.011780 0.000000
0.097229 0.011780 0.000000
0.124512 0.011780 0.000000
0.155762 0.012177 0.000000
0.187500 0.011536 0.000000
0.214752 0.007721 0.000000
0.238495 0.001190 0.000000
0.267120 0.000000 0.000000
0.297241 0.000000 0.000000
0.322357 0.000000 0.000000
0.346008 0.000000 0.000000
0.361877 0.000000 0.000000
0.381470 0.000000 0.000000
0.399231 0.000000 0.000000
0.416748 0.000000 0.000000
0.434479 0.000000 0.000000
0.452728 0.000000 0.000000
0.466217 0.000000 0.000000
0.481689 0.000000 0.000000
0.489716 0.000000 0.000000
0.504211 0.000000 0.000000
0.512329 0.000000 0.000000
0.523956 0.000000 0.000000
0.532074 0.000000 0.000000
0.539978 0.000000 0.000000
0.551178 0.000000 0.000000
0.559692 0.000000 0.000000
0.567596 0.000000 0.000000
0.575745 0.000000 0.000000
0.000000 0.067230 0.000000
0.007874 0.039612 0.000000
0.023254 0.035339 0.000000
0.054504 0.039368 0.000000
0.082275 0.039490 0.000000
0.109131 0.039001 0.000000
0.136261 0.039001 0.000000
0.171265 0.039001 0.000000
0.200256 0.035980 0.000000
0.227509 0.032074 0.000000
0.255096 0.028168 0.000000
0.285736 0.022858 0.000000
0.314362 0.018860 0.000000
0.338348 0.008728 0.000000
0.361115 0.005219 0.000000
0.381622 0.000061 0.000000
0.397217 0.000000 0.000000
0.414978 0.000000 0.000000
0.432861 0.000000 0.000000
0.452850 0.000000 0.000000
0.468353 0.000000 0.000000
0.481964 0.000000 0.000000
0.496429 0.000000 0.000000
0.507965 0.000000 0.000000
0.519836 0.000000 0.000000
0.530823 0.000000 0.000000
0.536682 0.000000 0.000000
0.547852 0.000000 0.000000
0.555695 0.000000 0.000000
0.566833 0.000000 0.000000
0.571442 0.000000 0.000000
0.579437 0.000000 0.000000
0.591187 0.000000 0.000000
0.000000 0.091400 0.000000
0.004242 0.063934 0.000000
0.023224 0.062927 0.000000
0.061737 0.066864 0.000000
0.093018 0.070221 0.000000
0.120972 0.066742 0.000000
0.149017 0.066742 0.000000
0.183502 0.070221 0.000000
0.217468 0.069733 0.000000
0.243103 0.063324 0.000000
0.269745 0.065460 0.000000
0.304108 0.059540 0.000000
0.331482 0.055115 0.000000
0.354095 0.043640 0.000000
0.379974 0.041473 0.000000
0.399231 0.033691 0.000000
0.414978 0.023865 0.000000
0.434967 0.021362 0.000000
0.449982 0.012512 0.000000
0.470215 0.009125 0.000000
0.483459 0.003693 0.000000
0.501221 0.000092 0.000000
0.517456 0.000000 0.000000
0.524078 0.000000 0.000000
0.535950 0.000000 0.000000
0.544678 0.000000 0.000000
0.555206 0.000000 0.000000
0.563599 0.000000 0.000000
0.571442 0.000000 0.000000
0.579712 0.000000 0.000000
0.587952 0.000000 0.000000
0.595581 0.000000 0.000000
0.603455 0.000000 0.000000
0.000000 0.118622 0.000000
0.000488 0.091400 0.000000
0.022614 0.090393 0.000000
0.054504 0.090637 0.000000
0.097015 0.097931 0.000000
0.132874 0.102509 0.000000
0.163513 0.102356 0.000000
0.195618 0.099060 0.000000
0.230347 0.101471 0.000000
0.259338 0.102509 0.000000
0.282990 0.094421 0.000000
0.319122 0.094421 0.000000
0.342224 0.090637 0.000000
0.373230 0.086761 0.000000
0.400330 0.084564 0.000000
0.417084 0.077026 0.000000
0.435455 0.072357 0.000000
0.450470 0.063049 0.000000
0.469574 0.056885 0.000000
0.487732 0.053589 0.000000
0.501709 0.042633 0.000000
0.519440 0.038727 0.000000
0.533173 0.028015 0.000000
0.543823 0.025238 0.000000
0.555084 0.027374 0.000000
0.563599 0.020355 0.000000
0.574707 0.020477 0.000000
0.582703 0.017181 0.000000
0.587830 0.013916 0.000000
0.595428 0.010376 0.000000
0.606934 0.010376 0.000000
0.614685 0.006866 0.000000
0.619324 0.003571 0.000000
0.000000 0.143066 0.000000
0.000000 0.118622 0.000000
0.015259 0.110809 0.000000
0.050873 0.115204 0.000000
0.093994 0.122894 0.000000
0.128845 0.126312 0.000000
0.167511 0.130219 0.000000
0.207001 0.136627 0.000000
0.242249 0.137512 0.000000
0.270386 0.133881 0.000000
0.297760 0.129456 0.000000
0.328979 0.128204 0.000000
0.358734 0.123657 0.000000
0.387970 0.124664 0.000000
0.413239 0.122131 0.000000
0.434753 0.115967 0.000000
0.452484 0.111298 0.000000
0.473450 0.109314 0.000000
0.489227 0.100983 0.000000
0.503357 0.097198 0.000000
0.524689 0.094177 0.000000
0.539093 0.086365 0.000000
0.554199 0.083618 0.000000
0.563965 0.077423 0.000000
0.574463 0.074280 0.000000
0.582581 0.068359 0.000000
0.590454 0.062714 0.000000
0.598969 0.060059 0.000000
0.606201 0.052094 0.000000
0.614807 0.048798 0.000000
0.622681 0.048309 0.000000
0.629822 0.049591 0.000000
0.638458 0.047302 0.000000
0.000000 0.167725 0.000000
0.000000 0.146088 0.000000
0.008118 0.141785 0.000000
0.047119 0.142670 0.000000
0.093018 0.149719 0.000000
0.129089 0.157532 0.000000
0.168243 0.158051 0.000000
0.214752 0.169128 0.000000
0.253113 0.170013 0.000000
0.284851 0.169128 0.000000
0.314117 0.169128 0.000000
0.342133 0.163818 0.000000
0.375366 0.164215 0.000000
0.402100 0.158661 0.000000
0.431244 0.157928 0.000000
0.450500 0.154907 0.000000
0.469360 0.148102 0.000000
0.488098 0.145203 0.000000
0.506073 0.141785 0.000000
0.523102 0.136871 0.000000
0.541199 0.135376 0.000000
0.556976 0.130066 0.000000
0.572693 0.127563 0.000000
0.583344 0.123657 0.000000
0.593323 0.116974 0.000000
0.602203 0.116730 0.000000
0.610962 0.112701 0.000000
0.617950 0.110321 0.000000
0.624054 0.101990 0.000000
0.630554 0.099731 0.000000
0.641571 0.103516 0.000000
0.646332 0.099731 0.000000
0.654205 0.096558 0.000000
0.000000 0.190674 0.000000
0.000000 0.173889 0.000000
0.000763 0.168732 0.000000
0.032776 0.169739 0.000000
0.078491 0.178070 0.000000
0.125488 0.185638 0.000000
0.171265 0.192200 0.000000
0.214752 0.197723 0.000000
0.257996 0.201782 0.000000
0.294342 0.205658 0.000000
0.323242 0.202026 0.000000
0.356506 0.204773 0.000000
0.390961 0.201782 0.000000
0.418823 0.200104 0.000000
0.444733 0.195465 0.000000
0.468353 0.194580 0.000000
0.485992 0.188660 0.000000
0.503815 0.184875 0.000000
0.523682 0.181091 0.000000
0.541199 0.178925 0.000000
0.559937 0.175049 0.000000
0.574066 0.169495 0.000000
0.588440 0.167236 0.000000
0.602081 0.164459 0.000000
0.611969 0.160431 0.000000
0.619720 0.156403 0.000000
0.627441 0.149078 0.000000
0.637573 0.151703 0.000000
0.642456 0.145813 0.000000
0.649323 0.145935 0.000000
0.658203 0.144318 0.000000
0.666077 0.140259 0.000000
0.669922 0.140259 0.000000
0.000000 0.214478 0.000000
0.000000 0.198608 0.000000
0.000000 0.194336 0.000000
0.017151 0.197968 0.000000
0.071228 0.205292 0.000000
0.119598 0.213348 0.000000
0.167114 0.219543 0.000000
0.211365 0.228333 0.000000
0.256989 0.231476 0.000000
0.297241 0.233490 0.000000
0.333862 0.234894 0.000000
0.368225 0.237793 0.000000
0.400848 0.237549 0.000000
0.428833 0.232849 0.000000
0.461578 0.233490 0.000000
0.484100 0.228333 0.000000
0.504822 0.227448 0.000000
0.523315 0.225433 0.000000
0.541199 0.221405 0.000000
0.558197 0.215729 0.000000
0.576691 0.214722 0.000000
0.591309 0.209686 0.000000
0.608185 0.208160 0.000000
0.621704 0.204132 0.000000
0.630676 0.200104 0.000000
0.638580 0.196075 0.000000
0.646454 0.195312 0.000000
0.654327 0.192047 0.000000
0.659821 0.185608 0.000000
0.668945 0.185364 0.000000
0.672821 0.180176 0.000000
0.681702 0.182587 0.000000
0.688568 0.177673 0.000000
0.000000 0.234253 0.000000
0.000000 0.219666 0.000000
0.000000 0.222168 0.000000
0.005768 0.225830 0.000000
0.060242 0.233765 0.000000
0.110748 0.241058 0.000000
0.162781 0.248871 0.000000
0.205261 0.257538 0.000000
0.250000 0.264252 0.000000
0.302338 0.272186 0.000000
0.341736 0.276062 0.000000
0.377258 0.276062 0.000000
0.411469 0.276062 0.000000
0.445465 0.276062 0.000000
0.477203 0.272064 0.000000
0.501099 0.268646 0.000000
0.517944 0.264496 0.000000
0.539093 0.262115 0.000000
0.556946 0.258179 0.000000
0.574341 0.254303 0.000000
0.591217 0.249115 0.000000
0.606934 0.246582 0.000000
0.623932 0.245117 0.000000
0.638580 0.242706 0.000000
0.646454 0.238800 0.000000
0.654327 0.235779 0.000000
0.664185 0.231750 0.000000
0.673462 0.228363 0.000000
0.677948 0.227234 0.000000
0.685822 0.224945 0.000000
0.692444 0.219666 0.000000
0.700226 0.219666 0.000000
0.705444 0.216888 0.000000
0.000000 0.258057 0.000000
0.000000 0.246094 0.000000
0.000000 0.245728 0.000000
0.005249 0.249634 0.000000
0.050842 0.254028 0.000000
0.103760 0.262848 0.000000
0.154877 0.273438 0.000000
0.197998 0.281372 0.000000
0.251373 0.292328 0.000000
0.300964 0.300995 0.000000
0.341736 0.305176 0.000000
0.383728 0.311737 0.000000
0.423096 0.313110 0.000000
0.457458 0.313110 0.000000
0.488983 0.311737 0.000000
0.515594 0.309601 0.000000
0.533203 0.305664 0.000000
0.552948 0.301758 0.000000
0.572693 0.297882 0.000000
0.590057 0.293945 0.000000
0.608185 0.290070 0.000000
0.623932 0.286163 0.000000
0.641083 0.284882 0.000000
0.654327 0.279480 0.000000
0.662201 0.275421 0.000000
0.674072 0.271423 0.000000
0.681946 0.270660 0.000000
0.689819 0.266754 0.000000
0.693695 0.263367 0.000000
0.701569 0.260712 0.000000
0.709442 0.259064 0.000000
0.713318 0.256683 0.000000
0.721191 0.255310 0.000000
0.000000 0.279327 0.000000
0.000000 0.269897 0.000000
0.000000 0.269775 0.000000
0.002533 0.273438 0.000000
0.036499 0.277313 0.000000
0.090607 0.285248 0.000000
0.148254 0.296478 0.000000
0.196228 0.305176 0.000000
0.246002 0.313629 0.000000
0.294708 0.325104 0.000000
0.341492 0.332764 0.000000
0.383728 0.336945 0.000000
0.425964 0.346375 0.000000
0.463837 0.344879 0.000000
0.500458 0.345123 0.000000
0.528442 0.344879 0.000000
0.544952 0.341339 0.000000
0.568085 0.339325 0.000000
0.587677 0.336823 0.000000
0.604218 0.332764 0.000000
0.622925 0.328766 0.000000
0.639679 0.325867 0.000000
0.655457 0.321930 0.000000
0.670074 0.319153 0.000000
0.680450 0.315125 0.000000
0.689819 0.311096 0.000000
0.697693 0.308594 0.000000
0.705566 0.306427 0.000000
0.709442 0.302521 0.000000
0.717316 0.299011 0.000000
0.725189 0.295227 0.000000
0.729065 0.294830 0.000000
0.738434 0.292450 0.000000
0.000000 0.295197 0.000000
0.000000 0.291168 0.000000
0.000000 0.295959 0.000000
0.001251 0.299988 0.000000
0.016510 0.305145 0.000000
0.082001 0.312073 0.000000
0.137268 0.317902 0.000000
0.188385 0.328979 0.000000
0.238617 0.336914 0.000000
0.289703 0.348267 0.000000
0.337738 0.358093 0.000000
0.381104 0.364777 0.000000
0.425964 0.370178 0.000000
0.466217 0.376587 0.000000
0.503479 0.376587 0.000000
0.534332 0.376587 0.000000
0.559937 0.378235 0.000000
0.579437 0.372589 0.000000
0.599548 0.370941 0.000000
0.617554 0.370941 0.000000
0.634827 0.364502 0.000000
0.651428 0.362885 0.000000
0.668823 0.360474 0.000000
0.684570 0.356445 0.000000
0.693665 0.353790 0.000000
0.704071 0.349884 0.000000
0.713440 0.346008 0.000000
0.721313 0.342712 0.000000
0.725189 0.338684 0.000000
0.735077 0.340302 0.000000
0.740936 0.334412 0.000000
0.747192 0.330750 0.000000
0.752686 0.328217 0.000000
0.000000 0.315125 0.000000
0.000000 0.309448 0.000000
0.000000 0.316406 0.000000
0.000000 0.321442 0.000000
0.000000 0.329010 0.000000
0.065735 0.335785 0.000000
0.127502 0.340851 0.000000
0.180481 0.351929 0.000000
0.228485 0.361725 0.000000
0.282349 0.370941 0.000000
0.329010 0.381165 0.000000
0.377136 0.389954 0.000000
0.422943 0.396271 0.000000
0.463959 0.402649 0.000000
0.507202 0.404327 0.000000
0.542572 0.406067 0.000000
0.566467 0.406311 0.000000
0.585938 0.404327 0.000000
0.607941 0.403076 0.000000
0.625336 0.400269 0.000000
0.645203 0.398010 0.000000
0.664948 0.398010 0.000000
0.680695 0.396759 0.000000
0.697571 0.393341 0.000000
0.708191 0.388214 0.000000
0.719055 0.385925 0.000000
0.726929 0.383392 0.000000
0.735321 0.382385 0.000000
0.742676 0.377869 0.000000
0.748810 0.373962 0.000000
0.756683 0.370575 0.000000
0.760559 0.368042 0.000000
0.768433 0.370331 0.000000
0.000000 0.331024 0.000000
0.000000 0.328857 0.000000
0.000000 0.334808 0.000000
0.000000 0.342712 0.000000
0.002136 0.349274 0.000000
0.060242 0.359497 0.000000
0.114777 0.364655 0.000000
0.171753 0.375610 0.000000
0.223846 0.383545 0.000000
0.272858 0.395355 0.000000
0.328491 0.405090 0.000000
0.373596 0.412384 0.000000
0.421997 0.421814 0.000000
0.463837 0.426605 0.000000
0.503326 0.432037 0.000000
0.544708 0.438202 0.000000
0.572083 0.438202 0.000000
0.597290 0.436066 0.000000
0.617584 0.434296 0.000000
0.635712 0.432281 0.000000
0.654572 0.428009 0.000000
0.674194 0.427216 0.000000
0.690704 0.424866 0.000000
0.706451 0.422821 0.000000
0.720062 0.419922 0.000000
0.730927 0.419922 0.000000
0.736969 0.413757 0.000000
0.746704 0.411224 0.000000
0.754547 0.411377 0.000000
0.760559 0.405701 0.000000
0.768188 0.403809 0.000000
0.774200 0.401672 0.000000
0.780212 0.401917 0.000000
0.000000 0.350891 0.000000
0.000000 0.346893 0.000000
0.000000 0.354706 0.000000
0.000000 0.366272 0.000000
0.012512 0.374084 0.000000
0.050873 0.379120 0.000000
0.106018 0.388428 0.000000
0.162994 0.395477 0.000000
0.216980 0.407349 0.000000
0.270081 0.415131 0.000000
0.321259 0.427002 0.000000
0.369110 0.437592 0.000000
0.412964 0.446167 0.000000
0.459839 0.452087 0.000000
0.505219 0.459747 0.000000
0.542694 0.463928 0.000000
0.575958 0.467804 0.000000
0.599579 0.463928 0.000000
0.623199 0.465546 0.000000
0.643188 0.459747 0.000000
0.664948 0.460754 0.000000
0.682068 0.459747 0.000000
0.700439 0.457733 0.000000
0.716217 0.453705 0.000000
0.729919 0.449677 0.000000
0.738800 0.448547 0.000000
0.749451 0.445648 0.000000
0.757202 0.442230 0.000000
0.764954 0.440094 0.000000
0.771912 0.438843 0.000000
0.778198 0.435547 0.000000
0.786041 0.431549 0.000000
0.789917 0.429504 0.000000
0.000000 0.370819 0.000000
0.000000 0.364777 0.000000
0.000000 0.372467 0.000000
0.000000 0.382538 0.000000
0.006989 0.388824 0.000000
0.035614 0.396240 0.000000
0.087646 0.405548 0.000000
0.154236 0.414246 0.000000
0.211121 0.426239 0.000000
0.261108 0.436066 0.000000
0.312103 0.446777 0.000000
0.365601 0.459991 0.000000
0.409088 0.467926 0.000000
0.453949 0.476379 0.000000
0.499969 0.483795 0.000000
0.542603 0.489594 0.000000
0.575958 0.491608 0.000000
0.603424 0.493378 0.000000
0.631073 0.497650 0.000000
0.651184 0.493896 0.000000
0.672821 0.493652 0.000000
0.690460 0.489349 0.000000
0.708313 0.485565 0.000000
0.726196 0.485565 0.000000
0.739685 0.481293 0.000000
0.750702 0.479401 0.000000
0.758575 0.474609 0.000000
0.767059 0.471344 0.000000
0.774323 0.469208 0.000000
0.782196 0.467316 0.000000
0.789795 0.466797 0.000000
0.795685 0.460999 0.000000
0.801819 0.459259 0.000000
0.000000 0.386658 0.000000
0.000000 0.382660 0.000000
0.000000 0.390472 0.000000
0.000000 0.398010 0.000000
0.006989 0.406311 0.000000
0.019226 0.415894 0.000000
0.076019 0.422943 0.000000
0.147247 0.433289 0.000000
0.203247 0.442108 0.000000
0.253723 0.452332 0.000000
0.309479 0.464783 0.000000
0.358002 0.473999 0.000000
0.404724 0.485931 0.000000
0.450195 0.493866 0.000000
0.491730 0.501831 0.000000
0.535309 0.507874 0.000000
0.575958 0.515411 0.000000
0.603424 0.517426 0.000000
0.633209 0.521454 0.000000
0.656799 0.521454 0.000000
0.676697 0.519714 0.000000
0.697815 0.521454 0.000000
0.717438 0.517426 0.000000
0.731934 0.515167 0.000000
0.748444 0.513428 0.000000
0.756287 0.507111 0.000000
0.767181 0.504852 0.000000
0.778320 0.503052 0.000000
0.783936 0.499054 0.000000
0.790039 0.497284 0.000000
0.797913 0.492737 0.000000
0.803589 0.490997 0.000000
0.811432 0.490997 0.000000
0.000000 0.402557 0.000061
0.000000 0.400299 0.000000
0.000000 0.407990 0.000000
0.000000 0.415894 0.000000
0.001862 0.423828 0.000000
0.006378 0.432404 0.000000
0.073273 0.442139 0.000000
0.139374 0.450073 0.000000
0.194366 0.456970 0.000000
0.248230 0.468811 0.000000
0.301605 0.479034 0.000000
0.353088 0.489868 0.000000
0.397339 0.500183 0.000000
0.443848 0.508118 0.000000
0.487946 0.517670 0.000000
0.530609 0.525604 0.000000
0.572327 0.533539 0.000000
0.603180 0.537445 0.000000
0.630951 0.541229 0.000000
0.656799 0.543610 0.000000
0.680450 0.545135 0.000000
0.704071 0.545258 0.000000
0.722443 0.543976 0.000000
0.739838 0.541229 0.000000
0.754547 0.541229 0.000000
0.766449 0.537964 0.000000
0.774323 0.537201 0.000000
0.786194 0.533173 0.000000
0.794037 0.530273 0.000000
0.799194 0.526764 0.000000
0.805817 0.525116 0.000000
0.813690 0.522583 0.000000
0.821564 0.518677 0.000000
0.000000 0.418427 0.001709
0.000000 0.418427 0.000000
0.000000 0.426239 0.000000
0.000000 0.434174 0.000000
0.000000 0.442139 0.000000
0.011627 0.449432 0.000000
0.070007 0.457977 0.000000
0.130005 0.465942 0.000000
0.186005 0.472351 0.000000
0.245209 0.484680 0.000000
0.295258 0.493744 0.000000
0.346222 0.505707 0.000000
0.389465 0.513672 0.000000
0.435822 0.525604 0.000000
0.477722 0.533539 0.000000
0.525696 0.539978 0.000000
0.565948 0.549408 0.000000
0.599426 0.555481 0.000000
0.626678 0.557251 0.000000
0.654449 0.561127 0.000000
0.680450 0.565063 0.000000
0.704071 0.567596 0.000000
0.726440 0.569092 0.000000
0.743683 0.569092 0.000000
0.761902 0.565552 0.000000
0.772827 0.565063 0.000000
0.782196 0.561005 0.000000
0.790680 0.561005 0.000000
0.801941 0.557007 0.000000
0.809418 0.554077 0.000000
0.813690 0.552948 0.000000
0.821564 0.548920 0.000000
0.829437 0.546387 0.000000
0.000000 0.432922 0.002869
0.000000 0.434296 0.000000
0.000000 0.440735 0.000000
0.000000 0.448669 0.000000
0.000000 0.457977 0.000000
0.011505 0.465942 0.000000
0.062775 0.473877 0.000000
0.119141 0.481812 0.000000
0.180603 0.489746 0.000000
0.238739 0.497650 0.000000
0.291229 0.509613 0.000000
0.342377 0.521576 0.000000
0.388336 0.529510 0.000000
0.429840 0.538452 0.000000
0.473450 0.545380 0.000000
0.515350 0.555969 0.000000
0.557831 0.563934 0.000000
0.594940 0.569214 0.000000
0.623322 0.573120 0.000000
0.652832 0.579437 0.000000
0.679077 0.583466 0.000000
0.704071 0.584839 0.000000
0.729065 0.587494 0.000000
0.747314 0.588623 0.000000
0.766327 0.588867 0.000000
0.777679 0.587494 0.000000
0.788696 0.584839 0.000000
0.797943 0.584839 0.000000
0.805817 0.584320 0.000000
0.813690 0.580811 0.000000
0.821564 0.577911 0.000000
0.829437 0.576782 0.000000
0.837311 0.572754 0.000000
0.000000 0.446167 0.001465
0.000000 0.450043 0.000000
0.000000 0.452698 0.000000
0.000000 0.460632 0.000000
0.000000 0.469818 0.000000
0.018982 0.479889 0.000000
0.059021 0.489746 0.000000
0.103119 0.497650 0.000000
0.170258 0.505585 0.000000
0.234863 0.513519 0.000000
0.287231 0.525482 0.000000
0.338470 0.533417 0.000000
0.381744 0.542633 0.000000
0.428955 0.553314 0.000000
0.467712 0.561249 0.000000
0.508331 0.569214 0.000000
0.551208 0.577148 0.000000
0.588074 0.585083 0.000000
0.618469 0.588989 0.000000
0.649200 0.595306 0.000000
0.676453 0.599304 0.000000
0.700043 0.600708 0.000000
0.723694 0.603363 0.000000
0.747314 0.604645 0.000000
0.766937 0.608398 0.000000
0.781677 0.607391 0.000000
0.792664 0.604645 0.000000
0.801788 0.604645 0.000000
0.812439 0.603363 0.000000
0.820312 0.603333 0.000000
0.828186 0.600586 0.000000
0.836060 0.599335 0.000000
0.841187 0.599335 0.000000
0.000000 0.460876 0.018707
0.000000 0.465942 0.003876
0.000000 0.464905 0.000000
0.000000 0.473755 0.000000
0.000000 0.484070 0.000000
0.017487 0.491852 0.000000
0.047485 0.500458 0.000000
0.097260 0.511505 0.000000
0.169861 0.520325 0.000000
0.228729 0.529388 0.000000
0.282104 0.538971 0.000000
0.334625 0.549286 0.000000
0.379242 0.558624 0.000000
0.419830 0.565186 0.000000
0.463226 0.573151 0.000000
0.503723 0.582062 0.000000
0.547974 0.593018 0.000000
0.586304 0.599060 0.000000
0.614929 0.603760 0.000000
0.645325 0.607635 0.000000
0.672455 0.611542 0.000000
0.696320 0.615417 0.000000
0.722565 0.619232 0.000000
0.747314 0.623230 0.000000
0.766937 0.624237 0.000000
0.784821 0.623505 0.000000
0.793793 0.623230 0.000000
0.805695 0.623230 0.000000
0.816406 0.623230 0.000000
0.824280 0.620361 0.000000
0.832153 0.619232 0.000000
0.840057 0.619232 0.000000
0.845062 0.616333 0.000000
0.000000 0.472870 0.038788
0.000000 0.477875 0.026764
0.000000 0.477875 0.002991
0.000000 0.485565 0.002075
0.000000 0.493500 0.002228
0.017120 0.504852 0.001221
0.035767 0.513397 0.001190
0.086029 0.521332 0.000092
0.159973 0.532288 0.000000
0.225250 0.541229 0.000000
0.278229 0.550934 0.000000
0.329102 0.562775 0.000000
0.372467 0.569092 0.000000
0.416809 0.578033 0.000000
0.457001 0.587982 0.000000
0.496857 0.595917 0.000000
0.538940 0.604858 0.000000
0.581573 0.612793 0.000000
0.607941 0.616699 0.000000
0.641449 0.622986 0.000000
0.668457 0.627533 0.000000
0.695068 0.631042 0.000000
0.718689 0.635101 0.000000
0.743317 0.636230 0.000000
0.765930 0.639130 0.000000
0.784821 0.642273 0.000000
0.797424 0.640137 0.000000
0.809174 0.640137 0.000000
0.817413 0.639130 0.000000
0.828308 0.639740 0.000000
0.836182 0.639130 0.000000
0.844055 0.638123 0.000000
0.848938 0.635101 0.000000
0.000000 0.484802 0.057953
0.000000 0.493622 0.046753
0.000000 0.489746 0.019867
0.000000 0.496552 0.014557
0.003510 0.505341 0.014648
0.011383 0.512390 0.009827
0.024780 0.523590 0.008301
0.080505 0.533173 0.001068
0.157257 0.544250 0.000061
0.218964 0.553070 0.000000
0.275238 0.562927 0.000000
0.325104 0.572998 0.000000
0.368500 0.580933 0.000000
0.409332 0.590515 0.000000
0.452118 0.600830 0.000000
0.490601 0.607880 0.000000
0.532196 0.615814 0.000000
0.576447 0.626801 0.000000
0.604706 0.631683 0.000000
0.636810 0.638885 0.000000
0.664429 0.640381 0.000000
0.688568 0.644287 0.000000
0.715698 0.647308 0.000000
0.742218 0.653839 0.000000
0.762177 0.655121 0.000000
0.782562 0.655884 0.000000
0.797424 0.659027 0.000000
0.809448 0.659027 0.000000
0.820801 0.659027 0.000000
0.832275 0.658142 0.000000
0.837067 0.654999 0.000000
0.844940 0.654999 0.000000
0.852814 0.651825 0.000000
0.000000 0.496796 0.070007
0.000000 0.508636 0.061890
0.000000 0.501831 0.039032
0.000000 0.508484 0.029785
0.003510 0.515930 0.025360
0.007996 0.524353 0.017822
0.016785 0.533020 0.012360
0.086639 0.544250 0.005127
0.158997 0.555206 0.000061
0.219360 0.564178 0.000000
0.271240 0.574890 0.000000
0.325104 0.585968 0.000000
0.364471 0.592773 0.000000
0.408600 0.600708 0.000000
0.449738 0.612671 0.000000
0.489838 0.619843 0.000000
0.526703 0.628540 0.000000
0.569305 0.639740 0.000000
0.601440 0.643646 0.000000
0.631958 0.650696 0.000000
0.660461 0.655487 0.000000
0.687317 0.658783 0.000000
0.711700 0.662811 0.000000
0.738190 0.666840 0.000000
0.761902 0.670868 0.000000
