滤镜资源/Professional Luts Collection/Lutify.me Professional/Cine Looks/Okenite.cube
# Created by: Lutify.me
# Copyright: (c) Copyright Lutify.me 2015
# Website: https://lutify.me
#LUT size
LUT_3D_SIZE 9
#LUT data points
0.000000 0.000000 0.000000
0.062012 0.000000 0.000000
0.175995 0.000000 0.000000
0.286011 0.000000 0.000000
0.363983 0.000000 0.000000
0.430969 0.000000 0.000000
0.472961 0.000000 0.000000
0.512451 0.000000 0.000000
0.547974 0.000000 0.000000
0.000000 0.091400 0.000000
0.093018 0.070221 0.000000
0.217468 0.069733 0.000000
0.331482 0.055115 0.000000
0.414978 0.023865 0.000000
0.483459 0.003693 0.000000
0.535950 0.000000 0.000000
0.571442 0.000000 0.000000
0.603455 0.000000 0.000000
0.000000 0.190674 0.000000
0.078491 0.178070 0.000000
0.257996 0.201782 0.000000
0.390961 0.201782 0.000000
0.485992 0.188660 0.000000
0.559937 0.175049 0.000000
0.611969 0.160431 0.000000
0.642456 0.145813 0.000000
0.669922 0.140259 0.000000
0.000000 0.279327 0.000000
0.036499 0.277313 0.000000
0.246002 0.313629 0.000000
0.425964 0.346375 0.000000
0.544952 0.341339 0.000000
0.622925 0.328766 0.000000
0.680450 0.315125 0.000000
0.709442 0.302521 0.000000
0.738434 0.292450 0.000000
0.000000 0.350891 0.000000
0.012512 0.374084 0.000000
0.216980 0.407349 0.000000
0.412964 0.446167 0.000000
0.575958 0.467804 0.000000
0.664948 0.460754 0.000000
0.729919 0.449677 0.000000
0.764954 0.440094 0.000000
0.789917 0.429504 0.000000
0.000000 0.418427 0.001709
0.000000 0.442139 0.000000
0.186005 0.472351 0.000000
0.389465 0.513672 0.000000
0.565948 0.549408 0.000000
0.680450 0.565063 0.000000
0.761902 0.565552 0.000000
0.801941 0.557007 0.000000
0.829437 0.546387 0.000000
0.000000 0.472870 0.038788
0.000000 0.493500 0.002228
0.159973 0.532288 0.000000
0.372467 0.569092 0.000000
0.538940 0.604858 0.000000
0.668457 0.627533 0.000000
0.765930 0.639130 0.000000
0.817413 0.639130 0.000000
0.848938 0.635101 0.000000
0.000000 0.520721 0.094177
0.000000 0.535828 0.034760
0.159485 0.572113 0.009308
0.360504 0.611908 0.006805
0.517944 0.643646 0.000000
0.649445 0.673889 0.000000
0.750458 0.690033 0.000000
0.820435 0.698608 0.000000
0.859924 0.702637 0.000000
0.000000 0.560516 0.146454
0.000000 0.572632 0.102783
0.145996 0.603851 0.082489
0.356476 0.639618 0.031677
0.501984 0.671356 0.010345
0.629944 0.697601 0.020538
0.726929 0.714722 0.007294
0.808929 0.729858 0.000000
0.855927 0.737915 0.000183
0.004028 0.000000 0.071289
0.046509 0.000000 0.059113
0.156494 0.000000 0.055054
0.274963 0.000000 0.048950
0.367981 0.000000 0.040833
0.436951 0.000000 0.036255
0.489960 0.000000 0.034241
0.524445 0.000000 0.034241
0.559937 0.000000 0.038818
0.019531 0.090393 0.042877
0.065521 0.070221 0.063171
0.180481 0.059174 0.055054
0.304993 0.045044 0.052490
0.409454 0.014801 0.044891
0.479980 0.000000 0.036774
0.539948 0.000000 0.034760
0.576447 0.000000 0.038818
0.610962 0.000000 0.050476
0.001495 0.201782 0.000000
0.020508 0.179077 0.056061
0.225494 0.208313 0.062653
0.363983 0.203766 0.046906
0.474945 0.188171 0.036774
0.550446 0.173523 0.036255
0.610443 0.157898 0.033691
0.645447 0.143311 0.034241
0.673950 0.132202 0.045898
0.000000 0.286896 0.000000
0.003510 0.301514 0.055054
0.191986 0.317139 0.040314
0.396973 0.352936 0.038300
0.531464 0.351410 0.013916
0.611969 0.335297 0.009308
0.674957 0.320160 0.022522
0.709930 0.305054 0.031677
0.736969 0.294952 0.043365
0.000000 0.350403 0.019501
0.000000 0.402313 0.066223
0.162506 0.416901 0.041321
0.376465 0.451202 0.018982
0.558472 0.479919 0.012848
0.650452 0.473358 0.018494
0.721436 0.462769 0.009308
0.762421 0.451691 0.005798
0.789917 0.441620 0.012360
0.000000 0.404816 0.061646
0.000000 0.475891 0.097717
0.121460 0.494507 0.058105
0.356476 0.525726 0.029144
0.539459 0.561523 0.023071
0.666443 0.580688 0.000000
0.749939 0.578674 0.006256
0.794434 0.569092 0.022552
0.823914 0.558502 0.034241
0.000000 0.454224 0.106842
0.000000 0.529785 0.131226
0.120483 0.551941 0.083496
0.346985 0.587738 0.065704
0.513458 0.612915 0.018982
0.649933 0.638611 0.025116
0.753906 0.653717 0.033722
0.812439 0.652222 0.017975
0.843933 0.648193 0.012878
0.000000 0.505096 0.142944
0.000000 0.568604 0.170349
0.105011 0.588745 0.126160
0.340973 0.624512 0.094147
0.497467 0.655243 0.064178
0.632446 0.683472 0.067749
0.737915 0.702637 0.034760
0.812927 0.713715 0.031708
0.855927 0.714203 0.063660
0.000000 0.548401 0.182526
0.000000 0.603851 0.206421
0.085999 0.619446 0.165253
0.343475 0.651703 0.145447
0.489960 0.679413 0.129730
0.614929 0.705139 0.107880
0.716431 0.725281 0.092651
0.800934 0.741394 0.104309
0.851929 0.749481 0.123627
0.007996 0.000000 0.156647
0.054993 0.000000 0.160675
0.155975 0.000000 0.163727
0.267487 0.000000 0.161194
0.363983 0.000000 0.157654
0.434967 0.000000 0.154602
0.489960 0.000000 0.146484
0.526947 0.000000 0.144958
0.559937 0.000000 0.150513
0.000000 0.089386 0.238922
0.050995 0.062164 0.181519
0.175507 0.051086 0.178467
0.290466 0.031921 0.178467
0.396973 0.004211 0.173401
0.471954 0.000000 0.169830
0.532959 0.000000 0.169342
0.575958 0.000000 0.174408
0.606934 0.000000 0.174927
0.005035 0.248108 0.177979
0.000000 0.205780 0.206879
0.202972 0.212830 0.210480
0.347473 0.203766 0.201843
0.464966 0.189667 0.198273
0.538452 0.170502 0.193207
0.602966 0.154388 0.194244
0.641449 0.141785 0.193207
0.666962 0.128204 0.192169
0.000000 0.341827 0.092133
0.000000 0.293457 0.156128
0.173492 0.344360 0.203857
0.376984 0.364532 0.210968
0.512451 0.355957 0.203857
0.595947 0.340820 0.205383
0.662933 0.322174 0.204346
0.704956 0.307068 0.203339
0.729950 0.294952 0.203857
0.000000 0.386169 0.084534
0.000000 0.390198 0.166779
0.121979 0.438568 0.201324
0.338989 0.454224 0.195740
0.534973 0.488983 0.208435
0.632935 0.481415 0.206390
0.707947 0.472839 0.205383
0.754425 0.462280 0.207428
0.781921 0.446655 0.207397
0.000000 0.411865 0.123108
0.000000 0.462769 0.183563
0.091522 0.521210 0.217072
0.324982 0.538361 0.197266
0.501953 0.566589 0.193695
0.648438 0.594788 0.205383
0.734955 0.594788 0.208435
0.784424 0.583710 0.207916
0.814423 0.569092 0.214539
0.000000 0.436554 0.163727
0.000000 0.517181 0.204895
0.066010 0.583710 0.235870
0.316498 0.602844 0.209961
0.481964 0.620972 0.200317
0.626953 0.647675 0.205383
0.738922 0.667358 0.211487
0.800415 0.667358 0.221649
0.833923 0.660278 0.221649
0.000000 0.473358 0.189148
0.000000 0.556458 0.229279
0.105499 0.623016 0.264282
0.315979 0.643158 0.230804
0.473450 0.667847 0.219604
0.610443 0.692047 0.219116
0.716949 0.714722 0.226715
0.801422 0.729340 0.234833
0.844940 0.729858 0.247528
0.000000 0.517181 0.218567
0.000000 0.588745 0.258209
0.134003 0.652222 0.289703
0.319977 0.670868 0.257690
0.471954 0.695557 0.247040
0.597443 0.716736 0.243988
0.695953 0.734863 0.246033
0.785919 0.753021 0.258698
0.840942 0.762085 0.272430
0.022491 0.000000 0.226227
0.076996 0.000000 0.236877
0.165009 0.000000 0.244995
0.269989 0.000000 0.244995
0.365967 0.000000 0.244995
0.434967 0.000000 0.240936
0.488953 0.000000 0.236877
0.526459 0.000000 0.235352
0.555969 0.000000 0.239410
0.000000 0.061676 0.280029
0.062500 0.043030 0.276520
0.175507 0.028412 0.279541
0.286987 0.008240 0.279541
0.391479 0.000000 0.280579
0.463959 0.000000 0.275482
0.528442 0.000000 0.276520
0.571960 0.000000 0.279541
0.603455 0.000000 0.281067
0.000000 0.214355 0.359283
0.000000 0.211823 0.351135
0.199005 0.212830 0.331879
0.339478 0.197205 0.330353
0.451477 0.180084 0.324249
0.527954 0.163452 0.322693
0.592438 0.145294 0.319641
0.635437 0.130188 0.319641
0.663452 0.114594 0.317108
0.000000 0.386688 0.313568
0.000000 0.326721 0.321167
0.000000 0.364532 0.356232
0.358002 0.367523 0.355743
0.500458 0.355469 0.351654
0.581451 0.336304 0.347626
0.649445 0.323181 0.344543
0.693420 0.306580 0.343536
0.722443 0.294952 0.343536
0.000000 0.458252 0.233307
0.000000 0.389709 0.272949
0.000000 0.431030 0.296814
0.346466 0.492493 0.357239
0.521973 0.500549 0.361328
0.616455 0.488983 0.359772
0.691925 0.475861 0.359283
0.741943 0.465302 0.355743
0.771423 0.455231 0.359283
0.000000 0.475372 0.205383
0.000000 0.434570 0.259735
0.000000 0.505585 0.300873
0.311981 0.562012 0.343536
0.487457 0.586731 0.350128
0.632446 0.610413 0.363861
0.717926 0.607391 0.364868
0.771423 0.592773 0.363861
0.802948 0.578674 0.365356
0.000000 0.468842 0.217560
0.000000 0.471344 0.264282
0.000000 0.570099 0.314056
0.305481 0.624512 0.353180
0.456482 0.632050 0.342010
0.599457 0.656769 0.349640
0.718933 0.679413 0.363861
0.786438 0.681427 0.371979
0.822418 0.675415 0.373505
0.000000 0.468842 0.247040
0.000000 0.510132 0.281586
0.000000 0.607391 0.332886
0.308990 0.668854 0.365356
0.453461 0.684448 0.349640
0.581940 0.699615 0.351135
0.691925 0.719238 0.359802
0.786438 0.738922 0.372498
0.833405 0.739410 0.378082
0.000000 0.483917 0.273438
0.000000 0.552460 0.302917
0.002502 0.639618 0.351166
0.328003 0.698578 0.381622
0.454468 0.712189 0.361328
0.576965 0.731354 0.357239
0.675446 0.746979 0.361328
0.770416 0.764587 0.374023
0.829437 0.774170 0.381622
0.042023 0.000000 0.276520
0.097015 0.000000 0.290710
0.178986 0.000000 0.300873
0.273987 0.000000 0.305450
0.367981 0.000000 0.306976
0.434967 0.000000 0.304932
0.488953 0.000000 0.303925
0.528442 0.000000 0.300873
0.555969 0.000000 0.304932
0.002991 0.035461 0.341003
0.090515 0.017303 0.349640
0.190491 0.000153 0.353699
0.293488 0.000000 0.354706
0.388489 0.000000 0.350128
0.460968 0.000000 0.351654
0.522461 0.000000 0.350128
0.566956 0.000000 0.354187
0.596954 0.000000 0.352661
0.000000 0.204773 0.429901
0.022522 0.205292 0.416656
0.207001 0.200775 0.417694
0.334991 0.184113 0.414642
0.444977 0.169495 0.412598
0.519440 0.148346 0.410065
0.584961 0.126160 0.405487
0.628937 0.110046 0.403961
0.657928 0.099976 0.404480
0.000000 0.343353 0.453247
0.000000 0.323700 0.454254
0.035522 0.364014 0.483734
0.356476 0.363525 0.448151
0.486481 0.347382 0.445618
0.569458 0.329773 0.442078
0.636932 0.314117 0.441071
0.685425 0.299011 0.438507
0.714447 0.288422 0.436493
0.000000 0.492004 0.414642
0.000000 0.418427 0.400909
0.000000 0.427490 0.426819
0.185486 0.511139 0.476105
0.507965 0.502075 0.465424
0.604462 0.490479 0.463898
0.679932 0.476868 0.458313
0.730438 0.462769 0.456787
0.761932 0.449677 0.455261
0.000000 0.537842 0.356750
0.000000 0.461761 0.356232
0.000000 0.459747 0.366882
0.149506 0.567078 0.422272
0.511963 0.616425 0.470001
0.622467 0.617462 0.471008
0.703430 0.608887 0.467957
0.759918 0.594269 0.467468
0.791931 0.576660 0.461365
0.000000 0.539368 0.323212
0.000000 0.474365 0.341003
0.000000 0.522217 0.362823
0.138000 0.611908 0.407013
0.476959 0.658264 0.451202
0.600433 0.673889 0.455780
0.709930 0.687469 0.469482
0.775452 0.687469 0.472534
0.811951 0.679413 0.473541
0.000000 0.519684 0.313049
0.000000 0.485962 0.343048
0.000000 0.564056 0.371460
0.150482 0.660797 0.417694
0.461975 0.700104 0.449188
0.576447 0.710693 0.443604
0.678955 0.727295 0.455780
0.776428 0.746460 0.469482
0.823914 0.746979 0.474060
0.000000 0.502075 0.321167
0.000000 0.505585 0.343536
0.000000 0.599823 0.382141
0.190491 0.690491 0.429871
0.463959 0.731842 0.455261
0.566956 0.739899 0.443604
0.654938 0.750977 0.444092
0.752930 0.772156 0.457794
0.819946 0.786255 0.473541
0.073517 0.000000 0.318634
0.121002 0.000000 0.330322
0.195496 0.000000 0.338989
0.285004 0.000000 0.343018
0.367981 0.000000 0.347107
0.434967 0.000000 0.347107
0.485962 0.000000 0.347107
0.528442 0.000000 0.347107
0.551941 0.000000 0.347107
0.052002 0.002167 0.386200
0.120483 0.000000 0.390259
0.203979 0.000000 0.395325
0.298492 0.000000 0.396362
0.387482 0.000000 0.397888
0.454468 0.000000 0.396851
0.516968 0.000000 0.399902
0.563446 0.000000 0.404968
0.594940 0.000000 0.409576
0.000000 0.200745 0.468445
0.078003 0.195221 0.469482
0.225494 0.187653 0.475098
0.338470 0.167969 0.474060
0.441956 0.152344 0.473572
0.516968 0.132721 0.472534
0.577454 0.108521 0.469482
0.624939 0.091400 0.469482
0.652435 0.074768 0.466949
0.000000 0.328766 0.517731
0.000000 0.341827 0.529907
0.194000 0.362000 0.526886
0.360504 0.351410 0.521790
0.482971 0.340820 0.521790
0.563965 0.321686 0.518738
0.630920 0.307068 0.517731
0.678955 0.292450 0.516205
0.708954 0.278839 0.512665
0.000000 0.450195 0.523315
0.000000 0.408844 0.508575
0.000000 0.448669 0.544159
0.290985 0.505096 0.569519
0.507965 0.502075 0.547699
0.596954 0.484924 0.545685
0.668945 0.472839 0.545685
0.721436 0.460754 0.543671
0.753937 0.447174 0.541107
0.000000 0.563538 0.504517
0.000000 0.498047 0.486786
0.000000 0.464294 0.482697
0.000000 0.561523 0.540588
0.381470 0.621490 0.567505
0.610931 0.614960 0.558868
0.693939 0.606384 0.556824
0.748962 0.591766 0.557343
0.783936 0.578674 0.557343
0.000000 0.587738 0.441071
0.000000 0.524231 0.436493
0.000000 0.488464 0.441071
0.000000 0.586212 0.476624
0.361481 0.667328 0.529938
0.612457 0.696075 0.561401
0.702942 0.696564 0.563934
0.764435 0.692047 0.563934
0.803436 0.680939 0.563934
0.000000 0.582184 0.403961
0.000000 0.518188 0.407013
0.000000 0.510620 0.419220
0.000000 0.620972 0.459839
0.351990 0.695068 0.506561
0.593445 0.735870 0.549225
0.686462 0.747986 0.553802
0.767426 0.755035 0.565460
0.811951 0.752502 0.568024
0.000000 0.559509 0.390778
0.000000 0.510132 0.401428
0.000000 0.549408 0.420746
0.000000 0.655243 0.465912
0.364990 0.721771 0.507568
0.576447 0.759552 0.539581
0.660431 0.771149 0.541107
0.748962 0.784241 0.549713
0.811951 0.798340 0.565460
0.105011 0.000000 0.350647
0.148499 0.000000 0.358765
0.217010 0.000000 0.368927
0.299500 0.000000 0.375031
0.373993 0.000000 0.379089
0.434967 0.000000 0.379089
0.485962 0.000000 0.379089
0.527954 0.000000 0.379089
0.551941 0.000000 0.383148
0.097015 0.000000 0.424316
0.151489 0.000000 0.426849
0.225983 0.000000 0.430389
0.310974 0.000000 0.432434
0.391968 0.000000 0.431396
0.458466 0.000000 0.434967
0.515961 0.000000 0.434967
0.562958 0.000000 0.442596
0.590942 0.000000 0.446655
0.016998 0.188660 0.509094
0.136505 0.183105 0.514679
0.246002 0.166473 0.515198
0.353973 0.156921 0.519257
0.446960 0.137238 0.518250
0.515961 0.115570 0.515198
0.573944 0.085876 0.513153
0.620453 0.067719 0.511139
0.646942 0.054626 0.511139
0.000000 0.343353 0.576630
0.002502 0.352448 0.575134
0.239502 0.354950 0.569519
0.372467 0.340851 0.571045
0.483459 0.327240 0.568512
0.559937 0.310089 0.565460
0.625946 0.293945 0.562927
0.673462 0.278839 0.561401
0.702454 0.266754 0.558868
0.000000 0.419434 0.574097
0.000000 0.424469 0.587311
0.013000 0.472839 0.616760
0.363495 0.498535 0.607147
0.505951 0.492981 0.601532
0.592957 0.482422 0.599518
0.663940 0.465790 0.596466
0.716949 0.452209 0.595428
0.746918 0.438568 0.593414
0.000000 0.518677 0.577148
0.000000 0.468323 0.553772
0.000000 0.479401 0.570038
0.001007 0.577148 0.631500
0.454956 0.619446 0.640137
0.608459 0.613434 0.615753
0.686951 0.599335 0.615753
0.741943 0.583710 0.612183
0.777435 0.570618 0.611664
0.000000 0.613922 0.562927
0.000000 0.558472 0.547180
0.000000 0.498047 0.526367
0.000000 0.572113 0.568512
0.125977 0.667328 0.616760
0.527466 0.704651 0.632019
0.693939 0.698608 0.623901
0.757446 0.692047 0.623383
0.795929 0.683472 0.619812
0.000000 0.626038 0.527374
0.000000 0.574646 0.515198
0.000000 0.512146 0.499969
0.000000 0.577667 0.524323
0.076996 0.683960 0.570557
0.515961 0.743927 0.604584
0.697418 0.763092 0.626923
0.764435 0.759552 0.626923
0.804443 0.755035 0.624390
0.000000 0.617981 0.491821
0.000000 0.559509 0.480164
0.000000 0.523224 0.481689
0.000000 0.610413 0.516724
0.083008 0.694580 0.547699
0.510956 0.759552 0.591888
0.678955 0.787262 0.619812
0.753418 0.798859 0.623383
0.807922 0.806396 0.626923
0.136505 0.000000 0.370453
0.179993 0.000000 0.378601
0.237488 0.000000 0.386719
0.312988 0.000000 0.394318
0.383972 0.000000 0.398376
0.438965 0.000000 0.398895
0.488953 0.000000 0.402435
0.528442 0.000000 0.402954
0.551941 0.000000 0.406494
0.136505 0.000000 0.446136
0.186981 0.000000 0.450195
0.247986 0.000000 0.453247
0.326965 0.000000 0.459839
0.399475 0.000000 0.457794
0.458466 0.000000 0.461853
0.513458 0.000000 0.462891
0.559937 0.000000 0.470490
0.590942 0.000000 0.478119
0.107513 0.173035 0.542114
0.189484 0.164978 0.547211
0.273987 0.152863 0.547729
0.366974 0.139771 0.551239
0.452972 0.118622 0.551239
0.515961 0.090912 0.550232
0.572449 0.064697 0.547211
0.618469 0.048035 0.547211
0.642944 0.032410 0.544647
0.002991 0.347382 0.607117
0.134491 0.349426 0.606598
0.276489 0.343353 0.607635
0.390472 0.329254 0.608643
0.489441 0.315125 0.608643
0.562439 0.300018 0.607117
0.624451 0.283386 0.605103
0.669434 0.268768 0.601013
0.696960 0.254669 0.600525
0.000000 0.434540 0.620819
0.000000 0.463776 0.643188
0.160461 0.485443 0.652832
0.397980 0.493500 0.646240
0.510468 0.484436 0.645233
0.592957 0.471832 0.644714
0.661926 0.459259 0.642670
0.712952 0.444122 0.640656
0.741943 0.429016 0.638611
0.000000 0.470825 0.605621
0.000000 0.471375 0.607117
0.000000 0.534332 0.653839
0.229980 0.597290 0.682312
0.510468 0.613434 0.672119
0.608459 0.605377 0.664490
0.682922 0.593781 0.662964
0.737946 0.582184 0.660431
0.771942 0.566559 0.660431
0.000000 0.576660 0.626923
0.000000 0.527252 0.600006
0.000000 0.505096 0.593414
0.000000 0.597290 0.652832
0.244965 0.672882 0.692963
0.574463 0.699615 0.695007
0.694458 0.696075 0.672150
0.753418 0.688477 0.672150
0.791931 0.680420 0.671631
0.000000 0.637604 0.610168
0.000000 0.594269 0.594421
0.000000 0.529266 0.566986
0.000000 0.557983 0.586823
0.000000 0.667328 0.646729
0.373474 0.740936 0.680786
0.618439 0.766602 0.690918
0.749451 0.763092 0.683319
0.799927 0.755035 0.675659
0.000000 0.649200 0.578156
0.000000 0.602875 0.562927
0.000000 0.537842 0.541626
0.000000 0.559509 0.551758
0.000000 0.664825 0.598480
0.335968 0.744934 0.636566
0.607971 0.790771 0.660431
0.752930 0.810455 0.679260
0.803955 0.810455 0.679260
0.171997 0.000000 0.390259
0.207489 0.000000 0.394318
0.261993 0.000000 0.401428
0.328979 0.000000 0.406494
0.391968 0.000000 0.410583
0.445465 0.000000 0.412109
0.492981 0.000000 0.414612
0.528442 0.000000 0.418701
0.551941 0.000000 0.418701
0.179504 0.000000 0.461853
0.215485 0.000000 0.461853
0.272491 0.000000 0.468445
0.343994 0.000000 0.469482
0.408966 0.000000 0.469482
0.462463 0.000000 0.474091
0.516968 0.000000 0.479156
0.559448 0.000000 0.482208
0.587433 0.000000 0.490845
0.179993 0.159424 0.561920
0.234985 0.151367 0.565979
0.304993 0.139252 0.566986
0.386475 0.120636 0.569031
0.460968 0.096954 0.569031
0.519440 0.066223 0.566986
0.572968 0.046539 0.566986
0.617950 0.033447 0.566986
0.641937 0.022339 0.565979
0.118988 0.341858 0.624390
0.216492 0.340332 0.629456
0.312988 0.332275 0.630981
0.413971 0.317657 0.632507
0.500458 0.304016 0.633026
0.563965 0.287903 0.630981
0.624451 0.273804 0.629974
0.668945 0.257172 0.626953
0.694427 0.245087 0.624390
0.000000 0.467834 0.662476
0.032501 0.481415 0.672638
0.280975 0.487976 0.672638
0.421997 0.488464 0.675201
0.521973 0.477905 0.676697
0.596954 0.466309 0.676697
0.662933 0.451691 0.672638
0.708435 0.431030 0.670593
0.737946 0.415375 0.668579
0.000000 0.490479 0.643188
0.000000 0.527740 0.669098
0.006012 0.573120 0.695007
0.358978 0.602356 0.704651
0.529938 0.610382 0.700562
0.612457 0.601349 0.700562
0.681915 0.586212 0.700043
0.733948 0.574646 0.696503
0.767914 0.561005 0.696503
0.000000 0.518188 0.630005
0.000000 0.509125 0.624390
0.000000 0.554443 0.657410
0.009003 0.637115 0.704651
0.418976 0.682434 0.723419
0.607971 0.695557 0.718842
0.693939 0.692566 0.715302
0.752411 0.687988 0.715302
0.787933 0.682465 0.712250
0.000000 0.614410 0.658905
0.000000 0.559998 0.631012
0.000000 0.524719 0.610168
0.000000 0.593781 0.656891
0.006500 0.688995 0.708710
0.461975 0.751495 0.732574
0.662445 0.766602 0.735138
0.756958 0.759552 0.719849
0.795929 0.755035 0.719849
0.000000 0.657257 0.650299
0.000000 0.617981 0.634552
0.000000 0.553467 0.602539
0.000000 0.549438 0.604095
0.000000 0.655243 0.662476
0.097504 0.740936 0.704651
0.525940 0.791290 0.727478
0.686462 0.810455 0.731567
0.791931 0.814484 0.731567
