滤镜资源/Professional Luts Collection/Lutify.me Professional/Cine Looks/Oligoclase.cube
# Created by: Lutify.me
# Copyright: (c) Copyright Lutify.me 2015
# Website: https://lutify.me
#LUT size
LUT_3D_SIZE 5
#LUT data points
0.004028 0.000000 0.000000
0.160004 0.003998 0.000000
0.367950 0.000000 0.000000
0.521881 0.000000 0.000000
0.623901 0.000000 0.000000
0.000000 0.151794 0.003113
0.155975 0.139893 0.000000
0.432953 0.140869 0.000000
0.584869 0.110138 0.000000
0.678864 0.096222 0.000000
0.000000 0.361084 0.042114
0.173981 0.361115 0.000122
0.445953 0.376984 0.012146
0.645874 0.375000 0.000000
0.777863 0.343231 0.000000
0.000000 0.521820 0.149109
0.167969 0.529724 0.059113
0.484924 0.566437 0.048096
0.662872 0.577362 0.063110
0.811859 0.578339 0.003021
0.028015 0.626953 0.260101
0.221985 0.626953 0.177094
0.499939 0.672577 0.144104
0.689850 0.702362 0.153107
0.819855 0.706299 0.192078
0.004028 0.000000 0.145111
0.141998 0.000000 0.155090
0.369934 0.000000 0.146118
0.537872 0.000000 0.144104
0.639893 0.000000 0.156097
0.000000 0.165680 0.163086
0.171967 0.205353 0.184113
0.467926 0.233124 0.197113
0.643890 0.233124 0.199097
0.741821 0.226166 0.200104
0.000000 0.401764 0.265106
0.141998 0.409698 0.213104
0.432953 0.404755 0.195099
0.681885 0.416656 0.113129
0.792877 0.388885 0.090118
0.000000 0.564453 0.330078
0.158966 0.579315 0.273102
0.465942 0.596191 0.228088
0.653870 0.601166 0.243073
0.818848 0.602142 0.152100
0.059998 0.657684 0.382050
0.247986 0.673584 0.346100
0.484924 0.697388 0.291077
0.674866 0.723175 0.298096
0.811859 0.725159 0.318085
0.020020 0.000000 0.312073
0.185974 0.003998 0.325073
0.387939 0.000000 0.354065
0.541901 0.000000 0.358063
0.639893 0.000000 0.364075
0.000000 0.213287 0.360077
0.162964 0.242035 0.415070
0.445953 0.237091 0.414062
0.622894 0.200409 0.423065
0.733826 0.210327 0.425079
0.022003 0.420624 0.412079
0.235931 0.438477 0.418060
0.501923 0.505920 0.458069
0.679901 0.507904 0.457062
0.831848 0.541626 0.492035
0.044983 0.604126 0.493042
0.246979 0.613068 0.479034
0.491913 0.652740 0.461060
0.675873 0.662659 0.456055
0.839844 0.662659 0.416077
0.161987 0.700348 0.540009
0.303955 0.716217 0.528046
0.515900 0.740021 0.492035
0.662872 0.751953 0.462067
0.803864 0.747955 0.466064
0.072968 0.016876 0.446075
0.244934 0.020844 0.461060
0.429962 0.024811 0.475037
0.566895 0.000000 0.490051
0.655884 0.000000 0.493042
0.007996 0.281738 0.542023
0.200989 0.262909 0.545013
0.469940 0.277771 0.538025
0.622894 0.248016 0.554993
0.722870 0.186523 0.559998
0.048004 0.433533 0.520020
0.236969 0.472198 0.551025
0.501923 0.541626 0.610016
0.675873 0.520813 0.600037
0.805847 0.498993 0.612030
0.238953 0.621002 0.582031
0.356964 0.625946 0.578979
0.559875 0.682495 0.612030
0.717865 0.720215 0.633026
0.827850 0.716217 0.629028
0.329956 0.730103 0.629028
0.429962 0.739044 0.625031
0.552887 0.755920 0.621033
0.708862 0.794586 0.635010
0.832855 0.809479 0.634003
0.159973 0.091278 0.536011
0.304962 0.099213 0.550995
0.479919 0.103180 0.564026
0.605896 0.082336 0.575989
0.687866 0.007935 0.575989
0.123993 0.333313 0.627014
0.276978 0.301575 0.623016
0.499939 0.308533 0.630005
0.644897 0.308533 0.632019
0.734833 0.264893 0.635010
0.089996 0.521790 0.656006
0.299957 0.556519 0.683014
0.509918 0.561462 0.695984
0.690857 0.554535 0.690002
0.795868 0.527771 0.694000
0.269989 0.619995 0.640015
0.378937 0.638855 0.652008
0.547913 0.693420 0.694000
0.714844 0.740021 0.723999
0.827850 0.732086 0.723999
0.447937 0.749969 0.692017
0.506927 0.753937 0.692017
0.605896 0.767822 0.694000
0.753876 0.813446 0.727966
0.843842 0.829315 0.731995
