滤镜资源/Professional Luts Collection/Lutify.me Professional/Cine Looks/Oligoclase.cube
# Created by: Lutify.me
# Copyright: (c) Copyright Lutify.me 2015
# Website: https://lutify.me
#LUT size
LUT_3D_SIZE 9
#LUT data points
0.004028 0.000000 0.000000
0.050507 0.003998 0.000000
0.160004 0.003998 0.000000
0.273987 0.000000 0.000000
0.367950 0.000000 0.000000
0.448456 0.000000 0.000000
0.521881 0.000000 0.000000
0.580383 0.000000 0.000000
0.623901 0.000000 0.000000
0.000000 0.058563 0.000000
0.046478 0.046112 0.000000
0.151978 0.053070 0.000000
0.287964 0.045624 0.000000
0.391449 0.022308 0.000000
0.476440 0.010925 0.000000
0.553864 0.000000 0.000000
0.608398 0.007446 0.000000
0.655365 0.000000 0.000000
0.000000 0.151794 0.003113
0.054474 0.135925 0.000000
0.155975 0.139893 0.000000
0.295471 0.150787 0.000000
0.432953 0.140869 0.000000
0.512909 0.127991 0.000000
0.584869 0.110138 0.000000
0.632904 0.096741 0.000000
0.678864 0.096222 0.000000
0.000000 0.255951 0.016113
0.022003 0.244049 0.000000
0.175995 0.248016 0.000000
0.305969 0.257446 0.000092
0.423950 0.261902 0.000000
0.544403 0.254456 0.000000
0.637878 0.240051 0.000000
0.681396 0.224182 0.000000
0.722351 0.213776 0.000000
0.000000 0.361084 0.042114
0.016998 0.354675 0.008118
0.173981 0.361115 0.000122
0.333954 0.371033 0.000000
0.445953 0.376984 0.012146
0.548889 0.383423 0.000000
0.645874 0.375000 0.000000
0.732880 0.361115 0.000000
0.777863 0.343231 0.000000
0.000000 0.447418 0.097626
0.012512 0.438965 0.039124
0.158966 0.456818 0.025604
0.344452 0.479156 0.008118
0.473419 0.484589 0.013123
0.569885 0.486084 0.037628
0.647369 0.492523 0.027130
0.744843 0.485596 0.000000
0.805359 0.466248 0.000000
0.000000 0.521820 0.149109
0.000000 0.509888 0.086639
0.167969 0.529724 0.059113
0.348450 0.550568 0.047607
0.484924 0.566437 0.048096
0.592407 0.577362 0.045135
0.662872 0.577362 0.063110
0.746338 0.585297 0.066589
0.811859 0.578339 0.003021
0.004028 0.576355 0.201080
0.038483 0.563446 0.141113
0.181000 0.587250 0.122131
0.356445 0.610596 0.094635
0.492401 0.628448 0.077606
0.602905 0.639832 0.097137
0.678406 0.643799 0.113129
0.756897 0.647766 0.121124
0.815857 0.652252 0.114624
0.028015 0.626953 0.260101
0.015991 0.607605 0.193085
0.221985 0.626953 0.177094
0.369934 0.649261 0.157623
0.499939 0.672577 0.144104
0.608398 0.691925 0.144104
0.689850 0.702362 0.153107
0.769379 0.709778 0.176605
0.819855 0.706299 0.192078
0.000000 0.003998 0.062592
0.038971 0.003998 0.050629
0.147980 0.000000 0.050629
0.270966 0.000000 0.044128
0.375458 0.000000 0.032104
0.456451 0.000000 0.028137
0.537384 0.000000 0.030121
0.591858 0.000000 0.037598
0.639374 0.000000 0.042145
0.000000 0.058044 0.050140
0.050507 0.073914 0.058136
0.152985 0.081848 0.054596
0.304962 0.098206 0.060089
0.423950 0.091278 0.052124
0.507416 0.080872 0.045593
0.584869 0.068451 0.042145
0.636902 0.061493 0.046112
0.686859 0.064514 0.058136
0.000000 0.155243 0.093628
0.028503 0.156250 0.063080
0.159485 0.166687 0.066132
0.315948 0.170624 0.019623
0.442444 0.164185 0.004150
0.535400 0.163177 0.004120
0.619904 0.163177 0.008118
0.674896 0.163177 0.002045
0.718842 0.167175 0.023102
0.000000 0.275787 0.130127
0.015991 0.268860 0.089142
0.156464 0.267365 0.071106
0.296478 0.267853 0.078094
0.435944 0.276794 0.018127
0.563873 0.271820 0.000000
0.646881 0.259430 0.000000
0.698364 0.245026 0.000000
0.745850 0.242523 0.000000
0.000000 0.386414 0.160614
0.006989 0.382416 0.122620
0.146973 0.378967 0.091125
0.321442 0.389374 0.087646
0.436951 0.387390 0.093140
0.547882 0.394348 0.050110
0.658875 0.389862 0.000000
0.744324 0.376984 0.000000
0.785858 0.361115 0.000000
0.000000 0.470703 0.194611
0.000000 0.472198 0.156616
0.137970 0.477661 0.118622
0.328949 0.495026 0.103119
0.465942 0.497986 0.110626
0.564392 0.496002 0.116119
0.642883 0.497986 0.098633
0.748352 0.496521 0.000000
0.815857 0.484100 0.000000
0.000000 0.542633 0.230072
0.033997 0.545624 0.196594
0.141998 0.545105 0.152618
0.337433 0.567444 0.135620
0.476440 0.577362 0.127625
0.584381 0.585297 0.137604
0.661377 0.587738 0.151611
0.744843 0.593719 0.138611
0.811859 0.587280 0.047607
0.000000 0.595215 0.275085
0.031982 0.600159 0.244080
0.155487 0.599182 0.189117
0.346924 0.622498 0.173126
0.483917 0.640839 0.164612
0.596375 0.651245 0.168610
0.677399 0.651733 0.183594
0.753357 0.655701 0.195618
0.811859 0.663177 0.193085
0.047974 0.638855 0.315582
0.138000 0.646301 0.291595
0.215485 0.638367 0.235077
0.361938 0.661194 0.219604
0.495422 0.683990 0.208588
0.600922 0.699860 0.207062
0.685883 0.711273 0.216064
0.765869 0.714722 0.232574
0.816345 0.714233 0.247589
0.004028 0.000000 0.145111
0.049988 0.003998 0.133606
0.141998 0.000000 0.155090
0.262970 0.000000 0.153625
0.369934 0.000000 0.146118
0.457428 0.000000 0.144104
0.537872 0.000000 0.144104
0.592865 0.000000 0.150635
0.639893 0.000000 0.156097
0.000000 0.072937 0.125610
0.031494 0.089294 0.164093
0.155975 0.089783 0.167633
0.297455 0.089294 0.171600
0.421448 0.085297 0.170593
0.507904 0.077362 0.171112
0.588898 0.068939 0.170593
0.644379 0.074890 0.175629
0.690887 0.065002 0.176117
0.000000 0.165680 0.163086
0.050507 0.186005 0.179596
0.171967 0.205353 0.184113
0.318939 0.212799 0.181610
0.467926 0.233124 0.197113
0.564911 0.236115 0.201080
0.643890 0.233124 0.199097
0.697388 0.231140 0.198120
0.741821 0.226166 0.200104
0.000000 0.286713 0.219574
0.023987 0.283722 0.206604
0.159485 0.307037 0.196075
0.321442 0.315460 0.188599
0.474426 0.314484 0.153107
0.570374 0.304047 0.141602
0.660889 0.304565 0.147095
0.725861 0.307526 0.158112
0.774872 0.312988 0.167114
0.000000 0.401764 0.265106
0.000000 0.407227 0.246094
0.141998 0.409698 0.213104
0.310944 0.413666 0.193115
0.432953 0.404755 0.195099
0.556885 0.413177 0.167114
0.681885 0.416656 0.113129
0.749847 0.402771 0.092621
0.792877 0.388885 0.090118
0.000000 0.494019 0.297577
0.017487 0.501953 0.278595
0.134003 0.508881 0.242584
0.314453 0.515350 0.212067
0.451935 0.516357 0.208069
0.556396 0.511383 0.218567
0.638885 0.512360 0.205078
0.757385 0.515869 0.124603
0.825348 0.505920 0.071106
0.000000 0.564453 0.330078
0.001007 0.572876 0.310577
0.158966 0.579315 0.273102
0.320465 0.583801 0.237579
0.465942 0.596191 0.228088
0.577362 0.600677 0.234558
0.653870 0.601166 0.243073
0.738861 0.605133 0.238556
0.818848 0.602142 0.152100
0.004028 0.618530 0.357574
0.084991 0.626953 0.344574
0.207977 0.636871 0.313080
0.336456 0.640839 0.268616
0.474426 0.657196 0.256104
0.587372 0.665649 0.258087
0.666382 0.664154 0.270111
0.746338 0.667603 0.285095
0.807861 0.674072 0.282104
0.059998 0.657684 0.382050
0.122498 0.666138 0.373535
0.247986 0.673584 0.346100
0.353424 0.677063 0.305084
0.484924 0.697388 0.291077
0.592407 0.713257 0.292084
0.674866 0.723175 0.298096
0.760895 0.726166 0.309082
0.811859 0.725159 0.318085
0.010498 0.000000 0.223572
0.070465 0.000000 0.224579
0.158508 0.000000 0.238586
0.265991 0.000000 0.254089
0.371948 0.000000 0.255585
0.458923 0.000000 0.259613
0.537872 0.000000 0.259613
0.592865 0.000000 0.264099
0.639893 0.000000 0.270111
0.000000 0.108154 0.267609
0.027008 0.101685 0.279083
0.163483 0.108643 0.267609
0.290466 0.100189 0.287598
0.415924 0.067963 0.296082
0.499939 0.051086 0.291077
0.583374 0.031250 0.291077
0.640381 0.041168 0.292084
0.688385 0.040680 0.295074
0.000000 0.170135 0.238098
0.027496 0.201385 0.275085
0.166992 0.228668 0.311584
0.319458 0.226166 0.313080
0.455444 0.221222 0.316589
0.554901 0.231140 0.323578
0.637390 0.231628 0.322571
0.697876 0.232635 0.325073
0.741821 0.232147 0.326569
0.004028 0.294128 0.298096
0.046967 0.291656 0.294098
0.205475 0.337311 0.326569
0.336456 0.357635 0.330078
0.474426 0.357147 0.326080
0.580383 0.372528 0.338074
0.683868 0.391357 0.353577
0.749359 0.391357 0.358093
0.792877 0.385406 0.358093
0.004517 0.412689 0.350586
0.055481 0.411713 0.344055
0.170959 0.423096 0.339569
0.334442 0.467255 0.343567
0.482910 0.471710 0.340057
0.595886 0.463257 0.313080
0.687866 0.451385 0.299072
0.759399 0.453857 0.305573
0.814362 0.465759 0.319061
0.000000 0.512360 0.385040
0.023010 0.518829 0.377563
0.178955 0.531219 0.367554
0.320465 0.545105 0.345062
0.459442 0.557495 0.334595
0.570892 0.551575 0.338074
0.655396 0.548584 0.325073
0.772888 0.551544 0.281586
0.825348 0.536163 0.270111
0.013519 0.583801 0.412567
0.078979 0.592712 0.405548
0.193970 0.604645 0.391052
0.333954 0.611572 0.363556
0.454926 0.620514 0.344574
0.568390 0.621979 0.340576
0.644379 0.617035 0.344574
0.734344 0.622986 0.338074
0.825348 0.628937 0.291077
0.028992 0.641815 0.437561
0.068970 0.649750 0.428589
0.221466 0.661682 0.416077
0.354431 0.670105 0.385559
0.467438 0.677551 0.360565
0.576385 0.685974 0.358093
0.659882 0.683472 0.361572
0.738861 0.680023 0.366058
0.803864 0.683472 0.360565
0.039490 0.681000 0.463562
0.134979 0.684998 0.452057
0.275970 0.696869 0.439575
0.386932 0.707306 0.411560
0.484436 0.714752 0.381531
0.583374 0.728607 0.377075
0.669891 0.736542 0.377075
0.756378 0.740540 0.383545
0.807861 0.734100 0.389038
0.020020 0.000000 0.312073
0.090515 0.000000 0.318085
0.185974 0.003998 0.325073
0.285461 0.000000 0.342590
0.387939 0.000000 0.354065
0.458435 0.000000 0.353577
0.541901 0.000000 0.358063
0.594391 0.000000 0.360046
0.639893 0.000000 0.364075
0.000000 0.129456 0.380035
0.030975 0.111115 0.375061
0.181000 0.119049 0.370575
0.304474 0.124512 0.369568
0.415436 0.098206 0.391571
0.498932 0.052582 0.398560
0.577362 0.009430 0.395538
0.635376 0.013885 0.392548
0.682892 0.018890 0.389557
0.000000 0.213287 0.360077
0.017487 0.234131 0.393524
0.162964 0.242035 0.415070
0.325958 0.244537 0.399048
0.445953 0.237091 0.414062
0.537903 0.210327 0.425568
0.622894 0.200409 0.423065
0.684875 0.203857 0.422089
0.733826 0.210327 0.425079
0.006012 0.283234 0.342590
0.050964 0.297607 0.358582
0.189484 0.345734 0.405060
0.336456 0.377472 0.437073
0.474426 0.373016 0.434570
0.574860 0.361603 0.441071
0.668396 0.372528 0.451569
0.741333 0.382935 0.459564
0.790375 0.387390 0.460052
0.022003 0.420624 0.412079
0.098999 0.417145 0.404572
0.235931 0.438477 0.418060
0.380432 0.489044 0.453064
0.501923 0.505920 0.458069
0.590393 0.498993 0.450562
0.679901 0.507904 0.457062
0.768890 0.529236 0.476044
0.831848 0.541626 0.492035
0.062958 0.528229 0.457550
0.138000 0.528229 0.451569
0.234955 0.532227 0.446564
0.362427 0.568909 0.462067
0.507904 0.608093 0.468567
0.604919 0.614044 0.464050
0.699371 0.606110 0.443573
0.778870 0.589752 0.428589
0.829834 0.586761 0.431061
0.044983 0.604126 0.493042
0.122498 0.605133 0.485046
0.246979 0.613068 0.479034
0.359955 0.627441 0.469055
0.491913 0.652740 0.461060
0.586395 0.663147 0.454071
0.675873 0.662659 0.456055
0.762390 0.663666 0.442078
0.839844 0.662659 0.416077
0.082977 0.663666 0.520538
0.161987 0.669098 0.514526
0.271484 0.678040 0.507538
0.383942 0.689453 0.494049
0.500427 0.704834 0.476044
0.575378 0.705322 0.452576
0.663879 0.708771 0.452057
0.746338 0.706329 0.457550
0.805359 0.704834 0.443054
0.161987 0.700348 0.540009
0.220947 0.706299 0.536041
0.303955 0.716217 0.528046
0.413940 0.728607 0.514038
0.515900 0.740021 0.492035
0.578857 0.743988 0.464569
0.662872 0.751953 0.462067
0.748871 0.753937 0.462067
0.803864 0.747955 0.466064
0.041504 0.000000 0.379028
0.114990 0.000000 0.387024
0.215942 0.005463 0.395020
0.312958 0.010925 0.407074
0.405426 0.000000 0.419067
0.480438 0.000000 0.423065
0.547394 0.000000 0.424591
0.601898 0.000000 0.427063
0.645386 0.000000 0.427063
0.000488 0.143860 0.445557
0.062469 0.123016 0.438568
0.203979 0.131958 0.442078
0.324951 0.140869 0.442566
0.425964 0.130463 0.451569
0.504395 0.093262 0.461060
0.578369 0.038696 0.462555
0.635895 0.016876 0.465546
0.679382 0.010925 0.462555
0.000000 0.251007 0.464569
0.042480 0.264893 0.485046
0.177490 0.254944 0.490051
0.333435 0.256958 0.482544
0.450928 0.260406 0.480530
0.537903 0.243530 0.496552
0.616913 0.210815 0.500031
0.678375 0.189484 0.498047
0.724365 0.184021 0.496552
0.001495 0.325378 0.447571
0.045502 0.343231 0.472565
0.193970 0.380951 0.506042
0.338959 0.394806 0.525543
0.478912 0.393829 0.513550
0.565399 0.381439 0.521515
0.655396 0.356659 0.529510
0.722870 0.351166 0.529022
0.774384 0.356140 0.532532
0.028015 0.403748 0.448578
0.115479 0.411682 0.452057
0.236450 0.440460 0.480042
0.373413 0.497498 0.525024
0.499939 0.525269 0.549011
0.590393 0.516327 0.541016
0.684357 0.504944 0.551025
0.759399 0.515839 0.556000
0.821838 0.533691 0.567017
0.117493 0.540161 0.519043
0.191986 0.538666 0.515015
0.287964 0.540161 0.510040
0.411438 0.582306 0.537506
0.537903 0.623962 0.562988
0.613892 0.632904 0.564514
0.697845 0.632416 0.560028
0.769379 0.639832 0.566010
0.831848 0.653717 0.577484
0.148468 0.613068 0.546509
0.234436 0.617035 0.545990
0.310455 0.619995 0.542542
0.407928 0.635376 0.544037
0.524902 0.674561 0.565002
0.614410 0.698395 0.572510
0.703888 0.705811 0.570984
0.787384 0.701324 0.554016
0.839844 0.689941 0.544525
0.207489 0.676544 0.570007
0.255981 0.682007 0.570007
0.331451 0.684967 0.567505
0.424438 0.697876 0.566010
0.514923 0.713745 0.563995
0.608398 0.740021 0.568512
0.687378 0.747955 0.561005
0.770386 0.749451 0.568512
0.827850 0.745514 0.553009
0.246979 0.715729 0.591034
0.293976 0.721680 0.589539
0.367920 0.730103 0.587006
0.452942 0.742035 0.583008
0.529907 0.753937 0.578979
0.604401 0.765839 0.570984
0.671387 0.772278 0.554016
0.759888 0.783203 0.557983
0.817352 0.784668 0.564514
0.072968 0.016876 0.446075
0.140472 0.020844 0.453064
0.244934 0.020844 0.461060
0.344452 0.025787 0.469055
0.429962 0.024811 0.475037
0.498413 0.008942 0.486023
0.566895 0.000000 0.490051
0.609406 0.000000 0.490051
0.655884 0.000000 0.493042
0.017487 0.144348 0.496033
0.097504 0.141876 0.501068
0.231964 0.146820 0.502045
0.348938 0.156250 0.502045
0.445435 0.156738 0.506531
0.519409 0.141357 0.514526
0.590393 0.100708 0.521515
0.643890 0.053070 0.525024
0.684387 0.011444 0.525543
0.007996 0.281738 0.542023
0.076965 0.287201 0.552490
0.200989 0.262909 0.545013
0.347931 0.273315 0.542511
0.469940 0.277771 0.538025
0.545898 0.273315 0.544006
0.622894 0.248016 0.554993
0.677887 0.212311 0.556519
0.722870 0.186523 0.559998
0.004028 0.371002 0.532532
0.057983 0.389374 0.552521
0.223969 0.416656 0.579498
0.344452 0.405243 0.584503
0.482422 0.403778 0.574524
0.571899 0.403778 0.568512
0.649384 0.385406 0.580505
0.715363 0.355652 0.588013
0.762390 0.337799 0.584503
0.048004 0.433533 0.520020
0.135468 0.447906 0.532532
0.236969 0.472198 0.551025
0.373444 0.521790 0.590546
0.501923 0.541626 0.610016
0.592407 0.530212 0.598541
0.675873 0.520813 0.600037
0.750366 0.500458 0.610016
0.805847 0.498993 0.612030
0.146973 0.509918 0.531525
0.209442 0.517334 0.534027
0.294464 0.529755 0.540009
0.409943 0.577820 0.572510
0.527405 0.623962 0.603027
0.612396 0.649750 0.622009
0.698853 0.644806 0.618011
0.773865 0.634399 0.622528
0.828339 0.647766 0.626526
0.238953 0.621002 0.582031
0.283478 0.621979 0.582031
0.356964 0.625946 0.578979
0.455933 0.647278 0.590027
0.559875 0.682495 0.612030
0.647888 0.712280 0.631012
0.717865 0.720215 0.633026
0.781372 0.716705 0.626007
0.827850 0.716217 0.629028
0.279968 0.684479 0.606537
0.329956 0.686981 0.605530
0.394409 0.692413 0.605530
0.474426 0.699341 0.603027
0.553894 0.725159 0.615509
0.636383 0.751465 0.633514
0.721832 0.774261 0.641510
0.788361 0.778229 0.634003
0.843842 0.771790 0.622528
0.329956 0.730103 0.629028
0.370422 0.733582 0.626007
0.429962 0.739044 0.625031
0.493927 0.748474 0.622009
0.552887 0.755920 0.621033
0.623901 0.775269 0.630005
0.708862 0.794586 0.635010
0.777374 0.803040 0.630005
0.832855 0.809479 0.634003
0.112488 0.048096 0.493042
0.183472 0.052094 0.504028
0.276489 0.059021 0.513031
0.371948 0.065979 0.524536
0.456451 0.062012 0.530518
0.519409 0.039185 0.536499
0.586365 0.016357 0.540527
0.632904 0.000488 0.540527
0.667908 0.000000 0.536499
0.046509 0.162231 0.536011
0.144470 0.162231 0.544495
0.259979 0.168182 0.552002
0.376923 0.177094 0.558502
0.468445 0.178101 0.558502
0.535400 0.172119 0.562012
0.605408 0.148315 0.572021
0.656891 0.106171 0.572510
0.691895 0.057556 0.568481
0.020477 0.311493 0.594543
0.131500 0.299103 0.596039
0.235474 0.280762 0.592041
0.366455 0.287201 0.595520
0.483917 0.293640 0.593048
0.560883 0.292664 0.592041
0.630402 0.281250 0.600037
0.688873 0.254456 0.607513
0.724365 0.216278 0.603516
0.032501 0.410706 0.607025
0.124481 0.424591 0.621033
0.265472 0.444427 0.639496
0.358459 0.418640 0.635498
0.488922 0.417145 0.631500
0.583893 0.419647 0.623016
0.656891 0.413696 0.624512
0.719360 0.389374 0.637024
0.762390 0.358124 0.639008
0.083466 0.473206 0.591522
0.140991 0.494507 0.606537
0.263458 0.519806 0.630005
0.396423 0.552032 0.657501
0.502411 0.550568 0.665009
0.594391 0.539642 0.654510
0.681885 0.541626 0.648010
0.748871 0.526276 0.661041
0.797363 0.501953 0.668518
0.144470 0.539154 0.584473
0.218445 0.549072 0.591034
0.303467 0.565430 0.602539
0.412445 0.601166 0.631500
0.527405 0.643799 0.665497
0.616394 0.662170 0.681000
0.695892 0.655212 0.673004
0.769867 0.652740 0.677032
0.820862 0.629425 0.686005
0.253998 0.601166 0.593536
0.299957 0.608093 0.596039
0.364441 0.614044 0.597534
0.460449 0.642334 0.617035
0.553894 0.678040 0.645996
0.633392 0.709778 0.670013
0.714355 0.728638 0.685516
0.780884 0.725159 0.682007
0.831848 0.720215 0.688995
0.337952 0.691925 0.641022
0.380432 0.695404 0.640503
0.438446 0.699341 0.637024
0.501404 0.701355 0.637024
0.580353 0.729126 0.654999
0.662872 0.759888 0.678009
0.744843 0.782196 0.696472
0.792877 0.786652 0.693024
0.835846 0.783203 0.689484
0.396423 0.742035 0.664490
0.435944 0.745483 0.664490
0.479431 0.749969 0.660522
0.529419 0.752441 0.658508
0.580353 0.759888 0.658508
0.656891 0.787170 0.678009
0.731354 0.806488 0.693512
0.796875 0.821869 0.701508
0.839844 0.821869 0.696472
0.159973 0.091278 0.536011
0.222931 0.094757 0.543518
0.304962 0.099213 0.550995
0.401917 0.103180 0.559998
0.479919 0.103180 0.564026
0.541412 0.099213 0.572021
0.605896 0.082336 0.575989
0.648895 0.046631 0.575989
0.687866 0.007935 0.575989
0.116486 0.185547 0.571503
0.202972 0.189484 0.579498
0.293457 0.195923 0.586517
0.399414 0.200897 0.591522
0.491425 0.200897 0.595520
0.558411 0.201416 0.599518
0.621887 0.192963 0.603516
0.671875 0.168182 0.603516
0.707886 0.133423 0.604034
0.123993 0.333313 0.627014
0.185974 0.305054 0.622009
0.276978 0.301575 0.623016
0.393921 0.304047 0.627014
0.499939 0.308533 0.630005
0.576385 0.310516 0.631012
0.644897 0.308533 0.632019
0.699371 0.293152 0.635010
0.734833 0.264893 0.635010
0.088501 0.445435 0.654510
0.190460 0.458313 0.663513
0.308960 0.460785 0.670502
0.381958 0.430542 0.665039
0.499908 0.431030 0.666504
0.593384 0.434509 0.662506
0.670868 0.436005 0.662506
0.726868 0.421112 0.666504
0.766388 0.394836 0.666504
0.089996 0.521790 0.656006
0.195465 0.539154 0.668030
0.299957 0.556519 0.683014
0.429962 0.578339 0.697998
0.509918 0.561462 0.695984
0.600403 0.554016 0.692505
0.690857 0.554535 0.690002
0.750854 0.547089 0.690002
0.795868 0.527771 0.694000
0.180481 0.574341 0.646515
0.243958 0.584290 0.654510
0.326447 0.604645 0.669525
0.433960 0.634888 0.688995
0.539398 0.662170 0.708496
0.620392 0.673584 0.716003
0.694885 0.665649 0.712463
0.769867 0.667145 0.708008
0.817352 0.652740 0.713470
0.269989 0.619995 0.640015
0.314453 0.627441 0.644012
0.378937 0.638855 0.652008
0.463440 0.659698 0.665497
0.547913 0.693420 0.694000
0.631378 0.724640 0.713470
0.714844 0.740021 0.723999
0.780884 0.736084 0.720978
0.827850 0.732086 0.723999
0.352936 0.671600 0.648499
0.388428 0.672607 0.649017
0.446930 0.683472 0.652496
0.503448 0.689453 0.656006
0.576385 0.724640 0.679993
0.652893 0.755920 0.708008
0.730347 0.779236 0.720978
0.789368 0.794586 0.731995
0.835846 0.794098 0.727966
0.447937 0.749969 0.692017
0.471436 0.753448 0.692017
0.506927 0.753937 0.692017
0.554382 0.757904 0.687988
0.605896 0.767822 0.694000
0.680389 0.795105 0.713470
0.753876 0.813446 0.727966
0.808868 0.825348 0.735962
0.843842 0.829315 0.731995
