滤镜资源/Professional Luts Collection/Lutify.me Professional/Cine Looks/Oligoclase.cube
# Created by: Lutify.me
# Copyright: (c) Copyright Lutify.me 2015
# Website: https://lutify.me
#LUT size
LUT_3D_SIZE 33
#LUT data points
0.004028 0.000000 0.000000
0.007874 0.003845 0.000000
0.019257 0.003998 0.000000
0.031219 0.003998 0.000000
0.050507 0.003998 0.000000
0.070709 0.003998 0.000000
0.097748 0.003998 0.000000
0.125366 0.003998 0.000000
0.160004 0.003998 0.000000
0.184601 0.001129 0.000000
0.216217 0.000000 0.000000
0.246490 0.000000 0.000000
0.273987 0.000000 0.000000
0.303070 0.000000 0.000000
0.328949 0.000000 0.000000
0.346313 0.000000 0.000000
0.367950 0.000000 0.000000
0.385559 0.000000 0.000000
0.403412 0.000000 0.000000
0.424835 0.000000 0.000000
0.448456 0.000000 0.000000
0.472046 0.000000 0.000000
0.490417 0.000000 0.000000
0.506134 0.000000 0.000000
0.521881 0.000000 0.000000
0.537628 0.000000 0.000000
0.549408 0.000000 0.000000
0.565155 0.000000 0.000000
0.580383 0.000000 0.000000
0.592621 0.000000 0.000000
0.604401 0.000000 0.000000
0.616028 0.000000 0.000000
0.623901 0.000000 0.000000
0.004028 0.007812 0.000000
0.007874 0.007812 0.000000
0.015503 0.003998 0.000000
0.023621 0.003998 0.000000
0.042999 0.007812 0.000000
0.065704 0.007812 0.000000
0.089264 0.007812 0.000000
0.113617 0.007812 0.000000
0.147980 0.007812 0.000000
0.179596 0.004974 0.000000
0.211060 0.003845 0.000000
0.238586 0.000000 0.000000
0.269989 0.000000 0.000000
0.301575 0.000000 0.000000
0.328949 0.000000 0.000000
0.354309 0.000000 0.000000
0.373810 0.000000 0.000000
0.395538 0.000000 0.000000
0.419189 0.000000 0.000000
0.438324 0.000000 0.000000
0.462677 0.000000 0.000000
0.483765 0.000000 0.000000
0.502289 0.000000 0.000000
0.521881 0.000000 0.000000
0.537628 0.000000 0.000000
0.549530 0.000000 0.000000
0.565125 0.000000 0.000000
0.580261 0.000000 0.000000
0.592621 0.000000 0.000000
0.604523 0.000000 0.000000
0.619873 0.000000 0.000000
0.627777 0.000000 0.000000
0.639648 0.000000 0.000000
0.004028 0.027069 0.000000
0.007996 0.015625 0.000000
0.011780 0.015381 0.000000
0.023621 0.015381 0.000000
0.046234 0.015381 0.000000
0.069458 0.015625 0.000000
0.096741 0.015625 0.000000
0.120880 0.016235 0.000000
0.151733 0.018616 0.000000
0.183228 0.018494 0.000000
0.210968 0.012665 0.000000
0.242432 0.008820 0.000000
0.273712 0.007446 0.000000
0.305206 0.003754 0.000000
0.336700 0.000000 0.000000
0.358093 0.000000 0.000000
0.381683 0.000000 0.000000
0.401550 0.000000 0.000000
0.425201 0.000000 0.000000
0.448334 0.000000 0.000000
0.468170 0.000000 0.000000
0.491791 0.000000 0.000000
0.511414 0.000000 0.000000
0.525909 0.000000 0.000000
0.545380 0.000000 0.000000
0.557648 0.000000 0.000000
0.573151 0.000000 0.000000
0.584869 0.000000 0.000000
0.596649 0.000000 0.000000
0.612030 0.000000 0.000000
0.623901 0.000000 0.000000
0.635773 0.000000 0.000000
0.643646 0.000000 0.000000
0.003998 0.042542 0.000000
0.007996 0.031128 0.000000
0.015503 0.027069 0.000000
0.027252 0.027435 0.000000
0.042999 0.027435 0.000000
0.065857 0.030762 0.000000
0.092987 0.031006 0.000000
0.123993 0.034119 0.000000
0.155975 0.031982 0.000000
0.190338 0.031738 0.000000
0.219849 0.027924 0.000000
0.250092 0.027069 0.000000
0.279083 0.022705 0.000000
0.309052 0.016388 0.000000
0.339722 0.012543 0.000000
0.365936 0.007568 0.000000
0.385559 0.007568 0.000000
0.407318 0.003998 0.000000
0.429199 0.003632 0.000000
0.450806 0.000000 0.000000
0.472412 0.000000 0.000000
0.495667 0.000000 0.000000
0.514404 0.000000 0.000000
0.531281 0.000000 0.000000
0.549530 0.000000 0.000000
0.564392 0.000000 0.000000
0.576996 0.000000 0.000000
0.589142 0.000000 0.000000
0.604034 0.000000 0.000000
0.616272 0.000000 0.000000
0.631775 0.000000 0.000000
0.639648 0.000000 0.000000
0.647888 0.000000 0.000000
0.000000 0.058563 0.000000
0.007874 0.046753 0.000000
0.015503 0.042694 0.000000
0.030731 0.046112 0.000000
0.046478 0.046112 0.000000
0.066101 0.046112 0.000000
0.090240 0.049866 0.000000
0.121002 0.053192 0.000000
0.151978 0.053070 0.000000
0.192719 0.050629 0.000000
0.225708 0.050598 0.000000
0.260590 0.050079 0.000000
0.287964 0.045624 0.000000
0.313446 0.039307 0.000000
0.346710 0.034241 0.000000
0.371674 0.028137 0.000000
0.391449 0.022308 0.000000
0.413544 0.018372 0.000000
0.432709 0.016602 0.000000
0.456329 0.013275 0.000000
0.476440 0.010925 0.000000
0.499542 0.007446 0.000000
0.519653 0.003998 0.000000
0.537628 0.002350 0.000000
0.553864 0.000000 0.000000
0.569122 0.000854 0.000000
0.580872 0.004211 0.000000
0.593109 0.007446 0.000000
0.608398 0.007446 0.000000
0.620636 0.003998 0.000000
0.632385 0.003235 0.000000
0.644135 0.000000 0.000000
0.655365 0.000000 0.000000
0.000000 0.081451 0.000000
0.003876 0.066345 0.000000
0.015503 0.065582 0.000000
0.031219 0.062225 0.000000
0.050507 0.065582 0.000000
0.070099 0.066193 0.000000
0.093628 0.069427 0.000000
0.117126 0.070160 0.000000
0.148621 0.073151 0.000000
0.186340 0.077484 0.000000
0.229706 0.073517 0.000000
0.265106 0.073517 0.000000
0.293335 0.070435 0.000000
0.324799 0.066589 0.000000
0.355194 0.061615 0.000000
0.379822 0.057037 0.000000
0.400665 0.051086 0.000000
0.419067 0.045746 0.000000
0.440552 0.039429 0.000000
0.462555 0.036194 0.000000
0.480438 0.028381 0.000000
0.503387 0.023926 0.000000
0.523651 0.017365 0.000000
0.541534 0.017975 0.000000
0.559631 0.021332 0.000000
0.572754 0.018585 0.000000
0.585358 0.021820 0.000000
0.600525 0.018585 0.000000
0.612915 0.014740 0.000000
0.628021 0.007935 0.000000
0.640381 0.004242 0.000000
0.651367 0.010040 0.000000
0.659882 0.010651 0.000000
0.000000 0.101715 0.000000
0.000610 0.089294 0.000000
0.012268 0.085052 0.000000
0.031219 0.085419 0.000000
0.050995 0.085541 0.000000
0.073975 0.085114 0.000000
0.093781 0.089050 0.000000
0.120636 0.092255 0.000000
0.144989 0.096985 0.000000
0.179077 0.096619 0.000000
0.224701 0.096985 0.000000
0.262482 0.098328 0.000000
0.297974 0.096985 0.000000
0.332672 0.096222 0.000000
0.364197 0.093018 0.000000
0.391449 0.088074 0.000000
0.412445 0.084320 0.000000
0.434204 0.081726 0.000000
0.450714 0.073914 0.000000
0.470428 0.067719 0.000000
0.491669 0.065460 0.000000
0.511292 0.059174 0.000000
0.532135 0.054565 0.000000
0.549408 0.048615 0.000000
0.565887 0.047638 0.000000
0.579987 0.041443 0.000000
0.592621 0.037476 0.000000
0.604401 0.034851 0.000000
0.617432 0.032745 0.000000
0.632263 0.029541 0.000000
0.647369 0.029785 0.000000
0.655273 0.035950 0.000000
0.667145 0.041443 0.000000
0.000000 0.125244 0.000122
0.000000 0.112610 0.000000
0.008362 0.112488 0.000000
0.030853 0.108521 0.000000
0.057587 0.108521 0.000000
0.077454 0.111847 0.000000
0.097748 0.108521 0.000000
0.125366 0.112488 0.000000
0.151093 0.119415 0.000000
0.178589 0.119537 0.000000
0.217712 0.124023 0.000000
0.257965 0.121765 0.000000
0.296478 0.123505 0.000000
0.333405 0.121155 0.000000
0.367188 0.119537 0.000000
0.400421 0.117432 0.000000
0.423340 0.112732 0.000000
0.444061 0.109741 0.000000
0.464325 0.104553 0.000000
0.481567 0.099701 0.000000
0.501160 0.098206 0.000000
0.521759 0.090393 0.000000
0.541504 0.087799 0.000000
0.557281 0.082703 0.000000
0.572998 0.077026 0.000000
0.588745 0.075012 0.000000
0.600525 0.071930 0.000000
0.612274 0.069580 0.000000
0.625397 0.065369 0.000000
0.639374 0.063995 0.000000
0.652374 0.067078 0.000000
0.663116 0.067932 0.000000
0.671875 0.071930 0.000000
0.000000 0.151794 0.003113
0.000000 0.139130 0.000000
0.010529 0.135162 0.000000
0.027893 0.134918 0.000000
0.054474 0.135925 0.000000
0.081696 0.135925 0.000000
0.104736 0.135162 0.000000
0.132355 0.135925 0.000000
0.155975 0.139893 0.000000
0.183350 0.143707 0.000000
0.214966 0.145081 0.000000
0.257111 0.150421 0.000000
0.295471 0.150787 0.000000
0.328827 0.150146 0.000000
0.367188 0.145569 0.000000
0.402557 0.146820 0.000000
0.432953 0.140869 0.000000
0.454681 0.137024 0.000000
0.474426 0.134186 0.000000
0.495789 0.131958 0.000000
0.512909 0.127991 0.000000
0.531036 0.121399 0.000000
0.552368 0.119049 0.000000
0.569122 0.115082 0.000000
0.584869 0.110138 0.000000
0.596649 0.107147 0.000000
0.608398 0.099945 0.000000
0.623535 0.100220 0.000000
0.632904 0.096741 0.000000
0.647644 0.097839 0.000000
0.659393 0.096222 0.000000
0.670990 0.096222 0.000000
0.678864 0.096222 0.000000
0.000000 0.175201 0.004150
0.000000 0.162445 0.000000
0.007507 0.162201 0.000000
0.020386 0.159332 0.000000
0.047607 0.158722 0.000000
0.079193 0.162201 0.000000
0.108643 0.162201 0.000000
0.135986 0.163055 0.000000
0.161865 0.165161 0.000000
0.186340 0.163300 0.000000
0.221710 0.171234 0.000000
0.257111 0.175201 0.000000
0.289978 0.178070 0.000000
0.324921 0.174591 0.000000
0.364929 0.175201 0.000000
0.401825 0.173340 0.000000
0.439087 0.171234 0.000000
0.463318 0.168274 0.000000
0.486298 0.164429 0.000000
0.504425 0.160583 0.000000
0.524658 0.158234 0.000000
0.544373 0.153137 0.000000
0.562500 0.150269 0.000000
0.580994 0.146332 0.000000
0.594666 0.141357 0.000000
0.608521 0.137512 0.000000
0.620270 0.133667 0.000000
0.631378 0.130463 0.000000
0.641388 0.125244 0.000000
0.654388 0.124969 0.000000
0.663513 0.119904 0.000000
0.678864 0.122406 0.000000
0.686737 0.122528 0.000000
0.000000 0.202637 0.006866
0.000000 0.188141 0.000092
0.001007 0.189484 0.000000
0.012512 0.186768 0.000000
0.044495 0.186768 0.000000
0.075348 0.189484 0.000000
0.112244 0.189484 0.000000
0.137726 0.189850 0.000000
0.163971 0.190735 0.000000
0.195343 0.193451 0.000000
0.225708 0.197418 0.000000
0.261078 0.201263 0.000000
0.292725 0.205109 0.000000
0.325409 0.205353 0.000000
0.361938 0.205353 0.000000
0.399780 0.205353 0.000000
0.433197 0.202637 0.000000
0.467041 0.201385 0.000000
0.491913 0.197418 0.000000
0.513184 0.193451 0.000000
0.533905 0.188263 0.000000
0.554901 0.184296 0.000000
0.575867 0.181549 0.000000
0.595642 0.179199 0.000000
0.610413 0.173615 0.000000
0.622284 0.169647 0.000000
0.634125 0.165680 0.000000
0.645416 0.161102 0.000000
0.654388 0.157745 0.000000
0.665771 0.153778 0.000000
0.677612 0.152283 0.000000
0.686890 0.149780 0.000000
0.697388 0.149780 0.000000
0.000000 0.230042 0.014740
0.000000 0.217010 0.000122
0.000000 0.216736 0.000000
0.013489 0.214172 0.000000
0.036346 0.216736 0.000000
0.072205 0.216736 0.000000
0.110870 0.216736 0.000000
0.141357 0.217255 0.000000
0.171967 0.220734 0.000000
0.202942 0.220734 0.000000
0.233582 0.224670 0.000000
0.265106 0.224670 0.000000
0.295471 0.228546 0.000000
0.326813 0.232361 0.000000
0.358337 0.232605 0.000000
0.394073 0.232605 0.000000
0.427948 0.232605 0.000000
0.464172 0.232605 0.000000
0.494934 0.228668 0.000000
0.519409 0.227051 0.000000
0.542999 0.221863 0.000000
0.565247 0.219360 0.000000
0.587646 0.216888 0.000000
0.607422 0.212799 0.000000
0.623138 0.208801 0.000000
0.636261 0.204865 0.000000
0.649902 0.200867 0.000000
0.657745 0.196930 0.000000
0.669617 0.192932 0.000000
0.679260 0.188995 0.000000
0.689392 0.184998 0.000000
0.701263 0.181061 0.000000
0.709106 0.181061 0.000000
0.000000 0.255951 0.016113
0.000000 0.244293 0.000366
0.000000 0.244049 0.000092
0.011261 0.244049 0.000092
0.022003 0.244049 0.000000
0.062347 0.244049 0.000000
0.109009 0.245514 0.000000
0.144470 0.248016 0.000000
0.175995 0.248016 0.000000
0.209961 0.248016 0.000000
0.241211 0.251984 0.000000
0.276978 0.252106 0.000000
0.305969 0.257446 0.000092
0.329559 0.255951 0.000092
0.363434 0.259918 0.000000
0.396057 0.263519 0.000000
0.423950 0.261902 0.000000
0.462189 0.261414 0.000000
0.493164 0.259918 0.000000
0.519287 0.257446 0.000000
0.544403 0.254456 0.000000
0.568024 0.250610 0.000000
0.591644 0.246765 0.000000
0.615265 0.244049 0.000000
0.637878 0.240051 0.000000
0.649750 0.236115 0.000000
0.662384 0.232117 0.000000
0.673523 0.228180 0.000000
0.681396 0.224182 0.000000
0.693237 0.220245 0.000000
0.703613 0.220245 0.000000
0.713013 0.216125 0.000000
0.722351 0.213776 0.000000
0.000000 0.280884 0.022491
0.000000 0.269073 0.004395
0.000000 0.271332 0.000366
0.005280 0.268951 0.000122
0.019623 0.271332 0.000122
0.063202 0.273560 0.000031
0.102020 0.276154 0.000000
0.143616 0.275269 0.000000
0.178986 0.276886 0.000000
0.213837 0.279755 0.000000
0.249359 0.283203 0.000000
0.284851 0.283203 0.000092
0.315338 0.284698 0.000122
0.337433 0.283203 0.000122
0.365082 0.287079 0.000061
0.394806 0.290894 0.000000
0.427948 0.294769 0.000000
0.460785 0.291138 0.000000
0.494293 0.292877 0.000000
0.520782 0.290283 0.000000
0.545898 0.287201 0.000000
0.571991 0.283203 0.000000
0.595612 0.279266 0.000000
0.619293 0.275269 0.000000
0.642883 0.272675 0.000000
0.660004 0.267334 0.000000
0.674164 0.263397 0.000000
0.686890 0.259399 0.000000
0.697144 0.255432 0.000000
0.708984 0.253479 0.000000
0.716858 0.251221 0.000000
0.728729 0.247498 0.000000
0.736603 0.243530 0.000000
0.000000 0.310516 0.030365
0.000000 0.294891 0.004395
0.000000 0.296112 0.000366
0.000000 0.296021 0.000061
0.020233 0.296356 0.000000
0.059082 0.300812 0.000000
0.099518 0.300354 0.000000
0.141357 0.304810 0.000000
0.176727 0.305298 0.000000
0.214813 0.307159 0.000061
0.250244 0.311005 0.000122
0.292725 0.315826 0.000122
0.321686 0.314453 0.000061
0.347717 0.316711 0.000061
0.372925 0.314453 0.000000
0.402679 0.318329 0.000000
0.432465 0.322388 0.000000
0.459808 0.322388 0.000000
0.494934 0.322876 0.000000
0.519043 0.322388 0.000000
0.545898 0.318451 0.000000
0.571991 0.318817 0.000000
0.595612 0.317200 0.000000
0.619293 0.311646 0.000000
0.646881 0.306519 0.000000
0.669647 0.304321 0.000000
0.685394 0.300354 0.000000
0.699249 0.296265 0.000000
0.711121 0.290192 0.000000
0.720734 0.286346 0.000000
0.732574 0.282715 0.000000
0.740479 0.278778 0.000000
0.752380 0.278778 0.000000
0.000000 0.335663 0.038239
0.000000 0.323883 0.006744
0.000000 0.321899 0.002502
0.003662 0.323395 0.002258
0.022491 0.321899 0.000061
0.051971 0.326508 0.000061
0.092285 0.325897 0.000061
0.137482 0.330719 0.000061
0.178986 0.333679 0.000122
0.217194 0.337433 0.000122
0.257751 0.340515 0.000061
0.296600 0.341736 0.000031
0.329559 0.343597 0.000000
0.357178 0.343842 0.000000
0.383087 0.345734 0.000061
0.410583 0.347809 0.002197
0.436188 0.349670 0.004364
0.467163 0.355286 0.002502
0.498901 0.355896 0.000458
0.523132 0.356018 0.000000
0.545898 0.352173 0.000000
0.571991 0.351074 0.000000
0.595612 0.346588 0.000000
0.620300 0.342743 0.000000
0.647888 0.339874 0.000000
0.678528 0.340881 0.000000
0.692261 0.331207 0.000000
0.707245 0.327362 0.000000
0.722992 0.326996 0.000000
0.732452 0.317963 0.000000
0.744354 0.313965 0.000000
0.754272 0.309998 0.000000
0.764160 0.308136 0.000000
0.000000 0.361084 0.042114
0.000000 0.347473 0.014618
0.000000 0.347229 0.014130
0.007233 0.352814 0.010132
0.016998 0.354675 0.008118
0.034729 0.353790 0.006134
0.082733 0.357117 0.004150
0.132996 0.358246 0.001007
0.173981 0.361115 0.000122
0.218323 0.363953 0.000061
0.260468 0.367035 0.000000
0.301086 0.372375 0.000000
0.333954 0.371033 0.000000
0.363434 0.371033 0.002075
0.392944 0.374756 0.008118
0.418457 0.375122 0.010132
0.445953 0.376984 0.012146
0.469543 0.376984 0.008240
0.500641 0.382416 0.002625
0.527161 0.383301 0.000061
0.548889 0.383423 0.000000
0.571991 0.384918 0.000000
0.595612 0.380188 0.000000
0.619293 0.377838 0.000000
0.645874 0.375000 0.000000
0.676514 0.372986 0.000000
0.701355 0.369049 0.000000
0.717743 0.365051 0.000000
0.732880 0.361115 0.000000
0.746216 0.356750 0.000000
0.756134 0.351196 0.000000
0.768005 0.347198 0.000000
0.777863 0.343231 0.000000
0.000000 0.384644 0.051849
0.000000 0.370789 0.024353
0.000000 0.372498 0.018250
0.003662 0.374634 0.014374
0.007782 0.376984 0.012146
0.027985 0.380432 0.006256
0.074249 0.381805 0.004120
0.128998 0.385651 0.000061
0.174988 0.389496 0.000031
0.216064 0.391235 0.000000
0.259216 0.395081 0.000000
0.305603 0.400269 0.001923
0.337952 0.396912 0.004486
0.368927 0.400787 0.008362
0.397308 0.400665 0.012146
0.426331 0.402130 0.012146
0.451935 0.400421 0.012146
0.479156 0.404236 0.008392
0.507019 0.408081 0.002197
0.531158 0.410309 0.000000
0.554260 0.412170 0.000000
0.576019 0.412170 0.000000
0.596252 0.408234 0.000000
0.621399 0.409576 0.000000
0.643768 0.406097 0.000000
0.675354 0.406342 0.000000
0.704224 0.403503 0.000000
0.722992 0.397552 0.000000
0.738708 0.393707 0.000000
0.754120 0.392334 0.000000
0.765991 0.388123 0.000000
0.777863 0.379944 0.000000
0.789734 0.378326 0.000000
0.000000 0.406006 0.067596
0.000000 0.394196 0.030396
0.000000 0.394073 0.020142
0.000000 0.395935 0.012512
0.000000 0.397552 0.008606
0.030487 0.400269 0.004150
0.075989 0.404236 0.000122
0.125000 0.409943 0.000061
0.172241 0.412689 0.000061
0.215454 0.416168 0.000061
0.261719 0.421875 0.004608
0.305084 0.424957 0.008514
0.342194 0.428314 0.010620
0.375183 0.428192 0.012115
0.402679 0.427582 0.012146
0.432465 0.429688 0.008240
0.461670 0.429565 0.004364
0.486877 0.431519 0.002380
0.514893 0.433777 0.001892
0.538544 0.435516 0.005188
0.556641 0.435974 0.007629
0.579987 0.439087 0.009369
0.601379 0.438965 0.003571
0.619904 0.437256 0.000641
0.643646 0.437744 0.000000
0.669647 0.432404 0.000000
0.698853 0.431519 0.000000
0.725128 0.430908 0.000000
0.741364 0.424835 0.000000
0.757019 0.421875 0.000000
0.772369 0.417145 0.000000
0.783508 0.413300 0.000000
0.797607 0.411713 0.000000
0.000000 0.427826 0.081757
0.000000 0.417664 0.047882
0.000000 0.413818 0.030243
0.000000 0.417542 0.023773
0.004883 0.420990 0.019348
0.035736 0.423737 0.016998
0.074615 0.428680 0.015381
0.117126 0.432526 0.011353
0.164978 0.436371 0.011353
0.214935 0.440216 0.012634
0.261719 0.448029 0.013763
0.307709 0.451874 0.014740
0.341949 0.453247 0.013611
0.376678 0.454834 0.010498
0.410706 0.457214 0.005859
0.439697 0.456451 0.001953
0.469543 0.458832 0.001709
0.496796 0.461182 0.009247
0.522797 0.461182 0.017120
0.544769 0.461182 0.020996
0.564392 0.461060 0.024872
0.580231 0.461182 0.027344
0.603668 0.463898 0.026123
0.623779 0.465637 0.019867
0.643524 0.465118 0.011017
0.669769 0.462769 0.001556
0.695770 0.461182 0.000000
0.723358 0.460541 0.000000
0.743713 0.454834 0.000000
0.758270 0.448517 0.000000
0.776367 0.446899 0.000000
0.789612 0.442810 0.000000
0.801483 0.438965 0.000000
0.000000 0.447418 0.097626
0.000000 0.437256 0.065247
0.000000 0.433289 0.047607
0.000000 0.435516 0.043091
0.012512 0.438965 0.039124
0.035980 0.442810 0.035095
0.062744 0.446655 0.031128
0.109253 0.452850 0.027985
0.158966 0.456818 0.025604
0.214569 0.464752 0.022736
0.260742 0.468719 0.020111
0.307709 0.475281 0.013489
0.344452 0.479156 0.008118
0.378906 0.480621 0.004242
0.410431 0.482880 0.003387
0.444458 0.483124 0.007141
0.473419 0.484589 0.013123
0.503418 0.486084 0.020996
0.528137 0.488556 0.027374
0.550262 0.488434 0.033630
0.569885 0.486084 0.037628
0.588135 0.484589 0.037628
0.605164 0.486084 0.040100
0.627258 0.492157 0.034973
0.647369 0.492523 0.027130
0.670532 0.490051 0.013397
0.697357 0.488556 0.000885
0.723236 0.486084 0.000000
0.744843 0.485596 0.000000
0.764618 0.481750 0.000000
0.780365 0.477905 0.000000
0.792145 0.472687 0.000000
0.805359 0.466248 0.000000
0.000000 0.466980 0.109467
0.000000 0.456573 0.083374
0.000000 0.451385 0.063354
0.000000 0.454712 0.058838
0.010132 0.455963 0.054840
0.022614 0.462402 0.050842
0.042511 0.466248 0.046234
0.100525 0.470093 0.039734
0.158966 0.476288 0.034485
0.214325 0.481750 0.029266
0.263245 0.489563 0.018616
0.309082 0.496124 0.009491
0.347321 0.501190 0.006989
0.382416 0.505066 0.002869
0.415680 0.508057 0.011383
0.445831 0.509399 0.020996
0.477936 0.511993 0.027496
0.510406 0.513367 0.033478
0.532654 0.513367 0.035217
0.558136 0.513367 0.040100
0.576385 0.511993 0.040100
0.596008 0.511993 0.038727
0.614380 0.511993 0.038727
0.628662 0.511993 0.034729
0.653870 0.515961 0.027130
0.671875 0.517334 0.015747
0.698120 0.517334 0.006744
0.725128 0.515961 0.000092
0.745331 0.512848 0.000000
0.761993 0.511993 0.000000
0.780365 0.505188 0.000000
0.796112 0.501312 0.000000
0.807861 0.497498 0.000000
0.000000 0.486572 0.122620
0.000000 0.478790 0.097748
0.000000 0.470978 0.077850
0.000000 0.471954 0.070984
0.002258 0.475922 0.065857
0.002777 0.478668 0.061951
0.031250 0.485840 0.056091
0.091888 0.487823 0.048981
0.157745 0.493530 0.040100
0.217194 0.499695 0.029266
0.264465 0.505188 0.017151
0.309082 0.513000 0.010620
0.345947 0.516846 0.015869
0.386658 0.522278 0.020996
0.418701 0.526245 0.026611
0.449341 0.528381 0.032715
0.481171 0.532227 0.037354
0.512634 0.536041 0.040100
0.539642 0.539398 0.040100
0.564362 0.539398 0.040100
0.584137 0.539398 0.037354
0.603912 0.539398 0.034760
0.619659 0.536652 0.033356
0.636505 0.535553 0.037231
0.652130 0.536407 0.037354
0.675354 0.542999 0.033722
0.699371 0.543854 0.027100
0.725739 0.543976 0.006989
0.744843 0.543365 0.001526
0.764618 0.539398 0.000000
0.780640 0.535431 0.000000
0.797241 0.531464 0.000000
0.811859 0.527496 0.000000
0.000000 0.506195 0.137238
0.000000 0.495667 0.110748
0.000000 0.490540 0.090881
0.000000 0.491425 0.081635
0.000000 0.493774 0.077240
0.002258 0.497620 0.073212
0.047150 0.501465 0.063080
0.108368 0.508392 0.057220
0.167969 0.511261 0.046234
0.216064 0.516968 0.038361
0.265594 0.524780 0.029999
0.310455 0.528625 0.024994
0.349823 0.535309 0.031738
0.383820 0.537933 0.036743
0.418060 0.542999 0.039490
0.450714 0.546967 0.043365
0.484161 0.550934 0.044128
0.515411 0.554901 0.042999
0.546265 0.557739 0.038971
0.568756 0.557739 0.036133
0.588379 0.557739 0.037262
0.607788 0.558868 0.038635
0.626404 0.558868 0.042358
0.643280 0.558868 0.043488
0.658997 0.558868 0.047363
0.678772 0.561737 0.050598
0.702118 0.565674 0.054382
0.726227 0.566803 0.047363
0.748230 0.566162 0.033264
0.764618 0.562836 0.013763
0.780640 0.558868 0.001801
0.799988 0.558746 0.000000
0.811859 0.554901 0.000000
0.000000 0.521820 0.149109
0.000000 0.514008 0.126495
0.000000 0.510132 0.102844
0.000000 0.507294 0.093475
0.000000 0.509888 0.086639
0.019867 0.517212 0.082733
0.067230 0.521057 0.074860
0.115509 0.525757 0.066956
0.167969 0.529724 0.059113
0.217194 0.534698 0.053345
0.268463 0.540375 0.047363
0.313080 0.548187 0.046112
0.348450 0.550568 0.047607
0.384796 0.555878 0.050110
0.420929 0.561493 0.052124
0.453552 0.563568 0.052124
0.484924 0.566437 0.048096
0.518524 0.570404 0.042236
0.544891 0.574371 0.039368
0.572113 0.576721 0.041107
0.592407 0.577362 0.045135
0.611664 0.577362 0.046478
0.630371 0.577362 0.054108
0.647125 0.577362 0.059204
0.662872 0.577362 0.063110
0.681732 0.577484 0.070099
0.702850 0.578094 0.071106
0.729370 0.585541 0.074097
0.746338 0.585297 0.066589
0.765259 0.585907 0.054626
0.780640 0.582306 0.031647
0.800110 0.581299 0.018860
0.811859 0.578339 0.003021
0.000000 0.536560 0.161835
0.000000 0.529633 0.142120
0.000000 0.525513 0.119476
0.000000 0.521942 0.106628
0.001740 0.525513 0.101837
0.030609 0.529510 0.094513
0.078735 0.535797 0.088989
0.123108 0.540497 0.081879
0.170105 0.547455 0.076965
0.218933 0.552185 0.070953
0.271240 0.558105 0.065826
0.313080 0.563812 0.061829
0.348450 0.567688 0.060974
0.385406 0.573120 0.060974
0.420044 0.576233 0.056091
0.452454 0.579193 0.053986
0.485931 0.583038 0.050995
0.520264 0.588989 0.047119
0.548645 0.589874 0.044983
0.576019 0.592987 0.050598
0.595734 0.592987 0.055328
0.612915 0.592987 0.059204
0.634399 0.593353 0.067078
0.653870 0.595825 0.074097
0.666870 0.593964 0.078857
0.687378 0.593842 0.082733
0.706238 0.596954 0.089020
0.723511 0.597809 0.089874
0.752869 0.604889 0.085358
0.768616 0.604889 0.080231
0.780640 0.604889 0.061981
0.800140 0.601776 0.046478
0.811859 0.600922 0.026733
0.000000 0.549072 0.173584
0.000000 0.544373 0.157104
0.000000 0.538177 0.138123
0.000000 0.536438 0.119476
0.018250 0.539886 0.114105
0.046967 0.543732 0.110229
0.088013 0.549072 0.105621
0.130859 0.555389 0.101593
0.175720 0.560974 0.094604
0.225952 0.567810 0.089630
0.275970 0.573608 0.081604
0.315216 0.579437 0.076843
0.352448 0.583282 0.072845
0.386902 0.587128 0.066467
0.423462 0.593445 0.060852
0.459686 0.596710 0.058716
0.488647 0.598694 0.056854
0.523407 0.604645 0.056854
0.553131 0.607849 0.056854
0.575897 0.608612 0.061615
0.598907 0.608612 0.069580
0.618652 0.608612 0.073578
0.635651 0.608612 0.079346
0.657745 0.612579 0.089630
0.674622 0.612579 0.093597
