滤镜资源/Professional Luts Collection/Lutify.me Professional/Cine Looks/Opalite.cube
# Created by: Lutify.me
# Copyright: (c) Copyright Lutify.me 2015
# Website: https://lutify.me
#LUT size
LUT_3D_SIZE 9
#LUT data points
0.000000 0.004028 0.000000
0.188965 0.015991 0.000000
0.354767 0.000000 0.000000
0.436401 0.000000 0.000000
0.493835 0.000000 0.000000
0.533600 0.000000 0.000000
0.560333 0.000000 0.000000
0.580505 0.000000 0.000000
0.596619 0.000000 0.000000
0.000000 0.098022 0.000183
0.042847 0.042511 0.000183
0.203064 0.062012 0.000031
0.382965 0.070984 0.000000
0.512482 0.093018 0.000000
0.615265 0.123993 0.000000
0.681763 0.144501 0.000000
0.714539 0.133514 0.000000
0.714539 0.092468 0.000000
0.000000 0.227997 0.000000
0.000000 0.132477 0.004242
0.180389 0.166992 0.000061
0.384979 0.190979 0.000000
0.519012 0.188995 0.000000
0.610748 0.190491 0.000000
0.689331 0.210999 0.000000
0.750793 0.244995 0.000000
0.798157 0.286987 0.016296
0.000000 0.304993 0.000000
0.000000 0.222473 0.000000
0.089233 0.281464 0.000000
0.360809 0.333984 0.000000
0.540161 0.348480 0.000000
0.648010 0.350952 0.000000
0.723602 0.346985 0.000000
0.772949 0.342468 0.001709
0.810272 0.351471 0.008240
0.000000 0.353973 0.000000
0.000000 0.330475 0.000000
0.000000 0.355988 0.000000
0.284698 0.430969 0.000000
0.526062 0.475952 0.000000
0.657562 0.486450 0.000000
0.743744 0.489960 0.000000
0.807220 0.490448 0.000000
0.844543 0.489960 0.024384
0.000000 0.389465 0.000000
0.000000 0.389465 0.000000
0.000000 0.385468 0.000000
0.152679 0.487946 0.000000
0.465607 0.550446 0.000000
0.637421 0.580444 0.000000
0.736694 0.591949 0.000000
0.814789 0.596466 0.000000
0.860138 0.597931 0.000122
0.000000 0.415955 0.000000
0.000000 0.415955 0.000000
0.000000 0.389984 0.000000
0.007050 0.512451 0.000000
0.388000 0.597931 0.000000
0.599152 0.642456 0.000000
0.719574 0.661957 0.000000
0.803192 0.673920 0.006744
0.862671 0.677948 0.050568
0.000000 0.436493 0.000000
0.000000 0.435974 0.000000
0.000000 0.476990 0.000000
0.000000 0.513947 0.005249
0.275116 0.620941 0.008270
0.551270 0.679443 0.000519
0.692383 0.708435 0.030426
0.783051 0.720947 0.061707
0.854095 0.732971 0.089905
0.000000 0.451965 0.000000
0.000000 0.451965 0.000000
0.000000 0.482941 0.000000
0.000000 0.477448 0.029419
0.098755 0.625946 0.040497
0.486267 0.702942 0.058136
0.657074 0.736938 0.077820
0.759369 0.756439 0.105530
0.838470 0.771942 0.141296
0.019165 0.012024 0.111053
0.266571 0.023987 0.103516
0.427307 0.009003 0.099487
0.525543 0.000000 0.102509
0.473145 0.000000 0.024872
0.523560 0.000000 0.016815
0.564880 0.000000 0.014801
0.592072 0.000000 0.014801
0.612213 0.000000 0.015289
0.000000 0.054016 0.046539
0.031250 0.046509 0.047058
0.180908 0.066528 0.047546
0.361298 0.072510 0.038483
0.471161 0.054016 0.026886
0.539642 0.022491 0.012787
0.592072 0.000000 0.007202
0.620270 0.000000 0.003693
0.639435 0.000000 0.007202
0.000000 0.228485 0.000000
0.000000 0.132477 0.043518
0.163757 0.167999 0.071259
0.362823 0.191986 0.083344
0.524536 0.224976 0.095947
0.640442 0.266968 0.116089
0.728638 0.305481 0.138275
0.783539 0.328491 0.153381
0.815308 0.328491 0.159912
0.000000 0.316498 0.000000
0.000000 0.239502 0.032928
0.051910 0.288971 0.063690
0.341675 0.334961 0.075806
0.524536 0.352478 0.081848
0.639954 0.354980 0.106018
0.720062 0.359497 0.131714
0.783051 0.380493 0.151855
0.830414 0.413483 0.180084
0.000000 0.369476 0.000000
0.000000 0.363464 0.010223
0.000000 0.365479 0.051086
0.263550 0.439484 0.057648
0.508942 0.481964 0.062683
0.647003 0.493469 0.083862
0.735687 0.498962 0.112061
0.803192 0.501953 0.147308
0.842529 0.497955 0.183105
0.000000 0.404968 0.000000
0.000000 0.419983 0.000000
0.000000 0.389984 0.036987
0.108856 0.498444 0.057648
0.455048 0.560944 0.060669
0.625824 0.588440 0.069733
0.731171 0.599945 0.100464
0.807220 0.607452 0.148315
0.858643 0.611938 0.181091
0.000000 0.429993 0.000000
0.000000 0.431458 0.000000
0.000000 0.392487 0.024384
0.000000 0.526947 0.073792
0.373383 0.606964 0.067749
0.589569 0.649933 0.085358
0.711517 0.672455 0.125671
0.799164 0.682434 0.153351
0.858643 0.690918 0.192200
0.000000 0.451477 0.000000
0.000000 0.451477 0.000000
0.000000 0.492462 0.002625
0.000000 0.522949 0.082855
0.257507 0.632935 0.098450
0.540649 0.689941 0.124664
0.687286 0.717438 0.148346
0.775482 0.732452 0.176544
0.850067 0.743927 0.216858
0.000000 0.467468 0.000000
0.000000 0.467468 0.000000
0.000000 0.508972 0.000000
0.000000 0.479980 0.083862
0.085663 0.637451 0.137756
0.468140 0.710938 0.153381
0.646484 0.745911 0.181580
0.752319 0.767426 0.213348
0.830933 0.779938 0.244598
0.088715 0.012024 0.238037
0.355774 0.012024 0.288391
0.433380 0.009003 0.205780
0.536621 0.004028 0.192169
0.602661 0.000000 0.197723
0.646484 0.004028 0.213348
0.635925 0.002014 0.166473
0.603668 0.000000 0.097473
0.624847 0.000000 0.094940
0.000000 0.031525 0.110046
0.019653 0.054504 0.124664
0.141602 0.066010 0.094940
0.284180 0.073517 0.094940
0.404633 0.063507 0.093414
0.490326 0.043518 0.092407
0.556793 0.017487 0.088379
0.606720 0.005493 0.089386
0.631897 0.002991 0.089386
0.000000 0.196014 0.193695
0.000000 0.143494 0.148315
0.155182 0.175995 0.169495
0.368378 0.215485 0.189178
0.520020 0.230011 0.188660
0.611237 0.223511 0.182617
0.679230 0.214996 0.178558
0.719055 0.204010 0.170502
0.743774 0.190979 0.165466
0.000000 0.345978 0.002533
0.000000 0.266479 0.141785
0.024170 0.299988 0.161957
0.330078 0.343964 0.200775
0.515991 0.360504 0.228973
0.637939 0.381989 0.258179
0.733154 0.422455 0.287384
0.803192 0.462463 0.313110
0.849579 0.487976 0.336304
0.000000 0.400970 0.000000
0.000000 0.396484 0.151367
0.000000 0.374969 0.141266
0.241364 0.454956 0.193207
0.493805 0.490967 0.222931
0.636932 0.503937 0.252655
0.726624 0.509949 0.279327
0.796631 0.513947 0.306061
0.842529 0.523956 0.331787
0.000000 0.435486 0.000000
0.000000 0.475952 0.106506
0.000000 0.397980 0.122650
0.059448 0.514954 0.184113
0.431854 0.573456 0.213348
0.613251 0.603455 0.246613
0.719055 0.614960 0.274323
0.798645 0.619934 0.303009
0.850586 0.621918 0.329254
0.000000 0.458954 0.000000
0.000000 0.458954 0.000000
0.000000 0.418976 0.113068
0.000000 0.538940 0.175537
0.352753 0.622925 0.213867
0.575958 0.665436 0.245605
0.700439 0.685944 0.272278
0.788086 0.697418 0.306061
0.851593 0.704956 0.332794
0.000000 0.474976 0.000000
0.000000 0.475464 0.000000
0.000000 0.521454 0.132721
0.000000 0.530457 0.165466
0.223236 0.648438 0.220917
0.525055 0.703949 0.255676
0.672668 0.729431 0.283386
0.767914 0.744415 0.314636
0.839478 0.755432 0.340332
0.000000 0.487946 0.000000
0.000000 0.487457 0.000000
0.000000 0.545959 0.018280
0.000000 0.483948 0.149841
0.016144 0.650940 0.228973
0.459564 0.724426 0.267761
0.636932 0.758911 0.296478
0.743225 0.778931 0.327240
0.823364 0.791931 0.351898
0.203583 0.004028 0.354431
0.468109 0.002502 0.453217
0.486267 0.001495 0.356476
0.543671 0.001495 0.297974
0.609192 0.000000 0.285889
0.650513 0.004028 0.287384
0.682281 0.000000 0.291443
0.705475 0.000000 0.303528
0.700928 0.004028 0.271790
0.000000 0.092499 0.215363
0.020172 0.043518 0.197205
0.167297 0.077484 0.203247
0.272125 0.081024 0.157410
0.375916 0.080994 0.158417
0.459564 0.072998 0.158905
0.536133 0.058502 0.162964
0.589050 0.040985 0.165466
0.628845 0.030518 0.166473
0.000000 0.103516 0.220398
0.000000 0.148499 0.248627
0.137573 0.191986 0.286926
0.312439 0.199005 0.250641
0.449493 0.205017 0.250641
0.546692 0.201508 0.250641
0.625336 0.193481 0.246613
0.680267 0.184479 0.243591
0.713013 0.171997 0.240570
0.000000 0.356476 0.363525
0.000000 0.281982 0.281891
0.000000 0.311981 0.303528
0.325531 0.350952 0.331268
0.520020 0.390472 0.363007
0.641449 0.413452 0.370056
0.723083 0.416962 0.371063
0.783539 0.409485 0.365540
0.816833 0.401489 0.362000
0.000000 0.458954 0.131714
0.000000 0.414490 0.309082
0.000000 0.386475 0.267761
0.218231 0.468964 0.324707
0.484253 0.500458 0.360992
0.626862 0.512451 0.388702
0.719574 0.523468 0.412354
0.799164 0.555450 0.435547
0.851074 0.590942 0.457733
0.000000 0.471985 0.000000
0.000000 0.524963 0.329254
0.000000 0.412476 0.235016
0.022675 0.530457 0.304047
0.418732 0.588959 0.353455
0.601166 0.614929 0.382660
0.709991 0.623962 0.407318
0.789581 0.628448 0.429504
0.845551 0.632446 0.452698
0.000000 0.491455 0.000000
0.000000 0.561462 0.221893
0.000000 0.448975 0.231476
0.000000 0.549957 0.284393
0.328552 0.639435 0.345367
0.560333 0.679443 0.377625
0.689850 0.697937 0.402313
0.778503 0.709442 0.427490
0.844025 0.713928 0.450195
0.000000 0.506470 0.000000
0.000000 0.506958 0.000000
0.000000 0.550446 0.272278
0.000000 0.538452 0.260712
0.187439 0.663940 0.338806
0.509430 0.716431 0.376617
0.662109 0.742950 0.402802
0.758850 0.756958 0.425995
0.831940 0.764954 0.447662
0.000000 0.518463 0.000000
0.000000 0.518463 0.000000
0.000000 0.629913 0.300537
0.000000 0.496948 0.238037
0.000000 0.664429 0.326752
0.442932 0.738922 0.376099
0.627869 0.772949 0.403809
0.735168 0.790436 0.429993
0.815796 0.802429 0.451202
0.308411 0.002014 0.441620
0.492340 0.004028 0.509125
0.570404 0.001007 0.487976
0.570923 0.003510 0.402802
0.620819 0.004028 0.371063
0.658569 0.000000 0.358978
0.686279 0.000000 0.354950
0.709991 0.000488 0.356964
0.725616 0.015991 0.363007
0.000000 0.098999 0.318176
0.047363 0.040497 0.247620
0.168793 0.073517 0.259186
0.307404 0.084991 0.272308
0.373901 0.079498 0.218384
0.452515 0.076996 0.211334
0.521027 0.070007 0.211853
0.575958 0.060486 0.215363
0.621796 0.046021 0.216888
0.000000 0.148010 0.297485
0.000000 0.226501 0.364502
0.128998 0.178986 0.359985
0.333588 0.213013 0.352936
0.429291 0.211975 0.315643
0.512970 0.214508 0.312622
0.593597 0.212982 0.315643
0.655548 0.207977 0.316132
0.703461 0.201996 0.317657
0.000000 0.234497 0.344360
0.000000 0.225494 0.322693
0.000000 0.300995 0.400299
0.319977 0.369476 0.435059
0.476196 0.368500 0.408844
0.586029 0.368500 0.406830
0.672699 0.364471 0.404297
0.737701 0.357971 0.397766
0.779022 0.350006 0.395752
0.000000 0.491943 0.504089
0.000000 0.411469 0.414886
0.000000 0.400970 0.396240
0.110870 0.475464 0.440613
0.485748 0.507965 0.467834
0.624817 0.533447 0.494019
0.723602 0.566956 0.510132
0.801178 0.583435 0.517700
0.846558 0.585938 0.518188
0.000000 0.567963 0.393738
0.000000 0.529449 0.450195
0.000000 0.429474 0.351929
0.000000 0.540466 0.414398
0.420258 0.600952 0.460266
0.597107 0.621918 0.489990
0.702942 0.631958 0.509613
0.785553 0.636932 0.529266
0.842529 0.655426 0.544373
0.000000 0.533936 0.000000
0.000000 0.618439 0.476898
0.000000 0.469971 0.347900
0.000000 0.557953 0.389709
0.303345 0.652954 0.445648
0.553772 0.690430 0.481415
0.680237 0.705933 0.503082
0.772949 0.717438 0.525238
0.838470 0.721924 0.542358
0.000000 0.545959 0.000000
0.000000 0.625946 0.315643
0.000000 0.559448 0.389709
0.000000 0.547943 0.362000
0.136047 0.677948 0.433044
0.501404 0.728943 0.474365
0.652039 0.752930 0.500580
0.750305 0.764435 0.521698
0.825897 0.772949 0.536804
0.000000 0.551971 0.000000
0.000000 0.553955 0.000000
0.000000 0.648956 0.435547
0.000000 0.504974 0.324707
0.000000 0.671936 0.413391
0.433868 0.751434 0.467804
0.617767 0.780945 0.497009
0.725098 0.797913 0.518677
0.810272 0.809937 0.538330
0.397064 0.005524 0.503082
0.530090 0.000000 0.548920
0.635925 0.013519 0.571106
0.635925 0.000000 0.511627
0.635925 0.000000 0.448669
0.666626 0.000000 0.426483
0.694366 0.000000 0.418427
0.714020 0.008484 0.414368
0.731140 0.020020 0.414368
0.003021 0.015503 0.309601
0.087189 0.042999 0.278351
0.187958 0.070984 0.303040
0.361816 0.082001 0.368042
0.389008 0.072510 0.295471
0.450500 0.066528 0.264252
0.521027 0.062500 0.256683
0.571930 0.059509 0.260193
0.618286 0.054474 0.264740
0.000000 0.242004 0.408844
0.000000 0.266479 0.455719
0.159729 0.171997 0.401794
0.324036 0.210510 0.392731
0.446991 0.218475 0.396240
0.512970 0.214996 0.361511
0.581512 0.217499 0.355957
0.642456 0.218994 0.359985
0.689819 0.213501 0.359985
0.000000 0.214478 0.364532
0.000000 0.277008 0.424469
0.000000 0.376495 0.491486
0.313416 0.365479 0.499573
0.487793 0.380981 0.481934
0.561859 0.373962 0.452698
0.643463 0.377472 0.453705
0.709991 0.373993 0.452209
0.762878 0.367462 0.450195
0.000000 0.376984 0.466309
0.000000 0.326965 0.399780
0.000000 0.381470 0.460266
0.177368 0.460480 0.519684
0.487274 0.523468 0.545380
0.599640 0.517944 0.530273
0.694397 0.518463 0.529266
0.766418 0.516968 0.523712
0.820343 0.515961 0.521210
0.000000 0.582947 0.591766
0.000000 0.506470 0.514648
0.000000 0.450470 0.451691
0.000000 0.547974 0.517670
0.369385 0.604950 0.543365
0.594604 0.621918 0.562531
0.702942 0.635925 0.583191
0.786072 0.667450 0.600311
0.845032 0.693451 0.614441
0.000000 0.650452 0.583191
0.000000 0.602936 0.553436
0.000000 0.468964 0.426483
0.000000 0.565948 0.486969
0.228271 0.657959 0.529266
0.552277 0.695435 0.557007
0.679230 0.711426 0.579681
0.766907 0.718933 0.595306
0.834473 0.723450 0.611938
0.000000 0.589447 0.084869
0.000000 0.680450 0.588226
0.000000 0.556946 0.472351
0.000000 0.559448 0.452698
0.047363 0.679443 0.513672
0.496857 0.737946 0.548920
0.651520 0.757935 0.573120
0.743225 0.768921 0.591766
0.820862 0.776947 0.607880
0.000000 0.597443 0.048065
0.000000 0.694458 0.484436
0.000000 0.639435 0.515167
0.000000 0.521942 0.412384
0.000000 0.677948 0.495026
0.418243 0.758942 0.540863
0.612762 0.788940 0.568604
0.720581 0.805450 0.585724
0.804688 0.815918 0.603882
0.470642 0.000000 0.553467
0.571930 0.011536 0.585205
0.675201 0.010010 0.620972
0.682281 0.013519 0.584198
0.678223 0.010986 0.536316
0.678223 0.001007 0.489502
0.702423 0.009003 0.473877
0.722076 0.015991 0.465302
0.737732 0.020020 0.460754
0.056946 0.016998 0.324219
0.130524 0.047485 0.319183
0.219208 0.062500 0.351929
0.365356 0.073486 0.405823
0.453522 0.066528 0.406342
0.462097 0.058990 0.335297
0.521027 0.052002 0.314148
0.572937 0.052002 0.305542
0.614777 0.042023 0.302032
0.000000 0.291992 0.500061
0.005554 0.227478 0.496033
0.200562 0.167999 0.425476
0.335114 0.211975 0.431030
0.486786 0.233002 0.478912
0.520508 0.218994 0.432526
0.582520 0.213989 0.404297
0.635895 0.217468 0.397766
0.683258 0.222015 0.401276
0.000000 0.291473 0.461761
0.000000 0.360962 0.512634
0.075104 0.432465 0.563019
0.322021 0.348480 0.536835
0.476685 0.376495 0.512146
0.571411 0.380493 0.513153
0.633392 0.376495 0.488464
0.691315 0.378967 0.488464
0.742767 0.377472 0.488464
0.000000 0.290985 0.420441
0.000000 0.332977 0.469330
0.000000 0.408966 0.534302
0.238342 0.509460 0.588226
0.483765 0.533966 0.605896
0.603180 0.526459 0.583191
0.669159 0.524963 0.562531
0.740234 0.524445 0.562012
0.799164 0.521942 0.562531
0.000000 0.476471 0.545898
0.000000 0.419464 0.482910
0.000000 0.457458 0.518188
0.000000 0.538971 0.578156
0.369873 0.592957 0.609406
0.591583 0.630951 0.626038
0.692871 0.636444 0.621002
0.775482 0.635437 0.617462
0.831940 0.642456 0.614441
0.000000 0.637939 0.643158
0.000000 0.567444 0.578674
0.000000 0.477966 0.491974
0.000000 0.578949 0.565063
0.141113 0.662933 0.607880
0.534119 0.702454 0.622986
0.682281 0.716949 0.638123
0.765900 0.721924 0.650208
0.834473 0.740936 0.662292
0.000000 0.704437 0.667358
0.000000 0.656433 0.622467
0.000000 0.539948 0.517670
0.000000 0.574463 0.527771
0.008087 0.687439 0.588745
0.469635 0.741943 0.611938
0.651520 0.764435 0.634583
0.743225 0.772430 0.647186
0.817841 0.780426 0.658752
0.000000 0.679962 0.371063
0.000000 0.725922 0.658264
0.000000 0.617950 0.562531
0.000000 0.541443 0.486450
0.000000 0.683960 0.565552
0.376434 0.762909 0.603882
0.613770 0.796936 0.628052
0.719055 0.808929 0.643646
0.802185 0.819946 0.658264
0.541168 0.012512 0.593262
0.612213 0.023987 0.616974
0.690826 0.004517 0.644653
0.718048 0.008026 0.637115
0.714020 0.004028 0.597809
0.709991 0.012024 0.555969
0.709991 0.012024 0.524231
0.729645 0.015503 0.516663
0.745789 0.015503 0.508636
0.122467 0.024475 0.350922
0.173859 0.045990 0.362518
0.251465 0.053497 0.393219
0.376434 0.064514 0.441101
0.498352 0.053497 0.480408
0.512970 0.046509 0.424957
0.522034 0.041504 0.366547
0.572449 0.038513 0.351440
0.616272 0.033997 0.345856
0.001007 0.238983 0.531281
0.086182 0.144012 0.481903
0.248932 0.176483 0.458740
0.351227 0.210968 0.465790
0.474670 0.229980 0.507599
0.571442 0.233002 0.522705
0.584015 0.217987 0.462280
0.635895 0.214996 0.446167
0.679260 0.211975 0.434052
0.000000 0.386963 0.547394
0.000000 0.436462 0.586731
0.162262 0.448456 0.616455
0.342651 0.336487 0.564545
0.481232 0.374481 0.545868
0.592590 0.394470 0.580688
0.636414 0.381470 0.544373
0.688843 0.376495 0.525726
0.736206 0.380493 0.520203
0.000000 0.339478 0.499054
0.000000 0.397980 0.546906
0.001007 0.480469 0.601837
0.294281 0.566956 0.644165
0.475708 0.522461 0.642151
0.591583 0.523956 0.611420
0.676727 0.533447 0.616943
0.728638 0.530457 0.599823
0.779510 0.530457 0.596802
0.000000 0.367981 0.472839
0.000000 0.395477 0.501068
0.000000 0.460968 0.564056
0.057465 0.542938 0.623993
0.426300 0.619446 0.659760
0.599640 0.652435 0.673889
0.687286 0.639954 0.657745
0.748291 0.640442 0.648193
0.807220 0.643433 0.650696
0.000000 0.551453 0.603363
0.000000 0.495972 0.547913
0.000000 0.496948 0.542877
0.000000 0.593933 0.618439
0.154694 0.663940 0.659760
0.509430 0.698914 0.674896
0.672180 0.714935 0.682953
0.763397 0.723938 0.683472
0.830414 0.730927 0.683472
0.000000 0.675964 0.681946
0.000000 0.609436 0.622467
0.000000 0.508453 0.525238
0.000000 0.593933 0.588226
0.000000 0.690430 0.643646
0.433868 0.745941 0.666351
0.638916 0.764954 0.677887
0.746796 0.772949 0.686981
0.817841 0.780945 0.702118
0.000000 0.743439 0.721252
0.000000 0.688416 0.666351
0.000000 0.583954 0.573120
0.000000 0.566467 0.548920
0.000000 0.689941 0.619965
0.330048 0.765442 0.651703
0.594604 0.796936 0.667358
0.719574 0.812439 0.686462
0.798645 0.823914 0.698090
0.596619 0.023987 0.629028
0.648499 0.012512 0.644653
0.707489 0.034027 0.668335
0.749786 0.058990 0.676422
0.743744 0.030029 0.643158
0.740234 0.002502 0.611420
0.737732 0.004028 0.579681
0.734161 0.007996 0.552460
0.749786 0.004028 0.544403
0.177368 0.027008 0.386688
0.217682 0.034515 0.403290
0.285217 0.044495 0.431030
0.392029 0.049500 0.470856
0.507904 0.036499 0.510620
0.563843 0.029510 0.500061
0.564880 0.023987 0.445160
0.573456 0.026520 0.401276
0.616272 0.015503 0.386169
0.064484 0.138000 0.507111
0.175873 0.144501 0.501068
0.292267 0.183990 0.493011
0.373901 0.209473 0.500549
0.472656 0.223999 0.532288
0.590576 0.237488 0.569092
0.626831 0.229004 0.544373
0.635376 0.214996 0.492493
0.679260 0.213013 0.476898
0.000000 0.464966 0.626526
0.005554 0.476471 0.647675
0.205597 0.398468 0.637604
0.374420 0.336487 0.588226
0.494812 0.372986 0.576141
0.579498 0.388489 0.597809
0.678253 0.399475 0.618469
0.688843 0.378967 0.571625
0.734680 0.376495 0.557495
0.000000 0.427948 0.584717
0.000000 0.482941 0.621979
0.033264 0.552948 0.662292
0.357788 0.599945 0.692047
0.473663 0.507965 0.667328
0.597626 0.523956 0.637115
0.687317 0.542938 0.658264
0.728119 0.531952 0.636597
0.775970 0.531952 0.625000
0.000000 0.395966 0.537323
0.000000 0.441467 0.578674
0.000000 0.511475 0.630554
0.153168 0.593933 0.675903
0.459076 0.667938 0.705658
0.593079 0.660461 0.713715
0.683289 0.639954 0.678925
0.750305 0.647949 0.682953
0.795624 0.646942 0.670868
0.000000 0.436951 0.520203
0.000000 0.446960 0.530762
0.000000 0.507965 0.589752
0.000000 0.585938 0.650696
0.318481 0.649933 0.691528
0.545197 0.705444 0.714203
0.682281 0.739960 0.725800
0.757843 0.729431 0.713715
0.807220 0.729919 0.706665
0.000000 0.601929 0.642639
0.000000 0.546936 0.592255
0.000000 0.520447 0.565063
0.000000 0.617432 0.645660
0.000000 0.699921 0.695557
0.413696 0.745941 0.719238
0.608704 0.765442 0.729858
0.739227 0.773438 0.729858
0.818359 0.784943 0.734344
0.000000 0.699951 0.705658
0.000000 0.640961 0.657745
0.000000 0.546936 0.571625
0.000000 0.591431 0.604370
0.000000 0.701935 0.675385
0.279175 0.766937 0.705658
0.560303 0.800934 0.717743
0.711517 0.816406 0.725800
0.802185 0.823914 0.737915
