滤镜资源/Professional Luts Collection/Lutify.me Professional/Cine Looks/Opalite.cube
# Created by: Lutify.me
# Copyright: (c) Copyright Lutify.me 2015
# Website: https://lutify.me
#LUT size
LUT_3D_SIZE 33
#LUT data points
0.000000 0.004028 0.000000
0.027557 0.007874 0.000183
0.086182 0.012024 0.000000
0.130768 0.015991 0.000000
0.188965 0.015991 0.000000
0.237488 0.015991 0.000000
0.283203 0.008759 0.000000
0.322998 0.000885 0.000000
0.354767 0.000000 0.000000
0.378418 0.000000 0.000000
0.403351 0.000000 0.000000
0.420502 0.000000 0.000000
0.436401 0.000000 0.000000
0.452271 0.000000 0.000000
0.468140 0.000000 0.000000
0.484009 0.000000 0.000000
0.493835 0.000000 0.000000
0.507690 0.000000 0.000000
0.517761 0.000000 0.000000
0.525665 0.000000 0.000000
0.533600 0.000000 0.000000
0.540161 0.000000 0.000000
0.545471 0.000000 0.000000
0.553406 0.000000 0.000000
0.560333 0.000000 0.000000
0.565247 0.000000 0.000000
0.569183 0.000000 0.000000
0.576477 0.000000 0.000000
0.580505 0.000000 0.000000
0.584534 0.000000 0.000000
0.588562 0.000000 0.000000
0.592590 0.000000 0.000000
0.596619 0.000000 0.000000
0.004059 0.015747 0.000183
0.004059 0.007996 0.000000
0.012238 0.007996 0.000183
0.032166 0.011780 0.000183
0.064026 0.012146 0.000183
0.110535 0.016113 0.000031
0.154114 0.020020 0.000000
0.197693 0.023743 0.000000
0.253632 0.023621 0.000000
0.301086 0.020477 0.000000
0.338684 0.016602 0.000000
0.370270 0.009003 0.000000
0.395325 0.001373 0.000000
0.416595 0.000000 0.000000
0.434753 0.000000 0.000000
0.452271 0.000000 0.000000
0.464111 0.000000 0.000000
0.478088 0.000000 0.000000
0.490051 0.000000 0.000000
0.503540 0.000000 0.000000
0.515350 0.000000 0.000000
0.521667 0.000000 0.000000
0.529572 0.000000 0.000000
0.536377 0.000000 0.000000
0.541412 0.000000 0.000000
0.548462 0.000000 0.000000
0.553406 0.000000 0.000000
0.561218 0.000000 0.000000
0.565125 0.000000 0.000000
0.568665 0.000000 0.000000
0.572937 0.000000 0.000000
0.576843 0.000000 0.000000
0.580750 0.000000 0.000000
0.000000 0.042755 0.000183
0.004059 0.011902 0.000183
0.011871 0.011780 0.000183
0.023407 0.015625 0.000183
0.054413 0.015747 0.000183
0.082886 0.019775 0.000183
0.128479 0.023254 0.000183
0.172577 0.027771 0.000000
0.220459 0.034760 0.000000
0.272095 0.035522 0.000000
0.318726 0.038269 0.000000
0.364227 0.039001 0.000000
0.400848 0.042511 0.000000
0.432343 0.041992 0.000000
0.465851 0.041504 0.000000
0.488678 0.041504 0.000000
0.509949 0.037262 0.000000
0.525787 0.026276 0.000000
0.543427 0.020538 0.000000
0.553284 0.003815 0.000000
0.568451 0.004517 0.000000
0.571838 0.000031 0.000000
0.581024 0.000031 0.000000
0.582550 0.000000 0.000000
0.592346 0.000000 0.000000
0.590820 0.000000 0.000000
0.597870 0.000000 0.000000
0.598938 0.000000 0.000000
0.599426 0.000000 0.000000
0.606598 0.000000 0.000000
0.603424 0.000000 0.000000
0.607452 0.000000 0.000000
0.607971 0.000000 0.000000
0.000000 0.070496 0.000183
0.000244 0.020020 0.000183
0.007812 0.019653 0.000183
0.019806 0.023621 0.000183
0.046875 0.027252 0.000183
0.078125 0.031006 0.000183
0.117188 0.034882 0.000183
0.160767 0.042389 0.000183
0.207977 0.043243 0.000000
0.255585 0.047241 0.000000
0.303589 0.050385 0.000000
0.348572 0.054260 0.000000
0.390533 0.057739 0.000000
0.425140 0.062012 0.000000
0.460968 0.066895 0.000000
0.492310 0.072998 0.000000
0.518005 0.076874 0.000000
0.541412 0.081757 0.000000
0.566620 0.084991 0.000000
0.590698 0.093018 0.000000
0.609467 0.095001 0.000000
0.623566 0.085022 0.000000
0.631500 0.077118 0.000000
0.639069 0.068146 0.000000
0.648285 0.064636 0.000000
0.651520 0.053162 0.000000
0.651550 0.030548 0.000000
0.650421 0.013885 0.000000
0.654053 0.007263 0.000000
0.660980 0.006897 0.000000
0.654419 0.003387 0.000000
0.654419 0.000031 0.000000
0.654419 0.000031 0.000000
0.000000 0.098022 0.000183
0.000000 0.039642 0.000183
0.004059 0.035004 0.000183
0.019409 0.038635 0.000183
0.042847 0.042511 0.000183
0.073944 0.046387 0.000183
0.113647 0.053741 0.000183
0.156830 0.061615 0.000183
0.203064 0.062012 0.000031
0.250702 0.062500 0.000000
0.294525 0.065765 0.000000
0.341553 0.069611 0.000000
0.382965 0.070984 0.000000
0.417206 0.073883 0.000000
0.455292 0.081268 0.000000
0.486633 0.086975 0.000000
0.512482 0.093018 0.000000
0.540649 0.100861 0.000000
0.567383 0.106995 0.000000
0.593475 0.116638 0.000000
0.615265 0.123993 0.000000
0.635162 0.129974 0.000000
0.656311 0.137726 0.000000
0.669922 0.139984 0.000000
0.681763 0.144501 0.000000
0.694366 0.149475 0.000000
0.702698 0.148254 0.000000
0.710510 0.141846 0.000000
0.714539 0.133514 0.000000
0.714264 0.124115 0.000000
0.718292 0.117493 0.000000
0.714539 0.104736 0.000000
0.714539 0.092468 0.000000
0.000000 0.132874 0.000000
0.000000 0.059113 0.000183
0.000000 0.054504 0.000183
0.007935 0.054382 0.000183
0.034912 0.065125 0.003571
0.070038 0.070099 0.003571
0.109619 0.077240 0.000305
0.152313 0.081848 0.000183
0.199585 0.088104 0.000183
0.247131 0.093018 0.000000
0.294769 0.089478 0.000000
0.341064 0.092743 0.000000
0.379456 0.091003 0.000000
0.412689 0.094116 0.000000
0.451385 0.096985 0.000000
0.480225 0.100861 0.000000
0.509949 0.106720 0.000000
0.534363 0.112610 0.000000
0.561584 0.120483 0.000000
0.587677 0.128967 0.000000
0.611359 0.136871 0.000000
0.633636 0.146729 0.000000
0.655579 0.153839 0.000000
0.675476 0.163879 0.000000
0.690735 0.175110 0.000000
0.706360 0.180237 0.000000
0.719055 0.190125 0.000000
0.733673 0.200226 0.000000
0.741486 0.200867 0.000000
0.752075 0.203491 0.000000
0.763000 0.217316 0.000671
0.770050 0.219330 0.010101
0.770813 0.205719 0.003540
0.000000 0.165771 0.000000
0.000000 0.086273 0.000183
0.000000 0.074005 0.000183
0.000366 0.074524 0.003845
0.020142 0.081757 0.004242
0.058044 0.089142 0.004242
0.097778 0.097015 0.004242
0.148651 0.108124 0.000305
0.195282 0.112732 0.000183
0.242371 0.119507 0.000000
0.293762 0.117035 0.000000
0.335754 0.122375 0.000000
0.380188 0.121735 0.000000
0.416718 0.124268 0.000000
0.448486 0.122742 0.000000
0.480988 0.123627 0.000000
0.509949 0.124481 0.000000
0.535889 0.130493 0.000000
0.560089 0.134491 0.000000
0.583771 0.140137 0.000000
0.609222 0.148010 0.000000
0.631622 0.156616 0.000000
0.652771 0.167755 0.000000
0.671417 0.175629 0.000000
0.691376 0.184235 0.000000
0.707245 0.195343 0.000000
0.719086 0.204010 0.000000
0.734924 0.215729 0.000000
0.746796 0.222961 0.000000
0.762268 0.234497 0.000000
0.773468 0.242981 0.000702
0.781433 0.252991 0.012299
0.792603 0.260223 0.016296
0.000000 0.197357 0.000000
0.000000 0.116913 0.000031
0.000000 0.104767 0.000183
0.000000 0.101379 0.003876
0.007812 0.108368 0.004242
0.040070 0.113007 0.004242
0.085938 0.119751 0.004242
0.140717 0.132477 0.001068
0.188354 0.139496 0.000183
0.237946 0.146484 0.000000
0.290375 0.152130 0.000000
0.338379 0.152496 0.000000
0.384491 0.155609 0.000000
0.423004 0.153259 0.000000
0.455658 0.155609 0.000000
0.484253 0.156464 0.000000
0.513092 0.150482 0.000000
0.539032 0.153381 0.000000
0.561584 0.156006 0.000000
0.583893 0.158997 0.000000
0.605164 0.165375 0.000000
0.628998 0.171631 0.000000
0.651520 0.179504 0.000000
0.669403 0.187378 0.000000
0.691376 0.195251 0.000000
0.707245 0.207123 0.000000
0.723083 0.216614 0.000000
0.734924 0.226868 0.000000
0.748169 0.236115 0.000000
0.762268 0.243866 0.000031
0.774475 0.258453 0.004456
0.786316 0.266357 0.012421
0.797272 0.278229 0.016296
0.000000 0.227997 0.000000
0.000000 0.151367 0.000000
0.000000 0.131744 0.000183
0.000000 0.125000 0.003876
0.000000 0.132477 0.004242
0.016632 0.139984 0.004242
0.073853 0.147491 0.004211
0.128754 0.159119 0.001068
0.180389 0.166992 0.000061
0.230774 0.174713 0.000000
0.279694 0.179993 0.000000
0.334381 0.186981 0.000000
0.384979 0.190979 0.000000
0.425507 0.191345 0.000000
0.460602 0.189728 0.000000
0.491302 0.191986 0.000000
0.519012 0.188995 0.000000
0.545837 0.189117 0.000000
0.566895 0.187469 0.000000
0.590820 0.187988 0.000000
0.610748 0.190491 0.000000
0.630615 0.192749 0.000000
0.652771 0.198242 0.000000
0.671417 0.203125 0.000000
0.689331 0.210999 0.000000
0.707245 0.218872 0.000000
0.719818 0.227478 0.000000
0.737335 0.238617 0.000000
0.750793 0.244995 0.000000
0.762665 0.255737 0.000519
0.774475 0.267242 0.007477
0.790222 0.278107 0.012421
0.798157 0.286987 0.016296
0.000000 0.252625 0.000000
0.000000 0.230225 0.000000
0.000000 0.168732 0.000000
0.000000 0.152985 0.000183
0.000000 0.155487 0.004242
0.003906 0.164001 0.004242
0.046509 0.173981 0.001312
0.108765 0.186371 0.000183
0.166412 0.197479 0.000061
0.216034 0.202362 0.000000
0.277283 0.211487 0.000000
0.330109 0.222107 0.000000
0.379059 0.225983 0.000000
0.425507 0.222839 0.000000
0.466370 0.230347 0.000000
0.498505 0.228485 0.000000
0.528076 0.229462 0.000000
0.555664 0.228485 0.000000
0.578857 0.226379 0.000000
0.598755 0.224731 0.000000
0.620178 0.226379 0.000000
0.637421 0.222351 0.000000
0.658447 0.224731 0.000000
0.674347 0.228607 0.000000
0.692383 0.233612 0.000000
0.710114 0.238617 0.000000
0.723083 0.246490 0.000000
0.738342 0.253723 0.000000
0.750793 0.259857 0.000031
0.765167 0.268982 0.003448
0.774475 0.275360 0.008484
0.790222 0.286987 0.015167
0.798157 0.297729 0.016296
0.000000 0.272247 0.000000
0.000000 0.269501 0.000000
0.000000 0.201508 0.000000
0.000000 0.183350 0.000031
0.000000 0.183746 0.000183
0.000000 0.191620 0.000183
0.015381 0.202759 0.000183
0.076263 0.214508 0.000031
0.140839 0.226013 0.000000
0.208252 0.237854 0.000000
0.266571 0.248505 0.000000
0.322144 0.256378 0.000000
0.375153 0.261475 0.000000
0.424011 0.265747 0.000000
0.469635 0.268494 0.000000
0.504395 0.269745 0.000000
0.533356 0.269012 0.000000
0.563477 0.269745 0.000000
0.588562 0.268494 0.000000
0.608337 0.266876 0.000000
0.629333 0.264496 0.000000
0.648010 0.263245 0.000000
0.666382 0.261719 0.000000
0.685059 0.261719 0.000000
0.700928 0.262970 0.000000
0.714020 0.265106 0.000000
0.731171 0.268250 0.000000
0.742371 0.272247 0.000000
0.753571 0.277985 0.000702
0.766663 0.285858 0.008240
0.777252 0.292480 0.012268
0.790253 0.301605 0.016296
0.802185 0.309479 0.016296
0.000000 0.289246 0.000000
0.000000 0.289246 0.000000
0.000000 0.229889 0.000000
0.000000 0.214874 0.000000
0.000000 0.207886 0.000031
0.000000 0.216003 0.000061
0.000641 0.229736 0.000031
0.036804 0.242126 0.000000
0.124481 0.257477 0.000000
0.191833 0.269379 0.000000
0.254578 0.281219 0.000000
0.314209 0.289124 0.000000
0.369751 0.296997 0.000000
0.420227 0.303497 0.000000
0.467896 0.307373 0.000000
0.506561 0.309113 0.000000
0.536774 0.309113 0.000000
0.568665 0.309113 0.000000
0.598267 0.309113 0.000000
0.618927 0.309113 0.000000
0.640076 0.309113 0.000000
0.659851 0.307739 0.000000
0.679749 0.307861 0.000000
0.696899 0.305115 0.000000
0.711761 0.303741 0.000000
0.725983 0.302856 0.000000
0.741882 0.301117 0.000000
0.751709 0.302490 0.000122
0.761017 0.306488 0.004242
0.772949 0.310486 0.008240
0.784943 0.315857 0.012268
0.792999 0.319977 0.012299
0.804840 0.327850 0.013641
0.000000 0.304993 0.000000
0.000000 0.304993 0.000000
0.000000 0.255981 0.000000
0.000000 0.243866 0.000000
0.000000 0.222473 0.000000
0.000000 0.231720 0.000000
0.000000 0.250732 0.000000
0.011993 0.267242 0.000000
0.089233 0.281464 0.000000
0.168793 0.297241 0.000000
0.234344 0.308716 0.000000
0.298340 0.320618 0.000000
0.360809 0.333984 0.000000
0.410919 0.338867 0.000000
0.463593 0.344208 0.000000
0.508057 0.348480 0.000000
0.540161 0.348480 0.000000
0.573792 0.350342 0.000000
0.603668 0.352478 0.000000
0.626709 0.352478 0.000000
0.648010 0.350952 0.000000
0.667755 0.350952 0.000000
0.687561 0.348480 0.000000
0.706238 0.348480 0.000000
0.723602 0.346985 0.000000
0.737976 0.346100 0.000000
0.752319 0.342957 0.000000
0.763519 0.342957 0.000183
0.772949 0.342468 0.001709
0.783417 0.341980 0.004211
0.792877 0.344727 0.005737
0.800812 0.346100 0.008240
0.810272 0.351471 0.008240
0.000000 0.320740 0.000000
0.000000 0.320740 0.000000
0.000000 0.303955 0.000000
0.000000 0.271851 0.000000
0.000000 0.249359 0.000000
0.000000 0.254456 0.000000
0.000000 0.268097 0.000000
0.000000 0.286987 0.000000
0.037659 0.305115 0.000000
0.138672 0.321350 0.000000
0.214081 0.337860 0.000000
0.282440 0.348358 0.000000
0.348938 0.361481 0.000000
0.402985 0.369476 0.000000
0.454773 0.375732 0.000000
0.502258 0.381470 0.000000
0.541412 0.389069 0.000000
0.575439 0.387329 0.000000
0.605286 0.391205 0.000000
0.633759 0.391846 0.000000
0.654419 0.390961 0.000000
0.674347 0.391846 0.000000
0.694244 0.391846 0.000000
0.714142 0.389099 0.000000
0.731018 0.387848 0.000000
0.745911 0.387848 0.000000
0.761749 0.387848 0.000000
0.775238 0.386200 0.000000
0.784943 0.383850 0.000061
0.795258 0.384216 0.000061
0.803192 0.381989 0.000061
0.811127 0.381714 0.001953
0.820740 0.381470 0.008240
0.000000 0.334198 0.000000
0.000000 0.332489 0.000000
0.000000 0.332458 0.000000
0.000000 0.296967 0.000000
0.000000 0.279755 0.000000
0.000000 0.269104 0.000000
0.000000 0.285248 0.000000
0.000000 0.305878 0.000000
0.005554 0.322479 0.000000
0.096466 0.340485 0.000000
0.180420 0.356720 0.000000
0.261169 0.373352 0.000000
0.330078 0.385254 0.000000
0.387115 0.397583 0.000000
0.442688 0.403229 0.000000
0.498627 0.411102 0.000000
0.538147 0.415222 0.000000
0.567902 0.416992 0.000000
0.603668 0.421478 0.000000
0.632019 0.422607 0.000000
0.657562 0.424988 0.000000
0.677368 0.426727 0.000000
0.698151 0.427734 0.000000
0.718048 0.426086 0.000000
0.736694 0.424988 0.000000
0.755615 0.426727 0.000000
0.767426 0.426727 0.000000
0.783813 0.425476 0.000000
0.795135 0.424988 0.000000
0.804840 0.420990 0.000000
0.813019 0.421234 0.000000
0.820740 0.419220 0.000366
0.830933 0.423218 0.014526
0.000000 0.342102 0.000000
0.000000 0.342102 0.000000
0.000000 0.342102 0.000000
0.000000 0.316223 0.000000
0.000000 0.306854 0.000000
0.000000 0.281250 0.000000
0.000000 0.298004 0.000000
0.000000 0.322479 0.000000
0.000000 0.341248 0.000000
0.046570 0.362976 0.000000
0.152191 0.380493 0.000000
0.235596 0.393494 0.000000
0.311646 0.410339 0.000000
0.375275 0.420990 0.000000
0.430817 0.430725 0.000000
0.486633 0.440735 0.000000
0.532104 0.446472 0.000000
0.567627 0.450104 0.000000
0.601532 0.452484 0.000000
0.629730 0.454834 0.000000
0.656952 0.455841 0.000000
0.681396 0.457855 0.000000
0.701202 0.457367 0.000000
0.721985 0.457489 0.000000
0.740753 0.457489 0.000000
0.761749 0.460480 0.000000
0.773590 0.456482 0.000000
0.788849 0.456482 0.000000
0.804840 0.459961 0.000000
0.812775 0.456482 0.000000
0.820740 0.456482 0.000366
0.828674 0.456482 0.008636
0.836609 0.456726 0.022491
0.000000 0.353973 0.000000
0.000000 0.353973 0.000000
0.000000 0.353973 0.000000
0.000000 0.344727 0.000000
0.000000 0.330475 0.000000
0.000000 0.301880 0.000000
0.000000 0.310486 0.000000
0.000000 0.333618 0.000000
0.000000 0.355988 0.000000
0.018890 0.376617 0.000000
0.110657 0.396210 0.000000
0.206512 0.416595 0.000000
0.284698 0.430969 0.000000
0.357758 0.444366 0.000000
0.418976 0.458221 0.000000
0.470673 0.466217 0.000000
0.526062 0.475952 0.000000
0.559814 0.475952 0.000000
0.595367 0.481476 0.000000
0.627350 0.481964 0.000000
0.657562 0.486450 0.000000
0.681396 0.489960 0.000000
0.701202 0.491211 0.000000
0.721863 0.489960 0.000000
0.743744 0.489960 0.000000
0.763672 0.490845 0.000000
0.779510 0.490692 0.000000
0.794006 0.490570 0.000000
0.807220 0.490448 0.000000
0.818726 0.491577 0.000458
0.828674 0.489960 0.006470
0.836609 0.489960 0.016418
0.844543 0.489960 0.024384
0.000000 0.361847 0.000000
0.000000 0.361847 0.000000
0.000000 0.361847 0.000000
0.000000 0.361847 0.000000
0.000000 0.351105 0.000000
0.000000 0.331238 0.000000
0.000000 0.318604 0.000000
0.000000 0.341492 0.000000
0.000000 0.366852 0.000000
0.002014 0.388336 0.000000
0.055328 0.410736 0.000000
0.174377 0.431610 0.000000
0.261414 0.447235 0.000000
0.334351 0.462830 0.000000
0.399872 0.476196 0.000000
0.460602 0.485840 0.000000
0.510345 0.493835 0.000000
0.555786 0.501343 0.000000
0.591431 0.507324 0.000000
0.623840 0.509583 0.000000
0.653534 0.515076 0.000000
0.679474 0.515442 0.000000
0.701202 0.515442 0.000000
0.723846 0.520844 0.000000
0.743744 0.519440 0.000000
0.764526 0.523438 0.000000
0.782806 0.522705 0.000000
0.797272 0.521301 0.000000
0.811279 0.521301 0.000580
0.824646 0.523438 0.004578
0.832581 0.523163 0.012268
0.842651 0.521179 0.016418
0.852478 0.523438 0.024384
0.000000 0.369720 0.000000
0.000000 0.369720 0.000000
0.000000 0.371490 0.000000
0.000000 0.369720 0.000000
0.000000 0.365723 0.000000
0.000000 0.357849 0.000000
0.000000 0.328003 0.000000
0.000000 0.347595 0.000000
0.000000 0.374725 0.000000
0.000000 0.398346 0.000000
0.017914 0.423706 0.000000
0.122223 0.444733 0.000000
0.231567 0.464478 0.000000
0.314056 0.480194 0.000000
0.381439 0.491974 0.000000
0.441437 0.503723 0.000000
0.500366 0.515442 0.000000
0.545563 0.522919 0.000000
0.583496 0.529205 0.000000
0.619171 0.533203 0.000000
0.648010 0.536926 0.000000
0.677338 0.541199 0.000000
0.701202 0.542450 0.000000
0.720978 0.542938 0.000000
0.741486 0.545197 0.000000
0.762787 0.546051 0.000000
0.780273 0.546967 0.000000
0.799438 0.549194 0.000092
0.812531 0.550934 0.000702
0.827179 0.551819 0.006866
0.838715 0.550934 0.010773
0.846680 0.550934 0.014648
0.856384 0.553192 0.018585
0.000000 0.379974 0.000000
0.000000 0.381592 0.000000
0.000000 0.381592 0.000000
0.000000 0.379608 0.000000
0.000000 0.379242 0.000000
0.000000 0.379242 0.000000
0.000000 0.343872 0.000000
0.000000 0.352509 0.000000
0.000000 0.380615 0.000000
0.000000 0.409088 0.000000
0.003906 0.433868 0.000000
0.067047 0.456482 0.000000
0.194641 0.476227 0.000000
0.290710 0.493591 0.000000
0.364716 0.511719 0.000000
0.426697 0.522949 0.000000
0.486511 0.534821 0.000000
0.537994 0.544830 0.000000
0.577850 0.548950 0.000000
0.613617 0.556824 0.000000
0.645355 0.560577 0.000000
0.673309 0.562195 0.000000
0.697144 0.563599 0.000000
0.719818 0.568329 0.000000
0.739746 0.568817 0.000000
0.762024 0.572815 0.000000
0.780396 0.572815 0.000000
0.797028 0.572845 0.000000
0.814148 0.576813 0.000122
0.827179 0.574463 0.002563
0.838989 0.576813 0.002838
0.850708 0.576813 0.006592
0.858643 0.576813 0.010620
0.000000 0.389465 0.000000
0.000000 0.389465 0.000000
0.000000 0.389465 0.000000
0.000000 0.389465 0.000000
0.000000 0.389465 0.000000
0.000000 0.392853 0.000000
0.000000 0.370728 0.000000
0.000000 0.358459 0.000000
0.000000 0.385468 0.000000
0.000000 0.418091 0.000000
0.000000 0.440491 0.000000
0.026733 0.466858 0.000000
0.152679 0.487946 0.000000
0.252441 0.507721 0.000000
0.336609 0.523468 0.000000
0.410187 0.539581 0.000000
0.465607 0.550446 0.000000
0.525787 0.560822 0.000000
0.563599 0.568695 0.000000
0.600891 0.572571 0.000000
0.637421 0.580444 0.000000
0.669159 0.584320 0.000000
0.693085 0.584442 0.000000
0.715424 0.588440 0.000000
0.736694 0.591949 0.000000
0.758972 0.592438 0.000000
0.778748 0.595703 0.000000
0.796906 0.596466 0.000000
0.814789 0.596466 0.000000
0.827179 0.600433 0.000000
0.842773 0.600433 0.000000
0.850830 0.600433 0.000000
0.860138 0.597931 0.000122
0.000000 0.395966 0.000000
0.000000 0.397339 0.000000
0.000000 0.397339 0.000000
0.000000 0.397339 0.000000
0.000000 0.396851 0.000000
0.000000 0.402100 0.000000
0.000000 0.397583 0.000000
0.000000 0.360840 0.000000
0.000000 0.384979 0.000000
0.000000 0.420837 0.000000
0.000000 0.449585 0.000000
0.002533 0.475830 0.000000
0.111633 0.499725 0.000000
0.222076 0.520447 0.000000
0.312927 0.539185 0.000000
0.383881 0.553589 0.000000
0.447968 0.566681 0.000000
0.509277 0.577942 0.000000
0.555664 0.584442 0.000000
0.593994 0.592316 0.000000
0.629486 0.596191 0.000000
0.661224 0.602692 0.000000
0.691711 0.606720 0.000000
0.712921 0.608093 0.000000
0.735687 0.611694 0.000000
0.755096 0.612061 0.000000
0.775482 0.615448 0.000000
0.795380 0.616089 0.000000
0.811279 0.619171 0.000000
0.827179 0.620056 0.000000
0.842773 0.620056 0.000000
0.852081 0.622711 0.000122
0.862671 0.622711 0.002960
0.000000 0.401215 0.000000
0.000000 0.403839 0.000000
0.000000 0.401215 0.000000
0.000000 0.401215 0.000000
0.000000 0.401215 0.000000
0.000000 0.409485 0.000000
0.000000 0.420471 0.000000
0.000000 0.379700 0.000000
0.000000 0.382233 0.000000
0.000000 0.421082 0.000000
0.000000 0.450989 0.000000
0.000000 0.478455 0.000000
0.061249 0.504700 0.000000
0.189575 0.529938 0.000000
0.285461 0.548431 0.000000
0.363953 0.565430 0.000000
0.430084 0.580444 0.000000
0.490143 0.592316 0.000000
0.540924 0.600189 0.000000
0.585815 0.608063 0.000000
0.621552 0.614441 0.000000
0.653290 0.619812 0.000000
0.683777 0.623688 0.000000
0.708740 0.627563 0.000000
0.731415 0.631439 0.000000
0.751556 0.631714 0.000000
0.771454 0.635193 0.000000
0.794769 0.639069 0.000000
0.809998 0.638916 0.000000
0.826782 0.639709 0.000000
0.838989 0.642456 0.000549
0.854736 0.643707 0.010895
0.862671 0.643707 0.022858
0.000000 0.409088 0.000000
0.000000 0.409088 0.000000
0.000000 0.409088 0.000000
0.000000 0.409088 0.000000
0.000000 0.409088 0.000000
0.000000 0.409088 0.000000
0.000000 0.425720 0.000000
0.000000 0.404846 0.000000
0.000000 0.386841 0.000000
0.000000 0.416077 0.000000
0.000000 0.454956 0.000061
0.000000 0.482452 0.000000
0.028473 0.509979 0.000000
0.127045 0.532196 0.000000
0.250061 0.554718 0.000000
0.338776 0.573334 0.000000
0.414062 0.589081 0.000000
0.477417 0.604065 0.000000
0.530090 0.614838 0.000000
0.574341 0.622192 0.000000
0.609955 0.627686 0.000000
0.645355 0.634186 0.000000
0.677063 0.638336 0.000000
0.703674 0.643341 0.000000
0.724609 0.647186 0.000000
0.750427 0.650208 0.000000
0.767426 0.653809 0.000000
0.787323 0.654205 0.000000
0.810120 0.658691 0.000519
0.823120 0.658569 0.001953
0.838989 0.662201 0.011902
0.854736 0.665070 0.025757
0.862671 0.663300 0.038727
0.000000 0.415955 0.000000
0.000000 0.415955 0.000000
0.000000 0.416962 0.000000
0.000000 0.416962 0.000000
0.000000 0.415955 0.000000
0.000000 0.416962 0.000000
0.000000 0.437225 0.000000
0.000000 0.428711 0.000000
0.000000 0.389984 0.000000
0.000000 0.411102 0.000000
0.000000 0.453735 0.000122
0.000000 0.484833 0.000183
0.007050 0.512451 0.000000
0.080109 0.540070 0.000000
0.212128 0.561462 0.000000
0.312073 0.580444 0.000000
0.388000 0.597931 0.000000
0.455902 0.611816 0.000000
0.511169 0.623688 0.000000
0.560089 0.633942 0.000000
0.599152 0.642456 0.000000
0.634766 0.646332 0.000000
0.669128 0.653931 0.000000
0.695770 0.657928 0.000000
0.719574 0.661957 0.000000
0.743500 0.664948 0.000000
0.766907 0.665924 0.000000
0.786957 0.670593 0.001678
0.803192 0.673920 0.006744
0.822113 0.676941 0.021729
0.837982 0.677948 0.030640
0.850830 0.680939 0.041626
0.862671 0.677948 0.050568
0.000000 0.420868 0.000000
0.000000 0.420868 0.000000
0.000000 0.420868 0.000000
0.000000 0.420868 0.000000
0.000000 0.420868 0.000000
0.000000 0.420868 0.000000
0.000000 0.440979 0.000000
0.000000 0.449738 0.000000
0.000000 0.404602 0.000000
0.000000 0.409454 0.000000
0.000000 0.449738 0.002899
0.000000 0.486481 0.001556
0.000000 0.515442 0.000000
0.033386 0.541443 0.000000
0.161377 0.566193 0.000000
0.276154 0.586334 0.000031
0.365601 0.604828 0.000031
0.437622 0.620544 0.000000
0.493835 0.632324 0.000000
0.548248 0.646454 0.000000
0.590332 0.651184 0.000000
0.623322 0.658203 0.000000
0.659943 0.662933 0.000000
0.691864 0.669708 0.000000
0.715668 0.673798 0.000000
0.736328 0.677704 0.000916
0.759369 0.680817 0.002716
0.779907 0.682312 0.011505
0.802307 0.685699 0.022980
0.819122 0.689178 0.034576
0.830902 0.689667 0.042511
0.846832 0.693695 0.054443
0.862671 0.693695 0.062439
0.000000 0.424713 0.000000
0.000000 0.424713 0.000000
0.000000 0.424713 0.000000
0.000000 0.424713 0.000000
0.000000 0.424713 0.000000
0.000000 0.424713 0.000000
0.000000 0.440216 0.000000
0.000000 0.458191 0.000000
0.000000 0.428223 0.000000
0.000000 0.409454 0.000000
0.000000 0.443726 0.002960
0.000000 0.485107 0.004211
0.000000 0.516205 0.000000
0.012115 0.544586 0.000031
0.106384 0.569946 0.000946
0.250977 0.593567 0.004211
0.338623 0.610718 0.002960
0.415955 0.628418 0.000122
0.478729 0.642456 0.000000
0.534637 0.654327 0.000000
0.577728 0.662201 0.000000
0.617523 0.670074 0.000000
0.649261 0.673950 0.000000
0.683929 0.681427 0.000031
0.707733 0.685455 0.002441
