滤镜资源/Professional Luts Collection/Lutify.me Professional/Cine Looks/Opalite.cube
# Created by: Lutify.me
# Copyright: (c) Copyright Lutify.me 2015
# Website: https://lutify.me
#LUT size
LUT_3D_SIZE 5
#LUT data points
0.000000 0.004028 0.000000
0.354767 0.000000 0.000000
0.493835 0.000000 0.000000
0.560333 0.000000 0.000000
0.596619 0.000000 0.000000
0.000000 0.227997 0.000000
0.180389 0.166992 0.000061
0.519012 0.188995 0.000000
0.689331 0.210999 0.000000
0.798157 0.286987 0.016296
0.000000 0.353973 0.000000
0.000000 0.355988 0.000000
0.526062 0.475952 0.000000
0.743744 0.489960 0.000000
0.844543 0.489960 0.024384
0.000000 0.415955 0.000000
0.000000 0.389984 0.000000
0.388000 0.597931 0.000000
0.719574 0.661957 0.000000
0.862671 0.677948 0.050568
0.000000 0.451965 0.000000
0.000000 0.482941 0.000000
0.098755 0.625946 0.040497
0.657074 0.736938 0.077820
0.838470 0.771942 0.141296
0.088715 0.012024 0.238037
0.433380 0.009003 0.205780
0.602661 0.000000 0.197723
0.635925 0.002014 0.166473
0.624847 0.000000 0.094940
0.000000 0.196014 0.193695
0.155182 0.175995 0.169495
0.520020 0.230011 0.188660
0.679230 0.214996 0.178558
0.743774 0.190979 0.165466
0.000000 0.400970 0.000000
0.000000 0.374969 0.141266
0.493805 0.490967 0.222931
0.726624 0.509949 0.279327
0.842529 0.523956 0.331787
0.000000 0.458954 0.000000
0.000000 0.418976 0.113068
0.352753 0.622925 0.213867
0.700439 0.685944 0.272278
0.851593 0.704956 0.332794
0.000000 0.487946 0.000000
0.000000 0.545959 0.018280
0.016144 0.650940 0.228973
0.636932 0.758911 0.296478
0.823364 0.791931 0.351898
0.308411 0.002014 0.441620
0.570404 0.001007 0.487976
0.620819 0.004028 0.371063
0.686279 0.000000 0.354950
0.725616 0.015991 0.363007
0.000000 0.148010 0.297485
0.128998 0.178986 0.359985
0.429291 0.211975 0.315643
0.593597 0.212982 0.315643
0.703461 0.201996 0.317657
0.000000 0.491943 0.504089
0.000000 0.400970 0.396240
0.485748 0.507965 0.467834
0.723602 0.566956 0.510132
0.846558 0.585938 0.518188
0.000000 0.533936 0.000000
0.000000 0.469971 0.347900
0.303345 0.652954 0.445648
0.680237 0.705933 0.503082
0.838470 0.721924 0.542358
0.000000 0.551971 0.000000
0.000000 0.648956 0.435547
0.000000 0.671936 0.413391
0.617767 0.780945 0.497009
0.810272 0.809937 0.538330
0.470642 0.000000 0.553467
0.675201 0.010010 0.620972
0.678223 0.010986 0.536316
0.702423 0.009003 0.473877
0.737732 0.020020 0.460754
0.000000 0.291992 0.500061
0.200562 0.167999 0.425476
0.486786 0.233002 0.478912
0.582520 0.213989 0.404297
0.683258 0.222015 0.401276
0.000000 0.290985 0.420441
0.000000 0.408966 0.534302
0.483765 0.533966 0.605896
0.669159 0.524963 0.562531
0.799164 0.521942 0.562531
0.000000 0.637939 0.643158
0.000000 0.477966 0.491974
0.141113 0.662933 0.607880
0.682281 0.716949 0.638123
0.834473 0.740936 0.662292
0.000000 0.679962 0.371063
0.000000 0.617950 0.562531
0.000000 0.683960 0.565552
0.613770 0.796936 0.628052
0.802185 0.819946 0.658264
0.596619 0.023987 0.629028
0.707489 0.034027 0.668335
0.743744 0.030029 0.643158
0.737732 0.004028 0.579681
0.749786 0.004028 0.544403
0.064484 0.138000 0.507111
0.292267 0.183990 0.493011
0.472656 0.223999 0.532288
0.626831 0.229004 0.544373
0.679260 0.213013 0.476898
0.000000 0.427948 0.584717
0.033264 0.552948 0.662292
0.473663 0.507965 0.667328
0.687317 0.542938 0.658264
0.775970 0.531952 0.625000
0.000000 0.436951 0.520203
0.000000 0.507965 0.589752
0.318481 0.649933 0.691528
0.682281 0.739960 0.725800
0.807220 0.729919 0.706665
0.000000 0.699951 0.705658
0.000000 0.546936 0.571625
0.000000 0.701935 0.675385
0.560303 0.800934 0.717743
0.802185 0.823914 0.737915
