滤镜资源/Professional Luts Collection/Lutify.me Professional/Cine Looks/Opal.cube
# Created by: Lutify.me
# Copyright: (c) Copyright Lutify.me 2015
# Website: https://lutify.me
#LUT size
LUT_3D_SIZE 5
#LUT data points
0.012024 0.000183 0.000183
0.199005 0.004242 0.000000
0.427948 0.000000 0.000000
0.536957 0.000000 0.000000
0.599945 0.000000 0.000000
0.000000 0.178558 0.019501
0.190979 0.182587 0.000000
0.476959 0.191681 0.000000
0.618958 0.165466 0.000000
0.685913 0.137268 0.000000
0.000000 0.354950 0.079437
0.127991 0.356964 0.006287
0.521942 0.417419 0.000000
0.694946 0.405304 0.000000
0.781921 0.381134 0.000000
0.000000 0.498047 0.184052
0.066010 0.505096 0.111938
0.477966 0.565552 0.000000
0.734955 0.594788 0.000000
0.843933 0.579681 0.000000
0.000000 0.596802 0.276489
0.112000 0.604858 0.216553
0.459961 0.661285 0.166779
0.714935 0.697601 0.003174
0.867950 0.701630 0.000000
0.007996 0.000061 0.199280
0.169983 0.000000 0.207397
0.429962 0.000000 0.189148
0.565948 0.000000 0.172882
0.635956 0.000000 0.158661
0.000000 0.138275 0.131256
0.155975 0.216888 0.214508
0.473969 0.214844 0.194244
0.631927 0.185638 0.169830
0.709930 0.153381 0.150513
0.000000 0.341827 0.215546
0.084015 0.398285 0.241974
0.496948 0.450684 0.189148
0.697937 0.438599 0.154602
0.793915 0.408356 0.129211
0.000000 0.501068 0.291718
0.092010 0.555450 0.293762
0.448975 0.592773 0.246033
0.726929 0.631042 0.153595
0.848938 0.616943 0.113953
0.000000 0.604858 0.364868
0.144989 0.656250 0.363831
0.449982 0.684448 0.312042
0.697937 0.721771 0.252106
0.867950 0.736908 0.150543
0.026001 0.000000 0.361816
0.199982 0.000000 0.398376
0.441986 0.000000 0.410553
0.577942 0.000000 0.399384
0.655945 0.000000 0.388245
0.000000 0.216888 0.387207
0.141998 0.245087 0.431915
0.471954 0.234009 0.456268
0.637939 0.202759 0.440033
0.722931 0.172516 0.423767
0.000000 0.292450 0.308990
0.004028 0.346893 0.364868
0.489960 0.494019 0.477631
0.690918 0.472839 0.460327
0.797913 0.445648 0.445129
0.000000 0.462769 0.380127
0.002991 0.513153 0.413605
0.469971 0.641144 0.486755
0.709930 0.673370 0.466431
0.839935 0.658264 0.449188
0.000000 0.590759 0.449188
0.062012 0.651215 0.480682
0.479950 0.727814 0.512146
0.672943 0.746979 0.483704
0.851929 0.776184 0.455261
0.072998 0.009247 0.477631
0.246002 0.000000 0.508087
0.462952 0.000000 0.525360
0.593933 0.000000 0.525360
0.671936 0.000000 0.521301
0.001007 0.282379 0.556824
0.186005 0.260193 0.565979
0.490967 0.248108 0.601532
0.646942 0.214844 0.594421
0.730957 0.181580 0.581238
0.000000 0.360992 0.497925
0.058990 0.428497 0.558868
0.489960 0.516174 0.630981
0.687927 0.491974 0.640137
0.797913 0.463776 0.629974
0.000000 0.422424 0.445129
0.000000 0.433533 0.449188
0.390991 0.625031 0.603546
0.705933 0.703644 0.660431
0.831909 0.681427 0.648254
0.000000 0.552460 0.500977
0.000000 0.590759 0.519257
0.349976 0.671356 0.566986
0.699921 0.787262 0.664520
0.839935 0.806396 0.655365
0.143982 0.076813 0.556854
0.304993 0.041504 0.581238
0.497955 0.000183 0.595428
0.613953 0.000000 0.597473
0.687927 0.000000 0.597473
0.102020 0.316650 0.644196
0.273010 0.291443 0.649292
0.509949 0.271271 0.671600
0.660950 0.238037 0.673645
0.738953 0.203766 0.665527
0.000000 0.473877 0.660431
0.268982 0.527252 0.706177
0.509979 0.530273 0.719360
0.696930 0.506104 0.733612
0.797913 0.475861 0.729523
0.000000 0.483917 0.584290
0.000000 0.526245 0.618805
0.451965 0.655243 0.706177
0.710938 0.719757 0.751892
0.828918 0.695557 0.755920
0.000000 0.540344 0.564972
0.000000 0.552460 0.573090
0.220001 0.627014 0.619812
0.670959 0.783234 0.736664
0.839935 0.818542 0.760010
