滤镜资源/Professional Luts Collection/Lutify.me Professional/Cine Looks/Opal.cube
# Created by: Lutify.me
# Copyright: (c) Copyright Lutify.me 2015
# Website: https://lutify.me
#LUT size
LUT_3D_SIZE 9
#LUT data points
0.012024 0.000183 0.000183
0.074005 0.004242 0.000183
0.199005 0.004242 0.000000
0.329987 0.000000 0.000000
0.427948 0.000000 0.000000
0.486969 0.000000 0.000000
0.536957 0.000000 0.000000
0.572449 0.000000 0.000000
0.599945 0.000000 0.000000
0.004517 0.091400 0.008301
0.073517 0.078796 0.000183
0.179504 0.082855 0.000000
0.332001 0.084351 0.000000
0.445465 0.064697 0.000000
0.514465 0.043518 0.000000
0.572449 0.017822 0.000000
0.607941 0.000153 0.000000
0.635437 0.000000 0.000000
0.000000 0.178558 0.019501
0.043518 0.162445 0.000702
0.190979 0.182587 0.000000
0.355988 0.194733 0.000000
0.476959 0.191681 0.000000
0.559448 0.180084 0.000000
0.618958 0.165466 0.000000
0.655945 0.149323 0.000000
0.685913 0.137268 0.000000
0.000000 0.269775 0.043365
0.001495 0.253662 0.016418
0.163513 0.269775 0.000000
0.369965 0.303528 0.000000
0.502472 0.306061 0.000000
0.601440 0.298981 0.000000
0.660431 0.287415 0.000000
0.705444 0.275818 0.000000
0.734436 0.263214 0.000000
0.000000 0.354950 0.079437
0.000000 0.346405 0.038818
0.127991 0.356964 0.006287
0.339478 0.393738 0.000000
0.521942 0.417419 0.000000
0.632935 0.415894 0.000000
0.694946 0.405304 0.000000
0.750946 0.393738 0.000000
0.781921 0.381134 0.000000
0.000000 0.436066 0.129211
0.000000 0.425995 0.076904
0.094025 0.437592 0.053009
0.311981 0.469330 0.000000
0.499451 0.500580 0.000000
0.648438 0.515167 0.000000
0.721924 0.508606 0.000000
0.784943 0.503082 0.000000
0.817413 0.489960 0.000000
0.000000 0.498047 0.184052
0.000000 0.485931 0.128204
0.066010 0.505096 0.111938
0.301483 0.536835 0.055542
0.477966 0.565552 0.000000
0.633942 0.590759 0.000000
0.734955 0.594788 0.000000
0.802429 0.590759 0.000000
0.843933 0.579681 0.000000
0.000000 0.553467 0.232819
0.000000 0.540833 0.179993
0.076477 0.560516 0.167297
0.303467 0.592255 0.140900
0.464478 0.615936 0.074860
0.610962 0.639130 0.006805
0.726440 0.649689 0.000000
0.812958 0.653717 0.000000
0.859924 0.650208 0.000000
0.000000 0.596802 0.276489
0.000000 0.585205 0.232330
0.112000 0.604858 0.216553
0.316498 0.639618 0.203339
0.459961 0.661285 0.166779
0.593964 0.681458 0.080963
0.714935 0.697601 0.003174
0.805939 0.701630 0.000000
0.867950 0.701630 0.000000
0.004517 0.004730 0.103302
0.058502 0.004242 0.091644
0.174988 0.005249 0.080444
0.318970 0.000000 0.068756
0.427460 0.000000 0.052490
0.494965 0.000000 0.040314
0.553436 0.000000 0.030182
0.588440 0.000000 0.022552
0.619446 0.000000 0.014893
0.000488 0.063690 0.048431
0.054504 0.090912 0.079926
0.161011 0.087891 0.068756
0.317474 0.089905 0.058105
0.442474 0.074799 0.041321
0.518463 0.048035 0.025085
0.580963 0.020874 0.014404
0.619965 0.006744 0.011383
0.651428 0.000000 0.011383
0.000000 0.154877 0.078918
0.019531 0.175049 0.088593
0.171509 0.193726 0.071808
0.340485 0.202271 0.048431
0.471954 0.197235 0.025604
0.564453 0.187134 0.007812
0.626434 0.172516 0.003204
0.666443 0.155884 0.001190
0.694427 0.141266 0.000153
0.000000 0.261719 0.115479
0.004028 0.273315 0.114960
0.132996 0.277313 0.091644
0.352478 0.316650 0.037262
0.495941 0.318146 0.001190
0.602936 0.311096 0.000061
0.665436 0.299988 0.000122
0.714935 0.284363 0.000000
0.744965 0.272308 0.000000
0.000000 0.356964 0.157623
0.000000 0.372070 0.149017
0.092010 0.370575 0.119019
0.315491 0.403290 0.070801
0.512451 0.431549 0.005249
0.631439 0.429016 0.000000
0.695953 0.418396 0.000000
0.756439 0.405823 0.000000
0.787445 0.393219 0.000000
0.000000 0.442627 0.199799
0.000000 0.456238 0.189148
0.071991 0.455719 0.153046
0.291992 0.480927 0.122589
0.486969 0.512665 0.024597
0.644440 0.528778 0.000000
0.719940 0.522217 0.000000
0.785431 0.515656 0.000000
0.821442 0.504578 0.000000
0.000000 0.506104 0.237396
0.000000 0.522217 0.231812
0.029999 0.523712 0.189636
0.290985 0.552460 0.172882
0.465973 0.578156 0.109375
0.624451 0.602356 0.029175
0.733948 0.610413 0.000000
0.805939 0.604370 0.000000
0.844940 0.596313 0.000000
0.000000 0.557465 0.276489
0.004028 0.576660 0.268860
0.077484 0.576141 0.227753
0.296478 0.605347 0.216553
0.454956 0.630554 0.183563
0.599945 0.651215 0.107880
0.721924 0.665344 0.014374
0.812958 0.669342 0.000000
0.860413 0.665833 0.000000
0.000000 0.600861 0.316620
0.023987 0.620453 0.312042
0.081512 0.616455 0.263794
0.312500 0.648682 0.252625
0.455963 0.672882 0.236877
0.581940 0.691040 0.198761
0.710938 0.709167 0.133759
0.802429 0.717224 0.055054
0.867950 0.717224 0.007812
0.007996 0.000061 0.199280
0.062988 0.000000 0.208435
0.169983 0.000000 0.207397
0.314972 0.000000 0.198303
0.429962 0.000000 0.189148
0.502960 0.000000 0.181519
0.565948 0.000000 0.172882
0.604462 0.000000 0.165253
0.635956 0.000000 0.158661
0.000000 0.091431 0.167297
0.031006 0.102509 0.195251
0.162994 0.099976 0.203857
0.317474 0.099487 0.199280
0.443481 0.082855 0.187103
0.529938 0.056122 0.178467
0.593445 0.025879 0.168823
0.635956 0.010773 0.161713
0.666443 0.000000 0.151031
0.000000 0.138275 0.131256
0.003510 0.183105 0.187622
0.155975 0.216888 0.214508
0.337982 0.220917 0.205383
0.473969 0.214844 0.194244
0.568939 0.202271 0.179474
0.631927 0.185638 0.169830
0.678925 0.170013 0.160187
0.709930 0.153381 0.150513
0.000000 0.238556 0.171356
0.000000 0.253662 0.187103
0.129486 0.312622 0.226715
0.341003 0.337830 0.203369
0.490448 0.339813 0.187103
0.603943 0.331268 0.175934
0.668457 0.316650 0.164246
0.724945 0.300507 0.150543
0.754425 0.287415 0.143402
0.000000 0.341827 0.215546
0.000000 0.368561 0.231293
0.084015 0.398285 0.241974
0.291473 0.418915 0.223694
0.496948 0.450684 0.189148
0.627441 0.449188 0.169861
0.697937 0.438599 0.154602
0.761444 0.426483 0.140900
0.793915 0.408356 0.129211
0.000000 0.428986 0.254639
0.000000 0.458740 0.267853
0.062500 0.487457 0.266846
0.278473 0.497528 0.243988
0.461456 0.525757 0.215546
0.634949 0.551941 0.171875
0.719421 0.547913 0.147461
0.788422 0.538849 0.126160
0.825409 0.523224 0.119049
0.000000 0.501068 0.291718
0.000000 0.530273 0.300354
0.092010 0.555450 0.293762
0.277466 0.570618 0.265839
0.448975 0.592773 0.246033
0.607452 0.619476 0.205902
0.726929 0.631042 0.153595
0.804962 0.628052 0.130737
0.848938 0.616943 0.113953
0.000000 0.559998 0.327789
0.002991 0.585205 0.335419
0.074982 0.611389 0.330322
0.289490 0.622498 0.290192
0.446472 0.642151 0.278534
0.584442 0.665344 0.250092
0.710938 0.682465 0.201843
0.808929 0.690033 0.147461
0.859924 0.689026 0.119568
0.000000 0.604858 0.364868
0.000000 0.632568 0.371979
0.144989 0.656250 0.363831
0.304504 0.664337 0.323212
0.449982 0.684448 0.312042
0.573944 0.703125 0.292236
0.697937 0.721771 0.252106
0.793915 0.732849 0.206909
0.867950 0.736908 0.150543
0.015991 0.000000 0.288177
0.081024 0.000000 0.304443
0.182495 0.000000 0.315094
0.317993 0.000000 0.316620
0.435974 0.000000 0.312561
0.510956 0.000000 0.306976
0.573944 0.000000 0.300354
0.612976 0.000000 0.294769
0.647949 0.000000 0.289185
0.000000 0.126160 0.307465
0.020020 0.114075 0.311035
0.166504 0.107544 0.331879
0.324982 0.103516 0.332886
0.449982 0.086365 0.328827
0.535950 0.057678 0.317108
0.599457 0.034454 0.306976
0.644440 0.007751 0.298340
0.676941 0.000000 0.290222
0.000000 0.165466 0.243988
0.000000 0.205780 0.302917
0.144501 0.229980 0.332367
0.337494 0.234009 0.348602
0.469452 0.224945 0.335907
0.572968 0.213837 0.328308
0.636932 0.195709 0.316620
0.686951 0.180084 0.305420
0.717926 0.162933 0.297302
0.000000 0.217377 0.220642
0.000000 0.225952 0.232819
0.074524 0.321167 0.327271
0.336487 0.359467 0.350128
0.487946 0.356964 0.339996
0.602936 0.347382 0.329834
0.669434 0.333771 0.320160
0.729431 0.316650 0.308990
0.758423 0.303009 0.301392
0.000000 0.313629 0.256683
0.000000 0.320190 0.263275
0.032501 0.371063 0.301880
0.324982 0.460754 0.361816
0.488434 0.472870 0.342010
0.621918 0.469330 0.329834
0.694946 0.456238 0.317627
0.761932 0.444641 0.308990
0.797913 0.431549 0.298859
0.000000 0.405304 0.299347
0.000000 0.427979 0.314575
0.018494 0.469330 0.340485
0.297485 0.524231 0.361298
0.452972 0.546387 0.352142
0.624451 0.574127 0.331360
0.714935 0.570099 0.318634
0.783936 0.558014 0.305420
0.825409 0.547394 0.298859
0.000000 0.489990 0.339478
0.000000 0.516174 0.356720
0.037506 0.557495 0.380096
0.302979 0.598816 0.382629
0.436981 0.608887 0.363342
0.584961 0.631073 0.345581
0.716431 0.652222 0.321686
0.798920 0.651215 0.306976
0.844940 0.640137 0.298859
0.000000 0.548889 0.379089
0.000000 0.576141 0.392792
0.041504 0.616974 0.414642
0.317474 0.652710 0.410553
0.438965 0.660767 0.382629
0.567444 0.677917 0.373016
0.696442 0.699097 0.347107
0.802429 0.710693 0.314056
0.855927 0.709167 0.301880
0.000000 0.602356 0.415649
0.000000 0.628510 0.427826
0.141998 0.668335 0.440552
0.351990 0.698578 0.438507
0.444489 0.703644 0.406006
0.564941 0.719238 0.397888
0.687439 0.736389 0.376038
0.783447 0.750488 0.345581
0.859924 0.756531 0.313568
0.026001 0.000000 0.361816
0.094513 0.000000 0.383667
0.199982 0.000000 0.398376
0.327972 0.000000 0.409027
0.441986 0.000000 0.410553
0.514954 0.000000 0.404480
0.577942 0.000000 0.399384
0.624420 0.000000 0.394318
0.655945 0.000000 0.388245
0.000000 0.143799 0.404480
0.031006 0.123138 0.401428
0.173492 0.113068 0.430908
0.336975 0.102997 0.439545
0.453461 0.081329 0.434448
0.541473 0.058167 0.428375
0.605469 0.027405 0.419708
0.651947 0.000061 0.411591
0.683441 0.000000 0.403992
0.000000 0.216888 0.387207
0.000000 0.240570 0.417694
0.141998 0.245087 0.431915
0.340485 0.240570 0.459320
0.471954 0.234009 0.456268
0.574463 0.220398 0.450714
0.637939 0.202759 0.440033
0.691437 0.185608 0.428864
0.722931 0.172516 0.423767
0.000000 0.238556 0.320160
0.000000 0.259186 0.348633
0.069489 0.336823 0.428864
0.330994 0.373077 0.457794
0.484467 0.369049 0.469482
0.601440 0.359467 0.462372
0.668457 0.344879 0.455780
0.730957 0.328766 0.446136
0.762421 0.314117 0.436493
0.000000 0.292450 0.308990
0.000000 0.284882 0.300873
0.004028 0.346893 0.364868
0.303986 0.473358 0.466431
0.489960 0.494019 0.477631
0.617950 0.486969 0.470001
0.690918 0.472839 0.460327
0.758423 0.460785 0.452728
0.797913 0.445648 0.445129
0.000000 0.377625 0.341003
0.000000 0.385681 0.344543
0.000000 0.405823 0.356750
0.247986 0.515167 0.439545
0.490448 0.587738 0.489807
0.620453 0.597290 0.478119
0.706940 0.589233 0.465942
0.780945 0.578674 0.457306
0.823914 0.563049 0.443085
0.000000 0.462769 0.380127
0.000000 0.479401 0.390259
0.002991 0.513153 0.413605
0.242981 0.574646 0.446655
0.469971 0.641144 0.486755
0.592957 0.659271 0.479614
0.709930 0.673370 0.466431
0.792938 0.669342 0.457794
0.839935 0.658264 0.449188
0.000000 0.531281 0.419220
0.000000 0.554962 0.429382
0.000000 0.591766 0.449677
0.284485 0.648682 0.480194
0.469971 0.687988 0.494354
0.566956 0.696564 0.480164
0.686462 0.715210 0.475586
0.792938 0.734344 0.460846
0.851929 0.730865 0.447662
0.000000 0.590759 0.449188
0.000000 0.612396 0.461365
0.062012 0.651215 0.480682
0.327972 0.700104 0.504517
0.479950 0.727814 0.512146
0.566437 0.733856 0.488312
0.672943 0.746979 0.483704
0.765930 0.762573 0.471008
0.851929 0.776184 0.455261
0.045502 0.000000 0.421753
0.114502 0.000000 0.438019
0.220001 0.000000 0.454254
0.340973 0.000000 0.466431
0.449463 0.000000 0.470520
0.522949 0.000000 0.470520
0.585938 0.000000 0.470520
0.629944 0.000000 0.470520
0.663940 0.000000 0.466431
0.001495 0.150330 0.471527
0.053009 0.131226 0.470001
0.192474 0.122650 0.491821
0.349487 0.106018 0.509094
0.463470 0.081848 0.510620
0.546936 0.053101 0.507080
0.610443 0.015808 0.502502
0.659943 0.007202 0.497925
0.691437 0.007202 0.494385
0.000000 0.255157 0.490784
0.024506 0.265747 0.509094
0.156494 0.254150 0.514160
0.343964 0.249634 0.539581
0.476959 0.240570 0.545166
0.577942 0.227478 0.545166
0.641937 0.207794 0.538544
0.695435 0.192200 0.530426
0.726929 0.175049 0.519257
0.000000 0.294464 0.446655
0.000000 0.321198 0.477631
0.133484 0.368561 0.528900
0.336487 0.385162 0.549225
0.486450 0.380646 0.569519
0.602936 0.369049 0.567993
0.669434 0.353943 0.559875
0.730957 0.338318 0.548706
0.763916 0.323700 0.538574
0.000000 0.309601 0.388733
0.000000 0.317169 0.396851
0.000000 0.375610 0.457306
0.314972 0.482422 0.552246
0.493958 0.511627 0.570038
0.614441 0.496552 0.577667
0.688934 0.483917 0.570038
0.755432 0.471832 0.561401
0.797913 0.458740 0.552765
0.000000 0.362000 0.385193
0.000000 0.362000 0.385193
0.000000 0.374603 0.394836
0.162476 0.496521 0.495392
0.470947 0.601837 0.580200
0.619446 0.608398 0.579193
0.701935 0.601349 0.574615
0.774445 0.590759 0.566467
0.821442 0.578674 0.557343
0.000000 0.433533 0.409027
0.000000 0.443634 0.415131
0.000000 0.457733 0.423767
0.089996 0.520691 0.464386
0.427979 0.632080 0.547729
0.623932 0.689484 0.591370
0.706940 0.692566 0.581726
0.785431 0.684967 0.569031
0.835938 0.672363 0.558868
0.000000 0.511627 0.441071
0.000000 0.526245 0.451721
0.000000 0.552460 0.465424
0.151001 0.599304 0.492340
0.415466 0.665802 0.541595
0.609467 0.727814 0.589844
0.694458 0.739929 0.582733
0.785431 0.747986 0.570557
0.843933 0.744446 0.561401
0.000000 0.571106 0.477112
0.000000 0.587219 0.485260
0.000000 0.622498 0.504517
0.223480 0.668854 0.530945
0.436981 0.714203 0.560913
0.600433 0.755524 0.588348
0.681915 0.767609 0.577667
0.762939 0.779694 0.573608
0.847931 0.791779 0.561401
0.072998 0.009247 0.477631
0.132477 0.001068 0.492859
0.246002 0.000000 0.508087
0.360474 0.000000 0.521301
0.462952 0.000000 0.525360
0.534454 0.000000 0.526367
0.593933 0.000000 0.525360
0.636963 0.000000 0.522308
0.671936 0.000000 0.521301
0.013519 0.150848 0.512634
0.085510 0.144287 0.522797
0.220490 0.133728 0.544647
0.363495 0.117096 0.561401
0.475952 0.091400 0.564972
0.558472 0.059174 0.562927
0.617432 0.028931 0.557343
0.667450 0.025360 0.557343
0.695435 0.010773 0.549225
0.001007 0.282379 0.556824
0.039001 0.283386 0.565979
0.186005 0.260193 0.565979
0.355957 0.262207 0.589844
0.490967 0.248108 0.601532
0.585938 0.234009 0.600006
0.646942 0.214844 0.594421
0.698456 0.195709 0.586304
0.730957 0.181580 0.581238
0.000000 0.346375 0.548218
0.002991 0.368561 0.569519
0.196991 0.400787 0.598480
0.350952 0.393219 0.606110
0.484467 0.388184 0.621338
0.607452 0.374084 0.626404
0.670959 0.359467 0.621338
0.731445 0.343353 0.615753
0.766418 0.327240 0.609161
0.000000 0.360992 0.497925
0.000000 0.383667 0.521790
0.058990 0.428497 0.558868
0.354980 0.505096 0.620300
0.489960 0.516174 0.630981
0.616455 0.506592 0.644196
0.687927 0.491974 0.640137
0.757446 0.476379 0.636078
0.797913 0.463776 0.629974
0.000000 0.374603 0.446136
0.000000 0.381134 0.454254
0.000000 0.401794 0.471039
0.209991 0.515167 0.574615
0.470947 0.598297 0.637085
0.628448 0.622498 0.651306
0.702942 0.609406 0.654846
0.772949 0.598816 0.648773
0.819946 0.586212 0.641663
0.000000 0.422424 0.445129
0.000000 0.426483 0.446136
0.000000 0.433533 0.449188
0.043518 0.506104 0.508575
0.390991 0.625031 0.603546
0.617950 0.704651 0.660431
0.705933 0.703644 0.660431
0.781433 0.696075 0.656372
0.831909 0.681427 0.648254
0.000000 0.488983 0.468964
0.000000 0.499542 0.472534
0.000000 0.513153 0.477631
0.011536 0.538330 0.491333
0.353485 0.641632 0.573090
0.572968 0.721252 0.638092
0.713440 0.759552 0.668060
0.781433 0.762573 0.660431
0.839935 0.756042 0.652313
0.000000 0.552460 0.500977
0.000000 0.567078 0.505035
0.000000 0.590759 0.519257
0.121490 0.626526 0.539093
0.349976 0.671356 0.566986
0.556458 0.743927 0.628448
0.699921 0.787262 0.664520
0.773438 0.798859 0.664001
0.839935 0.806396 0.655365
0.104492 0.040985 0.520782
0.170502 0.024872 0.532959
0.273010 0.005249 0.548218
0.379974 0.000000 0.557343
0.478455 0.000000 0.565460
0.543457 0.000000 0.565460
0.604950 0.000000 0.569031
0.644958 0.000000 0.565979
0.679932 0.000000 0.569031
0.045990 0.164978 0.560883
0.131989 0.160950 0.572571
0.255493 0.151855 0.587830
0.382477 0.136230 0.601013
0.488434 0.105530 0.605621
0.564941 0.077301 0.605621
0.625427 0.053101 0.605621
0.671936 0.031433 0.602051
0.703430 0.007751 0.601532
0.013000 0.301514 0.612213
0.109497 0.289917 0.612732
0.226501 0.275818 0.614227
0.373993 0.274323 0.635590
0.497955 0.259186 0.645721
0.592957 0.241058 0.645721
0.652954 0.224426 0.642181
0.703949 0.208832 0.637604
0.734924 0.187134 0.631012
0.000488 0.388702 0.616760
0.056000 0.404327 0.635040
0.260498 0.423462 0.653839
0.368500 0.403320 0.653839
0.489441 0.397247 0.669067
0.612946 0.383667 0.677734
0.676941 0.367035 0.674164
0.734955 0.350922 0.667542
0.770416 0.335297 0.661957
0.000000 0.421936 0.588348
0.000000 0.448181 0.609161
0.168488 0.486969 0.641663
0.392487 0.528748 0.675171
0.498444 0.520691 0.679779
0.614441 0.512146 0.689911
0.691925 0.498047 0.693970
0.757446 0.485931 0.691925
0.797913 0.469818 0.683807
0.000000 0.427979 0.546692
0.000000 0.442627 0.559357
0.011536 0.476898 0.586304
0.296509 0.552429 0.642670
0.501465 0.614960 0.685333
0.636444 0.633575 0.700043
0.697937 0.616943 0.704132
0.772949 0.605377 0.704132
0.817413 0.593292 0.700043
0.000000 0.437073 0.509094
0.000000 0.444153 0.513153
0.000000 0.455719 0.520782
0.098480 0.527252 0.581726
0.410461 0.630554 0.657410
0.612976 0.697083 0.700562
0.710449 0.712189 0.708191
0.780945 0.700623 0.712250
0.831909 0.688477 0.704132
0.000000 0.484924 0.509094
0.000000 0.488983 0.512634
0.000000 0.493500 0.512146
0.007996 0.513672 0.525360
0.303467 0.627533 0.612213
0.545441 0.716736 0.677704
0.705933 0.770142 0.715790
0.784943 0.767090 0.712250
0.835938 0.763092 0.708191
0.000000 0.543884 0.528900
0.000000 0.551941 0.532959
0.000000 0.564056 0.537048
0.010986 0.582703 0.545166
0.250488 0.634583 0.581726
0.501465 0.724304 0.652313
0.679962 0.784241 0.696533
0.788940 0.814484 0.719849
0.839935 0.810944 0.711731
0.143982 0.076813 0.556854
0.210510 0.064697 0.569031
0.304993 0.041504 0.581238
0.401978 0.016296 0.589355
0.497955 0.000183 0.595428
0.558960 0.000000 0.597473
0.613953 0.000000 0.597473
0.656433 0.000000 0.597473
0.687927 0.000000 0.597473
0.104492 0.184601 0.592896
0.186981 0.184113 0.605103
0.291962 0.175537 0.617249
0.399475 0.160950 0.629486
0.503967 0.132721 0.633514
0.576965 0.105530 0.633514
0.633942 0.079803 0.633514
0.679932 0.046051 0.629486
0.711426 0.014282 0.629486
0.102020 0.316650 0.644196
0.158966 0.290955 0.637085
0.273010 0.291443 0.649292
0.394958 0.285370 0.661469
0.509949 0.271271 0.671600
0.600464 0.252655 0.673645
0.660950 0.238037 0.673645
0.710938 0.220917 0.669586
0.738953 0.203766 0.665527
0.023010 0.420441 0.670624
0.165497 0.433563 0.681274
0.309479 0.435577 0.691956
0.389984 0.410858 0.689392
0.501953 0.405823 0.701599
0.614960 0.393219 0.709717
0.684448 0.376099 0.707184
0.738953 0.358978 0.705658
0.770416 0.343353 0.701599
0.000000 0.473877 0.660431
0.072510 0.497528 0.682800
0.268982 0.527252 0.706177
0.423981 0.548889 0.721375
0.509979 0.530273 0.719360
0.620453 0.522705 0.727478
0.696930 0.506104 0.733612
0.760925 0.487976 0.733093
0.797913 0.475861 0.729523
0.000000 0.483917 0.624390
0.000000 0.507629 0.642670
0.153503 0.544891 0.670593
0.367981 0.591248 0.704132
0.531952 0.636108 0.736145
0.638947 0.639130 0.741211
0.694946 0.623993 0.744781
0.773926 0.612946 0.749329
0.817413 0.597290 0.745270
0.000000 0.483917 0.584290
0.000000 0.498535 0.596466
0.000000 0.526245 0.618805
0.228485 0.575134 0.651825
0.451965 0.655243 0.706177
0.631958 0.710693 0.744263
0.710938 0.719757 0.751892
0.780426 0.708160 0.755920
0.828918 0.695557 0.755920
0.000000 0.496552 0.560883
0.000000 0.500549 0.564972
0.000000 0.512634 0.573090
0.037506 0.536804 0.590881
0.342468 0.639130 0.661469
0.563446 0.720764 0.720367
0.702942 0.767090 0.755920
0.785431 0.775177 0.760010
0.835938 0.771149 0.760010
0.000000 0.540344 0.564972
0.000000 0.544403 0.569031
0.000000 0.552460 0.573090
0.000000 0.563049 0.575623
0.220001 0.627014 0.619812
0.470459 0.712708 0.681824
0.670959 0.783234 0.736664
0.781433 0.822540 0.764038
0.839935 0.818542 0.760010
