滤镜资源/Professional Luts Collection/Lutify.me Professional/Cine Looks/Opal.cube
# Created by: Lutify.me
# Copyright: (c) Copyright Lutify.me 2015
# Website: https://lutify.me
#LUT size
LUT_3D_SIZE 33
#LUT data points
0.012024 0.000183 0.000183
0.019745 0.000183 0.000183
0.035248 0.003998 0.000183
0.050873 0.004242 0.000183
0.074005 0.004242 0.000183
0.094116 0.004242 0.000183
0.121735 0.004242 0.000183
0.153381 0.008240 0.000000
0.199005 0.004242 0.000000
0.231476 0.001312 0.000000
0.266998 0.000000 0.000000
0.298492 0.000000 0.000000
0.329987 0.000000 0.000000
0.361481 0.000000 0.000000
0.390717 0.000000 0.000000
0.410339 0.000000 0.000000
0.427948 0.000000 0.000000
0.441589 0.000000 0.000000
0.455475 0.000000 0.000000
0.471222 0.000000 0.000000
0.486969 0.000000 0.000000
0.502716 0.000000 0.000000
0.514465 0.000000 0.000000
0.526184 0.000000 0.000000
0.536957 0.000000 0.000000
0.544830 0.000000 0.000000
0.553436 0.000000 0.000000
0.564575 0.000000 0.000000
0.572449 0.000000 0.000000
0.580322 0.000000 0.000000
0.588196 0.000000 0.000000
0.595947 0.000000 0.000000
0.599945 0.000000 0.000000
0.012024 0.019958 0.004120
0.015869 0.012024 0.000183
0.027649 0.012024 0.000183
0.042999 0.012024 0.000183
0.059113 0.012146 0.000183
0.085724 0.012146 0.000183
0.109375 0.012177 0.000183
0.136902 0.016052 0.000183
0.175110 0.016174 0.000000
0.217590 0.013153 0.000000
0.253998 0.009247 0.000000
0.286621 0.005341 0.000000
0.318115 0.000061 0.000000
0.348206 0.000000 0.000000
0.378876 0.000000 0.000000
0.406494 0.000000 0.000000
0.423981 0.000000 0.000000
0.443726 0.000000 0.000000
0.459473 0.000000 0.000000
0.475098 0.000000 0.000000
0.490814 0.000000 0.000000
0.506592 0.000000 0.000000
0.521088 0.000000 0.000000
0.532959 0.000000 0.000000
0.545807 0.000000 0.000000
0.553558 0.000000 0.000000
0.564575 0.000000 0.000000
0.572449 0.000000 0.000000
0.580322 0.000000 0.000000
0.588196 0.000000 0.000000
0.596069 0.000000 0.000000
0.603851 0.000000 0.000000
0.607819 0.000000 0.000000
0.012024 0.047546 0.004272
0.016113 0.031952 0.004272
0.031525 0.031677 0.004272
0.046875 0.031677 0.000305
0.066528 0.031677 0.000183
0.086121 0.031677 0.000183
0.112732 0.034943 0.000183
0.140869 0.036102 0.000183
0.174988 0.038971 0.000000
0.214355 0.038605 0.000000
0.252716 0.035461 0.000000
0.286499 0.031433 0.000000
0.317993 0.024902 0.000000
0.349213 0.020721 0.000000
0.383240 0.013062 0.000000
0.410095 0.005615 0.000000
0.429718 0.000183 0.000000
0.449585 0.000000 0.000000
0.467224 0.000000 0.000000
0.482697 0.000000 0.000000
0.498688 0.000000 0.000000
0.514465 0.000000 0.000000
0.530182 0.000000 0.000000
0.540833 0.000000 0.000000
0.556458 0.000000 0.000000
0.564575 0.000000 0.000000
0.572449 0.000000 0.000000
0.580322 0.000000 0.000000
0.588196 0.000000 0.000000
0.599426 0.000000 0.000000
0.603973 0.000000 0.000000
0.611847 0.000000 0.000000
0.615936 0.000000 0.000000
0.008362 0.071228 0.004272
0.015869 0.055847 0.004272
0.027893 0.055481 0.004272
0.047241 0.055481 0.004242
0.067017 0.055481 0.000183
0.090118 0.055481 0.000183
0.113739 0.055481 0.000183
0.144501 0.059570 0.000031
0.175995 0.060577 0.000000
0.216461 0.060303 0.000000
0.257751 0.060425 0.000000
0.290466 0.059570 0.000000
0.323120 0.059174 0.000000
0.353455 0.051086 0.000000
0.385986 0.046173 0.000000
0.416107 0.036835 0.000000
0.437592 0.032562 0.000000
0.457214 0.024628 0.000000
0.475098 0.017059 0.000000
0.490814 0.013550 0.000000
0.506592 0.008148 0.000000
0.522339 0.002441 0.000000
0.538055 0.000000 0.000000
0.549835 0.000000 0.000000
0.564209 0.000000 0.000000
0.575195 0.000000 0.000000
0.581085 0.000000 0.000000
0.588196 0.000000 0.000000
0.596069 0.000000 0.000000
0.607178 0.000000 0.000000
0.615173 0.000000 0.000000
0.619690 0.000000 0.000000
0.627197 0.000000 0.000000
0.004517 0.091400 0.008301
0.012360 0.075928 0.004272
0.027527 0.075562 0.004272
0.046875 0.078918 0.000549
0.073517 0.078796 0.000183
0.093628 0.079315 0.000183
0.117767 0.079315 0.000183
0.148865 0.082825 0.000031
0.179504 0.082855 0.000000
0.217346 0.083344 0.000000
0.259735 0.086639 0.000000
0.299744 0.087402 0.000000
0.332001 0.084351 0.000000
0.358582 0.079315 0.000000
0.391235 0.078796 0.000000
0.421844 0.072632 0.000000
0.445465 0.064697 0.000000
0.467468 0.062164 0.000000
0.484711 0.052826 0.000000
0.502716 0.050812 0.000000
0.514465 0.043518 0.000000
0.530182 0.038239 0.000000
0.547211 0.030426 0.000000
0.560059 0.021881 0.000000
0.572449 0.017822 0.000000
0.583832 0.014801 0.000000
0.591705 0.010010 0.000000
0.600067 0.006592 0.000000
0.607941 0.000153 0.000000
0.615814 0.000153 0.000000
0.623688 0.000000 0.000000
0.631439 0.000000 0.000000
0.635437 0.000000 0.000000
0.000641 0.111176 0.008301
0.008362 0.099182 0.004272
0.023743 0.098816 0.004242
0.039520 0.095306 0.000549
0.066650 0.102631 0.000183
0.097473 0.106506 0.000031
0.125000 0.106354 0.000031
0.152252 0.103760 0.000000
0.183380 0.109161 0.000000
0.221710 0.111176 0.000000
0.264496 0.109924 0.000000
0.304474 0.111176 0.000000
0.333374 0.108002 0.000000
0.364838 0.108154 0.000000
0.399200 0.107117 0.000000
0.429993 0.102509 0.000000
0.454712 0.097839 0.000000
0.475098 0.092529 0.000000
0.494202 0.088623 0.000000
0.510590 0.084717 0.000000
0.524445 0.078308 0.000000
0.540070 0.074890 0.000000
0.553802 0.068329 0.000000
0.569580 0.061035 0.000000
0.583710 0.059265 0.000000
0.593079 0.049164 0.000000
0.604095 0.047272 0.000000
0.611328 0.042847 0.000000
0.616943 0.033417 0.000000
0.627075 0.029663 0.000000
0.635559 0.032410 0.000000
0.643311 0.029022 0.000000
0.647308 0.022491 0.000000
0.000000 0.131714 0.008301
0.004486 0.119110 0.004272
0.019775 0.115570 0.004272
0.035248 0.115570 0.000549
0.059235 0.119354 0.000183
0.090240 0.122894 0.000031
0.121002 0.126923 0.000000
0.156464 0.133331 0.000000
0.187256 0.134979 0.000000
0.222351 0.137878 0.000000
0.268005 0.137756 0.000000
0.305725 0.139648 0.000000
0.341980 0.139008 0.000000
0.372742 0.138275 0.000000
0.401978 0.138275 0.000000
0.434387 0.132111 0.000000
0.463226 0.130219 0.000000
0.486969 0.128326 0.000000
0.505981 0.121887 0.000000
0.520081 0.117340 0.000000
0.537445 0.115082 0.000000
0.551819 0.110565 0.000000
0.566193 0.107269 0.000000
0.580688 0.099091 0.000000
0.593201 0.096954 0.000000
0.604218 0.090027 0.000000
0.615173 0.084381 0.000000
0.620453 0.081085 0.000000
0.628204 0.076569 0.000000
0.638458 0.073395 0.000000
0.643707 0.069763 0.000000
0.654480 0.067993 0.000000
0.659180 0.064972 0.000000
0.000000 0.154755 0.012390
0.000763 0.142792 0.007538
0.012390 0.138916 0.004272
0.028137 0.135468 0.003754
0.054871 0.139038 0.000183
0.082611 0.142914 0.000000
0.117157 0.146820 0.000000
0.156464 0.154755 0.000000
0.190979 0.158783 0.000000
0.225739 0.161957 0.000000
0.272491 0.165955 0.000000
0.313110 0.166840 0.000000
0.350098 0.169128 0.000000
0.378967 0.163574 0.000000
0.408112 0.165100 0.000000
0.440491 0.165955 0.000000
0.472198 0.159027 0.000000
0.494843 0.158173 0.000000
0.514954 0.154755 0.000000
0.531982 0.149841 0.000000
0.549225 0.148315 0.000000
0.561829 0.143066 0.000000
0.577576 0.140533 0.000000
0.592438 0.136627 0.000000
0.606171 0.130829 0.000000
0.619080 0.128815 0.000000
0.627838 0.124023 0.000000
0.634827 0.119232 0.000000
0.643585 0.113586 0.000000
0.650574 0.109558 0.000000
0.658447 0.109558 0.000000
0.666321 0.108551 0.000000
0.674225 0.104645 0.000000
0.000000 0.178558 0.019501
0.000000 0.169739 0.008423
0.007751 0.161957 0.008301
0.017242 0.159058 0.004272
0.043518 0.162445 0.000702
0.075104 0.165833 0.000000
0.113007 0.169739 0.000000
0.152649 0.177673 0.000000
0.190979 0.182587 0.000000
0.230225 0.186523 0.000000
0.269745 0.187897 0.000000
0.316101 0.193726 0.000000
0.355988 0.194733 0.000000
0.384491 0.194092 0.000000
0.415985 0.192444 0.000000
0.447479 0.193726 0.000000
0.476959 0.191681 0.000000
0.503723 0.187775 0.000000
0.524689 0.184875 0.000000
0.546204 0.183960 0.000000
0.559448 0.180084 0.000000
0.573700 0.174530 0.000000
0.588440 0.173523 0.000000
0.604218 0.169495 0.000000
0.618958 0.165466 0.000000
0.628693 0.161438 0.000000
0.639435 0.154144 0.000000
0.650574 0.153381 0.000000
0.655945 0.149323 0.000000
0.662323 0.146942 0.000000
0.671204 0.145325 0.000000
0.679047 0.141266 0.000000
0.685913 0.137268 0.000000
0.000000 0.202393 0.024597
0.000000 0.190552 0.011505
0.000885 0.186493 0.011230
0.008392 0.182587 0.008301
0.032776 0.182709 0.004272
0.067749 0.186737 0.000153
0.108276 0.192444 0.000000
0.144501 0.198364 0.000000
0.183105 0.204407 0.000000
0.225250 0.209320 0.000000
0.275238 0.214478 0.000000
0.319977 0.221161 0.000000
0.356873 0.221405 0.000000
0.388336 0.218994 0.000000
0.423340 0.221405 0.000000
0.453491 0.219543 0.000000
0.485962 0.218506 0.000000
0.513458 0.218506 0.000000
0.534332 0.214478 0.000000
0.554077 0.211700 0.000000
0.569824 0.209320 0.000000
0.584442 0.205292 0.000000
0.597321 0.204010 0.000000
0.613068 0.200104 0.000000
0.628815 0.196198 0.000000
0.640564 0.192291 0.000000
0.652313 0.189148 0.000000
0.662323 0.185089 0.000000
0.667816 0.182190 0.000000
0.676941 0.179565 0.000000
0.681946 0.173279 0.000000
0.690948 0.172882 0.000000
0.697693 0.168976 0.000000
0.000000 0.226196 0.031433
0.000000 0.211456 0.016541
0.000000 0.210083 0.015167
0.007233 0.206421 0.012390
0.024994 0.206024 0.007538
0.056000 0.210083 0.002991
0.100739 0.214111 0.000000
0.134125 0.218506 0.000000
0.174988 0.226440 0.000000
0.225220 0.237152 0.000000
0.275238 0.243835 0.000000
0.323730 0.248993 0.000000
0.360748 0.249115 0.000000
0.397461 0.249115 0.000000
0.430481 0.249115 0.000000
0.463226 0.249115 0.000000
0.491974 0.248352 0.000000
0.521210 0.246368 0.000000
0.543945 0.245087 0.000000
0.561188 0.241058 0.000000
0.580444 0.237061 0.000000
0.592194 0.234406 0.000000
0.607941 0.231750 0.000000
0.623688 0.228973 0.000000
0.639435 0.226196 0.000000
0.652435 0.222198 0.000000
0.664185 0.220184 0.000000
0.674713 0.216248 0.000000
0.681946 0.212860 0.000000
0.689819 0.208832 0.000000
0.696198 0.207306 0.000000
0.702850 0.204773 0.000000
0.710724 0.200745 0.000000
0.000000 0.247345 0.036774
0.000000 0.238037 0.019379
0.000000 0.233887 0.016418
0.003662 0.229858 0.016418
0.010254 0.229858 0.012390
0.044983 0.233246 0.007538
0.088257 0.237152 0.000153
0.126373 0.241943 0.000000
0.171387 0.248993 0.000000
0.214355 0.256927 0.000000
0.268616 0.266266 0.000000
0.323730 0.274200 0.000000
0.367096 0.278198 0.000000
0.402832 0.278198 0.000000
0.436981 0.278595 0.000000
0.466614 0.278198 0.000000
0.496582 0.278198 0.000000
0.526825 0.276825 0.000000
0.551819 0.275055 0.000000
0.572449 0.272797 0.000000
0.589569 0.268768 0.000000
0.605316 0.266144 0.000000
0.618469 0.263489 0.000000
0.632812 0.259583 0.000000
0.648560 0.256683 0.000000
0.664307 0.252655 0.000000
0.676086 0.251892 0.000000
0.685822 0.248627 0.000000
0.695068 0.244598 0.000000
0.701569 0.240570 0.000000
0.709442 0.237915 0.000000
0.714691 0.236389 0.000000
0.722565 0.232513 0.000000
0.000000 0.269775 0.043365
0.000000 0.257935 0.023468
0.000000 0.253906 0.020538
0.000000 0.253662 0.019379
0.001495 0.253662 0.016418
0.034363 0.253662 0.011505
0.081024 0.257690 0.001709
0.121124 0.262329 0.000031
0.163513 0.269775 0.000000
0.206726 0.276703 0.000000
0.260223 0.286133 0.000000
0.318481 0.296600 0.000000
0.369965 0.303528 0.000000
0.403961 0.306061 0.000000
0.441956 0.306061 0.000000
0.474609 0.306061 0.000000
0.502472 0.306061 0.000000
0.537323 0.306061 0.000000
0.559723 0.304535 0.000000
0.580200 0.302032 0.000000
0.601440 0.298981 0.000000
0.613190 0.296478 0.000000
0.628937 0.292450 0.000000
0.644684 0.291321 0.000000
0.660431 0.287415 0.000000
0.675323 0.284363 0.000000
0.686432 0.280365 0.000000
0.697571 0.279724 0.000000
0.705444 0.275818 0.000000
0.713318 0.271912 0.000000
0.721191 0.268250 0.000000
0.726562 0.264252 0.000000
0.734436 0.263214 0.000000
0.000000 0.293579 0.051331
0.000000 0.281738 0.028900
0.000000 0.280090 0.024597
0.000000 0.277466 0.023315
0.006989 0.277466 0.020538
0.031738 0.278076 0.016418
0.064392 0.281616 0.008179
0.113251 0.285522 0.000153
0.155609 0.290161 0.000000
0.198853 0.298096 0.000000
0.249268 0.309723 0.000000
0.308228 0.319031 0.000000
0.365997 0.327362 0.000000
0.407837 0.332275 0.000000
0.443451 0.332275 0.000000
0.474854 0.333893 0.000000
0.511566 0.337555 0.000000
0.541321 0.333893 0.000000
0.566925 0.335663 0.000000
0.589569 0.334656 0.000000
0.609314 0.329865 0.000000
0.625061 0.326843 0.000000
0.637939 0.324219 0.000000
0.652557 0.321808 0.000000
0.668335 0.319153 0.000000
0.685547 0.316132 0.000000
0.697449 0.312103 0.000000
0.709320 0.308075 0.000000
0.718811 0.307556 0.000000
0.728699 0.305664 0.000000
0.732941 0.299744 0.000000
0.740814 0.296082 0.000000
0.746307 0.291931 0.000000
0.000000 0.317383 0.061646
0.000000 0.303162 0.033081
0.000000 0.302765 0.030914
0.000000 0.301239 0.027252
0.004761 0.301239 0.024597
0.018250 0.303528 0.020538
0.051514 0.304535 0.013153
0.102264 0.308441 0.007416
0.143250 0.313354 0.000153
0.189728 0.320282 0.000000
0.237488 0.328735 0.000000
0.298737 0.341614 0.000000
0.356720 0.348145 0.000000
0.403961 0.356079 0.000000
0.444977 0.359985 0.000000
0.482605 0.359985 0.000000
0.516449 0.362000 0.000000
0.543823 0.361725 0.000000
0.575470 0.362244 0.000000
0.595093 0.359985 0.000000
0.617188 0.357727 0.000000
0.632935 0.357727 0.000000
0.648682 0.356445 0.000000
0.664429 0.351929 0.000000
0.677185 0.349640 0.000000
0.697662 0.347382 0.000000
0.709442 0.344879 0.000000
0.721069 0.341461 0.000000
0.732422 0.337555 0.000000
0.736816 0.333527 0.000000
0.744690 0.331757 0.000000
0.752563 0.327728 0.000000
0.760437 0.327728 0.000000
0.000000 0.335022 0.071442
0.000000 0.323090 0.039429
0.000000 0.321075 0.035126
0.000000 0.322571 0.032715
0.003510 0.321075 0.028656
0.005890 0.325104 0.023315
0.040894 0.325104 0.017181
0.092651 0.332153 0.009186
0.137726 0.336182 0.001190
0.181976 0.342987 0.000000
0.233124 0.352692 0.000000
0.290863 0.359985 0.000000
0.350372 0.373474 0.000000
0.399841 0.377747 0.000000
0.443207 0.383789 0.000000
0.484711 0.389832 0.000000
0.520081 0.389832 0.000000
0.553314 0.389587 0.000000
0.581573 0.389954 0.000000
0.603210 0.388428 0.000000
0.624451 0.385559 0.000000
0.640808 0.383667 0.000000
0.656586 0.382385 0.000000
0.671204 0.378510 0.000000
0.685059 0.375610 0.000000
0.707825 0.377502 0.000000
0.716949 0.370819 0.000000
0.728821 0.367554 0.000000
0.742554 0.368927 0.000000
0.748535 0.361359 0.000000
0.756165 0.359222 0.000000
0.762207 0.355316 0.000000
0.770050 0.355438 0.000000
0.000000 0.354950 0.079437
0.000000 0.345001 0.049469
0.000000 0.342834 0.043121
0.000000 0.344482 0.040833
0.000000 0.346405 0.038818
0.001373 0.345490 0.033356
0.040253 0.348907 0.027374
0.083862 0.352051 0.018219
0.127991 0.356964 0.006287
0.175232 0.363892 0.000092
0.226501 0.371826 0.000000
0.281006 0.383789 0.000000
0.339478 0.393738 0.000000
0.392212 0.399658 0.000000
0.441223 0.411346 0.000000
0.480743 0.413635 0.000000
0.521942 0.417419 0.000000
0.553436 0.415527 0.000000
0.584930 0.419159 0.000000
0.608826 0.415405 0.000000
0.632935 0.415894 0.000000
0.649323 0.415405 0.000000
0.664459 0.412628 0.000000
0.680206 0.408203 0.000000
0.694946 0.405304 0.000000
0.713684 0.404175 0.000000
0.727417 0.401306 0.000000
0.739197 0.397247 0.000000
0.750946 0.393738 0.000000
0.759949 0.392853 0.000000
0.766174 0.387177 0.000000
0.774048 0.383148 0.000000
0.781921 0.381134 0.000000
0.000000 0.378845 0.091492
0.000000 0.366791 0.061371
0.000000 0.362762 0.053009
0.000000 0.366425 0.050842
0.000000 0.365143 0.045135
0.007111 0.368042 0.042725
0.035767 0.370056 0.037292
0.071014 0.373962 0.030548
0.118256 0.379761 0.021271
0.169098 0.383636 0.010345
0.218872 0.391571 0.000153
0.276245 0.403534 0.000000
0.331604 0.412109 0.000000
0.384338 0.423462 0.000000
0.431976 0.429504 0.000000
0.478607 0.435303 0.000000
0.516205 0.437317 0.000000
0.555206 0.443115 0.000000
0.591095 0.445251 0.000000
0.615204 0.443634 0.000000
0.640442 0.445282 0.000000
0.656555 0.443115 0.000000
0.672333 0.437836 0.000000
0.688049 0.438324 0.000000
0.703827 0.435059 0.000000
0.723572 0.433136 0.000000
0.738556 0.430267 0.000000
0.748291 0.426971 0.000000
0.760193 0.422943 0.000000
0.770172 0.422577 0.000000
0.777802 0.418396 0.000000
0.783691 0.412476 0.000000
0.791687 0.410858 0.000000
0.000000 0.396484 0.101257
0.000000 0.386780 0.075500
0.000000 0.384399 0.063171
0.000000 0.384552 0.058868
0.000000 0.386169 0.054779
0.009003 0.386658 0.051361
0.027008 0.390717 0.047424
0.056122 0.394714 0.039429
0.108246 0.398254 0.031433
0.160614 0.403931 0.020508
0.214752 0.413635 0.008575
0.268616 0.420685 0.000061
0.327240 0.432037 0.000000
0.379944 0.443237 0.000000
0.425964 0.448914 0.000000
0.469238 0.455475 0.000000
0.510193 0.461273 0.000000
0.551208 0.465057 0.000000
0.590942 0.469055 0.000000
0.620819 0.469055 0.000000
0.642944 0.467316 0.000000
0.664429 0.469055 0.000000
0.680176 0.465057 0.000000
0.694824 0.462769 0.000000
0.711700 0.461761 0.000000
0.727417 0.457855 0.000000
0.743195 0.458008 0.000000
0.758331 0.456970 0.000000
0.767944 0.450714 0.000000
0.778076 0.448914 0.000000
0.785919 0.444122 0.000000
0.791565 0.442627 0.000000
0.801697 0.440857 0.000000
0.000000 0.414612 0.115601
0.000000 0.408356 0.089233
0.000000 0.402802 0.075256
0.000000 0.404175 0.068878
0.000000 0.406067 0.066833
0.005768 0.408203 0.061005
0.015259 0.412262 0.057068
0.044250 0.413757 0.051483
0.097351 0.419281 0.041077
0.156219 0.423218 0.027374
0.209625 0.431152 0.009186
0.262360 0.440094 0.000061
0.317474 0.449432 0.000000
0.372589 0.458984 0.000000
0.422211 0.469330 0.000000
0.464722 0.474884 0.000000
0.508331 0.481171 0.000000
0.547424 0.485077 0.000000
0.588684 0.490601 0.000000
0.620819 0.492889 0.000000
0.648438 0.492767 0.000000
0.670715 0.492889 0.000000
0.684052 0.489990 0.000000
0.699829 0.488861 0.000000
0.715576 0.487823 0.000000
0.734589 0.484802 0.000000
0.751068 0.484070 0.000000
0.763824 0.480804 0.000000
0.776947 0.477905 0.000000
0.787170 0.474365 0.000000
0.793793 0.472717 0.000000
0.801697 0.468689 0.000000
0.809570 0.466309 0.000000
0.000000 0.436066 0.129211
0.000000 0.428131 0.101257
0.000000 0.422699 0.085022
0.000000 0.423950 0.080841
0.000000 0.425995 0.076904
0.003998 0.427368 0.070801
0.006500 0.430511 0.066711
0.041870 0.433655 0.061005
0.094025 0.437592 0.053009
0.150604 0.444153 0.042114
0.203247 0.449677 0.024811
0.258362 0.458862 0.004578
0.311981 0.469330 0.000000
0.364716 0.478790 0.000000
0.411987 0.486725 0.000000
0.461731 0.494995 0.000000
0.499451 0.500580 0.000000
0.541687 0.504974 0.000000
0.580688 0.508881 0.000000
0.618469 0.512665 0.000000
0.648438 0.515167 0.000000
0.674683 0.516663 0.000000
0.690430 0.512665 0.000000
0.706207 0.512665 0.000000
0.721924 0.508606 0.000000
0.741699 0.508606 0.000000
0.757446 0.507111 0.000000
0.770691 0.504578 0.000000
0.784943 0.503082 0.000000
0.796295 0.500580 0.000000
0.801697 0.496521 0.000000
0.809540 0.492523 0.000000
0.817413 0.489960 0.000000
0.000000 0.454468 0.143799
0.000000 0.446533 0.117249
0.000000 0.438599 0.096924
0.000000 0.442017 0.092773
0.000000 0.442383 0.088287
0.000000 0.446411 0.084900
0.002777 0.450439 0.078796
0.045868 0.453583 0.072937
0.091980 0.457489 0.067596
0.146729 0.463898 0.056946
0.200500 0.470703 0.043488
0.254364 0.478668 0.027496
0.309723 0.487732 0.012604
0.360229 0.497162 0.001526
0.409454 0.506470 0.000000
0.451355 0.513031 0.000000
0.493225 0.518311 0.000000
0.535431 0.524872 0.000000
0.574799 0.528778 0.000000
0.617096 0.532654 0.000000
0.645935 0.536438 0.000000
0.676056 0.536438 0.000000
0.694458 0.536438 0.000000
0.711578 0.535065 0.000000
0.727295 0.532410 0.000000
0.743073 0.531525 0.000000
0.762787 0.528381 0.000000
0.777924 0.528381 0.000000
0.788940 0.524353 0.000000
0.801666 0.522980 0.000000
0.809540 0.520325 0.000000
0.817413 0.516296 0.000000
0.825287 0.516296 0.000000
0.000000 0.466309 0.157135
0.000000 0.462402 0.133148
0.000000 0.454468 0.113159
0.000000 0.454224 0.104675
0.000000 0.458221 0.103027
0.000000 0.462280 0.096802
0.014252 0.468323 0.094910
0.046143 0.470337 0.088959
0.089264 0.474396 0.083984
0.141235 0.481293 0.072937
0.195251 0.489227 0.062134
0.250366 0.497162 0.046173
0.304230 0.505096 0.030182
0.362213 0.517029 0.012878
0.404968 0.523712 0.000153
0.448364 0.531647 0.000000
0.489197 0.536835 0.000000
0.527191 0.542847 0.000000
0.566437 0.548157 0.000000
0.610840 0.552551 0.000000
0.644684 0.554962 0.000000
0.673462 0.556366 0.000000
0.695709 0.558990 0.000000
0.715332 0.556213 0.000000
0.730927 0.555969 0.000000
0.746918 0.552185 0.000000
0.766693 0.552185 0.000000
0.782440 0.548798 0.000000
0.793671 0.548157 0.000000
0.808655 0.544128 0.000000
0.816162 0.542877 0.000000
0.825165 0.539948 0.000000
0.831909 0.536072 0.000000
0.000000 0.485077 0.171997
0.000000 0.478119 0.149109
0.000000 0.470337 0.129211
0.000000 0.470062 0.119537
0.000000 0.472473 0.115082
0.000000 0.477509 0.111023
0.017029 0.481415 0.108124
0.049622 0.487335 0.104065
0.084747 0.490234 0.096954
0.132721 0.497162 0.090118
0.194000 0.505096 0.078156
0.250366 0.513031 0.062134
0.305725 0.523865 0.042480
0.354218 0.528900 0.022552
0.398621 0.536835 0.006012
0.443726 0.544769 0.000000
0.485107 0.552704 0.000000
0.524170 0.556610 0.000000
0.563568 0.562775 0.000000
0.606964 0.568481 0.000000
0.640808 0.570862 0.000000
0.672333 0.574890 0.000000
0.698425 0.574890 0.000000
0.715332 0.576019 0.000000
0.734955 0.575897 0.000000
0.753662 0.575134 0.000000
0.770538 0.571991 0.000000
0.785706 0.571381 0.000000
0.800934 0.568481 0.000000
0.812683 0.567596 0.000000
0.821320 0.563904 0.000000
0.829193 0.562775 0.000000
0.837067 0.559875 0.000000
0.000000 0.498047 0.184052
0.000000 0.492981 0.165131
0.000000 0.486206 0.144928
0.000000 0.485931 0.132629
0.000000 0.485931 0.128204
0.003387 0.492371 0.124756
0.019989 0.497284 0.120789
0.040375 0.502075 0.116852
0.066010 0.505096 0.111938
0.125977 0.513031 0.103943
0.190002 0.519958 0.092896
0.250366 0.528900 0.078156
0.301483 0.536835 0.055542
0.351227 0.544769 0.030182
0.396973 0.554474 0.008820
0.439728 0.559631 0.000092
0.477966 0.565552 0.000000
0.517578 0.572510 0.000000
0.552704 0.576416 0.000000
0.596710 0.584320 0.000000
0.633942 0.590759 0.000000
0.668427 0.590759 0.000000
0.695709 0.594788 0.000000
0.715332 0.594788 0.000000
0.734955 0.594788 0.000000
0.757690 0.594910 0.000000
0.777191 0.594788 0.000000
0.793182 0.591766 0.000000
0.802429 0.590759 0.000000
0.817291 0.591400 0.000000
0.829193 0.587494 0.000000
0.836945 0.586731 0.000000
0.843933 0.579681 0.000000
0.000000 0.513916 0.196106
0.000000 0.509888 0.181030
0.000000 0.502075 0.160919
0.000000 0.498169 0.144958
0.000000 0.501831 0.140625
0.003387 0.504333 0.136719
0.015228 0.511505 0.135162
0.026245 0.513916 0.128815
0.054382 0.520081 0.124878
0.119598 0.524872 0.116882
0.192749 0.532776 0.108887
0.250366 0.540710 0.094177
0.301483 0.551819 0.076508
0.350220 0.559753 0.054138
0.392090 0.565430 0.029388
0.434601 0.572510 0.006592
0.474213 0.579559 0.000031
0.512451 0.586487 0.000000
0.547333 0.591370 0.000000
0.591217 0.599304 0.000000
0.629944 0.602631 0.000000
0.659302 0.606628 0.000000
0.694427 0.609772 0.000000
0.717316 0.610687 0.000000
0.734070 0.610809 0.000000
0.754547 0.611542 0.000000
0.777435 0.613800 0.000000
0.794067 0.611542 0.000000
0.809296 0.611053 0.000000
0.824646 0.610687 0.000000
0.833038 0.607513 0.000000
0.840942 0.607513 0.000000
0.848816 0.603485 0.000000
0.000000 0.525726 0.208160
0.000000 0.524994 0.192169
0.000000 0.517944 0.176941
0.000000 0.514038 0.157257
0.000000 0.516418 0.155334
0.003998 0.517670 0.148621
0.009766 0.522461 0.147980
0.015259 0.528137 0.143921
0.052734 0.533783 0.137848
0.124725 0.540710 0.132874
0.193512 0.548645 0.125641
0.250366 0.556610 0.114197
0.298981 0.564545 0.097198
0.349335 0.572510 0.078918
0.393738 0.580414 0.058838
0.435242 0.587616 0.038788
0.469971 0.591522 0.019501
0.508575 0.599426 0.008667
0.543213 0.603363 0.000031
0.583221 0.609680 0.000000
0.622711 0.615173 0.000000
0.656708 0.618469 0.000000
0.688171 0.622467 0.000000
0.714203 0.625397 0.000000
0.733948 0.626526 0.000000
