滤镜资源/Professional Luts Collection/Lutify.me Professional/Cine Looks/Pearl.cube
# Created by: Lutify.me
# Copyright: (c) Copyright Lutify.me 2015
# Website: https://lutify.me
#LUT size
LUT_3D_SIZE 5
#LUT data points
0.036041 0.043335 0.045105
0.286072 0.118347 0.028717
0.456757 0.153320 0.025513
0.543304 0.173584 0.026917
0.612823 0.196960 0.029083
0.098969 0.195160 0.165710
0.350464 0.254883 0.047852
0.585052 0.320190 0.037933
0.716858 0.366760 0.051147
0.785461 0.402496 0.067719
0.169830 0.361145 0.277191
0.534424 0.457062 0.135864
0.685089 0.474060 0.109619
0.804810 0.513855 0.146637
0.855560 0.544739 0.181396
0.180542 0.462341 0.365875
0.602081 0.561554 0.229340
0.780243 0.593933 0.229706
0.847198 0.617157 0.275635
0.884766 0.644104 0.326935
0.165314 0.523499 0.443573
0.603577 0.625183 0.316803
0.806244 0.661224 0.313965
0.874329 0.699493 0.419464
0.890167 0.730255 0.511353
0.032379 0.070526 0.126099
0.194519 0.134125 0.208649
0.412628 0.166626 0.226593
0.511566 0.169983 0.216278
0.580627 0.152985 0.190033
0.063354 0.228729 0.279022
0.266846 0.260925 0.261597
0.548401 0.308441 0.243805
0.687134 0.324890 0.222992
0.759460 0.329254 0.191833
0.104187 0.368866 0.393066
0.342377 0.429657 0.370300
0.602722 0.488831 0.326355
0.771881 0.520355 0.322449
0.848633 0.530914 0.292572
0.120728 0.449768 0.462311
0.365326 0.545593 0.444275
0.672546 0.621246 0.431885
0.807037 0.649963 0.448517
0.877869 0.678345 0.464630
0.122253 0.502441 0.518463
0.359253 0.625092 0.524750
0.695435 0.704651 0.519348
0.844177 0.746674 0.568787
0.879242 0.769196 0.630737
0.035522 0.107452 0.186279
0.098633 0.132538 0.241852
0.325287 0.182343 0.309662
0.454712 0.197662 0.327698
0.555603 0.187256 0.325256
0.052460 0.243256 0.326752
0.156738 0.254181 0.320282
0.399078 0.301605 0.385590
0.583679 0.318573 0.391388
0.705536 0.293976 0.355255
0.078674 0.369568 0.441864
0.272919 0.429810 0.446289
0.505615 0.475861 0.469391
0.698181 0.493256 0.452209
0.802826 0.487823 0.412689
0.096222 0.441895 0.502502
0.297119 0.532349 0.516785
0.544434 0.604706 0.541565
0.737152 0.654510 0.564514
0.860138 0.689880 0.571075
0.109528 0.498413 0.551727
0.261536 0.598907 0.583221
0.575989 0.711731 0.641144
0.798065 0.775543 0.684814
0.875732 0.808472 0.739594
0.036835 0.129456 0.233917
0.041870 0.127930 0.259125
0.255127 0.177765 0.333374
0.401947 0.203918 0.366089
0.522186 0.214264 0.384521
0.044525 0.246979 0.361847
0.104279 0.256744 0.346436
0.256805 0.271545 0.403900
0.472321 0.311127 0.444916
0.634491 0.300629 0.439819
0.067474 0.362671 0.453827
0.194061 0.412262 0.464294
0.351074 0.435120 0.493011
0.580383 0.479584 0.539215
0.740326 0.451080 0.508942
0.082489 0.431976 0.511078
0.257996 0.526306 0.548096
0.496490 0.599915 0.589294
0.696808 0.666687 0.641296
0.834259 0.677185 0.637268
0.099030 0.489716 0.561401
0.234894 0.591156 0.610657
0.506500 0.697784 0.674377
0.773071 0.790955 0.748840
0.877258 0.830780 0.798737
0.037628 0.144348 0.276245
0.038635 0.126892 0.272888
0.100891 0.154541 0.327393
0.318848 0.188995 0.387787
0.480469 0.214783 0.422089
0.043335 0.236572 0.380219
0.042236 0.210907 0.351044
0.053162 0.204132 0.374664
0.269623 0.251526 0.448822
0.539581 0.292664 0.496063
0.054321 0.345825 0.463074
0.069977 0.340851 0.447998
0.084015 0.319672 0.442352
0.215149 0.346313 0.509064
0.619720 0.424713 0.574890
0.070099 0.414734 0.510315
0.141479 0.466766 0.532928
0.230713 0.510254 0.565582
0.338470 0.541473 0.610809
0.755951 0.638275 0.688477
0.083008 0.467834 0.555511
0.166351 0.546173 0.596802
0.353516 0.650208 0.662506
0.687042 0.770599 0.756165
0.875275 0.838074 0.818298
