滤镜资源/Professional Luts Collection/Lutify.me Professional/Cine Looks/Pearl.cube
# Created by: Lutify.me
# Copyright: (c) Copyright Lutify.me 2015
# Website: https://lutify.me
#LUT size
LUT_3D_SIZE 33
#LUT data points
0.036041 0.043335 0.045105
0.048676 0.049896 0.045868
0.070618 0.057098 0.044464
0.104248 0.068146 0.042877
0.145142 0.080688 0.041016
0.179199 0.091217 0.037781
0.214630 0.101929 0.033997
0.250488 0.110596 0.030609
0.286072 0.118347 0.028717
0.315918 0.125397 0.027954
0.342346 0.131134 0.027161
0.365631 0.135651 0.026703
0.387543 0.139557 0.026276
0.407928 0.143097 0.025879
0.426392 0.146484 0.025726
0.442566 0.149994 0.025574
0.456757 0.153320 0.025513
0.469879 0.156219 0.025208
0.481659 0.158752 0.025238
0.492126 0.161011 0.025482
0.502106 0.163208 0.025757
0.512634 0.165955 0.026062
0.523346 0.168854 0.026337
0.533417 0.171295 0.026611
0.543304 0.173584 0.026917
0.553131 0.176147 0.027252
0.562500 0.178558 0.027618
0.570984 0.180817 0.027832
0.579163 0.183228 0.028076
0.588043 0.186829 0.028259
0.597107 0.190765 0.028503
0.604980 0.193817 0.028778
0.612823 0.196960 0.029083
0.037079 0.052216 0.054382
0.047363 0.056213 0.050751
0.069122 0.065552 0.049835
0.102844 0.078339 0.048004
0.146057 0.092987 0.045410
0.182617 0.103241 0.040466
0.218964 0.114349 0.035828
0.256226 0.123505 0.031158
0.293182 0.132324 0.028534
0.324829 0.139160 0.027405
0.352600 0.145172 0.026825
0.378326 0.150574 0.026306
0.401550 0.155487 0.026062
0.423431 0.159973 0.025604
0.442902 0.163879 0.025421
0.459839 0.167389 0.025330
0.475128 0.170776 0.025238
0.489380 0.174042 0.025177
0.502441 0.177216 0.025238
0.514069 0.180450 0.025513
0.524872 0.183441 0.025818
0.535950 0.186737 0.026123
0.546906 0.189819 0.026489
0.557251 0.192108 0.026886
0.567688 0.194702 0.027252
0.578064 0.197876 0.027588
0.587952 0.200836 0.027985
0.597107 0.204041 0.028290
0.605621 0.206818 0.028534
0.613831 0.209961 0.028748
0.622955 0.214264 0.029022
0.630432 0.217010 0.029358
0.638489 0.220551 0.029633
0.038849 0.063995 0.065460
0.050751 0.068817 0.061066
0.067230 0.075073 0.055328
0.101410 0.090088 0.053192
0.145325 0.106903 0.050262
0.183380 0.118225 0.044769
0.223389 0.128998 0.038300
0.261658 0.138763 0.032410
0.299744 0.147369 0.028748
0.332123 0.154633 0.027130
0.362000 0.160828 0.026123
0.388794 0.166504 0.025726
0.414368 0.171906 0.025360
0.437744 0.177338 0.025482
0.458771 0.182281 0.025513
0.476990 0.186340 0.025299
0.493469 0.189819 0.025177
0.509155 0.193451 0.025146
0.523376 0.197235 0.025513
0.536438 0.201141 0.025879
0.548492 0.205048 0.026215
0.560394 0.208893 0.026581
0.571991 0.212341 0.026917
0.582489 0.214722 0.027252
0.592712 0.217163 0.027649
0.603455 0.220642 0.028076
0.614166 0.224457 0.028473
0.623688 0.228363 0.028809
0.632904 0.232178 0.029236
0.641663 0.235931 0.029541
0.650055 0.239960 0.029816
0.657776 0.242981 0.030182
0.665192 0.245880 0.030548
0.041931 0.081696 0.080353
0.055695 0.086243 0.073212
0.076538 0.093811 0.066864
0.101288 0.101166 0.057434
0.145721 0.119720 0.054688
0.183960 0.131378 0.048492
0.224548 0.142761 0.041382
0.266693 0.152679 0.034088
0.306030 0.162292 0.029602
0.339874 0.170197 0.027527
0.370392 0.176819 0.026764
0.399109 0.182983 0.025879
0.425842 0.189026 0.025391
0.450531 0.194916 0.025543
0.473419 0.200897 0.025696
0.493591 0.206451 0.025848
0.511353 0.210938 0.025726
0.527405 0.215240 0.026123
0.542603 0.219269 0.026550
0.556671 0.223328 0.026978
0.570160 0.227570 0.027374
0.583282 0.231873 0.027771
0.595581 0.236115 0.028198
0.606781 0.239929 0.028656
0.617615 0.243195 0.029083
0.628632 0.247070 0.029541
0.639465 0.251068 0.029999
0.648773 0.254883 0.030426
0.658295 0.258942 0.030884
0.666962 0.262482 0.031219
0.675507 0.266357 0.031616
0.682678 0.270599 0.032074
0.690125 0.273621 0.032501
0.046143 0.103760 0.098755
0.063263 0.108459 0.089294
0.087952 0.116486 0.080658
0.115967 0.125732 0.068024
0.147491 0.133728 0.058624
0.185699 0.146484 0.052673
0.226593 0.158051 0.045197
0.269257 0.168396 0.036560
0.312347 0.177734 0.030701
0.346710 0.186066 0.028564
0.378632 0.193878 0.027283
0.408661 0.200806 0.026245
0.436981 0.207581 0.025940
0.463074 0.213715 0.025726
0.486816 0.219727 0.025970
0.508484 0.226257 0.026154
0.527710 0.232452 0.026611
0.545563 0.238068 0.027252
0.562103 0.243195 0.027863
0.577362 0.247589 0.028351
0.591736 0.251740 0.028778
0.605865 0.256226 0.029266
0.619049 0.260803 0.029785
0.631134 0.265350 0.030334
0.642548 0.269745 0.030884
0.653687 0.274323 0.031433
0.664612 0.278625 0.031952
0.673950 0.282593 0.032471
0.683167 0.286407 0.032959
0.692017 0.289917 0.033417
0.700867 0.293304 0.033875
0.708008 0.297607 0.034485
0.715149 0.301849 0.035095
0.057465 0.124756 0.115021
0.071167 0.127930 0.102936
0.097198 0.136169 0.092651
0.127960 0.146820 0.078979
0.163910 0.156555 0.066345
0.190552 0.161621 0.058044
0.232056 0.173859 0.050232
0.276825 0.184998 0.041107
0.320679 0.195129 0.033783
0.356171 0.203308 0.030731
0.388245 0.211273 0.028839
0.418762 0.218750 0.027649
0.448059 0.226196 0.026978
0.475830 0.233887 0.026917
0.500702 0.240601 0.027008
0.522583 0.246948 0.027496
0.542633 0.253387 0.028076
0.561035 0.259216 0.028595
0.578522 0.264526 0.029266
0.595490 0.269775 0.029938
0.611298 0.274658 0.030579
0.626343 0.279602 0.031158
0.640198 0.284454 0.031769
0.652344 0.289185 0.032501
0.664154 0.293854 0.033325
0.675415 0.298370 0.034149
0.686157 0.302856 0.034973
0.695160 0.306824 0.035614
0.704010 0.310852 0.036346
0.712433 0.314056 0.036652
0.721069 0.317566 0.037140
0.728088 0.321869 0.038361
0.735138 0.326477 0.039520
0.071259 0.147675 0.132538
0.086914 0.151276 0.118073
0.109161 0.157410 0.105499
0.141541 0.168427 0.090363
0.179871 0.180237 0.075653
0.212158 0.187500 0.065094
0.238556 0.190826 0.055908
0.284027 0.202850 0.046082
0.330048 0.213623 0.037781
0.365997 0.222015 0.034058
0.398529 0.230164 0.031952
0.429657 0.238159 0.029907
0.459198 0.246185 0.029175
0.487823 0.254639 0.028900
0.514221 0.262482 0.028687
0.536865 0.269165 0.029327
0.557678 0.275330 0.029724
0.576508 0.281342 0.030945
0.594849 0.286865 0.031708
0.612274 0.292633 0.032898
0.629242 0.298187 0.033478
0.645264 0.303619 0.034302
0.660004 0.308838 0.035278
0.672455 0.313904 0.036774
0.684174 0.318970 0.038391
0.695099 0.323456 0.039764
0.705811 0.328033 0.041168
0.714630 0.332306 0.042175
0.722961 0.336304 0.042938
0.731018 0.339630 0.043213
0.739288 0.343018 0.043549
0.746155 0.347534 0.045410
0.753174 0.351990 0.047394
0.084442 0.170959 0.148834
0.104858 0.175873 0.132233
0.128784 0.182220 0.117401
0.158997 0.193268 0.099426
0.198792 0.205658 0.082184
0.234650 0.214417 0.071198
0.266602 0.220154 0.060974
0.293030 0.221954 0.051575
0.339813 0.233643 0.042084
0.375977 0.242188 0.037323
0.409210 0.250519 0.034363
0.441284 0.258911 0.032410
0.471588 0.267456 0.031525
0.500366 0.275970 0.031281
0.527191 0.284241 0.031616
0.550262 0.291321 0.032288
0.571442 0.297974 0.033630
0.591827 0.304138 0.034668
0.610748 0.310089 0.035889
0.628815 0.316010 0.037262
0.646027 0.321899 0.038483
0.662750 0.327393 0.038940
0.677246 0.332855 0.040680
0.689667 0.337952 0.042236
0.701294 0.342743 0.043671
0.712067 0.347260 0.045349
0.722687 0.351898 0.047302
0.731934 0.356812 0.048981
0.740601 0.361206 0.050171
0.749176 0.365051 0.050903
0.757385 0.368439 0.051331
0.763885 0.372742 0.053406
0.770660 0.377441 0.055817
0.098969 0.195160 0.165710
0.122162 0.201355 0.147369
0.150452 0.208740 0.130035
0.182587 0.220734 0.109131
0.218842 0.232666 0.089569
0.256195 0.241882 0.076630
0.294861 0.250641 0.066315
0.323822 0.253418 0.056854
0.350464 0.254883 0.047852
0.387115 0.263763 0.041962
0.420135 0.271484 0.038177
0.452545 0.280334 0.036316
0.483948 0.289001 0.035156
0.513580 0.298096 0.035522
0.540619 0.306366 0.036102
0.564026 0.313690 0.037018
0.585052 0.320190 0.037933
0.606018 0.326782 0.038849
0.625732 0.333191 0.040588
0.644379 0.339630 0.042847
0.662140 0.345734 0.044830
0.678467 0.351593 0.046448
0.693787 0.356934 0.047272
0.705872 0.362030 0.049164
0.716858 0.366760 0.051147
0.727417 0.370911 0.052460
0.737579 0.375214 0.054047
0.746796 0.380402 0.056396
0.755920 0.385468 0.058838
0.764587 0.389587 0.060181
0.772827 0.393494 0.061218
0.779053 0.397766 0.064148
0.785461 0.402496 0.067719
0.111023 0.217712 0.180908
0.137390 0.225189 0.162018
0.167786 0.233734 0.142792
0.202545 0.246399 0.121399
0.239838 0.258606 0.099518
0.276489 0.267548 0.085632
0.316742 0.276703 0.074005
0.351654 0.282867 0.064850
0.379242 0.284637 0.055206
0.399963 0.285614 0.049683
0.433563 0.293732 0.045166
0.465179 0.301605 0.042572
0.496704 0.310333 0.041260
0.526428 0.318390 0.040527
0.554016 0.327148 0.041473
0.577881 0.335083 0.042908
0.599213 0.341858 0.043976
0.619354 0.348450 0.045532
0.639160 0.355103 0.046997
0.658264 0.361694 0.049103
0.676270 0.367950 0.051422
0.692932 0.373627 0.053406
0.707886 0.379150 0.054932
0.720062 0.384308 0.057037
0.730835 0.389191 0.059814
0.741333 0.393433 0.061493
0.751862 0.397614 0.062927
0.761017 0.402771 0.065643
0.769653 0.408142 0.069183
0.777924 0.412567 0.071320
0.786072 0.416626 0.072784
0.791565 0.420135 0.075073
0.797943 0.424652 0.078613
0.123627 0.240265 0.196289
0.151154 0.247833 0.176147
0.184540 0.258392 0.155914
0.221161 0.271973 0.133392
0.260712 0.284332 0.110657
0.298920 0.293427 0.095245
0.338531 0.302551 0.083374
0.376862 0.310425 0.074188
0.407166 0.314087 0.064972
0.428894 0.315094 0.057983
0.447327 0.315796 0.053467
0.479553 0.323853 0.050293
0.510101 0.331726 0.048492
0.539856 0.339905 0.047577
0.566803 0.347260 0.047852
0.591370 0.355499 0.049652
0.613007 0.362854 0.051392
0.632660 0.369598 0.053253
0.651794 0.375946 0.054871
0.670868 0.382507 0.056854
0.688965 0.388885 0.059448
0.705902 0.394562 0.061707
0.721222 0.400085 0.064240
0.733582 0.405396 0.066956
0.744446 0.410553 0.070221
0.755005 0.415009 0.072510
0.765015 0.419342 0.074402
0.773926 0.424255 0.077148
0.782654 0.429504 0.080109
0.790436 0.433777 0.082428
0.798431 0.438080 0.084900
0.803711 0.441498 0.087250
0.809174 0.445068 0.089966
0.134491 0.262085 0.210815
0.164490 0.270416 0.190216
0.199799 0.282135 0.169098
0.239929 0.296783 0.145782
0.281555 0.309570 0.121796
0.320862 0.319061 0.106110
0.361450 0.328186 0.092926
0.399902 0.336578 0.083771
0.433258 0.341949 0.075195
0.458160 0.344482 0.067596
0.477051 0.345062 0.062469
0.493805 0.345520 0.058136
0.524200 0.353424 0.056641
0.553528 0.360779 0.055267
0.580566 0.368195 0.055176
0.603424 0.374756 0.056702
0.625641 0.382324 0.058807
0.645599 0.389435 0.061829
0.664246 0.395874 0.064362
0.682709 0.401825 0.066498
0.700348 0.407959 0.069427
0.716797 0.413483 0.072021
0.732239 0.418884 0.074585
0.745087 0.424408 0.078094
0.756622 0.429901 0.081573
0.767395 0.435028 0.085480
0.777435 0.439484 0.087799
0.785492 0.443848 0.090210
0.793823 0.448639 0.093414
0.801147 0.452423 0.095459
0.808594 0.456635 0.097900
0.813934 0.460266 0.100464
0.818634 0.463501 0.102966
0.144348 0.283508 0.224854
0.177979 0.292938 0.204529
0.214355 0.305267 0.182068
0.257996 0.321442 0.157898
0.302643 0.334930 0.133057
0.343018 0.344727 0.117523
0.383789 0.354095 0.103882
0.423096 0.362640 0.094482
0.459229 0.369781 0.086426
0.484955 0.372589 0.078033
0.506165 0.374237 0.072266
0.523041 0.374634 0.067871
0.538605 0.375061 0.064758
0.567780 0.382355 0.063293
0.594238 0.388611 0.062744
0.616913 0.395203 0.065247
0.637207 0.401184 0.067871
0.657471 0.408173 0.071381
0.676605 0.414948 0.074799
0.694733 0.420807 0.077271
0.711456 0.426483 0.080566
0.727570 0.431763 0.083130
0.742432 0.436890 0.085968
0.755707 0.442535 0.089783
0.767456 0.448181 0.094421
0.778534 0.453613 0.098877
0.788544 0.458740 0.103088
0.796112 0.462769 0.105988
0.803497 0.466919 0.108856
0.810272 0.470123 0.110413
0.816895 0.473694 0.112152
0.822205 0.477356 0.114594
0.827240 0.481079 0.117157
0.152588 0.304840 0.238831
0.191162 0.315857 0.218872
0.231201 0.329285 0.195740
0.277191 0.346191 0.169250
0.324036 0.360352 0.143951
0.364441 0.370056 0.129425
0.406128 0.379578 0.115479
0.445374 0.387939 0.105988
0.483551 0.396149 0.098419
0.511139 0.400543 0.091156
0.533234 0.402191 0.084381
0.551239 0.403320 0.079712
0.567047 0.403687 0.076172
0.582275 0.403809 0.072784
0.608521 0.410126 0.072845
0.630585 0.414978 0.073822
0.650055 0.420685 0.077301
0.668884 0.425751 0.079803
0.687866 0.432159 0.083801
0.705872 0.438751 0.088043
0.722748 0.444550 0.091766
0.738586 0.449829 0.095306
0.753479 0.455017 0.098541
0.766418 0.460449 0.102570
0.778351 0.465851 0.106934
0.788452 0.470642 0.111115
0.798004 0.475739 0.115967
0.805298 0.480103 0.120331
0.812622 0.484100 0.123322
0.819244 0.487305 0.125183
0.825317 0.490540 0.126740
0.831055 0.494049 0.128998
0.836121 0.497894 0.131958
0.159180 0.325195 0.252228
0.202423 0.337891 0.232635
0.247498 0.352325 0.209229
0.295685 0.369751 0.181732
0.344086 0.384094 0.155029
0.385254 0.393951 0.141144
0.426422 0.403137 0.128540
0.465881 0.411438 0.118225
0.503784 0.419495 0.110382
0.534302 0.425171 0.104126
0.557831 0.428131 0.097778
0.576233 0.429352 0.093262
0.592529 0.429993 0.089264
0.607941 0.430115 0.085663
0.622253 0.430298 0.083282
0.644257 0.435272 0.084320
0.663025 0.439423 0.086243
0.680969 0.444153 0.089386
0.698669 0.448914 0.092438
0.716949 0.455414 0.097717
0.733887 0.461914 0.103271
0.749542 0.467407 0.107483
0.764069 0.472473 0.111267
0.776428 0.477753 0.115906
0.788300 0.482758 0.119690
0.797882 0.487396 0.123840
0.807068 0.491760 0.128143
0.814270 0.496277 0.133636
0.820953 0.500549 0.138580
0.827332 0.503967 0.141235
0.833374 0.507202 0.143158
0.838440 0.510468 0.145691
0.843414 0.514252 0.148682
0.164795 0.343933 0.264893
0.212067 0.357941 0.246124
0.260712 0.372894 0.222076
0.310638 0.390472 0.194824
0.359863 0.404938 0.166626
0.402313 0.414642 0.152954
0.443939 0.423798 0.141144
0.482727 0.431580 0.131104
0.520599 0.439392 0.123138
0.552338 0.445740 0.117920
0.576508 0.448944 0.111603
0.596436 0.451019 0.106873
0.613007 0.451874 0.102783
0.628113 0.452026 0.099243
0.642670 0.452362 0.096313
0.655792 0.453125 0.095215
0.674896 0.457520 0.097382
0.692963 0.461884 0.099731
0.710083 0.466614 0.103638
0.727264 0.472168 0.108215
0.744507 0.478363 0.113861
0.760040 0.484039 0.119385
0.774323 0.489258 0.123688
0.786438 0.494080 0.127808
0.797150 0.498993 0.132843
0.806671 0.503387 0.137421
0.815948 0.507507 0.141205
0.822388 0.511841 0.147186
0.828461 0.516144 0.152893
0.834747 0.520081 0.156891
0.841064 0.523712 0.159363
0.845367 0.526489 0.161774
0.850128 0.529846 0.164581
0.169830 0.361145 0.277191
0.220245 0.376129 0.258820
0.271637 0.391205 0.235260
0.322784 0.408691 0.207916
0.373413 0.423523 0.179291
0.416656 0.433105 0.165314
0.458771 0.442108 0.153656
0.497162 0.449768 0.144043
0.534424 0.457062 0.135864
0.567657 0.464020 0.131104
0.592438 0.467438 0.125366
0.612671 0.469696 0.120728
0.630188 0.471344 0.117615
0.645538 0.471863 0.113800
0.659698 0.472015 0.110870
0.672974 0.472870 0.109711
0.685089 0.474060 0.109619
0.703461 0.478455 0.112000
0.720703 0.483002 0.114838
0.737793 0.488525 0.119873
0.754120 0.494324 0.125366
0.769989 0.499847 0.130798
0.783844 0.504883 0.136444
0.794952 0.509369 0.141602
0.804810 0.513855 0.146637
0.814423 0.518311 0.150879
0.822784 0.522552 0.155853
0.829193 0.526703 0.161499
0.835022 0.530731 0.167084
0.841583 0.535095 0.171173
0.847656 0.539276 0.175568
0.851532 0.541870 0.178192
0.855560 0.544739 0.181396
0.175385 0.377228 0.289154
0.226746 0.392670 0.270752
0.279694 0.407745 0.247620
0.332672 0.425110 0.221130
0.385742 0.440460 0.192627
0.429626 0.450226 0.178223
0.472015 0.459137 0.166779
0.510101 0.466736 0.157471
0.546997 0.473938 0.149292
0.580627 0.480774 0.144440
0.607849 0.485443 0.140198
0.627747 0.487457 0.135071
0.645538 0.489319 0.131836
0.661957 0.490753 0.128906
0.676270 0.491180 0.126068
0.689484 0.491821 0.124573
0.701813 0.493103 0.124268
0.713501 0.494598 0.124817
0.730835 0.499023 0.127777
0.747009 0.503754 0.132385
0.763275 0.509338 0.138275
0.778076 0.514313 0.144287
0.791656 0.519348 0.150208
0.802032 0.523285 0.155060
0.811371 0.527435 0.160492
0.820435 0.532135 0.166046
0.829254 0.536438 0.170441
0.835449 0.540527 0.175964
0.840973 0.544800 0.182404
0.846954 0.549316 0.187500
0.853088 0.553711 0.192291
0.856934 0.556488 0.195038
0.860474 0.559052 0.197937
0.179291 0.391968 0.300690
0.232300 0.407684 0.282349
0.285980 0.423065 0.259674
0.340881 0.440216 0.234497
0.396790 0.455963 0.205719
0.441223 0.465759 0.190918
0.483795 0.474609 0.179077
0.521759 0.482147 0.170563
0.558289 0.489471 0.162933
0.592010 0.496338 0.157745
0.621948 0.502197 0.154053
0.642151 0.504456 0.149353
0.659882 0.506348 0.146179
0.676453 0.507965 0.143738
0.691589 0.509155 0.141724
0.704865 0.509827 0.140198
0.717255 0.511017 0.139771
0.728699 0.512421 0.140320
0.739838 0.514313 0.141846
0.755554 0.518829 0.147064
0.770660 0.523438 0.152618
0.785553 0.528259 0.158264
0.798340 0.532745 0.164001
0.808167 0.536682 0.169617
0.817261 0.540283 0.174377
0.826111 0.544861 0.180664
0.834198 0.549469 0.186920
0.840576 0.553741 0.192474
0.846405 0.558167 0.198456
0.852203 0.562592 0.203278
0.857727 0.567078 0.208344
0.861267 0.569946 0.211609
0.864197 0.572571 0.215088
0.180939 0.405640 0.311981
0.236572 0.421967 0.294006
0.292053 0.437439 0.272003
0.348694 0.454498 0.246918
0.406830 0.470703 0.218048
0.451721 0.480286 0.202179
0.494232 0.488983 0.190033
0.532013 0.496338 0.182129
0.568634 0.503540 0.175018
0.602692 0.510406 0.169647
0.633972 0.516907 0.166565
0.654785 0.519745 0.163147
0.672302 0.521637 0.160370
0.689148 0.523407 0.158356
0.704468 0.524841 0.156982
0.718719 0.525879 0.155304
0.730957 0.527069 0.155182
0.742065 0.528809 0.156830
0.752899 0.530670 0.158478
0.763245 0.532928 0.161163
0.777893 0.537476 0.167480
0.792236 0.541840 0.173065
0.804810 0.546082 0.178284
0.814545 0.549835 0.183716
0.823059 0.553467 0.190033
0.831390 0.557404 0.196289
0.838562 0.562042 0.203186
0.844299 0.566193 0.209839
0.849915 0.570679 0.216217
0.855743 0.575073 0.221283
0.861633 0.579285 0.225647
0.865356 0.582245 0.228455
0.868439 0.585022 0.231812
0.181091 0.418396 0.322906
0.240051 0.435181 0.305450
0.297943 0.451050 0.284332
0.356201 0.468109 0.259308
0.416077 0.484497 0.229462
0.461029 0.494049 0.213440
0.503540 0.502441 0.200165
0.540955 0.509583 0.192871
0.577789 0.516602 0.186584
0.612457 0.523376 0.181152
0.644012 0.529877 0.177704
0.666382 0.533783 0.175690
0.683716 0.535675 0.173157
0.700104 0.537476 0.172302
0.715973 0.539368 0.171783
0.730499 0.540588 0.170410
0.743378 0.542053 0.170410
0.754608 0.543884 0.172119
0.764587 0.546051 0.175385
0.774841 0.548340 0.178284
0.784546 0.550690 0.181824
0.799072 0.555176 0.187256
0.811127 0.559357 0.193573
0.820618 0.563080 0.199768
0.829437 0.566528 0.205475
0.836304 0.570496 0.213043
0.843323 0.574371 0.219604
0.848694 0.578461 0.226837
0.853882 0.582428 0.233673
0.859436 0.586884 0.238861
0.864777 0.591156 0.243683
0.868286 0.594177 0.246887
0.871582 0.597260 0.250336
0.180420 0.430420 0.333923
0.242737 0.447815 0.316833
0.303589 0.464081 0.296661
0.363220 0.480865 0.271057
0.424469 0.497253 0.240540
0.469940 0.507111 0.224640
0.512360 0.515289 0.211578
0.549377 0.522186 0.203827
0.586090 0.529053 0.197601
0.621216 0.535736 0.192444
0.652771 0.542175 0.189117
0.676849 0.547272 0.188568
0.694214 0.549408 0.187103
0.710815 0.551361 0.185913
0.726624 0.553131 0.185577
0.741852 0.554962 0.185333
0.754883 0.556519 0.185699
0.765991 0.558777 0.188354
0.776276 0.561035 0.191772
0.786072 0.563446 0.195465
0.795715 0.565857 0.199585
0.804443 0.568237 0.203949
0.816437 0.572479 0.210266
0.826233 0.576019 0.216034
0.834381 0.579498 0.222504
0.841705 0.583313 0.229309
0.847839 0.587219 0.237396
0.852936 0.590729 0.243866
0.857941 0.594543 0.250916
0.863037 0.598602 0.256775
0.868225 0.602936 0.261841
0.871948 0.606049 0.265381
0.875397 0.609192 0.268677
0.179993 0.441620 0.344849
0.242920 0.459595 0.327667
0.307434 0.476105 0.308655
0.368896 0.492523 0.283600
0.431274 0.509033 0.252167
0.478088 0.519379 0.235046
0.520142 0.527466 0.222778
0.556519 0.534027 0.215240
0.592896 0.540741 0.208984
0.628418 0.547455 0.203491
0.660461 0.553894 0.200012
0.685760 0.559570 0.200134
0.704102 0.562408 0.199646
0.720367 0.564331 0.199066
0.735962 0.566315 0.199554
0.751221 0.568237 0.200134
0.765198 0.570526 0.201965
0.776642 0.572845 0.205048
0.786865 0.575531 0.209137
0.796722 0.577911 0.212799
0.805542 0.580414 0.217316
0.814026 0.582794 0.221680
0.822113 0.585175 0.226105
0.831543 0.588837 0.232910
0.838867 0.592194 0.239502
0.845703 0.595947 0.247040
0.852600 0.599640 0.254211
0.857269 0.603424 0.262329
0.862122 0.606842 0.268768
0.866974 0.610809 0.274658
0.871674 0.614716 0.280121
0.875153 0.617645 0.283813
0.878937 0.620911 0.287292
0.180298 0.452271 0.355438
0.241913 0.470276 0.338135
0.307983 0.486694 0.320190
0.370544 0.502869 0.296265
0.433807 0.519470 0.264740
0.483154 0.530670 0.245605
0.526337 0.538696 0.232941
0.561829 0.544952 0.225525
0.597870 0.551483 0.219604
0.633636 0.558136 0.214844
0.666260 0.564545 0.211487
0.691986 0.570190 0.211456
0.712158 0.574127 0.211700
0.728088 0.575958 0.211426
0.743958 0.578064 0.211700
0.758942 0.580170 0.213715
0.773193 0.582672 0.215912
0.785767 0.585571 0.220276
0.796204 0.588226 0.224823
0.805603 0.590820 0.229279
0.813904 0.593323 0.234100
0.821625 0.595917 0.239288
0.829346 0.598511 0.244293
0.835938 0.601410 0.250122
0.843445 0.604797 0.256989
0.850494 0.608673 0.264801
0.856873 0.612488 0.272675
0.862396 0.616150 0.279419
0.866364 0.619751 0.287415
0.871246 0.623413 0.293243
0.875732 0.627136 0.299042
0.878540 0.629395 0.303070
0.881958 0.632446 0.306763
0.180542 0.462341 0.365875
0.240875 0.480469 0.348267
0.306824 0.496582 0.331238
0.370819 0.512268 0.308960
0.434387 0.528992 0.278015
0.486328 0.541199 0.256531
0.531311 0.549347 0.243225
0.566681 0.555328 0.235382
0.602081 0.561554 0.229340
0.637512 0.568115 0.225250
0.670624 0.574463 0.222473
0.697113 0.580109 0.222412
0.719177 0.584869 0.223267
0.735809 0.587006 0.222534
0.750946 0.588989 0.223419
0.766174 0.591431 0.225586
0.780243 0.593933 0.229706
0.792999 0.597015 0.234863
0.804260 0.600281 0.240479
0.813354 0.602905 0.245392
0.821320 0.605499 0.250641
0.829041 0.608093 0.255493
0.835968 0.611084 0.261871
0.842285 0.614044 0.267731
0.847198 0.617157 0.275635
0.854675 0.621002 0.282867
0.861511 0.625061 0.290771
0.866455 0.628662 0.298309
0.870911 0.632111 0.305237
0.874817 0.635834 0.312592
0.879456 0.639679 0.318604
0.881927 0.641785 0.322723
0.884766 0.644104 0.326935
0.180298 0.471466 0.375580
0.238373 0.489075 0.357697
0.304199 0.505371 0.341278
0.370209 0.520386 0.321228
0.434418 0.537537 0.291138
0.488922 0.550323 0.267120
0.535767 0.558838 0.252319
0.570801 0.564636 0.244629
0.605255 0.570526 0.238953
0.640228 0.576935 0.235535
0.673523 0.583252 0.233185
0.701294 0.589020 0.232941
0.724731 0.594299 0.234131
0.742004 0.597107 0.235138
0.757172 0.599182 0.235870
0.772003 0.601685 0.238647
0.786438 0.604614 0.243164
0.799500 0.607483 0.248657
0.810730 0.610901 0.254822
0.820190 0.614410 0.261749
0.828644 0.617340 0.267181
0.835663 0.620239 0.273224
0.841980 0.623047 0.279510
0.847687 0.626038 0.286346
0.853577 0.629303 0.293274
0.858551 0.632721 0.301422
0.865051 0.636627 0.309509
0.870087 0.640686 0.317596
0.874207 0.644287 0.325317
0.878235 0.647400 0.331848
0.882202 0.651215 0.339417
0.884857 0.654205 0.345154
0.887848 0.656464 0.349152
0.179474 0.479919 0.385101
0.236206 0.497101 0.367126
0.300934 0.513580 0.350342
0.368103 0.528320 0.331970
0.433441 0.545654 0.304535
0.489685 0.558929 0.279114
0.539520 0.568115 0.261841
0.575043 0.573669 0.253723
0.608795 0.579132 0.248413
0.642975 0.585480 0.245453
0.675720 0.591766 0.243805
0.704315 0.597412 0.243683
0.728729 0.602814 0.245056
0.747955 0.606812 0.246490
0.762787 0.608856 0.248383
0.777557 0.611511 0.251648
0.791748 0.614380 0.256134
0.805115 0.617554 0.261902
0.816620 0.621216 0.269226
0.826477 0.625061 0.276703
0.835175 0.628784 0.284149
0.841492 0.631989 0.291626
0.847443 0.635010 0.298157
0.853210 0.638092 0.305237
0.859131 0.641205 0.311859
