滤镜资源/Professional Luts Collection/Lutify.me Professional/Cine Looks/Pearl.cube
# Created by: Lutify.me
# Copyright: (c) Copyright Lutify.me 2015
# Website: https://lutify.me
#LUT size
LUT_3D_SIZE 9
#LUT data points
0.036041 0.043335 0.045105
0.145142 0.080688 0.041016
0.286072 0.118347 0.028717
0.387543 0.139557 0.026276
0.456757 0.153320 0.025513
0.502106 0.163208 0.025757
0.543304 0.173584 0.026917
0.579163 0.183228 0.028076
0.612823 0.196960 0.029083
0.046143 0.103760 0.098755
0.147491 0.133728 0.058624
0.312347 0.177734 0.030701
0.436981 0.207581 0.025940
0.527710 0.232452 0.026611
0.591736 0.251740 0.028778
0.642548 0.269745 0.030884
0.683167 0.286407 0.032959
0.715149 0.301849 0.035095
0.098969 0.195160 0.165710
0.218842 0.232666 0.089569
0.350464 0.254883 0.047852
0.483948 0.289001 0.035156
0.585052 0.320190 0.037933
0.662140 0.345734 0.044830
0.716858 0.366760 0.051147
0.755920 0.385468 0.058838
0.785461 0.402496 0.067719
0.144348 0.283508 0.224854
0.302643 0.334930 0.133057
0.459229 0.369781 0.086426
0.538605 0.375061 0.064758
0.637207 0.401184 0.067871
0.711456 0.426483 0.080566
0.767456 0.448181 0.094421
0.803497 0.466919 0.108856
0.827240 0.481079 0.117157
0.169830 0.361145 0.277191
0.373413 0.423523 0.179291
0.534424 0.457062 0.135864
0.630188 0.471344 0.117615
0.685089 0.474060 0.109619
0.754120 0.494324 0.125366
0.804810 0.513855 0.146637
0.835022 0.530731 0.167084
0.855560 0.544739 0.181396
0.181091 0.418396 0.322906
0.416077 0.484497 0.229462
0.577789 0.516602 0.186584
0.683716 0.535675 0.173157
0.743378 0.542053 0.170410
0.784546 0.550690 0.181824
0.829437 0.566528 0.205475
0.853882 0.582428 0.233673
0.871582 0.597260 0.250336
0.180542 0.462341 0.365875
0.434387 0.528992 0.278015
0.602081 0.561554 0.229340
0.719177 0.584869 0.223267
0.780243 0.593933 0.229706
0.821320 0.605499 0.250641
0.847198 0.617157 0.275635
0.870911 0.632111 0.305237
0.884766 0.644104 0.326935
0.176941 0.496033 0.404510
0.431213 0.560822 0.330078
0.614288 0.595673 0.268890
0.733887 0.617950 0.263550
0.800751 0.631805 0.278259
0.842346 0.648376 0.315826
0.867371 0.663910 0.352295
0.879456 0.676941 0.389771
0.891052 0.690308 0.419189
0.165314 0.523499 0.443573
0.408264 0.584351 0.380524
0.603577 0.625183 0.316803
0.730774 0.642914 0.294556
0.806244 0.661224 0.313965
0.848450 0.675171 0.351440
0.874329 0.699493 0.419464
0.886780 0.717621 0.473969
0.890167 0.730255 0.511353
0.030823 0.052887 0.082397
0.104279 0.087097 0.126648
0.252350 0.127716 0.140717
0.358429 0.144989 0.129364
0.428375 0.152161 0.113831
0.475983 0.153961 0.098450
0.514587 0.154449 0.087738
0.548492 0.150879 0.078705
0.581696 0.154053 0.065643
0.043274 0.120667 0.150055
0.136139 0.148132 0.148682
0.307800 0.190582 0.136200
0.433502 0.211823 0.118622
0.518158 0.220306 0.100403
0.578430 0.227997 0.091187
0.628876 0.234039 0.085907
0.667755 0.244812 0.082214
0.697662 0.255341 0.070984
0.073578 0.209229 0.224243
0.174194 0.229919 0.205750
0.330383 0.269043 0.154449
0.478333 0.304047 0.142120
0.579956 0.326721 0.128143
0.653137 0.341217 0.124268
0.706909 0.352570 0.118805
0.750305 0.366882 0.118805
0.775848 0.373108 0.108276
0.109772 0.292480 0.287537
0.219818 0.322418 0.264648
0.398956 0.371094 0.206207
0.518372 0.390106 0.169342
0.620392 0.412262 0.166962
0.695953 0.429138 0.168884
0.754791 0.443665 0.171173
0.795959 0.457733 0.170654
0.824951 0.467468 0.163055
0.131226 0.361023 0.339142
0.248871 0.401764 0.315186
0.443054 0.452484 0.259186
0.582703 0.481995 0.229156
0.663330 0.488892 0.204041
0.732147 0.503265 0.215363
0.792175 0.520813 0.226685
0.830139 0.534698 0.232056
0.854034 0.543793 0.233154
0.143585 0.412903 0.382111
0.262085 0.460236 0.357178
0.476074 0.512360 0.303528
0.621216 0.544312 0.285828
0.713715 0.560486 0.275055
0.766388 0.566895 0.272644
0.817719 0.579468 0.287689
0.850311 0.595093 0.303802
0.871490 0.605255 0.309937
0.147522 0.454559 0.420227
0.263885 0.507690 0.393860
0.490540 0.561554 0.350159
0.644775 0.593323 0.328674
0.744354 0.613617 0.335358
0.800262 0.625458 0.343353
0.837219 0.635284 0.354919
0.865601 0.649078 0.374390
0.882996 0.660583 0.391388
0.143188 0.484222 0.452057
0.255493 0.543610 0.431732
0.493561 0.596283 0.395630
0.659210 0.632324 0.372192
0.761200 0.654541 0.381348
0.818848 0.669556 0.406189
0.855377 0.682312 0.426758
0.872406 0.696075 0.456970
0.888641 0.709900 0.478546
0.138184 0.510895 0.484741
0.247192 0.575531 0.473663
0.486237 0.623657 0.443848
0.657959 0.666168 0.420868
0.760223 0.685730 0.422852
0.829132 0.703522 0.443695
0.861176 0.719147 0.487152
0.879547 0.737671 0.537445
0.884735 0.749298 0.568695
0.032379 0.070526 0.126099
0.056580 0.090881 0.160461
0.194519 0.134125 0.208649
0.322479 0.156372 0.226685
0.412628 0.166626 0.226593
0.469299 0.171387 0.221558
0.511566 0.169983 0.216278
0.547455 0.163269 0.207123
0.580627 0.152985 0.190033
0.041016 0.138397 0.191193
0.091339 0.148163 0.182983
0.219757 0.188751 0.235870
0.371552 0.211914 0.237000
0.468689 0.220245 0.223206
0.536285 0.221893 0.211426
0.583984 0.220093 0.197449
0.623962 0.214844 0.179108
0.659088 0.213409 0.164429
0.063354 0.228729 0.279022
0.144592 0.243134 0.265839
0.266846 0.260925 0.261597
0.433563 0.293365 0.256195
0.548401 0.308441 0.243805
0.629730 0.318970 0.233337
0.687134 0.324890 0.222992
0.730713 0.324799 0.207886
0.759460 0.329254 0.191833
0.086639 0.306549 0.341766
0.176971 0.329803 0.328461
0.310181 0.349182 0.321198
0.457275 0.385376 0.286804
0.580383 0.408905 0.284729
0.673401 0.425262 0.278137
0.739288 0.435181 0.267548
0.787933 0.439453 0.250092
0.815552 0.440033 0.230804
0.104187 0.368866 0.393066
0.202240 0.399323 0.373810
0.342377 0.429657 0.370300
0.498596 0.470886 0.346802
0.602722 0.488831 0.326355
0.696899 0.505127 0.325592
0.771881 0.520355 0.322449
0.821320 0.529572 0.309967
0.848633 0.530914 0.292572
0.117065 0.413391 0.429352
0.214600 0.451843 0.412476
0.358032 0.493713 0.409027
0.523407 0.534515 0.388123
0.646362 0.565521 0.383820
0.718781 0.574738 0.378601
0.789154 0.588043 0.383270
0.841614 0.606171 0.384308
0.866302 0.610596 0.378784
0.120728 0.449768 0.462311
0.217621 0.497070 0.446533
0.365326 0.545593 0.444275
0.538849 0.587769 0.429718
0.672546 0.621246 0.431885
0.755920 0.640289 0.441772
0.807037 0.649963 0.448517
0.852997 0.665955 0.455811
0.877869 0.678345 0.464630
0.123688 0.477112 0.488739
0.210663 0.528748 0.477478
0.366272 0.589569 0.480530
0.558380 0.634979 0.474152
0.692719 0.669556 0.474884
0.780487 0.691895 0.494934
0.833099 0.706573 0.512634
0.862244 0.718353 0.530914
0.880829 0.730377 0.547577
0.122253 0.502441 0.518463
0.201843 0.559235 0.514801
0.359253 0.625092 0.524750
0.554565 0.664520 0.520782
0.695435 0.704651 0.519348
0.786621 0.726440 0.534393
0.844177 0.746674 0.568787
0.870544 0.761292 0.607605
0.879242 0.769196 0.630737
0.034393 0.091187 0.159576
0.038605 0.098572 0.181610
0.150818 0.132996 0.231201
0.267639 0.162445 0.266174
0.368652 0.178375 0.282196
0.437012 0.183472 0.285034
0.487396 0.185791 0.287628
0.530029 0.180908 0.284882
0.571991 0.168610 0.274048
0.042480 0.157654 0.227203
0.073364 0.160553 0.213654
0.159637 0.179626 0.256866
0.297791 0.214661 0.299133
0.414429 0.231750 0.307800
0.494415 0.236664 0.304382
0.557678 0.236847 0.302338
0.609100 0.229340 0.291168
0.650452 0.215363 0.268829
0.055969 0.233734 0.301971
0.114807 0.247162 0.293060
0.199829 0.254822 0.296539
0.339478 0.285583 0.336853
0.478149 0.304047 0.335846
0.569702 0.312622 0.326263
0.637360 0.313507 0.315063
0.686401 0.305206 0.292358
0.720001 0.293365 0.265594
0.077820 0.316437 0.377472
0.148560 0.334839 0.370575
0.270081 0.352905 0.366730
0.396820 0.372955 0.375854
0.532013 0.394653 0.367920
0.629089 0.405670 0.358276
0.699402 0.415009 0.350372
0.754669 0.416168 0.332703
0.792816 0.407928 0.304138
0.088470 0.370819 0.424377
0.169373 0.402893 0.420044
0.303650 0.430237 0.415222
0.428497 0.453430 0.423889
0.542023 0.479492 0.413452
0.648865 0.494171 0.406616
0.736908 0.509369 0.398865
0.795441 0.518829 0.385742
0.831940 0.513763 0.359650
0.099731 0.412323 0.458893
0.182281 0.452118 0.456116
0.322754 0.488617 0.451172
0.451965 0.519012 0.460327
0.567810 0.549683 0.457489
0.659882 0.568512 0.459778
0.752167 0.585541 0.454498
0.821655 0.603546 0.448914
0.856781 0.607758 0.434296
0.105743 0.445251 0.488037
0.184570 0.491791 0.487427
0.327789 0.536285 0.482452
0.469269 0.578644 0.497375
0.594086 0.610565 0.496613
0.700226 0.642090 0.511658
0.767944 0.655121 0.522186
0.834229 0.674164 0.523743
0.869568 0.688110 0.525177
0.109894 0.472198 0.513428
0.182281 0.520203 0.514832
0.314178 0.576019 0.517181
0.474915 0.631409 0.537415
0.610535 0.666016 0.543243
0.726990 0.699493 0.556549
0.806152 0.724030 0.583801
0.846100 0.735229 0.601959
0.874908 0.748901 0.613922
0.112701 0.500031 0.541840
0.173309 0.546295 0.545624
0.305725 0.610260 0.556763
0.473755 0.670715 0.583557
0.623779 0.706696 0.595123
0.741669 0.740448 0.606445
0.819794 0.764893 0.636932
0.864014 0.783539 0.673248
0.876434 0.789185 0.690948
0.035522 0.107452 0.186279
0.037354 0.107788 0.199402
0.098633 0.132538 0.241852
0.232788 0.162354 0.284637
0.325287 0.182343 0.309662
0.399750 0.193115 0.322174
0.454712 0.197662 0.327698
0.504547 0.197754 0.330383
0.555603 0.187256 0.325256
0.041168 0.170807 0.255676
0.062531 0.170563 0.239014
0.110199 0.177399 0.268677
0.239166 0.207764 0.316162
0.354828 0.232452 0.343048
0.440094 0.245697 0.353271
0.506195 0.249908 0.354797
0.570343 0.242157 0.352264
0.630341 0.224976 0.336884
0.052460 0.243256 0.326752
0.093109 0.252502 0.317383
0.156738 0.254181 0.320282
0.265594 0.271545 0.353333
0.399078 0.301605 0.385590
0.506348 0.317047 0.396576
0.583679 0.318573 0.391388
0.653717 0.310120 0.377899
0.705536 0.293976 0.355255
0.068451 0.311462 0.388336
0.123413 0.329529 0.384399
0.216278 0.346741 0.387543
0.317657 0.360199 0.398865
0.450104 0.386383 0.429047
0.567963 0.400238 0.427368
0.647827 0.402679 0.415680
0.713715 0.395111 0.394653
0.756317 0.376709 0.363464
0.078674 0.369568 0.441864
0.147705 0.401672 0.445221
0.272919 0.429810 0.446289
0.398010 0.452423 0.454803
0.505615 0.475861 0.469391
0.614014 0.487885 0.461731
0.698181 0.493256 0.452209
0.762360 0.497406 0.441315
0.802826 0.487823 0.412689
0.088226 0.408875 0.475189
0.157288 0.448822 0.480804
0.291992 0.489258 0.485687
0.424561 0.519714 0.493225
0.525574 0.543427 0.506195
0.620880 0.564545 0.510162
0.719025 0.575714 0.504730
0.799286 0.592285 0.498077
0.840210 0.597778 0.483826
0.096222 0.441895 0.502502
0.167175 0.486725 0.510529
0.297119 0.532349 0.516785
0.435364 0.570343 0.525116
0.544434 0.604706 0.541565
0.642365 0.631683 0.549988
0.737152 0.654510 0.564514
0.821777 0.674500 0.566071
0.860138 0.689880 0.571075
0.103821 0.469910 0.525208
0.166718 0.515839 0.537323
0.277740 0.568359 0.548279
0.433075 0.620087 0.561218
0.564728 0.667480 0.588989
0.670349 0.696320 0.598877
0.777252 0.731506 0.626801
0.840881 0.751251 0.653687
0.871918 0.762939 0.664215
0.109528 0.498413 0.551727
0.162720 0.544098 0.567505
0.261536 0.598907 0.583221
0.422607 0.658173 0.606110
0.575989 0.711731 0.641144
0.696899 0.742340 0.655457
0.798065 0.775543 0.684814
0.859863 0.800964 0.722076
0.875732 0.808472 0.739594
0.036499 0.122253 0.211365
0.037109 0.116547 0.215302
0.063232 0.131775 0.252533
0.182159 0.159088 0.294159
0.292572 0.180573 0.323792
0.366760 0.194366 0.340210
0.428040 0.205017 0.352112
0.483307 0.208740 0.358429
0.539398 0.203796 0.360382
0.039368 0.177277 0.279602
0.055969 0.180054 0.262085
0.079041 0.177368 0.279175
0.181885 0.202332 0.324005
0.305756 0.226776 0.356323
0.394745 0.243286 0.373108
0.466339 0.255219 0.384644
0.532684 0.254913 0.385010
0.604279 0.238922 0.381104
0.048798 0.247803 0.345001
0.077209 0.254852 0.336884
0.131378 0.256409 0.333099
0.206665 0.262726 0.362000
0.330200 0.287994 0.399231
0.441986 0.310181 0.419678
0.526550 0.321899 0.430420
0.601044 0.317108 0.419434
0.675110 0.295166 0.404785
0.061676 0.312317 0.400909
0.105347 0.328430 0.397736
0.180145 0.344391 0.401978
0.261047 0.350464 0.415344
0.371887 0.365143 0.438873
0.491241 0.393799 0.466095
0.592834 0.403992 0.474396
0.671844 0.393982 0.457764
0.730988 0.372162 0.430267
0.072784 0.364685 0.446564
0.128845 0.393402 0.450409
0.229950 0.418732 0.454254
0.332062 0.437592 0.469055
0.428375 0.455353 0.482330
0.545776 0.479126 0.508484
0.649780 0.487030 0.503510
0.723022 0.480804 0.485992
0.769073 0.461731 0.456207
0.079224 0.403595 0.481049
0.144318 0.444672 0.492432
0.271332 0.487976 0.505615
0.399414 0.517120 0.516510
0.501526 0.540894 0.531372
0.595642 0.565735 0.548706
0.692352 0.573242 0.543640
0.769226 0.576263 0.534943
0.814545 0.576385 0.520996
0.088898 0.437500 0.508362
0.152130 0.481354 0.521729
0.274292 0.530731 0.536804
0.405731 0.569092 0.551880
0.519897 0.603027 0.567139
0.614044 0.633270 0.586670
0.716583 0.660583 0.603699
0.802979 0.673828 0.604248
0.849670 0.687378 0.606293
0.100006 0.468536 0.533569
0.156036 0.510315 0.547180
0.263367 0.566345 0.567902
0.394348 0.612762 0.585876
0.528656 0.659302 0.608582
0.640503 0.696899 0.635345
0.744720 0.730347 0.657990
0.826996 0.758911 0.689545
0.866119 0.770386 0.699554
0.105927 0.495392 0.557953
0.154388 0.539795 0.577393
0.250366 0.597504 0.601593
0.384399 0.650787 0.626526
0.539734 0.702759 0.658478
0.678192 0.750885 0.696411
0.780151 0.782043 0.717438
0.854645 0.811920 0.755432
0.876678 0.822693 0.775787
0.036835 0.129456 0.233917
0.037231 0.121948 0.230499
0.041870 0.127930 0.259125
0.135834 0.156128 0.300873
0.255127 0.177765 0.333374
0.336456 0.192413 0.353210
0.401947 0.203918 0.366089
0.461212 0.213501 0.378326
0.522186 0.214264 0.384521
0.039185 0.179474 0.299072
0.047028 0.183105 0.281708
0.057587 0.176849 0.289276
0.123871 0.193909 0.330383
0.249542 0.216888 0.364624
0.350342 0.235352 0.386322
0.427002 0.249023 0.398743
0.497314 0.259766 0.410492
0.570374 0.251892 0.410767
0.044525 0.246979 0.361847
0.059570 0.252441 0.350494
0.104279 0.256744 0.346436
0.144958 0.251678 0.364655
0.256805 0.271545 0.403900
0.380280 0.294830 0.430267
0.472321 0.311127 0.444916
0.554138 0.318390 0.451477
0.634491 0.300629 0.439819
0.056000 0.310364 0.411804
0.086090 0.324432 0.408661
0.145325 0.338379 0.411346
0.206635 0.340851 0.418945
0.291565 0.343719 0.441650
0.414001 0.367950 0.474426
0.525940 0.392700 0.493500
0.615753 0.393677 0.495850
0.693542 0.366028 0.472626
0.067474 0.362671 0.453827
0.112823 0.387787 0.457611
0.194061 0.412262 0.464294
0.276489 0.427643 0.476990
0.351074 0.435120 0.493011
0.455231 0.448792 0.512268
0.580383 0.479584 0.539215
0.676697 0.475494 0.535675
0.740326 0.451080 0.508942
0.074280 0.398132 0.483521
0.128601 0.433716 0.494446
0.231323 0.472900 0.507874
0.336761 0.501282 0.521637
0.425751 0.519501 0.540771
0.513031 0.540619 0.559814
0.635559 0.564453 0.583130
0.729645 0.562531 0.573517
0.782104 0.547760 0.553986
0.082489 0.431976 0.511078
0.141174 0.474915 0.527374
0.257996 0.526306 0.548096
0.386200 0.565002 0.566833
0.496490 0.599915 0.589294
0.591248 0.630981 0.613800
0.696808 0.666687 0.641296
0.786957 0.672699 0.638214
0.834259 0.677185 0.637268
0.093597 0.462677 0.536011
0.144623 0.503662 0.553406
0.241852 0.557800 0.577179
0.372833 0.609528 0.602966
0.492310 0.654236 0.630463
0.612122 0.694031 0.657318
0.722656 0.736298 0.687714
0.825562 0.771454 0.719910
0.865814 0.778076 0.725281
0.099030 0.489716 0.561401
0.146484 0.533905 0.581726
0.234894 0.591156 0.610657
0.370026 0.649414 0.642456
0.506500 0.697784 0.674377
0.655579 0.747345 0.711456
0.773071 0.790955 0.748840
0.851288 0.818573 0.776611
0.877258 0.830780 0.798737
0.037109 0.137512 0.257233
0.037384 0.127502 0.245667
0.039337 0.126770 0.266815
0.063660 0.142792 0.298065
0.200592 0.172516 0.338562
0.297241 0.187622 0.363068
0.370605 0.199066 0.378448
0.438446 0.211548 0.393127
0.504883 0.218964 0.404816
0.039795 0.181610 0.315857
0.040100 0.178284 0.299347
0.043701 0.169434 0.294708
0.067810 0.182129 0.325500
0.173950 0.203003 0.364624
0.288116 0.222168 0.393860
0.381927 0.236847 0.413757
0.462097 0.251648 0.427368
0.543274 0.258881 0.437195
0.042847 0.242004 0.373016
0.045959 0.239563 0.359009
0.070953 0.245972 0.351410
0.084839 0.233337 0.362274
0.137970 0.242462 0.398712
0.277283 0.267822 0.428864
0.402039 0.289581 0.454041
0.500305 0.303589 0.467621
0.590973 0.305664 0.471619
0.050781 0.306366 0.421082
0.064972 0.310303 0.411926
0.099854 0.319244 0.412262
0.128418 0.314484 0.413513
0.162018 0.307922 0.431152
0.279266 0.327240 0.467285
0.431305 0.356567 0.498352
0.550873 0.376251 0.515015
0.644165 0.366455 0.509247
0.061310 0.357391 0.459412
0.088623 0.373199 0.458893
0.137512 0.387848 0.462616
0.186218 0.396484 0.470703
0.219238 0.396271 0.484955
0.314941 0.403900 0.505737
0.467804 0.432343 0.540741
0.602509 0.461029 0.561554
0.692291 0.439453 0.546478
0.069916 0.393402 0.486420
0.109467 0.419220 0.492981
0.179535 0.452057 0.507507
0.253357 0.477020 0.523193
0.313751 0.492035 0.543121
0.368988 0.499634 0.560760
0.515015 0.519623 0.583282
0.661682 0.550507 0.610382
0.743347 0.532623 0.593750
0.075745 0.425507 0.511475
0.121948 0.460052 0.525055
0.207489 0.504120 0.545319
0.307373 0.540955 0.567566
0.398346 0.574219 0.593353
0.492920 0.603149 0.619720
0.598297 0.632050 0.647522
0.748077 0.664978 0.680573
0.805176 0.656738 0.664307
0.086304 0.455627 0.535858
0.130463 0.491638 0.551514
0.221191 0.546082 0.580139
0.339996 0.597504 0.609436
0.456879 0.644073 0.641876
0.572601 0.686584 0.673981
0.696350 0.735046 0.715698
0.813599 0.778168 0.751709
0.864166 0.786987 0.759247
0.091370 0.479736 0.559509
0.132294 0.520203 0.578949
0.209198 0.576843 0.610229
0.330811 0.635986 0.644897
0.469330 0.690826 0.684113
0.619141 0.742218 0.722839
0.750153 0.787140 0.760956
0.845978 0.823486 0.792480
0.876740 0.836609 0.809235
0.037628 0.144348 0.276245
0.037292 0.130127 0.261627
0.038635 0.126892 0.272888
0.041016 0.125580 0.297852
0.100891 0.154541 0.327393
0.230408 0.176910 0.365082
0.318848 0.188995 0.387787
0.397430 0.201141 0.405304
0.480469 0.214783 0.422089
0.040649 0.184692 0.330780
0.039581 0.169617 0.310913
0.039612 0.157410 0.300659
0.042938 0.162079 0.320007
0.066315 0.176025 0.350891
0.181213 0.198578 0.388672
0.302734 0.218079 0.419220
0.404755 0.232025 0.440582
0.505859 0.248718 0.457672
0.043335 0.236572 0.380219
0.041992 0.219025 0.361389
0.042236 0.210907 0.351044
0.044281 0.198914 0.349091
0.053162 0.204132 0.374664
0.121826 0.226593 0.412231
0.269623 0.251526 0.448822
0.416931 0.273743 0.478760
0.539581 0.292664 0.496063
0.046967 0.291473 0.425629
0.048248 0.284393 0.412079
0.051056 0.274689 0.400269
0.055786 0.263763 0.392944
0.060242 0.251038 0.400208
0.085175 0.263428 0.437927
0.246613 0.295868 0.477448
0.436646 0.329773 0.517670
0.579620 0.351440 0.536499
0.054321 0.345825 0.463074
0.061798 0.346405 0.454895
0.069977 0.340851 0.447998
0.081787 0.336792 0.446045
0.084015 0.319672 0.442352
0.109283 0.318604 0.463379
0.215149 0.346313 0.509064
0.450928 0.389740 0.551788
0.619720 0.424713 0.574890
0.062592 0.384186 0.489075
0.078705 0.394836 0.487671
0.104675 0.407104 0.491852
0.127258 0.413483 0.496643
0.141327 0.412628 0.504333
0.149597 0.402740 0.511414
0.226166 0.418060 0.546997
0.478973 0.468567 0.588318
0.675690 0.517334 0.621765
0.070099 0.414734 0.510315
0.096466 0.438416 0.519012
0.141479 0.466766 0.532928
0.187592 0.490234 0.547882
0.230713 0.510254 0.565582
0.277374 0.529938 0.587860
0.338470 0.541473 0.610809
0.540588 0.582245 0.644531
0.755951 0.638275 0.688477
0.076599 0.442230 0.532532
0.108856 0.473328 0.546631
0.165680 0.515869 0.569641
0.243134 0.555878 0.594879
0.335175 0.596893 0.623657
0.433472 0.638641 0.655334
0.567627 0.686279 0.694183
0.722565 0.740173 0.742859
0.852081 0.780365 0.780426
0.083008 0.467834 0.555511
0.111603 0.498230 0.569550
0.166351 0.546173 0.596802
0.247070 0.598114 0.628235
0.353516 0.650208 0.662506
0.500244 0.705688 0.703156
0.687042 0.770599 0.756165
0.828796 0.821136 0.802490
0.875275 0.838074 0.818298
