滤镜资源/Professional Luts Collection/Lutify.me Professional/Cine Looks/Petalite.cube
# Created by: Lutify.me
# Copyright: (c) Copyright Lutify.me 2015
# Website: https://lutify.me
#LUT size
LUT_3D_SIZE 5
#LUT data points
0.000000 0.000000 0.000000
0.261871 0.000000 0.000000
0.440704 0.000000 0.000000
0.522736 0.000000 0.000000
0.573120 0.000000 0.000000
0.037537 0.166351 0.000000
0.225311 0.197845 0.000000
0.443665 0.223450 0.000000
0.594849 0.228363 0.000000
0.674866 0.224426 0.000000
0.177887 0.352386 0.000000
0.321136 0.381897 0.000000
0.501984 0.411438 0.000000
0.654144 0.425201 0.000000
0.745026 0.429138 0.000000
0.345856 0.537415 0.105347
0.432800 0.552185 0.082703
0.568176 0.573822 0.052185
0.697601 0.588562 0.010864
0.787506 0.593506 0.000000
0.494049 0.673218 0.244110
0.552368 0.685059 0.236237
0.656097 0.700806 0.218536
0.744019 0.712585 0.196869
0.826050 0.720459 0.181122
0.007904 0.000000 0.185059
0.227295 0.000000 0.157501
0.450592 0.000000 0.132904
0.557312 0.000000 0.117157
0.615601 0.000000 0.114197
0.000000 0.143738 0.120117
0.216400 0.240173 0.224426
0.466370 0.259857 0.200806
0.625458 0.258881 0.178162
0.714386 0.252960 0.161438
0.069183 0.388794 0.251984
0.296448 0.428162 0.261841
0.497986 0.449799 0.242157
0.665009 0.463593 0.218536
0.769714 0.469482 0.202789
0.323120 0.583679 0.323822
0.422913 0.598450 0.313019
0.574097 0.618103 0.295288
0.706482 0.629913 0.274628
0.803314 0.639771 0.262817
0.490082 0.707672 0.390747
0.556305 0.716553 0.383881
0.660034 0.731293 0.373047
0.747986 0.743103 0.356323
0.829987 0.750977 0.343506
0.000000 0.003967 0.340576
0.214447 0.002014 0.343506
0.460449 0.000000 0.344513
0.586945 0.000000 0.331696
0.650177 0.000000 0.326782
0.000000 0.238220 0.402557
0.208496 0.271667 0.434052
0.471313 0.289398 0.427185
0.642273 0.289398 0.416351
0.734161 0.289398 0.410431
0.000000 0.261841 0.263794
0.107697 0.412415 0.407501
0.509888 0.496063 0.474426
0.683777 0.511810 0.467529
0.788483 0.517731 0.458679
0.029633 0.464569 0.349426
0.310272 0.576782 0.442932
0.581024 0.666351 0.515778
0.714386 0.677155 0.501984
0.815155 0.685028 0.495087
0.413025 0.700775 0.505920
0.529633 0.741150 0.542328
0.665985 0.769684 0.557098
0.755890 0.780518 0.545288
0.833954 0.785431 0.533478
0.000000 0.087616 0.462616
0.223328 0.090576 0.493103
0.474274 0.078766 0.505920
0.614624 0.038422 0.501984
0.684753 0.044312 0.498016
0.000000 0.279541 0.539368
0.217407 0.306122 0.573822
0.493073 0.326782 0.584656
0.655121 0.321869 0.577759
0.746002 0.319885 0.574799
0.000000 0.403564 0.531494
0.170959 0.473419 0.596466
0.529633 0.533478 0.638763
0.687714 0.539368 0.633850
0.790466 0.542328 0.627930
0.000000 0.356323 0.372070
0.002960 0.471466 0.471466
0.454529 0.668304 0.635834
0.721313 0.714539 0.670288
0.818146 0.719482 0.663391
0.000000 0.497040 0.404541
0.155121 0.589569 0.473419
0.514801 0.722412 0.599396
0.748993 0.804138 0.683044
0.833954 0.814941 0.686035
0.000000 0.173248 0.555115
0.244080 0.188995 0.597443
0.500000 0.188995 0.618103
0.642273 0.177185 0.618103
0.715393 0.165375 0.614197
0.000000 0.327759 0.625000
0.255920 0.355316 0.659454
0.516785 0.373047 0.676178
0.674866 0.367126 0.680115
0.757874 0.362213 0.672241
0.000000 0.484253 0.665344
0.268768 0.526581 0.699799
0.551361 0.566925 0.728333
0.705505 0.571869 0.730316
0.796387 0.568909 0.724426
0.000000 0.534454 0.621063
0.086945 0.581696 0.658478
0.520752 0.693878 0.738190
0.733185 0.737183 0.760803
0.822083 0.742126 0.759827
0.000000 0.433075 0.448822
0.000000 0.517731 0.529510
0.292480 0.677155 0.653534
0.678833 0.812012 0.760803
0.833954 0.834656 0.779541
