滤镜资源/Professional Luts Collection/Lutify.me Professional/Cine Looks/Petalite.cube
# Created by: Lutify.me
# Copyright: (c) Copyright Lutify.me 2015
# Website: https://lutify.me
#LUT size
LUT_3D_SIZE 33
#LUT data points
0.000000 0.000000 0.000000
0.023346 0.003845 0.003967
0.057800 0.003967 0.003967
0.085449 0.007538 0.003967
0.123505 0.007904 0.000519
0.155029 0.007904 0.000031
0.194702 0.003967 0.000000
0.230621 0.000031 0.000000
0.261871 0.000000 0.000000
0.288025 0.000000 0.000000
0.316467 0.000000 0.000000
0.346344 0.000000 0.000000
0.375000 0.000000 0.000000
0.395996 0.000000 0.000000
0.413757 0.000000 0.000000
0.427124 0.000000 0.000000
0.440704 0.000000 0.000000
0.454285 0.000000 0.000000
0.465912 0.000000 0.000000
0.481445 0.000000 0.000000
0.491577 0.000000 0.000000
0.499359 0.000000 0.000000
0.507172 0.000000 0.000000
0.514923 0.000000 0.000000
0.522736 0.000000 0.000000
0.526550 0.000000 0.000000
0.534332 0.000000 0.000000
0.541504 0.000000 0.000000
0.545929 0.000000 0.000000
0.553711 0.000000 0.000000
0.561249 0.000000 0.000000
0.565338 0.000000 0.000000
0.573120 0.000000 0.000000
0.011719 0.007629 0.003845
0.011871 0.007751 0.003967
0.023468 0.007751 0.003967
0.038940 0.007782 0.003967
0.062378 0.011719 0.003967
0.089294 0.011719 0.003967
0.119934 0.011719 0.003845
0.147980 0.014771 0.000031
0.189758 0.012451 0.000000
0.224823 0.011475 0.000000
0.254120 0.007629 0.000000
0.281403 0.003845 0.000000
0.311157 0.000000 0.000000
0.338440 0.000000 0.000000
0.369324 0.000000 0.000000
0.394165 0.000000 0.000000
0.413391 0.000000 0.000000
0.430817 0.000000 0.000000
0.446381 0.000000 0.000000
0.461823 0.000000 0.000000
0.477234 0.000000 0.000000
0.488983 0.000000 0.000000
0.504456 0.000000 0.000000
0.514801 0.000000 0.000000
0.526428 0.000000 0.000000
0.534332 0.000000 0.000000
0.541992 0.000000 0.000000
0.550385 0.000000 0.000000
0.557556 0.000000 0.000000
0.565338 0.000000 0.000000
0.572845 0.000000 0.000000
0.576935 0.000000 0.000000
0.584717 0.000000 0.000000
0.011871 0.030548 0.003967
0.019379 0.023041 0.003967
0.027191 0.022919 0.003967
0.042511 0.026611 0.003967
0.069153 0.030304 0.003967
0.089020 0.030792 0.003967
0.119324 0.034515 0.003967
0.150208 0.038788 0.000885
0.181854 0.044556 0.000031
0.219727 0.044067 0.000000
0.251007 0.038177 0.000000
0.279144 0.037933 0.000000
0.307556 0.035492 0.000000
0.334839 0.031403 0.000000
0.363129 0.027618 0.000000
0.391785 0.020111 0.000000
0.418701 0.016541 0.000000
0.436371 0.011139 0.000000
0.455505 0.009155 0.000000
0.471436 0.007416 0.000000
0.484894 0.008148 0.000000
0.496521 0.003723 0.000000
0.513336 0.003723 0.000000
0.526306 0.000031 0.000000
0.538025 0.000000 0.000000
0.545807 0.000000 0.000000
0.557556 0.000031 0.000000
0.565338 0.000000 0.000000
0.573120 0.000000 0.000000
0.580261 0.003357 0.000000
0.588165 0.000031 0.000000
0.592529 0.000031 0.000000
0.600311 0.000031 0.000000
0.011871 0.053680 0.007507
0.023224 0.050110 0.003967
0.034729 0.049866 0.003967
0.054230 0.054047 0.003967
0.073730 0.054169 0.003967
0.096558 0.057617 0.003967
0.123169 0.061554 0.003967
0.157745 0.068542 0.000031
0.189362 0.070404 0.000000
0.222961 0.072998 0.000000
0.255951 0.074219 0.000000
0.286682 0.075928 0.000000
0.314972 0.076935 0.000000
0.341034 0.072998 0.000000
0.367340 0.071747 0.000000
0.397858 0.068665 0.000000
0.424530 0.064758 0.000000
0.445618 0.062531 0.000000
0.463654 0.058716 0.000000
0.481079 0.060822 0.000000
0.494781 0.056366 0.000000
0.508270 0.048615 0.000000
0.522217 0.044678 0.000000
0.535431 0.043213 0.000000
0.549652 0.041992 0.000000
0.561371 0.042236 0.000000
0.569885 0.034760 0.000000
0.577301 0.029694 0.000000
0.588196 0.029694 0.000000
0.595703 0.036072 0.000000
0.600281 0.025757 0.000000
0.608063 0.025391 0.000000
0.612274 0.025391 0.000000
0.011871 0.073364 0.003967
0.026917 0.073730 0.003967
0.039032 0.073608 0.003967
0.061615 0.080475 0.003967
0.084473 0.084167 0.003967
0.104340 0.084534 0.000641
0.131439 0.088348 0.000519
0.162445 0.095612 0.000000
0.195679 0.098938 0.000000
0.226654 0.099792 0.000000
0.261871 0.106323 0.000000
0.294464 0.108307 0.000000
0.321655 0.107788 0.000000
0.346436 0.104370 0.000000
0.372528 0.106567 0.000000
0.401550 0.106201 0.000000
0.426849 0.103851 0.000000
0.454041 0.105682 0.000000
0.471069 0.099915 0.000000
0.492798 0.100677 0.000000
0.504456 0.097473 0.000000
0.518158 0.096222 0.000000
0.531616 0.093781 0.000000
0.543213 0.090424 0.000000
0.558777 0.088623 0.000000
0.570374 0.088470 0.000000
0.580780 0.083679 0.000000
0.589050 0.084167 0.000000
0.600281 0.083679 0.000000
0.608063 0.083557 0.000000
0.612640 0.080750 0.000000
0.620178 0.080231 0.000000
0.627441 0.080231 0.000000
0.015198 0.096588 0.003967
0.030762 0.096588 0.003967
0.053345 0.103607 0.003967
0.069397 0.104095 0.000641
0.092255 0.111237 0.000519
0.119415 0.115631 0.000031
0.143280 0.119354 0.000000
0.170471 0.119965 0.000000
0.200958 0.126129 0.000000
0.234924 0.130890 0.000000
0.267181 0.131378 0.000000
0.302246 0.137177 0.000000
0.326935 0.136200 0.000000
0.352631 0.136322 0.000000
0.380432 0.140411 0.000000
0.405151 0.140778 0.000000
0.432190 0.140015 0.000000
0.458588 0.138641 0.000000
0.480438 0.135345 0.000000
0.500610 0.137665 0.000000
0.513702 0.133240 0.000000
0.529755 0.135315 0.000000
0.541473 0.130768 0.000000
0.554932 0.131378 0.000000
0.569885 0.133514 0.000000
0.581268 0.127472 0.000000
0.592987 0.130035 0.000000
0.604095 0.129547 0.000000
0.612518 0.123505 0.000000
0.619659 0.123291 0.000000
0.627441 0.126862 0.000000
0.635101 0.126740 0.000000
0.639679 0.123505 0.000000
0.019775 0.120605 0.000763
0.038422 0.119965 0.000763
0.057800 0.123535 0.000244
0.077179 0.127350 0.000000
0.101013 0.131683 0.000000
0.123871 0.135010 0.000000
0.147247 0.138794 0.000000
0.178497 0.146667 0.000000
0.209503 0.151337 0.000000
0.239502 0.157745 0.000000
0.273987 0.158020 0.000000
0.306824 0.163177 0.000000
0.333984 0.163147 0.000000
0.358063 0.169556 0.000000
0.385376 0.170288 0.000000
0.409454 0.168213 0.000000
0.436737 0.171539 0.000000
0.465881 0.174255 0.000000
0.488861 0.171783 0.000000
0.506042 0.171173 0.000000
0.523956 0.172791 0.000000
0.539520 0.168945 0.000000
0.554321 0.169556 0.000000
0.562744 0.166748 0.000000
0.578278 0.168579 0.000000
0.589905 0.163300 0.000000
0.603973 0.162415 0.000000
0.613129 0.162292 0.000000
0.623505 0.161682 0.000000
0.632019 0.162415 0.000000
0.639801 0.162659 0.000000
0.646729 0.161560 0.000000
0.654602 0.162415 0.000000
0.026825 0.140045 0.000000
0.049255 0.146057 0.000000
0.068909 0.147034 0.000000
0.089417 0.150970 0.000000
0.111786 0.157501 0.000000
0.134979 0.158478 0.000000
0.158234 0.162048 0.000000
0.186279 0.169800 0.000000
0.216522 0.174591 0.000000
0.246796 0.180511 0.000000
0.282379 0.185181 0.000000
0.311249 0.186401 0.000000
0.341034 0.191956 0.000000
0.363525 0.193420 0.000000
0.389191 0.196503 0.000000
0.413391 0.198212 0.000000
0.439850 0.198486 0.000000
0.467987 0.199463 0.000000
0.493958 0.200806 0.000000
0.513855 0.199829 0.000000
0.531738 0.202148 0.000000
0.547302 0.199951 0.000000
0.561615 0.201294 0.000000
0.574463 0.201294 0.000000
0.588165 0.199463 0.000000
0.601624 0.201294 0.000000
0.613251 0.197357 0.000000
0.624878 0.196503 0.000000
0.633362 0.194794 0.000000
0.639801 0.193420 0.000000
0.651520 0.197357 0.000000
0.659302 0.197357 0.000000
0.666229 0.197357 0.000000
0.037537 0.166351 0.000000
0.060883 0.166351 0.000000
0.083496 0.170288 0.000000
0.100647 0.173859 0.000000
0.123016 0.178162 0.000000
0.143982 0.182098 0.000000
0.169708 0.188507 0.000000
0.197144 0.193054 0.000000
0.225311 0.197845 0.000000
0.255310 0.204498 0.000000
0.283844 0.205719 0.000000
0.318665 0.213593 0.000000
0.346344 0.216553 0.000000
0.369659 0.219269 0.000000
0.394012 0.219269 0.000000
0.420319 0.223572 0.000000
0.443665 0.223450 0.000000
0.471954 0.225403 0.000000
0.497498 0.227631 0.000000
0.519989 0.229340 0.000000
0.539520 0.229340 0.000000
0.555084 0.227753 0.000000
0.569397 0.229340 0.000000
0.582245 0.229340 0.000000
0.594849 0.228363 0.000000
0.607330 0.228363 0.000000
0.621033 0.225159 0.000000
0.633606 0.228363 0.000000
0.641266 0.225403 0.000000
0.651520 0.224426 0.000000
0.659576 0.225403 0.000000
0.670044 0.224426 0.000000
0.674866 0.224426 0.000000
0.050262 0.185669 0.000000
0.073486 0.189606 0.000000
0.095856 0.193542 0.000000
0.115234 0.197479 0.000000
0.135101 0.200775 0.000000
0.155151 0.205353 0.000000
0.180603 0.211395 0.000000
0.208374 0.216034 0.000000
0.235077 0.220123 0.000000
0.259247 0.223907 0.000000
0.294342 0.228973 0.000000
0.325470 0.236847 0.000000
0.350159 0.239655 0.000000
0.376343 0.239655 0.000000
0.402527 0.244720 0.000000
0.426239 0.246796 0.000000
0.450562 0.249786 0.000000
0.477600 0.252594 0.000000
0.503204 0.252594 0.000000
0.526184 0.253815 0.000000
0.543335 0.255402 0.000000
0.562866 0.255402 0.000000
0.577179 0.256531 0.000000
0.588928 0.255402 0.000000
0.601624 0.255402 0.000000
0.613251 0.255402 0.000000
0.628815 0.255402 0.000000
0.639801 0.252594 0.000000
0.651520 0.252594 0.000000
0.662140 0.251495 0.000000
0.667328 0.248901 0.000000
0.678833 0.252472 0.000000
0.685486 0.251495 0.000000
0.068665 0.208923 0.000000
0.089294 0.210022 0.000000
0.111420 0.216553 0.000000
0.127228 0.220367 0.000000
0.147461 0.224670 0.000000
0.170227 0.228607 0.000000
0.192963 0.232544 0.000000
0.217529 0.239563 0.000000
0.243591 0.243378 0.000000
0.273834 0.251129 0.000000
0.304840 0.254944 0.000000
0.333252 0.260101 0.000000
0.357941 0.263794 0.000000
0.384857 0.266388 0.000000
0.411316 0.267975 0.000000
0.433777 0.271912 0.000000
0.455780 0.273895 0.000000
0.481323 0.275848 0.000000
0.508881 0.277557 0.000000
0.530487 0.279785 0.000000
0.549896 0.278564 0.000000
0.566681 0.278564 0.000000
0.584961 0.279785 0.000000
0.596710 0.279785 0.000000
0.608429 0.279785 0.000000
0.621033 0.279785 0.000000
0.633881 0.279785 0.000000
0.647583 0.279175 0.000000
0.659821 0.279785 0.000000
0.671051 0.279785 0.000000
0.677582 0.278564 0.000000
0.686737 0.279785 0.000000
0.697113 0.278564 0.000000
0.086823 0.232178 0.000000
0.107574 0.235992 0.000000
0.124359 0.239807 0.000000
0.142792 0.241028 0.000000
0.162323 0.244843 0.000000
0.182587 0.248657 0.000000
0.204559 0.255066 0.000000
0.229279 0.259735 0.000000
0.255554 0.264038 0.000000
0.282501 0.270447 0.000000
0.313873 0.275604 0.000000
0.341034 0.279419 0.000000
0.365723 0.283356 0.000000
0.392761 0.287292 0.000000
0.416351 0.291229 0.000000
0.439728 0.294678 0.000000
0.459717 0.295166 0.000000
0.486389 0.299103 0.000000
0.513702 0.299103 0.000000
0.537048 0.303040 0.000000
0.554962 0.303040 0.000000
0.574463 0.303040 0.000000
0.591370 0.305634 0.000000
0.604462 0.305634 0.000000
0.616211 0.305634 0.000000
0.628815 0.305634 0.000000
0.641785 0.305634 0.000000
0.655365 0.306976 0.000000
0.667084 0.305634 0.000000
0.678833 0.306976 0.000000
0.686615 0.305634 0.000000
0.696991 0.305634 0.000000
0.706116 0.305634 0.000000
0.106232 0.255432 0.000000
0.123260 0.259247 0.000000
0.138824 0.259369 0.000000
0.157990 0.263306 0.000000
0.173950 0.267242 0.000000
0.193451 0.271179 0.000000
0.219391 0.275116 0.000000
0.243469 0.282135 0.000000
0.267303 0.286926 0.000000
0.294464 0.291229 0.000000
0.323853 0.297516 0.000000
0.350159 0.302673 0.000000
0.375000 0.306610 0.000000
0.396851 0.308960 0.000000
0.422668 0.310547 0.000000
0.447113 0.314484 0.000000
0.466858 0.317932 0.000000
0.493561 0.320282 0.000000
0.520752 0.322357 0.000000
0.541748 0.326294 0.000000
0.562744 0.326294 0.000000
0.581146 0.327637 0.000000
0.597809 0.330231 0.000000
0.612244 0.330231 0.000000
0.623993 0.330231 0.000000
0.636597 0.330231 0.000000
0.649933 0.330231 0.000000
0.663757 0.330231 0.000000
0.674866 0.330719 0.000000
0.686615 0.332703 0.000000
0.696869 0.332703 0.000000
0.704651 0.332703 0.000000
0.713898 0.334167 0.000000
0.123260 0.278656 0.000000
0.138824 0.282501 0.000000
0.156738 0.284943 0.000000
0.169983 0.286560 0.000000
0.189484 0.290497 0.000000
0.208984 0.294403 0.000000
0.230255 0.299225 0.000000
0.255066 0.305389 0.000000
0.279022 0.309174 0.000000
0.306183 0.313507 0.000000
0.334625 0.321991 0.000000
0.357941 0.324554 0.000000
0.385132 0.327515 0.000000
0.406952 0.329865 0.000000
0.428101 0.333771 0.000000
0.451324 0.337494 0.000000
0.476257 0.341278 0.000000
0.500977 0.341644 0.000000
0.524689 0.347321 0.000000
0.550262 0.349548 0.000000
0.569641 0.349518 0.000000
0.586060 0.349518 0.000000
0.604462 0.353485 0.000000
0.618805 0.353485 0.000000
0.631775 0.353485 0.000000
0.643494 0.353485 0.000000
0.655975 0.353485 0.000000
0.669189 0.353485 0.000000
0.682648 0.353973 0.000000
0.694397 0.357391 0.000000
0.706116 0.357391 0.000000
0.713898 0.357391 0.000000
0.721680 0.357391 0.000000
0.142761 0.305847 0.000000
0.156616 0.305756 0.000000
0.173676 0.309570 0.000000
0.185547 0.309814 0.000000
0.204559 0.313721 0.000000
0.226166 0.319885 0.000000
0.245575 0.321625 0.000000
0.269775 0.328613 0.000000
0.291748 0.333435 0.000000
0.317291 0.336273 0.000000
0.341644 0.341797 0.000000
0.369690 0.346619 0.000000
0.393036 0.349182 0.000000
0.416351 0.355316 0.000000
0.439697 0.357056 0.000000
0.461212 0.359131 0.000000
0.482422 0.361237 0.000000
0.503693 0.364929 0.000000
0.533081 0.368866 0.000000
0.554718 0.368866 0.000000
0.574341 0.372803 0.000000
0.593842 0.374512 0.000000
0.609406 0.375488 0.000000
0.625000 0.376740 0.000000
0.639557 0.376740 0.000000
0.651276 0.378479 0.000000
0.662994 0.378479 0.000000
0.675354 0.378937 0.000000
0.688721 0.378448 0.000000
0.698578 0.378479 0.000000
0.710205 0.380676 0.000000
0.721680 0.378479 0.000000
0.729462 0.380676 0.000000
0.158356 0.327271 0.000031
0.173950 0.330841 0.000031
0.189514 0.332825 0.000000
0.205048 0.336639 0.000000
0.220612 0.337006 0.000000
0.242218 0.343658 0.000000
0.258911 0.346954 0.000000
0.285217 0.351776 0.000000
0.308533 0.357788 0.000000
0.331757 0.362335 0.000000
0.356842 0.367249 0.000000
0.379547 0.368500 0.000000
0.402283 0.372437 0.000000
0.424164 0.375000 0.000000
0.447479 0.378571 0.000000
0.468994 0.382416 0.000000
0.490326 0.386322 0.000000
0.513580 0.388184 0.000000
0.539154 0.392120 0.000000
0.562622 0.394440 0.000000
0.581512 0.396057 0.000000
0.601624 0.397400 0.000000
0.617218 0.398163 0.000000
0.633759 0.399139 0.000000
0.645355 0.400970 0.000000
0.659058 0.403931 0.000000
0.667572 0.399994 0.000000
0.682526 0.399994 0.000000
0.698212 0.403442 0.000000
0.706360 0.402069 0.000000
0.717987 0.403931 0.000000
0.729462 0.402069 0.000000
0.737244 0.404175 0.000000
0.177887 0.352386 0.000000
0.191467 0.352386 0.000000
0.205048 0.356323 0.000000
0.224182 0.363434 0.000000
0.239624 0.363708 0.000000
0.255676 0.364807 0.000000
0.277161 0.372070 0.000000
0.300018 0.377106 0.000000
0.321136 0.381897 0.000000
0.346466 0.385834 0.000000
0.367828 0.389771 0.000000
0.391174 0.393707 0.000000
0.412537 0.396179 0.000000
0.433533 0.399628 0.000000
0.457245 0.405518 0.000000
0.478607 0.405640 0.000000
0.501984 0.411438 0.000000
0.521484 0.411438 0.000000
0.546417 0.414886 0.000000
0.568054 0.415375 0.000000
0.589905 0.421753 0.000000
0.608795 0.423248 0.000000
0.625000 0.423248 0.000000
0.640533 0.425201 0.000000
0.654144 0.425201 0.000000
0.665710 0.426056 0.000000
0.677338 0.425934 0.000000
0.689575 0.425812 0.000000
0.702545 0.427185 0.000000
0.715759 0.429138 0.000000
0.725769 0.429138 0.000000
0.737244 0.429138 0.000000
0.745026 0.429138 0.000000
0.199219 0.379547 0.009735
0.212799 0.379425 0.007660
0.226410 0.381409 0.005798
0.241974 0.387054 0.005798
0.254089 0.387421 0.004181
0.272461 0.389282 0.001862
0.291382 0.394562 0.000000
0.312500 0.401459 0.000000
0.336700 0.406128 0.000000
0.357086 0.407837 0.000000
0.379425 0.411682 0.000000
0.402771 0.417572 0.000000
0.422180 0.417450 0.000000
0.443665 0.421265 0.000000
0.463409 0.423248 0.000000
0.486145 0.428619 0.000000
0.505920 0.430878 0.000000
0.530975 0.434662 0.000000
0.556427 0.438599 0.000000
0.578156 0.440948 0.000000
0.597687 0.442566 0.000000
0.614594 0.444397 0.000000
0.632751 0.442566 0.000000
0.647217 0.448578 0.000000
0.658936 0.447479 0.000000
0.673615 0.450409 0.000000
0.684509 0.449677 0.000000
0.695984 0.448334 0.000000
0.709839 0.450409 0.000000
0.721558 0.450409 0.000000
0.733276 0.452484 0.000000
0.741058 0.452148 0.000000
0.752808 0.454376 0.000000
0.218628 0.402832 0.015747
0.232330 0.402679 0.011963
0.244324 0.406738 0.011841
0.255707 0.408600 0.008270
0.271240 0.410187 0.007904
0.289032 0.412903 0.003967
0.308533 0.416870 0.000763
0.329803 0.422516 0.000000
0.351044 0.426453 0.000000
0.369934 0.428650 0.000000
0.392273 0.434326 0.000000
0.411774 0.437378 0.000000
0.433777 0.442200 0.000000
0.453156 0.444519 0.000000
0.470825 0.446106 0.000000
0.492462 0.448212 0.000000
0.515564 0.452026 0.000000
0.538635 0.455688 0.000000
0.564209 0.457947 0.000000
0.585938 0.461884 0.000000
0.601501 0.464111 0.000000
0.621033 0.465820 0.000000
0.637817 0.467529 0.000000
0.652161 0.467529 0.000000
0.666718 0.469727 0.000000
0.677582 0.468872 0.000000
0.686981 0.469757 0.000000
0.701935 0.469727 0.000000
0.714142 0.469757 0.000000
0.727966 0.472321 0.000000
0.737366 0.471466 0.000000
0.748840 0.473694 0.000000
0.756622 0.473694 0.000000
0.240356 0.424469 0.017365
0.253601 0.426056 0.012817
0.265472 0.429749 0.011108
0.277191 0.429993 0.008759
0.292358 0.433441 0.008759
0.306946 0.436157 0.004822
0.325867 0.441803 0.004822
0.346954 0.444885 0.003204
0.363861 0.448700 0.003204
0.383270 0.450928 0.001617
0.403900 0.454742 0.001617
0.423401 0.457581 0.001617
0.442169 0.459900 0.000000
0.462433 0.463104 0.000000
0.484283 0.466064 0.000000
0.501495 0.467529 0.000000
0.525330 0.473297 0.000000
0.548401 0.477234 0.000000
0.571991 0.481171 0.000000
0.591400 0.481171 0.000000
0.609283 0.484985 0.000000
0.628571 0.485107 0.000000
0.644379 0.487457 0.000000
0.658813 0.489044 0.000000
0.670563 0.489044 0.000000
0.684631 0.491394 0.000000
0.694031 0.491394 0.000000
0.706390 0.492981 0.000000
0.720306 0.492981 0.000000
0.730804 0.490662 0.000000
0.744904 0.492981 0.000000
0.752686 0.495331 0.000000
0.764404 0.495331 0.000000
0.261383 0.449310 0.035950
0.275452 0.449310 0.032135
0.284851 0.453003 0.032013
0.296570 0.453247 0.030548
0.310272 0.457184 0.028564
0.325226 0.460510 0.026611
0.344604 0.464325 0.024872
0.360931 0.466675 0.022675
0.376465 0.467529 0.019714
0.395966 0.472931 0.017242
0.414276 0.474426 0.013306
0.434998 0.479462 0.011841
0.453033 0.481781 0.007904
0.470947 0.484741 0.003967
0.490356 0.488678 0.001740
0.510101 0.489288 0.000000
0.530640 0.493103 0.000000
0.556427 0.496552 0.000000
0.577301 0.500488 0.000000
0.599182 0.504456 0.000000
0.617065 0.504456 0.000000
0.632629 0.506927 0.000000
0.651886 0.508392 0.000000
0.666595 0.508392 0.000000
0.677856 0.510834 0.000000
0.689453 0.510834 0.000000
0.701050 0.511566 0.000000
0.713531 0.512329 0.000000
0.725250 0.512329 0.000000
0.737000 0.514801 0.000000
0.748718 0.515045 0.000000
0.760468 0.516266 0.000000
0.768250 0.513794 0.000000
0.280762 0.472565 0.053925
0.294952 0.472565 0.052551
0.306580 0.476501 0.049957
0.315948 0.476501 0.048615
0.329285 0.479950 0.044678
0.342743 0.483765 0.042694
0.358307 0.484375 0.037537
0.375122 0.488312 0.033722
0.391052 0.491272 0.028564
0.407562 0.495087 0.023651
0.427124 0.498901 0.016998
0.445282 0.500122 0.013184
0.464661 0.504059 0.009369
0.482666 0.505066 0.005554
0.501221 0.507996 0.001740
0.517548 0.511932 0.000000
0.540863 0.515900 0.000000
0.563721 0.519806 0.000000
0.583984 0.520172 0.000000
0.605347 0.523743 0.000000
0.624847 0.526337 0.000000
0.640411 0.527679 0.000000
0.658569 0.527679 0.000000
0.671539 0.530273 0.000000
0.682159 0.531250 0.000000
0.693909 0.531616 0.000000
0.705627 0.531616 0.000000
0.717377 0.534180 0.000000
0.729584 0.534180 0.000000
0.741180 0.534576 0.000000
0.755402 0.535553 0.000000
0.764282 0.535553 0.000000
0.774658 0.535553 0.000000
0.302856 0.495819 0.069427
0.317078 0.498383 0.065460
0.326080 0.499756 0.061554
0.337677 0.499756 0.057953
0.349304 0.503693 0.054169
0.360901 0.505798 0.050354
0.375244 0.509613 0.044556
0.388092 0.510712 0.038788
0.403625 0.513306 0.031036
0.423157 0.515503 0.023285
0.440186 0.519440 0.016754
0.457001 0.523376 0.011597
0.473785 0.524628 0.010345
0.493317 0.527313 0.006561
0.509399 0.531250 0.004944
0.529266 0.532135 0.004944
0.549896 0.535187 0.003693
0.571991 0.539124 0.003693
0.591400 0.540863 0.003693
0.613129 0.543060 0.003693
0.628693 0.546997 0.003693
0.648193 0.546997 0.002472
0.663757 0.549713 0.002472
0.678223 0.550934 0.002472
0.689697 0.550934 0.002472
0.698578 0.550934 0.001251
0.709473 0.550934 0.000488
0.724518 0.554260 0.000000
0.732910 0.553650 0.000000
0.747742 0.554871 0.000000
0.759338 0.554871 0.000000
0.770844 0.554901 0.000000
0.778625 0.554871 0.000000
0.326324 0.517944 0.087738
0.335236 0.519073 0.082214
0.345612 0.521667 0.078400
0.354736 0.523010 0.075684
0.365356 0.525360 0.070770
0.374237 0.525848 0.066956
0.388824 0.529053 0.062408
0.403656 0.532837 0.059570
0.419189 0.533691 0.051575
0.434753 0.536560 0.044922
0.450348 0.540344 0.043823
0.468719 0.541565 0.039886
0.485657 0.545532 0.040253
0.499878 0.547852 0.035950
0.518799 0.550568 0.034851
0.538177 0.553406 0.030914
0.559509 0.556488 0.030914
0.580902 0.559174 0.026978
0.601410 0.561279 0.028076
0.617432 0.562866 0.024261
0.636475 0.565186 0.020813
0.652008 0.566559 0.016876
0.667694 0.569153 0.015778
0.683167 0.570251 0.011841
0.694763 0.570129 0.008026
0.705505 0.570251 0.007050
0.717255 0.573059 0.003235
0.728455 0.573059 0.000031
0.740082 0.573578 0.000031
0.751678 0.573059 0.000031
0.763306 0.574188 0.000000
0.774780 0.577026 0.000000
0.782562 0.574188 0.000000
0.345856 0.537415 0.105347
0.353638 0.537415 0.101532
0.365112 0.541077 0.101410
0.370178 0.541962 0.098450
0.380432 0.541321 0.094025
0.392029 0.545654 0.094513
0.403625 0.548462 0.090576
0.417114 0.549194 0.084412
0.432800 0.552185 0.082703
0.447479 0.555237 0.077057
0.460968 0.557068 0.073822
0.476501 0.559692 0.071503
0.492065 0.561035 0.067444
0.508667 0.565948 0.064606
0.529877 0.568909 0.059814
0.548767 0.570984 0.057098
0.568176 0.573822 0.052185
0.590637 0.577759 0.047394
0.606934 0.578491 0.043579
0.624725 0.581696 0.038757
0.644226 0.584656 0.031036
0.659790 0.584656 0.026245
0.675354 0.588562 0.018494
0.686005 0.588562 0.014648
0.697601 0.588562 0.010864
0.712280 0.588684 0.006897
0.720825 0.589325 0.003235
0.732788 0.589569 0.000031
0.741577 0.589569 0.000031
0.756256 0.593140 0.000000
0.767975 0.592529 0.000000
0.778870 0.596436 0.000000
0.787506 0.593506 0.000000
0.365356 0.556824 0.127716
0.373016 0.557556 0.127594
0.377838 0.557709 0.123779
0.388702 0.557709 0.120728
0.397339 0.561646 0.121185
0.405121 0.561646 0.117371
0.419189 0.567047 0.115906
0.432556 0.568665 0.110626
0.445526 0.570740 0.109863
0.457977 0.571472 0.104065
0.472687 0.573456 0.100159
0.488251 0.576538 0.096191
0.503815 0.578979 0.092285
0.519379 0.582916 0.088470
0.538025 0.585266 0.082184
0.556549 0.588318 0.074432
0.577057 0.590302 0.066681
0.599274 0.597076 0.061890
0.616943 0.597076 0.053406
0.632507 0.600159 0.042603
0.648071 0.601013 0.034241
0.663635 0.601501 0.025757
0.679199 0.604431 0.016266
0.693665 0.607788 0.013550
0.702423 0.605072 0.010498
0.714020 0.608887 0.008270
0.727966 0.608032 0.007416
0.737244 0.608887 0.005188
0.748352 0.609253 0.007782
0.760468 0.611938 0.014404
0.771820 0.612823 0.011322
0.783539 0.612946 0.012299
0.791321 0.612823 0.015289
0.381653 0.573090 0.143951
0.392517 0.576141 0.146301
0.397217 0.577026 0.143951
0.408936 0.580200 0.143219
0.415497 0.582916 0.139282
0.423767 0.580963 0.136688
0.436249 0.584869 0.135345
0.446381 0.587219 0.131409
0.458954 0.588074 0.128448
0.473541 0.592010 0.127472
0.485138 0.592773 0.120331
0.500000 0.594604 0.118256
0.514587 0.596710 0.112457
0.532593 0.600647 0.106201
0.551361 0.604584 0.100891
0.570160 0.607758 0.094635
0.587189 0.608521 0.086884
0.609161 0.615631 0.083069
0.623993 0.615662 0.073608
0.640289 0.618713 0.062744
0.659058 0.621063 0.055847
0.671417 0.620331 0.044312
0.686218 0.623535 0.035187
0.700317 0.626343 0.038055
0.709198 0.627197 0.042816
