滤镜资源/Professional Luts Collection/Lutify.me Professional/Cine Looks/Petalite.cube
# Created by: Lutify.me
# Copyright: (c) Copyright Lutify.me 2015
# Website: https://lutify.me
#LUT size
LUT_3D_SIZE 9
#LUT data points
0.000000 0.000000 0.000000
0.123505 0.007904 0.000519
0.261871 0.000000 0.000000
0.375000 0.000000 0.000000
0.440704 0.000000 0.000000
0.491577 0.000000 0.000000
0.522736 0.000000 0.000000
0.545929 0.000000 0.000000
0.573120 0.000000 0.000000
0.011871 0.073364 0.003967
0.084473 0.084167 0.003967
0.195679 0.098938 0.000000
0.321655 0.107788 0.000000
0.426849 0.103851 0.000000
0.504456 0.097473 0.000000
0.558777 0.088623 0.000000
0.600281 0.083679 0.000000
0.627441 0.080231 0.000000
0.037537 0.166351 0.000000
0.123016 0.178162 0.000000
0.225311 0.197845 0.000000
0.346344 0.216553 0.000000
0.443665 0.223450 0.000000
0.539520 0.229340 0.000000
0.594849 0.228363 0.000000
0.641266 0.225403 0.000000
0.674866 0.224426 0.000000
0.106232 0.255432 0.000000
0.173950 0.267242 0.000000
0.267303 0.286926 0.000000
0.375000 0.306610 0.000000
0.466858 0.317932 0.000000
0.562744 0.326294 0.000000
0.623993 0.330231 0.000000
0.674866 0.330719 0.000000
0.713898 0.334167 0.000000
0.177887 0.352386 0.000000
0.239624 0.363708 0.000000
0.321136 0.381897 0.000000
0.412537 0.396179 0.000000
0.501984 0.411438 0.000000
0.589905 0.421753 0.000000
0.654144 0.425201 0.000000
0.702545 0.427185 0.000000
0.745026 0.429138 0.000000
0.261383 0.449310 0.035950
0.310272 0.457184 0.028564
0.376465 0.467529 0.019714
0.453033 0.481781 0.007904
0.530640 0.493103 0.000000
0.617065 0.504456 0.000000
0.677856 0.510834 0.000000
0.725250 0.512329 0.000000
0.768250 0.513794 0.000000
0.345856 0.537415 0.105347
0.380432 0.541321 0.094025
0.432800 0.552185 0.082703
0.492065 0.561035 0.067444
0.568176 0.573822 0.052185
0.644226 0.584656 0.031036
0.697601 0.588562 0.010864
0.741577 0.589569 0.000031
0.787506 0.593506 0.000000
0.424408 0.611694 0.183075
0.450073 0.618103 0.178650
0.489105 0.623047 0.174713
0.543457 0.631409 0.158478
0.609680 0.642700 0.139801
0.675354 0.652069 0.126495
0.720795 0.657471 0.111237
0.764282 0.658447 0.099915
0.806763 0.666321 0.092041
0.494049 0.673218 0.244110
0.517303 0.677185 0.240173
0.552368 0.685059 0.236237
0.603241 0.692932 0.228363
0.656097 0.700806 0.218536
0.705017 0.708679 0.208679
0.744019 0.712585 0.196869
0.787506 0.716553 0.188995
0.826050 0.720459 0.181122
0.007904 0.003967 0.088104
0.088928 0.007904 0.049255
0.244568 0.000031 0.034485
0.366577 0.000000 0.023163
0.446136 0.000000 0.008392
0.500458 0.000000 0.003479
0.538025 0.000000 0.000000
0.564728 0.000000 0.000000
0.592377 0.000000 0.000000
0.000488 0.069427 0.038910
0.081512 0.095978 0.072357
0.195160 0.104370 0.057098
0.329559 0.114197 0.043304
0.440704 0.110260 0.023651
0.517792 0.099426 0.008881
0.574097 0.091553 0.000000
0.616577 0.088104 0.000000
0.647186 0.091553 0.003479
0.003448 0.176697 0.083679
0.104736 0.197357 0.085175
0.224304 0.216064 0.075806
0.349792 0.230835 0.049225
0.455017 0.236725 0.026611
0.552856 0.240173 0.007904
0.611633 0.239685 0.005920
0.659576 0.235748 0.003967
0.693634 0.232788 0.000519
0.054352 0.282501 0.115662
0.150208 0.294312 0.103851
0.262360 0.310547 0.088623
0.376465 0.328278 0.070892
0.474762 0.337616 0.040375
0.573120 0.345490 0.026093
0.636841 0.346466 0.010864
0.690186 0.345978 0.000000
0.729218 0.345490 0.000000
0.140808 0.377960 0.141266
0.216400 0.389282 0.135345
0.311249 0.403564 0.118622
0.411041 0.421753 0.098938
0.502441 0.429626 0.072876
0.593353 0.438507 0.045319
0.659058 0.441437 0.036926
0.711914 0.444885 0.036926
0.752930 0.444397 0.031525
0.238159 0.470978 0.179169
0.292480 0.478363 0.171295
0.368073 0.492126 0.163422
0.447601 0.503937 0.149628
0.533112 0.514282 0.130432
0.617065 0.523621 0.105347
0.679321 0.525116 0.085663
0.728210 0.530029 0.070892
0.776154 0.535431 0.057587
0.332031 0.557587 0.220978
0.370544 0.564941 0.216553
0.426849 0.574829 0.210663
0.491577 0.585144 0.203766
0.569641 0.593018 0.183594
0.643738 0.601379 0.169312
0.701569 0.607788 0.157990
0.748474 0.609253 0.144226
0.795410 0.616638 0.134857
0.423401 0.630432 0.259857
0.447113 0.630920 0.255920
0.485657 0.639282 0.251984
0.546936 0.649597 0.243622
0.616089 0.659454 0.234772
0.679321 0.669800 0.223938
0.724762 0.673218 0.215088
0.771698 0.674194 0.200317
0.810730 0.681580 0.196381
0.494049 0.688477 0.306122
0.517303 0.692444 0.302185
0.555817 0.696838 0.298248
0.605713 0.707184 0.291840
0.659546 0.714569 0.285950
0.706482 0.719971 0.274628
0.745026 0.723938 0.270203
0.791443 0.728821 0.259369
0.829498 0.732300 0.251007
0.007904 0.000000 0.185059
0.078064 0.000031 0.155548
0.227295 0.000000 0.157501
0.354248 0.000000 0.144226
0.450592 0.000000 0.132904
0.511871 0.000000 0.126007
0.557312 0.000000 0.117157
0.587921 0.000000 0.112732
0.615601 0.000000 0.114197
0.000000 0.111237 0.201294
0.062256 0.111237 0.200806
0.204559 0.123535 0.196869
0.337952 0.127991 0.188507
0.451569 0.124542 0.174713
0.535553 0.117157 0.163422
0.593353 0.109283 0.151611
0.639313 0.105835 0.147675
0.666962 0.102386 0.141266
0.000000 0.143738 0.120117
0.047913 0.224426 0.212616
0.216400 0.240173 0.224426
0.355225 0.253479 0.214600
0.466370 0.259857 0.200806
0.564697 0.258881 0.186035
0.625458 0.258881 0.178162
0.678802 0.257904 0.169312
0.714386 0.252960 0.161438
0.000000 0.250519 0.169800
0.095856 0.311035 0.235748
0.247528 0.337128 0.243622
0.373993 0.352875 0.231323
0.476746 0.360748 0.219513
0.580017 0.368134 0.207703
0.645233 0.368622 0.197845
0.705505 0.370575 0.188507
0.748474 0.371063 0.181610
0.069183 0.388794 0.251984
0.187286 0.413879 0.267242
0.296448 0.428162 0.261841
0.405609 0.445374 0.254944
0.497986 0.449799 0.242157
0.597321 0.458679 0.230347
0.665009 0.463593 0.218536
0.724762 0.468506 0.212128
0.769714 0.469482 0.202789
0.209991 0.494598 0.291840
0.276672 0.503448 0.292328
0.356720 0.515259 0.284973
0.442657 0.527069 0.277100
0.528168 0.534943 0.264771
0.618561 0.546753 0.255920
0.682281 0.550201 0.247070
0.740082 0.554138 0.237701
0.787994 0.559540 0.232300
0.323120 0.583679 0.323822
0.365112 0.589081 0.320404
0.422913 0.598450 0.313019
0.489105 0.608765 0.307587
0.574097 0.618103 0.295288
0.651154 0.627472 0.287415
0.706482 0.629913 0.274628
0.756378 0.632874 0.268707
0.803314 0.639771 0.262817
0.416016 0.649597 0.353851
0.443665 0.656494 0.350891
0.485657 0.660919 0.347443
0.547424 0.671265 0.339081
0.617584 0.681091 0.331696
0.681793 0.688965 0.324341
0.726746 0.690430 0.314972
0.778137 0.696350 0.307098
0.814667 0.700287 0.299713
0.490082 0.707672 0.390747
0.513824 0.711609 0.390259
0.556305 0.716553 0.383881
0.605713 0.723419 0.378937
0.660034 0.731293 0.373047
0.706482 0.739166 0.366150
0.747986 0.743103 0.356323
0.794922 0.747040 0.349915
0.829987 0.750977 0.343506
0.003967 0.000000 0.260834
0.080536 0.000000 0.251495
0.213470 0.000000 0.253967
0.341888 0.000000 0.247559
0.454529 0.000000 0.240173
0.520752 0.000000 0.234283
0.571136 0.000000 0.227875
0.605225 0.000000 0.226410
0.634857 0.000000 0.226410
0.000000 0.126984 0.311523
0.049408 0.126495 0.313507
0.204071 0.138794 0.309570
0.346344 0.146179 0.305145
0.460938 0.144714 0.296265
0.546936 0.135345 0.282501
0.607697 0.128967 0.273163
0.652649 0.123047 0.266754
0.682770 0.121094 0.262817
0.000000 0.200806 0.282990
0.010864 0.240173 0.337616
0.211487 0.255920 0.341553
0.356232 0.270203 0.338104
0.468842 0.273651 0.323822
0.571625 0.274628 0.314484
0.637329 0.274628 0.307098
0.693634 0.273651 0.300201
0.726257 0.271667 0.293823
0.000000 0.209656 0.201782
0.000000 0.280518 0.272644
0.208008 0.356323 0.348450
0.369568 0.369598 0.356323
0.482178 0.379944 0.346954
0.591888 0.387817 0.339081
0.660553 0.392731 0.332214
0.720825 0.391754 0.323334
0.761322 0.391754 0.319397
0.000000 0.295288 0.225403
0.045441 0.356812 0.282501
0.248047 0.431610 0.350891
0.402161 0.465057 0.379456
0.500488 0.472931 0.366638
0.603729 0.482788 0.358765
0.674866 0.488678 0.350891
0.737610 0.494110 0.344513
0.781097 0.496582 0.338593
0.038025 0.433075 0.309082
0.191711 0.483276 0.352875
0.340912 0.534943 0.398621
0.442657 0.554138 0.399628
0.536041 0.563995 0.391754
0.627441 0.569885 0.382385
0.690674 0.576263 0.374512
0.748993 0.580231 0.365662
0.796906 0.585632 0.363190
0.265320 0.578247 0.397156
0.335968 0.603363 0.417328
0.418457 0.623535 0.428162
0.490601 0.634338 0.421753
0.577057 0.646637 0.416351
0.658569 0.655029 0.407990
0.709473 0.655029 0.398132
0.763794 0.659943 0.391754
0.810242 0.663391 0.386322
0.398224 0.666321 0.446381
0.436737 0.677673 0.452759
0.484680 0.684540 0.452271
0.551361 0.694397 0.446381
0.618561 0.704224 0.441437
0.684265 0.712097 0.435059
0.731201 0.716034 0.428162
0.781097 0.718018 0.419800
0.818634 0.719971 0.412415
0.490082 0.726868 0.479828
0.517303 0.730804 0.477356
0.559265 0.738678 0.475891
0.609680 0.746552 0.471954
0.664490 0.753937 0.468018
0.707977 0.757385 0.460144
0.751923 0.762299 0.456207
0.795410 0.766235 0.450317
0.833954 0.770172 0.442932
0.000000 0.003967 0.340576
0.082520 0.000031 0.340576
0.214447 0.002014 0.343506
0.343384 0.000000 0.344513
0.460449 0.000000 0.344513
0.530609 0.000000 0.336639
0.586945 0.000000 0.331696
0.623016 0.000000 0.330231
0.650177 0.000000 0.326782
0.000000 0.142731 0.393707
0.043488 0.145203 0.396667
0.208496 0.155548 0.402069
0.352753 0.164398 0.402069
0.468353 0.160461 0.394684
0.557312 0.157501 0.388794
0.617065 0.148651 0.380920
0.664978 0.145691 0.376007
0.694611 0.141266 0.371063
0.000000 0.238220 0.402557
0.023712 0.251495 0.423248
0.208496 0.271667 0.434052
0.358215 0.283966 0.433075
0.471313 0.289398 0.427185
0.576080 0.289886 0.420776
0.642273 0.289398 0.416351
0.698090 0.287903 0.411438
0.734161 0.289398 0.410431
0.000000 0.267242 0.345001
0.000000 0.322357 0.407501
0.201599 0.368622 0.453735
0.372040 0.387329 0.457672
0.482666 0.395203 0.451294
0.594360 0.403564 0.449310
0.664490 0.407501 0.446869
0.726257 0.407501 0.440460
0.765289 0.408966 0.437012
0.000000 0.261841 0.263794
0.000000 0.320404 0.322357
0.107697 0.412415 0.407501
0.372040 0.486694 0.467529
0.509888 0.496063 0.474426
0.617554 0.507874 0.472931
0.683777 0.511810 0.467529
0.745514 0.517242 0.462128
0.788483 0.517731 0.458679
0.000000 0.336639 0.270691
0.008881 0.391266 0.319397
0.179352 0.473907 0.394196
0.402649 0.555115 0.467041
0.544952 0.585144 0.499512
0.638306 0.596466 0.492126
0.695618 0.598907 0.486206
0.757874 0.604828 0.482269
0.803802 0.605316 0.474426
0.029633 0.464569 0.349426
0.133392 0.508881 0.389282
0.310272 0.576782 0.442932
0.459961 0.635834 0.496552
0.581024 0.666351 0.515778
0.663025 0.674713 0.511841
0.714386 0.677155 0.501984
0.771210 0.681091 0.498047
0.815155 0.685028 0.495087
0.247040 0.600403 0.434570
0.326080 0.630920 0.461121
0.425385 0.668304 0.497040
0.541992 0.707672 0.532013
0.625488 0.726868 0.537903
0.685730 0.731293 0.532013
0.733673 0.733276 0.524139
0.783539 0.738678 0.517731
0.822571 0.741150 0.510345
0.413025 0.700775 0.505920
0.459961 0.716034 0.521179
0.529633 0.741150 0.542328
0.607697 0.761810 0.559052
0.665985 0.769684 0.557098
0.708954 0.773621 0.549713
0.755890 0.780518 0.545288
0.798859 0.783447 0.539368
0.833954 0.785431 0.533478
0.000000 0.042328 0.406006
0.083496 0.036926 0.418304
0.218872 0.036926 0.430634
0.351288 0.032013 0.437500
0.467865 0.009888 0.437012
0.541992 0.002960 0.429626
0.600281 0.004456 0.425690
0.640778 0.000000 0.417816
0.667969 0.000000 0.413879
0.000000 0.161438 0.457184
0.030640 0.165375 0.468506
0.211975 0.178162 0.481293
0.354736 0.185059 0.486206
0.472321 0.182587 0.482300
0.564209 0.177185 0.474915
0.625946 0.172760 0.467529
0.675873 0.170288 0.463593
0.707001 0.170776 0.460632
0.000000 0.259857 0.484741
0.022736 0.271179 0.504456
0.211487 0.288910 0.516724
0.360657 0.298248 0.520691
0.478241 0.303162 0.516266
0.584473 0.307098 0.511322
0.647217 0.304138 0.505920
0.705505 0.304657 0.503448
0.742065 0.301697 0.498047
0.000000 0.324341 0.471954
0.000000 0.345978 0.501465
0.216400 0.385834 0.539368
0.379944 0.406494 0.551666
0.496521 0.415863 0.548737
0.601257 0.418304 0.540863
0.667969 0.420288 0.536926
0.728210 0.423737 0.533966
0.769226 0.423737 0.529541
0.000000 0.325317 0.399628
0.000000 0.377472 0.451782
0.097321 0.451294 0.526093
0.385376 0.507874 0.571869
0.519775 0.519226 0.573334
0.620544 0.523621 0.567932
0.684753 0.524597 0.563507
0.746002 0.528564 0.560028
0.790466 0.532990 0.557098
0.000000 0.310059 0.320404
0.000000 0.364685 0.372559
0.036560 0.447357 0.443420
0.308807 0.552185 0.532471
0.507904 0.610748 0.583160
0.638306 0.613678 0.588593
0.701569 0.618134 0.584137
0.761322 0.623016 0.580719
0.806274 0.626495 0.576752
0.000000 0.374512 0.317444
0.000000 0.422760 0.362213
0.086456 0.493591 0.420776
0.335968 0.586609 0.494598
0.533081 0.667328 0.569885
0.660034 0.692413 0.603851
0.718353 0.697357 0.603851
0.772186 0.701263 0.595978
0.818146 0.704224 0.592499
0.014313 0.481812 0.377472
0.054352 0.523163 0.411438
0.238159 0.586121 0.458191
0.407593 0.653046 0.520172
0.574585 0.715057 0.586151
0.681793 0.749023 0.623016
0.736603 0.753418 0.622040
0.784058 0.756897 0.615143
0.826050 0.758362 0.608246
0.198120 0.605804 0.453735
0.279633 0.635315 0.478851
0.387360 0.675690 0.517242
0.504456 0.722412 0.566437
0.641296 0.770172 0.618134
0.706482 0.791321 0.640778
0.755890 0.796753 0.636810
0.799347 0.800690 0.630402
0.833954 0.803162 0.628937
0.000000 0.087616 0.462616
0.077057 0.084686 0.478333
0.223328 0.090576 0.493103
0.357697 0.090088 0.503448
0.474274 0.078766 0.505920
0.553345 0.060547 0.505432
0.614624 0.038422 0.501984
0.656586 0.041351 0.498016
0.684753 0.044312 0.498016
0.000000 0.187042 0.508392
0.039032 0.193420 0.524597
0.219879 0.203766 0.536926
0.362152 0.210144 0.544800
0.479218 0.211151 0.545776
0.573090 0.205231 0.544800
0.631409 0.199829 0.540833
0.687225 0.201782 0.543335
0.715881 0.195892 0.536926
0.000000 0.279541 0.539368
0.007416 0.292847 0.559570
0.217407 0.306122 0.573822
0.373505 0.319885 0.583679
0.493073 0.326782 0.584656
0.594849 0.326782 0.582672
0.655121 0.321869 0.577759
0.709442 0.321381 0.575806
0.746002 0.319885 0.574799
0.000000 0.356323 0.551697
0.033112 0.376984 0.574310
0.241119 0.406006 0.601868
0.389313 0.423248 0.613678
0.504944 0.431122 0.613678
0.611145 0.436523 0.613678
0.672394 0.435059 0.609741
0.728210 0.435059 0.606293
0.770721 0.435059 0.602844
0.000000 0.403564 0.531494
0.002472 0.425201 0.556122
0.170959 0.473419 0.596466
0.397705 0.516266 0.630432
0.529633 0.533478 0.638763
0.631409 0.540863 0.636810
0.687714 0.539368 0.633850
0.747498 0.539856 0.629913
0.790466 0.542328 0.627930
0.000000 0.390747 0.460632
0.000000 0.423248 0.492126
0.002960 0.500519 0.563019
0.330536 0.578247 0.623535
0.526184 0.620575 0.653534
0.647217 0.630402 0.655518
0.706482 0.631378 0.655518
0.761322 0.631866 0.649109
0.806274 0.635834 0.648132
0.000000 0.356323 0.372070
0.000000 0.402557 0.410950
0.002960 0.471466 0.471466
0.198120 0.569885 0.559570
0.454529 0.668304 0.635834
0.643250 0.721924 0.671265
0.721313 0.714539 0.670288
0.776154 0.715546 0.664368
0.818146 0.719482 0.663391
0.000000 0.409943 0.367126
0.000000 0.447845 0.398621
0.030151 0.507874 0.445374
0.261383 0.597931 0.513794
0.467865 0.684052 0.592010
0.655609 0.750488 0.655029
0.732666 0.764771 0.674194
0.787994 0.769165 0.678650
0.826050 0.772644 0.675171
0.000000 0.497040 0.404541
0.017273 0.538422 0.431610
0.155121 0.589569 0.473419
0.346344 0.655518 0.531525
0.514801 0.722412 0.599396
0.662537 0.776062 0.655029
0.748993 0.804138 0.683044
0.803314 0.811523 0.687500
0.833954 0.814941 0.686035
0.000000 0.130432 0.512817
0.075104 0.133881 0.535461
0.231232 0.137817 0.551208
0.365601 0.140289 0.561523
0.484650 0.134857 0.563965
0.567169 0.123535 0.563965
0.625946 0.115173 0.560059
0.668945 0.107300 0.556580
0.700073 0.106812 0.559570
0.000000 0.212128 0.555115
0.045441 0.223450 0.574829
0.230255 0.231323 0.593018
0.375977 0.242645 0.602356
0.491089 0.243622 0.603333
0.584473 0.239685 0.602356
0.646240 0.234772 0.597443
0.696106 0.231812 0.594482
0.727722 0.231323 0.594482
0.000000 0.303162 0.593018
0.048920 0.313995 0.610718
0.234192 0.328766 0.628448
0.384369 0.344025 0.637299
0.502960 0.349426 0.639282
0.604218 0.346954 0.636810
0.665985 0.343506 0.633362
0.716370 0.342529 0.629425
0.750946 0.336151 0.623047
0.000000 0.385834 0.611206
0.041016 0.401581 0.632874
0.255432 0.427185 0.656494
0.397705 0.440948 0.664856
0.518768 0.448822 0.668793
0.619537 0.453735 0.667328
0.680786 0.451294 0.660919
0.736115 0.448822 0.658447
0.773193 0.446869 0.654999
0.000000 0.447845 0.609741
0.000000 0.472443 0.632385
0.232727 0.500000 0.658478
0.411560 0.533478 0.684052
0.538513 0.549713 0.693909
0.637329 0.553650 0.691437
0.696625 0.555603 0.687988
0.752441 0.555634 0.682556
0.792450 0.553162 0.678162
0.000000 0.473419 0.581207
0.000000 0.491638 0.598907
0.133881 0.535919 0.633881
0.371552 0.592041 0.676666
0.546417 0.631409 0.705688
0.652649 0.646149 0.711121
0.710938 0.646149 0.709167
0.767731 0.646637 0.703247
0.806274 0.646637 0.699310
0.000000 0.448822 0.518219
0.000000 0.460632 0.530029
0.000000 0.525604 0.580231
0.235687 0.619080 0.646637
0.482208 0.685516 0.696869
0.652130 0.719971 0.722443
0.725769 0.723907 0.722443
0.780090 0.727875 0.721436
0.818634 0.730286 0.714569
0.000000 0.391266 0.407013
0.000000 0.433075 0.444885
0.000000 0.491150 0.498047
0.094849 0.582672 0.572357
0.362152 0.671753 0.642242
0.590393 0.752472 0.706696
0.717377 0.787903 0.736694
0.787506 0.781006 0.733276
0.826538 0.781006 0.725891
0.000000 0.444397 0.409943
0.000000 0.475403 0.433075
0.007904 0.526581 0.474915
0.193695 0.605316 0.537384
0.398193 0.682587 0.603363
0.596832 0.758362 0.664886
0.721802 0.808044 0.710632
0.791443 0.818909 0.725403
0.833954 0.822815 0.736694
0.000000 0.173248 0.555115
0.076569 0.181122 0.578247
0.244080 0.188995 0.597443
0.381409 0.192932 0.610229
0.500000 0.188995 0.618103
0.583984 0.183594 0.618103
0.642273 0.177185 0.618103
0.688202 0.169312 0.614197
0.715393 0.165375 0.614197
0.000000 0.243134 0.590088
0.052856 0.254944 0.605835
0.246552 0.265778 0.625488
0.385376 0.274628 0.641235
0.507904 0.274628 0.645691
0.599792 0.274628 0.649109
0.658081 0.270203 0.649109
0.707977 0.265778 0.645203
0.738617 0.262817 0.641724
0.000000 0.327759 0.625000
0.076080 0.339569 0.640259
0.255920 0.355316 0.659454
0.393280 0.366150 0.670746
0.516785 0.373047 0.676178
0.613129 0.372559 0.680115
0.674866 0.367126 0.680115
0.727722 0.366150 0.676178
0.757874 0.362213 0.672241
0.002472 0.408966 0.652069
0.057800 0.427185 0.667328
0.274719 0.447357 0.686493
0.409088 0.458679 0.695374
0.531616 0.468506 0.703247
0.625977 0.471954 0.707184
0.691162 0.470459 0.707184
0.744019 0.468018 0.703247
0.778625 0.464081 0.699310
0.000000 0.484253 0.665344
0.081512 0.503448 0.680603
0.268768 0.526581 0.699799
0.427368 0.551697 0.718994
0.551361 0.566925 0.728333
0.643250 0.571381 0.730316
0.705505 0.571869 0.730316
0.757874 0.568909 0.728333
0.796387 0.568909 0.724426
0.000000 0.529053 0.659943
0.045441 0.546753 0.675690
0.209991 0.575287 0.698334
0.400665 0.608765 0.720459
0.565216 0.646149 0.741638
0.659058 0.657990 0.748047
0.718842 0.661407 0.748047
0.772705 0.661896 0.748047
0.810242 0.660431 0.744080
0.000000 0.534454 0.621063
0.000000 0.551208 0.635345
0.086945 0.581696 0.658478
0.333496 0.646637 0.708649
0.520752 0.693878 0.738190
0.659546 0.726379 0.757385
0.733185 0.737183 0.760803
0.787018 0.741638 0.763794
0.822083 0.742126 0.759827
0.000000 0.502960 0.558105
0.000000 0.513794 0.568909
0.000000 0.554626 0.598907
0.125458 0.636322 0.659454
0.418457 0.708160 0.715546
0.622986 0.761810 0.752930
0.728699 0.784912 0.768677
0.795410 0.788391 0.771667
0.829987 0.792297 0.771667
0.000000 0.433075 0.448822
0.000000 0.460144 0.475891
0.000000 0.517731 0.529510
0.027679 0.591522 0.587616
0.292480 0.677155 0.653534
0.508392 0.752472 0.711639
0.678833 0.812012 0.760803
0.784058 0.838562 0.779541
0.833954 0.834656 0.779541
