滤镜资源/Professional Luts Collection/Lutify.me Professional/Cine Looks/Phenakite.cube
# Created by: Lutify.me
# Copyright: (c) Copyright Lutify.me 2015
# Website: https://lutify.me
#LUT size
LUT_3D_SIZE 5
#LUT data points
0.000000 0.000000 0.000000
0.283569 0.003906 0.003906
0.463074 0.006409 0.006409
0.539612 0.007477 0.007477
0.579041 0.008026 0.008026
0.036591 0.173065 0.002411
0.238098 0.207886 0.003296
0.449280 0.194366 0.006226
0.580017 0.164062 0.008026
0.647675 0.143341 0.008972
0.183167 0.369110 0.005127
0.335846 0.400513 0.005554
0.523987 0.431274 0.007263
0.667267 0.426514 0.009247
0.741730 0.387817 0.010284
0.357574 0.556458 0.091095
0.449829 0.574646 0.069122
0.591217 0.597809 0.038757
0.718170 0.612518 0.010010
0.807281 0.618561 0.011200
0.514069 0.693390 0.249817
0.574982 0.703949 0.238281
0.678619 0.720459 0.218811
0.766876 0.732239 0.196136
0.847626 0.740662 0.177795
0.010803 0.002686 0.194275
0.246918 0.003418 0.163330
0.471832 0.006531 0.141388
0.571075 0.007904 0.122742
0.626007 0.008667 0.118652
0.002014 0.146149 0.116821
0.230499 0.250183 0.228088
0.490326 0.264832 0.206848
0.644135 0.257812 0.180847
0.725189 0.248108 0.167328
0.057251 0.392303 0.242096
0.312897 0.454102 0.268921
0.523468 0.479065 0.248444
0.680054 0.456573 0.225250
0.771942 0.433594 0.211731
0.334381 0.609680 0.335693
0.440491 0.625122 0.323273
0.600433 0.649231 0.304077
0.729767 0.662750 0.282684
0.826569 0.664825 0.267273
0.512848 0.729858 0.408295
0.577759 0.741394 0.400421
0.685272 0.756775 0.386932
0.773163 0.766327 0.369568
0.853241 0.776855 0.357910
0.004852 0.004944 0.350098
0.228912 0.004974 0.357971
0.482697 0.006683 0.357727
0.603455 0.008362 0.344879
0.663300 0.009186 0.338837
0.005798 0.252319 0.417908
0.222504 0.287933 0.454346
0.497711 0.307129 0.448242
0.668427 0.306580 0.437988
0.754578 0.306793 0.430511
0.003601 0.260834 0.253998
0.044281 0.412842 0.401886
0.534790 0.532806 0.502899
0.712250 0.543793 0.494598
0.810913 0.542084 0.485138
0.006134 0.442627 0.315491
0.259857 0.572449 0.425446
0.605377 0.701355 0.542786
0.741150 0.713287 0.529449
0.836884 0.706757 0.519897
0.390076 0.705048 0.495941
0.518524 0.749817 0.544098
0.686615 0.797638 0.587341
0.781250 0.809113 0.574707
0.857117 0.815338 0.562592
0.006561 0.087952 0.474030
0.242035 0.091583 0.509552
0.497650 0.067841 0.519073
0.632263 0.032257 0.515259
0.701019 0.034180 0.512329
0.007690 0.294159 0.554779
0.233368 0.325836 0.597473
0.521027 0.346954 0.607880
0.680725 0.342010 0.601074
0.766907 0.338287 0.597351
0.007568 0.423889 0.545929
0.144196 0.491333 0.609985
0.560577 0.570190 0.669128
0.719177 0.573883 0.662231
0.816071 0.576233 0.655701
0.004944 0.348694 0.356964
0.006439 0.464325 0.463196
0.420258 0.676331 0.641815
0.743683 0.755280 0.701385
0.843170 0.757355 0.694702
0.006500 0.468201 0.367218
0.016083 0.568054 0.443268
0.468933 0.721954 0.587646
0.763855 0.825409 0.698395
0.859253 0.845490 0.717621
0.007782 0.185242 0.562653
0.265320 0.203094 0.607849
0.528107 0.200470 0.628479
0.664703 0.181244 0.631653
0.734222 0.170380 0.629456
0.008789 0.342560 0.632721
0.275146 0.380829 0.675018
0.546173 0.395264 0.693420
0.702972 0.391479 0.697388
0.780151 0.382782 0.694427
0.009369 0.506683 0.675262
0.267731 0.554321 0.715546
0.583374 0.602448 0.750427
0.737488 0.607727 0.752747
0.822235 0.601746 0.749725
0.008789 0.557373 0.635651
0.048920 0.603790 0.670898
0.519592 0.719116 0.753479
0.764191 0.771912 0.786682
0.848145 0.776764 0.783813
0.006470 0.455505 0.468140
0.007050 0.499634 0.508392
0.167969 0.674774 0.648224
0.672638 0.825043 0.771149
0.856445 0.864929 0.803864
