滤镜资源/Professional Luts Collection/Lutify.me Professional/Cine Looks/Phenakite.cube
# Created by: Lutify.me
# Copyright: (c) Copyright Lutify.me 2015
# Website: https://lutify.me
#LUT size
LUT_3D_SIZE 33
#LUT data points
0.000000 0.000000 0.000000
0.024261 0.004425 0.004089
0.063110 0.005035 0.004608
0.095032 0.009186 0.005066
0.137207 0.010101 0.002441
0.172943 0.010590 0.002472
0.213318 0.007141 0.002960
0.249329 0.003510 0.003448
0.283569 0.003906 0.003906
0.310760 0.004303 0.004303
0.345795 0.004791 0.004791
0.376831 0.005219 0.005219
0.399109 0.005524 0.005524
0.418549 0.005798 0.005798
0.434021 0.006012 0.006012
0.449524 0.006226 0.006226
0.463074 0.006409 0.006409
0.476471 0.006592 0.006592
0.490387 0.006775 0.006775
0.501953 0.006958 0.006958
0.509735 0.007050 0.007050
0.517548 0.007172 0.007172
0.525238 0.007294 0.007294
0.532898 0.007385 0.007385
0.539612 0.007477 0.007477
0.544617 0.007538 0.007538
0.548370 0.007568 0.007568
0.556030 0.007690 0.007690
0.559845 0.007751 0.007751
0.567139 0.007843 0.007843
0.570984 0.007904 0.007904
0.575165 0.007965 0.007965
0.579041 0.008026 0.008026
0.012085 0.008148 0.003815
0.012360 0.004395 0.003937
0.020660 0.004486 0.004028
0.036591 0.004730 0.004272
0.060303 0.008942 0.004608
0.091583 0.009491 0.005005
0.125824 0.009918 0.002411
0.157928 0.010254 0.002258
0.200745 0.007690 0.002838
0.236877 0.004364 0.003296
0.267944 0.003723 0.003693
0.296478 0.004089 0.004089
0.326355 0.004517 0.004517
0.357574 0.004944 0.004944
0.385925 0.005341 0.005341
0.409027 0.005676 0.005676
0.424377 0.005859 0.005859
0.441711 0.006104 0.006104
0.457336 0.006348 0.006348
0.472595 0.006531 0.006531
0.486725 0.006744 0.006744
0.501953 0.006958 0.006958
0.510925 0.007080 0.007080
0.521362 0.007233 0.007233
0.529968 0.007355 0.007355
0.536682 0.007446 0.007446
0.544495 0.007538 0.007538
0.552155 0.007629 0.007629
0.559845 0.007751 0.007751
0.567505 0.007843 0.007843
0.575256 0.007965 0.007965
0.582733 0.008087 0.008087
0.586700 0.008118 0.008118
0.012634 0.031769 0.004211
0.016541 0.023743 0.004089
0.028198 0.023804 0.004150
0.043335 0.020020 0.004333
0.063385 0.020538 0.004608
0.087067 0.020874 0.004944
0.117218 0.021301 0.005371
0.148987 0.021667 0.002716
0.180786 0.022369 0.002594
0.219116 0.018707 0.003052
0.250183 0.016174 0.003448
0.279785 0.011536 0.003876
0.309784 0.005646 0.004303
0.336884 0.004669 0.004639
0.370239 0.005127 0.005127
0.396759 0.005493 0.005493
0.416077 0.005768 0.005768
0.433533 0.006012 0.006012
0.449036 0.006226 0.006226
0.464508 0.006439 0.006439
0.479980 0.006653 0.006653
0.495483 0.006866 0.006866
0.510681 0.007080 0.007080
0.521240 0.007233 0.007233
0.532532 0.007355 0.007355
0.540527 0.007477 0.007477
0.551300 0.007629 0.007629
0.556030 0.007690 0.007690
0.563477 0.007812 0.007812
0.571136 0.007904 0.007904
0.579285 0.008026 0.008026
0.586700 0.008118 0.008118
0.594421 0.008240 0.008240
0.013000 0.055298 0.007904
0.020966 0.051636 0.004486
0.036041 0.051270 0.004456
0.052185 0.051605 0.004486
0.075470 0.048279 0.004791
0.098297 0.047974 0.005127
0.121521 0.044312 0.005432
0.152344 0.044708 0.002991
0.184174 0.042572 0.002625
0.218231 0.039948 0.003052
0.250977 0.039429 0.003479
0.279144 0.037567 0.003876
0.307953 0.031982 0.004272
0.334045 0.024902 0.004639
0.362762 0.019165 0.005035
0.393097 0.010712 0.005432
0.415833 0.005829 0.005768
0.433289 0.006042 0.005981
0.450836 0.006226 0.006226
0.466614 0.006470 0.006470
0.483276 0.006683 0.006683
0.497437 0.006897 0.006897
0.510681 0.007080 0.007080
0.524750 0.007263 0.007263
0.536316 0.007416 0.007416
0.547272 0.007568 0.007568
0.555786 0.007690 0.007690
0.563477 0.007812 0.007812
0.571136 0.007904 0.007904
0.579041 0.008026 0.008026
0.586700 0.008118 0.008118
0.594421 0.008240 0.008240
0.602051 0.008331 0.008331
0.013275 0.078644 0.004852
0.025116 0.075500 0.004791
0.040649 0.075378 0.004791
0.063538 0.082214 0.004883
0.086456 0.086090 0.004944
0.106445 0.082428 0.005219
0.133789 0.079590 0.002411
0.164093 0.079651 0.002350
0.194397 0.078735 0.002716
0.225494 0.072754 0.003113
0.257568 0.072510 0.003571
0.289459 0.069733 0.003998
0.312714 0.065643 0.004333
0.337524 0.058136 0.004669
0.365753 0.054596 0.005066
0.393890 0.046814 0.005463
0.419739 0.037079 0.005829
0.442444 0.033142 0.006134
0.457916 0.025726 0.006348
0.475494 0.022644 0.006592
0.487183 0.017395 0.006744
0.502563 0.016266 0.006958
0.515961 0.010773 0.007141
0.529602 0.007355 0.007355
0.541626 0.007507 0.007507
0.552765 0.007660 0.007660
0.560303 0.007751 0.007751
0.571136 0.007904 0.007904
0.579041 0.008026 0.008026
0.586700 0.008118 0.008118
0.591217 0.008179 0.008179
0.602051 0.008331 0.008331
0.606567 0.008392 0.008392
0.013611 0.102753 0.005188
0.032776 0.102142 0.005188
0.052307 0.106506 0.005219
0.071533 0.106323 0.002136
0.097809 0.113556 0.002136
0.122314 0.118011 0.001678
0.148987 0.121429 0.002075
0.176270 0.114899 0.002441
0.206726 0.113708 0.002838
0.237823 0.112305 0.003296
0.269501 0.105011 0.003723
0.297333 0.104797 0.004120
0.321289 0.098969 0.004456
0.345276 0.092224 0.004791
0.373657 0.092194 0.005157
0.400024 0.085846 0.005524
0.427032 0.081665 0.005920
0.448425 0.074738 0.006226
0.467194 0.068756 0.006470
0.483276 0.067474 0.006683
0.494873 0.059021 0.006836
0.510345 0.057251 0.007080
0.524017 0.049713 0.007263
0.537354 0.045074 0.007446
0.551910 0.043365 0.007629
0.560211 0.036560 0.007751
0.571167 0.036804 0.007904
0.582336 0.032440 0.008087
0.586700 0.026459 0.008118
0.594421 0.023529 0.008240
0.602051 0.026642 0.008331
0.609955 0.025940 0.008453
0.614349 0.022125 0.008514
0.021271 0.122986 0.002472
0.036926 0.126160 0.002533
0.060089 0.129395 0.001862
0.079773 0.130493 0.001862
0.103546 0.137756 0.001923
0.126404 0.141327 0.001953
0.152954 0.145294 0.002106
0.187439 0.151917 0.002594
0.218689 0.153290 0.003021
0.249146 0.150513 0.003448
0.280579 0.143616 0.003876
0.309631 0.141632 0.004303
0.333740 0.133636 0.004639
0.356323 0.132629 0.004913
0.380280 0.129913 0.005249
0.404358 0.120544 0.005615
0.432770 0.117249 0.005981
0.458801 0.115753 0.006348
0.475494 0.109741 0.006592
0.492676 0.106323 0.006836
0.508270 0.104279 0.007050
0.520721 0.100006 0.007202
0.533508 0.096283 0.007385
0.545166 0.088348 0.007538
0.559570 0.088684 0.007751
0.570435 0.079926 0.007904
0.579041 0.075256 0.008026
0.589874 0.072052 0.008179
0.597565 0.071075 0.008270
0.605774 0.069244 0.008392
0.610199 0.065826 0.008453
0.620667 0.070160 0.008575
0.625275 0.068726 0.008667
0.026276 0.146393 0.002075
0.048279 0.152466 0.002136
0.071716 0.156738 0.002167
0.092316 0.157593 0.002197
0.117767 0.164124 0.002258
0.137970 0.168213 0.002319
0.164795 0.168701 0.002350
0.195984 0.176788 0.002716
0.227203 0.183990 0.003143
0.260529 0.184570 0.003601
0.292786 0.185028 0.004059
0.321167 0.180267 0.004425
0.347015 0.177094 0.004822
0.368591 0.168945 0.005096
0.391144 0.166901 0.005432
0.415344 0.163330 0.005737
0.439636 0.154907 0.006073
0.466980 0.150360 0.006470
0.484985 0.145477 0.006714
0.500366 0.140961 0.006927
0.518280 0.139740 0.007172
0.529724 0.134796 0.007355
0.543213 0.134644 0.007538
0.556763 0.130951 0.007721
0.570312 0.124542 0.007904
0.582947 0.125641 0.008087
0.593658 0.122040 0.008240
0.601379 0.118011 0.008331
0.607544 0.112488 0.008423
0.616547 0.107391 0.008545
0.624298 0.111450 0.008636
0.629211 0.108368 0.008728
0.636200 0.107697 0.008820
0.036591 0.173065 0.002411
0.060089 0.175995 0.002411
0.086426 0.179962 0.002472
0.103821 0.184113 0.002533
0.126709 0.188354 0.002594
0.150116 0.192108 0.002655
0.176666 0.195953 0.002686
0.207764 0.203796 0.002869
0.238098 0.207886 0.003296
0.269012 0.212128 0.003723
0.298706 0.213898 0.004150
0.332489 0.217163 0.004608
0.358643 0.213501 0.004944
0.380371 0.209290 0.005249
0.401520 0.201019 0.005554
0.423950 0.199768 0.005859
0.449280 0.194366 0.006226
0.474396 0.188995 0.006561
0.496216 0.183838 0.006866
0.513489 0.182007 0.007111
0.528900 0.176025 0.007324
0.541382 0.170685 0.007507
0.553009 0.168549 0.007660
0.566254 0.165833 0.007843
0.580017 0.164062 0.008026
0.591461 0.160370 0.008179
0.602936 0.154205 0.008362
0.613007 0.154602 0.008484
0.619232 0.150757 0.008575
0.628357 0.148926 0.008698
0.636169 0.147156 0.008820
0.640961 0.146057 0.008881
0.647675 0.143341 0.008972
0.052582 0.196289 0.002716
0.076843 0.200104 0.002777
0.099335 0.203918 0.002808
0.118774 0.207733 0.002869
0.138458 0.210938 0.002930
0.162384 0.215546 0.002960
0.187286 0.218964 0.003021
0.215515 0.226868 0.003143
0.245819 0.231140 0.003387
0.272949 0.235321 0.003784
0.309113 0.240814 0.004272
0.340210 0.247894 0.004700
0.364929 0.247131 0.005066
0.388245 0.241272 0.005371
0.413116 0.240021 0.005707
0.436829 0.232513 0.006042
0.461121 0.230103 0.006409
0.484009 0.226532 0.006714
0.506683 0.222992 0.007019
0.523407 0.214966 0.007263
0.540405 0.212952 0.007477
0.554565 0.206879 0.007690
0.564545 0.204163 0.007812
0.577881 0.200531 0.007996
0.589539 0.196777 0.008179
0.601990 0.193085 0.008331
0.614716 0.189331 0.008514
0.624451 0.189514 0.008636
0.630951 0.183411 0.008759
0.639923 0.183228 0.008850
0.645111 0.178345 0.008942
0.652527 0.178101 0.009033
0.659119 0.176056 0.009125
0.068481 0.219727 0.003021
0.091858 0.220825 0.003052
0.115234 0.227417 0.003143
0.130981 0.231201 0.003204
0.151642 0.235046 0.003235
0.174408 0.238800 0.003296
0.200836 0.243408 0.003357
0.225037 0.250397 0.003479
0.254364 0.254211 0.003540
0.288483 0.262299 0.003998
0.320801 0.267731 0.004425
0.349365 0.272003 0.004852
0.375122 0.274963 0.005188
0.399902 0.275299 0.005524
0.425903 0.272308 0.005890
0.447113 0.268829 0.006195
0.468903 0.264709 0.006500
0.495636 0.262054 0.006866
0.520111 0.257660 0.007202
0.535461 0.251221 0.007416
0.550751 0.246429 0.007629
0.564789 0.240204 0.007812
0.576294 0.236633 0.007996
0.587830 0.231384 0.008148
0.599335 0.227631 0.008301
0.610931 0.223969 0.008453
0.622375 0.220276 0.008606
0.633270 0.216980 0.008789
0.643768 0.215973 0.008911
0.651428 0.212646 0.009033
0.659119 0.211273 0.009125
0.666840 0.209045 0.009247
0.671997 0.209137 0.009308
0.090942 0.243042 0.003357
0.111664 0.243042 0.003357
0.129852 0.246948 0.003418
0.149292 0.250885 0.003479
0.166077 0.254822 0.003510
0.187714 0.262054 0.003632
0.214630 0.265869 0.003693
0.237122 0.271027 0.003754
0.266632 0.277557 0.003845
0.297333 0.282684 0.004120
0.328705 0.289673 0.004547
0.357208 0.295197 0.004944
0.382965 0.299255 0.005310
0.408997 0.302063 0.005676
0.432312 0.302612 0.005981
0.456268 0.300873 0.006317
0.478058 0.299377 0.006622
0.501343 0.295868 0.006958
0.527771 0.292236 0.007324
0.545502 0.287048 0.007568
0.560913 0.281097 0.007751
0.576416 0.275940 0.007996
0.589294 0.271057 0.008179
0.599457 0.264923 0.008301
0.608643 0.259918 0.008423
0.621643 0.254730 0.008606
0.633972 0.250977 0.008789
0.643646 0.247253 0.008911
0.652649 0.244843 0.009033
0.660339 0.243225 0.009155
0.670715 0.239929 0.009308
0.678284 0.239868 0.009399
0.683533 0.237457 0.009460
0.108032 0.266235 0.003693
0.127533 0.268677 0.003693
0.146759 0.272583 0.003754
0.162445 0.274078 0.003784
0.181915 0.278168 0.003845
0.201324 0.282074 0.003906
0.226990 0.289246 0.003998
0.252380 0.293091 0.004059
0.278473 0.300812 0.004181
0.309235 0.304688 0.004272
0.338593 0.312408 0.004669
0.364899 0.316772 0.005066
0.393616 0.322388 0.005463
0.415466 0.324951 0.005737
0.441101 0.326904 0.006104
0.465485 0.327240 0.006439
0.487091 0.327545 0.006744
0.512329 0.326447 0.007111
0.537994 0.322937 0.007446
0.555695 0.319336 0.007721
0.572571 0.315674 0.007935
0.588074 0.309265 0.008148
0.600800 0.303284 0.008331
0.611176 0.298248 0.008453
0.620178 0.293060 0.008575
0.631775 0.288483 0.008759
0.644257 0.284973 0.008942
0.655090 0.281281 0.009064
0.664307 0.276123 0.009216
0.672119 0.271881 0.009308
0.679993 0.270508 0.009430
0.687439 0.266724 0.009521
0.695221 0.265930 0.009613
0.126251 0.289642 0.003998
0.145721 0.293427 0.004059
0.165131 0.299561 0.004150
0.178375 0.301025 0.004150
0.197174 0.304840 0.004211
0.219391 0.309235 0.004272
0.240479 0.313263 0.004333
0.266632 0.317108 0.004395
0.293701 0.323944 0.004456
0.320984 0.328186 0.004547
0.349335 0.336853 0.004852
0.375000 0.337219 0.005188
0.401398 0.343170 0.005554
0.423187 0.345734 0.005859
0.446625 0.349945 0.006195
0.469635 0.352264 0.006500
0.496490 0.358093 0.006897
0.521942 0.354889 0.007202
0.546509 0.355286 0.007568
0.567230 0.353027 0.007843
0.582703 0.347137 0.008087
0.599731 0.342773 0.008301
0.612396 0.338959 0.008484
0.622742 0.332520 0.008636
0.634247 0.327667 0.008789
0.643402 0.323029 0.008911
0.654968 0.317871 0.009064
0.664917 0.312622 0.009216
0.675995 0.308868 0.009369
0.685944 0.305176 0.009491
0.693481 0.301147 0.009613
0.699310 0.297638 0.009674
0.705292 0.293732 0.009766
0.147675 0.318909 0.004425
0.163086 0.318909 0.004425
0.180176 0.324310 0.004486
0.194031 0.324554 0.004486
0.212921 0.327972 0.004547
0.234406 0.334595 0.004639
0.255280 0.338654 0.004700
0.282318 0.343414 0.004761
0.307098 0.348206 0.004822
0.332428 0.352234 0.004883
0.357758 0.358856 0.005005
0.384430 0.363922 0.005310
0.407623 0.366760 0.005646
0.433167 0.370911 0.005981
0.456390 0.372955 0.006317
0.479675 0.375458 0.006653
0.503174 0.379608 0.006958
0.527802 0.381683 0.007294
0.554962 0.382538 0.007690
0.574829 0.382294 0.007965
0.591949 0.378693 0.008209
0.610565 0.375061 0.008453
0.623840 0.372406 0.008636
0.634369 0.366058 0.008789
0.644989 0.361389 0.008942
0.656525 0.357727 0.009094
0.668304 0.352661 0.009277
0.678802 0.348816 0.009399
0.689758 0.344696 0.009552
0.697510 0.337555 0.009644
0.705292 0.332214 0.009766
0.712830 0.328339 0.009888
0.720581 0.328339 0.009979
0.163391 0.339966 0.004700
0.182739 0.345642 0.004791
0.196381 0.347595 0.004822
0.213409 0.351471 0.004852
0.229126 0.353943 0.004913
0.251251 0.360535 0.004974
0.269928 0.362854 0.005005
0.298065 0.369598 0.005127
0.321930 0.374390 0.005188
0.346985 0.380219 0.005249
0.371765 0.384003 0.005310
0.396057 0.385895 0.005463
0.420868 0.391388 0.005829
0.442566 0.393982 0.006134
0.465851 0.398071 0.006439
0.491089 0.402283 0.006805
0.514404 0.406403 0.007141
0.539215 0.408600 0.007446
0.562592 0.412872 0.007782
0.584290 0.413696 0.008087
0.602997 0.407684 0.008362
0.620422 0.406158 0.008606
0.635406 0.402100 0.008789
0.645966 0.397614 0.008942
0.655731 0.392822 0.009094
0.669159 0.392212 0.009277
0.676727 0.381622 0.009369
0.688202 0.377289 0.009552
0.701385 0.377106 0.009705
0.709045 0.370117 0.009827
0.716431 0.362793 0.009918
0.722321 0.359070 0.010010
0.732239 0.357269 0.010132
0.183167 0.369110 0.005127
0.200592 0.370941 0.005127
0.214050 0.373047 0.005188
0.233093 0.378510 0.005249
0.250275 0.381836 0.005280
0.264862 0.382812 0.005310
0.289368 0.388672 0.005402
0.312866 0.393646 0.005463
0.335846 0.400513 0.005554
0.360718 0.403320 0.005585
0.382935 0.408325 0.005676
0.407196 0.412384 0.005707
0.431091 0.415039 0.005951
0.450378 0.418640 0.006226
0.475647 0.424805 0.006592
0.496979 0.425232 0.006897
0.523987 0.431274 0.007263
0.543365 0.431641 0.007507
0.570160 0.437408 0.007904
0.591949 0.437622 0.008209
0.611420 0.440704 0.008484
0.630707 0.442352 0.008728
0.646210 0.437927 0.008942
0.656555 0.431976 0.009094
0.667267 0.426514 0.009247
0.676849 0.423767 0.009369
0.688324 0.418884 0.009552
0.699921 0.412445 0.009705
0.711365 0.407227 0.009857
0.720093 0.404205 0.009979
0.728241 0.397156 0.010101
0.734070 0.391510 0.010162
0.741730 0.387817 0.010284
0.206757 0.394165 0.005493
0.222076 0.396088 0.005524
0.235535 0.399780 0.005554
0.252655 0.402100 0.005585
0.266388 0.403900 0.005615
0.283539 0.407837 0.005646
0.303772 0.411377 0.005707
0.328522 0.416992 0.005768
0.352539 0.424713 0.005890
0.371613 0.424591 0.005890
0.394623 0.428375 0.005951
0.419495 0.436035 0.006042
0.438782 0.437439 0.006073
0.462097 0.440521 0.006409
0.481720 0.442230 0.006683
0.506439 0.447876 0.007019
0.527924 0.450287 0.007324
0.552887 0.456207 0.007660
0.581970 0.460449 0.008057
0.599731 0.461151 0.008301
0.619080 0.463196 0.008575
0.636353 0.465179 0.008820
0.652649 0.463593 0.009033
0.665405 0.463776 0.009216
0.676971 0.457947 0.009369
0.688446 0.457214 0.009552
0.699310 0.452911 0.009674
0.709412 0.444824 0.009827
0.720367 0.440552 0.009979
0.732117 0.437042 0.010132
0.739532 0.431580 0.010254
0.745605 0.425720 0.010345
0.753265 0.420441 0.010437
0.228088 0.417542 0.009552
0.241791 0.419647 0.009583
0.255280 0.425079 0.006195
0.268372 0.424957 0.005981
0.283630 0.427032 0.005981
0.303406 0.431396 0.006012
0.320923 0.435364 0.006012
0.345001 0.440948 0.006104
0.365204 0.444855 0.006165
0.383728 0.447021 0.006195
0.407532 0.452637 0.006256
0.427643 0.456573 0.006317
0.452362 0.460571 0.006378
0.471466 0.463013 0.006531
0.489014 0.464813 0.006775
0.512726 0.467560 0.007111
0.537537 0.471527 0.007446
0.560394 0.475403 0.007751
0.587555 0.481750 0.008148
0.607391 0.485718 0.008423
0.625061 0.484467 0.008667
0.643646 0.487701 0.008942
0.661591 0.489960 0.009155
0.672119 0.488373 0.009308
0.684631 0.486908 0.009491
0.695282 0.481018 0.009613
0.705505 0.478333 0.009766
0.719177 0.476898 0.009949
0.730774 0.471008 0.010101
0.740540 0.468262 0.010254
0.749481 0.462341 0.010376
0.755066 0.457977 0.010468
0.765015 0.454773 0.010590
0.246094 0.440613 0.008362
0.263031 0.444489 0.006195
0.278473 0.448120 0.006195
0.289825 0.449951 0.006226
0.304810 0.451782 0.006256
0.321167 0.454498 0.006287
0.341553 0.460205 0.006378
0.360748 0.464081 0.006409
0.378845 0.467010 0.006470
0.397797 0.470886 0.006500
0.419250 0.475952 0.006592
0.439484 0.479858 0.006653
0.460083 0.480713 0.006653
0.479218 0.483765 0.006714
0.502441 0.488434 0.006958
0.521698 0.490204 0.007202
0.547150 0.496185 0.007568
0.570129 0.500366 0.007904
0.593536 0.502350 0.008209
0.615204 0.504822 0.008514
0.632050 0.508728 0.008759
0.649963 0.509125 0.009003
0.668152 0.509369 0.009247
0.679779 0.511871 0.009399
0.691345 0.509705 0.009583
0.703094 0.509918 0.009735
0.714630 0.507050 0.009888
0.726898 0.506439 0.010071
0.738464 0.500336 0.010223
0.747192 0.496613 0.010345
0.757263 0.493011 0.010498
0.765015 0.489075 0.010590
0.772675 0.485504 0.010712
0.271179 0.467865 0.022034
0.285156 0.471771 0.022095
0.296600 0.471863 0.018555
0.309967 0.475739 0.018372
0.323364 0.479126 0.016998
0.341461 0.482330 0.016449
0.358032 0.483490 0.013306
0.376343 0.487366 0.013336
0.391205 0.489777 0.010559
0.411743 0.494019 0.008301
0.431091 0.496582 0.008362
0.451324 0.501556 0.007019
0.470337 0.502899 0.006989
0.489380 0.506805 0.007050
0.510254 0.510712 0.007080
0.533508 0.513367 0.007385
0.556396 0.517120 0.007690
0.578033 0.521210 0.007996
0.601318 0.523560 0.008331
0.620544 0.527710 0.008606
0.638275 0.527954 0.008850
0.657684 0.531982 0.009125
0.673218 0.532318 0.009338
0.684631 0.532440 0.009491
0.696136 0.532501 0.009644
0.710144 0.532776 0.009857
0.721588 0.532227 0.010010
0.734070 0.533051 0.010162
0.746094 0.529480 0.010345
0.757233 0.526794 0.010498
0.765045 0.523193 0.010590
0.772675 0.519470 0.010712
0.780334 0.512054 0.010803
0.294891 0.495209 0.042511
0.306396 0.495178 0.040009
0.318054 0.498840 0.038757
0.329590 0.500336 0.034790
0.343994 0.502380 0.030914
0.358551 0.506134 0.029694
0.373871 0.508026 0.025879
0.389160 0.510559 0.022156
0.407349 0.514343 0.017090
0.426392 0.518219 0.011993
0.444031 0.520935 0.008453
0.462006 0.524658 0.007324
0.481110 0.527374 0.007355
0.501282 0.529907 0.007385
0.520386 0.533966 0.007385
0.539490 0.536072 0.007477
0.563202 0.540131 0.007812
0.589294 0.542389 0.008179
0.606781 0.544342 0.008423
0.628296 0.548370 0.008698
0.646057 0.550903 0.008942
0.665405 0.551147 0.009216
0.679657 0.555237 0.009399
0.692352 0.555420 0.009583
0.702972 0.555511 0.009735
0.715363 0.555664 0.009918
0.730164 0.555878 0.010101
0.741028 0.556061 0.010254
0.752441 0.556244 0.010437
0.765045 0.552490 0.010590
0.772675 0.549866 0.010712
0.780334 0.546234 0.010803
0.788055 0.542664 0.010925
0.314392 0.514465 0.050323
0.328552 0.520905 0.049194
0.337585 0.520721 0.045380
0.351379 0.522217 0.041565
0.363373 0.524841 0.037811
0.374146 0.526001 0.031769
0.389496 0.531891 0.026947
0.404724 0.531677 0.023285
0.419983 0.535431 0.015869
0.439148 0.539093 0.008606
0.457092 0.541412 0.007599
0.473541 0.544098 0.007599
0.491638 0.546509 0.007568
0.511993 0.550293 0.007629
0.529907 0.553101 0.007660
0.551239 0.555786 0.007690
0.571625 0.559784 0.007935
0.595428 0.561920 0.008240
0.616302 0.565491 0.008545
0.634399 0.568420 0.008789
0.653748 0.570129 0.009064
0.669342 0.572754 0.009277
0.684631 0.574097 0.009521
0.696136 0.574219 0.009644
0.710388 0.575439 0.009857
0.721832 0.577240 0.010010
0.733459 0.577423 0.010162
0.746094 0.578827 0.010345
0.757111 0.578918 0.010498
0.771851 0.575317 0.010681
0.780334 0.575439 0.010803
0.788055 0.571686 0.010925
0.795868 0.569122 0.011017
0.340851 0.536926 0.070801
0.348267 0.537933 0.064209
0.359650 0.540436 0.060638
0.368713 0.541748 0.058044
0.379089 0.543976 0.053253
0.390015 0.545532 0.050629
0.404236 0.548279 0.046234
0.419708 0.552368 0.042511
0.435822 0.553101 0.035645
0.450989 0.556946 0.030945
0.467926 0.558502 0.029419
0.484497 0.562256 0.027222
0.502258 0.567505 0.030029
0.518982 0.568542 0.024994
0.539124 0.572418 0.022430
0.560303 0.573364 0.022430
0.581451 0.578308 0.021729
0.605347 0.582367 0.019104
0.622894 0.586761 0.019318
0.642303 0.585419 0.016998
0.657990 0.588898 0.013947
0.677002 0.591858 0.012909
0.691132 0.593109 0.009674
0.702881 0.593353 0.009827
0.715240 0.594482 0.009979
0.726013 0.596741 0.010071
0.737732 0.596710 0.010223
0.749268 0.598022 0.010376
0.764313 0.598694 0.010590
0.775726 0.598358 0.010742
0.786865 0.598389 0.010895
0.795746 0.598541 0.011017
0.802399 0.594727 0.011108
0.357574 0.556458 0.091095
0.368164 0.557373 0.088226
0.379486 0.561249 0.088257
0.384521 0.561218 0.084351
0.394592 0.563599 0.080536
0.409241 0.567352 0.080597
0.420502 0.571106 0.076782
0.434448 0.571747 0.070770
0.449829 0.574646 0.069122
0.464264 0.575531 0.063629
0.478394 0.578156 0.060547
0.495331 0.581940 0.058319
0.511993 0.584229 0.055359
0.530426 0.588074 0.051697
0.550171 0.590973 0.047089
0.571381 0.593048 0.043488
0.591217 0.597809 0.038757
0.612518 0.599854 0.034119
0.628571 0.603882 0.029724
0.650024 0.607880 0.022522
0.665375 0.610962 0.015778
0.680786 0.611053 0.011932
0.694916 0.613861 0.009674
0.706726 0.612305 0.009827
0.718170 0.612518 0.010010
0.732849 0.615784 0.010132
0.742218 0.616547 0.010284
0.756592 0.616913 0.010468
0.768677 0.616974 0.010651
0.780212 0.620697 0.010803
0.791992 0.620483 0.010986
0.799622 0.624176 0.011078
0.807281 0.618561 0.011200
0.380402 0.576019 0.118195
0.387939 0.579834 0.118134
0.392517 0.576782 0.111572
0.403320 0.579865 0.110504
0.412231 0.581146 0.108032
0.421783 0.583679 0.106750
0.436371 0.586853 0.102905
0.448547 0.588379 0.099731
0.463104 0.591431 0.098083
0.475098 0.594238 0.091217
0.490356 0.595337 0.087341
0.505676 0.599152 0.082703
0.522552 0.601532 0.077332
0.541534 0.604523 0.072815
0.561218 0.607544 0.064423
0.579346 0.610474 0.056915
0.599396 0.614288 0.049408
0.623199 0.618134 0.041199
0.636353 0.619049 0.033630
0.654572 0.622803 0.022614
0.673157 0.623657 0.014618
0.684967 0.626160 0.009552
0.699188 0.626831 0.009674
0.713409 0.630493 0.009888
0.722076 0.630585 0.010010
0.734558 0.631622 0.010986
0.748291 0.633942 0.010376
0.757721 0.634888 0.011902
0.772461 0.635437 0.011871
0.787018 0.638611 0.012543
0.795135 0.639282 0.012665
0.803406 0.639343 0.013702
0.814087 0.639587 0.013763
0.397034 0.592438 0.137421
0.407654 0.595825 0.139740
0.412964 0.596497 0.134552
0.423828 0.600403 0.136841
0.433502 0.602295 0.132935
0.439026 0.600311 0.129761
0.450562 0.604156 0.125977
0.463715 0.606415 0.122162
0.476685 0.607208 0.118500
0.491028 0.611053 0.115540
0.503113 0.611694 0.108673
0.519409 0.616638 0.106110
0.533539 0.617859 0.097229
0.552612 0.619232 0.088867
0.573303 0.624695 0.081360
0.593140 0.627380 0.073822
0.610107 0.629791 0.062469
0.631165 0.633606 0.056427
0.645782 0.634613 0.048309
0.661774 0.637573 0.040100
0.681091 0.641571 0.035004
0.692444 0.641632 0.025208
0.704071 0.641815 0.028442
0.718353 0.645660 0.031372
0.730133 0.646118 0.033051
