滤镜资源/Professional Luts Collection/Lutify.me Professional/Cine Looks/Phenakite.cube
# Created by: Lutify.me
# Copyright: (c) Copyright Lutify.me 2015
# Website: https://lutify.me
#LUT size
LUT_3D_SIZE 9
#LUT data points
0.000000 0.000000 0.000000
0.137207 0.010101 0.002441
0.283569 0.003906 0.003906
0.399109 0.005524 0.005524
0.463074 0.006409 0.006409
0.509735 0.007050 0.007050
0.539612 0.007477 0.007477
0.559845 0.007751 0.007751
0.579041 0.008026 0.008026
0.013275 0.078644 0.004852
0.086456 0.086090 0.004944
0.194397 0.078735 0.002716
0.312714 0.065643 0.004333
0.419739 0.037079 0.005829
0.487183 0.017395 0.006744
0.541626 0.007507 0.007507
0.579041 0.008026 0.008026
0.606567 0.008392 0.008392
0.036591 0.173065 0.002411
0.126709 0.188354 0.002594
0.238098 0.207886 0.003296
0.358643 0.213501 0.004944
0.449280 0.194366 0.006226
0.528900 0.176025 0.007324
0.580017 0.164062 0.008026
0.619232 0.150757 0.008575
0.647675 0.143341 0.008972
0.108032 0.266235 0.003693
0.181915 0.278168 0.003845
0.278473 0.300812 0.004181
0.393616 0.322388 0.005463
0.487091 0.327545 0.006744
0.572571 0.315674 0.007935
0.620178 0.293060 0.008575
0.664307 0.276123 0.009216
0.695221 0.265930 0.009613
0.183167 0.369110 0.005127
0.250275 0.381836 0.005280
0.335846 0.400513 0.005554
0.431091 0.415039 0.005951
0.523987 0.431274 0.007263
0.611420 0.440704 0.008484
0.667267 0.426514 0.009247
0.711365 0.407227 0.009857
0.741730 0.387817 0.010284
0.271179 0.467865 0.022034
0.323364 0.479126 0.016998
0.391205 0.489777 0.010559
0.470337 0.502899 0.006989
0.556396 0.517120 0.007690
0.638275 0.527954 0.008850
0.696136 0.532501 0.009644
0.746094 0.529480 0.010345
0.780334 0.512054 0.010803
0.357574 0.556458 0.091095
0.394592 0.563599 0.080536
0.449829 0.574646 0.069122
0.511993 0.584229 0.055359
0.591217 0.597809 0.038757
0.665375 0.610962 0.015778
0.718170 0.612518 0.010010
0.768677 0.616974 0.010651
0.807281 0.618561 0.011200
0.440094 0.631439 0.180664
0.466339 0.637695 0.175873
0.507507 0.645386 0.168701
0.565887 0.654083 0.149200
0.632996 0.662048 0.127045
0.696136 0.673401 0.114441
0.742554 0.677673 0.103485
0.788696 0.682007 0.088959
0.827393 0.686249 0.081329
0.514069 0.693390 0.249817
0.536804 0.697266 0.245972
0.574982 0.703949 0.238281
0.627380 0.712616 0.230591
0.678619 0.720459 0.218811
0.724304 0.728058 0.207245
0.766876 0.732239 0.196136
0.809662 0.737000 0.185059
0.847626 0.740662 0.177795
0.009460 0.005524 0.093262
0.098511 0.009674 0.048553
0.263367 0.003662 0.036041
0.393616 0.005463 0.023590
0.466492 0.006470 0.011108
0.519135 0.007202 0.007202
0.552032 0.007629 0.007629
0.578552 0.008026 0.008026
0.598541 0.008301 0.008301
0.001495 0.071136 0.037720
0.087921 0.095123 0.067780
0.202148 0.097839 0.051483
0.340363 0.106903 0.039520
0.453400 0.101349 0.021851
0.526001 0.083374 0.010590
0.582428 0.068390 0.008118
0.618256 0.057526 0.008575
0.648651 0.064850 0.009033
0.002472 0.179962 0.075653
0.109222 0.205170 0.081329
0.236053 0.223999 0.069275
0.359680 0.217133 0.045502
0.462860 0.208954 0.029083
0.552582 0.203613 0.013275
0.606506 0.192657 0.008453
0.651550 0.186005 0.009552
0.679565 0.179596 0.012238
0.052856 0.294128 0.111877
0.160156 0.309021 0.100372
0.274994 0.324921 0.082520
0.392914 0.344543 0.062286
0.492889 0.341675 0.034485
0.581757 0.323761 0.028839
0.638062 0.308594 0.024414
0.683472 0.297455 0.012756
0.714752 0.290466 0.009918
0.145172 0.395874 0.139801
0.225555 0.409668 0.131256
0.326996 0.426544 0.112610
0.428925 0.441376 0.090424
0.525208 0.453156 0.057922
0.615204 0.457458 0.034180
0.672546 0.437988 0.032104
0.719543 0.418488 0.038086
0.753357 0.399902 0.042847
0.247009 0.496979 0.178772
0.304840 0.502716 0.169128
0.383301 0.517700 0.159637
0.465363 0.530701 0.143097
0.556458 0.539978 0.117798
0.643433 0.551788 0.088379
0.700928 0.552277 0.063202
0.749664 0.542297 0.055237
0.788818 0.527679 0.055298
0.345734 0.582153 0.222443
0.385559 0.589417 0.217041
0.445374 0.600189 0.212280
0.512390 0.611755 0.202728
0.592560 0.620697 0.179504
0.668365 0.629242 0.160614
0.723572 0.636078 0.152069
0.774719 0.640900 0.133423
0.816620 0.642822 0.126251
0.437622 0.651123 0.267761
0.464386 0.655640 0.261505
0.506012 0.663361 0.257202
0.570007 0.674408 0.247101
0.637726 0.684937 0.236542
0.699127 0.693634 0.225555
0.747437 0.697479 0.214294
0.794342 0.702698 0.199890
0.835754 0.706543 0.192688
0.515076 0.705963 0.315582
0.537994 0.713226 0.311768
0.576172 0.717743 0.307465
0.628510 0.727875 0.300293
0.685150 0.736511 0.292084
0.725494 0.740692 0.282776
0.768921 0.745789 0.272827
0.814178 0.752502 0.265656
0.848724 0.756805 0.258301
0.010803 0.002686 0.194275
0.087982 0.002350 0.164154
0.246918 0.003418 0.163330
0.381256 0.005280 0.152557
0.471832 0.006531 0.141388
0.532288 0.007385 0.130310
0.571075 0.007904 0.122742
0.601440 0.008331 0.119293
0.626007 0.008667 0.118652
0.002838 0.118225 0.205444
0.066681 0.115692 0.205353
0.216003 0.128845 0.199646
0.355072 0.134735 0.193481
0.475494 0.129517 0.179230
0.554565 0.120667 0.167236
0.612793 0.109589 0.157867
0.653412 0.108185 0.152435
0.681274 0.101593 0.143127
0.002014 0.146149 0.116821
0.037262 0.231293 0.210327
0.230499 0.250183 0.228088
0.372894 0.260956 0.218994
0.490326 0.264832 0.206848
0.583527 0.263977 0.192108
0.644135 0.257812 0.180847
0.693970 0.256012 0.172729
0.725189 0.248108 0.167328
0.003357 0.242676 0.148254
0.075165 0.315491 0.223053
0.262970 0.355316 0.249023
0.394348 0.371185 0.237396
0.498016 0.361328 0.223694
0.595520 0.355194 0.212280
0.656677 0.345703 0.202362
0.709564 0.341400 0.194855
0.747589 0.336914 0.187592
0.057251 0.392303 0.242096
0.186584 0.434906 0.270935
0.312897 0.454102 0.268921
0.424408 0.471680 0.260895
0.523468 0.479065 0.248444
0.619934 0.476746 0.236145
0.680054 0.456573 0.225250
0.735321 0.444244 0.219177
0.771942 0.433594 0.211731
0.207520 0.517853 0.297607
0.289917 0.532745 0.299408
0.372925 0.545135 0.294830
0.462280 0.556702 0.284668
0.552307 0.565735 0.270477
0.645813 0.576813 0.262329
0.706482 0.577484 0.253418
0.763184 0.567108 0.245422
0.803162 0.548889 0.241119
0.334381 0.609680 0.335693
0.381744 0.617462 0.331940
0.440491 0.625122 0.323273
0.511841 0.638153 0.316132
0.600433 0.649231 0.304077
0.677612 0.658752 0.292694
0.729767 0.662750 0.282684
0.783997 0.667175 0.275452
0.826569 0.664825 0.267273
0.431305 0.678070 0.370697
0.461823 0.682404 0.367340
0.507355 0.690613 0.363556
0.571747 0.697266 0.352295
0.642883 0.708801 0.343109
0.703369 0.715057 0.335754
0.750458 0.719421 0.325012
0.803253 0.726227 0.317902
0.841705 0.727173 0.311127
0.512848 0.729858 0.408295
0.539581 0.733734 0.407867
0.577759 0.741394 0.400421
0.630127 0.749115 0.396606
0.685272 0.756775 0.386932
0.727142 0.760590 0.381134
0.773163 0.766327 0.369568
0.816010 0.772614 0.363800
0.853241 0.776855 0.357910
0.007874 0.003754 0.271149
0.085388 0.003601 0.259277
0.231689 0.003662 0.265625
0.364532 0.005035 0.260712
0.474762 0.006592 0.253174
0.542603 0.007507 0.244934
0.587799 0.008148 0.239288
0.619232 0.008575 0.235931
0.645721 0.008942 0.234802
0.004456 0.133026 0.321503
0.052307 0.132202 0.322174
0.218201 0.145660 0.322479
0.363129 0.152649 0.318787
0.486603 0.149414 0.310852
0.566528 0.141144 0.294464
0.627289 0.133575 0.286438
0.667389 0.126221 0.279205
0.697815 0.124664 0.274170
0.004089 0.212585 0.294647
0.011017 0.250977 0.347717
0.224640 0.273407 0.356567
0.377289 0.286316 0.353790
0.497925 0.290436 0.341461
0.595642 0.292267 0.332062
0.662292 0.290741 0.321899
0.715729 0.290466 0.315857
0.746490 0.286377 0.309998
0.002960 0.212433 0.194519
0.003876 0.279633 0.264832
0.201080 0.376709 0.360901
0.389404 0.391754 0.371613
0.507843 0.399506 0.361969
0.618225 0.406403 0.357544
0.684204 0.409119 0.349152
0.742432 0.407898 0.341187
0.778015 0.404205 0.333679
0.003906 0.283142 0.202179
0.009003 0.351501 0.262054
0.227264 0.439392 0.342743
0.421814 0.496643 0.397644
0.527771 0.503143 0.385223
0.630157 0.496735 0.375397
0.694275 0.487366 0.367981
0.753387 0.484131 0.360474
0.791992 0.483124 0.353607
0.015076 0.421783 0.285034
0.150391 0.480988 0.332916
0.335144 0.552032 0.397064
0.463135 0.589325 0.419128
0.563477 0.598969 0.411346
0.657013 0.605499 0.400391
0.716675 0.605713 0.392731
0.771912 0.587463 0.383728
0.811371 0.576324 0.378906
0.215363 0.581512 0.383636
0.320679 0.612915 0.412354
0.428162 0.650970 0.441376
0.513916 0.665466 0.442230
0.605530 0.678009 0.436035
0.682953 0.688568 0.426880
0.735687 0.690491 0.417236
0.791229 0.695068 0.411560
0.832367 0.688812 0.405273
0.396149 0.684265 0.451996
0.444611 0.699005 0.464020
0.506317 0.715485 0.473450
0.576050 0.724854 0.466248
0.645386 0.734985 0.462860
0.704834 0.740692 0.456512
0.755585 0.746552 0.448395
0.805420 0.749023 0.438782
0.843384 0.751343 0.431488
0.505615 0.747559 0.495056
0.537231 0.753937 0.499084
0.583405 0.761719 0.497742
0.631775 0.769470 0.496368
0.686951 0.777130 0.490082
0.728851 0.782593 0.482300
0.778656 0.788818 0.475952
0.820923 0.793030 0.470978
0.855743 0.797241 0.463501
0.004852 0.004944 0.350098
0.090576 0.004883 0.353546
0.228912 0.004974 0.357971
0.360596 0.004974 0.358459
0.482697 0.006683 0.357727
0.550537 0.007629 0.349060
0.603455 0.008362 0.344879
0.636353 0.008820 0.342346
0.663300 0.009186 0.338837
0.005707 0.150299 0.411041
0.046387 0.153870 0.416016
0.224213 0.164978 0.419617
0.370514 0.172394 0.419250
0.492889 0.169464 0.411957
0.575684 0.164185 0.406250
0.637299 0.151489 0.397705
0.679993 0.149139 0.391785
0.711761 0.145142 0.385468
0.005798 0.252319 0.417908
0.023102 0.265015 0.441162
0.222504 0.287933 0.454346
0.379547 0.301117 0.455444
0.497711 0.307129 0.448242
0.599274 0.307098 0.442383
0.668427 0.306580 0.437988
0.722229 0.304871 0.432434
0.754578 0.306793 0.430511
0.004944 0.283539 0.356445
0.005676 0.329803 0.410553
0.195404 0.387085 0.471252
0.393372 0.412262 0.481842
0.510620 0.420837 0.476807
0.624084 0.430725 0.473572
0.691254 0.435059 0.469696
0.752472 0.435913 0.465668
0.788635 0.436401 0.462799
0.003601 0.260834 0.253998
0.004395 0.317474 0.314209
0.044281 0.412842 0.401886
0.377106 0.522186 0.493805
0.534790 0.532806 0.502899
0.645599 0.540527 0.499054
0.712250 0.543793 0.494598
0.772400 0.544983 0.488068
0.810913 0.542084 0.485138
0.004425 0.319916 0.248108
0.005249 0.378906 0.297272
0.120819 0.466339 0.375977
0.393646 0.571838 0.464111
0.568665 0.625427 0.519379
0.665009 0.633636 0.519928
0.723145 0.626160 0.511444
0.780884 0.619690 0.506317
0.820801 0.612396 0.498566
0.006134 0.442627 0.315491
0.075714 0.494598 0.358856
0.259857 0.572449 0.425446
0.446838 0.649292 0.494049
0.605377 0.701355 0.542786
0.684814 0.712524 0.538879
0.741150 0.713287 0.529449
0.798370 0.717834 0.525299
0.836884 0.706757 0.519897
0.139404 0.586975 0.410950
0.275360 0.622986 0.439850
0.397400 0.669678 0.484955
0.535370 0.724304 0.536194
0.653961 0.759277 0.567657
0.707092 0.763062 0.559845
0.759583 0.768768 0.552063
0.810303 0.770691 0.545746
0.845337 0.773468 0.537781
0.390076 0.705048 0.495941
0.435059 0.722931 0.513763
0.518524 0.749817 0.544098
0.618134 0.780304 0.575775
0.686615 0.797638 0.587341
0.730408 0.801422 0.580017
0.781250 0.809113 0.574707
0.822784 0.813049 0.569977
0.857117 0.815338 0.562592
0.005737 0.040985 0.413513
0.090515 0.033478 0.427612
0.234375 0.030548 0.441284
0.369934 0.024170 0.451477
0.490631 0.006836 0.451782
0.562256 0.007812 0.448914
0.617737 0.008575 0.443359
0.653992 0.009064 0.439484
0.680969 0.009430 0.431641
0.006500 0.171814 0.470581
0.034821 0.176270 0.482269
0.227997 0.187836 0.499084
0.376404 0.194336 0.506561
0.497162 0.189850 0.504547
0.584381 0.184082 0.499298
0.645630 0.177002 0.491302
0.691071 0.176636 0.488068
0.725311 0.175659 0.485046
0.006897 0.273773 0.497559
0.018463 0.285034 0.517944
0.227081 0.307587 0.539154
0.382904 0.317596 0.544342
0.505310 0.322021 0.545380
0.607361 0.323853 0.539948
0.673096 0.323303 0.535522
0.727844 0.323059 0.531281
0.762695 0.319153 0.524902
0.006775 0.341217 0.489716
0.007141 0.361481 0.515228
0.215576 0.405609 0.559113
0.400085 0.433533 0.578888
0.525452 0.443298 0.579468
0.627228 0.446350 0.572418
0.696350 0.448303 0.569000
0.755615 0.450592 0.565979
0.791260 0.450104 0.562134
0.005737 0.345490 0.414459
0.006256 0.382294 0.451233
0.050079 0.463379 0.533752
0.390503 0.534027 0.594635
0.549988 0.553802 0.606781
0.650421 0.558319 0.601166
0.715088 0.560211 0.598541
0.773926 0.564453 0.596497
0.815948 0.567444 0.591248
0.004303 0.307678 0.309784
0.004974 0.357849 0.360382
0.006134 0.442139 0.435120
0.259155 0.557800 0.535980
0.523163 0.657166 0.620636
0.662537 0.657654 0.623566
0.730530 0.658081 0.620575
0.789764 0.663177 0.618927
0.831879 0.666229 0.615570
0.004944 0.357849 0.294586
0.005585 0.403015 0.336243
0.040680 0.479980 0.401306
0.290680 0.584503 0.483765
0.517670 0.683533 0.572235
0.677063 0.729462 0.625488
0.747528 0.737091 0.639008
0.800354 0.737244 0.632843
0.838409 0.731018 0.629456
0.006317 0.456787 0.343384
0.020294 0.500671 0.380859
0.118256 0.572388 0.433594
0.373016 0.652679 0.505676
0.558929 0.725616 0.582092
0.696686 0.773926 0.643311
0.766052 0.789795 0.651459
0.812195 0.791504 0.647766
0.846802 0.791901 0.641846
0.047668 0.583099 0.420746
0.187531 0.615936 0.449646
0.328339 0.665833 0.494568
0.469604 0.724396 0.553711
0.625427 0.781342 0.616852
0.724060 0.816101 0.658417
0.782715 0.825409 0.663971
0.825104 0.831635 0.660095
0.854248 0.831879 0.656311
0.006561 0.087952 0.474030
0.086243 0.088318 0.490814
0.242035 0.091583 0.509552
0.377014 0.087219 0.518372
0.497650 0.067841 0.519073
0.571594 0.042084 0.515533
0.632263 0.032257 0.515259
0.670227 0.038788 0.511993
0.701019 0.034180 0.512329
0.007233 0.198242 0.520691
0.047180 0.204956 0.541565
0.237579 0.215179 0.555176
0.383392 0.224274 0.563660
0.505188 0.222260 0.564117
0.593597 0.215698 0.562469
0.654297 0.207703 0.558899
0.703461 0.210846 0.560577
0.734192 0.204346 0.557434
0.007690 0.294159 0.554779
0.015198 0.309601 0.577972
0.233368 0.325836 0.597473
0.395844 0.342957 0.606842
0.521027 0.346954 0.607880
0.617096 0.346039 0.605591
0.680725 0.342010 0.601074
0.732117 0.339294 0.597809
0.766907 0.338287 0.597351
0.007812 0.376190 0.564606
0.026733 0.397034 0.592133
0.247162 0.430573 0.623230
0.411285 0.450897 0.639771
0.534668 0.459259 0.640411
0.634827 0.462128 0.638000
0.700928 0.461548 0.633514
0.756744 0.462311 0.630402
0.793884 0.460388 0.629883
0.007568 0.423889 0.545929
0.007874 0.446320 0.569031
0.144196 0.491333 0.609985
0.407074 0.545746 0.653198
0.560577 0.570190 0.669128
0.654694 0.575623 0.665405
0.719177 0.573883 0.662231
0.776489 0.574219 0.658661
0.816071 0.576233 0.655701
0.006592 0.410339 0.475983
0.006836 0.427917 0.492645
0.007782 0.504730 0.562134
0.303192 0.596588 0.633331
0.534271 0.657104 0.676636
0.671265 0.672729 0.688354
0.736176 0.674377 0.685181
0.790497 0.672241 0.679596
0.832703 0.675690 0.678772
0.004944 0.348694 0.356964
0.005463 0.389740 0.394684
0.006439 0.464325 0.463196
0.098724 0.566772 0.552826
0.420258 0.676331 0.641815
0.659485 0.755676 0.704681
0.743683 0.755280 0.701385
0.805084 0.753479 0.695160
0.843170 0.757355 0.694702
0.005402 0.389648 0.341003
0.005981 0.430939 0.376343
0.009888 0.490753 0.426697
0.184174 0.588043 0.500275
0.434052 0.686707 0.587677
0.648315 0.768158 0.662964
0.751343 0.798126 0.693604
0.816895 0.802887 0.706146
0.851074 0.803802 0.703186
0.006500 0.468201 0.367218
0.007019 0.506805 0.401215
0.016083 0.568054 0.443268
0.267731 0.643341 0.508942
0.468933 0.721954 0.587646
0.656525 0.790833 0.658020
0.763855 0.825409 0.698395
0.828491 0.844360 0.718414
0.859253 0.845490 0.717621
0.007202 0.138184 0.519684
0.084412 0.140015 0.541107
0.248810 0.145050 0.561554
0.385406 0.145233 0.574860
0.511047 0.137390 0.581146
0.584045 0.124573 0.577606
0.645233 0.113556 0.577789
0.683197 0.099487 0.574249
0.717407 0.095459 0.574646
0.007751 0.223785 0.559174
0.047211 0.236237 0.582886
0.249329 0.248962 0.604523
0.400635 0.258057 0.619934
0.519562 0.256653 0.623840
0.606598 0.251709 0.622284
0.670074 0.246979 0.618500
0.712616 0.240692 0.615082
0.746399 0.244110 0.615662
0.008331 0.318512 0.600739
0.055969 0.331940 0.621552
0.252869 0.351074 0.643494
0.406982 0.366913 0.658081
0.534241 0.370911 0.662079
0.627136 0.369415 0.661072
0.692291 0.366394 0.658051
0.740784 0.363617 0.655273
0.771973 0.354706 0.649048
0.008698 0.407501 0.626770
0.030060 0.423645 0.645996
0.266632 0.454651 0.674408
0.421783 0.470612 0.688354
0.549255 0.479187 0.694580
0.645050 0.482605 0.694641
0.709595 0.479370 0.691376
0.762817 0.477692 0.687714
0.795624 0.474243 0.682770
0.008698 0.469849 0.626770
0.008972 0.493347 0.648682
0.225128 0.527069 0.680206
0.428009 0.565033 0.707153
0.569702 0.585419 0.719696
0.659943 0.589020 0.719482
0.727692 0.590576 0.719604
0.783997 0.591858 0.714844
0.818146 0.587921 0.710846
0.008240 0.493134 0.593872
0.008484 0.514526 0.611542
0.094788 0.550446 0.642853
0.366302 0.618073 0.696960
0.563019 0.666077 0.730957
0.678894 0.687958 0.742401
0.740906 0.688538 0.739136
0.798065 0.689819 0.737000
0.832855 0.686432 0.733551
0.007416 0.472076 0.534149
0.007507 0.483734 0.542480
0.007965 0.525116 0.575928
0.168640 0.625763 0.650299
0.472809 0.704895 0.714783
0.661865 0.751831 0.747650
0.756439 0.761353 0.752411
0.809753 0.765869 0.753082
0.843933 0.765808 0.749115
0.005676 0.401520 0.410065
0.005920 0.419830 0.428192
0.006683 0.480469 0.482849
0.007935 0.572815 0.564240
0.306702 0.675232 0.643219
0.563477 0.764557 0.716217
0.737244 0.821564 0.767120
0.810577 0.822418 0.764587
0.851837 0.818909 0.757599
0.005859 0.423584 0.385895
0.006317 0.457275 0.413147
0.007019 0.507751 0.454926
0.101105 0.592773 0.523560
0.354736 0.679321 0.597351
0.565887 0.763153 0.666595
0.723602 0.822815 0.726624
0.810272 0.848633 0.749664
0.855774 0.853271 0.764069
0.007782 0.185242 0.562653
0.082397 0.194336 0.586975
0.265320 0.203094 0.607849
0.404266 0.204254 0.620667
0.528107 0.200470 0.628479
0.604370 0.191071 0.628326
0.664703 0.181244 0.631653
0.703430 0.173859 0.629059
0.734222 0.170380 0.629456
0.008270 0.258667 0.597778
0.062408 0.270874 0.618195
0.266144 0.284607 0.639709
0.407471 0.294098 0.653168
0.535583 0.294189 0.661011
0.621307 0.290833 0.664886
0.682831 0.283508 0.665039
0.724823 0.279175 0.661682
0.755127 0.276154 0.662079
0.008789 0.342560 0.632721
0.073364 0.358917 0.653015
0.275146 0.380829 0.675018
0.419861 0.390289 0.687927
0.546173 0.395264 0.693420
0.635193 0.393860 0.697357
0.702972 0.391479 0.697388
0.749359 0.387268 0.694092
0.780151 0.382782 0.694427
0.009125 0.432129 0.660004
0.053650 0.450378 0.679810
0.291260 0.475281 0.703278
0.433533 0.490021 0.717316
0.561127 0.498749 0.726105
0.652557 0.500183 0.726135
0.719696 0.500214 0.726135
0.770569 0.496918 0.726685
0.803741 0.492004 0.723206
0.009369 0.506683 0.675262
0.072876 0.525146 0.693359
0.267731 0.554321 0.715546
0.446075 0.583435 0.737183
0.583374 0.602448 0.750427
0.669800 0.607239 0.752747
0.737488 0.607727 0.752747
0.788086 0.605194 0.751251
0.822235 0.601746 0.749725
0.009338 0.552643 0.673309
0.027557 0.570312 0.687347
0.166992 0.604462 0.710114
0.404205 0.639771 0.736633
0.585510 0.682159 0.761810
0.686676 0.700928 0.771088
0.751587 0.700653 0.771271
0.804718 0.701599 0.771759
0.836945 0.700592 0.770721
0.008789 0.557373 0.635651
0.009033 0.573883 0.651123
0.048920 0.603790 0.670898
0.304901 0.664795 0.719482
0.519592 0.719116 0.753479
0.675446 0.755219 0.777344
0.764191 0.771912 0.786682
0.813965 0.776764 0.787231
0.848145 0.776764 0.783813
0.007935 0.525452 0.572968
0.008087 0.536957 0.584442
0.008240 0.555817 0.595795
0.054291 0.634827 0.657684
0.389374 0.718414 0.727051
0.621521 0.783417 0.769897
0.742157 0.814850 0.787750
0.821594 0.826752 0.795441
0.856201 0.827148 0.795868
0.006470 0.455505 0.468140
0.006592 0.463379 0.475983
0.007050 0.499634 0.508392
0.008057 0.581604 0.575531
0.167969 0.674774 0.648224
0.459625 0.755341 0.718658
0.672638 0.825043 0.771149
0.804443 0.861511 0.800354
0.856445 0.864929 0.803864
