滤镜资源/Professional Luts Collection/Lutify.me Professional/Cine Looks/Pietersite.cube
# Created by: Lutify.me
# Copyright: (c) Copyright Lutify.me 2015
# Website: https://lutify.me
#LUT size
LUT_3D_SIZE 33
#LUT data points
0.023651 0.019653 0.019653
0.031128 0.023376 0.023499
0.060944 0.023499 0.023499
0.091614 0.027008 0.023499
0.133118 0.027374 0.023499
0.167877 0.027374 0.019653
0.214508 0.027344 0.019623
0.256683 0.023499 0.015778
0.301666 0.016754 0.015778
0.335938 0.015778 0.015778
0.371429 0.015778 0.015778
0.401947 0.015778 0.015778
0.428589 0.015778 0.015778
0.450623 0.015778 0.015778
0.471924 0.015778 0.015778
0.490936 0.015778 0.015778
0.506073 0.015778 0.015778
0.519379 0.015778 0.015778
0.529083 0.015778 0.015778
0.540588 0.015778 0.015778
0.552063 0.015778 0.015778
0.559692 0.015778 0.015778
0.571198 0.015778 0.015778
0.578857 0.015778 0.015778
0.586487 0.015778 0.015778
0.594116 0.015778 0.015778
0.602448 0.015778 0.015778
0.613251 0.015778 0.015778
0.620880 0.015778 0.015778
0.628510 0.015778 0.015778
0.636139 0.015778 0.015778
0.643768 0.015778 0.015778
0.651398 0.015778 0.015778
0.023651 0.023376 0.023499
0.023651 0.023376 0.023499
0.027649 0.023499 0.023499
0.031769 0.023499 0.023499
0.043304 0.023499 0.023499
0.065338 0.026886 0.023499
0.091614 0.027374 0.023499
0.119110 0.031219 0.023376
0.157379 0.031219 0.023376
0.194794 0.034790 0.019501
0.232941 0.032043 0.019501
0.267365 0.028198 0.015778
0.305237 0.024567 0.015778
0.337189 0.019501 0.015778
0.365295 0.017334 0.015778
0.394104 0.015778 0.015778
0.418549 0.015778 0.015778
0.441315 0.015778 0.015778
0.462372 0.015778 0.015778
0.484558 0.015778 0.015778
0.501862 0.015778 0.015778
0.526794 0.015778 0.015778
0.545807 0.015778 0.015778
0.560913 0.015778 0.015778
0.576050 0.015778 0.015778
0.587433 0.015778 0.015778
0.602448 0.015778 0.015778
0.613251 0.015778 0.015778
0.624634 0.015778 0.015778
0.632751 0.015778 0.015778
0.643768 0.015778 0.015778
0.651398 0.015778 0.015778
0.659027 0.015778 0.015778
0.020020 0.034332 0.023499
0.023651 0.027130 0.023499
0.031158 0.027130 0.023499
0.034912 0.027130 0.023499
0.042542 0.027130 0.023499
0.050049 0.027374 0.023499
0.068451 0.027374 0.023499
0.091370 0.031219 0.023499
0.114471 0.031219 0.023499
0.138916 0.033966 0.023499
0.170654 0.035065 0.020630
0.202393 0.035065 0.019653
0.232910 0.034821 0.019409
0.263672 0.030975 0.015778
0.298767 0.028564 0.015778
0.328308 0.024841 0.015778
0.354950 0.021088 0.015778
0.380005 0.017609 0.015778
0.408234 0.015778 0.015778
0.436676 0.015778 0.015778
0.459076 0.015778 0.015778
0.486328 0.015778 0.015778
0.507751 0.015778 0.015778
0.527985 0.015778 0.015778
0.547943 0.015778 0.015778
0.564911 0.015778 0.015778
0.579926 0.015778 0.015778
0.595184 0.015778 0.015778
0.606567 0.015778 0.015778
0.621216 0.015778 0.015778
0.632507 0.015778 0.015778
0.644012 0.015778 0.015778
0.651642 0.015778 0.015778
0.019775 0.049408 0.023499
0.027405 0.042053 0.023499
0.034668 0.038452 0.023499
0.042297 0.038208 0.023499
0.050049 0.034821 0.023499
0.061066 0.034332 0.023499
0.072205 0.031219 0.023499
0.090881 0.034210 0.023499
0.109894 0.034698 0.023499
0.132751 0.034698 0.023499
0.156006 0.035065 0.023499
0.182800 0.038574 0.019653
0.210999 0.038574 0.019653
0.242828 0.035065 0.016998
0.269867 0.034698 0.015778
0.298889 0.030853 0.015778
0.327332 0.028931 0.015778
0.351776 0.025208 0.015778
0.380615 0.021454 0.015778
0.405334 0.019653 0.015778
0.430389 0.019287 0.015778
0.456635 0.017944 0.015778
0.480530 0.015778 0.015778
0.501129 0.015778 0.015778
0.523621 0.015778 0.015778
0.541779 0.015778 0.015778
0.558136 0.015778 0.015778
0.579071 0.015778 0.015778
0.591064 0.015778 0.015778
0.603180 0.015778 0.015778
0.617706 0.019257 0.015778
0.632507 0.019653 0.015778
0.644012 0.019653 0.015778
0.019775 0.071747 0.027374
0.027405 0.064514 0.026886
0.035034 0.057251 0.023499
0.049561 0.056915 0.023499
0.064362 0.060181 0.023499
0.079620 0.053040 0.023499
0.091217 0.049316 0.023499
0.110016 0.049042 0.023499
0.124390 0.045227 0.023499
0.140137 0.041809 0.023499
0.158325 0.042297 0.023499
0.181946 0.042297 0.019653
0.204346 0.042297 0.019653
0.230957 0.038940 0.019653
0.261505 0.038940 0.015778
0.286072 0.038452 0.015778
0.312805 0.034576 0.015778
0.341858 0.034576 0.015778
0.364624 0.030731 0.015778
0.387878 0.029175 0.015778
0.409210 0.026886 0.015778
0.433899 0.025085 0.015778
0.458374 0.021820 0.015778
0.481750 0.019135 0.015778
0.500763 0.019135 0.015778
0.522308 0.019135 0.015778
0.541412 0.019135 0.015778
0.557159 0.018555 0.015778
0.575806 0.015778 0.015778
0.590698 0.019135 0.015778
0.602448 0.023010 0.015778
0.617249 0.026886 0.015778
0.629120 0.026886 0.015778
0.019775 0.095001 0.027374
0.023987 0.090698 0.027374
0.041931 0.087036 0.024109
0.053314 0.083099 0.023499
0.075348 0.082977 0.023499
0.094879 0.083466 0.023499
0.120148 0.085846 0.023499
0.136139 0.075958 0.023499
0.151031 0.071228 0.023499
0.166290 0.067902 0.020721
0.178284 0.057587 0.020264
0.196686 0.056976 0.019653
0.212677 0.054016 0.019653
0.233032 0.050842 0.019653
0.257721 0.049866 0.015778
0.280518 0.048065 0.015778
0.308441 0.046051 0.015778
0.334351 0.043610 0.015778
0.361359 0.042145 0.015778
0.383270 0.040009 0.015778
0.402649 0.036255 0.015778
0.424103 0.036377 0.015778
0.446991 0.030609 0.015778
0.468201 0.030609 0.015778
0.487885 0.029999 0.015778
0.507050 0.026733 0.015778
0.523651 0.026031 0.015778
0.545319 0.022888 0.015778
0.561035 0.022888 0.015778
0.578735 0.026489 0.015778
0.594116 0.030609 0.015778
0.605743 0.034424 0.015778
0.617706 0.034424 0.015778
0.019775 0.129425 0.027344
0.027283 0.121216 0.027344
0.042297 0.116608 0.024231
0.060944 0.113251 0.023499
0.080078 0.109863 0.023499
0.102509 0.109375 0.023499
0.125397 0.109375 0.023499
0.154541 0.115540 0.020386
0.177429 0.109619 0.019653
0.196106 0.101654 0.019653
0.204315 0.087921 0.019623
0.220917 0.081146 0.019653
0.235565 0.073669 0.019623
0.253998 0.072357 0.017334
0.269989 0.068390 0.015778
0.286713 0.062439 0.015778
0.307709 0.060669 0.015778
0.332062 0.056763 0.015778
0.356659 0.055084 0.015778
0.377838 0.052948 0.015778
0.400726 0.052948 0.015778
0.422882 0.047729 0.015778
0.443848 0.047150 0.015778
0.463715 0.043152 0.015778
0.479675 0.042053 0.015778
0.498779 0.039062 0.015778
0.514801 0.037506 0.015778
0.533783 0.034210 0.015778
0.549652 0.036774 0.015778
0.567566 0.038208 0.015778
0.582825 0.041321 0.015778
0.598114 0.042053 0.015778
0.609497 0.045227 0.015778
0.019775 0.166779 0.023499
0.023499 0.164368 0.023499
0.046173 0.161499 0.023499
0.069550 0.151337 0.023499
0.094513 0.150024 0.023499
0.113983 0.146057 0.023499
0.136169 0.139771 0.020508
0.166687 0.146667 0.019623
0.196350 0.146667 0.016754
0.221283 0.142181 0.016632
0.241394 0.135437 0.015778
0.254486 0.122772 0.015778
0.271423 0.113098 0.016632
0.282074 0.100372 0.015778
0.295868 0.094299 0.015778
0.309906 0.087555 0.015778
0.323578 0.079956 0.015778
0.341522 0.077057 0.015778
0.361115 0.071991 0.015778
0.379517 0.068146 0.015778
0.399994 0.066681 0.015778
0.419006 0.062927 0.015778
0.438873 0.062225 0.015778
0.459839 0.060425 0.015778
0.478943 0.058594 0.015778
0.497253 0.056549 0.015778
0.514069 0.056549 0.015778
0.530060 0.055695 0.015778
0.545197 0.054016 0.015778
0.559937 0.052704 0.015778
0.575195 0.056549 0.015778
0.590485 0.056549 0.015778
0.604889 0.056549 0.015778
0.019775 0.211670 0.020630
0.023499 0.206116 0.020630
0.048828 0.202515 0.020386
0.073181 0.198730 0.020020
0.102142 0.191864 0.019653
0.128998 0.188141 0.019653
0.154175 0.182953 0.016754
0.181091 0.180786 0.016754
0.208710 0.180786 0.015778
0.238007 0.180664 0.015778
0.262482 0.178131 0.015778
0.290924 0.173431 0.015778
0.310394 0.159546 0.015778
0.321167 0.147034 0.015778
0.328796 0.134705 0.015778
0.342499 0.125519 0.015778
0.352051 0.113251 0.015778
0.367432 0.104797 0.015778
0.380127 0.097321 0.015778
0.394318 0.092377 0.015778
0.409210 0.088623 0.015778
0.424469 0.083344 0.015778
0.440704 0.081146 0.015778
0.460907 0.079468 0.015778
0.480896 0.077545 0.015778
0.497131 0.075623 0.015778
0.514069 0.072479 0.015778
0.532440 0.075623 0.015778
0.547729 0.072235 0.015778
0.562012 0.074646 0.015778
0.577026 0.074646 0.015778
0.589630 0.075623 0.015778
0.601013 0.075623 0.015778
0.019775 0.256317 0.015778
0.021729 0.252533 0.016754
0.045105 0.248810 0.016022
0.079254 0.245056 0.015778
0.113495 0.239655 0.016388
0.144135 0.233154 0.015778
0.172150 0.225067 0.015778
0.196686 0.222137 0.015778
0.222015 0.217834 0.015778
0.245758 0.212158 0.015778
0.281250 0.216095 0.015778
0.314484 0.218781 0.015778
0.340393 0.211792 0.015778
0.353729 0.193665 0.015778
0.371277 0.185242 0.015778
0.379761 0.168213 0.015778
0.393188 0.155090 0.015778
0.403595 0.144592 0.015778
0.412354 0.136017 0.015778
0.420685 0.125275 0.015778
0.431488 0.118042 0.015778
0.442993 0.109344 0.015778
0.454010 0.105164 0.015778
0.469269 0.101288 0.015778
0.484650 0.097443 0.015778
0.498932 0.096588 0.015778
0.517181 0.093567 0.015778
0.532440 0.094635 0.015778
0.548187 0.091309 0.015778
0.565399 0.093567 0.015778
0.577148 0.091064 0.015778
0.589630 0.093445 0.015778
0.603790 0.093567 0.015778
0.019775 0.298035 0.015778
0.028839 0.292725 0.015778
0.053680 0.294434 0.015778
0.087738 0.290680 0.015778
0.128540 0.289581 0.015778
0.158936 0.282593 0.015778
0.188843 0.275604 0.015778
0.213654 0.270660 0.015778
0.238251 0.263336 0.015778
0.268768 0.259430 0.015778
0.299255 0.256805 0.015778
0.329773 0.259308 0.015778
0.360260 0.259430 0.015778
0.387268 0.252075 0.015778
0.407745 0.238434 0.015778
0.422668 0.225922 0.015778
0.432709 0.209259 0.015778
0.441772 0.194061 0.015778
0.449402 0.180573 0.015778
0.457031 0.167511 0.015778
0.460815 0.154968 0.015778
0.468445 0.146179 0.015778
0.478485 0.137115 0.015778
0.488770 0.129517 0.015778
0.499786 0.124084 0.015778
0.511169 0.120239 0.015778
0.523743 0.116394 0.015778
0.538422 0.113708 0.015778
0.554260 0.112488 0.015778
0.566864 0.112488 0.015778
0.580902 0.112488 0.015778
0.593506 0.112488 0.015778
0.607544 0.113708 0.015778
0.021088 0.339783 0.015778
0.028717 0.339783 0.015778
0.061340 0.339783 0.015778
0.105286 0.335907 0.015778
0.143066 0.335907 0.015778
0.174927 0.328796 0.015778
0.206665 0.325043 0.015778
0.232086 0.317444 0.015778
0.263794 0.309845 0.015778
0.287659 0.305023 0.015778
0.314514 0.298645 0.015778
0.345032 0.297302 0.015778
0.375519 0.298645 0.015778
0.407379 0.298645 0.015778
0.436584 0.293823 0.015778
0.457184 0.282837 0.015778
0.470978 0.267639 0.015778
0.479919 0.249939 0.015778
0.487549 0.233398 0.015778
0.491333 0.216949 0.015778
0.497498 0.201782 0.015778
0.502686 0.189117 0.015778
0.510437 0.179108 0.015778
0.515411 0.167755 0.015778
0.524353 0.158722 0.015778
0.531982 0.151123 0.015778
0.540955 0.144836 0.015778
0.548584 0.139160 0.015778
0.561401 0.135315 0.015778
0.573273 0.134949 0.015778
0.584656 0.131439 0.015778
0.596039 0.131439 0.015778
0.611298 0.131439 0.015778
0.022186 0.382935 0.015778
0.050659 0.385345 0.015778
0.087616 0.385345 0.015778
0.123535 0.381836 0.015778
0.158325 0.381500 0.015778
0.192108 0.376770 0.015778
0.228790 0.369904 0.015778
0.257019 0.363037 0.015778
0.283783 0.357849 0.015778
0.310516 0.351715 0.015778
0.337036 0.344360 0.015778
0.364044 0.340363 0.015778
0.392242 0.341919 0.015778
0.418884 0.336639 0.015778
0.451843 0.338806 0.015778
0.481995 0.335205 0.015778
0.502197 0.327942 0.015778
0.515656 0.309967 0.015778
0.525696 0.294189 0.015778
0.529419 0.275085 0.015778
0.537079 0.257507 0.015778
0.540833 0.240875 0.015778
0.544556 0.227112 0.015778
0.549774 0.211914 0.015778
0.556427 0.199127 0.015778
0.560303 0.190674 0.015778
0.564911 0.179352 0.015778
0.572540 0.170044 0.015778
0.577759 0.164368 0.015778
0.586823 0.160156 0.015778
0.594696 0.154480 0.015778
0.605988 0.154266 0.015778
0.618927 0.151825 0.015778
0.041443 0.420898 0.015778
0.061188 0.427063 0.015778
0.107605 0.429352 0.015778
0.141113 0.424774 0.015778
0.180359 0.424774 0.015778
0.217010 0.422119 0.015778
0.246368 0.420197 0.015778
0.279053 0.412476 0.015778
0.306641 0.404877 0.015778
0.333862 0.398224 0.015778
0.360138 0.392090 0.015778
0.383026 0.382294 0.015778
0.408966 0.379913 0.015778
0.432678 0.374573 0.015778
0.463318 0.374573 0.015778
0.493500 0.376160 0.015778
0.525452 0.381592 0.015778
0.545166 0.367828 0.015778
0.558746 0.358307 0.015778
0.569153 0.341187 0.015778
0.575195 0.320679 0.015778
0.579926 0.301636 0.015778
0.583801 0.282562 0.015778
0.586456 0.267365 0.015778
0.589233 0.251221 0.015778
0.591675 0.237122 0.015778
0.595428 0.224884 0.015778
0.600769 0.213593 0.015778
0.604523 0.202728 0.015778
0.612122 0.196686 0.015778
0.615906 0.186829 0.015778
0.621368 0.181610 0.015778
0.628876 0.177032 0.015778
0.044495 0.468811 0.015778
0.082489 0.466522 0.015778
0.134369 0.470245 0.015778
0.168365 0.468811 0.015778
0.202637 0.466644 0.015778
0.241364 0.467712 0.015778
0.269745 0.461823 0.015778
0.304108 0.460236 0.015778
0.330261 0.453156 0.015778
0.358459 0.446747 0.015778
0.380127 0.439636 0.015778
0.407288 0.430328 0.015778
0.428833 0.422516 0.015778
0.454010 0.418518 0.015778
0.478455 0.412598 0.015778
0.507172 0.410553 0.015778
0.533691 0.410675 0.015778
0.556549 0.410431 0.015778
0.579926 0.405853 0.015778
0.595184 0.397766 0.015778
0.607300 0.381500 0.015778
0.616638 0.368347 0.015778
0.624023 0.349640 0.015778
0.624634 0.329285 0.015778
0.627411 0.309143 0.015778
0.629089 0.293457 0.015778
0.632996 0.278259 0.015778
0.635162 0.265686 0.015778
0.636871 0.251709 0.015778
0.636841 0.236908 0.015778
0.640991 0.225647 0.015778
0.644623 0.217804 0.015778
0.652344 0.215759 0.015778
0.090271 0.500763 0.015778
0.131805 0.504272 0.015778
0.166321 0.506226 0.015778
0.200012 0.509918 0.015778
0.227600 0.508514 0.015778
0.265259 0.509949 0.015778
0.294556 0.504639 0.015778
0.329773 0.504730 0.015778
0.358215 0.498962 0.015778
0.380859 0.491974 0.015778
0.408600 0.484131 0.015778
0.428864 0.473297 0.015778
0.453156 0.468964 0.015778
0.474823 0.460144 0.015778
0.495422 0.454346 0.015778
0.522430 0.452667 0.015778
0.545074 0.448792 0.015778
0.571320 0.446503 0.015778
0.594849 0.446869 0.015778
0.613983 0.445190 0.015778
0.631287 0.434357 0.015778
0.644745 0.422516 0.015778
0.653931 0.407684 0.015778
0.658783 0.389923 0.015778
0.663605 0.372925 0.015778
0.669434 0.358582 0.015778
0.667389 0.334961 0.015778
0.667389 0.318420 0.015778
0.670776 0.306122 0.015778
0.667755 0.286346 0.015778
0.671265 0.272827 0.015778
0.673065 0.263275 0.015778
0.675140 0.254028 0.015778
0.130219 0.536835 0.015778
0.164612 0.536835 0.015778
0.199005 0.540436 0.015778
0.236542 0.546112 0.015778
0.266357 0.547424 0.015778
0.289825 0.545166 0.015778
0.325653 0.545990 0.015778
0.353760 0.545624 0.015778
0.381104 0.542633 0.015778
0.404846 0.535980 0.015778
0.430756 0.528381 0.015778
0.454987 0.522125 0.015778
0.474579 0.513214 0.015778
0.493622 0.503662 0.015778
0.522064 0.499695 0.015778
0.539490 0.492432 0.015778
0.562256 0.488586 0.015778
0.579437 0.481018 0.015778
0.602203 0.482300 0.015778
0.625122 0.478912 0.015778
0.649933 0.481842 0.015778
0.667603 0.477631 0.015778
0.680939 0.465424 0.015778
0.688446 0.448914 0.015778
0.694977 0.434540 0.015778
0.700653 0.418274 0.015778
0.701263 0.401031 0.015778
0.702362 0.383759 0.015778
0.704193 0.364594 0.015778
0.705292 0.348206 0.015778
0.703705 0.329865 0.015778
0.703705 0.314667 0.015778
0.703705 0.301422 0.015778
0.174042 0.571075 0.015778
0.208282 0.572876 0.015778
0.244415 0.572906 0.015778
0.273621 0.578796 0.015778
0.293213 0.577240 0.015778
0.322723 0.579987 0.015778
0.349152 0.580109 0.015778
0.379303 0.580597 0.015778
0.407745 0.578796 0.015778
0.429504 0.572876 0.015778
0.452301 0.568176 0.015778
0.480286 0.566467 0.015778
0.497467 0.552979 0.015778
0.518768 0.548157 0.015778
0.539734 0.538147 0.015778
0.560181 0.530182 0.015778
0.573761 0.522827 0.015778
0.592529 0.518829 0.015778
0.615784 0.517151 0.015778
0.636993 0.515472 0.015778
0.659363 0.517029 0.015778
0.680939 0.515015 0.015778
0.696198 0.507294 0.015778
0.711456 0.503387 0.015778
0.719818 0.489410 0.015778
0.727448 0.476288 0.015778
0.731537 0.459625 0.015778
0.734070 0.439972 0.015778
0.734558 0.424774 0.015778
0.740021 0.409821 0.015778
0.739777 0.392334 0.015778
0.733948 0.371338 0.015778
0.736176 0.362183 0.015778
0.225372 0.599792 0.015778
0.254456 0.601715 0.015778
0.279663 0.605347 0.015778
0.302032 0.607147 0.015778
0.325165 0.608704 0.015778
0.354553 0.611359 0.015778
0.377472 0.611359 0.015778
0.405090 0.610046 0.015778
0.430511 0.608002 0.015778
0.452179 0.607513 0.015778
0.480164 0.605347 0.015778
0.500519 0.599792 0.015778
0.525909 0.595215 0.015778
0.543243 0.588318 0.015778
0.558380 0.577850 0.015778
0.575714 0.572296 0.015778
0.592773 0.564575 0.015778
0.611420 0.556732 0.015778
0.631073 0.555176 0.015778
0.650177 0.547577 0.015778
0.667603 0.545746 0.015778
0.690613 0.547455 0.015778
0.709259 0.546967 0.015778
0.725037 0.542023 0.015778
0.738800 0.539734 0.015778
0.745605 0.525970 0.015778
0.754791 0.514160 0.015778
0.761719 0.498352 0.015778
0.762817 0.479919 0.015778
0.765350 0.465576 0.015778
0.764465 0.445679 0.015778
0.764465 0.430450 0.015778
0.764954 0.415741 0.015778
0.267914 0.624908 0.015778
0.294647 0.628021 0.015778
0.319122 0.631897 0.015778
0.338501 0.631897 0.015778
0.361267 0.635284 0.015778
0.381348 0.636353 0.015778
0.407501 0.638062 0.015778
0.431854 0.639618 0.015778
0.453644 0.638641 0.015778
0.477386 0.638519 0.015778
0.504028 0.635742 0.015778
0.525574 0.631897 0.015778
0.545532 0.626465 0.015778
0.563812 0.619598 0.015778
0.581390 0.615845 0.015778
0.595947 0.608246 0.015778
0.613831 0.604523 0.015778
0.630798 0.596893 0.015778
0.647888 0.589294 0.015778
0.661591 0.584015 0.015778
0.680573 0.577850 0.015778
0.698242 0.576538 0.015778
0.713501 0.572784 0.015778
0.732666 0.573975 0.015778
0.750183 0.573975 0.015778
0.763153 0.566986 0.015778
0.775360 0.560120 0.015778
0.783020 0.549500 0.015778
0.786774 0.535278 0.015778
0.789429 0.518188 0.015778
0.791748 0.506226 0.015778
0.791748 0.487396 0.015778
0.791748 0.468323 0.015778
0.315216 0.649261 0.015778
0.335205 0.652985 0.015778
0.354492 0.655304 0.015778
0.371552 0.656982 0.015778
0.390778 0.660339 0.015778
0.413910 0.660217 0.015778
0.434174 0.663971 0.015778
0.458618 0.664703 0.015778
0.479431 0.663269 0.015778
0.505219 0.664703 0.015778
0.525696 0.663483 0.015778
0.546997 0.660828 0.015778
0.564667 0.656982 0.015778
0.583679 0.652283 0.015778
0.600525 0.648529 0.015778
0.614319 0.639496 0.015778
0.632507 0.637207 0.015778
0.647766 0.629608 0.015778
0.661560 0.622223 0.015778
0.678406 0.618256 0.015778
0.692047 0.612122 0.015778
0.709747 0.608368 0.015778
0.722595 0.604614 0.015778
0.740265 0.604401 0.015778
0.755524 0.602936 0.015778
0.773163 0.600525 0.015778
0.788452 0.596680 0.015778
0.798248 0.593628 0.015778
0.805389 0.583160 0.015778
0.809631 0.570709 0.015778
0.813385 0.556610 0.015778
0.814606 0.542725 0.015778
0.814606 0.521362 0.015778
0.354462 0.672058 0.015778
0.369720 0.675781 0.015778
0.387268 0.675873 0.015778
0.403748 0.679749 0.015778
0.420227 0.681793 0.015778
0.440430 0.683594 0.015778
0.461517 0.683594 0.015778
0.483704 0.687469 0.015778
0.505585 0.687469 0.015778
0.528107 0.687469 0.015778
0.548340 0.687469 0.015778
0.566132 0.684937 0.015778
0.585144 0.682281 0.015778
0.602814 0.679749 0.015778
0.617126 0.675049 0.015778
0.632385 0.671326 0.015778
0.648254 0.663727 0.015778
0.664948 0.659973 0.015778
0.678497 0.650208 0.015778
0.695953 0.648651 0.015778
0.707306 0.642487 0.015778
0.721252 0.637299 0.015778
0.736511 0.633575 0.015778
0.747894 0.630920 0.015778
0.763153 0.629578 0.015778
0.778381 0.629578 0.015778
0.796204 0.629578 0.015778
0.808289 0.627045 0.015778
0.817261 0.624023 0.015778
0.824890 0.613556 0.015778
0.829742 0.602203 0.015778
0.832275 0.590851 0.015778
0.833618 0.575653 0.015778
0.388855 0.693634 0.015778
0.406647 0.697357 0.015778
0.419373 0.697479 0.015778
0.434631 0.698700 0.015778
0.449921 0.701355 0.015778
0.468414 0.704620 0.015778
0.493225 0.708344 0.015778
0.508514 0.706421 0.015778
0.530304 0.709076 0.015778
0.549774 0.709076 0.015778
0.568787 0.709076 0.015778
0.586487 0.706421 0.015778
0.601746 0.705200 0.015778
0.621948 0.702576 0.015778
0.637848 0.698700 0.015778
0.651031 0.696655 0.015778
0.666656 0.692902 0.015778
0.682495 0.687103 0.015778
0.695953 0.682770 0.015778
0.709656 0.675171 0.015778
0.721375 0.671448 0.015778
0.732788 0.666473 0.015778
0.744141 0.660095 0.015778
0.759399 0.656372 0.015778
0.771759 0.656250 0.015778
0.786041 0.652405 0.015778
0.797394 0.652405 0.015778
0.812683 0.652405 0.015778
0.823578 0.652405 0.015778
0.835419 0.649353 0.015778
0.843628 0.641998 0.015778
0.847534 0.635376 0.015778
0.851410 0.625122 0.015778
0.426025 0.712677 0.015778
0.438507 0.713776 0.015778
0.453766 0.716309 0.015778
0.467346 0.717621 0.015778
0.480438 0.720398 0.015778
0.496735 0.721497 0.015778
0.517578 0.724274 0.015778
0.538910 0.727295 0.015778
0.554749 0.728149 0.015778
0.570007 0.728149 0.015778
0.587921 0.728149 0.015778
0.605499 0.726685 0.015778
0.624878 0.728149 0.015778
0.638794 0.724274 0.015778
0.655151 0.721497 0.015778
0.670410 0.719452 0.015778
0.685669 0.716797 0.015778
0.702972 0.713074 0.015778
0.713379 0.708221 0.015778
0.722595 0.702179 0.015778
0.736389 0.696899 0.015778
0.745361 0.690613 0.015778
0.758331 0.686737 0.015778
0.768127 0.682892 0.015778
0.782257 0.679993 0.015778
0.793884 0.675415 0.015778
0.805389 0.675171 0.015778
0.816406 0.671326 0.015778
0.830597 0.671814 0.015778
0.841949 0.674072 0.015778
0.853119 0.671326 0.015778
0.857971 0.670258 0.015778
0.861725 0.660828 0.015778
0.457642 0.727875 0.031219
0.469025 0.731598 0.030273
0.488861 0.735352 0.029999
0.497955 0.735596 0.023865
0.510895 0.738953 0.022552
0.531738 0.742706 0.021912
0.546509 0.742584 0.018677
0.556549 0.743317 0.016754
0.576782 0.746216 0.016754
0.591187 0.745361 0.015778
0.608276 0.744293 0.015778
0.625122 0.744873 0.015778
0.639771 0.744293 0.015778
0.659851 0.744293 0.015778
0.674866 0.742096 0.015778
0.689545 0.739441 0.015778
0.702728 0.736572 0.015778
0.714233 0.732697 0.015778
0.725739 0.728851 0.015778
0.740143 0.726685 0.015778
0.751648 0.722565 0.015778
0.759277 0.715942 0.015778
0.770782 0.712189 0.015778
0.779480 0.705688 0.015778
0.792786 0.701843 0.015778
0.804291 0.700989 0.015778
0.812653 0.697235 0.015778
0.823456 0.694122 0.015778
0.832031 0.693146 0.015778
0.846436 0.693756 0.015778
0.856964 0.693146 0.015778
0.864594 0.693146 0.015778
0.872223 0.690247 0.015778
0.492004 0.746094 0.056061
0.507141 0.746796 0.055939
0.517792 0.746918 0.049438
0.526520 0.750793 0.045654
0.541046 0.752136 0.045776
0.551117 0.754639 0.040619
0.565643 0.756958 0.039764
0.579437 0.758514 0.034576
0.596893 0.760559 0.032898
0.611023 0.760437 0.026276
0.628235 0.762360 0.021301
0.643524 0.762360 0.017456
0.658783 0.762360 0.016632
0.677032 0.762360 0.015778
0.693146 0.759369 0.015778
0.703705 0.758514 0.015778
0.715057 0.756592 0.015778
0.729370 0.753693 0.015778
0.740875 0.750793 0.015778
0.752258 0.746918 0.015778
0.763031 0.742462 0.015778
0.771149 0.738708 0.015778
0.782501 0.732330 0.015778
0.793640 0.731232 0.015778
0.801392 0.724640 0.015778
0.812775 0.720764 0.015778
0.823456 0.719910 0.015778
0.831055 0.716919 0.015778
0.838684 0.712555 0.015778
0.850189 0.712189 0.015778
0.857819 0.709198 0.015778
0.865479 0.709198 0.015778
0.876129 0.712189 0.015778
0.522522 0.758301 0.071289
0.537048 0.762115 0.070557
0.542389 0.762848 0.067383
0.555939 0.766022 0.063171
0.563446 0.766022 0.059418
0.572296 0.766022 0.055695
0.587677 0.769836 0.051941
0.603790 0.772156 0.047394
0.617706 0.773743 0.044464
0.633820 0.776489 0.040009
0.648010 0.774445 0.035034
0.664337 0.777557 0.031219
0.678497 0.777557 0.027344
0.693756 0.777557 0.024231
0.709991 0.777557 0.022034
0.722107 0.777557 0.019623
0.731049 0.772522 0.016510
0.745605 0.772644 0.015778
0.756256 0.769836 0.015778
0.765930 0.765167 0.015778
0.775848 0.762848 0.015778
0.785919 0.757690 0.015778
0.794739 0.753937 0.015778
0.807831 0.750214 0.015778
0.816528 0.750092 0.015778
