滤镜资源/Professional Luts Collection/Lutify.me Professional/Cine Looks/Pietersite.cube
# Created by: Lutify.me
# Copyright: (c) Copyright Lutify.me 2015
# Website: https://lutify.me
#LUT size
LUT_3D_SIZE 9
#LUT data points
0.023651 0.019653 0.019653
0.133118 0.027374 0.023499
0.301666 0.016754 0.015778
0.428589 0.015778 0.015778
0.506073 0.015778 0.015778
0.552063 0.015778 0.015778
0.586487 0.015778 0.015778
0.620880 0.015778 0.015778
0.651398 0.015778 0.015778
0.019775 0.071747 0.027374
0.064362 0.060181 0.023499
0.124390 0.045227 0.023499
0.204346 0.042297 0.019653
0.312805 0.034576 0.015778
0.409210 0.026886 0.015778
0.500763 0.019135 0.015778
0.575806 0.015778 0.015778
0.629120 0.026886 0.015778
0.019775 0.211670 0.020630
0.102142 0.191864 0.019653
0.208710 0.180786 0.015778
0.310394 0.159546 0.015778
0.352051 0.113251 0.015778
0.409210 0.088623 0.015778
0.480896 0.077545 0.015778
0.547729 0.072235 0.015778
0.601013 0.075623 0.015778
0.022186 0.382935 0.015778
0.158325 0.381500 0.015778
0.283783 0.357849 0.015778
0.392242 0.341919 0.015778
0.502197 0.327942 0.015778
0.537079 0.257507 0.015778
0.556427 0.199127 0.015778
0.577759 0.164368 0.015778
0.618927 0.151825 0.015778
0.130219 0.536835 0.015778
0.266357 0.547424 0.015778
0.381104 0.542633 0.015778
0.474579 0.513214 0.015778
0.562256 0.488586 0.015778
0.649933 0.481842 0.015778
0.694977 0.434540 0.015778
0.704193 0.364594 0.015778
0.703705 0.301422 0.015778
0.315216 0.649261 0.015778
0.390778 0.660339 0.015778
0.479431 0.663269 0.015778
0.564667 0.656982 0.015778
0.632507 0.637207 0.015778
0.692047 0.612122 0.015778
0.755524 0.602936 0.015778
0.805389 0.583160 0.015778
0.814606 0.521362 0.015778
0.457642 0.727875 0.031219
0.510895 0.738953 0.022552
0.576782 0.746216 0.016754
0.639771 0.744293 0.015778
0.702728 0.736572 0.015778
0.751648 0.722565 0.015778
0.792786 0.701843 0.015778
0.832031 0.693146 0.015778
0.872223 0.690247 0.015778
0.580170 0.788696 0.142670
0.619904 0.795441 0.126251
0.670258 0.802673 0.097321
0.720673 0.805573 0.048096
0.768585 0.804138 0.019135
0.808777 0.800262 0.015778
0.839294 0.787720 0.015778
0.865448 0.773254 0.015778
0.888214 0.762115 0.015778
0.690155 0.837891 0.305267
0.712921 0.841736 0.301392
0.747284 0.845612 0.286957
0.789398 0.849457 0.268127
0.827667 0.853333 0.237732
0.858185 0.849457 0.195740
0.879974 0.841736 0.132538
0.899384 0.834015 0.060669
0.914886 0.826294 0.015778
0.019775 0.019653 0.049530
0.060944 0.023499 0.027374
0.209167 0.027374 0.023499
0.363647 0.015778 0.015778
0.464417 0.015778 0.015778
0.529327 0.015778 0.015778
0.567108 0.015778 0.015778
0.593262 0.015778 0.015778
0.617004 0.015778 0.015778
0.019775 0.037964 0.038452
0.064819 0.064514 0.064026
0.168030 0.080444 0.060669
0.314728 0.100220 0.052948
0.459595 0.110840 0.039886
0.568054 0.113708 0.025909
0.645081 0.118561 0.022522
0.694977 0.133514 0.019653
0.735657 0.152313 0.015778
0.019775 0.191406 0.094421
0.103119 0.211670 0.091553
0.204803 0.180786 0.072235
0.246002 0.124817 0.053894
0.319122 0.114685 0.043762
0.424713 0.125305 0.034576
0.523987 0.133514 0.023010
0.601501 0.142181 0.019653
0.667877 0.153290 0.019135
0.020264 0.413330 0.115631
0.179169 0.446136 0.103119
0.324921 0.408020 0.066437
0.394653 0.343872 0.039917
0.465881 0.294647 0.029297
0.477020 0.216003 0.035065
0.513336 0.186096 0.030243
0.578247 0.182220 0.024933
0.635895 0.187561 0.019653
0.094879 0.567230 0.112732
0.280396 0.595703 0.092987
0.415009 0.593750 0.053406
0.504608 0.549377 0.029755
0.563232 0.496796 0.015778
0.642670 0.475586 0.015778
0.663025 0.404144 0.018188
0.664459 0.328430 0.019653
0.674622 0.280670 0.015778
0.306519 0.679626 0.155212
0.398529 0.696533 0.139282
0.511902 0.710022 0.112732
0.591797 0.698944 0.064514
0.649933 0.663727 0.015778
0.699799 0.627563 0.015778
0.755524 0.609680 0.015778
0.794250 0.572052 0.015778
0.799103 0.506409 0.017212
0.455719 0.759247 0.229034
0.522064 0.769836 0.220825
0.595673 0.782898 0.210693
0.672211 0.785767 0.165833
0.721619 0.770813 0.086212
0.762787 0.746216 0.057281
0.799591 0.723053 0.030243
0.835419 0.705688 0.016266
0.873199 0.702301 0.016754
0.586945 0.815216 0.326996
0.629120 0.822449 0.321198
0.682404 0.830658 0.316833
0.738556 0.835480 0.293701
0.788452 0.835480 0.256042
0.827179 0.828705 0.204437
0.852875 0.814240 0.118530
0.869812 0.792542 0.046661
0.892120 0.780487 0.049072
0.693512 0.856689 0.415741
0.716766 0.860565 0.415253
0.755035 0.864899 0.411407
0.800537 0.872131 0.401276
0.838806 0.872131 0.381470
0.865936 0.868774 0.346283
0.884827 0.863464 0.304291
0.903229 0.852844 0.252197
0.918732 0.841736 0.209229
0.019775 0.019653 0.119995
0.094879 0.020142 0.155701
0.159302 0.027374 0.052460
0.290558 0.017212 0.030731
0.407257 0.015778 0.018677
0.498810 0.015778 0.015778
0.553528 0.015778 0.015778
0.585999 0.015778 0.015778
0.608765 0.015778 0.015778
0.019775 0.031219 0.056793
0.050293 0.064514 0.143616
0.142334 0.068848 0.095856
0.275055 0.076111 0.079468
0.441650 0.074158 0.075134
0.563690 0.061615 0.067902
0.641205 0.065948 0.067413
0.696930 0.096375 0.077026
0.732758 0.118561 0.082855
0.019775 0.091064 0.093933
0.075012 0.169220 0.168732
0.200958 0.193329 0.180786
0.354492 0.220825 0.178864
0.479919 0.236755 0.166321
0.580170 0.246887 0.154266
0.677521 0.266663 0.149902
0.743408 0.283569 0.150879
0.792786 0.304291 0.153778
0.019775 0.286469 0.192352
0.086151 0.344849 0.229523
0.256653 0.367035 0.225647
0.383514 0.351593 0.189484
0.459106 0.289825 0.162933
0.493958 0.246887 0.138336
0.535156 0.234833 0.119507
0.626678 0.250763 0.117584
0.703674 0.273438 0.118073
0.061432 0.548401 0.312012
0.219360 0.603424 0.335175
0.383026 0.612091 0.310089
0.509949 0.585571 0.264740
0.557404 0.510803 0.197174
0.620880 0.461090 0.172577
0.616516 0.366028 0.143158
0.624268 0.307190 0.126740
0.679474 0.306244 0.120972
0.277466 0.714355 0.391144
0.387878 0.736542 0.383881
0.517212 0.756348 0.382446
0.623779 0.759247 0.355927
0.677063 0.715820 0.281158
0.703705 0.653595 0.208771
0.754547 0.626587 0.179352
0.773926 0.559021 0.160034
0.767639 0.476074 0.146027
0.458618 0.792542 0.434570
0.522064 0.806519 0.433105
0.606812 0.818604 0.430695
0.699341 0.832581 0.423462
0.759888 0.826294 0.379547
0.789886 0.795441 0.316376
0.810242 0.755859 0.240601
0.840759 0.732697 0.207306
0.870300 0.712433 0.196198
0.591309 0.841248 0.491974
0.638306 0.849457 0.492462
0.692535 0.860077 0.492462
0.759888 0.870209 0.487610
0.814117 0.872131 0.464966
0.846069 0.864410 0.422028
0.864471 0.848511 0.364105
0.876617 0.824860 0.310089
0.895477 0.803162 0.272949
0.696930 0.875519 0.549377
0.723541 0.879852 0.554688
0.761810 0.887085 0.549377
0.808777 0.894806 0.552246
0.850922 0.898682 0.539734
0.877563 0.895782 0.514160
0.896454 0.889984 0.470276
0.910004 0.878906 0.422028
0.922607 0.863922 0.376678
0.019775 0.015778 0.204437
0.075500 0.015778 0.280670
0.257629 0.015778 0.283569
0.277496 0.023499 0.117096
0.372406 0.015778 0.065460
0.464417 0.015778 0.045197
0.534637 0.015778 0.033600
0.576294 0.015778 0.029785
0.608765 0.015778 0.029785
0.019775 0.044739 0.168243
0.035767 0.060669 0.237701
0.192230 0.087189 0.310089
0.253754 0.078979 0.175964
0.350586 0.072693 0.112762
0.480408 0.060181 0.102142
0.580658 0.040405 0.099731
0.639282 0.034119 0.098755
0.679962 0.021576 0.101654
0.019775 0.052917 0.083344
0.025116 0.128662 0.216492
0.184967 0.196716 0.319244
0.345276 0.210693 0.295135
0.446503 0.199127 0.206360
0.571442 0.211670 0.207794
0.686768 0.239166 0.226624
0.760864 0.271515 0.246887
0.806854 0.295624 0.260406
0.023651 0.151825 0.161987
0.059998 0.231445 0.245422
0.230499 0.339508 0.346252
0.371429 0.366058 0.355927
0.527863 0.398865 0.360260
0.646545 0.425385 0.356873
0.735168 0.445190 0.354950
0.796661 0.459167 0.353027
0.843658 0.477966 0.353027
0.028992 0.363617 0.290802
0.086121 0.414307 0.335205
0.265381 0.481323 0.380981
0.412598 0.517059 0.396912
0.537567 0.518524 0.377136
0.644135 0.494843 0.365570
0.691589 0.453369 0.334686
0.727417 0.435516 0.308655
0.758911 0.426361 0.288361
0.098724 0.597137 0.420563
0.254242 0.640076 0.452423
0.410156 0.692657 0.491455
0.543365 0.723541 0.494385
0.640259 0.714844 0.467834
0.697418 0.675293 0.409943
0.757935 0.648285 0.383911
0.776825 0.568665 0.350128
0.780701 0.504059 0.317322
0.382568 0.774200 0.545013
0.477509 0.801208 0.571075
0.583069 0.828247 0.593292
0.663025 0.838379 0.576874
0.741974 0.842224 0.559509
0.788940 0.821960 0.514160
0.809265 0.785309 0.448059
0.842682 0.759735 0.414307
0.864014 0.725464 0.391113
0.576782 0.853821 0.631409
0.636383 0.868286 0.648285
0.708557 0.883240 0.663239
0.761322 0.889038 0.649261
0.815582 0.896271 0.636719
0.852875 0.892426 0.611145
0.869354 0.878906 0.557556
0.878540 0.850433 0.493896
0.892120 0.826294 0.447113
0.710968 0.895782 0.688324
0.739044 0.899658 0.693634
0.772949 0.905914 0.686859
0.818970 0.913635 0.689270
0.857239 0.917480 0.686859
0.893066 0.921356 0.680115
0.910980 0.915070 0.645874
0.918732 0.905426 0.596680
0.922607 0.888062 0.537292
0.019775 0.015778 0.274414
0.069672 0.015778 0.351562
0.226135 0.015778 0.408508
0.406281 0.015778 0.387268
0.391754 0.015778 0.212616
0.450867 0.015778 0.130127
0.515747 0.015778 0.100708
0.566620 0.015778 0.086700
0.604889 0.015778 0.081421
0.019775 0.048096 0.273438
0.030914 0.060669 0.328918
0.186890 0.077545 0.409943
0.368042 0.080933 0.435516
0.400970 0.073669 0.298035
0.441650 0.071259 0.178864
0.527863 0.053894 0.148926
0.606812 0.041840 0.145081
0.660095 0.032654 0.146057
0.019775 0.085266 0.202972
0.019775 0.128662 0.310089
0.147675 0.174988 0.387268
0.358826 0.227570 0.468323
0.463470 0.203949 0.400787
0.450867 0.165833 0.228546
0.574860 0.176941 0.222290
0.682861 0.191864 0.237701
0.741486 0.205872 0.254120
0.022186 0.083344 0.116150
0.025574 0.146515 0.215515
0.142822 0.269073 0.389679
0.364166 0.370361 0.488617
0.529816 0.394989 0.501129
0.609741 0.370361 0.393066
0.705170 0.380981 0.387268
0.787964 0.409943 0.403687
0.842682 0.444702 0.425385
0.027527 0.206848 0.228088
0.050781 0.279236 0.305756
0.208710 0.390167 0.408508
0.419861 0.510803 0.512238
0.548676 0.546478 0.529144
0.672699 0.579773 0.535400
0.771515 0.611145 0.542603
0.835907 0.630432 0.545502
0.881927 0.644897 0.544525
0.043030 0.426849 0.374725
0.149109 0.483765 0.418640
0.295380 0.555634 0.477509
0.460541 0.633820 0.533447
0.579193 0.669525 0.560944
0.680939 0.683014 0.557556
0.773407 0.680115 0.556610
0.826233 0.660339 0.545502
0.848999 0.636719 0.515594
0.223236 0.648773 0.509796
0.307983 0.680115 0.533447
0.431488 0.724976 0.570587
0.554016 0.770813 0.611633
0.668823 0.802185 0.638153
0.738068 0.803650 0.614990
0.795715 0.792542 0.587006
0.842682 0.782410 0.571075
0.869324 0.744263 0.551300
0.450378 0.798798 0.627075
0.503174 0.814240 0.642517
0.583557 0.838348 0.663727
0.681427 0.864410 0.692169
0.769073 0.883240 0.705688
0.814606 0.884705 0.689270
0.848969 0.880829 0.670471
0.871277 0.865387 0.628021
0.890167 0.843170 0.588440
0.624268 0.870697 0.704712
0.666382 0.882263 0.719666
0.725006 0.896759 0.738495
0.789886 0.909302 0.755371
0.835419 0.918945 0.756805
0.863983 0.918945 0.743805
0.894501 0.918945 0.731720
0.909546 0.914581 0.700378
0.914886 0.901581 0.660370
0.019775 0.015778 0.335175
0.070648 0.015778 0.397888
0.214020 0.015778 0.470734
0.388367 0.015778 0.493439
0.514313 0.015778 0.462067
0.481384 0.015778 0.301880
0.522064 0.015778 0.209229
0.570496 0.015778 0.166321
0.604889 0.015778 0.145081
0.019775 0.052948 0.350616
0.030914 0.060669 0.397888
0.179169 0.076080 0.467865
0.367523 0.088165 0.528625
0.509949 0.050049 0.515137
0.502686 0.064514 0.378571
0.526917 0.065002 0.262329
0.588409 0.056305 0.214569
0.645081 0.047607 0.201538
0.019775 0.106506 0.311554
0.019775 0.143158 0.403198
0.142822 0.175476 0.458191
0.337036 0.217926 0.531525
0.517212 0.244965 0.570587
0.568542 0.202972 0.480377
0.547729 0.176453 0.316833
0.627167 0.177917 0.282104
0.698364 0.187073 0.282135
0.019775 0.117584 0.216492
0.021210 0.154266 0.287415
0.110840 0.263306 0.453857
0.332184 0.347717 0.551788
0.528381 0.405609 0.605835
0.656708 0.400787 0.598602
0.632996 0.331329 0.424927
0.695465 0.326508 0.381470
0.768127 0.346741 0.389679
0.029449 0.116150 0.150879
0.036713 0.176910 0.237732
0.127808 0.291779 0.383423
0.347198 0.458221 0.552734
0.551117 0.558533 0.636230
0.678497 0.575409 0.647308
0.755524 0.563354 0.575409
0.811218 0.559021 0.548431
0.865448 0.586029 0.563843
0.027527 0.290314 0.313477
0.094879 0.354950 0.376648
0.224182 0.449524 0.465912
0.416473 0.576385 0.571075
0.594696 0.673859 0.648773
0.693512 0.696014 0.658447
0.778259 0.725464 0.664215
0.842682 0.745728 0.672424
0.891632 0.763580 0.676239
0.126831 0.505981 0.458191
0.223694 0.556610 0.497742
0.338959 0.620789 0.547455
0.482819 0.693604 0.610657
0.620392 0.754425 0.657440
0.711456 0.780457 0.677216
0.783600 0.794464 0.681091
0.846100 0.795441 0.679626
0.890656 0.793976 0.683960
0.321045 0.699890 0.582184
0.387390 0.729340 0.605347
0.474609 0.763580 0.637207
0.583069 0.801697 0.670471
0.681915 0.835449 0.701355
0.767639 0.859589 0.723541
0.813629 0.860565 0.709076
0.852875 0.857178 0.698456
0.891632 0.855743 0.691681
0.521576 0.827271 0.682037
0.561768 0.838837 0.693634
0.623291 0.857178 0.711945
0.695465 0.876007 0.737518
0.770538 0.896271 0.758759
0.833466 0.909790 0.776123
0.863983 0.911224 0.765991
0.894043 0.911224 0.755371
0.907135 0.905914 0.732697
0.019775 0.015778 0.384369
0.065308 0.015778 0.436493
0.206757 0.015778 0.511749
0.380615 0.015778 0.557098
0.518677 0.015778 0.557098
0.594238 0.015778 0.515137
0.557404 0.015778 0.377625
0.585999 0.015778 0.290314
0.613617 0.015778 0.239655
0.019775 0.060669 0.409943
0.035278 0.070312 0.456268
0.177704 0.082855 0.509796
0.364655 0.106476 0.577850
0.513824 0.097809 0.599548
0.614075 0.056793 0.572998
0.588898 0.055817 0.449524
0.606323 0.067413 0.346771
0.644135 0.060181 0.289368
0.019775 0.125793 0.398834
0.019775 0.159058 0.476074
0.146698 0.185638 0.523315
0.335571 0.223724 0.582672
0.530304 0.266663 0.642029
0.642670 0.256561 0.638153
0.658173 0.206848 0.553223
0.635406 0.188995 0.405121
0.684296 0.187561 0.351593
0.019775 0.154266 0.335663
0.019775 0.198639 0.413818
0.108429 0.275848 0.528137
0.309448 0.331329 0.589905
0.504608 0.392090 0.646362
0.671234 0.440338 0.691681
0.733246 0.394043 0.649261
0.668335 0.314911 0.474609
0.715820 0.307190 0.413330
0.019775 0.150879 0.240601
0.024628 0.177429 0.285004
0.088562 0.281158 0.428772
0.308960 0.437958 0.599060
0.518677 0.531982 0.678650
0.672699 0.579285 0.707123
0.774384 0.591827 0.716309
0.782623 0.529602 0.611633
0.812164 0.511749 0.548431
0.041077 0.159546 0.198151
0.063385 0.217438 0.273438
0.136017 0.319275 0.389679
0.313782 0.466888 0.538269
0.532715 0.620300 0.669983
0.694977 0.710022 0.735596
0.786041 0.724976 0.743317
0.847046 0.725464 0.711487
0.881927 0.722107 0.681580
0.083740 0.372772 0.394989
0.153961 0.426849 0.446136
0.263916 0.511749 0.516571
0.421783 0.616943 0.609680
0.601990 0.729797 0.695068
0.730316 0.788177 0.740417
0.796661 0.802185 0.750061
0.846558 0.820038 0.751526
0.891632 0.834991 0.754883
0.237762 0.582672 0.529602
0.293945 0.620300 0.562866
0.389343 0.676727 0.608246
0.513336 0.737518 0.658447
0.637329 0.796875 0.706177
0.744385 0.835938 0.743317
0.811707 0.854309 0.758759
0.850433 0.862030 0.762604
0.891632 0.865875 0.759247
0.415009 0.750061 0.643005
0.465393 0.772736 0.661774
0.528351 0.796387 0.685425
0.617950 0.830627 0.715820
0.704651 0.861053 0.744293
0.781677 0.884705 0.769867
0.834442 0.898682 0.784821
0.863983 0.899170 0.777100
0.891632 0.899658 0.773224
0.019775 0.016266 0.433105
0.071625 0.019653 0.478912
0.200439 0.016754 0.542603
0.379181 0.015778 0.598114
0.519653 0.015778 0.618835
0.617493 0.015778 0.603882
0.650909 0.015778 0.566254
0.621826 0.015778 0.449982
0.640259 0.015778 0.376648
0.019775 0.073669 0.460144
0.032379 0.091522 0.509308
0.184479 0.102631 0.554199
0.368988 0.129639 0.618866
0.527405 0.135925 0.655029
0.634430 0.104095 0.651672
0.693512 0.043762 0.624146
0.663483 0.076111 0.521881
0.670746 0.087189 0.429749
0.019775 0.145569 0.471222
0.023651 0.175964 0.532959
0.161224 0.202972 0.578308
0.337494 0.235779 0.623199
0.529327 0.279694 0.681549
0.661560 0.295135 0.705200
0.729370 0.265717 0.681580
0.724030 0.227112 0.607758
0.705170 0.206360 0.485229
0.019775 0.188507 0.436981
0.021698 0.234344 0.505951
0.113770 0.302368 0.594727
0.318634 0.344818 0.639130
0.491058 0.385834 0.677216
0.669800 0.450958 0.732697
0.767639 0.459167 0.740906
0.788452 0.393524 0.690735
0.741943 0.334229 0.549377
0.019775 0.197662 0.355438
0.025116 0.234344 0.410431
0.072083 0.305267 0.505951
0.291992 0.430237 0.639130
0.491058 0.510315 0.703766
0.652344 0.560455 0.737518
0.779236 0.614990 0.773712
0.834442 0.596649 0.759735
0.805389 0.512695 0.647797
0.024628 0.189972 0.272461
0.039154 0.206360 0.298035
0.095367 0.290314 0.403198
0.267792 0.442749 0.570618
0.499786 0.601013 0.703766
0.670258 0.690735 0.767456
0.779236 0.724487 0.785278
0.849457 0.742340 0.796417
0.870789 0.708588 0.748138
0.064819 0.213104 0.255554
0.085663 0.266174 0.319763
0.152008 0.352081 0.409454
0.308929 0.483765 0.539215
0.503632 0.630432 0.665649
0.680420 0.751038 0.756836
0.794250 0.813293 0.801208
0.850433 0.821960 0.807983
0.892120 0.825348 0.793976
0.160736 0.453400 0.468353
0.215942 0.501587 0.508820
0.304565 0.567230 0.566742
0.446503 0.664215 0.642517
0.587921 0.749573 0.712433
0.735199 0.828705 0.777588
0.822357 0.858154 0.804138
0.857697 0.865875 0.807983
0.891632 0.876984 0.811859
0.321014 0.651184 0.597626
0.369965 0.677704 0.620789
0.450867 0.720154 0.655029
0.543365 0.772247 0.695557
0.652832 0.820038 0.739441
0.752136 0.862000 0.777588
0.827667 0.889038 0.804596
0.865448 0.899658 0.815216
0.895477 0.903992 0.822449
0.019775 0.027374 0.478912
0.072113 0.031219 0.524261
0.208710 0.037964 0.581238
0.383026 0.052917 0.634308
0.535156 0.040863 0.662262
0.634918 0.018188 0.668091
0.688171 0.015778 0.655518
0.704681 0.015778 0.616425
0.678497 0.023499 0.521423
0.019775 0.099731 0.505981
0.042053 0.107941 0.547913
0.193176 0.132538 0.592804
0.367523 0.156677 0.649750
0.535645 0.175964 0.688812
0.651886 0.174530 0.702301
0.717743 0.144104 0.694580
0.746796 0.101166 0.669983
0.716766 0.098785 0.578796
0.019775 0.168243 0.525238
0.020752 0.197662 0.577820
0.177704 0.230957 0.623688
0.342377 0.253632 0.661285
0.526398 0.294647 0.710510
0.671234 0.326019 0.740417
0.753113 0.321686 0.742340
0.786011 0.283569 0.719696
0.772461 0.249298 0.652618
0.019775 0.222748 0.515137
0.022186 0.266693 0.574463
0.141357 0.325531 0.643005
0.330231 0.363647 0.684448
0.493469 0.397888 0.712433
0.663513 0.452881 0.759735
0.779724 0.490021 0.782410
0.820892 0.469757 0.772736
0.830566 0.408508 0.729340
0.019775 0.245453 0.463531
0.026550 0.286957 0.518494
0.089539 0.354462 0.597626
0.301666 0.445679 0.684448
0.477020 0.502075 0.727875
0.631531 0.546021 0.760223
0.774384 0.613068 0.800262
0.842194 0.633331 0.810883
0.866425 0.587006 0.787689
0.028961 0.238190 0.374237
0.023651 0.264740 0.412354
0.080811 0.315887 0.475098
0.244049 0.437927 0.606323
0.478943 0.589905 0.732208
0.650909 0.671417 0.789154
0.760376 0.709076 0.805573
0.846100 0.748627 0.826294
0.889191 0.753448 0.827759
0.060486 0.229034 0.308167
0.068237 0.242065 0.322144
0.119568 0.307190 0.399811
0.252289 0.439392 0.541656
0.451843 0.596649 0.678650
0.642181 0.729309 0.774689
0.775360 0.798340 0.823395
0.849945 0.824860 0.834991
0.891632 0.835938 0.841736
0.095825 0.278717 0.321167
0.129730 0.317322 0.363159
0.198029 0.400299 0.447113
0.316223 0.507874 0.551331
0.485748 0.638641 0.658905
0.649933 0.750549 0.749573
0.791351 0.840302 0.820526
0.857697 0.873108 0.841736
0.895477 0.880829 0.849457
0.244537 0.529144 0.529144
0.286194 0.566742 0.563354
0.361755 0.623688 0.613068
0.471222 0.699890 0.672882
0.601013 0.776123 0.733643
0.723053 0.836914 0.789154
0.830566 0.889038 0.834991
0.873199 0.903503 0.845612
0.899384 0.911224 0.849457
