滤镜资源/Professional Luts Collection/Lutify.me Professional/Cine Looks/Pietersite.cube
# Created by: Lutify.me
# Copyright: (c) Copyright Lutify.me 2015
# Website: https://lutify.me
#LUT size
LUT_3D_SIZE 5
#LUT data points
0.023651 0.019653 0.019653
0.301666 0.016754 0.015778
0.506073 0.015778 0.015778
0.586487 0.015778 0.015778
0.651398 0.015778 0.015778
0.019775 0.211670 0.020630
0.208710 0.180786 0.015778
0.352051 0.113251 0.015778
0.480896 0.077545 0.015778
0.601013 0.075623 0.015778
0.130219 0.536835 0.015778
0.381104 0.542633 0.015778
0.562256 0.488586 0.015778
0.694977 0.434540 0.015778
0.703705 0.301422 0.015778
0.457642 0.727875 0.031219
0.576782 0.746216 0.016754
0.702728 0.736572 0.015778
0.792786 0.701843 0.015778
0.872223 0.690247 0.015778
0.690155 0.837891 0.305267
0.747284 0.845612 0.286957
0.827667 0.853333 0.237732
0.879974 0.841736 0.132538
0.914886 0.826294 0.015778
0.019775 0.019653 0.119995
0.159302 0.027374 0.052460
0.407257 0.015778 0.018677
0.553528 0.015778 0.015778
0.608765 0.015778 0.015778
0.019775 0.091064 0.093933
0.200958 0.193329 0.180786
0.479919 0.236755 0.166321
0.677521 0.266663 0.149902
0.792786 0.304291 0.153778
0.061432 0.548401 0.312012
0.383026 0.612091 0.310089
0.557404 0.510803 0.197174
0.616516 0.366028 0.143158
0.679474 0.306244 0.120972
0.458618 0.792542 0.434570
0.606812 0.818604 0.430695
0.759888 0.826294 0.379547
0.810242 0.755859 0.240601
0.870300 0.712433 0.196198
0.696930 0.875519 0.549377
0.761810 0.887085 0.549377
0.850922 0.898682 0.539734
0.896454 0.889984 0.470276
0.922607 0.863922 0.376678
0.019775 0.015778 0.274414
0.226135 0.015778 0.408508
0.391754 0.015778 0.212616
0.515747 0.015778 0.100708
0.604889 0.015778 0.081421
0.019775 0.085266 0.202972
0.147675 0.174988 0.387268
0.463470 0.203949 0.400787
0.574860 0.176941 0.222290
0.741486 0.205872 0.254120
0.027527 0.206848 0.228088
0.208710 0.390167 0.408508
0.548676 0.546478 0.529144
0.771515 0.611145 0.542603
0.881927 0.644897 0.544525
0.223236 0.648773 0.509796
0.431488 0.724976 0.570587
0.668823 0.802185 0.638153
0.795715 0.792542 0.587006
0.869324 0.744263 0.551300
0.624268 0.870697 0.704712
0.725006 0.896759 0.738495
0.835419 0.918945 0.756805
0.894501 0.918945 0.731720
0.914886 0.901581 0.660370
0.019775 0.015778 0.384369
0.206757 0.015778 0.511749
0.518677 0.015778 0.557098
0.557404 0.015778 0.377625
0.613617 0.015778 0.239655
0.019775 0.125793 0.398834
0.146698 0.185638 0.523315
0.530304 0.266663 0.642029
0.658173 0.206848 0.553223
0.684296 0.187561 0.351593
0.019775 0.150879 0.240601
0.088562 0.281158 0.428772
0.518677 0.531982 0.678650
0.774384 0.591827 0.716309
0.812164 0.511749 0.548431
0.083740 0.372772 0.394989
0.263916 0.511749 0.516571
0.601990 0.729797 0.695068
0.796661 0.802185 0.750061
0.891632 0.834991 0.754883
0.415009 0.750061 0.643005
0.528351 0.796387 0.685425
0.704651 0.861053 0.744293
0.834442 0.898682 0.784821
0.891632 0.899658 0.773224
0.019775 0.027374 0.478912
0.208710 0.037964 0.581238
0.535156 0.040863 0.662262
0.688171 0.015778 0.655518
0.678497 0.023499 0.521423
0.019775 0.168243 0.525238
0.177704 0.230957 0.623688
0.526398 0.294647 0.710510
0.753113 0.321686 0.742340
0.772461 0.249298 0.652618
0.019775 0.245453 0.463531
0.089539 0.354462 0.597626
0.477020 0.502075 0.727875
0.774384 0.613068 0.800262
0.866425 0.587006 0.787689
0.060486 0.229034 0.308167
0.119568 0.307190 0.399811
0.451843 0.596649 0.678650
0.775360 0.798340 0.823395
0.891632 0.835938 0.841736
0.244537 0.529144 0.529144
0.361755 0.623688 0.613068
0.601013 0.776123 0.733643
0.830566 0.889038 0.834991
0.899384 0.911224 0.849457
