滤镜资源/Professional Luts Collection/Lutify.me Professional/Cine Looks/Pyrite.cube
# Created by: Lutify.me
# Copyright: (c) Copyright Lutify.me 2015
# Website: https://lutify.me
#LUT size
LUT_3D_SIZE 33
#LUT data points
0.036987 0.046875 0.049835
0.045074 0.047150 0.050049
0.054413 0.046021 0.048920
0.066650 0.045380 0.046936
0.080780 0.045898 0.046021
0.093750 0.047974 0.046356
0.108398 0.050293 0.046814
0.130554 0.052521 0.047302
0.154266 0.054596 0.047180
0.171356 0.056458 0.046509
0.187866 0.058105 0.045441
0.207336 0.059998 0.044769
0.229614 0.061768 0.044189
0.254730 0.063721 0.043762
0.279907 0.065399 0.043274
0.300934 0.067047 0.043060
0.319550 0.068878 0.042969
0.339020 0.071564 0.042633
0.359283 0.073853 0.042389
0.380463 0.075531 0.042664
0.401062 0.076691 0.042999
0.419739 0.077576 0.044037
0.437195 0.078583 0.044952
0.453705 0.079163 0.045135
0.469604 0.079651 0.045258
0.485046 0.080139 0.045197
0.499786 0.080353 0.045166
0.512970 0.079041 0.045105
0.525421 0.077698 0.045044
0.535767 0.076874 0.044800
0.545593 0.076080 0.044678
0.553864 0.073517 0.043091
0.561707 0.070831 0.041473
0.038635 0.054779 0.051270
0.044189 0.056580 0.049805
0.055206 0.058380 0.049927
0.069244 0.057800 0.047180
0.086884 0.058502 0.045593
0.105896 0.060333 0.046082
0.122650 0.062805 0.046204
0.141876 0.064636 0.046204
0.167694 0.066864 0.045624
0.192902 0.069427 0.044342
0.213531 0.071350 0.043243
0.235382 0.072937 0.042755
0.259155 0.075104 0.042603
0.283661 0.077515 0.042450
0.309296 0.079895 0.042297
0.333069 0.082458 0.042175
0.354095 0.084808 0.042053
0.375031 0.087280 0.041870
0.395081 0.089813 0.041931
0.414124 0.091675 0.042236
0.433197 0.093079 0.043213
0.451141 0.094238 0.044281
0.468079 0.095001 0.044983
0.484253 0.095001 0.045258
0.499969 0.094940 0.045410
0.514862 0.095245 0.045288
0.528839 0.095795 0.045258
0.540314 0.095459 0.045624
0.551880 0.094086 0.045471
0.561493 0.092896 0.045227
0.571106 0.091797 0.044952
0.578613 0.088348 0.043365
0.586182 0.085205 0.041809
0.039551 0.064301 0.051697
0.045746 0.066528 0.050232
0.053101 0.069244 0.048950
0.071564 0.073669 0.047699
0.091492 0.074921 0.046173
0.114868 0.077332 0.045776
0.140167 0.079590 0.045868
0.161499 0.081299 0.045349
0.184418 0.083160 0.044495
0.213226 0.086823 0.042603
0.242371 0.090363 0.041107
0.268433 0.093079 0.040710
0.293701 0.095612 0.040588
0.317413 0.097748 0.040771
0.340790 0.099915 0.040985
0.365356 0.102631 0.040894
0.389130 0.105255 0.040802
0.411652 0.107269 0.040802
0.432465 0.109222 0.040924
0.450714 0.110962 0.041840
0.467590 0.112183 0.042938
0.484009 0.113251 0.043823
0.500092 0.113892 0.044647
0.515747 0.113953 0.044922
0.530884 0.113892 0.044830
0.545197 0.114044 0.044708
0.558472 0.114227 0.044647
0.569244 0.114014 0.045105
0.579346 0.113617 0.045776
0.588440 0.112274 0.045746
0.597107 0.110809 0.045654
0.604462 0.107025 0.043579
0.611511 0.103088 0.041504
0.040833 0.075836 0.052124
0.047119 0.078613 0.051270
0.054901 0.081940 0.050201
0.064362 0.085785 0.049042
0.089050 0.090363 0.046570
0.111908 0.092133 0.046692
0.139099 0.095123 0.046509
0.170746 0.098633 0.046173
0.195892 0.100769 0.045288
0.224365 0.103790 0.043518
0.256195 0.108002 0.041748
0.286346 0.111450 0.041077
0.314545 0.114105 0.040527
0.342560 0.116638 0.040344
0.367920 0.118927 0.040039
0.391968 0.121216 0.039490
0.415497 0.123718 0.039276
0.437988 0.126129 0.039032
0.458923 0.128204 0.039551
0.477875 0.129730 0.040649
0.495300 0.130890 0.041748
0.512421 0.132233 0.042938
0.528748 0.133667 0.043884
0.543671 0.134766 0.044189
0.558289 0.135376 0.044189
0.571991 0.136200 0.044067
0.584961 0.136871 0.044189
0.595520 0.136871 0.044952
0.605377 0.136566 0.045776
0.614685 0.135132 0.046234
0.623291 0.133636 0.046082
0.629974 0.130859 0.044556
0.636810 0.126617 0.042542
0.043976 0.089539 0.053650
0.049622 0.092651 0.052734
0.056305 0.096069 0.051819
0.067505 0.100372 0.050659
0.079315 0.104553 0.048462
0.107025 0.108887 0.046906
0.135315 0.111664 0.047180
0.168243 0.116180 0.046692
0.205353 0.120636 0.045929
0.235992 0.124115 0.044281
0.268677 0.127594 0.042236
0.300537 0.131378 0.041382
0.331909 0.134796 0.040649
0.362793 0.137726 0.039917
0.392792 0.139954 0.038757
0.418396 0.142059 0.037933
0.441650 0.144196 0.037140
0.463715 0.146332 0.036987
0.484344 0.148438 0.037720
0.503998 0.150543 0.038910
0.522400 0.152222 0.040314
0.540222 0.153748 0.041565
0.556793 0.155365 0.042419
0.571533 0.156891 0.042908
0.585236 0.158356 0.043274
0.598724 0.159943 0.043671
0.611633 0.161316 0.043884
0.621674 0.161346 0.044678
0.631226 0.161041 0.045624
0.640167 0.159576 0.046021
0.648773 0.157990 0.046234
0.655640 0.155151 0.044983
0.662140 0.152039 0.043579
0.047028 0.101349 0.056091
0.049530 0.103302 0.055969
0.056671 0.106934 0.055023
0.069397 0.113220 0.054230
0.081482 0.117706 0.051910
0.092896 0.120850 0.050995
0.124878 0.126068 0.049408
0.162262 0.131866 0.048462
0.199402 0.136780 0.048157
0.238678 0.141205 0.047668
0.272919 0.144989 0.045288
0.308258 0.148529 0.043671
0.341553 0.152069 0.041962
0.375305 0.154785 0.039764
0.406769 0.157196 0.038330
0.435181 0.158997 0.037018
0.460388 0.161011 0.036255
0.483307 0.163116 0.036591
0.504486 0.165039 0.036957
0.524384 0.166901 0.037750
0.543701 0.168793 0.038818
0.561890 0.170532 0.039673
0.578705 0.172363 0.040497
0.593689 0.174591 0.041138
0.607574 0.176666 0.041809
0.621155 0.178406 0.042450
0.633789 0.179901 0.042999
0.643372 0.179993 0.043915
0.652466 0.179749 0.044708
0.660828 0.178192 0.045074
0.669189 0.176544 0.045319
0.675568 0.173523 0.044556
0.682159 0.170593 0.043304
0.050110 0.113403 0.058746
0.053558 0.115570 0.058655
0.057617 0.117981 0.058319
0.069916 0.124542 0.057404
0.084808 0.131897 0.055084
0.096558 0.135254 0.054108
0.108459 0.138367 0.053314
0.150208 0.146973 0.051117
0.193390 0.153687 0.049927
0.232819 0.158722 0.049377
0.274963 0.163330 0.048401
0.312500 0.167297 0.046112
0.349640 0.170410 0.043884
0.385101 0.172852 0.040619
0.419037 0.174622 0.037537
0.448853 0.176147 0.036255
0.475952 0.177948 0.035858
0.501190 0.180115 0.035675
0.523895 0.182434 0.036285
0.544495 0.184784 0.037170
0.563934 0.186554 0.037750
0.582214 0.188354 0.038422
0.599457 0.190155 0.038818
0.614563 0.192291 0.039307
0.628326 0.194641 0.040375
0.642059 0.196442 0.041138
0.654633 0.197937 0.042023
0.664246 0.198120 0.042877
0.673065 0.197815 0.043701
0.681213 0.196411 0.044128
0.689117 0.194733 0.044373
0.695465 0.191559 0.043732
0.701477 0.188446 0.042816
0.055603 0.127350 0.061432
0.060822 0.130524 0.060760
0.064850 0.133057 0.060486
0.073273 0.138428 0.059967
0.089020 0.146149 0.057648
0.104309 0.152740 0.055878
0.118469 0.156464 0.054840
0.134949 0.160583 0.052917
0.183655 0.170532 0.051270
0.229431 0.176941 0.050140
0.272095 0.181732 0.048798
0.317383 0.185791 0.046356
0.356201 0.189117 0.044128
0.394897 0.191345 0.041382
0.429901 0.193085 0.038177
0.461273 0.194641 0.036224
0.489563 0.195953 0.035309
0.516174 0.197449 0.034973
0.540680 0.199585 0.035431
0.562927 0.201965 0.036194
0.582672 0.203888 0.036865
0.601105 0.205566 0.037476
0.618286 0.207184 0.037598
0.632996 0.209900 0.038513
0.646515 0.212433 0.039795
0.659851 0.214325 0.040497
0.672363 0.215973 0.041168
0.682709 0.216553 0.042114
0.692139 0.216156 0.042480
0.700226 0.215149 0.043457
0.708710 0.213287 0.043488
0.714752 0.210083 0.042725
0.720367 0.206665 0.042145
0.062042 0.142059 0.064240
0.067749 0.145630 0.063660
0.074585 0.149139 0.062897
0.084290 0.154999 0.062103
0.094757 0.161499 0.060303
0.110870 0.168976 0.058319
0.129639 0.176025 0.055939
0.147064 0.180511 0.053467
0.167145 0.185089 0.052399
0.220581 0.195862 0.051331
0.268433 0.201569 0.049530
0.314148 0.205872 0.046661
0.361176 0.209198 0.044342
0.401581 0.211426 0.041534
0.440002 0.212646 0.038879
0.472473 0.213928 0.036652
0.501831 0.215118 0.035736
0.529510 0.215973 0.034821
0.555328 0.217316 0.035004
0.578949 0.219788 0.035919
0.599945 0.221863 0.036713
0.618774 0.223602 0.037354
0.636353 0.225281 0.037384
0.650726 0.227844 0.038574
0.664551 0.230560 0.039520
0.677307 0.232422 0.040314
0.689056 0.233948 0.041199
0.699890 0.234558 0.041687
0.709869 0.234680 0.042175
0.718689 0.233795 0.042755
0.727020 0.232422 0.042999
0.733032 0.229156 0.042450
0.738525 0.225525 0.042175
0.071198 0.157959 0.067780
0.078522 0.161896 0.067352
0.086517 0.165863 0.066589
0.097168 0.172211 0.064667
0.108612 0.179016 0.062408
0.118011 0.184692 0.061218
0.136780 0.192383 0.058716
0.158661 0.199524 0.054993
0.180054 0.204590 0.053345
0.203674 0.210114 0.052643
0.260529 0.221252 0.051147
0.307800 0.225372 0.048492
0.355621 0.229126 0.045807
0.404053 0.231903 0.042511
0.444489 0.233215 0.039978
0.481323 0.233856 0.037964
0.511841 0.234955 0.037018
0.540894 0.236053 0.036072
0.567169 0.237091 0.036011
0.591553 0.238861 0.036377
0.614166 0.240845 0.036713
0.634033 0.242157 0.037323
0.651917 0.243561 0.037720
0.667053 0.245697 0.038818
0.680634 0.248138 0.039856
0.693115 0.249908 0.040527
0.705292 0.251556 0.041321
0.715881 0.252075 0.041840
0.726044 0.252472 0.042542
0.735046 0.252045 0.043274
0.743347 0.251068 0.043732
0.750000 0.247925 0.042969
0.755676 0.244476 0.042633
0.083221 0.174774 0.071472
0.091095 0.178864 0.071136
0.100281 0.183197 0.070129
0.113037 0.190277 0.067139
0.125916 0.197479 0.064178
0.134338 0.202972 0.063019
0.145874 0.209167 0.061218
0.168610 0.217377 0.056976
0.193176 0.224518 0.054108
0.218323 0.230377 0.053192
0.244263 0.236298 0.052155
0.301788 0.246887 0.050995
0.349640 0.250031 0.047913
0.399048 0.253357 0.044556
0.446136 0.255005 0.041626
0.484772 0.255463 0.039398
0.520386 0.255524 0.038513
0.550293 0.256470 0.037842
0.578430 0.257446 0.037231
0.603058 0.258759 0.037323
0.625275 0.260468 0.037964
0.646667 0.261292 0.037903
0.665741 0.262207 0.038300
0.681458 0.264099 0.039581
0.695953 0.266144 0.040405
0.708679 0.267914 0.041443
0.720642 0.269348 0.042023
0.731201 0.270020 0.042847
0.741180 0.270386 0.043640
0.750031 0.269867 0.044281
0.759186 0.269043 0.044403
0.765686 0.266296 0.044281
0.771240 0.263184 0.044037
0.097046 0.192780 0.076080
0.106628 0.197174 0.075531
0.116608 0.202271 0.073669
0.130951 0.209564 0.069702
0.145844 0.217041 0.065826
0.153595 0.222443 0.064270
0.164307 0.228485 0.062531
0.182526 0.236084 0.058105
0.208130 0.243744 0.054871
0.235657 0.250977 0.053741
0.263031 0.257294 0.052765
0.289703 0.263367 0.051331
0.346497 0.272125 0.049561
0.396484 0.274780 0.045776
0.444611 0.277100 0.042572
0.486115 0.277313 0.041199
0.523132 0.277222 0.039734
0.558014 0.277069 0.039337
0.587128 0.277527 0.038910
0.613220 0.278259 0.039185
0.635956 0.279449 0.039520
0.657104 0.280151 0.039734
0.676544 0.280884 0.040161
0.693756 0.282715 0.041016
0.708801 0.284546 0.041809
0.722870 0.286041 0.042603
0.735016 0.287292 0.043518
0.745636 0.287476 0.043976
0.755066 0.287720 0.045105
0.764130 0.286987 0.045319
0.772614 0.286285 0.046021
0.779541 0.283203 0.045807
0.785675 0.280365 0.045563
0.114197 0.212311 0.080811
0.124481 0.217285 0.078949
0.135529 0.222412 0.076996
0.151855 0.229828 0.072571
0.169037 0.237488 0.067841
0.177673 0.243195 0.065613
0.186066 0.248810 0.063599
0.204285 0.256348 0.058777
0.226624 0.263824 0.055511
0.254913 0.271423 0.054016
0.284241 0.278809 0.052704
0.312378 0.285217 0.051147
0.339966 0.291473 0.049500
0.395264 0.297638 0.046936
0.443787 0.299072 0.043671
0.486694 0.299805 0.042023
0.524231 0.298889 0.041443
0.560333 0.298370 0.041199
0.593903 0.297729 0.041016
0.621460 0.297668 0.040741
0.645874 0.298187 0.041382
0.667236 0.298706 0.041718
0.686401 0.299316 0.042114
0.703644 0.301178 0.043152
0.719513 0.302887 0.044006
0.734436 0.303802 0.044647
0.747955 0.304810 0.045410
0.758881 0.304749 0.045929
0.768799 0.304321 0.046051
0.777008 0.303772 0.046967
0.785614 0.302795 0.047546
0.792786 0.299622 0.047150
0.799774 0.296631 0.046844
0.133453 0.232971 0.084351
0.146484 0.238647 0.081329
0.159363 0.244171 0.078644
0.175629 0.251038 0.074127
0.194305 0.258636 0.068604
0.206879 0.265137 0.064758
0.216431 0.270782 0.062225
0.230499 0.277100 0.058868
0.252136 0.284546 0.055786
0.277557 0.292358 0.053284
0.307953 0.300049 0.051788
0.337402 0.307037 0.050171
0.365814 0.313354 0.048798
0.393524 0.319397 0.048187
0.443542 0.322083 0.045380
0.486938 0.321503 0.043396
0.525970 0.320892 0.042572
0.562408 0.318909 0.042236
0.597168 0.317810 0.042267
0.628418 0.316620 0.041809
0.653564 0.316620 0.042847
0.677032 0.316956 0.043488
0.696167 0.317627 0.044434
0.713409 0.319122 0.045135
0.729584 0.320679 0.045959
0.744995 0.320923 0.046448
0.759186 0.321503 0.047119
0.770721 0.321533 0.047791
0.780670 0.321136 0.048309
0.789490 0.320435 0.049103
0.797729 0.319550 0.050354
0.805359 0.316589 0.049988
0.812836 0.313232 0.049164
0.155090 0.254272 0.087341
0.169830 0.260406 0.083099
0.185028 0.266357 0.079315
0.202576 0.273010 0.074219
0.221619 0.279877 0.068542
0.235443 0.286224 0.064880
0.248413 0.292236 0.062225
0.262299 0.298279 0.059265
0.279480 0.304962 0.055908
0.304169 0.312775 0.053131
0.332245 0.320953 0.051056
0.362183 0.328278 0.049469
0.390961 0.334534 0.048584
0.419189 0.340637 0.048401
0.443787 0.344513 0.047760
0.487122 0.344177 0.045227
0.527069 0.342316 0.043945
0.565674 0.340759 0.043518
0.599976 0.338043 0.043579
0.631775 0.336578 0.043579
0.659882 0.335022 0.044312
0.683868 0.335052 0.045380
0.705688 0.335602 0.046509
0.722961 0.336914 0.047516
0.739044 0.338257 0.048431
0.754578 0.337738 0.048401
0.769165 0.337494 0.048767
0.780914 0.337616 0.049713
0.791809 0.337433 0.050323
0.801605 0.336578 0.051178
0.809784 0.335846 0.052826
0.817261 0.333038 0.052673
0.824310 0.329956 0.052368
0.176758 0.275269 0.090790
0.193848 0.281616 0.086029
0.211090 0.287811 0.080933
0.229614 0.294250 0.075073
0.248627 0.300293 0.070068
0.263855 0.306427 0.066467
0.278595 0.312714 0.063263
0.293060 0.318848 0.060181
0.309235 0.325287 0.056824
0.329041 0.332184 0.053833
0.355865 0.340271 0.051575
0.385101 0.348267 0.050079
0.414154 0.354767 0.049591
0.441193 0.359711 0.049500
0.467224 0.364227 0.049316
0.487518 0.365356 0.047546
0.527313 0.363556 0.046417
0.566467 0.361359 0.045166
0.603088 0.359222 0.045288
0.634796 0.356659 0.045227
0.664032 0.354858 0.045807
0.690277 0.352966 0.046722
0.713043 0.352875 0.047607
0.732117 0.353699 0.049316
0.748169 0.354858 0.050568
0.763794 0.354431 0.050537
0.778137 0.353638 0.050903
0.790405 0.353607 0.051636
0.801849 0.353638 0.052704
0.812622 0.352539 0.053802
0.822083 0.351624 0.054810
0.829163 0.348938 0.054993
0.835938 0.346008 0.054962
0.199371 0.295807 0.094330
0.217560 0.302429 0.088654
0.236450 0.308807 0.083252
0.257019 0.315277 0.077087
0.276276 0.320679 0.073029
0.292084 0.326538 0.069061
0.307892 0.332794 0.065277
0.322998 0.338928 0.061737
0.339172 0.345276 0.058533
0.358032 0.351929 0.055298
0.378571 0.358826 0.052551
0.406403 0.366577 0.051239
0.435699 0.373657 0.051056
0.462921 0.378571 0.051117
0.487610 0.382172 0.051239
0.508453 0.383392 0.050262
0.527649 0.383820 0.048859
0.566711 0.381531 0.047699
0.604218 0.378967 0.047485
0.637848 0.376740 0.047058
0.666962 0.374237 0.047607
0.694427 0.371948 0.048370
0.718597 0.370300 0.049469
0.738403 0.370453 0.051056
0.756470 0.371033 0.052734
0.772217 0.370544 0.053009
0.786774 0.369720 0.053101
0.798889 0.369476 0.053955
0.810272 0.369476 0.055573
0.821777 0.368134 0.056427
0.832489 0.367004 0.057281
0.839844 0.364471 0.057861
0.846527 0.361511 0.057831
0.221588 0.316132 0.097534
0.240967 0.322662 0.092010
0.261841 0.329407 0.085938
0.284088 0.335510 0.080322
0.304352 0.340881 0.076111
0.320099 0.346466 0.071991
0.336426 0.352631 0.067993
0.353119 0.358978 0.064270
0.369934 0.365387 0.060944
0.389160 0.371979 0.057556
0.408630 0.378479 0.054626
0.428253 0.384491 0.053314
0.456024 0.391266 0.053192
0.483582 0.396545 0.053375
0.509094 0.400421 0.054047
0.529175 0.401123 0.052917
0.548431 0.401398 0.052155
0.567444 0.401520 0.050873
0.604767 0.398773 0.050171
0.639862 0.395508 0.049652
0.670166 0.392944 0.049286
0.697723 0.389923 0.050323
0.722595 0.387817 0.051544
0.743164 0.387085 0.053223
0.761932 0.387268 0.054749
0.779968 0.386963 0.055389
0.794617 0.386169 0.056091
0.806793 0.385834 0.057251
0.818054 0.385468 0.058960
0.829529 0.383484 0.059113
0.840881 0.382019 0.059692
0.849182 0.379639 0.060364
0.855896 0.377014 0.061035
0.244446 0.336121 0.100464
0.265259 0.342743 0.094574
0.287140 0.349335 0.088867
0.310242 0.355194 0.083832
0.332031 0.360565 0.079407
0.347931 0.365967 0.075226
0.363831 0.371643 0.071075
0.381165 0.378021 0.067078
0.399445 0.384583 0.063416
0.419739 0.391296 0.059906
0.439941 0.397736 0.057373
0.457733 0.403320 0.056213
0.477264 0.408691 0.055573
0.503937 0.413971 0.055847
0.530487 0.418182 0.056946
0.551117 0.419281 0.056396
0.569153 0.418579 0.054657
0.587830 0.418396 0.053986
0.605621 0.417603 0.053497
0.640656 0.414154 0.052307
0.672974 0.410706 0.051605
0.700867 0.407532 0.052368
0.726318 0.404724 0.053009
0.747101 0.403870 0.055115
0.766174 0.403351 0.057037
0.784607 0.402954 0.058044
0.801361 0.402466 0.059570
0.813904 0.401611 0.060730
0.825500 0.401154 0.062195
0.836700 0.398651 0.062286
0.848206 0.396271 0.062103
0.857086 0.394073 0.062958
0.865204 0.391724 0.063446
0.266937 0.355530 0.103973
0.289154 0.362335 0.097412
0.312042 0.368622 0.092926
0.335693 0.374207 0.087860
0.358582 0.379669 0.082886
0.374939 0.384796 0.078461
0.390656 0.390198 0.074371
0.408020 0.396118 0.069946
0.426971 0.402588 0.065979
0.447784 0.409332 0.062439
0.468414 0.415710 0.060242
0.486786 0.421295 0.059052
0.505127 0.426605 0.058533
0.526367 0.431702 0.058380
0.552277 0.436157 0.059631
0.574982 0.438080 0.059540
0.592957 0.437225 0.057709
0.609467 0.435425 0.056335
0.627075 0.434448 0.056244
0.642609 0.431976 0.055603
0.674713 0.428314 0.054749
0.704681 0.424988 0.054535
0.729797 0.421936 0.055267
0.750580 0.420776 0.057495
0.770233 0.420044 0.059052
0.789215 0.418732 0.060516
0.806519 0.418182 0.062408
0.820679 0.416809 0.063416
0.832458 0.415924 0.064972
0.843689 0.413605 0.065247
0.854431 0.410889 0.065552
0.863770 0.408539 0.066193
0.872650 0.406342 0.066681
0.289337 0.374359 0.107391
0.312744 0.381256 0.100952
0.336670 0.387360 0.096985
0.360413 0.392761 0.092194
0.384003 0.398224 0.087219
0.401428 0.403168 0.082458
0.417725 0.408325 0.077911
0.435089 0.413940 0.072937
0.453827 0.420074 0.068573
0.474121 0.426575 0.065369
0.495148 0.432953 0.063385
0.514130 0.438507 0.062347
0.532410 0.443817 0.061737
0.552673 0.448944 0.061829
0.574677 0.453827 0.062531
0.598083 0.456696 0.062958
0.616608 0.455872 0.060913
0.633240 0.453918 0.059601
0.648438 0.451294 0.058746
0.663788 0.448639 0.057892
0.677246 0.445160 0.057434
0.707520 0.441864 0.057098
0.733643 0.438751 0.057861
0.754791 0.437195 0.059204
0.774139 0.436188 0.061279
0.793457 0.434601 0.062897
0.810852 0.433136 0.065125
0.825623 0.431702 0.066284
0.838470 0.430237 0.068085
0.849976 0.427826 0.068054
0.860504 0.425476 0.068848
0.870422 0.422974 0.069000
0.880005 0.420685 0.069305
0.311462 0.392792 0.110962
0.336304 0.399567 0.105194
0.360992 0.405487 0.100952
0.384766 0.410828 0.096375
0.409271 0.416290 0.091553
0.428192 0.421265 0.086548
0.445435 0.426300 0.081879
0.462585 0.431641 0.076721
0.480835 0.437469 0.071686
0.500244 0.443481 0.068787
0.520782 0.449738 0.066956
0.540619 0.455383 0.066040
0.559235 0.460663 0.065643
0.578217 0.465759 0.065796
0.598969 0.470612 0.066437
0.619720 0.474335 0.066681
0.637970 0.473877 0.065125
0.654327 0.471741 0.064117
0.669373 0.468628 0.062866
0.683319 0.465546 0.062286
0.697235 0.462006 0.060699
0.710358 0.458618 0.059937
0.737488 0.455688 0.060852
0.759186 0.453003 0.061829
0.778687 0.451630 0.063354
0.798126 0.449493 0.065155
0.815979 0.447479 0.066711
0.830658 0.445831 0.068817
0.844269 0.444183 0.070038
0.855743 0.442322 0.071564
0.866699 0.439941 0.072174
0.876892 0.437744 0.072174
0.886108 0.435638 0.073151
0.333252 0.410614 0.114532
0.359131 0.417084 0.109497
0.384644 0.422974 0.105164
0.408722 0.428223 0.100769
0.433197 0.433624 0.096100
0.453339 0.438507 0.090851
0.472137 0.443573 0.085815
0.489380 0.448944 0.080841
0.506989 0.454559 0.076477
0.525574 0.460114 0.073425
0.545074 0.465820 0.071136
0.564850 0.471283 0.070038
0.584137 0.476624 0.069855
0.603058 0.481842 0.070129
0.622284 0.486725 0.070679
0.642181 0.490631 0.070526
0.658630 0.491302 0.069824
0.674500 0.489288 0.068207
0.688812 0.485901 0.066986
0.702698 0.482391 0.066010
0.715393 0.478607 0.064880
0.728333 0.475159 0.064362
0.740753 0.471558 0.063416
0.763733 0.468994 0.063934
0.783508 0.466461 0.065430
0.802979 0.464111 0.067474
0.821472 0.461334 0.068268
0.836182 0.459686 0.070282
0.849670 0.457764 0.072296
0.861206 0.456512 0.074341
0.872955 0.454468 0.075226
0.882904 0.452209 0.075439
0.892487 0.450348 0.076355
0.354553 0.427216 0.119080
0.380646 0.433594 0.114105
0.406708 0.439453 0.109589
0.431091 0.444733 0.105133
0.455383 0.450012 0.100708
0.475708 0.454681 0.095673
0.495422 0.459564 0.090637
0.512634 0.464783 0.085449
0.529633 0.470032 0.081543
0.547729 0.475372 0.078613
0.566498 0.480896 0.076385
0.585938 0.486267 0.075134
0.605255 0.491425 0.074860
0.623962 0.496460 0.074890
0.642883 0.501251 0.075256
0.661835 0.505341 0.074860
0.678040 0.506653 0.074280
0.693604 0.506165 0.072845
0.707855 0.503204 0.071533
0.721069 0.499542 0.070862
0.733459 0.495758 0.069855
0.745087 0.491730 0.068878
0.757080 0.487854 0.067780
0.767639 0.483459 0.066559
0.788055 0.480896 0.068176
0.808472 0.478088 0.068787
0.826508 0.475586 0.070618
0.841705 0.473511 0.071991
0.855316 0.471771 0.074066
0.867401 0.470276 0.076080
0.879333 0.468964 0.077698
0.888367 0.466492 0.079071
0.898010 0.464417 0.079865
0.375580 0.443176 0.123962
0.402069 0.449585 0.119385
0.427887 0.455292 0.114777
0.452423 0.460571 0.110016
0.476715 0.465607 0.105499
0.497467 0.470215 0.100616
0.517059 0.475037 0.095673
0.534271 0.480103 0.090698
0.551117 0.485077 0.087036
0.568878 0.490356 0.084015
0.587219 0.495575 0.081818
0.606079 0.500732 0.080597
0.625061 0.505646 0.080383
0.643585 0.510437 0.080475
0.661987 0.515106 0.080841
0.680328 0.519165 0.080505
0.695709 0.520935 0.079132
0.710907 0.521027 0.077942
0.725311 0.519714 0.077087
0.738770 0.516479 0.075623
0.750885 0.512573 0.074524
0.761902 0.508331 0.073700
0.772644 0.504028 0.072296
0.782837 0.499390 0.070862
0.792389 0.494629 0.070404
0.813141 0.491943 0.071564
0.831268 0.489624 0.073334
0.846771 0.487701 0.074646
0.860931 0.485596 0.075897
0.873260 0.484161 0.078064
0.885223 0.483032 0.080383
0.894745 0.480743 0.081390
0.903687 0.478210 0.082794
0.397339 0.458801 0.128357
0.422760 0.464844 0.124512
0.448212 0.470428 0.119934
0.472870 0.475739 0.115265
0.497467 0.480835 0.110901
0.518036 0.485199 0.105865
0.537720 0.489685 0.100769
0.554626 0.494568 0.096039
0.571411 0.499420 0.092560
0.589813 0.504730 0.089874
0.608032 0.509796 0.087555
0.625763 0.514526 0.086090
0.644135 0.519165 0.085876
0.662598 0.523804 0.085999
0.680847 0.528320 0.086121
0.698730 0.532318 0.085815
0.713470 0.534363 0.084717
0.727295 0.535339 0.083252
0.741180 0.534515 0.081848
0.753937 0.532623 0.081299
0.765594 0.528839 0.080383
0.776154 0.524475 0.078888
0.786560 0.519989 0.077576
0.796082 0.515320 0.076630
0.805511 0.510559 0.075897
0.816162 0.505615 0.074677
0.835052 0.502960 0.075836
0.851166 0.501312 0.077545
0.865326 0.499329 0.078705
0.878174 0.497253 0.080414
0.890839 0.495667 0.082092
0.900665 0.493835 0.084045
0.909332 0.491547 0.085541
0.419678 0.474426 0.133026
0.444519 0.480225 0.129333
0.468811 0.485443 0.125183
0.493561 0.490631 0.120636
0.518188 0.495667 0.116272
0.538635 0.500031 0.111511
0.557861 0.504333 0.106537
0.574707 0.508820 0.101807
0.591644 0.513397 0.098267
0.610199 0.518494 0.095703
0.628998 0.523682 0.093811
0.646149 0.528198 0.092407
0.663147 0.532501 0.091736
0.680908 0.536926 0.091522
0.699158 0.541412 0.091156
0.716827 0.545197 0.090729
0.731232 0.546936 0.089539
0.744354 0.548248 0.088440
0.756775 0.548584 0.087158
0.768890 0.547180 0.086456
0.780182 0.544647 0.085571
0.790405 0.540436 0.084259
0.799652 0.535767 0.083160
0.809235 0.530945 0.081543
0.818420 0.526215 0.080719
