滤镜资源/Professional Luts Collection/Lutify.me Professional/Cine Looks/Pyrite.cube
# Created by: Lutify.me
# Copyright: (c) Copyright Lutify.me 2015
# Website: https://lutify.me
#LUT size
LUT_3D_SIZE 9
#LUT data points
0.036987 0.046875 0.049835
0.080780 0.045898 0.046021
0.154266 0.054596 0.047180
0.229614 0.061768 0.044189
0.319550 0.068878 0.042969
0.401062 0.076691 0.042999
0.469604 0.079651 0.045258
0.525421 0.077698 0.045044
0.561707 0.070831 0.041473
0.043976 0.089539 0.053650
0.079315 0.104553 0.048462
0.205353 0.120636 0.045929
0.331909 0.134796 0.040649
0.441650 0.144196 0.037140
0.522400 0.152222 0.040314
0.585236 0.158356 0.043274
0.631226 0.161041 0.045624
0.662140 0.152039 0.043579
0.062042 0.142059 0.064240
0.094757 0.161499 0.060303
0.167145 0.185089 0.052399
0.361176 0.209198 0.044342
0.501831 0.215118 0.035736
0.599945 0.221863 0.036713
0.664551 0.230560 0.039520
0.709869 0.234680 0.042175
0.738525 0.225525 0.042175
0.114197 0.212311 0.080811
0.169037 0.237488 0.067841
0.226624 0.263824 0.055511
0.339966 0.291473 0.049500
0.524231 0.298889 0.041443
0.645874 0.298187 0.041382
0.719513 0.302887 0.044006
0.768799 0.304321 0.046051
0.799774 0.296631 0.046844
0.199371 0.295807 0.094330
0.276276 0.320679 0.073029
0.339172 0.345276 0.058533
0.435699 0.373657 0.051056
0.527649 0.383820 0.048859
0.666962 0.374237 0.047607
0.756470 0.371033 0.052734
0.810272 0.369476 0.055573
0.846527 0.361511 0.057831
0.289337 0.374359 0.107391
0.384003 0.398224 0.087219
0.453827 0.420074 0.068573
0.532410 0.443817 0.061737
0.616608 0.455872 0.060913
0.677246 0.445160 0.057434
0.774139 0.436188 0.061279
0.838470 0.430237 0.068085
0.880005 0.420685 0.069305
0.375580 0.443176 0.123962
0.476715 0.465607 0.105499
0.551117 0.485077 0.087036
0.625061 0.505646 0.080383
0.695709 0.520935 0.079132
0.750885 0.512573 0.074524
0.792389 0.494629 0.070404
0.860931 0.485596 0.075897
0.903687 0.478210 0.082794
0.468353 0.506287 0.142548
0.560547 0.525360 0.128265
0.633484 0.541199 0.112213
0.701263 0.558380 0.103424
0.763153 0.571228 0.099426
0.808502 0.572296 0.095459
0.844086 0.556915 0.091003
0.875702 0.536804 0.085358
0.921906 0.529816 0.092194
0.566437 0.564636 0.161346
0.641724 0.578796 0.152954
0.707275 0.591095 0.138245
0.764221 0.605896 0.128937
0.817352 0.619171 0.122986
0.857025 0.621613 0.116974
0.885956 0.617737 0.113312
0.907806 0.601715 0.106506
0.931885 0.581390 0.099976
0.032471 0.038940 0.069946
0.093811 0.044220 0.091492
0.170319 0.045044 0.097626
0.242889 0.045929 0.094604
0.312561 0.050079 0.088287
0.381226 0.058472 0.084137
0.442444 0.061981 0.082214
0.494690 0.062378 0.078033
0.530579 0.055420 0.065582
0.031982 0.098297 0.122803
0.096954 0.112122 0.134674
0.234833 0.135010 0.136597
0.344360 0.146088 0.131042
0.436157 0.158936 0.129059
0.510254 0.166290 0.128265
0.569946 0.173920 0.130554
0.613251 0.171265 0.128540
0.642334 0.154144 0.112061
0.033234 0.148438 0.127136
0.112671 0.186768 0.148773
0.234131 0.216644 0.128693
0.392548 0.238831 0.131104
0.511047 0.253693 0.129608
0.602539 0.271454 0.132874
0.663666 0.282867 0.141510
0.709808 0.289246 0.150177
0.734406 0.267303 0.138000
0.041077 0.204712 0.134583
0.180054 0.268951 0.165894
0.285461 0.300201 0.139252
0.404053 0.321899 0.118713
0.545258 0.331543 0.121368
0.649384 0.341248 0.125671
0.720398 0.358795 0.138519
0.770660 0.366150 0.149506
0.802979 0.354919 0.147491
0.070190 0.271179 0.147064
0.263885 0.350769 0.177765
0.364349 0.377869 0.149384
0.478424 0.405884 0.131958
0.561493 0.409271 0.113892
0.671509 0.405823 0.120300
0.753540 0.414856 0.134552
0.808807 0.424164 0.148041
0.845276 0.415863 0.150696
0.142944 0.346558 0.164948
0.343842 0.421661 0.194580
0.445496 0.445160 0.169373
0.552246 0.474579 0.148682
0.640259 0.488281 0.133301
0.692871 0.476624 0.121307
0.774536 0.474548 0.136719
0.834839 0.476135 0.153992
0.878967 0.474243 0.161407
0.235626 0.415985 0.185486
0.414764 0.482330 0.211578
0.517517 0.504547 0.190613
0.620728 0.531311 0.172272
0.705963 0.552002 0.157349
0.759705 0.547241 0.146118
0.798737 0.532898 0.134888
0.857452 0.529114 0.153595
0.900909 0.522614 0.169250
0.336975 0.482544 0.205414
0.491455 0.538055 0.234283
0.586914 0.558105 0.216705
0.679688 0.580872 0.200439
0.757721 0.601837 0.187805
0.809845 0.606140 0.174957
0.848145 0.597961 0.164795
0.873840 0.579620 0.152344
0.919708 0.574432 0.172089
0.451416 0.546478 0.220764
0.573761 0.591980 0.255493
0.658569 0.610077 0.241821
0.733734 0.628418 0.230865
0.797394 0.647003 0.219360
0.849030 0.657867 0.208282
0.886047 0.658081 0.197449
0.911255 0.645508 0.184021
0.930786 0.626251 0.170044
0.034119 0.040009 0.095856
0.080597 0.042084 0.113953
0.137543 0.044891 0.120087
0.218811 0.044250 0.127258
0.300964 0.043152 0.126617
0.374268 0.048096 0.123016
0.435333 0.053528 0.121826
0.488892 0.058014 0.119293
0.529205 0.053558 0.107117
0.033966 0.091003 0.156708
0.068115 0.112701 0.174408
0.209442 0.109802 0.173370
0.326630 0.125214 0.176788
0.416016 0.141357 0.176788
0.488098 0.153046 0.176178
0.545471 0.158203 0.174683
0.590942 0.155365 0.167297
0.621735 0.135681 0.149170
0.035004 0.164520 0.212036
0.059753 0.192200 0.229218
0.236328 0.233307 0.252228
0.390076 0.263702 0.253876
0.502838 0.284332 0.255524
0.585663 0.301239 0.258881
0.643829 0.311096 0.261719
0.687134 0.307800 0.257416
0.714813 0.274139 0.227997
0.036194 0.226288 0.233215
0.071533 0.268860 0.248291
0.273254 0.321411 0.273193
0.399872 0.348358 0.250275
0.534363 0.369507 0.257690
0.633484 0.386139 0.266388
0.703247 0.403015 0.275635
0.757446 0.408997 0.279541
0.790497 0.387787 0.265930
0.041138 0.283325 0.240753
0.109528 0.338531 0.260406
0.335846 0.400696 0.288544
0.457306 0.429199 0.266327
0.547729 0.439240 0.248199
0.654144 0.452301 0.264496
0.739044 0.466034 0.280212
0.799133 0.478210 0.291504
0.840057 0.468994 0.287079
0.059296 0.339722 0.245636
0.182526 0.401337 0.269897
0.407104 0.467865 0.298157
0.516174 0.492371 0.278168
0.614868 0.509766 0.264618
0.671753 0.508362 0.247742
0.758240 0.516083 0.270172
0.825958 0.524109 0.288391
0.873932 0.520905 0.290253
0.105347 0.400909 0.260742
0.260590 0.461304 0.288940
0.468933 0.523224 0.313690
0.571808 0.544373 0.298401
0.673645 0.568817 0.285797
0.733154 0.573792 0.270966
0.778839 0.567963 0.256744
0.844086 0.568634 0.281616
0.895203 0.566864 0.294495
0.194275 0.461365 0.272461
0.358948 0.516571 0.305115
0.531219 0.573059 0.331635
0.623779 0.592377 0.319580
0.715271 0.614807 0.310760
0.781219 0.629395 0.296997
0.830017 0.630310 0.283264
0.864136 0.619293 0.268707
0.913757 0.613434 0.291199
0.316742 0.522095 0.288910
0.457886 0.573242 0.313446
0.604614 0.624542 0.346802
0.677124 0.640717 0.340302
0.756470 0.661316 0.335175
0.816833 0.679321 0.325775
0.867371 0.686829 0.313293
0.903107 0.681702 0.299042
0.928497 0.664124 0.279633
0.031799 0.046783 0.124847
0.059418 0.044830 0.133026
0.133026 0.047424 0.144043
0.181885 0.046478 0.139679
0.271393 0.044159 0.147980
0.354065 0.045166 0.149292
0.422668 0.049103 0.151123
0.478455 0.053711 0.150391
0.520477 0.051300 0.141052
0.035797 0.100189 0.195312
0.048767 0.129669 0.221130
0.154175 0.125397 0.214539
0.290161 0.115417 0.204529
0.390900 0.131470 0.211304
0.471680 0.148651 0.215332
0.531616 0.159058 0.219238
0.581177 0.161224 0.214264
0.616516 0.143066 0.193848
0.037079 0.163971 0.251862
0.048828 0.200287 0.276581
0.151123 0.247528 0.304626
0.350555 0.251190 0.295197
0.467133 0.271149 0.293640
0.553925 0.286865 0.294464
0.616577 0.297333 0.297211
0.663696 0.294434 0.291443
0.695465 0.261322 0.261230
0.039948 0.241852 0.311188
0.051819 0.279053 0.329773
0.172943 0.334564 0.352112
0.385101 0.373444 0.371429
0.517700 0.398651 0.373199
0.611237 0.415100 0.374115
0.673004 0.426605 0.377899
0.722656 0.421967 0.370667
0.759644 0.386902 0.337189
0.041077 0.301483 0.335480
0.065674 0.349060 0.348175
0.210449 0.403992 0.363770
0.429779 0.448517 0.386108
0.530823 0.466705 0.375122
0.634186 0.483917 0.380249
0.715332 0.497467 0.392456
0.775238 0.504974 0.395538
0.818634 0.487274 0.377716
0.045807 0.356415 0.348236
0.092102 0.407318 0.356140
0.259705 0.463501 0.377045
0.476685 0.510620 0.398773
0.577515 0.531281 0.393524
0.649597 0.537964 0.380981
0.735504 0.553650 0.399567
0.808624 0.563019 0.409637
0.862244 0.558319 0.401367
0.060486 0.405212 0.347534
0.143036 0.456421 0.356537
0.332947 0.514282 0.388550
0.528809 0.561127 0.409851
0.623352 0.581421 0.404724
0.704315 0.595978 0.396606
0.753601 0.596497 0.382111
0.828583 0.605713 0.401031
0.889832 0.603546 0.401398
0.097198 0.453064 0.347290
0.224823 0.504272 0.360809
0.407013 0.554962 0.393646
0.577850 0.607056 0.418335
0.662750 0.625641 0.414703
0.750092 0.647766 0.411896
0.806000 0.654846 0.398712
0.848877 0.649811 0.383270
0.911072 0.649475 0.399963
0.186737 0.505890 0.344086
0.338837 0.555756 0.370819
0.500000 0.607117 0.396118
0.636353 0.654633 0.426941
0.711121 0.672089 0.424835
0.786621 0.692932 0.423859
0.846375 0.707062 0.413971
0.894745 0.708008 0.399689
0.928558 0.694641 0.380859
0.033356 0.056488 0.163513
0.047729 0.048553 0.154572
0.115967 0.050446 0.170441
0.191193 0.051819 0.171204
0.231934 0.046448 0.160492
0.322876 0.045349 0.168976
0.402405 0.046967 0.174530
0.464661 0.051147 0.175262
0.511902 0.048096 0.166870
0.037689 0.118347 0.240814
0.044891 0.148315 0.267792
0.109772 0.141632 0.250977
0.250214 0.145721 0.254242
0.353577 0.127441 0.236023
0.440521 0.145538 0.244751
0.513916 0.158600 0.250061
0.568390 0.164154 0.248688
0.608154 0.148254 0.231140
0.039093 0.180969 0.299438
0.046112 0.217865 0.325378
0.108337 0.267395 0.353973
0.267059 0.268829 0.341400
0.427338 0.268616 0.329315
0.518097 0.282379 0.329773
0.591675 0.294800 0.330505
0.646851 0.297333 0.329010
0.688019 0.272430 0.306152
0.041748 0.245422 0.350769
0.049896 0.285828 0.373260
0.121063 0.340515 0.398468
0.299988 0.387177 0.419586
0.479980 0.391907 0.409576
0.577393 0.407349 0.407196
0.646454 0.417053 0.405945
0.699860 0.413483 0.398315
0.741608 0.379639 0.368500
0.045410 0.312866 0.400330
0.057343 0.356262 0.417633
0.143097 0.413330 0.437286
0.337830 0.459290 0.454926
0.516052 0.489685 0.473480
0.616119 0.505127 0.472107
0.694427 0.519012 0.475922
0.753235 0.520782 0.472015
0.794830 0.491608 0.440186
0.047913 0.369904 0.425323
0.069824 0.417358 0.435608
0.175934 0.471191 0.445221
0.385803 0.517822 0.466888
0.553894 0.547485 0.483368
0.632294 0.559540 0.478424
0.718536 0.574066 0.484070
0.792938 0.583893 0.488617
0.849182 0.576630 0.472870
0.053162 0.419525 0.440460
0.090179 0.466461 0.443420
0.215668 0.517670 0.452606
0.421051 0.560699 0.474396
0.589508 0.596436 0.491486
0.670685 0.614563 0.493866
0.737549 0.622620 0.486084
0.818726 0.635406 0.495880
0.884705 0.638031 0.489899
0.067993 0.460052 0.432343
0.137665 0.507538 0.434540
0.288330 0.553741 0.444427
0.476776 0.599457 0.477631
0.628967 0.641541 0.494720
0.711243 0.661530 0.498444
0.790161 0.678375 0.492798
0.841797 0.678802 0.476532
0.908386 0.678406 0.484344
0.107422 0.503510 0.416962
0.218842 0.549652 0.426056
0.393494 0.592682 0.440338
0.538269 0.639862 0.473572
0.677582 0.686127 0.496094
0.754303 0.705383 0.497986
0.832855 0.726379 0.496521
0.889923 0.731445 0.480530
0.929138 0.719482 0.462616
0.035828 0.070618 0.206879
0.040649 0.056213 0.183014
0.100739 0.060883 0.199005
0.181458 0.062012 0.204651
0.244537 0.058197 0.197479
0.278473 0.047089 0.184204
0.361603 0.048798 0.195129
0.436127 0.051666 0.199402
0.498138 0.049347 0.192902
0.039185 0.138550 0.285431
0.044098 0.168610 0.311462
0.076965 0.159851 0.290100
0.203430 0.167908 0.292786
0.330811 0.169891 0.292786
0.400238 0.143005 0.268005
0.478607 0.158081 0.277740
0.550171 0.166260 0.278259
0.601257 0.152191 0.264130
0.041107 0.202484 0.344513
0.045532 0.238586 0.372192
0.093597 0.285339 0.393280
0.210052 0.284607 0.381134
0.367126 0.292755 0.376678
0.478943 0.282715 0.359985
0.559113 0.294891 0.361786
0.627319 0.300079 0.359894
0.677490 0.282562 0.344879
0.044342 0.262482 0.394867
0.050110 0.299622 0.416382
0.097107 0.350311 0.438477
0.255035 0.404114 0.462494
0.409241 0.404266 0.449402
0.543030 0.406525 0.440430
0.616943 0.417542 0.439209
0.678650 0.416199 0.431549
0.726501 0.388123 0.406128
0.047607 0.320038 0.437256
0.056458 0.359558 0.453827
0.115509 0.412079 0.472687
0.283051 0.469604 0.496735
0.454254 0.499054 0.511536
0.583649 0.502472 0.503906
0.662994 0.513702 0.502563
0.727203 0.516113 0.498932
0.772919 0.486908 0.470184
0.049927 0.374481 0.471558
0.064972 0.419434 0.486481
0.141968 0.476471 0.505524
0.312500 0.526672 0.524628
0.488251 0.557007 0.540741
0.619568 0.580200 0.555817
0.703674 0.592926 0.556396
0.776764 0.601135 0.558380
0.827972 0.583405 0.535278
0.054138 0.424469 0.492035
0.078247 0.469757 0.501373
0.172150 0.526093 0.514069
0.340363 0.567993 0.527679
0.524536 0.603088 0.548004
0.651184 0.629883 0.563141
0.724762 0.642059 0.562012
0.809235 0.655945 0.568878
0.876282 0.660370 0.561737
0.062164 0.468018 0.504150
0.101196 0.513214 0.505920
0.208649 0.565552 0.515533
0.372742 0.602142 0.524567
0.546570 0.642578 0.551270
0.684998 0.675720 0.566559
0.769684 0.697083 0.574615
0.832306 0.702118 0.562836
0.904541 0.706848 0.562927
0.081726 0.504669 0.484741
0.149963 0.552765 0.487854
0.287018 0.595764 0.494843
0.441650 0.630402 0.509125
0.587677 0.674377 0.540863
0.721893 0.717773 0.561737
0.810577 0.741577 0.567993
0.881958 0.753296 0.556946
0.927734 0.744019 0.536957
0.037933 0.089142 0.250702
0.039520 0.066772 0.216461
0.087708 0.070557 0.225494
0.165985 0.072937 0.236725
0.246857 0.071503 0.236145
0.288513 0.063538 0.225708
0.315277 0.051575 0.210754
0.396881 0.052216 0.220581
0.469025 0.051147 0.219452
0.040863 0.161072 0.328552
0.044464 0.190521 0.352325
0.062775 0.177765 0.326843
0.163757 0.187561 0.328339
0.290833 0.190735 0.331390
0.380280 0.184875 0.323883
0.433014 0.157227 0.301086
0.513672 0.169250 0.307251
0.579468 0.159546 0.297424
0.043396 0.224640 0.385895
0.046509 0.256927 0.410095
0.083069 0.303223 0.429169
0.165466 0.303131 0.416992
0.316467 0.308136 0.412598
0.437653 0.315674 0.410889
0.513336 0.297150 0.391693
0.590729 0.302490 0.390167
0.657074 0.289124 0.378448
0.046967 0.281067 0.434021
0.051727 0.317444 0.455048
0.087494 0.363586 0.472504
0.233856 0.420746 0.497070
0.347992 0.413940 0.484192
0.481232 0.422974 0.480835
0.580872 0.419769 0.471436
0.651215 0.420563 0.466339
0.708221 0.399872 0.446564
0.049774 0.331543 0.472107
0.056793 0.369354 0.487457
0.100830 0.418274 0.504944
0.246552 0.475403 0.528870
0.413635 0.510254 0.546021
0.518188 0.508514 0.537170
0.625763 0.512421 0.533386
0.696899 0.518188 0.531464
0.752563 0.499268 0.514282
0.051819 0.379761 0.501373
0.063690 0.421204 0.514954
0.121155 0.470764 0.530792
0.272614 0.527313 0.554504
0.443512 0.563049 0.573181
0.571320 0.587067 0.589905
0.662750 0.589020 0.584839
0.740326 0.597748 0.585449
0.800262 0.584991 0.572235
0.055359 0.425171 0.525970
0.074829 0.470245 0.539673
0.151794 0.526306 0.558228
0.304413 0.576447 0.578613
0.471252 0.611389 0.597992
0.597778 0.636963 0.616943
0.711761 0.661377 0.632812
0.795868 0.673706 0.636749
0.856567 0.670197 0.629028
0.062958 0.470856 0.543549
0.091919 0.515808 0.553558
0.175690 0.569305 0.566528
0.319061 0.613647 0.581512
0.470795 0.646271 0.598053
0.616058 0.678375 0.621063
0.748657 0.710846 0.640778
0.821686 0.721954 0.639984
0.893738 0.729736 0.642120
0.073700 0.510010 0.543365
0.118561 0.555695 0.549042
0.217560 0.605591 0.558929
0.355804 0.643188 0.572113
0.496948 0.674591 0.587799
0.634918 0.710571 0.612976
0.768860 0.748993 0.630890
0.863617 0.771912 0.639374
0.919464 0.769897 0.620514
0.039520 0.110657 0.292023
0.038361 0.081421 0.253296
0.068329 0.084869 0.252380
0.141785 0.089569 0.266266
0.225525 0.091064 0.272675
0.292114 0.086670 0.270813
0.326721 0.070374 0.254608
0.344482 0.056213 0.238007
0.422211 0.055359 0.246216
0.042633 0.181854 0.365234
0.044556 0.211121 0.389343
0.054047 0.196075 0.365265
0.121735 0.205170 0.362091
0.235901 0.208893 0.364197
0.339661 0.209747 0.364502
0.413971 0.201355 0.355560
0.457275 0.170807 0.332672
0.537506 0.165192 0.332001
0.045563 0.244385 0.421234
0.047943 0.274811 0.444214
0.075806 0.319855 0.462219
0.131256 0.317902 0.450134
0.256287 0.324738 0.446655
0.380554 0.327362 0.445068
0.471252 0.326782 0.440033
0.536377 0.307007 0.422119
0.615662 0.298584 0.412872
0.048889 0.298126 0.466370
0.052551 0.331390 0.485413
0.081421 0.376556 0.502960
0.203979 0.430359 0.526215
0.292999 0.426483 0.517059
0.416290 0.427246 0.509888
0.522400 0.433655 0.509857
0.600677 0.424927 0.500732
0.672729 0.412750 0.488495
0.051300 0.344147 0.499878
0.057098 0.381348 0.516327
0.092224 0.426117 0.532440
0.215820 0.481445 0.556549
0.376068 0.521759 0.579407
0.459198 0.513947 0.568024
0.560577 0.517731 0.565887
0.647369 0.516479 0.564209
0.719940 0.509399 0.554779
0.053223 0.387085 0.527679
0.063232 0.425262 0.540283
0.107849 0.471680 0.557007
0.234314 0.525787 0.580597
0.396820 0.566406 0.604462
0.536560 0.595062 0.621765
0.607605 0.593109 0.616425
0.686523 0.593445 0.616058
0.765717 0.594025 0.612732
0.056610 0.428162 0.549622
0.072296 0.470215 0.563660
0.130035 0.517517 0.579437
0.262360 0.569519 0.602356
0.419952 0.608490 0.626190
0.559570 0.640106 0.647400
0.676178 0.669647 0.670624
0.744476 0.670349 0.667236
0.820160 0.672211 0.664398
0.063721 0.470612 0.570282
0.090363 0.515686 0.584686
0.164093 0.568695 0.603546
0.298462 0.616547 0.625824
0.441742 0.653442 0.649200
0.580048 0.686066 0.673065
0.695038 0.715057 0.696289
0.804840 0.737457 0.709930
0.871582 0.745789 0.715179
0.074219 0.513733 0.584106
0.108398 0.558105 0.595032
0.185333 0.609436 0.611725
0.298798 0.651367 0.631317
0.421844 0.688416 0.654175
0.558655 0.719116 0.674316
0.690155 0.747131 0.690887
0.825195 0.782440 0.710144
0.902985 0.794128 0.713715
0.041229 0.132141 0.331879
0.039520 0.101135 0.294464
0.051666 0.103241 0.287140
0.113739 0.109070 0.296387
0.195160 0.106842 0.304016
0.267670 0.103180 0.307800
0.322754 0.094177 0.303131
0.348572 0.078430 0.288696
0.361328 0.060455 0.266357
0.044586 0.203735 0.400848
0.045197 0.227448 0.422394
0.048492 0.210052 0.400482
0.080841 0.220093 0.395477
0.180023 0.223175 0.392365
0.279114 0.222351 0.396484
0.367798 0.220032 0.396851
0.428986 0.205017 0.383667
0.468231 0.171021 0.360046
0.047455 0.261841 0.451691
0.049225 0.288727 0.473755
0.066010 0.331024 0.493958
0.094299 0.323853 0.479553
0.181763 0.337433 0.479675
0.295044 0.333038 0.471405
0.397491 0.333710 0.471313
0.486633 0.330048 0.467072
0.543701 0.307465 0.449371
0.050110 0.309814 0.491272
0.053162 0.342621 0.512604
0.073914 0.386078 0.530975
0.158234 0.435150 0.552917
0.228790 0.433380 0.546356
0.332123 0.436432 0.543701
0.437195 0.432159 0.535889
0.535675 0.433258 0.535065
0.600525 0.418732 0.524078
0.052368 0.352905 0.523926
0.056885 0.387848 0.541229
0.085297 0.433319 0.558838
0.177582 0.484833 0.582214
0.328979 0.528809 0.607819
0.401489 0.522247 0.600128
0.494812 0.521545 0.594330
0.581879 0.521667 0.591614
0.645355 0.511993 0.585510
0.054169 0.391083 0.548553
0.062469 0.430359 0.564697
0.100220 0.475739 0.581757
0.206757 0.527374 0.605560
0.360687 0.573151 0.633636
0.505768 0.604858 0.653229
0.566650 0.598846 0.645538
0.639435 0.601044 0.644196
0.694916 0.593262 0.640625
0.057251 0.428619 0.570984
0.070068 0.468323 0.585205
0.118011 0.515442 0.602295
0.233551 0.567780 0.627258
0.386627 0.611359 0.654327
0.536438 0.647919 0.678802
0.665558 0.679474 0.700439
0.714264 0.679474 0.699097
0.766998 0.676544 0.697327
0.063141 0.468414 0.590759
0.085022 0.511902 0.606537
0.141510 0.558685 0.623840
0.264709 0.608521 0.648376
0.403412 0.648682 0.674072
0.549866 0.685699 0.700531
0.680359 0.719360 0.725220
0.801086 0.752747 0.749512
0.837128 0.751404 0.744110
0.074799 0.513123 0.611542
0.107971 0.557648 0.626007
0.183044 0.608124 0.646454
0.300659 0.651855 0.669769
0.424988 0.690063 0.695374
0.556793 0.724426 0.721466
0.681183 0.756165 0.747314
0.791595 0.787384 0.769501
0.882629 0.809906 0.789917
