滤镜资源/Professional Luts Collection/Lutify.me Professional/Cine Looks/Pyrite.cube
# Created by: Lutify.me
# Copyright: (c) Copyright Lutify.me 2015
# Website: https://lutify.me
#LUT size
LUT_3D_SIZE 5
#LUT data points
0.036987 0.046875 0.049835
0.154266 0.054596 0.047180
0.319550 0.068878 0.042969
0.469604 0.079651 0.045258
0.561707 0.070831 0.041473
0.062042 0.142059 0.064240
0.167145 0.185089 0.052399
0.501831 0.215118 0.035736
0.664551 0.230560 0.039520
0.738525 0.225525 0.042175
0.199371 0.295807 0.094330
0.339172 0.345276 0.058533
0.527649 0.383820 0.048859
0.756470 0.371033 0.052734
0.846527 0.361511 0.057831
0.375580 0.443176 0.123962
0.551117 0.485077 0.087036
0.695709 0.520935 0.079132
0.792389 0.494629 0.070404
0.903687 0.478210 0.082794
0.566437 0.564636 0.161346
0.707275 0.591095 0.138245
0.817352 0.619171 0.122986
0.885956 0.617737 0.113312
0.931885 0.581390 0.099976
0.034119 0.040009 0.095856
0.137543 0.044891 0.120087
0.300964 0.043152 0.126617
0.435333 0.053528 0.121826
0.529205 0.053558 0.107117
0.035004 0.164520 0.212036
0.236328 0.233307 0.252228
0.502838 0.284332 0.255524
0.643829 0.311096 0.261719
0.714813 0.274139 0.227997
0.041138 0.283325 0.240753
0.335846 0.400696 0.288544
0.547729 0.439240 0.248199
0.739044 0.466034 0.280212
0.840057 0.468994 0.287079
0.105347 0.400909 0.260742
0.468933 0.523224 0.313690
0.673645 0.568817 0.285797
0.778839 0.567963 0.256744
0.895203 0.566864 0.294495
0.316742 0.522095 0.288910
0.604614 0.624542 0.346802
0.756470 0.661316 0.335175
0.867371 0.686829 0.313293
0.928497 0.664124 0.279633
0.033356 0.056488 0.163513
0.115967 0.050446 0.170441
0.231934 0.046448 0.160492
0.402405 0.046967 0.174530
0.511902 0.048096 0.166870
0.039093 0.180969 0.299438
0.108337 0.267395 0.353973
0.427338 0.268616 0.329315
0.591675 0.294800 0.330505
0.688019 0.272430 0.306152
0.045410 0.312866 0.400330
0.143097 0.413330 0.437286
0.516052 0.489685 0.473480
0.694427 0.519012 0.475922
0.794830 0.491608 0.440186
0.053162 0.419525 0.440460
0.215668 0.517670 0.452606
0.589508 0.596436 0.491486
0.737549 0.622620 0.486084
0.884705 0.638031 0.489899
0.107422 0.503510 0.416962
0.393494 0.592682 0.440338
0.677582 0.686127 0.496094
0.832855 0.726379 0.496521
0.929138 0.719482 0.462616
0.037933 0.089142 0.250702
0.087708 0.070557 0.225494
0.246857 0.071503 0.236145
0.315277 0.051575 0.210754
0.469025 0.051147 0.219452
0.043396 0.224640 0.385895
0.083069 0.303223 0.429169
0.316467 0.308136 0.412598
0.513336 0.297150 0.391693
0.657074 0.289124 0.378448
0.049774 0.331543 0.472107
0.100830 0.418274 0.504944
0.413635 0.510254 0.546021
0.625763 0.512421 0.533386
0.752563 0.499268 0.514282
0.055359 0.425171 0.525970
0.151794 0.526306 0.558228
0.471252 0.611389 0.597992
0.711761 0.661377 0.632812
0.856567 0.670197 0.629028
0.073700 0.510010 0.543365
0.217560 0.605591 0.558929
0.496948 0.674591 0.587799
0.768860 0.748993 0.630890
0.919464 0.769897 0.620514
0.041229 0.132141 0.331879
0.051666 0.103241 0.287140
0.195160 0.106842 0.304016
0.322754 0.094177 0.303131
0.361328 0.060455 0.266357
0.047455 0.261841 0.451691
0.066010 0.331024 0.493958
0.181763 0.337433 0.479675
0.397491 0.333710 0.471313
0.543701 0.307465 0.449371
0.052368 0.352905 0.523926
0.085297 0.433319 0.558838
0.328979 0.528809 0.607819
0.494812 0.521545 0.594330
0.645355 0.511993 0.585510
0.057251 0.428619 0.570984
0.118011 0.515442 0.602295
0.386627 0.611359 0.654327
0.665558 0.679474 0.700439
0.766998 0.676544 0.697327
0.074799 0.513123 0.611542
0.183044 0.608124 0.646454
0.424988 0.690063 0.695374
0.681183 0.756165 0.747314
0.882629 0.809906 0.789917
