滤镜资源/Professional Luts Collection/Lutify.me Professional/Cine Looks/Realgar.cube
# Created by: Lutify.me
# Copyright: (c) Copyright Lutify.me 2015
# Website: https://lutify.me
#LUT size
LUT_3D_SIZE 33
#LUT data points
0.034729 0.040863 0.041687
0.043579 0.042694 0.040619
0.061218 0.043640 0.037079
0.087158 0.048126 0.035431
0.121979 0.053223 0.033783
0.155670 0.058350 0.032135
0.191833 0.063843 0.030457
0.228210 0.068512 0.028503
0.264496 0.073395 0.026825
0.292084 0.077789 0.026611
0.316650 0.081757 0.026794
0.340729 0.085297 0.026978
0.364899 0.089203 0.026703
0.388885 0.092621 0.026245
0.410919 0.095581 0.025726
0.429474 0.097992 0.025330
0.445984 0.100311 0.025177
0.462341 0.102936 0.025635
0.477783 0.105408 0.026428
0.491882 0.107452 0.027405
0.505707 0.109100 0.028625
0.520020 0.110657 0.029633
0.534424 0.111755 0.030396
0.547729 0.112335 0.031372
0.560059 0.112946 0.032379
0.571564 0.114166 0.033203
0.582428 0.115204 0.034088
0.592102 0.114990 0.035309
0.601532 0.114471 0.036377
0.613007 0.114624 0.036957
0.624268 0.114777 0.037354
0.633392 0.111755 0.035919
0.641937 0.108734 0.034424
0.034698 0.044281 0.043213
0.042175 0.046997 0.042175
0.058441 0.049103 0.038330
0.085388 0.054260 0.035950
0.120056 0.060059 0.033905
0.155670 0.065582 0.031952
0.192719 0.071503 0.030182
0.229614 0.078674 0.028137
0.267426 0.085175 0.026245
0.298462 0.090546 0.025604
0.325134 0.095673 0.025696
0.351318 0.100159 0.025543
0.376831 0.104248 0.025085
0.402039 0.108093 0.024261
0.424866 0.111420 0.023407
0.443817 0.113800 0.022675
0.461029 0.115936 0.022552
0.477997 0.118011 0.022949
0.494476 0.120056 0.023560
0.510284 0.121826 0.024292
0.525085 0.123535 0.025421
0.540039 0.125275 0.026215
0.554718 0.126678 0.026825
0.568115 0.127350 0.027832
0.581146 0.128052 0.028809
0.594940 0.129059 0.029480
0.606903 0.130157 0.030273
0.618073 0.130341 0.031616
0.627869 0.129974 0.032684
0.638611 0.129944 0.033325
0.649750 0.130005 0.033661
0.657898 0.126648 0.032227
0.666290 0.123474 0.030579
0.034363 0.048309 0.043823
0.043671 0.052002 0.043243
0.055969 0.055420 0.039978
0.081635 0.061096 0.037292
0.117767 0.067902 0.034393
0.153259 0.074524 0.032654
0.192322 0.081726 0.030518
0.230591 0.089905 0.028076
0.269348 0.098572 0.026154
0.301575 0.105194 0.025269
0.331665 0.110809 0.024963
0.359955 0.116547 0.024384
0.388031 0.121338 0.023010
0.414459 0.125885 0.021881
0.438690 0.129181 0.020386
0.457916 0.131165 0.019684
0.475311 0.132874 0.019592
0.493195 0.134766 0.019806
0.510712 0.136688 0.020264
0.527924 0.138733 0.020935
0.544403 0.140503 0.021637
0.560333 0.142090 0.022278
0.575195 0.143524 0.023010
0.588562 0.144196 0.024200
0.601715 0.144745 0.025208
0.616180 0.145782 0.025696
0.630554 0.147003 0.026184
0.642731 0.147400 0.027435
0.654114 0.147675 0.028656
0.665100 0.147736 0.029358
0.675537 0.147644 0.029541
0.683502 0.144196 0.028198
0.691223 0.140350 0.026855
0.034027 0.054199 0.044800
0.044952 0.058807 0.044403
0.059570 0.064941 0.041504
0.079224 0.069092 0.039154
0.115051 0.077515 0.035767
0.151917 0.085907 0.033783
0.191223 0.093994 0.031403
0.229492 0.102295 0.028748
0.269043 0.111450 0.026398
0.305969 0.120453 0.025024
0.337952 0.127716 0.024536
0.368225 0.133942 0.023682
0.397125 0.139313 0.022156
0.425171 0.144104 0.020172
0.450439 0.147919 0.018555
0.472076 0.150055 0.017365
0.490936 0.151581 0.016815
0.509918 0.153107 0.016541
0.528503 0.154480 0.016541
0.545624 0.155975 0.017334
0.563171 0.157349 0.017731
0.579987 0.159241 0.018616
0.595947 0.161316 0.019348
0.611481 0.163055 0.020203
0.625458 0.164337 0.020844
0.640686 0.165833 0.021210
0.655212 0.167236 0.021667
0.667175 0.167511 0.023010
0.678894 0.167786 0.024292
0.689789 0.167023 0.025024
0.700317 0.166840 0.025818
0.708649 0.164551 0.024933
0.716034 0.160553 0.023651
0.034607 0.062714 0.047302
0.046143 0.068634 0.047394
0.061218 0.076355 0.045837
0.086395 0.083557 0.041046
0.112457 0.088226 0.037445
0.149017 0.098206 0.035034
0.190308 0.107849 0.032410
0.228210 0.116913 0.029877
0.268005 0.126526 0.027283
0.306091 0.136444 0.025726
0.342590 0.145447 0.023987
0.374908 0.152863 0.022552
0.406128 0.158875 0.020233
0.435059 0.163940 0.018127
0.461395 0.167755 0.016907
0.484406 0.169861 0.015594
0.504913 0.171539 0.014648
0.525574 0.173309 0.014008
0.545410 0.174927 0.013641
0.563751 0.176178 0.013916
0.581024 0.177673 0.015045
0.598450 0.179016 0.015289
0.615143 0.180908 0.016235
0.631989 0.182922 0.016724
0.648438 0.184998 0.016876
0.663818 0.187073 0.017517
0.679596 0.188599 0.017212
0.691620 0.188995 0.018463
0.702850 0.188965 0.019653
0.713837 0.187958 0.020691
0.724243 0.186981 0.022186
0.732697 0.184540 0.021698
0.740631 0.182007 0.020813
0.037201 0.075897 0.052460
0.046356 0.081848 0.052277
0.062775 0.089600 0.052032
0.088287 0.099915 0.044739
0.120087 0.107117 0.040649
0.145599 0.110626 0.037659
0.186340 0.121918 0.034851
0.226776 0.131989 0.031647
0.267395 0.142395 0.028595
0.307007 0.153229 0.027130
0.344086 0.163483 0.025574
0.378754 0.171143 0.023102
0.410553 0.177643 0.020782
0.441711 0.182739 0.017731
0.470367 0.186737 0.015442
0.494965 0.189148 0.014404
0.517181 0.190552 0.012848
0.537994 0.192688 0.012817
0.558929 0.194580 0.012299
0.578339 0.196381 0.012299
0.596802 0.197815 0.012604
0.614136 0.199219 0.012970
0.631866 0.200775 0.013214
0.648590 0.203003 0.014130
0.665527 0.205383 0.014648
0.681396 0.207336 0.015472
0.697479 0.208923 0.015045
0.709259 0.209595 0.015747
0.720306 0.209595 0.017059
0.732086 0.208740 0.017059
0.742767 0.207611 0.018738
0.750763 0.203918 0.019012
0.758575 0.201172 0.018311
0.040680 0.092163 0.058472
0.050140 0.098602 0.057953
0.064606 0.105652 0.057404
0.089630 0.117126 0.051025
0.124146 0.127502 0.043823
0.155457 0.133972 0.040497
0.183472 0.137299 0.036865
0.223511 0.148712 0.033844
0.265442 0.159485 0.030518
0.306671 0.171448 0.028656
0.346252 0.182129 0.026337
0.381317 0.190704 0.023956
0.414948 0.197662 0.021698
0.447266 0.203003 0.018158
0.476562 0.206757 0.015472
0.503204 0.208984 0.013550
0.527679 0.210358 0.012238
0.549896 0.212463 0.011963
0.571716 0.214752 0.011505
0.592316 0.216858 0.011292
0.612000 0.218689 0.010956
0.630127 0.220642 0.011505
0.648132 0.222229 0.011383
0.665344 0.224457 0.011932
0.681793 0.226715 0.012726
0.698517 0.228119 0.012756
0.713226 0.229675 0.013885
0.726257 0.230347 0.013916
0.736877 0.230865 0.015015
0.748047 0.230286 0.015594
0.758545 0.229401 0.017242
0.767181 0.224976 0.016418
0.774536 0.221222 0.016510
0.044861 0.109619 0.064087
0.057648 0.116669 0.063141
0.073303 0.124512 0.062164
0.094147 0.135681 0.056732
0.128571 0.148102 0.046600
0.160461 0.156738 0.042877
0.195343 0.163635 0.039520
0.222321 0.166382 0.035950
0.263824 0.178009 0.032745
0.305786 0.188660 0.028656
0.346954 0.200500 0.026489
0.384979 0.209442 0.024017
0.419495 0.216583 0.021393
0.452637 0.222473 0.018341
0.483185 0.226685 0.015106
0.509735 0.229248 0.013489
0.535248 0.230927 0.012024
0.560303 0.232880 0.011017
0.584167 0.235077 0.009979
0.605988 0.237396 0.009766
0.625916 0.239532 0.010071
0.645172 0.241302 0.009857
0.663879 0.242981 0.009521
0.680878 0.245300 0.010468
0.697296 0.247375 0.010864
0.712738 0.249237 0.011841
0.728485 0.250366 0.011993
0.741608 0.251190 0.012604
0.752869 0.251953 0.013763
0.764465 0.251740 0.014374
0.774719 0.250916 0.015778
0.783051 0.246521 0.014923
0.790131 0.242096 0.015076
0.052032 0.128693 0.069275
0.066650 0.136383 0.067993
0.085114 0.144867 0.066406
0.106384 0.157227 0.059509
0.134369 0.169617 0.049957
0.166290 0.179260 0.045074
0.200378 0.188080 0.041595
0.234833 0.194366 0.038086
0.262360 0.197052 0.034180
0.303528 0.208435 0.030945
0.345215 0.218262 0.026886
0.384949 0.228088 0.023865
0.423187 0.235992 0.020996
0.457092 0.242188 0.017822
0.489288 0.246948 0.014496
0.517029 0.249878 0.012817
0.542725 0.251770 0.011261
0.568359 0.253754 0.010284
0.594055 0.255768 0.008789
0.617401 0.258087 0.009216
0.639130 0.260254 0.008942
0.659454 0.262146 0.008698
0.678070 0.264069 0.008942
0.695312 0.266510 0.009857
0.712585 0.268616 0.009888
0.727783 0.270447 0.010712
0.743469 0.271637 0.010498
0.756622 0.272369 0.011383
0.768860 0.272766 0.011993
0.780579 0.272766 0.012939
0.791229 0.272308 0.014526
0.798889 0.268097 0.014496
0.806732 0.263275 0.013763
0.062439 0.148743 0.074219
0.078857 0.156311 0.072693
0.098206 0.165680 0.069977
0.119659 0.178070 0.062103
0.147430 0.190796 0.052216
0.172058 0.199768 0.047272
0.205536 0.209015 0.043549
0.238464 0.216705 0.039551
0.273499 0.223022 0.036163
0.299652 0.225159 0.032959
0.340790 0.236176 0.029114
0.380737 0.245148 0.025940
0.419617 0.253632 0.022552
0.457916 0.260406 0.018524
0.491241 0.265594 0.015198
0.522552 0.269470 0.012573
0.549438 0.271881 0.011414
0.575531 0.273804 0.009644
0.600708 0.276001 0.009064
0.625549 0.278107 0.008484
0.648804 0.280365 0.008820
0.670837 0.282288 0.008606
0.690460 0.284332 0.008881
0.708221 0.286926 0.009827
0.725769 0.289307 0.009827
0.741791 0.291199 0.010284
0.757019 0.292786 0.010559
0.770264 0.293365 0.011047
0.783020 0.293549 0.011505
0.794708 0.293365 0.012756
0.805176 0.293152 0.014801
0.814331 0.289276 0.014191
0.821320 0.284851 0.014282
0.076691 0.170593 0.079803
0.093811 0.178131 0.078278
0.114380 0.188049 0.073334
0.136108 0.200226 0.064453
0.162537 0.212280 0.054108
0.186157 0.221466 0.048828
0.212036 0.229919 0.045532
0.244354 0.237915 0.041138
0.278046 0.245483 0.037079
0.311798 0.251465 0.034363
0.336884 0.253174 0.031158
0.376587 0.262726 0.027832
0.415497 0.270782 0.024261
0.454193 0.277863 0.019531
0.491272 0.283508 0.015839
0.523956 0.287994 0.013458
0.555054 0.291351 0.011414
0.582001 0.293640 0.009827
0.607666 0.295624 0.008728
0.632660 0.297638 0.007935
0.655670 0.299927 0.008911
0.679291 0.301880 0.008850
0.701172 0.304138 0.009094
0.720093 0.306793 0.009644
0.738007 0.309631 0.010315
0.754425 0.311890 0.010956
0.769440 0.313721 0.011841
0.783295 0.314392 0.012024
0.795807 0.314758 0.012848
0.808228 0.314056 0.013184
0.819458 0.313538 0.014740
0.827881 0.310272 0.015137
0.836548 0.306000 0.014069
0.093506 0.193359 0.085175
0.112671 0.201141 0.083740
0.133087 0.211639 0.076324
0.154846 0.222961 0.066803
0.180878 0.234741 0.056030
0.202454 0.243408 0.050476
0.227112 0.251709 0.047119
0.252167 0.259033 0.042572
0.285797 0.266846 0.038086
0.320190 0.274139 0.034790
0.351929 0.279297 0.032135
0.374725 0.280060 0.028503
0.413757 0.288513 0.024475
0.452515 0.295227 0.020294
0.489685 0.300934 0.016205
0.524231 0.305237 0.013489
0.556274 0.309265 0.011993
0.586914 0.312531 0.010193
0.613403 0.314606 0.009338
0.639008 0.316437 0.008423
0.662811 0.318359 0.008606
0.685883 0.320404 0.008698
0.708252 0.322968 0.009613
0.729401 0.326263 0.010437
0.747864 0.329437 0.011658
0.766083 0.331970 0.011902
0.782043 0.333954 0.012543
0.795593 0.334320 0.012970
0.808929 0.334473 0.013123
0.820160 0.333801 0.014557
0.831604 0.332947 0.015778
0.841553 0.329376 0.015106
0.849670 0.325623 0.015320
0.114777 0.217590 0.090576
0.133209 0.226288 0.085693
0.154785 0.236359 0.077332
0.176514 0.246643 0.067566
0.201477 0.257233 0.056305
0.223022 0.265625 0.051025
0.244843 0.273621 0.047516
0.269226 0.281036 0.042603
0.296387 0.288391 0.037659
0.330414 0.295746 0.034302
0.363953 0.302307 0.031311
0.391693 0.305725 0.029022
0.413513 0.306152 0.025299
0.452545 0.313171 0.020294
0.489807 0.318390 0.016785
0.524170 0.322754 0.014191
0.556549 0.326447 0.012970
0.588715 0.330261 0.011383
0.618835 0.333374 0.010010
0.645874 0.335144 0.008270
0.670166 0.337036 0.009064
0.693573 0.338928 0.008728
0.715576 0.341309 0.009460
0.737061 0.344543 0.010254
0.757446 0.348022 0.011353
0.776031 0.350891 0.012939
0.793243 0.353333 0.013641
0.807190 0.354004 0.014343
0.819611 0.353912 0.015350
0.831879 0.353058 0.015900
0.842377 0.352264 0.017914
0.852997 0.348328 0.016724
0.862396 0.344513 0.016388
0.138153 0.242737 0.093872
0.156433 0.251892 0.085236
0.178864 0.261383 0.075989
0.200500 0.270355 0.066132
0.225006 0.279785 0.055237
0.245941 0.287628 0.050232
0.268311 0.295685 0.046234
0.289001 0.302704 0.041534
0.314850 0.309998 0.036530
0.342957 0.316864 0.032501
0.376312 0.323547 0.029602
0.405731 0.328400 0.027588
0.430969 0.330597 0.025360
0.452942 0.330811 0.020935
0.490265 0.336395 0.017090
0.525146 0.340393 0.014465
0.557587 0.343994 0.013031
0.590881 0.347107 0.010590
0.622620 0.350464 0.009247
0.651428 0.353302 0.008911
0.676880 0.355347 0.009155
0.700867 0.357391 0.009430
0.722931 0.359802 0.010193
0.743896 0.362854 0.011200
0.764923 0.365967 0.011688
0.784607 0.367981 0.012756
0.802246 0.370605 0.014618
0.816956 0.372192 0.015991
0.830231 0.372437 0.016510
0.841766 0.372101 0.018158
0.853149 0.371094 0.019165
0.863953 0.367218 0.018066
0.874084 0.363342 0.017517
0.162903 0.268524 0.093719
0.181915 0.277100 0.084320
0.205048 0.286011 0.073853
0.226624 0.294250 0.062958
0.249878 0.301697 0.054260
0.271149 0.309113 0.049011
0.293365 0.316925 0.044312
0.313538 0.324127 0.039673
0.334534 0.330902 0.035156
0.361084 0.337708 0.031006
0.389740 0.344269 0.027740
0.419342 0.349152 0.025848
0.446472 0.352844 0.024292
0.470184 0.354065 0.021484
0.490265 0.353790 0.018768
0.525635 0.357849 0.015045
0.559052 0.361115 0.013092
0.591461 0.364410 0.011963
0.624298 0.367340 0.010132
0.654724 0.370331 0.009491
0.682251 0.372833 0.009796
0.707245 0.374969 0.009644
0.730255 0.377411 0.010712
0.751404 0.380341 0.011932
0.771698 0.383423 0.013153
0.791656 0.384918 0.013641
0.809998 0.386475 0.014465
0.826111 0.388458 0.015594
0.839630 0.389771 0.017487
0.851990 0.389801 0.019501
0.863586 0.389160 0.020386
0.873199 0.385986 0.020905
0.883942 0.382141 0.019806
0.189606 0.293854 0.092041
0.209381 0.301758 0.082184
0.232056 0.310028 0.071106
0.254517 0.317535 0.060760
0.277557 0.323975 0.054077
0.296692 0.330200 0.048584
0.317810 0.337524 0.043335
0.338135 0.344391 0.038635
0.358215 0.351105 0.034149
0.378540 0.357147 0.030212
0.405365 0.363434 0.026978
0.433533 0.368927 0.025146
0.461029 0.372742 0.023682
0.486359 0.375580 0.022491
0.506866 0.375366 0.019745
0.525787 0.374420 0.016113
0.559357 0.377655 0.013947
0.592682 0.380829 0.012512
0.624847 0.383911 0.011383
0.656708 0.386719 0.010498
0.685883 0.389435 0.010162
0.712280 0.391754 0.010986
0.735992 0.394135 0.011627
0.758392 0.396698 0.012177
0.778900 0.399475 0.013458
0.798401 0.401031 0.014313
0.816589 0.402283 0.015198
0.832581 0.404114 0.016815
0.847656 0.405975 0.017883
0.862091 0.406433 0.019135
0.873718 0.406494 0.021484
0.883728 0.403778 0.021729
0.893585 0.400391 0.021698
0.217499 0.318542 0.089417
0.237335 0.325775 0.079712
0.260712 0.333466 0.068390
0.283081 0.339691 0.060333
0.305450 0.345551 0.053986
0.323273 0.351196 0.048492
0.342255 0.357483 0.043274
0.362122 0.364075 0.038605
0.381989 0.370483 0.034088
0.401154 0.376251 0.029755
0.421173 0.381531 0.027008
0.447968 0.386810 0.025238
0.475311 0.391510 0.023743
0.500824 0.394470 0.022766
0.523041 0.395691 0.021667
0.541534 0.394592 0.018463
0.559479 0.393402 0.014862
0.593353 0.396545 0.012756
0.625793 0.399536 0.012726
0.657928 0.402313 0.011108
0.688019 0.405090 0.011505
0.715759 0.407440 0.011414
0.741211 0.409668 0.011932
0.763336 0.412262 0.013702
0.784821 0.414856 0.014832
0.804962 0.416504 0.015289
0.822662 0.417877 0.016663
0.838562 0.419434 0.018280
0.853577 0.421234 0.019348
0.868988 0.422363 0.020905
0.882568 0.422943 0.022491
0.893372 0.421173 0.023315
0.902954 0.418365 0.023529
0.247040 0.342896 0.085602
0.267487 0.349518 0.075836
0.290833 0.356140 0.066559
0.311646 0.361206 0.060455
0.333130 0.366333 0.054413
0.349792 0.371338 0.048828
0.367279 0.377045 0.043701
0.386108 0.383057 0.038879
0.405884 0.389404 0.034363
0.425323 0.394928 0.030548
0.444000 0.400024 0.027832
0.463226 0.404480 0.025970
0.489075 0.408905 0.024414
0.514496 0.412323 0.023163
0.538330 0.414703 0.022675
0.557831 0.414398 0.019897
0.575287 0.412994 0.017578
0.592773 0.411652 0.015289
0.625641 0.414551 0.014465
0.658844 0.416718 0.011749
0.689484 0.419373 0.011475
0.718567 0.421906 0.011536
0.743958 0.424164 0.013153
0.767029 0.426636 0.014862
0.789001 0.429230 0.015839
0.811035 0.431396 0.016205
0.829224 0.432922 0.017731
0.845245 0.434509 0.019135
0.859650 0.436188 0.020935
0.874725 0.437408 0.022736
0.889587 0.438538 0.023895
0.901733 0.438202 0.025085
0.911377 0.436401 0.026611
0.276733 0.366180 0.082367
0.297363 0.372040 0.072723
0.320801 0.377502 0.066925
0.339935 0.381653 0.061005
0.359955 0.386139 0.055206
0.375732 0.390656 0.049896
0.391693 0.395660 0.044647
0.409729 0.401245 0.039581
0.429382 0.407135 0.035034
0.448792 0.412659 0.031494
0.467651 0.417725 0.028778
0.485199 0.421997 0.026917
0.504578 0.425995 0.025421
0.528870 0.429535 0.024261
0.553009 0.432159 0.023499
0.575134 0.433746 0.023071
0.591949 0.432190 0.019867
0.609558 0.430603 0.017395
0.626251 0.429016 0.015045
0.658569 0.431213 0.014130
0.689606 0.433258 0.013611
0.718628 0.435577 0.014191
0.746796 0.437805 0.013306
0.770020 0.440338 0.015198
0.792206 0.442902 0.017181
0.814667 0.445312 0.018005
0.834778 0.447632 0.019775
0.851715 0.449158 0.020264
0.866272 0.450653 0.021759
0.881134 0.451904 0.023651
0.896057 0.452820 0.024628
0.909241 0.453491 0.026123
0.920105 0.453308 0.027710
0.305634 0.388245 0.078979
0.326172 0.392639 0.073120
0.348145 0.397430 0.068359
0.366455 0.401001 0.062622
0.385620 0.404938 0.056488
0.401093 0.409088 0.051117
0.416656 0.413605 0.045929
0.432922 0.418427 0.040680
0.451447 0.423767 0.036041
0.470673 0.429077 0.032684
0.489716 0.434082 0.029907
0.507629 0.438446 0.027985
0.525757 0.442352 0.026550
0.545715 0.446075 0.025360
0.569122 0.448944 0.024597
0.592621 0.451324 0.024384
0.611542 0.450867 0.021912
0.627380 0.448914 0.019714
0.644043 0.447052 0.017212
0.659546 0.444855 0.015289
0.690674 0.446838 0.014404
0.720398 0.449127 0.014282
0.748199 0.451477 0.014679
0.773071 0.453949 0.015656
0.795319 0.456482 0.017853
0.817596 0.458740 0.019958
0.838837 0.461151 0.020813
0.856934 0.463135 0.022491
0.872528 0.464630 0.023071
0.887268 0.465973 0.025024
0.901917 0.466888 0.026398
0.915161 0.467682 0.028442
0.927338 0.468567 0.029358
0.333374 0.408661 0.078430
0.353363 0.412292 0.074127
0.373810 0.416290 0.069702
0.391510 0.419373 0.064575
0.410126 0.422882 0.058899
0.425659 0.426605 0.053101
0.441132 0.430786 0.047363
0.456604 0.435028 0.042084
0.473206 0.439728 0.037445
0.491486 0.444794 0.034149
0.510773 0.449829 0.031464
0.528900 0.454071 0.029419
0.546906 0.458038 0.027924
0.566071 0.461823 0.026855
0.586548 0.465302 0.026062
0.609680 0.467957 0.026031
0.631683 0.469299 0.024567
0.647736 0.467133 0.021545
0.662872 0.464752 0.020020
0.678223 0.462433 0.017334
0.692444 0.459961 0.016571
0.721771 0.462250 0.016296
0.749725 0.464539 0.016693
0.774933 0.467163 0.017365
0.798798 0.469604 0.018433
0.820953 0.471954 0.020569
0.842377 0.474274 0.022552
0.860870 0.476440 0.024689
0.878174 0.478302 0.025299
0.893829 0.479584 0.026154
0.908264 0.480591 0.027557
0.921814 0.481506 0.029358
0.933746 0.482544 0.031067
0.359711 0.427917 0.079712
0.378815 0.431061 0.075500
0.398529 0.434357 0.071228
0.416138 0.437073 0.066559
0.433929 0.439972 0.061371
0.449829 0.443542 0.055450
0.465210 0.447388 0.049622
0.480255 0.451447 0.043854
0.495758 0.455688 0.039307
0.512817 0.460297 0.036011
0.531158 0.465149 0.033356
0.549622 0.469391 0.031250
0.567566 0.473328 0.029907
0.585999 0.477173 0.028839
0.605499 0.480713 0.028290
0.626068 0.483948 0.028168
0.648132 0.486145 0.028290
0.666199 0.485077 0.025452
0.681305 0.482574 0.022858
0.695923 0.479980 0.019989
0.710114 0.477417 0.018616
0.723907 0.475189 0.017487
0.751862 0.477234 0.017212
0.777252 0.479919 0.019501
0.801361 0.482697 0.020630
0.825134 0.485077 0.021942
0.846954 0.487122 0.023621
0.865997 0.489136 0.025482
0.882874 0.491241 0.027496
0.898987 0.493103 0.028503
0.913361 0.494476 0.030182
0.926697 0.495544 0.032104
0.939301 0.496307 0.032623
0.384705 0.446289 0.080994
0.403625 0.449310 0.076996
0.422058 0.451965 0.072815
0.439392 0.454254 0.068542
0.456848 0.456726 0.063843
0.472412 0.459808 0.057983
0.488007 0.463348 0.052277
0.502747 0.467224 0.046753
0.517609 0.471283 0.042084
0.533752 0.475647 0.038269
0.551147 0.480255 0.035553
0.569244 0.484467 0.033447
0.587372 0.488403 0.032196
0.605560 0.492249 0.031494
0.624298 0.495972 0.031006
0.643982 0.499359 0.030731
0.664398 0.502289 0.030762
0.684265 0.502869 0.029510
0.699432 0.500458 0.026428
0.713837 0.497650 0.023468
0.727295 0.495178 0.022614
0.740692 0.492615 0.021729
0.753998 0.490021 0.019653
0.779266 0.492645 0.021851
0.804382 0.495361 0.022339
0.828674 0.497711 0.023682
0.851013 0.500092 0.025909
0.870880 0.501770 0.026581
0.887939 0.503906 0.028290
0.903900 0.505798 0.029236
0.918213 0.507874 0.031189
0.931610 0.509155 0.033142
0.944031 0.509888 0.033478
0.406647 0.463470 0.082214
0.425385 0.466461 0.078247
0.443756 0.468903 0.074310
0.460419 0.470886 0.070435
0.477448 0.473083 0.066254
0.492828 0.475616 0.060974
0.508209 0.478790 0.055298
0.522339 0.482483 0.049957
0.536804 0.486359 0.045471
0.552399 0.490509 0.041626
0.569031 0.494751 0.038269
0.586731 0.498901 0.035889
0.604889 0.502808 0.034973
0.622742 0.506439 0.034302
0.641052 0.510223 0.033844
0.660675 0.513885 0.033752
0.680939 0.517120 0.034027
0.701447 0.519501 0.032806
0.717468 0.518036 0.031128
0.731689 0.515442 0.028412
0.745270 0.512848 0.026367
0.757874 0.510101 0.025024
0.770782 0.507416 0.023682
0.782715 0.504669 0.022583
0.807587 0.507294 0.023468
0.832214 0.509857 0.024780
0.855042 0.512543 0.026855
0.873749 0.514496 0.028931
0.891937 0.516357 0.029388
0.908844 0.518677 0.029846
0.922241 0.521057 0.033295
0.935242 0.522675 0.036163
0.947693 0.523651 0.036591
0.427002 0.480042 0.083954
0.445526 0.482819 0.080078
0.463928 0.485352 0.075836
0.480774 0.487244 0.072235
0.497467 0.489105 0.068604
0.512085 0.491180 0.063721
0.526855 0.493835 0.058441
0.540771 0.497162 0.053406
0.554962 0.500977 0.049042
0.570221 0.504974 0.045288
0.586182 0.508972 0.041901
0.603485 0.512817 0.039459
0.621338 0.516418 0.037994
0.639008 0.519958 0.037170
0.657288 0.523590 0.036896
0.676819 0.527466 0.036804
0.696442 0.531097 0.037079
0.716492 0.533997 0.036743
0.734650 0.535004 0.035370
0.748932 0.532654 0.032410
0.762421 0.530029 0.030121
0.774719 0.527344 0.029266
0.786499 0.524536 0.028534
0.798615 0.521759 0.026245
0.810089 0.518951 0.025452
0.834686 0.521545 0.026611
0.857758 0.524384 0.029114
0.877289 0.526917 0.029968
0.894989 0.529053 0.031830
0.911957 0.531311 0.032349
0.926361 0.533997 0.034485
0.939331 0.535889 0.037018
0.950409 0.537415 0.039185
0.446533 0.495575 0.085846
0.464508 0.498260 0.082520
0.483093 0.500702 0.078461
0.499573 0.502411 0.074799
0.515900 0.504120 0.071075
0.530060 0.505859 0.066711
0.544434 0.508087 0.061920
0.558075 0.511169 0.057098
0.572296 0.514801 0.052704
0.588013 0.518921 0.049103
0.604004 0.522888 0.045837
0.620148 0.526520 0.043457
0.637451 0.529999 0.041901
0.655640 0.533417 0.040894
0.674103 0.536865 0.040100
0.693481 0.540680 0.039917
0.712372 0.544464 0.040192
0.731232 0.547638 0.038788
0.749695 0.549866 0.038361
0.763977 0.548828 0.036407
0.777130 0.546326 0.034088
0.789093 0.543457 0.032776
0.800690 0.540680 0.031647
0.812500 0.537933 0.029724
0.823608 0.535004 0.029358
0.836121 0.532166 0.027802
0.859711 0.535065 0.030029
0.879700 0.538574 0.032288
0.897461 0.541107 0.032898
0.914581 0.543640 0.033508
0.929108 0.546051 0.035431
0.943207 0.548981 0.038116
0.954254 0.551056 0.040192
0.466644 0.510834 0.087738
0.484406 0.513336 0.084839
0.502167 0.515625 0.081543
0.518311 0.517242 0.078156
0.534332 0.518829 0.074585
0.548218 0.520325 0.069946
0.562103 0.522217 0.065216
0.575470 0.525085 0.060822
0.589752 0.528656 0.056610
0.605774 0.532684 0.053101
0.622101 0.536652 0.049927
0.637817 0.540009 0.047699
0.654114 0.543243 0.046112
0.671783 0.546570 0.044983
0.690552 0.550018 0.044189
0.709869 0.553802 0.043671
0.728699 0.557434 0.043396
0.746368 0.560730 0.042511
0.763123 0.563507 0.041870
0.778473 0.564026 0.040955
0.791290 0.562225 0.038818
0.803253 0.559326 0.036499
0.814240 0.556580 0.035736
0.825256 0.553650 0.034943
0.836243 0.550903 0.034088
