滤镜资源/Professional Luts Collection/Lutify.me Professional/Cine Looks/Realgar.cube
# Created by: Lutify.me
# Copyright: (c) Copyright Lutify.me 2015
# Website: https://lutify.me
#LUT size
LUT_3D_SIZE 5
#LUT data points
0.034729 0.040863 0.041687
0.264496 0.073395 0.026825
0.445984 0.100311 0.025177
0.560059 0.112946 0.032379
0.641937 0.108734 0.034424
0.052032 0.128693 0.069275
0.262360 0.197052 0.034180
0.542725 0.251770 0.011261
0.712585 0.268616 0.009888
0.806732 0.263275 0.013763
0.217499 0.318542 0.089417
0.381989 0.370483 0.034088
0.559479 0.393402 0.014862
0.784821 0.414856 0.014832
0.902954 0.418365 0.023529
0.427002 0.480042 0.083954
0.554962 0.500977 0.049042
0.696442 0.531097 0.037079
0.810089 0.518951 0.025452
0.950409 0.537415 0.039185
0.584137 0.599457 0.101562
0.693359 0.610596 0.084747
0.810974 0.633911 0.066864
0.913818 0.649780 0.059509
0.966980 0.635376 0.054779
0.033417 0.053925 0.131439
0.166962 0.064362 0.150177
0.334686 0.062561 0.170258
0.470612 0.071960 0.171448
0.554962 0.069519 0.164551
0.036316 0.147888 0.188934
0.275391 0.240417 0.232544
0.534149 0.295197 0.237793
0.702118 0.324585 0.250031
0.789062 0.297882 0.235046
0.102783 0.313782 0.227814
0.402252 0.421173 0.275635
0.556305 0.448090 0.226379
0.776611 0.487701 0.244446
0.907562 0.497742 0.257080
0.285797 0.460724 0.260345
0.498444 0.549225 0.299927
0.655304 0.583069 0.268250
0.793304 0.600983 0.224182
0.945099 0.632629 0.260712
0.436249 0.587616 0.267059
0.616852 0.671814 0.314392
0.747955 0.696167 0.309387
0.879730 0.730988 0.286774
0.961304 0.730408 0.239929
0.040710 0.073425 0.207703
0.147034 0.072113 0.217896
0.257172 0.058044 0.220917
0.383026 0.058441 0.250031
0.470856 0.055450 0.259094
0.052521 0.206573 0.310516
0.231812 0.290253 0.366455
0.427368 0.281464 0.360809
0.595917 0.302826 0.376587
0.723480 0.286285 0.366364
0.065887 0.336090 0.375488
0.292236 0.435181 0.425018
0.531097 0.498901 0.477295
0.741608 0.537140 0.488831
0.871033 0.523590 0.466309
0.166534 0.478546 0.409821
0.376373 0.549286 0.450287
0.607819 0.630219 0.508698
0.756989 0.661407 0.500275
0.937073 0.701996 0.508759
0.299408 0.576263 0.408936
0.482849 0.644928 0.455414
0.702118 0.745239 0.504486
0.842133 0.776062 0.513611
0.954803 0.789764 0.475555
0.043488 0.102448 0.293793
0.136658 0.079254 0.280487
0.256409 0.067841 0.290710
0.306030 0.049103 0.279877
0.391327 0.054779 0.313171
0.053101 0.247040 0.413513
0.191742 0.331177 0.469482
0.364044 0.316620 0.454071
0.473602 0.300110 0.447327
0.622375 0.304352 0.479340
0.071075 0.367615 0.485138
0.224457 0.461151 0.535431
0.459167 0.530212 0.581146
0.612244 0.522827 0.576141
0.789764 0.519531 0.590057
0.116394 0.491394 0.533112
0.298096 0.577484 0.574982
0.536407 0.645538 0.625458
0.743011 0.709351 0.683441
0.916718 0.734314 0.698151
0.211609 0.599915 0.544647
0.378693 0.660309 0.570190
0.585632 0.732361 0.629822
0.790619 0.812073 0.689026
0.943207 0.843353 0.693359
0.044342 0.132294 0.383514
0.105133 0.101013 0.351715
0.221466 0.087646 0.370209
0.287750 0.062225 0.371826
0.299286 0.043732 0.342804
0.052979 0.280823 0.501221
0.134491 0.360718 0.552734
0.266846 0.339142 0.533112
0.395599 0.330231 0.536926
0.474335 0.283386 0.520020
0.068573 0.398773 0.565094
0.162201 0.480286 0.608978
0.388611 0.563660 0.663513
0.517242 0.544464 0.649475
0.623779 0.517456 0.642670
0.097626 0.501556 0.606140
0.217987 0.579132 0.648895
0.458099 0.665253 0.707642
0.712219 0.740295 0.770782
0.784363 0.730347 0.766266
0.167053 0.606598 0.642578
0.321045 0.677277 0.682739
0.532837 0.749695 0.738739
0.750427 0.820099 0.807373
0.925781 0.879852 0.867493
