滤镜资源/Professional Luts Collection/Lutify.me Professional/Cine Looks/Realgar.cube
# Created by: Lutify.me
# Copyright: (c) Copyright Lutify.me 2015
# Website: https://lutify.me
#LUT size
LUT_3D_SIZE 9
#LUT data points
0.034729 0.040863 0.041687
0.121979 0.053223 0.033783
0.264496 0.073395 0.026825
0.364899 0.089203 0.026703
0.445984 0.100311 0.025177
0.505707 0.109100 0.028625
0.560059 0.112946 0.032379
0.601532 0.114471 0.036377
0.641937 0.108734 0.034424
0.034607 0.062714 0.047302
0.112457 0.088226 0.037445
0.268005 0.126526 0.027283
0.406128 0.158875 0.020233
0.504913 0.171539 0.014648
0.581024 0.177673 0.015045
0.648438 0.184998 0.016876
0.702850 0.188965 0.019653
0.740631 0.182007 0.020813
0.052032 0.128693 0.069275
0.134369 0.169617 0.049957
0.262360 0.197052 0.034180
0.423187 0.235992 0.020996
0.542725 0.251770 0.011261
0.639130 0.260254 0.008942
0.712585 0.268616 0.009888
0.768860 0.272766 0.011993
0.806732 0.263275 0.013763
0.114777 0.217590 0.090576
0.201477 0.257233 0.056305
0.296387 0.288391 0.037659
0.413513 0.306152 0.025299
0.556549 0.326447 0.012970
0.670166 0.337036 0.009064
0.757446 0.348022 0.011353
0.819611 0.353912 0.015350
0.862396 0.344513 0.016388
0.217499 0.318542 0.089417
0.305450 0.345551 0.053986
0.381989 0.370483 0.034088
0.475311 0.391510 0.023743
0.559479 0.393402 0.014862
0.688019 0.405090 0.011505
0.784821 0.414856 0.014832
0.853577 0.421234 0.019348
0.902954 0.418365 0.023529
0.333374 0.408661 0.078430
0.410126 0.422882 0.058899
0.473206 0.439728 0.037445
0.546906 0.458038 0.027924
0.631683 0.469299 0.024567
0.692444 0.459961 0.016571
0.798798 0.469604 0.018433
0.878174 0.478302 0.025299
0.933746 0.482544 0.031067
0.427002 0.480042 0.083954
0.497467 0.489105 0.068604
0.554962 0.500977 0.049042
0.621338 0.516418 0.037994
0.696442 0.531097 0.037079
0.762421 0.530029 0.030121
0.810089 0.518951 0.025452
0.894989 0.529053 0.031830
0.950409 0.537415 0.039185
0.508545 0.540985 0.092163
0.571808 0.547791 0.082794
0.626251 0.555817 0.065094
0.688263 0.569611 0.054718
0.759155 0.583313 0.050964
0.821930 0.593109 0.046478
0.867004 0.583771 0.040558
0.907532 0.574249 0.037598
0.960297 0.589020 0.045807
0.584137 0.599457 0.101562
0.641327 0.605286 0.098969
0.693359 0.610596 0.084747
0.749176 0.621948 0.073059
0.810974 0.633911 0.066864
0.870148 0.645691 0.064209
0.913818 0.649780 0.059509
0.944519 0.642822 0.054840
0.966980 0.635376 0.054779
0.030182 0.045593 0.079590
0.087982 0.054871 0.086823
0.218964 0.064117 0.096985
0.308472 0.071075 0.102081
0.384949 0.080566 0.101868
0.449646 0.087769 0.098663
0.500214 0.090668 0.101318
0.543488 0.090942 0.101593
0.580109 0.083588 0.092590
0.029999 0.071411 0.096741
0.106262 0.109436 0.117096
0.253845 0.141083 0.118439
0.375610 0.164673 0.116760
0.480774 0.182373 0.115021
0.563965 0.193237 0.116943
0.633087 0.201691 0.123535
0.683929 0.204132 0.128510
0.719635 0.191162 0.120514
0.035095 0.136414 0.125214
0.158112 0.193573 0.147278
0.273865 0.218872 0.117401
0.422211 0.253845 0.109436
0.542877 0.275116 0.100281
0.647186 0.291260 0.099426
0.720093 0.302765 0.109406
0.777405 0.308807 0.120911
0.811096 0.289825 0.118042
0.067017 0.216736 0.143829
0.240204 0.288055 0.162262
0.335510 0.314789 0.130585
0.432648 0.329468 0.100830
0.564453 0.351929 0.091309
0.675659 0.368378 0.088928
0.761627 0.385834 0.099884
0.825531 0.394684 0.111542
0.870819 0.381500 0.113037
0.157745 0.307739 0.161896
0.324432 0.374695 0.165497
0.401367 0.394775 0.137878
0.496277 0.418121 0.112152
0.575867 0.422333 0.082336
0.688019 0.433472 0.083099
0.784363 0.450317 0.092499
0.855042 0.463776 0.106689
0.905640 0.460907 0.114441
0.267029 0.398621 0.165436
0.401733 0.448792 0.174286
0.470245 0.461914 0.149628
0.554016 0.485504 0.123932
0.646057 0.504547 0.102814
0.703033 0.495575 0.078339
0.800354 0.507904 0.088776
0.877533 0.522614 0.105713
0.936188 0.530762 0.116638
0.356110 0.473297 0.162659
0.462952 0.513275 0.183228
0.530640 0.524475 0.162140
0.609741 0.544189 0.140656
0.698944 0.567505 0.122345
0.769531 0.572784 0.103271
0.816315 0.563385 0.085907
0.892151 0.576141 0.100800
0.949249 0.586456 0.118011
0.432617 0.536469 0.164124
0.522522 0.573547 0.194397
0.590790 0.583679 0.179962
0.664948 0.598999 0.161987
0.744659 0.620209 0.144775
0.819336 0.636993 0.131653
0.873962 0.637054 0.113434
0.908142 0.626251 0.096985
0.957764 0.640442 0.113831
0.508118 0.597382 0.169250
0.589355 0.633759 0.205322
0.655731 0.643646 0.196503
0.721863 0.655426 0.186249
0.787781 0.671631 0.170593
0.852173 0.686493 0.157562
0.909882 0.701141 0.147339
0.944244 0.697144 0.129181
0.967102 0.687042 0.109924
0.033417 0.053925 0.131439
0.075470 0.058838 0.139221
0.166962 0.064362 0.150177
0.253326 0.062988 0.165405
0.334686 0.062561 0.170258
0.412567 0.067932 0.170410
0.470612 0.071960 0.171448
0.515991 0.074615 0.171844
0.554962 0.069519 0.164551
0.034912 0.094086 0.165405
0.104004 0.129272 0.181519
0.211212 0.133240 0.186462
0.333282 0.145996 0.194702
0.433411 0.162598 0.192078
0.514648 0.173340 0.194031
0.581482 0.181244 0.197571
0.634064 0.181610 0.197540
0.673828 0.165894 0.184845
0.036316 0.147888 0.188934
0.116516 0.197845 0.209686
0.275391 0.240417 0.232544
0.414337 0.270050 0.234070
0.534149 0.295197 0.237793
0.630981 0.313751 0.243256
0.702118 0.324585 0.250031
0.754120 0.324341 0.252838
0.789062 0.297882 0.235046
0.048370 0.231354 0.214294
0.186218 0.287415 0.236908
0.341644 0.338959 0.258240
0.426300 0.354462 0.233459
0.555023 0.380646 0.235016
0.667542 0.401367 0.238892
0.754211 0.418030 0.248077
0.819489 0.424744 0.256012
0.864899 0.405334 0.248016
0.102783 0.313782 0.227814
0.260712 0.368225 0.258423
0.402252 0.421173 0.275635
0.483917 0.439453 0.253448
0.556305 0.448090 0.226379
0.672333 0.467010 0.233337
0.776611 0.487701 0.244446
0.852875 0.503357 0.257019
0.907562 0.497742 0.257080
0.195404 0.390167 0.243622
0.333252 0.441315 0.270660
0.453888 0.488159 0.287659
0.526031 0.503815 0.267303
0.610626 0.522034 0.248840
0.677155 0.526245 0.220520
0.780731 0.543976 0.237579
0.869385 0.564819 0.253815
0.931976 0.572296 0.261597
0.285797 0.460724 0.260345
0.388855 0.505371 0.281372
0.498444 0.549225 0.299927
0.572510 0.562531 0.283569
0.655304 0.583069 0.268250
0.736450 0.601654 0.250610
0.793304 0.600983 0.224182
0.880096 0.617493 0.246033
0.945099 0.632629 0.260712
0.362488 0.523651 0.267273
0.449646 0.566040 0.286987
0.547668 0.610474 0.308868
0.621643 0.622375 0.299713
0.700684 0.640594 0.290100
0.779266 0.662292 0.275330
0.849060 0.675934 0.258057
0.894104 0.671356 0.233459
0.955200 0.683838 0.253357
0.436249 0.587616 0.267059
0.517822 0.629059 0.287994
0.616852 0.671814 0.314392
0.679504 0.682220 0.311920
0.747955 0.696167 0.309387
0.812805 0.713440 0.297394
0.879730 0.730988 0.286774
0.928833 0.739105 0.270996
0.961304 0.730408 0.239929
0.038361 0.061340 0.167175
0.076508 0.062927 0.173431
0.155731 0.068024 0.188690
0.213257 0.061737 0.190186
0.288788 0.059723 0.204437
0.364197 0.059174 0.212860
0.424316 0.063354 0.218872
0.471558 0.067078 0.223602
0.512726 0.062622 0.220947
0.040558 0.119659 0.218140
0.110107 0.152130 0.236481
0.202026 0.151825 0.238312
0.292755 0.144806 0.242157
0.389923 0.156006 0.254120
0.472473 0.167999 0.260345
0.543823 0.176178 0.268005
0.600494 0.179962 0.270996
0.646973 0.165466 0.258728
0.043945 0.176758 0.250549
0.123291 0.224396 0.274780
0.254913 0.265594 0.303894
0.366089 0.261108 0.303131
0.479462 0.280182 0.306000
0.572693 0.295654 0.309479
0.647491 0.306366 0.313629
0.707886 0.307007 0.315125
0.752106 0.281342 0.296387
0.045166 0.243378 0.285370
0.145813 0.300446 0.308167
0.286194 0.344116 0.334778
0.420959 0.379456 0.358459
0.545837 0.403778 0.360901
0.649475 0.421570 0.365173
0.725403 0.433655 0.371216
0.786713 0.434204 0.370544
0.834106 0.407074 0.348206
0.076385 0.326538 0.304474
0.200317 0.376648 0.326660
0.343628 0.421478 0.358429
0.469757 0.460846 0.381409
0.542999 0.474457 0.364746
0.655487 0.494965 0.370392
0.760132 0.517059 0.379669
0.836670 0.530182 0.386292
0.893127 0.515137 0.374786
0.136322 0.398499 0.317474
0.268890 0.445404 0.346008
0.394043 0.485229 0.378204
0.507996 0.528748 0.399139
0.583893 0.544403 0.388519
0.655151 0.555054 0.371857
0.763977 0.579468 0.385010
0.858948 0.601013 0.395386
0.925812 0.604401 0.393890
0.216919 0.465149 0.331787
0.327698 0.504608 0.361603
0.437286 0.543762 0.390686
0.547791 0.589233 0.408936
0.625153 0.604431 0.403442
0.704468 0.622498 0.393585
0.767120 0.630188 0.375000
0.866364 0.653809 0.390686
0.942963 0.669434 0.396027
0.292053 0.520935 0.343170
0.384491 0.555450 0.368927
0.478394 0.598724 0.392822
0.594147 0.649872 0.413574
0.666473 0.662262 0.411682
0.746307 0.681458 0.409424
0.819580 0.699493 0.397614
0.874634 0.702271 0.376678
0.952271 0.720093 0.388916
0.370148 0.575775 0.348236
0.450409 0.613342 0.372833
0.547150 0.661957 0.388916
0.654572 0.707520 0.411743
0.719116 0.718964 0.413483
0.787170 0.734375 0.417206
0.855530 0.753296 0.409515
0.917236 0.768158 0.396484
0.957184 0.763336 0.367493
0.040710 0.073425 0.207703
0.071960 0.067413 0.201324
0.147034 0.072113 0.217896
0.216095 0.067780 0.224030
0.257172 0.058044 0.220917
0.324677 0.057800 0.235321
0.383026 0.058441 0.250031
0.430420 0.060791 0.259766
0.470856 0.055450 0.259094
0.047028 0.143982 0.270569
0.108337 0.174225 0.289673
0.187653 0.167542 0.284454
0.284149 0.167877 0.290588
0.352325 0.154633 0.288239
0.426239 0.167450 0.304535
0.491913 0.179138 0.319305
0.553284 0.183319 0.327423
0.605255 0.167908 0.319794
0.052521 0.206573 0.310516
0.115540 0.252136 0.337585
0.231812 0.290253 0.366455
0.331635 0.286499 0.361176
0.427368 0.281464 0.360809
0.517426 0.294098 0.371063
0.595917 0.302826 0.376587
0.665253 0.305634 0.378632
0.723480 0.286285 0.366364
0.055725 0.267639 0.343262
0.135223 0.320557 0.371338
0.256165 0.364899 0.398834
0.380920 0.400574 0.427094
0.489960 0.397583 0.424133
0.595306 0.413727 0.425690
0.675964 0.424011 0.429321
0.745636 0.422607 0.425293
0.799927 0.395508 0.403961
0.065887 0.336090 0.375488
0.161377 0.390198 0.400391
0.292236 0.435181 0.425018
0.416168 0.469147 0.452332
0.531097 0.498901 0.477295
0.642761 0.517487 0.479736
0.741608 0.537140 0.488831
0.815674 0.545074 0.490570
0.871033 0.523590 0.466309
0.107880 0.413330 0.394928
0.215912 0.458984 0.416260
0.334991 0.496002 0.438629
0.458862 0.533020 0.471985
0.568848 0.566895 0.494873
0.643463 0.581665 0.487885
0.751984 0.603699 0.496307
0.846619 0.624969 0.503174
0.915375 0.625488 0.493927
0.166534 0.478546 0.409821
0.266815 0.515686 0.427155
0.376373 0.549286 0.450287
0.496613 0.587433 0.485596
0.607819 0.630219 0.508698
0.682098 0.646820 0.507965
0.756989 0.661407 0.500275
0.860352 0.686096 0.509735
0.937073 0.701996 0.508759
0.229919 0.529877 0.413788
0.323456 0.562683 0.429962
0.420441 0.595795 0.454865
0.533875 0.638977 0.490112
0.648102 0.688507 0.509460
0.722961 0.704468 0.513855
0.802765 0.724274 0.512115
0.866638 0.732910 0.494690
0.947998 0.750214 0.500854
0.299408 0.576263 0.408936
0.386536 0.607788 0.429169
0.482849 0.644928 0.455414
0.585999 0.695099 0.480225
0.702118 0.745239 0.504486
0.767975 0.757385 0.511963
0.842133 0.776062 0.513611
0.910431 0.793274 0.503510
0.954803 0.789764 0.475555
0.043335 0.086884 0.248749
0.072510 0.074127 0.234802
0.141785 0.076965 0.248535
0.209839 0.072784 0.256012
0.262573 0.063202 0.255554
0.290771 0.052460 0.249969
0.340820 0.056793 0.265747
0.387115 0.057892 0.282990
0.433289 0.054749 0.291412
0.049225 0.162720 0.318573
0.102997 0.194946 0.339294
0.175018 0.184235 0.328888
0.267426 0.184906 0.333649
0.340759 0.179688 0.335571
0.387695 0.163544 0.329987
0.447723 0.176514 0.350861
0.506226 0.185028 0.367615
0.563477 0.169983 0.368713
0.054657 0.229858 0.365509
0.104034 0.272888 0.392273
0.211914 0.311188 0.419952
0.304535 0.301483 0.409271
0.397034 0.303894 0.410217
0.459900 0.295563 0.407440
0.535706 0.309448 0.427063
0.610992 0.312866 0.434692
0.678253 0.291748 0.424683
0.060211 0.290100 0.401642
0.122406 0.338440 0.429901
0.227692 0.387177 0.460358
0.347870 0.417999 0.483063
0.438690 0.414001 0.475739
0.526825 0.414612 0.476990
0.622864 0.428467 0.490936
0.703339 0.427124 0.490356
0.767242 0.402985 0.473907
0.070496 0.351776 0.432526
0.144684 0.402130 0.457825
0.256866 0.448120 0.483704
0.380188 0.484344 0.508026
0.491669 0.514008 0.533447
0.583130 0.510773 0.531250
0.688477 0.529327 0.539154
0.772736 0.536407 0.541656
0.833618 0.512878 0.522034
0.091827 0.419434 0.459930
0.179169 0.471954 0.485382
0.293091 0.512146 0.506653
0.417999 0.546387 0.529510
0.527588 0.576233 0.557129
0.633728 0.605835 0.581451
0.742493 0.627350 0.590820
0.832428 0.644928 0.602112
0.897858 0.634796 0.585907
0.137604 0.489349 0.479248
0.226532 0.530334 0.496033
0.333038 0.564178 0.512726
0.446777 0.596802 0.537415
0.568054 0.634460 0.572540
0.671967 0.669556 0.596863
0.749603 0.687378 0.597961
0.852142 0.710175 0.611359
0.930176 0.723907 0.609039
0.189758 0.546539 0.489655
0.275055 0.576752 0.498322
0.370789 0.608093 0.515411
0.476257 0.642181 0.541504
0.599243 0.684509 0.580383
0.707245 0.726837 0.605774
0.786346 0.746124 0.613892
0.857880 0.760040 0.607605
0.942383 0.778717 0.608521
0.248413 0.585815 0.473816
0.331573 0.615753 0.487366
0.425537 0.648804 0.507385
0.526672 0.684174 0.536713
0.636292 0.731750 0.572937
0.747711 0.779633 0.596985
0.824280 0.796814 0.609375
0.900421 0.816437 0.606750
0.952911 0.817444 0.582428
0.043488 0.102448 0.293793
0.073669 0.080383 0.270966
0.136658 0.079254 0.280487
0.199921 0.076691 0.287903
0.256409 0.067841 0.290710
0.291687 0.058014 0.288025
0.306030 0.049103 0.279877
0.350128 0.052124 0.299500
0.391327 0.054779 0.313171
0.048401 0.178253 0.363068
0.090790 0.215485 0.387939
0.160553 0.199066 0.370483
0.249237 0.201263 0.376068
0.322510 0.197449 0.380432
0.373016 0.183380 0.377228
0.405304 0.162170 0.368347
0.458038 0.181671 0.390869
0.515015 0.175995 0.403992
0.053101 0.247040 0.413513
0.090057 0.288666 0.440826
0.191742 0.331177 0.469482
0.274017 0.314789 0.452667
0.364044 0.316620 0.454071
0.432098 0.315430 0.454987
0.473602 0.300110 0.447327
0.547821 0.317261 0.472198
0.622375 0.304352 0.479340
0.061096 0.309113 0.452881
0.105560 0.353912 0.479675
0.202576 0.401642 0.508362
0.324341 0.434967 0.530548
0.398834 0.421906 0.517334
0.483307 0.425232 0.518341
0.545135 0.423248 0.516785
0.637177 0.435364 0.542816
0.713562 0.414703 0.537720
0.071075 0.367615 0.485138
0.124298 0.413452 0.507385
0.224457 0.461151 0.535431
0.347015 0.501953 0.560120
0.459167 0.530212 0.581146
0.532867 0.522705 0.572998
0.612244 0.522827 0.576141
0.715546 0.537048 0.596283
0.789764 0.519531 0.590057
0.088531 0.428986 0.509949
0.156189 0.475800 0.531708
0.255035 0.518585 0.555054
0.377655 0.557007 0.578735
0.495270 0.589386 0.603363
0.600647 0.619843 0.630737
0.677490 0.613831 0.628357
0.778046 0.634857 0.645355
0.854980 0.626831 0.640869
0.116394 0.491394 0.533112
0.196564 0.537476 0.553711
0.298096 0.577484 0.574982
0.413910 0.609772 0.596069
0.536407 0.645538 0.625458
0.638611 0.676514 0.655365
0.743011 0.709351 0.683441
0.841553 0.729797 0.697571
0.916718 0.734314 0.698151
0.162567 0.553040 0.547150
0.239655 0.588226 0.561005
0.334290 0.620697 0.574738
0.437378 0.652832 0.598206
0.553589 0.689789 0.629547
0.667725 0.726562 0.665802
0.773315 0.765228 0.696228
0.849274 0.783234 0.702759
0.934692 0.798676 0.710236
0.211609 0.599915 0.544647
0.288666 0.628418 0.553589
0.378693 0.660309 0.570190
0.478241 0.695343 0.598724
0.585632 0.732361 0.629822
0.691467 0.770264 0.666779
0.790619 0.812073 0.689026
0.877350 0.833099 0.704742
0.943207 0.843353 0.693359
0.043549 0.116730 0.338196
0.066284 0.087524 0.304504
0.127960 0.086456 0.315613
0.188446 0.084839 0.323883
0.242035 0.079041 0.329224
0.283508 0.067078 0.329956
0.305695 0.054260 0.323761
0.307678 0.045532 0.311279
0.348999 0.048157 0.329803
0.047150 0.194733 0.408386
0.077911 0.234833 0.436188
0.133057 0.212158 0.412872
0.220886 0.214355 0.416290
0.297791 0.215424 0.424347
0.349457 0.203033 0.426086
0.386078 0.184387 0.419922
0.407318 0.155273 0.403809
0.458862 0.159180 0.422150
0.052826 0.264771 0.460388
0.081604 0.305878 0.487335
0.168915 0.350983 0.516022
0.236786 0.329895 0.498413
0.324402 0.328186 0.494934
0.392212 0.327209 0.497955
0.443878 0.317535 0.496033
0.479584 0.296722 0.486389
0.553192 0.304962 0.506287
0.061218 0.328094 0.500153
0.094513 0.369171 0.522156
0.176758 0.414154 0.550354
0.292938 0.451813 0.573944
0.352020 0.432037 0.559296
0.432892 0.429443 0.554871
0.502380 0.428680 0.557953
0.553711 0.416565 0.552887
0.634735 0.421692 0.573395
0.070648 0.385498 0.528748
0.111053 0.426575 0.549072
0.192108 0.470856 0.574677
0.310089 0.514618 0.601929
0.424286 0.546600 0.625610
0.484985 0.532440 0.613983
0.564209 0.529083 0.611725
0.623871 0.522156 0.611359
0.713898 0.529083 0.635620
0.084991 0.440735 0.552490
0.135254 0.481567 0.570343
0.216583 0.525085 0.595184
0.333252 0.566864 0.622467
0.454834 0.604095 0.649994
0.574677 0.636658 0.674469
0.632721 0.628876 0.668671
0.692047 0.624268 0.669586
0.789154 0.633179 0.693207
0.106781 0.496826 0.572632
0.167847 0.538513 0.590881
0.254028 0.576355 0.612976
0.366913 0.615021 0.638977
0.487518 0.652618 0.667755
0.609863 0.687805 0.697449
0.714752 0.722443 0.731262
0.772064 0.716736 0.728180
0.864075 0.730774 0.742889
0.140808 0.554077 0.592346
0.214203 0.592468 0.609650
0.306000 0.629944 0.631195
0.410156 0.664307 0.654755
0.526733 0.700378 0.684387
0.644287 0.735962 0.717377
0.744659 0.770813 0.752258
0.841614 0.801056 0.779327
0.919769 0.816742 0.793091
0.187042 0.604675 0.596802
0.254883 0.635895 0.611420
0.341400 0.669617 0.630676
0.436279 0.704346 0.657867
0.542908 0.739899 0.688446
0.652924 0.775604 0.721802
0.752075 0.809845 0.752228
0.850037 0.846222 0.776947
0.929016 0.865082 0.794128
0.044342 0.132294 0.383514
0.051483 0.101410 0.347412
0.105133 0.101013 0.351715
0.171356 0.099213 0.365509
0.221466 0.087646 0.370209
0.259216 0.076813 0.373901
0.287750 0.062225 0.371826
0.298187 0.051178 0.360474
0.299286 0.043732 0.342804
0.047699 0.211914 0.451050
0.067017 0.250031 0.479187
0.099274 0.225220 0.455994
0.178802 0.224792 0.452087
0.254120 0.225403 0.462921
0.312164 0.217987 0.468567
0.353455 0.203247 0.468475
0.380219 0.172852 0.455872
0.391296 0.132294 0.431396
0.052979 0.280823 0.501221
0.071564 0.319000 0.526154
0.134491 0.360718 0.552734
0.185852 0.343506 0.539093
0.266846 0.339142 0.533112
0.336761 0.335693 0.534424
0.395599 0.330231 0.536926
0.445099 0.316437 0.534271
0.474335 0.283386 0.520020
0.060242 0.342194 0.537537
0.084534 0.381866 0.560516
0.146606 0.423645 0.585419
0.242798 0.464081 0.609863
0.295990 0.446991 0.598785
0.372162 0.441437 0.593079
0.442200 0.436371 0.592529
0.506958 0.428772 0.594086
0.550140 0.402985 0.583740
0.068573 0.398773 0.565094
0.096863 0.436676 0.584625
0.162201 0.480286 0.608978
0.265442 0.523804 0.636292
0.388611 0.563660 0.663513
0.441437 0.548187 0.654053
0.517242 0.544464 0.649475
0.582245 0.538971 0.649811
0.623779 0.517456 0.642670
0.079681 0.450745 0.586914
0.118195 0.489563 0.605957
0.187988 0.531647 0.630432
0.299011 0.576965 0.659790
0.423431 0.621307 0.690094
0.554932 0.655823 0.715424
0.603851 0.645081 0.708069
0.662964 0.642212 0.707031
0.698944 0.627502 0.702087
0.097626 0.501556 0.606140
0.142029 0.537933 0.624207
0.217987 0.579132 0.648895
0.330750 0.624390 0.677826
0.458099 0.665253 0.707642
0.595764 0.706421 0.740326
0.712219 0.740295 0.770782
0.746460 0.735596 0.767792
0.784363 0.730347 0.766266
0.124207 0.552277 0.624298
0.181305 0.590454 0.643280
0.260620 0.627289 0.666473
0.370758 0.668793 0.694122
0.489655 0.706696 0.723694
0.622345 0.746735 0.757874
0.736511 0.783508 0.792664
0.834595 0.817352 0.824951
0.872894 0.816772 0.824005
0.167053 0.606598 0.642578
0.234375 0.640625 0.659851
0.321045 0.677277 0.682739
0.420624 0.713318 0.708557
0.532837 0.749695 0.738739
0.648926 0.785645 0.772308
0.750427 0.820099 0.807373
0.839020 0.852020 0.838989
0.925781 0.879852 0.867493
