滤镜资源/Professional Luts Collection/Lutify.me Professional/Cine Looks/Rhodochrosite.cube
# Created by: Lutify.me
# Copyright: (c) Copyright Lutify.me 2015
# Website: https://lutify.me
#LUT size
LUT_3D_SIZE 5
#LUT data points
0.023010 0.051422 0.071899
0.130585 0.059204 0.077484
0.288696 0.075806 0.082550
0.430206 0.090637 0.094818
0.506409 0.086182 0.094666
0.044922 0.148804 0.087341
0.154449 0.204437 0.033295
0.496002 0.248749 0.057159
0.640900 0.271515 0.095459
0.684021 0.259216 0.123230
0.155273 0.324921 0.121887
0.267456 0.395233 0.017639
0.496246 0.432709 0.012817
0.779541 0.447571 0.043823
0.866272 0.436737 0.099518
0.298035 0.500488 0.132538
0.451355 0.543945 0.028870
0.624603 0.574677 0.009583
0.816803 0.584839 0.007141
0.950470 0.572540 0.068207
0.463623 0.634338 0.131531
0.607727 0.649384 0.081512
0.751740 0.672760 0.036987
0.895142 0.690369 0.014282
0.966980 0.684937 0.083252
0.022552 0.037628 0.132477
0.112854 0.038940 0.153900
0.255035 0.043121 0.189453
0.381470 0.056091 0.200165
0.462708 0.064911 0.190948
0.020844 0.174194 0.232727
0.242615 0.236450 0.272919
0.479218 0.294250 0.294922
0.608643 0.322937 0.312073
0.669891 0.287811 0.290192
0.048676 0.329010 0.268585
0.352112 0.433044 0.313568
0.553192 0.473694 0.245178
0.744843 0.504242 0.315704
0.825867 0.496368 0.342316
0.166595 0.473175 0.310638
0.444824 0.573059 0.344147
0.630707 0.609558 0.278961
0.789948 0.628265 0.258179
0.922211 0.633636 0.331207
0.326050 0.585510 0.348450
0.554138 0.691071 0.355255
0.707733 0.715546 0.324127
0.851898 0.741730 0.300201
0.963684 0.744476 0.284851
0.021790 0.043396 0.218384
0.105042 0.038361 0.235626
0.192932 0.037170 0.228760
0.346649 0.041931 0.281250
0.441956 0.053528 0.285187
0.025513 0.200165 0.353394
0.173340 0.280701 0.403717
0.410492 0.260925 0.391083
0.552124 0.300171 0.406433
0.639221 0.281433 0.390656
0.037933 0.367859 0.439240
0.260773 0.458099 0.467773
0.532593 0.511200 0.507416
0.687744 0.542419 0.520447
0.773376 0.508423 0.487732
0.100647 0.504395 0.465729
0.346161 0.572327 0.490997
0.600067 0.640381 0.511261
0.750549 0.663940 0.513367
0.896576 0.680603 0.534668
0.217010 0.594482 0.465240
0.449554 0.656616 0.497742
0.656006 0.749054 0.512970
0.819275 0.775635 0.503021
0.953827 0.785156 0.490143
0.024506 0.064911 0.326141
0.093262 0.045441 0.316437
0.219788 0.041992 0.328735
0.258240 0.040283 0.300842
0.401825 0.043610 0.351990
0.029572 0.246094 0.467407
0.144531 0.327972 0.503510
0.353973 0.300293 0.483002
0.488586 0.273315 0.479004
0.615448 0.282654 0.488251
0.045074 0.395966 0.540497
0.202484 0.485931 0.570709
0.478302 0.539795 0.594940
0.620300 0.531006 0.587250
0.733063 0.523499 0.587036
0.086304 0.525208 0.585693
0.302826 0.605286 0.608063
0.555664 0.654083 0.638062
0.728851 0.696991 0.679443
0.854797 0.705139 0.684265
0.174500 0.621796 0.586456
0.381500 0.679535 0.601257
0.581024 0.735596 0.642395
0.763885 0.804718 0.658325
0.937653 0.822968 0.669373
0.028107 0.098785 0.416656
0.073486 0.063019 0.384064
0.195618 0.053406 0.408020
0.280060 0.045837 0.409760
0.297089 0.043610 0.372284
0.032684 0.285400 0.543396
0.110992 0.364777 0.581390
0.265289 0.327850 0.550751
0.427551 0.317474 0.562256
0.512207 0.254211 0.544769
0.045013 0.425140 0.610291
0.158020 0.503510 0.640869
0.422699 0.567871 0.677460
0.542297 0.539886 0.656769
0.641052 0.511810 0.653015
0.076172 0.529877 0.649200
0.239929 0.606903 0.679413
0.499115 0.672546 0.721375
0.704956 0.721893 0.761993
0.772522 0.707855 0.754089
0.161346 0.636963 0.680756
0.363159 0.704773 0.711060
0.565247 0.761169 0.754913
0.741608 0.811188 0.803802
0.895203 0.855804 0.849792
