滤镜资源/Professional Luts Collection/Lutify.me Professional/Cine Looks/Rhodochrosite.cube
# Created by: Lutify.me
# Copyright: (c) Copyright Lutify.me 2015
# Website: https://lutify.me
#LUT size
LUT_3D_SIZE 9
#LUT data points
0.023010 0.051422 0.071899
0.062195 0.050812 0.071136
0.130585 0.059204 0.077484
0.207031 0.067902 0.079712
0.288696 0.075806 0.082550
0.365662 0.084686 0.088440
0.430206 0.090637 0.094818
0.477844 0.091888 0.097595
0.506409 0.086182 0.094666
0.027649 0.091949 0.075775
0.061890 0.110687 0.060913
0.197205 0.125977 0.062927
0.310638 0.146088 0.076874
0.404755 0.162506 0.090179
0.478485 0.170593 0.100555
0.536133 0.174622 0.106720
0.576538 0.173828 0.110352
0.600708 0.160248 0.107574
0.044922 0.148804 0.087341
0.080658 0.174103 0.075439
0.154449 0.204437 0.033295
0.366150 0.231140 0.035614
0.496002 0.248749 0.057159
0.583801 0.262451 0.079254
0.640900 0.271515 0.095459
0.674072 0.272614 0.111450
0.684021 0.259216 0.123230
0.090179 0.228882 0.106720
0.132202 0.262909 0.076508
0.193726 0.301575 0.029541
0.312683 0.322296 0.016357
0.530823 0.346039 0.013428
0.653442 0.355835 0.042603
0.726776 0.364960 0.070526
0.771088 0.366394 0.094818
0.789368 0.350464 0.110504
0.155273 0.324921 0.121887
0.205658 0.360657 0.069092
0.267456 0.395233 0.017639
0.375641 0.419220 0.014404
0.496246 0.432709 0.012817
0.681183 0.444122 0.010437
0.779541 0.447571 0.043823
0.835846 0.447906 0.074799
0.866272 0.436737 0.099518
0.225983 0.418915 0.127075
0.298218 0.450714 0.062103
0.361908 0.476685 0.014343
0.449677 0.496124 0.012634
0.560272 0.512024 0.011078
0.671600 0.519409 0.009674
0.806458 0.520050 0.015839
0.879425 0.518127 0.058105
0.920868 0.510010 0.084412
0.298035 0.500488 0.132538
0.380493 0.526947 0.066376
0.451355 0.543945 0.028870
0.534088 0.561188 0.010834
0.624603 0.574677 0.009583
0.730042 0.582916 0.008209
0.816803 0.584839 0.007141
0.907135 0.577942 0.034973
0.950470 0.572540 0.068207
0.376282 0.570862 0.135162
0.459473 0.589294 0.083099
0.531464 0.599731 0.054291
0.609802 0.614349 0.027191
0.699951 0.626617 0.008209
0.779602 0.635376 0.007019
0.860443 0.638184 0.005981
0.925262 0.632629 0.011780
0.969055 0.629395 0.058990
0.463623 0.634338 0.131531
0.538361 0.643036 0.107666
0.607727 0.649384 0.081512
0.677032 0.661713 0.057159
0.751740 0.672760 0.036987
0.824463 0.682281 0.024078
0.895142 0.690369 0.014282
0.948090 0.694061 0.040741
0.966980 0.684937 0.083252
0.021301 0.038940 0.092468
0.073792 0.043213 0.114288
0.135925 0.043365 0.126404
0.200409 0.046082 0.135468
0.268494 0.052429 0.137115
0.334473 0.061829 0.138397
0.394592 0.068634 0.141083
0.442719 0.072174 0.141052
0.473236 0.069916 0.127136
0.020386 0.099518 0.140289
0.085022 0.111511 0.151917
0.208679 0.136139 0.161133
0.311981 0.153015 0.167694
0.401764 0.169006 0.174835
0.471130 0.178619 0.181366
0.526154 0.186890 0.189301
0.565796 0.186310 0.192352
0.588776 0.167358 0.177704
0.020844 0.154663 0.147095
0.121246 0.193726 0.171997
0.228973 0.224182 0.128632
0.383484 0.249542 0.156464
0.490051 0.271912 0.172394
0.570282 0.291748 0.190186
0.620697 0.303802 0.208099
0.659454 0.305176 0.217926
0.678955 0.277771 0.205597
0.040466 0.226624 0.161896
0.188232 0.286804 0.196747
0.266113 0.326935 0.131134
0.396057 0.348846 0.095459
0.546661 0.362183 0.129150
0.647339 0.378662 0.156769
0.714447 0.395752 0.185211
0.758667 0.401215 0.208527
0.773987 0.382538 0.218384
0.084869 0.309387 0.184906
0.250397 0.382111 0.208313
0.322876 0.417480 0.139709
0.434540 0.443481 0.103668
0.558563 0.458740 0.075195
0.683838 0.461243 0.119415
0.769501 0.473999 0.157196
0.823669 0.481201 0.189819
0.850830 0.466858 0.209290
0.155212 0.395325 0.211090
0.311737 0.465790 0.225281
0.390717 0.495148 0.153931
0.487457 0.518707 0.121429
0.601776 0.539154 0.093506
0.711060 0.546570 0.077209
0.801422 0.544861 0.131012
0.866089 0.547607 0.174133
0.907684 0.543884 0.202026
0.232910 0.470917 0.238464
0.367401 0.535645 0.242096
0.451630 0.561859 0.173523
0.547089 0.580109 0.144836
0.646759 0.599548 0.118866
0.750061 0.610962 0.099213
0.825989 0.612488 0.097504
0.894379 0.609344 0.151947
0.937897 0.603088 0.191010
0.313843 0.538635 0.265472
0.431274 0.599152 0.252441
0.516449 0.619141 0.199249
0.604065 0.632812 0.175385
0.691864 0.649750 0.152222
0.778351 0.663483 0.134918
0.862061 0.671173 0.122345
0.915833 0.666107 0.125336
0.964081 0.663055 0.171875
0.393768 0.611481 0.262573
0.502136 0.661530 0.253204
0.582520 0.674744 0.218658
0.658203 0.684540 0.203949
0.729462 0.698029 0.185852
0.803040 0.710602 0.171051
0.880859 0.722809 0.159119
0.940674 0.728607 0.151245
0.965637 0.720490 0.180267
0.022552 0.037628 0.132477
0.062256 0.039001 0.145569
0.112854 0.038940 0.153900
0.183014 0.038208 0.176697
0.255035 0.043121 0.189453
0.325745 0.049774 0.196411
0.381470 0.056091 0.200165
0.429932 0.062958 0.200806
0.462708 0.064911 0.190948
0.021118 0.094421 0.181488
0.067535 0.113525 0.199860
0.189880 0.097992 0.207062
0.287933 0.119263 0.219147
0.372620 0.141418 0.230621
0.442230 0.159027 0.239777
0.497467 0.167694 0.245087
0.539276 0.167511 0.242981
0.562958 0.145416 0.225311
0.020844 0.174194 0.232727
0.074005 0.204681 0.248413
0.242615 0.236450 0.272919
0.375549 0.269531 0.283997
0.479218 0.294250 0.294922
0.555542 0.313049 0.305023
0.608643 0.322937 0.312073
0.647858 0.320068 0.312714
0.669891 0.287811 0.290192
0.024139 0.251404 0.252045
0.122101 0.295837 0.273438
0.297760 0.340912 0.293060
0.405792 0.363770 0.261017
0.528503 0.387115 0.292023
0.619598 0.410339 0.311066
0.682037 0.426605 0.328217
0.723358 0.431702 0.340973
0.746948 0.402191 0.326813
0.048676 0.329010 0.268585
0.181305 0.378510 0.295441
0.352112 0.433044 0.313568
0.450256 0.458130 0.268433
0.553192 0.473694 0.245178
0.659729 0.485413 0.286499
0.744843 0.504242 0.315704
0.798676 0.512299 0.337402
0.825867 0.496368 0.342316
0.099243 0.401398 0.284241
0.248871 0.454010 0.319672
0.401947 0.509949 0.327454
0.487610 0.532410 0.280701
0.591309 0.548981 0.257721
0.679108 0.558685 0.245026
0.769531 0.564880 0.291840
0.842804 0.577881 0.323883
0.885803 0.571472 0.339722
0.166595 0.473175 0.310638
0.305298 0.518066 0.343079
0.444824 0.573059 0.344147
0.534332 0.593994 0.297943
0.630707 0.609558 0.278961
0.718109 0.623169 0.261047
0.789948 0.628265 0.258179
0.867554 0.632202 0.303802
0.922211 0.633636 0.331207
0.241089 0.531097 0.330994
0.371307 0.572296 0.362244
0.491974 0.629913 0.354675
0.582001 0.650269 0.315765
0.669891 0.662903 0.302063
0.749512 0.678223 0.286133
0.829590 0.689209 0.272003
0.888245 0.690338 0.273560
0.949310 0.690094 0.313232
0.326050 0.585510 0.348450
0.437408 0.633148 0.367737
0.554138 0.691071 0.355255
0.628784 0.704498 0.330139
0.707733 0.715546 0.324127
0.774353 0.728149 0.312561
0.851898 0.741730 0.300201
0.918457 0.750671 0.292389
0.963684 0.744476 0.284851
0.021545 0.038910 0.171539
0.051392 0.037537 0.184998
0.113342 0.037415 0.194122
0.154388 0.036621 0.194733
0.228210 0.037903 0.219116
0.306091 0.042633 0.236572
0.368042 0.049103 0.246765
0.418182 0.055328 0.250732
0.454468 0.059570 0.244263
0.021820 0.104004 0.235291
0.057190 0.131958 0.260559
0.160370 0.116333 0.260559
0.267487 0.092834 0.264221
0.353363 0.113953 0.279999
0.424835 0.139923 0.292236
0.480988 0.154266 0.300018
0.525482 0.162994 0.300507
0.553864 0.144440 0.282562
0.021637 0.179169 0.288300
0.065277 0.220551 0.314453
0.200409 0.255035 0.339661
0.344116 0.250610 0.337830
0.441376 0.278473 0.345123
0.517517 0.295166 0.352234
0.577881 0.307312 0.359009
0.624176 0.307617 0.360107
0.649292 0.275543 0.336304
0.024780 0.271240 0.341064
0.087311 0.314941 0.356934
0.246674 0.354553 0.375031
0.404114 0.387115 0.399231
0.515015 0.412720 0.407990
0.595886 0.430481 0.414886
0.652527 0.441559 0.421021
0.697266 0.436829 0.417633
0.727295 0.400543 0.391449
0.038788 0.352539 0.359985
0.130646 0.396576 0.373474
0.303650 0.439575 0.397797
0.454926 0.474396 0.404236
0.541565 0.489227 0.395721
0.635620 0.507019 0.417664
0.713196 0.526428 0.437286
0.762543 0.532471 0.447205
0.789764 0.507935 0.433655
0.071442 0.423279 0.371399
0.189514 0.467407 0.389648
0.350342 0.506683 0.417938
0.489532 0.548126 0.420685
0.578766 0.563141 0.399536
0.657532 0.573914 0.396545
0.746155 0.588440 0.428680
0.818817 0.601196 0.448181
0.861786 0.591644 0.449524
0.123352 0.483795 0.383850
0.246643 0.524902 0.405090
0.397522 0.562042 0.435638
0.526245 0.608521 0.434509
0.611237 0.622253 0.411743
0.697327 0.635956 0.399323
0.764313 0.644592 0.400208
0.846313 0.655060 0.431641
0.909180 0.658142 0.443726
0.187347 0.537048 0.396423
0.308167 0.571838 0.416321
0.442474 0.608704 0.446838
0.561066 0.663879 0.440674
0.641266 0.677979 0.418915
0.726715 0.691711 0.411896
0.806793 0.705658 0.400360
0.866364 0.709900 0.404572
0.938934 0.714905 0.430115
0.261810 0.583679 0.402924
0.378906 0.618347 0.427734
0.497498 0.663544 0.450012
0.600525 0.717743 0.440186
0.679230 0.733765 0.423584
0.754974 0.744415 0.422913
0.832916 0.758453 0.413300
0.905304 0.769867 0.408234
0.955597 0.765411 0.398712
0.021790 0.043396 0.218384
0.044342 0.040649 0.223419
0.105042 0.038361 0.235626
0.166656 0.037323 0.239288
0.192932 0.037170 0.228760
0.274933 0.038727 0.259369
0.346649 0.041931 0.281250
0.401367 0.048706 0.289825
0.441956 0.053528 0.285187
0.023102 0.121429 0.297699
0.052734 0.151947 0.322601
0.136444 0.134460 0.312744
0.249451 0.118347 0.318207
0.326294 0.092987 0.314178
0.404175 0.121704 0.336243
0.466064 0.143280 0.348633
0.516113 0.154083 0.351654
0.550049 0.138062 0.335663
0.025513 0.200165 0.353394
0.060150 0.242615 0.378571
0.173340 0.280701 0.403717
0.299225 0.267853 0.394043
0.410492 0.260925 0.391083
0.489716 0.284393 0.399597
0.552124 0.300171 0.406433
0.603027 0.305206 0.407227
0.639221 0.281433 0.390656
0.029114 0.280548 0.398468
0.079102 0.328369 0.419586
0.211517 0.374695 0.440430
0.362976 0.404358 0.458160
0.478271 0.404327 0.454041
0.563263 0.424896 0.460419
0.625732 0.435303 0.463745
0.675018 0.431091 0.458405
0.709808 0.396423 0.435730
0.037933 0.367859 0.439240
0.109070 0.417389 0.454315
0.260773 0.458099 0.467773
0.412842 0.485870 0.484680
0.532593 0.511200 0.507416
0.616669 0.528076 0.513550
0.687744 0.542419 0.520447
0.740112 0.542114 0.517853
0.773376 0.508423 0.487732
0.060791 0.442749 0.454193
0.160034 0.489410 0.467743
0.303558 0.522644 0.479706
0.455994 0.553345 0.504730
0.572418 0.578552 0.504913
0.645477 0.590546 0.506989
0.724854 0.604309 0.526825
0.793365 0.616943 0.537354
0.836456 0.605591 0.527222
0.100647 0.504395 0.465729
0.209839 0.541962 0.476318
0.346161 0.572327 0.490997
0.491699 0.604065 0.517548
0.600067 0.640381 0.511261
0.678619 0.651703 0.504608
0.750549 0.663940 0.513367
0.834045 0.676849 0.534088
0.896576 0.680603 0.534668
0.154266 0.552307 0.468506
0.263947 0.584351 0.479065
0.390930 0.613983 0.495453
0.522858 0.649506 0.525940
0.624939 0.696350 0.517944
0.704254 0.708344 0.507812
0.790619 0.723175 0.502167
0.856781 0.731476 0.506470
0.931213 0.735931 0.519684
0.217010 0.594482 0.465240
0.328491 0.624969 0.478485
0.449554 0.656616 0.497742
0.558319 0.696869 0.526581
0.656006 0.749054 0.512970
0.732697 0.761627 0.505646
0.819275 0.775635 0.503021
0.900391 0.789185 0.497223
0.953827 0.785156 0.490143
0.022400 0.052429 0.269714
0.044189 0.043793 0.265808
0.098389 0.042419 0.278595
0.166473 0.040558 0.286224
0.212982 0.038910 0.281494
0.227997 0.038910 0.264496
0.306396 0.039490 0.296021
0.376251 0.042358 0.319336
0.426971 0.048004 0.321747
0.024841 0.138916 0.357727
0.046417 0.171265 0.379608
0.114716 0.153107 0.360687
0.227173 0.144989 0.367340
0.317505 0.127838 0.369263
0.368622 0.097351 0.359375
0.442535 0.123413 0.384979
0.501892 0.143036 0.395905
0.544403 0.128967 0.386200
0.027802 0.222778 0.414398
0.052155 0.264587 0.439209
0.155701 0.303131 0.456451
0.267883 0.284790 0.441223
0.382660 0.281342 0.441162
0.456360 0.268707 0.436920
0.529907 0.293152 0.451294
0.587494 0.302185 0.453888
0.628937 0.281860 0.438202
0.033234 0.301666 0.459259
0.070282 0.345642 0.477051
0.186584 0.395996 0.498962
0.334717 0.424530 0.511078
0.441864 0.414764 0.501526
0.532501 0.417725 0.500000
0.600586 0.436310 0.508972
0.653778 0.437225 0.506989
0.692963 0.406921 0.486603
0.041931 0.378448 0.493103
0.098755 0.423920 0.507202
0.227570 0.471283 0.524902
0.381653 0.503296 0.537354
0.500458 0.523621 0.552185
0.582428 0.523987 0.550537
0.657349 0.538666 0.556305
0.715546 0.540375 0.555542
0.754242 0.508667 0.531281
0.058105 0.454865 0.521149
0.142609 0.503845 0.535461
0.277527 0.542419 0.547150
0.428772 0.568298 0.558594
0.541718 0.588074 0.575592
0.634766 0.607819 0.593292
0.706940 0.622925 0.603760
0.773926 0.631042 0.608002
0.817749 0.608734 0.585022
0.092041 0.516846 0.532867
0.187378 0.559509 0.543854
0.319946 0.590149 0.551208
0.456238 0.615173 0.565918
0.574799 0.641937 0.589325
0.669098 0.667236 0.588440
0.741241 0.680237 0.598480
0.820099 0.694336 0.617310
0.878876 0.696503 0.613586
0.135773 0.569519 0.540100
0.237518 0.601105 0.543640
0.359375 0.629059 0.552521
0.480896 0.656311 0.569855
0.597565 0.689148 0.597382
0.689880 0.725739 0.589844
0.776855 0.737976 0.589752
0.848022 0.749146 0.601471
0.922638 0.756104 0.606506
0.191528 0.608459 0.526917
0.293396 0.637238 0.533813
0.409119 0.666534 0.546600
0.513397 0.694397 0.566681
0.616180 0.729218 0.596069
0.710388 0.778961 0.583282
0.800873 0.791382 0.582977
0.892090 0.806274 0.581512
0.950378 0.804443 0.573730
0.024506 0.064911 0.326141
0.043121 0.046936 0.304413
0.093262 0.045441 0.316437
0.159912 0.043823 0.326691
0.219788 0.041992 0.328735
0.250153 0.040771 0.320404
0.258240 0.040283 0.300842
0.335724 0.041168 0.334961
0.401825 0.043610 0.351990
0.026917 0.160797 0.411072
0.043182 0.193939 0.430908
0.101593 0.166260 0.402222
0.208527 0.164337 0.410065
0.300323 0.153931 0.415527
0.359161 0.128357 0.410370
0.395081 0.098663 0.399384
0.469025 0.125336 0.424927
0.530304 0.122101 0.430084
0.029572 0.246094 0.467407
0.050079 0.285645 0.487549
0.144531 0.327972 0.503510
0.241455 0.302002 0.481659
0.353973 0.300293 0.483002
0.436188 0.294159 0.485077
0.488586 0.273315 0.479004
0.562958 0.292969 0.493958
0.615448 0.282654 0.488251
0.036469 0.324432 0.508514
0.066101 0.367065 0.525513
0.168762 0.413574 0.543243
0.320190 0.444458 0.554596
0.406250 0.425690 0.539124
0.501617 0.427368 0.540405
0.565643 0.420624 0.538605
0.632111 0.433929 0.550140
0.678955 0.412415 0.537811
0.045074 0.395966 0.540497
0.088898 0.438049 0.552643
0.202484 0.485931 0.570709
0.355194 0.520447 0.584900
0.478302 0.539795 0.594940
0.551208 0.530365 0.587585
0.620300 0.531006 0.587250
0.686707 0.543304 0.596985
0.733063 0.523499 0.587036
0.059662 0.462738 0.564117
0.124634 0.506287 0.575836
0.245850 0.546112 0.589600
0.395203 0.577789 0.603210
0.517761 0.599518 0.616455
0.609283 0.619446 0.635162
0.666718 0.616852 0.633331
0.739166 0.628906 0.642822
0.791687 0.613190 0.632141
0.086304 0.525208 0.585693
0.173706 0.569000 0.596344
0.302826 0.605286 0.608063
0.439819 0.629730 0.619537
0.555664 0.654083 0.638062
0.643127 0.674957 0.658325
0.728851 0.696991 0.679443
0.799622 0.710144 0.690948
0.854797 0.705139 0.684265
0.125763 0.577911 0.591705
0.220062 0.613770 0.599487
0.339722 0.643677 0.607178
0.460388 0.669342 0.621368
0.568695 0.697144 0.642792
0.663025 0.723083 0.667267
0.762299 0.752319 0.670868
0.835419 0.764587 0.686310
0.903473 0.771912 0.697479
0.174500 0.621796 0.586456
0.270386 0.650360 0.590942
0.381500 0.679535 0.601257
0.486420 0.707550 0.621033
0.581024 0.735596 0.642395
0.673553 0.765411 0.667969
0.763885 0.804718 0.658325
0.870575 0.818726 0.665375
0.937653 0.822968 0.669373
0.026611 0.081024 0.374603
0.039246 0.053375 0.338959
0.085724 0.051117 0.349335
0.151154 0.049591 0.363342
0.210968 0.046753 0.369507
0.256165 0.044098 0.369171
0.280975 0.042603 0.360901
0.283905 0.041748 0.339142
0.353851 0.042786 0.365387
0.028564 0.178802 0.453735
0.042267 0.216797 0.473999
0.084839 0.184204 0.444214
0.180084 0.181946 0.446289
0.274261 0.178741 0.455933
0.341064 0.161407 0.457428
0.385315 0.135864 0.450165
0.413208 0.100098 0.436401
0.486725 0.104584 0.454559
0.031738 0.268585 0.509247
0.048981 0.308105 0.528168
0.136047 0.350952 0.544739
0.212158 0.322479 0.523712
0.318024 0.316681 0.519226
0.406738 0.314514 0.524261
0.465973 0.298096 0.523621
0.509155 0.271576 0.515564
0.583801 0.276520 0.528564
0.037933 0.346039 0.549683
0.064117 0.386169 0.564606
0.154144 0.429901 0.582153
0.298065 0.462616 0.595612
0.365875 0.437378 0.577545
0.456573 0.433746 0.574402
0.534454 0.430969 0.578003
0.580933 0.411346 0.572388
0.650665 0.411743 0.584839
0.045959 0.413208 0.578033
0.082977 0.454315 0.590912
0.179199 0.495087 0.607300
0.329285 0.533508 0.625580
0.452515 0.554596 0.637939
0.512299 0.538239 0.624634
0.585144 0.533936 0.623657
0.640167 0.524506 0.622040
0.706543 0.527985 0.634827
0.059692 0.473694 0.600586
0.112610 0.511810 0.610657
0.216980 0.553040 0.627380
0.362122 0.587860 0.645660
0.487030 0.611969 0.661438
0.590027 0.632324 0.676666
0.639282 0.622650 0.669922
0.689362 0.617798 0.668060
0.760101 0.625183 0.681885
0.082489 0.528290 0.618683
0.152405 0.568848 0.629852
0.266876 0.604492 0.643921
0.403168 0.634827 0.660461
0.524170 0.662384 0.680878
0.621307 0.684937 0.699890
0.708466 0.707733 0.722748
0.751190 0.703888 0.719696
0.821289 0.709595 0.726776
0.119568 0.584534 0.635803
0.210571 0.622162 0.646210
0.329712 0.656555 0.659943
0.451447 0.683563 0.675964
0.559479 0.710632 0.698181
0.650726 0.734894 0.720886
0.735931 0.759216 0.744385
0.818420 0.779114 0.766357
0.876526 0.787079 0.773193
0.165955 0.629608 0.634521
0.255646 0.660797 0.643372
0.364197 0.692047 0.657043
0.466461 0.720367 0.677490
0.559631 0.747253 0.699860
0.648346 0.774078 0.723480
0.735657 0.799438 0.744446
0.834412 0.829285 0.744965
0.914734 0.841278 0.769501
0.028107 0.098785 0.416656
0.028595 0.067749 0.375977
0.073486 0.063019 0.384064
0.139313 0.059540 0.399841
0.195618 0.053406 0.408020
0.243469 0.049103 0.411163
0.280060 0.045837 0.409760
0.294373 0.044495 0.395233
0.297089 0.043610 0.372284
0.030457 0.200867 0.493134
0.039215 0.235657 0.510284
0.065002 0.199951 0.481842
0.145660 0.195831 0.476044
0.240234 0.196106 0.489532
0.308594 0.181854 0.493927
0.361816 0.162994 0.493805
0.394440 0.126099 0.481812
0.417236 0.084656 0.463562
0.032684 0.285400 0.543396
0.045258 0.322723 0.562073
0.110992 0.364777 0.581390
0.168274 0.337738 0.561829
0.265289 0.327850 0.550751
0.354523 0.325348 0.557800
0.427551 0.317474 0.562256
0.479889 0.295197 0.559326
0.512207 0.254211 0.544769
0.038025 0.359009 0.581848
0.058380 0.399811 0.599060
0.131958 0.441162 0.616577
0.257599 0.477264 0.633545
0.314514 0.449829 0.616394
0.398804 0.439911 0.607147
0.477814 0.436707 0.611755
0.545471 0.425690 0.613586
0.580353 0.391418 0.601959
0.045013 0.425140 0.610291
0.074524 0.462738 0.623993
0.158020 0.503510 0.640869
0.293488 0.541901 0.660858
0.422699 0.567871 0.677460
0.472168 0.547546 0.663025
0.542297 0.539886 0.656769
0.602448 0.533997 0.659546
0.641052 0.511810 0.653015
0.056671 0.478973 0.631348
0.101715 0.518311 0.644409
0.196198 0.558685 0.662445
0.335602 0.595459 0.683533
0.465057 0.627380 0.703979
0.571320 0.646576 0.717743
0.612305 0.631561 0.706665
0.664948 0.627106 0.706116
0.699768 0.612640 0.701080
0.076172 0.529877 0.649200
0.133789 0.568024 0.661407
0.239929 0.606903 0.679413
0.375061 0.643005 0.700287
0.499115 0.672546 0.721375
0.607208 0.698730 0.742371
0.704956 0.721893 0.761993
0.737061 0.713654 0.756256
0.772522 0.707855 0.754089
0.107117 0.581573 0.664825
0.185028 0.620605 0.678436
0.293915 0.655090 0.695709
0.419495 0.688202 0.716187
0.529114 0.716309 0.738220
0.633759 0.743652 0.762604
0.727936 0.768738 0.784973
0.816132 0.793182 0.805603
0.846069 0.793518 0.805389
0.161346 0.636963 0.680756
0.252411 0.670746 0.692993
0.363159 0.704773 0.711060
0.469421 0.734344 0.731812
0.565247 0.761169 0.754913
0.655914 0.787170 0.779846
0.741608 0.811188 0.803802
0.824219 0.834534 0.822174
0.895203 0.855804 0.849792
