滤镜资源/Professional Luts Collection/Lutify.me Professional/Cine Looks/Rhodochrosite.cube
# Created by: Lutify.me
# Copyright: (c) Copyright Lutify.me 2015
# Website: https://lutify.me
#LUT size
LUT_3D_SIZE 33
#LUT data points
0.023010 0.051422 0.071899
0.030365 0.050446 0.071442
0.038910 0.049683 0.070770
0.049500 0.049744 0.070496
0.062195 0.050812 0.071136
0.075470 0.052734 0.072388
0.090576 0.054657 0.073883
0.109894 0.056915 0.075806
0.130585 0.059204 0.077484
0.148224 0.061005 0.077972
0.165955 0.062927 0.078156
0.185638 0.065338 0.078766
0.207031 0.067902 0.079712
0.229401 0.070404 0.080566
0.251251 0.072784 0.081421
0.270599 0.074524 0.082123
0.288696 0.075806 0.082550
0.306671 0.077209 0.083069
0.325989 0.079071 0.083984
0.346222 0.082001 0.085907
0.365662 0.084686 0.088440
0.383423 0.086670 0.090515
0.400146 0.088287 0.092407
0.415863 0.089569 0.093842
0.430206 0.090637 0.094818
0.444061 0.091553 0.095459
0.456940 0.092194 0.095947
0.468018 0.092316 0.096710
0.477844 0.091888 0.097595
0.486176 0.091248 0.097961
0.493866 0.090271 0.097900
0.500244 0.088287 0.096252
0.506409 0.086182 0.094666
0.024384 0.058685 0.072754
0.030060 0.060547 0.071320
0.040863 0.061615 0.068817
0.054108 0.060425 0.069550
0.067383 0.061615 0.071716
0.084473 0.064484 0.073700
0.100861 0.066742 0.074951
0.118652 0.068756 0.076141
0.140045 0.071472 0.077545
0.163055 0.074768 0.078186
0.183502 0.077179 0.078461
0.205322 0.079559 0.079437
0.227570 0.081970 0.080597
0.250092 0.083984 0.081604
0.274231 0.087311 0.083099
0.297302 0.090393 0.084259
0.318298 0.092773 0.085144
0.339050 0.095154 0.086121
0.358459 0.097198 0.087494
0.376770 0.099304 0.089417
0.394867 0.101501 0.091522
0.411987 0.103302 0.093506
0.428192 0.104736 0.095367
0.443024 0.105835 0.096588
0.457245 0.106720 0.097534
0.470428 0.107269 0.098236
0.482666 0.107727 0.098969
0.491974 0.107422 0.100037
0.501434 0.106873 0.100983
0.508911 0.105225 0.101013
0.516571 0.103760 0.100861
0.522552 0.101044 0.099335
0.528595 0.098511 0.097595
0.025238 0.067657 0.073059
0.031738 0.070099 0.071777
0.038483 0.073425 0.069305
0.057159 0.076813 0.062683
0.077515 0.076172 0.063995
0.098755 0.079132 0.068451
0.120575 0.082947 0.072662
0.138489 0.085541 0.075592
0.157990 0.088593 0.077942
0.183105 0.093353 0.078918
0.209778 0.098114 0.079742
0.234741 0.101807 0.081085
0.258820 0.104767 0.082458
0.282135 0.107666 0.084045
0.305267 0.110382 0.085480
0.328796 0.113525 0.086792
0.351685 0.116608 0.088165
0.373566 0.119232 0.089783
0.393585 0.121216 0.091522
0.410828 0.122467 0.093231
0.426758 0.123413 0.095032
0.442230 0.124115 0.096802
0.457184 0.124725 0.098297
0.471466 0.125427 0.099304
0.484955 0.126312 0.100342
0.498077 0.127167 0.101227
0.510010 0.127808 0.101990
0.519104 0.127441 0.103271
0.527069 0.126709 0.104248
0.534332 0.124817 0.104309
0.541199 0.122681 0.104034
0.546997 0.119019 0.102325
0.552521 0.115326 0.100647
0.025787 0.078705 0.073914
0.032532 0.081635 0.073181
0.040131 0.084961 0.072144
0.048492 0.090698 0.066406
0.074890 0.094147 0.056854
0.101501 0.094391 0.057648
0.127991 0.097504 0.063995
0.156403 0.102295 0.069061
0.178284 0.105286 0.072754
0.203278 0.109741 0.075073
0.231628 0.115753 0.076996
0.257904 0.121033 0.080231
0.281921 0.125610 0.083862
0.306305 0.129791 0.086945
0.330719 0.132812 0.088196
0.354126 0.135925 0.089172
0.377045 0.139038 0.090607
0.398529 0.141602 0.092346
0.418610 0.143585 0.094086
0.436737 0.144745 0.095886
0.453217 0.145416 0.097870
0.468903 0.145996 0.099701
0.483551 0.146790 0.101166
0.497192 0.147705 0.102356
0.510376 0.148560 0.103333
0.523163 0.149323 0.104065
0.534851 0.149963 0.104828
0.543396 0.149353 0.105865
0.551331 0.148560 0.107025
0.558533 0.146484 0.107361
0.565582 0.144043 0.107239
0.571014 0.140350 0.105621
0.576202 0.136017 0.103760
0.027649 0.091949 0.075775
0.033813 0.095520 0.074921
0.041351 0.098999 0.074036
0.050995 0.104645 0.069702
0.061890 0.110687 0.060913
0.095001 0.114777 0.051056
0.129578 0.115997 0.049438
0.162476 0.120239 0.056671
0.197205 0.125977 0.062927
0.225616 0.130554 0.065979
0.254852 0.135742 0.069366
0.283356 0.141205 0.072998
0.310638 0.146088 0.076874
0.337158 0.150665 0.080566
0.361755 0.155182 0.084442
0.384583 0.158997 0.086975
0.404755 0.162506 0.090179
0.423553 0.165863 0.093872
0.442810 0.168213 0.096191
0.461365 0.169647 0.098297
0.478485 0.170593 0.100555
0.494812 0.171600 0.102509
0.510010 0.172668 0.104431
0.523560 0.173706 0.105865
0.536133 0.174622 0.106720
0.548431 0.175415 0.107391
0.560059 0.176025 0.108246
0.568695 0.175171 0.109222
0.576538 0.173828 0.110352
0.583496 0.171295 0.110596
0.590363 0.168518 0.110809
0.595490 0.164246 0.109131
0.600708 0.160248 0.107574
0.030304 0.104034 0.078369
0.034454 0.106964 0.078156
0.043091 0.111145 0.077148
0.054504 0.118042 0.074371
0.065247 0.124969 0.065491
0.077057 0.129944 0.057617
0.116058 0.134552 0.047424
0.160217 0.138245 0.042938
0.197754 0.142731 0.051453
0.235229 0.148743 0.058838
0.268066 0.154297 0.062134
0.299896 0.159821 0.066376
0.329346 0.164917 0.069946
0.357941 0.169678 0.073212
0.384674 0.174194 0.077393
0.409058 0.177826 0.080933
0.429871 0.181458 0.085205
0.449615 0.184784 0.089172
0.468384 0.187866 0.092682
0.484222 0.191193 0.097504
0.500641 0.193634 0.101105
0.514862 0.195923 0.105225
0.529755 0.197388 0.107666
0.543579 0.198700 0.109406
0.556488 0.199921 0.110596
0.569000 0.200714 0.111725
0.580383 0.201202 0.112549
0.588898 0.200287 0.113434
0.596649 0.198730 0.114349
0.603943 0.196228 0.114563
0.610901 0.193176 0.114777
0.615601 0.188080 0.113403
0.620697 0.183685 0.111816
0.032806 0.116882 0.081085
0.038727 0.120087 0.080750
0.045258 0.123596 0.080292
0.057526 0.130493 0.079010
0.069672 0.140625 0.069214
0.081360 0.146332 0.061157
0.094971 0.151215 0.052277
0.143188 0.158142 0.041748
0.195038 0.163055 0.036224
0.235779 0.168213 0.044952
0.276520 0.174438 0.052551
0.312408 0.180145 0.057343
0.345795 0.185699 0.062073
0.376556 0.190704 0.065643
0.405121 0.194885 0.069183
0.431061 0.198669 0.073090
0.453979 0.202271 0.077728
0.475220 0.205963 0.082336
0.495819 0.209381 0.086273
0.512878 0.212952 0.091248
0.529724 0.215393 0.094849
0.543488 0.218323 0.100342
0.558472 0.220123 0.102997
0.569824 0.222656 0.107391
0.580688 0.224731 0.110840
0.592316 0.225769 0.112915
0.601898 0.226685 0.115479
0.608948 0.226288 0.117859
0.616577 0.224792 0.118744
0.623932 0.222046 0.119171
0.630768 0.218903 0.119507
0.635651 0.213348 0.118164
0.640228 0.207886 0.116547
0.038422 0.132233 0.084167
0.045349 0.136139 0.083282
0.051971 0.139771 0.082703
0.062378 0.145996 0.081726
0.074951 0.156891 0.072174
0.089020 0.165863 0.062164
0.103973 0.171722 0.052338
0.121979 0.176788 0.042023
0.178040 0.184326 0.033966
0.234253 0.190704 0.027710
0.278198 0.195923 0.036469
0.321228 0.201904 0.043915
0.359131 0.208191 0.050354
0.393555 0.213348 0.055511
0.424286 0.217499 0.059143
0.450867 0.220825 0.063629
0.475983 0.224213 0.068085
0.499512 0.227753 0.072937
0.520874 0.231232 0.077515
0.539612 0.235291 0.083496
0.557892 0.238342 0.087280
0.573273 0.241211 0.092010
0.587524 0.243561 0.096069
0.599365 0.245911 0.100311
0.611572 0.247589 0.103241
0.622009 0.248810 0.106567
0.630676 0.249908 0.110443
0.638641 0.249298 0.112976
0.643555 0.248932 0.117310
0.648132 0.247528 0.120850
0.652954 0.245117 0.122955
0.655701 0.239807 0.123108
0.660095 0.233795 0.121613
0.044922 0.148804 0.087341
0.052277 0.153107 0.086334
0.061005 0.157501 0.085236
0.071442 0.164551 0.083130
0.080658 0.174103 0.075439
0.095642 0.184784 0.064636
0.113800 0.194366 0.052368
0.132416 0.200470 0.039917
0.154449 0.204437 0.033295
0.214508 0.213196 0.025635
0.275208 0.220276 0.018829
0.321655 0.225311 0.026672
0.366150 0.231140 0.035614
0.406372 0.237427 0.041382
0.441650 0.242249 0.047089
0.470398 0.245819 0.052216
0.496002 0.248749 0.057159
0.520752 0.251831 0.062378
0.543732 0.255341 0.068176
0.565216 0.259125 0.073883
0.583801 0.262451 0.079254
0.600861 0.265076 0.083771
0.615784 0.267761 0.088409
0.629211 0.269806 0.091888
0.640900 0.271515 0.095459
0.650055 0.272949 0.100128
0.660461 0.273254 0.103149
0.667542 0.273285 0.107544
0.674072 0.272614 0.111450
0.678772 0.271088 0.115601
0.682617 0.269012 0.119385
0.684052 0.264130 0.121246
0.684021 0.259216 0.123230
0.053528 0.166931 0.091187
0.061890 0.171448 0.090179
0.071198 0.176300 0.088989
0.081146 0.184265 0.084808
0.091309 0.194366 0.076019
0.102051 0.203339 0.068237
0.119995 0.214081 0.056183
0.142090 0.223724 0.040619
0.164581 0.229187 0.029938
0.189117 0.232971 0.025879
0.252228 0.242401 0.018555
0.313385 0.250275 0.017151
0.363953 0.255127 0.018402
0.409698 0.260223 0.026917
0.450684 0.266113 0.033569
0.486084 0.270844 0.040192
0.513580 0.273895 0.046082
0.538879 0.276550 0.051880
0.562866 0.279510 0.057861
0.585297 0.282990 0.064362
0.606201 0.286591 0.070465
0.624634 0.289093 0.075531
0.640594 0.291443 0.080627
0.654144 0.293854 0.085236
0.666901 0.295746 0.089020
0.677460 0.296722 0.093567
0.686218 0.297455 0.098602
0.694702 0.296936 0.102081
0.700836 0.296692 0.107300
0.707672 0.294647 0.110199
0.711273 0.292816 0.114929
0.713562 0.287598 0.116669
0.713745 0.282440 0.119232
0.064026 0.186127 0.095642
0.072662 0.190826 0.094482
0.083008 0.196075 0.093048
0.092682 0.205811 0.085449
0.103333 0.216187 0.076080
0.113586 0.225159 0.068481
0.127167 0.234589 0.059021
0.149353 0.245453 0.043182
0.174133 0.254578 0.026978
0.199768 0.258850 0.022308
0.226624 0.262665 0.018707
0.289856 0.271912 0.017212
0.352417 0.280701 0.016327
0.404755 0.285187 0.015656
0.452515 0.289368 0.019348
0.492279 0.294800 0.027466
0.527832 0.299286 0.034821
0.554688 0.302002 0.041687
0.579071 0.304352 0.048523
0.602600 0.307190 0.054871
0.624115 0.310150 0.061249
0.644226 0.312805 0.067169
0.662506 0.315125 0.072449
0.677063 0.317566 0.077606
0.690002 0.319916 0.083191
0.701630 0.321075 0.088135
0.711853 0.321564 0.093018
0.719696 0.321014 0.097656
0.727600 0.319977 0.101440
0.732330 0.318390 0.106934
0.738129 0.316193 0.110901
0.739685 0.311523 0.114197
0.741669 0.305786 0.115692
0.075653 0.206757 0.101013
0.085876 0.212067 0.100037
0.096344 0.217957 0.097321
0.105499 0.228424 0.087524
0.116882 0.238953 0.076996
0.126984 0.247742 0.069427
0.139893 0.257202 0.060028
0.157440 0.267487 0.046692
0.183411 0.278229 0.028809
0.211121 0.285217 0.019073
0.238739 0.288910 0.017609
0.267609 0.292267 0.017212
0.332275 0.302032 0.016327
0.395325 0.310608 0.015472
0.446350 0.314606 0.014801
0.492859 0.317932 0.014282
0.532257 0.322479 0.021759
0.566681 0.326874 0.031769
0.593689 0.328888 0.038025
0.617340 0.330719 0.045410
0.639191 0.333160 0.052704
0.659729 0.335205 0.058685
0.678833 0.337524 0.064575
0.695404 0.340546 0.071533
0.710388 0.343201 0.077667
0.723602 0.344879 0.082672
0.734161 0.345703 0.088623
0.742554 0.344574 0.093323
0.750031 0.343506 0.098389
0.755707 0.340942 0.102905
0.761017 0.338684 0.107788
0.764343 0.333649 0.110596
0.766052 0.328674 0.113739
0.090179 0.228882 0.106720
0.100830 0.234344 0.105347
0.109833 0.241638 0.099518
0.119934 0.252228 0.088470
0.132202 0.262909 0.076508
0.142395 0.271881 0.068268
0.153595 0.280487 0.059814
0.171356 0.290894 0.045929
0.193726 0.301575 0.029541
0.222626 0.310242 0.017792
0.252655 0.314850 0.017151
0.282623 0.318512 0.016724
0.312683 0.322296 0.016357
0.378143 0.332092 0.015411
0.439575 0.339905 0.014587
0.486786 0.343567 0.013977
0.530823 0.346039 0.013428
0.570953 0.349884 0.018250
0.605042 0.353241 0.027466
0.630585 0.354614 0.035309
0.653442 0.355835 0.042603
0.674408 0.357605 0.049805
0.692993 0.359467 0.057404
0.710297 0.362335 0.064178
0.726776 0.364960 0.070526
0.741547 0.367493 0.077942
0.754608 0.369019 0.084198
0.763519 0.368042 0.089752
0.771088 0.366394 0.094818
0.776978 0.363770 0.099976
0.783539 0.360687 0.103455
0.786163 0.355743 0.107697
0.789368 0.350464 0.110504
0.105743 0.251892 0.112305
0.116425 0.258453 0.108063
0.125336 0.267181 0.098816
0.135864 0.276794 0.087982
0.148132 0.287140 0.075562
0.160156 0.296478 0.065308
0.172241 0.305542 0.055573
0.186615 0.314728 0.043610
0.207947 0.325378 0.027863
0.235504 0.334473 0.017151
0.268066 0.340332 0.016663
0.299042 0.344666 0.016235
0.329773 0.348633 0.015808
0.360107 0.352600 0.015411
0.423676 0.361877 0.014526
0.481873 0.368866 0.013733
0.526459 0.371582 0.013184
0.570129 0.372955 0.012634
0.609406 0.375519 0.015259
0.640747 0.377777 0.024963
0.665588 0.378693 0.032623
0.687195 0.380035 0.041443
0.707062 0.381653 0.049408
0.724243 0.384094 0.057068
0.741028 0.386505 0.063751
0.756592 0.387756 0.070984
0.770874 0.389709 0.078674
0.782318 0.390167 0.084900
0.790710 0.388641 0.090454
0.797699 0.385895 0.095154
0.803467 0.382996 0.100739
0.807159 0.377899 0.104736
0.811005 0.372467 0.107666
0.123169 0.275208 0.118317
0.132172 0.283844 0.109253
0.141663 0.292938 0.098328
0.152863 0.302124 0.086700
0.165924 0.311859 0.073364
0.178894 0.321289 0.061768
0.192261 0.330627 0.050323
0.206085 0.339600 0.038361
0.223480 0.348999 0.024658
0.250671 0.357544 0.016632
0.282593 0.364319 0.016205
0.315399 0.369598 0.015717
0.346619 0.373932 0.015289
0.376862 0.377899 0.014893
0.406952 0.381836 0.014496
0.467590 0.390137 0.013641
0.523041 0.396210 0.012939
0.567169 0.397736 0.012360
0.609009 0.398315 0.011871
0.646179 0.399506 0.012787
0.675385 0.401031 0.023529
0.699158 0.402405 0.033020
0.720245 0.403717 0.041321
0.738190 0.405609 0.049072
0.754913 0.407623 0.056671
0.770691 0.408112 0.064178
0.785065 0.408722 0.071869
0.797607 0.409668 0.078613
0.808197 0.409760 0.085388
0.816498 0.407776 0.091003
0.822540 0.404968 0.097412
0.827454 0.399689 0.100830
0.830566 0.394531 0.105804
0.139130 0.299744 0.121185
0.148315 0.309143 0.109833
0.159485 0.318451 0.097778
0.171631 0.327271 0.085052
0.185272 0.336365 0.071533
0.197754 0.345306 0.059570
0.212067 0.354614 0.047089
0.227386 0.363647 0.034088
0.244354 0.372772 0.020447
0.265717 0.379303 0.016235
0.296173 0.386078 0.015778
0.329956 0.392853 0.015289
0.361572 0.397369 0.014832
0.391632 0.401031 0.014435
0.422180 0.404755 0.014038
0.452118 0.408264 0.013641
0.510803 0.416077 0.012848
0.564697 0.421356 0.012115
0.606781 0.421875 0.011597
0.645630 0.422119 0.011139
0.680878 0.422577 0.012360
0.709137 0.423828 0.023560
0.731873 0.424988 0.033173
0.750854 0.426392 0.042023
0.768005 0.427917 0.049988
0.784180 0.428223 0.057770
0.798828 0.428009 0.065216
0.811096 0.428497 0.072601
0.822357 0.429169 0.080200
0.833221 0.428619 0.086639
0.841125 0.426300 0.092621
0.845032 0.421265 0.098206
0.849487 0.415710 0.102234
0.155273 0.324921 0.121887
0.166046 0.334198 0.109924
0.178345 0.343353 0.097198
0.191284 0.351959 0.083496
0.205658 0.360657 0.069092
0.218872 0.369141 0.056274
0.233826 0.378021 0.043152
0.249969 0.386902 0.029877
0.267456 0.395233 0.017639
0.288025 0.400970 0.015686
0.310516 0.406525 0.015350
0.342499 0.413300 0.014893
0.375641 0.419220 0.014404
0.406219 0.423035 0.014008
0.435974 0.426270 0.013641
0.466492 0.429596 0.013184
0.496246 0.432709 0.012817
0.554840 0.440521 0.012024
0.605255 0.444397 0.011353
0.644196 0.444519 0.010895
0.681183 0.444122 0.010437
0.714386 0.444305 0.014191
0.740417 0.445160 0.025452
0.760956 0.446228 0.035400
0.779541 0.447571 0.043823
0.796265 0.447815 0.052216
0.811981 0.447449 0.059235
0.824280 0.447510 0.067261
0.835846 0.447906 0.074799
0.847076 0.447571 0.081787
0.857208 0.446503 0.088104
0.862457 0.442200 0.094177
0.866272 0.436737 0.099518
0.172028 0.349365 0.123627
0.183929 0.358368 0.111267
0.197601 0.367523 0.097107
0.212860 0.376160 0.081787
0.228546 0.384735 0.065521
0.241669 0.392548 0.052673
0.256805 0.400757 0.039459
0.273621 0.409454 0.025330
0.292267 0.417053 0.015991
0.313263 0.422546 0.015137
0.334106 0.427826 0.014832
0.356049 0.433197 0.014496
0.388580 0.439453 0.014038
0.420471 0.443939 0.013580
0.450684 0.447296 0.013184
0.480225 0.450500 0.012787
0.510651 0.453644 0.012390
0.540497 0.456512 0.011963
0.597626 0.463684 0.011200
0.643860 0.465637 0.010651
0.680908 0.465149 0.010193
0.716675 0.464233 0.009766
0.746063 0.464264 0.017090
0.768555 0.464996 0.027771
0.788025 0.466187 0.038513
0.807220 0.467041 0.046661
0.823730 0.466919 0.054382
0.836395 0.466827 0.062866
0.848419 0.466766 0.070496
0.859528 0.465302 0.077209
0.870605 0.464294 0.083313
0.877502 0.461884 0.089996
0.882843 0.457245 0.095306
0.189301 0.373047 0.125488
0.202942 0.382019 0.112091
0.218445 0.390839 0.097717
0.234680 0.399414 0.081055
0.251953 0.407532 0.064484
0.265259 0.414856 0.051178
0.279724 0.422455 0.037598
0.296906 0.431061 0.021942
0.316528 0.437927 0.014923
0.338104 0.443207 0.014587
0.359619 0.448547 0.014282
0.379456 0.453461 0.013977
0.402466 0.458649 0.013611
0.434601 0.463654 0.013184
0.465912 0.467560 0.012756
0.495972 0.470673 0.012329
0.525208 0.473755 0.011963
0.555359 0.476715 0.011597
0.584229 0.479156 0.011200
0.639343 0.485138 0.010468
0.681183 0.484985 0.009949
0.717194 0.483978 0.009521
0.750977 0.483093 0.009399
0.774261 0.483582 0.020325
0.795532 0.484131 0.030792
0.815552 0.485107 0.041534
0.834808 0.485657 0.049652
0.848389 0.485504 0.058197
0.860474 0.485138 0.066284
0.870972 0.483337 0.074127
0.881866 0.481201 0.079956
0.890503 0.479248 0.086212
0.897400 0.476654 0.092224
0.207458 0.396332 0.126251
0.222412 0.404938 0.112457
0.239227 0.413544 0.097321
0.256683 0.421661 0.080414
0.275085 0.429474 0.063293
0.289062 0.436523 0.049164
0.303406 0.443695 0.035431
0.319855 0.451355 0.020782
0.339172 0.457672 0.014404
0.361115 0.462891 0.014099
0.383270 0.468109 0.013763
0.404266 0.472992 0.013428
0.425720 0.477783 0.013123
0.451385 0.482666 0.012756
0.482178 0.486725 0.012329
0.513245 0.490601 0.011932
0.542847 0.493347 0.011536
0.571442 0.495697 0.011169
0.600433 0.498169 0.010773
0.628143 0.500061 0.010406
0.681213 0.504974 0.009735
0.718445 0.503693 0.009277
0.752289 0.502441 0.008911
0.779877 0.502167 0.011993
0.801392 0.502502 0.023102
0.822632 0.502625 0.034973
0.842010 0.503082 0.046265
0.858124 0.502777 0.054108
0.870270 0.502319 0.063446
0.881500 0.500275 0.070282
0.893219 0.497589 0.075470
0.901947 0.495789 0.082672
0.910065 0.493958 0.088989
0.225983 0.418915 0.127075
0.242188 0.427307 0.112122
0.260101 0.435455 0.096680
0.278931 0.443207 0.079712
0.298218 0.450714 0.062103
0.312836 0.457489 0.047150
0.327393 0.464233 0.033264
0.343597 0.470734 0.021454
0.361908 0.476685 0.014343
0.383514 0.481812 0.013580
0.406128 0.486877 0.013245
0.427948 0.491577 0.012939
0.449677 0.496124 0.012634
0.473969 0.500854 0.012268
0.499847 0.504944 0.011902
0.530182 0.508850 0.011505
0.560272 0.512024 0.011078
0.588989 0.514191 0.010742
0.616852 0.516052 0.010376
0.644714 0.517914 0.010010
0.671600 0.519409 0.009674
0.719391 0.522949 0.009033
0.753479 0.521362 0.008636
0.782898 0.520416 0.008301
0.806458 0.520050 0.015839
0.828522 0.519836 0.027863
0.849060 0.519531 0.039978
0.864716 0.519043 0.049988
0.879425 0.518127 0.058105
0.890259 0.516418 0.066711
0.901825 0.513916 0.072510
0.911530 0.512054 0.079102
0.920868 0.510010 0.084412
0.244568 0.440918 0.128357
0.262238 0.448914 0.113159
0.281036 0.456848 0.097229
0.300568 0.464081 0.080231
0.320679 0.471222 0.062286
0.336792 0.477814 0.045959
0.352386 0.483978 0.032166
0.368805 0.489532 0.023468
0.386353 0.495148 0.015533
0.406250 0.500244 0.013092
0.428497 0.505035 0.012756
0.451294 0.509644 0.012451
0.473511 0.514038 0.012115
0.496399 0.518433 0.011810
0.520660 0.522430 0.011475
0.546143 0.526245 0.011108
0.575409 0.529510 0.010712
0.604340 0.531860 0.010345
0.632385 0.533569 0.009949
0.659851 0.535248 0.009613
0.686890 0.536652 0.009277
0.713135 0.538086 0.008942
0.754608 0.540009 0.008423
0.784241 0.537903 0.008087
0.811432 0.536804 0.009033
0.833801 0.535797 0.021912
0.855347 0.535034 0.033417
0.872223 0.534271 0.043732
0.886566 0.533539 0.053802
0.899017 0.532166 0.061829
0.910278 0.530090 0.069031
0.920898 0.528076 0.074402
0.929565 0.526428 0.081482
0.263031 0.462250 0.129669
0.281494 0.470032 0.113922
0.301178 0.477570 0.097351
0.321350 0.484314 0.080902
0.341980 0.490875 0.063416
0.359497 0.496979 0.047302
0.376770 0.502258 0.035553
0.393158 0.507294 0.027283
0.410553 0.512573 0.019012
0.429626 0.517883 0.012756
0.450439 0.522278 0.012299
0.473083 0.526611 0.011963
0.496155 0.530975 0.011627
0.518677 0.535156 0.011322
0.541168 0.538971 0.011017
0.565308 0.542664 0.010681
0.590729 0.546021 0.010315
0.619202 0.548431 0.009949
0.647034 0.550140 0.009613
0.674805 0.551636 0.009247
0.700806 0.552948 0.008911
0.726929 0.554352 0.008575
0.751526 0.555664 0.008270
0.785309 0.555603 0.007874
0.813751 0.553314 0.007568
0.839050 0.551727 0.015015
0.861084 0.550140 0.027222
0.878632 0.549316 0.037964
0.894501 0.548370 0.047028
0.906006 0.547485 0.055817
0.917847 0.545959 0.063904
0.927826 0.544098 0.071075
0.937897 0.542297 0.076508
0.280487 0.481903 0.131378
0.299347 0.489441 0.115417
0.319550 0.496521 0.099121
0.340454 0.502960 0.082794
0.361877 0.509155 0.065674
0.380066 0.514648 0.049225
0.398132 0.518890 0.040100
0.414490 0.523804 0.031860
0.431366 0.528748 0.023712
0.449860 0.533813 0.016113
0.470184 0.538391 0.011871
0.492554 0.542358 0.011566
0.515442 0.546356 0.011230
0.538239 0.550354 0.010925
0.560120 0.553772 0.010590
0.582947 0.557220 0.010284
0.608154 0.560638 0.009949
0.634644 0.563538 0.009583
0.662781 0.565430 0.009247
0.689941 0.566864 0.008881
0.715546 0.568146 0.008545
0.739594 0.569122 0.008270
0.764160 0.570435 0.007935
0.785706 0.571289 0.007690
0.815399 0.569489 0.007324
0.844513 0.567139 0.007721
0.866577 0.565430 0.021179
0.884644 0.564331 0.031921
0.901215 0.563446 0.041107
0.913147 0.562897 0.050476
0.924866 0.561646 0.058167
0.934265 0.559479 0.067047
0.945190 0.557465 0.071625
0.298035 0.500488 0.132538
0.316895 0.507721 0.116882
0.337738 0.514740 0.100098
0.358826 0.521118 0.083130
0.380493 0.526947 0.066376
0.399536 0.531189 0.053375
0.418243 0.534760 0.045013
0.434509 0.539246 0.036957
0.451355 0.543945 0.028870
0.470062 0.548676 0.021362
0.489502 0.553345 0.014160
0.511200 0.557434 0.011139
0.534088 0.561188 0.010834
0.556366 0.564941 0.010529
0.578430 0.568298 0.010223
0.601318 0.571594 0.009888
0.624603 0.574677 0.009583
0.650970 0.577576 0.009216
0.677673 0.580078 0.008881
0.704742 0.581787 0.008514
0.730042 0.582916 0.008209
0.753540 0.583649 0.007935
0.775543 0.584473 0.007629
0.797455 0.585236 0.007385
0.816803 0.584839 0.007141
0.846344 0.582550 0.006836
0.872650 0.580292 0.011871
0.890900 0.579132 0.024292
0.907135 0.577942 0.034973
0.920013 0.577606 0.044403
0.931641 0.576965 0.052521
0.941315 0.574615 0.059845
0.950470 0.572540 0.068207
0.315552 0.517944 0.134125
0.335083 0.524933 0.118317
0.356079 0.531525 0.102203
0.377441 0.537598 0.085297
0.399719 0.542999 0.068573
0.418488 0.546417 0.057861
0.437134 0.549469 0.050232
0.453949 0.553711 0.042297
0.470917 0.558167 0.034302
0.490234 0.562836 0.026947
0.509735 0.567291 0.019867
0.529938 0.571442 0.013641
0.552277 0.575317 0.010468
0.575287 0.578918 0.010132
0.597870 0.582214 0.009827
0.620911 0.585327 0.009521
0.643707 0.588318 0.009186
0.666626 0.591156 0.008881
0.691864 0.593750 0.008545
0.716705 0.595642 0.008240
0.741486 0.596680 0.007904
0.763916 0.597321 0.007629
0.785828 0.597900 0.007355
0.806763 0.598389 0.007111
0.827881 0.598999 0.006836
0.846436 0.597229 0.006653
0.875092 0.594940 0.007233
0.895599 0.593506 0.018463
0.912842 0.592346 0.027710
0.926086 0.591003 0.038055
0.938660 0.590515 0.046539
0.947571 0.589294 0.053833
0.957275 0.587036 0.061890
0.334717 0.535583 0.134583
0.353851 0.541840 0.120026
0.374512 0.548401 0.104034
0.396606 0.554199 0.087067
0.418884 0.559082 0.071136
0.438019 0.561493 0.063385
0.456543 0.564056 0.056000
0.472931 0.567871 0.047852
0.490143 0.572113 0.039917
0.510193 0.576538 0.032776
0.530548 0.580902 0.026093
0.549957 0.584839 0.019806
0.570831 0.588715 0.014038
0.593994 0.592560 0.009857
0.617218 0.595825 0.009430
0.640717 0.598938 0.009094
0.663696 0.601807 0.008789
0.685364 0.604523 0.008514
0.706604 0.606903 0.008209
0.729950 0.608765 0.007904
0.752655 0.610168 0.007599
0.774536 0.610779 0.007355
0.795227 0.611053 0.007080
0.816101 0.611481 0.006836
0.836700 0.612000 0.006561
