滤镜资源/Professional Luts Collection/Lutify.me Professional/Cine Looks/Sapphirine.cube
# Created by: Lutify.me
# Copyright: (c) Copyright Lutify.me 2015
# Website: https://lutify.me
#LUT size
LUT_3D_SIZE 9
#LUT data points
0.035797 0.040131 0.040741
0.103821 0.042847 0.032104
0.230316 0.043610 0.019836
0.313843 0.038147 0.013275
0.371552 0.037842 0.015015
0.429779 0.037537 0.016998
0.486816 0.039764 0.018860
0.544495 0.039948 0.021515
0.592804 0.036957 0.023621
0.043640 0.064056 0.041687
0.124847 0.086334 0.027252
0.271393 0.098755 0.004639
0.399567 0.117767 0.002716
0.487335 0.136414 0.003876
0.550323 0.150482 0.004578
0.603394 0.161499 0.005432
0.649414 0.162231 0.007477
0.691101 0.152130 0.010406
0.074463 0.136322 0.042023
0.197784 0.178314 0.010132
0.353180 0.212311 0.000031
0.469421 0.234222 0.000031
0.572815 0.266510 0.000031
0.644226 0.288269 0.000031
0.696869 0.299286 0.000031
0.735687 0.295349 0.000031
0.775360 0.282501 0.000031
0.136200 0.244171 0.023743
0.286926 0.290680 0.000031
0.459167 0.339142 0.000031
0.565826 0.360718 0.000031
0.654510 0.381989 0.000031
0.722961 0.401733 0.000031
0.770966 0.411011 0.000031
0.807281 0.405762 0.000031
0.835266 0.382141 0.000031
0.224670 0.354218 0.000031
0.382141 0.393463 0.000031
0.530792 0.432251 0.000031
0.655731 0.464508 0.000031
0.735046 0.474792 0.000031
0.790436 0.484772 0.000031
0.833862 0.490448 0.000031
0.865295 0.483978 0.000031
0.886780 0.462402 0.000031
0.316803 0.431854 0.000031
0.453552 0.465118 0.000031
0.579376 0.494049 0.000031
0.696503 0.521088 0.000031
0.789124 0.539368 0.000031
0.844666 0.544220 0.000031
0.881042 0.545624 0.000031
0.905914 0.539642 0.000031
0.925781 0.520203 0.000031
0.380066 0.485565 0.000031
0.506348 0.514069 0.000031
0.619537 0.538269 0.000031
0.724701 0.560913 0.000031
0.815155 0.580536 0.000031
0.877716 0.590057 0.000031
0.919220 0.590240 0.000031
0.939789 0.583252 0.000031
0.952789 0.568604 0.000031
0.416290 0.521576 0.000031
0.538635 0.547852 0.000031
0.647644 0.571777 0.000031
0.746735 0.593109 0.000031
0.829437 0.610901 0.000031
0.899231 0.625977 0.000031
0.942566 0.628601 0.000031
0.963562 0.626556 0.007111
0.968781 0.617889 0.021820
0.423035 0.549683 0.000031
0.548889 0.575470 0.000031
0.666077 0.600220 0.000031
0.765320 0.622955 0.000031
0.840851 0.638947 0.000031
0.903564 0.653564 0.000031
0.954193 0.666382 0.000977
0.966156 0.670746 0.037506
0.972504 0.669342 0.058807
0.031097 0.039856 0.063660
0.061401 0.045349 0.083069
0.161987 0.045074 0.092438
0.273193 0.035248 0.084930
0.358856 0.027618 0.073303
0.427460 0.022125 0.065765
0.477386 0.022919 0.069641
0.523712 0.023407 0.073090
0.565918 0.022919 0.073547
0.033112 0.073669 0.080200
0.096069 0.098450 0.100830
0.223938 0.109772 0.094025
0.342743 0.112396 0.082245
0.437378 0.116852 0.074829
0.513947 0.121643 0.072754
0.579163 0.129456 0.075256
0.637787 0.125763 0.076569
0.700378 0.109314 0.070557
0.054413 0.153351 0.093842
0.157104 0.198303 0.101501
0.308838 0.237396 0.086334
0.446228 0.254028 0.063995
0.549774 0.268188 0.049072
0.625458 0.283447 0.046143
0.682007 0.288452 0.052246
0.733673 0.286102 0.055878
0.789398 0.256531 0.049164
0.112640 0.254333 0.102875
0.249054 0.315826 0.078766
0.393921 0.354462 0.069519
0.529724 0.383911 0.055481
0.619171 0.391205 0.046204
0.689362 0.402954 0.043243
0.740204 0.408051 0.047913
0.782349 0.399048 0.050568
0.836212 0.377991 0.039246
0.189575 0.357391 0.091736
0.338989 0.412109 0.057526
0.465668 0.442841 0.058289
0.597107 0.477051 0.058929
0.694305 0.490875 0.046600
0.747772 0.491852 0.049194
0.795166 0.494385 0.050629
0.829346 0.483368 0.053009
0.864685 0.454376 0.040283
0.257935 0.434052 0.066864
0.406006 0.477417 0.047028
0.522400 0.504486 0.053864
0.633301 0.531799 0.060242
0.737152 0.555420 0.061768
0.801819 0.557190 0.047119
0.837097 0.553162 0.053864
0.868805 0.543732 0.051086
0.897217 0.520477 0.038666
0.309479 0.487762 0.041748
0.447021 0.520996 0.035950
0.561584 0.547943 0.047852
0.665466 0.572327 0.058807
0.750824 0.594055 0.069550
0.825439 0.606689 0.064514
0.876984 0.603851 0.052521
0.902954 0.595123 0.052460
0.927734 0.576141 0.040710
0.329254 0.519897 0.027710
0.458038 0.552032 0.014984
0.583832 0.580658 0.029663
0.682251 0.604004 0.048553
0.763031 0.624817 0.062103
0.832520 0.643494 0.072205
0.895020 0.653107 0.067871
0.936523 0.647675 0.053162
0.959076 0.634949 0.042847
0.317139 0.538635 0.016846
0.451080 0.575317 0.000031
0.581665 0.605042 0.001343
0.690521 0.628723 0.017395
0.767181 0.650177 0.036835
0.833832 0.669769 0.053436
0.898468 0.689941 0.064056
0.949799 0.703217 0.065918
0.966309 0.701477 0.091217
0.031158 0.041260 0.107513
0.048767 0.042633 0.129425
0.116394 0.048981 0.147430
0.205475 0.052521 0.160950
0.311859 0.037872 0.168304
0.398163 0.025970 0.163177
0.466827 0.019470 0.163208
0.515930 0.020142 0.163544
0.561401 0.020752 0.156738
0.034485 0.078552 0.139832
0.067810 0.095184 0.157288
0.159332 0.108246 0.178864
0.280701 0.111237 0.192413
0.395660 0.104645 0.184753
0.483185 0.100616 0.178802
0.550323 0.103577 0.176697
0.613770 0.098724 0.170624
0.679565 0.081940 0.156311
0.041504 0.162048 0.181488
0.101532 0.199036 0.203796
0.239899 0.239380 0.228180
0.366943 0.248322 0.217133
0.467957 0.261566 0.214417
0.550537 0.269836 0.211731
0.623535 0.278229 0.209625
0.691376 0.271240 0.198761
0.769348 0.249390 0.180756
0.061005 0.261444 0.202972
0.172882 0.306610 0.225708
0.313171 0.351959 0.232666
0.448669 0.387512 0.240936
0.540497 0.396576 0.232819
0.617676 0.407227 0.225311
0.682251 0.408203 0.219849
0.747375 0.400696 0.207428
0.822662 0.379028 0.187653
0.109680 0.350098 0.217926
0.252686 0.396942 0.239471
0.386169 0.441315 0.232849
0.500763 0.470398 0.246582
0.600647 0.490601 0.247742
0.666595 0.493683 0.240631
0.727112 0.498535 0.231873
0.785370 0.488586 0.216888
0.846619 0.465729 0.192810
0.174011 0.420258 0.223145
0.316223 0.463684 0.239258
0.445068 0.504303 0.228119
0.542114 0.527130 0.247131
0.639374 0.550934 0.256470
0.713837 0.559143 0.245972
0.762634 0.556335 0.241364
0.819061 0.553070 0.223816
0.865479 0.527161 0.190918
0.230133 0.469421 0.212616
0.357361 0.512238 0.218842
0.478607 0.548462 0.215790
0.572388 0.570435 0.238770
0.660645 0.593964 0.256989
0.741089 0.610718 0.256378
0.804077 0.612610 0.242218
0.850647 0.608551 0.230347
0.896637 0.588348 0.192017
0.273071 0.506744 0.193085
0.384247 0.550995 0.175873
0.498566 0.584747 0.173065
0.594360 0.608185 0.206543
0.679474 0.630615 0.228149
0.752197 0.652069 0.244385
0.827667 0.667603 0.246002
0.887665 0.668152 0.232269
0.931976 0.655975 0.196869
0.277771 0.537659 0.142334
0.387085 0.580231 0.111145
0.495697 0.614136 0.090363
0.605438 0.640778 0.126221
0.691345 0.665131 0.159943
0.759583 0.686157 0.197083
0.834717 0.708130 0.216614
0.905060 0.727539 0.228729
0.956268 0.731812 0.215454
0.031067 0.041687 0.144135
0.041534 0.040649 0.157990
0.092804 0.046112 0.182495
0.172089 0.050201 0.188721
0.257690 0.053253 0.204376
0.350220 0.040985 0.219604
0.423279 0.033569 0.229767
0.489532 0.027374 0.235596
0.559845 0.019073 0.230103
0.036499 0.086182 0.192963
0.055389 0.095642 0.200378
0.119171 0.100403 0.216461
0.227448 0.115845 0.239319
0.328827 0.124146 0.256866
0.424774 0.115875 0.262726
0.503235 0.112549 0.266571
0.577423 0.104858 0.261627
0.662323 0.086182 0.243683
0.040649 0.161133 0.242371
0.077148 0.195465 0.261475
0.189453 0.227966 0.283203
0.305115 0.247650 0.304291
0.422333 0.252716 0.310272
0.512238 0.251923 0.301941
0.587738 0.251617 0.290588
0.661102 0.245728 0.276855
0.751007 0.226257 0.256927
0.047943 0.260559 0.298309
0.114349 0.304260 0.314972
0.249786 0.344299 0.333221
0.390228 0.382233 0.354370
0.485046 0.391876 0.344849
0.560608 0.396332 0.336456
0.634705 0.398834 0.328888
0.711243 0.386993 0.308929
0.810516 0.363739 0.277863
0.068207 0.347595 0.320160
0.166656 0.391388 0.333252
0.321320 0.428497 0.353821
0.444916 0.464752 0.364105
0.541321 0.488007 0.373627
0.610962 0.491272 0.362701
0.678040 0.492523 0.350128
0.751038 0.483612 0.327087
0.838501 0.461212 0.292694
0.101196 0.412079 0.326569
0.225098 0.455170 0.344818
0.376984 0.490387 0.375275
0.486084 0.525757 0.373932
0.574280 0.546722 0.386597
0.654053 0.561523 0.387360
0.715210 0.562073 0.374542
0.784210 0.555603 0.346222
0.858826 0.532990 0.301300
0.146332 0.465820 0.324585
0.276215 0.502197 0.346283
0.415344 0.534088 0.371429
0.516602 0.571106 0.365204
0.597382 0.591766 0.385651
0.679260 0.611969 0.393707
0.751801 0.619659 0.384247
0.813873 0.615387 0.359467
0.883240 0.598175 0.308685
0.191345 0.506378 0.309509
0.309723 0.538605 0.329712
0.430542 0.574219 0.347717
0.535553 0.614349 0.337311
0.616913 0.634796 0.362366
0.696808 0.657471 0.378113
0.777557 0.676392 0.384125
0.852356 0.683075 0.373016
0.915436 0.671478 0.324860
0.215363 0.535553 0.269257
0.327362 0.567535 0.282928
0.436768 0.614777 0.274628
0.530090 0.649841 0.251099
0.617554 0.674072 0.286621
0.707581 0.699982 0.324768
0.789001 0.722961 0.346497
0.874420 0.745758 0.360260
0.942047 0.755981 0.349640
0.032837 0.043121 0.179352
0.039032 0.040222 0.180786
0.074829 0.045410 0.203003
0.143188 0.049133 0.215118
0.224762 0.051117 0.224792
0.302917 0.053955 0.243805
0.381134 0.047485 0.264587
0.455475 0.040649 0.280640
0.531921 0.030914 0.282501
0.037933 0.091461 0.238220
0.049591 0.098236 0.235992
0.091888 0.097748 0.240601
0.186523 0.113373 0.266052
0.288147 0.124054 0.285614
0.372467 0.133881 0.303436
0.457214 0.128998 0.317749
0.537048 0.118622 0.322968
0.625519 0.097626 0.306732
0.041687 0.168823 0.294830
0.065643 0.195923 0.304016
0.154510 0.226532 0.320953
0.251221 0.234619 0.331543
0.361786 0.257721 0.353058
0.454346 0.263458 0.367676
0.541931 0.257080 0.365875
0.630219 0.242615 0.350739
0.739349 0.223877 0.326202
0.047058 0.253082 0.345398
0.091919 0.294647 0.358826
0.208832 0.336182 0.374817
0.334686 0.369415 0.395294
0.440887 0.384369 0.411713
0.528900 0.385681 0.407013
0.603546 0.383179 0.391632
0.683624 0.367371 0.366180
0.791809 0.343018 0.330780
0.057343 0.341095 0.397034
0.120575 0.387115 0.406525
0.256073 0.424347 0.415314
0.390228 0.455017 0.433228
0.493958 0.484344 0.447998
0.567871 0.485260 0.436127
0.638824 0.482758 0.421692
0.727478 0.474762 0.398529
0.835144 0.452026 0.359711
0.072357 0.405060 0.406219
0.157196 0.448364 0.415009
0.308411 0.486023 0.430573
0.435822 0.512909 0.450714
0.528931 0.540955 0.456848
0.610046 0.558929 0.463745
0.677399 0.556396 0.447723
0.762695 0.549866 0.418579
0.860443 0.534088 0.375092
0.090820 0.453003 0.402924
0.187134 0.492523 0.416656
0.340820 0.530151 0.439636
0.468323 0.560577 0.464081
0.556946 0.590454 0.462128
0.634369 0.608643 0.472565
0.717072 0.623871 0.474670
0.793518 0.621552 0.445221
0.880463 0.609863 0.394073
0.122253 0.494781 0.388000
0.215881 0.530121 0.403809
0.361603 0.566650 0.428131
0.482178 0.599640 0.454224
0.576691 0.641296 0.449127
0.654541 0.661377 0.461975
0.744232 0.684631 0.473877
0.833069 0.697632 0.466522
0.908844 0.690430 0.421478
0.140503 0.528351 0.360657
0.230621 0.560944 0.371490
0.360596 0.597961 0.388062
0.467682 0.632996 0.405487
0.564728 0.680115 0.384857
0.664398 0.713196 0.419647
0.764038 0.740631 0.444366
0.861969 0.768433 0.461639
0.939117 0.780396 0.455048
0.035095 0.046448 0.215637
0.036804 0.041870 0.204590
0.063110 0.047089 0.222321
0.117889 0.049896 0.234314
0.197083 0.051880 0.248749
0.279755 0.051788 0.271057
0.349365 0.055573 0.290680
0.419159 0.052887 0.306824
0.500732 0.041901 0.317444
0.038971 0.097961 0.277985
0.045197 0.101440 0.266998
0.072174 0.097137 0.260040
0.153320 0.111237 0.283539
0.249390 0.123413 0.306946
0.341858 0.132294 0.328979
0.417267 0.146820 0.347290
0.500092 0.133667 0.357971
0.589111 0.106232 0.351257
0.043091 0.176880 0.338867
0.056091 0.196533 0.336487
0.124023 0.220825 0.346313
0.206573 0.223938 0.350586
0.314453 0.246887 0.372742
0.404663 0.263092 0.389740
0.489563 0.270142 0.406128
0.582794 0.254211 0.401215
0.699280 0.220306 0.373901
0.047211 0.256561 0.387695
0.077576 0.290833 0.392792
0.176605 0.336243 0.409454
0.291412 0.360901 0.422974
0.382172 0.370941 0.431549
0.469482 0.391846 0.448486
0.566467 0.389893 0.455719
0.658661 0.364563 0.428497
0.771027 0.332886 0.384583
0.054352 0.332092 0.431824
0.098907 0.370819 0.435730
0.219086 0.413239 0.446503
0.343903 0.443695 0.460541
0.441132 0.467712 0.477997
0.531921 0.478394 0.489380
0.609192 0.476776 0.478149
0.696564 0.460205 0.447876
0.808350 0.427185 0.397522
0.062012 0.396637 0.467010
0.118561 0.440399 0.471100
0.251862 0.483643 0.482208
0.388123 0.510376 0.491852
0.487183 0.534485 0.509827
0.569061 0.557159 0.521851
0.644653 0.554474 0.505707
0.739166 0.543762 0.477081
0.850281 0.523560 0.432434
0.070618 0.443024 0.466919
0.136566 0.484314 0.472443
0.272858 0.527100 0.486938
0.415466 0.557220 0.503418
0.515930 0.581421 0.522308
0.595673 0.607880 0.528259
0.683472 0.625793 0.535553
0.771057 0.622192 0.506897
0.871582 0.613403 0.460571
0.082001 0.478210 0.451599
0.136383 0.513580 0.459015
0.268341 0.560181 0.480927
0.416443 0.598816 0.504791
0.528107 0.631805 0.529083
0.617004 0.665405 0.532471
0.710480 0.688507 0.542084
0.812347 0.707764 0.545074
0.899414 0.707001 0.502686
0.090332 0.510040 0.426727
0.145233 0.545502 0.435181
0.258148 0.591370 0.455597
0.391418 0.632660 0.480011
0.504272 0.668091 0.504059
0.618347 0.720306 0.507385
0.733704 0.756592 0.527161
0.846954 0.788208 0.547485
0.933594 0.805176 0.550537
0.037567 0.050842 0.252106
0.035736 0.043152 0.227722
0.053009 0.046783 0.239136
0.099060 0.051208 0.253510
0.171600 0.053101 0.270111
0.257874 0.054474 0.296875
0.334198 0.054108 0.320526
0.399323 0.057556 0.334778
0.468109 0.053375 0.341705
0.040466 0.104919 0.315460
0.041962 0.106384 0.296722
0.058685 0.098114 0.282318
0.127808 0.113770 0.303528
0.214691 0.123932 0.323975
0.307770 0.134979 0.349487
0.392151 0.141968 0.372528
0.464142 0.148590 0.383850
0.547394 0.116852 0.382721
0.043549 0.183929 0.376892
0.050995 0.197144 0.366608
0.095764 0.218658 0.369110
0.165070 0.216187 0.367767
0.268402 0.237946 0.388702
0.363312 0.256866 0.409607
0.445435 0.269958 0.427338
0.532776 0.268921 0.438354
0.644806 0.224365 0.416077
0.046997 0.259399 0.424713
0.063171 0.286255 0.420532
0.134552 0.322540 0.430237
0.239960 0.348145 0.441895
0.325134 0.352112 0.445404
0.421478 0.374481 0.465179
0.503082 0.392761 0.480804
0.604584 0.376495 0.483826
0.729034 0.322937 0.437103
0.053253 0.330933 0.467133
0.081757 0.362061 0.463745
0.182983 0.407562 0.474976
0.296295 0.437561 0.487823
0.387634 0.453644 0.498779
0.465210 0.461945 0.506683
0.553192 0.479706 0.525055
0.662903 0.461273 0.514587
0.777924 0.419495 0.457092
0.057404 0.384827 0.495361
0.095978 0.421814 0.493469
0.206818 0.465851 0.504517
0.335297 0.499207 0.517059
0.433716 0.519135 0.530121
0.514038 0.539520 0.548096
0.602905 0.548157 0.558960
0.699707 0.535339 0.535095
0.812988 0.503174 0.480743
0.060608 0.429260 0.516296
0.101196 0.468872 0.515015
0.216858 0.520142 0.530762
0.353333 0.551239 0.544495
0.469757 0.577271 0.560455
0.553467 0.601196 0.581543
0.644867 0.628845 0.598541
0.746185 0.620728 0.568542
0.859894 0.605743 0.522797
0.064880 0.461456 0.503448
0.098755 0.496582 0.504944
0.198151 0.550018 0.528168
0.333466 0.591492 0.548798
0.464722 0.627411 0.573120
0.572052 0.659637 0.598419
0.671631 0.694580 0.608032
0.784180 0.715912 0.615448
0.892242 0.714661 0.581268
0.064331 0.484619 0.482697
0.089569 0.517456 0.484833
0.161407 0.572723 0.505432
0.278442 0.622314 0.534058
0.418671 0.671326 0.566254
0.563446 0.720184 0.605591
0.695709 0.771576 0.624451
0.822479 0.806183 0.635468
0.929504 0.830353 0.652710
0.039673 0.055511 0.283661
0.037262 0.045349 0.253845
0.044922 0.047546 0.255493
0.082520 0.053162 0.272766
0.144623 0.055359 0.291443
0.228607 0.057281 0.319122
0.310150 0.057526 0.345276
0.384125 0.056610 0.365051
0.447327 0.058136 0.370392
0.041992 0.114014 0.348022
0.041412 0.109772 0.326080
0.048279 0.095917 0.306671
0.092682 0.110870 0.319763
0.176331 0.124084 0.343658
0.269196 0.134705 0.370850
0.356750 0.142853 0.395111
0.438812 0.145264 0.413300
0.506989 0.131989 0.411316
0.044312 0.189972 0.407990
0.046417 0.194519 0.393433
0.065277 0.206360 0.387421
0.107697 0.201752 0.381805
0.206055 0.225067 0.402008
0.303558 0.243896 0.425201
0.397980 0.259094 0.448425
0.485413 0.268738 0.465698
0.580750 0.238342 0.459015
0.047333 0.261841 0.454742
0.053070 0.275421 0.446014
0.087067 0.301819 0.448517
0.157257 0.324982 0.458099
0.235962 0.325226 0.458679
0.340424 0.344940 0.476257
0.441559 0.365143 0.498260
0.534821 0.378906 0.514343
0.648041 0.336456 0.504150
0.051910 0.325775 0.494019
0.064270 0.347687 0.488464
0.113434 0.376862 0.491608
0.205536 0.409363 0.507141
0.296204 0.427551 0.519440
0.376740 0.431122 0.523804
0.484589 0.450836 0.542786
0.579102 0.468109 0.557526
0.707184 0.427155 0.540741
0.055176 0.375854 0.522064
0.073212 0.401794 0.516510
0.139984 0.439514 0.525177
0.245728 0.478699 0.543915
0.347565 0.502686 0.560883
0.427643 0.515472 0.574097
0.523682 0.525024 0.582092
0.621490 0.541809 0.598816
0.761353 0.506165 0.570892
0.056519 0.412079 0.537567
0.077820 0.446869 0.538116
0.149536 0.487915 0.548981
0.265198 0.530029 0.571075
0.381104 0.562012 0.592865
0.479095 0.585541 0.613251
0.577332 0.606537 0.631927
0.689972 0.618927 0.650208
0.818634 0.597748 0.604950
0.057953 0.440674 0.549438
0.073120 0.474182 0.548340
0.139160 0.527283 0.568176
0.248932 0.574890 0.594910
0.379059 0.613495 0.623016
0.494843 0.649597 0.649872
0.623016 0.686005 0.677917
0.761993 0.724976 0.701569
0.897827 0.718781 0.673676
0.057587 0.460938 0.534241
0.066467 0.490417 0.536407
0.098358 0.538635 0.556152
0.167755 0.596771 0.589600
0.288483 0.655334 0.625732
0.453613 0.715698 0.669556
0.640930 0.772888 0.714050
0.784973 0.821533 0.738556
0.925629 0.853180 0.755737
0.041412 0.058777 0.312653
0.038788 0.046051 0.277527
0.038422 0.046692 0.268829
0.059113 0.050934 0.285706
0.108063 0.055389 0.309509
0.179565 0.057220 0.335480
0.263092 0.059052 0.364258
0.342560 0.057861 0.384491
0.422333 0.056854 0.399658
0.043579 0.116760 0.376862
0.042511 0.107239 0.354340
0.041901 0.087006 0.329926
0.056091 0.098755 0.333893
0.111237 0.114685 0.357788
0.199341 0.127869 0.387177
0.292877 0.136536 0.414429
0.384125 0.136749 0.434143
0.472870 0.130768 0.446167
0.046082 0.192474 0.436737
0.045135 0.183289 0.416168
0.047546 0.183746 0.409637
0.055023 0.172333 0.397858
0.102509 0.190948 0.410492
0.197083 0.214783 0.435791
0.309662 0.237030 0.468292
0.419891 0.247620 0.493683
0.521545 0.248138 0.506042
0.047638 0.255341 0.478821
0.047913 0.254395 0.468018
0.052673 0.261505 0.466003
0.065979 0.269226 0.469391
0.095459 0.273346 0.468079
0.192230 0.300079 0.488037
0.318909 0.321594 0.511902
0.451111 0.341095 0.540619
0.564362 0.347504 0.557465
0.050446 0.312439 0.514709
0.052826 0.320343 0.510773
0.062592 0.333130 0.511230
0.082764 0.348297 0.519531
0.116852 0.358429 0.529419
0.190033 0.373535 0.536804
0.330750 0.394470 0.554993
0.474548 0.417511 0.581757
0.607178 0.436371 0.605469
0.052765 0.353271 0.540497
0.056885 0.371277 0.539948
0.072662 0.395905 0.547180
0.110199 0.420563 0.560486
0.163025 0.442810 0.579468
0.230988 0.456482 0.594330
0.357635 0.468811 0.603577
0.517181 0.496704 0.627777
0.655457 0.518219 0.653992
0.054718 0.388336 0.561371
0.060577 0.415619 0.563812
0.082886 0.446655 0.574188
0.131866 0.480682 0.593597
0.208588 0.515198 0.619019
0.320282 0.549927 0.649506
0.452057 0.575409 0.674164
0.582825 0.589752 0.687408
0.722534 0.611206 0.713867
0.055695 0.414246 0.571869
0.061615 0.446930 0.577484
0.084778 0.488098 0.597290
0.139343 0.532135 0.620880
0.235413 0.579315 0.653442
0.365906 0.625854 0.689545
0.535004 0.673798 0.730011
0.699280 0.718231 0.767609
0.842010 0.731903 0.793518
0.056488 0.434448 0.576874
0.060394 0.464172 0.585571
0.073547 0.507660 0.612000
0.105042 0.558807 0.642426
0.171021 0.617401 0.675842
0.319214 0.687744 0.717407
0.551544 0.763458 0.769745
0.757629 0.824860 0.818176
0.927185 0.876129 0.864746
