滤镜资源/Professional Luts Collection/Lutify.me Professional/Cine Looks/Sapphirine.cube
# Created by: Lutify.me
# Copyright: (c) Copyright Lutify.me 2015
# Website: https://lutify.me
#LUT size
LUT_3D_SIZE 33
#LUT data points
0.035797 0.040131 0.040741
0.042664 0.040894 0.040100
0.056976 0.040466 0.036713
0.076569 0.041412 0.034302
0.103821 0.042847 0.032104
0.133118 0.044281 0.029938
0.165619 0.045563 0.027466
0.198151 0.045197 0.023407
0.230316 0.043610 0.019836
0.255035 0.042358 0.017548
0.276978 0.041260 0.015839
0.296570 0.039581 0.014221
0.313843 0.038147 0.013275
0.328125 0.037476 0.013733
0.342285 0.037140 0.014221
0.356842 0.037323 0.014587
0.371552 0.037842 0.015015
0.386017 0.038177 0.015472
0.400391 0.038208 0.015961
0.415039 0.037903 0.016479
0.429779 0.037537 0.016998
0.444427 0.037506 0.017487
0.458771 0.037689 0.017975
0.472778 0.038635 0.018402
0.486816 0.039764 0.018860
0.501404 0.040771 0.019348
0.516998 0.041351 0.020203
0.531342 0.040771 0.020905
0.544495 0.039948 0.021515
0.556946 0.039246 0.021942
0.568909 0.038177 0.022491
0.581268 0.037659 0.023071
0.592804 0.036957 0.023621
0.036682 0.043457 0.041382
0.043549 0.045441 0.039886
0.057709 0.045746 0.036255
0.079712 0.047974 0.033264
0.108368 0.050171 0.030334
0.137268 0.052032 0.027618
0.171112 0.053314 0.024261
0.206787 0.054352 0.019562
0.241730 0.053589 0.015747
0.270813 0.052979 0.013214
0.296051 0.052338 0.011261
0.317749 0.052277 0.010620
0.336060 0.052399 0.011139
0.353973 0.052582 0.011658
0.370270 0.052368 0.012268
0.385651 0.052948 0.012695
0.401245 0.054108 0.013092
0.416321 0.055267 0.013489
0.431427 0.056122 0.013977
0.446655 0.056671 0.014465
0.461487 0.056885 0.014923
0.475891 0.057465 0.015320
0.490051 0.058380 0.015686
0.503571 0.059631 0.016113
0.516876 0.060913 0.016510
0.530396 0.061737 0.017120
0.544922 0.062561 0.017792
0.557037 0.062042 0.018311
0.569733 0.060944 0.018921
0.581268 0.059113 0.019531
0.592865 0.058044 0.020020
0.604431 0.056732 0.020630
0.616455 0.055908 0.021240
0.037506 0.047729 0.041016
0.047058 0.051971 0.039886
0.058868 0.053375 0.036896
0.082123 0.056580 0.033173
0.112518 0.059845 0.029266
0.142456 0.061981 0.025818
0.175690 0.063385 0.021362
0.213074 0.064484 0.016113
0.251587 0.065582 0.011505
0.283112 0.066193 0.008514
0.310760 0.067230 0.007416
0.334229 0.069244 0.007935
0.356903 0.071075 0.008545
0.378296 0.072937 0.009003
0.398315 0.074829 0.009491
0.415741 0.076508 0.009857
0.431885 0.078064 0.010284
0.447540 0.079681 0.010681
0.462982 0.081299 0.011108
0.478271 0.082733 0.011505
0.493225 0.084015 0.011902
0.507660 0.085144 0.012268
0.521545 0.086731 0.012512
0.534821 0.088257 0.012878
0.547974 0.089447 0.013306
0.560974 0.090240 0.013947
0.573303 0.090729 0.014496
0.584656 0.090118 0.014984
0.595947 0.089020 0.015564
0.606934 0.087006 0.016205
0.617828 0.084961 0.016754
0.629333 0.083496 0.017395
0.640717 0.082184 0.018036
0.040070 0.054321 0.040588
0.051086 0.059937 0.038910
0.065735 0.064117 0.036255
0.085785 0.067230 0.033447
0.118622 0.071594 0.028351
0.150513 0.074951 0.023590
0.184479 0.077423 0.018951
0.220642 0.078918 0.013214
0.261871 0.080780 0.007874
0.298553 0.083344 0.004150
0.326843 0.086548 0.004456
0.353729 0.089844 0.005127
0.378540 0.092651 0.005798
0.402283 0.095703 0.006287
0.424042 0.098969 0.006653
0.443176 0.102478 0.006897
0.460205 0.105438 0.007141
0.476379 0.108063 0.007446
0.491760 0.110596 0.007751
0.506744 0.112793 0.008057
0.521423 0.114777 0.008362
0.535706 0.116821 0.008636
0.549500 0.119141 0.008850
0.562408 0.121368 0.009125
0.575531 0.123016 0.009552
0.587952 0.124207 0.010071
0.600189 0.125275 0.010498
0.611389 0.124481 0.011078
0.622192 0.123352 0.011627
0.632477 0.120575 0.012390
0.643311 0.118164 0.013031
0.654297 0.116089 0.013794
0.665802 0.114624 0.014465
0.043640 0.064056 0.041687
0.055481 0.070831 0.039673
0.074982 0.077393 0.034729
0.098083 0.082153 0.032166
0.124847 0.086334 0.027252
0.159058 0.090942 0.021423
0.195740 0.094696 0.015686
0.232880 0.096832 0.009735
0.271393 0.098755 0.004639
0.309753 0.102722 0.001068
0.342407 0.108154 0.001373
0.371674 0.113068 0.002136
0.399567 0.117767 0.002716
0.425140 0.122284 0.003204
0.448517 0.126709 0.003540
0.468994 0.131531 0.003693
0.487335 0.136414 0.003876
0.504456 0.140625 0.003967
0.520447 0.144440 0.004150
0.535614 0.147644 0.004364
0.550323 0.150482 0.004578
0.564728 0.153351 0.004822
0.578430 0.156281 0.005005
0.590912 0.159210 0.005157
0.603394 0.161499 0.005432
0.615448 0.163330 0.005798
0.627350 0.164642 0.006195
0.638306 0.163635 0.006805
0.649414 0.162231 0.007477
0.659180 0.159302 0.008148
0.669434 0.156219 0.008972
0.680115 0.154053 0.009705
0.691101 0.152130 0.010406
0.049133 0.076996 0.043640
0.059753 0.083649 0.041260
0.081421 0.091675 0.033691
0.111176 0.099304 0.029724
0.140198 0.104401 0.025146
0.168762 0.108887 0.019592
0.208527 0.113770 0.012604
0.251770 0.118408 0.005371
0.291138 0.121307 0.000885
0.321960 0.125061 0.000031
0.354736 0.131317 0.000031
0.386322 0.137054 0.000061
0.416870 0.143188 0.000153
0.445770 0.149445 0.000275
0.470581 0.155273 0.000580
0.491516 0.160706 0.000763
0.510437 0.166229 0.000885
0.528168 0.171753 0.000946
0.544891 0.176239 0.001068
0.560547 0.179871 0.001282
0.575500 0.183105 0.001465
0.590302 0.186218 0.001709
0.603973 0.189545 0.001862
0.616089 0.192596 0.001984
0.628113 0.195251 0.002197
0.639587 0.197601 0.002411
0.650970 0.199280 0.002686
0.661224 0.197754 0.003296
0.671783 0.196136 0.003906
0.680725 0.191925 0.004822
0.690399 0.188477 0.005585
0.700439 0.186554 0.006226
0.711395 0.184418 0.007019
0.055450 0.092743 0.045532
0.069122 0.100433 0.040649
0.089050 0.108551 0.031891
0.121246 0.117432 0.027039
0.157593 0.125854 0.022369
0.188599 0.131683 0.016266
0.221771 0.136810 0.009979
0.268250 0.142853 0.001709
0.310486 0.148529 0.000031
0.340912 0.153168 0.000031
0.368958 0.158020 0.000031
0.399780 0.164459 0.000031
0.430206 0.170837 0.000031
0.461395 0.178772 0.000031
0.489990 0.186371 0.000031
0.512970 0.193237 0.000031
0.532562 0.199341 0.000031
0.550903 0.204987 0.000031
0.567871 0.210236 0.000031
0.584045 0.214539 0.000031
0.599640 0.217987 0.000031
0.614777 0.221191 0.000031
0.628815 0.224457 0.000031
0.641174 0.227814 0.000061
0.653046 0.231018 0.000092
0.664154 0.233459 0.000092
0.675201 0.235168 0.000153
0.685242 0.233063 0.000275
0.694977 0.230194 0.000702
0.703796 0.225922 0.001587
0.712708 0.221619 0.002411
0.722656 0.219543 0.003113
0.732819 0.217590 0.003754
0.064331 0.112915 0.044739
0.080963 0.122467 0.037445
0.103851 0.131287 0.027100
0.136292 0.140564 0.022034
0.178833 0.151520 0.016602
0.215088 0.160706 0.011078
0.251404 0.166901 0.003967
0.286285 0.172089 0.000580
0.330414 0.178955 0.000031
0.361755 0.183014 0.000031
0.389832 0.188416 0.000031
0.417969 0.194366 0.000031
0.448456 0.201965 0.000031
0.478912 0.210083 0.000031
0.507996 0.218506 0.000031
0.531921 0.225830 0.000031
0.552460 0.232544 0.000031
0.572205 0.238647 0.000031
0.590027 0.244415 0.000031
0.606567 0.249298 0.000031
0.622284 0.253143 0.000031
0.637390 0.256622 0.000031
0.651337 0.259796 0.000031
0.663269 0.262573 0.000031
0.674408 0.265015 0.000031
0.685028 0.266296 0.000031
0.695526 0.267609 0.000031
0.705658 0.266022 0.000031
0.715668 0.263031 0.000031
0.724792 0.258606 0.000031
0.734039 0.253967 0.000153
0.744904 0.251953 0.000305
0.755432 0.250336 0.000702
0.074463 0.136322 0.042023
0.094910 0.147736 0.032654
0.120880 0.157379 0.020874
0.155823 0.167358 0.015411
0.197784 0.178314 0.010132
0.242767 0.190887 0.004944
0.282257 0.200500 0.000641
0.318390 0.206726 0.000031
0.353180 0.212311 0.000031
0.385406 0.216736 0.000031
0.413025 0.220734 0.000031
0.441376 0.227386 0.000031
0.469421 0.234222 0.000031
0.499786 0.243225 0.000031
0.528015 0.252197 0.000031
0.551941 0.259857 0.000031
0.572815 0.266510 0.000031
0.592804 0.272858 0.000031
0.611450 0.278442 0.000031
0.628540 0.283691 0.000031
0.644226 0.288269 0.000031
0.659576 0.291992 0.000031
0.674011 0.295258 0.000031
0.685913 0.297485 0.000031
0.696869 0.299286 0.000031
0.706665 0.299530 0.000031
0.716370 0.299316 0.000031
0.725983 0.297791 0.000031
0.735687 0.295349 0.000031
0.745087 0.291199 0.000031
0.754456 0.286865 0.000031
0.764648 0.284271 0.000031
0.775360 0.282501 0.000031
0.086975 0.161255 0.038116
0.109406 0.172974 0.027771
0.140045 0.184357 0.014404
0.175568 0.194183 0.009705
0.218750 0.205505 0.004578
0.262024 0.216888 0.000793
0.307800 0.229706 0.000031
0.345490 0.238586 0.000031
0.381195 0.244934 0.000031
0.409576 0.250153 0.000031
0.437622 0.254486 0.000031
0.465424 0.259888 0.000031
0.493744 0.266785 0.000031
0.520599 0.273590 0.000031
0.548462 0.282532 0.000031
0.571777 0.290649 0.000031
0.592743 0.297791 0.000031
0.612823 0.304138 0.000031
0.632050 0.309998 0.000031
0.649567 0.315430 0.000031
0.665283 0.320160 0.000031
0.680115 0.323730 0.000031
0.694000 0.326843 0.000031
0.705719 0.329254 0.000031
0.716248 0.330902 0.000031
0.726074 0.331024 0.000031
0.736237 0.330383 0.000031
0.746490 0.328552 0.000031
0.756134 0.326202 0.000031
0.764526 0.321960 0.000031
0.773376 0.317535 0.000031
0.781525 0.312988 0.000031
0.791626 0.310547 0.000031
0.101044 0.187286 0.033997
0.127686 0.200317 0.022217
0.160797 0.212677 0.008362
0.197937 0.222626 0.004089
0.240112 0.233368 0.000671
0.283539 0.245056 0.000031
0.329834 0.257965 0.000031
0.371490 0.268738 0.000031
0.408203 0.277527 0.000031
0.437225 0.283081 0.000031
0.462738 0.287689 0.000031
0.490723 0.293274 0.000031
0.518372 0.299103 0.000031
0.545624 0.305634 0.000031
0.569885 0.311768 0.000031
0.592804 0.319885 0.000031
0.612946 0.327423 0.000031
0.633057 0.334229 0.000031
0.652008 0.339996 0.000031
0.669739 0.345490 0.000031
0.685822 0.350464 0.000031
0.700531 0.353882 0.000031
0.714081 0.356720 0.000031
0.725433 0.359039 0.000031
0.735687 0.360870 0.000031
0.745209 0.361298 0.000031
0.754608 0.360413 0.000031
0.764771 0.358215 0.000031
0.775024 0.355743 0.000031
0.783691 0.350983 0.000031
0.791779 0.346405 0.000031
0.798645 0.341125 0.000031
0.806641 0.336639 0.000031
0.117981 0.215393 0.029297
0.146606 0.228577 0.016907
0.183350 0.241760 0.002686
0.220398 0.251221 0.000244
0.263062 0.262024 0.000031
0.305664 0.273193 0.000031
0.352509 0.286285 0.000031
0.396057 0.298950 0.000031
0.433472 0.308228 0.000031
0.464691 0.315460 0.000031
0.490967 0.320282 0.000031
0.514252 0.324066 0.000031
0.542267 0.330261 0.000031
0.568878 0.335663 0.000031
0.593567 0.341888 0.000031
0.614227 0.348083 0.000031
0.634216 0.355682 0.000031
0.653351 0.362549 0.000031
0.671692 0.368408 0.000031
0.688507 0.372681 0.000031
0.704315 0.376923 0.000031
0.718506 0.380035 0.000031
0.731842 0.382690 0.000031
0.743378 0.385193 0.000031
0.753723 0.387360 0.000031
0.763641 0.388733 0.000031
0.772888 0.388275 0.000031
0.781982 0.385040 0.000031
0.791412 0.381714 0.000031
0.799408 0.376129 0.000031
0.807465 0.370880 0.000031
0.814148 0.365509 0.000031
0.820892 0.360199 0.000031
0.136200 0.244171 0.023743
0.167969 0.257812 0.010223
0.206329 0.270050 0.000336
0.245575 0.280182 0.000031
0.286926 0.290680 0.000031
0.330139 0.302246 0.000031
0.374908 0.314331 0.000031
0.418060 0.327026 0.000031
0.459167 0.339142 0.000031
0.490784 0.346619 0.000031
0.519226 0.352997 0.000031
0.543152 0.357086 0.000031
0.565826 0.360718 0.000031
0.592773 0.366333 0.000031
0.616302 0.370758 0.000031
0.636749 0.376709 0.000031
0.654510 0.381989 0.000031
0.673462 0.388733 0.000031
0.691284 0.394745 0.000031
0.707916 0.398895 0.000031
0.722961 0.401733 0.000031
0.736542 0.404449 0.000031
0.749207 0.406586 0.000031
0.760590 0.408966 0.000031
0.770966 0.411011 0.000031
0.780762 0.412628 0.000031
0.790283 0.413391 0.000031
0.798798 0.410126 0.000031
0.807281 0.405762 0.000031
0.814392 0.399536 0.000031
0.821167 0.393311 0.000031
0.828400 0.387665 0.000031
0.835266 0.382141 0.000031
0.156830 0.273315 0.017303
0.189697 0.287201 0.003815
0.230743 0.298035 0.000031
0.270264 0.308472 0.000031
0.312225 0.319244 0.000031
0.354034 0.330750 0.000031
0.397980 0.342743 0.000031
0.438660 0.354462 0.000031
0.480835 0.367126 0.000031
0.516693 0.377533 0.000031
0.545807 0.384186 0.000031
0.571045 0.389099 0.000031
0.594208 0.393127 0.000031
0.617004 0.396729 0.000031
0.640930 0.400909 0.000031
0.659302 0.403687 0.000031
0.676514 0.408264 0.000031
0.691956 0.411682 0.000031
0.709229 0.417236 0.000031
0.725861 0.422302 0.000031
0.741241 0.425629 0.000031
0.754944 0.428192 0.000031
0.767120 0.430176 0.000031
0.777863 0.431885 0.000031
0.788055 0.433258 0.000031
0.797333 0.433655 0.000031
0.806458 0.434357 0.000031
0.814636 0.432220 0.000031
0.822418 0.428070 0.000031
0.829010 0.421997 0.000031
0.835175 0.415497 0.000031
0.842133 0.409576 0.000031
0.849121 0.403900 0.000031
0.178162 0.302032 0.010742
0.213562 0.315063 0.000214
0.254333 0.325226 0.000031
0.294800 0.335602 0.000031
0.336823 0.346466 0.000031
0.377136 0.357513 0.000031
0.418823 0.369171 0.000031
0.459229 0.380493 0.000031
0.498657 0.391632 0.000031
0.536682 0.402985 0.000031
0.570312 0.412415 0.000031
0.595917 0.417572 0.000031
0.619507 0.421570 0.000031
0.642639 0.425323 0.000031
0.664551 0.428619 0.000031
0.683014 0.431030 0.000031
0.697845 0.432678 0.000031
0.712402 0.435242 0.000031
0.726532 0.437836 0.000031
0.742798 0.442810 0.000031
0.757904 0.446960 0.000031
0.771790 0.450104 0.000031
0.784332 0.452423 0.000031
0.795044 0.453766 0.000031
0.804779 0.454529 0.000031
0.813660 0.453796 0.000031
0.822052 0.452972 0.000031
0.829865 0.451355 0.000031
0.837280 0.448395 0.000031
0.843719 0.443329 0.000031
0.849701 0.437073 0.000031
0.855713 0.430695 0.000031
0.862244 0.424652 0.000031
0.200928 0.329315 0.004395
0.237488 0.340363 0.000031
0.278412 0.350616 0.000031
0.318604 0.360596 0.000031
0.360321 0.371185 0.000031
0.397766 0.381012 0.000031
0.437866 0.392059 0.000031
0.477142 0.402679 0.000031
0.515991 0.413300 0.000031
0.549896 0.422577 0.000031
0.585907 0.433044 0.000031
0.615479 0.440643 0.000031
0.639618 0.444855 0.000031
0.661774 0.448059 0.000031
0.683929 0.451263 0.000031
0.703033 0.453766 0.000031
0.717499 0.455353 0.000031
0.731415 0.456909 0.000031
0.745148 0.458984 0.000031
0.759644 0.462433 0.000031
0.774567 0.466644 0.000031
0.787628 0.469604 0.000031
0.799744 0.471924 0.000031
0.810303 0.472961 0.000031
0.820251 0.473602 0.000031
0.828857 0.472809 0.000031
0.837067 0.471252 0.000031
0.844482 0.469147 0.000031
0.851746 0.466827 0.000031
0.858582 0.463226 0.000031
0.864716 0.457825 0.000031
0.869568 0.450806 0.000031
0.874969 0.444244 0.000031
0.224670 0.354218 0.000031
0.261047 0.363617 0.000031
0.301941 0.373749 0.000031
0.341003 0.383270 0.000031
0.382141 0.393463 0.000031
0.417664 0.402557 0.000031
0.454956 0.412384 0.000031
0.493011 0.422424 0.000031
0.530792 0.432251 0.000031
0.563690 0.440826 0.000031
0.595795 0.449310 0.000031
0.628754 0.458374 0.000031
0.655731 0.464508 0.000031
0.678406 0.467743 0.000031
0.699249 0.470428 0.000031
0.718170 0.472870 0.000031
0.735046 0.474792 0.000031
0.748932 0.476562 0.000031
0.762177 0.478088 0.000031
0.776550 0.481293 0.000031
0.790436 0.484772 0.000031
0.803162 0.487518 0.000031
0.814362 0.489319 0.000031
0.824493 0.490173 0.000031
0.833862 0.490448 0.000031
0.843201 0.490112 0.000031
0.851318 0.488678 0.000031
0.858643 0.486420 0.000031
0.865295 0.483978 0.000031
0.872375 0.480743 0.000031
0.878967 0.476776 0.000031
0.882874 0.469696 0.000031
0.886780 0.462402 0.000031
0.248810 0.375977 0.000031
0.285095 0.385193 0.000031
0.324615 0.395050 0.000031
0.362244 0.404205 0.000031
0.401672 0.413849 0.000031
0.436523 0.422455 0.000031
0.472046 0.431335 0.000031
0.507172 0.440521 0.000031
0.543945 0.449951 0.000031
0.576630 0.458191 0.000031
0.607849 0.466217 0.000031
0.638611 0.473846 0.000031
0.669312 0.481750 0.000031
0.693481 0.486145 0.000031
0.714325 0.488800 0.000031
0.733063 0.491028 0.000031
0.749786 0.493042 0.000031
0.765320 0.494781 0.000031
0.778900 0.496643 0.000031
0.792084 0.498291 0.000031
0.805725 0.501404 0.000031
0.817566 0.503204 0.000031
0.828339 0.504761 0.000031
0.837250 0.505432 0.000031
0.846222 0.505707 0.000031
0.855560 0.505737 0.000031
0.864258 0.504852 0.000031
0.871490 0.502808 0.000031
0.878113 0.500183 0.000031
0.884705 0.496277 0.000031
0.891510 0.492676 0.000031
0.894897 0.486420 0.000031
0.898010 0.479126 0.000031
0.272797 0.396088 0.000031
0.308014 0.405029 0.000031
0.346436 0.414459 0.000031
0.382080 0.423218 0.000031
0.419708 0.432404 0.000031
0.454437 0.440582 0.000031
0.488373 0.448883 0.000031
0.521484 0.457245 0.000031
0.555817 0.465942 0.000031
0.588196 0.473938 0.000031
0.619110 0.481781 0.000031
0.649414 0.489075 0.000031
0.678925 0.496246 0.000031
0.707123 0.502625 0.000031
0.728241 0.505798 0.000031
0.746918 0.507965 0.000031
0.763641 0.509705 0.000031
0.779114 0.511536 0.000031
0.793579 0.513092 0.000031
0.807007 0.514862 0.000031
0.819244 0.516327 0.000031
0.830994 0.518127 0.000031
0.841248 0.518860 0.000031
0.849487 0.519257 0.000031
0.857483 0.519440 0.000031
0.866547 0.519531 0.000031
0.875122 0.519226 0.000031
0.881836 0.517517 0.000031
0.888519 0.515228 0.000031
0.895264 0.510834 0.000031
0.901611 0.506439 0.000031
0.905151 0.500732 0.000031
0.908203 0.494324 0.000031
0.295441 0.414703 0.000031
0.329254 0.423248 0.000031
0.366455 0.432434 0.000031
0.400665 0.440674 0.000031
0.437195 0.449402 0.000031
0.471649 0.457336 0.000031
0.504608 0.465210 0.000031
0.535492 0.472656 0.000031
0.567871 0.480682 0.000031
0.599518 0.488342 0.000031
0.630066 0.495850 0.000031
0.659149 0.502716 0.000031
0.688202 0.509308 0.000031
0.715820 0.515594 0.000031
0.740753 0.520782 0.000031
0.760193 0.523346 0.000031
0.776886 0.525024 0.000031
0.791962 0.526550 0.000031
0.806519 0.528046 0.000031
0.820038 0.529327 0.000031
0.832550 0.530853 0.000031
0.843781 0.531982 0.000031
0.853790 0.532837 0.000031
0.861938 0.532990 0.000031
0.869446 0.532959 0.000031
0.876923 0.532532 0.000031
0.884888 0.532135 0.000031
0.891052 0.530243 0.000031
0.897736 0.528107 0.000031
0.904205 0.524170 0.000031
0.909851 0.519379 0.000031
0.913818 0.513672 0.000031
0.917145 0.507629 0.000031
0.316803 0.431854 0.000031
0.349884 0.440125 0.000031
0.385223 0.448853 0.000031
0.418182 0.456757 0.000031
0.453552 0.465118 0.000031
0.487671 0.472839 0.000031
0.520538 0.480347 0.000031
0.549561 0.487061 0.000031
0.579376 0.494049 0.000031
0.609833 0.501282 0.000031
0.640167 0.508331 0.000031
0.668610 0.514893 0.000031
0.696503 0.521088 0.000031
0.723877 0.527130 0.000031
0.749146 0.532990 0.000031
0.771790 0.537323 0.000031
0.789124 0.539368 0.000031
0.804291 0.540833 0.000031
0.818207 0.541992 0.000031
0.831665 0.543213 0.000031
0.844666 0.544220 0.000031
0.855927 0.545319 0.000031
0.865448 0.545807 0.000031
0.873779 0.545898 0.000031
0.881042 0.545624 0.000031
0.887970 0.545166 0.000031
0.893921 0.544220 0.000031
0.900116 0.542175 0.000031
0.905914 0.539642 0.000031
0.912262 0.536041 0.000031
0.917511 0.531586 0.000031
0.921906 0.525970 0.000031
0.925781 0.520203 0.000031
0.337067 0.447968 0.000031
0.369080 0.455872 0.000031
0.402679 0.464081 0.000031
0.435211 0.471710 0.000031
0.469269 0.479645 0.000031
0.501709 0.486908 0.000031
0.534149 0.493958 0.000031
0.562592 0.500366 0.000031
0.591125 0.506775 0.000031
0.620178 0.513367 0.000031
0.649841 0.520172 0.000031
0.677643 0.526550 0.000031
0.704742 0.532532 0.000031
0.731140 0.538330 0.000031
0.756256 0.544006 0.000031
0.780212 0.549286 0.000031
0.799530 0.552460 0.000031
0.814789 0.553894 0.000031
0.828552 0.555145 0.000031
0.841766 0.556091 0.000031
0.854828 0.557190 0.000031
0.867188 0.558014 0.000031
0.877075 0.558563 0.000031
0.884552 0.558014 0.000031
0.891754 0.557648 0.000031
0.897797 0.556580 0.000031
0.903595 0.555634 0.000031
0.909302 0.553467 0.000031
0.914825 0.550751 0.000031
0.919708 0.547211 0.000031
0.924042 0.543396 0.000031
0.928894 0.538086 0.000031
0.933533 0.532471 0.000031
0.355042 0.462738 0.000031
0.386261 0.470154 0.000031
0.418671 0.477753 0.000031
0.450500 0.485077 0.000031
0.483765 0.492615 0.000031
0.514771 0.499451 0.000031
0.546204 0.506378 0.000031
0.574158 0.512482 0.000031
0.601868 0.518616 0.000031
0.630219 0.524933 0.000031
0.658844 0.531342 0.000031
0.686035 0.537323 0.000031
0.712463 0.543091 0.000031
0.737854 0.548615 0.000031
0.762299 0.553986 0.000031
0.785828 0.559265 0.000031
0.807709 0.563934 0.000031
0.824066 0.566132 0.000031
0.837769 0.567200 0.000031
0.851013 0.568390 0.000031
0.863556 0.569031 0.000031
0.876038 0.569916 0.000031
0.887787 0.570496 0.000031
0.895386 0.570068 0.000031
0.901672 0.568878 0.000031
0.907410 0.568024 0.000031
0.912903 0.566437 0.000031
0.918365 0.564240 0.000031
0.923645 0.561798 0.000031
0.927582 0.558502 0.000031
0.931335 0.554779 0.000031
0.935089 0.550018 0.000031
0.939911 0.544495 0.000031
0.368713 0.474762 0.000031
0.399597 0.481934 0.000031
0.431946 0.489532 0.000031
0.463318 0.496735 0.000031
0.495789 0.503967 0.000031
0.525970 0.510468 0.000031
0.556274 0.517090 0.000031
0.584015 0.523132 0.000031
0.611115 0.528870 0.000031
0.638672 0.534912 0.000031
0.666260 0.540955 0.000031
0.693024 0.546722 0.000031
0.718781 0.552277 0.000031
0.743652 0.557648 0.000031
0.767517 0.562836 0.000031
0.790192 0.567871 0.000031
0.811615 0.572601 0.000031
0.831146 0.576721 0.000031
0.845520 0.578217 0.000031
0.858490 0.579163 0.000031
0.871002 0.579926 0.000031
0.882690 0.580109 0.000031
0.894562 0.580688 0.000031
0.905060 0.580780 0.000031
0.910797 0.579773 0.000031
0.916443 0.578552 0.000031
0.921936 0.577179 0.000031
0.927368 0.574982 0.000031
0.931915 0.572510 0.000031
0.935516 0.569550 0.000031
0.939301 0.566193 0.000031
0.942230 0.561676 0.000031
0.946198 0.556580 0.000031
0.380066 0.485565 0.000031
0.410492 0.492645 0.000031
0.442780 0.500061 0.000031
0.474548 0.507233 0.000031
0.506348 0.514069 0.000031
0.535675 0.520416 0.000031
0.565247 0.526733 0.000031
0.592804 0.532684 0.000031
0.619537 0.538269 0.000031
0.646271 0.544098 0.000031
0.673035 0.549866 0.000031
0.699371 0.555420 0.000031
0.724701 0.560913 0.000031
0.749146 0.566132 0.000031
0.772308 0.571136 0.000031
0.794189 0.575928 0.000031
0.815155 0.580536 0.000031
0.834595 0.584839 0.000031
0.852295 0.588348 0.000031
0.865631 0.589417 0.000031
0.877716 0.590057 0.000031
0.889252 0.590332 0.000031
0.900513 0.590302 0.000031
0.910645 0.590240 0.000031
0.919220 0.590240 0.000031
0.924927 0.589020 0.000031
0.930634 0.587677 0.000031
0.935669 0.585632 0.000031
0.939789 0.583252 0.000031
0.943451 0.580322 0.000031
0.947083 0.577148 0.000031
0.950073 0.573029 0.000031
0.952789 0.568604 0.000031
0.389038 0.494781 0.000031
0.418701 0.501617 0.000031
0.450562 0.508759 0.000031
0.482758 0.515991 0.000031
0.514465 0.522919 0.000031
0.543701 0.529175 0.000031
0.572784 0.535278 0.000031
0.600342 0.541290 0.000031
0.626984 0.546875 0.000031
0.653168 0.552734 0.000031
0.679474 0.558380 0.000031
0.705261 0.563751 0.000031
0.730133 0.569031 0.000031
0.753998 0.574158 0.000031
0.776794 0.579041 0.000031
0.798004 0.583801 0.000031
0.818573 0.588287 0.000031
0.837799 0.592621 0.000031
0.855957 0.596497 0.000031
0.872101 0.599182 0.000031
0.884338 0.599854 0.000031
0.895599 0.599945 0.000031
0.906586 0.599792 0.000031
0.916168 0.599518 0.000031
0.924683 0.599243 0.000031
0.933258 0.599182 0.000031
0.938812 0.597931 0.000031
0.943268 0.596069 0.000031
0.947266 0.593811 0.000031
0.951202 0.591248 0.000031
0.954803 0.588440 0.000031
0.957733 0.584808 0.000031
0.959747 0.580536 0.000031
0.397552 0.503632 0.000031
0.426941 0.510254 0.000031
0.457520 0.517029 0.000031
0.490021 0.524231 0.000031
0.522003 0.531372 0.000031
0.551361 0.537689 0.000031
0.580261 0.543762 0.000031
0.607330 0.549561 0.000031
0.634033 0.555084 0.000031
0.659821 0.560883 0.000031
0.685852 0.566559 0.000031
0.711273 0.571930 0.000031
0.735504 0.577057 0.000031
0.758881 0.582123 0.000031
0.781128 0.586975 0.000031
0.801910 0.591583 0.000031
0.821930 0.596130 0.000031
0.841064 0.600342 0.000031
0.859406 0.604095 0.000031
0.876343 0.607574 0.000031
0.890533 0.609375 0.000031
0.901855 0.609589 0.000031
0.912323 0.609192 0.000031
0.921478 0.608917 0.000031
0.930267 0.608521 0.000031
