滤镜资源/Professional Luts Collection/Lutify.me Professional/Cine Looks/Sapphirine.cube
# Created by: Lutify.me
# Copyright: (c) Copyright Lutify.me 2015
# Website: https://lutify.me
#LUT size
LUT_3D_SIZE 5
#LUT data points
0.035797 0.040131 0.040741
0.230316 0.043610 0.019836
0.371552 0.037842 0.015015
0.486816 0.039764 0.018860
0.592804 0.036957 0.023621
0.074463 0.136322 0.042023
0.353180 0.212311 0.000031
0.572815 0.266510 0.000031
0.696869 0.299286 0.000031
0.775360 0.282501 0.000031
0.224670 0.354218 0.000031
0.530792 0.432251 0.000031
0.735046 0.474792 0.000031
0.833862 0.490448 0.000031
0.886780 0.462402 0.000031
0.380066 0.485565 0.000031
0.619537 0.538269 0.000031
0.815155 0.580536 0.000031
0.919220 0.590240 0.000031
0.952789 0.568604 0.000031
0.423035 0.549683 0.000031
0.666077 0.600220 0.000031
0.840851 0.638947 0.000031
0.954193 0.666382 0.000977
0.972504 0.669342 0.058807
0.031158 0.041260 0.107513
0.116394 0.048981 0.147430
0.311859 0.037872 0.168304
0.466827 0.019470 0.163208
0.561401 0.020752 0.156738
0.041504 0.162048 0.181488
0.239899 0.239380 0.228180
0.467957 0.261566 0.214417
0.623535 0.278229 0.209625
0.769348 0.249390 0.180756
0.109680 0.350098 0.217926
0.386169 0.441315 0.232849
0.600647 0.490601 0.247742
0.727112 0.498535 0.231873
0.846619 0.465729 0.192810
0.230133 0.469421 0.212616
0.478607 0.548462 0.215790
0.660645 0.593964 0.256989
0.804077 0.612610 0.242218
0.896637 0.588348 0.192017
0.277771 0.537659 0.142334
0.495697 0.614136 0.090363
0.691345 0.665131 0.159943
0.834717 0.708130 0.216614
0.956268 0.731812 0.215454
0.032837 0.043121 0.179352
0.074829 0.045410 0.203003
0.224762 0.051117 0.224792
0.381134 0.047485 0.264587
0.531921 0.030914 0.282501
0.041687 0.168823 0.294830
0.154510 0.226532 0.320953
0.361786 0.257721 0.353058
0.541931 0.257080 0.365875
0.739349 0.223877 0.326202
0.057343 0.341095 0.397034
0.256073 0.424347 0.415314
0.493958 0.484344 0.447998
0.638824 0.482758 0.421692
0.835144 0.452026 0.359711
0.090820 0.453003 0.402924
0.340820 0.530151 0.439636
0.556946 0.590454 0.462128
0.717072 0.623871 0.474670
0.880463 0.609863 0.394073
0.140503 0.528351 0.360657
0.360596 0.597961 0.388062
0.564728 0.680115 0.384857
0.764038 0.740631 0.444366
0.939117 0.780396 0.455048
0.037567 0.050842 0.252106
0.053009 0.046783 0.239136
0.171600 0.053101 0.270111
0.334198 0.054108 0.320526
0.468109 0.053375 0.341705
0.043549 0.183929 0.376892
0.095764 0.218658 0.369110
0.268402 0.237946 0.388702
0.445435 0.269958 0.427338
0.644806 0.224365 0.416077
0.053253 0.330933 0.467133
0.182983 0.407562 0.474976
0.387634 0.453644 0.498779
0.553192 0.479706 0.525055
0.777924 0.419495 0.457092
0.060608 0.429260 0.516296
0.216858 0.520142 0.530762
0.469757 0.577271 0.560455
0.644867 0.628845 0.598541
0.859894 0.605743 0.522797
0.064331 0.484619 0.482697
0.161407 0.572723 0.505432
0.418671 0.671326 0.566254
0.695709 0.771576 0.624451
0.929504 0.830353 0.652710
0.041412 0.058777 0.312653
0.038422 0.046692 0.268829
0.108063 0.055389 0.309509
0.263092 0.059052 0.364258
0.422333 0.056854 0.399658
0.046082 0.192474 0.436737
0.047546 0.183746 0.409637
0.102509 0.190948 0.410492
0.309662 0.237030 0.468292
0.521545 0.248138 0.506042
0.050446 0.312439 0.514709
0.062592 0.333130 0.511230
0.116852 0.358429 0.529419
0.330750 0.394470 0.554993
0.607178 0.436371 0.605469
0.054718 0.388336 0.561371
0.082886 0.446655 0.574188
0.208588 0.515198 0.619019
0.452057 0.575409 0.674164
0.722534 0.611206 0.713867
0.056488 0.434448 0.576874
0.073547 0.507660 0.612000
0.171021 0.617401 0.675842
0.551544 0.763458 0.769745
0.927185 0.876129 0.864746
