滤镜资源/Professional Luts Collection/Lutify.me Professional/Cine Looks/Sardonyx.cube
# Created by: Lutify.me
# Copyright: (c) Copyright Lutify.me 2015
# Website: https://lutify.me
#LUT size
LUT_3D_SIZE 5
#LUT data points
0.023224 0.045532 0.046143
0.219269 0.048370 0.024597
0.362518 0.041718 0.018860
0.479462 0.042938 0.022034
0.586945 0.039459 0.026123
0.061157 0.142029 0.047729
0.343903 0.216309 0.004028
0.566681 0.269135 0.002655
0.692505 0.301147 0.001892
0.772125 0.283905 0.001434
0.213531 0.358978 0.004822
0.524048 0.435120 0.002930
0.731232 0.476410 0.001678
0.831482 0.491486 0.001068
0.885162 0.463104 0.000763
0.371155 0.489380 0.003845
0.614075 0.540619 0.002380
0.812500 0.581665 0.001190
0.918060 0.590759 0.000549
0.952118 0.568909 0.000336
0.414734 0.553223 0.003571
0.661255 0.602264 0.002106
0.838562 0.639923 0.001007
0.953522 0.666687 0.001282
0.972107 0.669525 0.058990
0.020233 0.045959 0.112213
0.103699 0.054443 0.152893
0.301971 0.042114 0.172546
0.459167 0.022736 0.166504
0.555084 0.023438 0.159424
0.027710 0.167938 0.187378
0.228943 0.244049 0.232880
0.460327 0.264862 0.217682
0.618103 0.280548 0.211945
0.766022 0.250793 0.182190
0.096863 0.355591 0.223419
0.377350 0.445099 0.236633
0.594879 0.493042 0.250183
0.723206 0.500214 0.233551
0.844421 0.466675 0.193756
0.219055 0.474152 0.217346
0.471100 0.551666 0.218994
0.655762 0.596069 0.259094
0.801300 0.613831 0.243439
0.895142 0.588989 0.192657
0.267395 0.542114 0.146790
0.488464 0.617249 0.093445
0.686890 0.667053 0.161865
0.832336 0.709137 0.217621
0.955627 0.732086 0.215729
0.021301 0.048096 0.184296
0.061523 0.051117 0.208679
0.213623 0.055908 0.229553
0.372253 0.051300 0.268372
0.525177 0.033783 0.285400
0.027924 0.174713 0.300720
0.142365 0.231750 0.326172
0.352631 0.261688 0.356995
0.535370 0.259888 0.368683
0.735626 0.225494 0.327820
0.043793 0.346893 0.402832
0.245361 0.428925 0.419891
0.486694 0.487457 0.451111
0.633636 0.484955 0.423889
0.832764 0.453064 0.360718
0.077728 0.458588 0.408508
0.331360 0.534210 0.443695
0.550568 0.593201 0.464874
0.713013 0.625610 0.476410
0.878754 0.610626 0.394806
0.128143 0.533630 0.365967
0.351410 0.601929 0.391998
0.558472 0.682770 0.387543
0.760681 0.742065 0.445831
0.938232 0.780762 0.455414
0.024384 0.056519 0.257751
0.039398 0.052612 0.244965
0.159668 0.058197 0.275208
0.324646 0.058228 0.324646
0.460480 0.056671 0.344971
0.029816 0.189819 0.382782
0.082764 0.224243 0.374695
0.257874 0.242462 0.393219
0.437439 0.273376 0.430756
0.639679 0.226532 0.418274
0.039642 0.336761 0.472961
0.171234 0.412598 0.480011
0.378815 0.457397 0.502533
0.546783 0.482452 0.527802
0.774719 0.420868 0.458435
0.047089 0.435059 0.522125
0.205597 0.524963 0.535583
0.462158 0.580536 0.563721
0.639740 0.631012 0.600708
0.857880 0.606628 0.523682
0.050873 0.490387 0.488464
0.149353 0.577881 0.510620
0.410309 0.674896 0.569824
0.691345 0.773438 0.626343
0.928497 0.830811 0.653137
0.027618 0.064667 0.318542
0.024933 0.052490 0.274597
0.095215 0.060883 0.315002
0.252533 0.063599 0.368805
0.414032 0.060394 0.403198
0.032379 0.198364 0.442627
0.033844 0.189606 0.415497
0.089600 0.196472 0.416016
0.299713 0.241272 0.472534
0.514679 0.251068 0.508972
0.036804 0.318298 0.520538
0.049103 0.338898 0.516998
0.104126 0.363861 0.534851
0.321136 0.398621 0.559113
0.601532 0.438812 0.607910
0.041138 0.394165 0.567200
0.069702 0.452301 0.579834
0.197205 0.520081 0.623901
0.444183 0.578766 0.677551
0.718536 0.612915 0.715576
0.042938 0.440277 0.582703
0.060211 0.513367 0.617706
0.159088 0.622498 0.680939
0.545105 0.766235 0.772491
0.926147 0.876587 0.865204
