滤镜资源/Professional Luts Collection/Lutify.me Professional/Cine Looks/Sardonyx.cube
# Created by: Lutify.me
# Copyright: (c) Copyright Lutify.me 2015
# Website: https://lutify.me
#LUT size
LUT_3D_SIZE 9
#LUT data points
0.023224 0.045532 0.046143
0.090912 0.048340 0.037598
0.219269 0.048370 0.024597
0.303986 0.042389 0.017517
0.362518 0.041718 0.018860
0.421570 0.041016 0.020477
0.479462 0.042938 0.022034
0.537933 0.042755 0.024323
0.586945 0.039459 0.026123
0.029907 0.069946 0.047577
0.112274 0.091736 0.032654
0.260925 0.103241 0.009125
0.390930 0.121460 0.006409
0.479980 0.139557 0.007019
0.543854 0.153259 0.007355
0.597687 0.163940 0.007874
0.644379 0.164398 0.009644
0.686646 0.154022 0.012329
0.061157 0.142029 0.047729
0.186279 0.183258 0.015076
0.343903 0.216309 0.004028
0.461792 0.237488 0.003296
0.566681 0.269135 0.002655
0.639099 0.290436 0.002228
0.692505 0.301147 0.001892
0.731873 0.296997 0.001648
0.772125 0.283905 0.001434
0.123779 0.249481 0.029083
0.276672 0.295074 0.004425
0.451385 0.342438 0.003357
0.559570 0.363373 0.002686
0.649536 0.384125 0.002167
0.718964 0.403442 0.001740
0.767670 0.412415 0.001465
0.804504 0.406952 0.001221
0.832886 0.383148 0.001038
0.213531 0.358978 0.004822
0.373260 0.397278 0.003845
0.524048 0.435120 0.002930
0.650787 0.466644 0.002167
0.731232 0.476410 0.001678
0.787415 0.486053 0.001343
0.831482 0.491486 0.001068
0.863373 0.484802 0.000854
0.885162 0.463104 0.000763
0.306976 0.436066 0.004242
0.445709 0.468475 0.003387
0.573303 0.496643 0.002625
0.692139 0.522949 0.001892
0.786102 0.540649 0.001343
0.842438 0.545197 0.001007
0.879333 0.546387 0.000763
0.904541 0.540222 0.000610
0.924713 0.520660 0.000488
0.371155 0.489380 0.003845
0.499268 0.517090 0.003052
0.614075 0.540619 0.002380
0.720764 0.562622 0.001740
0.812500 0.581665 0.001190
0.875946 0.590820 0.000763
0.918060 0.590759 0.000549
0.938904 0.583618 0.000427
0.952118 0.568909 0.000336
0.407898 0.525146 0.003632
0.532013 0.550720 0.002869
0.642578 0.573975 0.002197
0.743103 0.594666 0.001587
0.826965 0.611969 0.001068
0.897766 0.626617 0.000671
0.941711 0.628967 0.000397
0.963043 0.626801 0.007355
0.968323 0.618103 0.022034
0.414734 0.553223 0.003571
0.542419 0.578278 0.002808
0.661255 0.602264 0.002106
0.761963 0.624390 0.001495
0.838562 0.639923 0.001007
0.902161 0.654144 0.000641
0.953522 0.666687 0.001282
0.965668 0.670959 0.037720
0.972107 0.669525 0.058990
0.020172 0.044525 0.068329
0.047913 0.051147 0.088867
0.149933 0.050232 0.097595
0.262726 0.039734 0.089417
0.349609 0.031586 0.077271
0.419220 0.025665 0.069305
0.469849 0.026123 0.072876
0.516846 0.026337 0.076019
0.559662 0.025574 0.076202
0.021515 0.078674 0.085205
0.083099 0.104004 0.106415
0.212799 0.114563 0.098816
0.333313 0.116455 0.086304
0.429260 0.120300 0.078278
0.506958 0.124634 0.075745
0.573120 0.132050 0.077850
0.632568 0.127991 0.078796
0.696045 0.111145 0.072388
0.040833 0.159180 0.099670
0.144989 0.203461 0.106689
0.298889 0.241669 0.090607
0.438232 0.257446 0.067413
0.543304 0.270935 0.051849
0.620087 0.285767 0.048431
0.677429 0.290405 0.054199
0.729858 0.287750 0.057526
0.786346 0.257812 0.050446
0.099884 0.259796 0.108337
0.238251 0.320465 0.083435
0.385193 0.358185 0.073273
0.522949 0.386810 0.058350
0.613678 0.393555 0.048523
0.684875 0.404877 0.045135
0.736481 0.409637 0.049500
0.779236 0.400421 0.051910
0.833832 0.379028 0.040253
0.177948 0.362396 0.096741
0.329498 0.416168 0.061615
0.457977 0.446106 0.061584
0.591309 0.479553 0.061432
0.689880 0.492737 0.048492
0.744141 0.493408 0.050751
0.792206 0.495636 0.051880
0.826874 0.484406 0.054077
0.862762 0.455200 0.041107
0.247284 0.438629 0.071442
0.397461 0.481079 0.050690
0.515564 0.507416 0.056793
0.628021 0.534058 0.062500
0.733398 0.557037 0.063416
0.798981 0.558411 0.048340
0.834747 0.554169 0.054901
0.866943 0.544525 0.051910
0.895752 0.521118 0.039307
0.299530 0.492004 0.045990
0.439056 0.524384 0.039368
0.555298 0.550659 0.050568
0.660645 0.574402 0.060883
0.747223 0.595612 0.071106
0.822937 0.607758 0.065582
0.875214 0.604645 0.053284
0.901550 0.595703 0.053040
0.926697 0.576599 0.041168
0.319611 0.524017 0.031830
0.450287 0.555389 0.018311
0.577850 0.583221 0.032227
0.677673 0.605988 0.050507
0.759644 0.626282 0.063568
0.830109 0.644531 0.073242
0.893524 0.653748 0.068512
0.935638 0.648102 0.053589
0.958466 0.635223 0.043121
0.307343 0.542847 0.021057
0.443146 0.578674 0.003387
0.575653 0.607605 0.003906
0.686096 0.630646 0.019318
0.763855 0.651611 0.038269
0.831451 0.670807 0.054474
0.897034 0.690552 0.064697
0.949097 0.703522 0.066254
0.965820 0.701691 0.091431
0.020233 0.045959 0.112213
0.035095 0.048492 0.135284
0.103699 0.054443 0.152893
0.194031 0.057434 0.165863
0.301971 0.042114 0.172546
0.389526 0.029663 0.166870
0.459167 0.022736 0.166504
0.508972 0.023132 0.166534
0.555084 0.023438 0.159424
0.022369 0.083771 0.145050
0.054382 0.100922 0.163025
0.147247 0.113434 0.184052
0.270355 0.115662 0.196838
0.386993 0.108368 0.188507
0.475739 0.103821 0.181976
0.543854 0.106354 0.179443
0.608215 0.101074 0.173004
0.674957 0.083893 0.158264
0.027710 0.167938 0.187378
0.088623 0.204590 0.209320
0.228943 0.244049 0.232880
0.357849 0.252228 0.221039
0.460327 0.264862 0.217682
0.544067 0.272583 0.214508
0.618103 0.280548 0.211945
0.686920 0.273132 0.200653
0.766022 0.250793 0.182190
0.047485 0.267212 0.208771
0.160980 0.311707 0.230804
0.303314 0.356232 0.236938
0.440765 0.390900 0.244354
0.533905 0.399384 0.235657
0.612183 0.409607 0.227661
0.677673 0.410156 0.221802
0.743744 0.402252 0.208984
0.820099 0.380127 0.188751
0.096863 0.355591 0.223419
0.241943 0.401550 0.244080
0.377350 0.445099 0.236633
0.493591 0.473450 0.249634
0.594879 0.493042 0.250183
0.661804 0.495728 0.242676
0.723206 0.500214 0.233551
0.782288 0.489899 0.218201
0.844421 0.466675 0.193756
0.162109 0.425354 0.228241
0.306396 0.467926 0.243469
0.437073 0.507721 0.231537
0.535553 0.529968 0.249969
0.634186 0.553162 0.258698
0.709717 0.560913 0.247742
0.759216 0.557800 0.242828
0.816467 0.554169 0.224915
0.863525 0.527985 0.191742
0.219055 0.474152 0.217346
0.348114 0.516174 0.222809
0.471100 0.551666 0.218994
0.566254 0.573059 0.241394
0.655762 0.596069 0.259094
0.737366 0.612305 0.257996
0.801300 0.613831 0.243439
0.848511 0.609467 0.231262
0.895142 0.588989 0.192657
0.262634 0.511230 0.197571
0.375397 0.554779 0.179657
0.491394 0.587830 0.176178
0.588531 0.610687 0.209015
0.674866 0.632599 0.230133
0.748657 0.653595 0.245911
0.825195 0.668671 0.247070
0.886047 0.668854 0.232971
0.930969 0.656403 0.197296
0.267395 0.542114 0.146790
0.378265 0.583984 0.114929
0.488464 0.617249 0.093445
0.599762 0.643188 0.128662
0.686890 0.667053 0.161865
0.756134 0.687653 0.198578
0.832336 0.709137 0.217621
0.903717 0.728149 0.229340
0.955627 0.732086 0.215729
0.020142 0.046356 0.148804
0.027771 0.046570 0.163910
0.079773 0.051697 0.188080
0.160187 0.055298 0.193817
0.247009 0.057831 0.208954
0.340881 0.044983 0.223602
0.414978 0.037109 0.233307
0.482178 0.030518 0.238770
0.553528 0.021790 0.232819
0.023682 0.091675 0.198456
0.041779 0.101471 0.206207
0.106506 0.105835 0.221863
0.216370 0.120605 0.244080
0.319153 0.128296 0.261017
0.416473 0.119415 0.266266
0.496094 0.115601 0.269623
0.571350 0.107483 0.264252
0.657471 0.088257 0.245758
0.026855 0.167053 0.248291
0.063873 0.201141 0.267151
0.177795 0.232971 0.288208
0.295135 0.251953 0.308594
0.414032 0.256287 0.313812
0.505249 0.254944 0.304932
0.581818 0.254150 0.293121
0.656219 0.247803 0.278931
0.747437 0.227783 0.258484
0.034271 0.266418 0.304169
0.101624 0.309753 0.320435
0.238983 0.348938 0.337860
0.381470 0.385986 0.358154
0.477631 0.395050 0.348022
0.554291 0.399048 0.339172
0.629425 0.401062 0.331146
0.707092 0.388763 0.310730
0.807800 0.364899 0.279053
0.054810 0.353333 0.325897
0.154663 0.396545 0.338409
0.311584 0.432709 0.358002
0.436951 0.468140 0.367523
0.534729 0.490845 0.376465
0.605347 0.493652 0.365112
0.673401 0.494507 0.352112
0.747467 0.485138 0.328613
0.836182 0.462219 0.293671
0.088257 0.417633 0.332123
0.213959 0.459961 0.349609
0.368042 0.494202 0.379120
0.478729 0.528931 0.377106
0.568146 0.549347 0.389221
0.649078 0.563660 0.389496
0.711121 0.563843 0.376282
0.781097 0.556946 0.347565
0.856781 0.533875 0.302185
0.134064 0.471069 0.329834
0.265808 0.506683 0.350739
0.406921 0.537659 0.375031
0.509644 0.574066 0.368164
0.591583 0.594269 0.388153
0.674622 0.613953 0.395691
0.748230 0.621185 0.385773
0.811188 0.616547 0.360626
0.881531 0.598877 0.309387
0.179749 0.511383 0.314514
0.299805 0.542847 0.333984
0.422333 0.577728 0.351227
0.528870 0.617218 0.340179
0.611420 0.637146 0.364746
0.692444 0.659363 0.379974
0.774353 0.677765 0.385498
0.850250 0.683990 0.373932
0.914215 0.671997 0.325378
0.204071 0.540405 0.274078
0.317688 0.571686 0.287079
0.428680 0.618225 0.278076
0.523346 0.652710 0.253967
0.612061 0.676422 0.289001
0.703369 0.701782 0.326569
0.785980 0.724274 0.347809
0.872620 0.746521 0.361023
0.941223 0.756348 0.350006
0.021301 0.048096 0.184296
0.025330 0.046082 0.186646
0.061523 0.051117 0.208679
0.130890 0.054413 0.220398
0.213623 0.055908 0.229553
0.292908 0.058258 0.248108
0.372253 0.051300 0.268372
0.447662 0.044006 0.283997
0.525177 0.033783 0.285400
0.024597 0.097168 0.243927
0.035919 0.104095 0.241852
0.078827 0.103333 0.246185
0.174805 0.118378 0.271057
0.277893 0.128448 0.290009
0.363464 0.137726 0.307281
0.449402 0.132355 0.321106
0.530396 0.121490 0.325806
0.620148 0.099945 0.309052
0.027924 0.174713 0.300720
0.052185 0.201660 0.309753
0.142365 0.231750 0.326172
0.240448 0.239227 0.336151
0.352631 0.261688 0.356995
0.446503 0.266815 0.371033
0.535370 0.259888 0.368683
0.624908 0.244873 0.353027
0.735626 0.225494 0.327820
0.033356 0.258942 0.351257
0.078888 0.300232 0.364410
0.197479 0.341034 0.379700
0.325104 0.373535 0.399414
0.432861 0.387817 0.415161
0.522125 0.388580 0.409912
0.597839 0.385620 0.394073
0.679047 0.369293 0.368134
0.788849 0.344299 0.332031
0.043793 0.346893 0.402832
0.107941 0.392517 0.411926
0.245361 0.428925 0.419891
0.381470 0.458771 0.437012
0.486694 0.487457 0.451111
0.561646 0.487915 0.438782
0.633636 0.484955 0.423889
0.723572 0.476440 0.400208
0.832764 0.453064 0.360718
0.059021 0.410767 0.411926
0.145081 0.453552 0.420197
0.298462 0.490295 0.434845
0.427704 0.516388 0.454193
0.522156 0.543854 0.459778
0.604431 0.561310 0.466156
0.672760 0.558411 0.449707
0.759277 0.551331 0.420044
0.858429 0.534943 0.375946
0.077728 0.458588 0.408508
0.175476 0.497559 0.421692
0.331360 0.534210 0.443695
0.460693 0.563843 0.467346
0.550568 0.593201 0.464874
0.629120 0.610901 0.474823
0.713013 0.625610 0.476410
0.790527 0.622833 0.446503
0.878754 0.610626 0.394806
0.109619 0.500183 0.393402
0.204620 0.534943 0.408661
0.352417 0.570587 0.432068
0.474762 0.602814 0.457428
0.570618 0.643890 0.451752
0.649567 0.663513 0.464081
0.740540 0.686188 0.475464
0.830658 0.698669 0.467560
0.907532 0.690979 0.422028
0.128143 0.533630 0.365967
0.219543 0.565704 0.376221
0.351410 0.601929 0.391998
0.460052 0.636261 0.408752
0.558472 0.682770 0.387543
0.659576 0.715240 0.421722
0.760681 0.742065 0.445831
0.859985 0.769287 0.462524
0.938232 0.780762 0.455414
0.022766 0.051727 0.220947
0.023865 0.047424 0.210114
0.049622 0.052856 0.228088
0.105225 0.055328 0.239746
0.185547 0.056854 0.253723
0.269409 0.056213 0.275513
0.339996 0.059601 0.294708
0.410797 0.056458 0.310394
0.493561 0.044983 0.320526
0.025299 0.103821 0.283875
0.031494 0.107330 0.272888
0.058838 0.102844 0.265747
0.141144 0.116455 0.288757
0.238586 0.128052 0.311584
0.332428 0.136353 0.333038
0.408905 0.150391 0.350861
0.492920 0.136749 0.361053
0.583221 0.108765 0.353790
0.029327 0.182770 0.344757
0.042511 0.202362 0.342285
0.111420 0.226227 0.351715
0.195160 0.228821 0.355469
0.304596 0.251129 0.376984
0.396118 0.266754 0.393402
0.482208 0.273254 0.409271
0.576813 0.256805 0.403809
0.694946 0.222168 0.375763
0.033508 0.262451 0.393555
0.064331 0.296509 0.398468
0.164764 0.341309 0.414551
0.281219 0.365265 0.427307
0.373260 0.374725 0.435364
0.461853 0.395111 0.451752
0.560242 0.392578 0.458405
0.653778 0.366669 0.430603
0.767761 0.334320 0.385986
0.040741 0.337921 0.437653
0.085938 0.376373 0.441284
0.207855 0.418060 0.451324
0.334473 0.447754 0.464600
0.433105 0.471161 0.481445
0.525208 0.481293 0.492249
0.603577 0.479187 0.480560
0.692200 0.462067 0.449738
0.805603 0.428375 0.398682
0.048523 0.402435 0.472778
0.105896 0.445831 0.476562
0.241089 0.488251 0.486816
0.379333 0.514130 0.495605
0.479797 0.537628 0.512970
0.562866 0.559814 0.524475
0.639526 0.556671 0.507904
0.735413 0.545380 0.478699
0.848114 0.524475 0.433350
0.057251 0.448730 0.472656
0.124115 0.489594 0.477753
0.262390 0.531555 0.491425
0.407043 0.560791 0.506989
0.508972 0.584412 0.525299
0.589844 0.610352 0.530731
0.678925 0.627716 0.537476
0.767761 0.623596 0.508331
0.869720 0.614197 0.461365
0.068817 0.483856 0.457275
0.123962 0.518921 0.464325
0.257812 0.564697 0.485443
0.408051 0.602417 0.508392
0.521332 0.634705 0.532013
0.611481 0.667755 0.534851
0.706299 0.690277 0.543884
0.809662 0.708923 0.546234
0.897980 0.707642 0.503326
0.077271 0.515625 0.432343
0.132935 0.550781 0.440430
0.247467 0.595947 0.460175
0.382660 0.636414 0.483765
0.497162 0.671173 0.507141
0.612854 0.722626 0.509735
0.729889 0.758240 0.528809
0.844757 0.789154 0.548431
0.932617 0.805573 0.550934
0.024384 0.056519 0.257751
0.023193 0.048523 0.233093
0.039398 0.052612 0.244965
0.086121 0.056763 0.259064
0.159668 0.058197 0.275208
0.247223 0.059052 0.301453
0.324646 0.058228 0.324646
0.390686 0.061249 0.338470
0.460480 0.056671 0.344971
0.026672 0.110809 0.321350
0.028198 0.112305 0.302612
0.045135 0.103943 0.288116
0.115265 0.119141 0.308899
0.203400 0.128754 0.328827
0.297821 0.139252 0.353760
0.383392 0.145721 0.376282
0.456421 0.151886 0.387146
0.540894 0.119659 0.385498
0.029816 0.189819 0.382782
0.037354 0.203003 0.372467
0.082764 0.224243 0.374695
0.153046 0.221313 0.372894
0.257874 0.242462 0.393219
0.354156 0.260803 0.413513
0.437439 0.273376 0.430756
0.526062 0.271790 0.441223
0.639679 0.226532 0.418274
0.033295 0.265259 0.430573
0.049713 0.292023 0.426300
0.122101 0.327881 0.435547
0.229034 0.352814 0.446564
0.315430 0.356262 0.449554
0.413177 0.378052 0.468750
0.495941 0.395813 0.483856
0.598877 0.378937 0.486267
0.725128 0.324585 0.438782
0.039642 0.336761 0.472961
0.068573 0.367737 0.469391
0.171234 0.412598 0.480011
0.286163 0.441895 0.492157
0.378815 0.457397 0.502533
0.457550 0.465240 0.509979
0.546783 0.482452 0.527802
0.658051 0.463348 0.516663
0.774719 0.420868 0.458435
0.043854 0.390625 0.501160
0.082977 0.427368 0.499054
0.195404 0.470764 0.509430
0.325745 0.503296 0.521179
0.425568 0.522614 0.533600
0.507050 0.542511 0.551086
0.597198 0.550598 0.561401
0.695374 0.537170 0.536957
0.810303 0.504333 0.481903
0.047089 0.435059 0.522125
0.088257 0.474396 0.520538
0.205597 0.524963 0.535583
0.344025 0.555206 0.548492
0.462158 0.580536 0.563721
0.547058 0.603973 0.584290
0.639740 0.631012 0.600708
0.742554 0.622284 0.570099
0.857880 0.606628 0.523682
0.051453 0.467224 0.509216
0.085815 0.502136 0.510498
0.186646 0.554962 0.533112
0.323883 0.595642 0.552917
0.457031 0.630737 0.576447
0.565918 0.662262 0.601074
0.666901 0.696625 0.610046
0.781067 0.717255 0.616791
0.890686 0.715332 0.581940
0.050873 0.490387 0.488464
0.076477 0.523071 0.490479
0.149353 0.577881 0.510620
0.268066 0.626770 0.538513
0.410309 0.674896 0.569824
0.557190 0.722870 0.608276
0.691345 0.773438 0.626343
0.819916 0.807281 0.636566
0.928497 0.830811 0.653137
0.025848 0.061432 0.289581
0.024170 0.050995 0.259460
0.031219 0.053436 0.261383
0.069336 0.058807 0.278412
0.132324 0.060669 0.296722
0.217529 0.062042 0.323883
0.300232 0.061798 0.349548
0.375275 0.060425 0.368835
0.439392 0.061523 0.373779
0.028229 0.119904 0.353912
0.027649 0.115662 0.331970
0.034607 0.101776 0.312531
0.079620 0.116455 0.325348
0.164490 0.129181 0.348755
0.258698 0.139221 0.375366
0.347504 0.146820 0.399078
0.430725 0.148712 0.416748
0.499908 0.135010 0.414337
0.030579 0.195862 0.413879
0.032715 0.200409 0.399323
0.051849 0.212097 0.393188
0.094879 0.207245 0.387299
0.194641 0.229950 0.406891
0.293549 0.248199 0.429474
0.389313 0.262787 0.452118
0.478027 0.271912 0.468872
0.574738 0.240936 0.461609
0.033630 0.267731 0.460602
0.039459 0.281281 0.451843
0.073944 0.307465 0.454163
0.145142 0.330170 0.463287
0.224976 0.329956 0.463379
0.330963 0.348999 0.480316
0.433533 0.368591 0.501709
0.528137 0.381775 0.517181
0.642975 0.338623 0.506317
0.038269 0.331604 0.499817
0.050842 0.353455 0.494232
0.100677 0.382324 0.497070
0.194122 0.414276 0.512024
0.286072 0.431885 0.523773
0.367798 0.434937 0.527618
0.477173 0.454010 0.545929
0.573090 0.470703 0.560150
0.702972 0.428955 0.542542
0.041595 0.381683 0.527893
0.059906 0.407501 0.522217
0.127594 0.444794 0.530487
0.234894 0.483337 0.548584
0.338196 0.506714 0.564941
0.419403 0.518982 0.577606
0.516815 0.527954 0.585022
0.616058 0.544159 0.601135
0.757904 0.507629 0.572357
0.042938 0.417877 0.543365
0.064545 0.452545 0.543793
0.137268 0.493164 0.554230
0.254608 0.534576 0.575623
0.372192 0.565826 0.596680
0.471619 0.588745 0.616486
0.571259 0.609131 0.634552
0.685516 0.620819 0.652130
0.816040 0.598846 0.606079
0.044403 0.446472 0.555237
0.059784 0.479889 0.554077
0.126770 0.532593 0.573486
0.238129 0.579529 0.599548
0.370117 0.617310 0.626831
0.487579 0.652710 0.652985
0.617584 0.688324 0.680237
0.758575 0.726440 0.703064
0.896362 0.719421 0.674316
0.044037 0.466736 0.540039
0.053040 0.496185 0.542175
0.085388 0.544189 0.561707
0.155792 0.601898 0.594727
0.278259 0.659729 0.630127
0.445770 0.719086 0.672943
0.635773 0.775116 0.716248
0.781891 0.822845 0.739868
0.924561 0.853638 0.756195
0.027618 0.064667 0.318542
0.025146 0.051880 0.283356
0.024933 0.052490 0.274597
0.045563 0.056702 0.291504
0.095215 0.060883 0.315002
0.167755 0.062256 0.340515
0.252533 0.063599 0.368805
0.333130 0.061920 0.388550
0.414032 0.060394 0.403198
0.029816 0.122650 0.382751
0.028748 0.113129 0.360229
0.028137 0.092926 0.335846
0.042542 0.104553 0.339722
0.098450 0.120148 0.363281
0.187836 0.132812 0.392120
0.282715 0.140930 0.418793
0.375305 0.140533 0.437927
0.465302 0.134003 0.449402
0.032379 0.198364 0.442627
0.031403 0.189178 0.422058
0.033844 0.189606 0.415497
0.041412 0.178131 0.403656
0.089600 0.196472 0.416016
0.185547 0.219727 0.440735
0.299713 0.241272 0.472534
0.411530 0.251190 0.497253
0.514679 0.251068 0.508972
0.033936 0.261200 0.484680
0.034241 0.260254 0.473877
0.039062 0.267334 0.471832
0.052551 0.274963 0.475128
0.082458 0.278931 0.473663
0.180634 0.305054 0.492981
0.309113 0.325806 0.516113
0.443207 0.344482 0.544006
0.558105 0.350159 0.560120
0.036804 0.318298 0.520538
0.039215 0.326172 0.516602
0.049103 0.338898 0.516998
0.069550 0.353973 0.525208
0.104126 0.363861 0.534851
0.178406 0.378540 0.541809
0.321136 0.398621 0.559113
0.467010 0.420746 0.584991
0.601532 0.438812 0.607910
0.039154 0.359100 0.546326
0.043335 0.377075 0.545776
0.059326 0.401611 0.552917
0.097412 0.426056 0.565979
0.151001 0.447968 0.584625
0.219971 0.461212 0.599060
0.348389 0.472778 0.607544
0.510223 0.499634 0.630737
0.650513 0.520355 0.656128
0.041138 0.394165 0.567200
0.047058 0.421417 0.569611
0.069702 0.452301 0.579834
0.119385 0.486023 0.598938
0.197205 0.520081 0.623901
0.310516 0.554108 0.653687
0.444183 0.578766 0.677551
0.576813 0.592316 0.689972
0.718536 0.612915 0.715576
0.042114 0.420074 0.577698
0.048126 0.452728 0.583282
0.071625 0.493713 0.602936
0.126953 0.537445 0.626160
0.224426 0.584015 0.658173
0.356781 0.629761 0.693451
0.528320 0.676666 0.732880
0.694977 0.720123 0.769470
0.839722 0.732849 0.794464
0.042938 0.440277 0.582703
0.046875 0.469971 0.591370
0.060211 0.513367 0.617706
0.092194 0.564301 0.647949
0.159088 0.622498 0.680939
0.309418 0.691956 0.721588
0.545105 0.766235 0.772491
0.754181 0.826385 0.819702
0.926147 0.876587 0.865204
