滤镜资源/Professional Luts Collection/Lutify.me Professional/Cine Looks/Sardonyx.cube
# Created by: Lutify.me
# Copyright: (c) Copyright Lutify.me 2015
# Website: https://lutify.me
#LUT size
LUT_3D_SIZE 33
#LUT data points
0.023224 0.045532 0.046143
0.028900 0.046783 0.045990
0.043427 0.046265 0.042511
0.063293 0.047089 0.039978
0.090912 0.048340 0.037598
0.120605 0.049622 0.035248
0.153625 0.050720 0.032623
0.186615 0.050140 0.028351
0.219269 0.048370 0.024597
0.244354 0.046967 0.022156
0.266571 0.045715 0.020294
0.286469 0.043915 0.018555
0.303986 0.042389 0.017517
0.318451 0.041626 0.017883
0.332825 0.041199 0.018250
0.347595 0.041290 0.018555
0.362518 0.041718 0.018860
0.377197 0.041962 0.019226
0.391754 0.041901 0.019653
0.406647 0.041504 0.020050
0.421570 0.041016 0.020477
0.436432 0.040894 0.020905
0.450989 0.041046 0.021301
0.465210 0.041870 0.021667
0.479462 0.042938 0.022034
0.494232 0.043854 0.022430
0.510071 0.044312 0.023132
0.524628 0.043671 0.023804
0.537933 0.042755 0.024323
0.550568 0.041962 0.024689
0.562714 0.040833 0.025146
0.575226 0.040222 0.025635
0.586945 0.039459 0.026123
0.023773 0.048981 0.046906
0.029816 0.051331 0.045776
0.044189 0.051544 0.042053
0.066498 0.053650 0.038940
0.095551 0.055695 0.035828
0.124878 0.057343 0.032959
0.159180 0.058441 0.029358
0.195374 0.059235 0.024445
0.230835 0.058258 0.020416
0.260345 0.057465 0.017731
0.285919 0.056671 0.015594
0.307953 0.056458 0.014832
0.326508 0.056488 0.015228
0.344666 0.056580 0.015656
0.361206 0.056244 0.016144
0.376831 0.056763 0.016479
0.392639 0.057770 0.016785
0.407928 0.058838 0.017090
0.423248 0.059601 0.017456
0.438721 0.060089 0.017883
0.453735 0.060211 0.018250
0.468353 0.060699 0.018555
0.482727 0.061493 0.018829
0.496460 0.062683 0.019135
0.509949 0.063904 0.019501
0.523651 0.064636 0.020020
0.538361 0.065338 0.020599
0.550659 0.064789 0.021057
0.563538 0.063599 0.021576
0.575256 0.061707 0.022125
0.587006 0.060547 0.022522
0.598755 0.059174 0.023071
0.610931 0.058258 0.023590
0.024323 0.053375 0.046661
0.033356 0.057831 0.045746
0.045349 0.059174 0.042694
0.068909 0.062225 0.038818
0.099762 0.065338 0.034760
0.130127 0.067261 0.031067
0.163849 0.068481 0.026459
0.201752 0.069336 0.020966
0.240814 0.070190 0.016113
0.272827 0.070618 0.012939
0.300842 0.071472 0.011658
0.324646 0.073364 0.012054
0.347656 0.075043 0.012512
0.369354 0.076752 0.012817
0.389679 0.078522 0.013184
0.407349 0.080109 0.013458
0.423706 0.081543 0.013763
0.439575 0.083099 0.014099
0.455261 0.084595 0.014435
0.470764 0.085938 0.014709
0.485931 0.087128 0.015015
0.500580 0.088165 0.015289
0.514679 0.089691 0.015472
0.528137 0.091125 0.015747
0.541473 0.092224 0.016083
0.554657 0.092926 0.016632
0.567169 0.093353 0.017120
0.578705 0.092682 0.017548
0.590149 0.091522 0.018066
0.601288 0.089417 0.018616
0.612305 0.087311 0.019104
0.624023 0.085785 0.019684
0.635559 0.084412 0.020264
0.026276 0.060242 0.046509
0.037445 0.065796 0.044769
0.052338 0.069885 0.042023
0.072632 0.072876 0.039093
0.105927 0.076996 0.033783
0.138275 0.080200 0.028839
0.172760 0.082458 0.023987
0.209442 0.083740 0.018036
0.251282 0.085327 0.012421
0.288483 0.087677 0.008484
0.317139 0.090698 0.008636
0.344452 0.093842 0.009125
0.369598 0.096466 0.009613
0.393677 0.099396 0.009979
0.415741 0.102539 0.010193
0.435150 0.105896 0.010315
0.452454 0.108734 0.010437
0.468872 0.111298 0.010681
0.484467 0.113739 0.010895
0.499634 0.115845 0.011108
0.514557 0.117737 0.011322
0.529053 0.119690 0.011505
0.543030 0.121918 0.011627
0.556122 0.124084 0.011810
0.569427 0.125641 0.012177
0.582001 0.126740 0.012604
0.594421 0.127716 0.012939
0.605804 0.126892 0.013458
0.616760 0.125671 0.013947
0.627197 0.122864 0.014648
0.638184 0.120361 0.015228
0.649323 0.118225 0.015900
0.660980 0.116669 0.016510
0.029907 0.069946 0.047577
0.041870 0.076660 0.045502
0.061676 0.083099 0.040436
0.085114 0.087708 0.037720
0.112274 0.091736 0.032654
0.146973 0.096130 0.026611
0.184174 0.099640 0.020660
0.221863 0.101562 0.014465
0.260925 0.103241 0.009125
0.299835 0.106964 0.005310
0.332947 0.112244 0.005432
0.362640 0.116943 0.006012
0.390930 0.121460 0.006409
0.416870 0.125793 0.006714
0.440582 0.130096 0.006927
0.461365 0.134796 0.006989
0.479980 0.139557 0.007019
0.497345 0.143677 0.007019
0.513550 0.147369 0.007111
0.528931 0.150513 0.007202
0.543854 0.153259 0.007355
0.558441 0.156036 0.007477
0.572388 0.158875 0.007599
0.585022 0.161713 0.007660
0.597687 0.163940 0.007874
0.609924 0.165680 0.008148
0.622009 0.166931 0.008484
0.633118 0.165863 0.009033
0.644379 0.164398 0.009644
0.654266 0.161407 0.010254
0.664673 0.158264 0.010986
0.675537 0.156036 0.011658
0.686646 0.154022 0.012329
0.035461 0.082855 0.049500
0.046204 0.089447 0.047058
0.068207 0.097321 0.039337
0.098419 0.104767 0.035187
0.127808 0.109711 0.030426
0.156830 0.114014 0.024689
0.197174 0.118652 0.017487
0.240997 0.123047 0.009979
0.280914 0.125671 0.005249
0.312195 0.129242 0.004211
0.345459 0.135315 0.003998
0.377502 0.140839 0.003845
0.408478 0.146790 0.003754
0.437805 0.152832 0.003662
0.462982 0.158508 0.003845
0.484222 0.163818 0.003876
0.503418 0.169250 0.003906
0.521393 0.174652 0.003845
0.538361 0.179047 0.003845
0.554230 0.182556 0.003998
0.569427 0.185699 0.004089
0.584442 0.188721 0.004242
0.598267 0.191986 0.004272
0.610565 0.194946 0.004333
0.622742 0.197540 0.004486
0.634399 0.199799 0.004639
0.645966 0.201447 0.004822
0.656372 0.199829 0.005371
0.667084 0.198151 0.005951
0.676147 0.193878 0.006775
0.685974 0.190369 0.007477
0.696136 0.188385 0.008057
0.707214 0.186188 0.008789
0.041870 0.098541 0.051331
0.055725 0.106140 0.046356
0.075958 0.114166 0.037476
0.108612 0.122864 0.032471
0.145477 0.131042 0.027557
0.176941 0.136688 0.021271
0.210571 0.141602 0.014771
0.257751 0.147369 0.006226
0.300598 0.152771 0.004272
0.331421 0.157227 0.004089
0.359894 0.161896 0.003906
0.391144 0.168152 0.003723
0.422028 0.174347 0.003540
0.453644 0.182098 0.003326
0.482697 0.189514 0.003174
0.505981 0.196228 0.003021
0.525848 0.202209 0.002899
0.544464 0.207764 0.002777
0.561676 0.212921 0.002686
0.578094 0.217102 0.002594
0.593872 0.220459 0.002502
0.609253 0.223541 0.002411
0.623474 0.226715 0.002319
0.635986 0.230042 0.002258
0.648041 0.233154 0.002228
0.659332 0.235504 0.002167
0.670532 0.237152 0.002136
0.680725 0.234985 0.002197
0.690582 0.232086 0.002594
0.699554 0.227753 0.003387
0.708557 0.223389 0.004181
0.718658 0.221252 0.004822
0.729004 0.219238 0.005432
0.050873 0.118683 0.050507
0.067780 0.128113 0.043121
0.090973 0.136810 0.032623
0.123871 0.145905 0.027344
0.167053 0.156586 0.021667
0.203796 0.165527 0.015900
0.240662 0.171509 0.008575
0.276031 0.176483 0.004974
0.320770 0.183075 0.004150
0.352570 0.186920 0.003967
0.381042 0.192169 0.003784
0.409607 0.197937 0.003601
0.440521 0.205353 0.003448
0.471436 0.213257 0.003235
0.500946 0.221527 0.003052
0.525177 0.228699 0.002899
0.546021 0.235321 0.002777
0.566071 0.241302 0.002686
0.584137 0.246948 0.002563
0.600922 0.251740 0.002472
0.616852 0.255463 0.002350
0.632172 0.258850 0.002258
0.646332 0.261932 0.002167
0.658417 0.264679 0.002106
0.669739 0.266998 0.002014
0.680511 0.268219 0.001953
0.691162 0.269470 0.001892
0.701416 0.267853 0.001831
0.711578 0.264771 0.001770
0.720825 0.260284 0.001709
0.730225 0.255615 0.001770
0.741241 0.253540 0.001862
0.751892 0.251862 0.002197
0.061157 0.142029 0.047729
0.081879 0.153290 0.038239
0.108215 0.162811 0.026306
0.143677 0.172577 0.020599
0.186279 0.183258 0.015076
0.231873 0.195557 0.009613
0.271942 0.204926 0.005066
0.308594 0.210907 0.004242
0.343903 0.216309 0.004028
0.376587 0.220490 0.003815
0.404602 0.224365 0.003632
0.433319 0.230804 0.003479
0.461792 0.237488 0.003296
0.492615 0.246307 0.003113
0.521240 0.255096 0.002930
0.545502 0.262604 0.002777
0.566681 0.269135 0.002655
0.586945 0.275360 0.002533
0.605865 0.280823 0.002411
0.623169 0.285980 0.002319
0.639099 0.290436 0.002228
0.654694 0.294098 0.002136
0.669312 0.297241 0.002014
0.681396 0.299438 0.001953
0.692505 0.301147 0.001892
0.702454 0.301331 0.001831
0.712280 0.301056 0.001770
0.722046 0.299500 0.001709
0.731873 0.296997 0.001648
0.741425 0.292755 0.001587
0.750946 0.288361 0.001526
0.761292 0.285736 0.001465
0.772125 0.283905 0.001434
0.073822 0.166870 0.043762
0.096619 0.178436 0.033264
0.127686 0.189667 0.019714
0.163727 0.199280 0.014801
0.207520 0.210327 0.009399
0.251404 0.221466 0.005341
0.297821 0.233978 0.004303
0.336090 0.242615 0.004089
0.372284 0.248749 0.003845
0.401093 0.253784 0.003662
0.429535 0.257965 0.003510
0.457764 0.263184 0.003326
0.486481 0.269897 0.003143
0.513702 0.276550 0.002991
0.541962 0.285309 0.002808
0.565613 0.293274 0.002686
0.586884 0.300293 0.002533
0.607269 0.306519 0.002411
0.626770 0.312256 0.002289
0.644531 0.317596 0.002197
0.660461 0.322235 0.002106
0.675507 0.325714 0.002014
0.689606 0.328735 0.001923
0.701477 0.331055 0.001831
0.712158 0.332672 0.001770
0.722137 0.332703 0.001709
0.732452 0.332001 0.001648
0.742859 0.330109 0.001587
0.752625 0.327728 0.001526
0.761139 0.323425 0.001465
0.770111 0.318939 0.001434
0.778381 0.314362 0.001373
0.788635 0.311829 0.001343
0.088104 0.192841 0.039551
0.115143 0.205688 0.027588
0.148743 0.217834 0.013550
0.186432 0.227570 0.009033
0.229187 0.238037 0.005371
0.273254 0.249481 0.004456
0.320190 0.262115 0.004181
0.362457 0.272614 0.003906
0.399689 0.281189 0.003693
0.429138 0.286530 0.003479
0.455048 0.291016 0.003357
0.483398 0.296417 0.003174
0.511444 0.302063 0.002991
0.539093 0.308411 0.002808
0.563690 0.314423 0.002686
0.586945 0.322388 0.002533
0.607391 0.329803 0.002411
0.627777 0.336487 0.002289
0.647003 0.342133 0.002167
0.664978 0.347504 0.002075
0.681305 0.352417 0.001984
0.696228 0.355743 0.001892
0.709961 0.358490 0.001801
0.721466 0.360748 0.001709
0.731903 0.362488 0.001648
0.741547 0.362885 0.001587
0.751068 0.361938 0.001526
0.761414 0.359680 0.001465
0.771790 0.357147 0.001434
0.780579 0.352325 0.001373
0.788788 0.347717 0.001343
0.795746 0.342346 0.001282
0.803864 0.337830 0.001221
0.105316 0.220795 0.034698
0.134338 0.233826 0.022186
0.171600 0.246796 0.007721
0.209167 0.256012 0.005035
0.252472 0.266571 0.004578
0.295685 0.277466 0.004303
0.343201 0.290283 0.004028
0.387360 0.302673 0.003754
0.425323 0.311737 0.003540
0.457001 0.318756 0.003326
0.483673 0.323425 0.003174
0.507233 0.327057 0.003021
0.535675 0.333069 0.002838
0.562683 0.338318 0.002686
0.587738 0.344391 0.002533
0.608673 0.350433 0.002411
0.628937 0.357910 0.002289
0.648346 0.364685 0.002167
0.666962 0.370422 0.002045
0.684021 0.374603 0.001953
0.700043 0.378723 0.001862
0.714447 0.381744 0.001770
0.727997 0.384338 0.001678
0.739685 0.386749 0.001587
0.750183 0.388855 0.001526
0.760284 0.390198 0.001465
0.769623 0.389648 0.001434
0.778839 0.386383 0.001373
0.788422 0.382996 0.001312
0.796539 0.377380 0.001251
0.804718 0.372101 0.001221
0.811462 0.366638 0.001160
0.818329 0.361298 0.001129
0.123779 0.249481 0.029083
0.156006 0.262939 0.015350
0.194916 0.274933 0.005219
0.234741 0.284821 0.004700
0.276672 0.295074 0.004425
0.320496 0.306396 0.004181
0.365906 0.318176 0.003876
0.409698 0.330597 0.003601
0.451385 0.342438 0.003357
0.483459 0.349762 0.003174
0.512299 0.355957 0.002991
0.536591 0.359894 0.002838
0.559570 0.363373 0.002686
0.586914 0.368835 0.002533
0.610779 0.373108 0.002380
0.631531 0.378967 0.002289
0.649536 0.384125 0.002167
0.668732 0.390747 0.002045
0.686859 0.396637 0.001923
0.703705 0.400665 0.001831
0.718964 0.403442 0.001740
0.732758 0.406067 0.001648
0.745605 0.408142 0.001556
0.757141 0.410461 0.001495
0.767670 0.412415 0.001465
0.777618 0.414001 0.001404
0.787262 0.414703 0.001343
0.795898 0.411346 0.001282
0.804504 0.406952 0.001221
0.811707 0.400665 0.001160
0.818604 0.394409 0.001129
0.825928 0.388733 0.001099
0.832886 0.383148 0.001038
0.144714 0.278534 0.022522
0.178070 0.292206 0.008820
0.219666 0.302795 0.004761
0.259796 0.312958 0.004547
0.302338 0.323486 0.004272
0.344727 0.334717 0.004028
0.389343 0.346466 0.003754
0.430573 0.357910 0.003479
0.473389 0.370300 0.003204
0.509735 0.380524 0.003021
0.539276 0.386963 0.002808
0.564880 0.391754 0.002686
0.588379 0.395630 0.002533
0.611511 0.399078 0.002380
0.635773 0.403107 0.002258
0.654388 0.405762 0.002136
0.671844 0.410248 0.002014
0.687531 0.413574 0.001923
0.705017 0.419006 0.001831
0.721924 0.423981 0.001709
0.737518 0.427246 0.001617
0.751404 0.429718 0.001526
0.763794 0.431641 0.001495
0.774689 0.433258 0.001404
0.785004 0.434570 0.001343
0.794434 0.434937 0.001282
0.803680 0.435547 0.001221
0.811981 0.433380 0.001190
0.819855 0.429169 0.001129
0.826569 0.423035 0.001099
0.832825 0.416534 0.001038
0.839874 0.410553 0.001007
0.846924 0.404816 0.000977
0.166351 0.307068 0.015808
0.202271 0.319916 0.005066
0.243622 0.329834 0.004639
0.284637 0.339966 0.004395
0.327301 0.350555 0.004120
0.368164 0.361328 0.003876
0.410461 0.372742 0.003601
0.451447 0.383820 0.003357
0.491455 0.394714 0.003113
0.530029 0.405853 0.002899
0.564148 0.415070 0.002686
0.590118 0.420074 0.002533
0.614044 0.423920 0.002380
0.637512 0.427521 0.002228
0.659729 0.430695 0.002106
0.678467 0.432953 0.001984
0.693481 0.434540 0.001892
0.708252 0.437012 0.001801
0.722626 0.439514 0.001709
0.739105 0.444397 0.001617
0.754425 0.448456 0.001526
0.768494 0.451508 0.001434
0.781219 0.453766 0.001373
0.792114 0.455048 0.001312
0.801971 0.455719 0.001251
0.811005 0.454926 0.001190
0.819519 0.454071 0.001129
0.827393 0.452393 0.001068
0.834961 0.449402 0.001038
0.841492 0.444305 0.001007
0.847534 0.438019 0.000977
0.853638 0.431610 0.000916
0.860260 0.425507 0.000885
0.189453 0.334229 0.009308
0.226532 0.345062 0.004730
0.268036 0.355042 0.004486
0.308807 0.364807 0.004242
0.351135 0.375122 0.003967
0.389099 0.384705 0.003754
0.429779 0.395508 0.003479
0.469635 0.405914 0.003265
0.509064 0.416260 0.003021
0.543427 0.425354 0.002808
0.579956 0.435577 0.002594
0.609955 0.443024 0.002411
0.634430 0.447052 0.002258
0.656952 0.450134 0.002136
0.679382 0.453217 0.001984
0.698761 0.455597 0.001862
0.713440 0.457123 0.001770
0.727539 0.458557 0.001678
0.741516 0.460571 0.001617
0.756165 0.463898 0.001526
0.771332 0.468048 0.001434
0.784576 0.470886 0.001343
0.796875 0.473175 0.001282
0.807587 0.474152 0.001190
0.817688 0.474731 0.001160
0.826416 0.473846 0.001099
0.834747 0.472260 0.001038
0.842255 0.470093 0.000977
0.849609 0.467743 0.000946
0.856567 0.464081 0.000916
0.862762 0.458679 0.000854
0.867676 0.451599 0.000824
0.873138 0.445038 0.000793
0.213531 0.358978 0.004822
0.250427 0.368164 0.004608
0.291901 0.378082 0.004333
0.331512 0.387329 0.004089
0.373260 0.397278 0.003845
0.409271 0.406128 0.003601
0.447113 0.415741 0.003387
0.485718 0.425537 0.003143
0.524048 0.435120 0.002930
0.557434 0.443512 0.002716
0.589996 0.451782 0.002533
0.623413 0.460663 0.002319
0.650787 0.466644 0.002167
0.673767 0.469727 0.002014
0.694916 0.472260 0.001862
0.714111 0.474579 0.001770
0.731232 0.476410 0.001678
0.745300 0.478088 0.001587
0.758789 0.479584 0.001495
0.773346 0.482666 0.001404
0.787415 0.486053 0.001343
0.800323 0.488739 0.001251
0.811707 0.490479 0.001190
0.821991 0.491241 0.001129
0.831482 0.491486 0.001068
0.840942 0.491119 0.001007
0.849182 0.489594 0.000946
0.856598 0.487274 0.000885
0.863373 0.484802 0.000854
0.870544 0.481537 0.000824
0.877228 0.477539 0.000763
0.881195 0.470428 0.000763
0.885162 0.463104 0.000763
0.238007 0.380585 0.004669
0.274811 0.389618 0.004456
0.314911 0.399200 0.004181
0.353088 0.408142 0.003967
0.393066 0.417542 0.003723
0.428436 0.425903 0.003510
0.464447 0.434570 0.003265
0.500122 0.443573 0.003052
0.537384 0.452728 0.002838
0.570526 0.460815 0.002625
0.602203 0.468658 0.002441
0.633392 0.476074 0.002258
0.664551 0.483765 0.002075
0.689056 0.488037 0.001923
0.710205 0.490570 0.001801
0.729218 0.492676 0.001678
0.746216 0.494598 0.001587
0.761963 0.496246 0.001495
0.775726 0.498016 0.001404
0.789093 0.499542 0.001312
0.802948 0.502594 0.001221
0.814972 0.504333 0.001160
0.825867 0.505798 0.001068
0.834930 0.506470 0.001038
0.844025 0.506683 0.000977
0.853485 0.506653 0.000916
0.862274 0.505676 0.000854
0.869659 0.503632 0.000824
0.876343 0.500946 0.000793
0.883026 0.497009 0.000732
0.889954 0.493347 0.000702
0.893402 0.487091 0.000702
0.896545 0.479767 0.000671
0.262360 0.400604 0.004517
0.298065 0.409332 0.004303
0.337036 0.418488 0.004059
0.373169 0.427032 0.003845
0.411377 0.435974 0.003601
0.446594 0.443939 0.003387
0.481018 0.452026 0.003174
0.514587 0.460175 0.002991
0.549438 0.468658 0.002777
0.582275 0.476471 0.002563
0.613617 0.484131 0.002380
0.644379 0.491241 0.002197
0.674316 0.498199 0.002014
0.702911 0.504456 0.001831
0.724335 0.507477 0.001709
0.743286 0.509521 0.001617
0.760254 0.511169 0.001495
0.775970 0.512909 0.001404
0.790619 0.514374 0.001312
0.804230 0.516052 0.001221
0.816650 0.517456 0.001160
0.828583 0.519196 0.001068
0.838959 0.519867 0.001007
0.847321 0.520203 0.000977
0.855438 0.520325 0.000916
0.864624 0.520386 0.000854
0.873352 0.519989 0.000793
0.880157 0.518250 0.000763
0.886902 0.515900 0.000732
0.893738 0.511475 0.000671
0.900208 0.507050 0.000641
0.903778 0.501312 0.000641
0.906891 0.494873 0.000610
0.285309 0.419037 0.004364
0.319641 0.427399 0.004181
0.357361 0.436340 0.003937
0.392059 0.444366 0.003723
0.429108 0.452881 0.003510
0.464081 0.460571 0.003296
0.497528 0.468262 0.003082
0.528809 0.475525 0.002899
0.561646 0.483368 0.002686
0.593750 0.490814 0.002502
0.624756 0.498108 0.002319
0.654236 0.504822 0.002136
0.683716 0.511200 0.001953
0.711731 0.517334 0.001801
0.737030 0.522369 0.001617
0.756744 0.524811 0.001526
0.773682 0.526398 0.001404
0.788971 0.527832 0.001312
0.803741 0.529236 0.001221
0.817444 0.530426 0.001160
0.830139 0.531891 0.001068
0.841522 0.532928 0.000977
0.851715 0.533722 0.000946
0.859955 0.533844 0.000885
0.867554 0.533752 0.000824
0.875153 0.533295 0.000793
0.883209 0.532837 0.000763
0.889496 0.530914 0.000702
0.896271 0.528717 0.000671
0.902832 0.524750 0.000641
0.908569 0.519958 0.000610
0.912567 0.514191 0.000580
0.915955 0.508148 0.000549
0.306976 0.436066 0.004242
0.340515 0.444153 0.004028
0.376373 0.452637 0.003815
0.409821 0.460327 0.003601
0.445709 0.468475 0.003387
0.480286 0.475983 0.003174
0.513672 0.483276 0.002991
0.543091 0.489838 0.002808
0.573303 0.496643 0.002625
0.604218 0.503662 0.002411
0.634979 0.510559 0.002258
0.663818 0.516907 0.002075
0.692139 0.522949 0.001892
0.719910 0.528839 0.001740
0.745544 0.534515 0.001587
0.768494 0.538727 0.001434
0.786102 0.540649 0.001343
0.801453 0.542023 0.001251
0.815582 0.543121 0.001160
0.829224 0.544250 0.001068
0.842438 0.545197 0.001007
0.853821 0.546204 0.000916
0.863495 0.546661 0.000854
0.871948 0.546692 0.000793
0.879333 0.546387 0.000763
0.886353 0.545868 0.000732
0.892395 0.544891 0.000702
0.898682 0.542816 0.000641
0.904541 0.540222 0.000610
0.911011 0.536591 0.000580
0.916321 0.532104 0.000549
0.920776 0.526459 0.000519
0.924713 0.520660 0.000488
0.327515 0.452057 0.004120
0.359985 0.459747 0.003906
0.394104 0.467773 0.003723
0.427094 0.475189 0.003510
0.461639 0.482941 0.003296
0.494537 0.489990 0.003082
0.527435 0.496826 0.002899
0.556305 0.503052 0.002716
0.585236 0.509308 0.002533
0.614716 0.515686 0.002380
0.644806 0.522308 0.002197
0.672974 0.528503 0.002014
0.700500 0.534363 0.001862
0.727295 0.539978 0.001678
0.752747 0.545502 0.001526
0.777039 0.550629 0.001373
0.796631 0.553711 0.001282
0.812134 0.555023 0.001160
0.826080 0.556213 0.001099
0.839508 0.557068 0.001007
0.852753 0.558105 0.000916
0.865295 0.558838 0.000854
0.875275 0.559296 0.000793
0.882874 0.558716 0.000732
0.890198 0.558319 0.000702
0.896332 0.557190 0.000671
0.902191 0.556244 0.000610
0.907990 0.554047 0.000610
0.913605 0.551270 0.000580
0.918518 0.547699 0.000549
0.922943 0.543884 0.000519
0.927856 0.538544 0.000488
0.932587 0.532898 0.000458
0.345764 0.466705 0.003998
0.377411 0.473938 0.003815
0.410309 0.481354 0.003632
0.442596 0.488434 0.003418
0.476349 0.495789 0.003204
0.507782 0.502441 0.003021
0.539703 0.509186 0.002808
0.568024 0.515106 0.002655
0.596130 0.521088 0.002472
0.624908 0.527222 0.002319
0.653931 0.533447 0.002136
0.681519 0.539246 0.001953
0.708313 0.544861 0.001801
0.734070 0.550232 0.001648
0.758911 0.555450 0.001495
0.782745 0.560577 0.001343
0.804962 0.565125 0.001221
0.821533 0.567200 0.001099
0.835449 0.568237 0.001038
0.848846 0.569305 0.000946
0.861572 0.569885 0.000854
0.874268 0.570679 0.000793
0.886200 0.571228 0.000732
0.893860 0.570740 0.000671
0.900269 0.569489 0.000641
0.906067 0.568604 0.000610
0.911652 0.566986 0.000580
0.917206 0.564758 0.000549
0.922546 0.562286 0.000519
0.926544 0.558960 0.000488
0.930328 0.555206 0.000458
0.934143 0.550415 0.000427
0.939026 0.544861 0.000427
0.359650 0.478668 0.003937
0.390930 0.485626 0.003723
0.423767 0.493042 0.003540
0.455597 0.500031 0.003326
0.488525 0.507080 0.003143
0.519165 0.513367 0.002930
0.549896 0.519836 0.002747
0.578033 0.525696 0.002594
0.605530 0.531281 0.002411
0.633484 0.537140 0.002258
0.661469 0.542999 0.002075
0.688599 0.548615 0.001923
0.714722 0.554016 0.001770
0.739960 0.559235 0.001617
0.764191 0.564301 0.001465
0.787170 0.569153 0.001312
0.808899 0.573761 0.001190
0.828735 0.577789 0.001068
0.843323 0.579163 0.000977
0.856445 0.580048 0.000916
0.869141 0.580750 0.000824
0.881012 0.580811 0.000732
0.893036 0.581329 0.000671
0.903687 0.581360 0.000610
0.909515 0.580353 0.000580
0.915222 0.579071 0.000580
0.920807 0.577637 0.000519
0.926331 0.575439 0.000488
0.930939 0.572906 0.000458
0.934601 0.569946 0.000427
0.938446 0.566589 0.000427
0.941406 0.562042 0.000397
0.945404 0.556915 0.000366
0.371155 0.489380 0.003845
0.402008 0.496277 0.003662
0.434753 0.503479 0.003448
0.467010 0.510468 0.003265
0.499268 0.517090 0.003052
0.529022 0.523285 0.002899
0.558990 0.529388 0.002716
0.586945 0.535217 0.002533
0.614075 0.540619 0.002380
0.641174 0.546265 0.002197
0.668304 0.551880 0.002045
0.695038 0.557281 0.001892
0.720764 0.562622 0.001740
0.745514 0.567688 0.001587
0.769043 0.572571 0.001434
0.791229 0.577209 0.001312
0.812500 0.581665 0.001190
0.832214 0.585846 0.001068
0.850159 0.589264 0.000946
0.863678 0.590240 0.000854
0.875946 0.590820 0.000763
0.887665 0.591003 0.000702
0.899078 0.590912 0.000641
0.909363 0.590790 0.000580
0.918060 0.590759 0.000549
0.923859 0.589508 0.000519
0.929657 0.588135 0.000488
0.934723 0.585999 0.000427
0.938904 0.583618 0.000427
0.942657 0.580688 0.000397
0.946350 0.577454 0.000366
0.949341 0.573364 0.000366
0.952118 0.568909 0.000336
0.380280 0.498535 0.003784
0.410339 0.505188 0.003601
0.442657 0.512115 0.003418
0.475311 0.519196 0.003204
0.507477 0.525909 0.003021
0.537140 0.531982 0.002838
0.566650 0.537903 0.002655
0.594604 0.543732 0.002472
0.621613 0.549164 0.002319
0.648193 0.554871 0.002167
0.674866 0.560333 0.002014
0.701019 0.565552 0.001862
0.726257 0.570709 0.001709
0.750458 0.575684 0.001556
0.773590 0.580414 0.001404
0.795105 0.585052 0.001282
0.815979 0.589417 0.001160
0.835480 0.593628 0.001038
0.853851 0.597382 0.000916
0.870270 0.599976 0.000824
0.882660 0.600586 0.000732
0.894104 0.600586 0.000671
0.905243 0.600372 0.000610
0.914948 0.600037 0.000549
0.923584 0.599731 0.000519
0.932281 0.599609 0.000458
0.937897 0.598328 0.000427
0.942413 0.596436 0.000397
0.946533 0.594147 0.000366
0.950500 0.591553 0.000336
0.954132 0.588715 0.000336
0.957123 0.585083 0.000305
0.959137 0.580780 0.000275
0.388885 0.507355 0.003754
0.418671 0.513763 0.003540
0.449738 0.520386 0.003357
0.482697 0.527374 0.003174
0.515137 0.534302 0.002960
0.544922 0.540466 0.002777
0.574219 0.546356 0.002625
0.601685 0.551971 0.002441
0.628754 0.557343 0.002289
0.654938 0.562958 0.002106
0.681335 0.568512 0.001953
0.707123 0.573700 0.001831
0.731720 0.578674 0.001648
0.755402 0.583588 0.001526
0.777985 0.588318 0.001373
0.799072 0.592804 0.001251
0.819366 0.597229 0.001129
0.838776 0.601318 0.001007
0.857391 0.604950 0.000885
0.874573 0.608337 0.000793
0.888947 0.610077 0.000702
0.900452 0.610199 0.000641
0.911072 0.609741 0.000580
0.920319 0.609406 0.000519
0.929260 0.608948 0.000458
