滤镜资源/Professional Luts Collection/Lutify.me Professional/Cine Looks/Selenite.cube
# Created by: Lutify.me
# Copyright: (c) Copyright Lutify.me 2015
# Website: https://lutify.me
#LUT size
LUT_3D_SIZE 33
#LUT data points
0.020203 0.049591 0.051300
0.028442 0.051208 0.050140
0.041870 0.052246 0.047363
0.059509 0.054810 0.045258
0.081024 0.058136 0.044128
0.099945 0.060944 0.043671
0.118988 0.063446 0.042969
0.136993 0.064972 0.041840
0.154877 0.066406 0.040619
0.172333 0.068237 0.040039
0.189209 0.070038 0.039520
0.205444 0.071564 0.039001
0.220978 0.072540 0.038452
0.236084 0.073273 0.038025
0.250488 0.073975 0.037598
0.264771 0.074493 0.037384
0.278351 0.075012 0.037323
0.291473 0.075562 0.037354
0.303802 0.075958 0.037415
0.315491 0.075958 0.037292
0.326813 0.075958 0.037323
0.337952 0.076416 0.037476
0.348816 0.077087 0.037567
0.359589 0.078461 0.037964
0.370270 0.079865 0.038391
0.381866 0.081360 0.038696
0.393555 0.082764 0.038971
0.405426 0.083649 0.039093
0.417267 0.084442 0.039185
0.429504 0.084808 0.039154
0.441620 0.085327 0.039185
0.452423 0.086395 0.039520
0.463501 0.087341 0.039642
0.018555 0.053802 0.052216
0.030579 0.059479 0.052002
0.046509 0.060455 0.047211
0.068146 0.063904 0.045044
0.092468 0.067871 0.043579
0.112976 0.071045 0.043030
0.133575 0.074066 0.041931
0.154419 0.076599 0.040436
0.173859 0.078308 0.039612
0.192322 0.079987 0.038971
0.210205 0.081909 0.038452
0.227844 0.083496 0.037811
0.244934 0.085114 0.037262
0.261475 0.086548 0.036926
0.276642 0.087494 0.036682
0.290131 0.088165 0.036652
0.303040 0.088898 0.036652
0.315735 0.089905 0.036713
0.328308 0.090698 0.036682
0.340057 0.091125 0.036652
0.351349 0.091278 0.036621
0.362518 0.091522 0.036621
0.373108 0.092163 0.036682
0.383484 0.093536 0.036957
0.393921 0.095428 0.037292
0.404358 0.096985 0.037628
0.415375 0.098633 0.037842
0.425964 0.099304 0.037964
0.437500 0.100403 0.038055
0.449310 0.100464 0.038086
0.461456 0.100830 0.038269
0.471680 0.101562 0.038635
0.482666 0.102478 0.039001
0.016632 0.058777 0.052765
0.028442 0.064880 0.052612
0.049835 0.072357 0.045807
0.075653 0.074829 0.044556
0.105072 0.079712 0.042389
0.128113 0.083527 0.041412
0.151581 0.086823 0.040070
0.174652 0.089813 0.038086
0.198181 0.092896 0.037170
0.217499 0.095581 0.036804
0.235992 0.098053 0.036713
0.254089 0.100067 0.036316
0.271210 0.102112 0.036438
0.288422 0.103790 0.036102
0.304321 0.105255 0.035889
0.317993 0.106171 0.035828
0.330444 0.106903 0.035736
0.342804 0.107910 0.035706
0.354523 0.108795 0.035675
0.365936 0.109222 0.035553
0.377258 0.109589 0.035461
0.388123 0.109924 0.035370
0.398743 0.110596 0.035370
0.408691 0.111969 0.035553
0.418640 0.113647 0.035919
0.428467 0.115234 0.036224
0.438538 0.117004 0.036407
0.448486 0.117920 0.036560
0.458649 0.118561 0.036804
0.469696 0.119049 0.037170
0.481018 0.119629 0.037506
0.491577 0.120575 0.037872
0.502258 0.121704 0.038361
0.015503 0.064850 0.053009
0.025940 0.071686 0.052399
0.045776 0.082825 0.046326
0.085907 0.089569 0.041626
0.118317 0.093964 0.039642
0.144348 0.098114 0.038574
0.170654 0.101746 0.036896
0.196625 0.104950 0.035217
0.221924 0.108307 0.034119
0.244171 0.111572 0.033875
0.264618 0.114471 0.034027
0.283386 0.116913 0.033966
0.300903 0.119080 0.034119
0.317505 0.120697 0.033813
0.333160 0.122620 0.033569
0.346985 0.124512 0.033600
0.359131 0.125946 0.033600
0.371094 0.127197 0.033539
0.382141 0.128113 0.033691
0.391968 0.128632 0.034149
0.402374 0.128937 0.033905
0.412750 0.129456 0.033722
0.422852 0.130402 0.033722
0.432648 0.132080 0.033997
0.442474 0.134186 0.034393
0.451935 0.136047 0.034821
0.461517 0.137726 0.035187
0.470825 0.138336 0.035645
0.480591 0.139099 0.035980
0.489960 0.138977 0.036377
0.501068 0.139587 0.036835
0.511353 0.140350 0.037262
0.521973 0.141907 0.037689
0.014740 0.072723 0.054260
0.023773 0.080841 0.053436
0.042786 0.093079 0.052216
0.084564 0.105103 0.036682
0.132202 0.111450 0.035858
0.160461 0.115265 0.034821
0.189606 0.119171 0.033752
0.218628 0.122833 0.031891
0.246429 0.126282 0.030823
0.270172 0.129974 0.030884
0.292419 0.133545 0.031006
0.313385 0.136169 0.030518
0.332611 0.138672 0.030579
0.349854 0.140533 0.030151
0.365540 0.142181 0.029846
0.379639 0.144135 0.029877
0.392548 0.145905 0.030029
0.404327 0.147552 0.030396
0.415680 0.148804 0.030151
0.424377 0.149506 0.030792
0.433289 0.149689 0.030579
0.442230 0.150391 0.030701
0.451416 0.151550 0.030823
0.459961 0.153656 0.031677
0.469330 0.155884 0.032043
0.478943 0.157898 0.032349
0.487610 0.160126 0.033478
0.496704 0.161285 0.033630
0.505798 0.162354 0.033844
0.514160 0.162506 0.034821
0.522552 0.162933 0.036072
0.532257 0.163269 0.036560
0.542267 0.164276 0.036987
0.014496 0.081146 0.056824
0.022430 0.089813 0.055756
0.041229 0.103027 0.055939
0.082581 0.120178 0.031433
0.139526 0.128601 0.030182
0.177246 0.133545 0.031097
0.208679 0.137726 0.029419
0.242432 0.142365 0.028107
0.272491 0.145721 0.026672
0.295471 0.148193 0.026550
0.317749 0.152039 0.027252
0.338867 0.154907 0.026947
0.359131 0.157593 0.026794
0.377899 0.160278 0.026947
0.394714 0.162109 0.026489
0.408264 0.163727 0.026733
0.421509 0.165314 0.026245
0.433716 0.166931 0.026031
0.444763 0.168396 0.026398
0.454865 0.169281 0.026611
0.464233 0.169708 0.026794
0.473236 0.170532 0.027161
0.481842 0.171722 0.027740
0.490662 0.173431 0.027954
0.499115 0.175720 0.028931
0.507080 0.177673 0.029907
0.516663 0.179504 0.030182
0.526001 0.180908 0.030609
0.534668 0.182220 0.031586
0.543060 0.182922 0.032410
0.551880 0.183136 0.032745
0.558441 0.183197 0.033569
0.567719 0.183990 0.033844
0.014252 0.089966 0.059692
0.022491 0.099945 0.058319
0.039551 0.114227 0.057617
0.077606 0.134949 0.034668
0.139923 0.147400 0.025116
0.189026 0.153259 0.025543
0.229401 0.158478 0.024445
0.264954 0.163391 0.022919
0.300171 0.167847 0.021942
0.323822 0.170471 0.022186
0.344482 0.172607 0.022064
0.365936 0.175323 0.022003
0.386322 0.177765 0.021820
0.405579 0.180786 0.022064
0.423187 0.183319 0.022064
0.437439 0.185028 0.022339
0.450226 0.186462 0.022369
0.462128 0.188171 0.022797
0.473175 0.189545 0.022980
0.483887 0.190674 0.023346
0.494141 0.191376 0.023376
0.503357 0.192352 0.024109
0.512970 0.193573 0.024323
0.522034 0.195312 0.024658
0.530762 0.197449 0.025299
0.538483 0.199158 0.026215
0.547333 0.200684 0.026611
0.556610 0.201874 0.026947
0.565735 0.203094 0.027710
0.573883 0.203735 0.029083
0.582184 0.204102 0.029938
0.589203 0.203583 0.030212
0.594574 0.203918 0.032135
0.014221 0.099152 0.061646
0.022675 0.111359 0.059387
0.041046 0.127106 0.058105
0.078552 0.151520 0.035614
0.142548 0.167542 0.014435
0.200348 0.176788 0.013794
0.248932 0.182373 0.017242
0.291534 0.187958 0.016754
0.328003 0.192200 0.015930
0.351807 0.193848 0.016968
0.373627 0.196014 0.016724
0.393433 0.198120 0.016968
0.414215 0.200623 0.016937
0.434540 0.203186 0.016418
0.452271 0.205841 0.016754
0.466309 0.207520 0.017303
0.477905 0.209015 0.018738
0.489594 0.210358 0.019226
0.501526 0.211670 0.019165
0.512543 0.213043 0.020081
0.523193 0.214081 0.020569
0.533508 0.214661 0.020599
0.542877 0.215912 0.021271
0.551636 0.217682 0.021973
0.560638 0.219543 0.022369
0.569611 0.220856 0.022491
0.577423 0.222534 0.023651
0.587219 0.223511 0.023590
0.595978 0.224792 0.024811
0.604370 0.225464 0.025848
0.613525 0.225677 0.026184
0.618744 0.225525 0.027863
0.625519 0.224731 0.028137
0.014313 0.108337 0.063324
0.021149 0.122314 0.060516
0.042389 0.140869 0.058319
0.081848 0.167297 0.035522
0.147369 0.187927 0.005951
0.205750 0.198792 0.007050
0.269196 0.208984 0.006714
0.315704 0.214264 0.009705
0.358551 0.219208 0.009644
0.382996 0.220734 0.010468
0.402618 0.221161 0.011688
0.423309 0.223145 0.012177
0.442871 0.224823 0.011871
0.462311 0.227386 0.012390
0.480408 0.229767 0.012390
0.494904 0.231506 0.012939
0.507019 0.232574 0.013611
0.519165 0.233765 0.013794
0.530029 0.235138 0.015076
0.541504 0.236359 0.015717
0.552521 0.237671 0.016541
0.562561 0.238708 0.017853
0.572723 0.239868 0.018372
0.582642 0.241425 0.018677
0.591125 0.243225 0.019409
0.599182 0.244446 0.020508
0.608002 0.245575 0.020782
0.616852 0.246796 0.021393
0.626709 0.247650 0.021393
0.634674 0.248199 0.022614
0.643494 0.248657 0.023438
0.649506 0.248169 0.024963
0.656494 0.247284 0.024994
0.014496 0.117401 0.065094
0.021118 0.133087 0.061890
0.043182 0.153961 0.059021
0.085510 0.182861 0.036346
0.156250 0.206055 0.005249
0.214539 0.218750 0.004669
0.279907 0.230042 0.004425
0.338837 0.239075 0.004456
0.382996 0.244324 0.004364
0.413422 0.247192 0.004425
0.433594 0.247528 0.005707
0.452942 0.247864 0.006195
0.472504 0.249481 0.007050
0.489685 0.250610 0.007538
0.507446 0.252899 0.007996
0.522125 0.254730 0.008392
0.534088 0.256042 0.009644
0.545319 0.257263 0.011017
0.557098 0.258331 0.011292
0.568970 0.259308 0.011688
0.579926 0.260529 0.012878
0.590973 0.261444 0.013489
0.601654 0.262451 0.014191
0.611237 0.264435 0.015472
0.620758 0.266296 0.016083
0.629211 0.267700 0.017151
0.636932 0.269135 0.019226
0.646301 0.270172 0.019348
0.655487 0.271088 0.019958
0.664337 0.270844 0.019653
0.671875 0.271423 0.021698
0.679413 0.270142 0.021454
0.685303 0.269409 0.022766
0.014709 0.126556 0.066833
0.021088 0.143463 0.063202
0.043732 0.167114 0.059784
0.088684 0.197662 0.037201
0.165039 0.223816 0.005096
0.224945 0.238007 0.004578
0.290558 0.250763 0.004333
0.356873 0.262115 0.003937
0.405121 0.269379 0.003662
0.436401 0.272369 0.003418
0.462067 0.274445 0.003235
0.482361 0.274475 0.003052
0.500824 0.274536 0.003052
0.519104 0.275360 0.003357
0.533722 0.276123 0.004822
0.548126 0.277924 0.005371
0.560455 0.279510 0.006226
0.572144 0.280579 0.007141
0.583069 0.281677 0.009003
0.594849 0.282715 0.009644
0.606415 0.283569 0.010132
0.617767 0.284271 0.010712
0.628052 0.285583 0.012421
0.638885 0.287415 0.012634
0.647888 0.289673 0.014221
0.657471 0.291016 0.014648
0.665985 0.292328 0.015930
0.675018 0.293213 0.017029
0.683899 0.294189 0.018402
0.691803 0.293884 0.018921
0.699097 0.293793 0.020599
0.706512 0.292206 0.020325
0.712250 0.291199 0.021912
0.014923 0.135712 0.068390
0.021179 0.153687 0.064209
0.043976 0.179382 0.060577
0.091431 0.211975 0.038239
0.171783 0.240479 0.005219
0.233551 0.255890 0.004547
0.300262 0.269958 0.004211
0.366028 0.282593 0.003876
0.424408 0.292267 0.003510
0.458588 0.296661 0.003204
0.484619 0.298706 0.003021
0.507660 0.300537 0.002838
0.526825 0.300415 0.002716
0.544403 0.300018 0.002533
0.560638 0.300415 0.002441
0.573730 0.300598 0.002319
0.585724 0.301971 0.003571
0.597198 0.303314 0.004913
0.608307 0.304199 0.006256
0.619720 0.304962 0.007690
0.631104 0.305634 0.008759
0.642090 0.306213 0.009613
0.652710 0.307312 0.011108
0.663239 0.309357 0.012329
0.673187 0.311859 0.013428
0.682617 0.313843 0.014618
0.690674 0.315155 0.016418
0.700439 0.315033 0.015961
0.708618 0.315521 0.017639
0.717529 0.314423 0.017456
0.725342 0.313782 0.018524
0.731384 0.312347 0.019653
0.737122 0.311066 0.021179
0.015259 0.144958 0.069763
0.021667 0.163483 0.065002
0.044861 0.191406 0.061035
0.093170 0.225372 0.039917
0.175995 0.256012 0.005219
0.241364 0.272949 0.004456
0.308105 0.288239 0.004150
0.374634 0.301453 0.003784
0.437653 0.313202 0.003357
0.477203 0.319244 0.003082
0.506226 0.322510 0.002838
0.529633 0.324219 0.002655
0.551880 0.326141 0.002502
0.569855 0.325531 0.002319
0.584839 0.324493 0.002197
0.598022 0.324432 0.002075
0.609497 0.324188 0.001984
0.621643 0.325226 0.002319
0.632660 0.326660 0.004700
0.644562 0.327423 0.006287
0.655975 0.327942 0.007690
0.666260 0.328339 0.009186
0.676178 0.329010 0.010712
0.686768 0.330933 0.011963
0.697388 0.333099 0.012787
0.706604 0.335175 0.014404
0.715790 0.336823 0.015533
0.724426 0.336792 0.016296
0.732330 0.336456 0.017548
0.740051 0.335083 0.018341
0.747803 0.333740 0.019012
0.755493 0.331940 0.019318
0.762207 0.330200 0.019897
0.015656 0.154175 0.070740
0.021729 0.173584 0.065491
0.046204 0.203369 0.061096
0.094666 0.238586 0.040436
0.179169 0.270752 0.005310
0.247406 0.288574 0.004425
0.313599 0.304840 0.004120
0.380249 0.318939 0.003754
0.443878 0.331299 0.003296
0.495300 0.341370 0.002899
0.525818 0.345337 0.002686
0.550446 0.347870 0.002502
0.572998 0.349487 0.002258
0.595093 0.351135 0.002075
0.610260 0.349823 0.001953
0.621094 0.347839 0.001862
0.632019 0.347168 0.001770
0.642059 0.346039 0.001678
0.655334 0.347229 0.002045
0.667999 0.349121 0.004944
0.679413 0.350037 0.007721
0.689453 0.350586 0.009674
0.699463 0.351135 0.011139
0.709595 0.352478 0.012207
0.719849 0.354218 0.013275
0.729126 0.355225 0.014252
0.738068 0.356659 0.015717
0.746887 0.357025 0.016663
0.755127 0.356445 0.017426
0.762909 0.355042 0.018097
0.769958 0.353516 0.019226
0.777039 0.351746 0.020233
0.784393 0.350128 0.020782
0.016052 0.163452 0.071442
0.021423 0.183105 0.065765
0.046875 0.214355 0.061066
0.094971 0.250305 0.041779
0.179504 0.283966 0.005310
0.250031 0.301514 0.004364
0.315002 0.319031 0.004089
0.380493 0.333435 0.003723
0.445068 0.346710 0.003265
0.499298 0.357513 0.002869
0.541992 0.365875 0.002533
0.567291 0.368683 0.002350
0.589966 0.370667 0.002136
0.612305 0.372467 0.001953
0.634216 0.374176 0.001740
0.645020 0.371796 0.001648
0.653534 0.369293 0.001556
0.663361 0.367676 0.001465
0.673950 0.366791 0.002075
0.688354 0.369049 0.004181
0.701904 0.370697 0.006226
0.712067 0.371429 0.009033
0.721497 0.372437 0.011871
0.732086 0.373566 0.012604
0.741730 0.374695 0.014069
0.750732 0.375061 0.015076
0.759125 0.375580 0.016510
0.768127 0.376038 0.017456
0.777405 0.375763 0.017639
0.785126 0.374847 0.018921
0.792267 0.373199 0.019653
0.798859 0.370972 0.020660
0.805908 0.369202 0.021423
0.016541 0.172516 0.072418
0.021576 0.191711 0.066223
0.046356 0.224060 0.061218
0.093536 0.259399 0.044891
0.175232 0.295166 0.005707
0.247040 0.311676 0.004395
0.311981 0.329742 0.004089
0.374054 0.344086 0.003754
0.437622 0.357452 0.003326
0.495514 0.369659 0.002930
0.544067 0.379089 0.002533
0.578033 0.385406 0.002228
0.601135 0.387512 0.002014
0.622742 0.389465 0.001831
0.644958 0.391205 0.001648
0.666046 0.393188 0.001434
0.675049 0.390472 0.001343
0.683807 0.388184 0.001282
0.693451 0.387207 0.002594
0.706573 0.388062 0.004303
0.720245 0.390137 0.007324
0.731720 0.391235 0.009766
0.742676 0.391693 0.011169
0.752960 0.392914 0.013336
0.762482 0.394012 0.015259
0.770874 0.394196 0.017029
0.779633 0.394165 0.017639
0.788757 0.394165 0.018127
0.797363 0.394318 0.019775
0.806458 0.393951 0.020325
0.814453 0.392670 0.020782
0.820190 0.389679 0.021362
0.826508 0.387421 0.022247
0.017120 0.181366 0.073547
0.021667 0.199860 0.066864
0.045197 0.232422 0.061493
0.091003 0.266418 0.048462
0.167206 0.304443 0.006500
0.240540 0.320160 0.004425
0.304901 0.337738 0.004150
0.364471 0.352600 0.003784
0.425476 0.365540 0.003387
0.483704 0.377930 0.002991
0.537872 0.389191 0.002563
0.579620 0.396790 0.002228
0.608124 0.401886 0.002014
0.630096 0.403839 0.001770
0.651733 0.405731 0.001556
0.673218 0.407654 0.001343
0.693878 0.409851 0.001221
0.702606 0.407440 0.001434
0.711212 0.406006 0.003540
0.724182 0.406647 0.004791
0.737122 0.407990 0.007782
0.748932 0.408905 0.010468
0.760071 0.409637 0.012695
0.771301 0.410461 0.014282
0.781738 0.411621 0.016174
0.790649 0.411926 0.017944
0.798523 0.412048 0.020233
0.807953 0.411835 0.020142
0.816101 0.411682 0.021362
0.826019 0.411041 0.021057
0.834717 0.410614 0.022247
0.839996 0.407593 0.022949
0.845062 0.404572 0.023926
0.017609 0.189941 0.074646
0.021698 0.207520 0.067566
0.043274 0.239746 0.061981
0.087616 0.271942 0.053253
0.157196 0.312164 0.007477
0.230713 0.327850 0.004425
0.296265 0.344269 0.004150
0.353851 0.359680 0.003876
0.412628 0.372894 0.003479
0.469482 0.384979 0.003082
0.524719 0.396729 0.002686
0.574463 0.406494 0.002258
0.611328 0.413483 0.001953
0.636780 0.417542 0.001709
0.658569 0.419647 0.001526
0.679535 0.421753 0.001343
0.700500 0.423859 0.001129
0.720337 0.425812 0.001526
0.728363 0.424316 0.004578
0.739441 0.423615 0.006195
0.752045 0.424835 0.009491
0.763306 0.424774 0.011444
0.774414 0.425323 0.013916
0.785828 0.426514 0.016937
0.797119 0.427612 0.018341
0.808228 0.428253 0.019318
0.817139 0.428619 0.020813
0.825836 0.428741 0.022217
0.834106 0.428467 0.023407
0.842438 0.426910 0.023315
0.851776 0.426056 0.023438
0.857788 0.423615 0.023895
0.863068 0.420349 0.024170
0.018158 0.198090 0.075775
0.021637 0.214600 0.068420
0.040680 0.245911 0.062500
0.082581 0.275604 0.057953
0.143982 0.317200 0.013123
0.215027 0.334229 0.004486
0.283722 0.349030 0.004211
0.340424 0.364563 0.003937
0.396545 0.378479 0.003601
0.452026 0.390564 0.003235
0.507111 0.402435 0.002808
0.558472 0.413055 0.002441
0.606018 0.422180 0.002014
0.639557 0.428802 0.001709
0.663696 0.432617 0.001495
0.685181 0.434875 0.001251
0.706390 0.437103 0.001099
0.726501 0.439209 0.001343
0.744568 0.441742 0.005524
0.754852 0.441071 0.008789
0.765930 0.440674 0.011414
0.776581 0.440521 0.014099
0.786987 0.440338 0.016663
0.799347 0.441223 0.018219
0.810486 0.442413 0.021118
0.821960 0.443268 0.022217
0.833344 0.443634 0.022186
0.841736 0.444000 0.024261
0.850891 0.443756 0.024780
0.858063 0.441742 0.025391
0.865631 0.439972 0.025391
0.873535 0.437500 0.024139
0.878601 0.434967 0.025726
0.018616 0.205780 0.076935
0.021454 0.220886 0.069611
0.037903 0.250610 0.063354
0.074219 0.279266 0.059143
0.128540 0.317139 0.026947
0.192383 0.339386 0.004547
0.263489 0.352966 0.004303
0.321899 0.367218 0.004028
0.377136 0.381653 0.003723
0.430389 0.394043 0.003357
0.484344 0.405701 0.003021
0.535767 0.417084 0.002625
0.585663 0.427216 0.002228
0.632660 0.436371 0.001801
0.664856 0.442871 0.001465
0.688660 0.446808 0.001251
0.710022 0.449066 0.001038
0.731598 0.451569 0.001068
0.750244 0.454102 0.004913
0.768860 0.457245 0.010590
0.779358 0.456604 0.013947
0.789612 0.455872 0.016602
0.800262 0.455444 0.018188
0.811188 0.456085 0.021393
0.823700 0.456818 0.022308
0.835052 0.457092 0.023590
0.846161 0.457550 0.024628
0.856201 0.457153 0.024902
0.865112 0.456818 0.025574
0.871857 0.454834 0.026215
0.878143 0.452637 0.027283
0.885742 0.450287 0.026733
0.893433 0.447540 0.025452
0.019012 0.212982 0.078003
0.021210 0.226471 0.070831
0.035370 0.254120 0.064636
0.064789 0.281738 0.060455
0.113220 0.314423 0.041321
0.167419 0.342987 0.006439
0.237183 0.356628 0.004395
0.298859 0.368927 0.004150
0.354706 0.382904 0.003845
0.407684 0.396332 0.003540
0.460022 0.408112 0.003204
0.510986 0.419556 0.002838
0.561859 0.430573 0.002441
0.611877 0.440857 0.001984
0.657684 0.449829 0.001587
0.688812 0.456329 0.001282
0.713013 0.460144 0.001038
0.735138 0.462769 0.000824
0.755219 0.465820 0.004150
0.774353 0.468964 0.009888
0.792847 0.472229 0.016083
0.801849 0.471436 0.020325
0.812164 0.470367 0.021912
0.824280 0.470734 0.023254
0.835297 0.471436 0.026398
0.846100 0.471222 0.027710
0.857300 0.470795 0.028198
0.867859 0.469879 0.027405
0.877136 0.468658 0.027069
0.883789 0.466797 0.028168
0.891174 0.464447 0.027344
0.898376 0.462250 0.027954
0.904816 0.459869 0.028046
0.019409 0.219940 0.079041
0.020966 0.231445 0.072174
0.032593 0.256927 0.066223
0.055054 0.283173 0.061859
0.098236 0.310333 0.054352
0.144745 0.341553 0.019043
0.211090 0.359833 0.004486
0.273651 0.370789 0.004272
0.330597 0.383728 0.003967
0.384155 0.397400 0.003693
0.436493 0.410309 0.003387
0.487640 0.421967 0.003021
0.538849 0.433594 0.002594
0.590515 0.444702 0.002136
0.639435 0.454651 0.001740
0.683472 0.463318 0.001343
0.714233 0.469879 0.001068
0.739166 0.473816 0.000793
0.760010 0.476685 0.003143
0.777985 0.480255 0.010773
0.797638 0.483276 0.015198
0.815521 0.486725 0.022339
0.824127 0.485809 0.026733
0.835022 0.484772 0.027405
0.847046 0.484802 0.028259
0.856049 0.483917 0.030914
0.866791 0.483185 0.031586
0.878204 0.481964 0.030701
0.888153 0.480530 0.028992
0.896301 0.478302 0.028198
0.902679 0.476379 0.029144
0.911133 0.473846 0.028290
0.917084 0.471802 0.029266
0.019745 0.226532 0.080475
0.020935 0.236786 0.073395
0.030640 0.260376 0.067810
0.048981 0.285187 0.063202
0.085327 0.308960 0.059418
0.126251 0.337219 0.035004
0.184845 0.362305 0.005615
0.246582 0.373169 0.004333
0.307098 0.384583 0.004089
0.361664 0.398285 0.003845
0.414703 0.411865 0.003540
0.466614 0.424255 0.003143
0.517944 0.436127 0.002747
0.569824 0.447754 0.002350
0.621124 0.458893 0.001923
0.668457 0.468475 0.001495
0.709991 0.476898 0.001099
0.741272 0.483612 0.000793
0.763824 0.487305 0.002533
0.783325 0.490570 0.008179
0.800720 0.493866 0.015961
0.819244 0.497192 0.021606
0.835785 0.500427 0.030609
0.845947 0.499176 0.031860
0.856689 0.497833 0.031952
0.866516 0.496399 0.032715
0.875793 0.495056 0.034637
0.887299 0.493561 0.032928
0.897308 0.492157 0.031616
0.906677 0.489960 0.029938
0.914612 0.487671 0.029510
0.920837 0.485504 0.030365
0.928528 0.483185 0.029877
0.020050 0.232513 0.082642
0.020996 0.242310 0.074738
0.029968 0.264954 0.069183
0.045746 0.288574 0.064392
0.076813 0.311035 0.060760
0.113831 0.334381 0.047211
0.162476 0.363129 0.010590
0.221649 0.375916 0.004425
0.283356 0.386200 0.004211
0.342499 0.399292 0.003906
0.397583 0.413239 0.003601
0.450409 0.426422 0.003265
0.501770 0.438202 0.002899
0.553192 0.449921 0.002502
0.604950 0.461456 0.002045
0.654449 0.472748 0.001617
0.699310 0.481781 0.001190
0.738190 0.490295 0.000854
0.767120 0.496826 0.001831
0.786011 0.500214 0.008240
0.804749 0.503265 0.013763
0.821655 0.506256 0.021698
0.838715 0.509644 0.029266
0.855286 0.511719 0.035126
0.865448 0.510284 0.036072
0.874817 0.508667 0.037445
0.885040 0.506836 0.037079
0.895569 0.505371 0.036041
0.906097 0.503662 0.033722
0.915131 0.502045 0.034149
0.925079 0.499603 0.031158
0.931366 0.496613 0.030731
0.937164 0.494476 0.031708
0.020386 0.238190 0.085022
0.021393 0.247772 0.077087
0.029602 0.269348 0.070740
0.043518 0.292297 0.065826
0.070618 0.313965 0.062134
0.105194 0.333618 0.055298
0.145966 0.360535 0.024872
0.197693 0.378296 0.004486
0.258087 0.388397 0.004303
0.321838 0.400208 0.004028
0.380737 0.414459 0.003723
0.435272 0.428162 0.003357
0.487732 0.440369 0.002991
0.538452 0.451874 0.002625
0.589111 0.463257 0.002197
0.638824 0.475159 0.001740
0.686798 0.486023 0.001343
0.729095 0.494720 0.000916
0.763977 0.503571 0.002411
0.787628 0.509613 0.010132
0.806091 0.512634 0.015717
0.824127 0.515320 0.021393
0.840210 0.518188 0.029694
0.856964 0.520416 0.035004
0.873627 0.521759 0.038879
0.883057 0.520142 0.040588
0.893036 0.518463 0.040894
0.903687 0.516724 0.038422
0.913788 0.515045 0.036926
0.924500 0.513184 0.034790
0.933014 0.511475 0.035065
0.940918 0.508209 0.032257
0.946960 0.505066 0.031799
0.020660 0.243530 0.087402
0.021545 0.252319 0.080048
0.028381 0.272034 0.073425
0.040955 0.293854 0.067780
0.063751 0.315399 0.063873
0.094727 0.332275 0.060791
0.130493 0.356445 0.038239
0.173523 0.378540 0.008667
0.232086 0.390167 0.004395
0.298065 0.401276 0.004150
0.360809 0.415161 0.003845
0.419098 0.429169 0.003448
0.474060 0.441986 0.003082
0.523834 0.453583 0.002747
0.572845 0.464996 0.002350
0.620728 0.476807 0.001923
0.668884 0.488464 0.001495
0.715820 0.498871 0.001068
0.755615 0.507874 0.001862
0.786041 0.516724 0.009003
0.808105 0.521332 0.014801
0.825500 0.523804 0.020691
0.842560 0.526245 0.026825
0.859070 0.528320 0.032776
0.875244 0.530182 0.038025
0.890320 0.531128 0.042175
0.899261 0.529419 0.044434
0.909851 0.527832 0.042572
0.920593 0.526031 0.039581
0.931580 0.523376 0.036499
0.939789 0.521729 0.035431
0.948242 0.519470 0.033936
0.955170 0.516113 0.033081
0.020935 0.248688 0.089752
0.021759 0.257050 0.082855
0.026886 0.273895 0.076477
0.037964 0.295044 0.070557
0.057495 0.316162 0.065674
0.084351 0.332703 0.062592
0.117584 0.352081 0.050507
0.154053 0.375061 0.022583
0.206329 0.391693 0.004486
0.272583 0.402985 0.004272
0.338959 0.415680 0.003937
0.400208 0.430237 0.003601
0.458923 0.443573 0.003204
0.511444 0.455444 0.002838
0.558838 0.467010 0.002441
0.605438 0.479004 0.002075
0.652039 0.490570 0.001648
0.699677 0.501923 0.001282
0.745026 0.512238 0.000793
0.778961 0.521240 0.008026
0.806671 0.529205 0.016388
0.826813 0.532806 0.021637
0.843994 0.534729 0.027161
0.860626 0.536865 0.032288
0.877350 0.538544 0.036896
