滤镜资源/Professional Luts Collection/Lutify.me Professional/Cine Looks/Selenite.cube
# Created by: Lutify.me
# Copyright: (c) Copyright Lutify.me 2015
# Website: https://lutify.me
#LUT size
LUT_3D_SIZE 5
#LUT data points
0.020203 0.049591 0.051300
0.154877 0.066406 0.040619
0.278351 0.075012 0.037323
0.370270 0.079865 0.038391
0.463501 0.087341 0.039642
0.014313 0.108337 0.063324
0.358551 0.219208 0.009644
0.507019 0.232574 0.013611
0.591125 0.243225 0.019409
0.656494 0.247284 0.024994
0.017120 0.181366 0.073547
0.425476 0.365540 0.003387
0.693878 0.409851 0.001221
0.781738 0.411621 0.016174
0.845062 0.404572 0.023926
0.020386 0.238190 0.085022
0.258087 0.388397 0.004303
0.686798 0.486023 0.001343
0.873627 0.521759 0.038879
0.946960 0.505066 0.031799
0.022369 0.279602 0.104919
0.144226 0.399658 0.045135
0.619568 0.520508 0.002045
0.896606 0.597931 0.054474
0.978241 0.590790 0.062622
0.016235 0.053802 0.134369
0.118866 0.058777 0.167450
0.276428 0.062439 0.147034
0.377258 0.057739 0.132507
0.475677 0.064178 0.142303
0.017700 0.135773 0.186218
0.246674 0.264740 0.266510
0.461884 0.264221 0.191559
0.548462 0.256531 0.157562
0.609375 0.224060 0.137268
0.018066 0.215881 0.213837
0.192322 0.335541 0.214203
0.610870 0.454407 0.251648
0.741852 0.454956 0.211212
0.815216 0.424103 0.172028
0.020508 0.274628 0.222961
0.107239 0.357880 0.194855
0.609314 0.521088 0.179962
0.823853 0.558563 0.232880
0.916718 0.552551 0.215698
0.024902 0.333954 0.249268
0.079742 0.406708 0.252716
0.506195 0.551727 0.068939
0.848022 0.636414 0.222931
0.970856 0.654602 0.246857
0.018524 0.061096 0.200958
0.089508 0.055481 0.229187
0.296051 0.062256 0.268951
0.396515 0.059875 0.273987
0.478363 0.066071 0.278198
0.021393 0.150482 0.267395
0.108521 0.236908 0.326141
0.451050 0.298828 0.396851
0.538940 0.252228 0.351196
0.604248 0.216888 0.313568
0.023987 0.253143 0.338074
0.118958 0.357819 0.384216
0.524933 0.511108 0.472504
0.675476 0.493073 0.424011
0.766205 0.436646 0.356812
0.030304 0.356049 0.391357
0.122070 0.422241 0.389099
0.458160 0.540283 0.446655
0.765320 0.620117 0.474640
0.893982 0.615387 0.432465
0.042419 0.430267 0.417145
0.108704 0.474335 0.406067
0.321228 0.561401 0.420349
0.751160 0.680206 0.405212
0.951416 0.715210 0.441315
0.020813 0.071045 0.246307
0.071655 0.060181 0.263000
0.282196 0.063660 0.319244
0.419128 0.071564 0.341675
0.475891 0.071564 0.344421
0.023956 0.169952 0.325073
0.063416 0.224121 0.353302
0.319061 0.258972 0.421783
0.540863 0.285614 0.450653
0.584686 0.218903 0.410400
0.026489 0.265808 0.391205
0.081604 0.344666 0.423187
0.387939 0.473022 0.509369
0.660370 0.521729 0.561554
0.740875 0.436218 0.496277
0.040680 0.395081 0.472443
0.160095 0.474854 0.494843
0.457703 0.575623 0.556305
0.699921 0.663330 0.619995
0.853271 0.650818 0.584778
0.076019 0.502258 0.517944
0.198242 0.562225 0.529663
0.398560 0.638306 0.568726
0.646942 0.730957 0.600861
0.928375 0.787933 0.635162
0.022736 0.078735 0.283844
0.057983 0.064392 0.291229
0.251740 0.068451 0.351044
0.405884 0.079315 0.380981
0.479309 0.077423 0.386536
0.025604 0.179321 0.366302
0.042664 0.207611 0.383636
0.186035 0.205261 0.414215
0.464111 0.242493 0.473236
0.576508 0.223358 0.465179
0.029510 0.282013 0.439850
0.064362 0.339111 0.467072
0.277008 0.435699 0.550781
0.563141 0.466980 0.598877
0.721161 0.449188 0.596497
0.040771 0.391510 0.505768
0.132263 0.463379 0.534912
0.384949 0.572357 0.621948
0.627991 0.646210 0.699799
0.821136 0.660461 0.720673
0.077454 0.512909 0.574158
0.256836 0.609131 0.623108
0.482483 0.697815 0.692017
0.697083 0.782227 0.766876
0.894623 0.858459 0.846313
