滤镜资源/Professional Luts Collection/Lutify.me Professional/Cine Looks/Selenite.cube
# Created by: Lutify.me
# Copyright: (c) Copyright Lutify.me 2015
# Website: https://lutify.me
#LUT size
LUT_3D_SIZE 9
#LUT data points
0.020203 0.049591 0.051300
0.081024 0.058136 0.044128
0.154877 0.066406 0.040619
0.220978 0.072540 0.038452
0.278351 0.075012 0.037323
0.326813 0.075958 0.037323
0.370270 0.079865 0.038391
0.417267 0.084442 0.039185
0.463501 0.087341 0.039642
0.014740 0.072723 0.054260
0.132202 0.111450 0.035858
0.246429 0.126282 0.030823
0.332611 0.138672 0.030579
0.392548 0.145905 0.030029
0.433289 0.149689 0.030579
0.469330 0.155884 0.032043
0.505798 0.162354 0.033844
0.542267 0.164276 0.036987
0.014313 0.108337 0.063324
0.147369 0.187927 0.005951
0.358551 0.219208 0.009644
0.442871 0.224823 0.011871
0.507019 0.232574 0.013611
0.552521 0.237671 0.016541
0.591125 0.243225 0.019409
0.626709 0.247650 0.021393
0.656494 0.247284 0.024994
0.015259 0.144958 0.069763
0.175995 0.256012 0.005219
0.437653 0.313202 0.003357
0.551880 0.326141 0.002502
0.609497 0.324188 0.001984
0.655975 0.327942 0.007690
0.697388 0.333099 0.012787
0.732330 0.336456 0.017548
0.762207 0.330200 0.019897
0.017120 0.181366 0.073547
0.167206 0.304443 0.006500
0.425476 0.365540 0.003387
0.608124 0.401886 0.002014
0.693878 0.409851 0.001221
0.737122 0.407990 0.007782
0.781738 0.411621 0.016174
0.816101 0.411682 0.021362
0.845062 0.404572 0.023926
0.019012 0.212982 0.078003
0.113220 0.314423 0.041321
0.354706 0.382904 0.003845
0.561859 0.430573 0.002441
0.713013 0.460144 0.001038
0.792847 0.472229 0.016083
0.835297 0.471436 0.026398
0.877136 0.468658 0.027069
0.904816 0.459869 0.028046
0.020386 0.238190 0.085022
0.070618 0.313965 0.062134
0.258087 0.388397 0.004303
0.487732 0.440369 0.002991
0.686798 0.486023 0.001343
0.806091 0.512634 0.015717
0.873627 0.521759 0.038879
0.913788 0.515045 0.036926
0.946960 0.505066 0.031799
0.021545 0.259064 0.094086
0.043640 0.314301 0.071869
0.168121 0.392365 0.016327
0.427887 0.447906 0.003448
0.635376 0.498383 0.001862
0.800781 0.540375 0.016052
0.884430 0.558899 0.042328
0.932617 0.556580 0.050659
0.967102 0.547302 0.041412
0.022369 0.279602 0.104919
0.032928 0.317749 0.086914
0.144226 0.399658 0.045135
0.391205 0.464905 0.003693
0.619568 0.520508 0.002045
0.786804 0.559296 0.003510
0.896606 0.597931 0.054474
0.950012 0.599213 0.064789
0.978241 0.590790 0.062622
0.015411 0.051270 0.092926
0.060333 0.056213 0.113800
0.145020 0.063934 0.099457
0.213165 0.066223 0.081024
0.270142 0.065674 0.069427
0.316284 0.064484 0.064026
0.357880 0.064270 0.062988
0.404358 0.064819 0.065735
0.451477 0.068542 0.066772
0.014740 0.083679 0.107727
0.096161 0.122681 0.127960
0.219727 0.133331 0.096527
0.305542 0.138458 0.078949
0.366150 0.142639 0.069946
0.412262 0.146545 0.067963
0.450470 0.150574 0.067566
0.490204 0.151794 0.068329
0.531067 0.145172 0.066284
0.014832 0.121124 0.115143
0.064209 0.169678 0.126831
0.317688 0.237030 0.102936
0.429657 0.241089 0.073822
0.499664 0.243896 0.060699
0.547760 0.247101 0.054993
0.582458 0.249146 0.056244
0.612762 0.249695 0.059753
0.635712 0.238220 0.062531
0.015839 0.158264 0.126617
0.047302 0.209167 0.119781
0.334045 0.310669 0.062103
0.521667 0.344177 0.076782
0.593109 0.339996 0.065308
0.645813 0.344299 0.062958
0.686096 0.345001 0.061432
0.722900 0.343536 0.061859
0.751373 0.333191 0.061005
0.016937 0.192535 0.132263
0.042480 0.239502 0.107086
0.311859 0.361145 0.016479
0.561218 0.408051 0.050964
0.665344 0.426849 0.080475
0.710480 0.421814 0.079834
0.760468 0.425751 0.079681
0.800110 0.422852 0.078033
0.832458 0.409729 0.070099
0.018494 0.221466 0.134369
0.033844 0.260559 0.109589
0.261841 0.382843 0.007812
0.540802 0.442810 0.017242
0.698364 0.478149 0.063110
0.770813 0.491211 0.099884
0.814026 0.485291 0.095581
0.861053 0.482056 0.087494
0.897491 0.473175 0.077850
0.019989 0.246155 0.139008
0.028046 0.275238 0.120209
0.199127 0.387756 0.053223
0.479156 0.456085 0.003082
0.683350 0.506226 0.043243
0.788788 0.530304 0.089020
0.857910 0.537292 0.109619
0.903473 0.531311 0.096497
0.937012 0.522461 0.087402
0.021454 0.270599 0.150299
0.027618 0.296997 0.138733
0.145538 0.379639 0.103760
0.419067 0.465454 0.003510
0.639496 0.518127 0.011322
0.784393 0.561096 0.090820
0.869873 0.578125 0.120544
0.930206 0.577789 0.115356
0.964844 0.571594 0.101501
0.022614 0.297211 0.165802
0.030273 0.330200 0.168884
0.124176 0.398590 0.124512
0.351746 0.478455 0.003967
0.591888 0.537231 0.002747
0.769104 0.580719 0.057312
0.882141 0.616638 0.124329
0.947113 0.625732 0.141693
0.980713 0.623444 0.137573
0.016235 0.053802 0.134369
0.038483 0.050323 0.149963
0.118866 0.058777 0.167450
0.204193 0.065582 0.160797
0.276428 0.062439 0.147034
0.330688 0.058899 0.135620
0.377258 0.057739 0.132507
0.423676 0.059174 0.135956
0.475677 0.064178 0.142303
0.017609 0.089905 0.159088
0.043549 0.113129 0.184021
0.199158 0.138702 0.221924
0.300262 0.132141 0.187012
0.360291 0.128998 0.159119
0.399933 0.123962 0.141785
0.437012 0.125305 0.135406
0.476379 0.125854 0.133331
0.521729 0.122345 0.130310
0.017700 0.135773 0.186218
0.046570 0.183746 0.213898
0.246674 0.264740 0.266510
0.379913 0.265045 0.217896
0.461884 0.264221 0.191559
0.511719 0.261139 0.170197
0.548462 0.256531 0.157562
0.575348 0.241150 0.143188
0.609375 0.224060 0.137268
0.017700 0.177948 0.202057
0.035187 0.221741 0.207306
0.216858 0.309509 0.243073
0.460999 0.377472 0.255310
0.554688 0.371429 0.225067
0.620850 0.372162 0.198303
0.664124 0.365570 0.178864
0.697845 0.353058 0.162048
0.722565 0.333893 0.154114
0.018066 0.215881 0.213837
0.031342 0.251129 0.197754
0.192322 0.335541 0.214203
0.452423 0.416718 0.205017
0.610870 0.454407 0.251648
0.679565 0.451782 0.227203
0.741852 0.454956 0.211212
0.781189 0.439392 0.185120
0.815216 0.424103 0.172028
0.019196 0.247406 0.219910
0.031006 0.276306 0.195801
0.148651 0.348480 0.191589
0.427795 0.448639 0.160065
0.627472 0.492950 0.216736
0.723175 0.511932 0.243591
0.782379 0.509308 0.228485
0.839203 0.507385 0.213470
0.876312 0.495758 0.195404
0.020508 0.274628 0.222961
0.030151 0.299561 0.206238
0.107239 0.357880 0.194855
0.355194 0.464447 0.130402
0.609314 0.521088 0.179962
0.738953 0.548676 0.223633
0.823853 0.558563 0.232880
0.876678 0.555420 0.220551
0.916718 0.552551 0.215698
0.022430 0.300537 0.228546
0.031830 0.328674 0.223358
0.084808 0.374481 0.219025
0.305206 0.470673 0.141968
0.554596 0.531586 0.120819
0.724762 0.577423 0.202362
0.839355 0.600128 0.230682
0.912109 0.600830 0.215332
0.948334 0.600800 0.220032
0.024902 0.333954 0.249268
0.036072 0.362305 0.251129
0.079742 0.406708 0.252716
0.258759 0.476501 0.192444
0.506195 0.551727 0.068939
0.702606 0.597351 0.146912
0.848022 0.636414 0.222931
0.926849 0.651642 0.244690
0.970856 0.654602 0.246857
0.017151 0.057587 0.170135
0.028839 0.050537 0.176300
0.103455 0.056152 0.204041
0.203552 0.061768 0.218018
0.283508 0.061584 0.219330
0.341309 0.057465 0.214020
0.384644 0.056335 0.210571
0.428833 0.058136 0.214874
0.478699 0.064362 0.220551
0.019745 0.098114 0.200500
0.033722 0.116241 0.219635
0.125214 0.120026 0.247162
0.294800 0.146118 0.282379
0.365143 0.136261 0.259674
0.408997 0.124451 0.239624
0.446381 0.120911 0.229431
0.486237 0.122742 0.225128
0.533295 0.123962 0.223999
0.019714 0.140686 0.228790
0.033142 0.179535 0.255859
0.155914 0.244995 0.304169
0.371887 0.289978 0.347931
0.454712 0.268982 0.304230
0.502808 0.252319 0.274994
0.535950 0.241058 0.252899
0.562134 0.225067 0.230865
0.596039 0.206299 0.216888
0.020203 0.191986 0.262665
0.030731 0.236664 0.286774
0.161102 0.321014 0.332214
0.410553 0.408295 0.385315
0.514984 0.401947 0.349640
0.584717 0.396576 0.326019
0.629822 0.384155 0.299530
0.669464 0.362000 0.269318
0.699249 0.328308 0.242645
0.021484 0.240662 0.288910
0.029358 0.271149 0.287567
0.144043 0.345825 0.310272
0.382629 0.437897 0.338989
0.564911 0.483765 0.382355
0.645050 0.480133 0.361389
0.711151 0.479675 0.340210
0.759033 0.463409 0.307587
0.792999 0.436218 0.277252
0.021912 0.278229 0.302826
0.031769 0.304504 0.291748
0.126068 0.366943 0.301056
0.352631 0.452393 0.338074
0.551636 0.508240 0.354248
0.684174 0.541504 0.383636
0.756897 0.543945 0.364929
0.818634 0.537659 0.339142
0.860443 0.520782 0.312225
0.023346 0.313110 0.314972
0.033905 0.331757 0.298523
0.110901 0.388275 0.295441
0.296265 0.460815 0.331635
0.518707 0.536255 0.323242
0.689117 0.575043 0.366180
0.793488 0.587982 0.362244
0.854828 0.588531 0.351257
0.903992 0.583160 0.334778
0.026489 0.346191 0.327179
0.039948 0.366211 0.312988
0.099915 0.413391 0.313141
0.239197 0.473999 0.333557
0.448090 0.552307 0.301056
0.662201 0.598175 0.323395
0.802582 0.627594 0.356049
0.889923 0.632751 0.340881
0.934082 0.635620 0.347534
0.029510 0.377563 0.339874
0.043030 0.397583 0.330231
0.089294 0.437531 0.330505
0.181885 0.484375 0.334961
0.390350 0.557709 0.302795
0.627258 0.616333 0.256805
0.800568 0.655487 0.318085
0.911865 0.678772 0.340149
0.958344 0.685333 0.354828
0.018524 0.061096 0.200958
0.025604 0.053131 0.199677
0.089508 0.055481 0.229187
0.198059 0.058777 0.255035
0.296051 0.062256 0.268951
0.352997 0.060211 0.271240
0.396515 0.059875 0.273987
0.434052 0.061127 0.273865
0.478363 0.066071 0.278198
0.021362 0.105682 0.235809
0.029358 0.120972 0.247040
0.085846 0.115143 0.262756
0.227936 0.134277 0.304993
0.371338 0.153015 0.329346
0.415924 0.136871 0.313477
0.451416 0.127197 0.305267
0.485168 0.123627 0.299957
0.528839 0.126465 0.293762
0.021393 0.150482 0.267395
0.028992 0.180725 0.286499
0.108521 0.236908 0.326141
0.270599 0.262115 0.363464
0.451050 0.298828 0.396851
0.501984 0.272369 0.368042
0.538940 0.252228 0.351196
0.568787 0.234131 0.329529
0.604248 0.216888 0.313568
0.021973 0.197021 0.298431
0.028931 0.233887 0.317902
0.111420 0.303436 0.357422
0.314606 0.385101 0.408600
0.503052 0.424011 0.445465
0.572418 0.405609 0.413757
0.616486 0.382019 0.382416
0.651886 0.353210 0.350006
0.685608 0.318146 0.321503
0.023987 0.253143 0.338074
0.031189 0.287445 0.351715
0.118958 0.357819 0.384216
0.328796 0.441376 0.431213
0.524933 0.511108 0.472504
0.606232 0.501862 0.447845
0.675476 0.493073 0.424011
0.728760 0.471191 0.391357
0.766205 0.436646 0.356812
0.026520 0.306824 0.368866
0.036224 0.330200 0.366455
0.110779 0.385529 0.379303
0.315369 0.462006 0.417023
0.494904 0.528290 0.436157
0.646057 0.567078 0.475647
0.726562 0.562836 0.456146
0.793945 0.554688 0.429230
0.842682 0.540039 0.401611
0.030304 0.356049 0.391357
0.044891 0.371735 0.378967
0.122070 0.422241 0.389099
0.308441 0.490326 0.419434
0.458160 0.540283 0.446655
0.627350 0.585846 0.457428
0.765320 0.620117 0.474640
0.838348 0.619812 0.453613
0.893982 0.615387 0.432465
0.036926 0.396973 0.406311
0.054443 0.408630 0.390442
0.119232 0.449951 0.396820
0.262238 0.507202 0.414337
0.399109 0.554901 0.444427
0.581146 0.617157 0.423828
0.761871 0.655121 0.459900
0.875549 0.666534 0.446136
0.926727 0.669373 0.443848
0.042419 0.430267 0.417145
0.058228 0.439178 0.402161
0.108704 0.474335 0.406067
0.203491 0.518829 0.412109
0.321228 0.561401 0.420349
0.542786 0.640015 0.387695
0.751160 0.680206 0.405212
0.896332 0.707886 0.432648
0.951416 0.715210 0.441315
0.019897 0.066742 0.226288
0.023346 0.057373 0.218414
0.078522 0.057709 0.247437
0.180664 0.058167 0.277039
0.291138 0.061493 0.298279
0.367920 0.065063 0.308807
0.407837 0.065430 0.312775
0.440125 0.066010 0.315430
0.474457 0.067474 0.315918
0.022552 0.112701 0.263031
0.027771 0.124542 0.268463
0.060089 0.110260 0.268951
0.178650 0.124817 0.313812
0.326141 0.145264 0.348297
0.428192 0.155457 0.362610
0.460907 0.142456 0.353668
0.489380 0.133209 0.347015
0.523956 0.126923 0.342438
0.022858 0.161041 0.298798
0.027924 0.183746 0.310883
0.079620 0.227783 0.338531
0.204437 0.241791 0.371368
0.376251 0.278534 0.413574
0.503265 0.295990 0.428772
0.537903 0.269043 0.409698
0.564514 0.242950 0.390717
0.594452 0.219727 0.371918
0.023285 0.206970 0.329803
0.028717 0.236389 0.343048
0.084808 0.296082 0.376892
0.254150 0.370575 0.426819
0.418915 0.401855 0.461060
0.569763 0.432007 0.488739
0.616730 0.404785 0.464111
0.651306 0.365509 0.432251
0.682556 0.326752 0.402649
0.025146 0.257294 0.364929
0.031555 0.286652 0.374542
0.095184 0.347687 0.404022
0.270203 0.426239 0.450195
0.445099 0.491089 0.494568
0.591675 0.520325 0.521973
0.662903 0.502686 0.495758
0.712799 0.468903 0.456390
0.747681 0.429840 0.423065
0.029083 0.320282 0.407990
0.042816 0.350983 0.415283
0.115723 0.405670 0.435760
0.297760 0.476532 0.472931
0.471130 0.540039 0.515259
0.608185 0.587524 0.544006
0.692413 0.579620 0.525482
0.764893 0.568207 0.500916
0.817993 0.544647 0.470215
0.036499 0.382355 0.439758
0.058289 0.402161 0.435608
0.137238 0.450684 0.448212
0.294739 0.508301 0.477661
0.454865 0.557220 0.506775
0.579834 0.605072 0.517151
0.732544 0.642822 0.550598
0.816376 0.642700 0.533234
0.882751 0.640686 0.511414
0.052063 0.438049 0.463043
0.080200 0.452576 0.452667
0.164307 0.495209 0.463684
0.288361 0.540527 0.486877
0.433044 0.587494 0.510742
0.544067 0.628967 0.530701
0.719360 0.674683 0.535919
0.850616 0.699219 0.546753
0.918152 0.702942 0.531952
0.059082 0.471008 0.474213
0.083984 0.482117 0.462006
0.148376 0.518585 0.471436
0.233734 0.557251 0.485962
0.358002 0.600525 0.500244
0.487274 0.641510 0.511780
0.695251 0.709106 0.495575
0.865601 0.740601 0.531372
0.943268 0.749634 0.532349
0.020813 0.071045 0.246307
0.023041 0.060242 0.236755
0.071655 0.060181 0.263000
0.167633 0.058868 0.292999
0.282196 0.063660 0.319244
0.363831 0.068390 0.333710
0.419128 0.071564 0.341675
0.448517 0.072998 0.344513
0.475891 0.071564 0.344421
0.023193 0.118011 0.285126
0.027435 0.128662 0.287689
0.050293 0.112915 0.282471
0.140930 0.118317 0.317810
0.291748 0.139496 0.360931
0.400482 0.155060 0.381622
0.469818 0.156067 0.387817
0.494354 0.142914 0.380646
0.519348 0.127563 0.372437
0.023956 0.169952 0.325073
0.028046 0.186737 0.331512
0.063416 0.224121 0.353302
0.147614 0.222290 0.369812
0.319061 0.258972 0.421783
0.457672 0.285370 0.447235
0.540863 0.285614 0.450653
0.561310 0.250610 0.429260
0.584686 0.218903 0.410400
0.024628 0.218109 0.358398
0.028778 0.239777 0.365601
0.070099 0.288544 0.392395
0.197754 0.354340 0.436462
0.349976 0.377319 0.467896
0.512817 0.418610 0.509583
0.615082 0.422546 0.515717
0.643280 0.375122 0.486115
0.663696 0.322479 0.451569
0.026489 0.265808 0.391205
0.031982 0.289886 0.396210
0.081604 0.344666 0.423187
0.229340 0.418335 0.467987
0.387939 0.473022 0.509369
0.525543 0.501282 0.539917
0.660370 0.521729 0.561554
0.712860 0.483521 0.531555
0.740875 0.436218 0.496277
0.030884 0.326538 0.431763
0.042542 0.348602 0.432739
0.105652 0.400177 0.453613
0.258728 0.467285 0.490784
0.419495 0.523743 0.531036
0.544403 0.570587 0.568817
0.675934 0.593262 0.592438
0.749878 0.571228 0.568237
0.796814 0.536560 0.533173
0.040680 0.395081 0.472443
0.069702 0.422058 0.474884
0.160095 0.474854 0.494843
0.315948 0.531067 0.525757
0.457703 0.575623 0.556305
0.572815 0.619934 0.590881
0.699921 0.663330 0.619995
0.789215 0.659332 0.604706
0.853271 0.650818 0.584778
0.061920 0.459839 0.502258
0.104858 0.483643 0.502319
0.194946 0.526581 0.516815
0.326569 0.571350 0.540527
0.452545 0.613983 0.569214
0.563934 0.654694 0.595306
0.679932 0.699554 0.598938
0.826019 0.729858 0.635590
0.900391 0.730865 0.621399
0.076019 0.502258 0.517944
0.121796 0.525787 0.517181
0.198242 0.562225 0.529663
0.297760 0.600952 0.548340
0.398560 0.638306 0.568726
0.523499 0.682739 0.592987
0.646942 0.730957 0.600861
0.818420 0.772736 0.620850
0.928375 0.787933 0.635162
0.021667 0.076172 0.264862
0.023834 0.063873 0.254883
0.064880 0.063507 0.277222
0.156738 0.060883 0.307068
0.267853 0.066528 0.334656
0.354828 0.072266 0.352570
0.416138 0.077087 0.363739
0.455597 0.078430 0.368225
0.478180 0.075165 0.365997
0.023804 0.122406 0.303162
0.027252 0.131073 0.305908
0.043488 0.113251 0.295776
0.115082 0.116089 0.324219
0.249481 0.127960 0.363373
0.367371 0.146667 0.392212
0.449646 0.155151 0.404999
0.499146 0.149811 0.406342
0.517578 0.130280 0.396240
0.024872 0.177307 0.347137
0.028412 0.189789 0.351379
0.050690 0.215729 0.365631
0.109100 0.209381 0.375549
0.240631 0.228302 0.415680
0.401733 0.262085 0.454498
0.504120 0.272980 0.466797
0.561493 0.258423 0.459930
0.574280 0.213745 0.435730
0.025696 0.227081 0.381744
0.029541 0.244751 0.387970
0.056091 0.280060 0.406647
0.149841 0.337158 0.446533
0.268890 0.342987 0.465820
0.443573 0.382324 0.514191
0.572449 0.403564 0.534851
0.639587 0.384949 0.526428
0.647858 0.313873 0.487091
0.028229 0.277527 0.417084
0.033508 0.295349 0.419525
0.069763 0.337891 0.441162
0.186157 0.403320 0.483246
0.322510 0.452118 0.524445
0.456482 0.472260 0.548798
0.612305 0.507355 0.589233
0.706665 0.497406 0.588287
0.722504 0.430542 0.546356
0.032043 0.329926 0.450439
0.043488 0.350586 0.451385
0.095673 0.396484 0.473236
0.225922 0.461609 0.513123
0.367615 0.512085 0.552979
0.497955 0.554840 0.592926
0.623566 0.577850 0.620483
0.743805 0.583344 0.633514
0.786255 0.539948 0.601562
0.041199 0.395264 0.488983
0.066559 0.418732 0.490265
0.142029 0.464600 0.510864
0.281494 0.523132 0.546570
0.415833 0.569183 0.581543
0.532104 0.611298 0.618652
0.643616 0.650635 0.658813
0.769318 0.666107 0.675049
0.834930 0.641571 0.652191
0.063538 0.464386 0.526855
0.115173 0.497192 0.535004
0.221863 0.547974 0.559540
0.353241 0.593048 0.588348
0.475342 0.636047 0.621582
0.573669 0.674164 0.652954
0.675537 0.715973 0.687958
0.799835 0.755859 0.720947
0.873688 0.758118 0.713989
0.080963 0.513794 0.549652
0.142303 0.550598 0.559265
0.242462 0.596375 0.582123
0.352142 0.637085 0.606476
0.459656 0.679413 0.636902
0.566132 0.719177 0.665466
0.669708 0.758392 0.692993
0.795807 0.803650 0.711151
0.902985 0.827698 0.751190
0.022736 0.078735 0.283844
0.023773 0.064026 0.270691
0.057983 0.064392 0.291229
0.144073 0.061493 0.320892
0.251740 0.068451 0.351044
0.342133 0.074677 0.369324
0.405884 0.079315 0.380981
0.446350 0.079285 0.386169
0.479309 0.077423 0.386536
0.024139 0.121948 0.318878
0.026459 0.129517 0.323120
0.037537 0.110809 0.310852
0.091034 0.112762 0.333038
0.214844 0.122040 0.371948
0.338135 0.137207 0.402344
0.426849 0.145813 0.417175
0.479614 0.141388 0.420746
0.516937 0.130524 0.418030
0.025604 0.179321 0.366302
0.028442 0.187622 0.369690
0.042664 0.207611 0.383636
0.078003 0.191406 0.380035
0.186035 0.205261 0.414215
0.347870 0.230499 0.455444
0.464111 0.242493 0.473236
0.532837 0.238831 0.472443
0.576508 0.223358 0.465179
0.026764 0.231140 0.403778
0.029724 0.245544 0.410370
0.049316 0.277130 0.430176
0.111542 0.318237 0.464050
0.203186 0.312195 0.473022
0.371185 0.339325 0.514069
0.518372 0.358978 0.537994
0.600433 0.353241 0.540192
0.649170 0.329803 0.526367
0.029510 0.282013 0.439850
0.034210 0.298920 0.444580
0.064362 0.339111 0.467072
0.154205 0.393677 0.508636
0.277008 0.435699 0.550781
0.402496 0.438995 0.564087
0.563141 0.466980 0.598877
0.663696 0.470245 0.608917
0.721161 0.449188 0.596497
0.033539 0.334198 0.473816
0.044037 0.355194 0.477051
0.088318 0.398438 0.500214
0.201172 0.460022 0.544098
0.338409 0.514893 0.593536
0.468323 0.547028 0.630951
0.586761 0.552856 0.644104
0.705017 0.569214 0.666504
0.779602 0.559021 0.661682
0.040771 0.391510 0.505768
0.061798 0.414185 0.508728
0.132263 0.463379 0.534912
0.254242 0.522156 0.577332
0.384949 0.572357 0.621948
0.507599 0.613556 0.663239
0.627991 0.646210 0.699799
0.721802 0.657867 0.714386
0.821136 0.660461 0.720673
0.053772 0.450928 0.538513
0.101105 0.487396 0.549683
0.192596 0.536011 0.576813
0.316345 0.584534 0.613373
0.431244 0.627808 0.650787
0.545166 0.671326 0.691742
0.654968 0.709778 0.730591
0.766144 0.751160 0.770081
0.860657 0.766113 0.785522
0.077454 0.512909 0.574158
0.146851 0.558624 0.592407
0.256836 0.609131 0.623108
0.373016 0.653870 0.655670
0.482483 0.697815 0.692017
0.588074 0.739258 0.728333
0.697083 0.782227 0.766876
0.802002 0.826569 0.812531
0.894623 0.858459 0.846313
