滤镜资源/Professional Luts Collection/Lutify.me Professional/Cine Looks/Septarian.cube
# Created by: Lutify.me
# Copyright: (c) Copyright Lutify.me 2015
# Website: https://lutify.me
#LUT size
LUT_3D_SIZE 33
#LUT data points
0.010925 0.053741 0.054260
0.017761 0.055450 0.054291
0.032959 0.055328 0.051575
0.054779 0.057617 0.050293
0.082916 0.060730 0.049957
0.113495 0.064392 0.049561
0.147888 0.067474 0.048492
0.185944 0.069519 0.046417
0.226868 0.070770 0.044678
0.264587 0.072266 0.044647
0.300232 0.074432 0.044708
0.332733 0.077026 0.044800
0.362335 0.079559 0.045868
0.388489 0.082031 0.046997
0.411133 0.085266 0.048187
0.429871 0.088501 0.049316
0.446167 0.092010 0.050842
0.461426 0.095581 0.052551
0.475769 0.099915 0.053986
0.489441 0.105499 0.055237
0.502777 0.111023 0.056274
0.515778 0.115906 0.056946
0.528320 0.120270 0.057922
0.539581 0.125122 0.060120
0.550476 0.130737 0.062561
0.562469 0.137695 0.065155
0.574524 0.145050 0.067657
0.584961 0.150757 0.069366
0.595245 0.156006 0.070892
0.604980 0.159973 0.071198
0.614349 0.163513 0.071381
0.620911 0.165375 0.073029
0.627228 0.167206 0.075317
0.011353 0.061462 0.055695
0.022430 0.067383 0.057922
0.038544 0.068634 0.054871
0.065887 0.072876 0.053101
0.098053 0.076660 0.051819
0.128021 0.080566 0.051941
0.164764 0.085205 0.050873
0.205200 0.088959 0.049316
0.247833 0.091644 0.047089
0.283752 0.095093 0.046783
0.320129 0.100281 0.047791
0.353699 0.104828 0.048981
0.385498 0.109222 0.050110
0.414490 0.114044 0.051392
0.438507 0.118683 0.053345
0.457672 0.123138 0.055145
0.474304 0.127380 0.056976
0.490051 0.131622 0.058502
0.505005 0.136475 0.059662
0.519135 0.141541 0.060669
0.532440 0.147095 0.061920
0.545349 0.152161 0.063110
0.557404 0.156830 0.064514
0.567932 0.161591 0.066711
0.578125 0.166595 0.069153
0.587860 0.170288 0.070984
0.598785 0.176422 0.073212
0.606812 0.178680 0.073669
0.616852 0.183960 0.075470
0.626160 0.187469 0.075958
0.635315 0.191284 0.076782
0.641510 0.192505 0.078522
0.647888 0.194336 0.080688
0.012909 0.072021 0.057251
0.026642 0.078888 0.059723
0.046509 0.086731 0.058624
0.075958 0.092773 0.057190
0.113159 0.099060 0.054993
0.146393 0.105560 0.055450
0.182526 0.111420 0.055359
0.224976 0.117004 0.053558
0.270508 0.121887 0.050903
0.307495 0.127533 0.050903
0.340881 0.133362 0.052338
0.374695 0.139313 0.053162
0.407043 0.145386 0.054749
0.437622 0.152283 0.056580
0.464172 0.158661 0.058655
0.484894 0.164673 0.060730
0.502106 0.169983 0.063141
0.518524 0.175720 0.065765
0.534027 0.181183 0.067841
0.548676 0.186249 0.069153
0.562775 0.191620 0.070343
0.575958 0.196869 0.071564
0.588104 0.201813 0.073029
0.598633 0.206573 0.075287
0.608246 0.211029 0.078308
0.616882 0.213379 0.080383
0.625275 0.215302 0.082062
0.632477 0.215546 0.082031
0.639618 0.216125 0.082092
0.648376 0.218994 0.082306
0.657410 0.222534 0.082672
0.663666 0.223907 0.084808
0.669525 0.225311 0.086975
0.017303 0.090973 0.061646
0.034027 0.098724 0.064606
0.058167 0.108917 0.061035
0.087860 0.116516 0.060638
0.127197 0.124359 0.058960
0.162292 0.131256 0.059052
0.202118 0.139404 0.058685
0.243866 0.147614 0.058960
0.290955 0.154816 0.057281
0.329315 0.161957 0.057068
0.363678 0.169403 0.058502
0.397522 0.177002 0.060150
0.430878 0.184937 0.061401
0.460968 0.193817 0.063446
0.488464 0.202148 0.066193
0.511414 0.209473 0.068817
0.529938 0.216064 0.071686
0.547485 0.222656 0.074280
0.563629 0.228607 0.076294
0.578278 0.234375 0.077911
0.592041 0.240021 0.079559
0.605103 0.245117 0.081055
0.616852 0.249451 0.082672
0.626160 0.252014 0.084564
0.634857 0.254913 0.087036
0.643127 0.256165 0.088776
0.651703 0.256927 0.089752
0.657654 0.256439 0.090118
0.664948 0.255615 0.089050
0.671082 0.253906 0.088409
0.679413 0.256409 0.088593
0.685150 0.256866 0.089539
0.691010 0.258362 0.091675
0.023041 0.114258 0.067261
0.044067 0.124420 0.069489
0.071655 0.135986 0.065613
0.106903 0.146240 0.062622
0.145172 0.155640 0.061951
0.181793 0.164001 0.062225
0.221527 0.172150 0.063202
0.267456 0.182800 0.063416
0.312897 0.193207 0.063782
0.351440 0.202301 0.064850
0.387238 0.210968 0.066132
0.421783 0.220459 0.067535
0.455017 0.230225 0.069397
0.485443 0.240906 0.072540
0.512726 0.251434 0.076019
0.536499 0.260773 0.079193
0.557556 0.268585 0.081818
0.575439 0.275909 0.086090
0.592712 0.281769 0.088043
0.607483 0.287476 0.090149
0.621033 0.292877 0.092102
0.633606 0.297363 0.093903
0.644897 0.300812 0.095551
0.653839 0.301605 0.096649
0.661865 0.301727 0.097778
0.669312 0.301392 0.098846
0.675751 0.301056 0.100494
0.682587 0.299286 0.099518
0.688660 0.297729 0.098724
0.694183 0.294678 0.097626
0.700043 0.292664 0.096832
0.706024 0.291870 0.096558
0.710876 0.292450 0.098328
0.033264 0.138428 0.074738
0.053894 0.148438 0.077301
0.083984 0.161896 0.073517
0.122559 0.175781 0.068420
0.168091 0.187836 0.067841
0.200806 0.197052 0.069305
0.242218 0.206482 0.070557
0.287628 0.217896 0.071838
0.334747 0.230011 0.072693
0.372528 0.241364 0.074310
0.409241 0.251892 0.076538
0.443298 0.262177 0.078674
0.477020 0.272888 0.080750
0.508392 0.283905 0.083374
0.535522 0.295410 0.088379
0.559601 0.305939 0.092957
0.580322 0.315094 0.097626
0.599030 0.322968 0.101990
0.616119 0.328491 0.104156
0.629944 0.332428 0.106201
0.643280 0.336060 0.107117
0.655701 0.339508 0.108704
0.667084 0.342194 0.110107
0.675903 0.343109 0.111725
0.683929 0.343079 0.113068
0.691589 0.342682 0.114380
0.699371 0.341522 0.114624
0.705414 0.338196 0.113159
0.710754 0.335388 0.112030
0.715576 0.330170 0.109253
0.720917 0.326538 0.107697
0.724213 0.322906 0.107056
0.729431 0.322357 0.107666
0.046417 0.166260 0.082611
0.070068 0.177063 0.085571
0.099243 0.191498 0.082916
0.140564 0.208130 0.076843
0.189331 0.223114 0.076324
0.227112 0.234741 0.077789
0.262726 0.244568 0.079803
0.309784 0.257477 0.081024
0.355713 0.269806 0.082275
0.393097 0.282257 0.085876
0.428009 0.294159 0.089203
0.463287 0.305725 0.092407
0.496765 0.317169 0.095673
0.528839 0.328308 0.099091
0.557159 0.339020 0.102844
0.580872 0.350098 0.108643
0.601410 0.360199 0.114349
0.620728 0.368958 0.118988
0.636993 0.375641 0.123718
0.651367 0.378723 0.125275
0.664856 0.380585 0.125427
0.677429 0.382599 0.126373
0.688660 0.384125 0.127380
0.697235 0.384430 0.128876
0.704651 0.384186 0.130493
0.711853 0.382904 0.131317
0.718658 0.381439 0.132080
0.724091 0.377350 0.130066
0.729462 0.372864 0.127716
0.734772 0.367126 0.124390
0.739929 0.361969 0.121765
0.742950 0.357178 0.120514
0.746735 0.353302 0.119110
0.061523 0.199860 0.093109
0.090546 0.212555 0.096436
0.123047 0.228699 0.093018
0.163300 0.246643 0.088257
0.214478 0.263458 0.086182
0.255249 0.278625 0.088226
0.295471 0.290741 0.089966
0.332123 0.301117 0.092529
0.379120 0.314697 0.094757
0.413666 0.323608 0.097290
0.448059 0.336121 0.101959
0.480957 0.347473 0.106384
0.514374 0.359497 0.110748
0.545868 0.371521 0.116028
0.575165 0.382141 0.119812
0.599121 0.392120 0.125366
0.620422 0.401794 0.131470
0.640015 0.409546 0.136292
0.657379 0.415924 0.140503
0.672028 0.419708 0.143250
0.685455 0.421265 0.143616
0.698120 0.422913 0.144623
0.709534 0.423767 0.145050
0.717804 0.422913 0.145966
0.724823 0.421539 0.146606
0.730652 0.419037 0.147339
0.736938 0.416687 0.147491
0.742188 0.412445 0.145294
0.746796 0.407288 0.142639
0.751251 0.401459 0.139832
0.756653 0.395447 0.136017
0.761108 0.390747 0.133575
0.764832 0.386292 0.132233
0.080780 0.237274 0.104950
0.113525 0.251892 0.108246
0.149078 0.268707 0.104340
0.193390 0.288361 0.098480
0.242004 0.305481 0.095795
0.284454 0.321503 0.098511
0.326721 0.337280 0.102173
0.365173 0.348877 0.105408
0.400757 0.359650 0.108551
0.437683 0.370148 0.113251
0.468506 0.378418 0.116302
0.500946 0.390137 0.121704
0.532684 0.401184 0.126434
0.564362 0.413544 0.132843
0.593689 0.424561 0.138458
0.618042 0.434204 0.144257
0.638977 0.442413 0.149811
0.659180 0.449188 0.153961
0.677032 0.454315 0.157928
0.692688 0.458008 0.160339
0.706390 0.459839 0.161774
0.719269 0.461578 0.163391
0.730377 0.462372 0.164398
0.738434 0.460846 0.164581
0.744751 0.458557 0.165253
0.750153 0.455017 0.164856
0.755585 0.451019 0.163849
0.760284 0.446350 0.161530
0.765015 0.441254 0.158386
0.769165 0.435272 0.155304
0.773438 0.428986 0.151672
0.776733 0.424072 0.149628
0.779968 0.419403 0.148041
0.100464 0.271027 0.117035
0.136200 0.287048 0.119446
0.175720 0.304749 0.114685
0.220001 0.323517 0.108917
0.269745 0.341156 0.105804
0.307922 0.355560 0.108795
0.350525 0.371979 0.113403
0.391327 0.386383 0.117737
0.428131 0.397705 0.122223
0.454071 0.406891 0.126343
0.489044 0.417480 0.132568
0.520142 0.427368 0.137177
0.551788 0.438141 0.142578
0.581848 0.447571 0.147705
0.610809 0.458344 0.154633
0.635620 0.466736 0.159363
0.656433 0.474701 0.165436
0.676025 0.481201 0.170349
0.694550 0.486267 0.173737
0.710449 0.490326 0.177063
0.725250 0.492767 0.178101
0.738251 0.494598 0.179901
0.749847 0.495178 0.181030
0.757355 0.493530 0.181915
0.763245 0.490936 0.182037
0.768707 0.487244 0.181335
0.773560 0.482910 0.180115
0.777527 0.478088 0.178009
0.781799 0.472870 0.174438
0.785645 0.467072 0.171326
0.789398 0.460785 0.168152
0.791901 0.455475 0.165649
0.795807 0.450226 0.162415
0.122162 0.303894 0.129150
0.160095 0.321136 0.130463
0.201721 0.339233 0.125305
0.248199 0.358154 0.118713
0.297333 0.374695 0.115967
0.335236 0.389038 0.120178
0.372925 0.403290 0.125336
0.413971 0.417999 0.130768
0.453125 0.431488 0.135864
0.480011 0.440948 0.140594
0.502258 0.449158 0.145142
0.539001 0.462280 0.153595
0.570679 0.472626 0.159576
0.600830 0.481781 0.164429
0.628143 0.489044 0.168823
0.652405 0.497040 0.174591
0.673431 0.503174 0.179871
0.692902 0.509399 0.184845
0.710510 0.514160 0.188965
0.726776 0.518402 0.191956
0.741516 0.521454 0.193848
0.755005 0.523438 0.195557
0.766907 0.524078 0.196472
0.774750 0.522369 0.196808
0.780548 0.519653 0.197479
0.786133 0.516235 0.197174
0.791077 0.512085 0.195587
0.795135 0.507324 0.192841
0.798767 0.502289 0.190063
0.802002 0.496613 0.187195
0.804901 0.490479 0.184265
0.807343 0.485016 0.181213
0.810822 0.479431 0.177155
0.144684 0.335571 0.141327
0.184021 0.353577 0.140900
0.229156 0.372314 0.134888
0.275543 0.390503 0.128906
0.325562 0.407257 0.127319
0.362274 0.420685 0.131927
0.399933 0.434845 0.137665
0.436340 0.448181 0.142914
0.475311 0.461945 0.149139
0.505524 0.473358 0.154907
0.528778 0.481964 0.160065
0.550110 0.489075 0.164612
0.586884 0.502197 0.173615
0.619690 0.512024 0.179260
0.646454 0.519165 0.183838
0.668365 0.523743 0.188110
0.689117 0.529388 0.193085
0.707520 0.534241 0.199249
0.725098 0.538391 0.202637
0.740601 0.541199 0.205109
0.755371 0.543945 0.206512
0.768280 0.545868 0.208893
0.780548 0.546265 0.209259
0.788483 0.544800 0.209961
0.794586 0.542328 0.210022
0.800018 0.539398 0.209961
0.805023 0.535736 0.209106
0.809174 0.531372 0.206787
0.813141 0.526611 0.203674
0.816437 0.521210 0.201080
0.819794 0.515442 0.197723
0.822418 0.510437 0.194702
0.824677 0.505127 0.191711
0.169189 0.366180 0.153168
0.210236 0.385345 0.150726
0.257568 0.404297 0.144897
0.304657 0.422211 0.139587
0.353851 0.438568 0.138672
0.390869 0.451965 0.143951
0.427368 0.465485 0.150085
0.462891 0.478516 0.156097
0.498260 0.491486 0.162048
0.528656 0.503204 0.168243
0.554932 0.513214 0.174286
0.576843 0.520508 0.179260
0.597900 0.527222 0.184296
0.633820 0.538757 0.193115
0.663422 0.546631 0.198853
0.684845 0.550842 0.203064
0.703094 0.553345 0.206512
0.721619 0.557465 0.211761
0.738068 0.560638 0.216827
0.753601 0.562775 0.218170
0.767883 0.564178 0.218903
0.780365 0.565613 0.221191
0.791870 0.565857 0.221832
0.800140 0.564270 0.221954
0.806641 0.562042 0.221313
0.812073 0.559753 0.221802
0.817200 0.556671 0.221619
0.821686 0.552917 0.219421
0.825989 0.548584 0.216309
0.829437 0.543365 0.213806
0.832153 0.537964 0.211121
0.834930 0.533203 0.207703
0.837738 0.528107 0.203949
0.195923 0.396484 0.163696
0.238037 0.415894 0.159729
0.286072 0.435211 0.153717
0.333588 0.452789 0.149323
0.383728 0.469269 0.149994
0.420258 0.482300 0.155792
0.456299 0.495514 0.162292
0.488678 0.507324 0.168335
0.523010 0.519897 0.174652
0.553101 0.531342 0.181152
0.579742 0.541412 0.187836
0.603088 0.549561 0.194000
0.624207 0.556152 0.199463
0.644348 0.562592 0.204987
0.675812 0.571625 0.213043
0.700409 0.576569 0.218109
0.717987 0.578461 0.221588
0.734772 0.579498 0.224091
0.751129 0.582001 0.228210
0.765717 0.583252 0.230927
0.779602 0.584229 0.231537
0.792511 0.584869 0.232483
0.803131 0.585052 0.234283
0.811371 0.583374 0.233765
0.817596 0.581268 0.233521
0.823486 0.579437 0.233459
0.828583 0.577118 0.233887
0.833588 0.573975 0.231842
0.837708 0.570404 0.229645
0.840912 0.565308 0.226990
0.843658 0.559967 0.224579
0.846680 0.554962 0.220581
0.849243 0.550171 0.217255
0.223785 0.425995 0.171722
0.266479 0.444977 0.167633
0.314453 0.463806 0.163269
0.362122 0.481384 0.159760
0.412018 0.497314 0.161346
0.448120 0.509888 0.167236
0.482910 0.522186 0.173798
0.514313 0.533386 0.179901
0.545380 0.544495 0.186371
0.574860 0.555542 0.193604
0.602509 0.565704 0.200836
0.625824 0.573853 0.207275
0.647064 0.580750 0.213196
0.667175 0.587097 0.218842
0.685760 0.592773 0.224365
0.710999 0.598358 0.231110
0.732269 0.601715 0.235443
0.748657 0.602295 0.237885
0.763641 0.602386 0.239502
0.778564 0.603302 0.240967
0.790894 0.603546 0.243958
0.803253 0.603882 0.244995
0.813477 0.603821 0.246613
0.821625 0.602295 0.246033
0.828125 0.600098 0.245636
0.833832 0.598511 0.245819
0.839142 0.596680 0.245728
0.843750 0.594055 0.244354
0.848145 0.591217 0.242279
0.851868 0.586823 0.239929
0.855042 0.581512 0.237183
0.857025 0.576538 0.234375
0.859985 0.571533 0.230377
0.251678 0.453003 0.179596
0.294037 0.471405 0.176361
0.341858 0.489655 0.172882
0.389191 0.506500 0.169159
0.438141 0.521545 0.172577
0.471893 0.532684 0.177765
0.505066 0.544037 0.184326
0.535309 0.554413 0.190887
0.565521 0.564850 0.197540
0.592346 0.574005 0.203735
0.619019 0.583801 0.211090
0.642700 0.592499 0.218048
0.664032 0.599365 0.224335
0.684143 0.605225 0.230072
0.703003 0.610748 0.235352
0.720093 0.615204 0.240051
0.741882 0.619171 0.245636
0.761475 0.622406 0.249664
0.776550 0.622406 0.251343
0.790009 0.622375 0.252625
0.802948 0.622345 0.253479
0.813599 0.622192 0.255859
0.823303 0.621948 0.257812
0.831451 0.620758 0.257446
0.837982 0.618744 0.257416
0.843567 0.617157 0.257721
0.848206 0.615509 0.257874
0.852722 0.612823 0.256012
0.857300 0.610229 0.254211
0.861633 0.607269 0.253021
0.865723 0.602814 0.250183
0.868256 0.597412 0.246155
0.870880 0.592377 0.242554
0.279175 0.477814 0.187683
0.320801 0.494904 0.185059
0.367676 0.512543 0.181824
0.413727 0.528351 0.178131
0.461273 0.542114 0.182922
0.493652 0.552551 0.188293
0.523926 0.562378 0.194641
0.553192 0.572083 0.201019
0.582458 0.581696 0.207489
0.608887 0.590332 0.213593
0.632660 0.598419 0.219849
0.655609 0.606842 0.226959
0.677490 0.614258 0.233490
0.697815 0.620117 0.239227
0.716949 0.625153 0.244568
0.734253 0.629669 0.249512
0.749969 0.633301 0.253723
0.770905 0.637543 0.258667
0.787933 0.639648 0.261536
0.801300 0.639587 0.263000
0.812958 0.639435 0.264191
0.823608 0.639191 0.265625
0.832550 0.638763 0.267853
0.840027 0.637573 0.268677
0.846558 0.636200 0.268768
0.852234 0.634644 0.268555
0.856934 0.633209 0.268738
0.861389 0.630463 0.266907
0.865906 0.627625 0.264954
0.870697 0.625580 0.264435
0.875488 0.622650 0.262787
0.878326 0.618042 0.259247
0.880463 0.612854 0.255676
0.306061 0.500214 0.195496
0.347168 0.516479 0.192963
0.392761 0.532990 0.190094
0.436310 0.547394 0.187683
0.481323 0.560211 0.193298
0.512848 0.570099 0.198456
0.541687 0.579041 0.204468
0.569611 0.587860 0.210602
0.598022 0.597076 0.217194
0.624023 0.605255 0.223358
0.647430 0.613068 0.229401
0.667725 0.620300 0.235352
0.689087 0.627594 0.242096
0.711029 0.633911 0.248230
0.730286 0.638947 0.253632
0.748047 0.643433 0.258514
0.763916 0.647247 0.263000
0.778687 0.650513 0.266205
0.797821 0.654175 0.270630
0.811279 0.654572 0.272064
0.822815 0.654327 0.272583
0.832397 0.654022 0.274933
0.841736 0.653442 0.276154
0.848602 0.652069 0.277008
0.854431 0.650757 0.277740
0.859619 0.649994 0.278717
0.864868 0.648651 0.278595
0.869019 0.646545 0.277832
0.873260 0.643890 0.276154
0.878052 0.642273 0.275360
0.883057 0.640198 0.274353
0.886444 0.637451 0.272644
0.889252 0.632812 0.268738
0.331940 0.520599 0.203064
0.372070 0.536102 0.199921
0.415924 0.551453 0.197998
0.457153 0.564575 0.197296
0.499542 0.576447 0.202728
0.530060 0.585663 0.207642
0.557739 0.593933 0.213318
0.584381 0.602081 0.219391
0.611664 0.610596 0.225769
0.637451 0.618683 0.232086
0.661163 0.626312 0.238098
0.680969 0.633331 0.244019
0.699982 0.639984 0.249908
0.721344 0.646179 0.256042
0.742371 0.651764 0.261658
0.760315 0.656067 0.266510
0.776337 0.659821 0.271057
0.791321 0.663330 0.274719
0.805145 0.666321 0.277740
0.820404 0.668335 0.280640
0.831482 0.667969 0.281067
0.841339 0.667572 0.282684
0.849854 0.666840 0.284607
0.856628 0.665283 0.284393
0.861847 0.663635 0.284973
0.866730 0.662994 0.286682
0.871521 0.662231 0.287689
0.875946 0.660767 0.287231
0.880157 0.658600 0.285980
0.884552 0.657349 0.285706
0.889008 0.655731 0.285217
0.893250 0.653778 0.283386
0.896790 0.650757 0.280914
0.355560 0.539490 0.209381
0.394806 0.554016 0.207214
0.436890 0.568451 0.205109
0.476562 0.580414 0.205963
0.516571 0.591400 0.211182
0.546570 0.600281 0.216217
0.573822 0.608154 0.221710
0.598145 0.615112 0.227020
0.623840 0.622833 0.233124
0.649506 0.630707 0.239227
0.673126 0.638153 0.245453
0.692780 0.644867 0.251190
0.711365 0.651276 0.256805
0.730591 0.657196 0.262390
0.751251 0.662628 0.268127
0.770844 0.667664 0.273438
0.787048 0.671387 0.277985
0.801453 0.674591 0.281952
0.815277 0.677765 0.284607
0.826965 0.680542 0.288025
0.839355 0.681122 0.289062
0.849365 0.680634 0.289978
0.857452 0.679749 0.291931
0.863373 0.678131 0.292786
0.868866 0.676331 0.292267
0.872528 0.674927 0.294617
0.877228 0.674347 0.295837
0.881622 0.673309 0.295135
0.885742 0.671661 0.294342
0.890045 0.670349 0.293915
0.894318 0.669159 0.293732
0.898529 0.667511 0.292572
0.902466 0.665527 0.291260
0.377686 0.556885 0.216461
0.415375 0.570465 0.214111
0.455780 0.583984 0.212067
0.494019 0.595093 0.213745
0.532440 0.605469 0.219116
0.562164 0.613831 0.224121
0.589386 0.621704 0.229431
0.612305 0.627808 0.234406
0.635529 0.634369 0.239838
0.660309 0.641754 0.245941
0.683868 0.649109 0.252075
0.703674 0.655426 0.257812
0.721680 0.661377 0.263214
0.740387 0.667358 0.268646
0.759521 0.672760 0.273987
0.778687 0.677826 0.279663
0.796265 0.682190 0.284637
0.810425 0.685455 0.288574
0.822937 0.688171 0.291260
0.834778 0.691101 0.294250
0.846588 0.693726 0.296539
0.856537 0.693451 0.298553
0.863678 0.692444 0.300598
0.870178 0.690796 0.299927
0.875092 0.688843 0.300415
0.879425 0.687195 0.300720
0.882904 0.685944 0.302460
0.887238 0.684967 0.301971
0.890747 0.683777 0.301758
0.894501 0.682556 0.302460
0.898438 0.681427 0.302856
0.903290 0.679871 0.300903
0.907501 0.678192 0.299530
0.397522 0.573120 0.222534
0.434326 0.585632 0.220459
0.473236 0.598450 0.218353
0.510529 0.608765 0.221161
0.547760 0.618561 0.226288
0.576843 0.626465 0.231140
0.603668 0.634033 0.236298
0.626007 0.640015 0.241516
0.647888 0.645905 0.246887
0.670868 0.652496 0.252747
0.693756 0.659363 0.258759
0.713837 0.665588 0.264374
0.731903 0.671356 0.269897
0.749756 0.676910 0.275269
0.768219 0.682526 0.280823
0.786407 0.687653 0.286224
0.803589 0.691986 0.291321
0.817596 0.695496 0.295410
0.829498 0.698364 0.298706
0.841736 0.700897 0.300781
0.852783 0.703552 0.304108
0.862457 0.705627 0.306976
0.870422 0.704681 0.307739
0.875824 0.703033 0.307983
0.881287 0.701233 0.307465
0.884979 0.699402 0.308441
0.888489 0.698059 0.309753
0.892487 0.696777 0.308807
0.895538 0.695862 0.310303
0.899414 0.694641 0.310425
0.903168 0.693420 0.311310
0.907837 0.692200 0.309814
0.912292 0.690704 0.308441
0.416168 0.588074 0.228790
0.452118 0.599945 0.227295
0.489624 0.612061 0.224731
0.525970 0.621582 0.228302
0.562164 0.630859 0.233185
0.590576 0.638306 0.237854
0.617218 0.645569 0.243164
0.638794 0.651306 0.248444
0.659760 0.656921 0.253754
0.681427 0.662872 0.259460
0.703156 0.669098 0.265228
0.722931 0.675018 0.270782
0.741150 0.680634 0.276306
0.758820 0.686035 0.281738
0.776001 0.691284 0.287262
0.793488 0.696381 0.292603
0.809814 0.700897 0.297516
0.823242 0.704315 0.301636
0.835175 0.707214 0.305145
0.847046 0.709900 0.307739
0.857788 0.712463 0.310272
0.867035 0.714874 0.313629
0.875244 0.716644 0.316467
0.881287 0.714935 0.315704
0.886230 0.712982 0.314697
0.889893 0.711426 0.315887
0.893250 0.709900 0.316742
0.896515 0.708771 0.317139
0.899963 0.707520 0.317627
0.903564 0.706573 0.318909
0.907104 0.705444 0.320251
0.911652 0.704163 0.318817
0.916443 0.702850 0.316956
0.431763 0.601410 0.235962
0.467560 0.613037 0.234253
0.503967 0.624664 0.231903
0.539764 0.633514 0.236053
0.575043 0.642365 0.240784
0.602905 0.649200 0.245239
0.629272 0.656128 0.250366
0.650421 0.661713 0.255341
0.670380 0.667053 0.260559
0.690796 0.672302 0.265839
0.711426 0.677826 0.271332
0.730743 0.683411 0.276611
0.748901 0.688782 0.281982
0.765991 0.693878 0.287354
0.782562 0.698853 0.292542
0.798737 0.703552 0.297455
0.814117 0.707977 0.302216
0.827484 0.711761 0.306396
0.839447 0.714661 0.309937
0.850861 0.717346 0.313141
0.860413 0.719940 0.316498
0.869507 0.722321 0.318390
0.878357 0.724701 0.321564
0.885498 0.726440 0.324005
0.890411 0.724426 0.322876
0.893921 0.723053 0.324127
0.897217 0.721649 0.324890
0.900879 0.720459 0.324463
0.904297 0.719330 0.324707
0.907806 0.718597 0.326508
0.911194 0.717468 0.328003
0.914948 0.715546 0.326996
0.919647 0.714264 0.325165
0.445312 0.613464 0.242462
0.480652 0.624786 0.241089
0.516907 0.635864 0.239380
0.552094 0.644470 0.243652
0.586517 0.653076 0.248596
0.614197 0.659607 0.252808
0.640198 0.666107 0.257385
0.660919 0.671387 0.262146
0.680359 0.676544 0.267151
0.699982 0.681213 0.272095
0.719391 0.686005 0.277374
0.737976 0.690918 0.282379
0.755829 0.696045 0.287354
0.772583 0.700928 0.292572
0.788635 0.705658 0.297607
0.804169 0.710114 0.301971
0.817657 0.714172 0.306213
0.830688 0.717987 0.310577
0.842834 0.721313 0.314301
0.853943 0.724030 0.317810
0.863007 0.726562 0.320770
0.871429 0.729004 0.324066
0.879974 0.731384 0.325806
0.887695 0.733734 0.328461
0.894257 0.735352 0.330261
0.897980 0.734039 0.330597
0.901276 0.732880 0.331879
0.904999 0.731750 0.331329
0.907898 0.730682 0.332733
0.911774 0.730042 0.333801
0.915375 0.729340 0.335541
0.918549 0.727661 0.335327
0.922516 0.725708 0.333405
0.455414 0.622986 0.248291
0.490173 0.634064 0.246857
0.525848 0.645050 0.245148
0.561127 0.653381 0.249359
0.595337 0.661743 0.254181
0.623444 0.668274 0.258667
0.649414 0.674469 0.263062
0.669830 0.679565 0.267822
0.688995 0.684448 0.272766
0.708496 0.688934 0.277771
0.727234 0.693268 0.282776
0.744598 0.697571 0.287537
0.761780 0.702209 0.292358
0.778137 0.707001 0.297272
0.793884 0.711639 0.302155
0.808533 0.715790 0.306488
0.821594 0.719727 0.310608
0.833923 0.723450 0.314667
0.845886 0.726898 0.318542
0.856018 0.729919 0.322144
0.864868 0.732422 0.325470
0.873474 0.734924 0.327087
0.881134 0.737335 0.331085
0.889069 0.739716 0.332947
0.895599 0.741913 0.335419
0.901367 0.743195 0.335938
0.904541 0.742249 0.337646
0.908081 0.741852 0.338348
0.911255 0.740814 0.338959
0.914551 0.740387 0.340485
0.918213 0.739716 0.342529
0.921478 0.739227 0.343292
0.924500 0.737671 0.342896
0.464508 0.631775 0.253357
0.498657 0.642822 0.252075
0.533936 0.653503 0.250305
0.568939 0.661652 0.254578
0.603210 0.669678 0.259186
0.631561 0.676086 0.263763
0.657959 0.682159 0.268433
0.678467 0.687256 0.273163
0.697449 0.691925 0.278015
0.716583 0.696198 0.283081
0.735199 0.700287 0.288086
0.751831 0.704285 0.292603
0.767853 0.708405 0.297363
0.783569 0.712799 0.302032
0.798920 0.717224 0.306610
0.812683 0.721313 0.311005
0.825348 0.725067 0.315094
0.837524 0.728729 0.319122
0.848663 0.732178 0.322845
0.858124 0.735229 0.326447
0.866608 0.737946 0.329712
0.874573 0.740448 0.332703
0.882721 0.742859 0.334412
0.890106 0.745300 0.337494
0.896698 0.747589 0.339966
