滤镜资源/Professional Luts Collection/Lutify.me Professional/Cine Looks/Septarian.cube
# Created by: Lutify.me
# Copyright: (c) Copyright Lutify.me 2015
# Website: https://lutify.me
#LUT size
LUT_3D_SIZE 5
#LUT data points
0.010925 0.053741 0.054260
0.226868 0.070770 0.044678
0.446167 0.092010 0.050842
0.550476 0.130737 0.062561
0.627228 0.167206 0.075317
0.080780 0.237274 0.104950
0.400757 0.359650 0.108551
0.638977 0.442413 0.149811
0.744751 0.458557 0.165253
0.779968 0.419403 0.148041
0.279175 0.477814 0.187683
0.582458 0.581696 0.207489
0.749969 0.633301 0.253723
0.846558 0.636200 0.268768
0.880463 0.612854 0.255676
0.445312 0.613464 0.242462
0.680359 0.676544 0.267151
0.817657 0.714172 0.306213
0.894257 0.735352 0.330261
0.922516 0.725708 0.333405
0.514343 0.678314 0.278748
0.741058 0.731140 0.308441
0.849731 0.757233 0.342651
0.903320 0.778290 0.370331
0.931519 0.791992 0.385620
0.009460 0.051147 0.097198
0.122681 0.067108 0.123566
0.362244 0.074219 0.142273
0.493896 0.083435 0.147461
0.566223 0.089508 0.144104
0.020691 0.177521 0.212860
0.244720 0.242126 0.240875
0.520203 0.276581 0.237946
0.650238 0.268738 0.234283
0.721802 0.252014 0.193787
0.091034 0.415527 0.308014
0.393188 0.503296 0.335419
0.643494 0.561371 0.350006
0.770966 0.555603 0.354492
0.853821 0.521606 0.300995
0.197083 0.561401 0.379883
0.513153 0.642334 0.398834
0.699646 0.686035 0.420410
0.822968 0.712524 0.446289
0.903900 0.711182 0.436371
0.257751 0.626709 0.410095
0.572327 0.717804 0.416595
0.739532 0.754608 0.434723
0.851349 0.784088 0.477936
0.913757 0.809021 0.526154
0.009399 0.051147 0.158325
0.071259 0.064148 0.161163
0.274841 0.083130 0.203888
0.414124 0.088470 0.229340
0.516693 0.091949 0.223969
0.020386 0.154022 0.279358
0.147064 0.200989 0.305237
0.386597 0.226013 0.336670
0.561920 0.216797 0.333405
0.675873 0.187988 0.284882
0.059723 0.373016 0.421112
0.233917 0.455048 0.451721
0.529419 0.516663 0.491272
0.690033 0.499512 0.468536
0.818451 0.428009 0.382751
0.125275 0.549652 0.494049
0.334991 0.609772 0.515533
0.592651 0.665588 0.563049
0.752991 0.708862 0.588165
0.889435 0.708435 0.562042
0.188995 0.635773 0.529633
0.361633 0.682983 0.539612
0.605774 0.745331 0.571259
0.793213 0.800201 0.601288
0.904755 0.838593 0.673767
0.010223 0.054993 0.200653
0.030579 0.058380 0.187469
0.168640 0.082367 0.227295
0.336975 0.096222 0.256348
0.466461 0.096985 0.267242
0.021881 0.162598 0.328339
0.076721 0.186188 0.342773
0.235657 0.194946 0.359955
0.469971 0.216980 0.388824
0.615601 0.180420 0.350189
0.056061 0.364410 0.468353
0.149475 0.407623 0.488098
0.366669 0.449768 0.517639
0.614990 0.480377 0.553223
0.784882 0.406738 0.480774
0.114685 0.545044 0.567963
0.220734 0.584839 0.585602
0.474701 0.643250 0.624329
0.694794 0.708252 0.679596
0.879486 0.703369 0.668915
0.174500 0.642578 0.618500
0.247925 0.669708 0.622406
0.460236 0.734833 0.662811
0.738831 0.809113 0.725922
0.895508 0.859589 0.786255
0.010742 0.059418 0.228394
0.011261 0.054016 0.210815
0.058655 0.065887 0.237732
0.202667 0.087097 0.270233
0.411438 0.103546 0.301392
0.021118 0.172119 0.363556
0.024597 0.146057 0.348419
0.063202 0.134399 0.349945
0.261444 0.161041 0.396423
0.541351 0.203491 0.432404
0.047882 0.346161 0.489044
0.055115 0.316772 0.479370
0.082275 0.279938 0.476807
0.314453 0.317474 0.525208
0.687347 0.419006 0.604828
0.093781 0.500793 0.580627
0.118469 0.498993 0.587311
0.220978 0.537018 0.626556
0.444824 0.589996 0.677307
0.819916 0.679077 0.754578
0.150940 0.621674 0.653748
0.196564 0.649902 0.675903
0.366028 0.723114 0.726135
0.662628 0.809387 0.795441
0.933258 0.893188 0.885345
