滤镜资源/Professional Luts Collection/Lutify.me Professional/Cine Looks/Septarian.cube
# Created by: Lutify.me
# Copyright: (c) Copyright Lutify.me 2015
# Website: https://lutify.me
#LUT size
LUT_3D_SIZE 9
#LUT data points
0.010925 0.053741 0.054260
0.082916 0.060730 0.049957
0.226868 0.070770 0.044678
0.362335 0.079559 0.045868
0.446167 0.092010 0.050842
0.502777 0.111023 0.056274
0.550476 0.130737 0.062561
0.595245 0.156006 0.070892
0.627228 0.167206 0.075317
0.023041 0.114258 0.067261
0.145172 0.155640 0.061951
0.312897 0.193207 0.063782
0.455017 0.230225 0.069397
0.557556 0.268585 0.081818
0.621033 0.292877 0.092102
0.661865 0.301727 0.097778
0.688660 0.297729 0.098724
0.710876 0.292450 0.098328
0.080780 0.237274 0.104950
0.242004 0.305481 0.095795
0.400757 0.359650 0.108551
0.532684 0.401184 0.126434
0.638977 0.442413 0.149811
0.706390 0.459839 0.161774
0.744751 0.458557 0.165253
0.765015 0.441254 0.158386
0.779968 0.419403 0.148041
0.169189 0.366180 0.153168
0.353851 0.438568 0.138672
0.498260 0.491486 0.162048
0.597900 0.527222 0.184296
0.703094 0.553345 0.206512
0.767883 0.564178 0.218903
0.806641 0.562042 0.221313
0.825989 0.548584 0.216309
0.837738 0.528107 0.203949
0.279175 0.477814 0.187683
0.461273 0.542114 0.182922
0.582458 0.581696 0.207489
0.677490 0.614258 0.233490
0.749969 0.633301 0.253723
0.812958 0.639435 0.264191
0.846558 0.636200 0.268768
0.865906 0.627625 0.264954
0.880463 0.612854 0.255676
0.377686 0.556885 0.216461
0.532440 0.605469 0.219116
0.635529 0.634369 0.239838
0.721680 0.661377 0.263214
0.796265 0.682190 0.284637
0.846588 0.693726 0.296539
0.875092 0.688843 0.300415
0.890747 0.683777 0.301758
0.907501 0.678192 0.299530
0.445312 0.613464 0.242462
0.586517 0.653076 0.248596
0.680359 0.676544 0.267151
0.755829 0.696045 0.287354
0.817657 0.714172 0.306213
0.863007 0.726562 0.320770
0.894257 0.735352 0.330261
0.907898 0.730682 0.332733
0.922516 0.725708 0.333405
0.481567 0.648682 0.262848
0.618347 0.684265 0.269470
0.713623 0.705872 0.288879
0.782074 0.721039 0.307281
0.833313 0.735321 0.323242
0.870422 0.747864 0.337280
0.898590 0.757599 0.347534
0.917786 0.764862 0.355499
0.929596 0.765106 0.363251
0.514343 0.678314 0.278748
0.648834 0.711304 0.289917
0.741058 0.731140 0.308441
0.809174 0.746521 0.329041
0.849731 0.757233 0.342651
0.880798 0.768311 0.357574
0.903320 0.778290 0.370331
0.919952 0.785553 0.379333
0.931519 0.791992 0.385620
0.009430 0.049591 0.069092
0.048462 0.058563 0.086090
0.162201 0.063110 0.086487
0.299164 0.068390 0.087006
0.402863 0.073181 0.086273
0.471161 0.079926 0.087494
0.519073 0.090820 0.091187
0.554871 0.100311 0.094818
0.582611 0.108673 0.099152
0.010193 0.095093 0.107178
0.096680 0.125854 0.125214
0.243134 0.142487 0.114624
0.390045 0.160828 0.111786
0.499939 0.175842 0.112854
0.565033 0.185242 0.116241
0.605621 0.187286 0.124054
0.639252 0.190002 0.123260
0.668945 0.196136 0.119965
0.032776 0.205536 0.140381
0.161346 0.251221 0.156158
0.330231 0.301147 0.152069
0.482849 0.330933 0.153961
0.592712 0.351898 0.159149
0.661926 0.361084 0.165283
0.704590 0.354736 0.169342
0.732941 0.339539 0.160278
0.755188 0.329102 0.149139
0.085785 0.330261 0.181671
0.243500 0.384735 0.193695
0.406982 0.440094 0.193024
0.555847 0.482422 0.209961
0.654083 0.487061 0.215759
0.722961 0.493011 0.226227
0.768188 0.486725 0.228485
0.797028 0.473541 0.219330
0.819153 0.457153 0.201141
0.166016 0.444550 0.226837
0.334045 0.494965 0.231445
0.481323 0.540833 0.231903
0.612823 0.576416 0.254211
0.716309 0.599579 0.271027
0.770386 0.595459 0.280701
0.814423 0.593475 0.285553
0.842804 0.583221 0.281799
0.865784 0.568848 0.266602
0.237976 0.521149 0.275757
0.416840 0.572052 0.269226
0.544464 0.608124 0.270264
0.652618 0.635223 0.291840
0.746216 0.658386 0.312683
0.808990 0.670898 0.325043
0.843292 0.661987 0.328278
0.870026 0.657501 0.331665
0.898804 0.652802 0.324249
0.293335 0.576111 0.310822
0.478821 0.629456 0.298676
0.594086 0.659027 0.301117
0.688202 0.680756 0.319000
0.764404 0.697937 0.338257
0.822693 0.712524 0.355072
0.864105 0.723083 0.366180
0.887939 0.718445 0.372711
0.913025 0.715118 0.373047
0.335846 0.614136 0.338074
0.519928 0.668732 0.320099
0.629242 0.694366 0.324615
0.713531 0.711456 0.341003
0.782532 0.726379 0.359741
0.831848 0.740479 0.377808
0.870544 0.752563 0.393799
0.898346 0.763031 0.405853
0.920990 0.764618 0.413177
0.365540 0.641479 0.352570
0.550690 0.699646 0.332397
0.655518 0.723999 0.338562
0.736633 0.739563 0.353149
0.799103 0.753174 0.373230
0.845459 0.766235 0.393158
0.879578 0.779236 0.414948
0.904755 0.789581 0.431366
0.922516 0.798401 0.445465
0.009460 0.051147 0.097198
0.029938 0.057556 0.107056
0.122681 0.067108 0.123566
0.244995 0.071686 0.135315
0.362244 0.074219 0.142273
0.440796 0.078430 0.145050
0.493896 0.083435 0.147461
0.533173 0.087463 0.148102
0.566223 0.089508 0.144104
0.010742 0.090729 0.153625
0.060333 0.104797 0.160522
0.180450 0.119873 0.175507
0.331726 0.130371 0.177673
0.445251 0.138641 0.175842
0.514954 0.140198 0.173981
0.562195 0.140808 0.173248
0.600342 0.141052 0.168701
0.631775 0.141296 0.154694
0.020691 0.177521 0.212860
0.094299 0.209625 0.226685
0.244720 0.242126 0.240875
0.400482 0.264343 0.237244
0.520203 0.276581 0.237946
0.601776 0.275970 0.235840
0.650238 0.268738 0.234283
0.688751 0.252502 0.220154
0.721802 0.252014 0.193787
0.046570 0.303864 0.258972
0.150635 0.339783 0.272583
0.314331 0.387878 0.287231
0.477814 0.431702 0.294403
0.589111 0.436188 0.295044
0.668213 0.436859 0.295776
0.723785 0.427185 0.288849
0.770538 0.409271 0.270325
0.802032 0.390900 0.237030
0.091034 0.415527 0.308014
0.227478 0.458344 0.321564
0.393188 0.503296 0.335419
0.527802 0.538544 0.340149
0.643494 0.561371 0.350006
0.713104 0.556427 0.353210
0.770966 0.555603 0.354492
0.818268 0.539734 0.335876
0.853821 0.521606 0.300995
0.147705 0.501892 0.348602
0.306763 0.545441 0.363403
0.463562 0.585205 0.370758
0.574371 0.612549 0.376923
0.675903 0.635254 0.391785
0.750244 0.648621 0.402679
0.797363 0.639862 0.402527
0.845947 0.637421 0.395386
0.886169 0.631989 0.375610
0.197083 0.561401 0.379883
0.367798 0.602478 0.392548
0.513153 0.642334 0.398834
0.614258 0.667969 0.404022
0.699646 0.686035 0.420410
0.769836 0.701477 0.435120
0.822968 0.712524 0.446289
0.863922 0.707855 0.443848
0.903900 0.711182 0.436371
0.234802 0.600128 0.396484
0.406311 0.641541 0.411804
0.551361 0.686523 0.412659
0.640686 0.707336 0.416962
0.720703 0.724121 0.432159
0.783478 0.738983 0.449860
0.835815 0.753204 0.467377
0.876984 0.765564 0.484680
0.910767 0.768768 0.488251
0.257751 0.626709 0.410095
0.434052 0.671509 0.423523
0.572327 0.717804 0.416595
0.659210 0.738831 0.419128
0.739532 0.754608 0.434723
0.800293 0.768799 0.455566
0.851349 0.784088 0.477936
0.888855 0.798553 0.505219
0.913757 0.809021 0.526154
0.009399 0.051910 0.130127
0.021362 0.056152 0.128265
0.094604 0.066559 0.143951
0.210358 0.076569 0.166107
0.316772 0.079163 0.181915
0.398346 0.081696 0.190948
0.457336 0.085144 0.196899
0.502716 0.087006 0.196777
0.543243 0.087219 0.189514
0.011566 0.091248 0.189606
0.044495 0.097015 0.188019
0.127563 0.105988 0.195923
0.264893 0.125427 0.222504
0.383026 0.129578 0.231018
0.466675 0.129517 0.232910
0.524109 0.128052 0.233368
0.572693 0.126465 0.225037
0.614838 0.124420 0.210358
0.019897 0.160858 0.250092
0.069855 0.184814 0.260376
0.186798 0.216095 0.280182
0.332001 0.232819 0.298950
0.460266 0.236084 0.295471
0.548676 0.233856 0.289917
0.608917 0.229584 0.283478
0.655182 0.215790 0.265717
0.691620 0.205658 0.235657
0.036346 0.268707 0.318634
0.103760 0.312836 0.337494
0.237976 0.354248 0.355621
0.406921 0.390930 0.375549
0.526154 0.398163 0.372040
0.609070 0.394745 0.366119
0.676697 0.381104 0.353760
0.731873 0.357513 0.330200
0.773224 0.330597 0.285675
0.066406 0.393188 0.375977
0.150665 0.432861 0.384125
0.306061 0.474518 0.403870
0.466003 0.509216 0.422913
0.574829 0.531586 0.431610
0.657166 0.528015 0.426239
0.726501 0.522247 0.417206
0.787445 0.503784 0.391357
0.835480 0.471832 0.343170
0.105927 0.484314 0.412140
0.215363 0.527191 0.422028
0.372803 0.561035 0.445587
0.514893 0.593933 0.467560
0.611755 0.616425 0.473938
0.695587 0.634613 0.486633
0.759186 0.629272 0.479736
0.820770 0.623413 0.463409
0.875458 0.611359 0.428223
0.145782 0.553192 0.440918
0.270111 0.589111 0.449341
0.420929 0.618958 0.470337
0.555450 0.654480 0.490814
0.636322 0.673859 0.496857
0.719574 0.694885 0.513306
0.783112 0.708435 0.526031
0.840729 0.707001 0.518280
0.895111 0.708282 0.500397
0.179474 0.597046 0.458405
0.308472 0.631287 0.468323
0.446960 0.660522 0.486877
0.576233 0.699524 0.504272
0.659088 0.722992 0.508057
0.738312 0.741333 0.525421
0.804230 0.758362 0.543365
0.855438 0.771820 0.563293
0.903229 0.775726 0.560699
0.191559 0.621399 0.467316
0.323853 0.660034 0.478607
0.455872 0.689453 0.491150
0.578430 0.728729 0.496429
0.662018 0.753021 0.500336
0.753845 0.774231 0.517426
0.821167 0.792572 0.543243
0.873505 0.810974 0.575439
0.907990 0.823883 0.603424
0.009399 0.051147 0.158325
0.014954 0.053680 0.149323
0.071259 0.064148 0.161163
0.170746 0.079285 0.185150
0.274841 0.083130 0.203888
0.352753 0.085724 0.219269
0.414124 0.088470 0.229340
0.466797 0.091858 0.231018
0.516693 0.091949 0.223969
0.011658 0.087494 0.215881
0.034302 0.092712 0.211792
0.090546 0.097992 0.214783
0.200226 0.118683 0.239380
0.322083 0.130188 0.261658
0.408447 0.130524 0.270874
0.477722 0.129639 0.273438
0.533752 0.127167 0.266296
0.589722 0.121887 0.248810
0.020386 0.154022 0.279358
0.055389 0.176666 0.289124
0.147064 0.200989 0.305237
0.251282 0.211060 0.316071
0.386597 0.226013 0.336670
0.485168 0.222748 0.338074
0.561920 0.216797 0.333405
0.626251 0.202820 0.315155
0.675873 0.187988 0.284882
0.036957 0.251343 0.348450
0.082428 0.289093 0.364807
0.189575 0.328949 0.384125
0.333527 0.362488 0.405121
0.472504 0.374115 0.422943
0.565430 0.366058 0.412537
0.640564 0.351593 0.394318
0.707092 0.329224 0.367432
0.757172 0.294159 0.325165
0.059723 0.373016 0.421112
0.113647 0.416901 0.437408
0.233917 0.455048 0.451721
0.390991 0.488739 0.470886
0.529419 0.516663 0.491272
0.613708 0.509918 0.481354
0.690033 0.499512 0.468536
0.762299 0.473083 0.438690
0.818451 0.428009 0.382751
0.092255 0.476990 0.464508
0.161407 0.514343 0.474152
0.289368 0.546112 0.487000
0.444031 0.575073 0.511200
0.562958 0.600342 0.527740
0.647675 0.620056 0.540100
0.723175 0.612732 0.530090
0.802521 0.602661 0.509430
0.869232 0.585907 0.470062
0.125275 0.549652 0.494049
0.202301 0.578827 0.500244
0.334991 0.609772 0.515533
0.476929 0.637024 0.540192
0.592651 0.665588 0.563049
0.670502 0.687469 0.570740
0.752991 0.708862 0.588165
0.826508 0.706482 0.578186
0.889435 0.708435 0.562042
0.160522 0.599365 0.512909
0.236145 0.623077 0.518250
0.358032 0.652405 0.531219
0.493958 0.682831 0.555023
0.612152 0.716888 0.579803
0.690247 0.740814 0.584076
0.775970 0.764587 0.605438
0.844635 0.782562 0.629547
0.899750 0.783844 0.626129
0.188995 0.635773 0.529633
0.253815 0.655548 0.530487
0.361633 0.682983 0.539612
0.484467 0.711273 0.552704
0.605774 0.745331 0.571259
0.700104 0.776062 0.578552
0.793213 0.800201 0.601288
0.864441 0.823181 0.641602
0.904755 0.838593 0.673767
0.009857 0.053009 0.182617
0.011536 0.052277 0.167908
0.050018 0.060974 0.175110
0.126068 0.074249 0.196198
0.221832 0.088013 0.219849
0.310699 0.090057 0.232971
0.373138 0.091766 0.246002
0.432495 0.093811 0.252167
0.492767 0.095154 0.248016
0.011810 0.088013 0.237427
0.026123 0.093384 0.233521
0.061646 0.091919 0.230347
0.143951 0.108521 0.251312
0.253418 0.127014 0.275238
0.360901 0.134277 0.291656
0.434479 0.133362 0.298553
0.500092 0.128632 0.293030
0.561768 0.124146 0.277191
0.021210 0.155823 0.304840
0.043640 0.173859 0.312347
0.110016 0.192932 0.325836
0.186432 0.192780 0.328766
0.308044 0.212189 0.350433
0.428864 0.220154 0.365173
0.511963 0.215393 0.366272
0.587097 0.200867 0.349976
0.648956 0.181732 0.317291
0.036041 0.251648 0.375275
0.069702 0.283142 0.389893
0.145355 0.315582 0.408325
0.269012 0.340179 0.423859
0.378906 0.345612 0.432098
0.513397 0.361298 0.453674
0.596619 0.343109 0.439911
0.676422 0.316864 0.411530
0.740356 0.286713 0.371735
0.056824 0.362701 0.444336
0.096558 0.393005 0.455841
0.186493 0.424744 0.469238
0.321075 0.459137 0.487793
0.446411 0.482819 0.506561
0.575500 0.494049 0.523010
0.659698 0.483032 0.508759
0.739441 0.456299 0.478058
0.801147 0.406281 0.419342
0.089752 0.472931 0.505035
0.136871 0.505127 0.516144
0.227753 0.532898 0.527191
0.372620 0.560913 0.541901
0.503387 0.587219 0.563873
0.611969 0.613495 0.584869
0.695404 0.607666 0.574829
0.785217 0.594940 0.555054
0.855774 0.559631 0.510834
0.119904 0.549011 0.536072
0.169678 0.571625 0.542145
0.266418 0.597382 0.552429
0.402924 0.623566 0.568695
0.537170 0.654297 0.595764
0.637543 0.682465 0.618256
0.723175 0.706787 0.634186
0.811615 0.709137 0.629028
0.887146 0.708099 0.616211
0.150757 0.600769 0.559967
0.197876 0.618439 0.562378
0.291718 0.644012 0.572144
0.416534 0.673645 0.590027
0.548401 0.706451 0.616730
0.657471 0.736481 0.642822
0.742920 0.762207 0.653503
0.827332 0.787262 0.682953
0.897186 0.791168 0.686493
0.180878 0.641083 0.577942
0.216583 0.654175 0.578064
0.296875 0.677185 0.584106
0.400055 0.705902 0.598602
0.528717 0.739777 0.622559
0.657318 0.773132 0.645752
0.761963 0.806122 0.657745
0.850769 0.831848 0.699829
0.899139 0.849396 0.734589
0.010223 0.054993 0.200653
0.011108 0.051941 0.183655
0.030579 0.058380 0.187469
0.085632 0.068726 0.204956
0.168640 0.082367 0.227295
0.255310 0.095245 0.246857
0.336975 0.096222 0.256348
0.399200 0.096680 0.266266
0.466461 0.096985 0.267242
0.012177 0.091339 0.256653
0.021088 0.095276 0.254425
0.040955 0.089111 0.244446
0.099762 0.102478 0.264801
0.188843 0.117523 0.284882
0.294830 0.133850 0.304260
0.395874 0.137970 0.314819
0.465912 0.132263 0.315857
0.534027 0.126312 0.305023
0.021881 0.162598 0.328339
0.033234 0.174133 0.331879
0.076721 0.186188 0.342773
0.130096 0.179230 0.339935
0.235657 0.194946 0.359955
0.353180 0.210114 0.377472
0.469971 0.216980 0.388824
0.550537 0.202545 0.380768
0.615601 0.180420 0.350189
0.035156 0.257904 0.399872
0.054230 0.276428 0.408051
0.103882 0.298798 0.421875
0.193054 0.311829 0.434814
0.291077 0.308563 0.436188
0.421326 0.329712 0.457397
0.553070 0.343933 0.477661
0.634338 0.314331 0.453705
0.708282 0.276306 0.410034
0.056061 0.364410 0.468353
0.081879 0.381256 0.474426
0.149475 0.407623 0.488098
0.253876 0.434174 0.504669
0.366669 0.449768 0.517639
0.474915 0.456421 0.526520
0.614990 0.480377 0.553223
0.708923 0.453674 0.533478
0.784882 0.406738 0.480774
0.082916 0.461212 0.522095
0.114136 0.478333 0.528229
0.182129 0.498291 0.537201
0.298157 0.527863 0.554321
0.424347 0.552429 0.571960
0.531281 0.575531 0.593079
0.656006 0.593719 0.614532
0.759003 0.585724 0.602539
0.838867 0.548309 0.560425
0.114685 0.545044 0.567963
0.146698 0.561157 0.574585
0.220734 0.584839 0.585602
0.342072 0.611603 0.600800
0.474701 0.643250 0.624329
0.589508 0.673798 0.652252
0.694794 0.708252 0.679596
0.799683 0.714081 0.678131
0.879486 0.703369 0.668915
0.140717 0.596405 0.592499
0.169952 0.608826 0.596954
0.239380 0.633270 0.606659
0.351562 0.663330 0.624176
0.480438 0.696686 0.648102
0.608154 0.730743 0.678223
0.720215 0.765686 0.706604
0.817139 0.797211 0.731598
0.896301 0.798859 0.737946
0.174500 0.642578 0.618500
0.193787 0.649750 0.616119
0.247925 0.669708 0.622406
0.335480 0.697815 0.637482
0.460236 0.734833 0.662811
0.602997 0.772705 0.695007
0.738831 0.809113 0.725922
0.838867 0.840607 0.750763
0.895508 0.859589 0.786255
0.010529 0.057190 0.214722
0.010437 0.052032 0.195496
0.018921 0.056915 0.200592
0.051666 0.064667 0.215210
0.112762 0.075104 0.233521
0.193878 0.087067 0.251953
0.278900 0.099701 0.266571
0.367889 0.100403 0.277039
0.443451 0.099548 0.284729
0.012421 0.097748 0.275360
0.017090 0.096130 0.270782
0.021576 0.084259 0.254456
0.058014 0.093323 0.273590
0.123230 0.103577 0.292419
0.218323 0.119202 0.310059
0.324615 0.134583 0.325531
0.431488 0.138214 0.334442
0.507690 0.131012 0.332886
0.022156 0.170380 0.349060
0.026703 0.171112 0.346954
0.044891 0.169830 0.350525
0.075134 0.158936 0.342346
0.149872 0.169769 0.364197
0.261261 0.184326 0.383606
0.384766 0.201050 0.400055
0.511749 0.209015 0.410614
0.580994 0.183411 0.389709
0.033936 0.262939 0.419525
0.043457 0.265106 0.419373
0.062653 0.269531 0.426636
0.109009 0.267853 0.433563
0.180695 0.258667 0.431305
0.304230 0.277985 0.455811
0.451141 0.303223 0.479980
0.590790 0.323730 0.499451
0.663879 0.275543 0.459412
0.053314 0.359619 0.482086
0.065704 0.363647 0.483459
0.095612 0.367432 0.489685
0.158264 0.380615 0.502777
0.232880 0.379547 0.512390
0.343689 0.382751 0.518097
0.504425 0.420837 0.552429
0.655640 0.454224 0.583466
0.741943 0.402374 0.544525
0.078705 0.450928 0.534607
0.094147 0.451172 0.534912
0.132690 0.464813 0.545868
0.212555 0.486145 0.561859
0.310944 0.505127 0.581787
0.406189 0.513947 0.594604
0.549103 0.539276 0.614136
0.702789 0.581116 0.653748
0.806396 0.546478 0.633453
0.105530 0.526581 0.578278
0.123566 0.532684 0.581543
0.166748 0.544952 0.591034
0.256744 0.572388 0.609344
0.373901 0.604187 0.634766
0.499329 0.636993 0.661255
0.611603 0.662476 0.684845
0.758606 0.701599 0.720673
0.860046 0.688446 0.712006
0.133118 0.589142 0.614655
0.154175 0.598236 0.620941
0.202972 0.619049 0.635101
0.301605 0.650574 0.653748
0.424255 0.687897 0.681274
0.557251 0.725708 0.711792
0.681244 0.762604 0.744751
0.793579 0.798676 0.775360
0.896790 0.812347 0.790619
0.163940 0.634399 0.639801
0.175293 0.641205 0.643127
0.217072 0.661316 0.654449
0.289520 0.689575 0.671295
0.398773 0.728088 0.698151
0.550232 0.770050 0.731415
0.701965 0.808929 0.765778
0.827789 0.847626 0.802338
0.910706 0.873138 0.831543
0.010742 0.059418 0.228394
0.010223 0.051270 0.207123
0.011261 0.054016 0.210815
0.023438 0.058929 0.222717
0.058655 0.065887 0.237732
0.118805 0.074768 0.253174
0.202667 0.087097 0.270233
0.300446 0.102325 0.286987
0.411438 0.103546 0.301392
0.012329 0.098999 0.288025
0.013306 0.092316 0.281830
0.013306 0.077576 0.263275
0.024445 0.081543 0.273560
0.063904 0.089905 0.295013
0.130219 0.098175 0.311310
0.230835 0.113953 0.327026
0.348785 0.132782 0.343536
0.471924 0.138885 0.358765
0.021118 0.172119 0.363556
0.021393 0.159027 0.353363
0.024597 0.146057 0.348419
0.032074 0.128448 0.335480
0.063202 0.134399 0.349945
0.145111 0.145569 0.374695
0.261444 0.161041 0.396423
0.405396 0.184509 0.415558
0.541351 0.203491 0.432404
0.031219 0.255157 0.429443
0.032654 0.242554 0.422577
0.036102 0.226044 0.417084
0.042847 0.204498 0.410675
0.068848 0.190338 0.406036
0.150330 0.206665 0.431458
0.292694 0.232330 0.465302
0.465271 0.266602 0.493927
0.618042 0.302643 0.519379
0.047882 0.346161 0.489044
0.048431 0.331177 0.481995
0.055115 0.316772 0.479370
0.066376 0.300476 0.478821
0.082275 0.279938 0.476807
0.156860 0.278595 0.483643
0.314453 0.317474 0.525208
0.522430 0.374512 0.569122
0.687347 0.419006 0.604828
0.068695 0.425476 0.537170
0.071747 0.413452 0.532349
0.084229 0.409515 0.535919
0.110718 0.408447 0.544464
0.144287 0.408325 0.557159
0.198395 0.402069 0.564606
0.336884 0.420349 0.584320
0.572510 0.501282 0.640045
0.752106 0.544891 0.683136
0.093781 0.500793 0.580627
0.098633 0.493866 0.578613
0.118469 0.498993 0.587311
0.154694 0.513916 0.603546
0.220978 0.537018 0.626556
0.326050 0.567780 0.654510
0.444824 0.589996 0.677307
0.624786 0.636566 0.707550
0.819916 0.679077 0.754578
0.119263 0.563873 0.618225
0.128571 0.565430 0.621338
0.155487 0.579376 0.633728
0.212128 0.609192 0.656616
0.307556 0.648987 0.686157
0.441193 0.690735 0.719299
0.586456 0.727417 0.750458
0.733643 0.768402 0.785339
0.881836 0.804321 0.821381
0.150940 0.621674 0.653748
0.161255 0.629120 0.660309
0.196564 0.649902 0.675903
0.261627 0.682068 0.697601
0.366028 0.723114 0.726135
0.512482 0.767975 0.759216
0.662628 0.809387 0.795441
0.802521 0.848236 0.833496
0.933258 0.893188 0.885345
