滤镜资源/Professional Luts Collection/Lutify.me Professional/Cine Looks/Seraphinite.cube
# Created by: Lutify.me
# Copyright: (c) Copyright Lutify.me 2015
# Website: https://lutify.me
#LUT size
LUT_3D_SIZE 33
#LUT data points
0.010590 0.049988 0.050446
0.015381 0.052887 0.051056
0.031342 0.053894 0.048187
0.052551 0.056122 0.046295
0.081268 0.059662 0.044525
0.107605 0.062073 0.043152
0.134766 0.064240 0.041626
0.160614 0.065735 0.039856
0.187225 0.066620 0.038940
0.211792 0.068359 0.038483
0.235657 0.069580 0.038025
0.258270 0.070129 0.037476
0.280182 0.070251 0.036621
0.300995 0.070129 0.035767
0.321503 0.070404 0.035156
0.342133 0.071686 0.034607
0.362274 0.073151 0.034241
0.382019 0.074707 0.033844
0.400787 0.076050 0.033295
0.418488 0.077240 0.032562
0.435608 0.078888 0.031647
0.452728 0.080963 0.030914
0.469360 0.083099 0.030548
0.484711 0.085754 0.030701
0.499634 0.088470 0.030975
0.514771 0.091309 0.030914
0.529877 0.094391 0.030853
0.542603 0.096619 0.030579
0.555145 0.098541 0.030304
0.567963 0.100464 0.030121
0.580414 0.102386 0.029816
0.590790 0.103516 0.029938
0.601074 0.104523 0.030487
0.010834 0.056305 0.054169
0.017090 0.060059 0.052765
0.033264 0.062561 0.049683
0.058929 0.067139 0.046783
0.090149 0.071533 0.044220
0.119202 0.074615 0.041626
0.149017 0.077148 0.039185
0.176392 0.079651 0.037628
0.204376 0.081604 0.036469
0.229584 0.083740 0.035736
0.254517 0.086121 0.035187
0.278503 0.088104 0.034454
0.301849 0.089813 0.033508
0.324341 0.091309 0.032684
0.345886 0.092957 0.031891
0.366638 0.094818 0.031311
0.386963 0.096893 0.030762
0.406708 0.099121 0.030243
0.425873 0.101257 0.029602
0.444153 0.103302 0.028778
0.461609 0.105621 0.027649
0.478790 0.108368 0.026825
0.495270 0.111206 0.026642
0.510437 0.114349 0.026550
0.525208 0.117523 0.026611
0.540009 0.120514 0.026733
0.554688 0.124390 0.026611
0.567230 0.127167 0.026398
0.579773 0.129883 0.026093
0.591919 0.131897 0.025726
0.604706 0.134674 0.025604
0.614716 0.135345 0.026154
0.624786 0.136810 0.026520
0.011475 0.065247 0.057922
0.021973 0.069977 0.055756
0.035889 0.074249 0.051483
0.063629 0.079803 0.048340
0.099640 0.086700 0.044037
0.130371 0.091400 0.040680
0.163300 0.095673 0.037384
0.192871 0.099701 0.035461
0.222778 0.103912 0.034058
0.249542 0.106842 0.033234
0.275391 0.109253 0.032074
0.300049 0.111786 0.031219
0.324402 0.114044 0.029846
0.347992 0.116669 0.028778
0.370605 0.119446 0.027618
0.391479 0.122070 0.026703
0.411530 0.124573 0.025848
0.431061 0.127319 0.024994
0.449951 0.130280 0.024109
0.468628 0.133362 0.022949
0.486786 0.137115 0.021790
0.504547 0.140900 0.021332
0.521423 0.144775 0.021027
0.536743 0.148621 0.020905
0.551575 0.152466 0.020813
0.566132 0.156128 0.020966
0.580261 0.160034 0.021027
0.592804 0.163361 0.020813
0.605042 0.166626 0.020508
0.617432 0.169250 0.020599
0.629791 0.171692 0.020782
0.639984 0.172791 0.021332
0.649933 0.174011 0.021698
0.011414 0.076935 0.062744
0.022980 0.082611 0.061371
0.039856 0.090515 0.056702
0.065826 0.096649 0.050568
0.101349 0.105042 0.046753
0.132843 0.111206 0.043243
0.169006 0.117126 0.038879
0.204132 0.121765 0.034576
0.236420 0.126984 0.032318
0.264923 0.131500 0.031006
0.291504 0.134979 0.030090
0.317719 0.138184 0.028534
0.342896 0.141449 0.027161
0.367218 0.144409 0.025787
0.390411 0.148041 0.024445
0.412567 0.151733 0.022919
0.433075 0.155182 0.021729
0.453186 0.158600 0.020447
0.472260 0.162292 0.019318
0.490845 0.166046 0.018066
0.508911 0.170044 0.017303
0.526886 0.174805 0.016724
0.544037 0.179657 0.016449
0.559845 0.184387 0.016418
0.574921 0.189514 0.016541
0.589752 0.194366 0.016724
0.604034 0.198975 0.016785
0.616516 0.202515 0.016663
0.628784 0.206116 0.016907
0.640717 0.208923 0.017090
0.653046 0.211945 0.017334
0.662384 0.211945 0.018127
0.673462 0.213074 0.017792
0.011444 0.093658 0.070099
0.023071 0.101227 0.068146
0.041626 0.109131 0.065430
0.069092 0.118866 0.055328
0.103943 0.126801 0.048828
0.134888 0.134460 0.046051
0.169708 0.141357 0.041931
0.208435 0.148010 0.036072
0.247864 0.153839 0.031067
0.278168 0.159637 0.029297
0.306396 0.164734 0.028137
0.333618 0.168854 0.025970
0.359406 0.172913 0.024475
0.384766 0.176727 0.022430
0.409729 0.180542 0.020142
0.433167 0.185303 0.018555
0.454742 0.190216 0.017578
0.475555 0.194641 0.016174
0.494995 0.199188 0.015533
0.513824 0.203766 0.014923
0.532074 0.208374 0.014099
0.549957 0.213226 0.013672
0.567566 0.218842 0.013519
0.583679 0.224457 0.013733
0.599030 0.230103 0.014069
0.614105 0.235626 0.014252
0.628754 0.240845 0.014679
0.641266 0.244812 0.015015
0.653320 0.248413 0.015076
0.665802 0.250702 0.014526
0.676544 0.253479 0.015839
0.686432 0.253235 0.015594
0.695587 0.253571 0.016388
0.011475 0.110718 0.077515
0.018890 0.116302 0.075439
0.037476 0.125427 0.072632
0.064270 0.137695 0.064545
0.098602 0.148102 0.053345
0.131775 0.154907 0.047729
0.169067 0.164398 0.044312
0.206390 0.171204 0.038696
0.246399 0.178345 0.032928
0.283447 0.184265 0.028839
0.314728 0.190216 0.026276
0.343506 0.195343 0.024872
0.370422 0.200104 0.022858
0.396576 0.204773 0.021118
0.422211 0.209747 0.019012
0.447021 0.215118 0.016998
0.469757 0.220551 0.015869
0.492004 0.226044 0.014282
0.512024 0.231415 0.014648
0.531372 0.236176 0.014099
0.550201 0.241180 0.013519
0.568848 0.246521 0.013153
0.587341 0.252106 0.012878
0.604309 0.258026 0.012543
0.619934 0.264130 0.012878
0.635284 0.270050 0.013489
0.649750 0.275269 0.014435
0.660522 0.278320 0.015900
0.672974 0.281219 0.015472
0.683746 0.282898 0.016113
0.695190 0.285187 0.016418
0.704346 0.285217 0.017334
0.713409 0.285431 0.018341
0.011169 0.129272 0.083618
0.017181 0.134888 0.081757
0.032196 0.142487 0.079102
0.059265 0.155548 0.074646
0.091919 0.170502 0.060974
0.124695 0.179016 0.051147
0.161194 0.186096 0.045380
0.205688 0.197113 0.040375
0.244446 0.203674 0.034698
0.281342 0.210602 0.031006
0.317474 0.216888 0.027344
0.349518 0.222748 0.024109
0.380096 0.228363 0.021454
0.407501 0.233917 0.019867
0.433807 0.239441 0.017731
0.459381 0.245697 0.015839
0.484283 0.252197 0.014374
0.506927 0.258545 0.014130
0.528259 0.264496 0.013885
0.548309 0.269592 0.013214
0.567047 0.274445 0.013184
0.585968 0.279572 0.012665
0.604401 0.284943 0.012604
0.620331 0.291229 0.014038
0.636322 0.297699 0.015045
0.652618 0.303436 0.015472
0.667664 0.308868 0.016510
0.679688 0.311432 0.017181
0.690857 0.313629 0.018127
0.702271 0.314697 0.018005
0.712250 0.316010 0.019348
0.721863 0.315979 0.019501
0.730927 0.315857 0.020172
0.010956 0.148193 0.087433
0.017578 0.155853 0.084900
0.032684 0.163696 0.082001
0.055725 0.175659 0.078857
0.088104 0.192383 0.067657
0.119507 0.204712 0.056091
0.156158 0.213104 0.046661
0.193024 0.219208 0.041290
0.240601 0.230682 0.036316
0.279968 0.237579 0.033173
0.316528 0.244476 0.029175
0.352356 0.250641 0.025146
0.384460 0.257080 0.022125
0.415955 0.263397 0.019379
0.444305 0.269592 0.016968
0.470367 0.276276 0.015839
0.495361 0.283081 0.015259
0.518951 0.289185 0.014801
0.541229 0.295227 0.014374
0.562408 0.300903 0.014099
0.581879 0.305908 0.014252
0.600861 0.310883 0.014008
0.619080 0.316071 0.013947
0.635712 0.321747 0.014435
0.650726 0.327850 0.016479
0.666168 0.332733 0.016968
0.680817 0.338074 0.018555
0.693878 0.341339 0.019196
0.705566 0.343506 0.020050
0.716919 0.345062 0.021027
0.728821 0.346130 0.021027
0.737946 0.346497 0.023529
0.748169 0.346497 0.024048
0.010956 0.167114 0.090057
0.018768 0.176147 0.087036
0.034607 0.186798 0.083466
0.058289 0.199341 0.080261
0.086426 0.214172 0.072662
0.117462 0.228516 0.061188
0.152832 0.240906 0.048401
0.190002 0.247833 0.041626
0.227264 0.253815 0.036682
0.272003 0.263611 0.033295
0.316254 0.272675 0.031006
0.352814 0.279541 0.027435
0.388306 0.285645 0.023163
0.420898 0.292419 0.020599
0.452423 0.299164 0.017761
0.479675 0.306091 0.016663
0.504974 0.312805 0.016388
0.529724 0.319061 0.015839
0.552521 0.325012 0.016357
0.574524 0.331116 0.015961
0.594818 0.336639 0.016541
0.614868 0.341583 0.016022
0.633026 0.346619 0.016388
0.649261 0.351990 0.017242
0.664612 0.357513 0.018433
0.678436 0.361969 0.020477
0.692932 0.366180 0.021484
0.706360 0.369568 0.022095
0.718445 0.372498 0.023254
0.730530 0.374207 0.023987
0.741760 0.375580 0.025635
0.752472 0.375366 0.026184
0.762054 0.375641 0.028168
0.011536 0.186371 0.091980
0.021851 0.196259 0.088593
0.039093 0.207825 0.084717
0.063141 0.221558 0.081390
0.092743 0.236664 0.073853
0.121185 0.250732 0.063354
0.156525 0.263885 0.051178
0.190674 0.272644 0.042419
0.228363 0.278931 0.037201
0.261261 0.284271 0.033356
0.305969 0.293884 0.030457
0.350281 0.303833 0.028625
0.388702 0.311615 0.025574
0.422821 0.317017 0.022644
0.455109 0.324036 0.020569
0.484894 0.331177 0.019470
0.510986 0.338043 0.018677
0.535004 0.344452 0.019165
0.558655 0.350769 0.019287
0.582001 0.357422 0.019104
0.604309 0.363373 0.018890
0.625031 0.368286 0.018738
0.643555 0.372986 0.019073
0.659393 0.377960 0.021088
0.675018 0.383118 0.022064
0.689667 0.387878 0.023621
0.703918 0.391998 0.025085
0.717163 0.395538 0.026398
0.730469 0.398834 0.027252
0.743347 0.401031 0.028168
0.755127 0.402435 0.029633
0.763916 0.401581 0.031006
0.773315 0.401428 0.032776
0.014191 0.205780 0.092896
0.026215 0.216736 0.089569
0.043671 0.228790 0.085938
0.069275 0.243622 0.082275
0.099792 0.258728 0.073944
0.129700 0.273163 0.063049
0.162903 0.286285 0.051971
0.197296 0.296356 0.041473
0.231934 0.303192 0.037384
0.265503 0.308624 0.033386
0.295929 0.313232 0.030182
0.340118 0.323364 0.028015
0.383484 0.333191 0.027069
0.422974 0.341705 0.026123
0.456146 0.347198 0.023071
0.486420 0.354462 0.022522
0.515045 0.361603 0.022247
0.539978 0.368073 0.022125
0.562897 0.374207 0.022888
0.586548 0.380707 0.022369
0.608917 0.387054 0.023132
0.630737 0.392059 0.022705
0.650360 0.396881 0.023773
0.668060 0.401428 0.024231
0.683960 0.406006 0.025421
0.699219 0.410583 0.026917
0.713379 0.415100 0.029602
0.726746 0.418640 0.031067
0.740082 0.422150 0.032379
0.752808 0.424530 0.033997
0.765564 0.426361 0.034790
0.774933 0.424896 0.035431
0.783905 0.423859 0.036957
0.017853 0.225800 0.093658
0.031067 0.237274 0.090424
0.047729 0.249725 0.086792
0.075928 0.264374 0.083313
0.107941 0.280334 0.074402
0.137482 0.294434 0.063751
0.171204 0.307983 0.052429
0.203217 0.318329 0.043060
0.239044 0.326782 0.036530
0.272949 0.333008 0.033142
0.303711 0.337921 0.029846
0.330292 0.341553 0.028137
0.373871 0.351624 0.027008
0.415802 0.360657 0.026520
0.455200 0.369812 0.027039
0.485962 0.375854 0.026215
0.515045 0.382812 0.025421
0.543213 0.389465 0.025330
0.567108 0.395477 0.026337
0.589569 0.401001 0.026733
0.612030 0.406860 0.026886
0.633087 0.411743 0.027710
0.653229 0.416199 0.027985
0.671356 0.420654 0.028625
0.688416 0.425171 0.029816
0.704651 0.429626 0.032196
0.720276 0.433807 0.033752
0.733368 0.436462 0.035126
0.746613 0.439240 0.036011
0.759247 0.440918 0.037048
0.771118 0.442963 0.039429
0.781372 0.441498 0.039642
0.791107 0.439758 0.039856
0.021057 0.245514 0.094482
0.035431 0.257812 0.091156
0.053192 0.270447 0.087555
0.082031 0.284729 0.083862
0.115540 0.301117 0.074829
0.145386 0.315247 0.064423
0.178925 0.329163 0.052643
0.211334 0.339996 0.043579
0.245209 0.349243 0.035767
0.281128 0.356720 0.032379
0.313141 0.362366 0.029388
0.339844 0.366119 0.027588
0.364410 0.369232 0.027191
0.406403 0.378448 0.026459
0.446533 0.386902 0.026886
0.483032 0.396088 0.028870
0.514252 0.403046 0.030914
0.543274 0.409546 0.030090
0.569885 0.415527 0.030823
0.592926 0.420624 0.031219
0.614471 0.425323 0.031647
0.635010 0.429932 0.033081
0.655090 0.433990 0.033142
0.673157 0.438263 0.034027
0.690643 0.442535 0.035461
0.708008 0.446625 0.036987
0.724457 0.450562 0.038788
0.738281 0.452393 0.039612
0.751465 0.454315 0.040222
0.763672 0.455292 0.041595
0.776184 0.456482 0.042389
0.786438 0.454987 0.042572
0.796783 0.453003 0.042175
0.024292 0.263947 0.095703
0.038757 0.277252 0.092194
0.059479 0.290558 0.088531
0.087860 0.303864 0.084595
0.122253 0.320343 0.075134
0.152313 0.334625 0.064667
0.186188 0.348389 0.053772
0.219879 0.360321 0.044037
0.254181 0.370514 0.034485
0.287903 0.378571 0.031342
0.322388 0.385437 0.028839
0.349396 0.389801 0.027252
0.373932 0.392975 0.026855
0.397858 0.396057 0.026611
0.437866 0.404449 0.027069
0.475159 0.412292 0.028931
0.509979 0.421021 0.032501
0.542572 0.428314 0.036163
0.569946 0.434174 0.036896
0.595001 0.439178 0.036774
0.617432 0.443604 0.036224
0.638000 0.447723 0.037750
0.657715 0.451660 0.038605
0.675659 0.455627 0.039948
0.693420 0.459839 0.041260
0.710968 0.463379 0.042847
0.727386 0.466705 0.045074
0.741852 0.467682 0.044586
0.754944 0.468719 0.045380
0.767456 0.469208 0.046631
0.779724 0.469940 0.047424
0.790466 0.468201 0.046417
0.801056 0.465942 0.045593
0.026550 0.280945 0.097473
0.041931 0.295258 0.093719
0.065186 0.309235 0.090027
0.095093 0.322174 0.085938
0.128113 0.337494 0.076752
0.159485 0.352051 0.065918
0.192749 0.365601 0.055145
0.227295 0.378082 0.044830
0.262756 0.389404 0.034241
0.296539 0.397858 0.030426
0.329559 0.405457 0.028595
0.359131 0.410950 0.027496
0.382690 0.414490 0.027313
0.406525 0.417389 0.027191
0.429504 0.420410 0.027252
0.466858 0.428253 0.029480
0.502319 0.436066 0.033142
0.536621 0.443970 0.037323
0.569336 0.451355 0.041779
0.595428 0.456757 0.042084
0.619171 0.461121 0.042450
0.640350 0.465332 0.044495
0.660583 0.469269 0.045441
0.678375 0.472748 0.046478
0.695679 0.476471 0.048065
0.713257 0.479736 0.049683
0.729919 0.482391 0.051971
0.744354 0.482788 0.051178
0.757782 0.482880 0.051300
0.771698 0.483032 0.050537
0.784363 0.483276 0.050934
0.794495 0.481140 0.050812
0.804993 0.478882 0.049622
0.028168 0.296753 0.100525
0.044891 0.311493 0.096375
0.068970 0.325745 0.092468
0.100769 0.338654 0.088226
0.133942 0.353607 0.078735
0.166107 0.367920 0.067322
0.200256 0.381256 0.056732
0.234833 0.393433 0.046539
0.271088 0.405090 0.036011
0.304169 0.413940 0.030945
0.336914 0.421661 0.029297
0.366974 0.428162 0.028290
0.392578 0.432495 0.028290
0.413849 0.435272 0.029327
0.436554 0.438232 0.029602
0.458191 0.441315 0.030243
0.493835 0.449219 0.033783
0.528595 0.457245 0.037933
0.561737 0.464691 0.042358
0.592712 0.472260 0.046692
0.619476 0.478302 0.048889
0.642334 0.482056 0.051025
0.662933 0.485870 0.052124
0.681000 0.488861 0.053497
0.698578 0.492249 0.054871
0.715790 0.495392 0.056976
0.732819 0.497894 0.058380
0.747009 0.498016 0.058044
0.760529 0.497589 0.057678
0.775330 0.497192 0.055634
0.788300 0.497040 0.056091
0.798828 0.494080 0.055206
0.809540 0.491486 0.053314
0.029633 0.311249 0.104553
0.047546 0.325958 0.100586
0.072174 0.340607 0.096527
0.105164 0.353394 0.091705
0.139740 0.368103 0.082001
0.172913 0.382385 0.069855
0.208344 0.395660 0.058624
0.242920 0.407593 0.048248
0.278748 0.418854 0.038239
0.312012 0.428040 0.032501
0.343719 0.435791 0.030884
0.373627 0.442627 0.030121
0.400757 0.448273 0.030548
0.422668 0.451508 0.031738
0.442505 0.453949 0.033203
0.464050 0.457031 0.033752
0.484741 0.460114 0.034485
0.519897 0.468414 0.038666
0.553680 0.476135 0.043121
0.584808 0.483917 0.047791
0.614471 0.491516 0.053223
0.642090 0.497803 0.058502
0.664246 0.501373 0.059906
0.682648 0.503967 0.060913
0.700623 0.506531 0.061249
0.717926 0.509766 0.063873
0.734589 0.512299 0.066132
0.749054 0.512482 0.065704
0.762512 0.512024 0.065399
0.778046 0.511414 0.062836
0.792053 0.510681 0.061890
0.802917 0.507202 0.060028
0.813171 0.504028 0.059174
0.032379 0.325073 0.109283
0.049927 0.339264 0.105408
0.074615 0.354004 0.101440
0.108368 0.366943 0.096436
0.144714 0.381439 0.086792
0.178833 0.395721 0.073975
0.216248 0.409424 0.061249
0.250549 0.420990 0.050934
0.286011 0.431946 0.041138
0.319092 0.441193 0.034943
0.350677 0.448944 0.033386
0.380432 0.456360 0.032349
0.407593 0.462311 0.032715
0.430023 0.466766 0.034760
0.449921 0.469330 0.036407
0.469086 0.471954 0.037994
0.490143 0.475098 0.038757
0.511017 0.478363 0.039337
0.544891 0.486511 0.044098
0.576813 0.493896 0.049561
0.606842 0.501556 0.054840
0.636810 0.508759 0.061371
0.663422 0.514648 0.066681
0.683014 0.517090 0.066772
0.700378 0.519379 0.068481
0.718628 0.522430 0.070038
0.735260 0.525116 0.073334
0.749878 0.525696 0.074127
0.763763 0.525452 0.073303
0.779327 0.524994 0.071991
0.794800 0.524109 0.069000
0.806335 0.520081 0.066193
0.817078 0.516388 0.064331
0.034668 0.337952 0.114655
0.052063 0.351715 0.110870
0.076324 0.366302 0.106995
0.110321 0.379395 0.101776
0.149078 0.393738 0.092377
0.183960 0.408020 0.079163
0.223328 0.422150 0.064667
0.258484 0.433350 0.054382
0.293121 0.444061 0.044617
0.326324 0.453278 0.037750
0.357697 0.460968 0.036011
0.387268 0.468475 0.034943
0.414978 0.475464 0.034760
0.437866 0.480286 0.036774
0.457550 0.483917 0.039581
0.476593 0.486420 0.041351
0.495544 0.489258 0.043243
0.516479 0.492584 0.043976
0.536560 0.495972 0.045380
0.568268 0.503479 0.051117
0.599121 0.510468 0.057007
0.629150 0.517578 0.063446
0.657776 0.524109 0.070099
0.681335 0.528717 0.073303
0.699768 0.531036 0.074585
0.717499 0.534058 0.077911
0.735382 0.536652 0.079895
0.750397 0.537445 0.081024
0.764648 0.537567 0.081146
0.780212 0.537323 0.080322
0.795868 0.536804 0.078674
0.808441 0.532318 0.073517
0.820526 0.528076 0.068909
0.036194 0.349792 0.120850
0.054535 0.363586 0.116699
0.078796 0.378021 0.112762
0.113251 0.391327 0.107574
0.153198 0.405334 0.098480
0.188843 0.419708 0.085052
0.229156 0.433807 0.069641
0.265686 0.445160 0.057281
0.301025 0.455536 0.046997
0.333954 0.464539 0.040070
0.365417 0.472107 0.038483
0.394226 0.479401 0.037781
0.421631 0.486420 0.037567
0.446594 0.492462 0.038544
0.467316 0.496704 0.041229
0.486115 0.499878 0.044342
0.504456 0.502747 0.046783
0.522858 0.505768 0.049103
0.542664 0.509033 0.050659
0.560608 0.512177 0.053284
0.591339 0.519196 0.059357
0.621338 0.526062 0.066101
0.650299 0.532410 0.072571
0.674927 0.537720 0.077759
0.697723 0.542511 0.081696
0.716614 0.545105 0.084534
0.734192 0.547699 0.088013
0.750641 0.548523 0.089081
0.765564 0.548828 0.089417
0.781006 0.548553 0.088959
0.796692 0.548157 0.087738
0.810120 0.543365 0.080811
0.822388 0.538788 0.075562
0.036987 0.360901 0.128235
0.056885 0.375000 0.123657
0.081238 0.389496 0.119385
0.116364 0.402802 0.113861
0.156891 0.416168 0.105408
0.192993 0.430847 0.090881
0.233765 0.444641 0.075592
0.271759 0.456055 0.061890
0.308197 0.466248 0.050201
0.341919 0.475098 0.042511
0.373322 0.482513 0.041107
0.401550 0.489471 0.040649
0.428253 0.496277 0.040649
0.453552 0.502533 0.041504
0.476379 0.508087 0.043640
0.496033 0.511993 0.047180
0.513763 0.515015 0.050446
0.531891 0.518097 0.053040
0.549500 0.521240 0.055817
0.567291 0.524353 0.058563
0.583862 0.527313 0.062134
0.614075 0.534210 0.068756
0.643250 0.540802 0.076172
0.668213 0.546051 0.081848
0.691620 0.551086 0.087189
0.715393 0.556305 0.092224
0.733368 0.558472 0.096832
0.750153 0.559235 0.098022
0.766113 0.559601 0.098541
0.781403 0.559357 0.098236
0.796875 0.558807 0.097534
0.810394 0.553986 0.089630
0.823212 0.549133 0.083496
0.037079 0.371185 0.135925
0.059082 0.385773 0.130859
0.084198 0.400452 0.126434
0.119202 0.413879 0.121277
0.160095 0.426483 0.113556
0.197205 0.441010 0.098175
0.238007 0.454590 0.081757
0.276825 0.466187 0.066895
0.313965 0.476105 0.054810
0.348969 0.484924 0.045837
0.381256 0.492310 0.043945
0.408508 0.499084 0.044037
0.434753 0.505798 0.044586
0.459839 0.512299 0.045715
0.482971 0.518188 0.047882
0.504150 0.523407 0.051025
0.522186 0.526733 0.054596
0.539429 0.529907 0.058197
0.556824 0.533142 0.061249
0.573700 0.536194 0.064575
0.590576 0.539215 0.068085
0.606689 0.542084 0.071747
0.636108 0.548798 0.079559
0.662720 0.554474 0.087036
0.686218 0.559418 0.092590
0.711182 0.565186 0.100586
0.733917 0.569702 0.105377
0.750793 0.570190 0.106262
0.766907 0.570374 0.107483
0.781952 0.569977 0.107422
0.797729 0.569519 0.105896
0.810120 0.564636 0.100037
0.823730 0.559601 0.091766
0.037659 0.381134 0.144470
0.060852 0.395966 0.139282
0.087769 0.410980 0.134369
0.123047 0.424561 0.129303
0.164337 0.436340 0.122955
0.201630 0.450806 0.106842
0.242218 0.464203 0.089905
0.281494 0.475830 0.074219
0.319122 0.485687 0.061615
0.355194 0.494812 0.050751
0.389099 0.502167 0.048309
0.416656 0.508850 0.048645
0.442108 0.515381 0.049744
0.467163 0.521881 0.050995
0.490784 0.528015 0.052948
0.512085 0.533539 0.056122
0.531464 0.538147 0.060150
0.548767 0.541473 0.063995
0.565399 0.544678 0.067810
0.582550 0.547821 0.071442
0.597961 0.550629 0.075500
0.614349 0.553772 0.079773
0.629364 0.556671 0.083923
0.656403 0.562408 0.091492
0.681824 0.567902 0.099182
0.706757 0.573730 0.107513
0.732025 0.579254 0.114532
0.751007 0.581421 0.118286
0.767395 0.581421 0.118805
0.782440 0.581055 0.118927
0.797455 0.580292 0.117828
0.811035 0.575714 0.110413
0.824341 0.570740 0.101776
0.039612 0.391357 0.155182
0.063049 0.405914 0.149597
0.092194 0.421021 0.144379
0.127655 0.434296 0.139069
0.169006 0.446411 0.132843
0.206818 0.460388 0.116882
0.247192 0.473572 0.099396
0.286255 0.485077 0.083405
0.324219 0.495178 0.070374
0.361847 0.504608 0.058167
0.397461 0.512054 0.054626
0.426727 0.518707 0.054626
0.452545 0.525085 0.055756
0.477661 0.531494 0.057281
0.501404 0.537811 0.059601
0.523499 0.543762 0.063080
0.543457 0.548767 0.067261
0.562225 0.553162 0.071686
0.579590 0.556671 0.076447
0.595917 0.559875 0.080750
0.611481 0.562836 0.085083
0.625153 0.565399 0.089569
0.640137 0.568298 0.093903
0.651855 0.570587 0.098358
0.677490 0.576172 0.106201
0.702972 0.582092 0.115479
0.727722 0.587769 0.125275
0.749969 0.591980 0.130310
0.767761 0.592743 0.130524
0.783051 0.592316 0.130066
0.798157 0.591522 0.128784
0.811707 0.587341 0.123322
0.824982 0.582733 0.115814
0.043365 0.402527 0.167419
0.065094 0.415985 0.161926
0.096130 0.431000 0.156525
0.132416 0.444092 0.150421
0.174316 0.456390 0.143951
0.213348 0.469604 0.128815
0.253052 0.482910 0.110260
0.291656 0.494324 0.094269
0.329590 0.504456 0.080750
0.367950 0.514130 0.067474
0.405701 0.521729 0.062439
0.436890 0.528442 0.061920
0.463745 0.534851 0.062988
0.488800 0.541199 0.064697
0.512726 0.547394 0.067169
0.534943 0.553528 0.071167
0.555542 0.559143 0.076263
0.575348 0.564026 0.081604
0.593872 0.568512 0.086761
0.610870 0.572021 0.091248
0.626190 0.574890 0.095795
0.639496 0.577423 0.100403
0.651459 0.579834 0.105133
0.663086 0.582153 0.109650
0.673920 0.584229 0.114258
0.699463 0.590179 0.124756
0.724274 0.596069 0.134888
0.746155 0.600372 0.140472
0.767700 0.604004 0.143738
0.783112 0.603577 0.143646
0.799103 0.602936 0.140869
0.812744 0.599365 0.135834
0.826996 0.595154 0.128876
0.047974 0.413940 0.181000
0.067169 0.425873 0.175598
0.099701 0.440704 0.170319
0.137238 0.453674 0.162994
0.180359 0.466339 0.156647
0.220856 0.479218 0.141693
0.260223 0.492279 0.122406
0.298431 0.503510 0.106354
0.335876 0.513824 0.091705
0.373932 0.523315 0.079132
0.412628 0.531250 0.072266
0.446533 0.538025 0.070282
0.474915 0.544434 0.071014
0.499695 0.550690 0.073364
0.522949 0.556976 0.076935
0.544617 0.563049 0.081787
0.565277 0.568726 0.087341
0.585327 0.573944 0.092712
0.604584 0.578674 0.098358
0.622772 0.582947 0.103424
0.638000 0.586029 0.108063
0.650024 0.588379 0.112854
0.661255 0.590790 0.118042
0.671478 0.592926 0.123566
0.682343 0.594971 0.128632
0.695343 0.597595 0.133240
0.720093 0.603394 0.143829
0.742737 0.608307 0.151398
0.764435 0.612335 0.155121
0.784241 0.614868 0.158325
0.799652 0.614197 0.156738
0.814178 0.612518 0.152802
0.828400 0.608673 0.146606
0.053040 0.425537 0.195892
0.071686 0.436371 0.190308
0.103882 0.450409 0.184967
0.142914 0.463287 0.177094
0.187317 0.476013 0.169708
0.228485 0.488556 0.155823
0.267914 0.502014 0.136139
0.305725 0.513275 0.120117
0.342834 0.523346 0.105347
0.380432 0.532867 0.092224
0.418884 0.541077 0.084412
0.454346 0.547852 0.081635
0.485382 0.554260 0.081299
0.511047 0.560516 0.083832
0.533691 0.566711 0.087982
0.554840 0.572754 0.093353
0.574829 0.578339 0.099579
0.595093 0.583588 0.105438
0.614990 0.588715 0.111237
0.633240 0.593262 0.117188
0.649292 0.597229 0.122925
0.660828 0.599762 0.128387
0.670502 0.601746 0.133911
0.680389 0.603790 0.139465
0.690582 0.605713 0.145020
