滤镜资源/Professional Luts Collection/Lutify.me Professional/Cine Looks/Seraphinite.cube
# Created by: Lutify.me
# Copyright: (c) Copyright Lutify.me 2015
# Website: https://lutify.me
#LUT size
LUT_3D_SIZE 9
#LUT data points
0.010590 0.049988 0.050446
0.081268 0.059662 0.044525
0.187225 0.066620 0.038940
0.280182 0.070251 0.036621
0.362274 0.073151 0.034241
0.435608 0.078888 0.031647
0.499634 0.088470 0.030975
0.555145 0.098541 0.030304
0.601074 0.104523 0.030487
0.011444 0.093658 0.070099
0.103943 0.126801 0.048828
0.247864 0.153839 0.031067
0.359406 0.172913 0.024475
0.454742 0.190216 0.017578
0.532074 0.208374 0.014099
0.599030 0.230103 0.014069
0.653320 0.248413 0.015076
0.695587 0.253571 0.016388
0.010956 0.167114 0.090057
0.086426 0.214172 0.072662
0.227264 0.253815 0.036682
0.388306 0.285645 0.023163
0.504974 0.312805 0.016388
0.594818 0.336639 0.016541
0.664612 0.357513 0.018433
0.718445 0.372498 0.023254
0.762054 0.375641 0.028168
0.021057 0.245514 0.094482
0.115540 0.301117 0.074829
0.245209 0.349243 0.035767
0.364410 0.369232 0.027191
0.514252 0.403046 0.030914
0.614471 0.425323 0.031647
0.690643 0.442535 0.035461
0.751465 0.454315 0.040222
0.796783 0.453003 0.042175
0.029633 0.311249 0.104553
0.139740 0.368103 0.082001
0.278748 0.418854 0.038239
0.400757 0.448273 0.030548
0.484741 0.460114 0.034485
0.614471 0.491516 0.053223
0.700623 0.506531 0.061249
0.762512 0.512024 0.065399
0.813171 0.504028 0.059174
0.036987 0.360901 0.128235
0.156891 0.416168 0.105408
0.308197 0.466248 0.050201
0.428253 0.496277 0.040649
0.513763 0.515015 0.050446
0.583862 0.527313 0.062134
0.691620 0.551086 0.087189
0.766113 0.559601 0.098541
0.823212 0.549133 0.083496
0.043365 0.402527 0.167419
0.174316 0.456390 0.143951
0.329590 0.504456 0.080750
0.463745 0.534851 0.062988
0.555542 0.559143 0.076263
0.626190 0.574890 0.095795
0.673920 0.584229 0.114258
0.767700 0.604004 0.143738
0.826996 0.595154 0.128876
0.065735 0.449799 0.227509
0.199219 0.494965 0.198334
0.357452 0.542908 0.135742
0.503967 0.574707 0.108429
0.599915 0.599487 0.129700
0.674500 0.620148 0.160309
0.718536 0.630768 0.187958
0.758026 0.637604 0.202362
0.833099 0.644806 0.204742
0.120178 0.512634 0.317841
0.248199 0.547607 0.295654
0.406586 0.590576 0.240356
0.541992 0.622894 0.205811
0.646088 0.647339 0.227081
0.711487 0.665161 0.258087
0.767059 0.681854 0.295441
0.802032 0.687653 0.307190
0.831482 0.690216 0.307861
0.009796 0.047791 0.073853
0.049469 0.057007 0.077942
0.154785 0.060242 0.081055
0.255859 0.060608 0.076965
0.338745 0.058289 0.069000
0.403534 0.055725 0.062988
0.460175 0.057648 0.059631
0.510956 0.059906 0.055054
0.555145 0.062225 0.052216
0.009857 0.081726 0.103821
0.080597 0.117645 0.122375
0.239777 0.132446 0.091644
0.354767 0.140411 0.083862
0.446869 0.147675 0.077576
0.513062 0.152527 0.071075
0.564667 0.156036 0.064484
0.604736 0.152740 0.057220
0.637207 0.141052 0.050537
0.010345 0.160492 0.140442
0.089813 0.224487 0.147156
0.250702 0.262665 0.126801
0.409821 0.285034 0.099548
0.518036 0.297943 0.085846
0.595032 0.309540 0.074524
0.650208 0.313873 0.070221
0.692108 0.307556 0.058472
0.720703 0.283264 0.048462
0.012421 0.240387 0.144409
0.134003 0.329742 0.150421
0.309753 0.381683 0.103790
0.402374 0.389008 0.125000
0.533600 0.405243 0.117279
0.619812 0.416504 0.110504
0.684784 0.423004 0.103119
0.734772 0.418274 0.087952
0.775360 0.398468 0.068146
0.019379 0.309296 0.150146
0.175293 0.409332 0.161560
0.356689 0.462433 0.093933
0.473267 0.481384 0.103424
0.526276 0.482788 0.145020
0.629913 0.496704 0.154022
0.702087 0.505310 0.150909
0.761841 0.502533 0.132019
0.808105 0.482727 0.101562
0.028961 0.366119 0.177002
0.186066 0.456909 0.202271
0.370056 0.508545 0.129639
0.509735 0.537018 0.118225
0.576538 0.547211 0.151459
0.618927 0.552521 0.195282
0.704041 0.562897 0.206818
0.768982 0.562531 0.193909
0.826385 0.543152 0.140198
0.042145 0.414520 0.222900
0.217255 0.504089 0.262421
0.398743 0.552185 0.196442
0.542023 0.581451 0.172333
0.623871 0.597412 0.189819
0.667908 0.606384 0.232422
0.694763 0.609528 0.267151
0.770416 0.615479 0.263275
0.832825 0.603424 0.220490
0.072174 0.468323 0.288116
0.280396 0.556793 0.344971
0.446136 0.598083 0.293701
0.583527 0.626373 0.260803
0.666748 0.641998 0.276764
0.716888 0.654877 0.302948
0.746796 0.661346 0.336884
0.767548 0.662506 0.350983
0.835297 0.660217 0.317871
0.133820 0.532501 0.370239
0.381073 0.612946 0.429596
0.523651 0.650909 0.390778
0.630371 0.674408 0.370178
0.710022 0.689240 0.377319
0.762207 0.702057 0.396729
0.794006 0.712067 0.420685
0.819031 0.716583 0.434418
0.837280 0.716003 0.436707
0.009674 0.049133 0.123352
0.037933 0.055573 0.128967
0.119629 0.063293 0.133636
0.237305 0.060669 0.143219
0.334229 0.053864 0.137360
0.404449 0.049744 0.127289
0.459656 0.048187 0.118561
0.507874 0.049103 0.106689
0.549591 0.049866 0.088501
0.010254 0.076416 0.161743
0.047028 0.101440 0.183075
0.184021 0.119080 0.190613
0.324097 0.113983 0.179443
0.420685 0.113739 0.165131
0.480957 0.109772 0.149231
0.528107 0.107513 0.131165
0.564636 0.101624 0.108124
0.597046 0.094574 0.082886
0.010712 0.145966 0.207428
0.039978 0.200592 0.234589
0.236389 0.268646 0.270386
0.403503 0.276184 0.243683
0.513062 0.280701 0.228516
0.585449 0.280243 0.208557
0.633881 0.273254 0.184479
0.665253 0.242126 0.140228
0.683716 0.199127 0.097046
0.010895 0.235046 0.223816
0.081421 0.308624 0.219025
0.275909 0.378265 0.284973
0.413940 0.405396 0.287567
0.536255 0.411682 0.273529
0.619843 0.419403 0.259888
0.680328 0.414673 0.232452
0.730011 0.390259 0.181396
0.757263 0.341675 0.119202
0.015991 0.309174 0.221283
0.143036 0.400055 0.220520
0.316132 0.457794 0.307098
0.452820 0.489197 0.287628
0.539917 0.499573 0.315186
0.627899 0.505768 0.304626
0.698456 0.511841 0.290863
0.760651 0.496918 0.241882
0.800842 0.455566 0.162018
0.026703 0.370972 0.232758
0.175964 0.463135 0.263672
0.350769 0.520081 0.342163
0.497742 0.553772 0.300659
0.588623 0.568390 0.320038
0.629730 0.568604 0.350586
0.702454 0.572723 0.345245
0.770508 0.570038 0.308105
0.829895 0.543335 0.222321
0.042023 0.424194 0.276215
0.221436 0.516479 0.323486
0.396667 0.570923 0.400085
0.529785 0.605713 0.362610
0.633026 0.623444 0.362000
0.677826 0.627930 0.383911
0.705139 0.628265 0.406372
0.775299 0.628540 0.379547
0.838806 0.613770 0.308228
0.073792 0.480011 0.335266
0.289246 0.568207 0.395538
0.484680 0.627686 0.460266
0.598389 0.658356 0.428925
0.685852 0.673004 0.422852
0.733276 0.680847 0.426636
0.763062 0.685181 0.442993
0.780334 0.686371 0.464813
0.842194 0.679199 0.413849
0.131073 0.539703 0.406158
0.382355 0.623169 0.472809
0.573242 0.686554 0.526398
0.661102 0.708649 0.504333
0.729279 0.719879 0.499237
0.776855 0.728577 0.500519
0.806549 0.734680 0.506836
0.827087 0.740143 0.522461
0.843353 0.739746 0.531219
0.009857 0.049561 0.172089
0.032715 0.054230 0.176483
0.123108 0.061035 0.190826
0.223999 0.063812 0.192291
0.328156 0.056091 0.199524
0.401459 0.050873 0.194855
0.457489 0.047791 0.186920
0.509735 0.045166 0.171326
0.552765 0.045227 0.143188
0.010590 0.074310 0.210327
0.032928 0.092987 0.229065
0.144043 0.104828 0.245422
0.302368 0.116547 0.255676
0.401276 0.107910 0.249359
0.467255 0.100616 0.235962
0.517670 0.092804 0.216827
0.560333 0.084320 0.182434
0.594086 0.078247 0.139130
0.011444 0.131561 0.253845
0.028168 0.173737 0.283508
0.190552 0.239349 0.323578
0.375519 0.263062 0.338501
0.492645 0.252930 0.319244
0.562073 0.243225 0.299896
0.607574 0.228821 0.269196
0.635651 0.195740 0.212738
0.650757 0.152618 0.144989
0.011658 0.222687 0.301849
0.032532 0.286560 0.331635
0.192841 0.358521 0.365967
0.415680 0.418823 0.401306
0.535706 0.419128 0.385468
0.616577 0.417694 0.371307
0.672668 0.402954 0.340454
0.720734 0.363220 0.276611
0.745850 0.295197 0.183014
0.013214 0.305084 0.307831
0.079926 0.380768 0.306946
0.271790 0.446381 0.368347
0.439789 0.494446 0.420319
0.540100 0.511902 0.426544
0.626740 0.513641 0.415497
0.698120 0.514160 0.396942
0.759369 0.491577 0.339081
0.803925 0.434418 0.233276
0.022766 0.372498 0.310486
0.147034 0.455170 0.318481
0.356262 0.519379 0.390900
0.469269 0.552063 0.448273
0.563263 0.571777 0.447174
0.631775 0.582123 0.457184
0.703949 0.586456 0.445160
0.776001 0.580963 0.404297
0.835785 0.546478 0.304718
0.039032 0.429047 0.331055
0.202911 0.515289 0.371979
0.405701 0.573853 0.440399
0.523254 0.612610 0.493042
0.610016 0.630096 0.474670
0.681763 0.644836 0.485687
0.710968 0.645111 0.498871
0.781403 0.644989 0.470276
0.848724 0.628235 0.385864
0.068970 0.483276 0.372528
0.282532 0.572693 0.433472
0.483734 0.630890 0.499542
0.599487 0.676880 0.542236
0.671051 0.689148 0.525360
0.739258 0.700623 0.516632
0.772980 0.705078 0.523743
0.789490 0.705933 0.544769
0.851715 0.700378 0.492340
0.119781 0.540131 0.432343
0.366394 0.626007 0.501831
0.562225 0.685425 0.561005
0.667267 0.729797 0.591309
0.729309 0.739929 0.580597
0.779022 0.749268 0.577484
0.811157 0.754669 0.575989
0.836884 0.760315 0.585327
0.853821 0.762329 0.602020
0.010376 0.052002 0.212250
0.029541 0.055054 0.218384
0.114716 0.059082 0.235687
0.244629 0.064209 0.248627
0.328522 0.058289 0.244659
0.403320 0.054077 0.249359
0.457550 0.052063 0.247040
0.504730 0.050262 0.230988
0.551941 0.047058 0.197632
0.011078 0.072845 0.248260
0.025452 0.086975 0.262207
0.110962 0.093140 0.278656
0.271851 0.109253 0.301880
0.391052 0.108215 0.304352
0.455292 0.100311 0.299011
0.506165 0.096466 0.287811
0.549164 0.087311 0.254730
0.596893 0.076111 0.201630
0.012085 0.123596 0.289734
0.023285 0.156921 0.316345
0.151794 0.217102 0.355591
0.312378 0.235474 0.372009
0.463379 0.251221 0.383667
0.538513 0.238495 0.374695
0.593262 0.224243 0.355621
0.631775 0.185791 0.303864
0.651825 0.143738 0.217773
0.013031 0.198181 0.334625
0.027924 0.250061 0.363129
0.157471 0.327667 0.403595
0.374237 0.396759 0.441711
0.524841 0.417175 0.456085
0.606354 0.407043 0.439545
0.660675 0.387482 0.412109
0.702515 0.334320 0.349548
0.720947 0.256805 0.240234
0.016296 0.295410 0.382874
0.042786 0.360840 0.407806
0.189392 0.428253 0.436981
0.392517 0.483917 0.470551
0.540619 0.528442 0.499847
0.625336 0.523987 0.487701
0.696289 0.515808 0.471893
0.753906 0.479645 0.414246
0.801147 0.414703 0.299255
0.020172 0.367950 0.389740
0.086609 0.436035 0.392395
0.293640 0.508545 0.438873
0.438690 0.545105 0.490570
0.558807 0.583130 0.516510
0.630585 0.595764 0.523499
0.706268 0.593719 0.513275
0.779266 0.581116 0.475311
0.840881 0.549286 0.379578
0.034790 0.430542 0.393951
0.160370 0.502747 0.407898
0.389008 0.571381 0.468811
0.522308 0.608368 0.518097
0.597412 0.638397 0.540833
0.663025 0.650574 0.546082
0.715271 0.658112 0.553925
0.789551 0.659119 0.536041
0.856964 0.648804 0.467651
0.061462 0.482910 0.413239
0.244141 0.565430 0.461517
0.470428 0.630798 0.524139
0.593170 0.672638 0.566711
0.675507 0.706909 0.593842
0.731689 0.712982 0.577606
0.783661 0.722595 0.576416
0.801086 0.723724 0.598511
0.860413 0.721527 0.558624
0.107300 0.538818 0.457275
0.341125 0.625244 0.522003
0.550842 0.686920 0.584015
0.657959 0.727234 0.618958
0.729645 0.758667 0.645569
0.777832 0.765747 0.638611
0.816315 0.772705 0.634033
0.846191 0.779388 0.639038
0.865356 0.781921 0.656158
0.010864 0.055054 0.244293
0.026154 0.056366 0.249603
0.101349 0.059570 0.269165
0.238892 0.062195 0.289276
0.345764 0.064423 0.293610
0.404938 0.057587 0.289337
0.460693 0.056396 0.293213
0.505371 0.056427 0.286621
0.546143 0.053497 0.253662
0.011566 0.073151 0.277100
0.020935 0.084351 0.286652
0.087036 0.084320 0.301666
0.234985 0.096497 0.327515
0.376984 0.109375 0.345093
0.451691 0.101654 0.342041
0.502045 0.099548 0.338379
0.544952 0.095093 0.319122
0.587402 0.084076 0.266632
0.012360 0.115601 0.312714
0.019684 0.138153 0.333588
0.111511 0.185181 0.365417
0.255157 0.199188 0.386200
0.412079 0.228668 0.409637
0.519836 0.235138 0.416443
0.575745 0.224884 0.406830
0.619324 0.197540 0.376068
0.651001 0.150726 0.298859
0.014709 0.184570 0.359955
0.023804 0.224915 0.386139
0.116425 0.298950 0.424225
0.335785 0.373077 0.464417
0.470673 0.396484 0.481171
0.589691 0.412201 0.494568
0.649628 0.392273 0.478851
0.698425 0.341736 0.431030
0.725861 0.261810 0.338593
0.016907 0.269592 0.404083
0.034058 0.319489 0.427887
0.151672 0.392334 0.461548
0.359558 0.464661 0.497925
0.507996 0.511688 0.530365
0.617981 0.526550 0.540619
0.690277 0.516571 0.527588
0.744873 0.478912 0.481812
0.777252 0.388519 0.371979
0.021393 0.358246 0.445435
0.058411 0.423645 0.467041
0.209351 0.491547 0.495575
0.396606 0.538147 0.523834
0.529205 0.576843 0.554504
0.630188 0.609711 0.577148
0.707428 0.604767 0.569489
0.780243 0.586945 0.540161
0.840210 0.543488 0.451843
0.030609 0.425446 0.451965
0.115479 0.493835 0.468872
0.310059 0.556549 0.503052
0.490265 0.604248 0.547119
0.575104 0.630981 0.576111
0.664062 0.664764 0.598297
0.718018 0.672516 0.603790
0.794220 0.672028 0.592529
0.864166 0.663788 0.540131
0.065216 0.491241 0.463806
0.217560 0.560699 0.489227
0.427490 0.620117 0.536407
0.584198 0.668610 0.585419
0.664764 0.703339 0.609772
0.729553 0.728699 0.638947
0.775269 0.732971 0.626526
0.804962 0.737244 0.642700
0.870422 0.740936 0.622192
0.108978 0.544586 0.488770
0.317261 0.622284 0.540863
0.526306 0.682861 0.596771
0.651733 0.725616 0.640747
0.722260 0.757843 0.664612
0.779266 0.783875 0.694183
0.819031 0.789398 0.686646
0.851257 0.795837 0.685669
0.874664 0.799774 0.700684
0.011261 0.057129 0.268250
0.023438 0.057129 0.273285
0.088226 0.060547 0.294342
0.223785 0.062378 0.319733
0.353241 0.065399 0.333679
0.418121 0.066010 0.333801
0.461304 0.061066 0.330444
0.505524 0.062592 0.331726
0.544983 0.061829 0.313599
0.012268 0.071503 0.296356
0.018951 0.079437 0.302612
0.069366 0.079437 0.317139
0.191223 0.085785 0.341736
0.351898 0.101135 0.368469
0.444946 0.108459 0.378235
0.499084 0.102203 0.375671
0.541382 0.101044 0.367767
0.584808 0.096802 0.335815
0.013184 0.108063 0.330200
0.019012 0.124084 0.346039
0.083649 0.159363 0.370789
0.195526 0.165497 0.388947
0.365875 0.198212 0.424500
0.488007 0.223907 0.441193
0.565735 0.226105 0.444244
0.609863 0.206818 0.428314
0.644104 0.169830 0.379669
0.015411 0.168365 0.373016
0.022003 0.195740 0.394623
0.083893 0.250092 0.424591
0.256165 0.305450 0.459503
0.400391 0.334961 0.482239
0.533447 0.374969 0.508179
0.631744 0.392487 0.520050
0.681854 0.356598 0.496368
0.718964 0.282288 0.428314
0.017151 0.247711 0.419830
0.028320 0.289886 0.443634
0.112915 0.359833 0.476471
0.302795 0.431335 0.513611
0.470154 0.482788 0.546082
0.574646 0.506500 0.564392
0.678894 0.523224 0.577606
0.740967 0.493988 0.556915
0.779022 0.410919 0.484467
0.022186 0.331390 0.462463
0.044342 0.380920 0.481049
0.162201 0.446564 0.509766
0.343140 0.507080 0.541046
0.502014 0.558441 0.574310
0.609070 0.595612 0.606598
0.698608 0.610474 0.617065
0.772217 0.594086 0.602783
0.823303 0.536469 0.538940
0.027802 0.414459 0.496704
0.080994 0.477997 0.516266
0.238617 0.544464 0.545410
0.418732 0.588257 0.572510
0.538727 0.622070 0.601227
0.629181 0.655396 0.629028
0.718231 0.687347 0.655396
0.798035 0.682373 0.651642
0.870422 0.670959 0.620544
0.051666 0.483307 0.510040
0.167419 0.550751 0.531433
0.358887 0.607147 0.560547
0.529358 0.655670 0.602142
0.637268 0.694000 0.637817
0.706696 0.722992 0.658997
0.777252 0.753113 0.688293
0.810455 0.753784 0.689178
0.882996 0.757141 0.681702
0.128479 0.562042 0.533783
0.295380 0.618469 0.560364
0.490112 0.674072 0.606171
0.622162 0.717316 0.649750
0.706787 0.753937 0.683868
0.772186 0.783600 0.710846
0.825073 0.809418 0.737823
0.856720 0.812103 0.728882
0.886444 0.819458 0.743835
0.011688 0.059601 0.289398
0.020416 0.058228 0.291229
0.073669 0.061432 0.312683
0.198425 0.063568 0.341644
0.332947 0.066254 0.361053
0.426483 0.071075 0.373932
0.474731 0.072235 0.373962
0.505463 0.069550 0.370361
0.544128 0.070679 0.366333
0.013428 0.071777 0.313110
0.018250 0.077148 0.317871
0.053253 0.074402 0.327423
0.149048 0.078888 0.351868
0.301880 0.088867 0.381073
0.424347 0.101349 0.402374
0.499603 0.110352 0.411713
0.540741 0.109497 0.409882
0.583923 0.111816 0.399719
0.014130 0.098633 0.341278
0.019135 0.105713 0.350281
0.056885 0.125671 0.367462
0.140289 0.124756 0.383057
0.279694 0.141754 0.411041
0.427490 0.173401 0.442535
0.534790 0.204529 0.462738
0.602844 0.216736 0.469604
0.643158 0.198914 0.450531
0.015686 0.149841 0.378265
0.019531 0.162598 0.392151
0.056213 0.191956 0.412842
0.172821 0.224030 0.441040
0.294922 0.237823 0.461395
0.452789 0.286407 0.498810
0.584656 0.342163 0.529694
0.669159 0.372711 0.544403
0.710815 0.324463 0.512726
0.017456 0.220459 0.424133
0.023987 0.241089 0.439545
0.065308 0.283112 0.463409
0.199188 0.327576 0.491547
0.346130 0.359894 0.520416
0.474792 0.402313 0.547760
0.624908 0.472565 0.589478
0.723328 0.507538 0.608185
0.769501 0.458740 0.579163
0.021637 0.304047 0.471069
0.033997 0.336395 0.487396
0.100311 0.387360 0.511688
0.257751 0.448364 0.545044
0.412720 0.488068 0.573151
0.540741 0.523987 0.603485
0.660828 0.577637 0.638580
0.759705 0.609161 0.658386
0.819885 0.574432 0.636108
0.027283 0.385834 0.507782
0.053619 0.426666 0.523193
0.161133 0.485321 0.549927
0.333160 0.543060 0.582825
0.480011 0.588013 0.613922
0.596649 0.630798 0.648132
0.703827 0.673431 0.688812
0.786987 0.692566 0.702667
0.858765 0.678589 0.690308
0.039337 0.464874 0.539978
0.111389 0.528870 0.561493
0.275482 0.592865 0.591736
0.443420 0.635986 0.621216
0.564270 0.672821 0.653076
0.648163 0.703735 0.682953
0.727295 0.737732 0.712677
0.811005 0.770782 0.744720
0.893890 0.774719 0.754486
0.098114 0.547150 0.561096
0.246368 0.611481 0.589386
0.432190 0.662323 0.621124
0.571503 0.705322 0.659760
0.669098 0.741516 0.694672
0.747070 0.777802 0.725708
0.813843 0.808228 0.753723
0.865875 0.833160 0.778595
0.899292 0.842712 0.792206
0.013000 0.061432 0.307892
0.020721 0.059479 0.309082
0.059814 0.061859 0.327850
0.166260 0.063141 0.357361
0.294708 0.066315 0.380646
0.403534 0.070709 0.398224
0.479126 0.077911 0.412476
0.516937 0.081390 0.413330
0.546356 0.081635 0.411865
0.014313 0.069550 0.324951
0.017517 0.073090 0.329376
0.042664 0.070221 0.337250
0.111847 0.073059 0.359192
0.241302 0.080414 0.389557
0.378723 0.089996 0.415192
0.485168 0.106812 0.438690
0.547852 0.122253 0.450317
0.588348 0.130951 0.453094
0.014984 0.088593 0.348328
0.018372 0.089905 0.352753
0.038940 0.099274 0.364868
0.093353 0.097229 0.377319
0.200043 0.105988 0.402771
0.349518 0.123444 0.434418
0.486237 0.155182 0.466949
0.588043 0.205017 0.495758
0.651245 0.244141 0.512756
0.015717 0.123596 0.376678
0.017975 0.121460 0.380981
0.036896 0.129395 0.388580
0.096710 0.137878 0.408051
0.182953 0.143646 0.426514
0.340057 0.176117 0.465576
0.502960 0.232880 0.509766
0.633514 0.319183 0.554230
0.712494 0.385559 0.583374
0.017426 0.180267 0.415405
0.020294 0.179962 0.420624
0.038849 0.194183 0.433838
0.105988 0.201996 0.443787
0.208710 0.205994 0.467499
0.335480 0.230072 0.495239
0.526672 0.314850 0.552155
0.678345 0.440094 0.613525
0.764099 0.514771 0.647278
0.019379 0.249115 0.459076
0.024109 0.254669 0.466064
0.050354 0.277924 0.481964
0.128723 0.304596 0.502380
0.257050 0.318726 0.521057
0.401917 0.338593 0.553986
0.564728 0.414398 0.599304
0.719360 0.548615 0.668518
0.805878 0.618195 0.702362
0.024994 0.338348 0.508270
0.035736 0.353912 0.516602
0.081970 0.387787 0.534882
0.191742 0.430817 0.562439
0.328430 0.460632 0.586945
0.474274 0.496582 0.616791
0.634705 0.558136 0.669067
0.748383 0.641541 0.717712
0.842133 0.705139 0.753754
0.032745 0.425171 0.546906
0.061188 0.462158 0.561584
0.145935 0.510803 0.586121
0.297485 0.567657 0.620728
0.437317 0.611969 0.653870
0.574432 0.657867 0.690033
0.690216 0.699066 0.730469
0.801544 0.757568 0.785126
0.879639 0.785583 0.805267
0.057953 0.515289 0.583313
0.148743 0.579315 0.607056
0.310944 0.638702 0.639313
0.461945 0.682556 0.671814
0.580841 0.721497 0.706970
0.672180 0.756561 0.741364
0.754181 0.793762 0.778503
0.832825 0.832947 0.817047
0.914185 0.868225 0.858093
