滤镜资源/Professional Luts Collection/Lutify.me Professional/Cine Looks/Seraphinite.cube
# Created by: Lutify.me
# Copyright: (c) Copyright Lutify.me 2015
# Website: https://lutify.me
#LUT size
LUT_3D_SIZE 5
#LUT data points
0.010590 0.049988 0.050446
0.187225 0.066620 0.038940
0.362274 0.073151 0.034241
0.499634 0.088470 0.030975
0.601074 0.104523 0.030487
0.010956 0.167114 0.090057
0.227264 0.253815 0.036682
0.504974 0.312805 0.016388
0.664612 0.357513 0.018433
0.762054 0.375641 0.028168
0.029633 0.311249 0.104553
0.278748 0.418854 0.038239
0.484741 0.460114 0.034485
0.700623 0.506531 0.061249
0.813171 0.504028 0.059174
0.043365 0.402527 0.167419
0.329590 0.504456 0.080750
0.555542 0.559143 0.076263
0.673920 0.584229 0.114258
0.826996 0.595154 0.128876
0.120178 0.512634 0.317841
0.406586 0.590576 0.240356
0.646088 0.647339 0.227081
0.767059 0.681854 0.295441
0.831482 0.690216 0.307861
0.009674 0.049133 0.123352
0.119629 0.063293 0.133636
0.334229 0.053864 0.137360
0.459656 0.048187 0.118561
0.549591 0.049866 0.088501
0.010712 0.145966 0.207428
0.236389 0.268646 0.270386
0.513062 0.280701 0.228516
0.633881 0.273254 0.184479
0.683716 0.199127 0.097046
0.015991 0.309174 0.221283
0.316132 0.457794 0.307098
0.539917 0.499573 0.315186
0.698456 0.511841 0.290863
0.800842 0.455566 0.162018
0.042023 0.424194 0.276215
0.396667 0.570923 0.400085
0.633026 0.623444 0.362000
0.705139 0.628265 0.406372
0.838806 0.613770 0.308228
0.131073 0.539703 0.406158
0.573242 0.686554 0.526398
0.729279 0.719879 0.499237
0.806549 0.734680 0.506836
0.843353 0.739746 0.531219
0.010376 0.052002 0.212250
0.114716 0.059082 0.235687
0.328522 0.058289 0.244659
0.457550 0.052063 0.247040
0.551941 0.047058 0.197632
0.012085 0.123596 0.289734
0.151794 0.217102 0.355591
0.463379 0.251221 0.383667
0.593262 0.224243 0.355621
0.651825 0.143738 0.217773
0.016296 0.295410 0.382874
0.189392 0.428253 0.436981
0.540619 0.528442 0.499847
0.696289 0.515808 0.471893
0.801147 0.414703 0.299255
0.034790 0.430542 0.393951
0.389008 0.571381 0.468811
0.597412 0.638397 0.540833
0.715271 0.658112 0.553925
0.856964 0.648804 0.467651
0.107300 0.538818 0.457275
0.550842 0.686920 0.584015
0.729645 0.758667 0.645569
0.816315 0.772705 0.634033
0.865356 0.781921 0.656158
0.011261 0.057129 0.268250
0.088226 0.060547 0.294342
0.353241 0.065399 0.333679
0.461304 0.061066 0.330444
0.544983 0.061829 0.313599
0.013184 0.108063 0.330200
0.083649 0.159363 0.370789
0.365875 0.198212 0.424500
0.565735 0.226105 0.444244
0.644104 0.169830 0.379669
0.017151 0.247711 0.419830
0.112915 0.359833 0.476471
0.470154 0.482788 0.546082
0.678894 0.523224 0.577606
0.779022 0.410919 0.484467
0.027802 0.414459 0.496704
0.238617 0.544464 0.545410
0.538727 0.622070 0.601227
0.718231 0.687347 0.655396
0.870422 0.670959 0.620544
0.128479 0.562042 0.533783
0.490112 0.674072 0.606171
0.706787 0.753937 0.683868
0.825073 0.809418 0.737823
0.886444 0.819458 0.743835
0.013000 0.061432 0.307892
0.059814 0.061859 0.327850
0.294708 0.066315 0.380646
0.479126 0.077911 0.412476
0.546356 0.081635 0.411865
0.014984 0.088593 0.348328
0.038940 0.099274 0.364868
0.200043 0.105988 0.402771
0.486237 0.155182 0.466949
0.651245 0.244141 0.512756
0.017426 0.180267 0.415405
0.038849 0.194183 0.433838
0.208710 0.205994 0.467499
0.526672 0.314850 0.552155
0.764099 0.514771 0.647278
0.024994 0.338348 0.508270
0.081970 0.387787 0.534882
0.328430 0.460632 0.586945
0.634705 0.558136 0.669067
0.842133 0.705139 0.753754
0.057953 0.515289 0.583313
0.310944 0.638702 0.639313
0.580841 0.721497 0.706970
0.754181 0.793762 0.778503
0.914185 0.868225 0.858093
