滤镜资源/Lutify.me Free 3D LUTs Package/Capture One/Windows/Lutify.me Raw Styles/75%/LM-RAW-Hypersthene-75.costyle
<?xml version="1.0"?>
<SL Engine="1000">
	<E K="ICCProfile" V="LM-RAW-Hypersthene-75.icm" />
	<E K="Name" V="LM-RAW-Hypersthene" />
	<E K="StyleSource" V="Styles" />
	<E K="UUID" V="6DD2FD92-C778-9FDB-A036-F9CEAE839D9D" />
</SL>
