滤镜资源/Lutify.me Free 3D LUTs Package/3D LUTs/Color Grading LUTs/RED IPP2/Hackmanite - IPP2.cube
# Website: https://lutify.me
# Contact: help@lutify.me
# Created by: Lutify.me
# Copyright: (c) Copyright Lutify.me 2016, G.T. Colord LTD
LUT_3D_SIZE 33
0.000000 0.000000 0.000000
0.000000 0.000000 0.000000
0.000013 0.000002 0.000002
0.093243 0.018280 0.014351
0.126664 0.058687 0.046073
0.148938 0.084569 0.066392
0.174346 0.093475 0.088924
0.206822 0.100314 0.094973
0.243703 0.107953 0.101948
0.281662 0.116285 0.108762
0.318529 0.124657 0.115306
0.355331 0.133786 0.121775
0.392252 0.142626 0.128275
0.429545 0.150994 0.134834
0.434759 0.152071 0.135713
0.434759 0.152071 0.135713
0.434759 0.152071 0.135713
0.434759 0.152071 0.135713
0.434759 0.152071 0.135713
0.434759 0.152071 0.135713
0.434759 0.152071 0.135713
0.434759 0.152071 0.135713
0.434759 0.152071 0.135713
0.434759 0.152071 0.135713
0.434759 0.152071 0.135713
0.434759 0.152071 0.135713
0.434759 0.152071 0.135713
0.434759 0.152071 0.135713
0.434759 0.152071 0.135713
0.434759 0.152071 0.135713
0.434759 0.152071 0.135713
0.434759 0.152071 0.135713
0.434759 0.152071 0.135713
0.000000 0.000000 0.000000
0.000000 0.000000 0.000000
0.000013 0.000002 0.000002
0.093243 0.018280 0.014351
0.126664 0.058687 0.046073
0.148938 0.084569 0.066392
0.174346 0.093475 0.088924
0.206822 0.100314 0.094973
0.243703 0.107953 0.101948
0.281662 0.116285 0.108762
0.318529 0.124657 0.115306
0.355331 0.133786 0.121775
0.392252 0.142626 0.128275
0.429545 0.150994 0.134834
0.434759 0.152071 0.135713
0.434759 0.152071 0.135713
0.434759 0.152071 0.135713
0.434759 0.152071 0.135713
0.434759 0.152071 0.135713
0.434759 0.152071 0.135713
0.434759 0.152071 0.135713
0.434759 0.152071 0.135713
0.434759 0.152071 0.135713
0.434759 0.152071 0.135713
0.434759 0.152071 0.135713
0.434759 0.152071 0.135713
0.434759 0.152071 0.135713
0.434759 0.152071 0.135713
0.434759 0.152071 0.135713
0.434759 0.152071 0.135713
0.434759 0.152071 0.135713
0.434759 0.152071 0.135713
0.434759 0.152071 0.135713
0.000004 0.000009 0.000003
0.000004 0.000009 0.000003
0.000011 0.000009 0.000004
0.093242 0.018280 0.014351
0.126663 0.058686 0.046073
0.148937 0.084568 0.066392
0.174345 0.093475 0.088924
0.206821 0.100314 0.094973
0.243703 0.107953 0.101948
0.281661 0.116284 0.108762
0.318528 0.124657 0.115306
0.355330 0.133786 0.121774
0.392251 0.142626 0.128275
0.429544 0.150994 0.134834
0.434759 0.152071 0.135713
0.434759 0.152071 0.135713
0.434759 0.152071 0.135713
0.434759 0.152071 0.135713
0.434759 0.152071 0.135713
0.434759 0.152071 0.135713
0.434759 0.152071 0.135713
0.434759 0.152071 0.135713
0.434759 0.152071 0.135713
0.434759 0.152071 0.135713
0.434759 0.152071 0.135713
0.434759 0.152071 0.135713
0.434759 0.152071 0.135713
0.434759 0.152071 0.135713
0.434759 0.152071 0.135713
0.434759 0.152071 0.135713
0.434759 0.152071 0.135713
0.434759 0.152071 0.135713
0.434759 0.152071 0.135713
0.032465 0.072064 0.028511
0.032465 0.072064 0.028511
0.032464 0.072064 0.028510
0.085858 0.078458 0.033261
0.124554 0.077592 0.056859
0.146103 0.083604 0.068697
0.169779 0.092584 0.086357
0.202032 0.099257 0.094143
0.239019 0.107020 0.101020
0.277458 0.115336 0.108021
0.314400 0.123721 0.114571
0.351097 0.132751 0.121047
0.387822 0.141590 0.127468
0.424857 0.149998 0.134029
0.434759 0.152071 0.135713
0.434759 0.152071 0.135713
0.434759 0.152071 0.135713
0.434759 0.152071 0.135713
0.434759 0.152071 0.135713
0.434759 0.152071 0.135713
0.434759 0.152071 0.135713
0.434759 0.152071 0.135713
0.434759 0.152071 0.135713
0.434759 0.152071 0.135713
0.434759 0.152071 0.135713
0.434759 0.152071 0.135713
0.434759 0.152071 0.135713
0.434759 0.152071 0.135713
0.434759 0.152071 0.135713
0.434759 0.152071 0.135713
0.434759 0.152071 0.135713
0.434759 0.152071 0.135713
0.434759 0.152071 0.135713
0.093643 0.115795 0.091429
0.093643 0.115795 0.091429
0.093642 0.115795 0.091429
0.092887 0.114462 0.090641
0.122721 0.115728 0.093845
0.147814 0.116595 0.096283
0.169200 0.116784 0.098180
0.197739 0.118044 0.101291
0.232495 0.120648 0.105468
0.270055 0.124516 0.110277
0.305858 0.128558 0.115180
0.341064 0.132564 0.119991
0.376587 0.138945 0.125410
0.412910 0.147370 0.131973
0.434759 0.152071 0.135713
0.434759 0.152071 0.135713
0.434759 0.152071 0.135713
0.434759 0.152071 0.135713
0.434759 0.152071 0.135713
0.434759 0.152071 0.135713
0.434759 0.152071 0.135713
0.434759 0.152071 0.135713
0.434759 0.152071 0.135713
0.434759 0.152071 0.135713
0.434759 0.152071 0.135713
0.434759 0.152071 0.135713
0.434759 0.152071 0.135713
0.434759 0.152071 0.135713
0.434759 0.152071 0.135713
0.434759 0.152071 0.135713
0.434759 0.152071 0.135713
0.434759 0.152071 0.135713
0.434759 0.152071 0.135713
0.105271 0.140649 0.102132
0.105271 0.140649 0.102132
0.105271 0.140649 0.102132
0.104634 0.139072 0.101483
0.120141 0.138090 0.102356
0.148658 0.139448 0.104922
0.170361 0.139510 0.106422
0.196425 0.140301 0.108548
0.229728 0.142684 0.111978
0.267062 0.146475 0.116627
0.302984 0.150512 0.121522
0.338218 0.154411 0.126457
0.372967 0.158082 0.131531
0.407657 0.161541 0.136364
0.438656 0.163958 0.140288
0.437346 0.160081 0.138767
0.436161 0.156412 0.137368
0.435090 0.153096 0.136104
0.434759 0.152071 0.135713
0.434759 0.152071 0.135713
0.434759 0.152071 0.135713
0.434759 0.152071 0.135713
0.434759 0.152071 0.135713
0.434759 0.152071 0.135713
0.434759 0.152071 0.135713
0.434759 0.152071 0.135713
0.434759 0.152071 0.135713
0.434759 0.152071 0.135713
0.434759 0.152071 0.135713
0.434759 0.152071 0.135713
0.434759 0.152071 0.135713
0.434759 0.152071 0.135713
0.434759 0.152071 0.135713
0.117038 0.171137 0.112676
0.117038 0.171137 0.112676
0.117038 0.171136 0.112676
0.116348 0.169422 0.112072
0.117832 0.165672 0.110977
0.148904 0.166940 0.113421
0.173213 0.166919 0.115069
0.196394 0.166787 0.116716
0.227646 0.168176 0.119717
0.264222 0.170983 0.124062
0.300131 0.174489 0.129258
0.335387 0.177895 0.134507
0.370012 0.181102 0.139536
0.404497 0.184177 0.144330
0.439113 0.187024 0.148813
0.445925 0.184715 0.148600
0.444657 0.181175 0.147155
0.443510 0.177965 0.145849
0.442483 0.175026 0.144679
0.441594 0.172482 0.143667
0.440798 0.170204 0.142760
0.440112 0.168209 0.141970
0.439530 0.166511 0.141298
0.439022 0.165029 0.140711
0.438594 0.163779 0.140217
0.438223 0.162695 0.139788
0.437908 0.161777 0.139425
0.437634 0.160971 0.139107
0.437406 0.160267 0.138838
0.437206 0.159647 0.138602
0.437034 0.159115 0.138399
0.436878 0.158633 0.138215
0.436807 0.158412 0.138131
0.133755 0.207753 0.126739
0.133755 0.207753 0.126739
0.133755 0.207753 0.126739
0.132848 0.205969 0.125980
0.130538 0.201426 0.124047
0.149691 0.200342 0.124944
0.178211 0.200387 0.127018
0.199516 0.199211 0.128316
0.227458 0.199044 0.130811
0.262382 0.200359 0.134985
0.297816 0.202337 0.139829
0.333003 0.204728 0.144851
0.367410 0.206944 0.149592
0.401625 0.209196 0.153983
0.435894 0.211455 0.158136
0.456344 0.211235 0.159882
0.454949 0.207786 0.158390
0.453714 0.204699 0.157063
0.452603 0.201919 0.155869
0.451628 0.199474 0.154822
0.450774 0.197332 0.153905
0.450039 0.195490 0.153115
0.449416 0.193905 0.152442
0.448875 0.192502 0.151851
0.448416 0.191315 0.151352
0.448016 0.190279 0.150916
0.447677 0.189401 0.150546
0.447381 0.188633 0.150223
0.447129 0.187981 0.149949
0.446910 0.187413 0.149709
0.446725 0.186933 0.149508
0.446558 0.186480 0.149320
0.446481 0.186266 0.149233
0.155325 0.246523 0.145825
0.155325 0.246523 0.145825
0.155325 0.246523 0.145825
0.154418 0.244943 0.144991
0.152114 0.240860 0.142875
0.151506 0.237400 0.141200
0.183578 0.237652 0.143800
0.206680 0.236673 0.145343
0.230454 0.235559 0.147063
0.262684 0.235661 0.150474
0.297355 0.236700 0.154736
0.332370 0.237862 0.159090
0.366554 0.238979 0.163172
0.400465 0.240105 0.166994
0.434295 0.241092 0.170551
0.468245 0.242197 0.173915
0.468622 0.238790 0.172469
0.467032 0.235394 0.170873
0.465635 0.232370 0.169456
0.464500 0.229904 0.168302
0.463487 0.227691 0.167268
0.462603 0.225762 0.166368
0.461852 0.224113 0.165602
0.461196 0.222629 0.164933
0.460642 0.221374 0.164368
0.460193 0.220358 0.163910
0.459815 0.219502 0.163524
0.459484 0.218753 0.163187
0.459203 0.218117 0.162900
0.458956 0.217557 0.162648
0.458745 0.217060 0.162428
0.458555 0.216599 0.162227
0.458467 0.216387 0.162134
0.178989 0.285715 0.167176
0.178989 0.285715 0.167176
0.178989 0.285715 0.167176
0.178102 0.284255 0.166394
0.175843 0.280538 0.164403
0.173853 0.277257 0.162634
0.187477 0.275447 0.162761
0.215552 0.275158 0.164907
0.236204 0.273738 0.166073
0.264890 0.273237 0.168658
0.298119 0.273727 0.172394
0.333121 0.274545 0.176476
0.367420 0.275291 0.180351
0.401369 0.275966 0.183946
0.435192 0.276564 0.187135
0.469029 0.277131 0.189999
0.488360 0.275970 0.190874
0.486458 0.272572 0.189230
0.484755 0.269513 0.187752
0.483292 0.266885 0.186481
0.481981 0.264530 0.185342
0.480840 0.262475 0.184321
0.479870 0.260719 0.183397
0.479023 0.259187 0.182590
0.478307 0.257891 0.181907
0.477702 0.256782 0.181326
0.477204 0.255848 0.180841
0.476769 0.255031 0.180417
0.476400 0.254337 0.180057
0.476075 0.253727 0.179740
0.475796 0.253203 0.179468
0.475543 0.252729 0.179222
0.475427 0.252511 0.179109
0.201091 0.324890 0.187856
0.201091 0.324890 0.187856
0.201091 0.324890 0.187855
0.200299 0.323421 0.187141
0.198282 0.319681 0.185282
0.196507 0.316393 0.183601
0.194544 0.312810 0.181710
0.221727 0.312457 0.183787
0.244241 0.311327 0.185234
0.268379 0.310195 0.186956
0.299623 0.310297 0.189991
0.334257 0.310978 0.193613
0.368801 0.311664 0.197085
0.402941 0.312255 0.200286
0.436930 0.312769 0.203260
0.470923 0.313232 0.205999
0.505166 0.313658 0.208518
0.508825 0.310824 0.207521
0.506933 0.307704 0.206041
0.505285 0.304983 0.204751
0.503812 0.302553 0.203596
0.502528 0.300435 0.202589
0.501436 0.298635 0.201733
0.500503 0.297063 0.200986
0.499714 0.295734 0.200354
0.499025 0.294573 0.199802
0.498446 0.293598 0.199338
0.497940 0.292746 0.198933
0.497524 0.292021 0.198589
0.497159 0.291385 0.198287
0.496846 0.290838 0.198027
0.496562 0.290343 0.197792
0.496431 0.290115 0.197683
0.221697 0.364965 0.206664
0.221697 0.364965 0.206664
0.221697 0.364965 0.206664
0.220966 0.363433 0.205967
0.219105 0.359535 0.204188
0.217465 0.356108 0.202623
0.215669 0.352378 0.200916
0.225308 0.349799 0.200588
0.252440 0.349363 0.202657
0.273343 0.347737 0.203883
0.301831 0.347361 0.206379
0.335520 0.347873 0.209731
0.370261 0.348574 0.213152
0.404677 0.349181 0.216264
0.438910 0.349701 0.219016
0.473148 0.350152 0.221527
0.507672 0.350558 0.223819
0.533229 0.349979 0.225030
0.531199 0.346722 0.223681
0.529432 0.343899 0.222484
0.527854 0.341386 0.221407
0.526480 0.339203 0.220469
0.525311 0.337357 0.219671
0.524291 0.335747 0.218975
0.523428 0.334385 0.218386
0.522684 0.333199 0.217872
0.522059 0.332198 0.217436
0.521512 0.331324 0.217056
0.521048 0.330581 0.216733
0.520641 0.329928 0.216449
0.520290 0.329367 0.216205
0.519973 0.328860 0.215985
0.519827 0.328626 0.215883
0.239939 0.406051 0.223897
0.239939 0.406051 0.223897
0.239939 0.406050 0.223897
0.239236 0.404399 0.223254
0.237442 0.400210 0.221615
0.235864 0.396581 0.220171
0.234141 0.392631 0.218596
0.232195 0.388179 0.216817
0.258186 0.387621 0.218646
0.279596 0.386005 0.219867
0.304837 0.385037 0.221675
0.336999 0.385285 0.224490
0.371679 0.385980 0.227539
0.406368 0.386627 0.230401
0.440883 0.387172 0.233047
0.475438 0.387646 0.235465
0.510228 0.388062 0.237675
0.545412 0.388422 0.239664
0.557139 0.386419 0.239531
0.555188 0.383396 0.238370
0.553440 0.380704 0.237330
0.551917 0.378360 0.236424
0.550623 0.376371 0.235653
0.549495 0.374668 0.234980
0.548540 0.373227 0.234411
0.547707 0.371969 0.233914
0.547002 0.370906 0.233494
0.546391 0.369981 0.233126
0.545877 0.369202 0.232813
0.545426 0.368518 0.232538
0.545038 0.367931 0.232301
0.544687 0.367399 0.232087
0.544526 0.367154 0.231989
0.256311 0.448637 0.239132
0.256311 0.448637 0.239132
0.256311 0.448637 0.239132
0.255676 0.446813 0.238512
0.254057 0.442161 0.236933
0.252632 0.438157 0.235543
0.251052 0.433821 0.234027
0.249204 0.429013 0.232314
0.261466 0.426207 0.232358
0.286679 0.425175 0.234083
0.308772 0.423552 0.235365
0.338812 0.423403 0.237781
0.373028 0.424031 0.240709
0.407991 0.424729 0.243531
0.442826 0.425322 0.246088
0.477653 0.425820 0.248427
0.512758 0.426248 0.250552
0.548309 0.426638 0.252377
0.584690 0.426942 0.253973
0.582471 0.423717 0.252923
0.580484 0.420829 0.251972
0.578752 0.418312 0.251135
0.577280 0.416171 0.250423
0.576014 0.414317 0.249780
0.574953 0.412757 0.249230
0.574026 0.411395 0.248749
0.573241 0.410241 0.248342
0.572554 0.409231 0.247986
0.571981 0.408383 0.247683
0.571484 0.407644 0.247417
0.571057 0.407008 0.247189
0.570670 0.406433 0.246982
0.570493 0.406169 0.246887
0.270767 0.493289 0.252936
0.270767 0.493289 0.252936
0.270767 0.493288 0.252936
0.270144 0.491254 0.252378
0.268556 0.486093 0.250930
0.267159 0.481605 0.249605
0.265635 0.476767 0.248149
0.263914 0.471356 0.246496
0.263518 0.465681 0.244837
0.292951 0.465421 0.247085
0.313526 0.463298 0.248108
0.341139 0.462618 0.250075
0.374384 0.463081 0.252651
0.409480 0.463841 0.255235
0.444637 0.464505 0.257637
0.479732 0.465092 0.259809
0.515211 0.465560 0.261767
0.551109 0.465945 0.263522
0.588215 0.466359 0.265097
0.611153 0.465286 0.265643
0.608921 0.462119 0.264719
0.606975 0.459358 0.263914
0.605349 0.457025 0.263229
0.603970 0.455009 0.262632
0.602803 0.453303 0.262126
0.601784 0.451814 0.261685
0.600921 0.450553 0.261311
0.600176 0.449458 0.260984
0.599544 0.448529 0.260706
0.598988 0.447713 0.260462
0.598511 0.447011 0.260252
0.598079 0.446376 0.260063
0.597880 0.446084 0.259975
0.283835 0.539925 0.264570
0.283835 0.539925 0.264570
0.283835 0.539925 0.264570
0.283491 0.538602 0.264266
0.281914 0.532535 0.262872
0.280523 0.527349 0.261644
0.279005 0.521800 0.260306
0.277290 0.515677 0.258783
0.275348 0.508834 0.257045
0.297238 0.506758 0.258177
0.319019 0.504635 0.259269
0.343968 0.503233 0.260749
0.375843 0.503407 0.263018
0.410866 0.504236 0.265525
0.446299 0.505012 0.267893
0.481684 0.505665 0.270051
0.517485 0.506223 0.272016
0.553776 0.506711 0.273773
0.591293 0.507105 0.275346
0.629235 0.507474 0.276718
0.638565 0.504988 0.276437
0.636451 0.501857 0.275632
0.634655 0.499195 0.274947
0.633086 0.496873 0.274350
0.631760 0.494984 0.273843
0.630604 0.493336 0.273402
0.629625 0.491941 0.273027
0.628768 0.490721 0.272700
0.628041 0.489684 0.272422
0.627401 0.488774 0.272178
0.626852 0.488006 0.271968
0.626355 0.487311 0.271778
0.626126 0.486992 0.271691
0.283835 0.539925 0.264570
0.283835 0.539925 0.264570
0.283835 0.539925 0.264570
0.283835 0.539925 0.264570
0.283835 0.539925 0.264570
0.283835 0.539925 0.264570
0.283835 0.539925 0.264570
0.283835 0.539925 0.264570
0.283835 0.539925 0.264570
0.298235 0.543740 0.266398
0.324855 0.548593 0.269311
0.347292 0.546252 0.270455
0.377527 0.546020 0.272511
0.412097 0.546861 0.274957
0.447805 0.547813 0.277332
0.483468 0.548589 0.279495
0.519568 0.549212 0.281460
0.556182 0.549774 0.283211
0.594225 0.550253 0.284773
0.632670 0.550644 0.286138
0.670369 0.550677 0.287207
0.667752 0.547022 0.286406
0.665527 0.543916 0.285725
0.663591 0.541209 0.285131
0.662014 0.538977 0.284629
0.660637 0.537027 0.284190
0.659470 0.535376 0.283818
0.658450 0.533932 0.283493
0.657585 0.532707 0.283217
0.656840 0.531643 0.282975
0.656253 0.530770 0.282766
0.655722 0.529980 0.282577
0.655478 0.529617 0.282490
0.283835 0.539925 0.264570
0.283835 0.539925 0.264570
0.283835 0.539925 0.264570
0.283835 0.539925 0.264570
0.283835 0.539925 0.264570
0.283835 0.539925 0.264570
0.283835 0.539925 0.264570
0.283835 0.539925 0.264570
0.283835 0.539925 0.264570
0.288854 0.541254 0.265207
0.319533 0.549430 0.269100
0.342488 0.555602 0.271996
0.372879 0.563767 0.275705
0.408601 0.573258 0.279838
0.446396 0.583049 0.283894
0.484477 0.592281 0.287616
0.521467 0.595128 0.289945
0.558379 0.595816 0.291696
0.596866 0.596363 0.293258
0.635843 0.596874 0.294622
0.677901 0.597283 0.295841
0.701226 0.595616 0.296108
0.698767 0.591928 0.295429
0.696646 0.588741 0.294836
0.694853 0.586044 0.294334
0.693287 0.583690 0.293896
0.691960 0.581746 0.293525
0.690800 0.580064 0.293201
0.689814 0.578636 0.292925
0.688948 0.577381 0.292683
0.688204 0.576303 0.292475
0.687531 0.575327 0.292287
0.687221 0.574879 0.292200
0.283835 0.539925 0.264570
0.283835 0.539925 0.264570
0.283835 0.539925 0.264570
0.283835 0.539925 0.264570
0.283835 0.539925 0.264570
0.283835 0.539925 0.264570
0.283835 0.539925 0.264570
0.283835 0.539925 0.264570
0.283835 0.539925 0.264570
0.283835 0.539925 0.264570
0.313358 0.547764 0.268318
0.336228 0.553930 0.271212
0.364474 0.561440 0.274692
0.398657 0.570665 0.278709
0.435405 0.580283 0.282758
0.472553 0.589397 0.286494
0.510055 0.598164 0.289904
0.548073 0.606105 0.292958
0.587449 0.613577 0.295691
0.627563 0.620111 0.298081
0.670533 0.626328 0.300218
0.717438 0.631836 0.302078
0.725968 0.632731 0.302380
0.725968 0.632731 0.302380
0.725968 0.632731 0.302380
0.725968 0.632731 0.302380
0.725452 0.631929 0.302253
0.724142 0.629894 0.301928
0.723030 0.628165 0.301653
0.722052 0.626645 0.301410
0.721212 0.625340 0.301202
0.720452 0.624159 0.301014
0.720102 0.623615 0.300927
0.283835 0.539925 0.264570
0.283835 0.539925 0.264570
0.283835 0.539925 0.264570
0.283835 0.539925 0.264570
0.283835 0.539925 0.264570
0.283835 0.539925 0.264570
0.283835 0.539925 0.264570
0.283835 0.539925 0.264570
0.283835 0.539925 0.264570
0.283835 0.539925 0.264570
0.307133 0.546099 0.267528
0.331246 0.552589 0.270582
0.357498 0.559534 0.273841
0.390216 0.568425 0.277733
0.426082 0.577852 0.281756
0.462418 0.586974 0.285506
0.498773 0.595648 0.288925
0.535312 0.603528 0.291987
0.572751 0.610938 0.294726
0.610602 0.617477 0.297118
0.649923 0.623481 0.299256
0.692072 0.628991 0.301117
0.725968 0.632731 0.302380
0.725968 0.632731 0.302380
0.725968 0.632731 0.302380
0.725968 0.632731 0.302380
0.725968 0.632731 0.302380
0.725968 0.632731 0.302380
0.725968 0.632731 0.302380
0.725968 0.632731 0.302380
0.725968 0.632731 0.302380
0.725968 0.632731 0.302380
0.725968 0.632731 0.302380
0.283835 0.539925 0.264570
0.283835 0.539925 0.264570
0.283835 0.539925 0.264570
0.283835 0.539925 0.264570
0.283835 0.539925 0.264570
0.283835 0.539925 0.264570
0.283835 0.539925 0.264570
0.283835 0.539925 0.264570
0.283835 0.539925 0.264570
0.283835 0.539925 0.264570
0.301089 0.544497 0.266761
0.327169 0.551490 0.270066
0.351516 0.557975 0.273110
0.382812 0.566452 0.276874
0.417840 0.575672 0.280855
0.453553 0.584814 0.284619
0.489142 0.593389 0.288047
0.524529 0.601285 0.291117
0.560369 0.608571 0.293860
0.596364 0.615117 0.296254
0.633358 0.620982 0.298395
0.671411 0.626441 0.300256
0.710656 0.631124 0.301838
0.725968 0.632731 0.302380
0.725968 0.632731 0.302380
0.725968 0.632731 0.302380
0.725968 0.632731 0.302380
0.725968 0.632731 0.302380
0.725968 0.632731 0.302380
0.725968 0.632731 0.302380
0.725968 0.632731 0.302380
0.725968 0.632731 0.302380
0.725968 0.632731 0.302380
0.283835 0.539925 0.264570
0.283835 0.539925 0.264570
0.283835 0.539925 0.264570
0.283835 0.539925 0.264570
0.283835 0.539925 0.264570
0.283835 0.539925 0.264570
0.283835 0.539925 0.264570
0.283835 0.539925 0.264570
0.283835 0.539925 0.264570
0.283835 0.539925 0.264570
0.295451 0.543002 0.266044
0.323578 0.550521 0.269612
0.346583 0.556685 0.272504
0.376624 0.564787 0.276149
0.410722 0.573807 0.280074
0.445894 0.582924 0.283843
0.480864 0.591417 0.287280
0.515401 0.599328 0.290356
0.550038 0.606505 0.293104
0.584523 0.613058 0.295501
0.619563 0.618911 0.297643
0.654959 0.624219 0.299506
0.691339 0.628904 0.301088
0.725968 0.632731 0.302380
0.725968 0.632731 0.302380
0.725968 0.632731 0.302380
0.725968 0.632731 0.302380
0.725968 0.632731 0.302380
0.725968 0.632731 0.302380
0.725968 0.632731 0.302380
0.725968 0.632731 0.302380
0.725968 0.632731 0.302380
0.725968 0.632731 0.302380
0.283835 0.539925 0.264570
0.283835 0.539925 0.264570
0.283835 0.539925 0.264570
0.283835 0.539925 0.264570
0.283835 0.539925 0.264570
0.283835 0.539925 0.264570
0.283835 0.539925 0.264570
0.283835 0.539925 0.264570
0.283835 0.539925 0.264570
0.283835 0.539925 0.264570
0.290502 0.541690 0.265416
0.320463 0.549681 0.269218
0.342663 0.555648 0.272018
0.371472 0.563381 0.275537
0.404805 0.572279 0.279411
0.439461 0.581317 0.283183
0.473945 0.589736 0.286626
0.507792 0.597663 0.289709
0.541491 0.604757 0.292460
0.574784 0.611307 0.294861
0.608677 0.617163 0.297003
0.642246 0.622330 0.298867
0.675842 0.627014 0.300450
0.710441 0.631102 0.301830
0.725968 0.632731 0.302380
0.725968 0.632731 0.302380
0.725968 0.632731 0.302380
0.725968 0.632731 0.302380
0.725968 0.632731 0.302380
0.725968 0.632731 0.302380
0.725968 0.632731 0.302380
0.725968 0.632731 0.302380
0.725968 0.632731 0.302380
0.283835 0.539925 0.264570
0.283835 0.539925 0.264570
0.283835 0.539925 0.264570
0.283835 0.539925 0.264570
0.283835 0.539925 0.264570
0.283835 0.539925 0.264570
0.283835 0.539925 0.264570
0.283835 0.539925 0.264570
0.283835 0.539925 0.264570
0.283835 0.539925 0.264570
0.286106 0.540526 0.264858
0.317533 0.548891 0.268847
0.339392 0.554776 0.271609
0.367218 0.562206 0.275026
0.399803 0.570968 0.278841
0.433956 0.579908 0.282604
0.467994 0.588315 0.286055
0.501253 0.596204 0.289142
0.534146 0.603297 0.291898
0.566603 0.609776 0.294301
0.599423 0.615636 0.296444
0.631766 0.620740 0.298310
0.663279 0.625365 0.299893
0.696012 0.629454 0.301274
0.725968 0.632731 0.302380
0.725968 0.632731 0.302380
0.725968 0.632731 0.302380
0.725968 0.632731 0.302380
0.725968 0.632731 0.302380
0.725968 0.632731 0.302380
0.725968 0.632731 0.302380
0.725968 0.632731 0.302380
0.725968 0.632731 0.302380
0.283835 0.539925 0.264570
0.283835 0.539925 0.264570
0.283835 0.539925 0.264570
0.283835 0.539925 0.264570
0.283835 0.539925 0.264570
0.283835 0.539925 0.264570
0.283835 0.539925 0.264570
0.283835 0.539925 0.264570
0.283835 0.539925 0.264570
0.283835 0.539925 0.264570
0.283835 0.539925 0.264570
0.314838 0.548164 0.268505
0.336739 0.554067 0.271276
0.363656 0.561213 0.274593
0.395625 0.569862 0.278359
0.429383 0.578717 0.282113
0.463069 0.587131 0.285571
0.495856 0.594971 0.288662
0.528242 0.602071 0.291421
0.559910 0.608481 0.293827
0.591816 0.614345 0.295972
0.623098 0.619445 0.297838
0.653187 0.623970 0.299421
0.684274 0.628059 0.300803
0.714387 0.631516 0.301970
0.725968 0.632731 0.302380
0.725968 0.632731 0.302380
0.725968 0.632731 0.302380
0.725968 0.632731 0.302380
0.725968 0.632731 0.302380
0.725968 0.632731 0.302380
0.725968 0.632731 0.302380
0.725968 0.632731 0.302380
0.283835 0.539925 0.264570
0.283835 0.539925 0.264570
0.283835 0.539925 0.264570
0.283835 0.539925 0.264570
0.283835 0.539925 0.264570
0.283835 0.539925 0.264570
0.283835 0.539925 0.264570
0.283835 0.539925 0.264570
0.283835 0.539925 0.264570
0.283835 0.539925 0.264570
0.283835 0.539925 0.264570
0.312485 0.547528 0.268207
0.334600 0.553493 0.271006
0.360645 0.560373 0.274225
0.392009 0.568902 0.277941
0.425419 0.577676 0.281683
0.458815 0.586099 0.285147
0.491262 0.593892 0.288242
0.523189 0.600999 0.291006
0.554200 0.607350 0.293413
0.585414 0.613216 0.295559
0.615858 0.618318 0.297426
0.645063 0.622752 0.299010
0.674504 0.626841 0.300391
0.703361 0.630299 0.301559
0.725968 0.632731 0.302380
0.725968 0.632731 0.302380
0.725968 0.632731 0.302380
0.725968 0.632731 0.302380
0.725968 0.632731 0.302380
0.725968 0.632731 0.302380
0.725968 0.632731 0.302380
0.725968 0.632731 0.302380
0.283835 0.539925 0.264570
0.283835 0.539925 0.264570
0.283835 0.539925 0.264570
0.283835 0.539925 0.264570
0.283835 0.539925 0.264570
0.283835 0.539925 0.264570
0.283835 0.539925 0.264570
0.283835 0.539925 0.264570
0.283835 0.539925 0.264570
0.283835 0.539925 0.264570
0.283835 0.539925 0.264570
0.310256 0.546932 0.267924
0.332797 0.553007 0.270778
0.358164 0.559707 0.273923
0.389007 0.568103 0.277593
0.422085 0.576794 0.281319
0.455232 0.585225 0.284788
0.487401 0.592976 0.287886
0.518931 0.600090 0.290653
0.549469 0.606389 0.293062
0.580058 0.612260 0.295209
0.609897 0.617364 0.297076
0.638370 0.621742 0.298662
0.666527 0.625810 0.300043
0.694394 0.629268 0.301211
