滤镜资源/Lutify.me Free 3D LUTs Package/3D LUTs/Color Grading LUTs/RED IPP2/Herderite - IPP2.cube
# Website: https://lutify.me
# Contact: help@lutify.me
# Created by: Lutify.me
# Copyright: (c) Copyright Lutify.me 2016, G.T. Colord LTD
LUT_3D_SIZE 33
0.000000 0.000000 0.000000
0.000000 0.000000 0.000000
0.000006 0.000001 0.000001
0.052471 0.013043 0.011255
0.110040 0.056085 0.050341
0.140893 0.094980 0.090528
0.182629 0.111503 0.108207
0.225462 0.127694 0.122684
0.266255 0.147400 0.140163
0.306961 0.167900 0.159072
0.344280 0.185397 0.175225
0.376974 0.198668 0.187866
0.405119 0.208790 0.197072
0.430892 0.217122 0.204693
0.434354 0.218180 0.205679
0.434354 0.218180 0.205679
0.434354 0.218180 0.205679
0.434354 0.218180 0.205679
0.434354 0.218180 0.205679
0.434354 0.218180 0.205679
0.434354 0.218180 0.205679
0.434354 0.218180 0.205679
0.434354 0.218180 0.205679
0.434354 0.218180 0.205679
0.434354 0.218180 0.205679
0.434354 0.218180 0.205679
0.434354 0.218180 0.205679
0.434354 0.218180 0.205679
0.434354 0.218180 0.205679
0.434354 0.218180 0.205679
0.434354 0.218180 0.205679
0.434354 0.218180 0.205679
0.434354 0.218180 0.205679
0.000000 0.000000 0.000000
0.000000 0.000000 0.000000
0.000006 0.000001 0.000001
0.052471 0.013043 0.011255
0.110040 0.056085 0.050341
0.140893 0.094980 0.090528
0.182629 0.111503 0.108207
0.225462 0.127694 0.122684
0.266255 0.147400 0.140163
0.306961 0.167900 0.159072
0.344280 0.185397 0.175225
0.376974 0.198668 0.187866
0.405119 0.208790 0.197072
0.430892 0.217122 0.204693
0.434354 0.218180 0.205679
0.434354 0.218180 0.205679
0.434354 0.218180 0.205679
0.434354 0.218180 0.205679
0.434354 0.218180 0.205679
0.434354 0.218180 0.205679
0.434354 0.218180 0.205679
0.434354 0.218180 0.205679
0.434354 0.218180 0.205679
0.434354 0.218180 0.205679
0.434354 0.218180 0.205679
0.434354 0.218180 0.205679
0.434354 0.218180 0.205679
0.434354 0.218180 0.205679
0.434354 0.218180 0.205679
0.434354 0.218180 0.205679
0.434354 0.218180 0.205679
0.434354 0.218180 0.205679
0.434354 0.218180 0.205679
0.000003 0.000006 0.000003
0.000003 0.000006 0.000003
0.000006 0.000006 0.000003
0.052469 0.013043 0.011255
0.110040 0.056084 0.050340
0.140892 0.094980 0.090527
0.182629 0.111502 0.108207
0.225461 0.127694 0.122684
0.266254 0.147400 0.140163
0.306960 0.167900 0.159072
0.344279 0.185396 0.175225
0.376974 0.198668 0.187865
0.405119 0.208790 0.197072
0.430891 0.217122 0.204693
0.434354 0.218180 0.205679
0.434354 0.218180 0.205679
0.434354 0.218180 0.205679
0.434354 0.218180 0.205679
0.434354 0.218180 0.205679
0.434354 0.218180 0.205679
0.434354 0.218180 0.205679
0.434354 0.218180 0.205679
0.434354 0.218180 0.205679
0.434354 0.218180 0.205679
0.434354 0.218180 0.205679
0.434354 0.218180 0.205679
0.434354 0.218180 0.205679
0.434354 0.218180 0.205679
0.434354 0.218180 0.205679
0.434354 0.218180 0.205679
0.434354 0.218180 0.205679
0.434354 0.218180 0.205679
0.434354 0.218180 0.205679
0.029884 0.053715 0.026537
0.029884 0.053715 0.026537
0.029884 0.053714 0.026537
0.052239 0.053460 0.028135
0.106969 0.071860 0.052822
0.135073 0.095150 0.088151
0.175770 0.109250 0.106071
0.219700 0.125232 0.120531
0.261414 0.144889 0.137869
0.302513 0.165731 0.157086
0.340307 0.183658 0.173577
0.373491 0.197347 0.186621
0.401963 0.207687 0.196073
0.427721 0.216164 0.203789
0.434354 0.218180 0.205679
0.434354 0.218180 0.205679
0.434354 0.218180 0.205679
0.434354 0.218180 0.205679
0.434354 0.218180 0.205679
0.434354 0.218180 0.205679
0.434354 0.218180 0.205679
0.434354 0.218180 0.205679
0.434354 0.218180 0.205679
0.434354 0.218180 0.205679
0.434354 0.218180 0.205679
0.434354 0.218180 0.205679
0.434354 0.218180 0.205679
0.434354 0.218180 0.205679
0.434354 0.218180 0.205679
0.434354 0.218180 0.205679
0.434354 0.218180 0.205679
0.434354 0.218180 0.205679
0.434354 0.218180 0.205679
0.095008 0.108690 0.089695
0.095008 0.108690 0.089695
0.095008 0.108690 0.089694
0.092250 0.107325 0.086914
0.106846 0.107626 0.088654
0.128349 0.112275 0.098014
0.166083 0.120617 0.107870
0.209725 0.134123 0.120671
0.252370 0.150717 0.136852
0.293332 0.168056 0.155060
0.331344 0.183538 0.171005
0.364910 0.195182 0.183817
0.393768 0.204784 0.193449
0.419701 0.213607 0.201430
0.434354 0.218180 0.205679
0.434354 0.218180 0.205679
0.434354 0.218180 0.205679
0.434354 0.218180 0.205679
0.434354 0.218180 0.205679
0.434354 0.218180 0.205679
0.434354 0.218180 0.205679
0.434354 0.218180 0.205679
0.434354 0.218180 0.205679
0.434354 0.218180 0.205679
0.434354 0.218180 0.205679
0.434354 0.218180 0.205679
0.434354 0.218180 0.205679
0.434354 0.218180 0.205679
0.434354 0.218180 0.205679
0.434354 0.218180 0.205679
0.434354 0.218180 0.205679
0.434354 0.218180 0.205679
0.434354 0.218180 0.205679
0.115009 0.136146 0.111322
0.115009 0.136146 0.111322
0.115008 0.136146 0.111322
0.113872 0.134259 0.110308
0.117800 0.131475 0.109296
0.130823 0.132982 0.110384
0.160202 0.140001 0.115431
0.204095 0.151176 0.124388
0.247181 0.165691 0.140270
0.288537 0.181355 0.157914
0.327183 0.195302 0.173809
0.361707 0.206278 0.186687
0.391015 0.214523 0.196043
0.416308 0.220396 0.203076
0.437100 0.224407 0.208309
0.436178 0.222377 0.207439
0.435343 0.220455 0.206633
0.434587 0.218717 0.205904
0.434354 0.218180 0.205679
0.434354 0.218180 0.205679
0.434354 0.218180 0.205679
0.434354 0.218180 0.205679
0.434354 0.218180 0.205679
0.434354 0.218180 0.205679
0.434354 0.218180 0.205679
0.434354 0.218180 0.205679
0.434354 0.218180 0.205679
0.434354 0.218180 0.205679
0.434354 0.218180 0.205679
0.434354 0.218180 0.205679
0.434354 0.218180 0.205679
0.434354 0.218180 0.205679
0.434354 0.218180 0.205679
0.141915 0.175123 0.134744
0.141915 0.175123 0.134744
0.141914 0.175123 0.134744
0.140264 0.172956 0.133277
0.137546 0.167855 0.129927
0.149325 0.167101 0.130584
0.166195 0.169837 0.132097
0.199449 0.178954 0.140688
0.243484 0.190136 0.150172
0.285824 0.201923 0.164482
0.324825 0.214128 0.179978
0.360244 0.223637 0.192466
0.390425 0.230396 0.201587
0.416088 0.235207 0.208447
0.439250 0.238876 0.213997
0.443301 0.237537 0.214141
0.442096 0.235061 0.213049
0.441013 0.232808 0.212036
0.440088 0.230880 0.211170
0.439380 0.229401 0.210519
0.438767 0.228059 0.209925
0.438233 0.226889 0.209407
0.437779 0.225895 0.208967
0.437382 0.225027 0.208583
0.437057 0.224312 0.208268
0.436802 0.223740 0.208022
0.436583 0.223256 0.207814
0.436386 0.222834 0.207632
0.436221 0.222475 0.207480
0.436080 0.222150 0.207344
0.435958 0.221871 0.207227
0.435849 0.221619 0.207121
0.435798 0.221503 0.207072
0.176226 0.217747 0.166045
0.176226 0.217747 0.166045
0.176225 0.217747 0.166045
0.174595 0.215808 0.164569
0.170437 0.210828 0.160806
0.174763 0.208147 0.159364
0.188663 0.208418 0.161059
0.208471 0.212928 0.163680
0.241281 0.222139 0.174229
0.283169 0.232905 0.182703
0.324142 0.241230 0.191732
0.361376 0.248945 0.202357
0.392928 0.254692 0.211506
0.419427 0.258295 0.217959
0.442812 0.260855 0.222879
0.455565 0.260701 0.224744
0.453758 0.257502 0.223211
0.452197 0.254707 0.221913
0.450802 0.252144 0.220723
0.449576 0.249923 0.219695
0.448578 0.247998 0.218838
0.447756 0.246400 0.218127
0.447056 0.245042 0.217523
0.446439 0.243857 0.216997
0.445919 0.242848 0.216545
0.445468 0.241942 0.216131
0.445087 0.241176 0.215780
0.444753 0.240505 0.215473
0.444469 0.239935 0.215213
0.444233 0.239458 0.214995
0.444059 0.239098 0.214835
0.443901 0.238772 0.214690
0.443828 0.238623 0.214623
0.211348 0.259109 0.198752
0.211348 0.259109 0.198752
0.211348 0.259109 0.198752
0.209909 0.257516 0.197460
0.206218 0.253355 0.194110
0.203447 0.249742 0.191257
0.213530 0.248744 0.191526
0.229880 0.250837 0.194707
0.251566 0.256486 0.197760
0.283238 0.264957 0.209882
0.322354 0.274896 0.216656
0.361170 0.282073 0.223112
0.396100 0.286640 0.228292
0.425657 0.289157 0.232228
0.450691 0.290864 0.235944
0.473011 0.292342 0.239644
0.472182 0.288853 0.238149
0.470078 0.285396 0.236492
0.468207 0.282301 0.235012
0.466630 0.279694 0.233775
0.465253 0.277350 0.232663
0.464035 0.275309 0.231697
0.463008 0.273571 0.230875
0.462126 0.272050 0.230156
0.461378 0.270764 0.229548
0.460771 0.269721 0.229055
0.460259 0.268843 0.228639
0.459812 0.268074 0.228275
0.459437 0.267421 0.227962
0.459107 0.266848 0.227686
0.458824 0.266355 0.227449
0.458568 0.265909 0.227235
0.458450 0.265703 0.227136
0.245371 0.300474 0.230823
0.245371 0.300474 0.230823
0.245371 0.300474 0.230823
0.244189 0.298960 0.229729
0.241095 0.295049 0.226875
0.238331 0.291607 0.224350
0.240279 0.289000 0.222752
0.252416 0.289174 0.224260
0.271151 0.293641 0.228710
0.294773 0.300258 0.232238
0.325190 0.307673 0.241778
0.361811 0.318018 0.249949
0.397498 0.324863 0.254294
0.428915 0.328806 0.257321
0.456205 0.330766 0.259288
0.480548 0.331676 0.260743
0.493600 0.330260 0.260447
0.491866 0.326313 0.258095
0.490309 0.322758 0.255988
0.489004 0.319602 0.254147
0.487810 0.316775 0.252497
0.486790 0.314314 0.251012
0.485922 0.312222 0.249741
0.485166 0.310396 0.248612
0.484534 0.308853 0.247637
0.483852 0.307600 0.246973
0.483213 0.306586 0.246502
0.482655 0.305699 0.246090
0.482180 0.304945 0.245741
0.481763 0.304283 0.245433
0.481412 0.303715 0.245161
0.481089 0.303200 0.244914
0.480940 0.302964 0.244801
0.274084 0.340186 0.258108
0.274084 0.340186 0.258108
0.274084 0.340186 0.258108
0.273095 0.338759 0.257214
0.270502 0.335052 0.254855
0.268207 0.331792 0.252758
0.265706 0.328237 0.250422
0.273319 0.327117 0.250472
0.289760 0.329434 0.254048
0.312873 0.336928 0.258832
0.337137 0.343605 0.261968
0.367033 0.349984 0.269432
0.400974 0.360336 0.279577
0.433658 0.366779 0.282209
0.462188 0.370487 0.284090
0.487364 0.372500 0.285375
0.510880 0.373690 0.286313
0.512867 0.370567 0.284502
0.511036 0.367045 0.282367
0.509480 0.363930 0.280495
0.508075 0.361130 0.278821
0.506874 0.358689 0.277359
0.505853 0.356613 0.276116
0.504962 0.354802 0.275031
0.504222 0.353273 0.274113
0.503569 0.351943 0.273308
0.503017 0.350796 0.272631
0.502535 0.349791 0.272040
0.502126 0.348938 0.271537
0.501766 0.348188 0.271095
0.501460 0.347544 0.270716
0.501189 0.346965 0.270373
0.501067 0.346701 0.270215
0.299057 0.377676 0.280595
0.299057 0.377676 0.280595
0.299056 0.377676 0.280595
0.298203 0.376346 0.279830
0.295950 0.372852 0.277803
0.293931 0.369747 0.275987
0.291730 0.366397 0.274004
0.293081 0.363643 0.272625
0.306156 0.364547 0.274607
0.329285 0.370585 0.280701
0.353914 0.379802 0.285119
0.379607 0.386767 0.288287
0.408198 0.391968 0.294159
0.440508 0.401582 0.303956
0.469329 0.408102 0.308970
0.495770 0.411835 0.310021
0.519949 0.414143 0.310848
0.536614 0.414532 0.310899
0.534552 0.411020 0.308834
0.532734 0.407882 0.306986
0.531201 0.405086 0.305303
0.529882 0.402659 0.303836
0.528679 0.400590 0.302589
0.527697 0.398818 0.301501
0.526869 0.397322 0.300581
0.526146 0.396015 0.299777
0.525534 0.394897 0.299096
0.525001 0.393898 0.298498
0.524555 0.393052 0.297991
0.524168 0.392309 0.297545
0.523835 0.391670 0.297161
0.523534 0.391093 0.296814
0.523395 0.390827 0.296655
0.319582 0.411157 0.298913
0.319582 0.411157 0.298913
0.319582 0.411157 0.298913
0.318866 0.409933 0.298278
0.316943 0.406674 0.296569
0.315240 0.403852 0.295054
0.313383 0.400768 0.293401
0.311244 0.397259 0.291496
0.320605 0.396892 0.292240
0.341486 0.401704 0.297504
0.367546 0.411543 0.303843
0.393999 0.421321 0.308050
0.420843 0.428267 0.311617
0.448675 0.432854 0.316529
0.478962 0.441110 0.324341
0.505630 0.447398 0.330426
0.529940 0.451612 0.333716
0.553254 0.454380 0.334634
0.560785 0.453126 0.333238
0.558870 0.450026 0.331454
0.557112 0.447225 0.329864
0.555514 0.444784 0.328477
0.554224 0.442740 0.327299
0.553099 0.440956 0.326270
0.552150 0.439449 0.325400
0.551320 0.438128 0.324640
0.550613 0.436977 0.323990
0.550006 0.436000 0.323421
0.549490 0.435170 0.322938
0.549037 0.434440 0.322513
0.548647 0.433812 0.322148
0.548293 0.433245 0.321818
0.548131 0.432984 0.321667
0.336257 0.440796 0.313717
0.336257 0.440796 0.313717
0.336257 0.440796 0.313717
0.335607 0.439588 0.313142
0.333949 0.436511 0.311675
0.332494 0.433879 0.310385
0.330910 0.431011 0.308979
0.329039 0.427670 0.307314
0.332571 0.425680 0.306744
0.350315 0.429157 0.310599
0.377290 0.438084 0.318276
0.404656 0.450410 0.323788
0.431990 0.460250 0.327677
0.459894 0.467095 0.331475
0.487461 0.471914 0.335974
0.515102 0.478255 0.341636
0.541258 0.484162 0.346924
0.565104 0.488656 0.351110
0.587639 0.492185 0.354461
0.585326 0.489220 0.353172
0.583259 0.486568 0.352018
0.581521 0.484296 0.351016
0.580033 0.482362 0.350164
0.578727 0.480669 0.349410
0.577703 0.479139 0.348544
0.576818 0.477811 0.347788
0.576091 0.476704 0.347150
0.575455 0.475736 0.346593
0.574915 0.474913 0.346119
0.574441 0.474190 0.345703
0.574032 0.473569 0.345345
0.573648 0.473007 0.345021
0.573472 0.472749 0.344872
0.350495 0.467968 0.326177
0.350495 0.467968 0.326177
0.350495 0.467968 0.326177
0.349894 0.466807 0.325657
0.348361 0.463847 0.324333
0.347002 0.461227 0.323158
0.345500 0.458353 0.321853
0.343812 0.455122 0.320378
0.342515 0.451662 0.318845
0.357551 0.453744 0.321421
0.383044 0.461900 0.328547
0.411850 0.474969 0.335517
0.440299 0.487303 0.340445
0.468098 0.496877 0.344136
0.496729 0.503483 0.348280
0.523439 0.508004 0.352218
0.549197 0.512863 0.356324
0.575082 0.518553 0.360962
0.599294 0.523106 0.364725
0.613160 0.524618 0.366460
0.611162 0.522083 0.365571
0.609434 0.519861 0.364783
0.607934 0.517936 0.364100
0.606618 0.516253 0.363504
0.605487 0.514825 0.363000
0.604499 0.513578 0.362559
0.603693 0.512545 0.362187
0.602991 0.511645 0.361860
0.602395 0.510880 0.361583
0.601871 0.510207 0.361340
0.601421 0.509629 0.361131
0.601013 0.509107 0.360942
0.600826 0.508866 0.360855
0.362960 0.493408 0.336908
0.362960 0.493408 0.336908
0.362960 0.493408 0.336908
0.362633 0.492729 0.336628
0.361134 0.489614 0.335340
0.359815 0.486868 0.334204
0.358378 0.483904 0.332969
0.356744 0.480563 0.331565
0.354889 0.476764 0.329968
0.364147 0.476651 0.330898
0.386877 0.483551 0.336729
0.416860 0.496090 0.345063
0.445988 0.510742 0.350765
0.474961 0.522769 0.355183
0.502929 0.531837 0.358256
0.531715 0.537880 0.362638
0.557729 0.542142 0.365952
0.581429 0.545398 0.368628
0.607223 0.551092 0.372749
0.631171 0.555738 0.376127
0.636476 0.555075 0.376435
0.634726 0.552757 0.375714
0.633284 0.550846 0.375106
0.632027 0.549178 0.374578
0.630961 0.547762 0.374130
0.629996 0.546488 0.373724
0.629178 0.545409 0.373381
0.628464 0.544465 0.373081
0.627856 0.543663 0.372826
0.627323 0.542959 0.372602
0.626873 0.542361 0.372410
0.626481 0.541835 0.372238
0.626301 0.541593 0.372159
0.362960 0.493408 0.336908
0.362960 0.493408 0.336908
0.362960 0.493408 0.336908
0.362960 0.493408 0.336908
0.362960 0.493408 0.336908
0.362960 0.493408 0.336908
0.362960 0.493408 0.336908
0.362960 0.493408 0.336908
0.362960 0.493408 0.336908
0.369161 0.495590 0.338317
0.390451 0.504102 0.344136
0.420435 0.515898 0.352872
0.450213 0.531918 0.359399
0.479993 0.546380 0.364238
0.509009 0.557869 0.367850
0.537447 0.566087 0.371196
0.565717 0.571581 0.374990
0.590915 0.575453 0.377792
0.613842 0.578287 0.379945
0.637693 0.582706 0.382954
0.660310 0.586914 0.385811
0.658562 0.584490 0.385129
0.657079 0.582431 0.384550
0.655784 0.580634 0.384044
0.654623 0.579112 0.383615
0.653577 0.577782 0.383241
0.652691 0.576656 0.382923
0.651916 0.575671 0.382646
0.651261 0.574829 0.382404
0.650728 0.574112 0.382191
0.650270 0.573496 0.382009
0.649856 0.572938 0.381843
0.649665 0.572682 0.381767
0.362960 0.493408 0.336908
0.362960 0.493408 0.336908
0.362960 0.493408 0.336908
0.362960 0.493408 0.336908
0.362960 0.493408 0.336908
0.362960 0.493408 0.336908
0.362960 0.493408 0.336908
0.362960 0.493408 0.336908
0.362960 0.493408 0.336908
0.365017 0.494115 0.337364
0.383929 0.501941 0.342417
0.413980 0.517149 0.352149
0.446629 0.537337 0.361476
0.478888 0.557839 0.368660
0.511103 0.576175 0.374633
0.542086 0.591712 0.378879
0.571909 0.600142 0.382811
0.598958 0.605026 0.385918
0.623381 0.608443 0.388264
0.645782 0.611010 0.390098
0.668082 0.613699 0.391892
0.681318 0.615289 0.393184
0.679601 0.613004 0.392627
0.678157 0.611081 0.392142
0.676969 0.609490 0.391731
0.675932 0.608085 0.391373
0.675053 0.606895 0.391069
0.674284 0.605855 0.390803
0.673631 0.604971 0.390578
0.673050 0.604184 0.390377
0.672551 0.603508 0.390204
0.672099 0.602896 0.390047
0.671891 0.602614 0.389975
0.362960 0.493408 0.336908
0.362960 0.493408 0.336908
0.362960 0.493408 0.336908
0.362960 0.493408 0.336908
0.362960 0.493408 0.336908
0.362960 0.493408 0.336908
0.362960 0.493408 0.336908
0.362960 0.493408 0.336908
0.362960 0.493408 0.336908
0.362960 0.493408 0.336908
0.378290 0.499358 0.340742
0.405784 0.512894 0.349459
0.438386 0.531660 0.359559
0.470139 0.552414 0.366938
0.501813 0.571085 0.373089
0.532452 0.587144 0.377729
0.563040 0.600072 0.382103
0.592878 0.610029 0.386737
0.620227 0.618343 0.390420
0.645182 0.625135 0.393363
0.669545 0.631008 0.395856
0.693338 0.636125 0.397975
0.697440 0.636968 0.398318
0.697440 0.636968 0.398318
0.697440 0.636968 0.398318
0.697440 0.636968 0.398318
0.697107 0.636514 0.398213
0.696262 0.635361 0.397947
0.695544 0.634382 0.397722
0.694913 0.633522 0.397523
0.694370 0.632783 0.397353
0.693880 0.632114 0.397199
0.693654 0.631806 0.397128
0.362960 0.493408 0.336908
0.362960 0.493408 0.336908
0.362960 0.493408 0.336908
0.362960 0.493408 0.336908
0.362960 0.493408 0.336908
0.362960 0.493408 0.336908
0.362960 0.493408 0.336908
0.362960 0.493408 0.336908
0.362960 0.493408 0.336908
0.362960 0.493408 0.336908
0.373986 0.497503 0.339545
0.398999 0.509420 0.347231
0.431341 0.526815 0.357679
0.462571 0.547607 0.365404
0.493885 0.566620 0.371650
0.524335 0.583101 0.376630
0.553668 0.596681 0.380474
0.583318 0.606986 0.385331
0.610418 0.615496 0.389172
0.634947 0.622410 0.392197
0.658404 0.628379 0.394747
0.680689 0.633504 0.396892
0.697440 0.636968 0.398318
0.697440 0.636968 0.398318
0.697440 0.636968 0.398318
0.697440 0.636968 0.398318
0.697440 0.636968 0.398318
0.697440 0.636968 0.398318
0.697440 0.636968 0.398318
0.697440 0.636968 0.398318
0.697440 0.636968 0.398318
0.697440 0.636968 0.398318
0.697440 0.636968 0.398318
0.362960 0.493408 0.336908
0.362960 0.493408 0.336908
0.362960 0.493408 0.336908
0.362960 0.493408 0.336908
0.362960 0.493408 0.336908
0.362960 0.493408 0.336908
0.362960 0.493408 0.336908
0.362960 0.493408 0.336908
0.362960 0.493408 0.336908
0.362960 0.493408 0.336908
0.370520 0.496097 0.338641
0.393398 0.506571 0.345405
0.424996 0.522864 0.355769
0.455901 0.543345 0.363818
0.486852 0.562561 0.370289
0.517044 0.579348 0.375573
0.545794 0.593434 0.379289
0.574836 0.604172 0.384026
0.601802 0.612836 0.388002
0.625978 0.619962 0.391134
0.648567 0.626004 0.393740
0.670017 0.631114 0.395901
0.690235 0.635470 0.397704
0.697440 0.636968 0.398318
0.697440 0.636968 0.398318
0.697440 0.636968 0.398318
0.697440 0.636968 0.398318
0.697440 0.636968 0.398318
0.697440 0.636968 0.398318
0.697440 0.636968 0.398318
0.697440 0.636968 0.398318
0.697440 0.636968 0.398318
0.697440 0.636968 0.398318
0.362960 0.493408 0.336908
0.362960 0.493408 0.336908
0.362960 0.493408 0.336908
0.362960 0.493408 0.336908
0.362960 0.493408 0.336908
0.362960 0.493408 0.336908
0.362960 0.493408 0.336908
0.362960 0.493408 0.336908
0.362960 0.493408 0.336908
0.362960 0.493408 0.336908
0.367836 0.495101 0.338000
0.388744 0.504252 0.343915
0.419141 0.519815 0.353837
0.450144 0.539593 0.362371
0.480745 0.558959 0.369045
0.510681 0.575948 0.374566
0.539236 0.590384 0.378560
0.567335 0.601585 0.382824
0.594316 0.610482 0.386945
0.618220 0.617775 0.390176
0.640397 0.623871 0.392834
0.661236 0.629061 0.395035
0.680295 0.633421 0.396858
0.697440 0.636968 0.398318
0.697440 0.636968 0.398318
0.697440 0.636968 0.398318
0.697440 0.636968 0.398318
0.697440 0.636968 0.398318
0.697440 0.636968 0.398318
0.697440 0.636968 0.398318
0.697440 0.636968 0.398318
0.697440 0.636968 0.398318
0.697440 0.636968 0.398318
0.362960 0.493408 0.336908
0.362960 0.493408 0.336908
0.362960 0.493408 0.336908
0.362960 0.493408 0.336908
0.362960 0.493408 0.336908
0.362960 0.493408 0.336908
0.362960 0.493408 0.336908
0.362960 0.493408 0.336908
0.362960 0.493408 0.336908
0.362960 0.493408 0.336908
0.365694 0.494347 0.337514
0.385039 0.502478 0.342761
0.414209 0.517267 0.352223
0.445285 0.536459 0.361143
0.475610 0.555864 0.367971
0.505304 0.573031 0.373695
0.533594 0.587694 0.377871
0.561145 0.599414 0.381791
0.587979 0.608487 0.386027
0.611784 0.615901 0.389352
0.633749 0.622089 0.392055
0.653793 0.627301 0.394297
0.672399 0.631649 0.396123
0.690134 0.635449 0.397696
0.697440 0.636968 0.398318
0.697440 0.636968 0.398318
0.697440 0.636968 0.398318
0.697440 0.636968 0.398318
0.697440 0.636968 0.398318
0.697440 0.636968 0.398318
0.697440 0.636968 0.398318
0.697440 0.636968 0.398318
0.697440 0.636968 0.398318
0.362960 0.493408 0.336908
0.362960 0.493408 0.336908
0.362960 0.493408 0.336908
0.362960 0.493408 0.336908
0.362960 0.493408 0.336908
0.362960 0.493408 0.336908
0.362960 0.493408 0.336908
0.362960 0.493408 0.336908
0.362960 0.493408 0.336908
0.362960 0.493408 0.336908
0.363891 0.493728 0.337115
0.381986 0.501038 0.341832
0.409970 0.515065 0.350834
0.441107 0.533558 0.360184
0.471147 0.553059 0.367128
0.500564 0.570378 0.372869
0.528882 0.585391 0.377264
0.555683 0.597433 0.380837
0.582438 0.606695 0.385197
0.606076 0.614180 0.388597
0.627863 0.620490 0.391368
0.647651 0.625769 0.393638
0.665542 0.630110 0.395483
0.682760 0.633930 0.397069
0.697440 0.636968 0.398318
0.697440 0.636968 0.398318
0.697440 0.636968 0.398318
0.697440 0.636968 0.398318
0.697440 0.636968 0.398318
0.697440 0.636968 0.398318
0.697440 0.636968 0.398318
0.697440 0.636968 0.398318
0.697440 0.636968 0.398318
0.362960 0.493408 0.336908
0.362960 0.493408 0.336908
0.362960 0.493408 0.336908
0.362960 0.493408 0.336908
0.362960 0.493408 0.336908
0.362960 0.493408 0.336908
0.362960 0.493408 0.336908
0.362960 0.493408 0.336908
0.362960 0.493408 0.336908
0.362960 0.493408 0.336908
0.362960 0.493408 0.336908
0.379601 0.499956 0.341128
0.406487 0.513254 0.349687
0.437571 0.531090 0.359372
0.467435 0.550697 0.366433
0.496710 0.568225 0.372176
0.524871 0.583374 0.376707
0.551218 0.595767 0.380031
0.577750 0.605146 0.384483
0.601484 0.612736 0.387957
0.623131 0.619162 0.390781
0.642525 0.624433 0.393069
0.660304 0.628833 0.394938
0.676737 0.632626 0.396529
0.691955 0.635830 0.397853
0.697440 0.636968 0.398318
0.697440 0.636968 0.398318
0.697440 0.636968 0.398318
0.697440 0.636968 0.398318
0.697440 0.636968 0.398318
0.697440 0.636968 0.398318
0.697440 0.636968 0.398318
0.697440 0.636968 0.398318
0.362960 0.493408 0.336908
0.362960 0.493408 0.336908
0.362960 0.493408 0.336908
0.362960 0.493408 0.336908
0.362960 0.493408 0.336908
0.362960 0.493408 0.336908
0.362960 0.493408 0.336908
0.362960 0.493408 0.336908
0.362960 0.493408 0.336908
0.362960 0.493408 0.336908
0.362960 0.493408 0.336908
0.377517 0.499002 0.340515
0.403568 0.511757 0.348732
0.434555 0.528993 0.358589
0.464184 0.548636 0.365787
0.493314 0.566293 0.371541
0.521394 0.581588 0.376203
0.547472 0.594215 0.379476
0.573787 0.603816 0.383859
0.597396 0.611453 0.387387
0.618837 0.617950 0.390250
0.638138 0.623266 0.392573
0.655485 0.627697 0.394462
0.671680 0.631488 0.396056
0.686540 0.634709 0.397390
0.697440 0.636968 0.398318
0.697440 0.636968 0.398318
0.697440 0.636968 0.398318
0.697440 0.636968 0.398318
0.697440 0.636968 0.398318
0.697440 0.636968 0.398318
0.697440 0.636968 0.398318
0.697440 0.636968 0.398318
0.362960 0.493408 0.336908
0.362960 0.493408 0.336908
0.362960 0.493408 0.336908
0.362960 0.493408 0.336908
0.362960 0.493408 0.336908
0.362960 0.493408 0.336908
0.362960 0.493408 0.336908
0.362960 0.493408 0.336908
0.362960 0.493408 0.336908
0.362960 0.493408 0.336908
0.362960 0.493408 0.336908
0.375946 0.498320 0.340074
0.401102 0.510498 0.347924
0.432020 0.527267 0.357871
0.461481 0.546914 0.365146
0.490480 0.564663 0.370991
0.518436 0.580065 0.375774
0.544417 0.592793 0.379136
0.570281 0.602603 0.383296
0.593901 0.610351 0.386885
0.615238 0.616913 0.389800
0.634513 0.622294 0.392146
0.651433 0.626737 0.394058
0.667391 0.630525 0.395655
0.681928 0.633759 0.396998
