滤镜资源/Lutify.me Free 3D LUTs Package/3D LUTs/Color Grading LUTs/RED IPP2/Heulandite - IPP2.cube
# Website: https://lutify.me
# Contact: help@lutify.me
# Created by: Lutify.me
# Copyright: (c) Copyright Lutify.me 2016, G.T. Colord LTD
LUT_3D_SIZE 5
0.061085 0.049747 0.051805
0.270943 0.127530 0.111313
0.353612 0.154096 0.128032
0.353612 0.154096 0.128032
0.353612 0.154096 0.128032
0.215302 0.256131 0.217537
0.253093 0.237513 0.192863
0.386209 0.249093 0.169594
0.370383 0.223668 0.156855
0.364087 0.213550 0.151890
0.289720 0.432271 0.287275
0.289720 0.432271 0.287275
0.471786 0.440922 0.262276
0.545496 0.457850 0.308347
0.543640 0.453548 0.307668
0.289720 0.432271 0.287275
0.289720 0.432271 0.287275
0.430006 0.447862 0.266092
0.562759 0.494552 0.308465
0.566133 0.497742 0.314742
0.289720 0.432271 0.287275
0.289720 0.432271 0.287275
0.417974 0.446212 0.268096
0.547846 0.481335 0.282190
0.566133 0.497742 0.314742
0.108196 0.143857 0.154562
0.278971 0.202130 0.253304
0.391671 0.170115 0.217095
0.388452 0.161049 0.202240
0.387696 0.159568 0.198008
0.146999 0.225609 0.223899
0.215760 0.231329 0.235506
0.398532 0.187276 0.164097
0.382731 0.150820 0.132853
0.379536 0.147509 0.129070
0.289843 0.431768 0.289827
0.288478 0.412341 0.285119
0.454743 0.413723 0.257370
0.534498 0.433806 0.297676
0.532353 0.429830 0.295302
0.289720 0.432271 0.287275
0.289720 0.432271 0.287275
0.425786 0.446794 0.266539
0.557715 0.489712 0.298801
0.566133 0.497742 0.314742
0.289720 0.432271 0.287275
0.289720 0.432271 0.287275
0.414921 0.446754 0.268837
0.543214 0.479570 0.279902
0.566133 0.497742 0.314742
0.148767 0.226896 0.245688
0.256610 0.301024 0.356974
0.399598 0.286364 0.392047
0.399598 0.286364 0.392047
0.399598 0.286364 0.392047
0.160809 0.247021 0.266974
0.184673 0.262739 0.287333
0.397982 0.283392 0.386292
0.395300 0.280035 0.379768
0.394804 0.279276 0.378029
0.251922 0.418714 0.410788
0.244059 0.399832 0.396481
0.506529 0.496343 0.487565
0.614654 0.494563 0.473183
0.609574 0.488065 0.468224
0.269158 0.470087 0.408117
0.269133 0.470452 0.403974
0.484683 0.620992 0.488357
0.680044 0.644249 0.499839
0.704116 0.646284 0.514398
0.269121 0.470545 0.402733
0.269031 0.470710 0.398526
0.460632 0.603134 0.471271
0.641639 0.624601 0.477287
0.697954 0.643102 0.502078
0.148767 0.226896 0.245688
0.247417 0.298089 0.347434
0.399598 0.286364 0.392047
0.399598 0.286364 0.392047
0.399598 0.286364 0.392047
0.152009 0.232321 0.251443
0.180402 0.257111 0.281152
0.399598 0.286364 0.392047
0.399598 0.286364 0.392047
0.399598 0.286364 0.392047
0.252068 0.415957 0.447916
0.246215 0.401746 0.436861
0.496135 0.505522 0.613480
0.588824 0.495060 0.577845
0.583134 0.488802 0.572681
0.279674 0.496775 0.493834
0.279674 0.496775 0.493834
0.467081 0.636133 0.607989
0.733445 0.706008 0.679491
0.783285 0.699019 0.665535
0.279674 0.496775 0.493834
0.278607 0.493791 0.486515
0.441851 0.630300 0.578542
0.727958 0.779372 0.670710
0.829553 0.783971 0.684756
0.148767 0.226896 0.245688
0.244502 0.297191 0.344535
0.399598 0.286364 0.392047
0.399598 0.286364 0.392047
0.399598 0.286364 0.392047
0.150669 0.230074 0.249055
0.180349 0.256471 0.280509
0.399598 0.286364 0.392047
0.399598 0.286364 0.392047
0.399598 0.286364 0.392047
0.249503 0.409517 0.443083
0.243732 0.396017 0.432092
0.489665 0.495836 0.607395
0.579955 0.485289 0.569785
0.574306 0.479029 0.564640
0.279674 0.496775 0.493834
0.279674 0.496775 0.493834
0.463564 0.626973 0.627328
0.726243 0.699217 0.719962
0.789486 0.690648 0.716965
0.279674 0.496775 0.493834
0.279674 0.496775 0.493834
0.447919 0.642569 0.619330
0.743848 0.834649 0.773397
0.902074 0.858134 0.799812
