滤镜资源/Lutify.me Free 3D LUTs Package/3D LUTs/Color Grading LUTs/RED IPP2/Heulandite - IPP2.cube
# Website: https://lutify.me
# Contact: help@lutify.me
# Created by: Lutify.me
# Copyright: (c) Copyright Lutify.me 2016, G.T. Colord LTD
LUT_3D_SIZE 33
0.061085 0.049747 0.051805
0.061085 0.049747 0.051805
0.061090 0.049748 0.051806
0.077078 0.052608 0.049685
0.124208 0.085960 0.063026
0.168820 0.104405 0.092987
0.209192 0.112967 0.100333
0.243655 0.120359 0.106381
0.270943 0.127530 0.111313
0.289805 0.132450 0.114750
0.306106 0.137259 0.117850
0.321907 0.142410 0.120997
0.336063 0.147331 0.123939
0.351487 0.153245 0.127505
0.353612 0.154096 0.128032
0.353612 0.154096 0.128032
0.353612 0.154096 0.128032
0.353612 0.154096 0.128032
0.353612 0.154096 0.128032
0.353612 0.154096 0.128032
0.353612 0.154096 0.128032
0.353612 0.154096 0.128032
0.353612 0.154096 0.128032
0.353612 0.154096 0.128032
0.353612 0.154096 0.128032
0.353612 0.154096 0.128032
0.353612 0.154096 0.128032
0.353612 0.154096 0.128032
0.353612 0.154096 0.128032
0.353612 0.154096 0.128032
0.353612 0.154096 0.128032
0.353612 0.154096 0.128032
0.353612 0.154096 0.128032
0.061085 0.049747 0.051805
0.061085 0.049747 0.051805
0.061090 0.049748 0.051806
0.077078 0.052608 0.049685
0.124208 0.085960 0.063026
0.168820 0.104405 0.092987
0.209192 0.112967 0.100333
0.243655 0.120359 0.106381
0.270943 0.127530 0.111313
0.289805 0.132450 0.114750
0.306106 0.137259 0.117850
0.321907 0.142410 0.120997
0.336063 0.147331 0.123939
0.351487 0.153245 0.127505
0.353612 0.154096 0.128032
0.353612 0.154096 0.128032
0.353612 0.154096 0.128032
0.353612 0.154096 0.128032
0.353612 0.154096 0.128032
0.353612 0.154096 0.128032
0.353612 0.154096 0.128032
0.353612 0.154096 0.128032
0.353612 0.154096 0.128032
0.353612 0.154096 0.128032
0.353612 0.154096 0.128032
0.353612 0.154096 0.128032
0.353612 0.154096 0.128032
0.353612 0.154096 0.128032
0.353612 0.154096 0.128032
0.353612 0.154096 0.128032
0.353612 0.154096 0.128032
0.353612 0.154096 0.128032
0.353612 0.154096 0.128032
0.061089 0.049752 0.051808
0.061089 0.049752 0.051808
0.061091 0.049751 0.051807
0.077077 0.052608 0.049685
0.124208 0.085960 0.063026
0.168819 0.104404 0.092987
0.209191 0.112966 0.100333
0.243655 0.120359 0.106381
0.270942 0.127530 0.111313
0.289805 0.132450 0.114750
0.306105 0.137259 0.117850
0.321907 0.142410 0.120997
0.336063 0.147331 0.123938
0.351487 0.153245 0.127504
0.353612 0.154096 0.128032
0.353612 0.154096 0.128032
0.353612 0.154096 0.128032
0.353612 0.154096 0.128032
0.353612 0.154096 0.128032
0.353612 0.154096 0.128032
0.353612 0.154096 0.128032
0.353612 0.154096 0.128032
0.353612 0.154096 0.128032
0.353612 0.154096 0.128032
0.353612 0.154096 0.128032
0.353612 0.154096 0.128032
0.353612 0.154096 0.128032
0.353612 0.154096 0.128032
0.353612 0.154096 0.128032
0.353612 0.154096 0.128032
0.353612 0.154096 0.128032
0.353612 0.154096 0.128032
0.353612 0.154096 0.128032
0.088788 0.086775 0.074615
0.088788 0.086775 0.074615
0.088788 0.086775 0.074615
0.090191 0.084325 0.066849
0.115327 0.089487 0.061217
0.157313 0.102111 0.091187
0.203452 0.111879 0.099300
0.238834 0.119245 0.105581
0.268374 0.126821 0.110836
0.287890 0.131911 0.114391
0.304281 0.136700 0.117493
0.320143 0.141871 0.120656
0.334320 0.146677 0.123555
0.349539 0.152468 0.127021
0.353612 0.154096 0.128032
0.353612 0.154096 0.128032
0.353612 0.154096 0.128032
0.353612 0.154096 0.128032
0.353612 0.154096 0.128032
0.353612 0.154096 0.128032
0.353612 0.154096 0.128032
0.353612 0.154096 0.128032
0.353612 0.154096 0.128032
0.353612 0.154096 0.128032
0.353612 0.154096 0.128032
0.353612 0.154096 0.128032
0.353612 0.154096 0.128032
0.353612 0.154096 0.128032
0.353612 0.154096 0.128032
0.353612 0.154096 0.128032
0.353612 0.154096 0.128032
0.353612 0.154096 0.128032
0.353612 0.154096 0.128032
0.109501 0.117530 0.105768
0.109501 0.117530 0.105768
0.109501 0.117530 0.105768
0.108463 0.115816 0.104456
0.115039 0.109053 0.098614
0.131138 0.107965 0.092411
0.162648 0.113145 0.096071
0.201366 0.120177 0.102470
0.239233 0.125046 0.107488
0.275469 0.131576 0.113028
0.296413 0.136215 0.116545
0.314982 0.140804 0.119823
0.330039 0.145159 0.122649
0.344456 0.150553 0.125831
0.353612 0.154096 0.128032
0.353612 0.154096 0.128032
0.353612 0.154096 0.128032
0.353612 0.154096 0.128032
0.353612 0.154096 0.128032
0.353612 0.154096 0.128032
0.353612 0.154096 0.128032
0.353612 0.154096 0.128032
0.353612 0.154096 0.128032
0.353612 0.154096 0.128032
0.353612 0.154096 0.128032
0.353612 0.154096 0.128032
0.353612 0.154096 0.128032
0.353612 0.154096 0.128032
0.353612 0.154096 0.128032
0.353612 0.154096 0.128032
0.353612 0.154096 0.128032
0.353612 0.154096 0.128032
0.353612 0.154096 0.128032
0.129257 0.151257 0.129328
0.129257 0.151257 0.129328
0.129257 0.151257 0.129328
0.127951 0.149162 0.127811
0.130710 0.142178 0.123068
0.139135 0.132956 0.115861
0.165459 0.130245 0.103379
0.196754 0.138896 0.108156
0.233053 0.145879 0.113234
0.258311 0.141364 0.114234
0.283752 0.141220 0.116749
0.303682 0.143408 0.119445
0.323002 0.148026 0.122818
0.339022 0.152750 0.126013
0.352453 0.156940 0.128899
0.352839 0.155993 0.128611
0.353193 0.155125 0.128346
0.353512 0.154339 0.128106
0.353612 0.154096 0.128032
0.353612 0.154096 0.128032
0.353612 0.154096 0.128032
0.353612 0.154096 0.128032
0.353612 0.154096 0.128032
0.353612 0.154096 0.128032
0.353612 0.154096 0.128032
0.353612 0.154096 0.128032
0.353612 0.154096 0.128032
0.353612 0.154096 0.128032
0.353612 0.154096 0.128032
0.353612 0.154096 0.128032
0.353612 0.154096 0.128032
0.353612 0.154096 0.128032
0.353612 0.154096 0.128032
0.155710 0.187589 0.159440
0.155710 0.187589 0.159440
0.155709 0.187589 0.159440
0.154252 0.185733 0.157864
0.151143 0.180828 0.153534
0.158762 0.175393 0.148318
0.172489 0.165510 0.139474
0.203973 0.161280 0.115782
0.237173 0.172475 0.121957
0.267540 0.180030 0.127581
0.289754 0.178127 0.129397
0.300251 0.169376 0.127441
0.312210 0.162470 0.126357
0.330699 0.162188 0.128287
0.346401 0.163590 0.130586
0.350312 0.162904 0.130769
0.350858 0.161689 0.130399
0.351356 0.160586 0.130064
0.351727 0.159680 0.129782
0.351893 0.159062 0.129578
0.352042 0.158499 0.129396
0.352172 0.158000 0.129237
0.352283 0.157577 0.129101
0.352379 0.157207 0.128983
0.352471 0.156896 0.128885
0.352581 0.156628 0.128804
0.352673 0.156402 0.128736
0.352753 0.156204 0.128676
0.352821 0.156037 0.128625
0.352881 0.155891 0.128580
0.352932 0.155765 0.128541
0.352979 0.155651 0.128507
0.353000 0.155598 0.128491
0.186803 0.223409 0.190142
0.186803 0.223409 0.190142
0.186803 0.223409 0.190142
0.185363 0.221816 0.188799
0.181746 0.217763 0.185383
0.180063 0.213169 0.180466
0.188842 0.209213 0.176529
0.213581 0.201134 0.165015
0.244482 0.196544 0.131986
0.277706 0.208052 0.139884
0.300214 0.214352 0.145101
0.320381 0.216700 0.148456
0.331787 0.214386 0.148714
0.343346 0.211218 0.148710
0.354399 0.207543 0.148409
0.357894 0.202783 0.146853
0.354058 0.195589 0.143480
0.350794 0.189084 0.140497
0.347868 0.183037 0.137813
0.345320 0.177442 0.135471
0.345122 0.174160 0.134256
0.346031 0.172200 0.133644
0.346815 0.170531 0.133124
0.347489 0.169076 0.132670
0.348056 0.167845 0.132286
0.348555 0.166771 0.131951
0.348978 0.165851 0.131667
0.349349 0.165036 0.131418
0.349664 0.164345 0.131207
0.349889 0.163850 0.131057
0.349968 0.163671 0.131003
0.350040 0.163510 0.130954
0.350073 0.163436 0.130932
0.215302 0.256131 0.217537
0.215302 0.256131 0.217537
0.215301 0.256131 0.217537
0.214247 0.254916 0.216529
0.211429 0.251749 0.213859
0.209033 0.248963 0.211425
0.207634 0.245617 0.205761
0.224052 0.243614 0.206536
0.253093 0.237513 0.192863
0.284716 0.233254 0.153377
0.313959 0.242499 0.159557
0.335992 0.248435 0.164238
0.352520 0.251689 0.167428
0.363078 0.252262 0.168755
0.376009 0.253182 0.170524
0.388512 0.253452 0.171857
0.386209 0.249093 0.169594
0.383402 0.244711 0.167365
0.380853 0.240638 0.165335
0.378447 0.236830 0.163453
0.376319 0.233395 0.161732
0.374468 0.230398 0.160228
0.372892 0.227831 0.158943
0.371531 0.225576 0.157812
0.370383 0.223668 0.156855
0.369100 0.221663 0.155847
0.368005 0.219901 0.154984
0.367047 0.218362 0.154228
0.366231 0.217060 0.153586
0.365513 0.215916 0.153022
0.364897 0.214932 0.152537
0.364342 0.213993 0.152094
0.364087 0.213550 0.151890
0.238677 0.285810 0.240107
0.238677 0.285810 0.240107
0.238677 0.285810 0.240107
0.237910 0.284745 0.239369
0.235828 0.281963 0.237341
0.233982 0.279507 0.235539
0.232389 0.276936 0.232737
0.232185 0.274815 0.228874
0.261821 0.275155 0.234200
0.290022 0.271513 0.214081
0.322208 0.268554 0.175402
0.347468 0.275088 0.179264
0.370321 0.281034 0.184043
0.385755 0.283396 0.185987
0.398667 0.285079 0.187878
0.412481 0.287316 0.190062
0.419007 0.287266 0.190588
0.416109 0.284329 0.189029
0.413497 0.281675 0.187620
0.410975 0.279204 0.186298
0.408717 0.276990 0.185114
0.406762 0.275060 0.184060
0.405125 0.273415 0.183106
0.403695 0.271979 0.182274
0.402487 0.270764 0.181570
0.401472 0.269595 0.180904
0.400640 0.268550 0.180316
0.399917 0.267635 0.179802
0.399303 0.266859 0.179364
0.398763 0.266176 0.178980
0.398300 0.265590 0.178650
0.397880 0.265059 0.178351
0.397687 0.264815 0.178214
0.254923 0.310436 0.255653
0.254923 0.310436 0.255653
0.254923 0.310436 0.255653
0.254461 0.309604 0.255218
0.253153 0.307437 0.253961
0.251969 0.305522 0.252820
0.250688 0.303435 0.251597
0.250289 0.302019 0.249002
0.259328 0.304787 0.249086
0.294477 0.302108 0.252434
0.322538 0.300415 0.226576
0.351309 0.297384 0.195208
0.376312 0.303618 0.196361
0.400608 0.310346 0.200866
0.415889 0.312802 0.202369
0.431092 0.315560 0.204728
0.451152 0.318948 0.208760
0.451865 0.316877 0.207084
0.448657 0.314157 0.204915
0.445715 0.311863 0.203541
0.443064 0.309832 0.202457
0.440756 0.308062 0.201511
0.438812 0.306559 0.200708
0.437122 0.305247 0.200006
0.435715 0.304137 0.199413
0.434495 0.303168 0.198895
0.433672 0.302340 0.198468
0.432964 0.301614 0.198096
0.432364 0.300998 0.197779
0.431841 0.300457 0.197500
0.431391 0.299992 0.197260
0.430985 0.299571 0.197043
0.430798 0.299378 0.196944
0.266613 0.332787 0.266439
0.266613 0.332787 0.266439
0.266613 0.332787 0.266439
0.266218 0.331933 0.266084
0.265175 0.329778 0.265140
0.264242 0.327891 0.264292
0.263218 0.325833 0.263369
0.262478 0.324084 0.261891
0.263516 0.325157 0.259900
0.294293 0.333116 0.266147
0.324521 0.328279 0.262094
0.351952 0.326515 0.233834
0.375898 0.323372 0.212684
0.402203 0.329637 0.213485
0.425673 0.334861 0.214341
0.441630 0.337920 0.216801
0.458358 0.340549 0.217594
0.481707 0.353542 0.246704
0.479677 0.350850 0.243925
0.477870 0.348315 0.241109
0.476230 0.345909 0.238301
0.474801 0.343811 0.235854
0.473576 0.342034 0.233770
0.472519 0.340500 0.231942
0.471624 0.339203 0.230397
0.470843 0.338069 0.229047
0.470156 0.337096 0.227908
0.469504 0.336215 0.226921
0.468953 0.335467 0.226072
0.468474 0.334814 0.225316
0.468066 0.334254 0.224664
0.467696 0.333747 0.224073
0.467526 0.333514 0.223802
0.276253 0.356129 0.274851
0.276253 0.356129 0.274851
0.276253 0.356129 0.274851
0.275916 0.355143 0.274576
0.275033 0.352723 0.273823
0.274250 0.350609 0.273156
0.273395 0.348312 0.272426
0.272394 0.345743 0.271565
0.272499 0.345541 0.269508
0.283853 0.351912 0.269975
0.324349 0.354216 0.274929
0.352811 0.351798 0.264969
0.377130 0.350216 0.242365
0.398855 0.347622 0.225661
0.427604 0.353737 0.227767
0.448233 0.357710 0.227790
0.465406 0.360027 0.227288
0.487682 0.368856 0.243606
0.502582 0.380971 0.271277
0.501005 0.378902 0.269705
0.499572 0.377026 0.268195
0.498326 0.375392 0.266879
0.497271 0.374005 0.265760
0.496356 0.372795 0.264784
0.495591 0.371774 0.263957
0.494924 0.370892 0.263230
0.494307 0.370086 0.262502
0.493768 0.369381 0.261866
0.493309 0.368782 0.261326
0.492907 0.368256 0.260851
0.492561 0.367804 0.260443
0.492247 0.367395 0.260074
0.492103 0.367207 0.259904
0.283420 0.380423 0.280476
0.283420 0.380423 0.280476
0.283420 0.380423 0.280476
0.283175 0.379416 0.280291
0.282552 0.376835 0.279823
0.282007 0.374569 0.279410
0.281410 0.372133 0.278959
0.280592 0.369395 0.278316
0.280206 0.368156 0.276865
0.281565 0.371592 0.274432
0.319357 0.381157 0.280267
0.351063 0.374357 0.277479
0.378996 0.373560 0.264280
0.399468 0.371722 0.249055
0.422073 0.370699 0.236591
0.451199 0.376546 0.241072
0.470284 0.379478 0.240221
0.488057 0.382314 0.240223
0.517178 0.403169 0.282343
0.516130 0.401596 0.281841
0.515187 0.400182 0.281393
0.514378 0.398968 0.281001
0.513694 0.397941 0.280667
0.513098 0.397042 0.280369
0.512605 0.396199 0.279923
0.512167 0.395463 0.279534
0.511796 0.394839 0.279204
0.511471 0.394293 0.278916
0.511195 0.393830 0.278671
0.510953 0.393423 0.278457
0.510746 0.393073 0.278272
0.510562 0.392758 0.278104
0.510478 0.392612 0.278027
0.287801 0.406153 0.284370
0.287801 0.406153 0.284370
0.287801 0.406153 0.284370
0.287656 0.404941 0.284220
0.287284 0.401928 0.283834
0.286931 0.399273 0.283484
0.286463 0.396471 0.283055
0.285935 0.393309 0.282571
0.285431 0.390133 0.281896
0.286402 0.394542 0.278904
0.307473 0.403014 0.280482
0.349630 0.402952 0.282112
0.376171 0.393903 0.274700
0.401491 0.394618 0.263983
0.422320 0.394128 0.255166
0.446830 0.394685 0.247974
0.471338 0.397796 0.250432
0.491307 0.400201 0.252160
0.513743 0.409825 0.267122
0.527854 0.421326 0.290364
0.527029 0.419717 0.289440
0.526323 0.418336 0.288664
0.525716 0.417176 0.288024
0.525181 0.416164 0.287465
0.524729 0.415308 0.286993
0.524335 0.414561 0.286580
0.524000 0.413928 0.286231
0.523708 0.413374 0.285926
0.523465 0.412913 0.285666
0.523252 0.412509 0.285437
0.523070 0.412161 0.285241
0.522904 0.411847 0.285064
0.522828 0.411703 0.284982
0.289720 0.432271 0.287275
0.289720 0.432271 0.287275
0.289720 0.432271 0.287275
0.289689 0.431564 0.287202
0.289545 0.428350 0.286862
0.289419 0.425561 0.286564
0.289280 0.422519 0.286239
0.289037 0.419075 0.285863
0.288713 0.415181 0.285432
0.289936 0.416212 0.282609
0.296643 0.421001 0.278792
0.345156 0.429807 0.282985
0.377574 0.422344 0.278709
0.401567 0.415545 0.270540
0.423777 0.416284 0.263335
0.446238 0.417158 0.258777
0.473780 0.420150 0.258302
0.492868 0.421076 0.259355
0.511493 0.422801 0.262729
0.534074 0.438236 0.294421
0.538507 0.441520 0.302627
0.537659 0.439844 0.301510
0.536916 0.438415 0.300561
0.536258 0.437166 0.299732
0.535706 0.436120 0.299047
0.535262 0.435284 0.298560
0.534905 0.434593 0.298147
0.534593 0.433990 0.297786
0.534327 0.433477 0.297480
0.534094 0.433027 0.297210
0.533894 0.432639 0.296979
0.533713 0.432289 0.296769
0.533629 0.432128 0.296673
0.289720 0.432271 0.287275
0.289720 0.432271 0.287275
0.289720 0.432271 0.287275
0.289720 0.432271 0.287275
0.289720 0.432271 0.287275
0.289720 0.432271 0.287275
0.289720 0.432271 0.287275
0.289720 0.432271 0.287275
0.289720 0.432271 0.287275
0.291337 0.435318 0.286566
0.293302 0.440711 0.280524
0.338997 0.452394 0.281992
0.375257 0.445518 0.278548
0.401725 0.436884 0.272215
0.423014 0.434727 0.267094
0.446237 0.437362 0.262509
0.471786 0.440922 0.262276
0.497738 0.445256 0.267481
0.515766 0.445779 0.268200
0.532808 0.450518 0.279255
0.548105 0.463297 0.308781
0.547298 0.461606 0.308646
0.546612 0.460168 0.308531
0.546013 0.458914 0.308432
0.545496 0.457850 0.308347
0.545054 0.456936 0.308273
0.544681 0.456163 0.308210
0.544355 0.455487 0.308156
0.544143 0.454945 0.308037
0.543975 0.454479 0.307914
0.543831 0.454077 0.307808
0.543700 0.453714 0.307712
0.543640 0.453548 0.307668
0.289720 0.432271 0.287275
0.289720 0.432271 0.287275
0.289720 0.432271 0.287275
0.289720 0.432271 0.287275
0.289720 0.432271 0.287275
0.289720 0.432271 0.287275
0.289720 0.432271 0.287275
0.289720 0.432271 0.287275
0.289720 0.432271 0.287275
0.290275 0.433326 0.287035
0.293549 0.440453 0.284044
0.326491 0.454887 0.281914
0.368651 0.455768 0.278946
0.399475 0.450854 0.273549
0.420012 0.446215 0.267612
0.443802 0.451448 0.264888
0.468956 0.456503 0.264068
0.496921 0.462809 0.268235
0.519685 0.467441 0.274688
0.536724 0.469355 0.276641
0.551180 0.477593 0.295421
0.558432 0.483674 0.311289
0.557634 0.482096 0.311028
0.556934 0.480719 0.310800
0.556326 0.479553 0.310606
0.555802 0.478554 0.310438
0.555366 0.477711 0.310295
0.554984 0.476975 0.310171
0.554660 0.476349 0.310065
0.554377 0.475784 0.310005
0.554134 0.475296 0.309956
0.553915 0.474854 0.309912
0.553814 0.474650 0.309892
0.289720 0.432271 0.287275
0.289720 0.432271 0.287275
0.289720 0.432271 0.287275
0.289720 0.432271 0.287275
0.289720 0.432271 0.287275
0.289720 0.432271 0.287275
0.289720 0.432271 0.287275
0.289720 0.432271 0.287275
0.289720 0.432271 0.287275
0.289720 0.432271 0.287275
0.293117 0.438870 0.285450
0.311840 0.449693 0.281096
0.359626 0.456816 0.280331
0.392105 0.452265 0.275129
0.414548 0.446866 0.268929
0.436106 0.449447 0.265509
0.460732 0.455987 0.264346
0.488088 0.463793 0.266268
0.514386 0.472390 0.274540
0.533673 0.477053 0.277924
0.549628 0.482799 0.285093
0.563631 0.495392 0.310118
0.566133 0.497742 0.314742
0.566133 0.497742 0.314742
0.566133 0.497742 0.314742
0.566133 0.497742 0.314742
0.565973 0.497454 0.314665
0.565567 0.496717 0.314468
0.565222 0.496089 0.314301
0.564911 0.495533 0.314155
0.564642 0.495058 0.314029
0.564410 0.494645 0.313915
0.564303 0.494455 0.313863
0.289720 0.432271 0.287275
0.289720 0.432271 0.287275
0.289720 0.432271 0.287275
0.289720 0.432271 0.287275
0.289720 0.432271 0.287275
0.289720 0.432271 0.287275
0.289720 0.432271 0.287275
0.289720 0.432271 0.287275
0.289720 0.432271 0.287275
0.289720 0.432271 0.287275
0.292402 0.437348 0.286055
0.300507 0.445551 0.280483
0.351105 0.457939 0.281369
0.385062 0.453431 0.276469
0.410048 0.448190 0.270188
0.429588 0.447756 0.266136
0.453269 0.453946 0.264429
0.478595 0.461000 0.265113
0.505188 0.469163 0.270475
0.525995 0.475395 0.277067
0.542648 0.479402 0.279744
0.556009 0.488063 0.295461
0.566133 0.497742 0.314742
0.566133 0.497742 0.314742
0.566133 0.497742 0.314742
0.566133 0.497742 0.314742
0.566133 0.497742 0.314742
0.566133 0.497742 0.314742
0.566133 0.497742 0.314742
0.566133 0.497742 0.314742
0.566133 0.497742 0.314742
0.566133 0.497742 0.314742
0.566133 0.497742 0.314742
0.289720 0.432271 0.287275
0.289720 0.432271 0.287275
0.289720 0.432271 0.287275
0.289720 0.432271 0.287275
0.289720 0.432271 0.287275
0.289720 0.432271 0.287275
0.289720 0.432271 0.287275
0.289720 0.432271 0.287275
0.289720 0.432271 0.287275
0.289720 0.432271 0.287275
0.291668 0.435947 0.286418
0.295451 0.443004 0.280597
0.342860 0.458328 0.282019
0.378405 0.454441 0.277579
0.405415 0.449495 0.272006
0.423838 0.446302 0.266744
0.446838 0.452236 0.264683
0.470720 0.458774 0.264552
0.496965 0.466529 0.268000
0.519451 0.473988 0.276364
0.536191 0.477599 0.278210
0.549899 0.483021 0.285537
0.561701 0.493534 0.306445
0.566133 0.497742 0.314742
0.566133 0.497742 0.314742
0.566133 0.497742 0.314742
0.566133 0.497742 0.314742
0.566133 0.497742 0.314742
0.566133 0.497742 0.314742
0.566133 0.497742 0.314742
0.566133 0.497742 0.314742
0.566133 0.497742 0.314742
0.566133 0.497742 0.314742
0.289720 0.432271 0.287275
0.289720 0.432271 0.287275
0.289720 0.432271 0.287275
0.289720 0.432271 0.287275
0.289720 0.432271 0.287275
0.289720 0.432271 0.287275
0.289720 0.432271 0.287275
0.289720 0.432271 0.287275
0.289720 0.432271 0.287275
0.289720 0.432271 0.287275
0.291014 0.434719 0.286711
0.293161 0.441378 0.281606
0.334924 0.457291 0.282194
0.372344 0.455267 0.278433
0.400884 0.450545 0.273223
0.419746 0.446214 0.267675
0.441439 0.450833 0.265048
0.464381 0.457013 0.264401
0.489570 0.464235 0.266476
0.512573 0.471749 0.273715
0.530059 0.476282 0.277524
0.544483 0.479948 0.280257
0.555798 0.487890 0.295121
0.566133 0.497742 0.314742
0.566133 0.497742 0.314742
0.566133 0.497742 0.314742
0.566133 0.497742 0.314742
0.566133 0.497742 0.314742
0.566133 0.497742 0.314742
0.566133 0.497742 0.314742
0.566133 0.497742 0.314742
0.566133 0.497742 0.314742
0.566133 0.497742 0.314742
0.289720 0.432271 0.287275
0.289720 0.432271 0.287275
0.289720 0.432271 0.287275
0.289720 0.432271 0.287275
0.289720 0.432271 0.287275
0.289720 0.432271 0.287275
0.289720 0.432271 0.287275
0.289720 0.432271 0.287275
0.289720 0.432271 0.287275
0.289720 0.432271 0.287275
0.290457 0.433672 0.286955
0.293460 0.440660 0.283485
0.326904 0.455033 0.281938
0.367227 0.455951 0.279149
0.396925 0.451408 0.274139
0.416389 0.446320 0.268476
0.437010 0.449681 0.265428
0.459178 0.455548 0.264327
0.483094 0.462295 0.265560
0.506479 0.469589 0.270930
0.525112 0.475208 0.276973
0.539775 0.478544 0.278944
0.551269 0.484145 0.287770
0.561640 0.493475 0.306329
0.566133 0.497742 0.314742
0.566133 0.497742 0.314742
0.566133 0.497742 0.314742
0.566133 0.497742 0.314742
0.566133 0.497742 0.314742
0.566133 0.497742 0.314742
0.566133 0.497742 0.314742
0.566133 0.497742 0.314742
0.566133 0.497742 0.314742
0.289720 0.432271 0.287275
0.289720 0.432271 0.287275
0.289720 0.432271 0.287275
0.289720 0.432271 0.287275
0.289720 0.432271 0.287275
0.289720 0.432271 0.287275
0.289720 0.432271 0.287275
0.289720 0.432271 0.287275
0.289720 0.432271 0.287275
0.289720 0.432271 0.287275
0.289971 0.432750 0.287166
0.293478 0.439958 0.284654
0.319185 0.452319 0.281502
0.362618 0.456474 0.279865
0.393025 0.452105 0.274943
0.413894 0.447066 0.269094
0.433203 0.448681 0.265775
0.454897 0.454388 0.264400
0.477785 0.460772 0.265055
0.501079 0.467862 0.269260
0.520876 0.474296 0.276519
0.535512 0.477451 0.278132
0.547324 0.480905 0.281340
0.557212 0.489230 0.297830
0.566133 0.497742 0.314742
0.566133 0.497742 0.314742
0.566133 0.497742 0.314742
0.566133 0.497742 0.314742
0.566133 0.497742 0.314742
0.566133 0.497742 0.314742
0.566133 0.497742 0.314742
0.566133 0.497742 0.314742
0.566133 0.497742 0.314742
0.289720 0.432271 0.287275
0.289720 0.432271 0.287275
0.289720 0.432271 0.287275
0.289720 0.432271 0.287275
0.289720 0.432271 0.287275
0.289720 0.432271 0.287275
0.289720 0.432271 0.287275
0.289720 0.432271 0.287275
0.289720 0.432271 0.287275
0.289720 0.432271 0.287275
0.289720 0.432271 0.287275
0.293245 0.439261 0.285167
0.312997 0.450116 0.281159
0.358734 0.456916 0.280471
0.389670 0.452688 0.275623
0.411787 0.447698 0.269617
0.430006 0.447862 0.266092
0.451295 0.453408 0.264466
0.473454 0.459553 0.264748
0.496661 0.466430 0.267907
0.517101 0.473343 0.275760
0.531651 0.476624 0.277702
0.543865 0.479764 0.280084
0.553771 0.486207 0.291839
0.562759 0.494552 0.308465
0.566133 0.497742 0.314742
0.566133 0.497742 0.314742
0.566133 0.497742 0.314742
0.566133 0.497742 0.314742
0.566133 0.497742 0.314742
0.566133 0.497742 0.314742
0.566133 0.497742 0.314742
0.566133 0.497742 0.314742
0.289720 0.432271 0.287275
0.289720 0.432271 0.287275
0.289720 0.432271 0.287275
0.289720 0.432271 0.287275
0.289720 0.432271 0.287275
0.289720 0.432271 0.287275
0.289720 0.432271 0.287275
0.289720 0.432271 0.287275
0.289720 0.432271 0.287275
0.289720 0.432271 0.287275
0.289720 0.432271 0.287275
0.293041 0.438640 0.285617
0.308144 0.448343 0.280897
0.355140 0.457373 0.280934
0.386680 0.453189 0.276201
0.409675 0.448295 0.270334
0.427267 0.447169 0.266383
0.448221 0.452593 0.264591
0.469733 0.458490 0.264480
0.492686 0.465168 0.266916
0.513125 0.471944 0.273966
0.528369 0.475904 0.277325
0.540830 0.478859 0.279238
0.550854 0.483803 0.287097
0.559467 0.491395 0.302185
0.566133 0.497742 0.314742
0.566133 0.497742 0.314742
0.566133 0.497742 0.314742
0.566133 0.497742 0.314742
0.566133 0.497742 0.314742
0.566133 0.497742 0.314742
0.566133 0.497742 0.314742
0.566133 0.497742 0.314742
0.289720 0.432271 0.287275
0.289720 0.432271 0.287275
0.289720 0.432271 0.287275
0.289720 0.432271 0.287275
0.289720 0.432271 0.287275
0.289720 0.432271 0.287275
0.289720 0.432271 0.287275
0.289720 0.432271 0.287275
0.289720 0.432271 0.287275
0.289720 0.432271 0.287275
0.289720 0.432271 0.287275
0.292791 0.438091 0.285853
0.304037 0.446842 0.280675
0.351955 0.457819 0.281277
0.383971 0.453593 0.276650
0.407798 0.448824 0.271069
0.424933 0.446580 0.266629
0.445707 0.451943 0.264760
0.466795 0.457686 0.264437
0.489142 0.464107 0.266416
0.509786 0.470764 0.272446
0.525676 0.475327 0.277033
0.538265 0.478090 0.278521
0.548389 0.481782 0.283073
0.556723 0.488757 0.296871
