滤镜资源/Lutify.me Free 3D LUTs Package/3D LUTs/Color Grading LUTs/RED IPP2/Heulandite - IPP2.cube
# Website: https://lutify.me
# Contact: help@lutify.me
# Created by: Lutify.me
# Copyright: (c) Copyright Lutify.me 2016, G.T. Colord LTD
LUT_3D_SIZE 9
0.061085 0.049747 0.051805
0.124208 0.085960 0.063026
0.270943 0.127530 0.111313
0.336063 0.147331 0.123939
0.353612 0.154096 0.128032
0.353612 0.154096 0.128032
0.353612 0.154096 0.128032
0.353612 0.154096 0.128032
0.353612 0.154096 0.128032
0.109501 0.117530 0.105768
0.115039 0.109053 0.098614
0.239233 0.125046 0.107488
0.330039 0.145159 0.122649
0.353612 0.154096 0.128032
0.353612 0.154096 0.128032
0.353612 0.154096 0.128032
0.353612 0.154096 0.128032
0.353612 0.154096 0.128032
0.215302 0.256131 0.217537
0.211429 0.251749 0.213859
0.253093 0.237513 0.192863
0.352520 0.251689 0.167428
0.386209 0.249093 0.169594
0.376319 0.233395 0.161732
0.370383 0.223668 0.156855
0.366231 0.217060 0.153586
0.364087 0.213550 0.151890
0.276253 0.356129 0.274851
0.275033 0.352723 0.273823
0.272499 0.345541 0.269508
0.377130 0.350216 0.242365
0.465406 0.360027 0.227288
0.499572 0.377026 0.268195
0.495591 0.371774 0.263957
0.493309 0.368782 0.261326
0.492103 0.367207 0.259904
0.289720 0.432271 0.287275
0.289720 0.432271 0.287275
0.289720 0.432271 0.287275
0.375257 0.445518 0.278548
0.471786 0.440922 0.262276
0.548105 0.463297 0.308781
0.545496 0.457850 0.308347
0.544143 0.454945 0.308037
0.543640 0.453548 0.307668
0.289720 0.432271 0.287275
0.289720 0.432271 0.287275
0.289720 0.432271 0.287275
0.342860 0.458328 0.282019
0.446838 0.452236 0.264683
0.536191 0.477599 0.278210
0.566133 0.497742 0.314742
0.566133 0.497742 0.314742
0.566133 0.497742 0.314742
0.289720 0.432271 0.287275
0.289720 0.432271 0.287275
0.289720 0.432271 0.287275
0.312997 0.450116 0.281159
0.430006 0.447862 0.266092
0.517101 0.473343 0.275760
0.562759 0.494552 0.308465
0.566133 0.497742 0.314742
0.566133 0.497742 0.314742
0.289720 0.432271 0.287275
0.289720 0.432271 0.287275
0.289720 0.432271 0.287275
0.298803 0.444737 0.280498
0.421631 0.446219 0.267227
0.504390 0.468910 0.270239
0.552671 0.485300 0.290047
0.566133 0.497742 0.314742
0.566133 0.497742 0.314742
0.289720 0.432271 0.287275
0.289720 0.432271 0.287275
0.289720 0.432271 0.287275
0.294982 0.442762 0.280612
0.417974 0.446212 0.268096
0.497877 0.466826 0.268282
0.547846 0.481335 0.282190
0.566133 0.497742 0.314742
0.566133 0.497742 0.314742
0.045849 0.088158 0.092077
0.120956 0.102647 0.113331
0.276547 0.120895 0.110004
0.339428 0.144750 0.123482
0.355349 0.153112 0.127879
0.353808 0.153985 0.128015
0.353612 0.154096 0.128032
0.353612 0.154096 0.128032
0.353612 0.154096 0.128032
0.088447 0.107778 0.107561
0.103437 0.106801 0.108227
0.248393 0.120660 0.106919
0.330285 0.144445 0.122457
0.353612 0.154096 0.128032
0.353612 0.154096 0.128032
0.353612 0.154096 0.128032
0.353612 0.154096 0.128032
0.353612 0.154096 0.128032
0.209246 0.249274 0.211778
0.205265 0.244638 0.207955
0.246027 0.225874 0.176120
0.345071 0.243361 0.162904
0.379585 0.238630 0.164343
0.369122 0.221700 0.155865
0.361529 0.209107 0.149834
0.357383 0.201894 0.146430
0.355405 0.198258 0.144713
0.274334 0.350834 0.273227
0.273094 0.347501 0.272169
0.270248 0.340119 0.267651
0.373558 0.343940 0.236578
0.460965 0.355092 0.225097
0.494937 0.370909 0.263245
0.490660 0.365321 0.258186
0.488341 0.362280 0.255369
0.487144 0.360718 0.253918
0.289720 0.432271 0.287275
0.289720 0.432271 0.287275
0.289720 0.432271 0.287275
0.371933 0.439535 0.279342
0.467886 0.434774 0.263299
0.544989 0.456883 0.308139
0.543026 0.451868 0.307224
0.542029 0.449162 0.306506
0.541522 0.447777 0.306137
0.289720 0.432271 0.287275
0.289720 0.432271 0.287275
0.289720 0.432271 0.287275
0.341173 0.458109 0.282056
0.445693 0.451940 0.264761
0.534911 0.477321 0.278064
0.566133 0.497742 0.314742
0.566133 0.497742 0.314742
0.566133 0.497742 0.314742
0.289720 0.432271 0.287275
0.289720 0.432271 0.287275
0.289720 0.432271 0.287275
0.311119 0.449430 0.281058
0.428946 0.447594 0.266204
0.515543 0.472799 0.275066
0.561486 0.493329 0.306037
0.566133 0.497742 0.314742
0.566133 0.497742 0.314742
0.289720 0.432271 0.287275
0.289720 0.432271 0.287275
0.289720 0.432271 0.287275
0.297910 0.444277 0.280524
0.420776 0.446218 0.267430
0.502844 0.468421 0.269782
0.551542 0.484370 0.288214
0.566133 0.497742 0.314742
0.566133 0.497742 0.314742
0.289720 0.432271 0.287275
0.289720 0.432271 0.287275
0.289720 0.432271 0.287275
0.294089 0.442300 0.280640
0.417120 0.446211 0.268299
0.496399 0.466345 0.267825
0.546704 0.480609 0.280878
0.566133 0.497742 0.314742
0.566133 0.497742 0.314742
0.108196 0.143857 0.154562
0.112568 0.154639 0.167493
0.278971 0.202130 0.253304
0.373017 0.187071 0.233766
0.391671 0.170115 0.217095
0.389474 0.163450 0.207500
0.388452 0.161049 0.202240
0.387953 0.160073 0.199445
0.387696 0.159568 0.198008
0.106014 0.138330 0.148389
0.107094 0.141035 0.151857
0.263080 0.191731 0.240249
0.362869 0.173783 0.217164
0.387749 0.159673 0.198308
0.386229 0.156679 0.189496
0.385713 0.155490 0.184371
0.385429 0.154840 0.181566
0.385284 0.154506 0.180103
0.146999 0.225609 0.223899
0.143632 0.219936 0.218616
0.215760 0.231329 0.235506
0.353874 0.226634 0.204612
0.398532 0.187276 0.164097
0.386739 0.155415 0.137885
0.382731 0.150820 0.132853
0.380621 0.148652 0.130354
0.379536 0.147509 0.129070
0.269685 0.345357 0.282956
0.268219 0.341408 0.280185
0.266135 0.331759 0.272535
0.364330 0.329404 0.230114
0.448061 0.340847 0.218571
0.480708 0.352032 0.246232
0.475830 0.345090 0.238096
0.473144 0.341233 0.233395
0.471770 0.339267 0.230964
0.289843 0.431768 0.289827
0.289553 0.426609 0.288249
0.288478 0.412341 0.285119
0.362474 0.421834 0.281515
0.454743 0.413723 0.257370
0.533147 0.434939 0.293688
0.534498 0.433806 0.297676
0.533107 0.431183 0.296109
0.532353 0.429830 0.295302
0.289720 0.432271 0.287275
0.289720 0.432271 0.287275
0.289720 0.432271 0.287275
0.336166 0.457455 0.282166
0.442275 0.451052 0.264991
0.531003 0.476487 0.277631
0.566133 0.497742 0.314742
0.566133 0.497742 0.314742
0.566133 0.497742 0.314742
0.289720 0.432271 0.287275
0.289720 0.432271 0.287275
0.289720 0.432271 0.287275
0.305528 0.447385 0.280756
0.425786 0.446794 0.266539
0.510999 0.471193 0.272998
0.557715 0.489712 0.298801
0.566133 0.497742 0.314742
0.566133 0.497742 0.314742
0.289720 0.432271 0.287275
0.289720 0.432271 0.287275
0.289720 0.432271 0.287275
0.295249 0.442900 0.280604
0.418230 0.446212 0.268035
0.498320 0.466971 0.268419
0.548185 0.481613 0.282740
0.566133 0.497742 0.314742
0.566133 0.497742 0.314742
0.289720 0.432271 0.287275
0.289720 0.432271 0.287275
0.289720 0.432271 0.287275
0.293145 0.441417 0.281507
0.414921 0.446754 0.268837
0.491764 0.464891 0.266786
0.543214 0.479570 0.279902
0.566133 0.497742 0.314742
0.566133 0.497742 0.314742
0.133990 0.200986 0.217294
0.138901 0.209906 0.227638
0.276339 0.281041 0.348596
0.364479 0.264268 0.342653
0.391226 0.259017 0.341398
0.391434 0.256426 0.337557
0.391556 0.254876 0.335331
0.391624 0.254024 0.334118
0.391685 0.253631 0.333506
0.131342 0.196072 0.211764
0.132939 0.199026 0.215411
0.249964 0.273379 0.326125
0.355108 0.259732 0.333524
0.391672 0.253713 0.333633
0.392041 0.251327 0.329919
0.392260 0.249904 0.327750
0.392416 0.249212 0.326595
0.392504 0.248854 0.326005
0.147547 0.225306 0.239072
0.144734 0.220573 0.234202
0.172206 0.236519 0.255530
0.336238 0.256670 0.319235
0.401510 0.248205 0.318969
0.399311 0.243382 0.312366
0.398093 0.240452 0.308498
0.397519 0.238805 0.306464
0.397225 0.237952 0.305418
0.212102 0.334205 0.332580
0.210135 0.330696 0.329620
0.204911 0.321383 0.321623
0.373804 0.385726 0.389754
0.490911 0.386959 0.370002
0.519555 0.377756 0.358905
0.513806 0.368658 0.351146
0.510782 0.363580 0.346735
0.509245 0.360975 0.344476
0.265693 0.440527 0.362185
0.265612 0.435691 0.359336
0.264847 0.420823 0.350545
0.341532 0.448358 0.370398
0.481489 0.456361 0.372465
0.564629 0.465605 0.367976
0.564986 0.459598 0.361969
0.561887 0.455583 0.358535
0.560270 0.453472 0.356751
0.279242 0.467017 0.356865
0.280072 0.466494 0.355492
0.282160 0.464975 0.351371
0.304976 0.488740 0.355956
0.476363 0.520898 0.365883
0.563736 0.522177 0.364455
0.599329 0.526047 0.378881
0.594584 0.519442 0.373893
0.592138 0.516053 0.371373
0.283630 0.463829 0.348238
0.284222 0.463299 0.346908
0.285981 0.461721 0.342943
0.299930 0.476521 0.343485
0.455796 0.512390 0.348995
0.537334 0.517194 0.340917
0.589964 0.528663 0.349406
0.601691 0.538121 0.367906
0.600671 0.537006 0.366380
0.285661 0.462013 0.343673
0.286226 0.461485 0.342365
0.287864 0.459907 0.338500
0.299373 0.470643 0.337687
0.443207 0.503762 0.337803
0.517064 0.504269 0.326490
0.570872 0.514239 0.328697
0.591700 0.527339 0.352695
0.590598 0.526167 0.351001
0.286645 0.461081 0.341376
0.287194 0.460552 0.340079
0.288756 0.458907 0.336214
0.298451 0.467494 0.333980
0.436838 0.499397 0.332126
0.506638 0.497660 0.319160
0.560819 0.507663 0.320036
0.583766 0.519225 0.339483
0.586279 0.521449 0.344264
0.148767 0.226896 0.245688
0.153627 0.234924 0.255491
0.256610 0.301024 0.356974
0.376285 0.289958 0.382217
0.399598 0.286364 0.392047
0.399598 0.286364 0.392047
0.399598 0.286364 0.392047
0.399598 0.286364 0.392047
0.399598 0.286364 0.392047
0.148767 0.226896 0.245688
0.150263 0.229356 0.248730
0.231709 0.290737 0.330292
0.368529 0.292438 0.378144
0.399598 0.286364 0.392047
0.399598 0.286364 0.392047
0.399598 0.286364 0.392047
0.399598 0.286364 0.392047
0.399598 0.286364 0.392047
0.160809 0.247021 0.266974
0.158909 0.243903 0.263650
0.184673 0.262739 0.287333
0.349591 0.306949 0.374138
0.397982 0.283392 0.386292
0.395945 0.280981 0.381735
0.395300 0.280035 0.379768
0.394973 0.279534 0.378614
0.394804 0.279276 0.378029
0.217099 0.340979 0.369485
0.214948 0.336921 0.364607
0.208868 0.326317 0.352026
0.352448 0.393359 0.446033
0.459924 0.386382 0.446739
0.493943 0.372412 0.438744
0.486960 0.363819 0.430355
0.482878 0.359011 0.425695
0.480779 0.356537 0.423301
0.251922 0.418714 0.410788
0.249928 0.413739 0.407021
0.244059 0.399832 0.396481
0.297713 0.434247 0.428507
0.506529 0.496343 0.487565
0.602968 0.500360 0.478882
0.614654 0.494563 0.473183
0.611271 0.490245 0.469894
0.609574 0.488065 0.468224
0.269219 0.469573 0.415394
0.269204 0.469634 0.414188
0.269170 0.469860 0.410703
0.275588 0.490394 0.416693
0.498792 0.587051 0.493513
0.606171 0.578013 0.497126
0.666805 0.579498 0.492302
0.662032 0.573520 0.488360
0.659639 0.570515 0.486346
0.269158 0.470087 0.408117
0.269153 0.470189 0.407021
0.269133 0.470452 0.403974
0.276633 0.494621 0.409920
0.484683 0.620992 0.488357
0.600681 0.630587 0.493761
0.680044 0.644249 0.499839
0.707461 0.651146 0.517201
0.704116 0.646284 0.514398
0.269137 0.470406 0.404543
0.269131 0.470490 0.403518
0.269069 0.470643 0.400397
0.275017 0.489802 0.403795
0.469119 0.609412 0.477234
0.580597 0.622991 0.482521
0.653666 0.631164 0.484554
0.699606 0.645995 0.504588
0.702135 0.647470 0.507657
0.269121 0.470545 0.402733
0.269097 0.470592 0.401682
0.269031 0.470710 0.398526
0.274220 0.487464 0.400761
0.460632 0.603134 0.471271
0.570339 0.618799 0.476397
0.641639 0.624601 0.477287
0.686601 0.635284 0.488181
0.697954 0.643102 0.502078
0.148767 0.226896 0.245688
0.152912 0.233735 0.254071
0.250908 0.299171 0.350940
0.374794 0.290350 0.381501
0.399598 0.286364 0.392047
0.399598 0.286364 0.392047
0.399598 0.286364 0.392047
0.399598 0.286364 0.392047
0.399598 0.286364 0.392047
0.148767 0.226896 0.245688
0.149638 0.228321 0.247481
0.227524 0.288437 0.325581
0.366873 0.293101 0.377156
0.399598 0.286364 0.392047
0.399598 0.286364 0.392047
0.399598 0.286364 0.392047
0.399598 0.286364 0.392047
0.399598 0.286364 0.392047
0.154499 0.236505 0.255901
0.152969 0.233930 0.253159
0.181007 0.258306 0.282394
0.346508 0.305083 0.370192
0.399598 0.286364 0.392047
0.399598 0.286364 0.392047
0.399598 0.286364 0.392047
0.399598 0.286364 0.392047
0.399598 0.286364 0.392047
0.214369 0.335584 0.368187
0.212400 0.332076 0.364017
0.207002 0.322644 0.352926
0.339435 0.391349 0.469220
0.446465 0.379723 0.465001
0.473531 0.366377 0.469576
0.466602 0.360013 0.462569
0.462876 0.356529 0.458826
0.460959 0.354737 0.456900
0.255214 0.424181 0.453774
0.253703 0.420214 0.450973
0.249280 0.408986 0.442679
0.314924 0.453071 0.503599
0.501634 0.510898 0.591387
0.584641 0.506537 0.565011
0.601633 0.499720 0.559200
0.597981 0.495056 0.554258
0.596103 0.492661 0.551795
0.277585 0.490961 0.479579
0.277267 0.490078 0.477417
0.273019 0.476933 0.466679
0.274663 0.481885 0.471911
0.481151 0.571834 0.556066
0.626973 0.603415 0.585095
0.703569 0.604985 0.576373
0.701212 0.598277 0.570823
0.698624 0.594766 0.568053
0.275442 0.485067 0.465385
0.275064 0.484033 0.462901
0.273945 0.480998 0.455623
0.279388 0.499047 0.459410
0.476731 0.645173 0.554834
0.633458 0.697708 0.591158
0.707036 0.674747 0.589056
0.747434 0.674964 0.589947
0.743553 0.669329 0.585642
0.274146 0.481538 0.456974
0.273792 0.480591 0.454554
0.272765 0.477893 0.447411
0.276836 0.491363 0.448444
0.459930 0.631077 0.538304
0.615180 0.718396 0.582232
0.697470 0.701935 0.580746
0.759706 0.716510 0.594251
0.771647 0.721304 0.601424
0.273529 0.479896 0.452720
0.273185 0.478991 0.450319
0.272207 0.476447 0.443449
0.275606 0.487747 0.443209
0.451085 0.623731 0.530048
0.601433 0.710003 0.573966
0.683607 0.695277 0.573260
0.742295 0.705744 0.579333
0.767055 0.716438 0.595241
0.148767 0.226896 0.245688
0.152508 0.233069 0.253252
0.247417 0.298089 0.347434
0.373914 0.290579 0.381081
0.399598 0.286364 0.392047
0.399598 0.286364 0.392047
0.399598 0.286364 0.392047
0.399598 0.286364 0.392047
0.399598 0.286364 0.392047
0.148767 0.226896 0.245688
0.149268 0.227716 0.246720
0.225722 0.287134 0.323522
0.365913 0.293581 0.376589
0.399598 0.286364 0.392047
0.399598 0.286364 0.392047
0.399598 0.286364 0.392047
0.399598 0.286364 0.392047
0.399598 0.286364 0.392047
0.152009 0.232321 0.251443
0.151178 0.230928 0.249960
0.180402 0.257111 0.281152
0.345562 0.304589 0.369516
0.399598 0.286364 0.392047
0.399598 0.286364 0.392047
0.399598 0.286364 0.392047
0.399598 0.286364 0.392047
0.399598 0.286364 0.392047
0.210073 0.328021 0.359170
0.207912 0.324259 0.354664
0.202269 0.314441 0.343160
0.329533 0.381383 0.459380
0.435381 0.368074 0.453752
0.462762 0.356422 0.458711
0.455855 0.348675 0.451760
0.452076 0.344196 0.447963
0.450135 0.341898 0.446011
0.252068 0.415957 0.447916
0.250627 0.412216 0.445131
0.246215 0.401746 0.436861
0.314523 0.448403 0.502763
0.496135 0.505522 0.613480
0.575987 0.498826 0.578013
0.588824 0.495060 0.577845
0.585068 0.490929 0.574441
0.583134 0.488802 0.572681
0.278964 0.494453 0.492827
0.277626 0.490070 0.490928
0.273273 0.476206 0.484410
0.274417 0.478870 0.497016
0.478253 0.577281 0.618613
0.627825 0.611912 0.664022
0.699063 0.610663 0.655848
0.701093 0.604272 0.650063
0.698046 0.600776 0.646754
0.279674 0.496775 0.493834
0.279674 0.496775 0.493834
0.279674 0.496775 0.493834
0.285207 0.515531 0.505868
0.467081 0.636133 0.607989
0.631414 0.702671 0.670844
0.733445 0.706008 0.679491
0.787494 0.704985 0.670317
0.783285 0.699019 0.665535
0.279674 0.496775 0.493834
0.279674 0.496775 0.493834
0.279166 0.495354 0.490334
0.282746 0.507631 0.494121
0.450902 0.637742 0.589392
0.619471 0.756887 0.666395
0.744276 0.786202 0.684018
0.805920 0.772196 0.685043
0.825172 0.770270 0.685652
0.279674 0.496775 0.493834
0.279552 0.496433 0.492989
0.278607 0.493791 0.486515
0.281516 0.503717 0.488429
0.441851 0.630300 0.578542
0.604594 0.745457 0.651996
0.727958 0.779372 0.670710
0.788668 0.772149 0.670157
0.829553 0.783971 0.684756
0.148767 0.226896 0.245688
0.152287 0.232704 0.252804
0.245509 0.297496 0.345516
0.373427 0.290705 0.380853
0.399598 0.286364 0.392047
0.399598 0.286364 0.392047
0.399598 0.286364 0.392047
0.399598 0.286364 0.392047
0.399598 0.286364 0.392047
0.148767 0.226896 0.245688
0.149066 0.227385 0.246303
0.224712 0.286420 0.322394
0.365394 0.294005 0.376302
0.399598 0.286364 0.392047
0.399598 0.286364 0.392047
0.399598 0.286364 0.392047
0.399598 0.286364 0.392047
0.399598 0.286364 0.392047
0.151055 0.230721 0.249740
0.150471 0.229741 0.248705
0.180311 0.256660 0.280690
0.345255 0.304607 0.369681
0.399598 0.286364 0.392047
0.399598 0.286364 0.392047
0.399598 0.286364 0.392047
0.399598 0.286364 0.392047
0.399598 0.286364 0.392047
0.207591 0.323702 0.353996
0.205421 0.319928 0.349484
0.199663 0.309924 0.337828
0.324237 0.375911 0.453388
0.429449 0.361876 0.447517
0.456850 0.349858 0.452762
0.449948 0.341676 0.445823
0.446256 0.337332 0.442131
0.444393 0.335141 0.440273
0.250405 0.411670 0.444719
0.248883 0.408041 0.441943
0.244572 0.397930 0.433717
0.311555 0.443157 0.497482
0.491827 0.499144 0.610300
0.569438 0.492145 0.572464
0.582947 0.488596 0.572511
0.579240 0.484493 0.569135
0.577315 0.482362 0.567382
0.277427 0.489419 0.490646
0.276052 0.484993 0.488676
0.271416 0.470464 0.481451
0.272127 0.471762 0.492906
0.473717 0.569427 0.612559
0.621890 0.603837 0.665913
0.684292 0.604430 0.660350
0.686140 0.599554 0.657077
0.682707 0.596324 0.654633
0.279674 0.496775 0.493834
0.279674 0.496775 0.493834
0.279674 0.496775 0.493834
0.285721 0.517005 0.510689
0.466688 0.632249 0.628369
0.623469 0.693706 0.704370
0.734630 0.708010 0.725030
0.805171 0.703925 0.723529
0.799243 0.698503 0.720585
0.279674 0.496775 0.493834
0.279674 0.496775 0.493834
0.279674 0.496775 0.493834
0.284294 0.512128 0.506671
0.457133 0.648845 0.624527
0.612838 0.760359 0.706621
0.753906 0.806080 0.753581
0.827629 0.793117 0.751194
0.851602 0.790489 0.744874
0.279674 0.496775 0.493834
0.279674 0.496775 0.493834
0.279674 0.496775 0.493834
0.283588 0.509724 0.504673
0.448177 0.642397 0.617717
0.598125 0.749116 0.691080
0.745352 0.828146 0.747927
0.821475 0.822659 0.747705
0.876528 0.834157 0.760834
0.148767 0.226896 0.245688
0.152173 0.232517 0.252573
0.244502 0.297191 0.344535
0.373183 0.290769 0.380737
0.399598 0.286364 0.392047
0.399598 0.286364 0.392047
0.399598 0.286364 0.392047
0.399598 0.286364 0.392047
0.399598 0.286364 0.392047
0.148767 0.226896 0.245688
0.148961 0.227215 0.246088
0.224193 0.286053 0.321815
0.365131 0.294223 0.376157
0.399598 0.286364 0.392047
0.399598 0.286364 0.392047
0.399598 0.286364 0.392047
0.399598 0.286364 0.392047
0.399598 0.286364 0.392047
0.150669 0.230074 0.249055
0.150185 0.229262 0.248202
0.180349 0.256471 0.280509
0.345097 0.304617 0.369765
0.399598 0.286364 0.392047
0.399598 0.286364 0.392047
0.399598 0.286364 0.392047
0.399598 0.286364 0.392047
0.399598 0.286364 0.392047
0.206313 0.321480 0.351339
0.204134 0.317693 0.346819
0.198320 0.307596 0.335091
0.321437 0.373083 0.449820
0.426402 0.358670 0.444308
0.453802 0.346239 0.449697
0.446967 0.338166 0.442839
0.443346 0.333908 0.439229
0.441521 0.331729 0.437422
0.249503 0.409517 0.443083
0.248024 0.405994 0.440282
0.243732 0.396017 0.432092
0.309976 0.440494 0.494753
0.489665 0.495836 0.607395
0.566087 0.488758 0.569634
0.579955 0.485289 0.569785
0.576232 0.481164 0.566395
0.574306 0.479029 0.564640
0.276637 0.486868 0.489539
0.275159 0.482141 0.487303
0.270427 0.467459 0.479846
0.270950 0.468153 0.490647
0.471592 0.565607 0.609653
0.618063 0.598860 0.661638
0.678333 0.599566 0.656708
0.680757 0.594507 0.653194
0.677235 0.591276 0.650618
0.279674 0.496775 0.493834
0.279674 0.496775 0.493834
0.279674 0.496775 0.493834
0.285358 0.515722 0.510073
0.463564 0.626973 0.627328
0.619963 0.685969 0.700467
0.726243 0.699217 0.719962
0.795642 0.695741 0.719544
0.789486 0.690648 0.716965
0.279674 0.496775 0.493834
0.279674 0.496775 0.493834
0.279674 0.496775 0.493834
0.284231 0.511916 0.506495
0.456383 0.648331 0.624091
0.610063 0.752670 0.708483
0.747069 0.794393 0.762844
0.828572 0.792082 0.767242
0.857829 0.789941 0.763817
0.279674 0.496775 0.493834
0.279674 0.496775 0.493834
0.279674 0.496775 0.493834
0.283526 0.509512 0.504497
0.447919 0.642569 0.619330
0.595830 0.748124 0.701633
0.743848 0.834649 0.773397
0.837327 0.848398 0.788590
0.902074 0.858134 0.799812
