滤镜资源/Lutify.me Free 3D LUTs Package/3D LUTs/Color Grading LUTs/RED IPP2/Hiddenite - IPP2.cube
# Website: https://lutify.me
# Contact: help@lutify.me
# Created by: Lutify.me
# Copyright: (c) Copyright Lutify.me 2016, G.T. Colord LTD
LUT_3D_SIZE 9
0.000000 0.000000 0.000000
0.084351 0.067903 0.082392
0.185520 0.112877 0.120033
0.318487 0.162453 0.173134
0.352762 0.175859 0.187796
0.352762 0.175859 0.187796
0.352762 0.175859 0.187796
0.352762 0.175859 0.187796
0.352762 0.175859 0.187796
0.094587 0.099922 0.100168
0.101192 0.103467 0.104749
0.178375 0.118465 0.122691
0.305600 0.157256 0.167495
0.352762 0.175859 0.187796
0.352762 0.175859 0.187796
0.352762 0.175859 0.187796
0.352762 0.175859 0.187796
0.352762 0.175859 0.187796
0.148186 0.201113 0.163328
0.144867 0.195904 0.159677
0.192260 0.199727 0.167764
0.308686 0.225043 0.202369
0.391560 0.240261 0.228081
0.386320 0.230885 0.222867
0.383392 0.225515 0.219873
0.381958 0.222787 0.218422
0.381224 0.221346 0.217640
0.247247 0.355309 0.271784
0.244202 0.349869 0.268436
0.245830 0.342201 0.265752
0.339844 0.355435 0.282349
0.452432 0.375124 0.305892
0.483325 0.372855 0.308321
0.477790 0.365387 0.303911
0.474779 0.361346 0.301507
0.473241 0.359269 0.300272
0.302889 0.474271 0.339282
0.302889 0.474271 0.339282
0.302889 0.474271 0.339282
0.374114 0.499146 0.358395
0.494719 0.526206 0.381239
0.615331 0.547154 0.399057
0.606222 0.534998 0.393730
0.601352 0.528534 0.390824
0.598935 0.525361 0.389350
0.302889 0.474271 0.339282
0.302889 0.474271 0.339282
0.302889 0.474271 0.339282
0.352748 0.504702 0.359014
0.475985 0.560189 0.392942
0.603469 0.610636 0.420629
0.678366 0.633460 0.432088
0.678366 0.633460 0.432088
0.678366 0.633460 0.432088
0.302889 0.474271 0.339282
0.302889 0.474271 0.339282
0.302889 0.474271 0.339282
0.337796 0.498834 0.355291
0.452571 0.549710 0.386819
0.567244 0.597761 0.413788
0.668969 0.630944 0.430886
0.678366 0.633460 0.432088
0.678366 0.633460 0.432088
0.302889 0.474271 0.339282
0.302889 0.474271 0.339282
0.302889 0.474271 0.339282
0.330104 0.496356 0.353745
0.440302 0.544221 0.383522
0.549584 0.590962 0.410129
0.642182 0.623042 0.427049
0.678366 0.633460 0.432088
0.678366 0.633460 0.432088
0.302889 0.474271 0.339282
0.302889 0.474271 0.339282
0.302889 0.474271 0.339282
0.326200 0.495457 0.353219
0.434172 0.541423 0.381838
0.540909 0.587556 0.408288
0.629826 0.619176 0.425097
0.678366 0.633460 0.432088
0.678366 0.633460 0.432088
0.025857 0.030522 0.066840
0.091453 0.083611 0.109055
0.186323 0.115944 0.133022
0.318640 0.164246 0.179282
0.353392 0.176851 0.190413
0.352834 0.175971 0.188087
0.352762 0.175859 0.187796
0.352762 0.175859 0.187796
0.352762 0.175859 0.187796
0.094287 0.097469 0.109070
0.098146 0.101266 0.111644
0.174738 0.115526 0.126151
0.304730 0.157270 0.168480
0.352762 0.175859 0.187796
0.352762 0.175859 0.187796
0.352762 0.175859 0.187796
0.352762 0.175859 0.187796
0.352762 0.175859 0.187796
0.142979 0.192921 0.157613
0.139613 0.187618 0.153888
0.186709 0.191484 0.162002
0.303983 0.217674 0.197409
0.387919 0.233783 0.224465
0.382951 0.224682 0.219431
0.380347 0.219618 0.216708
0.378925 0.216815 0.215254
0.378254 0.215398 0.214552
0.242477 0.346820 0.266554
0.239393 0.341485 0.263221
0.240516 0.333532 0.260189
0.333939 0.346510 0.276764
0.444971 0.365955 0.300309
0.476872 0.364150 0.303173
0.471410 0.356778 0.298792
0.468473 0.352754 0.296392
0.466954 0.350685 0.295157
0.302889 0.474271 0.339282
0.302889 0.474271 0.339282
0.302889 0.474271 0.339282
0.367950 0.486711 0.352167
0.486303 0.512542 0.374696
0.604591 0.532972 0.392817
0.596039 0.521554 0.387582
0.591464 0.515476 0.384726
0.589099 0.512370 0.383259
0.302889 0.474271 0.339282
0.302889 0.474271 0.339282
0.302889 0.474271 0.339282
0.351731 0.504283 0.358745
0.474376 0.559485 0.392537
0.600925 0.609771 0.420178
0.678366 0.633460 0.432088
0.678366 0.633460 0.432088
0.678366 0.633460 0.432088
0.302889 0.474271 0.339282
0.302889 0.474271 0.339282
0.302889 0.474271 0.339282
0.336864 0.498514 0.355092
0.451077 0.549045 0.386421
0.565058 0.596934 0.413346
0.665648 0.629989 0.430425
0.678366 0.633460 0.432088
0.678366 0.633460 0.432088
0.302889 0.474271 0.339282
0.302889 0.474271 0.339282
0.302889 0.474271 0.339282
0.329192 0.496145 0.353622
0.438855 0.543562 0.383128
0.547554 0.590168 0.409698
0.639290 0.622133 0.426593
0.678366 0.633460 0.432088
0.678366 0.633460 0.432088
0.302889 0.474271 0.339282
0.302889 0.474271 0.339282
0.302889 0.474271 0.339282
0.325287 0.495253 0.353097
0.432763 0.540766 0.381444
0.538948 0.586774 0.407860
0.627040 0.618303 0.424643
0.678366 0.633460 0.432088
0.678366 0.633460 0.432088
0.095410 0.099992 0.126599
0.102870 0.112721 0.151991
0.193315 0.138659 0.214286
0.325999 0.185242 0.245764
0.364879 0.197260 0.251141
0.364138 0.195803 0.246686
0.363717 0.194976 0.244126
0.363490 0.194535 0.242752
0.363373 0.194309 0.242038
0.096010 0.101846 0.127779
0.098118 0.104822 0.135269
0.177181 0.130404 0.199124
0.311512 0.176990 0.231896
0.363397 0.194357 0.242191
0.362688 0.192969 0.237772
0.362287 0.192212 0.235368
0.362067 0.191794 0.234045
0.361953 0.191579 0.233364
0.149296 0.176759 0.194792
0.145403 0.171438 0.190136
0.177141 0.183651 0.195595
0.297490 0.208289 0.222867
0.385547 0.225637 0.243204
0.380981 0.216267 0.236165
0.378648 0.210883 0.232385
0.377386 0.207841 0.230317
0.376737 0.206276 0.229252
0.234703 0.326763 0.267335
0.231158 0.321313 0.262903
0.228412 0.312906 0.256448
0.319435 0.324238 0.267624
0.426052 0.341795 0.288736
0.460167 0.340461 0.291352
0.454588 0.333029 0.286211
0.451563 0.328999 0.283396
0.450013 0.326926 0.281944
0.302217 0.471473 0.339110
0.298998 0.464094 0.334800
0.289927 0.443331 0.323103
0.349949 0.451978 0.333989
0.462318 0.475106 0.355902
0.568797 0.493144 0.373438
0.567772 0.484761 0.369658
0.563689 0.479355 0.366932
0.561553 0.476587 0.365534
0.302889 0.474271 0.339282
0.302889 0.474271 0.339282
0.302889 0.474271 0.339282
0.348705 0.503021 0.357941
0.469665 0.557419 0.391332
0.593532 0.607225 0.418832
0.678366 0.633460 0.432088
0.678366 0.633460 0.432088
0.678366 0.633460 0.432088
0.302889 0.474271 0.339282
0.302889 0.474271 0.339282
0.302889 0.474271 0.339282
0.334105 0.497575 0.354499
0.446645 0.547068 0.385236
0.558534 0.594465 0.412028
0.655541 0.627127 0.429041
0.678366 0.633460 0.432088
0.678366 0.633460 0.432088
0.302889 0.474271 0.339282
0.302889 0.474271 0.339282
0.302889 0.474271 0.339282
0.326473 0.495518 0.353256
0.434594 0.541619 0.381956
0.541491 0.587789 0.408416
0.630671 0.619443 0.425233
0.678366 0.633460 0.432088
0.678366 0.633460 0.432088
0.302889 0.474271 0.339282
0.302889 0.474271 0.339282
0.302889 0.474271 0.339282
0.322578 0.494788 0.352855
0.428605 0.538872 0.380292
0.532979 0.584413 0.406584
0.618719 0.615700 0.423294
0.678366 0.633460 0.432088
0.678366 0.633460 0.432088
0.111956 0.131587 0.183644
0.117504 0.144039 0.204006
0.167505 0.201990 0.317109
0.335310 0.225876 0.367067
0.383369 0.236648 0.374178
0.382798 0.234987 0.368643
0.382453 0.234018 0.365434
0.382262 0.233487 0.363685
0.382136 0.233217 0.362763
0.110644 0.128614 0.178879
0.112824 0.133499 0.187384
0.151231 0.194231 0.291722
0.320762 0.218197 0.351930
0.382162 0.233273 0.362955
0.381393 0.231628 0.357353
0.380944 0.230664 0.354086
0.380699 0.230145 0.352311
0.380573 0.229879 0.351399
0.143218 0.192031 0.245638
0.139962 0.186984 0.240490
0.155997 0.210852 0.276454
0.294945 0.222504 0.325010
0.391379 0.239984 0.342248
0.386455 0.231557 0.333350
0.383213 0.226850 0.327840
0.380763 0.224456 0.324185
0.379506 0.223219 0.322304
0.252139 0.307234 0.332721
0.248315 0.301925 0.327569
0.242668 0.292339 0.318477
0.310087 0.320720 0.333885
0.419174 0.335617 0.355877
0.459231 0.335474 0.356805
0.453645 0.327918 0.349837
0.450686 0.323891 0.346112
0.449169 0.321834 0.344221
0.313306 0.447166 0.404025
0.309654 0.440108 0.397952
0.298852 0.420038 0.380180
0.342832 0.436541 0.376996
0.451079 0.456480 0.389135
0.552073 0.471646 0.402893
0.558686 0.464839 0.398367
0.554203 0.459222 0.394301
0.551953 0.456372 0.392213
0.325181 0.492145 0.404602
0.324452 0.491828 0.402311
0.322466 0.490747 0.395782
0.357036 0.527427 0.402801
0.475270 0.572856 0.423053
0.586412 0.596108 0.438160
0.668543 0.607035 0.445791
0.661244 0.597827 0.441458
0.657743 0.593282 0.439261
0.321005 0.489908 0.390903
0.320378 0.489566 0.388834
0.318526 0.488509 0.382728
0.340238 0.516880 0.391759
0.452707 0.565285 0.410454
0.566379 0.613980 0.435094
0.666365 0.648007 0.450956
0.705565 0.658286 0.455044
0.705118 0.657828 0.454505
0.318856 0.488720 0.383832
0.318283 0.488322 0.381892
0.316657 0.487082 0.376335
0.332039 0.511627 0.387161
0.439037 0.556627 0.402464
0.546723 0.603586 0.426877
0.637106 0.636020 0.442498
0.701564 0.654342 0.450684
0.701112 0.653911 0.450213
0.317867 0.488008 0.380476
0.317321 0.487593 0.378615
0.315716 0.486391 0.373256
0.328740 0.508009 0.383118
0.432234 0.552336 0.398556
0.537106 0.598399 0.422928
0.623533 0.630087 0.438313
0.689532 0.649609 0.447353
0.699025 0.651853 0.448165
0.118156 0.145734 0.204353
0.123346 0.156807 0.221527
0.164146 0.221072 0.316852
0.322624 0.249910 0.421321
0.383686 0.259982 0.437377
0.383686 0.259982 0.437377
0.383686 0.259982 0.437377
0.383686 0.259982 0.437377
0.383686 0.259982 0.437377
0.118156 0.145734 0.204353
0.119774 0.149298 0.209998
0.157615 0.211506 0.301906
0.304870 0.247699 0.416228
0.383686 0.259982 0.437377
0.383686 0.259982 0.437377
0.383686 0.259982 0.437377
0.383686 0.259982 0.437377
0.383686 0.259982 0.437377
0.145869 0.194879 0.264523
0.143191 0.190831 0.260162
0.159610 0.215258 0.297834
0.262616 0.251816 0.406591
0.385191 0.259368 0.437220
0.385157 0.255769 0.435131
0.385841 0.254823 0.434273
0.385885 0.254286 0.432487
0.385907 0.254009 0.431567
0.241988 0.319670 0.397388
0.237723 0.314748 0.391770
0.229599 0.304649 0.379839
0.287655 0.336260 0.408391
0.411665 0.340920 0.461437
0.458900 0.341308 0.463008
0.453623 0.334017 0.454400
0.450832 0.330159 0.449795
0.449404 0.328178 0.447442
0.333256 0.429060 0.474248
0.329323 0.422531 0.467176
0.317680 0.403477 0.446987
0.347206 0.431191 0.478701
0.440663 0.460367 0.482057
0.544802 0.472180 0.508761
0.558604 0.466757 0.503641
0.554196 0.461058 0.497955
0.551945 0.458147 0.495044
0.360991 0.511986 0.522268
0.360316 0.511374 0.519937
0.358560 0.509261 0.512697
0.377369 0.530504 0.532259
0.476119 0.565848 0.533129
0.578693 0.593504 0.539092
0.670007 0.606006 0.549161
0.662546 0.596570 0.542404
0.659015 0.591927 0.538963
0.357550 0.507270 0.506838
0.357021 0.506497 0.504300
0.354640 0.505079 0.496960
0.372891 0.537109 0.518172
0.472690 0.615052 0.534382
0.590648 0.681160 0.551960
0.707315 0.728038 0.571404
0.767336 0.736748 0.574979
0.761185 0.727530 0.571062
0.355083 0.505342 0.498316
0.354284 0.504868 0.495873
0.351749 0.503670 0.488174
0.365294 0.528382 0.501675
0.457878 0.603683 0.517838
0.568737 0.664570 0.534154
0.671426 0.707661 0.552445
0.759517 0.736096 0.563099
0.768164 0.737662 0.562745
0.353657 0.504529 0.493955
0.352798 0.504149 0.491351
0.350240 0.502994 0.483648
0.361510 0.524145 0.493548
0.450530 0.597975 0.509738
0.558182 0.656661 0.525758
0.654887 0.698184 0.543301
0.735277 0.725084 0.553688
0.765334 0.733081 0.556083
0.118156 0.145734 0.204353
0.122570 0.155298 0.219244
0.162825 0.219139 0.313774
0.319000 0.249433 0.420286
0.383686 0.259982 0.437377
0.383686 0.259982 0.437377
0.383686 0.259982 0.437377
0.383686 0.259982 0.437377
0.383686 0.259982 0.437377
0.118156 0.145734 0.204353
0.119102 0.147804 0.207623
0.156296 0.209549 0.298940
0.301322 0.247260 0.415210
0.383686 0.259982 0.437377
0.383686 0.259982 0.437377
0.383686 0.259982 0.437377
0.383686 0.259982 0.437377
0.383686 0.259982 0.437377
0.136444 0.180098 0.248476
0.133906 0.175890 0.243681
0.149481 0.199655 0.279696
0.251587 0.242250 0.399722
0.383686 0.259982 0.437377
0.383686 0.259982 0.437377
0.383686 0.259982 0.437377
0.383686 0.259982 0.437377
0.383686 0.259982 0.437377
0.232284 0.311377 0.393260
0.228262 0.307358 0.389552
0.220076 0.298703 0.381298
0.271972 0.337373 0.412584
0.387393 0.346951 0.486551
0.444665 0.345978 0.498532
0.440288 0.339872 0.494101
0.437900 0.336552 0.491706
0.436695 0.334861 0.490488
0.336848 0.422446 0.500037
0.332384 0.417478 0.495029
0.319239 0.402954 0.480471
0.349932 0.426296 0.498549
0.428250 0.466926 0.531393
0.521885 0.482893 0.598246
0.546157 0.475194 0.599225
0.543674 0.468516 0.594454
0.542372 0.465086 0.591986
0.397715 0.516029 0.578624
0.397026 0.515435 0.578077
0.381854 0.499269 0.563997
0.397754 0.507058 0.572052
0.485840 0.554866 0.617490
0.564370 0.601258 0.642925
0.663801 0.610507 0.689698
0.660226 0.601692 0.678384
0.656735 0.596903 0.672102
0.387852 0.517894 0.577836
0.386424 0.518032 0.576336
0.382411 0.518232 0.571415
0.401907 0.548440 0.597543
0.503935 0.640349 0.674589
0.611235 0.694996 0.708098
0.703067 0.734043 0.729459
0.765193 0.744939 0.735096
0.758958 0.735262 0.727073
0.382978 0.518393 0.572758
0.382140 0.517898 0.569889
0.380323 0.515648 0.559912
0.393051 0.540229 0.580314
0.486538 0.629070 0.653614
0.600763 0.714167 0.707004
0.698810 0.792945 0.730961
0.800278 0.839170 0.749497
0.826313 0.847380 0.751634
0.381674 0.517316 0.567262
0.381065 0.516566 0.563952
0.378543 0.515107 0.555678
0.388630 0.536270 0.572052
0.477929 0.623486 0.644197
0.588525 0.704705 0.690692
0.679775 0.779724 0.710372
0.770873 0.821528 0.727037
0.822911 0.839323 0.734913
0.118156 0.145734 0.204353
0.122135 0.154423 0.217892
0.162053 0.218011 0.311977
0.316883 0.249170 0.419682
0.383686 0.259982 0.437377
0.383686 0.259982 0.437377
0.383686 0.259982 0.437377
0.383686 0.259982 0.437377
0.383686 0.259982 0.437377
0.118156 0.145734 0.204353
0.118695 0.146931 0.206235
0.155555 0.208434 0.297266
0.299254 0.246998 0.414614
0.383686 0.259982 0.437377
0.383686 0.259982 0.437377
0.383686 0.259982 0.437377
0.383686 0.259982 0.437377
0.383686 0.259982 0.437377
0.131247 0.171478 0.238273
0.128837 0.167471 0.233275
0.143559 0.190694 0.268680
0.248510 0.240587 0.398237
0.383686 0.259982 0.437377
0.383686 0.259982 0.437377
0.383686 0.259982 0.437377
0.383686 0.259982 0.437377
0.383686 0.259982 0.437377
0.223906 0.303028 0.385547
0.219927 0.299105 0.381922
0.211043 0.289967 0.373078
0.262614 0.328605 0.404815
0.378990 0.336692 0.478943
0.437828 0.336451 0.491633
0.433703 0.330666 0.487416
0.431500 0.327542 0.485153
0.430365 0.325935 0.483987
0.327526 0.412073 0.489615
0.323127 0.407182 0.484745
0.310175 0.393086 0.470519
0.341062 0.417097 0.489934
0.420229 0.458249 0.524072
0.509615 0.477255 0.591693
0.532068 0.473425 0.595182
0.528518 0.468174 0.591215
0.526739 0.465520 0.589214
0.399983 0.516106 0.579049
0.395599 0.508932 0.573109
0.382783 0.488463 0.556180
0.403613 0.494267 0.563528
0.486927 0.549629 0.611018
0.563103 0.598784 0.650423
0.634246 0.623784 0.713109
0.634080 0.616375 0.708749
0.630545 0.611587 0.704869
0.402325 0.519959 0.582282
0.402325 0.519959 0.582282
0.402325 0.519959 0.582282
0.430357 0.543201 0.603562
0.530046 0.613952 0.671225
0.625665 0.676952 0.728526
0.697710 0.732695 0.773487
0.748658 0.757567 0.816000
0.740973 0.748575 0.810671
0.402325 0.519959 0.582282
0.402325 0.519959 0.582282
0.401189 0.518998 0.581385
0.421057 0.535208 0.596417
0.525636 0.620297 0.675411
0.648713 0.716284 0.767246
0.766326 0.810137 0.849430
0.845804 0.871036 0.898442
0.862785 0.881653 0.908042
0.402325 0.519959 0.582282
0.402052 0.519729 0.582066
0.399937 0.517940 0.580390
0.416436 0.531408 0.592933
0.515073 0.615937 0.670254
0.632742 0.708133 0.758547
0.741487 0.794990 0.836348
0.836492 0.868768 0.900492
0.897014 0.916361 0.938717
0.118156 0.145734 0.204353
0.121899 0.153941 0.217150
0.161630 0.217394 0.310993
0.315725 0.249017 0.419350
0.383686 0.259982 0.437377
0.383686 0.259982 0.437377
0.383686 0.259982 0.437377
0.383686 0.259982 0.437377
0.383686 0.259982 0.437377
0.118156 0.145734 0.204353
0.118472 0.146451 0.205475
0.155145 0.207818 0.296349
0.298128 0.246850 0.414285
0.383686 0.259982 0.437377
0.383686 0.259982 0.437377
0.383686 0.259982 0.437377
0.383686 0.259982 0.437377
0.383686 0.259982 0.437377
0.128483 0.166876 0.232531
0.126340 0.162859 0.227415
0.140377 0.185880 0.262752
0.247420 0.240468 0.397840
0.383686 0.259982 0.437377
0.383686 0.259982 0.437377
0.383686 0.259982 0.437377
0.383686 0.259982 0.437377
0.383686 0.259982 0.437377
0.219331 0.298523 0.381388
0.215472 0.294459 0.377238
0.206759 0.284241 0.365387
0.257943 0.323588 0.400742
0.374546 0.331342 0.474959
0.434282 0.331484 0.488015
0.430255 0.325779 0.483875
0.428110 0.322732 0.481664
0.427038 0.321197 0.480556
0.322475 0.406471 0.484028
0.318085 0.401693 0.479194
0.305224 0.387793 0.465383
0.335163 0.411068 0.484361
0.414248 0.450651 0.518127
0.502732 0.468781 0.584950
0.526568 0.465262 0.589015
0.523128 0.460133 0.585075
0.521370 0.457532 0.583022
0.394952 0.507879 0.572243
0.390604 0.500853 0.566450
0.377963 0.480878 0.550044
0.397838 0.486252 0.556728
0.478373 0.540618 0.602142
0.554685 0.588528 0.642126
0.625004 0.613604 0.704216
0.627312 0.608300 0.702098
0.624271 0.604043 0.698730
0.402325 0.519959 0.582282
0.402325 0.519959 0.582282
0.402325 0.519959 0.582282
0.431423 0.544145 0.604412
0.525274 0.607719 0.665530
0.621209 0.672006 0.723711
0.694770 0.728047 0.770178
0.746287 0.757377 0.814239
0.739498 0.749249 0.809064
0.402325 0.519959 0.582282
0.402325 0.519959 0.582282
0.402325 0.519959 0.582282
0.424683 0.538392 0.599263
0.533025 0.628315 0.682755
0.667085 0.727716 0.778337
0.766877 0.805124 0.842906
0.842477 0.865587 0.891934
0.862999 0.880813 0.907265
0.402325 0.519959 0.582282
0.402325 0.519959 0.582282
0.402325 0.519959 0.582282
0.421359 0.535554 0.596734
0.525023 0.623456 0.677699
0.653009 0.716205 0.767827
0.771396 0.812495 0.850850
0.876987 0.899420 0.924673
0.962583 0.970692 0.978197
0.118156 0.145734 0.204353
0.121783 0.153688 0.216766
0.161414 0.217077 0.310487
0.315130 0.248939 0.419180
0.383686 0.259982 0.437377
0.383686 0.259982 0.437377
0.383686 0.259982 0.437377
0.383686 0.259982 0.437377
0.383686 0.259982 0.437377
0.118156 0.145734 0.204353
0.118362 0.146201 0.205084
0.154935 0.207501 0.295878
0.297549 0.246777 0.414114
0.383686 0.259982 0.437377
0.383686 0.259982 0.437377
0.383686 0.259982 0.437377
0.383686 0.259982 0.437377
0.383686 0.259982 0.437377
0.127195 0.164498 0.229529
0.125153 0.160471 0.224295
0.138725 0.183329 0.259673
0.246830 0.240403 0.397636
0.383686 0.259982 0.437377
0.383686 0.259982 0.437377
0.383686 0.259982 0.437377
0.383686 0.259982 0.437377
0.383686 0.259982 0.437377
0.216995 0.296181 0.379157
0.213203 0.291977 0.374487
0.204582 0.281265 0.361386
0.255625 0.321084 0.398770
0.372316 0.328615 0.472952
0.432510 0.328972 0.486187
0.428519 0.323316 0.482085
0.426433 0.320334 0.479932
0.425356 0.318799 0.478821
0.319879 0.403650 0.481175
0.315537 0.398899 0.476381
0.302679 0.385106 0.462881
0.332176 0.407971 0.481457
0.411239 0.446802 0.515126
0.499255 0.464522 0.581607
0.523795 0.461125 0.585832
0.520381 0.456070 0.581866
0.518633 0.453481 0.579791
0.392374 0.503687 0.568796
0.388079 0.496822 0.563108
0.375531 0.477010 0.546895
0.394942 0.482173 0.553377
0.474033 0.536049 0.597564
0.549890 0.582386 0.637162
0.619214 0.606741 0.698556
0.622561 0.601649 0.696836
0.619657 0.597603 0.693626
0.402325 0.519959 0.582282
0.402325 0.519959 0.582282
0.402325 0.519959 0.582282
0.430067 0.542199 0.602793
0.520511 0.601589 0.659946
0.613852 0.663941 0.715795
0.684765 0.717425 0.760502
0.736101 0.745277 0.806566
0.730022 0.738334 0.802153
0.402325 0.519959 0.582282
0.402325 0.519959 0.582282
0.402325 0.519959 0.582282
0.424390 0.538139 0.599040
0.532344 0.627936 0.682351
0.662704 0.722689 0.774019
0.757790 0.797000 0.835273
0.832144 0.855860 0.883571
0.856504 0.873824 0.901284
0.402325 0.519959 0.582282
0.402325 0.519959 0.582282
0.402325 0.519959 0.582282
0.421066 0.535315 0.596515
0.524717 0.623686 0.677816
0.656423 0.719994 0.771194
0.781939 0.822129 0.859143
0.898635 0.918441 0.940381
0.999987 0.999989 0.999989
