滤镜资源/Lutify.me Free 3D LUTs Package/3D LUTs/Color Grading LUTs/RED IPP2/Hiddenite - IPP2.cube
# Website: https://lutify.me
# Contact: help@lutify.me
# Created by: Lutify.me
# Copyright: (c) Copyright Lutify.me 2016, G.T. Colord LTD
LUT_3D_SIZE 5
0.000000 0.000000 0.000000
0.185520 0.112877 0.120033
0.352762 0.175859 0.187796
0.352762 0.175859 0.187796
0.352762 0.175859 0.187796
0.148186 0.201113 0.163328
0.192260 0.199727 0.167764
0.391560 0.240261 0.228081
0.383392 0.225515 0.219873
0.381224 0.221346 0.217640
0.302889 0.474271 0.339282
0.302889 0.474271 0.339282
0.494719 0.526206 0.381239
0.606222 0.534998 0.393730
0.598935 0.525361 0.389350
0.302889 0.474271 0.339282
0.302889 0.474271 0.339282
0.452571 0.549710 0.386819
0.668969 0.630944 0.430886
0.678366 0.633460 0.432088
0.302889 0.474271 0.339282
0.302889 0.474271 0.339282
0.434172 0.541423 0.381838
0.629826 0.619176 0.425097
0.678366 0.633460 0.432088
0.095410 0.099992 0.126599
0.193315 0.138659 0.214286
0.364879 0.197260 0.251141
0.363717 0.194976 0.244126
0.363373 0.194309 0.242038
0.149296 0.176759 0.194792
0.177141 0.183651 0.195595
0.385547 0.225637 0.243204
0.378648 0.210883 0.232385
0.376737 0.206276 0.229252
0.302217 0.471473 0.339110
0.289927 0.443331 0.323103
0.462318 0.475106 0.355902
0.567772 0.484761 0.369658
0.561553 0.476587 0.365534
0.302889 0.474271 0.339282
0.302889 0.474271 0.339282
0.446645 0.547068 0.385236
0.655541 0.627127 0.429041
0.678366 0.633460 0.432088
0.302889 0.474271 0.339282
0.302889 0.474271 0.339282
0.428605 0.538872 0.380292
0.618719 0.615700 0.423294
0.678366 0.633460 0.432088
0.118156 0.145734 0.204353
0.164146 0.221072 0.316852
0.383686 0.259982 0.437377
0.383686 0.259982 0.437377
0.383686 0.259982 0.437377
0.145869 0.194879 0.264523
0.159610 0.215258 0.297834
0.385191 0.259368 0.437220
0.385841 0.254823 0.434273
0.385907 0.254009 0.431567
0.333256 0.429060 0.474248
0.317680 0.403477 0.446987
0.440663 0.460367 0.482057
0.558604 0.466757 0.503641
0.551945 0.458147 0.495044
0.357550 0.507270 0.506838
0.354640 0.505079 0.496960
0.472690 0.615052 0.534382
0.707315 0.728038 0.571404
0.761185 0.727530 0.571062
0.353657 0.504529 0.493955
0.350240 0.502994 0.483648
0.450530 0.597975 0.509738
0.654887 0.698184 0.543301
0.765334 0.733081 0.556083
0.118156 0.145734 0.204353
0.162053 0.218011 0.311977
0.383686 0.259982 0.437377
0.383686 0.259982 0.437377
0.383686 0.259982 0.437377
0.131247 0.171478 0.238273
0.143559 0.190694 0.268680
0.383686 0.259982 0.437377
0.383686 0.259982 0.437377
0.383686 0.259982 0.437377
0.327526 0.412073 0.489615
0.310175 0.393086 0.470519
0.420229 0.458249 0.524072
0.532068 0.473425 0.595182
0.526739 0.465520 0.589214
0.402325 0.519959 0.582282
0.402325 0.519959 0.582282
0.530046 0.613952 0.671225
0.697710 0.732695 0.773487
0.740973 0.748575 0.810671
0.402325 0.519959 0.582282
0.399937 0.517940 0.580390
0.515073 0.615937 0.670254
0.741487 0.794990 0.836348
0.897014 0.916361 0.938717
0.118156 0.145734 0.204353
0.161414 0.217077 0.310487
0.383686 0.259982 0.437377
0.383686 0.259982 0.437377
0.383686 0.259982 0.437377
0.127195 0.164498 0.229529
0.138725 0.183329 0.259673
0.383686 0.259982 0.437377
0.383686 0.259982 0.437377
0.383686 0.259982 0.437377
0.319879 0.403650 0.481175
0.302679 0.385106 0.462881
0.411239 0.446802 0.515126
0.523795 0.461125 0.585832
0.518633 0.453481 0.579791
0.402325 0.519959 0.582282
0.402325 0.519959 0.582282
0.520511 0.601589 0.659946
0.684765 0.717425 0.760502
0.730022 0.738334 0.802153
0.402325 0.519959 0.582282
0.402325 0.519959 0.582282
0.524717 0.623686 0.677816
0.781939 0.822129 0.859143
0.999987 0.999989 0.999989
