滤镜资源/Lutify.me Free 3D LUTs Package/3D LUTs/Color Grading LUTs/RED IPP2/Hiddenite - IPP2.cube
# Website: https://lutify.me
# Contact: help@lutify.me
# Created by: Lutify.me
# Copyright: (c) Copyright Lutify.me 2016, G.T. Colord LTD
LUT_3D_SIZE 33
0.000000 0.000000 0.000000
0.000000 0.000000 0.000000
0.000003 0.000003 0.000003
0.023198 0.023872 0.029119
0.084351 0.067903 0.082392
0.107867 0.082799 0.093299
0.125613 0.095739 0.102635
0.152318 0.104528 0.110548
0.185520 0.112877 0.120033
0.221817 0.123804 0.131751
0.256036 0.136578 0.145411
0.287661 0.149808 0.159504
0.318487 0.162453 0.173134
0.348600 0.174267 0.186103
0.352762 0.175859 0.187796
0.352762 0.175859 0.187796
0.352762 0.175859 0.187796
0.352762 0.175859 0.187796
0.352762 0.175859 0.187796
0.352762 0.175859 0.187796
0.352762 0.175859 0.187796
0.352762 0.175859 0.187796
0.352762 0.175859 0.187796
0.352762 0.175859 0.187796
0.352762 0.175859 0.187796
0.352762 0.175859 0.187796
0.352762 0.175859 0.187796
0.352762 0.175859 0.187796
0.352762 0.175859 0.187796
0.352762 0.175859 0.187796
0.352762 0.175859 0.187796
0.352762 0.175859 0.187796
0.352762 0.175859 0.187796
0.000000 0.000000 0.000000
0.000000 0.000000 0.000000
0.000003 0.000003 0.000003
0.023198 0.023872 0.029119
0.084351 0.067903 0.082392
0.107867 0.082799 0.093299
0.125613 0.095739 0.102635
0.152318 0.104528 0.110548
0.185520 0.112877 0.120033
0.221817 0.123804 0.131751
0.256036 0.136578 0.145411
0.287661 0.149808 0.159504
0.318487 0.162453 0.173134
0.348600 0.174267 0.186103
0.352762 0.175859 0.187796
0.352762 0.175859 0.187796
0.352762 0.175859 0.187796
0.352762 0.175859 0.187796
0.352762 0.175859 0.187796
0.352762 0.175859 0.187796
0.352762 0.175859 0.187796
0.352762 0.175859 0.187796
0.352762 0.175859 0.187796
0.352762 0.175859 0.187796
0.352762 0.175859 0.187796
0.352762 0.175859 0.187796
0.352762 0.175859 0.187796
0.352762 0.175859 0.187796
0.352762 0.175859 0.187796
0.352762 0.175859 0.187796
0.352762 0.175859 0.187796
0.352762 0.175859 0.187796
0.352762 0.175859 0.187796
0.000004 0.000005 0.000006
0.000004 0.000005 0.000006
0.000005 0.000006 0.000007
0.023197 0.023871 0.029118
0.084351 0.067903 0.082392
0.107866 0.082798 0.093299
0.125613 0.095739 0.102634
0.152317 0.104528 0.110548
0.185520 0.112877 0.120033
0.221816 0.123804 0.131751
0.256036 0.136578 0.145411
0.287661 0.149807 0.159504
0.318487 0.162453 0.173134
0.348600 0.174267 0.186103
0.352762 0.175859 0.187796
0.352762 0.175859 0.187796
0.352762 0.175859 0.187796
0.352762 0.175859 0.187796
0.352762 0.175859 0.187796
0.352762 0.175859 0.187796
0.352762 0.175859 0.187796
0.352762 0.175859 0.187796
0.352762 0.175859 0.187796
0.352762 0.175859 0.187796
0.352762 0.175859 0.187796
0.352762 0.175859 0.187796
0.352762 0.175859 0.187796
0.352762 0.175859 0.187796
0.352762 0.175859 0.187796
0.352762 0.175859 0.187796
0.352762 0.175859 0.187796
0.352762 0.175859 0.187796
0.352762 0.175859 0.187796
0.039003 0.040250 0.049958
0.039003 0.040250 0.049958
0.039003 0.040250 0.049957
0.047672 0.049188 0.060989
0.089119 0.079604 0.088590
0.106607 0.085521 0.094320
0.122401 0.093965 0.101346
0.148243 0.103517 0.109372
0.181187 0.111705 0.118848
0.217784 0.122493 0.130317
0.252443 0.135102 0.143812
0.284096 0.148328 0.157928
0.314842 0.160992 0.171523
0.344822 0.172807 0.184548
0.352762 0.175859 0.187796
0.352762 0.175859 0.187796
0.352762 0.175859 0.187796
0.352762 0.175859 0.187796
0.352762 0.175859 0.187796
0.352762 0.175859 0.187796
0.352762 0.175859 0.187796
0.352762 0.175859 0.187796
0.352762 0.175859 0.187796
0.352762 0.175859 0.187796
0.352762 0.175859 0.187796
0.352762 0.175859 0.187796
0.352762 0.175859 0.187796
0.352762 0.175859 0.187796
0.352762 0.175859 0.187796
0.352762 0.175859 0.187796
0.352762 0.175859 0.187796
0.352762 0.175859 0.187796
0.352762 0.175859 0.187796
0.094587 0.099922 0.100168
0.094587 0.099922 0.100168
0.094587 0.099922 0.100168
0.094058 0.098833 0.099476
0.101192 0.103467 0.104749
0.112595 0.105638 0.107358
0.126898 0.108463 0.110769
0.149182 0.112591 0.115736
0.178375 0.118465 0.122691
0.213165 0.126268 0.132513
0.246340 0.135789 0.143760
0.276195 0.145948 0.155282
0.305600 0.157256 0.167495
0.335291 0.169095 0.180542
0.352762 0.175859 0.187796
0.352762 0.175859 0.187796
0.352762 0.175859 0.187796
0.352762 0.175859 0.187796
0.352762 0.175859 0.187796
0.352762 0.175859 0.187796
0.352762 0.175859 0.187796
0.352762 0.175859 0.187796
0.352762 0.175859 0.187796
0.352762 0.175859 0.187796
0.352762 0.175859 0.187796
0.352762 0.175859 0.187796
0.352762 0.175859 0.187796
0.352762 0.175859 0.187796
0.352762 0.175859 0.187796
0.352762 0.175859 0.187796
0.352762 0.175859 0.187796
0.352762 0.175859 0.187796
0.352762 0.175859 0.187796
0.103279 0.116347 0.110251
0.103279 0.116347 0.110251
0.103279 0.116346 0.110251
0.102744 0.115377 0.109666
0.105476 0.116422 0.111595
0.116021 0.118462 0.114243
0.129738 0.120913 0.117253
0.150792 0.125001 0.121917
0.178764 0.130946 0.128845
0.212740 0.139026 0.138649
0.246365 0.148381 0.150408
0.277591 0.157575 0.162966
0.307361 0.166590 0.175272
0.335651 0.175437 0.186504
0.359464 0.182851 0.194639
0.357239 0.180606 0.192422
0.355188 0.178440 0.190308
0.353335 0.176468 0.188390
0.352762 0.175859 0.187796
0.352762 0.175859 0.187796
0.352762 0.175859 0.187796
0.352762 0.175859 0.187796
0.352762 0.175859 0.187796
0.352762 0.175859 0.187796
0.352762 0.175859 0.187796
0.352762 0.175859 0.187796
0.352762 0.175859 0.187796
0.352762 0.175859 0.187796
0.352762 0.175859 0.187796
0.352762 0.175859 0.187796
0.352762 0.175859 0.187796
0.352762 0.175859 0.187796
0.352762 0.175859 0.187796
0.112792 0.137693 0.122774
0.112792 0.137693 0.122774
0.112792 0.137693 0.122774
0.112233 0.136392 0.122044
0.111926 0.133682 0.120653
0.121134 0.136261 0.123599
0.134475 0.138471 0.126410
0.154071 0.142230 0.130647
0.180434 0.147814 0.137184
0.212824 0.155406 0.146391
0.245614 0.164070 0.157243
0.276390 0.172895 0.169044
0.306169 0.181486 0.181186
0.335496 0.189281 0.192933
0.364697 0.196299 0.204255
0.369993 0.195835 0.205512
0.368553 0.193483 0.204000
0.367252 0.191350 0.202631
0.365931 0.189438 0.201247
0.364438 0.187922 0.199724
0.363103 0.186557 0.198358
0.361940 0.185368 0.197168
0.360951 0.184358 0.196156
0.360087 0.183482 0.195274
0.359360 0.182747 0.194536
0.358733 0.182121 0.193914
0.358202 0.181586 0.193386
0.357737 0.181116 0.192924
0.357343 0.180713 0.192527
0.356996 0.180357 0.192176
0.356699 0.180047 0.191872
0.356429 0.179761 0.191594
0.356306 0.179629 0.191466
0.127373 0.166351 0.139839
0.127373 0.166351 0.139839
0.127373 0.166351 0.139839
0.126552 0.164890 0.138884
0.124473 0.161165 0.136462
0.129544 0.161486 0.137679
0.142551 0.163312 0.140318
0.160294 0.165984 0.144056
0.184715 0.170513 0.149777
0.215287 0.177204 0.158079
0.246753 0.184914 0.167769
0.276929 0.192854 0.178684
0.306107 0.200389 0.189526
0.334590 0.207654 0.199888
0.362794 0.214506 0.210164
0.379100 0.217160 0.215433
0.377804 0.214324 0.214051
0.376706 0.211726 0.212837
0.375715 0.209405 0.211779
0.374848 0.207372 0.210857
0.374150 0.205605 0.210075
0.373575 0.204105 0.209435
0.373086 0.202829 0.208892
0.372659 0.201716 0.208419
0.372298 0.200775 0.208022
0.371983 0.199952 0.207674
0.371721 0.199246 0.207377
0.371491 0.198628 0.207117
0.371296 0.198104 0.206896
0.371104 0.197661 0.206684
0.370896 0.197319 0.206465
0.370708 0.197010 0.206266
0.370622 0.196867 0.206175
0.148186 0.201113 0.163328
0.148186 0.201113 0.163328
0.148185 0.201113 0.163328
0.147224 0.199614 0.162279
0.144867 0.195904 0.159677
0.143213 0.192831 0.157623
0.154493 0.194796 0.160513
0.170354 0.196458 0.163252
0.192260 0.199727 0.167764
0.220413 0.204899 0.174729
0.250471 0.211539 0.183479
0.279867 0.218407 0.192928
0.308686 0.225043 0.202369
0.336771 0.231376 0.211944
0.364424 0.237283 0.220839
0.391561 0.242854 0.229215
0.391560 0.240261 0.228081
0.389957 0.237446 0.226502
0.388535 0.234899 0.225082
0.387367 0.232781 0.223911
0.386320 0.230885 0.222867
0.385410 0.229215 0.221937
0.384637 0.227798 0.221146
0.383962 0.226561 0.220456
0.383392 0.225515 0.219873
0.382944 0.224667 0.219423
0.382567 0.223953 0.219045
0.382238 0.223330 0.218715
0.381958 0.222787 0.218422
0.381712 0.222306 0.218161
0.381501 0.221893 0.217937
0.381311 0.221519 0.217734
0.381224 0.221346 0.217640
0.173951 0.240700 0.191684
0.173951 0.240700 0.191684
0.173951 0.240700 0.191684
0.172943 0.239187 0.190600
0.170453 0.235445 0.187953
0.168253 0.232141 0.185522
0.170860 0.231731 0.186180
0.184934 0.232671 0.188275
0.203700 0.234652 0.191550
0.229137 0.238511 0.196997
0.257146 0.243795 0.204098
0.285697 0.249603 0.212298
0.314207 0.255304 0.220646
0.342095 0.260688 0.228723
0.369607 0.265715 0.236527
0.396630 0.270529 0.244110
0.411418 0.271893 0.247488
0.409437 0.268911 0.245604
0.407657 0.266233 0.243902
0.406175 0.263993 0.242491
0.404861 0.261984 0.241206
0.403715 0.260233 0.240076
0.402736 0.258745 0.239119
0.401893 0.257428 0.238279
0.401183 0.256309 0.237567
0.400581 0.255366 0.236973
0.400082 0.254583 0.236484
0.399645 0.253899 0.236055
0.399274 0.253318 0.235692
0.398948 0.252807 0.235372
0.398668 0.252368 0.235097
0.398416 0.251971 0.234849
0.398301 0.251783 0.234734
0.200104 0.278801 0.220331
0.200104 0.278801 0.220331
0.200103 0.278801 0.220331
0.199154 0.277381 0.219290
0.196740 0.273794 0.216625
0.194625 0.270637 0.214239
0.192303 0.267194 0.211640
0.201004 0.269039 0.214736
0.217893 0.269879 0.216802
0.240253 0.272583 0.221080
0.265850 0.276761 0.226896
0.293561 0.281822 0.233749
0.321893 0.287065 0.241008
0.349797 0.292215 0.248311
0.377412 0.297074 0.255103
0.404541 0.301653 0.261525
0.431124 0.305969 0.267608
0.433269 0.303846 0.266882
0.431209 0.300870 0.265091
0.429449 0.298324 0.263565
0.427895 0.296060 0.262207
0.426552 0.294087 0.261018
0.425408 0.292410 0.260010
0.424408 0.290946 0.259132
0.423565 0.289706 0.258383
0.422830 0.288622 0.257728
0.422220 0.287736 0.257197
0.421688 0.286962 0.256734
0.421236 0.286305 0.256341
0.420838 0.285727 0.255996
0.420497 0.285231 0.255697
0.420188 0.284782 0.255426
0.420046 0.284576 0.255301
0.224875 0.317044 0.247390
0.224875 0.317044 0.247390
0.224875 0.317044 0.247390
0.223998 0.315585 0.246383
0.221754 0.311894 0.243818
0.219758 0.308661 0.241557
0.217522 0.305138 0.239086
0.218359 0.304559 0.239669
0.232155 0.305744 0.241963
0.252463 0.307496 0.244995
0.275817 0.311122 0.249903
0.302621 0.315881 0.255754
0.330769 0.321048 0.262038
0.358930 0.326158 0.268354
0.386901 0.331029 0.274603
0.414351 0.335577 0.280644
0.441385 0.339869 0.286413
0.460681 0.342007 0.289994
0.458364 0.338799 0.288053
0.456343 0.336006 0.286373
0.454554 0.333542 0.284883
0.452998 0.331399 0.283583
0.451680 0.329578 0.282479
0.450534 0.327987 0.281513
0.449563 0.326642 0.280694
0.448716 0.325468 0.279978
0.448000 0.324479 0.279377
0.447379 0.323626 0.278859
0.446851 0.322902 0.278419
0.446390 0.322266 0.278032
0.445994 0.321720 0.277700
0.445637 0.321226 0.277399
0.445472 0.320999 0.277260
0.247247 0.355309 0.271784
0.247247 0.355309 0.271784
0.247247 0.355309 0.271784
0.246392 0.353763 0.270834
0.244202 0.349869 0.268436
0.242273 0.346456 0.266329
0.240148 0.342777 0.264032
0.237758 0.338650 0.261449
0.245830 0.342201 0.265752
0.264033 0.342585 0.267237
0.286049 0.345634 0.271115
0.312000 0.350175 0.276399
0.339844 0.355435 0.282349
0.368284 0.360743 0.288506
0.396691 0.365834 0.294520
0.424711 0.370634 0.300342
0.452432 0.375124 0.305892
0.479352 0.379299 0.311086
0.487561 0.378596 0.311657
0.485311 0.375535 0.309894
0.483325 0.372855 0.308321
0.481594 0.370518 0.306951
0.480124 0.368533 0.305786
0.478859 0.366828 0.304770
0.477790 0.365387 0.303911
0.476856 0.364128 0.303160
0.476063 0.363065 0.302529
0.475366 0.362136 0.301976
0.474779 0.361346 0.301507
0.474263 0.360652 0.301094
0.473821 0.360056 0.300740
0.473424 0.359517 0.300419
0.473241 0.359269 0.300272
0.267079 0.394323 0.295173
0.267079 0.394323 0.295173
0.267079 0.394322 0.295173
0.266285 0.392680 0.294215
0.264261 0.388505 0.291770
0.262479 0.384836 0.289618
0.260536 0.380851 0.287269
0.258343 0.376419 0.284642
0.260191 0.376902 0.286283
0.275176 0.378623 0.288937
0.296270 0.380732 0.291843
0.321255 0.385004 0.296614
0.348822 0.390316 0.302311
0.377486 0.395885 0.308292
0.406332 0.401271 0.314210
0.434948 0.406407 0.319928
0.463392 0.411267 0.325396
0.491186 0.415753 0.330449
0.518346 0.419772 0.335103
0.515877 0.416451 0.333278
0.513661 0.413476 0.331647
0.511731 0.410885 0.330225
0.510118 0.408734 0.329016
0.508699 0.406857 0.327961
0.507496 0.405279 0.327071
0.506446 0.403901 0.326292
0.505571 0.402759 0.325634
0.504808 0.401762 0.325057
0.504158 0.400915 0.324568
0.503588 0.400169 0.324138
0.503097 0.399529 0.323768
0.502653 0.398950 0.323434
0.502449 0.398683 0.323280
0.285754 0.434097 0.317964
0.285754 0.434097 0.317964
0.285754 0.434097 0.317964
0.284928 0.432334 0.316950
0.282817 0.427871 0.314366
0.280972 0.423981 0.312107
0.279011 0.419688 0.309693
0.276796 0.414838 0.306967
0.274766 0.410081 0.304406
0.285517 0.416536 0.310935
0.306199 0.416696 0.312137
0.330422 0.420537 0.316344
0.357652 0.425850 0.321745
0.386527 0.431657 0.327571
0.415847 0.437526 0.333448
0.445084 0.443115 0.339104
0.474228 0.448419 0.344517
0.502959 0.453295 0.349627
0.531245 0.457733 0.354326
0.548086 0.458989 0.356429
0.545566 0.455705 0.354686
0.543398 0.452875 0.353172
0.541559 0.450477 0.351886
0.539987 0.448395 0.350768
0.538679 0.446645 0.349825
0.537511 0.445116 0.349001
0.536522 0.443821 0.348304
0.535656 0.442688 0.347694
0.534921 0.441726 0.347176
0.534291 0.440894 0.346723
0.533763 0.440190 0.346335
0.533285 0.439553 0.345985
0.533065 0.439260 0.345823
0.302889 0.474271 0.339282
0.302889 0.474271 0.339282
0.302889 0.474271 0.339282
0.302436 0.473144 0.338709
0.300357 0.468027 0.336095
0.298528 0.463628 0.333809
0.296534 0.458872 0.331318
0.294295 0.453563 0.328531
0.291768 0.447623 0.325390
0.297098 0.452853 0.330762
0.315531 0.453792 0.332002
0.339191 0.456793 0.335356
0.366064 0.461991 0.340337
0.395094 0.468163 0.346133
0.424930 0.474579 0.352043
0.454800 0.480708 0.357760
0.484738 0.486544 0.363229
0.514435 0.491897 0.368331
0.544039 0.496821 0.373044
0.573125 0.501197 0.377310
0.579418 0.499749 0.377170
0.576902 0.496561 0.375571
0.574778 0.493854 0.374214
0.572944 0.491500 0.373040
0.571445 0.489548 0.372057
0.570139 0.487847 0.371204
0.569033 0.486405 0.370482
0.568066 0.485145 0.369850
0.567244 0.484074 0.369314
0.566522 0.483133 0.368842
0.565914 0.482332 0.368439
0.565378 0.481615 0.368076
0.565132 0.481285 0.367909
0.302889 0.474271 0.339282
0.302889 0.474271 0.339282
0.302889 0.474271 0.339282
0.302889 0.474271 0.339282
0.302889 0.474271 0.339282
0.302889 0.474271 0.339282
0.302889 0.474271 0.339282
0.302889 0.474271 0.339282
0.302889 0.474271 0.339282
0.307638 0.481714 0.344595
0.323834 0.492907 0.351906
0.347573 0.494044 0.353762
0.374114 0.499146 0.358395
0.403166 0.505703 0.363994
0.433413 0.512812 0.369897
0.463996 0.519659 0.375662
0.494719 0.526206 0.381239
0.525468 0.532294 0.386465
0.556317 0.538021 0.391250
0.587041 0.543103 0.395574
0.615331 0.547154 0.399057
0.612461 0.543310 0.397397
0.610029 0.540044 0.395992
0.607964 0.537313 0.394767
0.606222 0.534998 0.393730
0.604698 0.532971 0.392825
0.603407 0.531255 0.392058
0.602278 0.529753 0.391387
0.601352 0.528534 0.390824
0.600545 0.527476 0.390332
0.599851 0.526566 0.389909
0.599224 0.525741 0.389526
0.598935 0.525361 0.389350
0.302889 0.474271 0.339282
0.302889 0.474271 0.339282
0.302889 0.474271 0.339282
0.302889 0.474271 0.339282
0.302889 0.474271 0.339282
0.302889 0.474271 0.339282
0.302889 0.474271 0.339282
0.302889 0.474271 0.339282
0.302889 0.474271 0.339282
0.304508 0.476784 0.341075
0.317666 0.494198 0.352570
0.343824 0.501086 0.356711
0.372547 0.513376 0.364482
0.404186 0.527646 0.373410
0.437559 0.542972 0.382775
0.471776 0.558352 0.391870
0.504092 0.567754 0.398249
0.535810 0.575019 0.403501
0.568118 0.581686 0.408345
0.600299 0.587726 0.412757
0.632955 0.593350 0.416836
0.649616 0.594166 0.418137
0.646829 0.590230 0.416643
0.644418 0.586796 0.415338
0.642438 0.583991 0.414243
0.640683 0.581565 0.413286
0.639197 0.579510 0.412475
0.637897 0.577713 0.411767
0.636793 0.576187 0.411165
0.635823 0.574852 0.410636
0.634990 0.573706 0.410183
0.634267 0.572716 0.409782
0.633935 0.572263 0.409597
0.302889 0.474271 0.339282
0.302889 0.474271 0.339282
0.302889 0.474271 0.339282
0.302889 0.474271 0.339282
0.302889 0.474271 0.339282
0.302889 0.474271 0.339282
0.302889 0.474271 0.339282
0.302889 0.474271 0.339282
0.302889 0.474271 0.339282
0.302889 0.474271 0.339282
0.313673 0.490697 0.350808
0.337220 0.498635 0.355168
0.364934 0.509946 0.362317
0.395460 0.523673 0.370927
0.427880 0.538546 0.380090
0.461085 0.553555 0.389087
0.494730 0.568322 0.397632
0.528730 0.582666 0.405621
0.563399 0.596306 0.413011
0.598472 0.608936 0.419742
0.634376 0.620587 0.425818
0.671476 0.631613 0.431203
0.678366 0.633460 0.432088
0.678366 0.633460 0.432088
0.678366 0.633460 0.432088
0.678366 0.633460 0.432088
0.677721 0.632587 0.431800
0.676082 0.630371 0.431069
0.674691 0.628489 0.430449
0.673470 0.626838 0.429903
0.672481 0.625512 0.429440
0.671587 0.624312 0.429020
0.671175 0.623760 0.428827
0.302889 0.474271 0.339282
0.302889 0.474271 0.339282
0.302889 0.474271 0.339282
0.302889 0.474271 0.339282
0.302889 0.474271 0.339282
0.302889 0.474271 0.339282
0.302889 0.474271 0.339282
0.302889 0.474271 0.339282
0.302889 0.474271 0.339282
0.302889 0.474271 0.339282
0.310900 0.486854 0.348282
0.331620 0.496718 0.353965
0.358443 0.507106 0.360537
0.388003 0.520303 0.368812
0.419562 0.534742 0.377766
0.451982 0.549448 0.386662
0.484745 0.564008 0.395148
0.517526 0.578037 0.403057
0.550638 0.591373 0.410354
0.583765 0.603799 0.417015
0.617445 0.615285 0.423076
0.651218 0.625816 0.428403
0.678366 0.633460 0.432088
0.678366 0.633460 0.432088
0.678366 0.633460 0.432088
0.678366 0.633460 0.432088
0.678366 0.633460 0.432088
0.678366 0.633460 0.432088
0.678366 0.633460 0.432088
0.678366 0.633460 0.432088
0.678366 0.633460 0.432088
0.678366 0.633460 0.432088
0.678366 0.633460 0.432088
0.302889 0.474271 0.339282
0.302889 0.474271 0.339282
0.302889 0.474271 0.339282
0.302889 0.474271 0.339282
0.302889 0.474271 0.339282
0.302889 0.474271 0.339282
0.302889 0.474271 0.339282
0.302889 0.474271 0.339282
0.302889 0.474271 0.339282
0.302889 0.474271 0.339282
0.308622 0.483277 0.345718
0.326679 0.495564 0.353283
0.352748 0.504702 0.359014
0.381449 0.517354 0.366968
0.412236 0.531366 0.375695
0.443947 0.545875 0.384513
0.475985 0.560189 0.392942
0.507753 0.573934 0.400778
0.539707 0.587075 0.408024
0.571270 0.599249 0.414580
0.603469 0.610636 0.420629
0.635073 0.620806 0.425928
0.666204 0.630149 0.430502
0.678366 0.633460 0.432088
0.678366 0.633460 0.432088
0.678366 0.633460 0.432088
0.678366 0.633460 0.432088
0.678366 0.633460 0.432088
0.678366 0.633460 0.432088
0.678366 0.633460 0.432088
0.678366 0.633460 0.432088
0.678366 0.633460 0.432088
0.678366 0.633460 0.432088
0.302889 0.474271 0.339282
0.302889 0.474271 0.339282
0.302889 0.474271 0.339282
0.302889 0.474271 0.339282
0.302889 0.474271 0.339282
0.302889 0.474271 0.339282
0.302889 0.474271 0.339282
0.302889 0.474271 0.339282
0.302889 0.474271 0.339282
0.302889 0.474271 0.339282
0.306677 0.480189 0.343499
0.322386 0.494765 0.352844
0.347956 0.502707 0.357741
0.375922 0.514880 0.365425
0.406040 0.528503 0.373938
0.437109 0.542766 0.382652
0.468493 0.556898 0.391033
0.499507 0.570390 0.398801
0.530444 0.583370 0.406010
0.560799 0.595322 0.412486
0.591735 0.606601 0.418499
0.621749 0.616648 0.423785
0.650651 0.625642 0.428318
0.678366 0.633460 0.432088
0.678366 0.633460 0.432088
0.678366 0.633460 0.432088
0.678366 0.633460 0.432088
0.678366 0.633460 0.432088
0.678366 0.633460 0.432088
0.678366 0.633460 0.432088
0.678366 0.633460 0.432088
0.678366 0.633460 0.432088
0.678366 0.633460 0.432088
0.302889 0.474271 0.339282
0.302889 0.474271 0.339282
0.302889 0.474271 0.339282
0.302889 0.474271 0.339282
0.302889 0.474271 0.339282
0.302889 0.474271 0.339282
0.302889 0.474271 0.339282
0.302889 0.474271 0.339282
0.302889 0.474271 0.339282
0.302889 0.474271 0.339282
0.305041 0.477610 0.341665
0.318751 0.494327 0.352633
0.344006 0.501155 0.356754
0.371286 0.512812 0.364125
0.400852 0.526122 0.372464
0.431444 0.540158 0.381078
0.462331 0.554122 0.389415
0.492721 0.567453 0.397133
0.522962 0.580296 0.404305
0.552377 0.592052 0.410723
0.582069 0.603196 0.416691
0.611039 0.613174 0.421971
0.638590 0.621913 0.426482
0.666046 0.630103 0.430480
0.678366 0.633460 0.432088
0.678366 0.633460 0.432088
0.678366 0.633460 0.432088
0.678366 0.633460 0.432088
0.678366 0.633460 0.432088
0.678366 0.633460 0.432088
0.678366 0.633460 0.432088
0.678366 0.633460 0.432088
0.678366 0.633460 0.432088
0.302889 0.474271 0.339282
0.302889 0.474271 0.339282
0.302889 0.474271 0.339282
0.302889 0.474271 0.339282
0.302889 0.474271 0.339282
0.302889 0.474271 0.339282
0.302889 0.474271 0.339282
0.302889 0.474271 0.339282
0.302889 0.474271 0.339282
0.302889 0.474271 0.339282
0.303622 0.475407 0.340093
0.316157 0.493245 0.352090
0.340618 0.499875 0.355944
0.367421 0.511073 0.363029
0.396472 0.524132 0.371215
0.426589 0.537953 0.379730
0.457025 0.551717 0.388003
0.486929 0.564962 0.395697
0.516518 0.577617 0.402823
0.545231 0.589257 0.409207
0.573955 0.600242 0.415116
0.602115 0.610175 0.420389
0.628540 0.618772 0.424887
0.654229 0.626743 0.428856
0.678366 0.633460 0.432088
0.678366 0.633460 0.432088
0.678366 0.633460 0.432088
0.678366 0.633460 0.432088
0.678366 0.633460 0.432088
0.678366 0.633460 0.432088
0.678366 0.633460 0.432088
0.678366 0.633460 0.432088
0.678366 0.633460 0.432088
0.302889 0.474271 0.339282
0.302889 0.474271 0.339282
0.302889 0.474271 0.339282
0.302889 0.474271 0.339282
0.302889 0.474271 0.339282
0.302889 0.474271 0.339282
0.302889 0.474271 0.339282
0.302889 0.474271 0.339282
0.302889 0.474271 0.339282
0.302889 0.474271 0.339282
0.302889 0.474271 0.339282
0.314554 0.491601 0.351263
0.337796 0.498834 0.355291
0.364192 0.509610 0.362104
0.392785 0.522462 0.370165
0.422496 0.536090 0.378591
0.452571 0.549710 0.386819
0.482091 0.562849 0.394481
0.511147 0.575371 0.401576
0.539304 0.586915 0.407936
0.567244 0.597761 0.413788
0.594712 0.607636 0.419052
0.620276 0.616187 0.423546
0.645183 0.623962 0.427497
0.668969 0.630944 0.430886
0.678366 0.633460 0.432088
0.678366 0.633460 0.432088
0.678366 0.633460 0.432088
0.678366 0.633460 0.432088
0.678366 0.633460 0.432088
0.678366 0.633460 0.432088
0.678366 0.633460 0.432088
0.678366 0.633460 0.432088
0.302889 0.474271 0.339282
0.302889 0.474271 0.339282
0.302889 0.474271 0.339282
0.302889 0.474271 0.339282
0.302889 0.474271 0.339282
0.302889 0.474271 0.339282
0.302889 0.474271 0.339282
0.302889 0.474271 0.339282
0.302889 0.474271 0.339282
0.302889 0.474271 0.339282
0.302889 0.474271 0.339282
0.313155 0.490165 0.350540
0.335397 0.498018 0.354777
0.361404 0.508377 0.361333
0.389586 0.521012 0.369256
0.418972 0.534464 0.377598
0.448706 0.547988 0.385790
0.477929 0.561041 0.393428
0.506527 0.573415 0.400488
0.534114 0.584863 0.406828
0.561590 0.595622 0.412646
0.588372 0.605428 0.417884
0.613390 0.613950 0.422377
0.637528 0.621578 0.426315
0.660353 0.628473 0.429689
0.678366 0.633460 0.432088
0.678366 0.633460 0.432088
0.678366 0.633460 0.432088
0.678366 0.633460 0.432088
0.678366 0.633460 0.432088
0.678366 0.633460 0.432088
0.678366 0.633460 0.432088
0.678366 0.633460 0.432088
0.302889 0.474271 0.339282
0.302889 0.474271 0.339282
0.302889 0.474271 0.339282
0.302889 0.474271 0.339282
0.302889 0.474271 0.339282
0.302889 0.474271 0.339282
0.302889 0.474271 0.339282
0.302889 0.474271 0.339282
0.302889 0.474271 0.339282
0.302889 0.474271 0.339282
0.302889 0.474271 0.339282
0.312131 0.488782 0.349654
0.333366 0.497318 0.354340
0.359069 0.507373 0.360705
0.386933 0.519820 0.368510
0.416006 0.533105 0.376761
0.445470 0.546549 0.384921
0.474395 0.559493 0.392542
0.502655 0.571765 0.399569
0.529951 0.583167 0.405898
0.556885 0.593809 0.411678
0.583151 0.603581 0.416898
0.607649 0.612056 0.421387
0.631196 0.619606 0.425316
0.653019 0.626370 0.428674
