滤镜资源/Lutify.me Free 3D LUTs Package/3D LUTs/Color Grading LUTs/RED IPP2/Howlite - IPP2.cube
# Website: https://lutify.me
# Contact: help@lutify.me
# Created by: Lutify.me
# Copyright: (c) Copyright Lutify.me 2016, G.T. Colord LTD
LUT_3D_SIZE 33
0.000000 0.000000 0.000000
0.000000 0.000000 0.000000
0.000012 0.000002 0.000002
0.089587 0.019465 0.016031
0.124277 0.059823 0.049509
0.147409 0.084742 0.070321
0.174791 0.096608 0.092238
0.210861 0.104984 0.100074
0.252458 0.114903 0.108938
0.293258 0.125967 0.117869
0.328219 0.136199 0.125723
0.359560 0.145418 0.133157
0.389579 0.153744 0.140131
0.419002 0.161232 0.146583
0.423074 0.162247 0.147460
0.423074 0.162247 0.147460
0.423074 0.162247 0.147460
0.423074 0.162247 0.147460
0.423074 0.162247 0.147460
0.423074 0.162247 0.147460
0.423074 0.162247 0.147460
0.423074 0.162247 0.147460
0.423074 0.162247 0.147460
0.423074 0.162247 0.147460
0.423074 0.162247 0.147460
0.423074 0.162247 0.147460
0.423074 0.162247 0.147460
0.423074 0.162247 0.147460
0.423074 0.162247 0.147460
0.423074 0.162247 0.147460
0.423074 0.162247 0.147460
0.423074 0.162247 0.147460
0.423074 0.162247 0.147460
0.000000 0.000000 0.000000
0.000000 0.000000 0.000000
0.000012 0.000002 0.000002
0.089587 0.019465 0.016031
0.124277 0.059823 0.049509
0.147409 0.084742 0.070321
0.174791 0.096608 0.092238
0.210861 0.104984 0.100074
0.252458 0.114903 0.108938
0.293258 0.125967 0.117869
0.328219 0.136199 0.125723
0.359560 0.145418 0.133157
0.389579 0.153744 0.140131
0.419002 0.161232 0.146583
0.423074 0.162247 0.147460
0.423074 0.162247 0.147460
0.423074 0.162247 0.147460
0.423074 0.162247 0.147460
0.423074 0.162247 0.147460
0.423074 0.162247 0.147460
0.423074 0.162247 0.147460
0.423074 0.162247 0.147460
0.423074 0.162247 0.147460
0.423074 0.162247 0.147460
0.423074 0.162247 0.147460
0.423074 0.162247 0.147460
0.423074 0.162247 0.147460
0.423074 0.162247 0.147460
0.423074 0.162247 0.147460
0.423074 0.162247 0.147460
0.423074 0.162247 0.147460
0.423074 0.162247 0.147460
0.423074 0.162247 0.147460
0.000004 0.000009 0.000003
0.000004 0.000009 0.000003
0.000011 0.000009 0.000004
0.089584 0.019464 0.016031
0.124276 0.059823 0.049508
0.147409 0.084741 0.070321
0.174791 0.096608 0.092238
0.210860 0.104984 0.100074
0.252457 0.114903 0.108938
0.293258 0.125967 0.117869
0.328219 0.136199 0.125723
0.359560 0.145418 0.133157
0.389579 0.153744 0.140131
0.419002 0.161232 0.146583
0.423074 0.162247 0.147460
0.423074 0.162247 0.147460
0.423074 0.162247 0.147460
0.423074 0.162247 0.147460
0.423074 0.162247 0.147460
0.423074 0.162247 0.147460
0.423074 0.162247 0.147460
0.423074 0.162247 0.147460
0.423074 0.162247 0.147460
0.423074 0.162247 0.147460
0.423074 0.162247 0.147460
0.423074 0.162247 0.147460
0.423074 0.162247 0.147460
0.423074 0.162247 0.147460
0.423074 0.162247 0.147460
0.423074 0.162247 0.147460
0.423074 0.162247 0.147460
0.423074 0.162247 0.147460
0.423074 0.162247 0.147460
0.033733 0.073364 0.029625
0.033733 0.073364 0.029625
0.033733 0.073363 0.029624
0.085177 0.078588 0.034027
0.122277 0.081105 0.061481
0.144496 0.086780 0.074096
0.169853 0.095559 0.088958
0.205404 0.103694 0.098993
0.247372 0.113635 0.107791
0.288934 0.124717 0.116909
0.324566 0.135116 0.124854
0.356050 0.144404 0.132323
0.386028 0.152816 0.139329
0.415275 0.160311 0.145788
0.423074 0.162247 0.147460
0.423074 0.162247 0.147460
0.423074 0.162247 0.147460
0.423074 0.162247 0.147460
0.423074 0.162247 0.147460
0.423074 0.162247 0.147460
0.423074 0.162247 0.147460
0.423074 0.162247 0.147460
0.423074 0.162247 0.147460
0.423074 0.162247 0.147460
0.423074 0.162247 0.147460
0.423074 0.162247 0.147460
0.423074 0.162247 0.147460
0.423074 0.162247 0.147460
0.423074 0.162247 0.147460
0.423074 0.162247 0.147460
0.423074 0.162247 0.147460
0.423074 0.162247 0.147460
0.423074 0.162247 0.147460
0.094335 0.117114 0.092036
0.094335 0.117114 0.092036
0.094335 0.117114 0.092036
0.093608 0.115729 0.091398
0.122026 0.116703 0.094281
0.147063 0.118094 0.098229
0.169577 0.119336 0.101626
0.200333 0.121900 0.105852
0.239636 0.127129 0.111797
0.281211 0.134091 0.119044
0.317143 0.140018 0.125601
0.347814 0.144316 0.131209
0.376983 0.150371 0.137251
0.405930 0.157988 0.143790
0.423074 0.162247 0.147460
0.423074 0.162247 0.147460
0.423074 0.162247 0.147460
0.423074 0.162247 0.147460
0.423074 0.162247 0.147460
0.423074 0.162247 0.147460
0.423074 0.162247 0.147460
0.423074 0.162247 0.147460
0.423074 0.162247 0.147460
0.423074 0.162247 0.147460
0.423074 0.162247 0.147460
0.423074 0.162247 0.147460
0.423074 0.162247 0.147460
0.423074 0.162247 0.147460
0.423074 0.162247 0.147460
0.423074 0.162247 0.147460
0.423074 0.162247 0.147460
0.423074 0.162247 0.147460
0.423074 0.162247 0.147460
0.106210 0.143126 0.103031
0.106210 0.143126 0.103031
0.106210 0.143125 0.103031
0.105603 0.141484 0.102466
0.120226 0.140212 0.103077
0.148525 0.141407 0.105522
0.171761 0.141967 0.108199
0.199203 0.144220 0.112533
0.235937 0.149255 0.118540
0.277899 0.155973 0.126004
0.315399 0.161909 0.133249
0.347050 0.166068 0.139227
0.375760 0.169367 0.144325
0.403283 0.172234 0.148905
0.427235 0.174136 0.152487
0.425855 0.170218 0.150837
0.424580 0.166578 0.149305
0.423430 0.163269 0.147896
0.423074 0.162247 0.147460
0.423074 0.162247 0.147460
0.423074 0.162247 0.147460
0.423074 0.162247 0.147460
0.423074 0.162247 0.147460
0.423074 0.162247 0.147460
0.423074 0.162247 0.147460
0.423074 0.162247 0.147460
0.423074 0.162247 0.147460
0.423074 0.162247 0.147460
0.423074 0.162247 0.147460
0.423074 0.162247 0.147460
0.423074 0.162247 0.147460
0.423074 0.162247 0.147460
0.423074 0.162247 0.147460
0.118465 0.174679 0.113923
0.118465 0.174679 0.113923
0.118465 0.174679 0.113923
0.117741 0.172881 0.113290
0.118997 0.168954 0.112110
0.149056 0.169866 0.114386
0.174526 0.169889 0.116115
0.199812 0.170169 0.118798
0.233778 0.173452 0.125213
0.274571 0.179642 0.134186
0.313349 0.185448 0.142175
0.346301 0.189298 0.148365
0.375459 0.192134 0.153359
0.403129 0.194619 0.157755
0.430051 0.196762 0.161715
0.434889 0.194498 0.161309
0.433553 0.191128 0.159796
0.432352 0.188069 0.158436
0.431271 0.185274 0.157228
0.430340 0.182700 0.156142
0.429506 0.180396 0.155170
0.428776 0.178420 0.154325
0.428156 0.176731 0.153600
0.427621 0.175224 0.152954
0.427170 0.173953 0.152410
0.426782 0.172848 0.151941
0.426452 0.171913 0.151544
0.426164 0.171095 0.151200
0.425920 0.170401 0.150913
0.425705 0.169790 0.150660
0.425520 0.169266 0.150443
0.425351 0.168792 0.150247
0.425273 0.168573 0.150155
0.136798 0.213667 0.129388
0.136798 0.213667 0.129388
0.136798 0.213667 0.129388
0.135775 0.211683 0.128490
0.133172 0.206607 0.126251
0.151207 0.205077 0.126877
0.179551 0.204775 0.128921
0.202723 0.203543 0.130371
0.233556 0.203721 0.133727
0.272771 0.207312 0.143268
0.311995 0.211983 0.152454
0.346086 0.215680 0.159538
0.375815 0.217826 0.164215
0.403624 0.219588 0.168272
0.430574 0.221246 0.172034
0.446100 0.220762 0.173508
0.444578 0.217489 0.171902
0.443231 0.214396 0.170469
0.442021 0.211608 0.169180
0.440961 0.209188 0.168049
0.440058 0.207004 0.167046
0.439278 0.205127 0.166184
0.438610 0.203531 0.165456
0.438016 0.202139 0.164820
0.437526 0.200955 0.164271
0.437102 0.199918 0.163786
0.436744 0.199040 0.163375
0.436430 0.198272 0.163016
0.436164 0.197620 0.162710
0.435932 0.197052 0.162450
0.435739 0.196573 0.162236
0.435565 0.196140 0.162043
0.435484 0.195941 0.161954
0.161738 0.257255 0.151662
0.161738 0.257255 0.151662
0.161738 0.257255 0.151662
0.160667 0.255491 0.150693
0.157924 0.250992 0.148208
0.156844 0.247003 0.146174
0.187078 0.246367 0.148240
0.210943 0.244866 0.149596
0.236606 0.243405 0.151318
0.273197 0.243542 0.155173
0.313109 0.246053 0.164838
0.349140 0.248337 0.172567
0.379356 0.249650 0.178223
0.406897 0.250518 0.182580
0.433505 0.251017 0.185905
0.459632 0.251656 0.188750
0.459440 0.248196 0.187131
0.457697 0.244806 0.185478
0.456169 0.241698 0.183922
0.454926 0.239201 0.182729
0.453814 0.236953 0.181629
0.452853 0.234971 0.180621
0.452035 0.233288 0.179767
0.451322 0.231819 0.179027
0.450721 0.230572 0.178397
0.450242 0.229560 0.177889
0.449840 0.228708 0.177461
0.449487 0.227965 0.177087
0.449187 0.227336 0.176770
0.448923 0.226784 0.176491
0.448695 0.226309 0.176251
0.448488 0.225880 0.176035
0.448393 0.225682 0.175935
0.189314 0.303375 0.176660
0.189314 0.303375 0.176660
0.189313 0.303375 0.176659
0.188372 0.301683 0.175753
0.185917 0.297293 0.173399
0.183652 0.293429 0.171321
0.195382 0.290890 0.170990
0.222374 0.289830 0.172715
0.244340 0.287819 0.173743
0.275768 0.286930 0.176513
0.315437 0.287468 0.180942
0.354643 0.288537 0.188123
0.387446 0.289146 0.194425
0.416029 0.289172 0.198628
0.442786 0.289133 0.202552
0.468621 0.289081 0.205788
0.482903 0.287281 0.206341
0.480427 0.283483 0.204566
0.478215 0.280067 0.202971
0.476367 0.277225 0.201649
0.474723 0.274676 0.200455
0.473302 0.272450 0.199419
0.472092 0.270558 0.198541
0.471045 0.268905 0.197769
0.470182 0.267508 0.197116
0.469478 0.266328 0.196531
0.468906 0.265350 0.196026
0.468406 0.264494 0.195584
0.467981 0.263767 0.195209
0.467614 0.263126 0.194876
0.467305 0.262571 0.194585
0.467025 0.262070 0.194323
0.466897 0.261841 0.194203
0.213116 0.347386 0.198624
0.213116 0.347386 0.198624
0.213116 0.347386 0.198624
0.212295 0.345815 0.197902
0.210125 0.341718 0.195987
0.208203 0.338110 0.194280
0.206107 0.334199 0.192384
0.230974 0.333325 0.193950
0.253902 0.331828 0.195240
0.280078 0.330520 0.197102
0.317021 0.330830 0.200687
0.358344 0.331705 0.204877
0.395432 0.331936 0.208779
0.426453 0.331808 0.214092
0.454909 0.331510 0.218370
0.482000 0.331214 0.221867
0.508587 0.330785 0.224468
0.510101 0.327478 0.223869
0.507425 0.323886 0.222582
0.505185 0.320709 0.221292
0.503218 0.317855 0.220091
0.501552 0.315370 0.218984
0.500141 0.313258 0.218095
0.498878 0.311414 0.217319
0.497843 0.309857 0.216618
0.496950 0.308497 0.216036
0.496201 0.307371 0.215557
0.495543 0.306387 0.215137
0.494963 0.305552 0.214782
0.494464 0.304819 0.214457
0.494046 0.304189 0.214164
0.493668 0.303619 0.213901
0.493494 0.303357 0.213783
0.232145 0.388065 0.216770
0.232145 0.388065 0.216770
0.232145 0.388065 0.216769
0.231502 0.386605 0.216167
0.229825 0.382792 0.214592
0.228332 0.379419 0.213132
0.226703 0.375749 0.211520
0.235606 0.373216 0.211214
0.261748 0.372850 0.213320
0.284820 0.371652 0.214919
0.317910 0.371973 0.217930
0.359187 0.373481 0.221994
0.399327 0.374639 0.225606
0.433938 0.374606 0.228089
0.464894 0.374382 0.231632
0.494078 0.374185 0.235392
0.522349 0.373970 0.238764
0.543045 0.372717 0.240029
0.540389 0.369065 0.238718
0.537974 0.365869 0.237632
0.535780 0.363000 0.236723
0.533890 0.360509 0.235921
0.532270 0.358391 0.235238
0.530910 0.356543 0.234639
0.529772 0.354980 0.234133
0.528779 0.353614 0.233693
0.527949 0.352448 0.233296
0.527228 0.351406 0.232895
0.526616 0.350522 0.232555
0.526078 0.349745 0.232256
0.525615 0.349076 0.232000
0.525197 0.348472 0.231769
0.525004 0.348194 0.231662
0.247946 0.425821 0.231161
0.247946 0.425821 0.231161
0.247946 0.425821 0.231161
0.247367 0.424363 0.230631
0.245871 0.420599 0.229264
0.244552 0.417281 0.228059
0.243107 0.413676 0.226745
0.241436 0.409623 0.225251
0.265844 0.409482 0.227127
0.289124 0.408767 0.228803
0.317979 0.408975 0.231250
0.357510 0.410975 0.235139
0.399660 0.413219 0.239134
0.437242 0.414342 0.242183
0.470576 0.414640 0.244426
0.502054 0.414532 0.246332
0.532426 0.414586 0.249583
0.562322 0.414675 0.252388
0.571836 0.412626 0.253051
0.569435 0.409409 0.252125
0.567345 0.406566 0.251258
0.565519 0.404084 0.250528
0.564010 0.402001 0.249883
0.562731 0.400208 0.249297
0.561612 0.398689 0.248802
0.560612 0.397359 0.248370
0.559755 0.396189 0.247987
0.559038 0.395169 0.247653
0.558430 0.394303 0.247370
0.557895 0.393542 0.247122
0.557436 0.392888 0.246908
0.556996 0.392297 0.246714
0.556793 0.392024 0.246625
0.261246 0.463176 0.243930
0.261246 0.463176 0.243930
0.261246 0.463176 0.243930
0.260725 0.461613 0.243427
0.259398 0.457626 0.242143
0.258212 0.454153 0.240987
0.256914 0.450378 0.239719
0.255434 0.446115 0.238276
0.267181 0.443892 0.238539
0.293315 0.443928 0.240684
0.318454 0.443689 0.242665
0.354769 0.445561 0.246089
0.397357 0.448403 0.250110
0.437627 0.450529 0.253364
0.473082 0.451555 0.255736
0.505745 0.451933 0.257612
0.537821 0.452105 0.259216
0.569891 0.452217 0.260607
0.601469 0.452460 0.262928
0.599122 0.449402 0.262360
0.597037 0.446680 0.261853
0.595221 0.444300 0.261410
0.593730 0.442316 0.261024
0.592386 0.440584 0.260682
0.591239 0.439036 0.260286
0.590238 0.437683 0.259941
0.589396 0.436544 0.259647
0.588691 0.435578 0.259385
0.588089 0.434757 0.259162
0.587553 0.434035 0.258967
0.587085 0.433413 0.258803
0.586662 0.432851 0.258654
0.586467 0.432592 0.258586
0.273146 0.501241 0.255068
0.273146 0.501241 0.255068
0.273146 0.501241 0.255068
0.272635 0.499517 0.254610
0.271333 0.495137 0.253443
0.270185 0.491387 0.252414
0.268927 0.487284 0.251282
0.267507 0.482722 0.249935
0.267380 0.477909 0.248606
0.296659 0.478704 0.251142
0.319853 0.478196 0.252724
0.352424 0.479592 0.255466
0.394035 0.482647 0.259147
0.436107 0.485489 0.262540
0.473809 0.487127 0.265130
0.507755 0.487915 0.267116
0.540757 0.488400 0.268805
0.573451 0.488682 0.270246
0.606599 0.488861 0.271511
0.626696 0.487850 0.271933
0.624621 0.484958 0.271142
0.622807 0.482420 0.270448
0.621295 0.480259 0.269854
0.620045 0.478394 0.269335
0.618988 0.476817 0.268896
0.618064 0.475440 0.268513
0.617282 0.474274 0.268189
0.616598 0.473253 0.267905
0.616020 0.472401 0.267664
0.615512 0.471655 0.267452
0.615075 0.471015 0.267270
0.614680 0.470436 0.267106
0.614498 0.470169 0.267030
0.283835 0.539925 0.264570
0.283835 0.539925 0.264570
0.283835 0.539925 0.264570
0.283554 0.538845 0.264322
0.282267 0.533891 0.263183
0.281132 0.529575 0.262181
0.279893 0.525045 0.261089
0.278489 0.519951 0.259848
0.276897 0.514275 0.258433
0.298397 0.513428 0.259815
0.322221 0.513055 0.261462
0.351082 0.513789 0.263698
0.390543 0.516867 0.267104
0.433593 0.520351 0.270638
0.473466 0.522702 0.273498
0.508951 0.523967 0.275637
0.542728 0.524690 0.277374
0.576172 0.525145 0.278866
0.609930 0.525495 0.280174
0.643216 0.525749 0.281334
0.651380 0.523557 0.281095
0.649486 0.520805 0.280408
0.647874 0.518480 0.279823
0.646468 0.516452 0.279313
0.645278 0.514734 0.278882
0.644245 0.513234 0.278510
0.643372 0.511976 0.278196
0.642608 0.510875 0.277920
0.641959 0.509940 0.277686
0.641388 0.509118 0.277480
0.640898 0.508412 0.277304
0.640455 0.507773 0.277144
0.640251 0.507479 0.277070
0.283835 0.539925 0.264570
0.283835 0.539925 0.264570
0.283835 0.539925 0.264570
0.283835 0.539925 0.264570
0.283835 0.539925 0.264570
0.283835 0.539925 0.264570
0.283835 0.539925 0.264570
0.283835 0.539925 0.264570
0.283835 0.539925 0.264570
0.297626 0.543564 0.266322
0.325130 0.549092 0.269463
0.350815 0.549075 0.271284
0.387468 0.551909 0.274364
0.430514 0.555939 0.277933
0.472210 0.559122 0.280996
0.509400 0.561117 0.283299
0.544087 0.562058 0.285107
0.578197 0.562751 0.286621
0.612481 0.563204 0.287944
0.646405 0.563658 0.289088
0.679398 0.563614 0.289975
0.677170 0.560392 0.289324
0.675340 0.557775 0.288770
0.673742 0.555490 0.288286
0.672392 0.553558 0.287877
0.671212 0.551871 0.287519
0.670213 0.550456 0.287217
0.669339 0.549230 0.286952
0.668592 0.548187 0.286726
0.667935 0.547268 0.286526
0.667370 0.546479 0.286355
0.666859 0.545765 0.286200
0.666624 0.545437 0.286129
0.283835 0.539925 0.264570
0.283835 0.539925 0.264570
0.283835 0.539925 0.264570
0.283835 0.539925 0.264570
0.283835 0.539925 0.264570
0.283835 0.539925 0.264570
0.283835 0.539925 0.264570
0.283835 0.539925 0.264570
0.283835 0.539925 0.264570
0.288604 0.541188 0.265175
0.319145 0.549298 0.269057
0.344519 0.556125 0.272265
0.379740 0.565629 0.276517
0.423503 0.577167 0.281497
0.467980 0.588323 0.286079
0.508754 0.597869 0.289794
0.545056 0.600982 0.291982
0.579787 0.601873 0.293546
0.614544 0.602528 0.294880
0.649037 0.603044 0.296026
0.685810 0.603338 0.297042
0.705527 0.602024 0.297279
0.703440 0.598910 0.296732
0.701617 0.596192 0.296254
0.700097 0.593920 0.295849
0.698811 0.591986 0.295496
0.697722 0.590348 0.295197
0.696770 0.588916 0.294936
0.695961 0.587699 0.294714
0.695249 0.586633 0.294512
0.694637 0.585717 0.294339
0.694083 0.584888 0.294182
0.693828 0.584507 0.294110
0.283835 0.539925 0.264570
0.283835 0.539925 0.264570
0.283835 0.539925 0.264570
0.283835 0.539925 0.264570
0.283835 0.539925 0.264570
0.283835 0.539925 0.264570
0.283835 0.539925 0.264570
0.283835 0.539925 0.264570
0.283835 0.539925 0.264570
0.283835 0.539925 0.264570
0.312672 0.547582 0.268262
0.337564 0.554298 0.271410
0.369674 0.562877 0.275328
0.411210 0.573933 0.280150
0.455503 0.585303 0.284845
0.496428 0.595105 0.288714
0.533910 0.603235 0.291885
0.569898 0.610391 0.294531
0.605990 0.616739 0.296897
0.641603 0.622233 0.298834
0.679222 0.627451 0.300597
0.718932 0.631992 0.302131
0.725968 0.632731 0.302380
0.725968 0.632731 0.302380
0.725968 0.632731 0.302380
0.725968 0.632731 0.302380
0.725547 0.632077 0.302276
0.724479 0.630417 0.302012
0.723572 0.629007 0.301787
0.722774 0.627768 0.301589
0.722089 0.626703 0.301420
0.721469 0.625739 0.301266
0.721184 0.625296 0.301195
0.283835 0.539925 0.264570
0.283835 0.539925 0.264570
0.283835 0.539925 0.264570
0.283835 0.539925 0.264570
0.283835 0.539925 0.264570
0.283835 0.539925 0.264570
0.283835 0.539925 0.264570
0.283835 0.539925 0.264570
0.283835 0.539925 0.264570
0.283835 0.539925 0.264570
0.306387 0.545890 0.267453
0.332028 0.552800 0.270682
0.361556 0.560603 0.274341
0.400793 0.571235 0.278984
0.444439 0.582566 0.283702
0.485747 0.592584 0.287734
0.523134 0.600970 0.291007
0.558088 0.608111 0.293701
0.592777 0.614490 0.296037
0.626679 0.619986 0.298047
0.661393 0.625105 0.299805
0.697686 0.629646 0.301339
0.725968 0.632731 0.302380
0.725968 0.632731 0.302380
0.725968 0.632731 0.302380
0.725968 0.632731 0.302380
0.725968 0.632731 0.302380
0.725968 0.632731 0.302380
0.725968 0.632731 0.302380
0.725968 0.632731 0.302380
0.725968 0.632731 0.302380
0.725968 0.632731 0.302380
0.725968 0.632731 0.302380
0.283835 0.539925 0.264570
0.283835 0.539925 0.264570
0.283835 0.539925 0.264570
0.283835 0.539925 0.264570
0.283835 0.539925 0.264570
0.283835 0.539925 0.264570
0.283835 0.539925 0.264570
0.283835 0.539925 0.264570
0.283835 0.539925 0.264570
0.283835 0.539925 0.264570
0.300405 0.544291 0.266676
0.327514 0.551591 0.270135
0.354682 0.558769 0.273501
0.391819 0.568838 0.277927
0.434531 0.580073 0.282706
0.476066 0.590255 0.286828
0.513483 0.598901 0.290199
0.547882 0.606065 0.292944
0.581386 0.612495 0.295298
0.613928 0.618040 0.297379
0.646714 0.622999 0.299094
0.679969 0.627545 0.300629
0.713338 0.631406 0.301933
0.725968 0.632731 0.302380
0.725968 0.632731 0.302380
0.725968 0.632731 0.302380
0.725968 0.632731 0.302380
0.725968 0.632731 0.302380
0.725968 0.632731 0.302380
0.725968 0.632731 0.302380
0.725968 0.632731 0.302380
0.725968 0.632731 0.302380
0.725968 0.632731 0.302380
0.283835 0.539925 0.264570
0.283835 0.539925 0.264570
0.283835 0.539925 0.264570
0.283835 0.539925 0.264570
0.283835 0.539925 0.264570
0.283835 0.539925 0.264570
0.283835 0.539925 0.264570
0.283835 0.539925 0.264570
0.283835 0.539925 0.264570
0.283835 0.539925 0.264570
0.294914 0.542854 0.265976
0.323560 0.550519 0.269640
0.349127 0.557318 0.272820
0.384313 0.566846 0.277052
0.426055 0.577848 0.281783
0.467410 0.588188 0.286026
0.505097 0.597065 0.289478
0.539083 0.604265 0.292280
0.571703 0.610734 0.294655
0.603345 0.616296 0.296727
0.634766 0.621195 0.298470
0.665809 0.625714 0.300010
0.697058 0.629574 0.301314
0.725968 0.632731 0.302380
0.725968 0.632731 0.302380
0.725968 0.632731 0.302380
0.725968 0.632731 0.302380
0.725968 0.632731 0.302380
0.725968 0.632731 0.302380
0.725968 0.632731 0.302380
0.725968 0.632731 0.302380
0.725968 0.632731 0.302380
0.725968 0.632731 0.302380
0.283835 0.539925 0.264570
0.283835 0.539925 0.264570
0.283835 0.539925 0.264570
0.283835 0.539925 0.264570
0.283835 0.539925 0.264570
0.283835 0.539925 0.264570
0.283835 0.539925 0.264570
0.283835 0.539925 0.264570
0.283835 0.539925 0.264570
0.283835 0.539925 0.264570
0.290171 0.541603 0.265374
0.320160 0.549579 0.269191
0.344713 0.556176 0.272288
0.378037 0.565169 0.276316
0.418906 0.575940 0.280981
0.460227 0.586462 0.285334
0.497845 0.595438 0.288844
0.531749 0.602791 0.291714
0.563781 0.609223 0.294109
0.594612 0.614803 0.296154
0.624920 0.619727 0.297958
0.654507 0.624157 0.299484
0.683920 0.628017 0.300788
0.713161 0.631387 0.301927
0.725968 0.632731 0.302380
0.725968 0.632731 0.302380
0.725968 0.632731 0.302380
0.725968 0.632731 0.302380
0.725968 0.632731 0.302380
0.725968 0.632731 0.302380
0.725968 0.632731 0.302380
0.725968 0.632731 0.302380
0.725968 0.632731 0.302380
0.283835 0.539925 0.264570
0.283835 0.539925 0.264570
0.283835 0.539925 0.264570
0.283835 0.539925 0.264570
0.283835 0.539925 0.264570
0.283835 0.539925 0.264570
0.283835 0.539925 0.264570
0.283835 0.539925 0.264570
0.283835 0.539925 0.264570
0.283835 0.539925 0.264570
0.285994 0.540497 0.264844
0.317030 0.548732 0.268793
0.341079 0.555229 0.271850
0.372959 0.563781 0.275718
0.412654 0.574307 0.280305
0.453795 0.584883 0.284667
0.491737 0.594004 0.288286
0.525491 0.601473 0.291202
0.557006 0.607901 0.293623
0.587140 0.613511 0.295675
0.616636 0.618468 0.297526
0.645325 0.622791 0.299023
0.673087 0.626658 0.300329
0.701006 0.630028 0.301468
0.725968 0.632731 0.302380
0.725968 0.632731 0.302380
0.725968 0.632731 0.302380
0.725968 0.632731 0.302380
0.725968 0.632731 0.302380
0.725968 0.632731 0.302380
0.725968 0.632731 0.302380
0.725968 0.632731 0.302380
0.725968 0.632731 0.302380
0.283835 0.539925 0.264570
0.283835 0.539925 0.264570
0.283835 0.539925 0.264570
0.283835 0.539925 0.264570
0.283835 0.539925 0.264570
0.283835 0.539925 0.264570
0.283835 0.539925 0.264570
0.283835 0.539925 0.264570
0.283835 0.539925 0.264570
0.283835 0.539925 0.264570
0.283835 0.539925 0.264570
0.314217 0.547990 0.268450
0.338131 0.554451 0.271484
0.368703 0.562608 0.275211
0.407437 0.572966 0.279738
0.448393 0.583547 0.284104
0.486463 0.592754 0.287800
0.520268 0.600358 0.290770
0.551427 0.606781 0.293209
0.580965 0.612420 0.295270
0.609901 0.617394 0.297148
0.637807 0.621657 0.298632
0.664322 0.625509 0.299941
0.691128 0.628878 0.301079
0.716416 0.631728 0.302042
0.725968 0.632731 0.302380
0.725968 0.632731 0.302380
0.725968 0.632731 0.302380
0.725968 0.632731 0.302380
0.725968 0.632731 0.302380
0.725968 0.632731 0.302380
0.725968 0.632731 0.302380
0.725968 0.632731 0.302380
0.283835 0.539925 0.264570
0.283835 0.539925 0.264570
0.283835 0.539925 0.264570
0.283835 0.539925 0.264570
0.283835 0.539925 0.264570
0.283835 0.539925 0.264570
0.283835 0.539925 0.264570
0.283835 0.539925 0.264570
0.283835 0.539925 0.264570
0.283835 0.539925 0.264570
0.283835 0.539925 0.264570
0.311761 0.547343 0.268151
0.335751 0.553810 0.271173
0.365192 0.561623 0.274785
0.402984 0.571814 0.279240
0.443628 0.582365 0.283622
0.481800 0.591641 0.287367
0.515659 0.599369 0.290383
0.546610 0.605806 0.292847
0.575639 0.611460 0.294918
0.604150 0.616431 0.296779
0.631387 0.620683 0.298290
0.657034 0.624505 0.299602
0.682727 0.627875 0.300740
0.707068 0.630725 0.301703
0.725968 0.632731 0.302380
0.725968 0.632731 0.302380
0.725968 0.632731 0.302380
0.725968 0.632731 0.302380
0.725968 0.632731 0.302380
0.725968 0.632731 0.302380
0.725968 0.632731 0.302380
0.725968 0.632731 0.302380
0.283835 0.539925 0.264570
0.283835 0.539925 0.264570
0.283835 0.539925 0.264570
0.283835 0.539925 0.264570
0.283835 0.539925 0.264570
0.283835 0.539925 0.264570
0.283835 0.539925 0.264570
0.283835 0.539925 0.264570
0.283835 0.539925 0.264570
0.283835 0.539925 0.264570
0.283835 0.539925 0.264570
0.309504 0.546737 0.267862
0.333749 0.553267 0.270909
0.362326 0.560819 0.274435
0.399318 0.570844 0.278812
0.439584 0.581357 0.283219
0.477882 0.590698 0.287000
0.511696 0.598516 0.290049
0.542504 0.604960 0.292539
0.571182 0.610635 0.294620
0.599313 0.615616 0.296466
0.626042 0.619892 0.298015
0.651083 0.623655 0.299315
0.675920 0.627024 0.300453
0.699672 0.629874 0.301416
