滤镜资源/Lutify.me Free 3D LUTs Package/3D LUTs/Color Grading LUTs/RED IPP2/Hypersthene - IPP2.cube
# Website: https://lutify.me
# Contact: help@lutify.me
# Created by: Lutify.me
# Copyright: (c) Copyright Lutify.me 2016, G.T. Colord LTD
LUT_3D_SIZE 5
0.000000 0.000000 0.000000
0.220321 0.126432 0.106297
0.391442 0.213414 0.156675
0.391442 0.213414 0.156675
0.391442 0.213414 0.156675
0.149937 0.209807 0.140094
0.238146 0.230796 0.154237
0.434478 0.276318 0.192277
0.420821 0.260775 0.183335
0.417179 0.256593 0.180831
0.285442 0.441532 0.267765
0.285442 0.441532 0.267765
0.606711 0.582478 0.314948
0.632420 0.491965 0.306742
0.625165 0.481805 0.303577
0.285442 0.441532 0.267765
0.285442 0.441532 0.267765
0.486065 0.568223 0.312342
0.698026 0.584565 0.331188
0.693185 0.577461 0.329982
0.285442 0.441532 0.267765
0.285442 0.441532 0.267765
0.453225 0.544157 0.306658
0.723676 0.622149 0.337065
0.693185 0.577461 0.329982
0.097566 0.112443 0.220157
0.194584 0.119416 0.197150
0.371755 0.145021 0.155424
0.370091 0.141955 0.140901
0.369766 0.141134 0.137713
0.115611 0.155225 0.159102
0.211431 0.202777 0.198933
0.416380 0.252436 0.212797
0.405763 0.234479 0.193326
0.402716 0.229104 0.187427
0.284484 0.439220 0.268778
0.274523 0.416829 0.257838
0.557760 0.518549 0.298490
0.594394 0.438355 0.284128
0.589181 0.431274 0.279608
0.285442 0.441532 0.267765
0.285442 0.441532 0.267765
0.475030 0.560114 0.310499
0.705740 0.595892 0.333045
0.693185 0.577461 0.329982
0.285442 0.441532 0.267765
0.285442 0.441532 0.267765
0.443777 0.537139 0.304666
0.732418 0.635354 0.338963
0.693185 0.577461 0.329982
0.135522 0.180313 0.430304
0.249920 0.197011 0.434606
0.310839 0.185968 0.348749
0.310839 0.185968 0.348749
0.310839 0.185968 0.348749
0.155031 0.219316 0.443359
0.203013 0.204501 0.453203
0.321182 0.188515 0.351355
0.326400 0.189285 0.350765
0.328462 0.189725 0.351032
0.214739 0.319498 0.330625
0.203747 0.301223 0.313983
0.484765 0.472147 0.464151
0.608500 0.479960 0.455896
0.598928 0.469351 0.446621
0.254599 0.384307 0.346841
0.259855 0.393128 0.347625
0.475597 0.588958 0.457172
0.825995 0.750522 0.495200
0.781895 0.681730 0.482921
0.261386 0.395761 0.347775
0.265579 0.403818 0.347349
0.452465 0.570142 0.436934
0.803240 0.739569 0.478242
0.781243 0.683130 0.469708
0.135522 0.180313 0.430304
0.248074 0.197065 0.436132
0.310839 0.185968 0.348749
0.310839 0.185968 0.348749
0.310839 0.185968 0.348749
0.143869 0.197430 0.435731
0.197025 0.190280 0.439387
0.310839 0.185968 0.348749
0.310839 0.185968 0.348749
0.310839 0.185968 0.348749
0.217619 0.325769 0.406126
0.211299 0.321166 0.413915
0.471109 0.455300 0.617383
0.511810 0.427931 0.526920
0.504435 0.420126 0.520565
0.231094 0.345744 0.371794
0.231094 0.345744 0.371794
0.431916 0.501660 0.511004
0.822357 0.767758 0.739891
0.859297 0.763886 0.729836
0.231094 0.345744 0.371794
0.233959 0.352098 0.374112
0.417792 0.510072 0.508627
0.783544 0.847537 0.715798
0.939096 0.897051 0.728633
0.135522 0.180313 0.430304
0.247511 0.197082 0.436599
0.310839 0.185968 0.348749
0.310839 0.185968 0.348749
0.310839 0.185968 0.348749
0.140643 0.191001 0.433636
0.196179 0.189642 0.437110
0.310839 0.185968 0.348749
0.310839 0.185968 0.348749
0.310839 0.185968 0.348749
0.215220 0.323914 0.409420
0.208793 0.319069 0.417273
0.463303 0.442712 0.608360
0.500363 0.415732 0.517026
0.493452 0.408225 0.510938
0.231094 0.345744 0.371794
0.231094 0.345744 0.371794
0.426265 0.490356 0.516459
0.797076 0.743417 0.845261
0.820624 0.715050 0.769911
0.231094 0.345744 0.371794
0.231094 0.345744 0.371794
0.407088 0.481827 0.498079
0.740148 0.768232 0.758101
0.999987 0.999989 0.999989
