滤镜资源/Lutify.me Free 3D LUTs Package/3D LUTs/Color Grading LUTs/RED IPP2/Hypersthene - IPP2.cube
# Website: https://lutify.me
# Contact: help@lutify.me
# Created by: Lutify.me
# Copyright: (c) Copyright Lutify.me 2016, G.T. Colord LTD
LUT_3D_SIZE 9
0.000000 0.000000 0.000000
0.104961 0.033286 0.025299
0.220321 0.126432 0.106297
0.353376 0.196332 0.145215
0.391442 0.213414 0.156675
0.391442 0.213414 0.156675
0.391442 0.213414 0.156675
0.391442 0.213414 0.156675
0.391442 0.213414 0.156675
0.072305 0.097841 0.056219
0.109829 0.103114 0.075762
0.211386 0.132619 0.107562
0.339227 0.189616 0.140724
0.391442 0.213414 0.156675
0.391442 0.213414 0.156675
0.391442 0.213414 0.156675
0.391442 0.213414 0.156675
0.391442 0.213414 0.156675
0.149937 0.209807 0.140094
0.146655 0.204549 0.137095
0.238146 0.230796 0.154237
0.347356 0.255352 0.174500
0.434478 0.276318 0.192277
0.425621 0.266303 0.186511
0.420821 0.260775 0.183335
0.418415 0.258012 0.181679
0.417179 0.256593 0.180831
0.236881 0.342469 0.221959
0.234173 0.337828 0.219423
0.241070 0.327621 0.215442
0.399192 0.387879 0.247195
0.482752 0.361558 0.243952
0.524244 0.370713 0.247894
0.520191 0.366600 0.245366
0.517995 0.364389 0.244015
0.516888 0.363269 0.243314
0.285442 0.441532 0.267765
0.285442 0.441532 0.267765
0.285442 0.441532 0.267765
0.367105 0.470055 0.283800
0.606711 0.582478 0.314948
0.641037 0.504218 0.310456
0.632420 0.491965 0.306742
0.627731 0.485393 0.304691
0.625165 0.481805 0.303577
0.285442 0.441532 0.267765
0.285442 0.441532 0.267765
0.285442 0.441532 0.267765
0.335637 0.458014 0.279500
0.535000 0.602898 0.319470
0.743646 0.651960 0.341130
0.693185 0.577461 0.329982
0.693185 0.577461 0.329982
0.693185 0.577461 0.329982
0.285442 0.441532 0.267765
0.285442 0.441532 0.267765
0.285442 0.441532 0.267765
0.322095 0.453451 0.276300
0.486065 0.568223 0.312342
0.714934 0.650198 0.339033
0.698026 0.584565 0.331188
0.693185 0.577461 0.329982
0.693185 0.577461 0.329982
0.285442 0.441532 0.267765
0.285442 0.441532 0.267765
0.285442 0.441532 0.267765
0.315381 0.451272 0.274746
0.463742 0.551925 0.308541
0.680775 0.645424 0.336568
0.714653 0.608803 0.335064
0.693185 0.577461 0.329982
0.693185 0.577461 0.329982
0.285442 0.441532 0.267765
0.285442 0.441532 0.267765
0.285442 0.441532 0.267765
0.312193 0.450242 0.274008
0.453225 0.544157 0.306658
0.664556 0.642890 0.335275
0.723676 0.622149 0.337065
0.693185 0.577461 0.329982
0.693185 0.577461 0.329982
0.022420 0.039994 0.102884
0.101754 0.053195 0.098111
0.213407 0.109203 0.099161
0.349314 0.186734 0.141077
0.390164 0.209680 0.155127
0.391297 0.213018 0.156505
0.391442 0.213414 0.156675
0.391442 0.213414 0.156675
0.391442 0.213414 0.156675
0.033823 0.061246 0.077367
0.105879 0.099511 0.100480
0.207331 0.124312 0.109340
0.337407 0.187060 0.139521
0.391442 0.213414 0.156675
0.391442 0.213414 0.156675
0.391442 0.213414 0.156675
0.391442 0.213414 0.156675
0.391442 0.213414 0.156675
0.144776 0.201582 0.135417
0.141442 0.196306 0.132438
0.230569 0.220040 0.147952
0.343101 0.250781 0.171344
0.428245 0.269306 0.188272
0.420083 0.259925 0.182822
0.415701 0.254879 0.179810
0.413322 0.252017 0.178123
0.412138 0.250613 0.177286
0.232650 0.335222 0.217983
0.229943 0.330645 0.215391
0.236212 0.320368 0.211101
0.392711 0.378228 0.242919
0.476477 0.355834 0.240429
0.519509 0.365911 0.244943
0.515561 0.361925 0.242478
0.513410 0.359747 0.241137
0.512311 0.358627 0.240446
0.285442 0.441532 0.267765
0.285442 0.441532 0.267765
0.285442 0.441532 0.267765
0.362650 0.460812 0.280443
0.593634 0.564751 0.310803
0.631026 0.490013 0.306119
0.622101 0.477533 0.302242
0.617389 0.470695 0.300077
0.615001 0.467227 0.298964
0.285442 0.441532 0.267765
0.285442 0.441532 0.267765
0.285442 0.441532 0.267765
0.334711 0.457712 0.279286
0.531398 0.600490 0.318857
0.743836 0.652246 0.341109
0.693185 0.577461 0.329982
0.693185 0.577461 0.329982
0.693185 0.577461 0.329982
0.285442 0.441532 0.267765
0.285442 0.441532 0.267765
0.285442 0.441532 0.267765
0.321275 0.453184 0.276110
0.483270 0.566160 0.311880
0.710450 0.649627 0.338736
0.699901 0.587322 0.331654
0.693185 0.577461 0.329982
0.693185 0.577461 0.329982
0.285442 0.441532 0.267765
0.285442 0.441532 0.267765
0.285442 0.441532 0.267765
0.314636 0.451031 0.274574
0.461256 0.550080 0.308101
0.676883 0.644832 0.336266
0.716761 0.611826 0.335529
0.693185 0.577461 0.329982
0.693185 0.577461 0.329982
0.285442 0.441532 0.267765
0.285442 0.441532 0.267765
0.285442 0.441532 0.267765
0.311448 0.450000 0.273835
0.450797 0.542362 0.306219
0.661024 0.642298 0.334973
0.725793 0.625319 0.337535
0.693185 0.577461 0.329982
0.693185 0.577461 0.329982
0.097566 0.112443 0.220157
0.123799 0.115769 0.220053
0.194584 0.119416 0.197150
0.336960 0.143632 0.184080
0.371755 0.145021 0.155424
0.370571 0.143002 0.145390
0.370091 0.141955 0.140901
0.369876 0.141415 0.138797
0.369766 0.141134 0.137713
0.095777 0.110273 0.206778
0.109651 0.110455 0.205475
0.180705 0.114408 0.183139
0.322584 0.136335 0.165529
0.369789 0.141193 0.137939
0.369221 0.139851 0.131723
0.369822 0.142325 0.131372
0.370149 0.143679 0.131180
0.370316 0.144375 0.131070
0.115611 0.155225 0.159102
0.112959 0.148986 0.153719
0.211431 0.202777 0.198933
0.325377 0.231341 0.206470
0.416380 0.252436 0.212797
0.409483 0.240970 0.200291
0.405763 0.234479 0.193326
0.403745 0.230932 0.189482
0.402716 0.229104 0.187427
0.223220 0.318450 0.226609
0.220284 0.313684 0.222886
0.228418 0.306118 0.219026
0.373494 0.353147 0.242903
0.461417 0.344226 0.240670
0.507836 0.355523 0.243717
0.503486 0.350838 0.239572
0.501203 0.348261 0.237167
0.500028 0.346935 0.235929
0.284484 0.439220 0.268778
0.281936 0.433387 0.265729
0.274523 0.416829 0.257838
0.348893 0.434272 0.269592
0.557760 0.518549 0.298490
0.600793 0.450212 0.288540
0.594394 0.438355 0.284128
0.590947 0.433664 0.281145
0.589181 0.431274 0.279608
0.285442 0.441532 0.267765
0.285442 0.441532 0.267765
0.285442 0.441532 0.267765
0.331963 0.456812 0.278647
0.520866 0.593334 0.317031
0.744404 0.653099 0.341048
0.693185 0.577461 0.329982
0.693185 0.577461 0.329982
0.693185 0.577461 0.329982
0.285442 0.441532 0.267765
0.285442 0.441532 0.267765
0.285442 0.441532 0.267765
0.318831 0.452390 0.275544
0.475030 0.560114 0.310499
0.698196 0.647925 0.337857
0.705740 0.595892 0.333045
0.693185 0.577461 0.329982
0.693185 0.577461 0.329982
0.285442 0.441532 0.267765
0.285442 0.441532 0.267765
0.285442 0.441532 0.267765
0.312417 0.450314 0.274059
0.453952 0.544694 0.306790
0.665615 0.643067 0.335365
0.723044 0.621198 0.336924
0.693185 0.577461 0.329982
0.693185 0.577461 0.329982
0.285442 0.441532 0.267765
0.285442 0.441532 0.267765
0.285442 0.441532 0.267765
0.309301 0.449301 0.273334
0.443777 0.537139 0.304666
0.649907 0.640489 0.334175
0.732418 0.635354 0.338963
0.693185 0.577461 0.329982
0.693185 0.577461 0.329982
0.123801 0.160618 0.364798
0.146779 0.163266 0.363902
0.228774 0.170365 0.347967
0.298091 0.172344 0.311736
0.351642 0.188404 0.331389
0.350648 0.186114 0.323782
0.350067 0.184757 0.319333
0.349748 0.183976 0.316899
0.349586 0.183571 0.315673
0.121511 0.156231 0.351577
0.130846 0.156889 0.349633
0.218662 0.165614 0.337820
0.286413 0.166355 0.299741
0.349620 0.183655 0.315928
0.348637 0.181195 0.308494
0.348062 0.179756 0.304157
0.348342 0.179229 0.302264
0.348586 0.179001 0.301371
0.145634 0.211928 0.331629
0.142655 0.206438 0.327666
0.205198 0.199579 0.334216
0.275624 0.180047 0.285842
0.374687 0.190064 0.288463
0.370316 0.179918 0.279399
0.367690 0.174319 0.274284
0.365710 0.173257 0.272016
0.364692 0.172710 0.270849
0.169356 0.249489 0.256801
0.166517 0.244919 0.252897
0.178649 0.242159 0.250277
0.349016 0.340532 0.335384
0.456015 0.358810 0.337493
0.498601 0.358774 0.332164
0.491402 0.349373 0.323782
0.487383 0.344097 0.319023
0.485328 0.341409 0.316576
0.264518 0.396841 0.318778
0.262457 0.392219 0.315363
0.256343 0.378611 0.305284
0.351866 0.428171 0.339121
0.512171 0.482407 0.356420
0.590408 0.456512 0.348062
0.601313 0.454151 0.343832
0.596985 0.450029 0.340572
0.594819 0.447924 0.338906
0.293885 0.457613 0.327319
0.294609 0.459098 0.326179
0.294457 0.458941 0.321415
0.350833 0.489945 0.338422
0.491795 0.572964 0.362477
0.737483 0.646107 0.378448
0.686571 0.562084 0.366746
0.680461 0.554062 0.363392
0.677411 0.549977 0.361664
0.293757 0.457633 0.317451
0.293469 0.457074 0.315756
0.292615 0.455411 0.310731
0.331891 0.476108 0.321043
0.456994 0.550399 0.345317
0.683657 0.665246 0.373740
0.737534 0.636652 0.371398
0.713673 0.601950 0.364884
0.713240 0.601453 0.364191
0.292771 0.455713 0.311649
0.292494 0.455177 0.310019
0.291687 0.453617 0.305258
0.322766 0.469579 0.312589
0.439321 0.536106 0.336175
0.648681 0.656232 0.365751
0.751650 0.658389 0.369011
0.710128 0.597811 0.359041
0.709738 0.597362 0.358405
0.292288 0.454776 0.308800
0.292017 0.454254 0.307203
0.291219 0.452693 0.302566
0.318306 0.466417 0.308440
0.430781 0.529214 0.331662
0.633112 0.652156 0.361864
0.757320 0.668216 0.367485
0.713583 0.603200 0.357385
0.708038 0.595362 0.355590
0.135522 0.180313 0.430304
0.155085 0.183204 0.432074
0.249920 0.197011 0.434606
0.295238 0.191364 0.379436
0.310839 0.185968 0.348749
0.310839 0.185968 0.348749
0.310839 0.185968 0.348749
0.310839 0.185968 0.348749
0.310839 0.185968 0.348749
0.135522 0.180313 0.430304
0.141945 0.181258 0.430903
0.243903 0.197183 0.439581
0.290163 0.192731 0.388288
0.310839 0.185968 0.348749
0.310839 0.185968 0.348749
0.310839 0.185968 0.348749
0.310839 0.185968 0.348749
0.310839 0.185968 0.348749
0.155031 0.219316 0.443359
0.153005 0.215363 0.441928
0.203013 0.204501 0.453203
0.283400 0.197852 0.412494
0.321182 0.188515 0.351355
0.323936 0.188760 0.350443
0.326400 0.189285 0.350765
0.327761 0.189575 0.350941
0.328462 0.189725 0.351032
0.190027 0.287131 0.393649
0.188629 0.284701 0.391565
0.190905 0.283316 0.398048
0.342949 0.335010 0.463597
0.396297 0.315777 0.404126
0.444403 0.313818 0.412830
0.437673 0.305327 0.403851
0.434104 0.300729 0.399047
0.432284 0.298363 0.396607
0.214739 0.319498 0.330625
0.212003 0.314899 0.326447
0.203747 0.301223 0.313983
0.312925 0.360868 0.366672
0.484765 0.472147 0.464151
0.594361 0.487199 0.464235
0.608500 0.479960 0.455896
0.602130 0.472897 0.449752
0.598928 0.469351 0.446621
0.250070 0.377971 0.351539
0.250261 0.377634 0.349689
0.251916 0.379372 0.346430
0.322032 0.433325 0.385974
0.485588 0.557936 0.465597
0.672142 0.623361 0.483078
0.709950 0.579948 0.476838
0.705076 0.573813 0.472615
0.702605 0.570678 0.470468
0.254599 0.384307 0.346841
0.255813 0.386492 0.347031
0.259855 0.393128 0.347625
0.315197 0.446247 0.379422
0.475597 0.588958 0.457172
0.648229 0.707524 0.483837
0.825995 0.750522 0.495200
0.787003 0.689023 0.485374
0.781895 0.681730 0.482921
0.259105 0.391892 0.347520
0.260451 0.394122 0.347714
0.263715 0.400238 0.347529
0.307548 0.443101 0.371124
0.460099 0.576338 0.443682
0.608400 0.676242 0.468746
0.821351 0.745260 0.484281
0.790269 0.695946 0.477242
0.784879 0.687738 0.475091
0.261386 0.395761 0.347775
0.262438 0.397770 0.347663
0.265579 0.403818 0.347349
0.303862 0.441721 0.367054
0.452465 0.570142 0.436934
0.590423 0.661888 0.461253
0.803240 0.739569 0.478242
0.799314 0.711686 0.474435
0.781243 0.683130 0.469708
0.135522 0.180313 0.430304
0.152476 0.182804 0.431824
0.248751 0.197045 0.435569
0.294141 0.191673 0.381398
0.310839 0.185968 0.348749
0.310839 0.185968 0.348749
0.310839 0.185968 0.348749
0.310839 0.185968 0.348749
0.310839 0.185968 0.348749
0.135522 0.180313 0.430304
0.139242 0.180860 0.430651
0.242559 0.197194 0.440571
0.289240 0.192961 0.389832
0.310839 0.185968 0.348749
0.310839 0.185968 0.348749
0.310839 0.185968 0.348749
0.310839 0.185968 0.348749
0.310839 0.185968 0.348749
0.147872 0.205270 0.438367
0.145924 0.201446 0.437074
0.195572 0.191579 0.445950
0.278071 0.195345 0.407135
0.310839 0.185968 0.348749
0.310839 0.185968 0.348749
0.310839 0.185968 0.348749
0.310839 0.185968 0.348749
0.310839 0.185968 0.348749
0.197905 0.297945 0.445418
0.197279 0.296622 0.447214
0.197016 0.294825 0.464642
0.336313 0.326229 0.523084
0.384015 0.309894 0.467631
0.392786 0.293912 0.422539
0.386528 0.286263 0.417059
0.383115 0.282066 0.414059
0.381363 0.279899 0.412535
0.219237 0.327655 0.400249
0.218612 0.326797 0.403261
0.215007 0.323759 0.409697
0.318002 0.389652 0.484222
0.478334 0.465835 0.593929
0.527997 0.447352 0.527952
0.556278 0.445781 0.539444
0.552426 0.440284 0.534650
0.550453 0.437489 0.532263
0.236707 0.358238 0.376347
0.237555 0.360157 0.377051
0.232098 0.349770 0.366675
0.291141 0.378128 0.392001
0.449644 0.490108 0.492740
0.636314 0.613302 0.599490
0.752937 0.629014 0.601794
0.747256 0.617409 0.591677
0.741974 0.611078 0.586122
0.242033 0.370280 0.380743
0.242864 0.372230 0.381452
0.245283 0.377956 0.383439
0.290726 0.412955 0.409260
0.450977 0.538172 0.502453
0.634929 0.701039 0.599116
0.840468 0.764079 0.615155
0.819045 0.717215 0.605282
0.812497 0.708118 0.601125
0.244897 0.376973 0.383168
0.245544 0.378640 0.383553
0.247268 0.383226 0.384317
0.280230 0.404625 0.397226
0.437368 0.530479 0.488988
0.615351 0.707675 0.583575
0.820046 0.821707 0.610896
0.880612 0.819498 0.609320
0.872574 0.805508 0.606085
0.245992 0.379811 0.383748
0.246580 0.381347 0.384004
0.247167 0.383342 0.382130
0.275870 0.400861 0.391181
0.430760 0.526946 0.482443
0.600942 0.695741 0.571867
0.781311 0.806860 0.596805
0.881743 0.823187 0.600696
0.866107 0.796453 0.596331
0.135522 0.180313 0.430304
0.150969 0.182576 0.431690
0.248074 0.197065 0.436132
0.293500 0.191853 0.382543
0.310839 0.185968 0.348749
0.310839 0.185968 0.348749
0.310839 0.185968 0.348749
0.310839 0.185968 0.348749
0.310839 0.185968 0.348749
0.135522 0.180313 0.430304
0.137662 0.180628 0.430504
0.241162 0.197002 0.440663
0.288727 0.193085 0.390673
0.310839 0.185968 0.348749
0.310839 0.185968 0.348749
0.310839 0.185968 0.348749
0.310839 0.185968 0.348749
0.310839 0.185968 0.348749
0.143869 0.197430 0.435731
0.142002 0.193715 0.434520
0.197025 0.190280 0.439387
0.276883 0.195050 0.406778
0.310839 0.185968 0.348749
0.310839 0.185968 0.348749
0.310839 0.185968 0.348749
0.310839 0.185968 0.348749
0.310839 0.185968 0.348749
0.196515 0.295034 0.449071
0.195780 0.293543 0.450753
0.194898 0.290800 0.466085
0.329493 0.314688 0.515881
0.373368 0.297784 0.459391
0.383010 0.281937 0.413968
0.377032 0.274533 0.408767
0.373866 0.270522 0.405999
0.372241 0.268458 0.404576
0.217619 0.325769 0.406126
0.216271 0.324702 0.408014
0.211299 0.321166 0.413915
0.315199 0.389779 0.506304
0.471109 0.455300 0.617383
0.512056 0.438831 0.551133
0.511810 0.427931 0.526920
0.506939 0.422775 0.522725
0.504435 0.420126 0.520565
0.230124 0.343901 0.370998
0.228294 0.340423 0.369493
0.222689 0.330254 0.365131
0.289890 0.378096 0.424207
0.453366 0.510951 0.582171
0.630095 0.607134 0.727832
0.680657 0.589223 0.658874
0.686335 0.582559 0.658191
0.682811 0.577950 0.654219
0.231094 0.345744 0.371794
0.231094 0.345744 0.371794
0.231094 0.345744 0.371794
0.278174 0.381211 0.402066
0.431916 0.501660 0.511004
0.598052 0.628315 0.624413
0.822357 0.767758 0.739891
0.867441 0.775562 0.738698
0.859297 0.763886 0.729836
0.231094 0.345744 0.371794
0.231094 0.345744 0.371794
0.232458 0.348770 0.372900
0.270718 0.380551 0.397750
0.424763 0.513413 0.514219
0.588479 0.653370 0.623694
0.821496 0.874190 0.739390
0.932107 0.883581 0.743831
0.919298 0.864595 0.737051
0.231094 0.345744 0.371794
0.231421 0.346471 0.372061
0.233959 0.352098 0.374112
0.267186 0.380407 0.395741
0.417792 0.510072 0.508627
0.574982 0.642384 0.609182
0.783544 0.847537 0.715798
0.935713 0.897542 0.730763
0.939096 0.897051 0.728633
0.135522 0.180313 0.430304
0.150130 0.182451 0.431618
0.247702 0.197076 0.436440
0.293148 0.191952 0.383172
0.310839 0.185968 0.348749
0.310839 0.185968 0.348749
0.310839 0.185968 0.348749
0.310839 0.185968 0.348749
0.310839 0.185968 0.348749
0.135522 0.180313 0.430304
0.136797 0.180501 0.430423
0.240399 0.196896 0.440711
0.288494 0.193134 0.391028
0.310839 0.185968 0.348749
0.310839 0.185968 0.348749
0.310839 0.185968 0.348749
0.310839 0.185968 0.348749
0.310839 0.185968 0.348749
0.141725 0.193162 0.434340
0.139905 0.189528 0.433156
0.196486 0.189864 0.437890
0.276601 0.195084 0.407113
0.310839 0.185968 0.348749
0.310839 0.185968 0.348749
0.310839 0.185968 0.348749
0.310839 0.185968 0.348749
0.310839 0.185968 0.348749
0.195671 0.293322 0.451003
0.194919 0.291781 0.452677
0.193735 0.288573 0.466815
0.325759 0.308368 0.512006
0.367853 0.291242 0.454855
0.377876 0.275579 0.409502
0.372085 0.268259 0.404439
0.369061 0.264388 0.401805
0.367555 0.262459 0.400496
0.216067 0.324544 0.408296
0.214593 0.323459 0.410205
0.209549 0.319769 0.416153
0.312781 0.386944 0.508524
0.465916 0.446931 0.611307
0.503822 0.430451 0.544669
0.504194 0.419870 0.520357
0.499429 0.414723 0.516215
0.497042 0.412149 0.514138
0.228023 0.339905 0.369268
0.226170 0.336466 0.367785
0.221922 0.329148 0.367041
0.288633 0.377170 0.427611
0.450312 0.507467 0.584703
0.621071 0.594246 0.729927
0.657970 0.576491 0.658329
0.651303 0.566772 0.644556
0.646619 0.562348 0.640808
0.231094 0.345744 0.371794
0.231094 0.345744 0.371794
0.231094 0.345744 0.371794
0.275646 0.376235 0.399892
0.427074 0.490902 0.514443
0.600014 0.640927 0.686321
0.810427 0.759035 0.857105
0.846754 0.740133 0.790275
0.836856 0.730095 0.782045
0.231094 0.345744 0.371794
0.231094 0.345744 0.371794
0.231094 0.345744 0.371794
0.265654 0.368940 0.393190
0.415857 0.489169 0.504958
0.577968 0.632944 0.635997
0.770965 0.782124 0.763450
0.965536 0.927140 0.885687
0.969452 0.937570 0.878935
0.231094 0.345744 0.371794
0.231094 0.345744 0.371794
0.231094 0.345744 0.371794
0.260761 0.365382 0.389914
0.408215 0.483663 0.499080
0.565406 0.627078 0.626751
0.750222 0.793252 0.758603
0.971346 0.961211 0.863735
0.979244 0.962974 0.862227
0.135522 0.180313 0.430304
0.149686 0.182387 0.431581
0.247511 0.197082 0.436599
0.292968 0.192002 0.383495
0.310839 0.185968 0.348749
0.310839 0.185968 0.348749
0.310839 0.185968 0.348749
0.310839 0.185968 0.348749
0.310839 0.185968 0.348749
0.135522 0.180313 0.430304
0.136352 0.180435 0.430382
0.240008 0.196842 0.440735
0.288375 0.193159 0.391211
0.310839 0.185968 0.348749
0.310839 0.185968 0.348749
0.310839 0.185968 0.348749
0.310839 0.185968 0.348749
0.310839 0.185968 0.348749
0.140643 0.191001 0.433636
0.138846 0.187325 0.432473
0.196179 0.189642 0.437110
0.276456 0.195101 0.407284
0.310839 0.185968 0.348749
0.310839 0.185968 0.348749
0.310839 0.185968 0.348749
0.310839 0.185968 0.348749
0.310839 0.185968 0.348749
0.195239 0.292433 0.451985
0.194460 0.290840 0.453678
0.193108 0.287368 0.467140
0.323855 0.305159 0.510039
0.365078 0.287877 0.452487
0.375311 0.272358 0.407265
0.369635 0.265123 0.402303
0.366707 0.261373 0.399765
0.365208 0.259421 0.398472
0.215220 0.323914 0.409420
0.213531 0.322720 0.411381
0.208793 0.319069 0.417273
0.311627 0.385482 0.509508
0.463303 0.442712 0.608360
0.499751 0.426301 0.541429
0.500363 0.415732 0.517026
0.495748 0.410732 0.512985
0.493452 0.408225 0.510938
0.226934 0.337867 0.368386
0.225061 0.334462 0.366931
0.221956 0.329409 0.369091
0.287936 0.376561 0.429323
0.448764 0.505634 0.586040
0.615707 0.586839 0.723619
0.649798 0.569170 0.652405
0.643986 0.559860 0.638700
0.639452 0.555486 0.634987
0.231094 0.345744 0.371794
0.231094 0.345744 0.371794
0.231094 0.345744 0.371794
0.274847 0.375121 0.399248
0.426265 0.490356 0.516459
0.597285 0.638042 0.688300
0.797076 0.743417 0.845261
0.830777 0.724628 0.777688
0.820624 0.715050 0.769911
0.231094 0.345744 0.371794
0.231094 0.345744 0.371794
0.231094 0.345744 0.371794
0.265224 0.368626 0.392901
0.415136 0.488567 0.504391
0.574585 0.625757 0.633625
0.770364 0.786685 0.797140
0.970677 0.931097 0.956792
0.954589 0.902227 0.907541
0.231094 0.345744 0.371794
0.231094 0.345744 0.371794
0.231094 0.345744 0.371794
0.260329 0.365069 0.389625
0.407088 0.481827 0.498079
0.560698 0.614899 0.621866
0.740148 0.768232 0.758101
0.964214 0.952356 0.907932
0.999987 0.999989 0.999989
