滤镜资源/Lutify.me Free 3D LUTs Package/3D LUTs/Color Grading LUTs/RED IPP2/Hypersthene - IPP2.cube
# Website: https://lutify.me
# Contact: help@lutify.me
# Created by: Lutify.me
# Copyright: (c) Copyright Lutify.me 2016, G.T. Colord LTD
LUT_3D_SIZE 33
0.000000 0.000000 0.000000
0.000000 0.000000 0.000000
0.000006 0.000001 0.000001
0.053540 0.008568 0.006726
0.104961 0.033286 0.025299
0.124361 0.074515 0.055109
0.152299 0.100591 0.089121
0.186097 0.112853 0.098010
0.220321 0.126432 0.106297
0.254000 0.143296 0.114396
0.286276 0.161481 0.123759
0.319826 0.179655 0.134404
0.353376 0.196332 0.145215
0.386797 0.211410 0.155355
0.391442 0.213414 0.156675
0.391442 0.213414 0.156675
0.391442 0.213414 0.156675
0.391442 0.213414 0.156675
0.391442 0.213414 0.156675
0.391442 0.213414 0.156675
0.391442 0.213414 0.156675
0.391442 0.213414 0.156675
0.391442 0.213414 0.156675
0.391442 0.213414 0.156675
0.391442 0.213414 0.156675
0.391442 0.213414 0.156675
0.391442 0.213414 0.156675
0.391442 0.213414 0.156675
0.391442 0.213414 0.156675
0.391442 0.213414 0.156675
0.391442 0.213414 0.156675
0.391442 0.213414 0.156675
0.391442 0.213414 0.156675
0.000000 0.000000 0.000000
0.000000 0.000000 0.000000
0.000006 0.000001 0.000001
0.053540 0.008568 0.006726
0.104961 0.033286 0.025299
0.124361 0.074515 0.055109
0.152299 0.100591 0.089121
0.186097 0.112853 0.098010
0.220321 0.126432 0.106297
0.254000 0.143296 0.114396
0.286276 0.161481 0.123759
0.319826 0.179655 0.134404
0.353376 0.196332 0.145215
0.386797 0.211410 0.155355
0.391442 0.213414 0.156675
0.391442 0.213414 0.156675
0.391442 0.213414 0.156675
0.391442 0.213414 0.156675
0.391442 0.213414 0.156675
0.391442 0.213414 0.156675
0.391442 0.213414 0.156675
0.391442 0.213414 0.156675
0.391442 0.213414 0.156675
0.391442 0.213414 0.156675
0.391442 0.213414 0.156675
0.391442 0.213414 0.156675
0.391442 0.213414 0.156675
0.391442 0.213414 0.156675
0.391442 0.213414 0.156675
0.391442 0.213414 0.156675
0.391442 0.213414 0.156675
0.391442 0.213414 0.156675
0.391442 0.213414 0.156675
0.000001 0.000001 0.000000
0.000001 0.000001 0.000000
0.000006 0.000002 0.000001
0.053538 0.008567 0.006726
0.104961 0.033286 0.025298
0.124360 0.074514 0.055109
0.152299 0.100591 0.089121
0.186096 0.112853 0.098010
0.220321 0.126432 0.106297
0.254000 0.143295 0.114396
0.286276 0.161481 0.123759
0.319825 0.179655 0.134404
0.353376 0.196331 0.145215
0.386797 0.211410 0.155355
0.391442 0.213414 0.156675
0.391442 0.213414 0.156675
0.391442 0.213414 0.156675
0.391442 0.213414 0.156675
0.391442 0.213414 0.156675
0.391442 0.213414 0.156675
0.391442 0.213414 0.156675
0.391442 0.213414 0.156675
0.391442 0.213414 0.156675
0.391442 0.213414 0.156675
0.391442 0.213414 0.156675
0.391442 0.213414 0.156675
0.391442 0.213414 0.156675
0.391442 0.213414 0.156675
0.391442 0.213414 0.156675
0.391442 0.213414 0.156675
0.391442 0.213414 0.156675
0.391442 0.213414 0.156675
0.391442 0.213414 0.156675
0.009532 0.006582 0.002895
0.009532 0.006582 0.002895
0.009532 0.006582 0.002895
0.048524 0.018695 0.009765
0.104447 0.052969 0.032796
0.121669 0.075784 0.054271
0.147437 0.098772 0.086181
0.181208 0.111129 0.096838
0.216155 0.124613 0.105326
0.250347 0.141323 0.113443
0.282572 0.159465 0.122655
0.315988 0.177579 0.133144
0.349360 0.194465 0.143957
0.382556 0.209547 0.154126
0.391442 0.213414 0.156675
0.391442 0.213414 0.156675
0.391442 0.213414 0.156675
0.391442 0.213414 0.156675
0.391442 0.213414 0.156675
0.391442 0.213414 0.156675
0.391442 0.213414 0.156675
0.391442 0.213414 0.156675
0.391442 0.213414 0.156675
0.391442 0.213414 0.156675
0.391442 0.213414 0.156675
0.391442 0.213414 0.156675
0.391442 0.213414 0.156675
0.391442 0.213414 0.156675
0.391442 0.213414 0.156675
0.391442 0.213414 0.156675
0.391442 0.213414 0.156675
0.391442 0.213414 0.156675
0.391442 0.213414 0.156675
0.072305 0.097841 0.056219
0.072305 0.097841 0.056219
0.072304 0.097840 0.056219
0.069931 0.095665 0.054101
0.109829 0.103114 0.075762
0.124924 0.104830 0.086726
0.151053 0.114850 0.095849
0.179702 0.122341 0.101319
0.211386 0.132619 0.107562
0.243943 0.145540 0.114397
0.274824 0.159469 0.122021
0.306763 0.173935 0.130715
0.339227 0.189616 0.140724
0.371977 0.204816 0.150955
0.391442 0.213414 0.156675
0.391442 0.213414 0.156675
0.391442 0.213414 0.156675
0.391442 0.213414 0.156675
0.391442 0.213414 0.156675
0.391442 0.213414 0.156675
0.391442 0.213414 0.156675
0.391442 0.213414 0.156675
0.391442 0.213414 0.156675
0.391442 0.213414 0.156675
0.391442 0.213414 0.156675
0.391442 0.213414 0.156675
0.391442 0.213414 0.156675
0.391442 0.213414 0.156675
0.391442 0.213414 0.156675
0.391442 0.213414 0.156675
0.391442 0.213414 0.156675
0.391442 0.213414 0.156675
0.391442 0.213414 0.156675
0.099738 0.116875 0.095004
0.099738 0.116875 0.095004
0.099738 0.116875 0.095004
0.099076 0.115764 0.094325
0.107426 0.116085 0.094698
0.134035 0.125806 0.100483
0.149834 0.121886 0.100136
0.182040 0.136374 0.107120
0.215806 0.151264 0.114071
0.245877 0.161592 0.120301
0.273665 0.172743 0.127081
0.303717 0.185511 0.135529
0.335231 0.198447 0.144601
0.366612 0.210600 0.153278
0.394445 0.220361 0.160320
0.393449 0.218046 0.159101
0.392530 0.215910 0.157977
0.391699 0.213998 0.156981
0.391442 0.213414 0.156675
0.391442 0.213414 0.156675
0.391442 0.213414 0.156675
0.391442 0.213414 0.156675
0.391442 0.213414 0.156675
0.391442 0.213414 0.156675
0.391442 0.213414 0.156675
0.391442 0.213414 0.156675
0.391442 0.213414 0.156675
0.391442 0.213414 0.156675
0.391442 0.213414 0.156675
0.391442 0.213414 0.156675
0.391442 0.213414 0.156675
0.391442 0.213414 0.156675
0.391442 0.213414 0.156675
0.112126 0.141160 0.106906
0.112126 0.141160 0.106906
0.112126 0.141160 0.106906
0.111447 0.139670 0.106213
0.111311 0.136418 0.105028
0.129709 0.142756 0.108630
0.164634 0.155800 0.114015
0.180166 0.146204 0.112191
0.215363 0.163324 0.119515
0.251550 0.183499 0.129242
0.278337 0.192378 0.135828
0.306253 0.202024 0.143298
0.335053 0.212444 0.151160
0.364127 0.222559 0.158874
0.393940 0.232172 0.166394
0.399920 0.232564 0.167121
0.398961 0.230448 0.165950
0.398088 0.228536 0.164900
0.397309 0.226815 0.163945
0.396649 0.225322 0.163099
0.396058 0.223985 0.162341
0.395543 0.222822 0.161687
0.395104 0.221838 0.161141
0.394722 0.220982 0.160664
0.394399 0.220253 0.160263
0.394118 0.219600 0.159919
0.393880 0.219048 0.159629
0.393672 0.218565 0.159374
0.393496 0.218154 0.159158
0.393340 0.217793 0.158968
0.393207 0.217483 0.158805
0.393086 0.217203 0.158658
0.393031 0.217074 0.158590
0.128299 0.173865 0.121158
0.128299 0.173865 0.121158
0.128299 0.173865 0.121158
0.127397 0.172245 0.120421
0.125268 0.168105 0.118566
0.133280 0.167116 0.119125
0.158773 0.176601 0.123642
0.199093 0.190918 0.130656
0.214751 0.176482 0.127099
0.250109 0.193628 0.135605
0.282025 0.211332 0.146007
0.313416 0.225962 0.155349
0.341096 0.233346 0.161769
0.369275 0.241358 0.168531
0.397608 0.249132 0.175178
0.413616 0.252367 0.178330
0.411292 0.249619 0.176689
0.409256 0.247139 0.175241
0.407459 0.244849 0.173937
0.405883 0.242847 0.172795
0.404791 0.241243 0.171889
0.404011 0.239909 0.171157
0.403347 0.238775 0.170535
0.402769 0.237785 0.169992
0.402273 0.236948 0.169534
0.401839 0.236217 0.169134
0.401473 0.235598 0.168794
0.401152 0.235057 0.168498
0.400879 0.234597 0.168246
0.400663 0.234205 0.168030
0.400524 0.233898 0.167860
0.400398 0.233620 0.167706
0.400340 0.233492 0.167635
0.149937 0.209807 0.140094
0.149937 0.209807 0.140094
0.149937 0.209807 0.140094
0.149007 0.208316 0.139238
0.146655 0.204549 0.137095
0.145244 0.201381 0.135390
0.161112 0.201748 0.137613
0.192260 0.214293 0.144763
0.238146 0.230796 0.154237
0.251948 0.211372 0.147994
0.282209 0.224701 0.155692
0.313795 0.239787 0.164711
0.347356 0.255352 0.174500
0.380009 0.267732 0.183670
0.408344 0.273817 0.188882
0.435684 0.279191 0.193792
0.434478 0.276318 0.192277
0.431688 0.273214 0.190496
0.429263 0.270463 0.188927
0.427333 0.268269 0.187684
0.425621 0.266303 0.186511
0.424130 0.264590 0.185537
0.422863 0.263134 0.184709
0.421756 0.261862 0.183986
0.420821 0.260775 0.183335
0.420070 0.259910 0.182813
0.419438 0.259185 0.182380
0.418884 0.258550 0.182001
0.418415 0.258012 0.181679
0.418002 0.257538 0.181396
0.417647 0.257131 0.181152
0.417327 0.256763 0.180932
0.417179 0.256593 0.180831
0.173474 0.245468 0.161946
0.173474 0.245468 0.161946
0.173474 0.245468 0.161946
0.172619 0.244219 0.161159
0.170422 0.240969 0.159143
0.168484 0.238042 0.157350
0.174069 0.236488 0.157241
0.191281 0.237039 0.159842
0.228109 0.253206 0.169162
0.278363 0.271024 0.180496
0.291278 0.253915 0.174525
0.315107 0.255686 0.176993
0.346816 0.268663 0.185160
0.380590 0.282218 0.193443
0.414954 0.295815 0.202242
0.450023 0.308640 0.209970
0.468383 0.313016 0.212615
0.465737 0.310222 0.211065
0.463337 0.307670 0.209625
0.460644 0.304791 0.208067
0.458244 0.302214 0.206652
0.456152 0.299969 0.205418
0.454387 0.298060 0.204368
0.452851 0.296393 0.203451
0.451553 0.294984 0.202675
0.450466 0.293812 0.202027
0.449573 0.292847 0.201492
0.448793 0.292004 0.201023
0.448131 0.291287 0.200626
0.447549 0.290657 0.200276
0.447049 0.290116 0.199976
0.446597 0.289626 0.199704
0.446389 0.289401 0.199579
0.195538 0.277050 0.182713
0.195538 0.277050 0.182713
0.195538 0.277050 0.182713
0.194739 0.275866 0.181941
0.192736 0.272888 0.179993
0.190954 0.270269 0.178237
0.189025 0.267414 0.176322
0.202149 0.267316 0.178106
0.222600 0.269762 0.181951
0.268351 0.292097 0.194558
0.317927 0.309070 0.204578
0.328355 0.290569 0.198359
0.348099 0.284252 0.197553
0.380392 0.296517 0.204572
0.414324 0.309076 0.211661
0.448725 0.321318 0.218641
0.483129 0.333100 0.225561
0.487236 0.333422 0.225605
0.485709 0.331779 0.224530
0.484367 0.330313 0.223569
0.483163 0.328993 0.222705
0.482121 0.327842 0.221957
0.481237 0.326864 0.221321
0.480466 0.326010 0.220766
0.479813 0.325288 0.220297
0.479248 0.324657 0.219877
0.478785 0.324140 0.219527
0.478382 0.323689 0.219222
0.478039 0.323306 0.218962
0.477737 0.322969 0.218734
0.477477 0.322680 0.218540
0.477241 0.322418 0.218364
0.477132 0.322298 0.218283
0.217130 0.309477 0.202795
0.217130 0.309477 0.202795
0.217130 0.309477 0.202795
0.216323 0.308222 0.202040
0.214302 0.305055 0.200136
0.212491 0.302283 0.198469
0.210482 0.299263 0.196651
0.214113 0.297060 0.195951
0.230439 0.297466 0.198421
0.259244 0.306757 0.205278
0.309268 0.332535 0.218533
0.357816 0.347348 0.226678
0.363696 0.325530 0.219590
0.384132 0.315245 0.217675
0.414433 0.323712 0.222505
0.447917 0.335322 0.228627
0.482213 0.346351 0.233865
0.507761 0.353852 0.237456
0.506051 0.352059 0.236333
0.504544 0.350560 0.235462
0.503195 0.349278 0.234770
0.502020 0.348161 0.234167
0.501020 0.347211 0.233654
0.500148 0.346382 0.233207
0.499410 0.345680 0.232828
0.498764 0.345068 0.232498
0.498211 0.344547 0.232217
0.497733 0.344094 0.231969
0.497334 0.343710 0.231758
0.496987 0.343372 0.231573
0.496689 0.343083 0.231413
0.496419 0.342820 0.231269
0.496295 0.342700 0.231203
0.236881 0.342469 0.221959
0.236881 0.342469 0.221959
0.236881 0.342469 0.221959
0.236114 0.341147 0.221250
0.234173 0.337828 0.219423
0.232467 0.334913 0.217802
0.230602 0.331758 0.216016
0.228490 0.328203 0.213989
0.241070 0.327621 0.215442
0.259871 0.328386 0.218503
0.297672 0.347209 0.228260
0.351905 0.375251 0.240833
0.399192 0.387879 0.247195
0.405983 0.365885 0.240951
0.428092 0.354978 0.238973
0.449342 0.350790 0.238658
0.482752 0.361558 0.243952
0.516338 0.371472 0.248448
0.527368 0.373863 0.249721
0.525698 0.372193 0.248768
0.524244 0.370713 0.247894
0.522989 0.369436 0.247110
0.521922 0.368350 0.246442
0.520986 0.367402 0.245859
0.520191 0.366600 0.245366
0.519497 0.365900 0.244936
0.518923 0.365322 0.244585
0.518420 0.364817 0.244278
0.517995 0.364389 0.244015
0.517626 0.364015 0.243781
0.517308 0.363693 0.243579
0.517020 0.363402 0.243397
0.516888 0.363269 0.243314
0.255045 0.375767 0.239096
0.255045 0.375767 0.239096
0.255045 0.375767 0.239096
0.254344 0.374365 0.238404
0.252490 0.370839 0.236630
0.250885 0.367744 0.235069
0.249090 0.364400 0.233364
0.247094 0.360642 0.231439
0.251952 0.358219 0.231026
0.268238 0.358440 0.233412
0.292448 0.364007 0.238468
0.338828 0.390837 0.249575
0.395566 0.420143 0.260687
0.443571 0.431079 0.265769
0.456759 0.412803 0.262102
0.473145 0.396044 0.258397
0.489708 0.383226 0.255702
0.518894 0.388009 0.257690
0.552514 0.397415 0.262094
0.550470 0.395507 0.261068
0.548639 0.393798 0.260150
0.547046 0.392308 0.259349
0.545716 0.391046 0.258660
0.544556 0.389945 0.258058
0.543601 0.389043 0.257565
0.542765 0.388255 0.257137
0.542058 0.387588 0.256774
0.541439 0.387004 0.256456
0.540913 0.386508 0.256187
0.540452 0.386073 0.255950
0.540055 0.385698 0.255746
0.539696 0.385360 0.255562
0.539531 0.385204 0.255477
0.271051 0.409189 0.254661
0.271051 0.409189 0.254661
0.271051 0.409189 0.254661
0.270368 0.407693 0.254036
0.268625 0.403940 0.252407
0.267086 0.400653 0.250958
0.265398 0.397083 0.249337
0.263492 0.393071 0.247485
0.262073 0.388770 0.245545
0.277140 0.388739 0.247605
0.296176 0.389828 0.250597
0.331378 0.407358 0.258071
0.381336 0.436303 0.268855
0.441152 0.467427 0.279336
0.491868 0.477307 0.283286
0.515751 0.465439 0.282265
0.516583 0.436061 0.275003
0.543550 0.428080 0.274226
0.559248 0.417319 0.271959
0.578003 0.419981 0.273204
0.575914 0.418120 0.272242
0.574070 0.416480 0.271403
0.572482 0.415073 0.270689
0.571098 0.413847 0.270067
0.569959 0.412827 0.269539
0.568964 0.411937 0.269079
0.568121 0.411183 0.268689
0.567384 0.410524 0.268347
0.566758 0.409964 0.268058
0.566208 0.409472 0.267803
0.565736 0.409049 0.267584
0.565318 0.408666 0.267386
0.565127 0.408491 0.267295
0.285442 0.441532 0.267765
0.285442 0.441532 0.267765
0.285442 0.441532 0.267765
0.285061 0.440650 0.267421
0.283317 0.436600 0.265843
0.281779 0.433092 0.264452
0.280101 0.429299 0.262937
0.278213 0.425064 0.261212
0.276080 0.420299 0.259271
0.285817 0.418556 0.259900
0.303200 0.419212 0.262360
0.327898 0.424630 0.266551
0.372561 0.453311 0.276231
0.425196 0.484228 0.286367
0.490288 0.518126 0.296150
0.545209 0.526995 0.299729
0.581666 0.520880 0.300629
0.562175 0.477237 0.290343
0.601051 0.473901 0.291099
0.608668 0.460595 0.292978
0.605269 0.453701 0.292641
0.602794 0.450200 0.290803
0.600730 0.447236 0.289240
0.598927 0.444647 0.287876
0.597437 0.442540 0.286732
0.596355 0.441052 0.285806
0.595439 0.439792 0.285022
0.594638 0.438690 0.284336
0.593957 0.437754 0.283754
0.593359 0.436932 0.283242
0.592852 0.436240 0.282801
0.592393 0.435619 0.282402
0.592182 0.435334 0.282219
0.285442 0.441532 0.267765
0.285442 0.441532 0.267765
0.285442 0.441532 0.267765
0.285442 0.441532 0.267765
0.285442 0.441532 0.267765
0.285442 0.441532 0.267765
0.285442 0.441532 0.267765
0.285442 0.441532 0.267765
0.285442 0.441532 0.267765
0.292340 0.443720 0.269361
0.310219 0.448204 0.273099
0.331382 0.450164 0.276426
0.367105 0.470055 0.283800
0.415088 0.501820 0.293047
0.472395 0.536812 0.302768
0.545811 0.575280 0.312617
0.606711 0.582478 0.314948
0.664634 0.585489 0.317903
0.633482 0.532742 0.307698
0.643785 0.513684 0.307538
0.641037 0.504218 0.310456
0.638252 0.500292 0.309301
0.636019 0.497112 0.308321
0.634069 0.494331 0.307466
0.632420 0.491965 0.306742
0.630980 0.489947 0.306111
0.629760 0.488239 0.305576
0.628693 0.486744 0.305108
0.627731 0.485393 0.304691
0.626869 0.484181 0.304319
0.626134 0.483156 0.303999
0.625471 0.482230 0.303710
0.625165 0.481805 0.303577
0.285442 0.441532 0.267765
0.285442 0.441532 0.267765
0.285442 0.441532 0.267765
0.285442 0.441532 0.267765
0.285442 0.441532 0.267765
0.285442 0.441532 0.267765
0.285442 0.441532 0.267765
0.285442 0.441532 0.267765
0.285442 0.441532 0.267765
0.287783 0.442275 0.268308
0.305487 0.448058 0.272438
0.327535 0.455318 0.277599
0.358345 0.471503 0.284909
0.405050 0.508261 0.295920
0.459055 0.548444 0.307707
0.525503 0.596523 0.317846
0.599756 0.627801 0.328636
0.667797 0.635536 0.330656
0.729558 0.635836 0.333838
0.699743 0.587399 0.329744
0.673477 0.549917 0.322762
0.670106 0.545141 0.321990
0.667711 0.541846 0.321119
0.665620 0.538969 0.320358
0.663852 0.536537 0.319715
0.662401 0.534544 0.319153
0.661158 0.532850 0.318678
0.660049 0.531357 0.318262
0.659108 0.530089 0.317909
0.658276 0.528969 0.317599
0.657562 0.528007 0.317333
0.656915 0.527136 0.317093
0.656648 0.526749 0.316982
0.285442 0.441532 0.267765
0.285442 0.441532 0.267765
0.285442 0.441532 0.267765
0.285442 0.441532 0.267765
0.285442 0.441532 0.267765
0.285442 0.441532 0.267765
0.285442 0.441532 0.267765
0.285442 0.441532 0.267765
0.285442 0.441532 0.267765
0.285442 0.441532 0.267765
0.300931 0.446599 0.271387
0.321590 0.453286 0.276183
0.347744 0.463201 0.282315
0.391782 0.498008 0.292728
0.442548 0.536224 0.304385
0.502756 0.580506 0.314605
0.578047 0.626541 0.326880
0.641273 0.639086 0.333654
0.707277 0.649194 0.338512
0.744020 0.652522 0.341090
0.720344 0.617133 0.336324
0.696751 0.582689 0.330870
0.693185 0.577461 0.329982
0.693185 0.577461 0.329982
0.693185 0.577461 0.329982
0.693185 0.577461 0.329982
0.692695 0.576771 0.329820
0.691450 0.575018 0.329407
0.690393 0.573530 0.329057
0.689463 0.572222 0.328749
0.688665 0.571098 0.328484
0.687942 0.570081 0.328245
0.687610 0.569613 0.328135
0.285442 0.441532 0.267765
0.285442 0.441532 0.267765
0.285442 0.441532 0.267765
0.285442 0.441532 0.267765
0.285442 0.441532 0.267765
0.285442 0.441532 0.267765
0.285442 0.441532 0.267765
0.285442 0.441532 0.267765
0.285442 0.441532 0.267765
0.285442 0.441532 0.267765
0.297118 0.445307 0.270484
0.316635 0.451679 0.275036
0.340833 0.459699 0.280691
0.380713 0.489383 0.290233
0.429020 0.526342 0.301293
0.484953 0.567404 0.312160
0.555311 0.615178 0.322948
0.619703 0.635516 0.332254
0.682902 0.645730 0.336725
0.740040 0.653273 0.340681
0.733495 0.636989 0.339195
0.708486 0.599921 0.333691
0.693185 0.577461 0.329982
0.693185 0.577461 0.329982
0.693185 0.577461 0.329982
0.693185 0.577461 0.329982
0.693185 0.577461 0.329982
0.693185 0.577461 0.329982
0.693185 0.577461 0.329982
0.693185 0.577461 0.329982
0.693185 0.577461 0.329982
0.693185 0.577461 0.329982
0.693185 0.577461 0.329982
0.285442 0.441532 0.267765
0.285442 0.441532 0.267765
0.285442 0.441532 0.267765
0.285442 0.441532 0.267765
0.285442 0.441532 0.267765
0.285442 0.441532 0.267765
0.285442 0.441532 0.267765
0.285442 0.441532 0.267765
0.285442 0.441532 0.267765
0.285442 0.441532 0.267765
0.293786 0.444180 0.269694
0.312585 0.450368 0.274098
0.335637 0.458014 0.279500
0.371087 0.481851 0.288021
0.417724 0.517746 0.299008
0.470059 0.556569 0.309653
0.535000 0.602898 0.319470
0.602101 0.632313 0.330973
0.662377 0.642525 0.335089
0.721454 0.651035 0.339475
0.743646 0.651960 0.341130
0.719835 0.616367 0.336210
0.699586 0.586859 0.331576
0.693185 0.577461 0.329982
0.693185 0.577461 0.329982
0.693185 0.577461 0.329982
0.693185 0.577461 0.329982
0.693185 0.577461 0.329982
0.693185 0.577461 0.329982
0.693185 0.577461 0.329982
0.693185 0.577461 0.329982
0.693185 0.577461 0.329982
0.693185 0.577461 0.329982
0.285442 0.441532 0.267765
0.285442 0.441532 0.267765
0.285442 0.441532 0.267765
0.285442 0.441532 0.267765
0.285442 0.441532 0.267765
0.285442 0.441532 0.267765
0.285442 0.441532 0.267765
0.285442 0.441532 0.267765
0.285442 0.441532 0.267765
0.285442 0.441532 0.267765
0.290930 0.443274 0.269036
0.309152 0.449253 0.273299
0.331283 0.456589 0.278489
0.363169 0.475429 0.286094
0.407946 0.510428 0.296669
0.458291 0.547883 0.307570
0.518294 0.591564 0.316579
0.586798 0.628744 0.328494
0.644740 0.639650 0.333864
0.702429 0.648514 0.338162
0.744545 0.653310 0.341033
0.729999 0.631682 0.338443
0.708854 0.600460 0.333778
0.693185 0.577461 0.329982
0.693185 0.577461 0.329982
0.693185 0.577461 0.329982
0.693185 0.577461 0.329982
0.693185 0.577461 0.329982
0.693185 0.577461 0.329982
0.693185 0.577461 0.329982
0.693185 0.577461 0.329982
0.693185 0.577461 0.329982
0.693185 0.577461 0.329982
0.285442 0.441532 0.267765
0.285442 0.441532 0.267765
0.285442 0.441532 0.267765
0.285442 0.441532 0.267765
0.285442 0.441532 0.267765
0.285442 0.441532 0.267765
0.285442 0.441532 0.267765
0.285442 0.441532 0.267765
0.285442 0.441532 0.267765
0.285442 0.441532 0.267765
0.288552 0.442520 0.268486
0.306330 0.448334 0.272636
0.327699 0.455375 0.277639
0.356540 0.470079 0.284464
0.399845 0.504347 0.294570
0.448554 0.540699 0.305758
0.505308 0.582343 0.314907
0.574224 0.625438 0.326175
0.630077 0.637256 0.332942
0.686304 0.646223 0.336978
0.737532 0.652975 0.340521
0.739278 0.645607 0.340362
0.717271 0.612554 0.335641
0.699676 0.586991 0.331598
0.693185 0.577461 0.329982
0.693185 0.577461 0.329982
0.693185 0.577461 0.329982
0.693185 0.577461 0.329982
0.693185 0.577461 0.329982
0.693185 0.577461 0.329982
0.693185 0.577461 0.329982
0.693185 0.577461 0.329982
0.693185 0.577461 0.329982
0.285442 0.441532 0.267765
0.285442 0.441532 0.267765
0.285442 0.441532 0.267765
0.285442 0.441532 0.267765
0.285442 0.441532 0.267765
0.285442 0.441532 0.267765
0.285442 0.441532 0.267765
0.285442 0.441532 0.267765
0.285442 0.441532 0.267765
0.285442 0.441532 0.267765
0.286502 0.441867 0.268011
0.303942 0.447562 0.272080
0.324632 0.454309 0.276902
0.351203 0.465905 0.283163
0.393283 0.499176 0.293065
0.440404 0.534679 0.303887
0.494585 0.574445 0.313607
0.560324 0.617976 0.323839
0.617868 0.635187 0.332122
0.672562 0.644156 0.335921
0.725265 0.651528 0.339740
0.743747 0.652112 0.341119
0.724652 0.623619 0.337282
0.706535 0.597058 0.333232
0.693185 0.577461 0.329982
0.693185 0.577461 0.329982
0.693185 0.577461 0.329982
0.693185 0.577461 0.329982
0.693185 0.577461 0.329982
0.693185 0.577461 0.329982
0.693185 0.577461 0.329982
0.693185 0.577461 0.329982
0.693185 0.577461 0.329982
0.285442 0.441532 0.267765
0.285442 0.441532 0.267765
0.285442 0.441532 0.267765
0.285442 0.441532 0.267765
0.285442 0.441532 0.267765
0.285442 0.441532 0.267765
0.285442 0.441532 0.267765
0.285442 0.441532 0.267765
0.285442 0.441532 0.267765
0.285442 0.441532 0.267765
0.285442 0.441532 0.267765
0.301999 0.446941 0.271633
0.322095 0.453451 0.276300
0.346713 0.462396 0.282063
0.387806 0.494908 0.291836
0.433674 0.529835 0.302306
0.486065 0.568223 0.312342
0.549256 0.611779 0.321864
0.608160 0.633435 0.331422
0.661651 0.642403 0.335027
0.714934 0.650198 0.339033
0.744311 0.652959 0.341058
0.731177 0.633470 0.338697
0.712594 0.605849 0.334610
0.698026 0.584565 0.331188
0.693185 0.577461 0.329982
0.693185 0.577461 0.329982
0.693185 0.577461 0.329982
0.693185 0.577461 0.329982
0.693185 0.577461 0.329982
0.693185 0.577461 0.329982
0.693185 0.577461 0.329982
0.693185 0.577461 0.329982
0.285442 0.441532 0.267765
0.285442 0.441532 0.267765
0.285442 0.441532 0.267765
0.285442 0.441532 0.267765
0.285442 0.441532 0.267765
0.285442 0.441532 0.267765
0.285442 0.441532 0.267765
0.285442 0.441532 0.267765
0.285442 0.441532 0.267765
0.285442 0.441532 0.267765
0.285442 0.441532 0.267765
0.300301 0.446398 0.271243
0.319974 0.452760 0.275809
0.343553 0.460577 0.281308
0.383060 0.491203 0.290768
0.428096 0.525628 0.301109
0.478859 0.562889 0.311145
0.539557 0.605832 0.320207
0.599893 0.631905 0.330810
0.652089 0.640843 0.334306
0.703905 0.648721 0.338269
0.744804 0.653700 0.341005
0.737055 0.642376 0.339932
0.718045 0.613673 0.335812
0.702972 0.591831 0.332395
0.693185 0.577461 0.329982
0.693185 0.577461 0.329982
0.693185 0.577461 0.329982
0.693185 0.577461 0.329982
0.693185 0.577461 0.329982
0.693185 0.577461 0.329982
0.693185 0.577461 0.329982
0.693185 0.577461 0.329982
0.285442 0.441532 0.267765
0.285442 0.441532 0.267765
0.285442 0.441532 0.267765
0.285442 0.441532 0.267765
0.285442 0.441532 0.267765
0.285442 0.441532 0.267765
0.285442 0.441532 0.267765
0.285442 0.441532 0.267765
0.285442 0.441532 0.267765
0.285442 0.441532 0.267765
0.285442 0.441532 0.267765
0.298914 0.445931 0.270915
0.318179 0.452179 0.275393
0.341408 0.459885 0.280822
0.379131 0.488156 0.289872
0.423528 0.522132 0.300184
0.472865 0.558575 0.310131
0.531441 0.600519 0.318865
0.592677 0.630186 0.329552
0.643736 0.639487 0.333803
0.694904 0.647470 0.337621
0.739133 0.653165 0.340623
0.742483 0.650265 0.340981
0.722662 0.620623 0.336839
0.707319 0.598209 0.333417
