滤镜资源/Professional Luts Collection/Triune-Digital-Cinematic-LUTs/3D LUTs (CUBE)/REDLOGFILM/BW/Casino Royale 1 - REDlogFilm.cube
#Created by Benjamin (IWLTBAP) : http://luts.iwltbap.com
#Copyright: (C) Copyright 2016 Triune Films and IWLTBAP
TITLE "Blockbuster LUTs Pack (REDlogFilm)"
#LUT size
LUT_3D_SIZE 5
#LUT data points
DOMAIN_MIN 0.000000 0.000000 0.000000
DOMAIN_MAX 0.903226 0.903226 0.903226
0.000000 0.000000 0.000000
0.027740 0.026337 0.026398
0.189606 0.187195 0.183197
0.477783 0.475800 0.464355
0.658203 0.657227 0.646698
0.012665 0.011688 0.011932
0.029510 0.028107 0.028107
0.191681 0.189240 0.185211
0.480072 0.478058 0.466644
0.660553 0.659607 0.649078
0.084717 0.082672 0.081451
0.119354 0.117096 0.115051
0.194794 0.192383 0.188263
0.482330 0.480347 0.468964
0.665009 0.664093 0.653503
0.226349 0.223907 0.218903
0.279755 0.277313 0.270844
0.376617 0.374359 0.365417
0.490875 0.488953 0.477264
0.668182 0.667297 0.656769
0.346100 0.343781 0.335571
0.403351 0.401123 0.391541
0.509735 0.508057 0.496033
0.610870 0.609741 0.599182
0.672791 0.671936 0.661285
0.000519 0.000397 0.000458
0.002014 0.001678 0.001831
0.099487 0.097351 0.095764
0.346863 0.344513 0.336273
0.543274 0.541840 0.531250
0.017426 0.016296 0.016449
0.061523 0.059631 0.059021
0.263855 0.261383 0.255371
0.560486 0.559143 0.548828
0.727875 0.727173 0.716827
0.095825 0.093689 0.092194
0.179443 0.177002 0.173309
0.266876 0.264435 0.258331
0.564850 0.563538 0.553192
0.730957 0.730286 0.720001
0.242249 0.239777 0.234375
0.359283 0.356964 0.348389
0.461121 0.459045 0.448059
0.568817 0.567535 0.557159
0.733948 0.733276 0.723053
0.364532 0.362213 0.353577
0.488678 0.486755 0.475220
0.587585 0.586365 0.575867
0.681641 0.680786 0.670197
0.736633 0.735992 0.725769
0.002045 0.001709 0.001862
0.004242 0.003693 0.003876
0.010162 0.009308 0.009552
0.152008 0.149628 0.146667
0.322083 0.319702 0.312134
0.023865 0.022552 0.022644
0.072754 0.070770 0.069885
0.093536 0.091400 0.089996
0.338043 0.335663 0.327698
0.535492 0.534058 0.522980
0.117889 0.115631 0.113586
0.207397 0.204926 0.200470
0.403625 0.401398 0.391815
0.688354 0.687561 0.677002
0.831177 0.830872 0.822021
0.275452 0.273010 0.266663
0.391479 0.389221 0.379913
0.598480 0.597290 0.586823
0.691193 0.690369 0.679901
0.833435 0.833130 0.824402
0.398926 0.396667 0.387207
0.523804 0.522247 0.510712
0.708252 0.707489 0.697021
0.789276 0.788849 0.779175
0.835693 0.835388 0.826660
0.004486 0.003937 0.004120
0.007660 0.006927 0.007141
0.015106 0.014038 0.014252
0.026489 0.025146 0.025177
0.121674 0.119385 0.117249
0.031006 0.029572 0.029541
0.085632 0.083557 0.082336
0.107178 0.104950 0.103210
0.133453 0.131134 0.128693
0.299347 0.296936 0.289917
0.133301 0.130981 0.128510
0.227203 0.224762 0.219727
0.427002 0.424835 0.414703
0.470764 0.468750 0.457489
0.653015 0.652069 0.641510
0.310425 0.308044 0.300751
0.429962 0.427826 0.417572
0.631561 0.630524 0.619934
0.805878 0.805481 0.796082
0.918854 0.918762 0.913055
0.435455 0.433319 0.422974
0.558258 0.556885 0.546661
0.736542 0.735901 0.725616
0.883240 0.883057 0.875854
0.920197 0.920105 0.914459
0.006653 0.005981 0.006195
0.010132 0.009247 0.009491
0.018799 0.017609 0.017792
0.031372 0.029938 0.029907
0.040894 0.039276 0.039062
0.035828 0.034271 0.034180
0.094727 0.092621 0.091125
0.117310 0.115051 0.113007
0.145844 0.143494 0.140686
0.164032 0.161652 0.158386
0.143005 0.140656 0.137939
0.240936 0.238464 0.233063
0.443573 0.441467 0.430878
0.484924 0.482941 0.471436
0.511932 0.510284 0.498932
0.324280 0.321899 0.314240
0.444672 0.442566 0.431976
0.644989 0.644012 0.633392
0.815247 0.814880 0.805695
0.832214 0.831909 0.823090
0.460052 0.457977 0.447052
0.579132 0.577850 0.567535
0.755096 0.754547 0.744415
0.895905 0.895782 0.889099
0.964569 0.964539 0.961639
