滤镜资源/Professional Luts Collection/Triune-Digital-Cinematic-LUTs/3D LUTs (CUBE)/REDLOGFILM/BW/Casino Royale 1 - REDlogFilm.cube
#Created by Benjamin (IWLTBAP) : http://luts.iwltbap.com
#Copyright: (C) Copyright 2016 Triune Films and IWLTBAP
TITLE "Blockbuster LUTs Pack (REDlogFilm)"
#LUT size
LUT_3D_SIZE 32
#LUT data points
0.000000 0.000000 0.000000
0.001007 0.000854 0.000916
0.002502 0.002167 0.002289
0.004913 0.004364 0.004547
0.008484 0.007751 0.007935
0.013000 0.012054 0.012238
0.019653 0.018463 0.018616
0.027740 0.026337 0.026398
0.039001 0.037384 0.037231
0.054382 0.052612 0.052094
0.072601 0.070618 0.069702
0.094421 0.092285 0.090851
0.121765 0.119507 0.117310
0.152130 0.149750 0.146820
0.189606 0.187195 0.183197
0.228058 0.225616 0.220581
0.270233 0.267792 0.261597
0.312897 0.310486 0.303192
0.355499 0.353180 0.344757
0.398865 0.396637 0.387085
0.436493 0.434326 0.423981
0.477783 0.475800 0.464355
0.514679 0.513153 0.501282
0.546204 0.544800 0.534515
0.572937 0.571625 0.561218
0.597443 0.596252 0.585724
0.620453 0.619354 0.608765
0.641449 0.640411 0.629852
0.658203 0.657227 0.646698
0.677246 0.676361 0.665802
0.694641 0.693848 0.683289
0.709900 0.709167 0.698639
0.000549 0.000427 0.000488
0.001038 0.000854 0.000946
0.002533 0.002167 0.002319
0.004913 0.004364 0.004578
0.008331 0.007568 0.007782
0.012939 0.011993 0.012177
0.019806 0.018646 0.018768
0.028137 0.026733 0.026794
0.039307 0.037720 0.037537
0.054016 0.052246 0.051758
0.072784 0.070831 0.069885
0.094635 0.092499 0.091034
0.121307 0.119019 0.116882
0.152893 0.150513 0.147552
0.188812 0.186371 0.182465
0.228882 0.226440 0.221344
0.268860 0.266418 0.260315
0.312897 0.310516 0.303223
0.355957 0.353607 0.345184
0.398743 0.396515 0.386993
0.436676 0.434509 0.424164
0.477295 0.475311 0.463928
0.514801 0.513275 0.501434
0.546509 0.545105 0.534851
0.573273 0.571991 0.561554
0.598145 0.596924 0.586395
0.619659 0.618530 0.608002
0.642059 0.641022 0.630432
0.658966 0.658020 0.647461
0.677826 0.676971 0.666412
0.693878 0.693085 0.682587
0.708832 0.708069 0.697632
0.001282 0.001038 0.001160
0.001892 0.001587 0.001709
0.002563 0.002167 0.002319
0.004913 0.004364 0.004578
0.008423 0.007660 0.007904
0.012756 0.011780 0.011993
0.019928 0.018738 0.018860
0.028534 0.027130 0.027161
0.039551 0.037964 0.037781
0.053802 0.052032 0.051544
0.072784 0.070801 0.069885
0.095154 0.093018 0.091553
0.121094 0.118835 0.116699
0.154114 0.151764 0.148743
0.189117 0.186676 0.182739
0.229736 0.227295 0.222198
0.270111 0.267670 0.261505
0.313171 0.310760 0.303467
0.355865 0.353546 0.345123
0.399017 0.396790 0.387268
0.437408 0.435303 0.424896
0.477081 0.475067 0.463715
0.514832 0.513275 0.501434
0.546661 0.545227 0.535004
0.573425 0.572144 0.561707
0.598663 0.597443 0.586914
0.619781 0.618683 0.608154
0.641357 0.640350 0.629791
0.659698 0.658722 0.648163
0.678467 0.677612 0.667023
0.694519 0.693726 0.683228
0.708130 0.707367 0.696991
0.002350 0.002014 0.002136
0.003174 0.002747 0.002899
0.003967 0.003479 0.003662
0.004883 0.004333 0.004547
0.008606 0.007843 0.008057
0.013031 0.012085 0.012299
0.019714 0.018524 0.018677
0.028809 0.027405 0.027405
0.039581 0.037964 0.037781
0.054138 0.052338 0.051849
0.073181 0.071198 0.070251
0.095490 0.093353 0.091858
0.121124 0.118866 0.116730
0.154724 0.152344 0.149292
0.190491 0.188080 0.184052
0.230103 0.227661 0.222504
0.272064 0.269653 0.263367
0.314453 0.312042 0.304688
0.355469 0.353119 0.344757
0.398773 0.396545 0.387054
0.439789 0.437683 0.427155
0.478027 0.476013 0.464600
0.514618 0.512939 0.501099
0.546570 0.545135 0.534851
0.572968 0.571655 0.561249
0.598694 0.597534 0.586975
0.619751 0.618652 0.608124
0.641235 0.640228 0.629700
0.659515 0.658569 0.648010
0.678711 0.677826 0.667267
0.694916 0.694122 0.683594
0.708679 0.707947 0.697540
0.004028 0.003540 0.003723
0.005035 0.004456 0.004669
0.006012 0.005371 0.005585
0.007080 0.006409 0.006592
0.008423 0.007660 0.007904
0.013062 0.012085 0.012299
0.019562 0.018372 0.018524
0.028625 0.027222 0.027252
0.039734 0.038147 0.037933
0.054108 0.052307 0.051819
0.073547 0.071564 0.070618
0.095520 0.093384 0.091888
0.121674 0.119385 0.117249
0.154175 0.151794 0.148804
0.190796 0.188385 0.184357
0.229523 0.227081 0.221985
0.272522 0.270111 0.263824
0.315796 0.313416 0.306000
0.355347 0.353027 0.344666
0.398193 0.395996 0.386505
0.440430 0.438324 0.427765
0.478668 0.476685 0.465240
0.514160 0.512390 0.500580
0.546539 0.545135 0.534760
0.573456 0.572174 0.561737
0.598236 0.597046 0.586548
0.621155 0.620056 0.609497
0.642487 0.641479 0.630890
0.660492 0.659546 0.648956
0.678894 0.678040 0.667480
0.695160 0.694336 0.683838
0.709015 0.708282 0.697845
0.006042 0.005402 0.005615
0.007233 0.006531 0.006744
0.008514 0.007721 0.007965
0.009735 0.008911 0.009125
0.011292 0.010376 0.010590
0.013000 0.012024 0.012268
0.019653 0.018463 0.018616
0.028503 0.027130 0.027161
0.039978 0.038391 0.038177
0.053802 0.052002 0.051544
0.073669 0.071686 0.070740
0.096130 0.093994 0.092499
0.122498 0.120209 0.118011
0.153595 0.151215 0.148254
0.190338 0.187897 0.183899
0.229218 0.226746 0.221680
0.271515 0.269104 0.262878
0.316681 0.314301 0.306854
0.356720 0.354401 0.345978
0.397949 0.395721 0.386292
0.439941 0.437805 0.427307
0.479156 0.477173 0.465698
0.513672 0.511841 0.500000
0.545746 0.544342 0.533875
0.573822 0.572540 0.562134
0.598511 0.597321 0.586823
0.621521 0.620422 0.609833
0.643585 0.642578 0.631958
0.661713 0.660767 0.650116
0.679749 0.678894 0.668304
0.695526 0.694733 0.684235
0.709320 0.708588 0.698151
0.008881 0.008057 0.008301
0.010345 0.009491 0.009705
0.011993 0.011078 0.011292
0.013580 0.012604 0.012817
0.015381 0.014313 0.014526
0.017334 0.016205 0.016418
0.020050 0.018860 0.019012
0.029114 0.027740 0.027710
0.040192 0.038574 0.038391
0.054291 0.052460 0.052002
0.072754 0.070770 0.069885
0.096252 0.094116 0.092590
0.124084 0.121796 0.119568
0.154327 0.151978 0.148956
0.190430 0.187988 0.184021
0.230011 0.227570 0.222443
0.271667 0.269257 0.263000
0.315887 0.313477 0.306091
0.358704 0.356384 0.347870
0.399292 0.397064 0.387604
0.438293 0.436157 0.425751
0.479584 0.477631 0.466187
0.513458 0.511627 0.499878
0.545502 0.544098 0.533508
0.571808 0.570496 0.560242
0.599487 0.598297 0.587799
0.622223 0.621124 0.610535
0.643524 0.642517 0.631927
0.660950 0.660034 0.649414
0.680145 0.679291 0.668701
0.696228 0.695435 0.684906
0.709808 0.709076 0.698639
0.012665 0.011688 0.011932
0.014404 0.013397 0.013580
0.016388 0.015320 0.015472
0.018311 0.017181 0.017334
0.020294 0.019104 0.019226
0.022430 0.021149 0.021301
0.025360 0.024048 0.024139
0.029510 0.028107 0.028107
0.039734 0.038116 0.037964
0.054779 0.052979 0.052521
0.074097 0.072113 0.071167
0.096954 0.094788 0.093262
0.123688 0.121429 0.119202
0.154327 0.151947 0.148956
0.191681 0.189240 0.185211
0.230042 0.227570 0.222504
0.272980 0.270569 0.264282
0.317596 0.315247 0.307739
0.357574 0.355255 0.346802
0.400970 0.398743 0.389160
0.440552 0.438446 0.427917
0.480072 0.478058 0.466644
0.516998 0.515442 0.503723
0.547119 0.545685 0.535370
0.572357 0.571075 0.560822
0.598541 0.597351 0.586884
0.621399 0.620300 0.609772
0.643005 0.641968 0.631439
0.660553 0.659607 0.649078
0.680023 0.679138 0.668579
0.696350 0.695557 0.685059
0.710052 0.709320 0.698914
0.017914 0.016785 0.016937
0.019470 0.018280 0.018433
0.021393 0.020142 0.020264
0.023712 0.022400 0.022491
0.026093 0.024750 0.024811
0.028748 0.027344 0.027374
0.032471 0.031006 0.030945
0.035828 0.034302 0.034210
0.040710 0.039093 0.038879
0.054810 0.053009 0.052521
0.073975 0.071991 0.071045
0.096924 0.094788 0.093262
0.124420 0.122131 0.119904
0.156799 0.154419 0.151276
0.191010 0.188568 0.184570
0.231171 0.228699 0.223572
0.271881 0.269440 0.263214
0.315765 0.313354 0.305969
0.359344 0.357025 0.348480
0.400024 0.397797 0.388306
0.440796 0.438660 0.428162
0.477722 0.475708 0.464417
0.517395 0.515900 0.504150
0.547241 0.545837 0.535400
0.574585 0.573303 0.562927
0.598297 0.597076 0.586670
0.621368 0.620270 0.609772
0.643494 0.642487 0.631927
0.661316 0.660400 0.649811
0.679657 0.678772 0.668274
0.696991 0.696198 0.685699
0.712372 0.711670 0.701141
0.024658 0.023376 0.023438
0.026520 0.025177 0.025238
0.028717 0.027313 0.027344
0.030914 0.029480 0.029449
0.034058 0.032562 0.032471
0.037201 0.035645 0.035522
0.040161 0.038544 0.038361
0.044525 0.042847 0.042572
0.050385 0.048645 0.048248
0.056152 0.054352 0.053802
0.073883 0.071899 0.070953
0.096954 0.094818 0.093292
0.124390 0.122101 0.119873
0.155792 0.153412 0.150360
0.192963 0.190552 0.186462
0.231567 0.229126 0.223969
0.272186 0.269745 0.263550
0.316254 0.313873 0.306488
0.359406 0.357117 0.348572
0.402344 0.400116 0.390503
0.441528 0.439392 0.428864
0.479889 0.477905 0.466492
0.516754 0.515198 0.503296
0.546875 0.545471 0.534943
0.575165 0.573853 0.563477
0.601074 0.599915 0.589355
0.622620 0.621521 0.610992
0.644287 0.643280 0.632690
0.662567 0.661621 0.651031
0.681396 0.680542 0.669952
0.697693 0.696899 0.686371
0.711792 0.711060 0.700623
0.032501 0.031036 0.031006
0.034698 0.033173 0.033112
0.036926 0.035370 0.035248
0.039520 0.037903 0.037750
0.042969 0.041321 0.041077
0.046722 0.045044 0.044708
0.050690 0.048920 0.048553
0.055634 0.053802 0.053284
0.061188 0.059326 0.058685
0.066650 0.064728 0.063965
0.074280 0.072296 0.071350
0.096954 0.094818 0.093292
0.124359 0.122070 0.119873
0.155518 0.153137 0.150085
0.193390 0.190948 0.186859
0.230621 0.228149 0.223083
0.273193 0.270752 0.264496
0.317688 0.315308 0.307861
0.360565 0.358276 0.349701
0.402435 0.400238 0.390625
0.442749 0.440643 0.430054
0.478973 0.476959 0.465607
0.518005 0.516479 0.504730
0.548553 0.547180 0.536835
0.574036 0.572723 0.562439
0.600555 0.599365 0.588898
0.622894 0.621796 0.611267
0.644287 0.643280 0.632721
0.662415 0.661499 0.650909
0.681641 0.680786 0.670227
0.698242 0.697449 0.686920
0.711639 0.710907 0.700500
0.042633 0.040985 0.040741
0.045166 0.043488 0.043182
0.048035 0.046326 0.045959
0.050842 0.049072 0.048676
0.054504 0.052704 0.052185
0.058289 0.056458 0.055878
0.062927 0.061035 0.060364
0.068726 0.066772 0.065979
0.074860 0.072876 0.071899
0.080658 0.078583 0.077515
0.089020 0.086945 0.085632
0.097809 0.095642 0.094086
0.125122 0.122864 0.120605
0.157593 0.155243 0.152100
0.193451 0.191010 0.186920
0.230835 0.228363 0.223297
0.274506 0.272064 0.265747
0.318756 0.316376 0.308868
0.359131 0.356812 0.348358
0.404114 0.401917 0.392242
0.443512 0.441376 0.430786
0.480835 0.478851 0.467407
0.517395 0.515778 0.503906
0.549072 0.547699 0.537354
0.576294 0.575043 0.564636
0.601227 0.600037 0.589539
0.622406 0.621338 0.610840
0.645081 0.644073 0.633514
0.662964 0.662048 0.651459
0.681702 0.680878 0.670319
0.697876 0.697083 0.686615
0.712372 0.711670 0.701233
0.054321 0.052490 0.052002
0.057526 0.055695 0.055084
0.060883 0.059021 0.058350
0.064209 0.062286 0.061554
0.068024 0.066071 0.065247
0.072357 0.070343 0.069458
0.077728 0.075714 0.074677
0.082611 0.080536 0.079407
0.089874 0.087769 0.086426
0.096741 0.094574 0.093079
0.106171 0.103973 0.102234
0.115082 0.112854 0.110870
0.125000 0.122742 0.120514
0.157074 0.154694 0.151581
0.195251 0.192810 0.188629
0.231750 0.229309 0.224182
0.275116 0.272675 0.266357
0.317993 0.315582 0.308167
0.361511 0.359192 0.350616
0.402740 0.400543 0.390961
0.444580 0.442474 0.431854
0.482330 0.480316 0.468872
0.518280 0.516724 0.504852
0.550720 0.549316 0.539093
0.577209 0.575928 0.565521
0.602417 0.601257 0.590698
0.623962 0.622864 0.612335
0.645508 0.644501 0.633942
0.663727 0.662781 0.652191
0.681885 0.681061 0.670532
0.699127 0.698364 0.687866
0.713959 0.713226 0.702759
0.068604 0.066681 0.065826
0.071838 0.069855 0.068970
0.075836 0.073822 0.072815
0.079346 0.077332 0.076233
0.083374 0.081299 0.080139
0.087952 0.085846 0.084595
0.094879 0.092743 0.091278
0.100861 0.098694 0.097076
0.106598 0.104401 0.102661
0.116150 0.113922 0.111908
0.125092 0.122803 0.120575
0.135223 0.132904 0.130402
0.145813 0.143463 0.140656
0.157104 0.154694 0.151642
0.194244 0.191772 0.187683
0.232788 0.230316 0.225159
0.274597 0.272156 0.265900
0.319458 0.317078 0.309601
0.363068 0.360779 0.352142
0.404083 0.401886 0.392242
0.444672 0.442566 0.431915
0.482971 0.480957 0.469482
0.519684 0.518127 0.506439
0.549194 0.547791 0.537384
0.575958 0.574677 0.564392
0.601471 0.600311 0.589844
0.624237 0.623138 0.612640
0.646576 0.645569 0.635010
0.665527 0.664612 0.653961
0.683990 0.683136 0.672516
0.700165 0.699371 0.688843
0.713226 0.712494 0.702087
0.084717 0.082672 0.081451
0.088898 0.086823 0.085480
0.092590 0.090485 0.089081
0.095886 0.093719 0.092255
0.102020 0.099823 0.098175
0.106842 0.104645 0.102875
0.112213 0.109985 0.108124
0.119354 0.117096 0.115051
0.126495 0.124207 0.121948
0.136749 0.134399 0.131866
0.146790 0.144440 0.141632
0.157684 0.155334 0.152191
0.169250 0.166870 0.163422
0.181610 0.179199 0.175446
0.194794 0.192383 0.188263
0.234375 0.231934 0.226715
0.274811 0.272400 0.266113
0.321472 0.319061 0.311493
0.363068 0.360779 0.352142
0.405396 0.403168 0.393494
0.445129 0.443054 0.432404
0.482330 0.480347 0.468964
0.519562 0.517975 0.506226
0.550385 0.548981 0.538666
0.576996 0.575714 0.565369
0.603180 0.601990 0.591492
0.625153 0.624054 0.613525
0.646942 0.645966 0.635406
0.665009 0.664093 0.653503
0.684570 0.683746 0.673157
0.700500 0.699738 0.689240
0.714630 0.713928 0.703461
0.102875 0.100677 0.098999
0.106415 0.104218 0.102448
0.110474 0.108276 0.106415
0.115936 0.113708 0.111664
0.121460 0.119202 0.117035
0.127075 0.124786 0.122467
0.133514 0.131165 0.128723
0.141541 0.139221 0.136505
0.149719 0.147369 0.144440
0.158508 0.156128 0.152985
0.168457 0.166046 0.162628
0.180328 0.177917 0.174164
0.192230 0.189789 0.185730
0.206818 0.204376 0.199890
0.219177 0.216705 0.211945
0.233948 0.231476 0.226288
0.276672 0.274261 0.267914
0.322418 0.320038 0.312439
0.362579 0.360291 0.351715
0.406219 0.404022 0.394318
0.446991 0.444885 0.434174
0.486298 0.484344 0.472748
0.521149 0.519623 0.507996
0.550690 0.549316 0.538940
0.579285 0.578003 0.567596
0.604156 0.603027 0.592499
0.627045 0.625977 0.615387
0.648804 0.647827 0.637177
0.666595 0.665710 0.655060
0.684479 0.683624 0.673065
0.700745 0.699982 0.689484
0.715393 0.714691 0.704224
0.121460 0.119171 0.117065
0.125519 0.123230 0.121002
0.130585 0.128265 0.125885
0.135529 0.133209 0.130707
0.141571 0.139252 0.136566
0.147766 0.145386 0.142548
0.155518 0.153137 0.150055
0.163055 0.160675 0.157410
0.171387 0.168976 0.165497
0.182129 0.179688 0.175903
0.192596 0.190186 0.186127
0.203827 0.201385 0.197021
0.217682 0.215240 0.210510
0.231750 0.229309 0.224182
0.247253 0.244781 0.239227
0.261566 0.259094 0.253174
0.277069 0.274658 0.268280
0.321899 0.319519 0.311981
0.363312 0.361023 0.352417
0.407776 0.405579 0.395813
0.447662 0.445587 0.434875
0.485901 0.483917 0.472382
0.522308 0.520782 0.509216
0.552521 0.551147 0.540955
0.579071 0.577789 0.567444
0.604919 0.603760 0.593201
0.626251 0.625183 0.614685
0.648743 0.647766 0.637177
0.666321 0.665436 0.654816
0.685059 0.684235 0.673645
0.702087 0.701294 0.690765
0.715912 0.715210 0.704742
0.142700 0.140350 0.137665
0.147919 0.145569 0.142700
0.153564 0.151184 0.148163
0.157990 0.155609 0.152496
0.163544 0.161163 0.157867
0.170044 0.167633 0.164185
0.179413 0.177002 0.173279
0.186737 0.184326 0.180420
0.197418 0.194977 0.190735
0.206543 0.204102 0.199646
0.217957 0.215515 0.210754
0.231079 0.228638 0.223511
0.243195 0.240723 0.235321
0.257996 0.255554 0.249756
0.273926 0.271515 0.265259
0.290588 0.288208 0.281433
0.305145 0.302765 0.295654
0.321655 0.319305 0.311768
0.364594 0.362274 0.353638
0.406525 0.404297 0.394623
0.448822 0.446747 0.435974
0.486908 0.484955 0.473358
0.522156 0.520630 0.508972
0.553925 0.552551 0.542297
0.578674 0.577393 0.567108
0.605957 0.604797 0.594238
0.628418 0.627380 0.616760
0.649384 0.648407 0.637817
0.666412 0.665497 0.654938
0.686127 0.685303 0.674713
0.702057 0.701294 0.690765
0.715149 0.714417 0.704041
0.163635 0.161255 0.157959
0.167847 0.165466 0.162109
0.173279 0.170868 0.167358
0.179352 0.176941 0.173248
0.185242 0.182800 0.178955
0.192871 0.190430 0.186371
0.201752 0.199310 0.194977
0.211029 0.208588 0.204010
0.220367 0.217926 0.213074
0.231293 0.228851 0.223694
0.243439 0.240997 0.235535
0.256348 0.253906 0.248077
0.269379 0.266937 0.260803
0.284271 0.281830 0.275299
0.301331 0.298950 0.291931
0.316437 0.314056 0.306671
0.334808 0.332489 0.324524
0.350006 0.347687 0.339417
0.365112 0.362823 0.354187
0.407806 0.405609 0.395874
0.448425 0.446350 0.435608
0.486938 0.484955 0.473358
0.521973 0.520477 0.508698
0.552704 0.551300 0.541046
0.579590 0.578339 0.567993
0.605804 0.604645 0.594147
0.627930 0.626862 0.616302
0.649109 0.648132 0.637543
0.667084 0.666199 0.655609
0.685455 0.684601 0.674103
0.701813 0.701050 0.690613
0.716156 0.715454 0.705048
0.183868 0.181458 0.177643
0.190613 0.188202 0.184174
0.196014 0.193573 0.189423
0.201416 0.198944 0.194672
0.208130 0.205688 0.201202
0.214325 0.211853 0.207245
0.222992 0.220551 0.215668
0.233856 0.231384 0.226196
0.243103 0.240631 0.235199
0.255463 0.253021 0.247223
0.268219 0.265778 0.259644
0.280640 0.278229 0.271759
0.295746 0.293335 0.286469
0.310547 0.308167 0.300934
0.328033 0.325653 0.317932
0.343903 0.341553 0.333435
0.360687 0.358398 0.349823
0.377899 0.375641 0.366638
0.393524 0.391296 0.381897
0.408356 0.406158 0.396423
0.449646 0.447510 0.436768
0.488007 0.486084 0.474487
0.523285 0.521790 0.510162
0.555115 0.553711 0.543457
0.580109 0.578827 0.568512
0.606445 0.605286 0.594788
0.629395 0.628357 0.617767
0.651062 0.650085 0.639465
0.668274 0.667389 0.656769
0.685547 0.684723 0.674225
0.703064 0.702301 0.691803
0.717896 0.717194 0.706726
0.205322 0.202881 0.198456
0.210846 0.208405 0.203827
0.217560 0.215088 0.210327
0.224548 0.222107 0.217133
0.229950 0.227478 0.222412
0.236542 0.234070 0.228851
0.246796 0.244354 0.238800
0.257050 0.254608 0.248749
0.267487 0.265076 0.258911
0.277679 0.275238 0.268860
0.291382 0.288971 0.282227
0.304596 0.302185 0.295105
0.318024 0.315643 0.308258
0.336853 0.334503 0.326538
0.354004 0.351715 0.343262
0.370453 0.368164 0.359314
0.386810 0.384583 0.375336
0.401978 0.399750 0.390198
0.419128 0.416931 0.406952
0.434174 0.432037 0.421692
0.449799 0.447723 0.436981
0.489014 0.487061 0.475433
0.523621 0.522125 0.510498
0.555298 0.553925 0.543701
0.581390 0.580170 0.569763
0.606659 0.605530 0.595001
0.630035 0.628967 0.618378
0.650940 0.649963 0.639374
0.667816 0.666901 0.656372
0.686768 0.685913 0.675415
0.703613 0.702820 0.692352
0.718689 0.717987 0.707520
0.226349 0.223907 0.218903
0.232269 0.229828 0.224670
0.238861 0.236420 0.231079
0.244568 0.242096 0.236603
0.251862 0.249420 0.243744
0.259399 0.256958 0.251068
0.267151 0.264709 0.258667
0.279755 0.277313 0.270844
0.288879 0.286469 0.279785
0.299988 0.297546 0.290619
0.313080 0.310669 0.303406
0.328827 0.326477 0.318756
0.344086 0.341736 0.333588
0.359283 0.356964 0.348480
0.376617 0.374359 0.365417
0.391907 0.389648 0.380371
0.410950 0.408752 0.398956
0.428101 0.425964 0.415710
0.444000 0.441895 0.431305
0.461060 0.458984 0.447968
0.474426 0.472382 0.461121
0.490875 0.488953 0.477264
0.525452 0.523926 0.512573
0.554718 0.553345 0.543182
0.582550 0.581299 0.570892
0.607635 0.606506 0.595978
0.630432 0.629395 0.618805
0.651489 0.650513 0.639923
0.668182 0.667297 0.656769
0.687958 0.687134 0.676544
0.704651 0.703888 0.693359
0.718781 0.718079 0.707642
0.247437 0.244995 0.239410
0.252197 0.249725 0.244019
0.258179 0.255707 0.249878
0.265228 0.262787 0.256744
0.272705 0.270264 0.264008
0.281128 0.278687 0.272217
0.291412 0.289001 0.282196
0.302094 0.299683 0.292603
0.312561 0.310181 0.302826
0.321564 0.319153 0.311676
0.337982 0.335602 0.327637
0.350525 0.348175 0.339905
0.367767 0.365479 0.356720
0.384979 0.382751 0.373505
0.400543 0.398315 0.388763
0.416199 0.414032 0.404114
0.433807 0.431641 0.421326
0.453949 0.451874 0.440948
0.469543 0.467529 0.456299
0.483734 0.481750 0.470276
0.497772 0.495850 0.484161
0.512512 0.510681 0.498749
0.525879 0.524384 0.512970
0.556122 0.554749 0.544525
0.584045 0.582794 0.572327
0.608704 0.607574 0.597015
0.630005 0.628967 0.618408
0.651978 0.651031 0.640411
0.670685 0.669769 0.659149
0.688477 0.687622 0.677063
0.704529 0.703766 0.693298
0.719025 0.718323 0.707916
0.266510 0.264099 0.257996
0.272064 0.269623 0.263397
0.277466 0.275024 0.268677
0.284912 0.282501 0.275940
0.291962 0.289551 0.282806
0.299683 0.297241 0.290314
0.311981 0.309601 0.302246
0.322723 0.320374 0.312744
0.332214 0.329834 0.322021
0.343628 0.341278 0.333191
0.356628 0.354279 0.345886
0.371979 0.369659 0.360870
0.387360 0.385101 0.375916
0.407074 0.404846 0.395081
0.423492 0.421356 0.411194
0.439178 0.437042 0.426544
0.457367 0.455292 0.444397
0.476288 0.474274 0.462860
0.491211 0.489288 0.477722
0.506287 0.504425 0.492584
0.520294 0.518738 0.507019
0.533081 0.531647 0.520508
0.544128 0.542725 0.532043
0.557434 0.556061 0.545776
0.584137 0.582886 0.572449
0.609436 0.608307 0.597687
0.630524 0.629456 0.618896
0.651581 0.650574 0.640045
0.670044 0.669128 0.658569
0.689209 0.688416 0.677826
0.705170 0.704407 0.693909
0.718292 0.717590 0.707245
0.281525 0.279083 0.272675
0.289154 0.286713 0.280060
0.297333 0.294922 0.287994
0.303497 0.301086 0.294037
0.310089 0.307678 0.300476
0.316956 0.314545 0.307220
0.327118 0.324738 0.317078
0.339386 0.337067 0.329041
0.351166 0.348816 0.340485
0.363892 0.361603 0.352905
0.377106 0.374817 0.365845
0.391174 0.388916 0.379608
0.407776 0.405548 0.395844
0.423828 0.421661 0.411560
0.443329 0.441223 0.430603
0.458557 0.456482 0.445557
0.478363 0.476349 0.464874
0.494080 0.492126 0.480438
0.510956 0.509186 0.497375
0.524719 0.523224 0.511688
0.537292 0.535858 0.524902
0.551239 0.549866 0.539642
0.562653 0.561340 0.551086
0.572906 0.571594 0.561310
0.584320 0.583038 0.572632
0.609467 0.608307 0.597748
0.631287 0.630219 0.619659
0.652252 0.651276 0.640717
0.669342 0.668427 0.657898
0.689117 0.688293 0.677734
0.705536 0.704803 0.694305
0.719482 0.718781 0.708374
0.299133 0.296722 0.289795
0.305115 0.302704 0.295624
0.312317 0.309937 0.302673
0.319733 0.317352 0.309875
0.328461 0.326111 0.318390
0.336456 0.334106 0.326202
0.344482 0.342102 0.334015
0.355682 0.353363 0.344971
0.370087 0.367767 0.358917
0.382263 0.380005 0.370850
0.396820 0.394592 0.385071
0.410431 0.408234 0.398438
0.427795 0.425629 0.415375
0.442078 0.439972 0.429443
0.460327 0.458221 0.447266
0.477112 0.475098 0.463776
0.495544 0.493561 0.481812
0.511292 0.509491 0.497467
0.527222 0.525726 0.514374
0.542236 0.540802 0.530457
0.555786 0.554413 0.544006
0.569092 0.567780 0.557404
0.578552 0.577271 0.566956
0.589294 0.588043 0.577698
0.598907 0.597687 0.587280
0.610321 0.609192 0.598602
0.630951 0.629883 0.619354
0.652832 0.651825 0.641266
0.671143 0.670227 0.659637
0.689728 0.688934 0.678345
0.705444 0.704712 0.694244
0.718719 0.718018 0.707672
0.316742 0.314362 0.306915
0.321228 0.318848 0.311340
0.328064 0.325684 0.318024
0.336334 0.334015 0.326080
0.344116 0.341766 0.333679
0.352966 0.350647 0.342285
0.362335 0.360046 0.351440
0.372955 0.370667 0.361816
0.386292 0.384064 0.374817
0.398773 0.396515 0.386993
0.412781 0.410583 0.400726
0.428619 0.426483 0.416199
0.444946 0.442841 0.432159
0.461151 0.459076 0.448059
0.477112 0.475098 0.463776
0.496185 0.494263 0.482483
0.511902 0.510254 0.498627
0.528778 0.527222 0.516083
0.542023 0.540619 0.529907
0.557465 0.556122 0.545807
0.570923 0.569611 0.559265
0.583923 0.582672 0.572205
0.595306 0.594086 0.583618
0.605804 0.604645 0.594147
0.614746 0.613647 0.603119
0.623535 0.622437 0.611908
0.631683 0.630615 0.620087
0.652649 0.651672 0.641144
0.670837 0.669922 0.659363
0.689117 0.688293 0.677795
0.705414 0.704651 0.694214
0.718964 0.718262 0.707916
0.333008 0.330658 0.322784
0.339630 0.337280 0.329224
0.345062 0.342712 0.334564
0.352478 0.350189 0.341827
0.360840 0.358551 0.349976
0.368988 0.366699 0.357971
0.379395 0.377136 0.368103
0.389587 0.387329 0.378082
0.402649 0.400421 0.390778
0.414246 0.412048 0.402191
0.429596 0.427429 0.417175
0.444885 0.442780 0.432129
0.461700 0.459656 0.448578
0.478119 0.476135 0.464691
0.495636 0.493835 0.482025
0.513062 0.511322 0.499634
0.528992 0.527527 0.516418
