滤镜资源/Professional Luts Collection/Triune-Digital-Cinematic-LUTs/3D LUTs (CUBE)/REDLOGFILM/BW/Casino Royale 1 - REDlogFilm.cube
#Created by Benjamin (IWLTBAP) : http://luts.iwltbap.com
#Copyright: (C) Copyright 2016 Triune Films and IWLTBAP
TITLE "Blockbuster LUTs Pack (REDlogFilm)"
#LUT size
LUT_3D_SIZE 8
#LUT data points
DOMAIN_MIN 0.000000 0.000000 0.000000
DOMAIN_MAX 0.903226 0.903226 0.903226
0.000000 0.000000 0.000000
0.008484 0.007751 0.007935
0.039001 0.037384 0.037231
0.121765 0.119507 0.117310
0.270233 0.267792 0.261597
0.436493 0.434326 0.423981
0.572937 0.571625 0.561218
0.658203 0.657227 0.646698
0.004028 0.003540 0.003723
0.008423 0.007660 0.007904
0.039734 0.038147 0.037933
0.121674 0.119385 0.117249
0.272522 0.270111 0.263824
0.440430 0.438324 0.427765
0.573456 0.572174 0.561737
0.660492 0.659546 0.648956
0.017914 0.016785 0.016937
0.026093 0.024750 0.024811
0.040710 0.039093 0.038879
0.124420 0.122131 0.119904
0.271881 0.269440 0.263214
0.440796 0.438660 0.428162
0.574585 0.573303 0.562927
0.661316 0.660400 0.649811
0.054321 0.052490 0.052002
0.068024 0.066071 0.065247
0.089874 0.087769 0.086426
0.125000 0.122742 0.120514
0.275116 0.272675 0.266357
0.444580 0.442474 0.431854
0.577209 0.575928 0.565521
0.663727 0.662781 0.652191
0.121460 0.119171 0.117065
0.141571 0.139252 0.136566
0.171387 0.168976 0.165497
0.217682 0.215240 0.210510
0.277069 0.274658 0.268280
0.447662 0.445587 0.434875
0.579071 0.577789 0.567444
0.666321 0.665436 0.654816
0.205322 0.202881 0.198456
0.229950 0.227478 0.222412
0.267487 0.265076 0.258911
0.318024 0.315643 0.308258
0.386810 0.384583 0.375336
0.449799 0.447723 0.436981
0.581390 0.580170 0.569763
0.667816 0.666901 0.656372
0.281525 0.279083 0.272675
0.310089 0.307678 0.300476
0.351166 0.348816 0.340485
0.407776 0.405548 0.395844
0.478363 0.476349 0.464874
0.537292 0.535858 0.524902
0.584320 0.583038 0.572632
0.669342 0.668427 0.657898
0.346100 0.343781 0.335571
0.374512 0.372223 0.363342
0.416260 0.414062 0.404114
0.475464 0.473450 0.462097
0.541748 0.540344 0.529846
0.599426 0.598236 0.587677
0.641724 0.640747 0.630127
0.672791 0.671936 0.661285
0.000244 0.000153 0.000214
0.000793 0.000610 0.000702
0.018707 0.017548 0.017731
0.082703 0.080627 0.079468
0.212891 0.210419 0.205811
0.371704 0.369415 0.360626
0.510956 0.509216 0.497467
0.602661 0.601501 0.591034
0.005493 0.004883 0.005066
0.017639 0.016571 0.016693
0.057648 0.055847 0.055237
0.151428 0.149078 0.146118
0.308929 0.306519 0.299347
0.481537 0.479492 0.468079
0.609894 0.608765 0.598236
0.694275 0.693481 0.682953
0.020386 0.019165 0.019348
0.040619 0.039001 0.038818
0.057800 0.055969 0.055420
0.151672 0.149292 0.146362
0.311951 0.309570 0.302277
0.482788 0.480804 0.469360
0.611023 0.609894 0.599396
0.696259 0.695496 0.684937
0.058044 0.056183 0.055634
0.090088 0.087982 0.086670
0.115234 0.112976 0.110992
0.153809 0.151428 0.148407
0.312836 0.310455 0.303162
0.485138 0.483154 0.471649
0.613281 0.612152 0.601654
0.697052 0.696259 0.685791
0.127960 0.125641 0.123352
0.171936 0.169525 0.166046
0.204712 0.202271 0.197876
0.252930 0.250458 0.244812
0.316254 0.313873 0.306458
0.490173 0.488190 0.476532
0.616974 0.615875 0.605286
0.700165 0.699402 0.688904
0.214844 0.212402 0.207703
0.266205 0.263763 0.257721
0.305695 0.303284 0.296143
0.360168 0.357880 0.349335
0.428162 0.425995 0.415802
0.492493 0.490540 0.478821
0.618347 0.617249 0.606720
0.702698 0.701935 0.691406
0.291992 0.289581 0.282837
0.351257 0.348938 0.340607
0.391357 0.389130 0.379791
0.448547 0.446472 0.435791
0.517761 0.516052 0.504608
0.577179 0.575897 0.565521
0.620636 0.619568 0.609009
0.704346 0.703583 0.693054
0.355835 0.353546 0.345093
0.416351 0.414154 0.404205
0.459503 0.457458 0.446442
0.515778 0.514069 0.502502
0.579315 0.578033 0.567688
0.634186 0.633118 0.622589
0.675812 0.674957 0.664368
0.705719 0.704956 0.694427
0.000641 0.000488 0.000549
0.001312 0.001068 0.001190
0.002716 0.002319 0.002472
0.040558 0.038940 0.038727
0.144318 0.141968 0.139221
0.287476 0.285065 0.278381
0.419769 0.417633 0.407562
0.521851 0.520325 0.508820
0.006714 0.006042 0.006226
0.019928 0.018768 0.018890
0.023956 0.022675 0.022766
0.093414 0.091309 0.089874
0.228821 0.226349 0.221313
0.390808 0.388550 0.379242
0.527802 0.526184 0.515015
0.618469 0.617371 0.606842
0.023956 0.022675 0.022766
0.046021 0.044312 0.044006
0.086365 0.084290 0.083069
0.197632 0.195221 0.191010
0.366089 0.363770 0.355103
0.538849 0.537354 0.526642
0.661377 0.660431 0.649811
0.739960 0.739319 0.729095
0.064697 0.062775 0.062073
0.098175 0.096008 0.094452
0.154297 0.151917 0.148895
0.199677 0.197235 0.192932
0.369324 0.367035 0.358246
0.541992 0.540527 0.530090
0.663788 0.662872 0.652222
0.741791 0.741180 0.730957
0.138885 0.136566 0.133911
0.183655 0.181244 0.177399
0.253204 0.250763 0.245056
0.307373 0.304993 0.297821
0.371277 0.368988 0.360168
0.544830 0.543427 0.533081
0.665710 0.664795 0.654205
0.743744 0.743134 0.732941
0.226562 0.224091 0.219086
0.279999 0.277557 0.271118
0.360535 0.358246 0.349670
0.416748 0.414551 0.404633
0.488708 0.486725 0.475067
0.548767 0.547394 0.536987
0.667328 0.666412 0.655853
0.746033 0.745392 0.735260
0.306519 0.304138 0.296936
0.365356 0.363068 0.354370
0.448334 0.446228 0.435608
0.509491 0.507843 0.495819
0.572235 0.570953 0.560608
0.628601 0.627563 0.616943
0.669739 0.668854 0.658264
0.747620 0.747009 0.736877
0.367920 0.365631 0.356903
0.430023 0.427856 0.417633
0.516724 0.515167 0.503235
0.570831 0.569519 0.559143
0.630127 0.629028 0.618500
0.683960 0.683105 0.672485
0.721436 0.720764 0.710388
0.748993 0.748444 0.738281
0.001404 0.001129 0.001251
0.002380 0.001984 0.002136
0.003967 0.003448 0.003662
0.006927 0.006226 0.006439
0.068054 0.066132 0.065308
0.178436 0.176025 0.172363
0.297363 0.294952 0.288025
0.392517 0.390259 0.380951
0.008698 0.007935 0.008148
0.022888 0.021637 0.021729
0.027374 0.026031 0.026062
0.034668 0.033173 0.033081
0.133179 0.130859 0.128387
0.271179 0.268738 0.262512
0.402985 0.400787 0.391113
0.502228 0.500458 0.489044
0.028320 0.026947 0.026978
0.051727 0.049957 0.049500
0.094177 0.092041 0.090607
0.106628 0.104401 0.102661
0.248474 0.246033 0.240448
0.414368 0.412170 0.402283
0.549225 0.547821 0.537354
0.639557 0.638550 0.627960
0.074036 0.072021 0.071106
0.110168 0.107941 0.106079
0.169769 0.167389 0.163879
0.268921 0.266479 0.260315
0.450439 0.448364 0.437592
0.615295 0.614166 0.603638
0.726776 0.726105 0.715790
0.799194 0.798798 0.789307
0.151245 0.148895 0.145935
0.198761 0.196320 0.192078
0.272064 0.269623 0.263397
0.383911 0.381622 0.372528
0.453430 0.451355 0.440552
0.618378 0.617249 0.606720
0.729858 0.729218 0.718872
0.800964 0.800568 0.791138
0.241730 0.239258 0.233856
0.298584 0.296173 0.289215
0.380096 0.377838 0.368744
0.498688 0.496735 0.484955
0.564423 0.563080 0.552612
0.621643 0.620544 0.609955
0.730957 0.730286 0.720032
0.803040 0.802643 0.793213
0.323273 0.320892 0.313324
0.383728 0.381470 0.372314
0.470917 0.468903 0.457642
0.584320 0.583069 0.572632
0.643524 0.642517 0.631927
0.695465 0.694672 0.684143
0.732971 0.732330 0.722046
0.803833 0.803436 0.794067
0.388947 0.386719 0.377411
0.449707 0.447601 0.436890
0.535736 0.534302 0.523438
0.641479 0.640472 0.629883
0.696381 0.695587 0.685120
0.744415 0.743805 0.733673
0.780914 0.780457 0.770660
0.805084 0.804688 0.795319
0.002594 0.002228 0.002380
0.003784 0.003265 0.003479
0.005798 0.005157 0.005371
0.009247 0.008423 0.008636
0.014313 0.013275 0.013489
0.081329 0.079285 0.078156
0.169373 0.166962 0.163544
0.253632 0.251190 0.245453
0.011169 0.010284 0.010498
0.027679 0.026306 0.026306
0.031799 0.030334 0.030304
0.039856 0.038269 0.038086
0.050171 0.048431 0.048004
0.148224 0.145844 0.143005
0.259827 0.257385 0.251495
0.353394 0.351044 0.342682
0.032928 0.031464 0.031403
0.057465 0.055664 0.055115
0.102112 0.099915 0.098267
0.116302 0.114075 0.112030
0.132202 0.129913 0.127472
0.272095 0.269623 0.263397
0.402222 0.399994 0.390381
0.505463 0.503754 0.491974
0.082062 0.080017 0.078857
0.118988 0.116730 0.114685
0.179413 0.176971 0.173309
0.281067 0.278625 0.272156
0.302826 0.300415 0.293396
0.476227 0.474213 0.462891
0.604431 0.603271 0.592804
0.689758 0.688965 0.678406
0.167999 0.165588 0.162170
0.218628 0.216187 0.211395
0.292694 0.290283 0.283508
0.408264 0.406067 0.396301
0.548889 0.547516 0.536621
0.697906 0.697113 0.686584
0.797974 0.797577 0.788025
0.860596 0.860382 0.852325
0.261139 0.258698 0.252808
0.319458 0.317078 0.309570
0.402130 0.399902 0.390320
0.522858 0.521301 0.510071
0.647766 0.646790 0.636230
0.699432 0.698669 0.688171
0.798676 0.798279 0.788849
0.861694 0.861481 0.853485
0.344452 0.342102 0.334015
0.408295 0.406097 0.396301
0.492615 0.490662 0.479034
0.604156 0.602997 0.592499
0.720062 0.719360 0.709015
0.766846 0.766327 0.756348
0.800354 0.799927 0.790497
0.862671 0.862457 0.854553
0.412567 0.410400 0.400482
0.472534 0.470490 0.459290
0.556244 0.554871 0.544617
0.660187 0.659241 0.648682
0.768524 0.768005 0.758118
0.811798 0.811432 0.802185
0.842865 0.842590 0.834045
0.863831 0.863586 0.855682
0.003967 0.003448 0.003662
0.005554 0.004944 0.005127
0.007874 0.007111 0.007355
0.011932 0.011017 0.011230
0.017273 0.016113 0.016327
0.024017 0.022766 0.022827
0.080841 0.078796 0.077698
0.142822 0.140503 0.137787
0.014343 0.013336 0.013550
0.031830 0.030365 0.030334
0.036560 0.035004 0.034882
0.044983 0.043335 0.043030
0.056061 0.054260 0.053711
0.067078 0.065186 0.064362
0.149658 0.147308 0.144379
0.226471 0.224030 0.219086
0.037720 0.036163 0.036011
0.063385 0.061462 0.060791
0.111298 0.109070 0.107178
0.123657 0.121368 0.119171
0.141632 0.139282 0.136597
0.157349 0.154999 0.151886
0.269318 0.266876 0.260773
0.367340 0.365021 0.356262
0.088837 0.086731 0.085449
0.128143 0.125854 0.123535
0.190430 0.187988 0.183990
0.293640 0.291229 0.284393
0.315308 0.312927 0.305573
0.339233 0.336884 0.328857
0.474030 0.472015 0.460754
0.571381 0.570068 0.559723
0.178070 0.175629 0.171997
0.228912 0.226471 0.221405
0.304474 0.302063 0.294983
0.419769 0.417572 0.407593
0.560120 0.558746 0.548126
0.579681 0.578400 0.568085
0.696655 0.695831 0.685364
0.772491 0.772003 0.762085
0.282959 0.280548 0.273987
0.338013 0.335632 0.327728
0.423492 0.421356 0.411224
0.542542 0.541077 0.530640
0.666504 0.665588 0.654968
0.765167 0.764618 0.754700
0.854248 0.854004 0.845825
0.908600 0.908508 0.902344
0.365143 0.362823 0.354218
0.428680 0.426514 0.416260
0.515167 0.513580 0.501617
0.623169 0.622101 0.611511
0.736237 0.735626 0.725342
0.825226 0.824890 0.815979
0.855255 0.855042 0.846893
0.910095 0.910004 0.903870
0.431305 0.429169 0.418884
0.496063 0.494171 0.482513
0.576447 0.575134 0.564758
0.678802 0.677917 0.667297
0.783356 0.782898 0.773193
0.864899 0.864716 0.856842
0.892395 0.892273 0.885345
0.910858 0.910767 0.904694
0.005554 0.004913 0.005127
0.007111 0.006409 0.006622
0.009674 0.008850 0.009064
0.014160 0.013153 0.013367
0.020416 0.019226 0.019348
0.027222 0.025848 0.025879
0.033112 0.031647 0.031555
0.076874 0.074860 0.073822
0.016632 0.015533 0.015717
0.035461 0.033966 0.033844
0.040955 0.039337 0.039124
0.049469 0.047729 0.047333
0.060364 0.058502 0.057861
0.071930 0.069946 0.069061
0.081085 0.079041 0.077942
0.143677 0.141327 0.138580
0.041290 0.039673 0.039459
0.068848 0.066895 0.066071
0.116302 0.114044 0.112061
0.131683 0.129364 0.126953
0.148499 0.146118 0.143280
0.165771 0.163361 0.160034
0.180542 0.178131 0.174377
0.263123 0.260681 0.254730
0.096466 0.094330 0.092804
0.135406 0.133087 0.130554
0.197235 0.194763 0.190643
0.301758 0.299347 0.292358
0.326721 0.324341 0.316650
0.347137 0.344788 0.336639
0.365173 0.362885 0.354248
0.469055 0.467010 0.455811
0.187103 0.184692 0.180756
0.238190 0.235748 0.230438
0.315552 0.313141 0.305756
0.431183 0.429047 0.418762
0.570038 0.568726 0.558350
0.589386 0.588165 0.577789
0.607544 0.606384 0.595825
0.690582 0.689789 0.679260
0.291962 0.289551 0.282776
0.349762 0.347412 0.339142
0.434631 0.432495 0.422119
0.551086 0.549683 0.539246
0.674835 0.673981 0.663391
0.773560 0.773071 0.763184
0.786102 0.785645 0.775940
0.850159 0.849915 0.841583
0.384552 0.382294 0.373077
0.445587 0.443512 0.432861
0.531921 0.530457 0.519531
0.638397 0.637390 0.626740
0.749298 0.748718 0.738525
0.835754 0.835449 0.826782
0.893768 0.893646 0.886841
0.942596 0.942535 0.938141
0.450714 0.448639 0.437805
0.510651 0.508942 0.497253
0.591644 0.590424 0.579926
0.690948 0.690125 0.679626
0.794769 0.794342 0.784790
0.874603 0.874420 0.866882
0.926575 0.926514 0.921234
0.943146 0.943115 0.938782
0.006653 0.005981 0.006195
0.008240 0.007477 0.007690
0.011383 0.010468 0.010681
0.015625 0.014557 0.014771
0.022095 0.020844 0.020966
0.029327 0.027924 0.027954
0.035126 0.033569 0.033508
0.040894 0.039276 0.039062
0.018677 0.017517 0.017670
0.037720 0.036163 0.036011
0.043610 0.041962 0.041687
0.052551 0.050751 0.050293
0.063293 0.061371 0.060730
0.075317 0.073334 0.072357
0.085571 0.083496 0.082275
0.093414 0.091309 0.089874
0.043976 0.042297 0.042053
0.073151 0.071167 0.070221
0.123016 0.120758 0.118561
0.137482 0.135132 0.132538
0.154999 0.152618 0.149567
0.171387 0.168976 0.165497
0.184814 0.182373 0.178558
0.195312 0.192871 0.188782
0.100372 0.098175 0.096558
0.140625 0.138275 0.135620
0.205750 0.203308 0.198853
0.311615 0.309204 0.301910
0.333008 0.330658 0.322845
0.356842 0.354523 0.346039
0.373260 0.370972 0.362152
0.386597 0.384338 0.375153
0.191803 0.189362 0.185333
0.244568 0.242096 0.236633
0.322968 0.320618 0.312988
0.440033 0.437927 0.427399
0.576447 0.575195 0.564819
0.596100 0.594910 0.584503
0.613892 0.612762 0.602203
0.624847 0.623779 0.613220
0.298065 0.295654 0.288727
0.356964 0.354645 0.346191
0.441620 0.439514 0.428986
0.560272 0.558899 0.548340
0.680664 0.679810 0.669250
0.778259 0.777771 0.767975
0.790497 0.790039 0.780457
0.799774 0.799347 0.789917
0.392426 0.390198 0.380798
0.453918 0.451843 0.440979
0.536346 0.534882 0.523895
0.644379 0.643341 0.632721
0.754791 0.754211 0.744080
0.840393 0.840118 0.831573
0.898224 0.898102 0.891418
0.904663 0.904541 0.898224
0.460052 0.457977 0.447052
0.523407 0.521759 0.510468
0.602386 0.601227 0.590698
0.701233 0.700470 0.689972
0.803131 0.802734 0.793335
0.881073 0.880920 0.873596
0.932068 0.931976 0.927032
0.964569 0.964539 0.961639
