滤镜资源/Professional Luts Collection/Triune-Digital-Cinematic-LUTs/3D LUTs (CUBE)/REDLOGFILM/BW/Noir 3 - REDlogFilm.cube
#Created by Benjamin (IWLTBAP) : http://luts.iwltbap.com
#Copyright: (C) Copyright 2016 Triune Films and IWLTBAP
TITLE "Blockbuster LUTs Pack (REDlogFilm)"
#LUT size
LUT_3D_SIZE 5
#LUT data points
DOMAIN_MIN 0.000000 0.000000 0.000000
DOMAIN_MAX 0.903226 0.903226 0.903226
0.000000 0.000488 0.000244
0.022705 0.024933 0.028229
0.064758 0.070892 0.083008
0.161530 0.206360 0.218201
0.284851 0.344421 0.389252
0.020050 0.022217 0.025085
0.028442 0.030823 0.035034
0.075806 0.084106 0.099823
0.180695 0.234955 0.245392
0.317810 0.379364 0.428741
0.054382 0.058746 0.067749
0.068085 0.074860 0.088043
0.093811 0.105560 0.126526
0.210022 0.268585 0.287018
0.363647 0.427307 0.477081
0.126099 0.150513 0.172333
0.155212 0.196228 0.209442
0.193726 0.251007 0.264465
0.247681 0.306122 0.338989
0.412567 0.479004 0.523926
0.215576 0.274048 0.294495
0.257904 0.316559 0.353424
0.320557 0.382263 0.431824
0.392670 0.458099 0.505707
0.453491 0.520752 0.558807
0.010529 0.011932 0.013306
0.028442 0.030823 0.035034
0.075806 0.084106 0.099823
0.180695 0.234955 0.245392
0.317810 0.379364 0.428741
0.010010 0.011383 0.012695
0.061310 0.066803 0.077820
0.149750 0.187561 0.202118
0.304504 0.365051 0.413513
0.481537 0.549225 0.581940
0.039459 0.042236 0.048248
0.136536 0.166840 0.185394
0.174438 0.226410 0.236359
0.349487 0.412689 0.462860
0.529755 0.596771 0.620850
0.093567 0.105286 0.126190
0.262146 0.320892 0.359741
0.325745 0.387817 0.437683
0.398071 0.463867 0.510864
0.579102 0.640594 0.657654
0.171204 0.221466 0.231781
0.411041 0.477417 0.522644
0.484497 0.552185 0.584351
0.559296 0.623810 0.643433
0.618713 0.672699 0.685120
0.024689 0.026978 0.030579
0.046539 0.050049 0.057465
0.093811 0.105560 0.126526
0.210022 0.268585 0.287018
0.363647 0.427307 0.477081
0.024139 0.026367 0.029877
0.094666 0.106598 0.127808
0.174438 0.226410 0.236359
0.349487 0.412689 0.462860
0.529755 0.596771 0.620850
0.023346 0.025604 0.028992
0.092865 0.104431 0.125122
0.341370 0.404083 0.453766
0.565643 0.629425 0.648193
0.740936 0.771637 0.767944
0.061768 0.067352 0.078461
0.192352 0.249268 0.262390
0.540924 0.607178 0.629486
0.614929 0.669800 0.682587
0.774750 0.801849 0.793762
0.121674 0.144073 0.166199
0.318237 0.379761 0.429138
0.700317 0.737305 0.739655
0.762543 0.790771 0.783875
0.796600 0.821655 0.811951
0.042755 0.045898 0.052521
0.072327 0.079987 0.094543
0.142792 0.176605 0.193268
0.247681 0.306122 0.338989
0.412567 0.479004 0.523926
0.042053 0.045105 0.051605
0.144043 0.178589 0.194824
0.244263 0.302612 0.334076
0.398071 0.463867 0.510864
0.579102 0.640594 0.657654
0.041168 0.044128 0.050446
0.141327 0.174347 0.191437
0.445526 0.512604 0.552155
0.614929 0.669800 0.682587
0.774750 0.801849 0.793762
0.040192 0.043060 0.049194
0.138550 0.169983 0.187927
0.440430 0.507355 0.547760
0.800049 0.824890 0.814941
0.870605 0.887695 0.875824
0.079956 0.089081 0.105988
0.234039 0.292358 0.319763
0.600098 0.657562 0.672150
0.864777 0.882141 0.870117
0.881592 0.898285 0.886841
0.061127 0.066589 0.077545
0.104614 0.119690 0.142120
0.187439 0.243256 0.255280
0.319641 0.381256 0.430756
0.453491 0.520752 0.558807
0.060242 0.065521 0.076141
0.188751 0.244904 0.257172
0.315552 0.376923 0.426025
0.483429 0.551178 0.583527
0.618713 0.672699 0.685120
0.059021 0.064087 0.074341
0.186035 0.241547 0.253174
0.529907 0.596924 0.620972
0.699615 0.736542 0.739075
0.796600 0.821655 0.811951
0.057800 0.062653 0.072540
0.183197 0.238007 0.249023
0.524994 0.592316 0.617126
0.838043 0.858032 0.846588
0.881592 0.898285 0.886841
0.056824 0.061523 0.071136
0.180939 0.235199 0.245697
0.521027 0.588593 0.614044
0.836487 0.856659 0.845245
0.915558 0.933502 0.923401
