滤镜资源/Professional Luts Collection/Triune-Digital-Cinematic-LUTs/3D LUTs (CUBE)/REDLOGFILM/BW/Noir 3 - REDlogFilm.cube
#Created by Benjamin (IWLTBAP) : http://luts.iwltbap.com
#Copyright: (C) Copyright 2016 Triune Films and IWLTBAP
TITLE "Blockbuster LUTs Pack (REDlogFilm)"
#LUT size
LUT_3D_SIZE 8
#LUT data points
DOMAIN_MIN 0.000000 0.000000 0.000000
DOMAIN_MAX 0.903226 0.903226 0.903226
0.000000 0.000488 0.000244
0.012207 0.013733 0.015381
0.026947 0.029297 0.033203
0.048981 0.052795 0.060699
0.087189 0.097656 0.116730
0.145966 0.181610 0.197235
0.208618 0.267212 0.285156
0.284851 0.344421 0.389252
0.010834 0.012299 0.013702
0.014923 0.016693 0.018768
0.030029 0.032501 0.036926
0.053314 0.057587 0.066437
0.095032 0.107391 0.128235
0.156494 0.198303 0.211273
0.222992 0.281281 0.304382
0.302551 0.363129 0.410645
0.023590 0.025848 0.029266
0.028259 0.030609 0.034790
0.033630 0.036133 0.041138
0.058777 0.063782 0.074036
0.104401 0.119415 0.141876
0.168091 0.216919 0.227356
0.240570 0.298828 0.328766
0.323425 0.385345 0.435059
0.042114 0.045135 0.051666
0.047943 0.051605 0.059326
0.055481 0.060028 0.069397
0.065735 0.072083 0.084534
0.116730 0.137054 0.159180
0.182678 0.237274 0.248322
0.261719 0.320435 0.359039
0.349152 0.412262 0.462341
0.069550 0.076630 0.090302
0.079620 0.088654 0.105469
0.092621 0.104156 0.124756
0.109894 0.127289 0.149658
0.130951 0.158081 0.178375
0.199677 0.258209 0.273102
0.286926 0.346588 0.391876
0.378021 0.442566 0.491272
0.114044 0.133148 0.155487
0.127655 0.153046 0.174225
0.145966 0.181549 0.197205
0.167053 0.215210 0.225891
0.191376 0.248230 0.261078
0.219879 0.278168 0.300140
0.312439 0.373535 0.422546
0.405914 0.472107 0.518005
0.164581 0.211243 0.222473
0.180237 0.234375 0.244720
0.199707 0.258392 0.273224
0.229218 0.287415 0.312805
0.264221 0.322998 0.362427
0.300842 0.361145 0.409363
0.335571 0.398315 0.448761
0.431335 0.498322 0.540436
0.215576 0.274048 0.294495
0.238068 0.296387 0.325439
0.265259 0.324158 0.363403
0.300293 0.360748 0.407928
0.341736 0.404541 0.454529
0.383057 0.447815 0.496307
0.420166 0.486938 0.530823
0.453491 0.520752 0.558807
0.005676 0.006683 0.007324
0.014923 0.016693 0.018768
0.030029 0.032501 0.036926
0.053314 0.057587 0.066437
0.095032 0.107391 0.128235
0.156494 0.198303 0.211273
0.222992 0.281281 0.304382
0.302551 0.363129 0.410645
0.005432 0.006378 0.006958
0.028046 0.030396 0.034515
0.046448 0.049957 0.057343
0.078278 0.087006 0.103363
0.136017 0.166138 0.185059
0.206665 0.265137 0.282471
0.295807 0.355988 0.402466
0.387817 0.452820 0.500397
0.017914 0.019928 0.022491
0.044159 0.047455 0.054382
0.051025 0.055023 0.063385
0.086578 0.097015 0.115723
0.147797 0.184631 0.200165
0.223175 0.281525 0.304840
0.316437 0.377808 0.427002
0.410492 0.476624 0.521698
0.034546 0.037109 0.042267
0.070374 0.077606 0.091461
0.081421 0.090790 0.108124
0.097504 0.110992 0.131683
0.162598 0.207092 0.219910
0.243927 0.302277 0.333649
0.341827 0.404755 0.454926
0.437744 0.504852 0.545685
0.059174 0.064240 0.074554
0.116852 0.137634 0.158936
0.133209 0.161682 0.181335
0.154449 0.194946 0.208893
0.178375 0.230316 0.242126
0.267609 0.326538 0.366699
0.370636 0.434753 0.483948
0.468384 0.535828 0.571106
0.096405 0.108612 0.130371
0.174835 0.226288 0.237030
0.194214 0.251160 0.264954
0.221771 0.280182 0.303009
0.256287 0.314972 0.350830
0.291962 0.351898 0.397827
0.398529 0.464233 0.511017
0.497040 0.564758 0.594604
0.143707 0.178070 0.194397
0.240662 0.298950 0.328796
0.267792 0.326752 0.367004
0.303070 0.363617 0.411438
0.344757 0.407837 0.458069
0.386292 0.451172 0.499420
0.423340 0.490265 0.533722
0.522034 0.589203 0.614594
0.189697 0.246124 0.258575
0.313721 0.374847 0.423248
0.345856 0.408813 0.458679
0.385254 0.450165 0.497925
0.429840 0.496735 0.538849
0.473602 0.541107 0.575409
0.511200 0.578705 0.605988
0.543549 0.609131 0.631195
0.012238 0.013794 0.015442
0.021545 0.023743 0.026855
0.033630 0.036133 0.041138
0.058777 0.063782 0.074036
0.104401 0.119415 0.141876
0.168091 0.216919 0.227356
0.240570 0.298828 0.328766
0.323425 0.385345 0.435059
0.011993 0.013519 0.015106
0.035889 0.038574 0.043976
0.051025 0.055023 0.063385
0.086578 0.097015 0.115723
0.147797 0.184631 0.200165
0.223175 0.281525 0.304840
0.316437 0.377808 0.427002
0.410492 0.476624 0.521698
0.011658 0.013153 0.014709
0.035522 0.038177 0.043518
0.079254 0.088226 0.104950
0.131592 0.159119 0.179199
0.204956 0.263519 0.280243
0.307709 0.368500 0.417053
0.415771 0.482635 0.527344
0.514862 0.582764 0.609192
0.027191 0.029541 0.033539
0.058044 0.063141 0.073364
0.124817 0.148865 0.170258
0.145752 0.181366 0.197296
0.224731 0.283081 0.307007
0.332794 0.395355 0.445587
0.444122 0.511230 0.551086
0.541809 0.608032 0.630188
0.048676 0.052429 0.060272
0.097107 0.110718 0.131073
0.187653 0.243530 0.255585
0.213745 0.272217 0.291992
0.247589 0.306030 0.338745
0.361450 0.424988 0.474915
0.474274 0.541809 0.575989
0.571289 0.633881 0.651978
0.079071 0.087982 0.104645
0.150787 0.189331 0.203918
0.270294 0.329346 0.370392
0.305756 0.366425 0.414825
0.347687 0.410767 0.460907
0.389160 0.454376 0.502319
0.502991 0.570862 0.599487
0.599243 0.657227 0.671814
0.120575 0.142517 0.164703
0.207092 0.265350 0.283020
0.361664 0.425262 0.475159
0.401306 0.467346 0.514008
0.447266 0.514404 0.553711
0.490234 0.558075 0.589111
0.528015 0.595764 0.619812
0.624023 0.677002 0.688782
0.164978 0.211945 0.223022
0.273865 0.333252 0.373718
0.448120 0.515289 0.554352
0.489319 0.557007 0.588318
0.534149 0.600922 0.624268
0.576294 0.638245 0.655670
0.613342 0.668518 0.681488
0.645844 0.694031 0.703430
0.020020 0.022186 0.025055
0.030396 0.032806 0.037292
0.044495 0.047791 0.054810
0.065735 0.072083 0.084534
0.116730 0.137054 0.159180
0.182678 0.237274 0.248322
0.261719 0.320435 0.359039
0.349152 0.412262 0.462341
0.019745 0.021912 0.024719
0.047058 0.050629 0.058167
0.065094 0.071320 0.083527
0.097504 0.110992 0.131683
0.162598 0.207092 0.219910
0.243927 0.302277 0.333649
0.341827 0.404755 0.454926
0.437744 0.504852 0.545685
0.019440 0.021576 0.024323
0.046631 0.050171 0.057587
0.101349 0.115112 0.137512
0.145752 0.181366 0.197296
0.224731 0.283081 0.307007
0.332794 0.395355 0.445587
0.444122 0.511230 0.551086
0.541809 0.608032 0.630188
0.019073 0.021179 0.023895
0.046051 0.049561 0.056854
0.100189 0.113586 0.135864
0.216553 0.274841 0.296082
0.327576 0.389404 0.438629
0.453827 0.521118 0.559082
0.566498 0.629730 0.648468
0.663635 0.708008 0.715149
0.038239 0.040894 0.046661
0.076324 0.084717 0.100464
0.158813 0.202057 0.214478
0.313751 0.374878 0.423096
0.355713 0.419403 0.468933
0.484100 0.551758 0.584015
0.595886 0.654449 0.669464
0.692993 0.731567 0.734863
0.062622 0.068359 0.079773
0.123169 0.146606 0.167877
0.227600 0.285736 0.310547
0.423889 0.490692 0.533936
0.469696 0.537201 0.572205
0.512695 0.580475 0.607391
0.624054 0.677032 0.688782
0.720276 0.753937 0.753387
0.096405 0.108643 0.130371
0.174927 0.226135 0.237152
0.310364 0.371338 0.420197
0.525208 0.592224 0.617126
0.569519 0.632324 0.650665
0.611786 0.667206 0.680389
0.649292 0.696747 0.705719
0.740814 0.771637 0.768005
0.136139 0.166229 0.184906
0.230316 0.288757 0.314941
0.392975 0.458466 0.506012
0.610779 0.666168 0.679565
0.655731 0.701813 0.709900
0.698181 0.735687 0.738281
0.732452 0.764374 0.761993
0.756775 0.785614 0.779724
0.029602 0.032013 0.036346
0.041626 0.044617 0.051056
0.058136 0.062988 0.072968
0.086517 0.096863 0.115723
0.130951 0.158081 0.178375
0.199677 0.258209 0.273102
0.286926 0.346588 0.391876
0.378021 0.442566 0.491272
0.029297 0.031677 0.035980
0.061371 0.066864 0.077881
0.085510 0.095642 0.114227
0.125610 0.150452 0.170929
0.178375 0.230316 0.242126
0.267609 0.326538 0.366699
0.370636 0.434753 0.483948
0.468384 0.535828 0.571106
0.028931 0.031311 0.035583
0.060791 0.066193 0.077057
0.130005 0.156677 0.177185
0.178802 0.231995 0.242706
0.247589 0.306030 0.338745
0.361450 0.424988 0.474915
0.474274 0.541809 0.575989
0.571289 0.633881 0.651978
0.028503 0.030884 0.035095
0.060089 0.065399 0.076050
0.128662 0.154572 0.175537
0.264740 0.323730 0.361755
0.355713 0.419403 0.468933
0.484100 0.551758 0.584015
0.595886 0.654449 0.669464
0.692993 0.731567 0.734863
0.028046 0.030426 0.034546
0.059326 0.064514 0.074982
0.127258 0.152374 0.173737
0.262329 0.321228 0.358429
0.490265 0.557770 0.588989
0.617523 0.671844 0.684357
0.728271 0.760620 0.758850
0.792450 0.817871 0.808441
0.048523 0.052277 0.060089
0.096619 0.109467 0.130524
0.187622 0.243469 0.255554
0.364960 0.428894 0.478149
0.603546 0.660553 0.674713
0.646179 0.694305 0.703674
0.751831 0.781097 0.775757
0.807068 0.830963 0.820770
0.074097 0.082062 0.097168
0.143188 0.177368 0.194061
0.258759 0.317444 0.354980
0.465210 0.532623 0.568512
0.703705 0.739960 0.741882
0.742310 0.772552 0.768646
0.768097 0.795776 0.788300
0.818909 0.841339 0.830597
0.108063 0.124634 0.147034
0.190247 0.245789 0.258881
0.335266 0.397858 0.447937
0.551758 0.616302 0.637238
0.771545 0.798920 0.791260
0.795319 0.820465 0.810883
0.813873 0.837006 0.826477
0.828308 0.849548 0.838440
0.040131 0.042999 0.049103
0.053833 0.058136 0.067108
0.074524 0.082581 0.097870
0.111328 0.129272 0.151672
0.162292 0.207611 0.219299
0.219879 0.278168 0.300140
0.312439 0.373535 0.422546
0.405914 0.472107 0.518005
0.039764 0.042572 0.048615
0.078949 0.087799 0.104401
0.110138 0.127625 0.149994
0.156158 0.197815 0.210968
0.215027 0.273560 0.294006
0.291962 0.351898 0.397827
0.398529 0.464233 0.511017
0.497040 0.564758 0.594604
0.039337 0.042114 0.048035
0.078156 0.086914 0.103241
0.161774 0.206757 0.218536
0.215881 0.274261 0.294830
0.297333 0.357513 0.404724
0.389160 0.454376 0.502319
0.502991 0.570862 0.599487
0.599243 0.657227 0.671814
0.038818 0.041534 0.047394
0.077240 0.085785 0.101837
0.160400 0.204559 0.216675
0.316437 0.377716 0.426575
0.414673 0.480927 0.525360
0.512695 0.580475 0.607391
0.624054 0.677032 0.688782
0.720276 0.753937 0.753387
0.038239 0.040894 0.046631
0.076202 0.084564 0.100281
0.158875 0.202118 0.214569
0.313751 0.374939 0.423492
0.550049 0.615295 0.636292
0.646179 0.694305 0.703674
0.751831 0.781097 0.775757
0.807068 0.830963 0.820770
0.037720 0.040344 0.045990
0.075256 0.083405 0.098846
0.157440 0.199860 0.212555
0.311157 0.372253 0.420441
0.547241 0.612793 0.634186
0.762177 0.790497 0.783630
0.821716 0.843781 0.832947
0.859528 0.877289 0.865265
0.058472 0.063416 0.073486
0.115417 0.135406 0.157074
0.215271 0.273712 0.294037
0.407471 0.473297 0.518585
0.646576 0.694641 0.703857
0.815887 0.838745 0.828156
0.833191 0.853729 0.842438
0.867310 0.884552 0.872620
0.084869 0.094879 0.113251
0.159119 0.201752 0.215332
0.283478 0.342987 0.387482
0.494812 0.562256 0.592651
0.729034 0.761536 0.759644
0.851440 0.869934 0.858032
0.864075 0.881500 0.869476
0.873505 0.890442 0.878693
0.050323 0.054230 0.062439
0.066895 0.073456 0.086273
0.094086 0.105896 0.126953
0.136230 0.166351 0.184998
0.190552 0.247101 0.259796
0.260254 0.318939 0.357086
0.335571 0.398315 0.448761
0.431335 0.498322 0.540436
0.049835 0.053711 0.061798
0.099335 0.113068 0.134399
0.134857 0.164215 0.183289
0.184052 0.238831 0.250183
0.255219 0.313873 0.348999
0.340149 0.402985 0.453247
0.423340 0.490265 0.533722
0.522034 0.589203 0.614594
0.049316 0.053101 0.061096
0.098389 0.111969 0.133057
0.189880 0.246338 0.258911
0.256012 0.314667 0.350830
0.346100 0.409180 0.459412
0.442291 0.509369 0.549561
0.528015 0.595764 0.619812
0.624023 0.677002 0.688782
0.048737 0.052490 0.060364
0.097321 0.110596 0.131470
0.188416 0.244476 0.256714
0.366241 0.430359 0.479431
0.468170 0.535583 0.570923
0.564789 0.628357 0.647308
0.649292 0.696747 0.705719
0.740814 0.771637 0.768005
0.048187 0.051880 0.059662
0.096130 0.109100 0.129761
0.186707 0.242371 0.254211
0.363342 0.427307 0.476562
0.601990 0.659210 0.673584
0.699158 0.736176 0.738770
0.768097 0.795776 0.788300
0.818909 0.841339 0.830597
0.047638 0.051300 0.058929
0.095001 0.107666 0.128082
0.185120 0.240356 0.251892
0.360626 0.424469 0.473846
0.599121 0.656891 0.671600
0.792847 0.818359 0.808868
0.833191 0.853729 0.842438
0.867310 0.884552 0.872620
0.047180 0.050751 0.058289
0.094025 0.106445 0.126648
0.183685 0.238586 0.249786
0.358215 0.421936 0.471466
0.596649 0.654877 0.669891
0.791443 0.817078 0.807648
0.871704 0.888763 0.876953
0.894928 0.911896 0.900787
0.067871 0.074646 0.087769
0.132996 0.161621 0.180847
0.242828 0.301147 0.332062
0.443848 0.511047 0.550598
0.682831 0.723480 0.728149
0.832245 0.852966 0.841736
0.892761 0.909637 0.898468
0.899200 0.916321 0.905334
0.061127 0.066589 0.077545
0.081818 0.091278 0.108765
0.113892 0.132935 0.155273
0.160492 0.204712 0.216797
0.220856 0.279236 0.301636
0.299072 0.359283 0.406982
0.379730 0.444153 0.493134
0.453491 0.520752 0.558807
0.060638 0.065979 0.076782
0.119629 0.141663 0.162781
0.159119 0.202545 0.214874
0.212769 0.271027 0.290771
0.293243 0.353424 0.398804
0.384155 0.449005 0.497375
0.470001 0.537476 0.572449
0.543549 0.609131 0.631195
0.060059 0.065308 0.075897
0.118561 0.140076 0.161316
0.219910 0.278198 0.300201
0.294403 0.354492 0.400726
0.390167 0.455414 0.503265
0.488129 0.555908 0.587341
0.572784 0.635437 0.653290
0.645844 0.694031 0.703430
0.059418 0.064514 0.074890
0.117249 0.138153 0.159546
0.217957 0.276276 0.297577
0.411377 0.477264 0.521881
0.513519 0.580750 0.607697
0.609650 0.665405 0.678894
0.694824 0.732880 0.735992
0.756775 0.785614 0.779724
0.058655 0.063629 0.073761
0.115814 0.136017 0.157562
0.215790 0.274170 0.294678
0.408386 0.474121 0.519165
0.647339 0.695251 0.704315
0.739990 0.770691 0.767120
0.793518 0.818909 0.809357
0.828308 0.849548 0.838440
0.057953 0.062836 0.072784
0.114441 0.134033 0.155670
0.213776 0.272186 0.291992
0.405579 0.471161 0.516571
0.644440 0.692963 0.702393
0.814850 0.837799 0.827240
0.850128 0.868774 0.856873
0.873505 0.890442 0.878693
0.057373 0.062134 0.071899
0.113251 0.132263 0.154053
0.211945 0.270386 0.289551
0.403076 0.468536 0.514282
0.641937 0.691010 0.700714
0.813660 0.836792 0.826263
0.884247 0.900818 0.889435
0.899200 0.916321 0.905334
0.056824 0.061523 0.071136
0.112244 0.130829 0.152679
0.210419 0.268921 0.287506
0.400879 0.466248 0.512329
0.639740 0.689301 0.699219
0.812622 0.835876 0.825409
0.883667 0.900269 0.888855
0.915558 0.933502 0.923401
