滤镜资源/Professional Luts Collection/Triune-Digital-Cinematic-LUTs/3D LUTs (CUBE)/REDLOGFILM/BW/Noir 3 - REDlogFilm.cube
#Created by Benjamin (IWLTBAP) : http://luts.iwltbap.com
#Copyright: (C) Copyright 2016 Triune Films and IWLTBAP
TITLE "Blockbuster LUTs Pack (REDlogFilm)"
#LUT size
LUT_3D_SIZE 32
#LUT data points
0.000000 0.000488 0.000244
0.002899 0.003662 0.003876
0.005951 0.006958 0.007629
0.009003 0.010284 0.011444
0.012207 0.013733 0.015381
0.015442 0.017242 0.019409
0.018951 0.021057 0.023773
0.022705 0.024933 0.028229
0.026947 0.029297 0.033203
0.031464 0.033936 0.038605
0.036713 0.039337 0.044830
0.042664 0.045776 0.052399
0.048981 0.052795 0.060699
0.056458 0.061157 0.070770
0.064758 0.070892 0.083008
0.074677 0.082764 0.098083
0.087189 0.097656 0.116730
0.100677 0.114624 0.136475
0.114960 0.134460 0.156799
0.129517 0.155975 0.176453
0.145966 0.181610 0.197235
0.161530 0.206360 0.218201
0.176331 0.229492 0.238922
0.192200 0.249023 0.262146
0.208618 0.267212 0.285156
0.227264 0.285400 0.309998
0.246338 0.304749 0.337128
0.265839 0.324768 0.364227
0.284851 0.344421 0.389252
0.305511 0.366180 0.414459
0.326263 0.388245 0.437958
0.346405 0.409485 0.459717
0.002594 0.003296 0.003448
0.003540 0.004333 0.004639
0.006592 0.007660 0.008423
0.009644 0.010986 0.012238
0.012848 0.014465 0.016205
0.016083 0.017944 0.020203
0.019592 0.021759 0.024536
0.023438 0.025696 0.029083
0.027679 0.030029 0.034119
0.032227 0.034729 0.039490
0.037598 0.040283 0.045959
0.043549 0.046753 0.053558
0.049988 0.053894 0.062042
0.057617 0.062531 0.072510
0.065918 0.072296 0.084808
0.076294 0.084656 0.100494
0.088989 0.099792 0.119385
0.102722 0.117401 0.139374
0.117096 0.137512 0.159821
0.132019 0.159882 0.179565
0.148651 0.185791 0.200592
0.163910 0.210144 0.221527
0.178986 0.232819 0.242859
0.194916 0.252289 0.266113
0.212067 0.270569 0.289764
0.230957 0.289062 0.315094
0.250000 0.308472 0.342407
0.269897 0.328979 0.369476
0.289062 0.348846 0.394440
0.309845 0.370819 0.419556
0.330719 0.393036 0.442902
0.350983 0.414246 0.464386
0.005310 0.006226 0.006805
0.006287 0.007294 0.008026
0.007294 0.008392 0.009277
0.010345 0.011719 0.013062
0.013519 0.015198 0.017029
0.016754 0.018677 0.021057
0.020294 0.022461 0.025360
0.024231 0.026520 0.030029
0.028442 0.030823 0.035034
0.033020 0.035522 0.040436
0.038574 0.041290 0.047119
0.044464 0.047791 0.054779
0.051025 0.055054 0.063385
0.058838 0.063934 0.074280
0.067261 0.073914 0.086853
0.078064 0.086761 0.103149
0.090942 0.102112 0.122253
0.104858 0.120239 0.142426
0.119354 0.140747 0.163025
0.134705 0.164001 0.183014
0.151276 0.189941 0.204071
0.166443 0.214172 0.225067
0.181763 0.236267 0.246948
0.197815 0.255798 0.270325
0.215637 0.274078 0.294556
0.234772 0.292938 0.320526
0.253876 0.312408 0.347931
0.274017 0.333191 0.374939
0.293549 0.353607 0.399719
0.314362 0.375641 0.424805
0.335358 0.397919 0.447998
0.355774 0.419159 0.469208
0.008026 0.009186 0.010193
0.009003 0.010254 0.011383
0.010010 0.011353 0.012665
0.011017 0.012482 0.013916
0.014221 0.015930 0.017883
0.017456 0.019440 0.021881
0.020966 0.023163 0.026154
0.025024 0.027313 0.030945
0.029236 0.031647 0.035950
0.033813 0.036377 0.041382
0.039520 0.042328 0.048309
0.045471 0.048889 0.056091
0.052094 0.056213 0.064789
0.060028 0.065338 0.075989
0.068756 0.075684 0.089111
0.079895 0.088989 0.105927
0.092957 0.104736 0.125183
0.106995 0.123108 0.145538
0.121643 0.144104 0.166077
0.137390 0.168152 0.186462
0.153839 0.194061 0.207611
0.168945 0.218170 0.228577
0.184601 0.239746 0.251099
0.200836 0.259277 0.274628
0.219238 0.277588 0.299377
0.238617 0.296875 0.326050
0.257751 0.316376 0.353455
0.278168 0.337463 0.380463
0.297974 0.358246 0.405060
0.319061 0.380615 0.429962
0.340057 0.402893 0.453125
0.360626 0.424133 0.474121
0.010834 0.012299 0.013702
0.011810 0.013336 0.014923
0.012817 0.014435 0.016174
0.013855 0.015533 0.017456
0.014923 0.016693 0.018768
0.018158 0.020203 0.022766
0.021698 0.023895 0.027008
0.025818 0.028137 0.031891
0.030029 0.032501 0.036926
0.034729 0.037292 0.042480
0.040527 0.043396 0.049591
0.046539 0.050049 0.057465
0.053314 0.057587 0.066437
0.061310 0.066772 0.077789
0.070404 0.077637 0.091614
0.081879 0.091339 0.108856
0.095032 0.107391 0.128235
0.109344 0.126465 0.148865
0.124023 0.147705 0.169220
0.140198 0.172546 0.190002
0.156494 0.198303 0.211273
0.171600 0.222351 0.232239
0.187622 0.243408 0.255463
0.204224 0.262909 0.279297
0.222992 0.281281 0.304382
0.242645 0.300964 0.331818
0.261932 0.320679 0.359222
0.282471 0.341919 0.386200
0.302551 0.363129 0.410645
0.323914 0.385742 0.435303
0.345062 0.408112 0.458374
0.365753 0.429443 0.479309
0.013702 0.015381 0.017273
0.014709 0.016449 0.018494
0.015717 0.017548 0.019745
0.016724 0.018646 0.020996
0.017822 0.019775 0.022339
0.018921 0.020966 0.023682
0.022491 0.024689 0.027954
0.026642 0.028992 0.032867
0.030853 0.033325 0.037872
0.035767 0.038361 0.043701
0.041534 0.044525 0.050903
0.047546 0.051178 0.058807
0.054565 0.058990 0.068146
0.062592 0.068329 0.079742
0.072083 0.079651 0.094147
0.083862 0.093719 0.111786
0.097076 0.109924 0.131256
0.111755 0.129883 0.152222
0.126465 0.151428 0.172424
0.143097 0.177094 0.193604
0.159180 0.202606 0.214966
0.174286 0.226593 0.236023
0.190643 0.247070 0.259888
0.208038 0.266663 0.284393
0.226898 0.285126 0.309631
0.246704 0.305115 0.337616
0.266357 0.325256 0.365051
0.286987 0.346619 0.392029
0.307251 0.368073 0.416351
0.328857 0.390991 0.440704
0.350159 0.413391 0.463501
0.370972 0.434814 0.484528
0.016846 0.018768 0.021149
0.017822 0.019806 0.022339
0.018829 0.020935 0.023621
0.019867 0.022034 0.024872
0.020935 0.023132 0.026123
0.022064 0.024261 0.027435
0.023407 0.025635 0.029022
0.027527 0.029907 0.033936
0.031738 0.034241 0.038910
0.036896 0.039490 0.045013
0.042603 0.045715 0.052338
0.048676 0.052429 0.060272
0.055908 0.060547 0.070038
0.063995 0.070007 0.081909
0.073883 0.081818 0.096863
0.086029 0.096313 0.115021
0.099365 0.112793 0.134552
0.114319 0.133575 0.155914
0.129181 0.155518 0.175964
0.146210 0.181946 0.197510
0.162048 0.207245 0.218964
0.177368 0.230804 0.240509
0.193909 0.251068 0.264648
0.212189 0.270721 0.289978
0.231323 0.289459 0.315613
0.251129 0.309631 0.343994
0.271149 0.330200 0.371338
0.291962 0.351807 0.398346
0.312439 0.373566 0.422577
0.334229 0.396667 0.446594
0.355652 0.419067 0.469055
0.376556 0.440735 0.490082
0.020050 0.022217 0.025085
0.021027 0.023224 0.026215
0.022125 0.024353 0.027527
0.023285 0.025543 0.028900
0.024506 0.026794 0.030334
0.025726 0.028046 0.031799
0.027069 0.029419 0.033386
0.028442 0.030823 0.035034
0.032684 0.035187 0.040039
0.038025 0.040710 0.046387
0.043701 0.046936 0.053741
0.049835 0.053741 0.061829
0.057312 0.062164 0.072021
0.065460 0.071747 0.084106
0.075806 0.084106 0.099823
0.088287 0.098969 0.118317
0.101746 0.115814 0.138092
0.117004 0.137390 0.159668
0.132263 0.160217 0.179962
0.149475 0.187042 0.201691
0.165039 0.212036 0.223114
0.180695 0.234955 0.245392
0.197235 0.255188 0.269531
0.216431 0.274872 0.295624
0.235962 0.294098 0.322083
0.255646 0.314240 0.350525
0.276123 0.335327 0.377838
0.297272 0.357452 0.404602
0.317810 0.379364 0.428741
0.339752 0.402496 0.452606
0.361359 0.424988 0.474762
0.382233 0.446808 0.495575
0.023590 0.025848 0.029266
0.024689 0.026978 0.030579
0.025848 0.028198 0.031952
0.027039 0.029388 0.033325
0.028259 0.030609 0.034790
0.029510 0.031921 0.036255
0.030823 0.033295 0.037842
0.032196 0.034698 0.039490
0.033630 0.036133 0.041138
0.039185 0.041901 0.047852
0.044830 0.048187 0.055267
0.051117 0.055115 0.063477
0.058777 0.063782 0.074036
0.067230 0.073853 0.086792
0.078064 0.086761 0.103119
0.090576 0.101715 0.121704
0.104401 0.119415 0.141876
0.119751 0.141357 0.163513
0.135468 0.165161 0.184052
0.152527 0.191956 0.205872
0.168091 0.216919 0.227356
0.184052 0.239136 0.250336
0.200714 0.259399 0.274567
0.220764 0.279114 0.301453
0.240570 0.298828 0.328766
0.260345 0.319031 0.357269
0.281128 0.340546 0.384399
0.302704 0.363220 0.410980
0.323425 0.385345 0.435059
0.345428 0.408478 0.458740
0.367126 0.431000 0.480560
0.388000 0.453064 0.501160
0.027618 0.029999 0.034058
0.028717 0.031128 0.035339
0.029877 0.032288 0.036713
0.031067 0.033508 0.038116
0.032288 0.034790 0.039551
0.033539 0.036102 0.041077
0.035095 0.037659 0.042908
0.036804 0.039398 0.044922
0.038574 0.041260 0.047028
0.040375 0.043243 0.049438
0.046112 0.049591 0.056915
0.052612 0.056793 0.065491
0.060333 0.065613 0.076263
0.069153 0.076172 0.089691
0.080444 0.089630 0.106689
0.093018 0.104706 0.125336
0.107330 0.123566 0.145966
0.122711 0.145813 0.167419
0.138885 0.170532 0.188354
0.155823 0.197266 0.210419
0.171326 0.222137 0.231873
0.187744 0.243652 0.255707
0.205261 0.263947 0.280670
0.225403 0.283691 0.307709
0.245605 0.303986 0.335968
0.265656 0.324463 0.364349
0.286621 0.346222 0.391541
0.308594 0.369476 0.417908
0.329498 0.391724 0.441559
0.351685 0.414948 0.465057
0.373474 0.437622 0.486847
0.394104 0.459686 0.507111
0.031830 0.034271 0.039001
0.032990 0.035492 0.040405
0.034210 0.036774 0.041870
0.035553 0.038147 0.043457
0.037079 0.039734 0.045288
0.038605 0.041351 0.047150
0.040222 0.043091 0.049225
0.041901 0.044922 0.051392
0.043610 0.046814 0.053619
0.045471 0.048859 0.056061
0.047424 0.051025 0.058624
0.054199 0.058594 0.067688
0.061981 0.067566 0.078766
0.071167 0.078552 0.092743
0.082886 0.092560 0.110352
0.095612 0.107849 0.129150
0.110321 0.127869 0.150238
0.125854 0.150482 0.171539
0.142456 0.176086 0.192810
0.159210 0.202698 0.215088
0.174805 0.227386 0.236786
0.191528 0.248322 0.261261
0.210052 0.268646 0.287109
0.230560 0.288727 0.314636
0.250763 0.309265 0.343384
0.271301 0.330353 0.371735
0.292389 0.352234 0.398926
0.314606 0.375916 0.424988
0.335815 0.398315 0.448242
0.358185 0.421692 0.471619
0.380035 0.444458 0.493439
0.400574 0.466644 0.513397
0.036652 0.039276 0.044769
0.037994 0.040710 0.046448
0.039429 0.042236 0.048218
0.040894 0.043793 0.050049
0.042328 0.045410 0.051971
0.043823 0.047089 0.053925
0.045441 0.048889 0.056061
0.047241 0.050812 0.058380
0.049011 0.052826 0.060730
0.051025 0.055023 0.063385
0.053375 0.057678 0.066528
0.055847 0.060486 0.069946
0.063721 0.069672 0.081451
0.073303 0.081116 0.096008
0.085480 0.095642 0.114166
0.098267 0.111084 0.133087
0.113434 0.132324 0.154663
0.129272 0.155701 0.176056
0.146179 0.181946 0.197601
0.162781 0.208374 0.219971
0.178650 0.232208 0.242401
0.195435 0.253113 0.266968
0.215027 0.273499 0.293793
0.235901 0.294067 0.322021
0.256134 0.314758 0.351105
0.277161 0.336395 0.379272
0.298584 0.358765 0.406342
0.320923 0.382690 0.432281
0.342346 0.405151 0.455170
0.364807 0.428650 0.478180
0.386688 0.451630 0.499878
0.407196 0.473755 0.519775
0.042114 0.045135 0.051666
0.043427 0.046631 0.053436
0.044861 0.048218 0.055267
0.046356 0.049866 0.057251
0.047943 0.051605 0.059326
0.049530 0.053375 0.061401
0.051300 0.055359 0.063751
0.053345 0.057587 0.066406
0.055481 0.060028 0.069397
0.057800 0.062683 0.072662
0.060211 0.065491 0.076141
0.062775 0.068542 0.080017
0.065735 0.072083 0.084534
0.075775 0.084045 0.099670
0.088165 0.098846 0.118164
0.101318 0.115021 0.137482
0.116730 0.137054 0.159180
0.132996 0.161316 0.180939
0.149933 0.187897 0.202606
0.166412 0.214203 0.225006
0.182678 0.237274 0.248322
0.199646 0.258118 0.273041
0.220215 0.278564 0.300720
0.241455 0.299713 0.330017
0.261719 0.320435 0.359039
0.283234 0.342712 0.387146
0.305115 0.365784 0.413910
0.327606 0.389771 0.439697
0.349152 0.412262 0.462341
0.371704 0.435913 0.485016
0.393677 0.459045 0.506470
0.414398 0.481262 0.526276
0.047729 0.051392 0.059052
0.049347 0.053162 0.061157
0.050995 0.054962 0.063324
0.052582 0.056732 0.065399
0.054352 0.058716 0.067780
0.056213 0.060883 0.070404
0.058289 0.063263 0.073395
0.060455 0.065765 0.076508
0.062683 0.068390 0.079834
0.065094 0.071320 0.083527
0.067902 0.074677 0.087799
0.071045 0.078430 0.092590
0.074463 0.082458 0.097717
0.078430 0.087250 0.103668
0.090973 0.102142 0.122314
0.104645 0.119781 0.142212
0.120087 0.141998 0.163818
0.136780 0.167236 0.185699
0.153778 0.194031 0.207825
0.170135 0.220215 0.230194
0.186829 0.242462 0.254364
0.204620 0.263306 0.279846
0.225555 0.283844 0.307922
0.247192 0.305603 0.338257
0.267731 0.326660 0.367188
0.289520 0.349243 0.395325
0.311859 0.373016 0.421722
0.334625 0.397095 0.447083
0.356354 0.419739 0.469788
0.378876 0.443420 0.492157
0.400879 0.466736 0.513245
0.422150 0.489075 0.532745
0.054382 0.058746 0.067749
0.056061 0.060638 0.070068
0.057892 0.062775 0.072754
0.059723 0.064941 0.075470
0.061646 0.067200 0.078308
0.063599 0.069519 0.081238
0.065704 0.072052 0.084473
0.068085 0.074860 0.088043
0.070923 0.078278 0.092407
0.074005 0.081940 0.097046
0.077484 0.086121 0.102325
0.081360 0.090729 0.108063
0.085358 0.095490 0.113983
0.089539 0.100464 0.120178
0.093811 0.105560 0.126526
0.108093 0.124634 0.147064
0.123535 0.147034 0.168549
0.140625 0.173218 0.190521
0.157745 0.200348 0.213104
0.174133 0.225952 0.235901
0.191040 0.247772 0.260559
0.210022 0.268585 0.287018
0.231323 0.289459 0.315643
0.253082 0.311584 0.346588
0.274170 0.333313 0.375458
0.296051 0.356018 0.403656
0.318726 0.380341 0.429626
0.341766 0.404541 0.454590
0.363647 0.427307 0.477081
0.386230 0.451172 0.499451
0.408203 0.474548 0.520203
0.430023 0.497040 0.539337
0.061584 0.067139 0.078186
0.063354 0.069275 0.080933
0.065277 0.071503 0.083801
0.067169 0.073792 0.086700
0.069305 0.076324 0.089935
0.071899 0.079468 0.093842
0.074768 0.082825 0.098175
0.077759 0.086395 0.102722
0.081146 0.090485 0.107788
0.084808 0.094849 0.113190
0.088623 0.099396 0.118805
0.092590 0.104187 0.124695
0.096710 0.109161 0.130798
0.101318 0.115112 0.137451
0.106384 0.122253 0.144684
0.111450 0.129425 0.151794
0.127167 0.152344 0.173431
0.144623 0.179504 0.195618
0.161621 0.206482 0.218323
0.178192 0.231354 0.241821
0.195190 0.252960 0.266663
0.215363 0.273804 0.294159
0.237091 0.295258 0.323730
0.258881 0.317566 0.354889
0.280548 0.339935 0.383636
0.302795 0.363251 0.411530
0.325562 0.387665 0.437531
0.348785 0.411896 0.461975
0.370758 0.434845 0.484131
0.393402 0.458893 0.506409
0.415497 0.482269 0.527008
0.437744 0.504791 0.545776
0.069550 0.076630 0.090302
0.071808 0.079315 0.093719
0.074341 0.082336 0.097504
0.076935 0.085449 0.101440
0.079620 0.088654 0.105469
0.082581 0.092163 0.109863
0.085815 0.096008 0.114655
0.089172 0.100006 0.119629
0.092621 0.104156 0.124756
0.096497 0.109131 0.130432
0.100586 0.114288 0.136353
0.105072 0.120361 0.142792
0.109894 0.127289 0.149658
0.114929 0.134430 0.156769
0.120117 0.141968 0.163879
0.125244 0.149506 0.170898
0.130951 0.158081 0.178375
0.148590 0.185822 0.200928
0.165405 0.212616 0.223633
0.182373 0.236694 0.247925
0.199677 0.258209 0.273102
0.220734 0.279083 0.301392
0.242950 0.301300 0.332184
0.264832 0.323669 0.363281
0.286926 0.346588 0.391876
0.309723 0.370697 0.419434
0.332550 0.395081 0.445282
0.356079 0.419434 0.469482
0.378021 0.442566 0.491272
0.400940 0.466766 0.513245
0.423248 0.490173 0.533661
0.445648 0.512756 0.552399
0.079742 0.088806 0.105652
0.082397 0.091949 0.109558
0.085175 0.095245 0.113708
0.087982 0.098633 0.117920
0.090973 0.102173 0.122314
0.094055 0.105896 0.126831
0.097534 0.110382 0.131897
0.101227 0.115265 0.137268
0.105072 0.120392 0.142822
0.109467 0.126648 0.149017
0.113983 0.133057 0.155426
0.118713 0.139893 0.161987
0.123627 0.147247 0.168579
0.129059 0.155396 0.175751
0.134735 0.164062 0.183136
0.140472 0.172974 0.190338
0.146606 0.182678 0.198303
0.152527 0.192108 0.206207
0.169250 0.218689 0.228973
0.186554 0.242035 0.253998
0.204956 0.263458 0.280182
0.226318 0.284546 0.308838
0.248810 0.307281 0.340546
0.271118 0.330139 0.371521
0.293396 0.353302 0.400146
0.316620 0.378082 0.427338
0.339783 0.402557 0.452667
0.363495 0.427094 0.477020
0.385345 0.450348 0.498505
0.408386 0.474579 0.520050
0.431061 0.498077 0.540192
0.453369 0.520569 0.558807
0.090485 0.101593 0.121613
0.093170 0.104767 0.125580
0.096222 0.108673 0.130035
0.099396 0.112854 0.134613
0.102692 0.117310 0.139374
0.106110 0.121918 0.144257
0.109955 0.127350 0.149719
0.113953 0.133057 0.155396
0.118073 0.138885 0.161194
0.122467 0.145294 0.167267
0.127136 0.152405 0.173340
0.132355 0.160339 0.180054
0.138092 0.169250 0.187347
0.144012 0.178558 0.194794
0.149994 0.188019 0.202667
0.155853 0.197327 0.210510
0.161682 0.206665 0.218445
0.167389 0.215820 0.226410
0.173065 0.223938 0.234528
0.190552 0.247131 0.259827
0.210022 0.268463 0.286987
0.231842 0.289978 0.316315
0.254364 0.312958 0.348511
0.277222 0.336487 0.379364
0.299713 0.359955 0.407990
0.323212 0.385162 0.434875
0.346649 0.409637 0.459686
0.370422 0.434418 0.483826
0.392273 0.457703 0.505371
0.415527 0.482056 0.526581
0.438477 0.505554 0.546356
0.460510 0.527832 0.564697
0.101898 0.116058 0.138275
0.105133 0.120667 0.142853
0.108398 0.125183 0.147491
0.111755 0.129913 0.152283
0.115295 0.134949 0.157288
0.118896 0.140045 0.162354
0.122803 0.145660 0.167847
0.126892 0.151917 0.173126
0.131073 0.158386 0.178467
0.136353 0.166595 0.185181
0.141846 0.175140 0.192078
0.147552 0.184082 0.199280
0.153168 0.193024 0.206818
0.158875 0.202118 0.214600
0.164642 0.211395 0.222565
0.170288 0.220398 0.230438
0.176331 0.228943 0.239105
0.182617 0.237000 0.248230
0.188568 0.244629 0.256927
0.194489 0.252075 0.265656
0.215027 0.273407 0.293671
0.237335 0.295532 0.324127
0.259888 0.318573 0.356384
0.283264 0.342804 0.387115
0.306152 0.366821 0.415436
0.329742 0.392151 0.442322
0.353424 0.416687 0.466644
0.377197 0.441650 0.490479
0.399139 0.465027 0.511902
0.422577 0.489441 0.532990
0.445831 0.512970 0.552460
0.467560 0.535004 0.570496
0.114044 0.133148 0.155487
0.117279 0.137726 0.160065
0.120636 0.142578 0.164856
0.124054 0.147583 0.169525
0.127655 0.153046 0.174225
0.131439 0.158875 0.178955
0.135986 0.165955 0.184692
0.140930 0.173706 0.190887
0.145966 0.181549 0.197205
0.151276 0.189911 0.204010
0.156342 0.198029 0.211029
0.161621 0.206512 0.218353
0.167053 0.215210 0.225891
0.172668 0.224152 0.233734
0.178833 0.232391 0.242676
0.185059 0.240326 0.251801
0.191376 0.248230 0.261078
0.197937 0.256104 0.270569
0.205109 0.263641 0.280426
0.212677 0.271057 0.290497
0.219879 0.278168 0.300140
0.242554 0.300842 0.331604
0.265259 0.324066 0.363922
0.289062 0.348846 0.394501
0.312439 0.373535 0.422546
0.336151 0.398895 0.449219
0.359924 0.423431 0.473389
0.383728 0.448578 0.496948
0.405914 0.472107 0.518005
0.429535 0.496552 0.538940
0.452820 0.520081 0.558319
0.474365 0.541962 0.576080
0.126099 0.150513 0.172333
0.129425 0.155701 0.176483
0.133118 0.161469 0.181091
0.137085 0.167694 0.186096
0.141449 0.174530 0.191589
0.145905 0.181519 0.197205
0.150696 0.188995 0.203217
0.155212 0.196228 0.209442
0.159790 0.203583 0.215820
0.164673 0.211365 0.222626
0.169769 0.219513 0.229736
0.175110 0.227692 0.237213
0.181030 0.235352 0.245880
0.187317 0.243134 0.255096
0.193726 0.251007 0.264465
0.200104 0.258789 0.273743
0.208099 0.266693 0.284485
0.216217 0.274628 0.295319
0.223999 0.282227 0.305695
0.232117 0.290253 0.316711
0.239960 0.298248 0.327911
0.247681 0.306122 0.338989
0.270782 0.329803 0.371094
0.294800 0.354828 0.401825
0.318573 0.380127 0.429535
0.342468 0.405426 0.455688
0.366486 0.430176 0.480042
0.390106 0.455383 0.503204
0.412567 0.479004 0.523926
0.436401 0.503448 0.544617
0.459534 0.526825 0.563873
0.480927 0.548645 0.581482
0.139130 0.170929 0.188660
0.143097 0.177155 0.193695
0.147278 0.183655 0.198944
0.151367 0.190094 0.204254
0.155457 0.196594 0.209747
0.159454 0.203003 0.215302
0.163788 0.209930 0.221405
0.168274 0.217072 0.227661
0.172913 0.224365 0.234131
0.178040 0.231628 0.241486
0.183685 0.238617 0.249756
0.189636 0.245880 0.258423
0.195801 0.253357 0.267365
0.202606 0.261108 0.277008
0.210510 0.269073 0.287659
0.218536 0.276947 0.298492
0.226837 0.285095 0.309631
0.235535 0.293732 0.321594
0.243866 0.302216 0.333496
0.252167 0.310669 0.345337
0.260071 0.318756 0.356659
0.268066 0.326996 0.367584
0.276337 0.335571 0.378204
0.300385 0.360657 0.408875
0.324493 0.386475 0.436218
0.348663 0.411804 0.461975
0.372772 0.436768 0.486237
0.396332 0.462067 0.509277
0.419067 0.485748 0.529755
0.443024 0.510132 0.550140
0.466034 0.533447 0.569183
0.487396 0.555206 0.586761
0.152863 0.192474 0.206146
0.156494 0.198303 0.211212
0.160248 0.204346 0.216431
0.164062 0.210327 0.221771
0.168060 0.216553 0.227356
0.172119 0.222900 0.233032
0.176483 0.229706 0.239227
0.181488 0.235931 0.246552
0.186554 0.242249 0.253998
0.192169 0.248962 0.262115
0.198029 0.255981 0.270569
0.204590 0.263245 0.279785
0.212311 0.270813 0.290100
0.220306 0.278656 0.300812
0.228668 0.286835 0.312012
0.237305 0.295471 0.324036
0.246063 0.304443 0.336609
0.254883 0.313477 0.349182
0.263306 0.322083 0.361176
0.272095 0.331177 0.372833
0.280823 0.340210 0.383972
0.289276 0.349091 0.394806
0.297699 0.357819 0.405487
0.306122 0.366791 0.415405
0.330261 0.392639 0.442749
0.354614 0.417938 0.468018
0.378693 0.443146 0.492035
0.402283 0.468445 0.515015
0.425323 0.492218 0.535309
0.449402 0.516602 0.555420
0.472260 0.539764 0.574280
0.493652 0.561523 0.591858
0.164581 0.211243 0.222473
0.168182 0.217010 0.227539
0.171997 0.223022 0.232819
0.175934 0.228790 0.238434
0.180237 0.234375 0.244720
0.184753 0.239929 0.251312
0.189636 0.245941 0.258453
0.194611 0.252106 0.265778
0.199707 0.258392 0.273224
0.206512 0.265167 0.282349
0.213745 0.272217 0.292023
0.221191 0.279510 0.302002
0.229218 0.287415 0.312805
0.237854 0.296082 0.324860
0.246582 0.304993 0.337433
0.255280 0.313873 0.349854
0.264221 0.322998 0.362427
0.273682 0.332794 0.374817
0.282806 0.342316 0.386566
0.291931 0.351776 0.398315
0.300842 0.361145 0.409363
0.309998 0.370972 0.419830
0.318939 0.380524 0.429932
0.327576 0.389771 0.439728
0.335571 0.398315 0.448761
0.360168 0.423676 0.473633
0.384216 0.449066 0.497437
0.408112 0.474487 0.520233
0.431335 0.498322 0.540436
0.455353 0.522614 0.560394
0.477997 0.545624 0.579041
0.499512 0.567383 0.596680
0.176270 0.229279 0.238922
0.180267 0.234253 0.244781
0.184448 0.239502 0.250885
0.188629 0.244781 0.257019
0.193024 0.250244 0.263489
0.197571 0.255768 0.270081
0.203156 0.261780 0.277832
0.209473 0.267975 0.286255
0.215912 0.274323 0.294922
0.222809 0.281097 0.304138
0.230530 0.288635 0.314484
0.238525 0.296783 0.325897
0.246826 0.305206 0.337769
0.255432 0.313965 0.350159
0.264435 0.323212 0.362671
0.273773 0.332916 0.374908
0.283386 0.342896 0.387360
0.293030 0.352905 0.399811
0.302673 0.363129 0.411377
0.312469 0.373627 0.422577
0.321838 0.383636 0.433258
0.330963 0.393433 0.443665
0.340149 0.403015 0.453308
0.349091 0.412231 0.462372
0.357483 0.420868 0.470917
0.365814 0.429504 0.479340
0.389740 0.454987 0.502838
0.413879 0.480438 0.525238
0.437195 0.504242 0.545319
0.461151 0.528503 0.565186
0.483704 0.551422 0.583710
0.505249 0.573120 0.601349
0.188538 0.244690 0.256897
0.192566 0.249695 0.262817
0.196991 0.254913 0.269165
0.201874 0.260162 0.275940
0.207275 0.265625 0.283234
0.212738 0.271149 0.290588
0.218811 0.277130 0.298737
0.225433 0.283630 0.307556
0.232330 0.290527 0.317139
0.239746 0.298035 0.327698
0.247467 0.305908 0.338745
0.255524 0.314117 0.350311
0.264191 0.322998 0.362213
0.273499 0.332642 0.374359
0.282990 0.342499 0.386780
0.292511 0.352386 0.399109
0.302765 0.363281 0.411255
0.313049 0.374268 0.423126
0.322906 0.384796 0.434509
0.332794 0.395325 0.445465
0.342529 0.405396 0.455536
0.351959 0.415222 0.465302
0.361359 0.424896 0.474854
0.370544 0.434387 0.484100
0.378906 0.443329 0.492249
0.387054 0.452118 0.500244
0.394958 0.460602 0.507904
0.419586 0.486237 0.530151
0.442841 0.509979 0.549988
0.466644 0.534119 0.569733
0.489197 0.556976 0.588257
0.510834 0.578705 0.605927
0.201782 0.259918 0.275726
0.206818 0.264893 0.282471
0.211853 0.270111 0.289368
0.217010 0.275421 0.296356
0.222778 0.281097 0.304108
0.228821 0.287018 0.312286
0.235321 0.293579 0.321472
0.242126 0.300476 0.331146
0.249084 0.307556 0.341064
0.256622 0.315216 0.351837
0.264801 0.323669 0.362885
0.273468 0.332611 0.374298
0.282471 0.341919 0.386169
0.292114 0.352020 0.398346
0.302216 0.362732 0.410400
0.312286 0.373444 0.422363
0.322693 0.384583 0.434265
