滤镜资源/vsco滤镜3dlut 2017.8月更新/cube/VSCO L6 Landscape Series.cube
#Generated by Picture Instruments - Look Converter
LUT_3D_SIZE 5
0.0000 0.0000 0.0000
0.2196 0.0039 0.0078
0.4902 0.0157 0.0078
0.7647 0.0627 0.0039
0.9490 0.0588 0.0039
0.0118 0.2353 0.0157
0.2118 0.2392 0.0078
0.5255 0.2157 0.0000
0.8078 0.2000 0.0000
0.9725 0.1725 0.0039
0.0235 0.5098 0.0118
0.1765 0.5569 0.0078
0.5098 0.4980 0.0039
0.8314 0.4549 0.0039
0.9765 0.4510 0.0039
0.0314 0.7804 0.0196
0.1373 0.8078 0.0039
0.4392 0.8000 0.0039
0.8118 0.7451 0.0039
0.9725 0.7490 0.0039
0.0314 0.9569 0.0196
0.1216 0.9647 0.0039
0.4196 0.9647 0.0039
0.7843 0.9608 0.0039
0.9725 0.9647 0.0000
0.0431 0.0118 0.1647
0.2157 0.0039 0.1843
0.5098 0.0039 0.1373
0.7843 0.0039 0.1137
0.9490 0.0314 0.0902
0.0353 0.1608 0.1922
0.1765 0.2039 0.2118
0.5373 0.1843 0.1373
0.8157 0.1569 0.0941
0.9765 0.1176 0.0627
0.0353 0.4627 0.1882
0.0863 0.5216 0.1412
0.5216 0.4784 0.1137
0.8275 0.4235 0.1020
0.9843 0.4039 0.0510
0.0275 0.7647 0.1529
0.0706 0.7843 0.1059
0.4000 0.7686 0.0824
0.8157 0.7255 0.0902
0.9843 0.7137 0.0235
0.0275 0.9608 0.1529
0.0353 0.9686 0.0549
0.3529 0.9647 0.0353
0.7686 0.9569 0.0275
0.9843 0.9608 0.0118
0.0353 0.0235 0.3961
0.1529 0.0196 0.4392
0.4941 0.0078 0.4157
0.8157 0.0039 0.3490
0.9490 0.0549 0.3176
0.0235 0.1412 0.4353
0.0706 0.1333 0.4824
0.5255 0.1098 0.4745
0.8510 0.1059 0.3882
0.9608 0.1333 0.3412
0.0157 0.4000 0.4510
0.0549 0.4549 0.5137
0.4824 0.4824 0.4941
0.8431 0.4235 0.3961
0.9647 0.3804 0.3137
0.0196 0.7294 0.4588
0.0588 0.7608 0.4980
0.2745 0.7961 0.3922
0.8157 0.7333 0.3333
0.9569 0.6784 0.2314
0.0275 0.9451 0.4824
0.0588 0.9490 0.5020
0.2118 0.9529 0.3333
0.7176 0.9490 0.2157
0.9412 0.9451 0.1804
0.0627 0.0353 0.6471
0.1529 0.0353 0.6863
0.4235 0.0196 0.7137
0.8078 0.0118 0.6510
0.9569 0.0275 0.6314
0.0431 0.1059 0.7020
0.0706 0.0980 0.7412
0.4353 0.0824 0.7686
0.8431 0.0667 0.7216
0.9804 0.0941 0.6784
0.0392 0.3569 0.7216
0.0510 0.3922 0.7686
0.3451 0.3725 0.8039
0.8588 0.3529 0.7490
0.9804 0.3608 0.6745
0.0392 0.6353 0.7020
0.0588 0.6627 0.7490
0.3098 0.6980 0.7843
0.8235 0.7333 0.7333
0.9765 0.7020 0.6745
0.0471 0.9255 0.7294
0.0471 0.9333 0.7412
0.0863 0.9529 0.6980
0.6941 0.9647 0.6471
0.9647 0.9569 0.5961
0.0627 0.0353 0.8980
0.1843 0.0353 0.9137
0.4588 0.0235 0.9255
0.7647 0.0039 0.9333
0.9647 0.0039 0.9176
0.0392 0.0941 0.9294
0.0784 0.0824 0.9333
0.4627 0.0667 0.9412
0.7922 0.0392 0.9569
0.9725 0.0667 0.9490
0.0353 0.3490 0.9333
0.0510 0.3882 0.9373
0.3529 0.3529 0.9451
0.7882 0.3020 0.9529
0.9725 0.3412 0.9490
0.0392 0.6118 0.9255
0.0392 0.6314 0.9333
0.2745 0.6549 0.9412
0.7255 0.6667 0.9490
0.9765 0.6549 0.9529
0.0431 0.8980 0.9137
0.0510 0.9176 0.9294
0.1294 0.9294 0.9294
0.6471 0.9490 0.9451
0.9882 0.9725 0.9647
