滤镜资源/vsco滤镜3dlut 2017.8月更新/cube/VSCOX KT32 Kodak T Max 3200.cube
#Generated by Picture Instruments - Look Converter
LUT_3D_SIZE 5
0.1647 0.1647 0.1647
0.1843 0.1843 0.1843
0.2392 0.2392 0.2392
0.3333 0.3333 0.3333
0.5451 0.5451 0.5451
0.2235 0.2235 0.2235
0.2627 0.2627 0.2627
0.3333 0.3333 0.3333
0.4314 0.4314 0.4314
0.6471 0.6471 0.6471
0.3961 0.3961 0.3961
0.4471 0.4471 0.4471
0.5294 0.5294 0.5294
0.6275 0.6275 0.6275
0.7804 0.7804 0.7804
0.6431 0.6431 0.6431
0.6824 0.6824 0.6824
0.7333 0.7333 0.7333
0.7882 0.7882 0.7882
0.8745 0.8745 0.8745
0.8863 0.8863 0.8863
0.9020 0.9020 0.9020
0.9137 0.9137 0.9137
0.9294 0.9294 0.9294
0.9490 0.9490 0.9490
0.2078 0.2078 0.2078
0.2431 0.2431 0.2431
0.3216 0.3216 0.3216
0.4275 0.4275 0.4275
0.6314 0.6314 0.6314
0.2902 0.2902 0.2902
0.3451 0.3451 0.3451
0.4235 0.4235 0.4235
0.5216 0.5216 0.5216
0.7137 0.7137 0.7137
0.4902 0.4902 0.4902
0.5412 0.5412 0.5412
0.6157 0.6157 0.6157
0.6941 0.6941 0.6941
0.8275 0.8275 0.8275
0.7059 0.7059 0.7059
0.7451 0.7451 0.7451
0.7843 0.7843 0.7843
0.8314 0.8314 0.8314
0.8980 0.8980 0.8980
0.9059 0.9059 0.9059
0.9176 0.9176 0.9176
0.9294 0.9294 0.9294
0.9412 0.9412 0.9412
0.9569 0.9569 0.9569
0.3373 0.3373 0.3373
0.3843 0.3843 0.3843
0.4706 0.4706 0.4706
0.5686 0.5686 0.5686
0.7373 0.7373 0.7373
0.4471 0.4471 0.4471
0.5020 0.5020 0.5020
0.5804 0.5804 0.5804
0.6627 0.6627 0.6627
0.8000 0.8000 0.8000
0.6353 0.6353 0.6353
0.6784 0.6784 0.6784
0.7333 0.7333 0.7333
0.7882 0.7882 0.7882
0.8745 0.8745 0.8745
0.7922 0.7922 0.7922
0.8235 0.8235 0.8235
0.8510 0.8510 0.8510
0.8784 0.8784 0.8784
0.9216 0.9216 0.9216
0.9294 0.9294 0.9294
0.9373 0.9373 0.9373
0.9451 0.9451 0.9451
0.9529 0.9529 0.9529
0.9647 0.9647 0.9647
0.5373 0.5373 0.5373
0.5804 0.5804 0.5804
0.6549 0.6549 0.6549
0.7255 0.7255 0.7255
0.8314 0.8314 0.8314
0.6275 0.6275 0.6275
0.6745 0.6745 0.6745
0.7294 0.7294 0.7294
0.7843 0.7843 0.7843
0.8706 0.8706 0.8706
0.7647 0.7647 0.7647
0.8000 0.8000 0.8000
0.8314 0.8314 0.8314
0.8667 0.8667 0.8667
0.9137 0.9137 0.9137
0.8706 0.8706 0.8706
0.8863 0.8863 0.8863
0.9020 0.9020 0.9020
0.9216 0.9216 0.9216
0.9490 0.9490 0.9490
0.9490 0.9490 0.9490
0.9529 0.9529 0.9529
0.9608 0.9608 0.9608
0.9686 0.9686 0.9686
0.9765 0.9765 0.9765
0.8157 0.8157 0.8157
0.8431 0.8431 0.8431
0.8667 0.8667 0.8667
0.8941 0.8941 0.8941
0.9176 0.9176 0.9176
0.8627 0.8627 0.8627
0.8863 0.8863 0.8863
0.9020 0.9020 0.9020
0.9176 0.9176 0.9176
0.9373 0.9373 0.9373
0.9137 0.9137 0.9137
0.9255 0.9255 0.9255
0.9373 0.9373 0.9373
0.9451 0.9451 0.9451
0.9569 0.9569 0.9569
0.9451 0.9451 0.9451
0.9529 0.9529 0.9529
0.9569 0.9569 0.9569
0.9647 0.9647 0.9647
0.9725 0.9725 0.9725
0.9686 0.9686 0.9686
0.9765 0.9765 0.9765
0.9765 0.9765 0.9765
0.9804 0.9804 0.9804
0.9843 0.9843 0.9843
