滤镜资源/vsco滤镜3dlut 2017.8月更新/cube/VSCO L8 Landscape Series.cube
#Generated by Picture Instruments - Look Converter
LUT_3D_SIZE 5
0.0039 0.0000 0.0000
0.2431 0.0039 0.0039
0.6510 0.0000 0.0039
0.8784 0.0039 0.0039
0.9569 0.0039 0.0078
0.0392 0.2549 0.0706
0.1804 0.2078 0.0039
0.6039 0.2000 0.0039
0.8706 0.1137 0.0000
0.9686 0.0275 0.0078
0.1216 0.5882 0.1451
0.1098 0.5765 0.0627
0.5804 0.5137 0.0039
0.8471 0.5176 0.0078
0.9451 0.5137 0.0039
0.1725 0.8157 0.2000
0.1686 0.8235 0.1922
0.4275 0.7961 0.0039
0.8314 0.7686 0.0000
0.9373 0.7765 0.0000
0.1922 0.9098 0.2196
0.1882 0.9216 0.2118
0.3020 0.9176 0.0078
0.7529 0.9137 0.0000
0.9216 0.9098 0.0000
0.0510 0.0078 0.2000
0.2471 0.0039 0.2471
0.6745 0.0039 0.1961
0.8784 0.0078 0.1216
0.9569 0.0078 0.0314
0.0549 0.2314 0.1882
0.2275 0.2549 0.2314
0.6824 0.2118 0.1569
0.8980 0.1059 0.0745
0.9725 0.0196 0.0196
0.1255 0.5804 0.2196
0.1490 0.6039 0.2510
0.6078 0.5686 0.0078
0.8588 0.5725 0.0039
0.9765 0.5529 0.0157
0.1725 0.8157 0.1882
0.1686 0.8275 0.2000
0.4275 0.8157 0.0000
0.8471 0.8078 0.0000
0.9569 0.8000 0.0039
0.1961 0.9137 0.2431
0.1961 0.9216 0.2549
0.2902 0.9216 0.0392
0.7686 0.9255 0.0353
0.9333 0.9176 0.0314
0.1412 0.0078 0.5608
0.2314 0.0118 0.5961
0.6549 0.0078 0.5882
0.8980 0.0039 0.5333
0.9569 0.0039 0.5412
0.1451 0.2000 0.5843
0.2353 0.2235 0.6314
0.6824 0.2157 0.6275
0.9216 0.0902 0.5804
0.9686 0.0353 0.5882
0.1569 0.5961 0.5373
0.1882 0.6157 0.5843
0.6471 0.6118 0.5922
0.9020 0.5804 0.5373
0.9686 0.5608 0.5490
0.2000 0.8353 0.5255
0.2039 0.8510 0.5647
0.5608 0.8471 0.6000
0.8745 0.8275 0.4667
0.9569 0.8353 0.5020
0.2235 0.9216 0.5216
0.2314 0.9333 0.5608
0.4510 0.9294 0.5922
0.8039 0.9412 0.3176
0.9294 0.9255 0.3725
0.2157 0.0196 0.8078
0.2588 0.0157 0.8314
0.6039 0.0118 0.8392
0.8941 0.0118 0.8235
0.9608 0.0118 0.8157
0.2353 0.1490 0.8471
0.2745 0.1765 0.8706
0.6314 0.1608 0.8745
0.9137 0.0706 0.8588
0.9804 0.0235 0.8510
0.2431 0.5608 0.8314
0.2431 0.5922 0.8471
0.6000 0.5843 0.8627
0.9059 0.5804 0.8471
0.9843 0.5490 0.8431
0.2627 0.8431 0.8078
0.2627 0.8549 0.8196
0.5137 0.8549 0.8431
0.8863 0.8471 0.8275
0.9804 0.8392 0.8235
0.2667 0.9529 0.7725
0.2667 0.9608 0.7922
0.3882 0.9608 0.8078
0.8627 0.9569 0.8314
0.9608 0.9451 0.7882
0.2471 0.0000 0.9255
0.2745 0.0000 0.9294
0.5804 0.0039 0.9333
0.8667 0.0000 0.9294
0.9647 0.0039 0.9176
0.2510 0.1137 0.9333
0.2824 0.1412 0.9333
0.6039 0.1137 0.9412
0.8784 0.0000 0.9333
0.9804 0.0235 0.9294
0.2627 0.5490 0.9294
0.2706 0.5765 0.9333
0.5843 0.5647 0.9333
0.8667 0.5490 0.9333
0.9804 0.5529 0.9255
0.2863 0.8392 0.9255
0.2863 0.8471 0.9255
0.4941 0.8392 0.9294
0.8431 0.8314 0.9216
0.9843 0.8353 0.9216
0.2941 0.9569 0.9176
0.2980 0.9608 0.9216
0.3843 0.9529 0.9176
0.8000 0.9412 0.9176
0.9843 0.9569 0.9216
