滤镜资源/vsco滤镜3dlut 2017.8月更新/cube/VSCO L4 Landscape Series.cube
#Generated by Picture Instruments - Look Converter
LUT_3D_SIZE 5
0.0000 0.0000 0.0039
0.2353 0.0039 0.0118
0.5137 0.0235 0.0118
0.7765 0.0902 0.0078
0.9490 0.1137 0.0157
0.0118 0.2549 0.0157
0.2314 0.2667 0.0078
0.5529 0.2431 0.0039
0.8078 0.2588 0.0039
0.9765 0.2824 0.0196
0.0392 0.5412 0.0157
0.2431 0.5804 0.0078
0.5451 0.5255 0.0039
0.8196 0.5059 0.0039
0.9765 0.5333 0.0353
0.0510 0.7843 0.0235
0.2314 0.8118 0.0078
0.5294 0.8000 0.0039
0.8039 0.7686 0.0000
0.9725 0.7804 0.0078
0.0667 0.9686 0.0902
0.2863 0.9765 0.0549
0.5529 0.9647 0.0667
0.8039 0.9765 0.0627
0.9725 0.9765 0.0627
0.0353 0.0078 0.2118
0.1882 0.0039 0.2510
0.5098 0.0078 0.1922
0.7765 0.0039 0.2118
0.9490 0.0980 0.2549
0.0275 0.2196 0.2275
0.1608 0.2431 0.2510
0.5451 0.2235 0.1765
0.8078 0.2392 0.2039
0.9843 0.2667 0.2431
0.0275 0.5098 0.2275
0.1137 0.5451 0.2314
0.5412 0.5059 0.1569
0.8039 0.5059 0.2039
0.9882 0.5216 0.2353
0.0275 0.7765 0.2196
0.1176 0.7922 0.2118
0.4980 0.7647 0.1412
0.7922 0.7686 0.1765
0.9882 0.7804 0.2078
0.0431 0.9647 0.2667
0.1804 0.9647 0.2667
0.5216 0.9412 0.1882
0.7961 0.9725 0.2235
0.9882 0.9765 0.2314
0.0118 0.0078 0.4627
0.1255 0.0078 0.5098
0.4784 0.0118 0.4941
0.7843 0.0039 0.4980
0.9490 0.1333 0.5098
0.0078 0.1922 0.4980
0.0667 0.2039 0.5451
0.5137 0.2157 0.5373
0.8157 0.2235 0.5373
0.9647 0.2863 0.5373
0.0039 0.4941 0.5020
0.0549 0.5373 0.5569
0.4902 0.5176 0.5373
0.8039 0.5098 0.5216
0.9647 0.5294 0.5412
0.0039 0.7765 0.4902
0.0627 0.8039 0.5294
0.4392 0.8078 0.4863
0.7882 0.7804 0.4706
0.9608 0.8000 0.5020
0.0235 0.9608 0.5216
0.1137 0.9647 0.5686
0.4784 0.9608 0.5216
0.7804 0.9569 0.5020
0.9529 0.9686 0.5255
0.0314 0.0196 0.7176
0.1059 0.0118 0.7569
0.4039 0.0118 0.7647
0.7294 0.0157 0.7608
0.9451 0.0863 0.7608
0.0235 0.1490 0.7686
0.0471 0.1647 0.8078
0.4353 0.1569 0.8196
0.7569 0.2000 0.8157
0.9686 0.2549 0.8118
0.0235 0.4471 0.7804
0.0314 0.4902 0.8235
0.3882 0.4471 0.8431
0.7765 0.4627 0.8275
0.9725 0.5020 0.8078
0.0235 0.7451 0.7529
0.0353 0.7804 0.7922
0.3529 0.7765 0.8118
0.7569 0.7647 0.7961
0.9686 0.7843 0.7922
0.0235 0.9490 0.7529
0.0235 0.9647 0.7686
0.1216 0.9765 0.7529
0.7333 0.9725 0.7686
0.9686 0.9882 0.7765
0.0000 0.0039 0.9529
0.1216 0.0039 0.9686
0.4353 0.0078 0.9686
0.7333 0.0118 0.9686
0.9412 0.0706 0.9529
0.0039 0.1333 0.9843
0.0745 0.1451 0.9843
0.4706 0.1451 0.9922
0.7647 0.1843 0.9922
0.9647 0.2431 0.9725
0.0039 0.4431 0.9843
0.0471 0.4980 0.9882
0.4196 0.4431 0.9922
0.7608 0.4471 0.9882
0.9686 0.4941 0.9804
0.0039 0.7333 0.9765
0.0078 0.7569 0.9882
0.3451 0.7608 0.9882
0.7255 0.7137 0.9882
0.9725 0.7333 0.9804
0.0118 0.9490 0.9608
0.0235 0.9647 0.9765
0.2314 0.9725 0.9843
0.6902 0.9686 0.9882
0.9843 0.9843 0.9922
