滤镜资源/Professional Luts Collection/Triune-Digital-Cinematic-LUTs/3D LUTs (CUBE)/ALEXA/BW/Casino Royale 2 - Alexa.cube
#Created by Benjamin (IWLTBAP) : http://luts.iwltbap.com
#Copyright: (C) Copyright 2016 Triune Films and IWLTBAP
TITLE "Blockbuster LUTs Pack (Alexa Log-C)"
#LUT size
LUT_3D_SIZE 32
#LUT data points
0.004608 0.004608 0.020264
0.004150 0.004150 0.019836
0.004822 0.004822 0.020447
0.005707 0.005707 0.021240
0.005096 0.005096 0.020691
0.007294 0.007294 0.022736
0.006714 0.006714 0.022186
0.010437 0.010437 0.025665
0.009613 0.009613 0.024902
0.018372 0.018372 0.033051
0.032410 0.032410 0.046112
0.049164 0.049164 0.061646
0.070984 0.070984 0.081970
0.093628 0.093628 0.103058
0.118744 0.118744 0.126404
0.153320 0.153320 0.158539
0.192627 0.192627 0.195099
0.230682 0.230682 0.230499
0.266693 0.266693 0.264008
0.306885 0.306885 0.301392
0.331757 0.331757 0.324524
0.343079 0.343079 0.335052
0.352173 0.352173 0.343506
0.361023 0.361023 0.351746
0.369690 0.369690 0.359802
0.377106 0.377106 0.366699
0.384613 0.384613 0.373657
0.392517 0.392517 0.381012
0.400818 0.400818 0.388763
0.409882 0.409882 0.397186
0.416840 0.416840 0.403656
0.423920 0.423920 0.410217
0.005676 0.005676 0.021240
0.004913 0.004913 0.020508
0.005341 0.005341 0.020905
0.006714 0.006714 0.022186
0.006287 0.006287 0.021790
0.007202 0.007202 0.022644
0.007965 0.007965 0.023346
0.009705 0.009705 0.024963
0.011688 0.011688 0.026825
0.020844 0.020844 0.035339
0.035034 0.035034 0.048553
0.052032 0.052032 0.064331
0.074097 0.074097 0.084869
0.097443 0.097443 0.106598
0.124237 0.124237 0.131500
0.158539 0.158539 0.163391
0.197235 0.197235 0.199402
0.236786 0.236786 0.236176
0.274780 0.274780 0.271515
0.313873 0.313873 0.307861
0.339417 0.339417 0.331635
0.350586 0.350586 0.342010
0.359894 0.359894 0.350677
0.369690 0.369690 0.359802
0.379089 0.379089 0.368530
0.386017 0.386017 0.375000
0.393219 0.393219 0.381683
0.401123 0.401123 0.389038
0.409027 0.409027 0.396393
0.417206 0.417206 0.403992
0.424164 0.424164 0.410461
0.431213 0.431213 0.416992
0.006683 0.006683 0.022156
0.007080 0.007080 0.022552
0.005920 0.005920 0.021454
0.007294 0.007294 0.022736
0.007446 0.007446 0.022888
0.008514 0.008514 0.023895
0.009155 0.009155 0.024475
0.010345 0.010345 0.025574
0.014832 0.014832 0.029755
0.023163 0.023163 0.037506
0.039337 0.039337 0.052521
0.054413 0.054413 0.066559
0.076385 0.076385 0.087006
0.100891 0.100891 0.109772
0.129303 0.129303 0.136230
0.162628 0.162628 0.167206
0.201355 0.201355 0.203217
0.242126 0.242126 0.241150
0.281158 0.281158 0.277435
0.320587 0.320587 0.314148
0.346924 0.346924 0.338623
0.358093 0.358093 0.348999
0.367188 0.367188 0.357452
0.376190 0.376190 0.365845
0.385559 0.385559 0.374542
0.392609 0.392609 0.381104
0.401215 0.401215 0.389130
0.409576 0.409576 0.396912
0.417511 0.417511 0.404266
0.425293 0.425293 0.411530
0.432251 0.432251 0.417999
0.439240 0.439240 0.424469
0.007568 0.007568 0.023010
0.008179 0.008179 0.023560
0.009338 0.009338 0.024658
0.007629 0.007629 0.023071
0.008057 0.008057 0.023438
0.010284 0.010284 0.025513
0.011566 0.011566 0.026703
0.013245 0.013245 0.028290
0.017242 0.017242 0.032013
0.028137 0.028137 0.042114
0.043701 0.043701 0.056610
0.061157 0.061157 0.072815
0.081177 0.081177 0.091461
0.103821 0.103821 0.112518
0.134155 0.134155 0.140747
0.166534 0.166534 0.170837
0.205597 0.205597 0.207153
0.247406 0.247406 0.246063
0.288025 0.288025 0.283844
0.326355 0.326355 0.319489
0.353210 0.353210 0.344452
0.365601 0.365601 0.355957
0.374420 0.374420 0.364197
0.383392 0.383392 0.372559
0.392029 0.392029 0.380554
0.399048 0.399048 0.387115
0.408020 0.408020 0.395447
0.417542 0.417542 0.404297
0.425934 0.425934 0.412079
0.433624 0.433624 0.419250
0.440613 0.440613 0.425751
0.447632 0.447632 0.432251
0.008606 0.008606 0.023956
0.009003 0.009003 0.024353
0.009888 0.009888 0.025177
0.008972 0.008972 0.024323
0.009491 0.009491 0.024780
0.010681 0.010681 0.025848
0.013458 0.013458 0.028473
0.014893 0.014893 0.029816
0.021912 0.021912 0.036316
0.034668 0.034668 0.048187
0.049957 0.049957 0.062408
0.070221 0.070221 0.081268
0.090698 0.090698 0.100311
0.112640 0.112640 0.120728
0.138855 0.138855 0.145111
0.171112 0.171112 0.175110
0.210999 0.210999 0.212189
0.253418 0.253418 0.251617
0.294556 0.294556 0.289886
0.333801 0.333801 0.326416
0.359863 0.359863 0.350647
0.372955 0.372955 0.362823
0.382477 0.382477 0.371704
0.391205 0.391205 0.379791
0.399536 0.399536 0.387543
0.407593 0.407593 0.395050
0.416992 0.416992 0.403778
0.426514 0.426514 0.412628
0.434387 0.434387 0.419983
0.441101 0.441101 0.426208
0.448090 0.448090 0.432709
0.455109 0.455109 0.439240
0.009644 0.009644 0.024933
0.009857 0.009857 0.025116
0.010162 0.010162 0.025452
0.011353 0.011353 0.026520
0.011597 0.011597 0.026733
0.011932 0.011932 0.027069
0.014160 0.014160 0.029114
0.018860 0.018860 0.033508
0.028381 0.028381 0.042328
0.040833 0.040833 0.053955
0.057678 0.057678 0.069580
0.078003 0.078003 0.088501
0.101410 0.101410 0.110260
0.123749 0.123749 0.131042
0.148895 0.148895 0.154449
0.180389 0.180389 0.183746
0.215668 0.215668 0.216522
0.259613 0.259613 0.257416
0.301270 0.301270 0.296173
0.341095 0.341095 0.333191
0.367188 0.367188 0.357452
0.380310 0.380310 0.369690
0.390381 0.390381 0.379028
0.399719 0.399719 0.387726
0.408081 0.408081 0.395508
0.416168 0.416168 0.403015
0.423950 0.423950 0.410248
0.433716 0.433716 0.419312
0.441711 0.441711 0.426788
0.448334 0.448334 0.432922
0.455597 0.455597 0.439697
0.462585 0.462585 0.446198
0.010651 0.010651 0.025848
0.010590 0.010590 0.025818
0.010590 0.010590 0.025787
0.011169 0.011169 0.026367
0.012665 0.012665 0.027740
0.014893 0.014893 0.029785
0.016083 0.016083 0.030914
0.022125 0.022125 0.036530
0.034485 0.034485 0.048035
0.047882 0.047882 0.060516
0.065277 0.065277 0.076660
0.086426 0.086426 0.096313
0.113434 0.113434 0.121490
0.141113 0.141113 0.147217
0.173065 0.173065 0.176941
0.202606 0.202606 0.204376
0.229950 0.229950 0.229828
0.268005 0.268005 0.265228
0.307037 0.307037 0.301544
0.348511 0.348511 0.340088
0.374908 0.374908 0.364624
0.387604 0.387604 0.376434
0.397491 0.397491 0.385651
0.407227 0.407227 0.394714
0.416290 0.416290 0.403168
0.424347 0.424347 0.410614
0.432007 0.432007 0.417725
0.439636 0.439636 0.424805
0.447662 0.447662 0.432281
0.454926 0.454926 0.439056
0.462952 0.462952 0.446533
0.470245 0.470245 0.453308
0.012543 0.012543 0.027618
0.013031 0.013031 0.028076
0.013489 0.013489 0.028503
0.013428 0.013428 0.028442
0.012787 0.012787 0.027863
0.014557 0.014557 0.029510
0.018646 0.018646 0.033295
0.027069 0.027069 0.041138
0.039825 0.039825 0.053009
0.053986 0.053986 0.066162
0.075134 0.075134 0.085815
0.101013 0.101013 0.109894
0.126465 0.126465 0.133575
0.158478 0.158478 0.163361
0.193909 0.193909 0.196320
0.231934 0.231934 0.231659
0.266266 0.266266 0.263611
0.295868 0.295868 0.291138
0.324524 0.324524 0.317810
0.360077 0.360077 0.350861
0.383881 0.383881 0.372986
0.395721 0.395721 0.384003
0.405182 0.405182 0.392792
0.414429 0.414429 0.401398
0.423462 0.423462 0.409821
0.431671 0.431671 0.417450
0.439331 0.439331 0.424561
0.446808 0.446808 0.431488
0.454041 0.454041 0.438232
0.462128 0.462128 0.445740
0.470154 0.470154 0.453217
0.478180 0.478180 0.460724
0.014954 0.014954 0.029846
0.014343 0.014343 0.029297
0.013763 0.013763 0.028748
0.013824 0.013824 0.028839
0.014801 0.014801 0.029724
0.016479 0.016479 0.031281
0.020569 0.020569 0.035095
0.029968 0.029968 0.043823
0.044983 0.044983 0.057800
0.062134 0.062134 0.073730
0.084351 0.084351 0.094421
0.112244 0.112244 0.120361
0.144043 0.144043 0.149933
0.181732 0.181732 0.184998
0.214966 0.214966 0.215881
0.257172 0.257172 0.255127
0.294006 0.294006 0.289398
0.332458 0.332458 0.325134
0.368927 0.368927 0.359100
0.398926 0.398926 0.386963
0.416870 0.416870 0.403656
0.416626 0.416626 0.403473
0.423096 0.423096 0.409485
0.431671 0.431671 0.417450
0.439270 0.439270 0.424500
0.446320 0.446320 0.431061
0.453857 0.453857 0.438080
0.461243 0.461243 0.444946
0.468231 0.468231 0.451416
0.475189 0.475189 0.457886
0.482208 0.482208 0.464417
0.489685 0.489685 0.471375
0.015533 0.015533 0.030426
0.016479 0.016479 0.031281
0.017548 0.017548 0.032288
0.018646 0.018646 0.033295
0.019012 0.019012 0.033661
0.018982 0.018982 0.033600
0.019958 0.019958 0.034515
0.030243 0.030243 0.044067
0.051514 0.051514 0.063843
0.071991 0.071991 0.082947
0.097717 0.097717 0.106812
0.125397 0.125397 0.132599
0.162079 0.162079 0.166718
0.203186 0.203186 0.204926
0.243927 0.243927 0.242828
0.287872 0.287872 0.283691
0.324066 0.324066 0.317322
0.368378 0.368378 0.358582
0.405640 0.405640 0.393219
0.446014 0.446014 0.430786
0.472748 0.472748 0.455658
0.480927 0.480927 0.463257
0.480377 0.480377 0.462769
0.483795 0.483795 0.465912
0.489166 0.489166 0.470917
0.493469 0.493469 0.474915
0.498199 0.498199 0.479309
0.503906 0.503906 0.484619
0.510956 0.510956 0.491180
0.515472 0.515472 0.495392
0.519867 0.519867 0.499481
0.524078 0.524078 0.503418
0.017517 0.017517 0.032257
0.017853 0.017853 0.032593
0.018219 0.018219 0.032928
0.018677 0.018677 0.033356
0.019440 0.019440 0.034058
0.020355 0.020355 0.034882
0.020782 0.020782 0.035309
0.025909 0.025909 0.040070
0.047668 0.047668 0.060303
0.075653 0.075653 0.086334
0.109497 0.109497 0.117798
0.142212 0.142212 0.148254
0.183075 0.183075 0.186218
0.227295 0.227295 0.227356
0.270660 0.270660 0.267700
0.316864 0.316864 0.310669
0.357788 0.357788 0.348724
0.400909 0.400909 0.388824
0.443512 0.443512 0.428436
0.483337 0.483337 0.465485
0.511902 0.511902 0.492065
0.522247 0.522247 0.501648
0.529205 0.529205 0.508148
0.536926 0.536926 0.515320
0.543518 0.543518 0.521454
0.548767 0.548767 0.526337
0.554565 0.554565 0.531738
0.561676 0.561676 0.538361
0.568848 0.568848 0.545044
0.574738 0.574738 0.550507
0.581604 0.581604 0.556885
0.589661 0.589661 0.564362
0.022217 0.022217 0.036621
0.021729 0.021729 0.036163
0.021423 0.021423 0.035858
0.021149 0.021149 0.035614
0.022369 0.022369 0.036743
0.024719 0.024719 0.038940
0.027405 0.027405 0.041443
0.030487 0.030487 0.044312
0.037994 0.037994 0.051300
0.077240 0.077240 0.087769
0.114716 0.114716 0.122650
0.155853 0.155853 0.160889
0.203186 0.203186 0.204956
0.248199 0.248199 0.246765
0.291534 0.291534 0.287109
0.341949 0.341949 0.334015
0.384827 0.384827 0.373871
0.436188 0.436188 0.421661
0.480438 0.480438 0.462799
0.520508 0.520508 0.500061
0.551086 0.551086 0.528473
0.560974 0.560974 0.537689
0.566681 0.566681 0.542969
0.573761 0.573761 0.549561
0.580933 0.580933 0.556244
0.587494 0.587494 0.562347
0.594208 0.594208 0.568573
0.601410 0.601410 0.575287
0.609192 0.609192 0.582550
0.617462 0.617462 0.590210
0.624054 0.624054 0.596344
0.630249 0.630249 0.602112
0.024567 0.024567 0.038818
0.026031 0.026031 0.040161
0.027161 0.027161 0.041199
0.028259 0.028259 0.042236
0.030579 0.030579 0.044373
0.032990 0.032990 0.046631
0.035370 0.035370 0.048859
0.037964 0.037964 0.051239
0.041595 0.041595 0.054657
0.067139 0.067139 0.078430
0.116730 0.116730 0.124542
0.167236 0.167236 0.171509
0.216797 0.216797 0.217590
0.269836 0.269836 0.266907
0.320282 0.320282 0.313843
0.366333 0.366333 0.356689
0.414276 0.414276 0.401245
0.467224 0.467224 0.450531
0.514954 0.514954 0.494904
0.560364 0.560364 0.537140
0.594910 0.594910 0.569275
0.608459 0.608459 0.581848
0.613068 0.613068 0.586121
0.618835 0.618835 0.591492
0.624908 0.624908 0.597137
0.630280 0.630280 0.602142
0.636108 0.636108 0.607544
0.642059 0.642059 0.613098
0.647797 0.647797 0.618439
0.652100 0.652100 0.622467
0.656342 0.656342 0.626404
0.660492 0.660492 0.630280
0.031128 0.031128 0.044922
0.032104 0.032104 0.045837
0.033081 0.033081 0.046753
0.034088 0.034088 0.047668
0.037354 0.037354 0.050720
0.041504 0.041504 0.054565
0.045624 0.045624 0.058411
0.049286 0.049286 0.061798
0.052734 0.052734 0.065002
0.056152 0.056152 0.068176
0.103577 0.103577 0.112305
0.168152 0.168152 0.172333
0.227142 0.227142 0.227203
0.289001 0.289001 0.284760
0.341339 0.341339 0.333435
0.394501 0.394501 0.382874
0.449432 0.449432 0.433960
0.502991 0.502991 0.483765
0.545654 0.545654 0.523438
0.596100 0.596100 0.570374
0.628143 0.628143 0.600159
0.644928 0.644928 0.615784
0.648773 0.648773 0.619354
0.654053 0.654053 0.624268
0.659515 0.659515 0.629364
0.665344 0.665344 0.634766
0.670715 0.670715 0.639771
0.676239 0.676239 0.644897
0.681824 0.681824 0.650085
0.687256 0.687256 0.655151
0.692657 0.692657 0.660187
0.698029 0.698029 0.665192
0.034576 0.034576 0.048096
0.038544 0.038544 0.051819
0.042542 0.042542 0.055511
0.045654 0.045654 0.058411
0.049988 0.049988 0.062439
0.055237 0.055237 0.067322
0.060028 0.060028 0.071808
0.064087 0.064087 0.075562
0.068176 0.068176 0.079376
0.072235 0.072235 0.083130
0.080994 0.080994 0.091278
0.156921 0.156921 0.161896
0.231750 0.231750 0.231506
0.298859 0.298859 0.293915
0.365662 0.365662 0.356018
0.425720 0.425720 0.411896
0.476288 0.476288 0.458954
0.531982 0.531982 0.510742
0.582397 0.582397 0.557617
0.622986 0.622986 0.595398
0.653137 0.653137 0.623444
0.673553 0.673553 0.642426
0.678741 0.678741 0.647247
0.683685 0.683685 0.651825
0.688721 0.688721 0.656525
0.694061 0.694061 0.661499
0.699585 0.699585 0.666595
0.705139 0.705139 0.671783
0.710541 0.710541 0.676819
0.715332 0.715332 0.681244
0.720093 0.720093 0.685699
0.724976 0.724976 0.690216
0.045502 0.045502 0.058289
0.050629 0.050629 0.063049
0.054779 0.054779 0.066925
0.057922 0.057922 0.069855
0.061890 0.061890 0.073517
0.066223 0.066223 0.077515
0.070129 0.070129 0.081177
0.074005 0.074005 0.084778
0.077759 0.077759 0.088287
0.083069 0.083069 0.093201
0.088654 0.088654 0.098419
0.127747 0.127747 0.134766
0.223572 0.223572 0.223877
0.306671 0.306671 0.301178
0.381439 0.381439 0.370697
0.448242 0.448242 0.432861
0.507263 0.507263 0.487762
0.556427 0.556427 0.533508
0.605804 0.605804 0.579376
0.648987 0.648987 0.619568
0.683319 0.683319 0.651489
0.698883 0.698883 0.665955
0.706635 0.706635 0.673157
0.713013 0.713013 0.679077
0.719360 0.719360 0.685028
0.724640 0.724640 0.689911
0.730011 0.730011 0.694885
0.735443 0.735443 0.699951
0.740295 0.740295 0.704468
0.744446 0.744446 0.708344
0.748566 0.748566 0.712158
0.753998 0.753998 0.717224
0.056213 0.056213 0.068237
0.060608 0.060608 0.072327
0.064301 0.064301 0.075775
0.067963 0.067963 0.079193
0.072235 0.072235 0.083160
0.077515 0.077515 0.088074
0.082794 0.082794 0.092987
0.087891 0.087891 0.097717
0.092987 0.092987 0.102478
0.098389 0.098389 0.107483
0.103729 0.103729 0.112457
0.108612 0.108612 0.117004
0.193817 0.193817 0.196228
0.306335 0.306335 0.300873
0.389221 0.389221 0.377960
0.457336 0.457336 0.441284
0.526489 0.526489 0.505676
0.580688 0.580688 0.556030
0.635132 0.635132 0.606659
0.672150 0.672150 0.641113
0.704926 0.704926 0.671600
0.725189 0.725189 0.690430
0.733154 0.733154 0.697815
0.737823 0.737823 0.702148
0.741821 0.741821 0.705902
0.746552 0.746552 0.710297
0.751740 0.751740 0.715118
0.757721 0.757721 0.720673
0.763733 0.763733 0.726257
0.767761 0.767761 0.730011
0.771820 0.771820 0.733795
0.776184 0.776184 0.737854
0.068359 0.068359 0.079559
0.073364 0.073364 0.084198
0.078339 0.078339 0.088837
0.083344 0.083344 0.093475
0.087830 0.087830 0.097656
0.092163 0.092163 0.101654
0.096466 0.096466 0.105682
0.100769 0.100769 0.109711
0.104828 0.104828 0.113464
0.108856 0.108856 0.117218
0.113037 0.113037 0.121124
0.118896 0.118896 0.126526
0.146942 0.146942 0.152618
0.284119 0.284119 0.280212
0.384399 0.384399 0.373474
0.467316 0.467316 0.450592
0.541168 0.541168 0.519257
0.601868 0.601868 0.575745
0.654572 0.654572 0.624725
0.689362 0.689362 0.657074
0.721649 0.721649 0.687134
0.745331 0.745331 0.709167
0.756470 0.756470 0.719513
0.760925 0.760925 0.723663
0.765350 0.765350 0.727783
0.769714 0.769714 0.731842
0.773926 0.773926 0.735748
0.777679 0.777679 0.739227
0.781525 0.781525 0.742828
0.785492 0.785492 0.746521
0.791229 0.791229 0.751831
0.797333 0.797333 0.757538
0.076843 0.076843 0.087433
0.082672 0.082672 0.092865
0.088440 0.088440 0.098206
0.092621 0.092621 0.102081
0.096680 0.096680 0.105865
0.100647 0.100647 0.109558
0.106537 0.106537 0.115021
0.113037 0.113037 0.121094
0.119202 0.119202 0.126801
0.124664 0.124664 0.131866
0.128876 0.128876 0.135803
0.134338 0.134338 0.140900
0.139893 0.139893 0.146088
0.238831 0.238831 0.238068
0.373932 0.373932 0.363739
0.469421 0.469421 0.452545
0.550049 0.550049 0.527527
0.617218 0.617218 0.589996
0.670166 0.670166 0.639252
0.709076 0.709076 0.675446
0.738556 0.738556 0.702850
0.763397 0.763397 0.725952
0.777496 0.777496 0.739044
0.781281 0.781281 0.742584
0.784821 0.784821 0.745850
0.787811 0.787811 0.748627
0.792847 0.792847 0.753326
0.797882 0.797882 0.758026
0.803131 0.803131 0.762909
0.807922 0.807922 0.767365
0.812408 0.812408 0.771576
0.816895 0.816895 0.775757
0.084747 0.084747 0.094788
0.090668 0.090668 0.100311
0.097443 0.097443 0.106598
0.104218 0.104218 0.112885
0.110565 0.110565 0.118805
0.115662 0.115662 0.123535
0.120728 0.120728 0.128235
0.125610 0.125610 0.132782
0.130280 0.130280 0.137115
0.135101 0.135101 0.141602
0.139893 0.139893 0.146057
0.146545 0.146545 0.152252
0.153290 0.153290 0.158508
0.186493 0.186493 0.189423
0.341339 0.341339 0.333435
0.462769 0.462769 0.446350
0.547607 0.547607 0.525238
0.624664 0.624664 0.596924
0.682892 0.682892 0.651123
0.725616 0.725616 0.690796
0.756012 0.756012 0.719086
0.776489 0.776489 0.738129
0.794647 0.794647 0.755005
0.799072 0.799072 0.759125
0.802277 0.802277 0.762115
0.805695 0.805695 0.765289
0.809143 0.809143 0.768494
0.812592 0.812592 0.771698
0.815887 0.815887 0.774780
0.819885 0.819885 0.778503
0.823853 0.823853 0.782196
0.828674 0.828674 0.786652
0.093964 0.093964 0.103363
0.100677 0.100677 0.109589
0.107391 0.107391 0.115845
0.113068 0.113068 0.121124
0.117645 0.117645 0.125366
0.121704 0.121704 0.129150
0.126801 0.126801 0.133911
0.133301 0.133301 0.139954
0.140686 0.140686 0.146820
0.147522 0.147522 0.153198
0.151855 0.151855 0.157227
0.157776 0.157776 0.162720
0.163788 0.163788 0.168274
0.170502 0.170502 0.174530
0.290924 0.290924 0.286530
0.444550 0.444550 0.429413
0.549072 0.549072 0.526642
0.627808 0.627808 0.599854
0.686462 0.686462 0.654419
0.730713 0.730713 0.695587
0.767334 0.767334 0.729614
0.792450 0.792450 0.752960
0.808502 0.808502 0.767883
0.815277 0.815277 0.774200
0.818146 0.818146 0.776886
0.820923 0.820923 0.779480
0.824036 0.824036 0.782379
0.827423 0.827423 0.785522
0.831329 0.831329 0.789154
0.835876 0.835876 0.793396
0.839691 0.839691 0.796936
0.843475 0.843475 0.800446
0.099579 0.099579 0.108582
0.105225 0.105225 0.113831
0.110901 0.110901 0.119110
0.116913 0.116913 0.124725
0.123047 0.123047 0.130402
0.128845 0.128845 0.135803
0.134644 0.134644 0.141174
0.139343 0.139343 0.145538
0.145599 0.145599 0.151367
0.151855 0.151855 0.157166
0.158844 0.158844 0.163696
0.166962 0.166962 0.171234
0.175110 0.175110 0.178833
0.182587 0.182587 0.185760
0.248596 0.248596 0.247192
0.419647 0.419647 0.406250
0.541382 0.541382 0.519501
0.629974 0.629974 0.601868
0.692627 0.692627 0.660126
0.740265 0.740265 0.704468
0.774811 0.774811 0.736603
0.798859 0.798859 0.758942
0.816528 0.816528 0.775360
0.824402 0.824402 0.782715
0.827728 0.827728 0.785797
0.831787 0.831787 0.789551
0.836304 0.836304 0.793762
0.839417 0.839417 0.796661
0.842468 0.842468 0.799500
0.846069 0.846069 0.802826
0.850250 0.850250 0.806732
0.855103 0.855103 0.811249
0.103577 0.103577 0.112305
0.109314 0.109314 0.117615
0.114960 0.114960 0.122894
0.120636 0.120636 0.128143
0.126923 0.126923 0.134033
0.133118 0.133118 0.139771
0.138916 0.138916 0.145172
0.145050 0.145050 0.150879
0.151855 0.151855 0.157196
0.158142 0.158142 0.163025
0.164398 0.164398 0.168854
0.170898 0.170898 0.174896
0.178864 0.178864 0.182281
0.187012 0.187012 0.189880
0.224609 0.224609 0.224854
0.384064 0.384064 0.373169
0.523438 0.523438 0.502808
0.618622 0.618622 0.591309
0.689240 0.689240 0.657013
0.740387 0.740387 0.704559
0.774963 0.774963 0.736755
0.801208 0.801208 0.761139
0.818634 0.818634 0.777313
0.829895 0.829895 0.787781
0.832581 0.832581 0.790314
0.835663 0.835663 0.793152
0.840027 0.840027 0.797241
0.844574 0.844574 0.801483
0.848969 0.848969 0.805542
0.852814 0.852814 0.809113
0.856384 0.856384 0.812439
0.859985 0.859985 0.815765
0.106232 0.106232 0.114746
0.111938 0.111938 0.120087
0.117676 0.117676 0.125397
0.123322 0.123322 0.130676
0.129639 0.129639 0.136536
0.136322 0.136322 0.142761
0.142487 0.142487 0.148499
0.148621 0.148621 0.154205
0.155609 0.155609 0.160675
0.162415 0.162415 0.167023
0.168671 0.168671 0.172852
0.175201 0.175201 0.178894
0.181702 0.181702 0.184937
0.189667 0.189667 0.192352
0.198029 0.198029 0.200134
0.335052 0.335052 0.327576
0.507050 0.507050 0.487549
0.610321 0.610321 0.583618
0.685272 0.685272 0.653320
0.736786 0.736786 0.701202
0.774658 0.774658 0.736450
0.800751 0.800751 0.760681
0.818787 0.818787 0.777466
0.831543 0.831543 0.789307
0.835297 0.835297 0.792816
0.838531 0.838531 0.795837
0.842255 0.842255 0.799286
0.846497 0.846497 0.803253
0.850891 0.850891 0.807312
0.854950 0.854950 0.811127
0.858887 0.858887 0.814789
0.862488 0.862488 0.818115
0.108856 0.108856 0.117218
0.114594 0.114594 0.122528
0.120300 0.120300 0.127869
0.126007 0.126007 0.133179
0.132324 0.132324 0.139038
0.139008 0.139008 0.145264
0.145691 0.145691 0.151489
0.152191 0.152191 0.157532
0.159180 0.159180 0.164001
0.166138 0.166138 0.170502
0.172974 0.172974 0.176849
0.179474 0.179474 0.182892
0.186005 0.186005 0.188934
0.192505 0.192505 0.194977
0.200684 0.200684 0.202576
0.311707 0.311707 0.305847
0.496490 0.496490 0.477722
0.608002 0.608002 0.581421
0.683197 0.683197 0.651367
0.734314 0.734314 0.698914
0.776031 0.776031 0.737732
0.800934 0.800934 0.760864
0.819458 0.819458 0.778076
0.833008 0.833008 0.790710
0.837524 0.837524 0.794891
0.840973 0.840973 0.798126
0.844696 0.844696 0.801575
0.848419 0.848419 0.805023
0.852509 0.852509 0.808838
0.856598 0.856598 0.812622
0.860657 0.860657 0.816406
0.864594 0.864594 0.820068
0.111664 0.111664 0.119843
0.117554 0.117554 0.125305
0.123260 0.123260 0.130615
0.128998 0.128998 0.135925
0.134338 0.134338 0.140900
0.140930 0.140930 0.147034
0.147583 0.147583 0.153229
0.154724 0.154724 0.159882
0.162262 0.162262 0.166870
0.169220 0.169220 0.173340
0.176208 0.176208 0.179840
0.182434 0.182434 0.185638
0.188965 0.188965 0.191711
0.195496 0.195496 0.197754
0.203308 0.203308 0.205048
0.306458 0.306458 0.300995
0.487061 0.487061 0.468933
0.605865 0.605865 0.579468
0.682312 0.682312 0.650574
0.733704 0.733704 0.698334
0.776642 0.776642 0.738281
0.803192 0.803192 0.762970
0.819824 0.819824 0.778442
0.833740 0.833740 0.791382
0.840454 0.840454 0.797638
0.844025 0.844025 0.800964
0.847748 0.847748 0.804413
0.851471 0.851471 0.807892
0.854919 0.854919 0.811096
0.858612 0.858612 0.814514
0.862671 0.862671 0.818298
0.866760 0.866760 0.822083
0.114563 0.114563 0.122528
0.120514 0.120514 0.128052
0.126373 0.126373 0.133484
0.132080 0.132080 0.138824
0.137451 0.137451 0.143799
0.142609 0.142609 0.148590
0.149170 0.149170 0.154694
0.156311 0.156311 0.161346
0.164581 0.164581 0.169037
0.172089 0.172089 0.176025
0.179077 0.179077 0.182495
0.185211 0.185211 0.188232
0.191406 0.191406 0.193970
0.197906 0.197906 0.200043
0.205750 0.205750 0.207306
0.302826 0.302826 0.297577
0.481445 0.481445 0.463715
0.603302 0.603302 0.577057
0.683441 0.683441 0.651611
0.734924 0.734924 0.699493
0.777588 0.777588 0.739166
0.805817 0.805817 0.765411
0.820312 0.820312 0.778900
0.833984 0.833984 0.791626
0.843811 0.843811 0.800751
0.847626 0.847626 0.804321
0.851044 0.851044 0.807495
0.854767 0.854767 0.810944
0.858215 0.858215 0.814148
0.861176 0.861176 0.816895
0.864868 0.864868 0.820312
0.868927 0.868927 0.824127
0.117462 0.117462 0.125214
0.123383 0.123383 0.130737
0.129333 0.129333 0.136230
0.135193 0.135193 0.141693
0.140533 0.140533 0.146667
0.145691 0.145691 0.151459
0.150848 0.150848 0.156250
0.157898 0.157898 0.162811
0.166168 0.166168 0.170502
0.174438 0.174438 0.178162
0.181946 0.181946 0.185181
0.188080 0.188080 0.190887
0.194183 0.194183 0.196564
0.200348 0.200348 0.202301
0.208191 0.208191 0.209595
0.303528 0.303528 0.298248
0.479645 0.479645 0.462067
