滤镜资源/Professional Luts Collection/Triune-Digital-Cinematic-LUTs/3D LUTs (CUBE)/ALEXA/BW/Casino Royale 2 - Alexa.cube
#Created by Benjamin (IWLTBAP) : http://luts.iwltbap.com
#Copyright: (C) Copyright 2016 Triune Films and IWLTBAP
TITLE "Blockbuster LUTs Pack (Alexa Log-C)"
#LUT size
LUT_3D_SIZE 5
#LUT data points
DOMAIN_MIN 0.000000 0.000000 0.000000
DOMAIN_MAX 0.903226 0.903226 0.903226
0.004608 0.004608 0.020264
0.010437 0.010437 0.025665
0.118744 0.118744 0.126404
0.343079 0.343079 0.335052
0.400818 0.400818 0.388763
0.012543 0.012543 0.027618
0.027069 0.027069 0.041138
0.193909 0.193909 0.196320
0.395721 0.395721 0.384003
0.454041 0.454041 0.438232
0.034576 0.034576 0.048096
0.064087 0.064087 0.075562
0.365662 0.365662 0.356018
0.673553 0.673553 0.642426
0.710541 0.710541 0.676819
0.099579 0.099579 0.108582
0.139343 0.139343 0.145538
0.248596 0.248596 0.247192
0.798859 0.798859 0.758942
0.842468 0.842468 0.799500
0.120026 0.120026 0.127625
0.159698 0.159698 0.164490
0.211334 0.211334 0.212524
0.809387 0.809387 0.768738
0.864136 0.864136 0.819672
0.007080 0.007080 0.022552
0.013000 0.013000 0.028046
0.154633 0.154633 0.159790
0.391113 0.391113 0.379700
0.439789 0.439789 0.424988
0.015320 0.015320 0.030182
0.041748 0.041748 0.054779
0.232330 0.232330 0.232056
0.442993 0.442993 0.428009
0.494904 0.494904 0.476257
0.040924 0.040924 0.054016
0.074005 0.074005 0.084778
0.387543 0.387543 0.376404
0.697845 0.697845 0.665009
0.738007 0.738007 0.702362
0.113159 0.113159 0.121216
0.156281 0.156281 0.161316
0.272461 0.272461 0.269348
0.810028 0.810028 0.769318
0.854156 0.854156 0.810394
0.129425 0.129425 0.136322
0.174927 0.174927 0.178619
0.237549 0.237549 0.236877
0.822418 0.822418 0.780853
0.875305 0.875305 0.830048
0.012726 0.012726 0.027802
0.014923 0.014923 0.029816
0.224884 0.224884 0.225128
0.488190 0.488190 0.470001
0.540314 0.540314 0.518463
0.016296 0.016296 0.031097
0.017914 0.017914 0.032593
0.272095 0.272095 0.269043
0.549713 0.549713 0.527252
0.593079 0.593079 0.567566
0.092102 0.092102 0.101593
0.130188 0.130188 0.137054
0.533539 0.533539 0.512177
0.799164 0.799164 0.759216
0.825165 0.825165 0.783417
0.176392 0.176392 0.180023
0.234680 0.234680 0.234222
0.346985 0.346985 0.338684
0.878204 0.878204 0.832733
0.909607 0.909607 0.861938
0.192993 0.192993 0.195465
0.258362 0.258362 0.256256
0.334625 0.334625 0.327179
0.883392 0.883392 0.837585
0.921936 0.921936 0.873413
0.015289 0.015289 0.030182
0.020813 0.020813 0.035309
0.267212 0.267212 0.264496
0.597748 0.597748 0.571930
0.642944 0.642944 0.613953
0.020294 0.020294 0.034851
0.035370 0.035370 0.048859
0.313049 0.313049 0.307129
0.643372 0.643372 0.614349
0.685303 0.685303 0.653351
0.077972 0.077972 0.088501
0.115417 0.115417 0.123322
0.467590 0.467590 0.450836
0.777740 0.777740 0.739319
0.802979 0.802979 0.762787
0.250397 0.250397 0.248840
0.323273 0.323273 0.316589
0.391907 0.391907 0.380463
0.913818 0.913818 0.865845
0.937378 0.937378 0.887787
0.295410 0.295410 0.290710
0.365204 0.365204 0.355621
0.445679 0.445679 0.430450
0.926575 0.926575 0.877716
0.947449 0.947449 0.897125
0.019440 0.019440 0.034058
0.025177 0.025177 0.039337
0.274200 0.274200 0.270966
0.620026 0.620026 0.592621
0.665985 0.665985 0.635376
0.020325 0.020325 0.034851
0.040131 0.040131 0.053284
0.325012 0.325012 0.318237
0.664825 0.664825 0.634277
0.708435 0.708435 0.674835
0.051300 0.051300 0.063660
0.083313 0.083313 0.093445
0.381409 0.381409 0.370667
0.746307 0.746307 0.710052
0.781372 0.781372 0.742706
0.269958 0.269958 0.267029
0.341034 0.341034 0.333130
0.412811 0.412811 0.399902
0.919159 0.919159 0.870819
0.941986 0.941986 0.892059
0.329346 0.329346 0.322266
0.403015 0.403015 0.390778
0.487885 0.487885 0.469696
0.934662 0.934662 0.885284
0.953125 0.953125 0.902435
