滤镜资源/Professional Luts Collection/Triune-Digital-Cinematic-LUTs/3D LUTs (CUBE)/ALEXA/BW/Casino Royale 1 - Alexa.cube
#Created by Benjamin (IWLTBAP) : http://luts.iwltbap.com
#Copyright: (C) Copyright 2016 Triune Films and IWLTBAP
TITLE "Blockbuster LUTs Pack (Alexa Log-C)"
#LUT size
LUT_3D_SIZE 5
#LUT data points
DOMAIN_MIN 0.000000 0.000000 0.000000
DOMAIN_MAX 0.903226 0.903226 0.903226
0.000000 0.000000 0.000000
0.037292 0.035706 0.035583
0.282745 0.280304 0.273834
0.581757 0.580475 0.570160
0.633606 0.632568 0.622009
0.015656 0.014587 0.014771
0.033783 0.032318 0.032227
0.297913 0.295502 0.288544
0.652252 0.651276 0.640686
0.712463 0.711731 0.701385
0.122803 0.120514 0.118347
0.138885 0.136566 0.133972
0.267365 0.264923 0.258850
0.635254 0.634247 0.623657
0.692596 0.691772 0.681244
0.318695 0.316315 0.308807
0.341309 0.338989 0.330902
0.391815 0.389587 0.380219
0.616760 0.615631 0.605164
0.696899 0.696106 0.685608
0.367340 0.365051 0.356262
0.391663 0.389404 0.380005
0.417023 0.414856 0.404816
0.654205 0.653229 0.642639
0.698944 0.698212 0.687622
0.000549 0.000427 0.000488
0.003815 0.003326 0.003540
0.172577 0.170135 0.166656
0.481812 0.479797 0.468292
0.541962 0.540558 0.530090
0.018158 0.016998 0.017151
0.062988 0.061096 0.060425
0.328766 0.326416 0.318695
0.571564 0.570282 0.559906
0.627411 0.626373 0.615753
0.126526 0.124207 0.121979
0.163605 0.161224 0.157928
0.297760 0.295349 0.288452
0.668488 0.667603 0.656982
0.729858 0.729187 0.718781
0.324188 0.321808 0.314240
0.374664 0.372375 0.363495
0.424316 0.422150 0.412048
0.646667 0.645660 0.635071
0.723755 0.723083 0.712738
0.372253 0.369934 0.361176
0.425323 0.423187 0.413055
0.449402 0.447327 0.436615
0.681976 0.681152 0.670593
0.725220 0.724548 0.714172
0.002502 0.002136 0.002289
0.004089 0.003601 0.003784
0.023346 0.022064 0.022186
0.232513 0.230072 0.224884
0.292694 0.290283 0.283478
0.008911 0.008087 0.008331
0.020935 0.019714 0.019806
0.055817 0.054016 0.053467
0.312653 0.310272 0.302979
0.378815 0.376526 0.367523
0.148438 0.146057 0.143188
0.187592 0.185181 0.181213
0.491547 0.489746 0.478333
0.809784 0.809418 0.800079
0.847717 0.847443 0.839050
0.361908 0.359589 0.351013
0.412384 0.410187 0.400360
0.496552 0.494720 0.483124
0.786957 0.786530 0.776794
0.854828 0.854584 0.846405
0.415924 0.413727 0.403809
0.468201 0.466187 0.455017
0.520844 0.519318 0.507660
0.811951 0.811584 0.802338
0.847382 0.847107 0.838745
0.005646 0.005005 0.005219
0.007111 0.006378 0.006622
0.020233 0.019043 0.019165
0.051056 0.049286 0.048889
0.085205 0.083160 0.081909
0.014435 0.013397 0.013611
0.028290 0.026917 0.026917
0.051514 0.049744 0.049316
0.097565 0.095428 0.093872
0.141693 0.139343 0.136658
0.099182 0.097015 0.095428
0.131165 0.128845 0.126434
0.310608 0.308197 0.300934
0.352448 0.350128 0.341797
0.395844 0.393616 0.384216
0.382355 0.380096 0.370972
0.432587 0.430450 0.420105
0.483673 0.481659 0.470154
0.886627 0.886475 0.879395
0.952515 0.952484 0.948761
0.468445 0.466400 0.455231
0.520294 0.518768 0.506989
0.566681 0.565338 0.555084
0.921356 0.921295 0.915741
0.953339 0.953308 0.949615
0.007050 0.006348 0.006592
0.008423 0.007660 0.007874
0.021790 0.020538 0.020660
0.040131 0.038513 0.038300
0.042664 0.040985 0.040771
0.016510 0.015442 0.015625
0.031830 0.030396 0.030334
0.054474 0.052673 0.052185
0.080627 0.078552 0.077484
0.086182 0.084137 0.082886
0.055786 0.053925 0.053406
0.080444 0.078430 0.077332
0.174591 0.172180 0.168579
0.203461 0.201050 0.196686
0.203949 0.201538 0.197144
0.380157 0.377869 0.368835
0.432190 0.430023 0.419708
0.482452 0.480499 0.469025
0.879181 0.878998 0.871582
0.887390 0.887268 0.880188
0.487091 0.485107 0.473511
0.537415 0.535980 0.525177
0.583832 0.582581 0.572144
0.926331 0.926239 0.920990
0.980591 0.980560 0.978882
