滤镜资源/Professional Luts Collection/Triune-Digital-Cinematic-LUTs/3D LUTs (CUBE)/ALEXA/BW/Casino Royale 1 - Alexa.cube
#Created by Benjamin (IWLTBAP) : http://luts.iwltbap.com
#Copyright: (C) Copyright 2016 Triune Films and IWLTBAP
TITLE "Blockbuster LUTs Pack (Alexa Log-C)"
#LUT size
LUT_3D_SIZE 32
#LUT data points
0.000000 0.000000 0.000000
0.001282 0.001068 0.001160
0.003510 0.003052 0.003204
0.006958 0.006287 0.006470
0.011444 0.010559 0.010773
0.017822 0.016693 0.016846
0.025726 0.024384 0.024475
0.037292 0.035706 0.035583
0.053406 0.051636 0.051147
0.074799 0.072815 0.071838
0.103455 0.101257 0.099579
0.140564 0.138214 0.135559
0.184875 0.182434 0.178589
0.231537 0.229065 0.223969
0.282745 0.280304 0.273834
0.335846 0.333496 0.325562
0.390472 0.388275 0.378906
0.443787 0.441711 0.431061
0.495148 0.493317 0.481628
0.542572 0.541138 0.530518
0.571991 0.570679 0.560364
0.581757 0.580475 0.570160
0.587769 0.586517 0.576172
0.594513 0.593292 0.582886
0.601807 0.600647 0.590179
0.609589 0.608459 0.597961
0.617493 0.616394 0.605865
0.625519 0.624420 0.613892
0.633606 0.632568 0.622009
0.641602 0.640564 0.630005
0.650177 0.649200 0.638611
0.658539 0.657623 0.646973
0.000641 0.000488 0.000580
0.001160 0.000946 0.001038
0.003113 0.002716 0.002869
0.006378 0.005737 0.005920
0.010834 0.009918 0.010162
0.017548 0.016449 0.016571
0.025909 0.024567 0.024628
0.037598 0.036011 0.035889
0.053589 0.051819 0.051331
0.076630 0.074615 0.073608
0.106873 0.104645 0.102875
0.146698 0.144318 0.141510
0.194855 0.192444 0.188293
0.243622 0.241180 0.235718
0.296295 0.293884 0.286987
0.348938 0.346588 0.338348
0.403015 0.400818 0.391174
0.457153 0.455109 0.444153
0.508545 0.506866 0.495422
0.554413 0.553040 0.542389
0.584656 0.583405 0.572998
0.594299 0.593079 0.582672
0.599457 0.598267 0.587860
0.606232 0.605072 0.594604
0.613556 0.612427 0.601929
0.621185 0.620087 0.609558
0.628998 0.627960 0.617401
0.637054 0.636017 0.625458
0.645081 0.644104 0.633514
0.653015 0.652039 0.641479
0.661591 0.660675 0.650055
0.670044 0.669159 0.658508
0.001526 0.001251 0.001404
0.002136 0.001801 0.001953
0.002899 0.002472 0.002655
0.005768 0.005127 0.005341
0.010345 0.009491 0.009735
0.016846 0.015747 0.015930
0.025665 0.024353 0.024384
0.037292 0.035736 0.035614
0.052490 0.050720 0.050262
0.075806 0.073822 0.072815
0.106171 0.103943 0.102203
0.146698 0.144348 0.141510
0.193512 0.191071 0.187012
0.247223 0.244781 0.239227
0.305878 0.303497 0.296326
0.362000 0.359711 0.351105
0.415649 0.413483 0.403564
0.469818 0.467773 0.456604
0.520966 0.519348 0.508392
0.566345 0.565033 0.554688
0.597168 0.595978 0.585480
0.606964 0.605804 0.595306
0.612000 0.610840 0.600372
0.617859 0.616730 0.606262
0.625214 0.624146 0.613617
0.632812 0.631775 0.621216
0.640320 0.639313 0.628754
0.648254 0.647278 0.636688
0.656342 0.655396 0.644806
0.664246 0.663300 0.652740
0.672577 0.671692 0.661102
0.681030 0.680206 0.669586
0.002838 0.002441 0.002594
0.003326 0.002899 0.003052
0.004425 0.003876 0.004059
0.005524 0.004944 0.005127
0.010010 0.009186 0.009399
0.016205 0.015137 0.015320
0.025085 0.023804 0.023865
0.036774 0.035217 0.035095
0.052307 0.050537 0.050079
0.075500 0.073486 0.072479
0.105438 0.103241 0.101501
0.146118 0.143768 0.140961
0.192383 0.189941 0.185913
0.246765 0.244324 0.238770
0.304077 0.301666 0.294586
0.364594 0.362305 0.353638
0.426117 0.423981 0.413849
0.482605 0.480591 0.469177
0.534027 0.532562 0.521729
0.579254 0.578003 0.567596
0.609039 0.607880 0.597351
0.619720 0.618622 0.608032
0.624695 0.623627 0.613037
0.630493 0.629425 0.618866
0.636871 0.635864 0.625305
0.644501 0.643524 0.632935
0.651978 0.651031 0.640442
0.659607 0.658630 0.648071
0.667542 0.666626 0.656067
0.675446 0.674561 0.664001
0.683655 0.682831 0.672272
0.691864 0.691071 0.680481
0.004883 0.004303 0.004517
0.005432 0.004822 0.005005
0.006470 0.005798 0.006012
0.007935 0.007202 0.007416
0.009644 0.008820 0.009033
0.015320 0.014252 0.014465
0.023956 0.022675 0.022766
0.036285 0.034760 0.034607
0.051392 0.049591 0.049194
0.075165 0.073181 0.072174
0.104675 0.102478 0.100800
0.145355 0.143005 0.140198
0.192749 0.190338 0.186249
0.246765 0.244324 0.238770
0.302032 0.299652 0.292633
0.363800 0.361511 0.352875
0.425812 0.423676 0.413513
0.489014 0.487030 0.475464
0.546906 0.545532 0.534790
0.591644 0.590424 0.579987
0.620605 0.619507 0.608948
0.631500 0.630463 0.619843
0.636810 0.635773 0.625153
0.642487 0.641479 0.630890
0.648743 0.647766 0.637207
0.655792 0.654846 0.644287
0.663208 0.662262 0.651703
0.670807 0.669891 0.659332
0.678467 0.677582 0.667053
0.686371 0.685516 0.675018
0.694550 0.693756 0.683228
0.702576 0.701843 0.691284
0.007355 0.006622 0.006866
0.008118 0.007355 0.007568
0.009094 0.008301 0.008514
0.010834 0.009979 0.010193
0.012848 0.011902 0.012115
0.015320 0.014282 0.014465
0.023224 0.021973 0.022064
0.035248 0.033722 0.033630
0.050659 0.048889 0.048492
0.074036 0.072052 0.071106
0.104401 0.102203 0.100494
0.143402 0.141052 0.138336
0.191132 0.188690 0.184662
0.245300 0.242889 0.237335
0.302490 0.300110 0.293030
0.362305 0.360016 0.351410
0.424774 0.422607 0.412476
0.488831 0.486877 0.475250
0.548462 0.547089 0.536377
0.602478 0.601318 0.590851
0.632385 0.631317 0.620758
0.643188 0.642181 0.631561
0.648621 0.647644 0.637024
0.654510 0.653564 0.642944
0.660706 0.659790 0.649170
0.667603 0.666718 0.656128
0.674194 0.673309 0.662781
0.681793 0.680939 0.670441
0.689453 0.688599 0.678131
0.696960 0.696167 0.685699
0.704956 0.704224 0.693756
0.713013 0.712311 0.701843
0.010742 0.009827 0.010071
0.011658 0.010742 0.010956
0.012573 0.011597 0.011810
0.014099 0.013092 0.013275
0.016510 0.015442 0.015594
0.019348 0.018158 0.018341
0.023132 0.021881 0.021973
0.033752 0.032257 0.032196
0.049835 0.048096 0.047699
0.072479 0.070496 0.069611
0.104553 0.102356 0.100647
0.143311 0.140991 0.138275
0.188965 0.186523 0.182587
0.242676 0.240234 0.234802
0.301422 0.299042 0.291962
0.359863 0.357544 0.349030
0.422607 0.420441 0.410339
0.488312 0.486328 0.474701
0.546997 0.545593 0.534882
0.600952 0.599762 0.589294
0.637512 0.636505 0.625916
0.654053 0.653076 0.642487
0.660767 0.659851 0.649231
0.666840 0.665924 0.655304
0.673248 0.672363 0.661774
0.679871 0.679016 0.668427
0.686371 0.685547 0.675018
0.693146 0.692352 0.681915
0.700775 0.700012 0.689575
0.708313 0.707581 0.697174
0.715820 0.715088 0.704742
0.723694 0.723022 0.712646
0.015656 0.014587 0.014771
0.016449 0.015381 0.015564
0.017273 0.016174 0.016327
0.018219 0.017059 0.017212
0.020660 0.019470 0.019592
0.024078 0.022797 0.022888
0.028595 0.027222 0.027222
0.033783 0.032318 0.032227
0.047699 0.045990 0.045654
0.071259 0.069275 0.068420
0.103271 0.101074 0.099396
0.142487 0.140137 0.137451
0.188416 0.185974 0.182037
0.241058 0.238617 0.233215
0.297913 0.295502 0.288544
0.358643 0.356323 0.347809
0.420410 0.418213 0.408203
0.484436 0.482452 0.470917
0.544098 0.542664 0.531982
0.598694 0.597534 0.587036
0.636017 0.634979 0.624390
0.652252 0.651276 0.640686
0.662476 0.661560 0.650940
0.672302 0.671417 0.660828
0.681671 0.680817 0.670227
0.690186 0.689392 0.678802
0.697693 0.696930 0.686432
0.705048 0.704285 0.693878
0.712463 0.711731 0.701385
0.720276 0.719574 0.709259
0.727814 0.727142 0.716827
0.735168 0.734528 0.724243
0.022369 0.021118 0.021240
0.023346 0.022095 0.022186
0.024323 0.023041 0.023102
0.025208 0.023895 0.023956
0.026154 0.024811 0.024841
0.028992 0.027588 0.027588
0.034576 0.033051 0.032959
0.040558 0.038971 0.038757
0.048309 0.046600 0.046234
0.068237 0.066284 0.065491
0.101105 0.098907 0.097290
0.140656 0.138306 0.135651
0.187592 0.185181 0.181244
0.239014 0.236542 0.231232
0.294464 0.292053 0.285217
0.354126 0.351807 0.343414
0.415924 0.413727 0.403839
0.480377 0.478363 0.466949
0.539520 0.537994 0.527161
0.595337 0.594147 0.583679
0.632660 0.631622 0.621063
0.650726 0.649750 0.639099
0.660156 0.659241 0.648651
0.669189 0.668304 0.657776
0.678192 0.677338 0.666809
0.687408 0.686584 0.676056
0.696259 0.695496 0.684967
0.704437 0.703674 0.693176
0.711731 0.710999 0.700592
0.718811 0.718109 0.707764
0.726013 0.725342 0.715057
0.733917 0.733276 0.723022
0.030884 0.029449 0.029419
0.031982 0.030518 0.030487
0.032990 0.031494 0.031464
0.034027 0.032501 0.032471
0.035126 0.033569 0.033539
0.036316 0.034760 0.034668
0.040436 0.038818 0.038635
0.048798 0.047058 0.046722
0.057831 0.055969 0.055450
0.067230 0.065277 0.064514
0.095978 0.093842 0.092346
0.136871 0.134552 0.131989
0.184906 0.182465 0.178619
0.236694 0.234253 0.228973
0.292114 0.289673 0.282959
0.351471 0.349152 0.340820
0.412506 0.410309 0.400452
0.473724 0.471710 0.460419
0.534149 0.532684 0.521606
0.589386 0.588165 0.577759
0.627808 0.626740 0.616211
0.646271 0.645264 0.634705
0.656799 0.655853 0.645264
0.667053 0.666138 0.655548
0.676758 0.675873 0.665283
0.685364 0.684509 0.673920
0.693329 0.692535 0.682007
0.701233 0.700470 0.689972
0.708740 0.708008 0.697571
0.716064 0.715332 0.704956
0.723511 0.722809 0.712494
0.731140 0.730499 0.720245
0.043579 0.041931 0.041656
0.044922 0.043274 0.042969
0.046265 0.044586 0.044281
0.047577 0.045868 0.045532
0.049011 0.047272 0.046906
0.050476 0.048706 0.048309
0.051697 0.049927 0.049500
0.056458 0.054626 0.054108
0.069275 0.067322 0.066498
0.081207 0.079132 0.078033
0.095184 0.093018 0.091553
0.131592 0.129303 0.126892
0.179993 0.177582 0.173859
0.231812 0.229340 0.224243
0.290192 0.287781 0.281036
0.346649 0.344299 0.336182
0.409424 0.407227 0.397430
0.468628 0.466583 0.455444
0.528107 0.526611 0.515381
0.580688 0.579407 0.569061
0.622131 0.621063 0.610474
0.638763 0.637756 0.627197
0.649750 0.648773 0.638184
0.660522 0.659576 0.648956
0.670746 0.669830 0.659210
0.679626 0.678772 0.668152
0.687775 0.686920 0.676361
0.695435 0.694641 0.684143
0.703125 0.702362 0.691895
0.710754 0.710022 0.699615
0.718445 0.717743 0.707397
0.726349 0.725677 0.715363
0.059265 0.057404 0.056793
0.061035 0.059174 0.058533
0.062775 0.060883 0.060181
0.064484 0.062592 0.061829
0.066071 0.064178 0.063385
0.067627 0.065704 0.064880
0.069153 0.067200 0.066345
0.070709 0.068756 0.067871
0.076874 0.074829 0.073822
0.095612 0.093475 0.091980
0.113892 0.111633 0.109680
0.129700 0.127411 0.125061
0.172150 0.169739 0.166229
0.226105 0.223633 0.218689
0.284851 0.282440 0.275848
0.343536 0.341187 0.333069
0.404236 0.402039 0.392426
0.467102 0.465027 0.453888
0.525269 0.523712 0.512299
0.578064 0.576813 0.566376
0.617249 0.616119 0.605560
0.632324 0.631287 0.620789
0.641937 0.640961 0.630432
0.652039 0.651093 0.640533
0.661835 0.660919 0.650330
0.670654 0.669769 0.659180
0.679138 0.678284 0.667694
0.687561 0.686768 0.676178
0.695496 0.694733 0.684174
0.703033 0.702271 0.691772
0.710663 0.709930 0.699463
0.718506 0.717834 0.707397
0.077942 0.075958 0.074890
0.079865 0.077850 0.076721
0.081573 0.079498 0.078369
0.083221 0.081146 0.079987
0.084869 0.082794 0.081604
0.087036 0.084930 0.083679
0.089203 0.087097 0.085785
0.091522 0.089417 0.088013
0.093292 0.091187 0.089752
0.104980 0.102783 0.101105
0.131012 0.128723 0.126312
0.151215 0.148834 0.145935
0.171112 0.168701 0.165222
0.218048 0.215576 0.210815
0.276428 0.273987 0.267670
0.338562 0.336212 0.328217
0.399109 0.396881 0.387390
0.461212 0.459137 0.448181
0.521515 0.519928 0.508301
0.573029 0.571747 0.561462
0.616180 0.615051 0.604553
0.633209 0.632141 0.621643
0.641785 0.640747 0.630219
0.650757 0.649780 0.639191
0.659760 0.658813 0.648163
0.667969 0.667053 0.656433
0.675934 0.675049 0.664398
0.683868 0.683014 0.672394
0.691589 0.690765 0.680176
0.698608 0.697815 0.687317
0.705627 0.704865 0.694458
0.712646 0.711914 0.701569
0.100128 0.097961 0.096344
0.101837 0.099670 0.098022
0.103546 0.101379 0.099670
0.105255 0.103088 0.101349
0.107666 0.105469 0.103668
0.110229 0.108002 0.106140
0.112762 0.110535 0.108582
0.114807 0.112579 0.110565
0.117004 0.114746 0.112701
0.119110 0.116852 0.114746
0.143982 0.141632 0.138885
0.173187 0.170807 0.167236
0.197266 0.194824 0.190613
0.216736 0.214264 0.209595
0.266815 0.264374 0.258301
0.329865 0.327515 0.319733
0.393066 0.390869 0.381470
0.456146 0.454102 0.443207
0.517395 0.515869 0.503998
0.569916 0.568604 0.558228
0.616119 0.614990 0.604401
0.635071 0.634064 0.623444
0.643188 0.642181 0.631561
0.651184 0.650208 0.639618
0.659210 0.658234 0.647675
0.667297 0.666351 0.655792
0.675781 0.674896 0.664337
0.684265 0.683441 0.672852
0.692444 0.691650 0.681061
0.699829 0.699066 0.688538
0.707214 0.706451 0.695984
0.714569 0.713867 0.703430
0.122803 0.120514 0.118347
0.125000 0.122711 0.120483
0.127167 0.124878 0.122589
0.129547 0.127258 0.124908
0.131866 0.129578 0.127167
0.134155 0.131836 0.129364
0.136444 0.134125 0.131622
0.138885 0.136566 0.133972
0.141449 0.139130 0.136475
0.143982 0.141632 0.138885
0.149506 0.147156 0.144257
0.188141 0.185699 0.181763
0.219299 0.216858 0.212067
0.245270 0.242798 0.237274
0.267365 0.264923 0.258850
0.318634 0.316254 0.308777
0.382568 0.380310 0.371216
0.448334 0.446259 0.435516
0.511353 0.509735 0.497986
0.564728 0.563385 0.553101
0.610504 0.609375 0.598907
0.635254 0.634247 0.623657
0.644104 0.643127 0.632538
0.652161 0.651215 0.640625
0.660248 0.659332 0.648743
0.668396 0.667480 0.656891
0.676575 0.675720 0.665131
0.684753 0.683929 0.673370
0.692596 0.691772 0.681244
0.699860 0.699097 0.688599
0.707153 0.706390 0.695953
0.714478 0.713745 0.703369
0.148804 0.146454 0.143585
0.151123 0.148773 0.145844
0.153717 0.151337 0.148346
0.156555 0.154175 0.151093
0.159302 0.156921 0.153748
0.161865 0.159485 0.156250
0.163940 0.161560 0.158264
0.166321 0.163910 0.160583
0.169525 0.167114 0.163666
0.171936 0.169525 0.166016
0.174164 0.171722 0.168152
0.195282 0.192871 0.188721
0.240967 0.238525 0.233093
0.269989 0.267548 0.261383
0.297455 0.295074 0.288116
0.320648 0.318268 0.310760
0.372192 0.369904 0.361053
0.437866 0.435730 0.425293
0.502197 0.500458 0.488708
0.558624 0.557281 0.546997
0.606812 0.605652 0.595093
0.635040 0.634033 0.623383
0.645081 0.644104 0.633484
0.652802 0.651855 0.641266
0.660583 0.659668 0.649109
0.669067 0.668182 0.657593
0.677551 0.676697 0.666077
0.686005 0.685181 0.674561
0.693726 0.692932 0.682343
0.700806 0.700012 0.689514
0.707855 0.707092 0.696655
0.715393 0.714661 0.704285
0.176910 0.174500 0.170837
0.180054 0.177612 0.173889
0.182312 0.179871 0.176086
0.184570 0.182129 0.178314
0.186829 0.184387 0.180542
0.190094 0.187622 0.183655
0.193298 0.190857 0.186768
0.196350 0.193909 0.189728
0.198578 0.196136 0.191895
0.200623 0.198151 0.193909
0.202606 0.200134 0.195831
0.205231 0.202789 0.198425
0.252594 0.250153 0.244415
0.294128 0.291718 0.284882
0.324799 0.322418 0.314789
0.352570 0.350281 0.341888
0.376862 0.374603 0.365631
0.424927 0.422760 0.412659
0.491577 0.489685 0.477997
0.550476 0.549072 0.538818
0.598724 0.597565 0.587097
0.632782 0.631744 0.621155
0.645111 0.644135 0.633545
0.653107 0.652161 0.641602
0.661377 0.660461 0.649872
0.669464 0.668579 0.658020
0.677460 0.676575 0.666046
0.685364 0.684509 0.674011
0.693146 0.692322 0.681824
0.700836 0.700043 0.689606
0.708527 0.707794 0.697357
0.716248 0.715546 0.705139
0.205505 0.203064 0.198639
0.208496 0.206024 0.201538
0.211456 0.209015 0.204437
0.214447 0.211975 0.207306
0.217804 0.215332 0.210602
0.221100 0.218658 0.213776
0.224365 0.221924 0.216949
0.226959 0.224518 0.219482
0.229034 0.226593 0.221527
0.231049 0.228577 0.223480
0.233215 0.230743 0.225616
0.236603 0.234131 0.228912
0.255005 0.252563 0.246765
0.310150 0.307739 0.300537
0.350494 0.348175 0.339844
0.380066 0.377808 0.368744
0.406219 0.403992 0.394318
0.431152 0.428986 0.418732
0.480988 0.478973 0.467499
0.541351 0.539917 0.529266
0.590240 0.589020 0.578613
0.630615 0.629578 0.618958
0.646637 0.645660 0.635071
0.654480 0.653503 0.642944
0.662781 0.661865 0.651276
0.670990 0.670074 0.659485
0.679016 0.678131 0.667572
0.686279 0.685425 0.674927
0.693848 0.693024 0.682556
0.701904 0.701141 0.690674
0.710266 0.709503 0.699036
0.718658 0.717957 0.707458
0.236633 0.234192 0.228912
0.239227 0.236755 0.231415
0.241852 0.239380 0.233978
0.245087 0.242615 0.237122
0.248383 0.245911 0.240326
0.251678 0.249237 0.243561
0.254517 0.252075 0.246307
0.257324 0.254852 0.249054
0.260468 0.258026 0.252106
0.263641 0.261169 0.255188
0.266754 0.264313 0.258240
0.270111 0.267700 0.261505
0.273285 0.270844 0.264557
0.319366 0.316986 0.309479
0.370636 0.368347 0.359558
0.404694 0.402466 0.392883
0.436646 0.434540 0.424042
0.462280 0.460236 0.449219
0.487518 0.485535 0.473969
0.530853 0.529358 0.518219
0.582001 0.580750 0.570343
0.622437 0.621338 0.610779
0.647278 0.646271 0.635651
0.655518 0.654572 0.643982
0.663116 0.662170 0.651611
0.670715 0.669830 0.659302
0.679199 0.678345 0.667786
0.687683 0.686859 0.676270
0.695923 0.695129 0.684570
0.703583 0.702820 0.692291
0.711212 0.710480 0.700012
0.718842 0.718140 0.707703
0.266968 0.264557 0.258423
0.270538 0.268127 0.261902
0.272980 0.270569 0.264313
0.275421 0.272980 0.266693
0.278168 0.275726 0.269348
0.281616 0.279175 0.272736
0.285095 0.282684 0.276123
0.288300 0.285889 0.279236
0.291046 0.288635 0.281952
0.293915 0.291473 0.284729
0.296692 0.294250 0.287445
0.300232 0.297821 0.290863
0.304321 0.301880 0.294830
0.323608 0.321228 0.313568
0.383148 0.380859 0.371796
0.429138 0.426971 0.416718
0.461578 0.459534 0.448578
0.492371 0.490417 0.478729
0.517090 0.515503 0.503662
0.537811 0.536377 0.525543
0.571716 0.570404 0.560028
0.614197 0.613068 0.602478
0.643738 0.642731 0.632172
0.655701 0.654724 0.644165
0.664276 0.663361 0.652771
0.672638 0.671753 0.661163
0.680878 0.680023 0.669403
0.689087 0.688263 0.677673
0.696594 0.695801 0.685242
0.703674 0.702911 0.692444
0.710754 0.710022 0.699615
0.718231 0.717529 0.707153
0.293518 0.291077 0.284302
0.296722 0.294312 0.287476
0.299957 0.297516 0.290619
0.304016 0.301605 0.294556
0.307739 0.305328 0.298157
0.311218 0.308838 0.301575
0.314392 0.312012 0.304657
0.317566 0.315155 0.307739
0.321411 0.319031 0.311493
0.324982 0.322632 0.314972
0.327454 0.325104 0.317413
0.329834 0.327484 0.319763
0.332123 0.329742 0.321991
0.335205 0.332825 0.324982
0.388458 0.386200 0.376923
0.446991 0.444885 0.434204
0.485687 0.483704 0.472107
0.514709 0.513000 0.501129
0.540466 0.539001 0.528076
0.562866 0.561523 0.551270
0.580688 0.579437 0.569122
0.604797 0.603638 0.593079
0.637421 0.636383 0.625824
0.656525 0.655579 0.644989
0.664337 0.663391 0.652832
0.672241 0.671356 0.660797
0.680542 0.679688 0.669128
0.689026 0.688202 0.677643
0.696991 0.696228 0.685669
0.704224 0.703461 0.692993
0.711731 0.710999 0.700562
0.719269 0.718567 0.708160
0.318695 0.316315 0.308807
0.321136 0.318726 0.311218
0.323547 0.321167 0.313599
0.326263 0.323883 0.316254
0.329956 0.327576 0.319855
0.333923 0.331573 0.323730
0.337921 0.335571 0.327606
0.341309 0.338989 0.330902
0.344543 0.342224 0.334076
0.347748 0.345428 0.337219
0.351379 0.349060 0.340790
0.355011 0.352692 0.344299
0.358612 0.356293 0.347809
0.361816 0.359528 0.350922
0.391815 0.389587 0.380219
0.458801 0.456726 0.445740
0.503052 0.501343 0.489502
0.533386 0.531830 0.520935
0.559631 0.558289 0.548035
0.583984 0.582764 0.572296
0.602356 0.601166 0.590698
0.616760 0.615631 0.605164
0.630310 0.629242 0.618683
0.654541 0.653564 0.643036
0.665192 0.664246 0.653687
0.673279 0.672394 0.661804
0.681091 0.680237 0.669708
0.689056 0.688232 0.677704
0.696899 0.696106 0.685608
0.704468 0.703705 0.693268
0.711823 0.711090 0.700684
0.718903 0.718201 0.707855
0.329803 0.327454 0.319672
0.333557 0.331207 0.323303
0.336090 0.333740 0.325775
0.338501 0.336151 0.328186
0.341278 0.338928 0.330902
0.344849 0.342499 0.334381
0.348816 0.346497 0.338257
0.352631 0.350311 0.341949
0.355988 0.353699 0.345245
0.359222 0.356903 0.348419
0.362457 0.360138 0.351562
0.366028 0.363739 0.355072
0.369690 0.367401 0.358643
0.373352 0.371063 0.362183
0.389771 0.387512 0.378235
0.453705 0.451630 0.440765
0.507385 0.505585 0.493774
0.540741 0.539307 0.528687
0.566925 0.565613 0.555359
0.592010 0.590820 0.580353
0.611816 0.610687 0.600159
0.627167 0.626129 0.615540
0.639191 0.638184 0.627625
0.651245 0.650299 0.639709
0.665619 0.664703 0.654114
0.673584 0.672699 0.662140
0.681427 0.680573 0.670013
0.689240 0.688416 0.677887
0.696930 0.696136 0.685669
0.704437 0.703674 0.693237
0.712006 0.711273 0.700897
0.719574 0.718872 0.708527
0.335785 0.333435 0.325470
0.339508 0.337189 0.329132
0.343262 0.340942 0.332764
0.345795 0.343445 0.335266
0.348572 0.346222 0.337982
0.351532 0.349213 0.340881
0.355072 0.352753 0.344360
0.358887 0.356598 0.348083
0.362274 0.359985 0.351379
0.365631 0.363342 0.354675
0.368866 0.366577 0.357849
0.372467 0.370178 0.361328
0.376068 0.373810 0.364868
0.379730 0.377472 0.368408
0.383087 0.380829 0.371704
0.438965 0.436859 0.426361
0.505127 0.503387 0.491638
0.541626 0.540222 0.529449
0.569489 0.568176 0.557892
0.595337 0.594147 0.583649
0.614990 0.613861 0.603333
0.631500 0.630463 0.619843
0.643066 0.642059 0.631500
0.653870 0.652893 0.642303
0.665588 0.664673 0.654053
0.674316 0.673462 0.662842
0.682159 0.681335 0.670746
0.690002 0.689178 0.678619
0.697693 0.696899 0.686401
0.705139 0.704407 0.693939
0.712646 0.711914 0.701508
0.720215 0.719513 0.709137
0.341736 0.339417 0.331299
0.345490 0.343170 0.334961
0.349213 0.346924 0.338593
0.352966 0.350677 0.342255
0.355835 0.353546 0.345062
0.358795 0.356506 0.347961
0.361755 0.359467 0.350861
0.365143 0.362854 0.354187
0.368530 0.366272 0.357513
0.371918 0.369659 0.360809
0.375275 0.373016 0.364105
0.378876 0.376617 0.367615
0.382507 0.380249 0.371124
0.386108 0.383881 0.374664
0.389465 0.387238 0.377960
0.433533 0.431396 0.421051
0.506470 0.504791 0.492737
0.544403 0.542999 0.532684
0.572723 0.571442 0.561127
0.599487 0.598328 0.587769
0.618408 0.617310 0.606781
0.635254 0.634247 0.623627
0.646545 0.645569 0.635010
0.658203 0.657257 0.646637
0.666290 0.665405 0.654755
0.674957 0.674072 0.663452
0.682800 0.681946 0.671356
0.690643 0.689850 0.679230
0.698364 0.697571 0.687012
0.705811 0.705048 0.694550
0.713257 0.712524 0.702087
0.720764 0.720062 0.709656
0.348053 0.345734 0.337463
0.351471 0.349182 0.340820
0.355225 0.352936 0.344452
0.358978 0.356689 0.348114
0.362640 0.360352 0.351685
0.365662 0.363373 0.354645
0.368622 0.366333 0.357544
0.371674 0.369385 0.360535
0.375031 0.372742 0.363831
0.378418 0.376160 0.367157
0.381805 0.379547 0.370483
0.385681 0.383453 0.374237
0.389313 0.387085 0.377777
0.392914 0.390717 0.381287
0.396484 0.394257 0.384766
0.436432 0.434326 0.423920
0.508057 0.506256 0.494385
0.547546 0.546173 0.535919
0.577332 0.576050 0.565674
0.603607 0.602448 0.591888
0.622589 0.621521 0.610992
0.639435 0.638428 0.627808
0.650909 0.649963 0.639404
0.662537 0.661621 0.651001
0.670654 0.669769 0.659149
0.675201 0.674347 0.663696
0.683044 0.682220 0.671600
0.690887 0.690094 0.679474
0.698578 0.697815 0.687225
0.706024 0.705261 0.694763
0.713470 0.712769 0.702301
0.720947 0.720245 0.709839
0.354492 0.352203 0.343750
0.357819 0.355499 0.346985
0.361237 0.358948 0.350342
0.364990 0.362701 0.354004
0.368652 0.366364 0.357574
0.372284 0.369995 0.361084
0.375275 0.373016 0.364044
0.378357 0.376068 0.367065
0.381653 0.379395 0.370300
0.385010 0.382751 0.373596
0.388397 0.386139 0.376892
0.392334 0.390137 0.380737
0.396271 0.394043 0.384552
0.399872 0.397675 0.388092
0.403442 0.401245 0.391571
0.440460 0.438324 0.427856
0.510559 0.508820 0.496918
0.551208 0.549835 0.539459
0.582550 0.581299 0.570862
0.608063 0.606934 0.596375
0.627533 0.626495 0.615936
0.644226 0.643219 0.632629
0.655945 0.654999 0.644440
0.667053 0.666138 0.655548
0.674744 0.673859 0.663300
0.679779 0.678955 0.668335
0.683136 0.682312 0.671692
0.690979 0.690186 0.679565
0.698669 0.697906 0.687317
0.706085 0.705322 0.694824
0.713531 0.712799 0.702332
0.720978 0.720276 0.709869
0.360962 0.358673 0.350037
0.364258 0.361969 0.353271
0.367584 0.365295 0.356506
0.371002 0.368713 0.359863
0.374664 0.372406 0.363434
0.378296 0.376038 0.366974
0.381927 0.379639 0.370514
0.385010 0.382751 0.373566
0.388336 0.386078 0.376801
0.391632 0.389374 0.380035
0.394989 0.392761 0.383331
0.398926 0.396729 0.387177
0.402924 0.400726 0.391052
0.406830 0.404663 0.394867
0.410400 0.408203 0.398346
0.445953 0.443848 0.433258
0.513885 0.512268 0.500305
