滤镜资源/Professional Luts Collection/Triune-Digital-Cinematic-LUTs/3D LUTs (CUBE)/ALEXA/BW/Casino Royale 1 - Alexa.cube
#Created by Benjamin (IWLTBAP) : http://luts.iwltbap.com
#Copyright: (C) Copyright 2016 Triune Films and IWLTBAP
TITLE "Blockbuster LUTs Pack (Alexa Log-C)"
#LUT size
LUT_3D_SIZE 8
#LUT data points
DOMAIN_MIN 0.000000 0.000000 0.000000
DOMAIN_MAX 0.903226 0.903226 0.903226
0.000000 0.000000 0.000000
0.011444 0.010559 0.010773
0.053406 0.051636 0.051147
0.184875 0.182434 0.178589
0.390472 0.388275 0.378906
0.571991 0.570679 0.560364
0.601807 0.600647 0.590179
0.633606 0.632568 0.622009
0.004883 0.004303 0.004517
0.009644 0.008820 0.009033
0.051392 0.049591 0.049194
0.192749 0.190338 0.186249
0.425812 0.423676 0.413513
0.620605 0.619507 0.608948
0.648743 0.647766 0.637207
0.678467 0.677582 0.667053
0.022369 0.021118 0.021240
0.026154 0.024811 0.024841
0.048309 0.046600 0.046234
0.187592 0.185181 0.181244
0.415924 0.413727 0.403839
0.632660 0.631622 0.621063
0.678192 0.677338 0.666809
0.711731 0.710999 0.700592
0.077942 0.075958 0.074890
0.084869 0.082794 0.081604
0.093292 0.091187 0.089752
0.171112 0.168701 0.165222
0.399109 0.396881 0.387390
0.616180 0.615051 0.604553
0.659760 0.658813 0.648163
0.691589 0.690765 0.680176
0.176910 0.174500 0.170837
0.186829 0.184387 0.180542
0.198578 0.196136 0.191895
0.252594 0.250153 0.244415
0.376862 0.374603 0.365631
0.598724 0.597565 0.587097
0.661377 0.660461 0.649872
0.693146 0.692322 0.681824
0.293518 0.291077 0.284302
0.307739 0.305328 0.298157
0.321411 0.319031 0.311493
0.332123 0.329742 0.321991
0.485687 0.483704 0.472107
0.580688 0.579437 0.569122
0.664337 0.663391 0.652832
0.696991 0.696228 0.685669
0.341736 0.339417 0.331299
0.355835 0.353546 0.345062
0.368530 0.366272 0.357513
0.382507 0.380249 0.371124
0.506470 0.504791 0.492737
0.618408 0.617310 0.606781
0.666290 0.665405 0.654755
0.698364 0.697571 0.687012
0.367340 0.365051 0.356262
0.380737 0.378448 0.369354
0.394989 0.392761 0.383301
0.409424 0.407257 0.397430
0.518616 0.517029 0.505157
0.638184 0.637177 0.626587
0.684265 0.683411 0.672882
0.698944 0.698212 0.687622
0.000244 0.000153 0.000214
0.001617 0.001343 0.001495
0.026947 0.025574 0.025635
0.136139 0.133789 0.131256
0.327484 0.325134 0.317413
0.520935 0.519287 0.507843
0.556030 0.554688 0.544220
0.589783 0.588531 0.578125
0.005585 0.004974 0.005188
0.017609 0.016541 0.016663
0.067780 0.065857 0.065063
0.185913 0.183472 0.179596
0.380737 0.378448 0.369385
0.571533 0.570251 0.559845
0.604919 0.603760 0.593201
0.637695 0.636688 0.626007
0.023560 0.022278 0.022369
0.032745 0.031281 0.031219
0.061188 0.059326 0.058685
0.217590 0.215149 0.210419
0.458221 0.456116 0.445282
0.657196 0.656250 0.645660
0.666626 0.665710 0.655090
0.691040 0.690216 0.679718
0.079956 0.077942 0.076843
0.096710 0.094543 0.093048
0.104279 0.102081 0.100372
0.186462 0.184021 0.180115
0.419037 0.416870 0.406860
0.635406 0.634338 0.623779
0.682831 0.681976 0.671417
0.715790 0.715088 0.704651
0.178772 0.176361 0.172699
0.202789 0.200317 0.195984
0.214722 0.212280 0.207581
0.267883 0.265442 0.259338
0.394684 0.392426 0.383026
0.616699 0.615570 0.605011
0.678131 0.677246 0.666687
0.708679 0.707947 0.697510
0.297455 0.295013 0.288177
0.327026 0.324646 0.316956
0.340454 0.338104 0.330048
0.353577 0.351227 0.342834
0.504059 0.502258 0.490784
0.600555 0.599396 0.588867
0.680634 0.679779 0.669250
0.711548 0.710846 0.700409
0.344147 0.341797 0.333710
0.373138 0.370850 0.362030
0.388672 0.386444 0.377167
0.403076 0.400879 0.391235
0.523499 0.521942 0.510468
0.634949 0.633911 0.623413
0.680969 0.680115 0.669586
0.713196 0.712494 0.702057
0.370697 0.368408 0.359619
0.399872 0.397675 0.388092
0.412323 0.410126 0.400299
0.427216 0.425079 0.414886
0.536224 0.534790 0.523621
0.654083 0.653076 0.642548
0.699371 0.698608 0.688141
0.714111 0.713379 0.702942
0.000671 0.000519 0.000580
0.001465 0.001190 0.001312
0.005066 0.004456 0.004669
0.078033 0.076019 0.074951
0.248352 0.245911 0.240295
0.439087 0.436951 0.426544
0.480835 0.478821 0.467438
0.521088 0.519562 0.508148
0.003754 0.003296 0.003448
0.009583 0.008789 0.008972
0.014587 0.013580 0.013763
0.107422 0.105225 0.103424
0.294189 0.291779 0.284973
0.494141 0.492249 0.480988
0.534607 0.533112 0.522339
0.568268 0.566986 0.556671
0.025787 0.024475 0.024536
0.036438 0.034912 0.034760
0.091400 0.089294 0.087921
0.259186 0.256744 0.250854
0.450928 0.448822 0.438080
0.563629 0.562317 0.551849
0.584381 0.583130 0.572723
0.618500 0.617401 0.606842
0.085724 0.083649 0.082428
0.102997 0.100800 0.099121
0.121002 0.118744 0.116608
0.236481 0.234039 0.228729
0.488678 0.486786 0.475189
0.696899 0.696106 0.685577
0.738739 0.738129 0.727814
0.767151 0.766632 0.756683
0.182617 0.180206 0.176392
0.206543 0.204102 0.199646
0.229156 0.226685 0.221649
0.284851 0.282440 0.275848
0.412079 0.409851 0.400055
0.633331 0.632294 0.621674
0.694183 0.693390 0.682861
0.724152 0.723480 0.713165
0.301819 0.299408 0.292419
0.329834 0.327454 0.319702
0.358093 0.355804 0.347321
0.371063 0.368774 0.359985
0.521027 0.519348 0.508148
0.617004 0.615906 0.605316
0.696930 0.696167 0.685638
0.727203 0.726562 0.716217
0.351135 0.348785 0.340454
0.378906 0.376648 0.367615
0.407928 0.405731 0.395996
0.421631 0.419495 0.409424
0.542175 0.540741 0.530182
0.653046 0.652069 0.641449
0.697693 0.696899 0.686371
0.727936 0.727264 0.716949
0.373383 0.371063 0.362274
0.404053 0.401855 0.392212
0.434387 0.432251 0.421875
0.447571 0.445496 0.434845
0.556152 0.554749 0.544403
0.671051 0.670135 0.659546
0.715485 0.714752 0.704346
0.728943 0.728271 0.717926
0.001709 0.001404 0.001526
0.002197 0.001801 0.001984
0.004517 0.003967 0.004150
0.015228 0.014191 0.014374
0.125793 0.123505 0.121246
0.294250 0.291840 0.285004
0.336731 0.334381 0.326447
0.372467 0.370148 0.361359
0.004639 0.004089 0.004303
0.009430 0.008636 0.008820
0.013397 0.012421 0.012604
0.029327 0.027924 0.027924
0.160767 0.158386 0.155182
0.344299 0.341980 0.333832
0.387909 0.385651 0.376373
0.425903 0.423737 0.413544
0.010681 0.009827 0.010040
0.016968 0.015839 0.016022
0.029755 0.028351 0.028351
0.046387 0.044708 0.044373
0.200531 0.198090 0.193787
0.395142 0.392883 0.383484
0.440155 0.438049 0.427551
0.479736 0.477783 0.466461
0.094666 0.092529 0.091064
0.112000 0.109772 0.107849
0.130676 0.128387 0.125977
0.326538 0.324188 0.316498
0.577454 0.576172 0.565735
0.747742 0.747162 0.737000
0.772003 0.771484 0.761627
0.795441 0.795013 0.785522
0.204590 0.202179 0.197754
0.229095 0.226654 0.221588
0.253662 0.251221 0.245483
0.359833 0.357513 0.348999
0.550262 0.548889 0.538452
0.749146 0.748535 0.738373
0.803741 0.803345 0.793915
0.828400 0.828064 0.819244
0.321075 0.318695 0.311188
0.350952 0.348663 0.340332
0.377991 0.375732 0.366760
0.407562 0.405334 0.395630
0.614227 0.613098 0.602600
0.705078 0.704315 0.693817
0.781830 0.781342 0.771637
0.809235 0.808868 0.799561
0.361969 0.359650 0.351074
0.391907 0.389679 0.380310
0.419769 0.417572 0.407593
0.449829 0.447723 0.437012
0.590576 0.589325 0.578918
0.703522 0.702789 0.692322
0.750885 0.750305 0.740204
0.781342 0.780884 0.771118
0.387756 0.385498 0.376251
0.416931 0.414764 0.404785
0.444672 0.442566 0.431976
0.475159 0.473175 0.461884
0.597809 0.596619 0.586151
0.711609 0.710876 0.700470
0.755554 0.755005 0.744873
0.767883 0.767365 0.757446
0.003357 0.002869 0.003052
0.003967 0.003448 0.003632
0.005371 0.004761 0.004944
0.012421 0.011475 0.011688
0.033386 0.031891 0.031830
0.149475 0.147095 0.144226
0.186188 0.183777 0.179871
0.217010 0.214569 0.209839
0.007172 0.006500 0.006683
0.012695 0.011780 0.011963
0.014832 0.013794 0.014008
0.025543 0.024200 0.024261
0.052917 0.051117 0.050690
0.187775 0.185364 0.181458
0.226440 0.223999 0.219025
0.261108 0.258667 0.252747
0.012146 0.011200 0.011414
0.019012 0.017883 0.018005
0.027283 0.025909 0.025970
0.043488 0.041840 0.041565
0.077118 0.075134 0.074097
0.231415 0.228973 0.223846
0.272614 0.270172 0.263916
0.308289 0.305908 0.298706
0.073181 0.071167 0.070251
0.089325 0.087250 0.085907
0.105774 0.103577 0.101837
0.241516 0.239075 0.233673
0.283966 0.281555 0.274963
0.473206 0.471191 0.460052
0.493347 0.491455 0.479950
0.524933 0.523438 0.511841
0.212128 0.209656 0.205109
0.238617 0.236145 0.230835
0.262726 0.260315 0.254333
0.320892 0.318512 0.310974
0.639587 0.638580 0.627991
0.820709 0.820343 0.811310
0.865845 0.865631 0.857819
0.886322 0.886169 0.879089
0.346680 0.344360 0.336151
0.373352 0.371063 0.362213
0.403076 0.400848 0.391235
0.431061 0.428925 0.418671
0.702087 0.701324 0.690857
0.800354 0.799927 0.790466
0.871796 0.871582 0.863983
0.893585 0.893463 0.886566
0.410828 0.408630 0.398773
0.437134 0.434998 0.424591
0.467682 0.465637 0.454529
0.496704 0.494781 0.483032
0.696472 0.695679 0.685211
0.832672 0.832367 0.823578
0.866180 0.865967 0.858124
0.889252 0.889130 0.882111
0.436157 0.434021 0.423523
0.462463 0.460388 0.449402
0.494141 0.492218 0.480591
0.521210 0.519562 0.508026
0.692871 0.692047 0.681580
0.844086 0.843811 0.835358
0.877380 0.877197 0.869751
0.888367 0.888214 0.881165
0.005249 0.004639 0.004852
0.006073 0.005432 0.005646
0.006866 0.006165 0.006378
0.014771 0.013702 0.013916
0.024384 0.023071 0.023163
0.055237 0.053467 0.052948
0.079620 0.077576 0.076477
0.102295 0.100098 0.098450
0.009705 0.008850 0.009094
0.015991 0.014923 0.015106
0.017487 0.016357 0.016510
0.028900 0.027496 0.027496
0.042664 0.041016 0.040771
0.081329 0.079315 0.078156
0.110657 0.108429 0.106537
0.135193 0.132874 0.130371
0.015686 0.014618 0.014801
0.023071 0.021790 0.021881
0.032959 0.031525 0.031433
0.048096 0.046417 0.046051
0.064972 0.063080 0.062347
0.109650 0.107452 0.105621
0.144196 0.141846 0.139099
0.173920 0.171509 0.167908
0.022491 0.021240 0.021332
0.031403 0.029968 0.029938
0.042633 0.040985 0.040741
0.067322 0.065369 0.064606
0.090179 0.088074 0.086731
0.138306 0.135956 0.133362
0.185150 0.182739 0.178864
0.216614 0.214172 0.209412
0.195984 0.193573 0.189423
0.220337 0.217896 0.213074
0.245605 0.243164 0.237610
0.268951 0.266510 0.260376
0.589081 0.587860 0.577393
0.633392 0.632324 0.621796
0.702118 0.701355 0.690918
0.731018 0.730347 0.720062
0.352264 0.349945 0.341614
0.381195 0.378906 0.369873
0.410797 0.408600 0.398804
0.438721 0.436584 0.426147
0.691925 0.691101 0.680603
0.855347 0.855133 0.846924
0.926147 0.926086 0.920776
0.943451 0.943390 0.939087
0.438446 0.436310 0.425812
0.465485 0.463440 0.452362
0.497040 0.495239 0.483490
0.524261 0.522705 0.511414
0.689026 0.688202 0.677704
0.888702 0.888550 0.881531
0.921753 0.921692 0.916168
0.944794 0.944763 0.940521
0.464325 0.462250 0.451141
0.492889 0.490997 0.479431
0.520660 0.518921 0.507324
0.548889 0.547516 0.536774
0.666504 0.665588 0.654938
0.899292 0.899170 0.892609
0.934204 0.934143 0.929260
0.944458 0.944427 0.940186
0.006561 0.005890 0.006104
0.007141 0.006409 0.006653
0.008087 0.007324 0.007538
0.015778 0.014679 0.014893
0.026550 0.025177 0.025238
0.036835 0.035248 0.035156
0.040405 0.038818 0.038605
0.056793 0.054993 0.054413
0.011261 0.010345 0.010590
0.018127 0.016998 0.017151
0.019226 0.018036 0.018219
0.030731 0.029327 0.029297
0.045441 0.043762 0.043457
0.058319 0.056488 0.055878
0.062286 0.060425 0.059753
0.082123 0.080048 0.078949
0.017792 0.016663 0.016815
0.025543 0.024231 0.024292
0.035248 0.033722 0.033661
0.049805 0.048065 0.047668
0.067963 0.066040 0.065247
0.084625 0.082581 0.081360
0.089417 0.087311 0.085968
0.112213 0.109985 0.108093
0.024811 0.023499 0.023590
0.034851 0.033325 0.033234
0.045441 0.043762 0.043488
0.069672 0.067719 0.066864
0.094086 0.091949 0.090515
0.113281 0.111023 0.109131
0.119904 0.117615 0.115540
0.147247 0.144928 0.142059
0.178314 0.175903 0.172241
0.202759 0.200287 0.195953
0.226532 0.224060 0.219086
0.250549 0.248108 0.242462
0.541656 0.540192 0.529266
0.562408 0.561096 0.550781
0.568634 0.567291 0.556946
0.600800 0.599609 0.589142
0.347870 0.345520 0.337311
0.376984 0.374725 0.365753
0.406006 0.403809 0.394104
0.433899 0.431732 0.421417
0.677490 0.676605 0.665985
0.843018 0.842743 0.834229
0.860229 0.859985 0.851959
0.881439 0.881287 0.873962
0.444550 0.442444 0.431793
0.473267 0.471252 0.459991
0.502258 0.500458 0.489166
0.531281 0.529816 0.518616
0.661163 0.660217 0.649597
0.887909 0.887787 0.880707
0.944885 0.944824 0.940613
0.970734 0.970703 0.968262
0.478577 0.476562 0.465179
0.507202 0.505341 0.493713
0.535400 0.533936 0.522766
0.564331 0.562988 0.552673
0.670380 0.669495 0.658936
0.904205 0.904083 0.897736
0.959930 0.959900 0.956635
0.970215 0.970215 0.967682
0.007050 0.006348 0.006592
0.007721 0.006958 0.007202
0.008636 0.007843 0.008087
0.016693 0.015594 0.015778
0.027344 0.025940 0.026001
0.038055 0.036499 0.036316
0.041504 0.039886 0.039642
0.042664 0.040985 0.040771
0.011902 0.010986 0.011200
0.019165 0.018036 0.018158
0.020355 0.019165 0.019318
0.031403 0.029938 0.029907
0.045654 0.043945 0.043671
0.060455 0.058594 0.057953
0.063568 0.061707 0.061005
0.066406 0.064484 0.063721
0.018341 0.017212 0.017365
0.026459 0.025116 0.025177
0.036987 0.035461 0.035309
0.050507 0.048767 0.048370
0.068878 0.066925 0.066132
0.086700 0.084625 0.083344
0.089783 0.087677 0.086365
0.093903 0.091797 0.090332
0.026215 0.024872 0.024902
0.035431 0.033905 0.033783
0.046814 0.045105 0.044800
0.070343 0.068390 0.067535
0.095306 0.093170 0.091705
0.115845 0.113617 0.111603
0.121368 0.119080 0.116943
0.125092 0.122803 0.120575
0.173981 0.171539 0.168030
0.199249 0.196808 0.192535
0.221375 0.218903 0.214081
0.245544 0.243103 0.237579
0.526978 0.525452 0.513855
0.548492 0.547089 0.536591
0.550873 0.549469 0.538635
0.553986 0.552612 0.541962
0.346802 0.344482 0.336334
0.377441 0.375183 0.366180
0.406616 0.404419 0.394714
0.435028 0.432892 0.422485
0.673950 0.673065 0.662506
0.840851 0.840576 0.831970
0.850311 0.850037 0.841736
0.852173 0.851929 0.843719
0.445862 0.443756 0.433105
0.475006 0.473053 0.461761
0.502991 0.501221 0.489777
0.533081 0.531616 0.520508
0.653687 0.652710 0.642181
0.887848 0.887695 0.880615
0.944305 0.944275 0.939972
0.949036 0.949005 0.945007
0.487091 0.485107 0.473511
0.515961 0.514221 0.502472
0.544250 0.542877 0.532166
0.571259 0.569977 0.559570
0.674225 0.673370 0.662781
0.906311 0.906219 0.899933
0.961060 0.961029 0.957886
0.980591 0.980560 0.978882
