滤镜资源/Professional Luts Collection/Triune-Digital-Cinematic-LUTs/3D LUTs (CUBE)/ALEXA/BW/Casino Royale 2 - Alexa.cube
#Created by Benjamin (IWLTBAP) : http://luts.iwltbap.com
#Copyright: (C) Copyright 2016 Triune Films and IWLTBAP
TITLE "Blockbuster LUTs Pack (Alexa Log-C)"
#LUT size
LUT_3D_SIZE 8
#LUT data points
DOMAIN_MIN 0.000000 0.000000 0.000000
DOMAIN_MAX 0.903226 0.903226 0.903226
0.004608 0.004608 0.020264
0.005096 0.005096 0.020691
0.009613 0.009613 0.024902
0.070984 0.070984 0.081970
0.192627 0.192627 0.195099
0.331757 0.331757 0.324524
0.369690 0.369690 0.359802
0.400818 0.400818 0.388763
0.008606 0.008606 0.023956
0.009491 0.009491 0.024780
0.021912 0.021912 0.036316
0.090698 0.090698 0.100311
0.210999 0.210999 0.212189
0.359863 0.359863 0.350647
0.399536 0.399536 0.387543
0.434387 0.434387 0.419983
0.014954 0.014954 0.029846
0.014801 0.014801 0.029724
0.044983 0.044983 0.057800
0.144043 0.144043 0.149933
0.294006 0.294006 0.289398
0.416870 0.416870 0.403656
0.439270 0.439270 0.424500
0.468231 0.468231 0.451416
0.024567 0.024567 0.038818
0.030579 0.030579 0.044373
0.041595 0.041595 0.054657
0.216797 0.216797 0.217590
0.414276 0.414276 0.401245
0.594910 0.594910 0.569275
0.624908 0.624908 0.597137
0.647797 0.647797 0.618439
0.056213 0.056213 0.068237
0.072235 0.072235 0.083160
0.092987 0.092987 0.102478
0.193817 0.193817 0.196228
0.526489 0.526489 0.505676
0.704926 0.704926 0.671600
0.741821 0.741821 0.705902
0.763733 0.763733 0.726257
0.093964 0.093964 0.103363
0.117645 0.117645 0.125366
0.140686 0.140686 0.146820
0.163788 0.163788 0.168274
0.549072 0.549072 0.526642
0.767334 0.767334 0.729614
0.818146 0.818146 0.776886
0.831329 0.831329 0.789154
0.108856 0.108856 0.117218
0.132324 0.132324 0.139038
0.159180 0.159180 0.164001
0.186005 0.186005 0.188934
0.496490 0.496490 0.477722
0.776031 0.776031 0.737732
0.837524 0.837524 0.794891
0.852509 0.852509 0.808838
0.120026 0.120026 0.127625
0.143890 0.143890 0.149780
0.167847 0.167847 0.172058
0.197052 0.197052 0.199249
0.480469 0.480469 0.462830
0.781311 0.781311 0.742615
0.847015 0.847015 0.803711
0.864136 0.864136 0.819672
0.005310 0.005310 0.020874
0.009399 0.009399 0.024689
0.015381 0.015381 0.030243
0.083008 0.083008 0.093140
0.210358 0.210358 0.211609
0.356903 0.356903 0.347931
0.389404 0.389404 0.378143
0.419037 0.419037 0.405670
0.009277 0.009277 0.024597
0.012085 0.012085 0.027222
0.030243 0.030243 0.044067
0.101349 0.101349 0.110199
0.232697 0.232697 0.232391
0.387726 0.387726 0.376556
0.421295 0.421295 0.407776
0.449341 0.449341 0.433899
0.014709 0.014709 0.029633
0.016388 0.016388 0.031189
0.054199 0.054199 0.066376
0.160583 0.160583 0.165344
0.323608 0.323608 0.316925
0.440216 0.440216 0.425385
0.463501 0.463501 0.447052
0.485779 0.485779 0.467773
0.027649 0.027649 0.041656
0.033173 0.033173 0.046814
0.047241 0.047241 0.059906
0.228333 0.228333 0.228333
0.433899 0.433899 0.419495
0.613281 0.613281 0.586334
0.642151 0.642151 0.613190
0.666565 0.666565 0.635895
0.063293 0.063293 0.074799
0.080200 0.080200 0.090515
0.100891 0.100891 0.109802
0.201508 0.201508 0.203400
0.545380 0.545380 0.523163
0.713837 0.713837 0.679871
0.751984 0.751984 0.715363
0.775482 0.775482 0.737213
0.101898 0.101898 0.110748
0.124359 0.124359 0.131622
0.148102 0.148102 0.153717
0.176971 0.176971 0.180573
0.562744 0.562744 0.539368
0.774933 0.774933 0.736694
0.824036 0.824036 0.782349
0.840881 0.840881 0.798035
0.114227 0.114227 0.122192
0.138214 0.138214 0.144501
0.167297 0.167297 0.171570
0.197784 0.197784 0.199921
0.513733 0.513733 0.493774
0.786255 0.786255 0.747223
0.848267 0.848267 0.804901
0.859283 0.859283 0.815125
0.123108 0.123108 0.130432
0.148041 0.148041 0.153625
0.178284 0.178284 0.181763
0.210602 0.210602 0.211823
0.497803 0.497803 0.478973
0.793579 0.793579 0.754028
0.856445 0.856445 0.812469
0.871613 0.871613 0.826630
0.006744 0.006744 0.022247
0.010223 0.010223 0.025482
0.024872 0.024872 0.039062
0.099243 0.099243 0.108276
0.238068 0.238068 0.237366
0.386230 0.386230 0.375153
0.422791 0.422791 0.409149
0.448059 0.448059 0.432678
0.010651 0.010651 0.025848
0.011169 0.011169 0.026337
0.032928 0.032928 0.046570
0.115631 0.115631 0.123505
0.262726 0.262726 0.260315
0.417999 0.417999 0.404694
0.454712 0.454712 0.438843
0.485596 0.485596 0.467560
0.017761 0.017761 0.032471
0.018250 0.018250 0.032959
0.068329 0.068329 0.079529
0.190186 0.190186 0.192841
0.346252 0.346252 0.337982
0.456299 0.456299 0.440338
0.482513 0.482513 0.464752
0.515930 0.515930 0.495789
0.034790 0.034790 0.048340
0.048370 0.048370 0.060944
0.064331 0.064331 0.075806
0.270355 0.270355 0.267426
0.485718 0.485718 0.467712
0.660553 0.660553 0.630310
0.691956 0.691956 0.659546
0.710785 0.710785 0.677032
0.065277 0.065277 0.076660
0.085693 0.085693 0.095673
0.105164 0.105164 0.113770
0.213593 0.213593 0.214630
0.559418 0.559418 0.536255
0.726685 0.726685 0.691803
0.764191 0.764191 0.726685
0.783752 0.783752 0.744904
0.105469 0.105469 0.114075
0.130402 0.130402 0.137268
0.153931 0.153931 0.159119
0.182526 0.182526 0.185730
0.575348 0.575348 0.551056
0.784698 0.784698 0.745758
0.831696 0.831696 0.789490
0.847137 0.847137 0.803864
0.122711 0.122711 0.130066
0.148193 0.148193 0.153778
0.174286 0.174286 0.178070
0.207306 0.207306 0.208771
0.527100 0.527100 0.506195
0.794586 0.794586 0.754974
0.855011 0.855011 0.811157
0.869843 0.869843 0.824951
0.131500 0.131500 0.138245
0.158325 0.158325 0.163208
0.185944 0.185944 0.188873
0.221771 0.221771 0.222229
0.514008 0.514008 0.494019
0.805511 0.805511 0.765137
0.862610 0.862610 0.818237
0.877411 0.877411 0.832001
0.009369 0.009369 0.024658
0.009735 0.009735 0.025024
0.031311 0.031311 0.045105
0.130585 0.130585 0.137390
0.291290 0.291290 0.286896
0.446289 0.446289 0.431061
0.476013 0.476013 0.458649
0.504333 0.504333 0.485016
0.011353 0.011353 0.026520
0.014343 0.014343 0.029297
0.040894 0.040894 0.054016
0.147278 0.147278 0.152924
0.317108 0.317108 0.310883
0.478607 0.478607 0.461121
0.508331 0.508331 0.488739
0.538513 0.538513 0.516815
0.013855 0.013855 0.028839
0.016022 0.016022 0.030884
0.044312 0.044312 0.057190
0.163757 0.163757 0.168274
0.343506 0.343506 0.335449
0.508270 0.508270 0.488678
0.539673 0.539673 0.517883
0.570251 0.570251 0.546326
0.052643 0.052643 0.064911
0.071991 0.071991 0.082947
0.089142 0.089142 0.098877
0.329132 0.329132 0.322083
0.552307 0.552307 0.529633
0.712555 0.712555 0.678680
0.737244 0.737244 0.701630
0.756683 0.756683 0.719727
0.098145 0.098145 0.107239
0.122345 0.122345 0.129761
0.145172 0.145172 0.150970
0.266846 0.266846 0.264130
0.662109 0.662109 0.631744
0.801300 0.801300 0.761230
0.830841 0.830841 0.788696
0.843689 0.843689 0.800659
0.137177 0.137177 0.143524
0.166260 0.166260 0.170624
0.196808 0.196808 0.199005
0.227325 0.227325 0.227356
0.652618 0.652618 0.622894
0.834808 0.834808 0.792389
0.871643 0.871643 0.826660
0.884918 0.884918 0.838989
0.137054 0.137054 0.143433
0.167633 0.167633 0.171875
0.198822 0.198822 0.200867
0.236908 0.236908 0.236298
0.567139 0.567139 0.543427
0.823181 0.823181 0.781555
0.878357 0.878357 0.832855
0.891052 0.891052 0.844696
0.147369 0.147369 0.153046
0.174316 0.174316 0.178070
0.209473 0.209473 0.210785
0.246399 0.246399 0.245148
0.546539 0.546539 0.524261
0.822449 0.822449 0.780884
0.876770 0.876770 0.831421
0.890625 0.890625 0.844299
0.013062 0.013062 0.028107
0.015076 0.015076 0.029999
0.020660 0.020660 0.035187
0.150482 0.150482 0.155914
0.341980 0.341980 0.334015
0.514618 0.514618 0.494629
0.545746 0.545746 0.523529
0.576874 0.576874 0.552460
0.015625 0.015625 0.030518
0.016174 0.016174 0.031036
0.024170 0.024170 0.038422
0.171661 0.171661 0.175629
0.371216 0.371216 0.361206
0.544373 0.544373 0.522247
0.577454 0.577454 0.553040
0.607300 0.607300 0.580780
0.017273 0.017273 0.032043
0.018768 0.018768 0.033386
0.025116 0.025116 0.039337
0.188568 0.188568 0.191345
0.400299 0.400299 0.388275
0.573730 0.573730 0.549561
0.609039 0.609039 0.582428
0.634705 0.634705 0.606293
0.047394 0.047394 0.060028
0.066498 0.066498 0.077820
0.085663 0.085663 0.095642
0.303009 0.303009 0.297791
0.553711 0.553711 0.530945
0.701630 0.701630 0.668518
0.717682 0.717682 0.683441
0.738068 0.738068 0.702393
0.133087 0.133087 0.139740
0.155426 0.155426 0.160522
0.182343 0.182343 0.185547
0.252380 0.252380 0.250702
0.714935 0.714935 0.680878
0.837494 0.837494 0.794891
0.863434 0.863434 0.819000
0.875854 0.875854 0.830597
0.189362 0.189362 0.192108
0.224396 0.224396 0.224640
0.261383 0.261383 0.259064
0.302490 0.302490 0.297272
0.726868 0.726868 0.691986
0.877228 0.877228 0.831818
0.905426 0.905426 0.858063
0.912445 0.912445 0.864563
0.215637 0.215637 0.216522
0.255280 0.255280 0.253387
0.296661 0.296661 0.291870
0.340271 0.340271 0.332428
0.675323 0.675323 0.644073
0.884399 0.884399 0.838501
0.919495 0.919495 0.871155
0.927704 0.927704 0.878784
0.230072 0.230072 0.229950
0.269440 0.269440 0.266571
0.308533 0.308533 0.302917
0.351959 0.351959 0.343292
0.651154 0.651154 0.621582
0.888184 0.888184 0.842010
0.922241 0.922241 0.873688
0.930908 0.930908 0.881744
0.015686 0.015686 0.030548
0.018158 0.018158 0.032837
0.019775 0.019775 0.034332
0.158051 0.158051 0.162964
0.369720 0.369720 0.359802
0.569000 0.569000 0.545197
0.607422 0.607422 0.580902
0.632477 0.632477 0.604187
0.017487 0.017487 0.032227
0.021973 0.021973 0.036377
0.029633 0.029633 0.043549
0.177826 0.177826 0.181366
0.399078 0.399078 0.387146
0.597229 0.597229 0.571411
0.634247 0.634247 0.605835
0.659210 0.659210 0.629059
0.020782 0.020782 0.035309
0.024719 0.024719 0.038940
0.037872 0.037872 0.051178
0.193359 0.193359 0.195801
0.432922 0.432922 0.418610
0.624756 0.624756 0.597015
0.664062 0.664062 0.633575
0.683533 0.683533 0.651672
0.023438 0.023438 0.037750
0.030609 0.030609 0.044464
0.046387 0.046387 0.059113
0.176666 0.176666 0.180267
0.447266 0.447266 0.431946
0.646759 0.646759 0.617493
0.686310 0.686310 0.654297
0.707916 0.707916 0.674377
0.134491 0.134491 0.141022
0.157318 0.157318 0.162292
0.189087 0.189087 0.191833
0.217468 0.217468 0.218201
0.715393 0.715393 0.681335
0.840149 0.840149 0.797333
0.871979 0.871979 0.826935
0.881348 0.881348 0.835663
0.232117 0.232117 0.231842
0.270630 0.270630 0.267639
0.308319 0.308319 0.302734
0.348816 0.348816 0.340363
0.744415 0.744415 0.708282
0.896271 0.896271 0.849518
0.922882 0.922882 0.874268
0.929352 0.929352 0.880310
0.270782 0.270782 0.267822
0.310272 0.310272 0.304535
0.354156 0.354156 0.345337
0.394104 0.394104 0.382507
0.689545 0.689545 0.657257
0.907623 0.907623 0.860077
0.936798 0.936798 0.887238
0.942200 0.942200 0.892273
0.285553 0.285553 0.281525
0.326996 0.326996 0.320068
0.366547 0.366547 0.356873
0.412964 0.412964 0.400055
0.627136 0.627136 0.599213
0.909943 0.909943 0.862213
0.937653 0.937653 0.888031
0.946503 0.946503 0.896271
0.016205 0.016205 0.031036
0.019653 0.019653 0.034241
0.025360 0.025360 0.039520
0.153198 0.153198 0.158447
0.385742 0.385742 0.374725
0.591003 0.591003 0.565643
0.636078 0.636078 0.607544
0.654419 0.654419 0.624603
0.019257 0.019257 0.033875
0.025208 0.025208 0.039429
0.033752 0.033752 0.047363
0.176544 0.176544 0.180176
0.418457 0.418457 0.405151
0.623596 0.623596 0.595947
0.663971 0.663971 0.633484
0.683228 0.683228 0.651398
0.023956 0.023956 0.038269
0.030670 0.030670 0.044495
0.044952 0.044952 0.057739
0.190369 0.190369 0.193024
0.447998 0.447998 0.432617
0.647491 0.647491 0.618164
0.688202 0.688202 0.656036
0.709686 0.709686 0.676025
0.029388 0.029388 0.043304
0.037109 0.037109 0.050476
0.055054 0.055054 0.067169
0.167908 0.167908 0.172119
0.462799 0.462799 0.446381
0.666901 0.666901 0.636230
0.711365 0.711365 0.677582
0.732758 0.732758 0.697479
0.131714 0.131714 0.138458
0.158234 0.158234 0.163116
0.189117 0.189117 0.191833
0.221375 0.221375 0.221832
0.701477 0.701477 0.668396
0.838593 0.838593 0.795898
0.869568 0.869568 0.824707
0.880493 0.880493 0.834869
0.240906 0.240906 0.240021
0.279022 0.279022 0.275452
0.321045 0.321045 0.314545
0.364777 0.364777 0.355194
0.743103 0.743103 0.707092
0.898315 0.898315 0.851440
0.926941 0.926941 0.878052
0.932007 0.932007 0.882782
0.296295 0.296295 0.291534
0.337585 0.337585 0.329926
0.383331 0.383331 0.372467
0.424500 0.424500 0.410767
0.658539 0.658539 0.628448
0.912994 0.912994 0.865082
0.941681 0.941681 0.891785
0.946136 0.946136 0.895966
0.317169 0.317169 0.310944
0.355469 0.355469 0.346558
0.402344 0.402344 0.390167
0.444580 0.444580 0.429443
0.648254 0.648254 0.618896
0.917694 0.917694 0.869476
0.947632 0.947632 0.897308
0.953156 0.953156 0.902435
0.019440 0.019440 0.034058
0.019897 0.019897 0.034454
0.027466 0.027466 0.041473
0.151459 0.151459 0.156830
0.394928 0.394928 0.383240
0.597015 0.597015 0.571198
0.642670 0.642670 0.613678
0.665985 0.665985 0.635376
0.018280 0.018280 0.032959
0.025848 0.025848 0.039978
0.036407 0.036407 0.049805
0.177002 0.177002 0.180573
0.425232 0.425232 0.411438
0.625214 0.625214 0.597443
0.671295 0.671295 0.640289
0.689056 0.689056 0.656799
0.022400 0.022400 0.036804
0.030396 0.030396 0.044220
0.046356 0.046356 0.059082
0.190491 0.190491 0.193115
0.454803 0.454803 0.438934
0.656158 0.656158 0.626221
0.694519 0.694519 0.661926
0.715912 0.715912 0.681793
0.030182 0.030182 0.044037
0.041779 0.041779 0.054810
0.056488 0.056488 0.068512
0.164459 0.164459 0.168915
0.470215 0.470215 0.453278
0.671967 0.671967 0.640930
0.718262 0.718262 0.683990
0.742279 0.742279 0.706329
0.132843 0.132843 0.139496
0.160065 0.160065 0.164856
0.191010 0.191010 0.193604
0.222565 0.222565 0.222961
0.699249 0.699249 0.666290
0.838409 0.838409 0.795746
0.869904 0.869904 0.825043
0.883209 0.883209 0.837402
0.246185 0.246185 0.244934
0.290192 0.290192 0.285828
0.328461 0.328461 0.321472
0.370880 0.370880 0.360901
0.741882 0.741882 0.705963
0.900787 0.900787 0.853729
0.930786 0.930786 0.881653
0.934570 0.934570 0.885162
0.305420 0.305420 0.300018
0.346466 0.346466 0.338226
0.389191 0.389191 0.377930
0.432892 0.432892 0.418579
0.656189 0.656189 0.626251
0.915436 0.915436 0.867371
0.942596 0.942596 0.892609
0.948822 0.948822 0.898438
0.329346 0.329346 0.322266
0.375793 0.375793 0.365448
0.414062 0.414062 0.401062
0.461792 0.461792 0.445465
0.658691 0.658691 0.628571
0.923737 0.923737 0.875092
0.948242 0.948242 0.897888
0.953125 0.953125 0.902435
