滤镜资源/Professional Luts Collection/Triune-Digital-Cinematic-LUTs/3D LUTs (CUBE)/ALEXA/BW/Noir 2 - Alexa.cube
#Created by Benjamin (IWLTBAP) : http://luts.iwltbap.com
#Copyright: (C) Copyright 2016 Triune Films and IWLTBAP
TITLE "Blockbuster LUTs Pack (Alexa Log-C)"
#LUT size
LUT_3D_SIZE 8
#LUT data points
DOMAIN_MIN 0.000000 0.000000 0.000000
DOMAIN_MAX 0.903226 0.903226 0.903226
0.000000 0.000000 0.000000
0.000000 0.000000 0.000000
0.000000 0.000000 0.000000
0.000000 0.000000 0.000000
0.000000 0.000000 0.000000
0.000000 0.000000 0.000000
0.000000 0.000000 0.000000
0.000000 0.000000 0.000000
0.000000 0.000000 0.000000
0.000000 0.000000 0.000000
0.000000 0.000000 0.000000
0.004913 0.004913 0.004913
0.025452 0.025452 0.025452
0.038452 0.038452 0.038452
0.038452 0.038452 0.038452
0.038452 0.038452 0.038452
0.000000 0.000000 0.000000
0.000000 0.000000 0.000000
0.000000 0.000000 0.000000
0.000000 0.000000 0.000000
0.007782 0.007782 0.007782
0.039520 0.039520 0.039520
0.057770 0.057770 0.057770
0.061859 0.061859 0.061859
0.000000 0.000000 0.000000
0.000000 0.000000 0.000000
0.000000 0.000000 0.000000
0.000000 0.000000 0.000000
0.000000 0.000000 0.000000
0.000000 0.000000 0.000000
0.000000 0.000000 0.000000
0.000000 0.000000 0.000000
0.000000 0.000000 0.000000
0.000000 0.000000 0.000000
0.000000 0.000000 0.000000
0.000000 0.000000 0.000000
0.000000 0.000000 0.000000
0.000000 0.000000 0.000000
0.000000 0.000000 0.000000
0.000000 0.000000 0.000000
0.000000 0.000000 0.000000
0.000000 0.000000 0.000000
0.000000 0.000000 0.000000
0.000000 0.000000 0.000000
0.000000 0.000000 0.000000
0.000000 0.000000 0.000000
0.000000 0.000000 0.000000
0.000000 0.000000 0.000000
0.000000 0.000000 0.000000
0.000000 0.000000 0.000000
0.000000 0.000000 0.000000
0.000000 0.000000 0.000000
0.000000 0.000000 0.000000
0.000000 0.000000 0.000000
0.000000 0.000000 0.000000
0.000000 0.000000 0.000000
0.000000 0.000000 0.000000
0.000000 0.000000 0.000000
0.000000 0.000000 0.000000
0.000000 0.000000 0.000000
0.000000 0.000000 0.000000
0.000000 0.000000 0.000000
0.000000 0.000000 0.000000
0.000000 0.000000 0.000000
0.000000 0.000000 0.000000
0.000000 0.000000 0.000000
0.000000 0.000000 0.000000
0.000000 0.000000 0.000000
0.000000 0.000000 0.000000
0.000000 0.000000 0.000000
0.000000 0.000000 0.000000
0.000000 0.000000 0.000000
0.000000 0.000000 0.000000
0.080963 0.080963 0.080963
0.076202 0.076202 0.076202
0.050873 0.050873 0.050873
0.038452 0.038452 0.038452
0.038452 0.038452 0.038452
0.038452 0.038452 0.038452
0.038452 0.038452 0.038452
0.000000 0.000000 0.000000
0.038452 0.038452 0.038452
0.065125 0.065125 0.065125
0.073212 0.073212 0.073212
0.091949 0.091949 0.091949
0.106903 0.106903 0.106903
0.087250 0.087250 0.087250
0.083313 0.083313 0.083313
0.000000 0.000000 0.000000
0.038452 0.038452 0.038452
0.038452 0.038452 0.038452
0.038452 0.038452 0.038452
0.038452 0.038452 0.038452
0.042236 0.042236 0.042236
0.057037 0.057037 0.057037
0.061279 0.061279 0.061279
0.000000 0.000000 0.000000
0.038452 0.038452 0.038452
0.038452 0.038452 0.038452
0.038452 0.038452 0.038452
0.038452 0.038452 0.038452
0.038452 0.038452 0.038452
0.038452 0.038452 0.038452
0.038452 0.038452 0.038452
0.000000 0.000000 0.000000
0.038452 0.038452 0.038452
0.038452 0.038452 0.038452
0.038452 0.038452 0.038452
0.038452 0.038452 0.038452
0.038452 0.038452 0.038452
0.038452 0.038452 0.038452
0.038452 0.038452 0.038452
0.000000 0.000000 0.000000
0.038452 0.038452 0.038452
0.038452 0.038452 0.038452
0.038452 0.038452 0.038452
0.038452 0.038452 0.038452
0.038452 0.038452 0.038452
0.038452 0.038452 0.038452
0.038452 0.038452 0.038452
0.000000 0.000000 0.000000
0.038452 0.038452 0.038452
0.038452 0.038452 0.038452
0.038452 0.038452 0.038452
0.038452 0.038452 0.038452
0.038452 0.038452 0.038452
0.038452 0.038452 0.038452
0.038452 0.038452 0.038452
0.000000 0.000000 0.000000
0.000000 0.000000 0.000000
0.000000 0.000000 0.000000
0.000000 0.000000 0.000000
0.000000 0.000000 0.000000
0.000000 0.000000 0.000000
0.000000 0.000000 0.000000
0.000000 0.000000 0.000000
0.000000 0.000000 0.000000
0.046509 0.046509 0.046509
0.042542 0.042542 0.042542
0.038452 0.038452 0.038452
0.038452 0.038452 0.038452
0.038452 0.038452 0.038452
0.038452 0.038452 0.038452
0.038452 0.038452 0.038452
0.000000 0.000000 0.000000
0.038452 0.038452 0.038452
0.198669 0.198669 0.198669
0.188629 0.188629 0.188629
0.157318 0.157318 0.157318
0.089752 0.089752 0.089752
0.076904 0.076904 0.076904
0.076904 0.076904 0.076904
0.000000 0.000000 0.000000
0.038452 0.038452 0.038452
0.076904 0.076904 0.076904
0.160706 0.160706 0.160706
0.171539 0.171539 0.171539
0.186157 0.186157 0.186157
0.194794 0.194794 0.194794
0.196930 0.196930 0.196930
0.000000 0.000000 0.000000
0.038452 0.038452 0.038452
0.076904 0.076904 0.076904
0.076904 0.076904 0.076904
0.076904 0.076904 0.076904
0.076904 0.076904 0.076904
0.076904 0.076904 0.076904
0.076904 0.076904 0.076904
0.000000 0.000000 0.000000
0.038452 0.038452 0.038452
0.076904 0.076904 0.076904
0.076904 0.076904 0.076904
0.076904 0.076904 0.076904
0.076904 0.076904 0.076904
0.076904 0.076904 0.076904
0.076904 0.076904 0.076904
0.000000 0.000000 0.000000
0.038452 0.038452 0.038452
0.076904 0.076904 0.076904
0.076904 0.076904 0.076904
0.076904 0.076904 0.076904
0.076904 0.076904 0.076904
0.076904 0.076904 0.076904
0.076904 0.076904 0.076904
0.000000 0.000000 0.000000
0.038452 0.038452 0.038452
0.076904 0.076904 0.076904
0.076904 0.076904 0.076904
0.076904 0.076904 0.076904
0.076904 0.076904 0.076904
0.076904 0.076904 0.076904
0.076904 0.076904 0.076904
0.000000 0.000000 0.000000
0.000000 0.000000 0.000000
0.000000 0.000000 0.000000
0.000000 0.000000 0.000000
0.000000 0.000000 0.000000
0.000000 0.000000 0.000000
0.000000 0.000000 0.000000
0.000000 0.000000 0.000000
0.000000 0.000000 0.000000
0.038452 0.038452 0.038452
0.038452 0.038452 0.038452
0.038452 0.038452 0.038452
0.038452 0.038452 0.038452
0.038452 0.038452 0.038452
0.038452 0.038452 0.038452
0.038452 0.038452 0.038452
0.000000 0.000000 0.000000
0.038452 0.038452 0.038452
0.085999 0.085999 0.085999
0.076904 0.076904 0.076904
0.076904 0.076904 0.076904
0.076904 0.076904 0.076904
0.076904 0.076904 0.076904
0.076904 0.076904 0.076904
0.000000 0.000000 0.000000
0.038452 0.038452 0.038452
0.076904 0.076904 0.076904
0.390839 0.390839 0.390839
0.381897 0.381897 0.381897
0.367096 0.367096 0.367096
0.356537 0.356537 0.356537
0.353638 0.353638 0.353638
0.000000 0.000000 0.000000
0.038452 0.038452 0.038452
0.076904 0.076904 0.076904
0.228424 0.228424 0.228424
0.359711 0.359711 0.359711
0.364777 0.364777 0.364777
0.368042 0.368042 0.368042
0.368866 0.368866 0.368866
0.000000 0.000000 0.000000
0.038452 0.038452 0.038452
0.076904 0.076904 0.076904
0.115356 0.115356 0.115356
0.286896 0.286896 0.286896
0.295105 0.295105 0.295105
0.300293 0.300293 0.300293
0.301666 0.301666 0.301666
0.000000 0.000000 0.000000
0.038452 0.038452 0.038452
0.076904 0.076904 0.076904
0.115356 0.115356 0.115356
0.185303 0.185303 0.185303
0.201904 0.201904 0.201904
0.216156 0.216156 0.216156
0.219574 0.219574 0.219574
0.000000 0.000000 0.000000
0.038452 0.038452 0.038452
0.076904 0.076904 0.076904
0.115356 0.115356 0.115356
0.175659 0.175659 0.175659
0.178955 0.178955 0.178955
0.180878 0.180878 0.180878
0.181366 0.181366 0.181366
0.000000 0.000000 0.000000
0.000000 0.000000 0.000000
0.000000 0.000000 0.000000
0.000000 0.000000 0.000000
0.000000 0.000000 0.000000
0.000000 0.000000 0.000000
0.000000 0.000000 0.000000
0.000000 0.000000 0.000000
0.000000 0.000000 0.000000
0.038452 0.038452 0.038452
0.038452 0.038452 0.038452
0.038452 0.038452 0.038452
0.038452 0.038452 0.038452
0.038452 0.038452 0.038452
0.038452 0.038452 0.038452
0.038452 0.038452 0.038452
0.000000 0.000000 0.000000
0.038452 0.038452 0.038452
0.076904 0.076904 0.076904
0.076904 0.076904 0.076904
0.076904 0.076904 0.076904
0.076904 0.076904 0.076904
0.076904 0.076904 0.076904
0.076904 0.076904 0.076904
0.000000 0.000000 0.000000
0.038452 0.038452 0.038452
0.076904 0.076904 0.076904
0.310822 0.310822 0.310822
0.295654 0.295654 0.295654
0.267334 0.267334 0.267334
0.242279 0.242279 0.242279
0.236420 0.236420 0.236420
0.000000 0.000000 0.000000
0.038452 0.038452 0.038452
0.076904 0.076904 0.076904
0.160187 0.160187 0.160187
0.601868 0.601868 0.601868
0.595093 0.595093 0.595093
0.590515 0.590515 0.590515
0.589264 0.589264 0.589264
0.000000 0.000000 0.000000
0.038452 0.038452 0.038452
0.076904 0.076904 0.076904
0.115356 0.115356 0.115356
0.507690 0.507690 0.507690
0.578918 0.578918 0.578918
0.580444 0.580444 0.580444
0.580872 0.580872 0.580872
0.000000 0.000000 0.000000
0.038452 0.038452 0.038452
0.076904 0.076904 0.076904
0.115356 0.115356 0.115356
0.411804 0.411804 0.411804
0.560852 0.560852 0.560852
0.562469 0.562469 0.562469
0.562927 0.562927 0.562927
0.000000 0.000000 0.000000
0.038452 0.038452 0.038452
0.076904 0.076904 0.076904
0.115356 0.115356 0.115356
0.372070 0.372070 0.372070
0.555878 0.555878 0.555878
0.557556 0.557556 0.557556
0.557983 0.557983 0.557983
0.000000 0.000000 0.000000
0.000000 0.000000 0.000000
0.000000 0.000000 0.000000
0.000000 0.000000 0.000000
0.000000 0.000000 0.000000
0.000000 0.000000 0.000000
0.000000 0.000000 0.000000
0.000000 0.000000 0.000000
0.000000 0.000000 0.000000
0.038452 0.038452 0.038452
0.038452 0.038452 0.038452
0.038452 0.038452 0.038452
0.038452 0.038452 0.038452
0.038452 0.038452 0.038452
0.038452 0.038452 0.038452
0.038452 0.038452 0.038452
0.000000 0.000000 0.000000
0.038452 0.038452 0.038452
0.076904 0.076904 0.076904
0.076904 0.076904 0.076904
0.076904 0.076904 0.076904
0.076904 0.076904 0.076904
0.076904 0.076904 0.076904
0.076904 0.076904 0.076904
0.000000 0.000000 0.000000
0.038452 0.038452 0.038452
0.076904 0.076904 0.076904
0.115356 0.115356 0.115356
0.115356 0.115356 0.115356
0.115356 0.115356 0.115356
0.115356 0.115356 0.115356
0.115356 0.115356 0.115356
0.000000 0.000000 0.000000
0.038452 0.038452 0.038452
0.076904 0.076904 0.076904
0.115356 0.115356 0.115356
0.547516 0.547516 0.547516
0.539215 0.539215 0.539215
0.533569 0.533569 0.533569
0.532074 0.532074 0.532074
0.000000 0.000000 0.000000
0.038452 0.038452 0.038452
0.076904 0.076904 0.076904
0.115356 0.115356 0.115356
0.482391 0.482391 0.482391
0.795135 0.795135 0.795135
0.792267 0.792267 0.792267
0.791534 0.791534 0.791534
0.000000 0.000000 0.000000
0.038452 0.038452 0.038452
0.076904 0.076904 0.076904
0.115356 0.115356 0.115356
0.363281 0.363281 0.363281
0.759918 0.759918 0.759918
0.785675 0.785675 0.785675
0.785919 0.785919 0.785919
0.000000 0.000000 0.000000
0.038452 0.038452 0.038452
0.076904 0.076904 0.076904
0.115356 0.115356 0.115356
0.289825 0.289825 0.289825
0.750061 0.750061 0.750061
0.782928 0.782928 0.782928
0.783173 0.783173 0.783173
0.000000 0.000000 0.000000
0.000000 0.000000 0.000000
0.000000 0.000000 0.000000
0.000000 0.000000 0.000000
0.000000 0.000000 0.000000
0.000000 0.000000 0.000000
0.000000 0.000000 0.000000
0.000000 0.000000 0.000000
0.000000 0.000000 0.000000
0.038452 0.038452 0.038452
0.038452 0.038452 0.038452
0.038452 0.038452 0.038452
0.038452 0.038452 0.038452
0.038452 0.038452 0.038452
0.038452 0.038452 0.038452
0.038452 0.038452 0.038452
0.000000 0.000000 0.000000
0.038452 0.038452 0.038452
0.076904 0.076904 0.076904
0.076904 0.076904 0.076904
0.076904 0.076904 0.076904
0.076904 0.076904 0.076904
0.076904 0.076904 0.076904
0.076904 0.076904 0.076904
0.000000 0.000000 0.000000
0.038452 0.038452 0.038452
0.076904 0.076904 0.076904
0.115356 0.115356 0.115356
0.115356 0.115356 0.115356
0.115356 0.115356 0.115356
0.115356 0.115356 0.115356
0.115356 0.115356 0.115356
0.000000 0.000000 0.000000
0.038452 0.038452 0.038452
0.076904 0.076904 0.076904
0.115356 0.115356 0.115356
0.503693 0.503693 0.503693
0.493683 0.493683 0.493683
0.486755 0.486755 0.486755
0.484833 0.484833 0.484833
0.000000 0.000000 0.000000
0.038452 0.038452 0.038452
0.076904 0.076904 0.076904
0.115356 0.115356 0.115356
0.463776 0.463776 0.463776
0.773651 0.773651 0.773651
0.770630 0.770630 0.770630
0.769867 0.769867 0.769867
0.000000 0.000000 0.000000
0.038452 0.038452 0.038452
0.076904 0.076904 0.076904
0.115356 0.115356 0.115356
0.310699 0.310699 0.310699
0.752106 0.752106 0.752106
0.909363 0.909363 0.909363
0.908722 0.908722 0.908722
0.000000 0.000000 0.000000
0.038452 0.038452 0.038452
0.076904 0.076904 0.076904
0.115356 0.115356 0.115356
0.277191 0.277191 0.277191
0.742004 0.742004 0.742004
0.901978 0.901978 0.901978
0.907318 0.907318 0.907318
0.000000 0.000000 0.000000
0.000000 0.000000 0.000000
0.000000 0.000000 0.000000
0.000000 0.000000 0.000000
0.000000 0.000000 0.000000
0.000000 0.000000 0.000000
0.000000 0.000000 0.000000
0.000000 0.000000 0.000000
0.000000 0.000000 0.000000
0.038452 0.038452 0.038452
0.038452 0.038452 0.038452
0.038452 0.038452 0.038452
0.038452 0.038452 0.038452
0.038452 0.038452 0.038452
0.038452 0.038452 0.038452
0.038452 0.038452 0.038452
0.000000 0.000000 0.000000
0.038452 0.038452 0.038452
0.076904 0.076904 0.076904
0.076904 0.076904 0.076904
0.076904 0.076904 0.076904
0.076904 0.076904 0.076904
0.076904 0.076904 0.076904
0.076904 0.076904 0.076904
0.000000 0.000000 0.000000
0.038452 0.038452 0.038452
0.076904 0.076904 0.076904
0.115356 0.115356 0.115356
0.115356 0.115356 0.115356
0.115356 0.115356 0.115356
0.115356 0.115356 0.115356
0.115356 0.115356 0.115356
0.000000 0.000000 0.000000
0.038452 0.038452 0.038452
0.076904 0.076904 0.076904
0.115356 0.115356 0.115356
0.490601 0.490601 0.490601
0.479950 0.479950 0.479950
0.472473 0.472473 0.472473
0.470459 0.470459 0.470459
0.000000 0.000000 0.000000
0.038452 0.038452 0.038452
0.076904 0.076904 0.076904
0.115356 0.115356 0.115356
0.458588 0.458588 0.458588
0.767792 0.767792 0.767792
0.764771 0.764771 0.764771
0.763947 0.763947 0.763947
0.000000 0.000000 0.000000
0.038452 0.038452 0.038452
0.076904 0.076904 0.076904
0.115356 0.115356 0.115356
0.298401 0.298401 0.298401
0.750000 0.750000 0.750000
0.904755 0.904755 0.904755
0.904114 0.904114 0.904114
0.000000 0.000000 0.000000
0.038452 0.038452 0.038452
0.076904 0.076904 0.076904
0.115356 0.115356 0.115356
0.273956 0.273956 0.273956
0.739868 0.739868 0.739868
0.900452 0.900452 0.900452
0.965607 0.965607 0.965607
