滤镜资源/Professional Luts Collection/Triune-Digital-Cinematic-LUTs/3D LUTs (CUBE)/ALEXA/BW/Noir 2 - Alexa.cube
#Created by Benjamin (IWLTBAP) : http://luts.iwltbap.com
#Copyright: (C) Copyright 2016 Triune Films and IWLTBAP
TITLE "Blockbuster LUTs Pack (Alexa Log-C)"
#LUT size
LUT_3D_SIZE 5
#LUT data points
DOMAIN_MIN 0.000000 0.000000 0.000000
DOMAIN_MAX 0.903226 0.903226 0.903226
0.000000 0.000000 0.000000
0.000000 0.000000 0.000000
0.000000 0.000000 0.000000
0.000000 0.000000 0.000000
0.000000 0.000000 0.000000
0.000000 0.000000 0.000000
0.000000 0.000000 0.000000
0.003174 0.003174 0.003174
0.052551 0.052551 0.052551
0.067017 0.067017 0.067017
0.000000 0.000000 0.000000
0.000000 0.000000 0.000000
0.000000 0.000000 0.000000
0.000000 0.000000 0.000000
0.000000 0.000000 0.000000
0.000000 0.000000 0.000000
0.000000 0.000000 0.000000
0.000000 0.000000 0.000000
0.000000 0.000000 0.000000
0.000000 0.000000 0.000000
0.000000 0.000000 0.000000
0.000000 0.000000 0.000000
0.000000 0.000000 0.000000
0.000000 0.000000 0.000000
0.000000 0.000000 0.000000
0.000000 0.000000 0.000000
0.000000 0.000000 0.000000
0.000000 0.000000 0.000000
0.000000 0.000000 0.000000
0.000000 0.000000 0.000000
0.000000 0.000000 0.000000
0.164093 0.164093 0.164093
0.133118 0.133118 0.133118
0.067291 0.067291 0.067291
0.067291 0.067291 0.067291
0.000000 0.000000 0.000000
0.067291 0.067291 0.067291
0.067291 0.067291 0.067291
0.075928 0.075928 0.075928
0.091492 0.091492 0.091492
0.000000 0.000000 0.000000
0.067291 0.067291 0.067291
0.067291 0.067291 0.067291
0.067291 0.067291 0.067291
0.067291 0.067291 0.067291
0.000000 0.000000 0.000000
0.067291 0.067291 0.067291
0.067291 0.067291 0.067291
0.067291 0.067291 0.067291
0.067291 0.067291 0.067291
0.000000 0.000000 0.000000
0.000000 0.000000 0.000000
0.000000 0.000000 0.000000
0.000000 0.000000 0.000000
0.000000 0.000000 0.000000
0.000000 0.000000 0.000000
0.067291 0.067291 0.067291
0.067291 0.067291 0.067291
0.067291 0.067291 0.067291
0.067291 0.067291 0.067291
0.000000 0.000000 0.000000
0.067291 0.067291 0.067291
0.497101 0.497101 0.497101
0.481995 0.481995 0.481995
0.475922 0.475922 0.475922
0.000000 0.000000 0.000000
0.067291 0.067291 0.067291
0.177887 0.177887 0.177887
0.443024 0.443024 0.443024
0.445312 0.445312 0.445312
0.000000 0.000000 0.000000
0.067291 0.067291 0.067291
0.134583 0.134583 0.134583
0.415100 0.415100 0.415100
0.417755 0.417755 0.417755
0.000000 0.000000 0.000000
0.000000 0.000000 0.000000
0.000000 0.000000 0.000000
0.000000 0.000000 0.000000
0.000000 0.000000 0.000000
0.000000 0.000000 0.000000
0.067291 0.067291 0.067291
0.067291 0.067291 0.067291
0.067291 0.067291 0.067291
0.067291 0.067291 0.067291
0.000000 0.000000 0.000000
0.067291 0.067291 0.067291
0.344818 0.344818 0.344818
0.304474 0.304474 0.304474
0.281799 0.281799 0.281799
0.000000 0.000000 0.000000
0.067291 0.067291 0.067291
0.134583 0.134583 0.134583
0.831848 0.831848 0.831848
0.829407 0.829407 0.829407
0.000000 0.000000 0.000000
0.067291 0.067291 0.067291
0.134583 0.134583 0.134583
0.801727 0.801727 0.801727
0.823730 0.823730 0.823730
0.000000 0.000000 0.000000
0.000000 0.000000 0.000000
0.000000 0.000000 0.000000
0.000000 0.000000 0.000000
0.000000 0.000000 0.000000
0.000000 0.000000 0.000000
0.067291 0.067291 0.067291
0.067291 0.067291 0.067291
0.067291 0.067291 0.067291
0.067291 0.067291 0.067291
0.000000 0.000000 0.000000
0.067291 0.067291 0.067291
0.220337 0.220337 0.220337
0.202393 0.202393 0.202393
0.194611 0.194611 0.194611
0.000000 0.000000 0.000000
0.067291 0.067291 0.067291
0.134583 0.134583 0.134583
0.813416 0.813416 0.813416
0.810852 0.810852 0.810852
0.000000 0.000000 0.000000
0.067291 0.067291 0.067291
0.134583 0.134583 0.134583
0.795105 0.795105 0.795105
0.965607 0.965607 0.965607
