滤镜资源/Professional Luts Collection/Triune-Digital-Cinematic-LUTs/3D LUTs (CUBE)/ALEXA/BW/Noir 3 - Alexa.cube
#Created by Benjamin (IWLTBAP) : http://luts.iwltbap.com
#Copyright: (C) Copyright 2016 Triune Films and IWLTBAP
TITLE "Blockbuster LUTs Pack (Alexa Log-C)"
#LUT size
LUT_3D_SIZE 8
#LUT data points
DOMAIN_MIN 0.000000 0.000000 0.000000
DOMAIN_MAX 0.903226 0.903226 0.903226
0.000000 0.000488 0.000244
0.011963 0.013489 0.015076
0.027954 0.030304 0.034424
0.062836 0.068634 0.080109
0.140381 0.172852 0.190216
0.244934 0.303253 0.335022
0.286560 0.346222 0.391205
0.326843 0.389008 0.438995
0.010040 0.011414 0.012695
0.013458 0.015106 0.016937
0.030029 0.032501 0.036926
0.066925 0.073456 0.086273
0.152374 0.191864 0.206207
0.278198 0.337708 0.379486
0.326080 0.388000 0.437500
0.368835 0.432922 0.481995
0.023285 0.025543 0.028900
0.025513 0.027832 0.031555
0.032501 0.035004 0.039825
0.072113 0.079681 0.094147
0.158844 0.201599 0.214539
0.281250 0.340729 0.384430
0.334137 0.396423 0.446014
0.378723 0.443451 0.491821
0.049316 0.053162 0.061157
0.052734 0.056915 0.065613
0.056061 0.060608 0.070038
0.079590 0.088623 0.105438
0.170624 0.220978 0.230865
0.297211 0.357483 0.404205
0.343414 0.406403 0.456726
0.385803 0.450806 0.498993
0.099213 0.112579 0.134338
0.105560 0.121246 0.143402
0.112030 0.130280 0.152649
0.134247 0.163269 0.182526
0.182831 0.237457 0.248535
0.320007 0.381714 0.431213
0.385468 0.450317 0.498688
0.429352 0.496277 0.538635
0.172638 0.223694 0.233826
0.180695 0.234253 0.245544
0.188721 0.244904 0.257172
0.197205 0.254791 0.269257
0.275940 0.335175 0.377655
0.341705 0.404480 0.454437
0.423218 0.490143 0.533630
0.468445 0.535950 0.571167
0.209167 0.267761 0.285919
0.219910 0.278290 0.300354
0.230713 0.289001 0.315094
0.242188 0.300476 0.331085
0.314514 0.375763 0.424866
0.398254 0.463989 0.510864
0.440430 0.507507 0.547974
0.485626 0.553436 0.585327
0.238403 0.296692 0.325836
0.249786 0.308258 0.342072
0.261383 0.320129 0.358429
0.273773 0.332947 0.374634
0.344360 0.407288 0.457397
0.435760 0.502777 0.544128
0.478790 0.546448 0.579712
0.495605 0.563385 0.593445
0.004974 0.005920 0.006439
0.014069 0.015778 0.017700
0.030548 0.032990 0.037506
0.067413 0.074066 0.087067
0.148956 0.186401 0.201447
0.256348 0.315002 0.351105
0.298676 0.358948 0.406342
0.339966 0.402710 0.452789
0.004700 0.005585 0.006042
0.023132 0.025299 0.028687
0.042664 0.045776 0.052399
0.084625 0.094604 0.112915
0.171753 0.220825 0.232849
0.293274 0.353455 0.398804
0.339386 0.402008 0.451752
0.382233 0.447144 0.495300
0.018982 0.021088 0.023773
0.030914 0.033356 0.037933
0.043915 0.047180 0.054047
0.098114 0.111755 0.132599
0.201080 0.259003 0.274689
0.344452 0.407196 0.456909
0.388031 0.452972 0.500732
0.429718 0.496521 0.538696
0.045410 0.048798 0.055969
0.063202 0.069061 0.080719
0.067139 0.073761 0.086639
0.096313 0.109100 0.130066
0.195679 0.252350 0.266907
0.340424 0.403015 0.452820
0.399414 0.465057 0.511658
0.446930 0.514099 0.553375
0.091156 0.102356 0.122589
0.125977 0.151215 0.171143
0.133331 0.162231 0.180908
0.156891 0.199097 0.212372
0.210815 0.268311 0.287567
0.362061 0.425781 0.475037
0.429321 0.496216 0.538452
0.474121 0.541718 0.575836
0.162445 0.207855 0.219482
0.208252 0.265442 0.283966
0.218170 0.276093 0.297791
0.228302 0.286774 0.312286
0.315094 0.376495 0.424561
0.384003 0.449127 0.496887
0.468506 0.535950 0.571198
0.512726 0.580353 0.607300
0.196320 0.253998 0.268158
0.253937 0.312561 0.347443
0.265869 0.324799 0.363800
0.278107 0.337494 0.379974
0.356171 0.419708 0.469452
0.442871 0.510010 0.549957
0.485168 0.552856 0.584930
0.529816 0.596497 0.620697
0.223389 0.281677 0.304901
0.286682 0.346466 0.390747
0.299500 0.359955 0.406586
0.312775 0.374115 0.422272
0.386902 0.452148 0.499939
0.480530 0.548157 0.581055
0.523010 0.590210 0.615448
0.539520 0.605530 0.628204
0.011627 0.013092 0.014648
0.019714 0.021820 0.024628
0.033813 0.036316 0.041351
0.073883 0.081787 0.096832
0.159912 0.203766 0.215942
0.272217 0.331329 0.372833
0.316010 0.377350 0.426514
0.358063 0.421509 0.471497
0.011353 0.012848 0.014343
0.025757 0.028076 0.031830
0.041931 0.045013 0.051514
0.089539 0.100647 0.120148
0.182892 0.236664 0.248810
0.310974 0.372131 0.420013
0.357574 0.421204 0.470856
0.400909 0.466736 0.512939
0.010956 0.012390 0.013855
0.021881 0.024017 0.027191
0.068939 0.075928 0.089355
0.144318 0.179138 0.195618
0.252167 0.310760 0.344513
0.359955 0.423737 0.473145
0.400208 0.465698 0.511993
0.444824 0.511993 0.551636
0.036377 0.039001 0.044403
0.052094 0.056244 0.064850
0.071930 0.079437 0.093842
0.144165 0.178894 0.195404
0.279816 0.339233 0.382324
0.459869 0.527161 0.564087
0.516510 0.583740 0.610168
0.561462 0.625305 0.644745
0.083221 0.092926 0.110809
0.115906 0.136200 0.157745
0.155243 0.196228 0.209900
0.179565 0.232178 0.243835
0.241577 0.299988 0.330109
0.404419 0.470367 0.516327
0.474152 0.541626 0.575867
0.518311 0.585785 0.611755
0.151886 0.191010 0.205109
0.195435 0.250763 0.266174
0.250610 0.309143 0.342682
0.261810 0.320618 0.358337
0.355316 0.418884 0.468597
0.426971 0.493805 0.536438
0.512604 0.579803 0.606934
0.556366 0.620941 0.641022
0.184998 0.240295 0.251709
0.238708 0.297241 0.326843
0.303741 0.364258 0.411743
0.317139 0.378387 0.427338
0.399139 0.464630 0.511078
0.487549 0.555145 0.586823
0.529510 0.596252 0.620453
0.573456 0.635834 0.653625
0.209290 0.267761 0.286011
0.270233 0.329376 0.369171
0.340118 0.402832 0.452850
0.354187 0.417511 0.467224
0.430695 0.497589 0.539642
0.524780 0.592010 0.616882
0.566650 0.630035 0.648712
0.583130 0.643829 0.660400
0.021912 0.024139 0.027283
0.027069 0.029419 0.033386
0.045197 0.048584 0.055725
0.084778 0.094788 0.113129
0.176666 0.229126 0.239594
0.301117 0.361603 0.408997
0.347137 0.410248 0.460480
0.389984 0.455292 0.503052
0.021729 0.023926 0.027069
0.034485 0.037048 0.042175
0.054016 0.058441 0.067596
0.102020 0.116791 0.138306
0.202759 0.259979 0.276581
0.342102 0.404694 0.454285
0.389984 0.455139 0.502625
0.434631 0.501373 0.542633
0.021454 0.023651 0.026733
0.034119 0.036682 0.041779
0.062805 0.068634 0.080170
0.119385 0.141083 0.162720
0.231781 0.290161 0.316650
0.383820 0.448547 0.496582
0.433594 0.500671 0.542236
0.478912 0.546539 0.579773
0.020660 0.022858 0.025818
0.033051 0.035583 0.040527
0.047760 0.051453 0.059204
0.247314 0.305756 0.338043
0.437469 0.504333 0.545197
0.607635 0.663696 0.677460
0.652435 0.699280 0.707794
0.695129 0.732880 0.736053
0.053192 0.057434 0.066254
0.074677 0.082733 0.097961
0.103973 0.119049 0.141113
0.227051 0.285217 0.309967
0.439331 0.506439 0.547058
0.627686 0.679688 0.691162
0.700317 0.737335 0.739685
0.740173 0.770996 0.767426
0.113281 0.132050 0.154419
0.152069 0.191498 0.206085
0.195465 0.251892 0.266357
0.250488 0.309143 0.343170
0.519043 0.585907 0.612000
0.597687 0.655762 0.670624
0.690186 0.729065 0.732880
0.732422 0.764221 0.761810
0.163757 0.209961 0.221313
0.209778 0.267395 0.286224
0.269379 0.328552 0.368225
0.339050 0.401642 0.451508
0.493347 0.561066 0.591583
0.593689 0.652588 0.667877
0.645935 0.694122 0.703461
0.693604 0.731903 0.735168
0.185730 0.241180 0.252777
0.239685 0.298248 0.328247
0.304779 0.365417 0.413239
0.378784 0.443512 0.491669
0.517517 0.584930 0.611084
0.613647 0.668549 0.681580
0.657806 0.703400 0.711334
0.675873 0.717560 0.723236
0.034882 0.037445 0.042603
0.041229 0.044220 0.050568
0.052246 0.056396 0.064972
0.112091 0.130371 0.152740
0.194855 0.252258 0.266052
0.335175 0.397705 0.447662
0.384125 0.448883 0.497406
0.428162 0.495056 0.537598
0.034637 0.037231 0.042389
0.050201 0.054108 0.062286
0.061432 0.066956 0.078033
0.132721 0.161255 0.180206
0.224915 0.283234 0.307098
0.377472 0.442139 0.490601
0.428009 0.494873 0.537323
0.473022 0.540588 0.574921
0.034393 0.036957 0.042084
0.049927 0.053802 0.061920
0.069336 0.076355 0.089935
0.153290 0.193268 0.207245
0.256989 0.315674 0.352051
0.420502 0.487152 0.530823
0.473022 0.540466 0.574921
0.517395 0.584900 0.611023
0.033295 0.035797 0.040771
0.048615 0.052368 0.060242
0.067505 0.074188 0.087189
0.257416 0.316071 0.352509
0.407349 0.473053 0.518280
0.571411 0.634094 0.652161
0.608246 0.664337 0.677948
0.647980 0.695709 0.704926
0.032623 0.035095 0.039948
0.047607 0.051239 0.058899
0.066132 0.072540 0.085083
0.117310 0.137817 0.160095
0.610474 0.665985 0.679382
0.779999 0.806610 0.797882
0.816711 0.839417 0.828796
0.835693 0.855988 0.844635
0.068756 0.075653 0.089081
0.097595 0.110748 0.131927
0.133148 0.161560 0.181152
0.173889 0.224976 0.235718
0.658203 0.703705 0.711578
0.781769 0.808258 0.799652
0.830750 0.851654 0.840454
0.847992 0.866882 0.855072
0.099915 0.113190 0.135468
0.137268 0.168274 0.186157
0.178619 0.230469 0.242249
0.228760 0.286957 0.312408
0.620728 0.674316 0.686401
0.813751 0.836884 0.826355
0.833282 0.853851 0.842590
0.851105 0.869659 0.857819
0.118347 0.139282 0.161560
0.157990 0.200867 0.213898
0.202240 0.259949 0.276154
0.260590 0.319519 0.356934
0.609955 0.665741 0.679138
0.829193 0.850250 0.839111
0.846497 0.865570 0.853821
0.853394 0.871704 0.859741
0.049347 0.053162 0.061157
0.057098 0.061920 0.071747
0.065399 0.071686 0.083984
0.139893 0.172058 0.189606
0.237061 0.295410 0.324097
0.367279 0.431213 0.480682
0.419037 0.485931 0.530090
0.464478 0.531921 0.567902
0.049103 0.052887 0.060822
0.069031 0.075989 0.089508
0.079559 0.088562 0.105286
0.162445 0.207916 0.219635
0.272156 0.331360 0.371826
0.410736 0.476807 0.521790
0.464386 0.531799 0.567780
0.508942 0.576721 0.604309
0.048859 0.052612 0.060486
0.068665 0.075592 0.088959
0.096313 0.109253 0.130005
0.183685 0.237762 0.249847
0.308594 0.369537 0.417419
0.454315 0.521576 0.559479
0.508667 0.575989 0.603821
0.552704 0.617645 0.638275
0.048370 0.052094 0.059906
0.068024 0.074799 0.087982
0.095459 0.108246 0.128784
0.192474 0.248627 0.262329
0.339355 0.401978 0.451935
0.490570 0.558350 0.589325
0.552094 0.617096 0.637817
0.595490 0.653870 0.668976
0.046295 0.049805 0.057190
0.064758 0.070923 0.083069
0.091309 0.103119 0.122650
0.125275 0.149750 0.170654
0.639130 0.688690 0.698914
0.773743 0.800934 0.792999
0.814484 0.837524 0.826965
0.833466 0.854034 0.842743
0.045898 0.049347 0.056610
0.064178 0.070251 0.082245
0.090424 0.102203 0.121307
0.123718 0.147339 0.168762
0.529266 0.596283 0.620392
0.850891 0.869446 0.857574
0.885040 0.901703 0.890320
0.894073 0.911041 0.899902
0.070007 0.077179 0.091003
0.099426 0.113312 0.134521
0.135284 0.164948 0.184143
0.176544 0.228546 0.239502
0.477295 0.544922 0.578461
0.869751 0.886871 0.875000
0.887604 0.904358 0.893036
0.898224 0.915314 0.904266
0.084259 0.094177 0.112366
0.117126 0.137695 0.159698
0.156921 0.198853 0.211975
0.200714 0.257629 0.273895
0.421783 0.488678 0.532410
0.878357 0.895111 0.883484
0.895782 0.912811 0.901733
0.899811 0.916962 0.906006
0.059937 0.065155 0.075714
0.068695 0.075592 0.088989
0.079590 0.088593 0.105438
0.156799 0.198792 0.211639
0.268372 0.327362 0.367645
0.397980 0.463654 0.510529
0.440918 0.508026 0.548401
0.485626 0.553436 0.585327
0.059692 0.064880 0.075317
0.083893 0.093719 0.111755
0.096802 0.109741 0.130768
0.179108 0.231750 0.243317
0.306519 0.367401 0.414795
0.442261 0.509399 0.549500
0.485687 0.553345 0.585327
0.529816 0.596497 0.620697
0.059418 0.064545 0.074951
0.083557 0.093292 0.111237
0.116150 0.136597 0.158020
0.201660 0.259674 0.275482
0.345673 0.408783 0.458557
0.485931 0.553497 0.585480
0.530029 0.596680 0.620819
0.573456 0.635834 0.653625
0.059143 0.064209 0.074493
0.083130 0.092804 0.110626
0.115601 0.135742 0.157257
0.208649 0.266663 0.284912
0.378479 0.443054 0.491699
0.524017 0.591431 0.616394
0.573425 0.635773 0.653595
0.617065 0.671295 0.683929
0.057098 0.061768 0.071381
0.080109 0.089203 0.106110
0.111664 0.129944 0.151917
0.150696 0.189148 0.203705
0.648743 0.696320 0.705322
0.777130 0.804016 0.795532
0.809174 0.832916 0.822571
0.828705 0.849854 0.838745
0.055023 0.059418 0.068573
0.077301 0.085876 0.101898
0.107544 0.123962 0.146210
0.146301 0.182251 0.197754
0.550385 0.615265 0.636353
0.860840 0.878540 0.866547
0.886597 0.903259 0.891907
0.895599 0.912598 0.901520
0.055603 0.060150 0.069489
0.078064 0.086792 0.103058
0.108673 0.125580 0.147858
0.147186 0.183716 0.198914
0.351837 0.414886 0.464508
0.847076 0.866058 0.854309
0.905640 0.923096 0.912415
0.915649 0.933594 0.923492
0.067963 0.074738 0.087860
0.096588 0.109650 0.130371
0.131866 0.159637 0.179413
0.172821 0.223053 0.234436
0.359344 0.422760 0.472198
0.861023 0.878754 0.866821
0.913116 0.930939 0.920654
0.917328 0.935364 0.925385
0.065063 0.071289 0.083527
0.075256 0.083435 0.098907
0.087433 0.097931 0.117035
0.165253 0.212341 0.223450
0.284576 0.344147 0.388916
0.417450 0.484253 0.528656
0.462036 0.529388 0.565918
0.495605 0.563385 0.593445
0.064819 0.070984 0.083160
0.091705 0.103210 0.123352
0.105560 0.121460 0.143402
0.188263 0.244080 0.256439
0.324127 0.385925 0.435059
0.462494 0.529907 0.566254
0.506409 0.574036 0.602173
0.539520 0.605530 0.628204
0.064575 0.070709 0.082764
0.091309 0.102661 0.122772
0.125916 0.150696 0.171570
0.213318 0.271423 0.291290
0.364227 0.428162 0.477509
0.505859 0.573608 0.601776
0.550293 0.615509 0.636475
0.583130 0.643829 0.660400
0.064362 0.070404 0.082397
0.090881 0.102081 0.122162
0.125458 0.150055 0.170959
0.218353 0.276550 0.298065
0.397156 0.463196 0.509918
0.543762 0.609283 0.631348
0.593903 0.652679 0.667969
0.626984 0.679108 0.690643
0.062714 0.068481 0.079926
0.088348 0.099030 0.118408
0.122314 0.145447 0.166626
0.162109 0.207428 0.219452
0.659668 0.704895 0.712555
0.783325 0.809631 0.800690
0.814056 0.837128 0.826599
0.828735 0.849915 0.838806
0.061523 0.067017 0.078094
0.086548 0.096893 0.115723
0.119995 0.142090 0.163422
0.159576 0.203400 0.216003
0.569855 0.632294 0.650665
0.867279 0.884552 0.872650
0.890503 0.907349 0.896118
0.897156 0.914185 0.903168
0.060303 0.065613 0.076263
0.084900 0.094940 0.113251
0.117767 0.138885 0.160339
0.157227 0.199646 0.212738
0.357544 0.421234 0.470764
0.855438 0.873566 0.861542
0.909576 0.927216 0.916748
0.917175 0.935211 0.925232
0.061249 0.066711 0.077667
0.086212 0.096466 0.115204
0.119415 0.141174 0.162689
0.158997 0.202454 0.215210
0.330261 0.392334 0.441620
0.850830 0.869415 0.857544
0.908142 0.925690 0.915131
0.925537 0.944092 0.934845
