滤镜资源/Professional Luts Collection/Triune-Digital-Cinematic-LUTs/3D LUTs (CUBE)/ALEXA/BW/Noir 3 - Alexa.cube
#Created by Benjamin (IWLTBAP) : http://luts.iwltbap.com
#Copyright: (C) Copyright 2016 Triune Films and IWLTBAP
TITLE "Blockbuster LUTs Pack (Alexa Log-C)"
#LUT size
LUT_3D_SIZE 5
#LUT data points
DOMAIN_MIN 0.000000 0.000000 0.000000
DOMAIN_MAX 0.903226 0.903226 0.903226
0.000000 0.000488 0.000244
0.022919 0.025146 0.028473
0.095520 0.107574 0.129059
0.257507 0.316101 0.353149
0.326843 0.389008 0.438995
0.019287 0.021423 0.024170
0.026672 0.029022 0.032928
0.107483 0.123932 0.146240
0.295868 0.356049 0.402618
0.378571 0.443298 0.491638
0.069519 0.076599 0.090271
0.078033 0.086761 0.103088
0.125946 0.150513 0.171906
0.333008 0.395660 0.446045
0.407623 0.473999 0.519806
0.187805 0.243744 0.255798
0.203705 0.261780 0.278290
0.234436 0.292694 0.320251
0.379730 0.444366 0.492950
0.475861 0.543488 0.577332
0.238403 0.296692 0.325836
0.258423 0.317047 0.354370
0.279877 0.339264 0.382721
0.450073 0.517303 0.556030
0.495605 0.563385 0.593445
0.009705 0.011017 0.012268
0.027710 0.030090 0.034180
0.109314 0.126465 0.148804
0.280701 0.340088 0.383911
0.352539 0.415771 0.465820
0.009155 0.010437 0.011597
0.052216 0.056488 0.065247
0.170471 0.219604 0.230927
0.350677 0.413849 0.463898
0.428345 0.494934 0.537170
0.060150 0.065399 0.076019
0.108368 0.125305 0.147400
0.165192 0.211975 0.223389
0.413635 0.480408 0.525482
0.503754 0.571533 0.600067
0.169006 0.218384 0.228607
0.261719 0.320618 0.358398
0.297546 0.357880 0.404297
0.456482 0.523834 0.561218
0.552826 0.617584 0.638306
0.212708 0.271179 0.290588
0.326416 0.388519 0.437683
0.350769 0.413757 0.463440
0.527527 0.594482 0.618958
0.572357 0.634521 0.652557
0.028290 0.030701 0.034821
0.042603 0.045715 0.052307
0.134796 0.164185 0.183136
0.333405 0.396057 0.446472
0.408630 0.475037 0.520721
0.027985 0.030334 0.034424
0.054230 0.058594 0.067596
0.173950 0.224365 0.235962
0.408203 0.474609 0.520294
0.487152 0.554871 0.586487
0.026581 0.028900 0.032806
0.051819 0.055939 0.064453
0.421722 0.488556 0.532135
0.733643 0.765106 0.762482
0.783264 0.809631 0.800903
0.100159 0.113586 0.135803
0.167664 0.215881 0.226990
0.306244 0.367157 0.414551
0.743134 0.773529 0.769501
0.805969 0.829987 0.819855
0.143707 0.178101 0.194397
0.224487 0.282318 0.306213
0.339783 0.402222 0.451660
0.781891 0.808350 0.799591
0.807098 0.831055 0.820831
0.052673 0.056824 0.065491
0.066925 0.073486 0.086304
0.191467 0.248291 0.261200
0.393158 0.458618 0.506195
0.471588 0.539154 0.573761
0.052216 0.056335 0.064911
0.094208 0.105988 0.127075
0.244629 0.303192 0.335114
0.471375 0.538910 0.573578
0.548645 0.613800 0.635132
0.050415 0.054352 0.062561
0.091187 0.102417 0.122620
0.422913 0.489807 0.533173
0.666534 0.710236 0.717163
0.729340 0.761658 0.759735
0.048706 0.052460 0.060303
0.088013 0.098602 0.117859
0.150330 0.188721 0.203705
0.872589 0.889618 0.877869
0.901642 0.918854 0.907959
0.078613 0.087433 0.103973
0.139008 0.171021 0.188202
0.217255 0.275116 0.296478
0.891968 0.908844 0.897644
0.905701 0.923126 0.912445
0.065063 0.071289 0.083527
0.084351 0.094238 0.112457
0.220856 0.279175 0.301483
0.435608 0.502594 0.543945
0.495605 0.563385 0.593445
0.064636 0.070770 0.082855
0.116699 0.137115 0.159180
0.280212 0.339630 0.382782
0.513611 0.581421 0.608124
0.572357 0.634521 0.652557
0.063843 0.069824 0.081635
0.115265 0.135162 0.157166
0.376709 0.441193 0.489868
0.635284 0.685730 0.696289
0.693512 0.731598 0.734985
0.061188 0.066650 0.077606
0.110565 0.128662 0.150482
0.180298 0.232635 0.245148
0.884216 0.900940 0.889526
0.904083 0.921448 0.910706
0.061249 0.066711 0.077667
0.110687 0.128845 0.150604
0.180115 0.232697 0.244812
0.875336 0.892212 0.880524
0.925537 0.944092 0.934845
