滤镜资源/Professional Luts Collection/Triune-Digital-Cinematic-LUTs/3D LUTs (CUBE)/ALEXA/BW/Noir 3 - Alexa.cube
#Created by Benjamin (IWLTBAP) : http://luts.iwltbap.com
#Copyright: (C) Copyright 2016 Triune Films and IWLTBAP
TITLE "Blockbuster LUTs Pack (Alexa Log-C)"
#LUT size
LUT_3D_SIZE 32
#LUT data points
0.000000 0.000488 0.000244
0.002777 0.003510 0.003693
0.005707 0.006714 0.007355
0.008820 0.010071 0.011200
0.011963 0.013489 0.015076
0.015228 0.016998 0.019135
0.018799 0.020905 0.023590
0.022919 0.025146 0.028473
0.027954 0.030304 0.034424
0.034027 0.036560 0.041626
0.042023 0.045044 0.051544
0.051361 0.055420 0.063812
0.062836 0.068634 0.080109
0.077393 0.086029 0.102142
0.095520 0.107574 0.129059
0.116882 0.137207 0.159515
0.140381 0.172852 0.190216
0.165405 0.212433 0.223633
0.190521 0.247131 0.259796
0.220642 0.279053 0.301422
0.244934 0.303253 0.335022
0.257507 0.316101 0.353149
0.267242 0.326172 0.366028
0.276855 0.336121 0.378723
0.286560 0.346222 0.391205
0.296509 0.356659 0.403473
0.306366 0.367035 0.415649
0.316620 0.378052 0.427338
0.326843 0.389008 0.438995
0.337250 0.399963 0.450226
0.347900 0.410980 0.461121
0.358582 0.422058 0.472076
0.002319 0.003021 0.003113
0.003113 0.003845 0.004089
0.005920 0.006927 0.007599
0.009033 0.010315 0.011475
0.012238 0.013794 0.015442
0.015533 0.017365 0.019531
0.019135 0.021240 0.023956
0.023315 0.025543 0.028931
0.028381 0.030792 0.034973
0.034637 0.037201 0.042389
0.042847 0.045959 0.052612
0.052643 0.056885 0.065643
0.065094 0.071320 0.083527
0.080933 0.090210 0.107391
0.100281 0.114197 0.135834
0.121979 0.145020 0.166077
0.145844 0.181580 0.197754
0.171082 0.220673 0.231720
0.197845 0.254669 0.269775
0.228973 0.287506 0.313293
0.254059 0.312683 0.347015
0.266663 0.325562 0.365173
0.276855 0.336304 0.377899
0.286499 0.346252 0.390625
0.296448 0.356720 0.402893
0.306610 0.367523 0.414978
0.316467 0.377899 0.427185
0.327118 0.388916 0.438080
0.337341 0.399872 0.449738
0.347839 0.411041 0.460907
0.358582 0.422241 0.471710
0.369263 0.433289 0.482635
0.004761 0.005646 0.006134
0.005432 0.006378 0.006958
0.006348 0.007385 0.008118
0.009277 0.010590 0.011780
0.012543 0.014130 0.015808
0.015900 0.017761 0.019989
0.019531 0.021667 0.024475
0.023804 0.026093 0.029541
0.028839 0.031250 0.035492
0.035095 0.037689 0.042938
0.043274 0.046478 0.053223
0.053009 0.057281 0.066071
0.065369 0.071625 0.083923
0.081360 0.090698 0.108032
0.101410 0.115631 0.137512
0.124817 0.149292 0.169769
0.151245 0.190063 0.204590
0.176636 0.229065 0.239594
0.204773 0.262207 0.279388
0.237000 0.295319 0.324005
0.262482 0.321350 0.359100
0.275726 0.334961 0.377228
0.286011 0.345764 0.389954
0.296112 0.356354 0.402496
0.306061 0.366821 0.414764
0.316467 0.378021 0.426666
0.326569 0.388733 0.438660
0.337219 0.399750 0.449585
0.347839 0.410736 0.460480
0.358337 0.421875 0.471649
0.369171 0.433289 0.482391
0.379944 0.444519 0.493225
0.007355 0.008453 0.009338
0.007874 0.009003 0.009979
0.008820 0.010040 0.011169
0.009827 0.011169 0.012421
0.012848 0.014404 0.016174
0.016266 0.018158 0.020447
0.019989 0.022125 0.024963
0.024384 0.026672 0.030212
0.029419 0.031860 0.036163
0.035706 0.038300 0.043610
0.043854 0.047089 0.053955
0.053680 0.058014 0.066956
0.065979 0.072357 0.084869
0.081787 0.091248 0.108673
0.101898 0.116272 0.138214
0.125519 0.150330 0.170715
0.151886 0.191101 0.205475
0.178986 0.232452 0.242920
0.210419 0.268585 0.287415
0.245453 0.303864 0.335236
0.271423 0.330627 0.371002
0.284943 0.344574 0.389130
0.295502 0.355743 0.401672
0.305634 0.366394 0.414215
0.316040 0.377197 0.426056
0.326477 0.388397 0.437958
0.336823 0.399506 0.449738
0.347565 0.410736 0.460602
0.358185 0.421722 0.471466
0.368805 0.432922 0.482056
0.379639 0.444336 0.492798
0.390503 0.455750 0.503571
0.010040 0.011414 0.012695
0.010529 0.011932 0.013306
0.011322 0.012787 0.014313
0.012360 0.013885 0.015564
0.013458 0.015106 0.016937
0.016602 0.018524 0.020874
0.020386 0.022552 0.025452
0.024933 0.027191 0.030853
0.030029 0.032501 0.036926
0.036407 0.039062 0.044525
0.044556 0.047882 0.054901
0.054443 0.058838 0.067932
0.066925 0.073456 0.086273
0.082733 0.092377 0.110107
0.102417 0.116882 0.138947
0.126160 0.151367 0.171539
0.152374 0.191864 0.206207
0.179626 0.233093 0.243896
0.211182 0.269318 0.288422
0.248566 0.307037 0.339447
0.278198 0.337708 0.379486
0.294495 0.354614 0.400909
0.305298 0.366150 0.413300
0.315674 0.377197 0.425659
0.326080 0.388000 0.437500
0.336914 0.399231 0.448608
0.347260 0.410339 0.460419
0.358124 0.421722 0.471191
0.368835 0.432922 0.481995
0.379425 0.444122 0.492584
0.390137 0.455627 0.502899
0.401001 0.467041 0.513702
0.012848 0.014435 0.016205
0.013336 0.014984 0.016785
0.013947 0.015625 0.017517
0.014923 0.016693 0.018799
0.016052 0.017914 0.020172
0.017273 0.019226 0.021698
0.020782 0.022919 0.025909
0.025391 0.027710 0.031403
0.030609 0.033081 0.037598
0.037201 0.039886 0.045502
0.045410 0.048798 0.056000
0.055389 0.059937 0.069244
0.067963 0.074738 0.087891
0.084381 0.094452 0.112518
0.103851 0.118774 0.141052
0.126862 0.152313 0.172577
0.152679 0.192352 0.206573
0.179962 0.233521 0.244446
0.211334 0.269714 0.288727
0.249084 0.307587 0.340363
0.278992 0.338470 0.380768
0.295654 0.355774 0.402435
0.308624 0.369629 0.417480
0.320831 0.382660 0.431641
0.332581 0.394958 0.444885
0.344208 0.407043 0.456909
0.355408 0.418762 0.468781
0.366608 0.430511 0.479919
0.377563 0.442078 0.490814
0.388397 0.453522 0.501465
0.399292 0.465240 0.511963
0.410370 0.477081 0.522705
0.015930 0.017792 0.020020
0.016418 0.018311 0.020630
0.016907 0.018829 0.021240
0.017700 0.019684 0.022186
0.018799 0.020874 0.023560
0.020111 0.022247 0.025116
0.021576 0.023743 0.026855
0.025787 0.028107 0.031860
0.031128 0.033600 0.038177
0.037994 0.040710 0.046478
0.046295 0.049774 0.057129
0.056610 0.061340 0.071014
0.069031 0.076019 0.089508
0.085938 0.096344 0.114807
0.105988 0.121796 0.144043
0.129120 0.155762 0.175568
0.153931 0.194366 0.208313
0.180237 0.233582 0.244812
0.211426 0.269501 0.288696
0.248993 0.307495 0.340332
0.279388 0.338959 0.381104
0.296295 0.356506 0.403015
0.309418 0.370483 0.418091
0.321655 0.383484 0.432434
0.333405 0.395782 0.445618
0.345154 0.407928 0.457672
0.356262 0.419647 0.469635
0.367462 0.431519 0.480682
0.378448 0.443085 0.491608
0.389374 0.454559 0.502228
0.400360 0.466248 0.512665
0.411438 0.478088 0.523438
0.019287 0.021423 0.024170
0.019775 0.021912 0.024750
0.020264 0.022400 0.025299
0.020782 0.022949 0.025940
0.021790 0.023987 0.027161
0.023285 0.025543 0.028900
0.024963 0.027252 0.030884
0.026672 0.029022 0.032928
0.031525 0.034027 0.038696
0.038696 0.041443 0.047272
0.047119 0.050720 0.058228
0.057831 0.062775 0.072815
0.070526 0.077789 0.091797
0.087433 0.097992 0.117065
0.107483 0.123932 0.146240
0.131104 0.158661 0.178223
0.156891 0.198792 0.212250
0.182709 0.237152 0.248322
0.213135 0.270905 0.290802
0.248657 0.307098 0.340271
0.278748 0.338196 0.380798
0.295868 0.356049 0.402618
0.309174 0.370209 0.417816
0.321564 0.383392 0.432281
0.333466 0.395813 0.445587
0.345245 0.407990 0.457642
0.356384 0.419769 0.469757
0.367584 0.431641 0.480804
0.378571 0.443298 0.491638
0.389465 0.454712 0.502319
0.400543 0.466431 0.512604
0.411774 0.478271 0.523407
0.023285 0.025543 0.028900
0.023865 0.026123 0.029572
0.024414 0.026703 0.030243
0.024963 0.027252 0.030884
0.025513 0.027832 0.031555
0.026703 0.029022 0.032928
0.028656 0.031036 0.035217
0.030579 0.033020 0.037537
0.032501 0.035004 0.039825
0.039215 0.041962 0.047882
0.047913 0.051605 0.059296
0.058990 0.064117 0.074463
0.072113 0.079681 0.094147
0.089630 0.100586 0.120300
0.109558 0.126801 0.149139
0.132233 0.160217 0.179932
0.158844 0.201599 0.214539
0.185120 0.240387 0.251862
0.217529 0.275299 0.296844
0.252716 0.311340 0.345947
0.281250 0.340729 0.384430
0.297180 0.357361 0.404510
0.310059 0.371033 0.418762
0.322266 0.384033 0.432953
0.334137 0.396423 0.446014
0.345886 0.408569 0.458038
0.356812 0.420197 0.470215
0.367767 0.431976 0.480957
0.378723 0.443451 0.491821
0.389740 0.454895 0.502350
0.400909 0.466614 0.512604
0.411957 0.478363 0.523376
0.028229 0.030640 0.034790
0.028809 0.031219 0.035461
0.029358 0.031799 0.036102
0.029938 0.032349 0.036774
0.030518 0.032928 0.037445
0.031067 0.033508 0.038116
0.032410 0.034912 0.039703
0.034973 0.037567 0.042786
0.037689 0.040375 0.046082
0.040466 0.043365 0.049561
0.048645 0.052368 0.060211
0.059998 0.065247 0.075806
0.073853 0.081787 0.096802
0.091888 0.103241 0.123657
0.112549 0.131012 0.153381
0.135284 0.164886 0.183838
0.160248 0.204224 0.216461
0.185913 0.241180 0.253021
0.217834 0.276306 0.297729
0.255066 0.313721 0.348999
0.286285 0.346069 0.390106
0.303284 0.363770 0.411957
0.315857 0.377167 0.426270
0.327789 0.389862 0.439575
0.339355 0.402069 0.451782
0.350647 0.413818 0.463318
0.361389 0.425079 0.474762
0.372192 0.436707 0.485260
0.383087 0.447998 0.496216
0.394287 0.459503 0.506561
0.405365 0.471100 0.516693
0.416107 0.482697 0.527130
0.034149 0.036682 0.041779
0.034851 0.037415 0.042603
0.035522 0.038116 0.043396
0.036163 0.038757 0.044159
0.036896 0.039520 0.045044
0.037476 0.040131 0.045746
0.038147 0.040863 0.046631
0.039764 0.042633 0.048676
0.043335 0.046539 0.053284
0.046661 0.050201 0.057617
0.050171 0.054108 0.062256
0.060730 0.066101 0.076904
0.075226 0.083435 0.098938
0.093994 0.105774 0.126831
0.115479 0.135223 0.157562
0.138916 0.170532 0.188354
0.163940 0.210052 0.221619
0.188751 0.244934 0.257202
0.218811 0.277191 0.298798
0.254395 0.313049 0.348053
0.285461 0.345276 0.389099
0.303009 0.363586 0.411224
0.316498 0.377869 0.426239
0.329132 0.391296 0.440704
0.341339 0.404114 0.454132
0.353333 0.416534 0.466400
0.364746 0.428406 0.478241
0.375977 0.440369 0.489258
0.386963 0.452087 0.500061
0.397980 0.463684 0.510559
0.409210 0.475464 0.520844
0.420563 0.487427 0.531372
0.041534 0.044525 0.050934
0.042236 0.045319 0.051849
0.042938 0.046082 0.052765
0.043610 0.046844 0.053680
0.044281 0.047607 0.054565
0.044983 0.048340 0.055450
0.045746 0.049164 0.056427
0.046417 0.049927 0.057312
0.048279 0.051971 0.059753
0.053497 0.057800 0.066711
0.058258 0.063202 0.073273
0.062744 0.068512 0.079987
0.076324 0.084717 0.100525
0.095825 0.108063 0.129456
0.118011 0.138824 0.161072
0.142303 0.175903 0.192719
0.167542 0.215973 0.226624
0.193146 0.250397 0.263672
0.224670 0.283020 0.306885
0.258392 0.317047 0.354248
0.288086 0.347870 0.392944
0.303345 0.363800 0.412231
0.315033 0.376251 0.425232
0.327057 0.389069 0.438690
0.338867 0.401581 0.451233
0.350372 0.413544 0.463226
0.361450 0.425140 0.474854
0.372498 0.436920 0.485626
0.383484 0.448395 0.496643
0.394714 0.459961 0.507019
0.405823 0.471649 0.517273
0.416748 0.483429 0.527832
0.049316 0.053162 0.061157
0.050201 0.054108 0.062256
0.051056 0.055054 0.063385
0.051880 0.055969 0.064484
0.052734 0.056915 0.065613
0.053558 0.057831 0.066681
0.054413 0.058746 0.067810
0.055237 0.059662 0.068878
0.056061 0.060608 0.070038
0.059662 0.064880 0.075378
0.066498 0.072968 0.085663
0.073029 0.080780 0.095581
0.079590 0.088623 0.105438
0.096924 0.109711 0.130981
0.119812 0.141571 0.163452
0.145203 0.180389 0.196350
0.170624 0.220978 0.230865
0.197815 0.255249 0.270050
0.230133 0.288452 0.314423
0.264740 0.323547 0.363129
0.297211 0.357483 0.404205
0.313293 0.374512 0.423584
0.323212 0.385040 0.434570
0.333191 0.395691 0.445801
0.343414 0.406403 0.456726
0.353912 0.417206 0.467316
0.364441 0.428070 0.477966
0.375092 0.439423 0.488464
0.385803 0.450806 0.498993
0.396606 0.462219 0.509308
0.407410 0.473663 0.519409
0.418213 0.485107 0.529480
0.058990 0.064087 0.074371
0.059875 0.065155 0.075745
0.060760 0.066193 0.077057
0.061646 0.067200 0.078308
0.062561 0.068298 0.079681
0.063477 0.069366 0.081055
0.064362 0.070435 0.082428
0.065247 0.071503 0.083771
0.066254 0.072723 0.085327
0.067413 0.074097 0.087036
0.075256 0.083435 0.098877
0.085297 0.095398 0.113892
0.093353 0.105011 0.125854
0.101074 0.115082 0.137024
0.120667 0.142609 0.164886
0.147217 0.183533 0.198822
0.173279 0.224243 0.234772
0.201447 0.259094 0.275024
0.234924 0.293091 0.320709
0.270752 0.329773 0.370697
0.305145 0.365753 0.414307
0.323517 0.385468 0.435211
0.333679 0.396118 0.446014
0.343903 0.406830 0.456909
0.354309 0.417664 0.467712
0.364990 0.428711 0.478424
0.375671 0.439758 0.489197
0.386230 0.451141 0.499451
0.396790 0.462555 0.509735
0.407715 0.474030 0.519775
0.418976 0.485626 0.529602
0.430176 0.497192 0.539459
0.069519 0.076599 0.090271
0.070770 0.078094 0.092163
0.071869 0.079376 0.093781
0.073090 0.080841 0.095612
0.074341 0.082336 0.097504
0.075531 0.083771 0.099335
0.076843 0.085358 0.101318
0.078033 0.086761 0.103088
0.079315 0.088257 0.104980
0.080627 0.089813 0.106934
0.082947 0.092590 0.110382
0.096680 0.109436 0.130676
0.107971 0.124512 0.146912
0.117401 0.138031 0.160095
0.125946 0.150513 0.171906
0.147888 0.184692 0.199982
0.174957 0.226532 0.237213
0.203400 0.262024 0.278168
0.238892 0.297150 0.326416
0.275513 0.334717 0.377075
0.311432 0.372498 0.421448
0.333008 0.395660 0.446045
0.343903 0.406891 0.457062
0.354370 0.417633 0.467621
0.364838 0.428619 0.478241
0.375519 0.439911 0.488800
0.386230 0.451172 0.499481
0.396942 0.462585 0.509613
0.407623 0.473999 0.519806
0.418671 0.485504 0.529755
0.430206 0.497162 0.539429
0.441681 0.508759 0.549072
0.083557 0.093353 0.111328
0.084961 0.095001 0.113403
0.086334 0.096649 0.115448
0.087708 0.098267 0.117462
0.089111 0.099945 0.119537
0.090485 0.101593 0.121613
0.091858 0.103210 0.123627
0.093201 0.104828 0.125641
0.094574 0.106476 0.127686
0.095947 0.108093 0.129700
0.097290 0.109711 0.131683
0.105560 0.121155 0.143494
0.122162 0.144775 0.166931
0.133850 0.162689 0.181915
0.144775 0.179718 0.195740
0.154449 0.195068 0.208557
0.175385 0.228119 0.237610
0.205566 0.264008 0.280975
0.241791 0.300232 0.330811
0.279388 0.338745 0.382202
0.316254 0.377686 0.426849
0.341766 0.404663 0.454865
0.354248 0.417572 0.467651
0.364807 0.428467 0.478333
0.375336 0.439545 0.488770
0.385895 0.450897 0.499023
0.396484 0.462250 0.509430
0.407623 0.473755 0.519318
0.418610 0.485260 0.529327
0.429779 0.496765 0.539093
0.441254 0.508362 0.548676
0.452789 0.519958 0.558319
0.099213 0.112579 0.134338
0.100861 0.114960 0.136719
0.102386 0.116913 0.138916
0.103912 0.118927 0.141113
0.105560 0.121246 0.143402
0.107117 0.123260 0.145660
0.108734 0.125610 0.148010
0.110413 0.127960 0.150360
0.112030 0.130280 0.152649
0.113647 0.132568 0.154907
0.115204 0.134796 0.157135
0.116760 0.137024 0.159332
0.134247 0.163269 0.182526
0.151123 0.189819 0.204193
0.162933 0.208618 0.220154
0.173187 0.223877 0.234741
0.182831 0.237457 0.248535
0.206726 0.264771 0.282318
0.243683 0.302032 0.333252
0.282349 0.341858 0.385803
0.320007 0.381714 0.431213
0.350067 0.413239 0.463287
0.364227 0.428040 0.477600
0.374878 0.439117 0.488281
0.385468 0.450317 0.498688
0.395996 0.461670 0.508942
0.406555 0.473083 0.519196
0.417969 0.484680 0.528870
0.429352 0.496277 0.538635
0.440613 0.507721 0.548126
0.451904 0.519165 0.557526
0.463196 0.530579 0.566895
0.116699 0.136963 0.159241
0.118378 0.139465 0.161469
0.120056 0.141846 0.163818
0.121796 0.144409 0.166138
0.123444 0.146790 0.168488
0.125092 0.149170 0.170837
0.126923 0.151978 0.173218
0.128601 0.154480 0.175415
0.130432 0.157318 0.177765
0.132111 0.159912 0.179840
0.133759 0.162445 0.181885
0.135620 0.165375 0.184235
0.143219 0.177277 0.193848
0.165558 0.212677 0.223877
0.179840 0.233887 0.244141
0.192200 0.248993 0.262177
0.203735 0.262451 0.278656
0.216492 0.274902 0.295685
0.244415 0.302734 0.334290
0.283997 0.343567 0.388184
0.322754 0.384583 0.434174
0.356720 0.420135 0.470154
0.374023 0.438293 0.487366
0.384674 0.449585 0.497833
0.395355 0.460876 0.508118
0.406128 0.472321 0.518158
0.416840 0.483734 0.528290
0.428375 0.495361 0.537964
0.439911 0.506989 0.547607
0.451233 0.518433 0.556976
0.462311 0.529724 0.566132
0.473450 0.541016 0.575317
0.135223 0.164795 0.183746
0.137268 0.167999 0.186340
0.139313 0.171204 0.188904
0.141205 0.174133 0.191254
0.143280 0.177368 0.193817
0.145203 0.180389 0.196259
0.147156 0.183472 0.198822
0.149078 0.186523 0.201385
0.151001 0.189575 0.203949
0.152802 0.192474 0.206451
0.154724 0.195496 0.208923
0.156464 0.198334 0.211395
0.158203 0.201111 0.213776
0.176178 0.228271 0.238983
0.196869 0.254425 0.268799
0.213257 0.271729 0.291351
0.228851 0.287140 0.312561
0.243011 0.301361 0.332397
0.256561 0.315186 0.351501
0.284729 0.344299 0.389099
0.324432 0.386322 0.435974
0.359741 0.423309 0.473175
0.383118 0.447845 0.496399
0.394226 0.459808 0.507233
0.405060 0.471191 0.517212
0.416229 0.482697 0.527039
0.427277 0.494232 0.537018
0.438629 0.505737 0.546478
0.450104 0.517303 0.556061
0.461334 0.528687 0.565338
0.472382 0.539917 0.574432
0.483398 0.551147 0.583496
0.155396 0.196533 0.209656
0.157257 0.199524 0.212250
0.159119 0.202515 0.214874
0.160980 0.205505 0.217468
0.162842 0.208496 0.220032
0.164673 0.211426 0.222565
0.166626 0.214142 0.225372
0.168457 0.217102 0.227966
0.170410 0.219818 0.230713
0.172272 0.222687 0.233368
0.174042 0.225555 0.235840
0.175964 0.228119 0.238586
0.177673 0.230896 0.241028
0.185089 0.240417 0.251862
0.212616 0.271149 0.290527
0.235321 0.293549 0.321411
0.253265 0.311829 0.346832
0.269226 0.328186 0.369080
0.284760 0.344360 0.388885
0.299133 0.359344 0.407135
0.324860 0.386871 0.436737
0.360870 0.424500 0.474274
0.390228 0.455444 0.503296
0.403381 0.469666 0.516113
0.414337 0.481110 0.526031
0.425812 0.492706 0.535706
0.437286 0.504303 0.545380
0.448547 0.515717 0.554718
0.459808 0.527130 0.564056
0.470947 0.538452 0.573242
0.481995 0.549652 0.582306
0.493042 0.560883 0.591339
0.172638 0.223694 0.233826
0.174713 0.226257 0.236847
0.176727 0.228973 0.239746
0.178680 0.231750 0.242554
0.180695 0.234253 0.245544
0.182617 0.237183 0.248199
0.184662 0.239746 0.251251
0.186707 0.242310 0.254211
0.188721 0.244904 0.257172
0.190735 0.247406 0.260132
0.192749 0.249908 0.263062
0.195038 0.252350 0.266235
0.197205 0.254791 0.269257
0.199371 0.257141 0.272278
0.223724 0.282013 0.305389
0.254761 0.313324 0.348938
0.275940 0.335175 0.377655
0.294495 0.354614 0.401001
0.311584 0.372650 0.421509
0.327606 0.389709 0.439484
0.341705 0.404480 0.454437
0.361359 0.424896 0.474854
0.392456 0.457825 0.505402
0.412140 0.478668 0.523773
0.423218 0.490143 0.533630
0.434723 0.501740 0.543274
0.446289 0.513397 0.552917
0.457336 0.524658 0.562012
0.468445 0.535950 0.571167
0.479523 0.547180 0.580292
0.490662 0.558380 0.589417
0.501740 0.569611 0.598511
0.187805 0.243744 0.255798
0.189880 0.246338 0.258850
0.191956 0.248932 0.261902
0.194092 0.251495 0.265015
0.196320 0.254028 0.268158
0.198456 0.256622 0.271271
0.201080 0.259186 0.274780
0.203705 0.261780 0.278290
0.206055 0.264343 0.281555
0.208679 0.266876 0.285034
0.211029 0.269440 0.288269
0.213623 0.271973 0.291748
0.216187 0.274475 0.295197
0.218719 0.277069 0.298615
0.234436 0.292694 0.320251
0.270172 0.329224 0.369965
0.296021 0.356171 0.403076
0.316833 0.378296 0.427612
0.335571 0.398132 0.448120
0.352631 0.415894 0.465942
0.367554 0.431366 0.481018
0.379730 0.444366 0.492950
0.393036 0.458527 0.506042
0.418213 0.484802 0.528900
0.430878 0.497894 0.540039
0.442291 0.509430 0.549530
0.453827 0.521057 0.559174
0.464844 0.532257 0.568237
0.475861 0.543488 0.577332
0.486969 0.554718 0.586426
0.498169 0.565948 0.595551
0.509277 0.577148 0.604645
0.196594 0.253998 0.268372
0.199219 0.256592 0.271881
0.201294 0.259155 0.274933
0.203644 0.261749 0.278198
0.206055 0.264313 0.281555
0.208282 0.266876 0.284729
0.210968 0.269501 0.288300
0.213593 0.272095 0.291840
0.216370 0.274811 0.295532
0.219116 0.277496 0.299225
0.221741 0.280060 0.302734
0.224609 0.282959 0.306824
0.227234 0.285522 0.310333
0.229950 0.288269 0.314148
0.239441 0.297760 0.327332
0.272949 0.332062 0.373901
0.304749 0.365356 0.413605
0.327911 0.390015 0.439789
0.347992 0.411133 0.461334
0.366211 0.430084 0.479584
0.381866 0.446472 0.495209
0.394684 0.460144 0.507446
0.405426 0.471527 0.517426
0.419128 0.485718 0.529663
0.435547 0.502625 0.543945
0.446930 0.514130 0.553406
0.458374 0.525696 0.562927
0.469421 0.536957 0.572021
0.480438 0.548157 0.581085
0.491547 0.559357 0.590179
0.502747 0.570557 0.599304
0.513916 0.581787 0.608429
0.202637 0.260895 0.276947
0.205261 0.263458 0.280457
0.207886 0.266022 0.283966
0.210236 0.268585 0.287231
0.212891 0.271179 0.290741
0.215302 0.273743 0.294098
0.217987 0.276367 0.297668
0.220673 0.278992 0.301270
0.223419 0.281708 0.304962
0.226288 0.284546 0.308838
0.229065 0.287231 0.312531
0.231903 0.290131 0.316620
0.234741 0.293030 0.320740
0.237488 0.295776 0.324554
0.240356 0.298706 0.328674
0.270355 0.329407 0.370148
0.309357 0.370331 0.418793
0.334015 0.396545 0.446655
0.355133 0.418457 0.468475
0.374146 0.438293 0.487579
0.389984 0.455292 0.503021
0.403107 0.469299 0.515717
0.414398 0.480988 0.525726
0.423889 0.490662 0.533905
0.437775 0.504822 0.545776
0.449707 0.516937 0.555725
0.461090 0.528442 0.565186
0.472137 0.539703 0.574249
0.483185 0.550964 0.583344
0.494293 0.562134 0.592407
0.505493 0.573364 0.601562
0.516693 0.584564 0.610687
0.209167 0.267761 0.285919
0.211884 0.270416 0.289551
0.214508 0.272980 0.293060
0.217255 0.275696 0.296844
0.219910 0.278290 0.300354
0.222534 0.280853 0.303864
0.225311 0.283630 0.307709
0.227966 0.286255 0.311279
0.230713 0.289001 0.315094
0.233612 0.291840 0.319000
0.236481 0.294678 0.322876
0.239349 0.297577 0.326996
0.242188 0.300476 0.331085
0.245087 0.303467 0.335175
0.247925 0.306366 0.339294
0.272308 0.331421 0.373077
0.314514 0.375763 0.424866
0.340790 0.403748 0.454102
0.362732 0.426422 0.476135
0.382080 0.446686 0.495392
0.398254 0.463989 0.510864
0.411621 0.478210 0.523438
0.423096 0.490021 0.533539
0.432709 0.499756 0.541534
0.440430 0.507507 0.547974
0.452240 0.519470 0.557800
0.463531 0.530945 0.567200
0.474609 0.542175 0.576263
0.485626 0.553436 0.585327
0.496735 0.564606 0.594421
0.507935 0.575806 0.603546
0.519165 0.587036 0.612671
0.216217 0.274628 0.295288
0.219025 0.277405 0.299072
0.221741 0.280060 0.302704
0.224487 0.282776 0.306488
0.227356 0.285675 0.310547
0.230011 0.288269 0.314087
0.232849 0.291168 0.318176
0.235596 0.293945 0.322021
0.238373 0.296692 0.325836
0.241211 0.299591 0.329926
0.244080 0.302399 0.333801
0.246948 0.305328 0.337921
0.249786 0.308258 0.342041
0.252686 0.311218 0.346100
0.255646 0.314240 0.350159
0.279236 0.338593 0.381958
0.320709 0.382446 0.432007
0.348389 0.411530 0.461700
0.371002 0.435120 0.484314
0.390350 0.455658 0.503448
0.407013 0.473175 0.518890
0.420837 0.487610 0.531403
0.432465 0.499481 0.541382
0.442108 0.509247 0.549408
0.450012 0.517212 0.555939
0.454681 0.521973 0.559814
0.466003 0.533447 0.569214
0.477081 0.544678 0.578278
0.488129 0.555908 0.587341
0.499207 0.567078 0.596436
0.510376 0.578247 0.605530
0.521606 0.589478 0.614685
0.223236 0.281525 0.304688
0.226074 0.284271 0.308441
0.228882 0.287018 0.312225
0.231720 0.289856 0.316132
0.234589 0.292755 0.320221
0.237457 0.295654 0.324280
0.240295 0.298553 0.328400
0.243164 0.301483 0.332489
0.246002 0.304352 0.336578
0.248840 0.307251 0.340668
0.251678 0.310150 0.344727
0.254547 0.313080 0.348846
0.257385 0.315979 0.352997
0.260284 0.318970 0.357056
0.263245 0.322021 0.361115
0.286499 0.346130 0.391418
0.327759 0.390015 0.440063
0.356628 0.419983 0.470032
0.379700 0.444092 0.493103
0.399109 0.465057 0.511993
0.415833 0.482697 0.527435
0.430328 0.497314 0.539612
0.442169 0.509277 0.549469
0.451874 0.519043 0.557556
0.459595 0.526917 0.563934
0.464691 0.532104 0.568115
0.468445 0.535950 0.571228
0.479523 0.547180 0.580292
0.490601 0.558380 0.589386
0.501678 0.569550 0.598450
0.512878 0.580750 0.607544
0.524048 0.591919 0.616669
0.230835 0.289124 0.315247
0.233673 0.292053 0.319397
0.236511 0.294800 0.323151
0.239319 0.297607 0.327057
0.242188 0.300507 0.331146
0.245056 0.303406 0.335236
0.247925 0.306366 0.339325
0.250793 0.309265 0.343445
0.253754 0.312317 0.347504
0.256744 0.315399 0.351532
0.259583 0.318298 0.355621
0.262726 0.321564 0.359680
0.265594 0.324463 0.363800
0.268585 0.327545 0.367859
0.271606 0.330688 0.371918
0.294678 0.354797 0.401093
0.335907 0.398376 0.448242
