滤镜资源/Lutify.me Free 3D LUTs Package/Capture One/Mac/Lutify.me Raw Styles/50%/LM-RAW-Hypersthene-50.costyle
<?xml version="1.0"?>
<SL Engine="1000">
	<E K="ICCProfile" V="LM-RAW-Hypersthene-50.icm" />
	<E K="Name" V="LM-RAW-Hypersthene" />
	<E K="StyleSource" V="Styles" />
	<E K="UUID" V="6DD2FD82-C778-8FDB-A036-F9CEAE838D8D" />
</SL>
