滤镜资源/Lutify.me Free 3D LUTs Package/Capture One/Mac/Lutify.me Raw Styles/50%/LM-RAW-Heulandite-50.costyle
<?xml version="1.0"?>
<SL Engine="1000">
	<E K="ICCProfile" V="LM-RAW-Heulandite-50.icm" />
	<E K="Name" V="LM-RAW-Heulandite" />
	<E K="StyleSource" V="Styles" />
	<E K="UUID" V="91513325-E36A-8B2E-AF85-A3EBC591A1B6" />
</SL>
