滤镜资源/Professional Luts Collection/Lutify.me Professional/Black & White Films/Baryte.cube
# Created by: Lutify.me
# Copyright: (c) Copyright Lutify.me 2015
# Website: https://lutify.me
#LUT size
LUT_3D_SIZE 5
#LUT data points
0.000000 0.000000 0.000000
0.041107 0.041107 0.041107
0.121124 0.121124 0.121124
0.242584 0.242584 0.242584
0.388672 0.388763 0.388672
0.026611 0.026611 0.026611
0.097839 0.097839 0.097839
0.209991 0.209991 0.209991
0.351837 0.351898 0.351807
0.505005 0.505066 0.504974
0.077240 0.077240 0.077240
0.179108 0.179108 0.179108
0.315704 0.315735 0.315674
0.467560 0.467621 0.467560
0.618591 0.618683 0.618591
0.150635 0.150635 0.150635
0.280396 0.280396 0.280365
0.429993 0.430054 0.429993
0.582733 0.582825 0.582703
0.721436 0.721527 0.721405
0.247467 0.247467 0.247467
0.392883 0.392975 0.392883
0.546295 0.546387 0.546265
0.690063 0.690186 0.690033
0.806000 0.806122 0.806000
0.023163 0.023163 0.023163
0.091339 0.091339 0.091339
0.200500 0.200500 0.200500
0.340881 0.340912 0.340820
0.493805 0.493896 0.493805
0.071594 0.071594 0.071594
0.170410 0.170410 0.170410
0.304962 0.304993 0.304932
0.456207 0.456268 0.456207
0.607849 0.607941 0.607849
0.142059 0.142059 0.142059
0.270020 0.270020 0.269989
0.418701 0.418762 0.418701
0.571747 0.571838 0.571716
0.712036 0.712128 0.712006
0.236420 0.236420 0.236420
0.381500 0.381592 0.381500
0.534973 0.535034 0.534943
0.679962 0.680054 0.679932
0.798462 0.798584 0.798431
0.345917 0.345978 0.345886
0.497772 0.497833 0.497742
0.646515 0.646606 0.646484
0.772736 0.772858 0.772736
0.867188 0.867310 0.867157
0.066010 0.066010 0.066010
0.161530 0.161530 0.161530
0.294342 0.294342 0.294312
0.444946 0.445038 0.444946
0.597198 0.597321 0.597198
0.134003 0.134003 0.134003
0.259674 0.259674 0.259674
0.407440 0.407532 0.407440
0.560760 0.560822 0.560730
0.702606 0.702728 0.702606
0.226227 0.226227 0.226227
0.370331 0.370392 0.370300
0.523712 0.523804 0.523712
0.669952 0.670044 0.669922
0.790833 0.790955 0.790802
0.334198 0.334259 0.334167
0.486450 0.486511 0.486420
0.635956 0.636047 0.635925
0.764374 0.764496 0.764374
0.861115 0.861237 0.861084
0.450073 0.450134 0.450073
0.600983 0.601074 0.600983
0.736176 0.736298 0.736176
0.840210 0.840332 0.840179
0.917603 0.917755 0.917572
0.126099 0.126099 0.126099
0.249359 0.249359 0.249359
0.396210 0.396301 0.396210
0.549744 0.549835 0.549713
0.693176 0.693268 0.693146
0.216400 0.216400 0.216400
0.359222 0.359314 0.359192
0.512543 0.512604 0.512512
0.659973 0.660065 0.659943
0.783234 0.783356 0.783203
0.323029 0.323059 0.322968
0.475067 0.475159 0.475067
0.625458 0.625549 0.625427
0.756073 0.756195 0.756073
0.855011 0.855133 0.854980
0.438080 0.438171 0.438080
0.590027 0.590118 0.590027
0.727142 0.727264 0.727112
0.833435 0.833557 0.833405
0.912567 0.912720 0.912537
0.554718 0.554810 0.554688
0.696472 0.696594 0.696472
0.810608 0.810730 0.810608
0.895294 0.895447 0.895294
0.960602 0.960754 0.960602
0.206696 0.206696 0.206696
0.348114 0.348206 0.348114
0.501312 0.501373 0.501312
0.649872 0.649963 0.649872
0.775452 0.775543 0.775421
0.312012 0.312012 0.311951
0.463715 0.463776 0.463715
0.614929 0.615051 0.614929
0.747772 0.747894 0.747742
0.848755 0.848877 0.848724
0.426453 0.426544 0.426453
0.579041 0.579132 0.579041
0.718079 0.718170 0.718048
0.826843 0.826965 0.826813
0.907532 0.907654 0.907501
0.542938 0.543030 0.542908
0.686676 0.686768 0.686646
0.803314 0.803436 0.803284
0.889832 0.889984 0.889832
0.956238 0.956360 0.956207
0.654663 0.654755 0.654663
0.778198 0.778320 0.778198
0.871094 0.871216 0.871094
0.941345 0.941467 0.941315
0.999908 1.000000 0.999878
