滤镜资源/Professional Luts Collection/Lutify.me Professional/Black & White Films/Baryte.cube
# Created by: Lutify.me
# Copyright: (c) Copyright Lutify.me 2015
# Website: https://lutify.me
#LUT size
LUT_3D_SIZE 33
#LUT data points
0.000000 0.000000 0.000000
0.003845 0.003845 0.003845
0.007355 0.007355 0.007355
0.011292 0.011292 0.011292
0.015594 0.015594 0.015594
0.020569 0.020569 0.020569
0.026337 0.026337 0.026337
0.033203 0.033203 0.033203
0.041107 0.041107 0.041107
0.049225 0.049225 0.049225
0.057709 0.057709 0.057709
0.066620 0.066620 0.066620
0.076080 0.076080 0.076080
0.086243 0.086243 0.086243
0.097107 0.097107 0.097107
0.108734 0.108734 0.108734
0.121124 0.121124 0.121124
0.134277 0.134277 0.134277
0.148041 0.148041 0.148041
0.162445 0.162445 0.162445
0.177521 0.177521 0.177521
0.193054 0.193054 0.193054
0.209106 0.209106 0.209106
0.225586 0.225586 0.225586
0.242584 0.242584 0.242584
0.259918 0.259918 0.259918
0.277557 0.277557 0.277557
0.295502 0.295502 0.295471
0.313782 0.313782 0.313721
0.332275 0.332306 0.332214
0.350861 0.350952 0.350861
0.369720 0.369812 0.369720
0.388672 0.388763 0.388672
0.002716 0.002716 0.002716
0.006561 0.006561 0.006561
0.010498 0.010498 0.010498
0.014465 0.014465 0.014465
0.019409 0.019409 0.019409
0.024872 0.024872 0.024872
0.031342 0.031342 0.031342
0.038971 0.038971 0.038971
0.047180 0.047180 0.047180
0.055756 0.055756 0.055756
0.064484 0.064484 0.064484
0.073761 0.073761 0.073761
0.083710 0.083710 0.083710
0.094391 0.094391 0.094391
0.105865 0.105865 0.105865
0.118103 0.118103 0.118103
0.131012 0.131012 0.131012
0.144623 0.144623 0.144623
0.158936 0.158936 0.158936
0.173798 0.173798 0.173798
0.189209 0.189209 0.189209
0.205170 0.205170 0.205170
0.221619 0.221619 0.221619
0.238434 0.238434 0.238434
0.255554 0.255554 0.255554
0.273193 0.273193 0.273193
0.291138 0.291138 0.291138
0.309204 0.309204 0.309143
0.327637 0.327667 0.327576
0.346222 0.346283 0.346161
0.365082 0.365173 0.365082
0.384033 0.384125 0.384033
0.403137 0.403229 0.403137
0.005737 0.005737 0.005737
0.009277 0.009277 0.009277
0.013672 0.013672 0.013672
0.018311 0.018311 0.018311
0.023621 0.023621 0.023621
0.029816 0.029816 0.029816
0.037140 0.037140 0.037140
0.045135 0.045135 0.045135
0.053619 0.053619 0.053619
0.062317 0.062317 0.062317
0.071533 0.071533 0.071533
0.081299 0.081299 0.081299
0.091736 0.091736 0.091736
0.102997 0.102997 0.102997
0.115021 0.115021 0.115021
0.127838 0.127838 0.127838
0.141327 0.141327 0.141327
0.155396 0.155396 0.155396
0.170105 0.170105 0.170105
0.185455 0.185455 0.185455
0.201294 0.201294 0.201294
0.217590 0.217590 0.217590
0.234375 0.234375 0.234375
0.251465 0.251465 0.251465
0.268921 0.268921 0.268921
0.286713 0.286713 0.286713
0.304840 0.304840 0.304779
0.323181 0.323242 0.323120
0.341705 0.341766 0.341644
0.360504 0.360596 0.360504
0.379425 0.379517 0.379425
0.398407 0.398499 0.398407
0.417633 0.417694 0.417633
0.008484 0.008484 0.008484
0.012512 0.012512 0.012512
0.016815 0.016815 0.016815
0.022186 0.022186 0.022186
0.028290 0.028290 0.028290
0.035278 0.035278 0.035278
0.043304 0.043304 0.043304
0.051483 0.051483 0.051483
0.060059 0.060059 0.060059
0.069244 0.069244 0.069244
0.078827 0.078827 0.078827
0.089081 0.089081 0.089081
0.100189 0.100189 0.100189
0.112030 0.112030 0.112030
0.124634 0.124634 0.124634
0.137939 0.137939 0.137939
0.151917 0.151917 0.151917
0.166504 0.166504 0.166504
0.181641 0.181641 0.181641
0.197357 0.197357 0.197357
0.213562 0.213562 0.213562
0.230164 0.230164 0.230164
0.247192 0.247192 0.247192
0.264618 0.264618 0.264618
0.282349 0.282349 0.282349
0.300385 0.300385 0.300354
0.318695 0.318726 0.318665
0.337189 0.337280 0.337158
0.355865 0.355957 0.355865
0.374817 0.374908 0.374817
0.393768 0.393860 0.393768
0.412964 0.413055 0.412964
0.432129 0.432190 0.432129
0.011322 0.011322 0.011322
0.015656 0.015656 0.015656
0.020660 0.020660 0.020660
0.026703 0.026703 0.026703
0.033356 0.033356 0.033356
0.041260 0.041260 0.041260
0.049469 0.049469 0.049469
0.058014 0.058014 0.058014
0.066925 0.066925 0.066925
0.076416 0.076416 0.076416
0.086578 0.086578 0.086578
0.097412 0.097412 0.097412
0.109131 0.109131 0.109131
0.121552 0.121552 0.121552
0.134674 0.134674 0.134674
0.148468 0.148468 0.148468
0.162872 0.162872 0.162872
0.177917 0.177917 0.177917
0.193481 0.193481 0.193481
0.209564 0.209564 0.209564
0.226074 0.226074 0.226074
0.242981 0.242981 0.242981
0.260315 0.260315 0.260315
0.278015 0.278015 0.278015
0.295990 0.295990 0.295959
0.314209 0.314240 0.314148
0.332672 0.332733 0.332642
0.351349 0.351440 0.351349
0.370148 0.370239 0.370148
0.389191 0.389282 0.389191
0.408203 0.408295 0.408203
0.427490 0.427551 0.427490
0.446716 0.446808 0.446716
0.014496 0.014496 0.014496
0.019409 0.019409 0.019409
0.025146 0.025146 0.025146
0.031708 0.031708 0.031708
0.039429 0.039429 0.039429
0.047272 0.047272 0.047272
0.055878 0.055878 0.055878
0.064728 0.064728 0.064728
0.074066 0.074066 0.074066
0.083984 0.083984 0.083984
0.094696 0.094696 0.094696
0.106232 0.106232 0.106232
0.118439 0.118439 0.118439
0.131378 0.131378 0.131378
0.145050 0.145050 0.145050
0.159363 0.159363 0.159363
0.174194 0.174194 0.174194
0.189606 0.189606 0.189606
0.205566 0.205566 0.205566
0.222046 0.222046 0.222046
0.238892 0.238892 0.238892
0.256104 0.256104 0.256104
0.273682 0.273682 0.273682
0.291595 0.291595 0.291565
0.309753 0.309753 0.309692
0.328156 0.328186 0.328094
0.346741 0.346832 0.346710
0.365540 0.365631 0.365540
0.384521 0.384613 0.384521
0.403625 0.403687 0.403625
0.422760 0.422852 0.422760
0.442047 0.442139 0.442047
0.461365 0.461426 0.461365
0.018219 0.018219 0.018219
0.023590 0.023590 0.023590
0.030121 0.030121 0.030121
0.037506 0.037506 0.037506
0.045502 0.045502 0.045502
0.053741 0.053741 0.053741
0.062561 0.062561 0.062561
0.071838 0.071838 0.071838
0.081573 0.081573 0.081573
0.092133 0.092133 0.092133
0.103394 0.103394 0.103394
0.115417 0.115417 0.115417
0.128265 0.128265 0.128265
0.141724 0.141724 0.141724
0.155853 0.155853 0.155853
0.170563 0.170563 0.170563
0.185852 0.185852 0.185852
0.201660 0.201660 0.201660
0.218018 0.218018 0.218018
0.234772 0.234772 0.234772
0.251892 0.251892 0.251892
0.269379 0.269379 0.269379
0.287231 0.287231 0.287231
0.305359 0.305359 0.305298
0.323700 0.323730 0.323639
0.342255 0.342316 0.342194
0.360992 0.361084 0.360992
0.379944 0.380035 0.379944
0.398987 0.399078 0.398987
0.418121 0.418213 0.418121
0.437347 0.437439 0.437347
0.456726 0.456818 0.456726
0.475983 0.476044 0.475983
0.022125 0.022125 0.022125
0.028229 0.028229 0.028229
0.035583 0.035583 0.035583
0.043427 0.043427 0.043427
0.051575 0.051575 0.051575
0.060333 0.060333 0.060333
0.069489 0.069489 0.069489
0.079071 0.079071 0.079071
0.089539 0.089539 0.089539
0.100555 0.100555 0.100555
0.112457 0.112457 0.112457
0.125031 0.125031 0.125031
0.138336 0.138336 0.138336
0.152344 0.152344 0.152344
0.166931 0.166931 0.166931
0.182098 0.182098 0.182098
0.197784 0.197784 0.197784
0.213989 0.213989 0.213989
0.230621 0.230621 0.230621
0.247681 0.247681 0.247681
0.265137 0.265137 0.265137
0.282837 0.282837 0.282837
0.300873 0.300873 0.300842
0.319214 0.319214 0.319153
0.337738 0.337769 0.337677
0.356415 0.356476 0.356384
0.375275 0.375366 0.375275
0.394318 0.394409 0.394318
0.413483 0.413574 0.413483
0.432709 0.432800 0.432709
0.451996 0.452087 0.451996
0.471252 0.471313 0.471252
0.490509 0.490570 0.490509
0.026611 0.026611 0.026611
0.033539 0.033539 0.033539
0.041504 0.041504 0.041504
0.049561 0.049561 0.049561
0.058197 0.058197 0.058197
0.067169 0.067169 0.067169
0.076660 0.076660 0.076660
0.086853 0.086853 0.086853
0.097839 0.097839 0.097839
0.109467 0.109467 0.109467
0.121918 0.121918 0.121918
0.135040 0.135040 0.135040
0.148834 0.148834 0.148834
0.163330 0.163330 0.163330
0.178375 0.178375 0.178375
0.193939 0.193939 0.193939
0.209991 0.209991 0.209991
0.226532 0.226532 0.226532
0.243500 0.243500 0.243500
0.260834 0.260834 0.260834
0.278503 0.278503 0.278503
0.296448 0.296448 0.296417
0.314697 0.314728 0.314667
0.333191 0.333252 0.333130
0.351837 0.351898 0.351807
0.370636 0.370728 0.370636
0.389648 0.389740 0.389648
0.408783 0.408875 0.408783
0.428009 0.428070 0.428009
0.447266 0.447357 0.447266
0.466583 0.466675 0.466583
0.485809 0.485870 0.485809
0.505005 0.505066 0.504974
0.031708 0.031708 0.031708
0.039398 0.039398 0.039398
0.047760 0.047760 0.047760
0.056091 0.056091 0.056091
0.065002 0.065002 0.065002
0.074310 0.074310 0.074310
0.084320 0.084320 0.084320
0.095093 0.095093 0.095093
0.106598 0.106598 0.106598
0.118866 0.118866 0.118866
0.131775 0.131775 0.131775
0.145447 0.145447 0.145447
0.159790 0.159790 0.159790
0.174683 0.174683 0.174683
0.190155 0.190155 0.190155
0.206116 0.206116 0.206116
0.222473 0.222473 0.222473
0.239349 0.239349 0.239349
0.256592 0.256592 0.256592
0.274170 0.274170 0.274170
0.292084 0.292084 0.292053
0.310242 0.310242 0.310181
0.328644 0.328674 0.328583
0.347260 0.347351 0.347229
0.366058 0.366150 0.366028
0.384979 0.385071 0.384979
0.404114 0.404175 0.404114
0.423309 0.423401 0.423309
0.442535 0.442627 0.442535
0.461853 0.461945 0.461853
0.481110 0.481201 0.481110
0.500366 0.500427 0.500336
0.519562 0.519623 0.519531
0.037415 0.037415 0.037415
0.045715 0.045715 0.045715
0.054047 0.054047 0.054047
0.062805 0.062805 0.062805
0.072021 0.072021 0.072021
0.081787 0.081787 0.081787
0.092346 0.092346 0.092346
0.103668 0.103668 0.103668
0.115784 0.115784 0.115784
0.128632 0.128632 0.128632
0.142151 0.142151 0.142151
0.156219 0.156219 0.156219
0.171021 0.171021 0.171021
0.186340 0.186340 0.186340
0.202179 0.202179 0.202179
0.218506 0.218506 0.218506
0.235229 0.235229 0.235229
0.252350 0.252350 0.252350
0.269867 0.269867 0.269867
0.287689 0.287689 0.287659
0.305786 0.305817 0.305756
0.324158 0.324219 0.324127
0.342712 0.342773 0.342682
0.361481 0.361572 0.361450
0.380402 0.380493 0.380402
0.399475 0.399536 0.399475
0.418640 0.418701 0.418640
0.437866 0.437958 0.437866
0.457184 0.457245 0.457184
0.476471 0.476532 0.476471
0.495728 0.495789 0.495697
0.514893 0.514984 0.514862
0.533966 0.534027 0.533936
0.043640 0.043640 0.043640
0.052032 0.052032 0.052032
0.060577 0.060577 0.060577
0.069611 0.069611 0.069611
0.079285 0.079285 0.079285
0.089722 0.089722 0.089722
0.100830 0.100830 0.100830
0.112762 0.112762 0.112762
0.125336 0.125336 0.125336
0.138702 0.138702 0.138702
0.152771 0.152771 0.152771
0.167328 0.167328 0.167328
0.182495 0.182495 0.182495
0.198242 0.198242 0.198242
0.214478 0.214478 0.214478
0.231140 0.231140 0.231140
0.248199 0.248199 0.248199
0.265533 0.265533 0.265533
0.283295 0.283295 0.283295
0.301331 0.301361 0.301300
0.319672 0.319672 0.319611
0.338165 0.338226 0.338135
0.356873 0.356964 0.356873
0.375763 0.375854 0.375763
0.394806 0.394897 0.394806
0.413971 0.414032 0.413971
0.433197 0.433258 0.433197
0.452454 0.452545 0.452454
0.471741 0.471832 0.471741
0.490997 0.491058 0.490997
0.510223 0.510284 0.510223
0.529388 0.529449 0.529358
0.548401 0.548462 0.548370
0.049866 0.049866 0.049866
0.058502 0.058502 0.058502
0.067444 0.067444 0.067444
0.076843 0.076843 0.076843
0.087067 0.087067 0.087067
0.097992 0.097992 0.097992
0.109741 0.109741 0.109741
0.122223 0.122223 0.122223
0.135345 0.135345 0.135345
0.149200 0.149200 0.149200
0.163727 0.163727 0.163727
0.178802 0.178802 0.178802
0.194366 0.194366 0.194366
0.210449 0.210449 0.210449
0.226990 0.226990 0.226990
0.243988 0.243988 0.243988
0.261322 0.261322 0.261322
0.278961 0.278961 0.278961
0.296936 0.296936 0.296906
0.315186 0.315216 0.315125
0.333649 0.333710 0.333618
0.352325 0.352386 0.352295
0.371155 0.371216 0.371124
0.390167 0.390259 0.390167
0.409302 0.409393 0.409302
0.428467 0.428558 0.428467
0.447723 0.447815 0.447723
0.467041 0.467133 0.467041
0.486328 0.486389 0.486328
0.505554 0.505615 0.505524
0.524689 0.524750 0.524658
0.543762 0.543854 0.543732
0.562653 0.562744 0.562622
0.056152 0.056152 0.056152
0.065216 0.065216 0.065216
0.074615 0.074615 0.074615
0.084534 0.084534 0.084534
0.095245 0.095245 0.095245
0.106781 0.106781 0.106781
0.119080 0.119080 0.119080
0.132141 0.132141 0.132141
0.145782 0.145782 0.145782
0.160095 0.160095 0.160095
0.175018 0.175018 0.175018
0.190491 0.190491 0.190491
0.206482 0.206482 0.206482
0.222931 0.222931 0.222931
0.239807 0.239807 0.239807
0.257080 0.257080 0.257080
0.274658 0.274658 0.274628
0.292511 0.292511 0.292480
0.310699 0.310730 0.310669
0.329132 0.329193 0.329102
0.347748 0.347809 0.347717
0.366547 0.366608 0.366516
0.385498 0.385590 0.385498
0.404602 0.404694 0.404602
0.423828 0.423920 0.423828
0.443054 0.443115 0.443054
0.462280 0.462341 0.462280
0.481628 0.481689 0.481598
0.500885 0.500946 0.500854
0.520050 0.520111 0.520020
0.539124 0.539215 0.539093
0.558044 0.558167 0.558044
0.576813 0.576874 0.576782
0.062866 0.062866 0.062866
0.072235 0.072235 0.072235
0.082031 0.082031 0.082031
0.092560 0.092560 0.092560
0.103912 0.103912 0.103912
0.116028 0.116028 0.116028
0.128906 0.128906 0.128906
0.142395 0.142395 0.142395
0.156555 0.156555 0.156555
0.171326 0.171326 0.171326
0.186676 0.186676 0.186676
0.202545 0.202545 0.202545
0.218842 0.218842 0.218842
0.235687 0.235687 0.235687
0.252808 0.252808 0.252808
0.270386 0.270386 0.270386
0.288177 0.288177 0.288177
0.306274 0.306305 0.306244
0.324615 0.324646 0.324554
0.343201 0.343262 0.343170
0.361969 0.362061 0.361938
0.380859 0.380951 0.380859
0.399933 0.400024 0.399933
0.419128 0.419220 0.419128
0.438385 0.438477 0.438385
0.457672 0.457733 0.457672
0.476898 0.476959 0.476898
0.496185 0.496246 0.496155
0.515442 0.515503 0.515411
0.534515 0.534576 0.534485
0.553467 0.553528 0.553436
0.572296 0.572388 0.572296
0.590881 0.590973 0.590881
0.069977 0.069977 0.069977
0.079651 0.079651 0.079651
0.089935 0.089935 0.089935
0.101044 0.101044 0.101044
0.113007 0.113007 0.113007
0.125641 0.125641 0.125641
0.139069 0.139069 0.139069
0.153076 0.153076 0.153076
0.167664 0.167664 0.167664
0.182892 0.182892 0.182892
0.198669 0.198669 0.198669
0.214874 0.214874 0.214874
0.231567 0.231567 0.231567
0.248627 0.248627 0.248627
0.266083 0.266083 0.266083
0.283844 0.283844 0.283813
0.301880 0.301880 0.301849
0.320160 0.320190 0.320099
0.338684 0.338745 0.338654
0.357361 0.357452 0.357361
0.376251 0.376343 0.376251
0.395294 0.395386 0.395294
0.414429 0.414520 0.414429
0.433685 0.433777 0.433685
0.452972 0.453033 0.452972
0.472260 0.472321 0.472229
0.491486 0.491547 0.491455
0.510712 0.510773 0.510681
0.529877 0.529938 0.529846
0.548889 0.548981 0.548859
0.567719 0.567810 0.567688
0.586395 0.586487 0.586395
0.604858 0.604919 0.604858
0.077240 0.077240 0.077240
0.087494 0.087494 0.087494
0.098328 0.098328 0.098328
0.110016 0.110016 0.110016
0.122498 0.122498 0.122498
0.135681 0.135681 0.135681
0.149567 0.149567 0.149567
0.164093 0.164093 0.164093
0.179108 0.179108 0.179108
0.194733 0.194733 0.194733
0.210907 0.210907 0.210907
0.227478 0.227478 0.227478
0.244446 0.244446 0.244446
0.261810 0.261810 0.261810
0.279480 0.279480 0.279480
0.297455 0.297455 0.297424
0.315704 0.315735 0.315674
0.334137 0.334198 0.334106
0.352783 0.352875 0.352753
0.371643 0.371735 0.371643
0.390656 0.390717 0.390656
0.409729 0.409821 0.409729
0.428955 0.429047 0.428955
0.448273 0.448334 0.448273
0.467560 0.467621 0.467560
0.486847 0.486908 0.486816
0.505981 0.506073 0.505981
0.525208 0.525269 0.525177
0.544250 0.544342 0.544220
0.563141 0.563232 0.563110
0.581848 0.581940 0.581848
0.600342 0.600433 0.600342
0.618591 0.618683 0.618591
0.084900 0.084900 0.084900
0.095734 0.095734 0.095734
0.107147 0.107147 0.107147
0.119415 0.119415 0.119415
0.132385 0.132385 0.132385
0.146118 0.146118 0.146118
0.160431 0.160431 0.160431
0.175446 0.175446 0.175446
0.190887 0.190887 0.190887
0.206879 0.206879 0.206879
0.223358 0.223358 0.223358
0.240295 0.240295 0.240295
0.257507 0.257507 0.257507
0.275116 0.275116 0.275116
0.292999 0.292999 0.292969
0.311188 0.311218 0.311157
0.329620 0.329681 0.329590
0.348267 0.348328 0.348236
0.367065 0.367157 0.367065
0.386017 0.386108 0.386017
0.405121 0.405212 0.405121
0.424316 0.424377 0.424316
0.443542 0.443604 0.443542
0.462830 0.462891 0.462830
0.482117 0.482178 0.482117
0.501373 0.501465 0.501373
0.520538 0.520599 0.520508
0.539612 0.539673 0.539551
0.558563 0.558655 0.558533
0.577332 0.577423 0.577301
0.595825 0.595947 0.595825
0.614166 0.614258 0.614166
0.632172 0.632263 0.632172
0.092987 0.092987 0.092987
0.104370 0.104370 0.104370
0.116455 0.116455 0.116455
0.129242 0.129242 0.129242
0.142731 0.142731 0.142731
0.156921 0.156921 0.156921
0.171753 0.171753 0.171753
0.187103 0.187103 0.187103
0.202942 0.202942 0.202942
0.219299 0.219299 0.219299
0.236084 0.236084 0.236084
0.253265 0.253265 0.253265
0.270844 0.270844 0.270844
0.288605 0.288605 0.288574
0.306763 0.306763 0.306702
0.325134 0.325165 0.325073
0.343658 0.343719 0.343628
0.362457 0.362549 0.362457
0.381378 0.381470 0.381378
0.400452 0.400513 0.400452
0.419647 0.419739 0.419647
0.438873 0.438934 0.438873
0.458130 0.458191 0.458130
0.477448 0.477509 0.477448
0.496674 0.496735 0.496643
0.515839 0.515900 0.515808
0.534973 0.535034 0.534943
0.553955 0.554047 0.553925
0.572723 0.572815 0.572723
0.591400 0.591492 0.591370
0.609711 0.609802 0.609711
0.627838 0.627960 0.627838
0.645599 0.645691 0.645569
0.101501 0.101501 0.101501
0.113464 0.113464 0.113464
0.126190 0.126190 0.126190
0.139404 0.139404 0.139404
0.153442 0.153442 0.153442
0.168030 0.168030 0.168030
0.183350 0.183350 0.183350
0.199066 0.199066 0.199066
0.215271 0.215271 0.215271
0.231964 0.231964 0.231964
0.249054 0.249054 0.249054
0.266479 0.266479 0.266479
0.284241 0.284241 0.284241
0.302307 0.302307 0.302277
0.320618 0.320648 0.320557
0.339172 0.339233 0.339142
0.357880 0.357971 0.357880
0.376740 0.376801 0.376740
0.395782 0.395874 0.395782
0.414917 0.415009 0.414917
0.434174 0.434265 0.434174
0.453430 0.453522 0.453430
0.472687 0.472748 0.472687
0.491974 0.492035 0.491943
0.511200 0.511261 0.511169
0.530334 0.530396 0.530304
0.549347 0.549408 0.549316
0.568207 0.568298 0.568176
0.586853 0.586945 0.586853
0.605286 0.605377 0.605286
0.623474 0.623566 0.623444
0.641327 0.641449 0.641327
0.658875 0.658966 0.658844
0.110504 0.110504 0.110504
0.123047 0.123047 0.123047
0.136230 0.136230 0.136230
0.149994 0.149994 0.149994
0.164490 0.164490 0.164490
0.179535 0.179535 0.179535
0.195190 0.195190 0.195190
0.211243 0.211243 0.211243
0.227875 0.227875 0.227875
0.244843 0.244843 0.244843
0.262207 0.262207 0.262207
0.279877 0.279877 0.279877
0.297852 0.297852 0.297821
0.316101 0.316132 0.316071
0.334595 0.334656 0.334564
0.353302 0.353363 0.353271
0.372162 0.372253 0.372162
0.391144 0.391235 0.391144
0.410278 0.410370 0.410278
0.429443 0.429535 0.429443
0.448761 0.448853 0.448761
0.468079 0.468140 0.468079
0.487274 0.487335 0.487274
0.506470 0.506531 0.506439
0.525665 0.525757 0.525635
0.544739 0.544800 0.544708
0.563629 0.563721 0.563599
0.582336 0.582428 0.582306
0.600830 0.600922 0.600830
0.619019 0.619110 0.619019
0.636993 0.637115 0.636993
0.654663 0.654755 0.654633
0.671906 0.671997 0.671875
0.119904 0.119904 0.119904
0.133118 0.133118 0.133118
0.146729 0.146729 0.146729
0.161011 0.161011 0.161011
0.175873 0.175873 0.175873
0.191284 0.191284 0.191284
0.207306 0.207306 0.207306
0.223755 0.223755 0.223755
0.240662 0.240662 0.240662
0.257935 0.257935 0.257935
0.275574 0.275574 0.275574
0.293457 0.293457 0.293457
0.311676 0.311707 0.311615
0.330078 0.330109 0.330017
0.348694 0.348785 0.348663
0.367554 0.367645 0.367554
0.386475 0.386566 0.386475
0.405609 0.405701 0.405609
0.424805 0.424866 0.424805
0.444061 0.444153 0.444061
0.463287 0.463379 0.463287
0.482666 0.482758 0.482666
0.501892 0.501953 0.501892
0.520996 0.521088 0.520966
0.540039 0.540100 0.540009
0.558960 0.559052 0.558929
0.577789 0.577881 0.577759
0.596313 0.596436 0.596313
0.614594 0.614685 0.614594
0.632629 0.632721 0.632599
0.650330 0.650421 0.650299
0.667755 0.667847 0.667725
0.684662 0.684753 0.684662
0.129639 0.129639 0.129639
0.143372 0.143372 0.143372
0.157532 0.157532 0.157532
0.172272 0.172272 0.172272
0.187561 0.187561 0.187561
0.203369 0.203369 0.203369
0.219757 0.219757 0.219757
0.236542 0.236542 0.236542
0.253754 0.253754 0.253754
0.271240 0.271240 0.271240
0.289093 0.289093 0.289062
0.307251 0.307251 0.307190
0.325592 0.325653 0.325562
0.344208 0.344299 0.344177
0.362946 0.363037 0.362946
0.381866 0.381958 0.381866
0.400940 0.401031 0.400940
0.420105 0.420166 0.420105
0.439331 0.439423 0.439331
0.458618 0.458679 0.458618
0.477905 0.477966 0.477905
0.497162 0.497253 0.497162
0.516449 0.516541 0.516418
0.535492 0.535583 0.535461
0.554443 0.554535 0.554413
0.573242 0.573303 0.573212
0.591736 0.591827 0.591736
0.610138 0.610229 0.610107
0.628235 0.628357 0.628235
0.646057 0.646149 0.646057
0.663513 0.663605 0.663483
0.680511 0.680603 0.680481
0.697144 0.697266 0.697144
0.139984 0.139984 0.139984
0.154053 0.154053 0.154053
0.168762 0.168762 0.168762
0.183929 0.183929 0.183929
0.199554 0.199554 0.199554
0.215729 0.215729 0.215729
0.232422 0.232422 0.232422
0.249481 0.249481 0.249481
0.266998 0.266998 0.266998
0.284790 0.284790 0.284760
0.302826 0.302856 0.302795
0.321136 0.321167 0.321075
0.339661 0.339722 0.339630
0.358368 0.358459 0.358368
0.377289 0.377380 0.377289
0.396332 0.396423 0.396332
0.415436 0.415527 0.415436
0.434631 0.434723 0.434631
0.453949 0.454041 0.453949
0.473236 0.473297 0.473236
0.492462 0.492523 0.492432
0.511688 0.511749 0.511658
0.530823 0.530914 0.530792
0.549866 0.549957 0.549835
0.568634 0.568756 0.568634
0.587311 0.587402 0.587311
0.605713 0.605804 0.605713
0.623871 0.623962 0.623840
0.641754 0.641846 0.641724
0.659271 0.659363 0.659271
0.676453 0.676544 0.676422
0.693146 0.693237 0.693115
0.709412 0.709503 0.709381
0.150635 0.150635 0.150635
0.165192 0.165192 0.165192
0.180206 0.180206 0.180206
0.195740 0.195740 0.195740
0.211823 0.211823 0.211823
0.228363 0.228363 0.228363
0.245300 0.245300 0.245300
0.262665 0.262665 0.262665
0.280396 0.280396 0.280365
0.298401 0.298401 0.298370
0.316711 0.316742 0.316650
0.335175 0.335205 0.335114
0.353851 0.353912 0.353821
0.372681 0.372772 0.372650
0.391663 0.391754 0.391663
0.410828 0.410919 0.410828
0.429993 0.430054 0.429993
0.449219 0.449280 0.449219
0.468506 0.468597 0.468506
0.487823 0.487915 0.487823
0.506989 0.507050 0.506958
0.526123 0.526184 0.526093
0.545197 0.545288 0.545166
0.564087 0.564178 0.564056
0.582733 0.582825 0.582703
0.601288 0.601379 0.601257
0.619415 0.619537 0.619415
0.637482 0.637573 0.637451
0.655060 0.655151 0.655060
0.672272 0.672363 0.672241
0.689148 0.689240 0.689117
0.705505 0.705597 0.705475
0.721436 0.721527 0.721405
0.161438 0.161438 0.161438
0.176697 0.176697 0.176697
0.191986 0.191986 0.191986
0.207916 0.207916 0.207916
0.224365 0.224365 0.224365
0.241211 0.241211 0.241211
0.258484 0.258484 0.258484
0.276093 0.276093 0.276093
0.294006 0.294006 0.293976
0.312164 0.312195 0.312134
0.330688 0.330719 0.330627
0.349274 0.349365 0.349274
0.368103 0.368195 0.368103
0.387054 0.387146 0.387054
0.406128 0.406219 0.406128
0.425354 0.425415 0.425354
0.444580 0.444672 0.444580
0.463806 0.463898 0.463806
0.483124 0.483185 0.483093
0.502350 0.502411 0.502350
0.521515 0.521576 0.521484
0.540588 0.540649 0.540558
0.559479 0.559540 0.559448
0.578186 0.578308 0.578186
0.596771 0.596893 0.596771
0.615051 0.615173 0.615051
0.633057 0.633179 0.633057
0.650757 0.650879 0.650757
0.668182 0.668274 0.668152
0.685028 0.685150 0.685028
0.701599 0.701721 0.701569
0.717590 0.717682 0.717560
0.733093 0.733185 0.733063
0.172791 0.172791 0.172791
0.188568 0.188568 0.188568
0.204193 0.204193 0.204193
0.220459 0.220459 0.220459
0.237183 0.237183 0.237183
0.254303 0.254303 0.254303
0.271851 0.271851 0.271851
0.289642 0.289642 0.289612
0.307800 0.307800 0.307739
0.326141 0.326172 0.326080
0.344696 0.344757 0.344666
0.363464 0.363525 0.363434
0.382355 0.382477 0.382355
0.401489 0.401550 0.401489
0.420654 0.420746 0.420654
0.439911 0.440002 0.439911
0.459167 0.459229 0.459167
0.478424 0.478516 0.478424
0.497681 0.497742 0.497650
0.516937 0.516998 0.516907
0.535980 0.536041 0.535950
0.554932 0.555023 0.554901
0.573761 0.573853 0.573761
0.592285 0.592407 0.592285
0.610596 0.610687 0.610596
