滤镜资源/Professional Luts Collection/Lutify.me Professional/Black & White Films/Baryte.cube
# Created by: Lutify.me
# Copyright: (c) Copyright Lutify.me 2015
# Website: https://lutify.me
#LUT size
LUT_3D_SIZE 9
#LUT data points
0.000000 0.000000 0.000000
0.015594 0.015594 0.015594
0.041107 0.041107 0.041107
0.076080 0.076080 0.076080
0.121124 0.121124 0.121124
0.177521 0.177521 0.177521
0.242584 0.242584 0.242584
0.313782 0.313782 0.313721
0.388672 0.388763 0.388672
0.011322 0.011322 0.011322
0.033356 0.033356 0.033356
0.066925 0.066925 0.066925
0.109131 0.109131 0.109131
0.162872 0.162872 0.162872
0.226074 0.226074 0.226074
0.295990 0.295990 0.295959
0.370148 0.370239 0.370148
0.446716 0.446808 0.446716
0.026611 0.026611 0.026611
0.058197 0.058197 0.058197
0.097839 0.097839 0.097839
0.148834 0.148834 0.148834
0.209991 0.209991 0.209991
0.278503 0.278503 0.278503
0.351837 0.351898 0.351807
0.428009 0.428070 0.428009
0.505005 0.505066 0.504974
0.049866 0.049866 0.049866
0.087067 0.087067 0.087067
0.135345 0.135345 0.135345
0.194366 0.194366 0.194366
0.261322 0.261322 0.261322
0.333649 0.333710 0.333618
0.409302 0.409393 0.409302
0.486328 0.486389 0.486328
0.562653 0.562744 0.562622
0.077240 0.077240 0.077240
0.122498 0.122498 0.122498
0.179108 0.179108 0.179108
0.244446 0.244446 0.244446
0.315704 0.315735 0.315674
0.390656 0.390717 0.390656
0.467560 0.467621 0.467560
0.544250 0.544342 0.544220
0.618591 0.618683 0.618591
0.110504 0.110504 0.110504
0.164490 0.164490 0.164490
0.227875 0.227875 0.227875
0.297852 0.297852 0.297821
0.372162 0.372253 0.372162
0.448761 0.448853 0.448761
0.525665 0.525757 0.525635
0.600830 0.600922 0.600830
0.671906 0.671997 0.671875
0.150635 0.150635 0.150635
0.211823 0.211823 0.211823
0.280396 0.280396 0.280365
0.353851 0.353912 0.353821
0.429993 0.430054 0.429993
0.506989 0.507050 0.506958
0.582733 0.582825 0.582703
0.655060 0.655151 0.655060
0.721436 0.721527 0.721405
0.196533 0.196533 0.196533
0.263367 0.263367 0.263367
0.335693 0.335754 0.335632
0.411255 0.411346 0.411255
0.488373 0.488434 0.488342
0.564606 0.564697 0.564575
0.637939 0.638031 0.637909
0.705963 0.706085 0.705933
0.766144 0.766266 0.766113
0.247467 0.247467 0.247467
0.318054 0.318054 0.317993
0.392883 0.392975 0.392883
0.469635 0.469696 0.469635
0.546295 0.546387 0.546265
0.620575 0.620697 0.620575
0.690063 0.690186 0.690033
0.752289 0.752411 0.752258
0.806000 0.806122 0.806000
0.010437 0.010437 0.010437
0.031342 0.031342 0.031342
0.064240 0.064240 0.064240
0.105560 0.105560 0.105560
0.158600 0.158600 0.158600
0.221191 0.221191 0.221191
0.290710 0.290710 0.290710
0.364655 0.364777 0.364655
0.441132 0.441223 0.441132
0.024872 0.024872 0.024872
0.055603 0.055603 0.055603
0.094574 0.094574 0.094574
0.144806 0.144806 0.144806
0.205292 0.205292 0.205292
0.273285 0.273285 0.273285
0.346375 0.346405 0.346344
0.422333 0.422394 0.422333
0.499329 0.499390 0.499298
0.047455 0.047455 0.047455
0.084106 0.084106 0.084106
0.131653 0.131653 0.131653
0.189789 0.189789 0.189789
0.256195 0.256195 0.256195
0.328217 0.328247 0.328156
0.403687 0.403748 0.403687
0.480652 0.480713 0.480652
0.557129 0.557190 0.557098
0.074280 0.074280 0.074280
0.118896 0.118896 0.118896
0.174774 0.174774 0.174774
0.239471 0.239471 0.239471
0.310303 0.310333 0.310272
0.385040 0.385162 0.385040
0.461853 0.461945 0.461853
0.538635 0.538696 0.538605
0.613251 0.613342 0.613251
0.106903 0.106903 0.106903
0.160187 0.160187 0.160187
0.222961 0.222961 0.222961
0.292633 0.292633 0.292603
0.366608 0.366699 0.366608
0.443085 0.443146 0.443085
0.520020 0.520111 0.519989
0.595367 0.595459 0.595367
0.666809 0.666901 0.666779
0.146332 0.146332 0.146332
0.207001 0.207001 0.207001
0.275177 0.275177 0.275177
0.348267 0.348328 0.348236
0.424347 0.424438 0.424347
0.501343 0.501404 0.501312
0.577271 0.577332 0.577240
0.649872 0.649963 0.649841
0.716705 0.716827 0.716705
0.191589 0.191589 0.191589
0.258118 0.258118 0.258118
0.330170 0.330200 0.330109
0.405640 0.405731 0.405640
0.482635 0.482697 0.482605
0.558990 0.559082 0.558960
0.632568 0.632660 0.632568
0.701050 0.701172 0.701050
0.761902 0.762024 0.761871
0.241882 0.241882 0.241882
0.312439 0.312469 0.312408
0.387115 0.387207 0.387115
0.463867 0.463928 0.463867
0.540619 0.540680 0.540588
0.615051 0.615143 0.615051
0.684998 0.685120 0.684967
0.747864 0.747986 0.747833
0.802216 0.802338 0.802185
0.295288 0.295288 0.295288
0.368958 0.369019 0.368927
0.445282 0.445343 0.445282
0.522095 0.522156 0.522064
0.597351 0.597443 0.597351
0.668610 0.668701 0.668579
0.733459 0.733551 0.733429
0.789764 0.789886 0.789734
0.838104 0.838226 0.838074
0.023163 0.023163 0.023163
0.053101 0.053101 0.053101
0.091339 0.091339 0.091339
0.140656 0.140656 0.140656
0.200500 0.200500 0.200500
0.268097 0.268097 0.268097
0.340881 0.340912 0.340820
0.416748 0.416809 0.416748
0.493805 0.493896 0.493805
0.044861 0.044861 0.044861
0.081146 0.081146 0.081146
0.127747 0.127747 0.127747
0.185181 0.185181 0.185181
0.251129 0.251129 0.251129
0.322815 0.322845 0.322754
0.398041 0.398132 0.398041
0.475037 0.475098 0.475037
0.551544 0.551636 0.551514
0.071594 0.071594 0.071594
0.115234 0.115234 0.115234
0.170410 0.170410 0.170410
0.234497 0.234497 0.234497
0.304962 0.304993 0.304932
0.379486 0.379578 0.379486
0.456207 0.456268 0.456207
0.533020 0.533112 0.532990
0.607849 0.607941 0.607849
0.103424 0.103424 0.103424
0.155975 0.155975 0.155975
0.218201 0.218201 0.218201
0.287354 0.287354 0.287354
0.361084 0.361176 0.361053
0.437408 0.437500 0.437408
0.514435 0.514496 0.514404
0.589905 0.589996 0.589905
0.661713 0.661804 0.661682
0.142059 0.142059 0.142059
0.202209 0.202209 0.202209
0.270020 0.270020 0.269989
0.342834 0.342896 0.342804
0.418701 0.418762 0.418701
0.495667 0.495728 0.495667
0.571747 0.571838 0.571716
0.644684 0.644775 0.644653
0.712036 0.712128 0.712006
0.186859 0.186859 0.186859
0.252899 0.252899 0.252899
0.324707 0.324738 0.324677
0.399994 0.400085 0.399994
0.476929 0.476990 0.476898
0.553375 0.553467 0.553345
0.627258 0.627350 0.627258
0.696198 0.696320 0.696167
0.757690 0.757812 0.757660
0.236420 0.236420 0.236420
0.306946 0.306946 0.306915
0.381500 0.381592 0.381500
0.458160 0.458252 0.458160
0.534973 0.535034 0.534943
0.609619 0.609711 0.609619
0.679962 0.680054 0.679932
0.743469 0.743591 0.743439
0.798462 0.798584 0.798431
0.290009 0.290009 0.289978
0.363251 0.363342 0.363220
0.439484 0.439545 0.439484
0.516388 0.516449 0.516357
0.591797 0.591888 0.591766
0.663391 0.663513 0.663391
0.728790 0.728882 0.728760
0.785767 0.785889 0.785736
0.834778 0.834900 0.834747
0.345917 0.345978 0.345886
0.421112 0.421204 0.421112
0.497772 0.497833 0.497742
0.573761 0.573853 0.573761
0.646515 0.646606 0.646484
0.713654 0.713745 0.713623
0.772736 0.772858 0.772736
0.823517 0.823669 0.823517
0.867188 0.867310 0.867157
0.042572 0.042572 0.042572
0.078064 0.078064 0.078064
0.123749 0.123749 0.123749
0.180634 0.180634 0.180634
0.246033 0.246033 0.246033
0.317383 0.317413 0.317352
0.392456 0.392548 0.392456
0.469391 0.469452 0.469391
0.546082 0.546173 0.546051
0.068756 0.068756 0.068756
0.111633 0.111633 0.111633
0.165955 0.165955 0.165955
0.229523 0.229523 0.229523
0.299622 0.299622 0.299591
0.373932 0.374023 0.373932
0.450562 0.450623 0.450562
0.527435 0.527496 0.527405
0.602509 0.602600 0.602509
0.099884 0.099884 0.099884
0.151703 0.151703 0.151703
0.213348 0.213348 0.213348
0.282135 0.282135 0.282104
0.355560 0.355652 0.355560
0.431763 0.431854 0.431763
0.508789 0.508850 0.508759
0.584473 0.584564 0.584473
0.656647 0.656738 0.656616
0.138062 0.138062 0.138062
0.197540 0.197540 0.197540
0.264862 0.264862 0.264862
0.337372 0.337433 0.337311
0.413055 0.413147 0.413055
0.490021 0.490112 0.490021
0.566223 0.566315 0.566223
0.639465 0.639557 0.639435
0.707275 0.707367 0.707245
0.182312 0.182312 0.182312
0.247894 0.247894 0.247894
0.319305 0.319366 0.319305
0.394409 0.394501 0.394409
0.471283 0.471344 0.471283
0.547852 0.547913 0.547821
0.621979 0.622040 0.621948
0.691345 0.691467 0.691345
0.753448 0.753571 0.753418
0.231354 0.231354 0.231354
0.301544 0.301575 0.301544
0.375885 0.375977 0.375885
0.452515 0.452576 0.452515
0.529327 0.529388 0.529297
0.604218 0.604309 0.604187
0.674957 0.675049 0.674927
0.739075 0.739166 0.739044
0.794678 0.794769 0.794647
0.284241 0.284241 0.284210
0.357666 0.357758 0.357666
0.433777 0.433838 0.433777
0.510742 0.510803 0.510712
0.586304 0.586395 0.586273
0.658234 0.658356 0.658234
0.724121 0.724243 0.724121
0.781830 0.781952 0.781830
0.831390 0.831512 0.831360
0.339905 0.339966 0.339844
0.415314 0.415375 0.415314
0.492157 0.492218 0.492126
0.568176 0.568268 0.568176
0.641235 0.641327 0.641235
0.708832 0.708954 0.708832
0.768585 0.768677 0.768555
0.819977 0.820099 0.819946
0.864166 0.864288 0.864136
0.397308 0.397400 0.397308
0.473633 0.473694 0.473633
0.550018 0.550079 0.549988
0.623901 0.623993 0.623871
0.693085 0.693176 0.693054
0.754883 0.755005 0.754852
0.808228 0.808350 0.808197
0.854034 0.854156 0.854004
0.893555 0.893707 0.893555
0.066010 0.066010 0.066010
0.107880 0.107880 0.107880
0.161530 0.161530 0.161530
0.224518 0.224518 0.224518
0.294342 0.294342 0.294312
0.368378 0.368469 0.368347
0.444946 0.445038 0.444946
0.521912 0.522003 0.521881
0.597198 0.597321 0.597198
0.096527 0.096527 0.096527
0.147522 0.147522 0.147522
0.208466 0.208466 0.208466
0.276855 0.276855 0.276855
0.350067 0.350159 0.350067
0.426147 0.426208 0.426147
0.503174 0.503235 0.503143
0.579041 0.579163 0.579041
0.651520 0.651611 0.651520
0.134003 0.134003 0.134003
0.192810 0.192810 0.192810
0.259674 0.259674 0.259674
0.331909 0.331940 0.331879
0.407440 0.407532 0.407440
0.484406 0.484467 0.484406
0.560760 0.560822 0.560730
0.634247 0.634338 0.634247
0.702606 0.702728 0.702606
0.177612 0.177612 0.177612
0.242767 0.242767 0.242767
0.313934 0.313965 0.313904
0.388794 0.388885 0.388794
0.465637 0.465698 0.465637
0.542297 0.542358 0.542267
0.616669 0.616760 0.616669
0.686493 0.686584 0.686462
0.749176 0.749298 0.749176
0.226227 0.226227 0.226227
0.296204 0.296204 0.296173
0.370331 0.370392 0.370300
0.446869 0.446930 0.446869
0.523712 0.523804 0.523712
0.598816 0.598907 0.598816
0.669952 0.670044 0.669922
0.734619 0.734711 0.734589
0.790833 0.790955 0.790802
0.279022 0.279022 0.279022
0.351990 0.352081 0.351990
0.428131 0.428192 0.428131
0.505096 0.505157 0.505066
0.580811 0.580902 0.580811
0.653076 0.653168 0.653046
0.719513 0.719635 0.719482
0.777832 0.777954 0.777832
0.827972 0.828094 0.827942
0.334198 0.334259 0.334167
0.409546 0.409637 0.409546
0.486450 0.486511 0.486420
0.562653 0.562714 0.562622
0.635956 0.636047 0.635925
0.704010 0.704132 0.703979
0.764374 0.764496 0.764374
0.816437 0.816559 0.816406
0.861115 0.861237 0.861084
0.391632 0.391724 0.391632
0.467865 0.467926 0.467865
0.544373 0.544434 0.544342
0.618591 0.618683 0.618561
0.688141 0.688232 0.688110
0.750519 0.750641 0.750519
0.804474 0.804596 0.804443
0.850800 0.850922 0.850769
0.890808 0.890961 0.890778
0.450073 0.450134 0.450073
0.526154 0.526215 0.526123
0.600983 0.601074 0.600983
0.671875 0.671997 0.671875
0.736176 0.736298 0.736176
0.792145 0.792267 0.792114
0.840210 0.840332 0.840179
0.881592 0.881744 0.881592
0.917603 0.917755 0.917572
0.093262 0.093262 0.093262
0.143280 0.143280 0.143280
0.203674 0.203674 0.203674
0.271606 0.271606 0.271606
0.344574 0.344635 0.344543
0.420502 0.420593 0.420502
0.497559 0.497620 0.497559
0.573639 0.573730 0.573608
0.646484 0.646576 0.646454
0.130035 0.130035 0.130035
0.188202 0.188202 0.188202
0.254486 0.254486 0.254486
0.326447 0.326508 0.326416
0.401794 0.401886 0.401794
0.478760 0.478821 0.478760
0.555237 0.555328 0.555237
0.629059 0.629150 0.629028
0.697876 0.697998 0.697845
0.173126 0.173126 0.173126
0.237701 0.237701 0.237701
0.308563 0.308563 0.308502
0.383209 0.383301 0.383209
0.459991 0.460052 0.459991
0.536713 0.536804 0.536682
0.611359 0.611481 0.611359
0.681641 0.681732 0.681610
0.744934 0.745056 0.744934
0.221313 0.221313 0.221313
0.290802 0.290802 0.290771
0.364746 0.364838 0.364746
0.441193 0.441284 0.441193
0.518127 0.518188 0.518097
0.593445 0.593536 0.593414
0.664978 0.665070 0.664948
0.730194 0.730316 0.730164
0.787048 0.787170 0.787018
0.273499 0.273499 0.273499
0.346527 0.346588 0.346497
0.422455 0.422546 0.422455
0.499451 0.499512 0.499420
0.575348 0.575439 0.575317
0.647949 0.648041 0.647919
0.714905 0.715027 0.714874
0.773895 0.774017 0.773865
0.824554 0.824707 0.824554
0.328735 0.328796 0.328674
0.403809 0.403900 0.403809
0.480713 0.480804 0.480713
0.557098 0.557190 0.557068
0.630676 0.630768 0.630676
0.699127 0.699249 0.699127
0.760223 0.760345 0.760193
0.812836 0.812958 0.812805
0.858032 0.858154 0.858002
0.385559 0.385651 0.385559
0.462128 0.462219 0.462128
0.538757 0.538818 0.538727
0.613190 0.613281 0.613159
0.683167 0.683258 0.683136
0.746124 0.746246 0.746094
0.800690 0.800812 0.800659
0.847595 0.847717 0.847565
0.888062 0.888184 0.888031
0.444092 0.444153 0.444092
0.520416 0.520508 0.520386
0.595520 0.595612 0.595490
0.666779 0.666870 0.666779
0.731659 0.731781 0.731628
0.788208 0.788330 0.788177
0.836823 0.836945 0.836823
0.878693 0.878815 0.878662
0.915100 0.915253 0.915070
0.502838 0.502899 0.502838
0.577820 0.577942 0.577820
0.650055 0.650146 0.650055
0.716736 0.716858 0.716736
0.775330 0.775452 0.775330
0.825714 0.825836 0.825684
0.869110 0.869232 0.869080
0.906708 0.906830 0.906677
0.939819 0.939972 0.939789
0.126099 0.126099 0.126099
0.183533 0.183533 0.183533
0.249359 0.249359 0.249359
0.321014 0.321014 0.320953
0.396210 0.396301 0.396210
0.473145 0.473236 0.473145
0.549744 0.549835 0.549713
0.623840 0.623932 0.623840
0.693176 0.693268 0.693146
0.168640 0.168640 0.168640
0.232697 0.232697 0.232697
0.303162 0.303162 0.303101
0.377625 0.377716 0.377625
0.454346 0.454407 0.454346
0.531158 0.531250 0.531128
0.606049 0.606140 0.606049
0.676727 0.676819 0.676697
0.740631 0.740753 0.740601
0.216400 0.216400 0.216400
0.285522 0.285522 0.285492
0.359222 0.359314 0.359192
0.435547 0.435608 0.435547
0.512543 0.512604 0.512512
0.588074 0.588165 0.588074
0.659973 0.660065 0.659943
0.725739 0.725861 0.725708
0.783234 0.783356 0.783203
0.268219 0.268219 0.268219
0.340973 0.341034 0.340942
0.416809 0.416901 0.416809
0.493805 0.493866 0.493805
0.569916 0.570007 0.569885
0.642853 0.642944 0.642853
0.710297 0.710419 0.710266
0.769897 0.770020 0.769897
0.821167 0.821289 0.821136
0.323029 0.323059 0.322968
0.398163 0.398254 0.398163
0.475067 0.475159 0.475067
0.551575 0.551666 0.551544
0.625458 0.625549 0.625427
0.694458 0.694550 0.694427
0.756073 0.756195 0.756073
0.809326 0.809448 0.809296
0.855011 0.855133 0.854980
0.379852 0.379944 0.379852
0.456390 0.456451 0.456390
0.533112 0.533173 0.533081
0.607849 0.607941 0.607849
0.678253 0.678375 0.678223
0.741791 0.741913 0.741760
0.796967 0.797089 0.796936
0.844421 0.844543 0.844391
0.885284 0.885406 0.885284
0.438080 0.438171 0.438080
0.514709 0.514771 0.514679
0.590027 0.590118 0.590027
0.661682 0.661774 0.661652
0.727142 0.727264 0.727112
0.784302 0.784393 0.784271
0.833435 0.833557 0.833405
0.875824 0.875946 0.875793
0.912567 0.912720 0.912537
0.496552 0.496613 0.496552
0.572266 0.572357 0.572235
0.644836 0.644897 0.644806
0.712036 0.712128 0.712006
0.771271 0.771393 0.771271
0.822205 0.822327 0.822205
0.866058 0.866180 0.866028
0.904053 0.904205 0.904022
0.937531 0.937653 0.937500
0.554718 0.554810 0.554688
0.627899 0.627991 0.627899
0.696472 0.696594 0.696472
0.757751 0.757874 0.757751
0.810608 0.810730 0.810608
0.856049 0.856171 0.856018
0.895294 0.895447 0.895294
0.929718 0.929840 0.929688
0.960602 0.960754 0.960602
0.164246 0.164246 0.164246
0.227692 0.227692 0.227692
0.297821 0.297821 0.297791
0.372040 0.372131 0.372040
0.448700 0.448761 0.448700
0.525635 0.525726 0.525604
0.600769 0.600861 0.600769
0.671844 0.671936 0.671814
0.736359 0.736450 0.736328
0.211548 0.211548 0.211548
0.280304 0.280304 0.280273
0.353668 0.353729 0.353638
0.429901 0.429962 0.429901
0.506958 0.507019 0.506927
0.582703 0.582764 0.582672
0.654938 0.655029 0.654907
0.721252 0.721344 0.721222
0.779327 0.779449 0.779297
0.262939 0.262939 0.262939
0.335480 0.335541 0.335449
0.411194 0.411285 0.411194
0.488190 0.488251 0.488159
0.564453 0.564545 0.564423
0.637726 0.637848 0.637726
0.705719 0.705811 0.705688
0.765900 0.766022 0.765869
0.817719 0.817841 0.817719
0.317474 0.317505 0.317444
0.392548 0.392639 0.392548
0.469421 0.469482 0.469421
0.546021 0.546082 0.545990
0.620239 0.620331 0.620239
0.689728 0.689819 0.689697
0.751953 0.752075 0.751953
0.805725 0.805847 0.805725
0.851929 0.852051 0.851898
0.374176 0.374268 0.374176
0.450684 0.450775 0.450684
0.527527 0.527588 0.527496
0.602478 0.602600 0.602478
0.673309 0.673401 0.673309
0.737518 0.737640 0.737518
0.793304 0.793427 0.793304
0.841217 0.841339 0.841187
0.882507 0.882660 0.882507
0.432007 0.432098 0.432007
0.508972 0.509064 0.508972
0.584564 0.584656 0.584564
0.656616 0.656708 0.656586
0.722626 0.722748 0.722626
0.780426 0.780548 0.780426
0.830139 0.830261 0.830109
0.872925 0.873047 0.872925
0.910065 0.910217 0.910034
0.490967 0.491028 0.490967
0.566589 0.566681 0.566559
0.639587 0.639679 0.639587
0.707306 0.707428 0.707306
0.767212 0.767303 0.767181
0.818726 0.818848 0.818726
0.863037 0.863159 0.863007
0.901428 0.901581 0.901428
0.935181 0.935303 0.935150
0.548676 0.548767 0.548645
0.622406 0.622498 0.622406
0.691559 0.691681 0.691559
0.753510 0.753632 0.753479
0.806946 0.807068 0.806915
0.852905 0.853027 0.852875
0.892578 0.892731 0.892548
0.927307 0.927429 0.927246
0.958435 0.958588 0.958435
0.605530 0.605621 0.605530
0.675720 0.675812 0.675690
0.739380 0.739502 0.739349
0.794800 0.794922 0.794769
0.842407 0.842529 0.842377
0.883484 0.883606 0.883453
0.919250 0.919373 0.919220
0.951111 0.951263 0.951111
0.980499 0.980652 0.980469
0.206696 0.206696 0.206696
0.274933 0.274933 0.274933
0.348114 0.348206 0.348114
0.424225 0.424316 0.424225
0.501312 0.501373 0.501312
0.577271 0.577332 0.577240
0.649872 0.649963 0.649872
0.716766 0.716858 0.716736
0.775452 0.775543 0.775421
0.257721 0.257721 0.257721
0.329956 0.330017 0.329895
0.405457 0.405548 0.405457
0.482513 0.482574 0.482513
0.558960 0.559021 0.558929
0.632538 0.632629 0.632538
0.701050 0.701141 0.701019
0.761810 0.761932 0.761810
0.814178 0.814301 0.814178
0.312012 0.312012 0.311951
0.386749 0.386841 0.386749
0.463715 0.463776 0.463715
0.540466 0.540558 0.540436
0.614929 0.615051 0.614929
0.684906 0.684998 0.684875
0.747772 0.747894 0.747742
0.802124 0.802246 0.802094
0.848755 0.848877 0.848724
0.368378 0.368469 0.368378
0.444885 0.444977 0.444885
0.521851 0.521942 0.521851
0.597076 0.597168 0.597076
0.668365 0.668457 0.668335
0.733185 0.733276 0.733154
0.789581 0.789703 0.789551
0.838013 0.838135 0.837982
0.879700 0.879852 0.879700
0.426453 0.426544 0.426453
0.503265 0.503326 0.503235
0.579041 0.579132 0.579041
0.651520 0.651611 0.651489
0.718079 0.718170 0.718048
0.776550 0.776672 0.776520
0.826843 0.826965 0.826813
0.870056 0.870178 0.870026
0.907532 0.907654 0.907501
0.484619 0.484711 0.484619
0.560913 0.561005 0.560883
0.634369 0.634460 0.634369
0.702576 0.702667 0.702545
0.763092 0.763214 0.763062
0.815216 0.815338 0.815186
0.860046 0.860168 0.860016
0.898834 0.898987 0.898804
0.932831 0.932983 0.932800
0.542938 0.543030 0.542908
0.617035 0.617126 0.617035
0.686676 0.686768 0.686646
0.749237 0.749359 0.749207
0.803314 0.803436 0.803284
0.849731 0.849854 0.849701
0.889832 0.889984 0.889832
0.924896 0.925018 0.924866
0.956238 0.956360 0.956207
0.599884 0.599976 0.599884
0.670502 0.670593 0.670471
0.734924 0.735016 0.734894
0.790955 0.791077 0.790924
0.839111 0.839233 0.839081
0.880615 0.880737 0.880585
0.916748 0.916870 0.916718
0.948853 0.949005 0.948822
0.978363 0.978516 0.978333
0.654663 0.654755 0.654663
0.720245 0.720337 0.720215
0.778198 0.778320 0.778198
0.828125 0.828247 0.828094
0.871094 0.871216 0.871094
0.908417 0.908539 0.908386
0.941345 0.941467 0.941315
0.971375 0.971527 0.971344
0.999908 1.000000 0.999878
