滤镜资源/Professional Luts Collection/Lutify.me Professional/Black & White Films/Bloodstone.cube
# Created by: Lutify.me
# Copyright: (c) Copyright Lutify.me 2015
# Website: https://lutify.me
#LUT size
LUT_3D_SIZE 33
#LUT data points
0.000000 0.000000 0.000000
0.004242 0.004242 0.004242
0.008484 0.008484 0.008484
0.013245 0.013245 0.013245
0.017944 0.017944 0.017944
0.023651 0.023651 0.023651
0.030579 0.030579 0.030579
0.039001 0.039001 0.039001
0.048462 0.048462 0.048462
0.058258 0.058258 0.058258
0.068451 0.068451 0.068451
0.079193 0.079193 0.079193
0.090332 0.090332 0.090332
0.101837 0.101837 0.101837
0.113770 0.113770 0.113770
0.126160 0.126160 0.126160
0.138916 0.138916 0.138916
0.151947 0.151947 0.151947
0.165283 0.165283 0.165283
0.178955 0.178955 0.178955
0.192993 0.192993 0.192993
0.207306 0.207306 0.207306
0.221832 0.221832 0.221832
0.236603 0.236603 0.236603
0.251617 0.251617 0.251617
0.266846 0.266846 0.266846
0.282257 0.282257 0.282227
0.297852 0.297852 0.297821
0.313629 0.313629 0.313568
0.329559 0.329620 0.329529
0.345490 0.345520 0.345428
0.361572 0.361664 0.361572
0.377655 0.377747 0.377655
0.005402 0.005402 0.005402
0.009644 0.009644 0.009644
0.014465 0.014465 0.014465
0.019470 0.019470 0.019470
0.025604 0.025604 0.025604
0.032928 0.032928 0.032928
0.041595 0.041595 0.041595
0.050842 0.050842 0.050842
0.060760 0.060760 0.060760
0.071228 0.071228 0.071228
0.082092 0.082092 0.082092
0.093323 0.093323 0.093323
0.105011 0.105011 0.105011
0.117004 0.117004 0.117004
0.129456 0.129456 0.129456
0.142273 0.142273 0.142273
0.155304 0.155304 0.155304
0.168762 0.168762 0.168762
0.182617 0.182617 0.182617
0.196625 0.196625 0.196625
0.210968 0.210968 0.210968
0.225586 0.225586 0.225586
0.240479 0.240479 0.240479
0.255554 0.255554 0.255554
0.270691 0.270691 0.270691
0.286285 0.286285 0.286255
0.301941 0.301941 0.301880
0.317566 0.317566 0.317535
0.333557 0.333618 0.333496
0.349518 0.349609 0.349487
0.365723 0.365814 0.365723
0.381836 0.381897 0.381836
0.398010 0.398102 0.398010
0.010895 0.010895 0.010895
0.015625 0.015625 0.015625
0.021027 0.021027 0.021027
0.027252 0.027252 0.027252
0.034973 0.034973 0.034973
0.043823 0.043823 0.043823
0.053406 0.053406 0.053406
0.063416 0.063416 0.063416
0.073975 0.073975 0.073975
0.085022 0.085022 0.085022
0.096375 0.096375 0.096375
0.108063 0.108063 0.108063
0.120178 0.120178 0.120178
0.132721 0.132721 0.132721
0.145599 0.145599 0.145599
0.158844 0.158844 0.158844
0.172394 0.172394 0.172394
0.186218 0.186218 0.186218
0.200348 0.200348 0.200348
0.214813 0.214813 0.214813
0.229492 0.229492 0.229492
0.244385 0.244385 0.244385
0.259552 0.259552 0.259552
0.274872 0.274872 0.274872
0.290344 0.290344 0.290314
0.305939 0.305939 0.305878
0.321808 0.321838 0.321747
0.337708 0.337769 0.337677
0.353638 0.353729 0.353638
0.369873 0.369965 0.369873
0.386047 0.386139 0.386047
0.402100 0.402191 0.402100
0.418304 0.418396 0.418304
0.016785 0.016785 0.016785
0.022552 0.022552 0.022552
0.029144 0.029144 0.029144
0.037323 0.037323 0.037323
0.046295 0.046295 0.046295
0.055878 0.055878 0.055878
0.066132 0.066132 0.066132
0.076813 0.076813 0.076813
0.087860 0.087860 0.087860
0.099274 0.099274 0.099274
0.111145 0.111145 0.111145
0.123413 0.123413 0.123413
0.135986 0.135986 0.135986
0.148926 0.148926 0.148926
0.162292 0.162292 0.162292
0.175903 0.175903 0.175903
0.189819 0.189819 0.189819
0.204041 0.204041 0.204041
0.218536 0.218536 0.218536
0.233276 0.233276 0.233276
0.248230 0.248230 0.248230
0.263397 0.263397 0.263397
0.278748 0.278748 0.278748
0.294281 0.294281 0.294250
0.310028 0.310028 0.309967
0.325867 0.325928 0.325806
0.341797 0.341888 0.341797
0.357849 0.357941 0.357849
0.373962 0.374054 0.373962
0.390137 0.390228 0.390137
0.406281 0.406372 0.406281
0.422516 0.422607 0.422516
0.438599 0.438690 0.438599
0.024048 0.024048 0.024048
0.031006 0.031006 0.031006
0.039551 0.039551 0.039551
0.048676 0.048676 0.048676
0.058594 0.058594 0.058594
0.068817 0.068817 0.068817
0.079651 0.079651 0.079651
0.090759 0.090759 0.090759
0.102295 0.102295 0.102295
0.114288 0.114288 0.114288
0.126648 0.126648 0.126648
0.139343 0.139343 0.139343
0.152374 0.152374 0.152374
0.165741 0.165741 0.165741
0.179443 0.179443 0.179443
0.193451 0.193451 0.193451
0.207733 0.207733 0.207733
0.222290 0.222290 0.222290
0.237061 0.237061 0.237061
0.252075 0.252075 0.252075
0.267334 0.267334 0.267334
0.282715 0.282715 0.282715
0.298340 0.298340 0.298309
0.314148 0.314148 0.314087
0.329987 0.330048 0.329926
0.345917 0.346008 0.345886
0.362000 0.362091 0.361969
0.378143 0.378235 0.378143
0.394287 0.394348 0.394287
0.410492 0.410583 0.410492
0.426636 0.426727 0.426636
0.442871 0.442932 0.442871
0.458923 0.459015 0.458923
0.032928 0.032928 0.032928
0.041656 0.041656 0.041656
0.051178 0.051178 0.051178
0.061188 0.061188 0.061188
0.071594 0.071594 0.071594
0.082458 0.082458 0.082458
0.093658 0.093658 0.093658
0.105377 0.105377 0.105377
0.117432 0.117432 0.117432
0.129822 0.129822 0.129822
0.142639 0.142639 0.142639
0.155762 0.155762 0.155762
0.169220 0.169220 0.169220
0.183014 0.183014 0.183014
0.197113 0.197113 0.197113
0.211456 0.211456 0.211456
0.226074 0.226074 0.226074
0.240906 0.240906 0.240906
0.256012 0.256012 0.256012
0.271271 0.271271 0.271271
0.286743 0.286743 0.286743
0.302399 0.302399 0.302338
0.318176 0.318207 0.318115
0.334106 0.334137 0.334045
0.350067 0.350159 0.350037
0.366089 0.366180 0.366089
0.382263 0.382355 0.382263
0.398438 0.398529 0.398438
0.414642 0.414703 0.414642
0.430878 0.430939 0.430878
0.446991 0.447052 0.446991
0.463074 0.463135 0.463074
0.479126 0.479218 0.479126
0.044067 0.044067 0.044067
0.053650 0.053650 0.053650
0.063904 0.063904 0.063904
0.074402 0.074402 0.074402
0.085297 0.085297 0.085297
0.096771 0.096771 0.096771
0.108551 0.108551 0.108551
0.120636 0.120636 0.120636
0.133148 0.133148 0.133148
0.146027 0.146027 0.146027
0.159241 0.159241 0.159241
0.172791 0.172791 0.172791
0.186676 0.186676 0.186676
0.200806 0.200806 0.200806
0.215271 0.215271 0.215271
0.229950 0.229950 0.229950
0.244812 0.244812 0.244812
0.259979 0.259979 0.259979
0.275330 0.275330 0.275330
0.290833 0.290833 0.290802
0.306488 0.306488 0.306427
0.322296 0.322327 0.322235
0.338257 0.338287 0.338196
0.354248 0.354340 0.354218
0.370331 0.370422 0.370331
0.386475 0.386566 0.386475
0.402679 0.402771 0.402679
0.418884 0.418976 0.418884
0.435028 0.435120 0.435028
0.451202 0.451263 0.451202
0.467255 0.467316 0.467255
0.483307 0.483398 0.483307
0.499176 0.499237 0.499146
0.056122 0.056122 0.056122
0.066589 0.066589 0.066589
0.077118 0.077118 0.077118
0.088165 0.088165 0.088165
0.099548 0.099548 0.099548
0.111542 0.111542 0.111542
0.123840 0.123840 0.123840
0.136444 0.136444 0.136444
0.149384 0.149384 0.149384
0.162689 0.162689 0.162689
0.176392 0.176392 0.176392
0.190308 0.190308 0.190308
0.204529 0.204529 0.204529
0.218994 0.218994 0.218994
0.233734 0.233734 0.233734
0.248749 0.248749 0.248749
0.263916 0.263916 0.263916
0.279266 0.279266 0.279266
0.294800 0.294800 0.294769
0.310516 0.310547 0.310486
0.326385 0.326447 0.326355
0.342316 0.342407 0.342285
0.358337 0.358429 0.358337
0.374481 0.374573 0.374481
0.390656 0.390747 0.390656
0.406830 0.406921 0.406830
0.423004 0.423096 0.423004
0.439209 0.439270 0.439209
0.455353 0.455414 0.455353
0.471405 0.471466 0.471405
0.487366 0.487427 0.487366
0.503174 0.503235 0.503174
0.518860 0.518921 0.518829
0.069092 0.069092 0.069092
0.079926 0.079926 0.079926
0.091034 0.091034 0.091034
0.102631 0.102631 0.102631
0.114624 0.114624 0.114624
0.126984 0.126984 0.126984
0.139740 0.139740 0.139740
0.152771 0.152771 0.152771
0.166168 0.166168 0.166168
0.179871 0.179871 0.179871
0.193878 0.193878 0.193878
0.208252 0.208252 0.208252
0.222809 0.222809 0.222809
0.237549 0.237549 0.237549
0.252594 0.252594 0.252594
0.267853 0.267853 0.267853
0.283295 0.283295 0.283264
0.298828 0.298828 0.298798
0.314575 0.314606 0.314545
0.330475 0.330505 0.330414
0.346436 0.346527 0.346405
0.362488 0.362579 0.362488
0.378601 0.378693 0.378601
0.394775 0.394867 0.394775
0.411011 0.411102 0.411011
0.427185 0.427246 0.427185
0.443298 0.443390 0.443298
0.459473 0.459534 0.459473
0.475525 0.475586 0.475525
0.491455 0.491516 0.491455
0.507263 0.507324 0.507233
0.522858 0.522919 0.522827
0.538330 0.538391 0.538300
0.082703 0.082703 0.082703
0.094116 0.094116 0.094116
0.105774 0.105774 0.105774
0.117737 0.117737 0.117737
0.130249 0.130249 0.130249
0.143097 0.143097 0.143097
0.156189 0.156189 0.156189
0.169739 0.169739 0.169739
0.183533 0.183533 0.183533
0.197601 0.197601 0.197601
0.212006 0.212006 0.212006
0.226532 0.226532 0.226532
0.241455 0.241455 0.241455
0.256531 0.256531 0.256531
0.271820 0.271820 0.271820
0.287292 0.287292 0.287262
0.302917 0.302917 0.302887
0.318695 0.318695 0.318634
0.334564 0.334625 0.334534
0.350555 0.350647 0.350525
0.366638 0.366730 0.366638
0.382751 0.382874 0.382751
0.398956 0.399048 0.398956
0.415161 0.415253 0.415161
0.431335 0.431427 0.431335
0.447479 0.447571 0.447479
0.463593 0.463654 0.463593
0.479614 0.479675 0.479584
0.495514 0.495575 0.495483
0.511292 0.511353 0.511261
0.526917 0.526978 0.526886
0.542297 0.542389 0.542267
0.557526 0.557617 0.557495
0.096954 0.096954 0.096954
0.108887 0.108887 0.108887
0.121033 0.121033 0.121033
0.133514 0.133514 0.133514
0.146393 0.146393 0.146393
0.159668 0.159668 0.159668
0.173248 0.173248 0.173248
0.187042 0.187042 0.187042
0.201263 0.201263 0.201263
0.215729 0.215729 0.215729
0.230469 0.230469 0.230469
0.245331 0.245331 0.245331
0.260437 0.260437 0.260437
0.275818 0.275818 0.275818
0.291321 0.291321 0.291290
0.307007 0.307037 0.306976
0.322784 0.322845 0.322754
0.338684 0.338745 0.338654
0.354706 0.354767 0.354675
0.370789 0.370880 0.370789
0.386963 0.387054 0.386963
0.403137 0.403229 0.403137
0.419342 0.419434 0.419342
0.435516 0.435608 0.435516
0.451691 0.451752 0.451691
0.467743 0.467804 0.467743
0.483704 0.483795 0.483704
0.499603 0.499664 0.499573
0.515320 0.515381 0.515289
0.530914 0.530975 0.530884
0.546265 0.546356 0.546234
0.561432 0.561523 0.561401
0.576355 0.576447 0.576355
0.111877 0.111877 0.111877
0.124237 0.124237 0.124237
0.136810 0.136810 0.136810
0.149750 0.149750 0.149750
0.163055 0.163055 0.163055
0.176727 0.176727 0.176727
0.190704 0.190704 0.190704
0.204956 0.204956 0.204956
0.219421 0.219421 0.219421
0.234161 0.234161 0.234161
0.249207 0.249207 0.249207
0.264435 0.264435 0.264435
0.279755 0.279755 0.279755
0.295288 0.295319 0.295258
0.311066 0.311096 0.311035
0.326874 0.326935 0.326843
0.342804 0.342896 0.342773
0.358826 0.358917 0.358826
0.374939 0.375031 0.374939
0.391083 0.391174 0.391083
0.407288 0.407379 0.407288
0.423492 0.423553 0.423492
0.439667 0.439728 0.439667
0.455780 0.455872 0.455780
0.471832 0.471893 0.471832
0.487823 0.487885 0.487823
0.503632 0.503693 0.503632
0.519348 0.519409 0.519318
0.534851 0.534943 0.534821
0.550201 0.550262 0.550171
0.565308 0.565369 0.565277
0.580200 0.580292 0.580170
0.594879 0.594971 0.594879
0.127380 0.127380 0.127380
0.140137 0.140137 0.140137
0.153229 0.153229 0.153229
0.166504 0.166504 0.166504
0.180298 0.180298 0.180298
0.194275 0.194275 0.194275
0.208679 0.208679 0.208679
0.223236 0.223236 0.223236
0.238007 0.238007 0.238007
0.253052 0.253052 0.253052
0.268311 0.268311 0.268311
0.283783 0.283783 0.283752
0.299377 0.299408 0.299347
0.315094 0.315125 0.315063
0.330933 0.330994 0.330902
0.346924 0.347015 0.346893
0.362976 0.363068 0.362976
0.379089 0.379181 0.379089
0.395264 0.395355 0.395264
0.411438 0.411530 0.411438
0.427643 0.427734 0.427643
0.443817 0.443878 0.443817
0.459900 0.459991 0.459900
0.475952 0.476013 0.475952
0.491882 0.491943 0.491852
0.507660 0.507721 0.507629
0.523315 0.523376 0.523285
0.538818 0.538879 0.538788
0.554047 0.554138 0.554016
0.569122 0.569214 0.569122
0.583954 0.584045 0.583954
0.598602 0.598694 0.598602
0.613037 0.613129 0.613037
0.143341 0.143341 0.143341
0.156647 0.156647 0.156647
0.170166 0.170166 0.170166
0.183929 0.183929 0.183929
0.197968 0.197968 0.197968
0.212311 0.212311 0.212311
0.227020 0.227020 0.227020
0.241882 0.241882 0.241882
0.256958 0.256958 0.256958
0.272247 0.272247 0.272247
0.287720 0.287720 0.287720
0.303406 0.303406 0.303375
0.319153 0.319183 0.319122
0.335052 0.335114 0.335022
0.351044 0.351105 0.351013
0.367126 0.367218 0.367126
0.383240 0.383362 0.383240
0.399414 0.399506 0.399414
0.415619 0.415710 0.415619
0.431824 0.431885 0.431824
0.447968 0.448029 0.447968
0.464050 0.464111 0.464050
0.480042 0.480133 0.480042
0.495941 0.496033 0.495941
0.511749 0.511810 0.511719
0.527313 0.527374 0.527283
0.542694 0.542786 0.542664
0.557953 0.558044 0.557953
0.572968 0.573059 0.572937
0.587738 0.587830 0.587738
0.602295 0.602417 0.602295
0.616699 0.616791 0.616699
0.630798 0.630920 0.630798
0.159973 0.159973 0.159973
0.173737 0.173737 0.173737
0.187561 0.187561 0.187561
0.201721 0.201721 0.201721
0.216095 0.216095 0.216095
0.230804 0.230804 0.230804
0.245758 0.245758 0.245758
0.260895 0.260895 0.260895
0.276215 0.276215 0.276215
0.291748 0.291748 0.291718
0.307434 0.307465 0.307404
0.323242 0.323273 0.323181
0.339172 0.339233 0.339142
0.355194 0.355286 0.355164
0.371277 0.371368 0.371277
0.387421 0.387512 0.387421
0.403625 0.403717 0.403625
0.419830 0.419891 0.419830
0.435974 0.436035 0.435974
0.452118 0.452179 0.452118
0.468201 0.468262 0.468201
0.484161 0.484222 0.484131
0.500000 0.500061 0.500000
0.515747 0.515808 0.515717
0.531342 0.531403 0.531311
0.546692 0.546753 0.546661
0.561798 0.561890 0.561798
0.576782 0.576874 0.576782
0.591553 0.591675 0.591553
0.606049 0.606140 0.606049
0.620331 0.620453 0.620331
0.634460 0.634552 0.634460
0.648285 0.648376 0.648254
0.177216 0.177216 0.177216
0.191315 0.191315 0.191315
0.205414 0.205414 0.205414
0.219910 0.219910 0.219910
0.234650 0.234650 0.234650
0.249603 0.249603 0.249603
0.264862 0.264862 0.264862
0.280243 0.280243 0.280212
0.295776 0.295807 0.295746
0.311523 0.311554 0.311493
0.327393 0.327423 0.327332
0.343292 0.343384 0.343292
0.359344 0.359406 0.359314
0.375458 0.375549 0.375458
0.391602 0.391693 0.391602
0.407806 0.407898 0.407806
0.423981 0.424042 0.423981
0.440125 0.440216 0.440125
0.456268 0.456329 0.456268
0.472290 0.472351 0.472290
0.488251 0.488312 0.488220
0.504089 0.504150 0.504089
0.519775 0.519836 0.519745
0.535278 0.535339 0.535248
0.550598 0.550690 0.550568
0.565704 0.565796 0.565704
0.580566 0.580658 0.580566
0.595276 0.595367 0.595276
0.609741 0.609863 0.609741
0.624023 0.624115 0.623993
0.638031 0.638123 0.638000
0.651855 0.651947 0.651825
0.665466 0.665558 0.665436
0.194885 0.194885 0.194885
0.209320 0.209320 0.209320
0.223724 0.223724 0.223724
0.238495 0.238495 0.238495
0.253510 0.253510 0.253510
0.268738 0.268738 0.268738
0.284210 0.284210 0.284180
0.299866 0.299866 0.299805
0.315552 0.315582 0.315521
0.331451 0.331512 0.331421
0.347443 0.347534 0.347443
0.363495 0.363586 0.363495
0.379608 0.379700 0.379608
0.395752 0.395844 0.395752
0.411957 0.412048 0.411957
0.428131 0.428192 0.428131
0.444305 0.444366 0.444305
0.460388 0.460449 0.460388
0.476379 0.476440 0.476349
0.492310 0.492371 0.492310
0.508087 0.508148 0.508087
0.523712 0.523804 0.523712
0.539215 0.539276 0.539185
0.554504 0.554596 0.554474
0.569550 0.569611 0.569519
0.584381 0.584473 0.584381
0.598969 0.599060 0.598969
0.613434 0.613525 0.613434
0.627625 0.627716 0.627625
0.641571 0.641693 0.641571
0.655365 0.655457 0.655334
0.668884 0.668976 0.668854
0.682220 0.682343 0.682190
0.212982 0.212982 0.212982
0.227692 0.227692 0.227692
0.242401 0.242401 0.242401
0.257477 0.257477 0.257477
0.272705 0.272705 0.272705
0.288208 0.288208 0.288177
0.303833 0.303864 0.303802
0.319672 0.319702 0.319641
0.335541 0.335602 0.335510
0.351532 0.351593 0.351501
0.367645 0.367737 0.367615
0.383789 0.383881 0.383789
0.399933 0.400024 0.399933
0.416107 0.416199 0.416107
0.432281 0.432343 0.432281
0.448425 0.448517 0.448425
0.464508 0.464569 0.464508
0.480499 0.480591 0.480499
0.496368 0.496460 0.496368
0.512115 0.512207 0.512115
0.527740 0.527802 0.527710
0.543121 0.543213 0.543091
0.558319 0.558441 0.558319
0.573334 0.573425 0.573334
0.588165 0.588226 0.588135
0.602722 0.602814 0.602722
0.617035 0.617157 0.617035
0.631226 0.631317 0.631195
0.645172 0.645264 0.645142
0.658844 0.658936 0.658844
0.672333 0.672424 0.672302
0.685577 0.685699 0.685547
0.698608 0.698730 0.698578
0.231445 0.231445 0.231445
0.246429 0.246429 0.246429
0.261505 0.261505 0.261505
0.276794 0.276794 0.276794
0.292267 0.292267 0.292236
0.307892 0.307922 0.307861
0.323761 0.323792 0.323700
0.339691 0.339752 0.339661
0.355682 0.355743 0.355652
0.371765 0.371857 0.371765
0.387909 0.388000 0.387909
0.404114 0.404205 0.404114
0.420319 0.420410 0.420319
0.436462 0.436523 0.436462
0.452606 0.452667 0.452606
0.468658 0.468750 0.468658
0.484589 0.484650 0.484589
0.500458 0.500549 0.500458
0.516144 0.516235 0.516113
0.531708 0.531769 0.531677
0.547089 0.547180 0.547058
0.562225 0.562317 0.562195
0.577148 0.577240 0.577118
0.591888 0.592010 0.591888
0.606415 0.606506 0.606415
0.620697 0.620819 0.620697
0.634796 0.634888 0.634796
0.648682 0.648773 0.648651
0.662323 0.662415 0.662292
0.675781 0.675873 0.675751
0.688934 0.689056 0.688934
0.701935 0.702057 0.701935
0.714661 0.714783 0.714630
0.250275 0.250275 0.250275
0.265533 0.265533 0.265533
0.280914 0.280914 0.280914
0.296326 0.296356 0.296326
0.312042 0.312073 0.312012
0.327850 0.327881 0.327789
0.343842 0.343903 0.343811
0.359833 0.359924 0.359802
0.375946 0.376038 0.375946
0.392090 0.392181 0.392090
0.408295 0.408386 0.408295
0.424469 0.424561 0.424469
0.440613 0.440704 0.440613
0.456726 0.456787 0.456726
0.472778 0.472839 0.472778
0.488739 0.488831 0.488739
0.504547 0.504608 0.504547
0.520172 0.520264 0.520142
0.535675 0.535736 0.535645
0.550934 0.551025 0.550903
0.566101 0.566193 0.566071
0.580963 0.581055 0.580933
0.595612 0.595703 0.595612
0.610077 0.610199 0.610077
0.624359 0.624451 0.624359
0.638397 0.638489 0.638367
0.652191 0.652283 0.652191
0.665802 0.665894 0.665771
0.679199 0.679291 0.679169
0.692322 0.692444 0.692322
0.705231 0.705322 0.705200
0.717926 0.718018 0.717896
0.730347 0.730469 0.730347
0.269501 0.269501 0.269501
0.285034 0.285034 0.285034
0.300568 0.300568 0.300537
0.316162 0.316193 0.316101
0.332001 0.332062 0.331970
0.347961 0.348022 0.347931
0.364044 0.364136 0.364044
0.380096 0.380188 0.380096
0.396301 0.396393 0.396301
0.412476 0.412567 0.412476
0.428650 0.428711 0.428650
0.444794 0.444855 0.444794
0.460876 0.460938 0.460876
0.476868 0.476929 0.476868
0.492798 0.492859 0.492798
0.508606 0.508667 0.508575
0.524231 0.524323 0.524200
0.539642 0.539734 0.539612
0.554901 0.554993 0.554871
0.569916 0.570007 0.569885
0.584747 0.584839 0.584747
0.599396 0.599487 0.599396
0.613770 0.613861 0.613770
0.627930 0.628052 0.627930
0.641968 0.642059 0.641937
0.655731 0.655823 0.655701
0.669281 0.669373 0.669250
0.682587 0.682678 0.682556
0.695679 0.695770 0.695648
0.708496 0.708618 0.708496
0.721130 0.721222 0.721130
0.733521 0.733643 0.733521
0.745667 0.745789 0.745636
0.288971 0.288971 0.288971
0.304779 0.304810 0.304749
0.320465 0.320496 0.320435
0.336243 0.336334 0.336212
0.352142 0.352234 0.352142
0.368134 0.368225 0.368134
0.384308 0.384399 0.384308
0.400452 0.400513 0.400452
0.416626 0.416748 0.416626
0.432831 0.432922 0.432831
0.448975 0.449066 0.448975
0.465027 0.465088 0.465027
0.481018 0.481079 0.481018
0.496887 0.496948 0.496857
0.512604 0.512695 0.512604
0.528229 0.528290 0.528198
0.543579 0.543671 0.543579
0.558777 0.558899 0.558777
0.573761 0.573883 0.573761
0.588562 0.588654 0.588531
0.603088 0.603180 0.603088
0.617493 0.617584 0.617462
0.631622 0.631714 0.631592
0.645508 0.645599 0.645477
0.659180 0.659271 0.659149
0.672668 0.672760 0.672638
0.685944 0.686035 0.685913
0.698975 0.699097 0.698975
0.711761 0.711884 0.711731
0.724304 0.724426 0.724274
0.736633 0.736755 0.736633
0.748749 0.748871 0.748718
0.760590 0.760712 0.760590
0.308655 0.308655 0.308594
0.324615 0.324677 0.324554
0.340485 0.340576 0.340454
0.356384 0.356476 0.356384
0.372406 0.372498 0.372406
0.388458 0.388550 0.388458
0.404694 0.404785 0.404694
0.420837 0.420929 0.420837
0.437012 0.437103 0.437012
0.453125 0.453217 0.453125
0.469208 0.469269 0.469208
0.485168 0.485229 0.485138
0.500977 0.501068 0.500977
0.516724 0.516785 0.516693
0.532227 0.532288 0.532166
0.547546 0.547638 0.547516
0.562714 0.562805 0.562683
0.577606 0.577698 0.577606
0.592316 0.592438 0.592316
0.606812 0.606903 0.606812
0.621094 0.621216 0.621094
0.635193 0.635284 0.635193
0.649078 0.649170 0.649078
0.662720 0.662811 0.662689
0.676117 0.676208 0.676086
0.689301 0.689423 0.689270
0.702209 0.702332 0.702209
0.714996 0.715088 0.714966
0.727509 0.727631 0.727478
0.739777 0.739868 0.739746
0.751801 0.751923 0.751770
0.763550 0.763672 0.763550
0.775116 0.775208 0.775085
0.328674 0.328705 0.328613
0.344727 0.344788 0.344696
0.360687 0.360748 0.360657
0.376740 0.376831 0.376740
0.392761 0.392853 0.392761
0.408875 0.408966 0.408875
0.425079 0.425140 0.425079
0.441193 0.441284 0.441193
0.457336 0.457397 0.457336
0.473358 0.473450 0.473358
0.489319 0.489380 0.489288
0.505096 0.505157 0.505066
0.520721 0.520782 0.520721
0.536224 0.536285 0.536194
0.551544 0.551605 0.551514
0.566589 0.566681 0.566589
0.581451 0.581543 0.581451
0.596100 0.596191 0.596069
0.610565 0.610657 0.610565
0.624786 0.624908 0.624786
0.638763 0.638855 0.638763
0.652588 0.652679 0.652557
0.666168 0.666290 0.666168
0.679565 0.679657 0.679535
0.692688 0.692780 0.692657
0.705566 0.705658 0.705536
0.718231 0.718353 0.718231
0.730682 0.730774 0.730652
0.742889 0.743011 0.742889
0.754852 0.754974 0.754852
0.766571 0.766693 0.766541
0.778046 0.778168 0.778015
0.789276 0.789368 0.789246
0.348877 0.348907 0.348816
0.364990 0.365082 0.364990
0.380951 0.381042 0.380951
0.397003 0.397095 0.397003
0.413147 0.413239 0.413147
0.429291 0.429352 0.429291
0.445374 0.445465 0.445374
0.461487 0.461548 0.461487
0.477448 0.477539 0.477448
0.493378 0.493439 0.493378
0.509186 0.509277 0.509186
0.524811 0.524872 0.524780
0.540222 0.540314 0.540192
0.555450 0.555542 0.555420
0.570465 0.570557 0.570435
0.585297 0.585388 0.585266
0.599854 0.599945 0.599823
0.614197 0.614319 0.614197
0.628418 0.628510 0.628418
0.642426 0.642517 0.642395
0.656128 0.656219 0.656097
0.669617 0.669708 0.669586
0.682953 0.683044 0.682922
0.695984 0.696106 0.695984
0.708801 0.708923 0.708801
0.721466 0.721588 0.721466
0.733826 0.733917 0.733795
0.746002 0.746094 0.745972
0.757874 0.757996 0.757874
0.769531 0.769653 0.769531
0.780975 0.781097 0.780945
0.792114 0.792236 0.792114
0.803070 0.803192 0.803040
0.368988 0.369080 0.368988
0.385406 0.385498 0.385406
0.401367 0.401428 0.401367
0.417389 0.417480 0.417389
0.433533 0.433624 0.433533
0.449585 0.449646 0.449585
0.465668 0.465729 0.465668
0.481628 0.481689 0.481628
0.497467 0.497559 0.497467
0.513184 0.513275 0.513184
0.528809 0.528900 0.528778
0.544189 0.544281 0.544159
0.559387 0.559448 0.559357
0.574341 0.574432 0.574310
0.589081 0.589172 0.589081
0.603638 0.603729 0.603638
0.617950 0.618042 0.617950
0.632019 0.632141 0.632019
0.645935 0.646027 0.645935
0.659607 0.659729 0.659607
0.673096 0.673187 0.673065
0.686340 0.686432 0.686310
0.699341 0.699432 0.699310
0.712097 0.712189 0.712067
0.724640 0.724762 0.724640
0.737000 0.737091 0.736969
0.749023 0.749146 0.749023
0.760895 0.761017 0.760864
0.772491 0.772614 0.772491
0.783844 0.783966 0.783844
0.794983 0.795135 0.794983
0.805817 0.805939 0.805817
0.816406 0.816528 0.816406
0.389343 0.389435 0.389343
0.405914 0.406006 0.405914
0.421783 0.421875 0.421783
0.437836 0.437927 0.437836
0.453888 0.453979 0.453888
0.469849 0.469940 0.469849
0.485840 0.485901 0.485840
0.501587 0.501648 0.501556
0.517303 0.517365 0.517273
0.532837 0.532898 0.532806
0.548126 0.548218 0.548096
0.563232 0.563324 0.563202
0.578125 0.578217 0.578094
0.592865 0.592957 0.592865
0.607361 0.607452 0.607361
0.621643 0.621735 0.621643
0.635681 0.635773 0.635681
0.649506 0.649628 0.649506
0.663147 0.663239 0.663116
0.676575 0.676666 0.676544
0.689728 0.689850 0.689697
0.702698 0.702789 0.702667
0.715424 0.715546 0.715424
0.727875 0.727997 0.727875
0.740082 0.740204 0.740082
