滤镜资源/Professional Luts Collection/Lutify.me Professional/Black & White Films/Bloodstone.cube
# Created by: Lutify.me
# Copyright: (c) Copyright Lutify.me 2015
# Website: https://lutify.me
#LUT size
LUT_3D_SIZE 5
#LUT data points
0.000000 0.000000 0.000000
0.048462 0.048462 0.048462
0.138916 0.138916 0.138916
0.251617 0.251617 0.251617
0.377655 0.377747 0.377655
0.069092 0.069092 0.069092
0.166168 0.166168 0.166168
0.283295 0.283295 0.283264
0.411011 0.411102 0.411011
0.538330 0.538391 0.538300
0.194885 0.194885 0.194885
0.315552 0.315582 0.315521
0.444305 0.444366 0.444305
0.569550 0.569611 0.569519
0.682220 0.682343 0.682190
0.348877 0.348907 0.348816
0.477448 0.477539 0.477448
0.599854 0.599945 0.599823
0.708801 0.708923 0.708801
0.803070 0.803192 0.803040
0.511444 0.511505 0.511414
0.629578 0.629669 0.629547
0.734711 0.734833 0.734711
0.824768 0.824890 0.824738
0.897858 0.898010 0.897858
0.022461 0.022461 0.022461
0.099640 0.099640 0.099640
0.204468 0.204468 0.204468
0.326355 0.326385 0.326294
0.455353 0.455444 0.455353
0.124634 0.124634 0.124634
0.234650 0.234650 0.234650
0.359314 0.359406 0.359283
0.488190 0.488281 0.488190
0.609680 0.609802 0.609680
0.265717 0.265717 0.265717
0.392548 0.392639 0.392548
0.520569 0.520630 0.520538
0.638702 0.638824 0.638702
0.742828 0.742950 0.742828
0.426239 0.426331 0.426239
0.552368 0.552460 0.552338
0.666901 0.666992 0.666870
0.767120 0.767242 0.767090
0.851715 0.851837 0.851685
0.584290 0.584412 0.584290
0.694305 0.694427 0.694305
0.790588 0.790710 0.790558
0.870697 0.870850 0.870697
0.932556 0.932709 0.932526
0.064270 0.064270 0.064270
0.159943 0.159943 0.159943
0.276184 0.276184 0.276184
0.403625 0.403717 0.403625
0.531372 0.531433 0.531342
0.188293 0.188293 0.188293
0.308350 0.308380 0.308319
0.436859 0.436951 0.436859
0.562622 0.562714 0.562592
0.676086 0.676178 0.676056
0.341064 0.341125 0.341003
0.470001 0.470062 0.470001
0.593018 0.593109 0.592987
0.702881 0.702972 0.702850
0.797974 0.798096 0.797943
0.503235 0.503296 0.503235
0.622803 0.622894 0.622772
0.728821 0.728912 0.728790
0.819763 0.819916 0.819763
0.894012 0.894165 0.893982
0.652496 0.652588 0.652466
0.753967 0.754089 0.753967
0.840698 0.840820 0.840668
0.910126 0.910278 0.910126
0.959991 0.960114 0.959961
0.118683 0.118683 0.118683
0.227753 0.227753 0.227753
0.351959 0.352020 0.351929
0.481018 0.481079 0.481018
0.603210 0.603302 0.603210
0.258667 0.258667 0.258667
0.385132 0.385223 0.385101
0.513458 0.513550 0.513428
0.632355 0.632446 0.632355
0.737305 0.737427 0.737274
0.418640 0.418732 0.418640
0.545319 0.545410 0.545288
0.660645 0.660736 0.660614
0.761749 0.761871 0.761749
0.847290 0.847412 0.847260
0.576843 0.576935 0.576843
0.688202 0.688293 0.688171
0.785309 0.785431 0.785278
0.866333 0.866486 0.866333
0.929443 0.929565 0.929413
0.715546 0.715637 0.715515
0.808075 0.808197 0.808044
0.884613 0.884766 0.884613
0.942474 0.942596 0.942444
0.981445 0.981598 0.981415
0.181671 0.181671 0.181671
0.301056 0.301056 0.301025
0.429504 0.429596 0.429504
0.555847 0.555939 0.555817
0.670105 0.670197 0.670074
0.333679 0.333710 0.333618
0.462646 0.462738 0.462646
0.586426 0.586517 0.586395
0.697083 0.697174 0.697052
0.793030 0.793152 0.793030
0.495850 0.495911 0.495819
0.616211 0.616333 0.616211
0.723145 0.723236 0.723114
0.815063 0.815186 0.815063
0.890259 0.890411 0.890259
0.645569 0.645660 0.645569
0.748383 0.748505 0.748383
0.836121 0.836212 0.836060
0.906555 0.906677 0.906525
0.957611 0.957764 0.957611
0.773438 0.773529 0.773407
0.856171 0.856293 0.856140
0.921753 0.921906 0.921722
0.967651 0.967804 0.967621
0.999908 1.000000 0.999878
