滤镜资源/Professional Luts Collection/Lutify.me Professional/Black & White Films/Bloodstone.cube
# Created by: Lutify.me
# Copyright: (c) Copyright Lutify.me 2015
# Website: https://lutify.me
#LUT size
LUT_3D_SIZE 9
#LUT data points
0.000000 0.000000 0.000000
0.017944 0.017944 0.017944
0.048462 0.048462 0.048462
0.090332 0.090332 0.090332
0.138916 0.138916 0.138916
0.192993 0.192993 0.192993
0.251617 0.251617 0.251617
0.313629 0.313629 0.313568
0.377655 0.377747 0.377655
0.024048 0.024048 0.024048
0.058594 0.058594 0.058594
0.102295 0.102295 0.102295
0.152374 0.152374 0.152374
0.207733 0.207733 0.207733
0.267334 0.267334 0.267334
0.329987 0.330048 0.329926
0.394287 0.394348 0.394287
0.458923 0.459015 0.458923
0.069092 0.069092 0.069092
0.114624 0.114624 0.114624
0.166168 0.166168 0.166168
0.222809 0.222809 0.222809
0.283295 0.283295 0.283264
0.346436 0.346527 0.346405
0.411011 0.411102 0.411011
0.475525 0.475586 0.475525
0.538330 0.538391 0.538300
0.127380 0.127380 0.127380
0.180298 0.180298 0.180298
0.238007 0.238007 0.238007
0.299377 0.299408 0.299347
0.362976 0.363068 0.362976
0.427643 0.427734 0.427643
0.491882 0.491943 0.491852
0.554047 0.554138 0.554016
0.613037 0.613129 0.613037
0.194885 0.194885 0.194885
0.253510 0.253510 0.253510
0.315552 0.315582 0.315521
0.379608 0.379700 0.379608
0.444305 0.444366 0.444305
0.508087 0.508148 0.508087
0.569550 0.569611 0.569519
0.627625 0.627716 0.627625
0.682220 0.682343 0.682190
0.269501 0.269501 0.269501
0.332001 0.332062 0.331970
0.396301 0.396393 0.396301
0.460876 0.460938 0.460876
0.524231 0.524323 0.524200
0.584747 0.584839 0.584747
0.641968 0.642059 0.641937
0.695679 0.695770 0.695648
0.745667 0.745789 0.745636
0.348877 0.348907 0.348816
0.413147 0.413239 0.413147
0.477448 0.477539 0.477448
0.540222 0.540314 0.540192
0.599854 0.599945 0.599823
0.656128 0.656219 0.656097
0.708801 0.708923 0.708801
0.757874 0.757996 0.757874
0.803070 0.803192 0.803040
0.430328 0.430420 0.430328
0.494110 0.494171 0.494110
0.556030 0.556122 0.556000
0.614716 0.614838 0.614716
0.670135 0.670227 0.670105
0.721893 0.721985 0.721863
0.769928 0.770050 0.769897
0.814026 0.814148 0.813995
0.853973 0.854065 0.853943
0.511444 0.511505 0.511414
0.571869 0.571960 0.571869
0.629578 0.629669 0.629547
0.683899 0.683990 0.683868
0.734711 0.734833 0.734711
0.781738 0.781860 0.781738
0.824768 0.824890 0.824738
0.863556 0.863708 0.863556
0.897858 0.898010 0.897858
0.010437 0.010437 0.010437
0.034088 0.034088 0.034088
0.072693 0.072693 0.072693
0.118713 0.118713 0.118713
0.170746 0.170746 0.170746
0.227722 0.227722 0.227722
0.288544 0.288544 0.288513
0.351898 0.351990 0.351898
0.416534 0.416626 0.416534
0.043091 0.043091 0.043091
0.084076 0.084076 0.084076
0.131744 0.131744 0.131744
0.185089 0.185089 0.185089
0.243103 0.243103 0.243103
0.304657 0.304688 0.304626
0.368469 0.368561 0.368469
0.433167 0.433228 0.433167
0.497192 0.497253 0.497192
0.095612 0.095612 0.095612
0.144897 0.144897 0.144897
0.199677 0.199677 0.199677
0.258728 0.258728 0.258728
0.320953 0.320984 0.320892
0.385101 0.385193 0.385101
0.449799 0.449860 0.449799
0.513489 0.513550 0.513458
0.574646 0.574738 0.574615
0.158508 0.158508 0.158508
0.214478 0.214478 0.214478
0.274506 0.274506 0.274506
0.337341 0.337402 0.337311
0.401733 0.401825 0.401733
0.466309 0.466400 0.466309
0.529510 0.529572 0.529480
0.589813 0.589905 0.589783
0.646698 0.646790 0.646698
0.229706 0.229706 0.229706
0.290466 0.290466 0.290405
0.353821 0.353912 0.353790
0.418427 0.418518 0.418427
0.482758 0.482819 0.482758
0.545288 0.545380 0.545258
0.604736 0.604828 0.604736
0.660767 0.660858 0.660736
0.713196 0.713318 0.713196
0.306854 0.306854 0.306824
0.370483 0.370575 0.370483
0.435120 0.435181 0.435120
0.499115 0.499176 0.499115
0.560944 0.561005 0.560913
0.619415 0.619507 0.619415
0.674561 0.674652 0.674530
0.726044 0.726166 0.726013
0.773773 0.773895 0.773773
0.387390 0.387482 0.387390
0.451904 0.451996 0.451904
0.515381 0.515442 0.515381
0.576385 0.576477 0.576355
0.634003 0.634094 0.634003
0.688141 0.688263 0.688141
0.738647 0.738770 0.738647
0.785400 0.785522 0.785400
0.828156 0.828278 0.828125
0.469116 0.469208 0.469116
0.531677 0.531769 0.531647
0.591675 0.591766 0.591675
0.648346 0.648468 0.648346
0.701599 0.701691 0.701569
0.751099 0.751221 0.751099
0.796814 0.796936 0.796814
0.838470 0.838593 0.838440
0.875732 0.875854 0.875732
0.548126 0.548187 0.548096
0.606934 0.607056 0.606934
0.662598 0.662689 0.662567
0.714813 0.714905 0.714783
0.763336 0.763458 0.763306
0.808014 0.808105 0.807983
0.848541 0.848663 0.848511
0.884674 0.884796 0.884644
0.916107 0.916229 0.916077
0.022461 0.022461 0.022461
0.056122 0.056122 0.056122
0.099640 0.099640 0.099640
0.149323 0.149323 0.149323
0.204468 0.204468 0.204468
0.263824 0.263824 0.263824
0.326355 0.326385 0.326294
0.390625 0.390717 0.390625
0.455353 0.455444 0.455353
0.066681 0.066681 0.066681
0.111938 0.111938 0.111938
0.163086 0.163086 0.163086
0.219421 0.219421 0.219421
0.279724 0.279724 0.279694
0.342773 0.342865 0.342743
0.407257 0.407349 0.407257
0.471832 0.471893 0.471832
0.534790 0.534882 0.534760
0.124634 0.124634 0.124634
0.177124 0.177124 0.177124
0.234650 0.234650 0.234650
0.295807 0.295807 0.295776
0.359314 0.359406 0.359283
0.423920 0.424011 0.423920
0.488190 0.488281 0.488190
0.550537 0.550598 0.550507
0.609680 0.609802 0.609680
0.191528 0.191528 0.191528
0.250092 0.250092 0.250092
0.311951 0.311981 0.311920
0.375885 0.375946 0.375885
0.440582 0.440643 0.440582
0.504486 0.504547 0.504456
0.566040 0.566132 0.566010
0.624298 0.624390 0.624298
0.679108 0.679230 0.679108
0.265717 0.265717 0.265717
0.328308 0.328339 0.328247
0.392548 0.392639 0.392548
0.457184 0.457245 0.457184
0.520569 0.520630 0.520538
0.581299 0.581390 0.581299
0.638702 0.638824 0.638702
0.692627 0.692719 0.692596
0.742828 0.742950 0.742828
0.344940 0.345032 0.344910
0.409271 0.409363 0.409271
0.473663 0.473755 0.473663
0.536530 0.536621 0.536499
0.596405 0.596497 0.596405
0.652863 0.652954 0.652832
0.705841 0.705933 0.705811
0.755096 0.755219 0.755066
0.800507 0.800629 0.800476
0.426239 0.426331 0.426239
0.490265 0.490356 0.490265
0.552368 0.552460 0.552338
0.611328 0.611450 0.611328
0.666901 0.666992 0.666870
0.718872 0.718994 0.718872
0.767120 0.767242 0.767090
0.811493 0.811615 0.811462
0.851715 0.851837 0.851685
0.507263 0.507324 0.507263
0.568176 0.568237 0.568146
0.626099 0.626190 0.626099
0.680725 0.680817 0.680695
0.731720 0.731842 0.731720
0.778961 0.779083 0.778961
0.822266 0.822388 0.822235
0.861298 0.861420 0.861267
0.895905 0.896057 0.895905
0.584290 0.584412 0.584290
0.640869 0.640991 0.640869
0.694305 0.694427 0.694305
0.744354 0.744476 0.744324
0.790588 0.790710 0.790558
0.832794 0.832916 0.832764
0.870697 0.870850 0.870697
0.904083 0.904236 0.904053
0.932556 0.932709 0.932526
0.040833 0.040833 0.040833
0.081421 0.081421 0.081421
0.128723 0.128723 0.128723
0.181885 0.181885 0.181885
0.239655 0.239655 0.239655
0.301056 0.301086 0.301025
0.364777 0.364868 0.364746
0.429504 0.429596 0.429504
0.493744 0.493805 0.493744
0.092957 0.092957 0.092957
0.142029 0.142029 0.142029
0.196350 0.196350 0.196350
0.255249 0.255249 0.255249
0.317322 0.317352 0.317291
0.381378 0.381470 0.381378
0.446075 0.446136 0.446075
0.509888 0.509949 0.509857
0.571259 0.571350 0.571228
0.155396 0.155396 0.155396
0.211182 0.211182 0.211182
0.270996 0.270996 0.270996
0.333710 0.333740 0.333679
0.398071 0.398163 0.398071
0.462646 0.462708 0.462646
0.525940 0.526001 0.525909
0.586395 0.586517 0.586395
0.643494 0.643585 0.643494
0.226135 0.226135 0.226135
0.286896 0.286896 0.286865
0.350189 0.350250 0.350159
0.414673 0.414764 0.414673
0.479065 0.479126 0.479065
0.541718 0.541809 0.541687
0.601379 0.601471 0.601349
0.657593 0.657684 0.657593
0.710236 0.710327 0.710205
0.303162 0.303162 0.303131
0.366791 0.366882 0.366760
0.431396 0.431458 0.431396
0.495453 0.495514 0.495422
0.557373 0.557465 0.557373
0.616119 0.616211 0.616119
0.671448 0.671539 0.671417
0.723145 0.723267 0.723145
0.771118 0.771210 0.771088
0.383545 0.383636 0.383545
0.448090 0.448181 0.448090
0.511719 0.511780 0.511688
0.572845 0.572937 0.572815
0.630676 0.630798 0.630676
0.685059 0.685150 0.685028
0.735809 0.735931 0.735779
0.782776 0.782898 0.782745
0.825745 0.825867 0.825714
0.464996 0.465057 0.464996
0.528046 0.528107 0.527985
0.588165 0.588287 0.588165
0.645081 0.645172 0.645050
0.698517 0.698608 0.698517
0.748260 0.748383 0.748230
0.794189 0.794312 0.794159
0.836090 0.836212 0.836060
0.873688 0.873810 0.873657
0.544342 0.544434 0.544312
0.603455 0.603546 0.603455
0.659363 0.659454 0.659332
0.711761 0.711884 0.711761
0.760529 0.760651 0.760498
0.805420 0.805542 0.805389
0.846191 0.846313 0.846161
0.882568 0.882690 0.882568
0.914337 0.914490 0.914307
0.618805 0.618896 0.618805
0.673431 0.673553 0.673401
0.724854 0.724976 0.724823
0.772552 0.772644 0.772522
0.816406 0.816528 0.816376
0.856049 0.856171 0.856018
0.891266 0.891418 0.891266
0.921783 0.921906 0.921753
0.947174 0.947327 0.947144
0.064270 0.064270 0.064270
0.108978 0.108978 0.108978
0.159943 0.159943 0.159943
0.216064 0.216064 0.216064
0.276184 0.276184 0.276184
0.339111 0.339172 0.339081
0.403625 0.403717 0.403625
0.468231 0.468292 0.468231
0.531372 0.531433 0.531342
0.121582 0.121582 0.121582
0.174011 0.174011 0.174011
0.231201 0.231201 0.231201
0.292206 0.292206 0.292175
0.355652 0.355713 0.355621
0.420258 0.420319 0.420258
0.484589 0.484650 0.484589
0.547089 0.547180 0.547058
0.606384 0.606476 0.606384
0.188293 0.188293 0.188293
0.246613 0.246613 0.246613
0.308350 0.308380 0.308319
0.372192 0.372284 0.372192
0.436859 0.436951 0.436859
0.500885 0.500946 0.500854
0.562622 0.562714 0.562592
0.621063 0.621155 0.621063
0.676086 0.676178 0.676056
0.262177 0.262177 0.262177
0.324646 0.324707 0.324615
0.388824 0.388916 0.388824
0.453430 0.453522 0.453430
0.516968 0.517059 0.516968
0.577911 0.578003 0.577911
0.635498 0.635590 0.635498
0.689606 0.689697 0.689575
0.740051 0.740173 0.740021
0.341064 0.341125 0.341003
0.405548 0.405640 0.405548
0.470001 0.470062 0.470001
0.532959 0.533020 0.532928
0.593018 0.593109 0.592987
0.649689 0.649780 0.649689
0.702881 0.702972 0.702850
0.752350 0.752441 0.752319
0.797974 0.798096 0.797943
0.422577 0.422668 0.422577
0.486511 0.486572 0.486511
0.548828 0.548889 0.548798
0.608002 0.608093 0.607971
0.663696 0.663788 0.663696
0.715912 0.716003 0.715881
0.764404 0.764526 0.764374
0.809021 0.809143 0.808990
0.849457 0.849579 0.849426
0.503235 0.503296 0.503235
0.564606 0.564697 0.564575
0.622803 0.622894 0.622772
0.677582 0.677673 0.677551
0.728821 0.728912 0.728790
0.776276 0.776398 0.776245
0.819763 0.819916 0.819763
0.859131 0.859253 0.859100
0.894012 0.894165 0.893982
0.580566 0.580658 0.580566
0.637451 0.637573 0.637451
0.691254 0.691376 0.691254
0.741486 0.741608 0.741486
0.787933 0.788055 0.787903
0.830353 0.830475 0.830353
0.868530 0.868652 0.868530
0.902161 0.902313 0.902130
0.931000 0.931152 0.930969
0.652496 0.652588 0.652466
0.704865 0.704956 0.704834
0.753967 0.754089 0.753967
0.799377 0.799500 0.799377
0.840698 0.840820 0.840668
0.877716 0.877838 0.877686
0.910126 0.910278 0.910126
0.937653 0.937775 0.937622
0.959991 0.960114 0.959961
0.090302 0.090302 0.090302
0.138855 0.138855 0.138855
0.193054 0.193054 0.193054
0.251709 0.251709 0.251709
0.313690 0.313721 0.313660
0.377716 0.377808 0.377716
0.442474 0.442535 0.442474
0.506378 0.506439 0.506348
0.567902 0.567993 0.567871
0.152344 0.152344 0.152344
0.207794 0.207794 0.207794
0.267395 0.267395 0.267395
0.330048 0.330078 0.329987
0.394348 0.394440 0.394348
0.458984 0.459045 0.458984
0.522430 0.522491 0.522400
0.583069 0.583191 0.583069
0.640350 0.640442 0.640320
0.222748 0.222748 0.222748
0.283264 0.283264 0.283264
0.346466 0.346527 0.346436
0.411011 0.411072 0.411011
0.475464 0.475525 0.475464
0.538269 0.538330 0.538239
0.598083 0.598206 0.598083
0.654510 0.654602 0.654480
0.707367 0.707489 0.707367
0.299377 0.299408 0.299347
0.363007 0.363098 0.363007
0.427673 0.427734 0.427673
0.491821 0.491882 0.491791
0.553925 0.554016 0.553894
0.612854 0.612946 0.612854
0.668365 0.668488 0.668365
0.720306 0.720428 0.720306
0.768494 0.768585 0.768463
0.379730 0.379822 0.379730
0.444366 0.444458 0.444366
0.508118 0.508179 0.508087
0.569427 0.569519 0.569397
0.627441 0.627533 0.627441
0.682007 0.682098 0.681976
0.733002 0.733093 0.732971
0.780182 0.780304 0.780182
0.823395 0.823517 0.823364
0.461304 0.461365 0.461304
0.524261 0.524353 0.524231
0.584747 0.584839 0.584747
0.641876 0.641968 0.641846
0.695496 0.695587 0.695465
0.745422 0.745514 0.745392
0.791595 0.791718 0.791595
0.833740 0.833862 0.833740
0.871582 0.871735 0.871582
0.540527 0.540588 0.540497
0.600006 0.600098 0.600006
0.656128 0.656219 0.656128
0.708801 0.708893 0.708771
0.757751 0.757874 0.757721
0.802856 0.802979 0.802826
0.843842 0.843964 0.843811
0.880554 0.880676 0.880554
0.912628 0.912750 0.912598
0.615417 0.615540 0.615417
0.670288 0.670380 0.670258
0.721893 0.722015 0.721893
0.769867 0.769989 0.769836
0.813904 0.814026 0.813873
0.853790 0.853912 0.853760
0.889252 0.889374 0.889221
0.920013 0.920166 0.919983
0.945831 0.945953 0.945801
0.684784 0.684906 0.684753
0.734955 0.735046 0.734924
0.781738 0.781860 0.781708
0.824707 0.824829 0.824677
0.863464 0.863586 0.863434
0.897736 0.897858 0.897705
0.927246 0.927368 0.927185
0.951630 0.951752 0.951599
0.971283 0.971436 0.971252
0.118683 0.118683 0.118683
0.170776 0.170776 0.170776
0.227753 0.227753 0.227753
0.288574 0.288574 0.288544
0.351959 0.352020 0.351929
0.416565 0.416656 0.416565
0.481018 0.481079 0.481018
0.543671 0.543762 0.543640
0.603210 0.603302 0.603210
0.184998 0.184998 0.184998
0.243134 0.243134 0.243134
0.304688 0.304718 0.304657
0.368469 0.368561 0.368469
0.433197 0.433289 0.433197
0.497284 0.497345 0.497284
0.559204 0.559296 0.559174
0.617859 0.617950 0.617859
0.673035 0.673126 0.673004
0.258667 0.258667 0.258667
0.320953 0.320984 0.320923
0.385132 0.385223 0.385101
0.449799 0.449860 0.449799
0.513458 0.513550 0.513428
0.574585 0.574677 0.574554
0.632355 0.632446 0.632355
0.686646 0.686737 0.686646
0.737305 0.737427 0.737274
0.337402 0.337494 0.337372
0.401794 0.401886 0.401794
0.466339 0.466431 0.466339
0.529449 0.529510 0.529419
0.589722 0.589813 0.589722
0.646606 0.646698 0.646576
0.699951 0.700073 0.699951
0.749664 0.749786 0.749634
0.795502 0.795654 0.795502
0.418640 0.418732 0.418640
0.482880 0.482941 0.482880
0.545319 0.545410 0.545288
0.604706 0.604797 0.604675
0.660645 0.660736 0.660614
0.713043 0.713165 0.713043
0.761749 0.761871 0.761749
0.806610 0.806732 0.806580
0.847290 0.847412 0.847260
0.499420 0.499481 0.499420
0.561066 0.561127 0.561035
0.619476 0.619568 0.619476
0.674530 0.674622 0.674500
0.725952 0.726074 0.725922
0.773590 0.773712 0.773590
0.817383 0.817505 0.817352
0.856995 0.857117 0.856964
0.892120 0.892273 0.892120
0.576843 0.576935 0.576843
0.634186 0.634277 0.634186
0.688202 0.688293 0.688171
0.738647 0.738770 0.738617
0.785309 0.785431 0.785278
0.827972 0.828094 0.827942
0.866333 0.866486 0.866333
0.900330 0.900452 0.900299
0.929443 0.929565 0.929413
0.648895 0.648987 0.648895
0.701843 0.701965 0.701843
0.751160 0.751282 0.751129
0.796783 0.796906 0.796783
0.838379 0.838501 0.838348
0.875610 0.875763 0.875610
0.908295 0.908447 0.908264
0.936066 0.936188 0.936035
0.958801 0.958954 0.958801
0.715546 0.715637 0.715515
0.763611 0.763733 0.763580
0.808075 0.808197 0.808044
0.848541 0.848633 0.848480
0.884613 0.884766 0.884613
0.916046 0.916168 0.916016
0.942474 0.942596 0.942444
0.963898 0.964050 0.963867
0.981445 0.981598 0.981415
0.149139 0.149139 0.149139
0.204376 0.204376 0.204376
0.263855 0.263855 0.263855
0.326385 0.326416 0.326324
0.390625 0.390717 0.390625
0.455353 0.455444 0.455353
0.518921 0.518982 0.518890
0.579803 0.579895 0.579773
0.637299 0.637390 0.637268
0.219391 0.219391 0.219391
0.279724 0.279724 0.279724
0.342773 0.342834 0.342712
0.407318 0.407410 0.407318
0.471863 0.471924 0.471863
0.534821 0.534912 0.534790
0.594818 0.594940 0.594818
0.651398 0.651489 0.651367
0.704437 0.704559 0.704407
0.295685 0.295685 0.295654
0.359314 0.359406 0.359314
0.423981 0.424072 0.423981
0.488220 0.488312 0.488220
0.550568 0.550629 0.550537
0.609680 0.609772 0.609650
0.665375 0.665466 0.665344
0.717468 0.717590 0.717468
0.765900 0.766022 0.765869
0.375946 0.376038 0.375946
0.440643 0.440704 0.440643
0.504517 0.504608 0.504517
0.566040 0.566132 0.566010
0.624298 0.624390 0.624298
0.679077 0.679169 0.679047
0.730255 0.730347 0.730225
0.777618 0.777740 0.777618
0.821075 0.821198 0.821075
0.457428 0.457489 0.457428
0.520752 0.520813 0.520721
0.581421 0.581482 0.581390
0.638702 0.638824 0.638702
0.692535 0.692627 0.692535
0.742767 0.742859 0.742737
0.789154 0.789276 0.789124
0.831512 0.831635 0.831482
0.869629 0.869751 0.869598
0.536835 0.536896 0.536804
0.596619 0.596710 0.596619
0.652985 0.653076 0.652985
0.705872 0.705994 0.705872
0.755066 0.755157 0.755035
0.800385 0.800507 0.800354
0.841675 0.841797 0.841614
0.878601 0.878754 0.878601
0.910950 0.911072 0.910919
0.612030 0.612152 0.612030
0.667145 0.667236 0.667114
0.718994 0.719086 0.718964
0.767181 0.767303 0.767151
0.811462 0.811584 0.811432
0.851593 0.851715 0.851562
0.887299 0.887451 0.887268
0.918365 0.918488 0.918335
0.944458 0.944611 0.944458
0.681213 0.681305 0.681183
0.731964 0.732056 0.731934
0.779083 0.779205 0.779053
0.822266 0.822388 0.822235
0.861298 0.861420 0.861267
0.895813 0.895966 0.895813
0.925568 0.925720 0.925537
0.950256 0.950378 0.950226
0.970245 0.970367 0.970215
0.745056 0.745178 0.745056
0.790924 0.791046 0.790894
0.832916 0.833038 0.832855
0.870758 0.870880 0.870728
0.904053 0.904205 0.904053
0.932526 0.932648 0.932495
0.955902 0.956024 0.955872
0.974762 0.974915 0.974731
0.990845 0.990997 0.990814
0.181671 0.181671 0.181671
0.239594 0.239594 0.239594
0.301056 0.301056 0.301025
0.364746 0.364868 0.364746
0.429504 0.429596 0.429504
0.493713 0.493774 0.493713
0.555847 0.555939 0.555817
0.614685 0.614777 0.614685
0.670105 0.670197 0.670074
0.255127 0.255127 0.255127
0.317261 0.317261 0.317200
0.381317 0.381409 0.381317
0.446106 0.446167 0.446106
0.509918 0.509979 0.509888
0.571198 0.571289 0.571198
0.629181 0.629303 0.629181
0.683655 0.683746 0.683624
0.734497 0.734619 0.734497
0.333679 0.333710 0.333618
0.397919 0.398010 0.397919
0.462646 0.462738 0.462646
0.525970 0.526031 0.525940
0.586426 0.586517 0.586395
0.643524 0.643616 0.643494
0.697083 0.697174 0.697052
0.746979 0.747101 0.746948
0.793030 0.793152 0.793030
0.414764 0.414856 0.414764
0.479126 0.479187 0.479126
0.541809 0.541901 0.541779
0.601379 0.601471 0.601379
0.657562 0.657654 0.657562
0.710236 0.710327 0.710205
0.759125 0.759247 0.759125
0.804199 0.804321 0.804169
0.845123 0.845245 0.845062
0.495850 0.495911 0.495819
0.557587 0.557648 0.557556
0.616211 0.616333 0.616211
0.671478 0.671570 0.671448
0.723145 0.723236 0.723114
0.771057 0.771179 0.771057
0.815063 0.815186 0.815063
0.854889 0.855011 0.854889
0.890259 0.890411 0.890259
0.573151 0.573242 0.573120
0.630890 0.630981 0.630890
0.685211 0.685303 0.685181
0.735870 0.735962 0.735840
0.782745 0.782867 0.782745
0.825653 0.825775 0.825653
0.864349 0.864502 0.864349
0.898590 0.898743 0.898590
0.927979 0.928101 0.927917
0.645569 0.645660 0.645569
0.698792 0.698883 0.698761
0.748383 0.748505 0.748383
0.794281 0.794403 0.794250
0.836121 0.836212 0.836060
0.873596 0.873749 0.873596
0.906555 0.906677 0.906525
0.934662 0.934784 0.934631
0.957611 0.957764 0.957611
0.712433 0.712524 0.712402
0.760834 0.760925 0.760773
0.805573 0.805695 0.805542
0.846252 0.846375 0.846222
0.882599 0.882751 0.882599
0.914307 0.914429 0.914276
0.941071 0.941193 0.941040
0.962708 0.962860 0.962708
0.980499 0.980652 0.980469
0.773438 0.773529 0.773407
0.816681 0.816803 0.816681
0.856171 0.856293 0.856140
0.891327 0.891479 0.891327
0.921753 0.921906 0.921722
0.947174 0.947327 0.947174
0.967651 0.967804 0.967621
0.984650 0.984802 0.984619
0.999908 1.000000 0.999878
