滤镜资源/Professional Luts Collection/Lutify.me Professional/Black & White Films/Brookite.cube
# Created by: Lutify.me
# Copyright: (c) Copyright Lutify.me 2015
# Website: https://lutify.me
#LUT size
LUT_3D_SIZE 9
#LUT data points
0.000000 0.000000 0.000000
0.010071 0.010071 0.010071
0.028137 0.028137 0.028137
0.061035 0.061035 0.061035
0.103088 0.103088 0.103088
0.152679 0.152679 0.152679
0.208130 0.208130 0.208130
0.267944 0.267944 0.267944
0.331116 0.331146 0.331055
0.008850 0.008850 0.008850
0.025604 0.025604 0.025604
0.057098 0.057098 0.057098
0.098206 0.098206 0.098206
0.147034 0.147034 0.147034
0.201965 0.201965 0.201965
0.261353 0.261353 0.261353
0.324158 0.324188 0.324097
0.389374 0.389465 0.389374
0.023071 0.023071 0.023071
0.053101 0.053101 0.053101
0.093445 0.093445 0.093445
0.141449 0.141449 0.141449
0.195831 0.195831 0.195831
0.254761 0.254761 0.254761
0.317322 0.317322 0.317261
0.382324 0.382416 0.382324
0.448883 0.448975 0.448883
0.049316 0.049316 0.049316
0.088654 0.088654 0.088654
0.135986 0.135986 0.135986
0.189758 0.189758 0.189758
0.248260 0.248260 0.248260
0.310394 0.310425 0.310364
0.375214 0.375305 0.375214
0.441742 0.441803 0.441742
0.508789 0.508850 0.508759
0.084076 0.084076 0.084076
0.130493 0.130493 0.130493
0.183655 0.183655 0.183655
0.241791 0.241791 0.241791
0.303589 0.303619 0.303589
0.368134 0.368225 0.368103
0.434540 0.434631 0.434540
0.501617 0.501678 0.501587
0.568146 0.568237 0.568115
0.125305 0.125305 0.125305
0.177704 0.177704 0.177704
0.235352 0.235352 0.235352
0.296753 0.296753 0.296722
0.361115 0.361206 0.361115
0.427338 0.427429 0.427338
0.494385 0.494446 0.494354
0.561035 0.561157 0.561035
0.626129 0.626221 0.626099
0.172119 0.172119 0.172119
0.229095 0.229095 0.229095
0.290009 0.290009 0.290009
0.354126 0.354187 0.354095
0.420135 0.420197 0.420135
0.487122 0.487213 0.487122
0.553864 0.553925 0.553833
0.619202 0.619324 0.619202
0.681763 0.681885 0.681763
0.223083 0.223083 0.223083
0.283478 0.283478 0.283478
0.347137 0.347229 0.347137
0.412933 0.412994 0.412933
0.479950 0.480042 0.479950
0.546783 0.546875 0.546753
0.612305 0.612427 0.612305
0.675232 0.675323 0.675201
0.734100 0.734192 0.734070
0.277802 0.277802 0.277802
0.340515 0.340576 0.340454
0.406006 0.406097 0.406006
0.472778 0.472839 0.472778
0.539703 0.539764 0.539673
0.605469 0.605591 0.605469
0.668671 0.668762 0.668640
0.727936 0.728027 0.727936
0.781952 0.782074 0.781921
0.008057 0.008057 0.008057
0.023682 0.023682 0.023682
0.054047 0.054047 0.054047
0.094513 0.094513 0.094513
0.142822 0.142822 0.142822
0.197327 0.197327 0.197327
0.256409 0.256409 0.256409
0.319031 0.319061 0.318970
0.384064 0.384155 0.384064
0.021393 0.021393 0.021393
0.050446 0.050446 0.050446
0.089874 0.089874 0.089874
0.137390 0.137390 0.137390
0.191223 0.191223 0.191223
0.249908 0.249908 0.249908
0.312103 0.312103 0.312042
0.376953 0.377045 0.376953
0.443420 0.443512 0.443420
0.046570 0.046570 0.046570
0.085205 0.085205 0.085205
0.131989 0.131989 0.131989
0.185242 0.185242 0.185242
0.243378 0.243378 0.243378
0.305267 0.305267 0.305206
0.369873 0.369965 0.369873
0.436279 0.436371 0.436279
0.503326 0.503387 0.503296
0.080475 0.080475 0.080475
0.126556 0.126556 0.126556
0.179230 0.179230 0.179230
0.236938 0.236938 0.236938
0.298462 0.298492 0.298431
0.362823 0.362915 0.362793
0.429077 0.429169 0.429077
0.496124 0.496185 0.496094
0.562775 0.562836 0.562744
0.121277 0.121277 0.121277
0.173248 0.173248 0.173248
0.230499 0.230499 0.230499
0.291687 0.291687 0.291656
0.355804 0.355896 0.355804
0.421875 0.421967 0.421875
0.488892 0.488953 0.488892
0.555634 0.555725 0.555603
0.620850 0.620941 0.620850
0.167511 0.167511 0.167511
0.224182 0.224182 0.224182
0.284943 0.284943 0.284912
0.348755 0.348816 0.348724
0.414703 0.414795 0.414703
0.481628 0.481720 0.481628
0.548462 0.548553 0.548431
0.613922 0.614014 0.613922
0.676727 0.676849 0.676697
0.218079 0.218079 0.218079
0.278351 0.278351 0.278351
0.341797 0.341858 0.341766
0.407532 0.407623 0.407532
0.474426 0.474487 0.474426
0.541290 0.541382 0.541290
0.606964 0.607056 0.606934
0.670135 0.670227 0.670105
0.729340 0.729462 0.729340
0.272217 0.272217 0.272217
0.335052 0.335114 0.334991
0.400452 0.400513 0.400452
0.467224 0.467285 0.467224
0.534180 0.534241 0.534149
0.600006 0.600098 0.600006
0.663483 0.663574 0.663452
0.723206 0.723328 0.723206
0.777618 0.777740 0.777618
0.328705 0.328735 0.328644
0.393616 0.393707 0.393616
0.460144 0.460236 0.460144
0.527039 0.527100 0.527008
0.593048 0.593170 0.593048
0.656860 0.656952 0.656830
0.717072 0.717194 0.717072
0.772095 0.772217 0.772095
0.820557 0.820648 0.820526
0.019806 0.019806 0.019806
0.047333 0.047333 0.047333
0.086273 0.086273 0.086273
0.133148 0.133148 0.133148
0.186646 0.186646 0.186646
0.244934 0.244934 0.244934
0.306946 0.306946 0.306885
0.371613 0.371704 0.371613
0.438080 0.438171 0.438080
0.043549 0.043549 0.043549
0.081726 0.081726 0.081726
0.127899 0.127899 0.127899
0.180695 0.180695 0.180695
0.238495 0.238495 0.238495
0.300140 0.300140 0.300079
0.364532 0.364624 0.364532
0.430878 0.430939 0.430878
0.497864 0.497925 0.497833
0.077240 0.077240 0.077240
0.122559 0.122559 0.122559
0.174805 0.174805 0.174805
0.232117 0.232117 0.232117
0.293365 0.293396 0.293335
0.357513 0.357605 0.357513
0.423645 0.423706 0.423645
0.490631 0.490723 0.490631
0.557373 0.557465 0.557343
0.117310 0.117310 0.117310
0.168823 0.168823 0.168823
0.225739 0.225739 0.225739
0.286621 0.286621 0.286621
0.350494 0.350555 0.350464
0.416443 0.416534 0.416443
0.483429 0.483490 0.483429
0.550232 0.550293 0.550201
0.615631 0.615723 0.615601
0.162933 0.162933 0.162933
0.219360 0.219360 0.219360
0.279877 0.279877 0.279877
0.343506 0.343567 0.343475
0.409271 0.409393 0.409271
0.476166 0.476257 0.476166
0.543060 0.543121 0.543030
0.608673 0.608765 0.608673
0.671753 0.671844 0.671722
0.213226 0.213226 0.213226
0.273163 0.273163 0.273163
0.336487 0.336578 0.336487
0.402100 0.402191 0.402100
0.468933 0.469025 0.468933
0.535858 0.535919 0.535828
0.601654 0.601746 0.601624
0.665070 0.665161 0.665039
0.724670 0.724792 0.724640
0.266785 0.266785 0.266785
0.329681 0.329712 0.329620
0.395020 0.395111 0.395020
0.461731 0.461792 0.461731
0.528717 0.528778 0.528687
0.594666 0.594757 0.594635
0.658356 0.658447 0.658325
0.718445 0.718567 0.718414
0.773376 0.773499 0.773346
0.323395 0.323425 0.323334
0.388031 0.388123 0.388031
0.454559 0.454651 0.454559
0.521515 0.521606 0.521484
0.587677 0.587769 0.587646
0.651672 0.651764 0.651642
0.712189 0.712311 0.712158
0.767700 0.767822 0.767670
0.816772 0.816895 0.816772
0.381775 0.381866 0.381775
0.447723 0.447784 0.447723
0.514404 0.514465 0.514374
0.580688 0.580780 0.580688
0.644989 0.645081 0.644958
0.705933 0.706055 0.705902
0.762054 0.762177 0.762054
0.811859 0.811981 0.811859
0.854706 0.854858 0.854706
0.040894 0.040894 0.040894
0.078217 0.078217 0.078217
0.123749 0.123749 0.123749
0.176147 0.176147 0.176147
0.233643 0.233643 0.233643
0.294983 0.294983 0.294952
0.359222 0.359314 0.359222
0.425446 0.425537 0.425446
0.492493 0.492554 0.492493
0.073822 0.073822 0.073822
0.118591 0.118591 0.118591
0.170258 0.170258 0.170258
0.227264 0.227264 0.227264
0.288239 0.288239 0.288239
0.352203 0.352264 0.352173
0.418213 0.418304 0.418213
0.485199 0.485260 0.485199
0.552002 0.552094 0.551971
0.113312 0.113312 0.113312
0.164429 0.164429 0.164429
0.220947 0.220947 0.220947
0.281555 0.281555 0.281555
0.345245 0.345306 0.345215
0.411041 0.411133 0.411041
0.477966 0.478058 0.477966
0.544830 0.544891 0.544800
0.610382 0.610504 0.610382
0.158569 0.158569 0.158569
0.214630 0.214630 0.214630
0.274841 0.274841 0.274841
0.338226 0.338287 0.338196
0.403900 0.403961 0.403900
0.470703 0.470795 0.470703
0.537628 0.537720 0.537598
0.603394 0.603485 0.603394
0.666718 0.666809 0.666687
0.208466 0.208466 0.208466
0.268219 0.268219 0.268219
0.331329 0.331360 0.331268
0.396729 0.396820 0.396729
0.463501 0.463593 0.463501
0.530426 0.530518 0.530426
0.596375 0.596466 0.596344
0.660004 0.660126 0.660004
0.719971 0.720093 0.719971
0.261688 0.261688 0.261688
0.324402 0.324432 0.324371
0.389587 0.389679 0.389587
0.456299 0.456360 0.456299
0.523224 0.523315 0.523193
0.589325 0.589417 0.589294
0.653259 0.653351 0.653229
0.713715 0.713806 0.713684
0.769104 0.769196 0.769073
0.317749 0.317780 0.317688
0.382660 0.382751 0.382660
0.449097 0.449158 0.449097
0.516052 0.516113 0.516022
0.582306 0.582397 0.582275
0.646515 0.646606 0.646484
0.707367 0.707458 0.707336
0.763367 0.763489 0.763336
0.813019 0.813141 0.812988
0.375946 0.376038 0.375946
0.442078 0.442169 0.442078
0.508972 0.509033 0.508942
0.575287 0.575378 0.575256
0.639771 0.639862 0.639771
0.701050 0.701141 0.701019
0.757599 0.757721 0.757599
0.807953 0.808075 0.807953
0.851410 0.851532 0.851379
0.435486 0.435547 0.435486
0.501953 0.502045 0.501953
0.568329 0.568420 0.568298
0.632996 0.633087 0.632996
0.694702 0.694794 0.694672
0.751862 0.751953 0.751831
0.802948 0.803070 0.802917
0.847076 0.847198 0.847076
0.885040 0.885193 0.885010
0.070435 0.070435 0.070435
0.114502 0.114502 0.114502
0.165771 0.165771 0.165771
0.222443 0.222443 0.222443
0.283173 0.283173 0.283173
0.346924 0.346985 0.346893
0.412842 0.412933 0.412842
0.479828 0.479889 0.479828
0.546692 0.546753 0.546661
0.109467 0.109467 0.109467
0.160004 0.160004 0.160004
0.216125 0.216125 0.216125
0.276459 0.276459 0.276459
0.339996 0.340027 0.339935
0.405640 0.405731 0.405640
0.472534 0.472595 0.472534
0.539459 0.539520 0.539429
0.605133 0.605225 0.605133
0.154236 0.154236 0.154236
0.209869 0.209869 0.209869
0.269806 0.269806 0.269806
0.332977 0.333038 0.332947
0.398468 0.398560 0.398468
0.465302 0.465363 0.465302
0.532227 0.532318 0.532196
0.598114 0.598236 0.598114
0.661713 0.661804 0.661713
0.203583 0.203583 0.203583
0.263153 0.263153 0.263153
0.326050 0.326111 0.326019
0.391357 0.391449 0.391357
0.458069 0.458130 0.458069
0.525024 0.525116 0.525024
0.591064 0.591187 0.591064
0.654968 0.655060 0.654938
0.715302 0.715393 0.715271
0.256561 0.256561 0.256561
0.319183 0.319244 0.319122
0.384186 0.384277 0.384186
0.450836 0.450897 0.450836
0.517822 0.517883 0.517792
0.584015 0.584106 0.584015
0.648163 0.648285 0.648163
0.708923 0.709045 0.708923
0.764801 0.764923 0.764771
0.312622 0.312653 0.312561
0.377136 0.377228 0.377136
0.443634 0.443695 0.443634
0.510620 0.510712 0.510620
0.576935 0.577026 0.576904
0.641357 0.641418 0.641327
0.702545 0.702637 0.702515
0.759003 0.759094 0.758972
0.809204 0.809326 0.809204
0.370392 0.370483 0.370392
0.436554 0.436646 0.436554
0.503479 0.503540 0.503448
0.569916 0.570007 0.569885
0.634583 0.634674 0.634552
0.696136 0.696259 0.696136
0.753113 0.753235 0.753113
0.804077 0.804199 0.804047
0.848114 0.848236 0.848083
0.429962 0.430054 0.429962
0.496429 0.496490 0.496399
0.562897 0.562988 0.562897
0.627808 0.627930 0.627808
0.689758 0.689850 0.689728
0.747284 0.747406 0.747284
0.798920 0.799042 0.798920
0.843628 0.843750 0.843597
0.882111 0.882233 0.882111
0.490082 0.490143 0.490082
0.556091 0.556152 0.556061
0.621063 0.621155 0.621063
0.683380 0.683472 0.683350
0.741425 0.741516 0.741394
0.793762 0.793884 0.793732
0.839203 0.839325 0.839172
0.878265 0.878387 0.878235
0.912048 0.912170 0.912018
0.105530 0.105530 0.105530
0.155518 0.155518 0.155518
0.211365 0.211365 0.211365
0.271393 0.271393 0.271393
0.334686 0.334747 0.334656
0.400238 0.400330 0.400238
0.467133 0.467194 0.467133
0.534088 0.534149 0.534058
0.599976 0.600098 0.599976
0.149841 0.149841 0.149841
0.205170 0.205170 0.205170
0.264740 0.264740 0.264740
0.327728 0.327789 0.327698
0.393097 0.393188 0.393097
0.459839 0.459930 0.459839
0.526855 0.526917 0.526794
0.592865 0.592957 0.592865
0.656708 0.656799 0.656677
0.198914 0.198914 0.198914
0.258148 0.258148 0.258148
0.320831 0.320862 0.320770
0.385956 0.386047 0.385956
0.452606 0.452667 0.452606
0.519623 0.519684 0.519592
0.585815 0.585907 0.585785
0.649933 0.650024 0.649902
0.710602 0.710724 0.710602
0.251587 0.251587 0.251587
0.313904 0.313934 0.313873
0.378845 0.378937 0.378845
0.445374 0.445465 0.445374
0.512390 0.512451 0.512360
0.578705 0.578796 0.578674
0.643097 0.643188 0.643066
0.704193 0.704315 0.704163
0.760529 0.760651 0.760498
0.307129 0.307159 0.307098
0.371796 0.371887 0.371796
0.438171 0.438263 0.438171
0.505188 0.505249 0.505157
0.571594 0.571716 0.571594
0.636230 0.636322 0.636230
0.697723 0.697845 0.697723
0.754639 0.754761 0.754608
0.805420 0.805542 0.805389
0.365021 0.365112 0.365021
0.431000 0.431091 0.431000
0.497955 0.498047 0.497955
0.564545 0.564606 0.564514
0.629395 0.629486 0.629395
0.691223 0.691315 0.691193
0.748657 0.748779 0.748657
0.800171 0.800293 0.800140
0.844727 0.844849 0.844696
0.424103 0.424194 0.424103
0.490936 0.490997 0.490906
0.557495 0.557587 0.557465
0.622559 0.622650 0.622559
0.684814 0.684906 0.684784
0.742737 0.742828 0.742706
0.794861 0.794983 0.794830
0.840210 0.840332 0.840179
0.879181 0.879303 0.879150
0.484314 0.484406 0.484314
0.550598 0.550659 0.550568
0.615784 0.615875 0.615784
0.678375 0.678497 0.678345
0.736816 0.736938 0.736816
0.789642 0.789764 0.789612
0.835663 0.835754 0.835632
0.875214 0.875336 0.875183
0.909424 0.909576 0.909393
0.544403 0.544464 0.544373
0.609161 0.609283 0.609161
0.671967 0.672058 0.671936
0.730927 0.731018 0.730896
0.784393 0.784515 0.784393
0.831055 0.831207 0.831055
0.871277 0.871399 0.871246
0.906006 0.906128 0.905975
0.936401 0.936523 0.936371
0.145599 0.145599 0.145599
0.200439 0.200439 0.200439
0.259735 0.259735 0.259735
0.322510 0.322540 0.322449
0.387726 0.387817 0.387726
0.454437 0.454498 0.454437
0.521484 0.521545 0.521454
0.587616 0.587738 0.587616
0.651703 0.651794 0.651703
0.194244 0.194244 0.194244
0.253204 0.253204 0.253204
0.315613 0.315643 0.315552
0.380554 0.380646 0.380554
0.447174 0.447235 0.447174
0.514191 0.514282 0.514191
0.580536 0.580627 0.580505
0.644867 0.644958 0.644836
0.705841 0.705963 0.705841
0.246613 0.246613 0.246613
0.308716 0.308746 0.308685
0.373474 0.373566 0.373474
0.439941 0.440002 0.439941
0.506958 0.507050 0.506958
0.573395 0.573486 0.573395
0.638031 0.638123 0.638000
0.699432 0.699524 0.699402
0.756226 0.756317 0.756195
0.301910 0.301941 0.301880
0.366394 0.366486 0.366394
0.432709 0.432800 0.432709
0.499756 0.499817 0.499725
0.566315 0.566376 0.566284
0.631134 0.631226 0.631104
0.692932 0.693024 0.692902
0.750275 0.750366 0.750244
0.801605 0.801727 0.801575
0.359467 0.359558 0.359467
0.425568 0.425629 0.425568
0.492523 0.492615 0.492523
0.559174 0.559265 0.559143
0.624237 0.624329 0.624237
0.686401 0.686523 0.686401
0.744232 0.744354 0.744232
0.796295 0.796417 0.796295
0.841431 0.841553 0.841400
0.418579 0.418640 0.418579
0.485382 0.485443 0.485382
0.552063 0.552124 0.552032
0.617340 0.617462 0.617340
0.679901 0.679993 0.679871
0.738220 0.738312 0.738190
0.790894 0.791016 0.790863
0.836792 0.836914 0.836761
0.876221 0.876373 0.876221
0.478577 0.478638 0.478546
0.545074 0.545166 0.545044
0.610474 0.610596 0.610474
0.673370 0.673462 0.673340
0.732239 0.732361 0.732208
0.785522 0.785645 0.785492
0.832062 0.832184 0.832031
0.872162 0.872284 0.872131
0.906799 0.906952 0.906769
0.538391 0.538483 0.538361
0.603851 0.603943 0.603851
0.666870 0.666962 0.666840
0.726227 0.726349 0.726227
0.780212 0.780334 0.780212
0.827484 0.827606 0.827454
0.868134 0.868256 0.868103
0.903290 0.903412 0.903259
0.934021 0.934174 0.933990
0.597534 0.597626 0.597534
0.660583 0.660675 0.660553
0.720215 0.720337 0.720215
0.774841 0.774963 0.774841
0.822845 0.822968 0.822815
0.864105 0.864258 0.864105
0.899780 0.899902 0.899750
0.930908 0.931030 0.930878
0.958679 0.958832 0.958679
0.189575 0.189575 0.189575
0.248199 0.248199 0.248199
0.310425 0.310455 0.310394
0.375183 0.375305 0.375183
0.441742 0.441803 0.441742
0.508820 0.508881 0.508789
0.575256 0.575348 0.575226
0.639832 0.639923 0.639801
0.701172 0.701263 0.701141
0.241730 0.241730 0.241730
0.303589 0.303589 0.303528
0.368103 0.368195 0.368073
0.434509 0.434570 0.434509
0.501587 0.501648 0.501556
0.568085 0.568176 0.568054
0.632904 0.632996 0.632904
0.694641 0.694733 0.694611
0.751831 0.751953 0.751831
0.296692 0.296692 0.296631
0.361053 0.361145 0.361053
0.427307 0.427399 0.427307
0.494324 0.494385 0.494324
0.560974 0.561066 0.560944
0.626007 0.626129 0.626007
0.688141 0.688232 0.688110
0.745850 0.745972 0.745850
0.797791 0.797882 0.797760
0.354065 0.354126 0.354034
0.420105 0.420166 0.420105
0.487091 0.487152 0.487091
0.553802 0.553864 0.553772
0.619080 0.619171 0.619080
0.681580 0.681671 0.681549
0.739838 0.739960 0.739838
0.792389 0.792511 0.792358
0.838074 0.838196 0.838043
0.413055 0.413147 0.413055
0.479919 0.479980 0.479919
0.546692 0.546783 0.546661
0.612152 0.612244 0.612122
0.674988 0.675079 0.674957
0.733765 0.733856 0.733734
0.786987 0.787079 0.786957
0.833374 0.833496 0.833344
0.873291 0.873444 0.873291
0.472748 0.472839 0.472748
0.539612 0.539703 0.539581
0.605225 0.605316 0.605225
0.668396 0.668488 0.668365
0.727661 0.727753 0.727631
0.781494 0.781586 0.781464
0.828644 0.828766 0.828613
0.869171 0.869293 0.869171
0.904205 0.904358 0.904205
0.533051 0.533112 0.533020
0.598419 0.598541 0.598419
0.661835 0.661926 0.661804
0.721558 0.721680 0.721558
0.776062 0.776184 0.776031
0.823883 0.824005 0.823853
0.865051 0.865173 0.865021
0.900604 0.900757 0.900604
0.931671 0.931824 0.931641
0.591766 0.591888 0.591766
0.655334 0.655426 0.655304
0.715454 0.715576 0.715424
0.770538 0.770660 0.770508
0.819153 0.819275 0.819122
0.860931 0.861084 0.860931
0.897034 0.897186 0.897003
0.928467 0.928589 0.928436
0.956512 0.956635 0.956482
0.649353 0.649445 0.649323
0.709564 0.709686 0.709564
0.765076 0.765198 0.765076
0.814392 0.814514 0.814362
0.856842 0.856964 0.856842
0.893463 0.893616 0.893433
0.925323 0.925446 0.925293
0.953644 0.953766 0.953613
0.979645 0.979797 0.979614
0.236725 0.236725 0.236725
0.298370 0.298370 0.298309
0.362793 0.362854 0.362762
0.429016 0.429108 0.429016
0.496094 0.496155 0.496094
0.562744 0.562836 0.562714
0.627777 0.627869 0.627777
0.689880 0.689972 0.689850
0.747467 0.747589 0.747467
0.291534 0.291534 0.291534
0.355652 0.355743 0.355652
0.421783 0.421875 0.421783
0.488831 0.488892 0.488831
0.555603 0.555695 0.555573
0.620789 0.620911 0.620789
0.683289 0.683350 0.683258
0.741425 0.741516 0.741394
0.793854 0.793976 0.793823
0.348663 0.348755 0.348633
0.414520 0.414581 0.414520
0.481598 0.481659 0.481567
0.548431 0.548523 0.548401
0.613861 0.613953 0.613861
0.676666 0.676788 0.676666
0.735382 0.735474 0.735352
0.788452 0.788574 0.788452
0.834656 0.834778 0.834595
0.407471 0.407532 0.407471
0.474335 0.474396 0.474335
0.541260 0.541321 0.541229
0.606873 0.606964 0.606842
0.670044 0.670135 0.670013
0.729218 0.729309 0.729187
0.782990 0.783112 0.782959
0.829956 0.830078 0.829926
0.870300 0.870422 0.870300
0.467407 0.467468 0.467407
0.534119 0.534210 0.534088
0.599915 0.600006 0.599884
0.663391 0.663483 0.663361
0.723053 0.723145 0.723022
0.777435 0.777557 0.777405
0.825165 0.825287 0.825134
0.866180 0.866302 0.866150
0.901581 0.901703 0.901550
0.527039 0.527100 0.527008
0.592987 0.593109 0.592987
0.656769 0.656860 0.656738
0.716888 0.716980 0.716858
0.771851 0.771973 0.771851
0.820282 0.820404 0.820282
0.861969 0.862122 0.861969
0.897980 0.898102 0.897949
0.929291 0.929443 0.929260
0.586334 0.586456 0.586334
0.650208 0.650299 0.650177
0.710693 0.710785 0.710663
0.766296 0.766418 0.766266
0.815460 0.815582 0.815430
0.857788 0.857910 0.857758
0.894287 0.894440 0.894257
0.926086 0.926208 0.926056
0.954315 0.954468 0.954315
0.643982 0.644073 0.643951
0.704620 0.704712 0.704590
0.760712 0.760803 0.760681
0.810577 0.810699 0.810577
0.853577 0.853699 0.853577
0.890625 0.890778 0.890625
0.922852 0.922974 0.922821
0.951385 0.951538 0.951385
0.977570 0.977692 0.977539
0.699066 0.699188 0.699066
0.755188 0.755310 0.755188
0.805664 0.805786 0.805664
0.849335 0.849457 0.849304
0.886932 0.887085 0.886932
0.919617 0.919739 0.919586
0.948517 0.948639 0.948486
0.974823 0.974976 0.974792
0.999908 1.000000 0.999878
