滤镜资源/Professional Luts Collection/Lutify.me Professional/Black & White Films/Brookite.cube
# Created by: Lutify.me
# Copyright: (c) Copyright Lutify.me 2015
# Website: https://lutify.me
#LUT size
LUT_3D_SIZE 33
#LUT data points
0.000000 0.000000 0.000000
0.002319 0.002319 0.002319
0.005005 0.005005 0.005005
0.007385 0.007385 0.007385
0.010071 0.010071 0.010071
0.013611 0.013611 0.013611
0.017487 0.017487 0.017487
0.022339 0.022339 0.022339
0.028137 0.028137 0.028137
0.035065 0.035065 0.035065
0.043060 0.043060 0.043060
0.051819 0.051819 0.051819
0.061035 0.061035 0.061035
0.070709 0.070709 0.070709
0.080994 0.080994 0.080994
0.091858 0.091858 0.091858
0.103088 0.103088 0.103088
0.114777 0.114777 0.114777
0.126953 0.126953 0.126953
0.139587 0.139587 0.139587
0.152679 0.152679 0.152679
0.166077 0.166077 0.166077
0.179779 0.179779 0.179779
0.193787 0.193787 0.193787
0.208130 0.208130 0.208130
0.222687 0.222687 0.222687
0.237549 0.237549 0.237549
0.252655 0.252655 0.252655
0.267944 0.267944 0.267944
0.283539 0.283539 0.283539
0.299164 0.299164 0.299103
0.315063 0.315063 0.315002
0.331116 0.331146 0.331055
0.002319 0.002319 0.002319
0.004639 0.004639 0.004639
0.006958 0.006958 0.006958
0.009674 0.009674 0.009674
0.013245 0.013245 0.013245
0.017120 0.017120 0.017120
0.022003 0.022003 0.022003
0.027435 0.027435 0.027435
0.034241 0.034241 0.034241
0.042328 0.042328 0.042328
0.050873 0.050873 0.050873
0.059937 0.059937 0.059937
0.069672 0.069672 0.069672
0.079865 0.079865 0.079865
0.090576 0.090576 0.090576
0.101868 0.101868 0.101868
0.113495 0.113495 0.113495
0.125641 0.125641 0.125641
0.138306 0.138306 0.138306
0.151276 0.151276 0.151276
0.164581 0.164581 0.164581
0.178253 0.178253 0.178253
0.192291 0.192291 0.192291
0.206604 0.206604 0.206604
0.221069 0.221069 0.221069
0.235962 0.235962 0.235962
0.251007 0.251007 0.251007
0.266174 0.266174 0.266174
0.281738 0.281738 0.281738
0.297394 0.297394 0.297363
0.313354 0.313354 0.313293
0.329407 0.329468 0.329346
0.345551 0.345581 0.345490
0.004242 0.004242 0.004242
0.006927 0.006927 0.006927
0.009644 0.009644 0.009644
0.012878 0.012878 0.012878
0.016724 0.016724 0.016724
0.021332 0.021332 0.021332
0.026947 0.026947 0.026947
0.033569 0.033569 0.033569
0.041382 0.041382 0.041382
0.049896 0.049896 0.049896
0.059113 0.059113 0.059113
0.068665 0.068665 0.068665
0.078796 0.078796 0.078796
0.089478 0.089478 0.089478
0.100647 0.100647 0.100647
0.112305 0.112305 0.112305
0.124420 0.124420 0.124420
0.136932 0.136932 0.136932
0.149841 0.149841 0.149841
0.163177 0.163177 0.163177
0.176849 0.176849 0.176849
0.190796 0.190796 0.190796
0.205139 0.205139 0.205139
0.219635 0.219635 0.219635
0.234344 0.234344 0.234344
0.249359 0.249359 0.249359
0.264648 0.264648 0.264648
0.280121 0.280121 0.280121
0.295685 0.295685 0.295685
0.311676 0.311676 0.311615
0.327698 0.327759 0.327637
0.343719 0.343781 0.343689
0.360016 0.360107 0.360016
0.006531 0.006531 0.006531
0.009247 0.009247 0.009247
0.012543 0.012543 0.012543
0.016388 0.016388 0.016388
0.020935 0.020935 0.020935
0.026306 0.026306 0.026306
0.032806 0.032806 0.032806
0.040619 0.040619 0.040619
0.049011 0.049011 0.049011
0.058044 0.058044 0.058044
0.067596 0.067596 0.067596
0.077698 0.077698 0.077698
0.088287 0.088287 0.088287
0.099396 0.099396 0.099396
0.111023 0.111023 0.111023
0.123047 0.123047 0.123047
0.135529 0.135529 0.135529
0.148438 0.148438 0.148438
0.161713 0.161713 0.161713
0.175323 0.175323 0.175323
0.189240 0.189240 0.189240
0.203461 0.203461 0.203461
0.217987 0.217987 0.217987
0.232697 0.232697 0.232697
0.247711 0.247711 0.247711
0.263000 0.263000 0.263000
0.278442 0.278442 0.278442
0.294067 0.294067 0.294067
0.309875 0.309875 0.309814
0.325897 0.325958 0.325867
0.341980 0.342041 0.341949
0.358276 0.358368 0.358276
0.374634 0.374725 0.374634
0.008850 0.008850 0.008850
0.012115 0.012115 0.012115
0.015961 0.015961 0.015961
0.020203 0.020203 0.020203
0.025604 0.025604 0.025604
0.032074 0.032074 0.032074
0.039734 0.039734 0.039734
0.048035 0.048035 0.048035
0.057098 0.057098 0.057098
0.066589 0.066589 0.066589
0.076569 0.076569 0.076569
0.087097 0.087097 0.087097
0.098206 0.098206 0.098206
0.109772 0.109772 0.109772
0.121765 0.121765 0.121765
0.134247 0.134247 0.134247
0.147034 0.147034 0.147034
0.160248 0.160248 0.160248
0.173859 0.173859 0.173859
0.187775 0.187775 0.187775
0.201965 0.201965 0.201965
0.216400 0.216400 0.216400
0.231110 0.231110 0.231110
0.246124 0.246124 0.246124
0.261353 0.261353 0.261353
0.276764 0.276764 0.276764
0.292389 0.292389 0.292358
0.308197 0.308197 0.308136
0.324158 0.324188 0.324097
0.340302 0.340363 0.340240
0.356506 0.356567 0.356476
0.372925 0.373016 0.372925
0.389374 0.389465 0.389374
0.011658 0.011658 0.011658
0.015228 0.015228 0.015228
0.019806 0.019806 0.019806
0.025116 0.025116 0.025116
0.031311 0.031311 0.031311
0.038940 0.038940 0.038940
0.047089 0.047089 0.047089
0.055939 0.055939 0.055939
0.065521 0.065521 0.065521
0.075409 0.075409 0.075409
0.085999 0.085999 0.085999
0.096954 0.096954 0.096954
0.108429 0.108429 0.108429
0.120422 0.120422 0.120422
0.132843 0.132843 0.132843
0.145691 0.145691 0.145691
0.158844 0.158844 0.158844
0.172333 0.172333 0.172333
0.186218 0.186218 0.186218
0.200409 0.200409 0.200409
0.214844 0.214844 0.214844
0.229553 0.229553 0.229553
0.244507 0.244507 0.244507
0.259674 0.259674 0.259674
0.275085 0.275085 0.275085
0.290680 0.290680 0.290680
0.306458 0.306458 0.306396
0.322418 0.322449 0.322357
0.338531 0.338593 0.338501
0.354797 0.354858 0.354767
0.371124 0.371216 0.371124
0.387604 0.387695 0.387604
0.404205 0.404297 0.404205
0.014832 0.014832 0.014832
0.019287 0.019287 0.019287
0.024353 0.024353 0.024353
0.030487 0.030487 0.030487
0.038147 0.038147 0.038147
0.046356 0.046356 0.046356
0.055023 0.055023 0.055023
0.064423 0.064423 0.064423
0.074371 0.074371 0.074371
0.084900 0.084900 0.084900
0.095795 0.095795 0.095795
0.107239 0.107239 0.107239
0.119141 0.119141 0.119141
0.131470 0.131470 0.131470
0.144287 0.144287 0.144287
0.157440 0.157440 0.157440
0.170929 0.170929 0.170929
0.184753 0.184753 0.184753
0.198914 0.198914 0.198914
0.213318 0.213318 0.213318
0.227966 0.227966 0.227966
0.242889 0.242889 0.242889
0.258087 0.258087 0.258087
0.273438 0.273438 0.273438
0.289001 0.289001 0.289001
0.304810 0.304810 0.304779
0.320770 0.320801 0.320709
0.336853 0.336914 0.336792
0.353027 0.353119 0.352997
0.369385 0.369476 0.369385
0.385864 0.385925 0.385864
0.402496 0.402588 0.402496
0.419128 0.419220 0.419128
0.018616 0.018616 0.018616
0.023865 0.023865 0.023865
0.029755 0.029755 0.029755
0.037048 0.037048 0.037048
0.045288 0.045288 0.045288
0.054108 0.054108 0.054108
0.063446 0.063446 0.063446
0.073273 0.073273 0.073273
0.083679 0.083679 0.083679
0.094574 0.094574 0.094574
0.105988 0.105988 0.105988
0.117798 0.117798 0.117798
0.130157 0.130157 0.130157
0.142883 0.142883 0.142883
0.155945 0.155945 0.155945
0.169464 0.169464 0.169464
0.183258 0.183258 0.183258
0.197357 0.197357 0.197357
0.211731 0.211731 0.211731
0.226379 0.226379 0.226379
0.241272 0.241272 0.241272
0.256409 0.256409 0.256409
0.271759 0.271759 0.271759
0.287354 0.287354 0.287323
0.303101 0.303101 0.303070
0.319031 0.319031 0.318970
0.335083 0.335144 0.335052
0.351288 0.351379 0.351288
0.367645 0.367767 0.367645
0.384125 0.384216 0.384125
0.400696 0.400787 0.400696
0.417267 0.417358 0.417267
0.433960 0.434052 0.433960
0.023071 0.023071 0.023071
0.029144 0.029144 0.029144
0.036255 0.036255 0.036255
0.044281 0.044281 0.044281
0.053101 0.053101 0.053101
0.062347 0.062347 0.062347
0.072205 0.072205 0.072205
0.082550 0.082550 0.082550
0.093445 0.093445 0.093445
0.104767 0.104767 0.104767
0.116547 0.116547 0.116547
0.128815 0.128815 0.128815
0.141449 0.141449 0.141449
0.154510 0.154510 0.154510
0.167969 0.167969 0.167969
0.181763 0.181763 0.181763
0.195831 0.195831 0.195831
0.210175 0.210175 0.210175
0.224792 0.224792 0.224792
0.239655 0.239655 0.239655
0.254761 0.254761 0.254761
0.270111 0.270111 0.270111
0.285645 0.285645 0.285645
0.301392 0.301392 0.301331
0.317322 0.317322 0.317261
0.333374 0.333435 0.333313
0.349518 0.349609 0.349518
0.365875 0.365967 0.365875
0.382324 0.382416 0.382324
0.398865 0.398956 0.398865
0.415527 0.415619 0.415527
0.432159 0.432251 0.432159
0.448883 0.448975 0.448883
0.028442 0.028442 0.028442
0.035400 0.035400 0.035400
0.043518 0.043518 0.043518
0.052124 0.052124 0.052124
0.061401 0.061401 0.061401
0.071045 0.071045 0.071045
0.081390 0.081390 0.081390
0.092255 0.092255 0.092255
0.103485 0.103485 0.103485
0.115356 0.115356 0.115356
0.127533 0.127533 0.127533
0.140106 0.140106 0.140106
0.153168 0.153168 0.153168
0.166565 0.166565 0.166565
0.180267 0.180267 0.180267
0.194305 0.194305 0.194305
0.208649 0.208649 0.208649
0.223236 0.223236 0.223236
0.238068 0.238068 0.238068
0.253143 0.253143 0.253143
0.268433 0.268433 0.268433
0.283966 0.283966 0.283966
0.299683 0.299683 0.299652
0.315582 0.315582 0.315521
0.331604 0.331665 0.331543
0.347778 0.347839 0.347748
0.364075 0.364166 0.364075
0.380524 0.380615 0.380524
0.397064 0.397156 0.397064
0.413727 0.413818 0.413727
0.430389 0.430481 0.430389
0.447144 0.447235 0.447144
0.463898 0.463959 0.463898
0.034607 0.034607 0.034607
0.042511 0.042511 0.042511
0.051208 0.051208 0.051208
0.060333 0.060333 0.060333
0.070007 0.070007 0.070007
0.080261 0.080261 0.080261
0.090973 0.090973 0.090973
0.102234 0.102234 0.102234
0.114014 0.114014 0.114014
0.126129 0.126129 0.126129
0.138855 0.138855 0.138855
0.151764 0.151764 0.151764
0.165070 0.165070 0.165070
0.178772 0.178772 0.178772
0.192810 0.192810 0.192810
0.207123 0.207123 0.207123
0.221680 0.221680 0.221680
0.236481 0.236481 0.236481
0.251526 0.251526 0.251526
0.266785 0.266785 0.266785
0.282288 0.282288 0.282288
0.297974 0.298004 0.297943
0.313843 0.313873 0.313812
0.329895 0.329956 0.329834
0.346039 0.346130 0.346008
0.362335 0.362427 0.362335
0.378754 0.378845 0.378754
0.395294 0.395386 0.395294
0.411926 0.412018 0.411926
0.428650 0.428711 0.428650
0.445343 0.445435 0.445343
0.462097 0.462189 0.462097
0.478851 0.478912 0.478851
0.041687 0.041687 0.041687
0.050232 0.050232 0.050232
0.059387 0.059387 0.059387
0.068939 0.068939 0.068939
0.079071 0.079071 0.079071
0.089813 0.089813 0.089813
0.100952 0.100952 0.100952
0.112701 0.112701 0.112701
0.124786 0.124786 0.124786
0.137390 0.137390 0.137390
0.150299 0.150299 0.150299
0.163635 0.163635 0.163635
0.177277 0.177277 0.177277
0.191223 0.191223 0.191223
0.205536 0.205536 0.205536
0.220062 0.220062 0.220062
0.234863 0.234863 0.234863
0.249878 0.249878 0.249878
0.265137 0.265137 0.265137
0.280609 0.280609 0.280579
0.296265 0.296265 0.296234
0.312134 0.312164 0.312073
0.328125 0.328186 0.328064
0.344299 0.344360 0.344269
0.360565 0.360657 0.360565
0.376984 0.377075 0.376984
0.393524 0.393585 0.393524
0.410126 0.410217 0.410126
0.426819 0.426910 0.426819
0.443542 0.443604 0.443542
0.460297 0.460358 0.460297
0.477081 0.477173 0.477081
0.493835 0.493927 0.493835
0.049316 0.049316 0.049316
0.058289 0.058289 0.058289
0.067932 0.067932 0.067932
0.077972 0.077972 0.077972
0.088654 0.088654 0.088654
0.099762 0.099762 0.099762
0.111420 0.111420 0.111420
0.123505 0.123505 0.123505
0.135986 0.135986 0.135986
0.148834 0.148834 0.148834
0.162201 0.162201 0.162201
0.175781 0.175781 0.175781
0.189758 0.189758 0.189758
0.203949 0.203949 0.203949
0.218445 0.218445 0.218445
0.233246 0.233246 0.233246
0.248260 0.248260 0.248260
0.263489 0.263489 0.263489
0.278931 0.278931 0.278931
0.294586 0.294586 0.294556
0.310394 0.310425 0.310364
0.326416 0.326447 0.326355
0.342560 0.342621 0.342499
0.358826 0.358917 0.358795
0.375214 0.375305 0.375214
0.391724 0.391815 0.391724
0.408325 0.408417 0.408325
0.425018 0.425079 0.425018
0.441742 0.441803 0.441742
0.458496 0.458557 0.458496
0.475250 0.475342 0.475250
0.492035 0.492126 0.492035
0.508789 0.508850 0.508759
0.057281 0.057281 0.057281
0.066803 0.066803 0.066803
0.076904 0.076904 0.076904
0.087463 0.087463 0.087463
0.098511 0.098511 0.098511
0.110107 0.110107 0.110107
0.122162 0.122162 0.122162
0.134613 0.134613 0.134613
0.147491 0.147491 0.147491
0.160706 0.160706 0.160706
0.174316 0.174316 0.174316
0.188263 0.188263 0.188263
0.202423 0.202423 0.202423
0.216949 0.216949 0.216949
0.231659 0.231659 0.231659
0.246643 0.246643 0.246643
0.261810 0.261810 0.261810
0.277252 0.277252 0.277252
0.292908 0.292908 0.292877
0.308716 0.308746 0.308685
0.324677 0.324707 0.324615
0.340790 0.340851 0.340759
0.357056 0.357147 0.357025
0.373444 0.373535 0.373444
0.389984 0.390076 0.389984
0.406525 0.406616 0.406525
0.423157 0.423248 0.423157
0.439911 0.440002 0.439911
0.456696 0.456787 0.456696
0.473480 0.473541 0.473480
0.490234 0.490326 0.490234
0.506989 0.507050 0.506958
0.523651 0.523712 0.523621
0.065735 0.065735 0.065735
0.075836 0.075836 0.075836
0.086304 0.086304 0.086304
0.097321 0.097321 0.097321
0.108765 0.108765 0.108765
0.120758 0.120758 0.120758
0.133270 0.133270 0.133270
0.146057 0.146057 0.146057
0.159302 0.159302 0.159302
0.172821 0.172821 0.172821
0.186707 0.186707 0.186707
0.200928 0.200928 0.200928
0.215363 0.215363 0.215363
0.230103 0.230103 0.230103
0.245026 0.245026 0.245026
0.260223 0.260223 0.260223
0.275635 0.275635 0.275604
0.291199 0.291199 0.291168
0.306976 0.307007 0.306946
0.322998 0.322998 0.322937
0.339081 0.339142 0.339050
0.355316 0.355377 0.355286
0.371643 0.371765 0.371643
0.388184 0.388275 0.388184
0.404785 0.404877 0.404785
0.421448 0.421509 0.421448
0.438110 0.438171 0.438110
0.454865 0.454956 0.454865
0.471710 0.471771 0.471710
0.488464 0.488525 0.488464
0.505188 0.505249 0.505157
0.521912 0.521973 0.521881
0.538574 0.538635 0.538544
0.074677 0.074677 0.074677
0.085297 0.085297 0.085297
0.096130 0.096130 0.096130
0.107605 0.107605 0.107605
0.119476 0.119476 0.119476
0.131866 0.131866 0.131866
0.144653 0.144653 0.144653
0.157867 0.157867 0.157867
0.171326 0.171326 0.171326
0.185211 0.185211 0.185211
0.199371 0.199371 0.199371
0.213806 0.213806 0.213806
0.228516 0.228516 0.228516
0.243408 0.243408 0.243408
0.258606 0.258606 0.258606
0.273956 0.273956 0.273956
0.289551 0.289551 0.289520
0.305298 0.305328 0.305267
0.321259 0.321289 0.321198
0.337311 0.337372 0.337280
0.353546 0.353638 0.353516
0.369934 0.370026 0.369934
0.386383 0.386475 0.386383
0.402954 0.403046 0.402954
0.419647 0.419739 0.419647
0.436340 0.436432 0.436340
0.453064 0.453156 0.453064
0.469849 0.469940 0.469849
0.486664 0.486725 0.486664
0.503418 0.503479 0.503418
0.520111 0.520172 0.520081
0.536804 0.536896 0.536774
0.553406 0.553497 0.553375
0.084076 0.084076 0.084076
0.095123 0.095123 0.095123
0.106384 0.106384 0.106384
0.118225 0.118225 0.118225
0.130493 0.130493 0.130493
0.143219 0.143219 0.143219
0.156372 0.156372 0.156372
0.169922 0.169922 0.169922
0.183655 0.183655 0.183655
0.197815 0.197815 0.197815
0.212250 0.212250 0.212250
0.226898 0.226898 0.226898
0.241791 0.241791 0.241791
0.256927 0.256927 0.256927
0.272278 0.272278 0.272278
0.287842 0.287842 0.287811
0.303589 0.303619 0.303589
0.319519 0.319550 0.319458
0.335571 0.335602 0.335541
0.351807 0.351868 0.351776
0.368134 0.368225 0.368103
0.384583 0.384674 0.384583
0.401154 0.401245 0.401154
0.417847 0.417908 0.417847
0.434540 0.434631 0.434540
0.451294 0.451385 0.451294
0.467987 0.468079 0.467987
0.484833 0.484924 0.484833
0.501617 0.501678 0.501587
0.518311 0.518372 0.518280
0.535004 0.535065 0.534973
0.551605 0.551697 0.551575
0.568146 0.568237 0.568115
0.093750 0.093750 0.093750
0.105286 0.105286 0.105286
0.116943 0.116943 0.116943
0.129211 0.129211 0.129211
0.141815 0.141815 0.141815
0.154907 0.154907 0.154907
0.168365 0.168365 0.168365
0.182190 0.182190 0.182190
0.196259 0.196259 0.196259
0.210632 0.210632 0.210632
0.225281 0.225281 0.225281
0.240173 0.240173 0.240173
0.255280 0.255280 0.255280
0.270599 0.270599 0.270599
0.286133 0.286133 0.286102
0.301849 0.301880 0.301819
0.317810 0.317810 0.317749
0.333862 0.333923 0.333832
0.350067 0.350159 0.350037
0.366394 0.366455 0.366364
0.382843 0.382935 0.382843
0.399384 0.399475 0.399384
0.415985 0.416077 0.415985
0.432709 0.432770 0.432709
0.449463 0.449554 0.449463
0.466248 0.466339 0.466248
0.482971 0.483032 0.482971
0.499756 0.499847 0.499756
0.516541 0.516602 0.516510
0.533234 0.533295 0.533203
0.549805 0.549896 0.549774
0.566376 0.566467 0.566345
0.582764 0.582855 0.582733
0.103882 0.103882 0.103882
0.115753 0.115753 0.115753
0.127960 0.127960 0.127960
0.140533 0.140533 0.140533
0.153503 0.153503 0.153503
0.166901 0.166901 0.166901
0.180725 0.180725 0.180725
0.194763 0.194763 0.194763
0.209076 0.209076 0.209076
0.223694 0.223694 0.223694
0.238525 0.238525 0.238525
0.253632 0.253632 0.253632
0.268982 0.268982 0.268982
0.284454 0.284454 0.284424
0.300171 0.300171 0.300140
0.316101 0.316101 0.316040
0.332062 0.332123 0.332031
0.348328 0.348389 0.348267
0.364594 0.364685 0.364594
0.381042 0.381134 0.381042
0.397644 0.397736 0.397644
0.414246 0.414307 0.414246
0.430908 0.430969 0.430908
0.447662 0.447723 0.447662
0.464417 0.464478 0.464417
0.481201 0.481262 0.481201
0.497955 0.498016 0.497955
0.514709 0.514771 0.514679
0.531372 0.531464 0.531342
0.548065 0.548157 0.548035
0.564606 0.564697 0.564575
0.581055 0.581146 0.581024
0.597290 0.597412 0.597290
0.114441 0.114441 0.114441
0.126648 0.126648 0.126648
0.139313 0.139313 0.139313
0.152161 0.152161 0.152161
0.165466 0.165466 0.165466
0.179169 0.179169 0.179169
0.193268 0.193268 0.193268
0.207550 0.207550 0.207550
0.222107 0.222107 0.222107
0.236938 0.236938 0.236938
0.251984 0.251984 0.251984
0.267273 0.267273 0.267273
0.282776 0.282776 0.282745
0.298462 0.298492 0.298431
0.314331 0.314362 0.314301
0.330414 0.330475 0.330353
0.346588 0.346649 0.346558
0.362823 0.362915 0.362823
0.379272 0.379364 0.379272
0.395782 0.395874 0.395782
0.412415 0.412506 0.412415
0.429138 0.429199 0.429138
0.445801 0.445862 0.445801
0.462616 0.462677 0.462616
0.479401 0.479462 0.479401
0.496155 0.496246 0.496155
0.512909 0.512970 0.512878
0.529633 0.529694 0.529602
0.546265 0.546356 0.546234
0.562836 0.562927 0.562805
0.579285 0.579376 0.579254
0.595581 0.595703 0.595581
0.611786 0.611877 0.611786
0.125305 0.125305 0.125305
0.137970 0.137970 0.137970
0.150909 0.150909 0.150909
0.164093 0.164093 0.164093
0.177704 0.177704 0.177704
0.191711 0.191711 0.191711
0.206024 0.206024 0.206024
0.220490 0.220490 0.220490
0.235352 0.235352 0.235352
0.250397 0.250397 0.250397
0.265625 0.265625 0.265625
0.281067 0.281067 0.281067
0.296753 0.296753 0.296722
0.312592 0.312622 0.312531
0.328644 0.328705 0.328583
0.344788 0.344879 0.344757
0.361115 0.361206 0.361115
0.377502 0.377594 0.377502
0.394043 0.394135 0.394043
0.410583 0.410675 0.410583
0.427338 0.427429 0.427338
0.444061 0.444153 0.444061
0.460815 0.460876 0.460815
0.477509 0.477600 0.477509
0.494385 0.494446 0.494354
0.511108 0.511169 0.511078
0.527832 0.527893 0.527802
0.544495 0.544586 0.544464
0.561035 0.561157 0.561035
0.577484 0.577576 0.577484
0.593842 0.593933 0.593842
0.610107 0.610199 0.610107
0.626129 0.626221 0.626099
0.136536 0.136536 0.136536
0.149628 0.149628 0.149628
0.162842 0.162842 0.162842
0.176331 0.176331 0.176331
0.190216 0.190216 0.190216
0.204407 0.204407 0.204407
0.218964 0.218964 0.218964
0.233673 0.233673 0.233673
0.248718 0.248718 0.248718
0.264008 0.264008 0.264008
0.279449 0.279449 0.279419
0.295044 0.295044 0.295013
0.310883 0.310913 0.310852
0.326874 0.326935 0.326813
0.343018 0.343109 0.342987
0.359344 0.359436 0.359314
0.375702 0.375793 0.375702
0.392242 0.392334 0.392242
0.408844 0.408936 0.408844
0.425537 0.425598 0.425537
0.442230 0.442291 0.442230
0.459045 0.459137 0.459045
0.475830 0.475891 0.475800
0.492554 0.492615 0.492554
0.509277 0.509338 0.509247
0.525940 0.526031 0.525909
0.542694 0.542755 0.542664
0.559265 0.559357 0.559235
0.575714 0.575806 0.575684
0.592041 0.592163 0.592041
0.608307 0.608398 0.608307
0.624420 0.624512 0.624420
0.640259 0.640381 0.640259
0.148010 0.148010 0.148010
0.161438 0.161438 0.161438
0.174957 0.174957 0.174957
0.188812 0.188812 0.188812
0.202942 0.202942 0.202942
0.217346 0.217346 0.217346
0.232147 0.232147 0.232147
0.247131 0.247131 0.247131
0.262360 0.262360 0.262360
0.277740 0.277740 0.277740
0.293396 0.293396 0.293365
0.309204 0.309204 0.309174
0.325195 0.325226 0.325134
0.341339 0.341431 0.341309
0.357574 0.357666 0.357544
0.373932 0.374054 0.373932
0.390442 0.390564 0.390442
0.407043 0.407135 0.407043
0.423706 0.423798 0.423706
0.440399 0.440491 0.440399
0.457184 0.457245 0.457184
0.473969 0.474030 0.473969
0.490845 0.490906 0.490845
0.507538 0.507599 0.507507
0.524261 0.524323 0.524231
0.540894 0.540955 0.540863
0.557404 0.557495 0.557373
0.573944 0.574005 0.573914
0.590302 0.590393 0.590302
0.606567 0.606659 0.606567
0.622650 0.622772 0.622650
0.638519 0.638611 0.638489
0.654205 0.654297 0.654205
0.159943 0.159943 0.159943
0.173584 0.173584 0.173584
0.187439 0.187439 0.187439
0.201569 0.201569 0.201569
0.215912 0.215912 0.215912
0.230530 0.230530 0.230530
0.245514 0.245514 0.245514
0.260712 0.260712 0.260712
0.276123 0.276123 0.276123
0.291748 0.291748 0.291718
0.307556 0.307556 0.307495
0.323486 0.323517 0.323425
0.339600 0.339661 0.339539
0.355835 0.355927 0.355804
0.372253 0.372345 0.372253
0.388733 0.388824 0.388733
0.405273 0.405365 0.405273
0.421875 0.421967 0.421875
0.438660 0.438751 0.438660
0.455414 0.455505 0.455414
0.472137 0.472198 0.472137
0.488922 0.488983 0.488892
0.505707 0.505768 0.505676
0.522461 0.522522 0.522430
0.539093 0.539154 0.539062
0.555725 0.555786 0.555695
0.572174 0.572266 0.572144
0.588562 0.588654 0.588531
0.604828 0.604919 0.604828
0.620941 0.621033 0.620911
0.636871 0.636963 0.636841
0.652557 0.652649 0.652527
0.668060 0.668152 0.668030
0.172119 0.172119 0.172119
0.186005 0.186005 0.186005
0.200043 0.200043 0.200043
0.214417 0.214417 0.214417
0.229095 0.229095 0.229095
0.243927 0.243927 0.243927
0.259064 0.259064 0.259064
0.274445 0.274445 0.274445
0.290009 0.290009 0.290009
0.305817 0.305817 0.305756
0.321808 0.321838 0.321747
0.337891 0.337952 0.337860
0.354126 0.354187 0.354095
0.370453 0.370544 0.370453
0.386932 0.387024 0.386932
0.403534 0.403595 0.403534
0.420135 0.420197 0.420135
0.436798 0.436859 0.436798
0.453552 0.453613 0.453552
0.470398 0.470459 0.470398
0.487122 0.487213 0.487122
0.503845 0.503906 0.503845
0.520599 0.520691 0.520599
0.537292 0.537354 0.537262
0.553864 0.553925 0.553833
0.570435 0.570526 0.570404
0.586761 0.586853 0.586761
0.603119 0.603241 0.603119
0.619202 0.619324 0.619202
0.635132 0.635223 0.635101
0.650940 0.651031 0.650909
0.666412 0.666504 0.666382
0.681763 0.681885 0.681763
0.184357 0.184357 0.184357
0.198792 0.198792 0.198792
0.212921 0.212921 0.212921
0.227539 0.227539 0.227539
0.242401 0.242401 0.242401
0.257477 0.257477 0.257477
0.272827 0.272827 0.272827
0.288391 0.288391 0.288361
0.304108 0.304138 0.304077
0.320007 0.320068 0.319946
0.336151 0.336212 0.336121
0.352386 0.352448 0.352356
0.368713 0.368805 0.368713
0.385162 0.385254 0.385162
0.401733 0.401825 0.401733
0.418396 0.418457 0.418396
0.435089 0.435150 0.435089
0.451752 0.451843 0.451752
0.468536 0.468628 0.468536
0.485321 0.485413 0.485321
0.502075 0.502167 0.502075
0.518829 0.518921 0.518799
0.535461 0.535553 0.535431
0.552094 0.552185 0.552063
0.568634 0.568695 0.568604
0.585052 0.585144 0.585022
0.601318 0.601410 0.601318
0.617432 0.617523 0.617432
0.633484 0.633575 0.633453
0.649200 0.649292 0.649170
0.664825 0.664917 0.664795
0.680115 0.680237 0.680084
0.695190 0.695312 0.695190
0.197083 0.197083 0.197083
0.211792 0.211792 0.211792
0.226105 0.226105 0.226105
0.240906 0.240906 0.240906
0.256012 0.256012 0.256012
0.271240 0.271240 0.271240
0.286774 0.286774 0.286743
0.302429 0.302460 0.302399
0.318359 0.318390 0.318298
0.334412 0.334473 0.334351
0.350586 0.350677 0.350586
0.366913 0.367004 0.366913
0.383331 0.383423 0.383331
0.399933 0.400024 0.399933
0.416565 0.416656 0.416565
0.433289 0.433350 0.433289
0.450012 0.450073 0.450012
0.466736 0.466827 0.466736
0.483521 0.483612 0.483521
0.500336 0.500427 0.500336
0.517059 0.517120 0.517059
0.533722 0.533813 0.533691
0.550415 0.550507 0.550385
0.566895 0.566986 0.566864
0.583282 0.583344 0.583252
