滤镜资源/Professional Luts Collection/Lutify.me Professional/Black & White Films/Brookite.cube
# Created by: Lutify.me
# Copyright: (c) Copyright Lutify.me 2015
# Website: https://lutify.me
#LUT size
LUT_3D_SIZE 5
#LUT data points
0.000000 0.000000 0.000000
0.028137 0.028137 0.028137
0.103088 0.103088 0.103088
0.208130 0.208130 0.208130
0.331116 0.331146 0.331055
0.023071 0.023071 0.023071
0.093445 0.093445 0.093445
0.195831 0.195831 0.195831
0.317322 0.317322 0.317261
0.448883 0.448975 0.448883
0.084076 0.084076 0.084076
0.183655 0.183655 0.183655
0.303589 0.303619 0.303589
0.434540 0.434631 0.434540
0.568146 0.568237 0.568115
0.172119 0.172119 0.172119
0.290009 0.290009 0.290009
0.420135 0.420197 0.420135
0.553864 0.553925 0.553833
0.681763 0.681885 0.681763
0.277802 0.277802 0.277802
0.406006 0.406097 0.406006
0.539703 0.539764 0.539673
0.668671 0.668762 0.668640
0.781952 0.782074 0.781921
0.019806 0.019806 0.019806
0.086273 0.086273 0.086273
0.186646 0.186646 0.186646
0.306946 0.306946 0.306885
0.438080 0.438171 0.438080
0.077240 0.077240 0.077240
0.174805 0.174805 0.174805
0.293365 0.293396 0.293335
0.423645 0.423706 0.423645
0.557373 0.557465 0.557343
0.162933 0.162933 0.162933
0.279877 0.279877 0.279877
0.409271 0.409393 0.409271
0.543060 0.543121 0.543030
0.671753 0.671844 0.671722
0.266785 0.266785 0.266785
0.395020 0.395111 0.395020
0.528717 0.528778 0.528687
0.658356 0.658447 0.658325
0.773376 0.773499 0.773346
0.381775 0.381866 0.381775
0.514404 0.514465 0.514374
0.644989 0.645081 0.644958
0.762054 0.762177 0.762054
0.854706 0.854858 0.854706
0.070435 0.070435 0.070435
0.165771 0.165771 0.165771
0.283173 0.283173 0.283173
0.412842 0.412933 0.412842
0.546692 0.546753 0.546661
0.154236 0.154236 0.154236
0.269806 0.269806 0.269806
0.398468 0.398560 0.398468
0.532227 0.532318 0.532196
0.661713 0.661804 0.661713
0.256561 0.256561 0.256561
0.384186 0.384277 0.384186
0.517822 0.517883 0.517792
0.648163 0.648285 0.648163
0.764801 0.764923 0.764771
0.370392 0.370483 0.370392
0.503479 0.503540 0.503448
0.634583 0.634674 0.634552
0.753113 0.753235 0.753113
0.848114 0.848236 0.848083
0.490082 0.490143 0.490082
0.621063 0.621155 0.621063
0.741425 0.741516 0.741394
0.839203 0.839325 0.839172
0.912048 0.912170 0.912018
0.145599 0.145599 0.145599
0.259735 0.259735 0.259735
0.387726 0.387817 0.387726
0.521484 0.521545 0.521454
0.651703 0.651794 0.651703
0.246613 0.246613 0.246613
0.373474 0.373566 0.373474
0.506958 0.507050 0.506958
0.638031 0.638123 0.638000
0.756226 0.756317 0.756195
0.359467 0.359558 0.359467
0.492523 0.492615 0.492523
0.624237 0.624329 0.624237
0.744232 0.744354 0.744232
0.841431 0.841553 0.841400
0.478577 0.478638 0.478546
0.610474 0.610596 0.610474
0.732239 0.732361 0.732208
0.832062 0.832184 0.832031
0.906799 0.906952 0.906769
0.597534 0.597626 0.597534
0.720215 0.720337 0.720215
0.822845 0.822968 0.822815
0.899780 0.899902 0.899750
0.958679 0.958832 0.958679
0.236725 0.236725 0.236725
0.362793 0.362854 0.362762
0.496094 0.496155 0.496094
0.627777 0.627869 0.627777
0.747467 0.747589 0.747467
0.348663 0.348755 0.348633
0.481598 0.481659 0.481567
0.613861 0.613953 0.613861
0.735382 0.735474 0.735352
0.834656 0.834778 0.834595
0.467407 0.467468 0.467407
0.599915 0.600006 0.599884
0.723053 0.723145 0.723022
0.825165 0.825287 0.825134
0.901581 0.901703 0.901550
0.586334 0.586456 0.586334
0.710693 0.710785 0.710663
0.815460 0.815582 0.815430
0.894287 0.894440 0.894257
0.954315 0.954468 0.954315
0.699066 0.699188 0.699066
0.805664 0.805786 0.805664
0.886932 0.887085 0.886932
0.948517 0.948639 0.948486
0.999908 1.000000 0.999878
