滤镜资源/Professional Luts Collection/Lutify.me Professional/Black & White Films/Carborundum.cube
# Created by: Lutify.me
# Copyright: (c) Copyright Lutify.me 2015
# Website: https://lutify.me
#LUT size
LUT_3D_SIZE 33
#LUT data points
0.000000 0.000000 0.000000
0.000397 0.000397 0.000397
0.000793 0.000793 0.000793
0.001526 0.001526 0.001526
0.002289 0.002289 0.002289
0.003082 0.003082 0.003082
0.003906 0.003906 0.003906
0.005310 0.005310 0.005310
0.007141 0.007141 0.007141
0.009247 0.009247 0.009247
0.012268 0.012268 0.012268
0.016052 0.016052 0.016052
0.020538 0.020538 0.020538
0.026093 0.026093 0.026093
0.033264 0.033264 0.033264
0.041840 0.041840 0.041840
0.051300 0.051300 0.051300
0.061432 0.061432 0.061432
0.071960 0.071960 0.071960
0.083038 0.083038 0.083038
0.094727 0.094727 0.094727
0.106720 0.106720 0.106720
0.119171 0.119171 0.119171
0.132080 0.132080 0.132080
0.145477 0.145477 0.145477
0.159332 0.159332 0.159332
0.173615 0.173615 0.173615
0.188385 0.188385 0.188385
0.203674 0.203674 0.203674
0.219452 0.219452 0.219452
0.235657 0.235657 0.235657
0.252319 0.252319 0.252319
0.269501 0.269501 0.269501
0.000397 0.000397 0.000397
0.000793 0.000793 0.000793
0.001526 0.001526 0.001526
0.001923 0.001923 0.001923
0.002747 0.002747 0.002747
0.003845 0.003845 0.003845
0.005341 0.005341 0.005341
0.006927 0.006927 0.006927
0.009125 0.009125 0.009125
0.011963 0.011963 0.011963
0.015594 0.015594 0.015594
0.020142 0.020142 0.020142
0.025757 0.025757 0.025757
0.032593 0.032593 0.032593
0.040955 0.040955 0.040955
0.050323 0.050323 0.050323
0.060211 0.060211 0.060211
0.070801 0.070801 0.070801
0.081940 0.081940 0.081940
0.093384 0.093384 0.093384
0.105347 0.105347 0.105347
0.117828 0.117828 0.117828
0.130707 0.130707 0.130707
0.144043 0.144043 0.144043
0.157776 0.157776 0.157776
0.172089 0.172089 0.172089
0.186829 0.186829 0.186829
0.201904 0.201904 0.201904
0.217651 0.217651 0.217651
0.233795 0.233795 0.233795
0.250549 0.250549 0.250549
0.267609 0.267609 0.267609
0.285217 0.285217 0.285217
0.000793 0.000793 0.000793
0.001526 0.001526 0.001526
0.001923 0.001923 0.001923
0.002747 0.002747 0.002747
0.003815 0.003815 0.003815
0.005005 0.005005 0.005005
0.006836 0.006836 0.006836
0.008820 0.008820 0.008820
0.011597 0.011597 0.011597
0.015045 0.015045 0.015045
0.019470 0.019470 0.019470
0.024963 0.024963 0.024963
0.031830 0.031830 0.031830
0.039978 0.039978 0.039978
0.049225 0.049225 0.049225
0.059296 0.059296 0.059296
0.069733 0.069733 0.069733
0.080627 0.080627 0.080627
0.092133 0.092133 0.092133
0.104095 0.104095 0.104095
0.116486 0.116486 0.116486
0.129333 0.129333 0.129333
0.142639 0.142639 0.142639
0.156372 0.156372 0.156372
0.170532 0.170532 0.170532
0.185181 0.185181 0.185181
0.200348 0.200348 0.200348
0.215942 0.215942 0.215942
0.232056 0.232056 0.232056
0.248779 0.248779 0.248779
0.265839 0.265839 0.265839
0.283203 0.283203 0.283203
0.301239 0.301239 0.301178
0.001190 0.001190 0.001190
0.001923 0.001923 0.001923
0.002716 0.002716 0.002716
0.003845 0.003845 0.003845
0.005005 0.005005 0.005005
0.006531 0.006531 0.006531
0.008484 0.008484 0.008484
0.011261 0.011261 0.011261
0.014679 0.014679 0.014679
0.019073 0.019073 0.019073
0.024353 0.024353 0.024353
0.031006 0.031006 0.031006
0.039154 0.039154 0.039154
0.048248 0.048248 0.048248
0.058105 0.058105 0.058105
0.068512 0.068512 0.068512
0.079437 0.079437 0.079437
0.090912 0.090912 0.090912
0.102814 0.102814 0.102814
0.115143 0.115143 0.115143
0.127869 0.127869 0.127869
0.141083 0.141083 0.141083
0.154816 0.154816 0.154816
0.168945 0.168945 0.168945
0.183594 0.183594 0.183594
0.198700 0.198700 0.198700
0.214325 0.214325 0.214325
0.230347 0.230347 0.230347
0.246887 0.246887 0.246887
0.263916 0.263916 0.263916
0.281342 0.281342 0.281342
0.299316 0.299316 0.299255
0.317657 0.317657 0.317596
0.001892 0.001892 0.001892
0.002686 0.002686 0.002686
0.003479 0.003479 0.003479
0.004669 0.004669 0.004669
0.006195 0.006195 0.006195
0.008423 0.008423 0.008423
0.011169 0.011169 0.011169
0.014343 0.014343 0.014343
0.018433 0.018433 0.018433
0.023682 0.023682 0.023682
0.030334 0.030334 0.030334
0.038269 0.038269 0.038269
0.047211 0.047211 0.047211
0.057037 0.057037 0.057037
0.067413 0.067413 0.067413
0.078308 0.078308 0.078308
0.089600 0.089600 0.089600
0.101471 0.101471 0.101471
0.113800 0.113800 0.113800
0.126556 0.126556 0.126556
0.139709 0.139709 0.139709
0.153320 0.153320 0.153320
0.167450 0.167450 0.167450
0.182037 0.182037 0.182037
0.197052 0.197052 0.197052
0.212585 0.212585 0.212585
0.228638 0.228638 0.228638
0.245087 0.245087 0.245087
0.262054 0.262054 0.262054
0.279480 0.279480 0.279480
0.297333 0.297333 0.297272
0.315735 0.315765 0.315704
0.334503 0.334564 0.334473
0.002350 0.002350 0.002350
0.003479 0.003479 0.003479
0.004639 0.004639 0.004639
0.006134 0.006134 0.006134
0.008026 0.008026 0.008026
0.010773 0.010773 0.010773
0.013916 0.013916 0.013916
0.018066 0.018066 0.018066
0.023254 0.023254 0.023254
0.029602 0.029602 0.029602
0.037476 0.037476 0.037476
0.046295 0.046295 0.046295
0.055939 0.055939 0.055939
0.066254 0.066254 0.066254
0.077148 0.077148 0.077148
0.088470 0.088470 0.088470
0.100250 0.100250 0.100250
0.112427 0.112427 0.112427
0.125122 0.125122 0.125122
0.138275 0.138275 0.138275
0.151855 0.151855 0.151855
0.165894 0.165894 0.165894
0.180450 0.180450 0.180450
0.195435 0.195435 0.195435
0.210907 0.210907 0.210907
0.226837 0.226837 0.226837
0.243256 0.243256 0.243256
0.260193 0.260193 0.260193
0.277557 0.277557 0.277557
0.295410 0.295410 0.295380
0.313751 0.313751 0.313690
0.332489 0.332550 0.332458
0.351715 0.351807 0.351715
0.003387 0.003387 0.003387
0.004547 0.004547 0.004547
0.006073 0.006073 0.006073
0.007751 0.007751 0.007751
0.010406 0.010406 0.010406
0.013550 0.013550 0.013550
0.017700 0.017700 0.017700
0.022614 0.022614 0.022614
0.028900 0.028900 0.028900
0.036560 0.036560 0.036560
0.045319 0.045319 0.045319
0.054993 0.054993 0.054993
0.065155 0.065155 0.065155
0.075897 0.075897 0.075897
0.087250 0.087250 0.087250
0.098969 0.098969 0.098969
0.111145 0.111145 0.111145
0.123779 0.123779 0.123779
0.136871 0.136871 0.136871
0.150421 0.150421 0.150421
0.164398 0.164398 0.164398
0.178864 0.178864 0.178864
0.193848 0.193848 0.193848
0.209259 0.209259 0.209259
0.225159 0.225159 0.225159
0.241547 0.241547 0.241547
0.258392 0.258392 0.258392
0.275757 0.275757 0.275757
0.293518 0.293518 0.293518
0.311768 0.311768 0.311707
0.330475 0.330505 0.330414
0.349731 0.349823 0.349731
0.369354 0.369446 0.369354
0.004303 0.004303 0.004303
0.005768 0.005768 0.005768
0.007690 0.007690 0.007690
0.010040 0.010040 0.010040
0.013123 0.013123 0.013123
0.017242 0.017242 0.017242
0.022156 0.022156 0.022156
0.028198 0.028198 0.028198
0.035767 0.035767 0.035767
0.044312 0.044312 0.044312
0.053833 0.053833 0.053833
0.064056 0.064056 0.064056
0.074707 0.074707 0.074707
0.085999 0.085999 0.085999
0.097656 0.097656 0.097656
0.109833 0.109833 0.109833
0.122406 0.122406 0.122406
0.135406 0.135406 0.135406
0.148895 0.148895 0.148895
0.162842 0.162842 0.162842
0.177307 0.177307 0.177307
0.192200 0.192200 0.192200
0.207581 0.207581 0.207581
0.223450 0.223450 0.223450
0.239777 0.239777 0.239777
0.256592 0.256592 0.256592
0.273834 0.273834 0.273834
0.291626 0.291626 0.291595
0.309845 0.309845 0.309814
0.328552 0.328583 0.328491
0.347626 0.347717 0.347626
0.367157 0.367249 0.367157
0.387177 0.387268 0.387177
0.005585 0.005585 0.005585
0.007294 0.007294 0.007294
0.009644 0.009644 0.009644
0.012787 0.012787 0.012787
0.016571 0.016571 0.016571
0.021423 0.021423 0.021423
0.027466 0.027466 0.027466
0.034760 0.034760 0.034760
0.043365 0.043365 0.043365
0.052887 0.052887 0.052887
0.062958 0.062958 0.062958
0.073639 0.073639 0.073639
0.084778 0.084778 0.084778
0.096344 0.096344 0.096344
0.108490 0.108490 0.108490
0.121033 0.121033 0.121033
0.134003 0.134003 0.134003
0.147430 0.147430 0.147430
0.161346 0.161346 0.161346
0.175720 0.175720 0.175720
0.190582 0.190582 0.190582
0.205933 0.205933 0.205933
0.221710 0.221710 0.221710
0.238007 0.238007 0.238007
0.254761 0.254761 0.254761
0.271973 0.271973 0.271973
0.289612 0.289612 0.289581
0.307800 0.307831 0.307770
0.326477 0.326508 0.326416
0.345581 0.345612 0.345520
0.365051 0.365143 0.365051
0.384979 0.385071 0.384979
0.405365 0.405457 0.405365
0.007202 0.007202 0.007202
0.009460 0.009460 0.009460
0.012329 0.012329 0.012329
0.016113 0.016113 0.016113
0.020691 0.020691 0.020691
0.026642 0.026642 0.026642
0.033875 0.033875 0.033875
0.042450 0.042450 0.042450
0.051666 0.051666 0.051666
0.061859 0.061859 0.061859
0.072479 0.072479 0.072479
0.083527 0.083527 0.083527
0.095154 0.095154 0.095154
0.107208 0.107208 0.107208
0.119629 0.119629 0.119629
0.132599 0.132599 0.132599
0.145996 0.145996 0.145996
0.159851 0.159851 0.159851
0.174164 0.174164 0.174164
0.188965 0.188965 0.188965
0.204254 0.204254 0.204254
0.220001 0.220001 0.220001
0.236237 0.236237 0.236237
0.252930 0.252930 0.252930
0.270111 0.270111 0.270111
0.287750 0.287750 0.287720
0.305847 0.305878 0.305817
0.324402 0.324463 0.324371
0.343445 0.343536 0.343414
0.362946 0.363068 0.362946
0.382843 0.382935 0.382843
0.403198 0.403290 0.403198
0.424011 0.424103 0.424011
0.009125 0.009125 0.009125
0.011963 0.011963 0.011963
0.015656 0.015656 0.015656
0.020172 0.020172 0.020172
0.025879 0.025879 0.025879
0.033051 0.033051 0.033051
0.041382 0.041382 0.041382
0.050720 0.050720 0.050720
0.060760 0.060760 0.060760
0.071289 0.071289 0.071289
0.082397 0.082397 0.082397
0.093842 0.093842 0.093842
0.105865 0.105865 0.105865
0.118317 0.118317 0.118317
0.131226 0.131226 0.131226
0.144562 0.144562 0.144562
0.158386 0.158386 0.158386
0.172638 0.172638 0.172638
0.187347 0.187347 0.187347
0.202576 0.202576 0.202576
0.218292 0.218292 0.218292
0.234467 0.234467 0.234467
0.251129 0.251129 0.251129
0.268250 0.268250 0.268250
0.285858 0.285858 0.285858
0.303894 0.303894 0.303864
0.322449 0.322479 0.322388
0.341431 0.341492 0.341400
0.360870 0.360931 0.360840
0.380768 0.380859 0.380768
0.401062 0.401154 0.401062
0.421783 0.421875 0.421783
0.442902 0.442963 0.442902
0.011719 0.011719 0.011719
0.015228 0.015228 0.015228
0.019745 0.019745 0.019745
0.025146 0.025146 0.025146
0.032166 0.032166 0.032166
0.040436 0.040436 0.040436
0.049591 0.049591 0.049591
0.059662 0.059662 0.059662
0.070068 0.070068 0.070068
0.081146 0.081146 0.081146
0.092621 0.092621 0.092621
0.104553 0.104553 0.104553
0.116913 0.116913 0.116913
0.129822 0.129822 0.129822
0.143097 0.143097 0.143097
0.156921 0.156921 0.156921
0.171112 0.171112 0.171112
0.185760 0.185760 0.185760
0.200928 0.200928 0.200928
0.216553 0.216553 0.216553
0.232697 0.232697 0.232697
0.249329 0.249329 0.249329
0.266388 0.266388 0.266388
0.283936 0.283936 0.283936
0.301971 0.301971 0.301941
0.320435 0.320465 0.320404
0.339355 0.339417 0.339325
0.358734 0.358826 0.358734
0.378601 0.378693 0.378601
0.398865 0.398956 0.398865
0.419556 0.419617 0.419556
0.440704 0.440765 0.440704
0.462158 0.462250 0.462158
0.014893 0.014893 0.014893
0.019073 0.019073 0.019073
0.024597 0.024597 0.024597
0.031189 0.031189 0.031189
0.039551 0.039551 0.039551
0.048553 0.048553 0.048553
0.058472 0.058472 0.058472
0.068970 0.068970 0.068970
0.079926 0.079926 0.079926
0.091309 0.091309 0.091309
0.103241 0.103241 0.103241
0.115631 0.115631 0.115631
0.128387 0.128387 0.128387
0.141632 0.141632 0.141632
0.155365 0.155365 0.155365
0.169525 0.169525 0.169525
0.184204 0.184204 0.184204
0.199280 0.199280 0.199280
0.214905 0.214905 0.214905
0.230957 0.230957 0.230957
0.247528 0.247528 0.247528
0.264557 0.264557 0.264557
0.282043 0.282043 0.282043
0.300018 0.300018 0.299988
0.318451 0.318481 0.318390
0.337311 0.337372 0.337250
0.356628 0.356689 0.356598
0.376404 0.376495 0.376404
0.396667 0.396729 0.396667
0.417328 0.417419 0.417328
0.438385 0.438446 0.438385
0.459839 0.459930 0.459839
0.481689 0.481781 0.481689
0.018646 0.018646 0.018646
0.023773 0.023773 0.023773
0.030548 0.030548 0.030548
0.038452 0.038452 0.038452
0.047516 0.047516 0.047516
0.057373 0.057373 0.057373
0.067749 0.067749 0.067749
0.078674 0.078674 0.078674
0.090027 0.090027 0.090027
0.101929 0.101929 0.101929
0.114197 0.114197 0.114197
0.126984 0.126984 0.126984
0.140198 0.140198 0.140198
0.153839 0.153839 0.153839
0.167999 0.167999 0.167999
0.182587 0.182587 0.182587
0.197632 0.197632 0.197632
0.213196 0.213196 0.213196
0.229218 0.229218 0.229218
0.245728 0.245728 0.245728
0.262695 0.262695 0.262695
0.280151 0.280151 0.280121
0.298065 0.298065 0.298035
0.316437 0.316467 0.316406
0.335327 0.335358 0.335266
0.354553 0.354614 0.354523
0.374207 0.374329 0.374207
0.394440 0.394531 0.394440
0.415100 0.415161 0.415100
0.436127 0.436188 0.436127
0.457550 0.457611 0.457550
0.479370 0.479431 0.479370
0.501465 0.501556 0.501465
0.023132 0.023132 0.023132
0.029633 0.029633 0.029633
0.037567 0.037567 0.037567
0.046509 0.046509 0.046509
0.056183 0.056183 0.056183
0.066620 0.066620 0.066620
0.077454 0.077454 0.077454
0.088776 0.088776 0.088776
0.100616 0.100616 0.100616
0.112793 0.112793 0.112793
0.125549 0.125549 0.125549
0.138733 0.138733 0.138733
0.152313 0.152313 0.152313
0.166443 0.166443 0.166443
0.180969 0.180969 0.180969
0.196045 0.196045 0.196045
0.211517 0.211517 0.211517
0.227509 0.227509 0.227509
0.243927 0.243927 0.243927
0.260864 0.260864 0.260864
0.278290 0.278290 0.278259
0.296112 0.296112 0.296082
0.314423 0.314453 0.314392
0.333252 0.333282 0.333191
0.352509 0.352570 0.352478
0.372162 0.372253 0.372162
0.392242 0.392334 0.392242
0.412842 0.412933 0.412842
0.433899 0.433990 0.433899
0.455261 0.455322 0.455261
0.477020 0.477081 0.476990
0.499207 0.499268 0.499176
0.521637 0.521729 0.521606
0.028778 0.028778 0.028778
0.036621 0.036621 0.036621
0.045471 0.045471 0.045471
0.055145 0.055145 0.055145
0.065399 0.065399 0.065399
0.076263 0.076263 0.076263
0.087616 0.087616 0.087616
0.099304 0.099304 0.099304
0.111511 0.111511 0.111511
0.124176 0.124176 0.124176
0.137299 0.137299 0.137299
0.150879 0.150879 0.150879
0.164948 0.164948 0.164948
0.179443 0.179443 0.179443
0.194397 0.194397 0.194397
0.209839 0.209839 0.209839
0.225769 0.225769 0.225769
0.242157 0.242157 0.242157
0.259064 0.259064 0.259064
0.276367 0.276367 0.276337
0.294189 0.294189 0.294159
0.312500 0.312531 0.312439
0.331177 0.331238 0.331146
0.350403 0.350464 0.350372
0.370056 0.370148 0.370056
0.390137 0.390198 0.390137
0.410614 0.410706 0.410614
0.431580 0.431671 0.431580
0.452972 0.453033 0.452972
0.474701 0.474792 0.474701
0.496796 0.496857 0.496765
0.519257 0.519318 0.519226
0.542084 0.542145 0.542053
0.035706 0.035706 0.035706
0.044647 0.044647 0.044647
0.054047 0.054047 0.054047
0.064270 0.064270 0.064270
0.075012 0.075012 0.075012
0.086304 0.086304 0.086304
0.098022 0.098022 0.098022
0.110229 0.110229 0.110229
0.122772 0.122772 0.122772
0.135834 0.135834 0.135834
0.149414 0.149414 0.149414
0.163361 0.163361 0.163361
0.177826 0.177826 0.177826
0.192749 0.192749 0.192749
0.208160 0.208160 0.208160
0.223999 0.223999 0.223999
0.240387 0.240387 0.240387
0.257233 0.257233 0.257233
0.274475 0.274475 0.274475
0.292267 0.292267 0.292236
0.310486 0.310486 0.310425
0.329132 0.329193 0.329102
0.348297 0.348358 0.348267
0.367920 0.368011 0.367920
0.387970 0.388062 0.387970
0.408447 0.408508 0.408447
0.429260 0.429352 0.429260
0.450623 0.450714 0.450623
0.472351 0.472412 0.472351
0.494415 0.494476 0.494385
0.516846 0.516937 0.516815
0.539612 0.539673 0.539581
0.562714 0.562805 0.562683
0.043549 0.043549 0.043549
0.053223 0.053223 0.053223
0.063171 0.063171 0.063171
0.073822 0.073822 0.073822
0.085022 0.085022 0.085022
0.096680 0.096680 0.096680
0.108795 0.108795 0.108795
0.121429 0.121429 0.121429
0.134399 0.134399 0.134399
0.147888 0.147888 0.147888
0.161835 0.161835 0.161835
0.176239 0.176239 0.176239
0.191101 0.191101 0.191101
0.206451 0.206451 0.206451
0.222229 0.222229 0.222229
0.238556 0.238556 0.238556
0.255371 0.255371 0.255371
0.272644 0.272644 0.272614
0.290375 0.290375 0.290344
0.308533 0.308533 0.308472
0.327179 0.327209 0.327118
0.346252 0.346344 0.346222
0.365753 0.365845 0.365753
0.385773 0.385834 0.385773
0.406219 0.406311 0.406219
0.427063 0.427155 0.427063
0.448273 0.448364 0.448273
0.469940 0.470032 0.469940
0.492035 0.492096 0.492035
0.514465 0.514526 0.514435
0.537140 0.537231 0.537109
0.560242 0.560303 0.560211
0.583313 0.583435 0.583313
0.052094 0.052094 0.052094
0.062164 0.062164 0.062164
0.072784 0.072784 0.072784
0.083832 0.083832 0.083832
0.095428 0.095428 0.095428
0.107483 0.107483 0.107483
0.119995 0.119995 0.119995
0.132965 0.132965 0.132965
0.146362 0.146362 0.146362
0.160309 0.160309 0.160309
0.174652 0.174652 0.174652
0.189453 0.189453 0.189453
0.204803 0.204803 0.204803
0.220520 0.220520 0.220520
0.236786 0.236786 0.236786
0.253540 0.253540 0.253540
0.270691 0.270691 0.270691
0.288452 0.288452 0.288422
0.306519 0.306549 0.306488
0.325134 0.325165 0.325104
0.344208 0.344269 0.344177
0.363678 0.363770 0.363678
0.383575 0.383667 0.383575
0.404022 0.404083 0.404022
0.424774 0.424866 0.424774
0.445984 0.446075 0.445984
0.467621 0.467682 0.467590
0.489655 0.489716 0.489624
0.511993 0.512054 0.511963
0.534760 0.534851 0.534729
0.557739 0.557831 0.557709
0.580902 0.580994 0.580902
0.603546 0.603668 0.603546
0.061066 0.061066 0.061066
0.071655 0.071655 0.071655
0.082764 0.082764 0.082764
0.094238 0.094238 0.094238
0.106201 0.106201 0.106201
0.118652 0.118652 0.118652
0.131592 0.131592 0.131592
0.144928 0.144928 0.144928
0.158752 0.158752 0.158752
0.173065 0.173065 0.173065
0.187866 0.187866 0.187866
0.203094 0.203094 0.203094
0.218781 0.218781 0.218781
0.235016 0.235016 0.235016
0.251678 0.251678 0.251678
0.268890 0.268890 0.268890
0.286499 0.286499 0.286499
0.304535 0.304535 0.304474
0.323120 0.323151 0.323059
0.342102 0.342163 0.342072
0.361603 0.361664 0.361572
0.381470 0.381561 0.381470
0.401703 0.401794 0.401703
0.422516 0.422607 0.422516
0.443726 0.443817 0.443726
0.465302 0.465363 0.465302
0.487274 0.487335 0.487274
0.509613 0.509674 0.509583
0.532318 0.532379 0.532288
0.555298 0.555359 0.555267
0.578400 0.578491 0.578369
0.601196 0.601288 0.601196
0.623199 0.623291 0.623199
0.070465 0.070465 0.070465
0.081604 0.081604 0.081604
0.093079 0.093079 0.093079
0.104950 0.104950 0.104950
0.117340 0.117340 0.117340
0.130157 0.130157 0.130157
0.143494 0.143494 0.143494
0.157227 0.157227 0.157227
0.171539 0.171539 0.171539
0.186218 0.186218 0.186218
0.201416 0.201416 0.201416
0.217041 0.217041 0.217041
0.233185 0.233185 0.233185
0.249786 0.249786 0.249786
0.266937 0.266937 0.266937
0.284515 0.284515 0.284515
0.302612 0.302612 0.302582
0.321075 0.321106 0.321045
0.340057 0.340118 0.339996
0.359375 0.359467 0.359375
0.379333 0.379425 0.379333
0.399658 0.399719 0.399658
0.420288 0.420380 0.420288
0.441345 0.441437 0.441345
0.462982 0.463074 0.462982
0.484894 0.484955 0.484894
0.507202 0.507263 0.507202
0.529846 0.529938 0.529816
0.552795 0.552887 0.552765
0.575897 0.575958 0.575867
0.598755 0.598846 0.598724
0.620911 0.621002 0.620911
0.642242 0.642334 0.642212
0.080322 0.080322 0.080322
0.091919 0.091919 0.091919
0.103760 0.103760 0.103760
0.116058 0.116058 0.116058
0.128784 0.128784 0.128784
0.141998 0.141998 0.141998
0.155762 0.155762 0.155762
0.169891 0.169891 0.169891
0.184601 0.184601 0.184601
0.199768 0.199768 0.199768
0.215363 0.215363 0.215363
0.231415 0.231415 0.231415
0.248016 0.248016 0.248016
0.265045 0.265045 0.265045
0.282593 0.282593 0.282562
0.300629 0.300629 0.300598
0.319031 0.319061 0.318970
0.337982 0.338043 0.337921
0.357300 0.357391 0.357300
0.377136 0.377228 0.377136
0.397339 0.397430 0.397339
0.418152 0.418243 0.418152
0.439178 0.439270 0.439178
0.460632 0.460724 0.460632
0.482483 0.482544 0.482452
0.504700 0.504791 0.504700
0.527374 0.527466 0.527344
0.550323 0.550415 0.550293
0.573334 0.573456 0.573334
0.596222 0.596313 0.596222
0.618469 0.618561 0.618469
0.639954 0.640076 0.639954
0.660583 0.660675 0.660553
0.090515 0.090515 0.090515
0.102478 0.102478 0.102478
0.114746 0.114746 0.114746
0.127441 0.127441 0.127441
0.140625 0.140625 0.140625
0.154205 0.154205 0.154205
0.168427 0.168427 0.168427
0.183014 0.183014 0.183014
0.198090 0.198090 0.198090
0.213654 0.213654 0.213654
0.229706 0.229706 0.229706
0.246246 0.246246 0.246246
0.263214 0.263214 0.263214
0.280731 0.280731 0.280731
0.298615 0.298615 0.298584
0.317047 0.317078 0.317017
0.335907 0.335968 0.335876
0.355194 0.355255 0.355133
0.374939 0.375031 0.374939
0.395142 0.395203 0.395142
0.415771 0.415863 0.415771
0.436890 0.436981 0.436890
0.458466 0.458527 0.458466
0.480225 0.480316 0.480194
0.502411 0.502502 0.502380
0.524933 0.525024 0.524933
0.547699 0.547791 0.547668
0.570801 0.570923 0.570801
0.593781 0.593903 0.593781
0.616089 0.616211 0.616089
0.637634 0.637726 0.637604
0.658295 0.658386 0.658264
0.678253 0.678345 0.678223
0.101135 0.101135 0.101135
0.113464 0.113464 0.113464
0.126190 0.126190 0.126190
0.139313 0.139313 0.139313
0.152832 0.152832 0.152832
0.166840 0.166840 0.166840
0.181427 0.181427 0.181427
0.196442 0.196442 0.196442
0.212006 0.212006 0.212006
0.227997 0.227997 0.227997
0.244476 0.244476 0.244476
0.261414 0.261414 0.261414
0.278809 0.278809 0.278809
0.296692 0.296692 0.296661
0.315094 0.315094 0.315033
0.333862 0.333923 0.333832
0.353119 0.353180 0.353088
0.372772 0.372864 0.372772
0.392975 0.393066 0.392975
0.413574 0.413635 0.413574
0.434509 0.434570 0.434509
0.455963 0.456024 0.455963
0.477844 0.477905 0.477814
0.500061 0.500153 0.500061
0.522491 0.522583 0.522491
0.545380 0.545471 0.545349
0.568329 0.568420 0.568298
0.591309 0.591400 0.591278
0.613708 0.613831 0.613708
0.635315 0.635406 0.635315
0.656128 0.656219 0.656097
0.676117 0.676208 0.676086
0.695435 0.695526 0.695404
0.112183 0.112183 0.112183
0.124817 0.124817 0.124817
0.137878 0.137878 0.137878
0.151428 0.151428 0.151428
0.165405 0.165405 0.165405
0.179871 0.179871 0.179871
0.194794 0.194794 0.194794
0.210236 0.210236 0.210236
0.226196 0.226196 0.226196
0.242615 0.242615 0.242615
0.259583 0.259583 0.259583
0.276947 0.276947 0.276947
0.294769 0.294800 0.294769
0.313080 0.313110 0.313019
0.331818 0.331879 0.331787
0.351044 0.351105 0.351013
0.370636 0.370728 0.370605
0.390686 0.390778 0.390686
0.411255 0.411346 0.411255
0.432312 0.432404 0.432312
0.453644 0.453705 0.453644
0.475372 0.475433 0.475372
0.497589 0.497650 0.497559
0.520111 0.520172 0.520081
0.542816 0.542908 0.542786
0.565887 0.566010 0.565887
0.588806 0.588898 0.588776
0.611389 0.611511 0.611389
0.633026 0.633118 0.633026
0.653870 0.653992 0.653870
0.674072 0.674164 0.674042
0.693359 0.693481 0.693359
0.712067 0.712158 0.712036
0.123352 0.123352 0.123352
0.136658 0.136658 0.136658
0.150024 0.150024 0.150024
0.163940 0.163940 0.163940
0.178375 0.178375 0.178375
0.193207 0.193207 0.193207
0.208618 0.208618 0.208618
0.224487 0.224487 0.224487
0.240845 0.240845 0.240845
0.257660 0.257660 0.257660
0.275055 0.275055 0.275024
0.292816 0.292816 0.292816
0.311066 0.311096 0.311035
0.329773 0.329834 0.329742
0.348907 0.348999 0.348877
0.368530 0.368622 0.368530
0.388580 0.388672 0.388580
0.408997 0.409088 0.408997
0.429962 0.430023 0.429962
0.451294 0.451385 0.451294
0.473022 0.473114 0.473022
0.495178 0.495239 0.495148
0.517578 0.517670 0.517548
0.540375 0.540436 0.540344
0.563385 0.563477 0.563354
0.586365 0.586456 0.586365
0.608917 0.609009 0.608917
0.630646 0.630768 0.630646
0.651703 0.651794 0.651672
0.671844 0.671967 0.671814
0.691406 0.691498 0.691376
0.710052 0.710144 0.710022
0.727997 0.728119 0.727997
0.135040 0.135040 0.135040
0.148865 0.148865 0.148865
0.162598 0.162598 0.162598
0.176880 0.176880 0.176880
0.191681 0.191681 0.191681
0.207001 0.207001 0.207001
0.222839 0.222839 0.222839
0.239075 0.239075 0.239075
0.255890 0.255890 0.255890
0.273132 0.273132 0.273132
0.290863 0.290863 0.290833
0.309052 0.309082 0.309021
0.327698 0.327728 0.327637
0.346832 0.346924 0.346802
0.366394 0.366486 0.366394
0.386383 0.386505 0.386383
0.406830 0.406921 0.406830
0.427704 0.427765 0.427704
0.448975 0.449036 0.448975
0.470734 0.470795 0.470734
0.492798 0.492859 0.492798
0.515198 0.515259 0.515198
0.538055 0.538116 0.538025
0.560974 0.561066 0.560944
0.583923 0.584015 0.583893
