滤镜资源/Professional Luts Collection/Lutify.me Professional/Black & White Films/Carborundum.cube
# Created by: Lutify.me
# Copyright: (c) Copyright Lutify.me 2015
# Website: https://lutify.me
#LUT size
LUT_3D_SIZE 9
#LUT data points
0.000000 0.000000 0.000000
0.002289 0.002289 0.002289
0.007141 0.007141 0.007141
0.020538 0.020538 0.020538
0.051300 0.051300 0.051300
0.094727 0.094727 0.094727
0.145477 0.145477 0.145477
0.203674 0.203674 0.203674
0.269501 0.269501 0.269501
0.001892 0.001892 0.001892
0.006195 0.006195 0.006195
0.018433 0.018433 0.018433
0.047211 0.047211 0.047211
0.089600 0.089600 0.089600
0.139709 0.139709 0.139709
0.197052 0.197052 0.197052
0.262054 0.262054 0.262054
0.334503 0.334564 0.334473
0.005585 0.005585 0.005585
0.016571 0.016571 0.016571
0.043365 0.043365 0.043365
0.084778 0.084778 0.084778
0.134003 0.134003 0.134003
0.190582 0.190582 0.190582
0.254761 0.254761 0.254761
0.326477 0.326508 0.326416
0.405365 0.405457 0.405365
0.014893 0.014893 0.014893
0.039551 0.039551 0.039551
0.079926 0.079926 0.079926
0.128387 0.128387 0.128387
0.184204 0.184204 0.184204
0.247528 0.247528 0.247528
0.318451 0.318481 0.318390
0.396667 0.396729 0.396667
0.481689 0.481781 0.481689
0.035706 0.035706 0.035706
0.075012 0.075012 0.075012
0.122772 0.122772 0.122772
0.177826 0.177826 0.177826
0.240387 0.240387 0.240387
0.310486 0.310486 0.310425
0.387970 0.388062 0.387970
0.472351 0.472412 0.472351
0.562714 0.562805 0.562683
0.070465 0.070465 0.070465
0.117340 0.117340 0.117340
0.171539 0.171539 0.171539
0.233185 0.233185 0.233185
0.302612 0.302612 0.302582
0.379333 0.379425 0.379333
0.462982 0.463074 0.462982
0.552795 0.552887 0.552765
0.642242 0.642334 0.642212
0.112183 0.112183 0.112183
0.165405 0.165405 0.165405
0.226196 0.226196 0.226196
0.294769 0.294800 0.294769
0.370636 0.370728 0.370605
0.453644 0.453705 0.453644
0.542816 0.542908 0.542786
0.633026 0.633118 0.633026
0.712067 0.712158 0.712036
0.159637 0.159637 0.159637
0.219421 0.219421 0.219421
0.287018 0.287018 0.286987
0.362061 0.362152 0.362061
0.444397 0.444489 0.444397
0.533020 0.533081 0.532990
0.623840 0.623932 0.623840
0.704102 0.704193 0.704071
0.772461 0.772552 0.772430
0.213623 0.213623 0.213623
0.279663 0.279663 0.279663
0.353851 0.353943 0.353821
0.435211 0.435272 0.435211
0.523193 0.523285 0.523163
0.614685 0.614777 0.614685
0.696136 0.696228 0.696106
0.765625 0.765717 0.765594
0.823883 0.824005 0.823853
0.001556 0.001556 0.001556
0.005768 0.005768 0.005768
0.017181 0.017181 0.017181
0.044189 0.044189 0.044189
0.085938 0.085938 0.085938
0.135376 0.135376 0.135376
0.192139 0.192139 0.192139
0.256500 0.256500 0.256500
0.328430 0.328491 0.328369
0.005035 0.005035 0.005035
0.015533 0.015533 0.015533
0.040649 0.040649 0.040649
0.081146 0.081146 0.081146
0.129791 0.129791 0.129791
0.185730 0.185730 0.185730
0.249268 0.249268 0.249268
0.320374 0.320435 0.320343
0.398712 0.398773 0.398712
0.013519 0.013519 0.013519
0.037018 0.037018 0.037018
0.076385 0.076385 0.076385
0.124268 0.124268 0.124268
0.179413 0.179413 0.179413
0.242126 0.242126 0.242126
0.312439 0.312469 0.312408
0.390076 0.390167 0.390076
0.474609 0.474670 0.474609
0.033081 0.033081 0.033081
0.071533 0.071533 0.071533
0.118713 0.118713 0.118713
0.173157 0.173157 0.173157
0.235046 0.235046 0.235046
0.304535 0.304565 0.304504
0.381409 0.381500 0.381409
0.465240 0.465302 0.465240
0.555206 0.555298 0.555176
0.067047 0.067047 0.067047
0.113281 0.113281 0.113281
0.166870 0.166870 0.166870
0.228058 0.228058 0.228058
0.296783 0.296783 0.296753
0.372833 0.372894 0.372833
0.455933 0.455994 0.455933
0.545288 0.545380 0.545258
0.635193 0.635315 0.635193
0.108002 0.108002 0.108002
0.160767 0.160767 0.160767
0.221039 0.221039 0.221039
0.288910 0.288910 0.288879
0.364319 0.364380 0.364288
0.446716 0.446777 0.446716
0.535431 0.535492 0.535400
0.625916 0.626007 0.625916
0.705933 0.706024 0.705902
0.154877 0.154877 0.154877
0.214264 0.214264 0.214264
0.281219 0.281219 0.281219
0.355774 0.355865 0.355774
0.437469 0.437561 0.437469
0.525604 0.525665 0.525574
0.616455 0.616577 0.616455
0.697815 0.697906 0.697784
0.767151 0.767273 0.767151
0.207947 0.207947 0.207947
0.273834 0.273834 0.273834
0.347443 0.347504 0.347412
0.428314 0.428406 0.428314
0.515808 0.515900 0.515808
0.607056 0.607147 0.607056
0.689636 0.689758 0.689606
0.760193 0.760315 0.760162
0.819366 0.819489 0.819336
0.266815 0.266815 0.266815
0.339417 0.339478 0.339355
0.419373 0.419464 0.419373
0.506104 0.506165 0.506073
0.597626 0.597717 0.597595
0.681488 0.681580 0.681458
0.753265 0.753387 0.753265
0.813568 0.813690 0.813538
0.862976 0.863098 0.862946
0.004669 0.004669 0.004669
0.014130 0.014130 0.014130
0.037659 0.037659 0.037659
0.077484 0.077484 0.077484
0.125488 0.125488 0.125488
0.180847 0.180847 0.180847
0.243805 0.243805 0.243805
0.314301 0.314301 0.314240
0.392120 0.392212 0.392120
0.012604 0.012604 0.012604
0.034424 0.034424 0.034424
0.072815 0.072815 0.072815
0.120117 0.120117 0.120117
0.174652 0.174652 0.174652
0.236755 0.236755 0.236755
0.306427 0.306427 0.306366
0.383484 0.383575 0.383484
0.467438 0.467529 0.467438
0.030823 0.030823 0.030823
0.068176 0.068176 0.068176
0.114716 0.114716 0.114716
0.168518 0.168518 0.168518
0.229797 0.229797 0.229797
0.298676 0.298676 0.298615
0.374939 0.375031 0.374908
0.458191 0.458282 0.458191
0.547699 0.547760 0.547668
0.063477 0.063477 0.063477
0.109253 0.109253 0.109253
0.162354 0.162354 0.162354
0.222870 0.222870 0.222870
0.290955 0.290955 0.290924
0.366394 0.366486 0.366394
0.448975 0.449036 0.448975
0.537811 0.537903 0.537811
0.628204 0.628296 0.628174
0.103912 0.103912 0.103912
0.156189 0.156189 0.156189
0.215942 0.215942 0.215942
0.283234 0.283234 0.283234
0.358002 0.358063 0.357971
0.439789 0.439850 0.439789
0.528046 0.528107 0.528015
0.618805 0.618896 0.618774
0.699768 0.699890 0.699768
0.150299 0.150299 0.150299
0.209076 0.209076 0.209076
0.275574 0.275574 0.275574
0.349518 0.349579 0.349487
0.430634 0.430695 0.430634
0.518280 0.518341 0.518250
0.609192 0.609283 0.609161
0.691528 0.691650 0.691528
0.761841 0.761963 0.761841
0.202515 0.202515 0.202515
0.268036 0.268036 0.268036
0.341217 0.341278 0.341187
0.421509 0.421600 0.421509
0.508514 0.508575 0.508484
0.599579 0.599701 0.599579
0.683167 0.683258 0.683136
0.754761 0.754852 0.754730
0.814880 0.815002 0.814850
0.261261 0.261261 0.261261
0.333099 0.333130 0.333038
0.412567 0.412659 0.412567
0.498810 0.498871 0.498810
0.589996 0.590088 0.589996
0.674835 0.674957 0.674805
0.747620 0.747711 0.747589
0.808838 0.808960 0.808807
0.859253 0.859375 0.859253
0.325775 0.325836 0.325745
0.403961 0.404053 0.403961
0.489258 0.489319 0.489258
0.580353 0.580444 0.580353
0.666412 0.666534 0.666412
0.740448 0.740540 0.740417
0.802887 0.803009 0.802856
0.854340 0.854462 0.854309
0.895630 0.895782 0.895630
0.011414 0.011414 0.011414
0.031403 0.031403 0.031403
0.069244 0.069244 0.069244
0.115936 0.115936 0.115936
0.169922 0.169922 0.169922
0.231384 0.231384 0.231384
0.300476 0.300476 0.300415
0.376923 0.377014 0.376923
0.460419 0.460480 0.460419
0.028320 0.028320 0.028320
0.064728 0.064728 0.064728
0.110565 0.110565 0.110565
0.163849 0.163849 0.163849
0.224487 0.224487 0.224487
0.292725 0.292725 0.292694
0.368378 0.368469 0.368378
0.451111 0.451202 0.451111
0.540192 0.540283 0.540161
0.060028 0.060028 0.060028
0.105225 0.105225 0.105225
0.157776 0.157776 0.157776
0.217651 0.217651 0.217651
0.285126 0.285126 0.285126
0.360016 0.360077 0.359985
0.441986 0.442078 0.441986
0.530396 0.530457 0.530365
0.621185 0.621277 0.621185
0.099976 0.099976 0.099976
0.151703 0.151703 0.151703
0.210846 0.210846 0.210846
0.277588 0.277588 0.277557
0.351685 0.351746 0.351654
0.432922 0.432983 0.432922
0.520660 0.520752 0.520660
0.611572 0.611664 0.611572
0.693604 0.693695 0.693573
0.145844 0.145844 0.145844
0.204041 0.204041 0.204041
0.269928 0.269928 0.269928
0.343353 0.343414 0.343323
0.423920 0.423981 0.423920
0.510956 0.511047 0.510956
0.601898 0.601990 0.601868
0.685242 0.685333 0.685211
0.756500 0.756622 0.756500
0.197449 0.197449 0.197449
0.262451 0.262451 0.262451
0.334991 0.335052 0.334961
0.414825 0.414917 0.414825
0.501282 0.501343 0.501251
0.592102 0.592194 0.592102
0.676727 0.676819 0.676697
0.749298 0.749420 0.749268
0.810303 0.810455 0.810303
0.255249 0.255249 0.255249
0.326935 0.326965 0.326874
0.405823 0.405884 0.405823
0.491638 0.491699 0.491608
0.582489 0.582550 0.582458
0.668182 0.668274 0.668182
0.741943 0.742065 0.741913
0.804199 0.804321 0.804169
0.855469 0.855591 0.855438
0.319183 0.319244 0.319122
0.397125 0.397217 0.397125
0.482117 0.482208 0.482117
0.572784 0.572876 0.572754
0.659637 0.659760 0.659637
0.734650 0.734772 0.734619
0.798035 0.798157 0.798004
0.850403 0.850525 0.850372
0.892578 0.892700 0.892548
0.389008 0.389099 0.389008
0.472809 0.472870 0.472809
0.563080 0.563171 0.563049
0.650970 0.651062 0.650970
0.727295 0.727386 0.727264
0.791840 0.791962 0.791809
0.845367 0.845490 0.845337
0.888519 0.888641 0.888489
0.922546 0.922668 0.922516
0.025909 0.025909 0.025909
0.061066 0.061066 0.061066
0.106445 0.106445 0.106445
0.159119 0.159119 0.159119
0.219269 0.219269 0.219269
0.286865 0.286865 0.286835
0.362000 0.362091 0.361969
0.444183 0.444244 0.444183
0.532776 0.532837 0.532745
0.056732 0.056732 0.056732
0.101257 0.101257 0.101257
0.153107 0.153107 0.153107
0.212433 0.212433 0.212433
0.279327 0.279327 0.279297
0.353638 0.353699 0.353607
0.435028 0.435120 0.435028
0.522980 0.523041 0.522949
0.614197 0.614288 0.614166
0.096039 0.096039 0.096039
0.147156 0.147156 0.147156
0.205719 0.205719 0.205719
0.271790 0.271790 0.271759
0.345337 0.345398 0.345306
0.426025 0.426117 0.426025
0.513275 0.513367 0.513275
0.604462 0.604553 0.604462
0.687500 0.687592 0.687469
0.141266 0.141266 0.141266
0.199005 0.199005 0.199005
0.264282 0.264282 0.264282
0.337128 0.337189 0.337097
0.417084 0.417206 0.417084
0.503662 0.503754 0.503662
0.594635 0.594727 0.594635
0.678955 0.679047 0.678925
0.751160 0.751282 0.751160
0.192383 0.192383 0.192383
0.256866 0.256866 0.256866
0.328857 0.328918 0.328827
0.408142 0.408234 0.408142
0.494171 0.494232 0.494141
0.584778 0.584869 0.584747
0.670227 0.670349 0.670227
0.743774 0.743896 0.743744
0.805725 0.805847 0.805695
0.249847 0.249847 0.249847
0.320679 0.320740 0.320648
0.399170 0.399261 0.399170
0.484467 0.484558 0.484467
0.574982 0.575073 0.574982
0.661469 0.661560 0.661438
0.736298 0.736420 0.736267
0.799469 0.799622 0.799469
0.851624 0.851776 0.851624
0.312958 0.312988 0.312927
0.390442 0.390503 0.390442
0.474976 0.475037 0.474945
0.565277 0.565369 0.565247
0.652802 0.652893 0.652802
0.728821 0.728912 0.728790
0.793121 0.793243 0.793121
0.846466 0.846588 0.846436
0.889435 0.889587 0.889435
0.382324 0.382446 0.382324
0.465637 0.465729 0.465637
0.555481 0.555573 0.555450
0.644165 0.644257 0.644135
0.721313 0.721405 0.721283
0.786835 0.786957 0.786804
0.841217 0.841339 0.841187
0.885223 0.885376 0.885193
0.920013 0.920166 0.919983
0.457275 0.457367 0.457275
0.545837 0.545929 0.545807
0.635437 0.635529 0.635406
0.713837 0.713928 0.713806
0.780426 0.780548 0.780396
0.835968 0.836090 0.835938
0.881042 0.881165 0.881012
0.916656 0.916809 0.916626
0.944702 0.944824 0.944672
0.053528 0.053528 0.053528
0.097260 0.097260 0.097260
0.148560 0.148560 0.148560
0.207214 0.207214 0.207214
0.273468 0.273468 0.273468
0.347260 0.347351 0.347229
0.428162 0.428253 0.428162
0.515594 0.515686 0.515594
0.607208 0.607330 0.607208
0.092133 0.092133 0.092133
0.142731 0.142731 0.142731
0.200562 0.200562 0.200562
0.266022 0.266022 0.266022
0.338989 0.339050 0.338959
0.419159 0.419250 0.419159
0.505920 0.506012 0.505920
0.597290 0.597382 0.597290
0.681305 0.681396 0.681274
0.136871 0.136871 0.136871
0.193939 0.193939 0.193939
0.258636 0.258636 0.258636
0.330811 0.330841 0.330780
0.410248 0.410309 0.410248
0.496368 0.496460 0.496368
0.587372 0.587463 0.587341
0.672668 0.672760 0.672638
0.745850 0.745972 0.745819
0.187439 0.187439 0.187439
0.251251 0.251251 0.251251
0.322693 0.322723 0.322662
0.401398 0.401459 0.401398
0.486816 0.486908 0.486816
0.577423 0.577515 0.577423
0.663849 0.663940 0.663818
0.738342 0.738434 0.738312
0.801208 0.801331 0.801178
0.244080 0.244080 0.244080
0.314636 0.314667 0.314606
0.392548 0.392609 0.392548
0.477295 0.477356 0.477295
0.567627 0.567719 0.567596
0.654877 0.654968 0.654846
0.730682 0.730804 0.730682
0.794800 0.794922 0.794769
0.847809 0.847961 0.847809
0.306976 0.306976 0.306915
0.383789 0.383881 0.383789
0.467804 0.467896 0.467804
0.557800 0.557861 0.557770
0.645996 0.646118 0.645966
0.722900 0.722992 0.722870
0.788239 0.788330 0.788208
0.842438 0.842590 0.842438
0.886261 0.886414 0.886230
0.375397 0.375488 0.375397
0.458557 0.458618 0.458557
0.547943 0.548035 0.547913
0.637177 0.637299 0.637177
0.715363 0.715485 0.715332
0.781738 0.781860 0.781708
0.837036 0.837158 0.837006
0.881927 0.882050 0.881927
0.917450 0.917572 0.917419
0.449951 0.450043 0.449951
0.538269 0.538330 0.538239
0.628326 0.628448 0.628326
0.707733 0.707855 0.707733
0.775299 0.775421 0.775299
0.831665 0.831787 0.831635
0.877563 0.877716 0.877563
0.913971 0.914093 0.913940
0.942596 0.942749 0.942566
0.529633 0.529694 0.529602
0.619629 0.619751 0.619629
0.700043 0.700165 0.700043
0.768799 0.768921 0.768799
0.826324 0.826447 0.826294
0.873199 0.873322 0.873169
0.910522 0.910675 0.910492
0.939880 0.940002 0.939850
0.962891 0.963074 0.962891
0.088379 0.088379 0.088379
0.138275 0.138275 0.138275
0.195465 0.195465 0.195465
0.260345 0.260345 0.260345
0.332703 0.332764 0.332642
0.412323 0.412415 0.412323
0.498688 0.498749 0.498688
0.590057 0.590179 0.590057
0.675110 0.675201 0.675079
0.132538 0.132538 0.132538
0.188995 0.188995 0.188995
0.252991 0.252991 0.252991
0.324554 0.324585 0.324524
0.403412 0.403503 0.403412
0.489044 0.489105 0.489044
0.580017 0.580109 0.580017
0.666290 0.666382 0.666260
0.740417 0.740540 0.740417
0.182495 0.182495 0.182495
0.245728 0.245728 0.245728
0.316559 0.316589 0.316528
0.394592 0.394684 0.394592
0.479553 0.479614 0.479553
0.570129 0.570221 0.570099
0.657379 0.657471 0.657349
0.732849 0.732941 0.732819
0.796600 0.796722 0.796600
0.238556 0.238556 0.238556
0.308533 0.308533 0.308472
0.385864 0.385956 0.385864
0.470154 0.470215 0.470154
0.560242 0.560333 0.560242
0.648407 0.648499 0.648376
0.725067 0.725189 0.725067
0.790100 0.790222 0.790100
0.843994 0.844116 0.843994
0.300720 0.300720 0.300690
0.377167 0.377258 0.377167
0.460724 0.460785 0.460724
0.550354 0.550446 0.550323
0.639313 0.639404 0.639282
0.717285 0.717407 0.717255
0.783447 0.783569 0.783447
0.838562 0.838684 0.838531
0.883148 0.883301 0.883148
0.368774 0.368866 0.368744
0.451416 0.451508 0.451416
0.540436 0.540527 0.540405
0.630280 0.630371 0.630280
0.709442 0.709564 0.709412
0.776764 0.776886 0.776733
0.832947 0.833069 0.832916
0.878662 0.878815 0.878662
0.914886 0.915009 0.914856
0.442657 0.442719 0.442657
0.530762 0.530823 0.530731
0.621185 0.621307 0.621185
0.701630 0.701721 0.701599
0.770172 0.770294 0.770142
0.827423 0.827545 0.827393
0.874054 0.874176 0.874023
0.911255 0.911407 0.911255
0.940491 0.940643 0.940460
0.521515 0.521576 0.521484
0.612366 0.612457 0.612366
0.693787 0.693878 0.693756
0.763519 0.763641 0.763519
0.821960 0.822083 0.821930
0.869659 0.869812 0.869659
0.907684 0.907837 0.907654
0.937653 0.937775 0.937622
0.961212 0.961365 0.961212
0.603882 0.604004 0.603882
0.686157 0.686249 0.686127
0.756836 0.756958 0.756805
0.816376 0.816498 0.816345
0.865204 0.865326 0.865173
0.904144 0.904266 0.904114
0.934784 0.934937 0.934753
0.958954 0.959106 0.958954
0.977905 0.978058 0.977875
0.128204 0.128204 0.128204
0.184052 0.184052 0.184052
0.247437 0.247437 0.247437
0.318390 0.318420 0.318329
0.396667 0.396759 0.396667
0.481812 0.481873 0.481812
0.572693 0.572784 0.572662
0.659912 0.660004 0.659882
0.735046 0.735138 0.735016
0.177673 0.177673 0.177673
0.240265 0.240265 0.240265
0.310394 0.310394 0.310364
0.387939 0.388031 0.387939
0.472351 0.472412 0.472351
0.562714 0.562775 0.562683
0.650940 0.651031 0.650909
0.727264 0.727356 0.727264
0.791901 0.792053 0.791901
0.233093 0.233093 0.233093
0.302521 0.302521 0.302460
0.379303 0.379364 0.379272
0.462982 0.463043 0.462982
0.552795 0.552856 0.552765
0.641876 0.641968 0.641846
0.719482 0.719604 0.719482
0.785339 0.785461 0.785339
0.840118 0.840240 0.840088
0.294647 0.294647 0.294617
0.370605 0.370697 0.370605
0.453644 0.453705 0.453644
0.542877 0.542969 0.542847
0.632629 0.632721 0.632629
0.711578 0.711700 0.711548
0.778687 0.778809 0.778687
0.834564 0.834686 0.834564
0.880005 0.880127 0.879974
0.362213 0.362274 0.362183
0.444397 0.444458 0.444397
0.532990 0.533051 0.532959
0.623383 0.623474 0.623352
0.703552 0.703644 0.703522
0.771881 0.772003 0.771881
0.828979 0.829102 0.828949
0.875427 0.875549 0.875397
0.912323 0.912476 0.912292
0.435272 0.435333 0.435272
0.523224 0.523285 0.523193
0.614136 0.614227 0.614136
0.695587 0.695679 0.695557
0.765076 0.765198 0.765045
0.823242 0.823364 0.823212
0.870819 0.870941 0.870789
0.908630 0.908783 0.908600
0.938446 0.938568 0.938416
0.514221 0.514282 0.514191
0.604980 0.605072 0.604950
0.687561 0.687653 0.687531
0.758270 0.758392 0.758240
0.817596 0.817719 0.817566
0.866180 0.866302 0.866150
0.904907 0.905060 0.904877
0.935486 0.935608 0.935455
0.959503 0.959656 0.959503
0.595886 0.595978 0.595886
0.679535 0.679626 0.679504
0.751373 0.751495 0.751343
0.811829 0.811951 0.811829
0.861511 0.861633 0.861511
0.901245 0.901367 0.901215
0.932526 0.932648 0.932495
0.957123 0.957245 0.957092
0.976471 0.976624 0.976440
0.672089 0.672180 0.672058
0.744720 0.744843 0.744690
0.806122 0.806244 0.806091
0.856842 0.856964 0.856812
0.897552 0.897675 0.897522
0.929596 0.929749 0.929565
0.954834 0.954987 0.954803
0.974640 0.974792 0.974609
0.990082 0.990234 0.990051
0.172729 0.172729 0.172729
0.234772 0.234772 0.234772
0.304321 0.304321 0.304260
0.381195 0.381287 0.381195
0.465149 0.465210 0.465149
0.555145 0.555237 0.555115
0.644379 0.644470 0.644379
0.721710 0.721802 0.721680
0.787231 0.787354 0.787231
0.227722 0.227722 0.227722
0.296448 0.296448 0.296417
0.372559 0.372650 0.372559
0.455780 0.455841 0.455780
0.545197 0.545288 0.545166
0.635162 0.635254 0.635132
0.713806 0.713898 0.713776
0.780518 0.780640 0.780518
0.836151 0.836273 0.836121
0.288635 0.288635 0.288635
0.363922 0.364014 0.363922
0.446503 0.446564 0.446503
0.535339 0.535400 0.535309
0.625854 0.625946 0.625824
0.705780 0.705902 0.705780
0.773834 0.773926 0.773804
0.830566 0.830688 0.830536
0.876709 0.876862 0.876709
0.355560 0.355652 0.355560
0.437225 0.437317 0.437225
0.525452 0.525513 0.525421
0.616333 0.616425 0.616333
0.697632 0.697723 0.697601
0.766907 0.767029 0.766876
0.824890 0.825012 0.824860
0.872131 0.872284 0.872131
0.909698 0.909851 0.909668
0.428406 0.428497 0.428406
0.515656 0.515717 0.515625
0.606964 0.607056 0.606964
0.689453 0.689545 0.689423
0.759888 0.760010 0.759857
0.819061 0.819183 0.819031
0.867462 0.867584 0.867432
0.906006 0.906128 0.905975
0.936310 0.936462 0.936279
0.506042 0.506104 0.506012
0.597565 0.597656 0.597565
0.681305 0.681396 0.681274
0.752960 0.753052 0.752930
0.813202 0.813324 0.813171
0.862610 0.862762 0.862610
0.902222 0.902344 0.902191
0.933350 0.933472 0.933319
0.957794 0.957947 0.957794
0.588409 0.588501 0.588409
0.673126 0.673248 0.673096
0.745941 0.746033 0.745911
0.807373 0.807495 0.807343
0.857910 0.858032 0.857880
0.898376 0.898499 0.898346
0.930298 0.930420 0.930267
0.955414 0.955536 0.955383
0.975098 0.975250 0.975067
0.665314 0.665405 0.665283
0.738983 0.739105 0.738953
0.801453 0.801575 0.801422
0.853027 0.853180 0.853027
0.894562 0.894684 0.894531
0.927246 0.927368 0.927216
0.952972 0.953094 0.952942
0.973175 0.973328 0.973145
0.988983 0.989136 0.988953
0.732605 0.732727 0.732605
0.795563 0.795654 0.795532
0.848175 0.848297 0.848145
0.890625 0.890747 0.890594
0.924164 0.924286 0.924133
0.950531 0.950684 0.950500
0.971252 0.971436 0.971222
0.987488 0.987640 0.987457
0.999908 1.000000 0.999878
