滤镜资源/Professional Luts Collection/Lutify.me Professional/Black & White Films/Carborundum.cube
# Created by: Lutify.me
# Copyright: (c) Copyright Lutify.me 2015
# Website: https://lutify.me
#LUT size
LUT_3D_SIZE 5
#LUT data points
0.000000 0.000000 0.000000
0.007141 0.007141 0.007141
0.051300 0.051300 0.051300
0.145477 0.145477 0.145477
0.269501 0.269501 0.269501
0.005585 0.005585 0.005585
0.043365 0.043365 0.043365
0.134003 0.134003 0.134003
0.254761 0.254761 0.254761
0.405365 0.405457 0.405365
0.035706 0.035706 0.035706
0.122772 0.122772 0.122772
0.240387 0.240387 0.240387
0.387970 0.388062 0.387970
0.562714 0.562805 0.562683
0.112183 0.112183 0.112183
0.226196 0.226196 0.226196
0.370636 0.370728 0.370605
0.542816 0.542908 0.542786
0.712067 0.712158 0.712036
0.213623 0.213623 0.213623
0.353851 0.353943 0.353821
0.523193 0.523285 0.523163
0.696136 0.696228 0.696106
0.823883 0.824005 0.823853
0.004669 0.004669 0.004669
0.037659 0.037659 0.037659
0.125488 0.125488 0.125488
0.243805 0.243805 0.243805
0.392120 0.392212 0.392120
0.030823 0.030823 0.030823
0.114716 0.114716 0.114716
0.229797 0.229797 0.229797
0.374939 0.375031 0.374908
0.547699 0.547760 0.547668
0.103912 0.103912 0.103912
0.215942 0.215942 0.215942
0.358002 0.358063 0.357971
0.528046 0.528107 0.528015
0.699768 0.699890 0.699768
0.202515 0.202515 0.202515
0.341217 0.341278 0.341187
0.508514 0.508575 0.508484
0.683167 0.683258 0.683136
0.814880 0.815002 0.814850
0.325775 0.325836 0.325745
0.489258 0.489319 0.489258
0.666412 0.666534 0.666412
0.802887 0.803009 0.802856
0.895630 0.895782 0.895630
0.025909 0.025909 0.025909
0.106445 0.106445 0.106445
0.219269 0.219269 0.219269
0.362000 0.362091 0.361969
0.532776 0.532837 0.532745
0.096039 0.096039 0.096039
0.205719 0.205719 0.205719
0.345337 0.345398 0.345306
0.513275 0.513367 0.513275
0.687500 0.687592 0.687469
0.192383 0.192383 0.192383
0.328857 0.328918 0.328827
0.494171 0.494232 0.494141
0.670227 0.670349 0.670227
0.805725 0.805847 0.805695
0.312958 0.312988 0.312927
0.474976 0.475037 0.474945
0.652802 0.652893 0.652802
0.793121 0.793243 0.793121
0.889435 0.889587 0.889435
0.457275 0.457367 0.457275
0.635437 0.635529 0.635406
0.780426 0.780548 0.780396
0.881042 0.881165 0.881012
0.944702 0.944824 0.944672
0.088379 0.088379 0.088379
0.195465 0.195465 0.195465
0.332703 0.332764 0.332642
0.498688 0.498749 0.498688
0.675110 0.675201 0.675079
0.182495 0.182495 0.182495
0.316559 0.316589 0.316528
0.479553 0.479614 0.479553
0.657379 0.657471 0.657349
0.796600 0.796722 0.796600
0.300720 0.300720 0.300690
0.460724 0.460785 0.460724
0.639313 0.639404 0.639282
0.783447 0.783569 0.783447
0.883148 0.883301 0.883148
0.442657 0.442719 0.442657
0.621185 0.621307 0.621185
0.770172 0.770294 0.770142
0.874054 0.874176 0.874023
0.940491 0.940643 0.940460
0.603882 0.604004 0.603882
0.756836 0.756958 0.756805
0.865204 0.865326 0.865173
0.934784 0.934937 0.934753
0.977905 0.978058 0.977875
0.172729 0.172729 0.172729
0.304321 0.304321 0.304260
0.465149 0.465210 0.465149
0.644379 0.644470 0.644379
0.787231 0.787354 0.787231
0.288635 0.288635 0.288635
0.446503 0.446564 0.446503
0.625854 0.625946 0.625824
0.773834 0.773926 0.773804
0.876709 0.876862 0.876709
0.428406 0.428497 0.428406
0.606964 0.607056 0.606964
0.759888 0.760010 0.759857
0.867462 0.867584 0.867432
0.936310 0.936462 0.936279
0.588409 0.588501 0.588409
0.745941 0.746033 0.745911
0.857910 0.858032 0.857880
0.930298 0.930420 0.930267
0.975098 0.975250 0.975067
0.732605 0.732727 0.732605
0.848175 0.848297 0.848145
0.924164 0.924286 0.924133
0.971252 0.971436 0.971222
0.999908 1.000000 0.999878
