滤镜资源/Professional Luts Collection/Lutify.me Professional/Black & White Films/Cryolite.cube
# Created by: Lutify.me
# Copyright: (c) Copyright Lutify.me 2015
# Website: https://lutify.me
#LUT size
LUT_3D_SIZE 33
#LUT data points
0.000000 0.000000 0.000000
0.006561 0.006561 0.006561
0.013275 0.013275 0.013275
0.020630 0.020630 0.020630
0.029816 0.029816 0.029816
0.041290 0.041290 0.041290
0.054047 0.054047 0.054047
0.067505 0.067505 0.067505
0.081390 0.081390 0.081390
0.095886 0.095886 0.095886
0.110931 0.110931 0.110931
0.126495 0.126495 0.126495
0.142578 0.142578 0.142578
0.159180 0.159180 0.159180
0.176239 0.176239 0.176239
0.193787 0.193787 0.193787
0.211853 0.211853 0.211853
0.230316 0.230316 0.230316
0.249146 0.249146 0.249146
0.268433 0.268433 0.268433
0.288086 0.288086 0.288086
0.308136 0.308136 0.308075
0.328491 0.328552 0.328430
0.349182 0.349274 0.349152
0.370148 0.370239 0.370148
0.391418 0.391510 0.391418
0.412933 0.413025 0.412933
0.434692 0.434753 0.434692
0.456604 0.456665 0.456604
0.478699 0.478760 0.478699
0.500854 0.500916 0.500854
0.523102 0.523163 0.523071
0.545380 0.545441 0.545349
0.005005 0.005005 0.005005
0.012085 0.012085 0.012085
0.019073 0.019073 0.019073
0.027618 0.027618 0.027618
0.038788 0.038788 0.038788
0.051270 0.051270 0.051270
0.064545 0.064545 0.064545
0.078400 0.078400 0.078400
0.092865 0.092865 0.092865
0.107788 0.107788 0.107788
0.123260 0.123260 0.123260
0.139221 0.139221 0.139221
0.155701 0.155701 0.155701
0.172607 0.172607 0.172607
0.190094 0.190094 0.190094
0.208069 0.208069 0.208069
0.226349 0.226349 0.226349
0.245117 0.245117 0.245117
0.264404 0.264404 0.264404
0.283936 0.283936 0.283936
0.303864 0.303894 0.303833
0.324158 0.324188 0.324097
0.344788 0.344849 0.344727
0.365692 0.365784 0.365692
0.386780 0.386871 0.386780
0.408325 0.408417 0.408325
0.430084 0.430145 0.430084
0.451813 0.451904 0.451813
0.473907 0.473969 0.473907
0.496033 0.496094 0.496033
0.518402 0.518463 0.518372
0.540649 0.540741 0.540619
0.562897 0.562958 0.562866
0.010071 0.010071 0.010071
0.017181 0.017181 0.017181
0.025726 0.025726 0.025726
0.036194 0.036194 0.036194
0.048645 0.048645 0.048645
0.061798 0.061798 0.061798
0.075500 0.075500 0.075500
0.089722 0.089722 0.089722
0.104584 0.104584 0.104584
0.119873 0.119873 0.119873
0.135834 0.135834 0.135834
0.152191 0.152191 0.152191
0.169006 0.169006 0.169006
0.186340 0.186340 0.186340
0.204224 0.204224 0.204224
0.222565 0.222565 0.222565
0.241241 0.241241 0.241241
0.260284 0.260284 0.260284
0.279785 0.279785 0.279785
0.299652 0.299652 0.299622
0.319916 0.319916 0.319855
0.340485 0.340515 0.340424
0.361298 0.361389 0.361298
0.382416 0.382507 0.382416
0.403809 0.403900 0.403809
0.425415 0.425476 0.425415
0.447296 0.447357 0.447296
0.469299 0.469360 0.469299
0.491364 0.491425 0.491364
0.513733 0.513794 0.513702
0.535950 0.536011 0.535919
0.558136 0.558228 0.558105
0.580383 0.580505 0.580383
0.015564 0.015564 0.015564
0.023346 0.023346 0.023346
0.033478 0.033478 0.033478
0.046051 0.046051 0.046051
0.058960 0.058960 0.058960
0.072449 0.072449 0.072449
0.086700 0.086700 0.086700
0.101318 0.101318 0.101318
0.116638 0.116638 0.116638
0.132385 0.132385 0.132385
0.148651 0.148651 0.148651
0.165436 0.165436 0.165436
0.182648 0.182648 0.182648
0.200378 0.200378 0.200378
0.218597 0.218597 0.218597
0.237183 0.237183 0.237183
0.256195 0.256195 0.256195
0.275604 0.275604 0.275604
0.295380 0.295410 0.295380
0.315582 0.315613 0.315521
0.336060 0.336121 0.335999
0.356812 0.356903 0.356781
0.377869 0.377960 0.377869
0.399200 0.399292 0.399200
0.420837 0.420929 0.420837
0.442627 0.442719 0.442627
0.464600 0.464661 0.464600
0.486755 0.486816 0.486755
0.508911 0.508972 0.508911
0.531158 0.531219 0.531128
0.553436 0.553528 0.553406
0.575684 0.575775 0.575653
0.597778 0.597900 0.597778
0.021057 0.021057 0.021057
0.030701 0.030701 0.030701
0.042816 0.042816 0.042816
0.055908 0.055908 0.055908
0.069641 0.069641 0.069641
0.083679 0.083679 0.083679
0.098267 0.098267 0.098267
0.113281 0.113281 0.113281
0.128967 0.128967 0.128967
0.145172 0.145172 0.145172
0.161835 0.161835 0.161835
0.178986 0.178986 0.178986
0.196594 0.196594 0.196594
0.214691 0.214691 0.214691
0.233215 0.233215 0.233215
0.252197 0.252197 0.252197
0.271484 0.271484 0.271484
0.291199 0.291199 0.291168
0.311279 0.311279 0.311218
0.331665 0.331726 0.331635
0.352386 0.352478 0.352386
0.373383 0.373505 0.373383
0.394684 0.394775 0.394684
0.416290 0.416351 0.416290
0.438049 0.438141 0.438049
0.459961 0.460052 0.459961
0.482086 0.482147 0.482086
0.504272 0.504333 0.504242
0.526459 0.526520 0.526428
0.548737 0.548828 0.548706
0.570984 0.571075 0.570953
0.593170 0.593292 0.593170
0.615234 0.615326 0.615234
0.027924 0.027924 0.027924
0.039490 0.039490 0.039490
0.052521 0.052521 0.052521
0.066193 0.066193 0.066193
0.080322 0.080322 0.080322
0.095001 0.095001 0.095001
0.110168 0.110168 0.110168
0.125580 0.125580 0.125580
0.141693 0.141693 0.141693
0.158295 0.158295 0.158295
0.175354 0.175354 0.175354
0.192841 0.192841 0.192841
0.210815 0.210815 0.210815
0.229218 0.229218 0.229218
0.248138 0.248138 0.248138
0.267426 0.267426 0.267426
0.287018 0.287018 0.287018
0.306976 0.306976 0.306946
0.327332 0.327362 0.327271
0.347992 0.348083 0.347961
0.368927 0.369019 0.368927
0.390167 0.390259 0.390167
0.411682 0.411774 0.411682
0.433411 0.433502 0.433411
0.455322 0.455414 0.455322
0.477356 0.477417 0.477356
0.499542 0.499603 0.499542
0.521759 0.521820 0.521729
0.544006 0.544098 0.543976
0.566315 0.566406 0.566284
0.588470 0.588593 0.588470
0.610596 0.610687 0.610596
0.632568 0.632690 0.632568
0.036407 0.036407 0.036407
0.049286 0.049286 0.049286
0.062836 0.062836 0.062836
0.076721 0.076721 0.076721
0.091339 0.091339 0.091339
0.106628 0.106628 0.106628
0.122375 0.122375 0.122375
0.138336 0.138336 0.138336
0.154724 0.154724 0.154724
0.171722 0.171722 0.171722
0.189148 0.189148 0.189148
0.207031 0.207031 0.207031
0.225342 0.225342 0.225342
0.244141 0.244141 0.244141
0.263336 0.263336 0.263336
0.282867 0.282867 0.282867
0.302795 0.302795 0.302765
0.323059 0.323090 0.323029
0.343658 0.343719 0.343628
0.364563 0.364624 0.364532
0.385712 0.385803 0.385712
0.407166 0.407227 0.407166
0.428833 0.428925 0.428833
0.450714 0.450775 0.450714
0.472748 0.472809 0.472748
0.494873 0.494934 0.494873
0.517090 0.517151 0.517059
0.539368 0.539459 0.539337
0.561646 0.561737 0.561615
0.583832 0.583954 0.583832
0.605957 0.606079 0.605957
0.628021 0.628113 0.628021
0.649811 0.649902 0.649811
0.046112 0.046112 0.046112
0.059448 0.059448 0.059448
0.073395 0.073395 0.073395
0.087799 0.087799 0.087799
0.102753 0.102753 0.102753
0.118439 0.118439 0.118439
0.134521 0.134521 0.134521
0.151245 0.151245 0.151245
0.168091 0.168091 0.168091
0.185425 0.185425 0.185425
0.203247 0.203247 0.203247
0.221466 0.221466 0.221466
0.240112 0.240112 0.240112
0.259216 0.259216 0.259216
0.278717 0.278717 0.278717
0.298553 0.298553 0.298523
0.318726 0.318756 0.318665
0.339264 0.339294 0.339203
0.360077 0.360138 0.360046
0.381195 0.381287 0.381195
0.402588 0.402679 0.402588
0.424225 0.424316 0.424225
0.446045 0.446136 0.446045
0.468079 0.468140 0.468079
0.490173 0.490234 0.490173
0.512390 0.512451 0.512360
0.534607 0.534698 0.534576
0.556915 0.557007 0.556885
0.579163 0.579254 0.579132
0.601288 0.601410 0.601288
0.623322 0.623413 0.623322
0.645203 0.645294 0.645172
0.666840 0.666931 0.666809
0.056122 0.056122 0.056122
0.069824 0.069824 0.069824
0.084167 0.084167 0.084167
0.099060 0.099060 0.099060
0.114410 0.114410 0.114410
0.130585 0.130585 0.130585
0.147064 0.147064 0.147064
0.164154 0.164154 0.164154
0.181763 0.181763 0.181763
0.199402 0.199402 0.199402
0.217590 0.217590 0.217590
0.236145 0.236145 0.236145
0.255157 0.255157 0.255157
0.274536 0.274536 0.274536
0.294312 0.294312 0.294281
0.314484 0.314484 0.314423
0.334900 0.334961 0.334869
0.355652 0.355713 0.355621
0.376709 0.376801 0.376709
0.398041 0.398132 0.398041
0.419647 0.419739 0.419647
0.441406 0.441498 0.441406
0.463348 0.463440 0.463348
0.485474 0.485565 0.485474
0.507690 0.507751 0.507660
0.529938 0.529999 0.529907
0.552185 0.552277 0.552155
0.574463 0.574554 0.574432
0.596619 0.596741 0.596619
0.618683 0.618805 0.618683
0.640594 0.640686 0.640564
0.662292 0.662384 0.662262
0.683746 0.683838 0.683716
0.066467 0.066467 0.066467
0.080658 0.080658 0.080658
0.095398 0.095398 0.095398
0.110626 0.110626 0.110626
0.126526 0.126526 0.126526
0.142944 0.142944 0.142944
0.159973 0.159973 0.159973
0.177368 0.177368 0.177368
0.195312 0.195312 0.195312
0.213715 0.213715 0.213715
0.232208 0.232208 0.232208
0.251129 0.251129 0.251129
0.270416 0.270416 0.270416
0.290100 0.290100 0.290100
0.310181 0.310181 0.310120
0.330597 0.330627 0.330536
0.351257 0.351349 0.351257
0.372223 0.372314 0.372223
0.393524 0.393616 0.393524
0.415070 0.415161 0.415070
0.436798 0.436890 0.436798
0.458740 0.458801 0.458740
0.480804 0.480896 0.480804
0.502991 0.503052 0.502991
0.525208 0.525269 0.525177
0.547485 0.547577 0.547455
0.569763 0.569824 0.569733
0.591949 0.592041 0.591919
0.614014 0.614136 0.614014
0.635986 0.636078 0.635956
0.657715 0.657806 0.657684
0.679230 0.679352 0.679199
0.700470 0.700592 0.700470
0.077057 0.077057 0.077057
0.091736 0.091736 0.091736
0.107025 0.107025 0.107025
0.122650 0.122650 0.122650
0.138885 0.138885 0.138885
0.155670 0.155670 0.155670
0.173035 0.173035 0.173035
0.190887 0.190887 0.190887
0.209167 0.209167 0.209167
0.227936 0.227936 0.227936
0.247162 0.247162 0.247162
0.266327 0.266327 0.266327
0.285919 0.285919 0.285919
0.305939 0.305939 0.305908
0.326263 0.326294 0.326233
0.346863 0.346954 0.346863
0.367828 0.367889 0.367798
0.389008 0.389099 0.389008
0.410492 0.410583 0.410492
0.432190 0.432281 0.432190
0.454102 0.454163 0.454102
0.476135 0.476227 0.476135
0.498291 0.498383 0.498291
0.520569 0.520630 0.520538
0.542786 0.542877 0.542755
0.565033 0.565125 0.565002
0.587250 0.587341 0.587250
0.609375 0.609467 0.609375
0.631348 0.631439 0.631317
0.653168 0.653259 0.653137
0.674713 0.674805 0.674713
0.696014 0.696136 0.695984
0.716980 0.717102 0.716980
0.088135 0.088135 0.088135
0.103241 0.103241 0.103241
0.118774 0.118774 0.118774
0.134857 0.134857 0.134857
0.151520 0.151520 0.151520
0.168732 0.168732 0.168732
0.186401 0.186401 0.186401
0.204620 0.204620 0.204620
0.223206 0.223206 0.223206
0.242340 0.242340 0.242340
0.261871 0.261871 0.261871
0.281799 0.281799 0.281799
0.301666 0.301666 0.301605
0.321899 0.321899 0.321838
0.342499 0.342560 0.342468
0.363373 0.363464 0.363373
0.384521 0.384613 0.384521
0.405945 0.406036 0.405945
0.427612 0.427673 0.427612
0.449463 0.449524 0.449463
0.471466 0.471558 0.471466
0.493622 0.493683 0.493591
0.515839 0.515900 0.515808
0.538116 0.538177 0.538086
0.560364 0.560455 0.560333
0.582550 0.582642 0.582550
0.604675 0.604767 0.604675
0.626709 0.626801 0.626709
0.648529 0.648621 0.648499
0.670166 0.670258 0.670135
0.691528 0.691650 0.691498
0.712585 0.712677 0.712555
0.733246 0.733368 0.733215
0.099518 0.099518 0.099518
0.114960 0.114960 0.114960
0.130951 0.130951 0.130951
0.147308 0.147308 0.147308
0.164459 0.164459 0.164459
0.182007 0.182007 0.182007
0.200134 0.200134 0.200134
0.218658 0.218658 0.218658
0.237610 0.237610 0.237610
0.256989 0.256989 0.256989
0.276855 0.276855 0.276825
0.297058 0.297089 0.297028
0.317627 0.317657 0.317566
0.338104 0.338165 0.338074
0.358917 0.358978 0.358887
0.380035 0.380127 0.380035
0.401398 0.401489 0.401398
0.423004 0.423096 0.423004
0.444824 0.444916 0.444824
0.466797 0.466888 0.466797
0.488922 0.488983 0.488922
0.511108 0.511200 0.511108
0.533356 0.533417 0.533325
0.555634 0.555725 0.555634
0.577881 0.577972 0.577850
0.600006 0.600098 0.600006
0.622040 0.622131 0.622009
0.643951 0.644043 0.643921
0.665619 0.665710 0.665588
0.687042 0.687134 0.687012
0.708160 0.708252 0.708130
0.728912 0.729034 0.728912
0.749268 0.749390 0.749237
0.110992 0.110992 0.110992
0.126953 0.126953 0.126953
0.143433 0.143433 0.143433
0.160278 0.160278 0.160278
0.177673 0.177673 0.177673
0.195587 0.195587 0.195587
0.214050 0.214050 0.214050
0.232910 0.232910 0.232910
0.252228 0.252228 0.252228
0.271973 0.271973 0.271973
0.292053 0.292053 0.292023
0.312531 0.312561 0.312500
0.333344 0.333405 0.333313
0.354523 0.354584 0.354492
0.375549 0.375641 0.375549
0.396881 0.396973 0.396881
0.418427 0.418518 0.418427
0.440186 0.440277 0.440186
0.462158 0.462250 0.462158
0.484253 0.484314 0.484222
0.506409 0.506500 0.506409
0.528656 0.528717 0.528625
0.550903 0.550995 0.550873
0.573151 0.573242 0.573151
0.595337 0.595428 0.595337
0.617371 0.617462 0.617371
0.639282 0.639404 0.639282
0.661041 0.661133 0.661041
0.682526 0.682617 0.682495
0.703705 0.703796 0.703674
0.724548 0.724670 0.724518
0.744995 0.745117 0.744965
0.764984 0.765106 0.764954
0.122925 0.122925 0.122925
0.139404 0.139404 0.139404
0.156158 0.156158 0.156158
0.173370 0.173370 0.173370
0.191162 0.191162 0.191162
0.209473 0.209473 0.209473
0.228241 0.228241 0.228241
0.247437 0.247437 0.247437
0.267059 0.267059 0.267059
0.287079 0.287079 0.287079
0.307495 0.307526 0.307465
0.328217 0.328278 0.328186
0.349274 0.349335 0.349243
0.370667 0.370758 0.370667
0.392365 0.392456 0.392365
0.413879 0.413971 0.413879
0.435638 0.435699 0.435638
0.457489 0.457581 0.457489
0.479584 0.479645 0.479553
0.501740 0.501801 0.501709
0.523987 0.524048 0.523956
0.546234 0.546295 0.546204
0.568481 0.568573 0.568451
0.590668 0.590759 0.590668
0.612762 0.612854 0.612732
0.634705 0.634796 0.634705
0.656464 0.656555 0.656433
0.678009 0.678101 0.677979
0.699249 0.699371 0.699249
0.720184 0.720276 0.720154
0.740692 0.740814 0.740662
0.760834 0.760925 0.760803
0.780426 0.780548 0.780426
0.135284 0.135284 0.135284
0.152100 0.152100 0.152100
0.169159 0.169159 0.169159
0.186798 0.186798 0.186798
0.204956 0.204956 0.204956
0.223572 0.223572 0.223572
0.242737 0.242737 0.242737
0.262207 0.262207 0.262207
0.282135 0.282135 0.282135
0.302460 0.302490 0.302429
0.323151 0.323181 0.323090
0.344116 0.344177 0.344086
0.365417 0.365479 0.365387
0.387024 0.387115 0.387024
0.408905 0.408997 0.408905
0.431030 0.431091 0.431030
0.452881 0.452972 0.452881
0.474915 0.474976 0.474915
0.497040 0.497101 0.497040
0.519257 0.519348 0.519257
0.541534 0.541595 0.541504
0.563782 0.563873 0.563751
0.585968 0.586060 0.585968
0.608124 0.608215 0.608093
0.630096 0.630188 0.630096
0.651886 0.651978 0.651855
0.673462 0.673553 0.673431
0.694794 0.694885 0.694763
0.715759 0.715881 0.715759
0.736389 0.736511 0.736359
0.756592 0.756683 0.756561
0.776337 0.776459 0.776306
0.795532 0.795685 0.795532
0.147888 0.147888 0.147888
0.165100 0.165100 0.165100
0.182526 0.182526 0.182526
0.200500 0.200500 0.200500
0.219025 0.219025 0.219025
0.237946 0.237946 0.237946
0.257416 0.257416 0.257416
0.277252 0.277252 0.277252
0.297424 0.297424 0.297363
0.318024 0.318054 0.317963
0.338959 0.339020 0.338928
0.360168 0.360229 0.360138
0.381683 0.381775 0.381683
0.403473 0.403564 0.403473
0.425598 0.425659 0.425598
0.447815 0.447906 0.447815
0.470215 0.470276 0.470215
0.492340 0.492401 0.492340
0.514557 0.514618 0.514526
0.536804 0.536896 0.536774
0.559052 0.559143 0.559021
0.581268 0.581360 0.581268
0.603394 0.603485 0.603363
0.625427 0.625549 0.625427
0.647278 0.647369 0.647278
0.668915 0.669006 0.668884
0.690247 0.690369 0.690247
0.711365 0.711456 0.711334
0.732025 0.732147 0.732025
0.752319 0.752441 0.752289
0.772186 0.772308 0.772156
0.791504 0.791626 0.791504
0.810272 0.810394 0.810242
0.160767 0.160767 0.160767
0.178375 0.178375 0.178375
0.196106 0.196106 0.196106
0.214478 0.214478 0.214478
0.233276 0.233276 0.233276
0.252625 0.252625 0.252625
0.272308 0.272308 0.272308
0.292480 0.292480 0.292419
0.312927 0.312958 0.312897
0.333740 0.333801 0.333710
0.354919 0.355011 0.354919
0.376404 0.376495 0.376404
0.398132 0.398224 0.398132
0.420105 0.420197 0.420105
0.442322 0.442413 0.442322
0.464752 0.464813 0.464752
0.487244 0.487335 0.487244
0.509827 0.509888 0.509796
0.532104 0.532166 0.532074
0.554352 0.554413 0.554321
0.576569 0.576660 0.576569
0.598724 0.598816 0.598724
0.620758 0.620850 0.620758
0.642639 0.642761 0.642639
0.664368 0.664459 0.664337
0.685760 0.685883 0.685760
0.706879 0.707001 0.706879
0.727692 0.727814 0.727661
0.748077 0.748169 0.748047
0.767975 0.768097 0.767975
0.787445 0.787567 0.787415
0.806335 0.806458 0.806335
0.824615 0.824738 0.824585
0.173950 0.173950 0.173950
0.191833 0.191833 0.191833
0.210022 0.210022 0.210022
0.228729 0.228729 0.228729
0.247864 0.247864 0.247864
0.267487 0.267487 0.267487
0.287506 0.287506 0.287506
0.307892 0.307922 0.307861
0.328644 0.328674 0.328583
0.349701 0.349792 0.349670
0.371094 0.371185 0.371094
0.392761 0.392853 0.392761
0.414734 0.414825 0.414734
0.436859 0.436951 0.436859
0.459229 0.459320 0.459229
0.481720 0.481812 0.481720
0.504303 0.504364 0.504303
0.526978 0.527069 0.526947
0.549652 0.549713 0.549622
0.571899 0.571991 0.571869
0.594055 0.594147 0.594055
0.616119 0.616211 0.616119
0.638031 0.638123 0.638031
0.659760 0.659882 0.659760
0.681274 0.681366 0.681244
0.702454 0.702576 0.702454
0.723328 0.723419 0.723297
0.743774 0.743896 0.743774
0.763794 0.763916 0.763763
0.783356 0.783478 0.783356
0.802368 0.802521 0.802368
0.820831 0.820953 0.820801
0.838562 0.838684 0.838531
0.187378 0.187378 0.187378
0.205627 0.205627 0.205627
0.224243 0.224243 0.224243
0.243195 0.243195 0.243195
0.262695 0.262695 0.262695
0.282562 0.282562 0.282562
0.302917 0.302917 0.302856
0.323547 0.323578 0.323517
0.344513 0.344574 0.344482
0.365814 0.365906 0.365784
0.387451 0.387543 0.387451
0.409302 0.409393 0.409302
0.431427 0.431488 0.431427
0.453735 0.453796 0.453735
0.476196 0.476257 0.476196
0.498810 0.498871 0.498779
0.521423 0.521515 0.521423
0.544067 0.544159 0.544037
0.566772 0.566864 0.566742
0.589386 0.589478 0.589355
0.611481 0.611572 0.611450
0.633423 0.633514 0.633423
0.655182 0.655273 0.655151
0.676727 0.676849 0.676727
0.697998 0.698120 0.697968
0.718933 0.719055 0.718903
0.739502 0.739594 0.739471
0.759613 0.759735 0.759583
0.779266 0.779388 0.779236
0.798401 0.798523 0.798370
0.816956 0.817078 0.816925
0.834869 0.834991 0.834839
0.852081 0.852203 0.852051
0.201111 0.201111 0.201111
0.219818 0.219818 0.219818
0.238678 0.238678 0.238678
0.257935 0.257935 0.257935
0.277710 0.277710 0.277710
0.297913 0.297913 0.297882
0.318512 0.318542 0.318481
0.339355 0.339417 0.339325
0.360596 0.360687 0.360596
0.382111 0.382202 0.382111
0.403931 0.403992 0.403931
0.425964 0.426056 0.425964
0.448242 0.448303 0.448242
0.470642 0.470734 0.470642
0.493225 0.493286 0.493195
0.515869 0.515930 0.515839
0.538544 0.538635 0.538513
0.561218 0.561310 0.561188
0.583832 0.583923 0.583832
0.606384 0.606476 0.606354
0.628784 0.628876 0.628784
0.650604 0.650726 0.650574
0.672180 0.672272 0.672180
0.693512 0.693604 0.693481
0.714539 0.714630 0.714508
0.735168 0.735260 0.735138
0.755371 0.755493 0.755371
0.775146 0.775269 0.775116
0.794403 0.794525 0.794373
0.813080 0.813202 0.813049
0.831116 0.831238 0.831085
0.848511 0.848602 0.848450
0.865112 0.865234 0.865082
0.215088 0.215088 0.215088
0.234192 0.234192 0.234192
0.253357 0.253357 0.253357
0.272919 0.272919 0.272919
0.292969 0.292969 0.292938
0.313385 0.313416 0.313324
0.334290 0.334320 0.334229
0.355347 0.355438 0.355316
0.376831 0.376923 0.376831
0.398590 0.398682 0.398590
0.420563 0.420654 0.420563
0.442780 0.442841 0.442780
0.465149 0.465240 0.465149
0.487671 0.487732 0.487671
0.510315 0.510376 0.510284
0.533020 0.533081 0.532990
0.555664 0.555756 0.555634
0.578308 0.578400 0.578278
0.600891 0.600983 0.600861
0.623322 0.623413 0.623322
0.645599 0.645691 0.645569
0.667664 0.667755 0.667633
0.689026 0.689148 0.688995
0.710114 0.710205 0.710083
0.730835 0.730927 0.730804
0.751099 0.751221 0.751099
0.770966 0.771088 0.770966
0.790344 0.790466 0.790344
0.809143 0.809265 0.809113
0.827332 0.827454 0.827301
0.844849 0.844971 0.844818
0.861664 0.861786 0.861633
0.877655 0.877777 0.877625
0.229279 0.229279 0.229279
0.248657 0.248657 0.248657
0.268280 0.268280 0.268280
0.288116 0.288116 0.288086
0.308441 0.308441 0.308380
0.329102 0.329132 0.329041
0.350220 0.350311 0.350189
0.371552 0.371643 0.371552
0.393250 0.393341 0.393250
0.415161 0.415253 0.415161
0.437317 0.437408 0.437317
0.459686 0.459747 0.459686
0.482178 0.482239 0.482178
0.504791 0.504852 0.504761
0.527435 0.527527 0.527435
0.550140 0.550201 0.550110
0.572784 0.572876 0.572754
0.595337 0.595459 0.595337
0.617828 0.617950 0.617828
0.640167 0.640259 0.640137
0.662262 0.662354 0.662231
0.684143 0.684235 0.684113
0.705658 0.705780 0.705658
0.726471 0.726593 0.726440
0.746857 0.746979 0.746857
0.766815 0.766937 0.766815
0.786255 0.786377 0.786255
0.805206 0.805328 0.805176
0.823517 0.823639 0.823486
0.841217 0.841339 0.841187
0.858124 0.858276 0.858124
0.874329 0.874451 0.874298
0.889648 0.889801 0.889618
0.243866 0.243866 0.243866
0.263519 0.263519 0.263519
0.283356 0.283356 0.283356
0.303619 0.303619 0.303558
0.324097 0.324158 0.324066
0.345001 0.345093 0.344971
0.366333 0.366425 0.366333
0.387909 0.387970 0.387909
0.409790 0.409882 0.409790
0.431946 0.432007 0.431946
0.454224 0.454315 0.454224
0.476654 0.476746 0.476654
0.499237 0.499298 0.499207
0.521881 0.521973 0.521881
0.544586 0.544678 0.544556
0.567261 0.567352 0.567230
0.589844 0.589935 0.589844
0.612335 0.612457 0.612335
0.634735 0.634827 0.634705
0.656891 0.656982 0.656860
0.678802 0.678894 0.678772
0.700439 0.700531 0.700409
0.721710 0.721802 0.721680
0.742584 0.742706 0.742584
0.762634 0.762756 0.762604
0.782196 0.782318 0.782196
0.801239 0.801361 0.801208
0.819702 0.819824 0.819672
0.837494 0.837616 0.837463
0.854614 0.854736 0.854584
0.870972 0.871094 0.870941
0.886475 0.886627 0.886475
0.901093 0.901245 0.901062
0.258667 0.258667 0.258667
0.278595 0.278595 0.278595
0.298645 0.298645 0.298584
0.319122 0.319153 0.319061
0.339966 0.339996 0.339905
0.361084 0.361176 0.361084
0.382599 0.382690 0.382599
0.404388 0.404480 0.404388
0.426453 0.426514 0.426453
0.448730 0.448822 0.448730
0.471222 0.471283 0.471191
0.493744 0.493805 0.493744
0.516357 0.516418 0.516327
0.539032 0.539093 0.539001
0.561707 0.561798 0.561707
0.584351 0.584442 0.584320
0.606842 0.606964 0.606842
0.629242 0.629333 0.629242
0.651489 0.651581 0.651459
0.673492 0.673584 0.673462
0.695160 0.695282 0.695160
0.716522 0.716644 0.716492
0.737518 0.737640 0.737488
0.758026 0.758148 0.758026
0.778107 0.778229 0.778076
0.797272 0.797394 0.797241
0.815826 0.815918 0.815796
0.833801 0.833923 0.833771
0.851013 0.851166 0.851013
0.867523 0.867676 0.867523
0.883240 0.883392 0.883240
0.898071 0.898224 0.898071
0.911957 0.912079 0.911926
0.273529 0.273529 0.273529
0.294006 0.294006 0.293976
0.314270 0.314270 0.314209
0.334900 0.334961 0.334869
0.356018 0.356110 0.356018
0.377319 0.377441 0.377319
0.399139 0.399231 0.399139
0.421051 0.421143 0.421051
0.443268 0.443329 0.443268
0.465668 0.465759 0.465668
0.488251 0.488312 0.488220
0.510834 0.510895 0.510803
0.533478 0.533539 0.533447
0.556152 0.556244 0.556122
0.578827 0.578918 0.578796
0.601379 0.601501 0.601379
0.623810 0.623932 0.623810
0.646057 0.646149 0.646027
0.668121 0.668213 0.668091
0.689880 0.690002 0.689880
0.711334 0.711456 0.711334
0.732422 0.732544 0.732391
0.753052 0.753174 0.753021
0.773224 0.773346 0.773224
0.792877 0.792999 0.792847
0.811920 0.812073 0.811920
0.830017 0.830139 0.829987
0.847443 0.847534 0.847412
0.864075 0.864227 0.864075
0.879944 0.880096 0.879944
0.894989 0.895111 0.894958
0.909088 0.909241 0.909058
0.922180 0.922333 0.922150
0.288696 0.288696 0.288696
0.309662 0.309662 0.309601
0.330078 0.330139 0.330048
0.350922 0.351013 0.350922
0.372223 0.372314 0.372223
0.393738 0.393829 0.393738
0.415771 0.415863 0.415771
0.437836 0.437927 0.437836
0.460175 0.460266 0.460175
0.482697 0.482788 0.482697
0.505310 0.505371 0.505280
0.527924 0.527985 0.527893
0.550598 0.550690 0.550568
0.573273 0.573364 0.573242
0.595856 0.595947 0.595856
0.618347 0.618439 0.618317
0.640656 0.640747 0.640625
0.662750 0.662872 0.662720
0.684601 0.684723 0.684570
0.706146 0.706268 0.706146
0.727325 0.727417 0.727295
0.748077 0.748169 0.748047
0.768372 0.768494 0.768341
0.788147 0.788239 0.788116
0.807343 0.807465 0.807312
