滤镜资源/Professional Luts Collection/Lutify.me Professional/Black & White Films/Cryolite.cube
# Created by: Lutify.me
# Copyright: (c) Copyright Lutify.me 2015
# Website: https://lutify.me
#LUT size
LUT_3D_SIZE 9
#LUT data points
0.000000 0.000000 0.000000
0.029816 0.029816 0.029816
0.081390 0.081390 0.081390
0.142578 0.142578 0.142578
0.211853 0.211853 0.211853
0.288086 0.288086 0.288086
0.370148 0.370239 0.370148
0.456604 0.456665 0.456604
0.545380 0.545441 0.545349
0.021057 0.021057 0.021057
0.069641 0.069641 0.069641
0.128967 0.128967 0.128967
0.196594 0.196594 0.196594
0.271484 0.271484 0.271484
0.352386 0.352478 0.352386
0.438049 0.438141 0.438049
0.526459 0.526520 0.526428
0.615234 0.615326 0.615234
0.056122 0.056122 0.056122
0.114410 0.114410 0.114410
0.181763 0.181763 0.181763
0.255157 0.255157 0.255157
0.334900 0.334961 0.334869
0.419647 0.419739 0.419647
0.507690 0.507751 0.507660
0.596619 0.596741 0.596619
0.683746 0.683838 0.683716
0.099518 0.099518 0.099518
0.164459 0.164459 0.164459
0.237610 0.237610 0.237610
0.317627 0.317657 0.317566
0.401398 0.401489 0.401398
0.488922 0.488983 0.488922
0.577881 0.577972 0.577850
0.665619 0.665710 0.665588
0.749268 0.749390 0.749237
0.147888 0.147888 0.147888
0.219025 0.219025 0.219025
0.297424 0.297424 0.297363
0.381683 0.381775 0.381683
0.470215 0.470276 0.470215
0.559052 0.559143 0.559021
0.647278 0.647369 0.647278
0.732025 0.732147 0.732025
0.810272 0.810394 0.810242
0.201111 0.201111 0.201111
0.277710 0.277710 0.277710
0.360596 0.360687 0.360596
0.448242 0.448303 0.448242
0.538544 0.538635 0.538513
0.628784 0.628876 0.628784
0.714539 0.714630 0.714508
0.794403 0.794525 0.794373
0.865112 0.865234 0.865082
0.258667 0.258667 0.258667
0.339966 0.339996 0.339905
0.426453 0.426514 0.426453
0.516357 0.516418 0.516327
0.606842 0.606964 0.606842
0.695160 0.695282 0.695160
0.778107 0.778229 0.778076
0.851013 0.851166 0.851013
0.911957 0.912079 0.911926
0.320038 0.320038 0.319977
0.405121 0.405212 0.405121
0.494293 0.494354 0.494263
0.584808 0.584900 0.584808
0.673981 0.674072 0.673950
0.758514 0.758636 0.758484
0.835175 0.835297 0.835144
0.900208 0.900330 0.900177
0.948853 0.948975 0.948822
0.385071 0.385162 0.385071
0.472565 0.472626 0.472565
0.562866 0.562958 0.562836
0.652527 0.652618 0.652496
0.738525 0.738617 0.738495
0.817413 0.817535 0.817383
0.885651 0.885803 0.885651
0.939209 0.939331 0.939178
0.974823 0.974976 0.974792
0.003479 0.003479 0.003479
0.036499 0.036499 0.036499
0.090210 0.090210 0.090210
0.152710 0.152710 0.152710
0.223175 0.223175 0.223175
0.300415 0.300415 0.300354
0.383209 0.383301 0.383209
0.470184 0.470245 0.470184
0.559082 0.559143 0.559052
0.026733 0.026733 0.026733
0.076996 0.076996 0.076996
0.137665 0.137665 0.137665
0.206299 0.206299 0.206299
0.282043 0.282043 0.282013
0.363678 0.363770 0.363678
0.449829 0.449921 0.449829
0.538483 0.538574 0.538452
0.627014 0.627106 0.627014
0.064270 0.064270 0.064270
0.122925 0.122925 0.122925
0.191193 0.191193 0.191193
0.265564 0.265564 0.265564
0.346039 0.346100 0.346008
0.431335 0.431427 0.431335
0.519684 0.519745 0.519653
0.608490 0.608582 0.608490
0.695190 0.695282 0.695160
0.108612 0.108612 0.108612
0.173706 0.173706 0.173706
0.247864 0.247864 0.247864
0.328644 0.328674 0.328583
0.412994 0.413086 0.412994
0.500854 0.500916 0.500854
0.589783 0.589874 0.589783
0.677155 0.677277 0.677155
0.760040 0.760162 0.760010
0.158173 0.158173 0.158173
0.228973 0.228973 0.228973
0.308258 0.308258 0.308228
0.393188 0.393280 0.393188
0.482147 0.482208 0.482117
0.571045 0.571106 0.571014
0.658936 0.659027 0.658905
0.743011 0.743134 0.742981
0.820129 0.820251 0.820099
0.212219 0.212219 0.212219
0.288361 0.288361 0.288330
0.371918 0.372009 0.371918
0.460083 0.460175 0.460083
0.550537 0.550629 0.550507
0.640533 0.640625 0.640533
0.725677 0.725769 0.725647
0.804504 0.804626 0.804474
0.873718 0.873840 0.873688
0.270477 0.270477 0.270477
0.351074 0.351166 0.351074
0.438202 0.438293 0.438202
0.528320 0.528381 0.528290
0.618713 0.618805 0.618713
0.706482 0.706604 0.706482
0.788483 0.788574 0.788452
0.859985 0.860107 0.859955
0.919006 0.919128 0.918976
0.332794 0.332855 0.332733
0.416779 0.416870 0.416779
0.506195 0.506256 0.506195
0.596741 0.596832 0.596741
0.685455 0.685547 0.685425
0.769135 0.769257 0.769135
0.844513 0.844635 0.844452
0.907654 0.907806 0.907623
0.953979 0.954102 0.953949
0.397614 0.397675 0.397614
0.484467 0.484528 0.484467
0.574829 0.574921 0.574829
0.664154 0.664246 0.664124
0.749390 0.749481 0.749359
0.827087 0.827209 0.827087
0.893646 0.893799 0.893616
0.944916 0.945068 0.944885
0.978394 0.978546 0.978363
0.006958 0.006958 0.006958
0.043091 0.043091 0.043091
0.099365 0.099365 0.099365
0.163086 0.163086 0.163086
0.234619 0.234619 0.234619
0.312805 0.312805 0.312744
0.396362 0.396454 0.396362
0.483765 0.483826 0.483765
0.572754 0.572815 0.572723
0.032104 0.032104 0.032104
0.084747 0.084747 0.084747
0.147675 0.147675 0.147675
0.217529 0.217529 0.217529
0.294281 0.294281 0.294250
0.376709 0.376801 0.376709
0.463348 0.463440 0.463348
0.552216 0.552307 0.552185
0.640564 0.640656 0.640533
0.072784 0.072784 0.072784
0.132660 0.132660 0.132660
0.200836 0.200836 0.200836
0.276093 0.276093 0.276093
0.357300 0.357361 0.357269
0.443115 0.443207 0.443115
0.531647 0.531708 0.531616
0.620361 0.620453 0.620361
0.706512 0.706635 0.706512
0.118134 0.118134 0.118134
0.184387 0.184387 0.184387
0.258148 0.258148 0.258148
0.339722 0.339783 0.339691
0.424683 0.424774 0.424683
0.512848 0.512909 0.512817
0.601715 0.601807 0.601685
0.688660 0.688751 0.688629
0.770660 0.770782 0.770630
0.168427 0.168427 0.168427
0.240570 0.240570 0.240570
0.319214 0.319244 0.319153
0.404755 0.404846 0.404755
0.494080 0.494141 0.494049
0.582977 0.583069 0.582947
0.670532 0.670654 0.670532
0.753845 0.753967 0.753815
0.829773 0.829895 0.829742
0.223511 0.223511 0.223511
0.300568 0.300568 0.300537
0.383331 0.383423 0.383331
0.471954 0.472015 0.471954
0.562500 0.562561 0.562469
0.652252 0.652344 0.652222
0.736694 0.736786 0.736664
0.814423 0.814545 0.814392
0.882050 0.882202 0.882050
0.282532 0.282532 0.282532
0.363983 0.364044 0.363953
0.450012 0.450104 0.450012
0.540314 0.540375 0.540283
0.630524 0.630646 0.630524
0.717712 0.717834 0.717682
0.798645 0.798798 0.798645
0.868713 0.868835 0.868683
0.925751 0.925873 0.925720
0.345551 0.345612 0.345490
0.430115 0.430176 0.430115
0.518158 0.518219 0.518127
0.608612 0.608734 0.608612
0.696869 0.696960 0.696838
0.779633 0.779755 0.779633
0.853607 0.853699 0.853577
0.914856 0.915009 0.914825
0.958801 0.958923 0.958771
0.411194 0.411285 0.411194
0.498138 0.498230 0.498138
0.586639 0.586731 0.586639
0.675690 0.675812 0.675690
0.760162 0.760254 0.760132
0.836609 0.836700 0.836548
0.901367 0.901520 0.901337
0.950317 0.950470 0.950287
0.981812 0.981964 0.981781
0.010590 0.010590 0.010590
0.049927 0.049927 0.049927
0.107452 0.107452 0.107452
0.173615 0.173615 0.173615
0.246246 0.246246 0.246246
0.325378 0.325409 0.325317
0.409607 0.409698 0.409607
0.497437 0.497498 0.497437
0.586395 0.586487 0.586395
0.038330 0.038330 0.038330
0.092560 0.092560 0.092560
0.156647 0.156647 0.156647
0.228912 0.228912 0.228912
0.306641 0.306641 0.306610
0.389771 0.389862 0.389771
0.476959 0.477020 0.476959
0.565857 0.565948 0.565857
0.653961 0.654053 0.653931
0.080292 0.080292 0.080292
0.141418 0.141418 0.141418
0.210541 0.210541 0.210541
0.288208 0.288208 0.288177
0.370239 0.370331 0.370239
0.456635 0.456696 0.456635
0.545349 0.545441 0.545319
0.633850 0.633942 0.633820
0.719360 0.719482 0.719330
0.127747 0.127747 0.127747
0.195251 0.195251 0.195251
0.270081 0.270081 0.270081
0.350891 0.350952 0.350861
0.436401 0.436493 0.436401
0.524811 0.524872 0.524780
0.613556 0.613678 0.613556
0.700043 0.700165 0.700012
0.781128 0.781250 0.781128
0.179230 0.179230 0.179230
0.252289 0.252289 0.252289
0.331818 0.331879 0.331787
0.416382 0.416473 0.416382
0.506012 0.506073 0.506012
0.594910 0.595001 0.594879
0.682068 0.682159 0.682037
0.764557 0.764679 0.764526
0.839203 0.839325 0.839172
0.234955 0.234955 0.234955
0.313049 0.313049 0.312988
0.396484 0.396576 0.396484
0.483856 0.483917 0.483856
0.574463 0.574554 0.574463
0.663910 0.664001 0.663879
0.747589 0.747711 0.747589
0.824188 0.824310 0.824158
0.890167 0.890320 0.890167
0.294800 0.294800 0.294769
0.377045 0.377136 0.377045
0.463531 0.463593 0.463531
0.552277 0.552368 0.552246
0.642273 0.642365 0.642273
0.728821 0.728943 0.728821
0.808716 0.808807 0.808685
0.877197 0.877350 0.877197
0.932159 0.932312 0.932129
0.358093 0.358185 0.358093
0.443573 0.443634 0.443573
0.531891 0.531952 0.531860
0.620483 0.620575 0.620483
0.708191 0.708282 0.708160
0.789978 0.790100 0.789948
0.862488 0.862610 0.862457
0.921783 0.921906 0.921753
0.963287 0.963440 0.963287
0.424194 0.424286 0.424194
0.511627 0.511688 0.511597
0.600342 0.600433 0.600342
0.687195 0.687286 0.687164
0.770752 0.770874 0.770752
0.845886 0.846008 0.845856
0.908813 0.908966 0.908783
0.955353 0.955505 0.955353
0.985077 0.985199 0.985046
0.014374 0.014374 0.014374
0.057068 0.057068 0.057068
0.115662 0.115662 0.115662
0.183014 0.183014 0.183014
0.258057 0.258057 0.258057
0.338013 0.338074 0.337982
0.422974 0.423035 0.422974
0.511108 0.511169 0.511078
0.600037 0.600128 0.600037
0.045044 0.045044 0.045044
0.100433 0.100433 0.100433
0.165710 0.165710 0.165710
0.239014 0.239014 0.239014
0.319153 0.319183 0.319092
0.403015 0.403076 0.403015
0.490601 0.490662 0.490570
0.579559 0.579651 0.579529
0.667236 0.667328 0.667206
0.087982 0.087982 0.087982
0.150238 0.150238 0.150238
0.220398 0.220398 0.220398
0.298920 0.298950 0.298889
0.383270 0.383362 0.383270
0.470184 0.470245 0.470184
0.559052 0.559113 0.559021
0.647247 0.647369 0.647247
0.732056 0.732147 0.732025
0.136322 0.136322 0.136322
0.204926 0.204926 0.204926
0.280609 0.280609 0.280609
0.362152 0.362244 0.362152
0.449890 0.449982 0.449890
0.538513 0.538574 0.538483
0.627106 0.627197 0.627106
0.712921 0.713043 0.712921
0.792938 0.793060 0.792938
0.189819 0.189819 0.189819
0.264130 0.264130 0.264130
0.344482 0.344543 0.344452
0.429718 0.429810 0.429718
0.518036 0.518097 0.518005
0.606812 0.606903 0.606781
0.693512 0.693604 0.693481
0.775116 0.775238 0.775116
0.848450 0.848572 0.848419
0.246765 0.246765 0.246765
0.325531 0.325562 0.325470
0.409729 0.409821 0.409729
0.497528 0.497589 0.497498
0.586395 0.586487 0.586395
0.675446 0.675537 0.675415
0.758392 0.758514 0.758362
0.833740 0.833862 0.833710
0.898041 0.898163 0.898010
0.307190 0.307190 0.307129
0.390076 0.390167 0.390076
0.477142 0.477203 0.477142
0.565979 0.566071 0.565948
0.653992 0.654083 0.653961
0.739838 0.739929 0.739807
0.818542 0.818665 0.818542
0.885468 0.885620 0.885437
0.938263 0.938416 0.938263
0.371246 0.371338 0.371246
0.457001 0.457062 0.457001
0.545563 0.545654 0.545532
0.634003 0.634094 0.633972
0.719391 0.719513 0.719360
0.800171 0.800293 0.800171
0.871155 0.871277 0.871124
0.928375 0.928528 0.928345
0.967529 0.967682 0.967529
0.437866 0.437958 0.437866
0.525391 0.525452 0.525360
0.613892 0.613983 0.613892
0.700256 0.700348 0.700226
0.781219 0.781342 0.781219
0.854980 0.855103 0.854950
0.915985 0.916107 0.915955
0.960083 0.960236 0.960083
0.988190 0.988342 0.988159
0.018036 0.018036 0.018036
0.064209 0.064209 0.064209
0.124054 0.124054 0.124054
0.192474 0.192474 0.192474
0.268463 0.268463 0.268463
0.350800 0.350861 0.350769
0.436340 0.436432 0.436340
0.524811 0.524872 0.524780
0.613647 0.613739 0.613647
0.052002 0.052002 0.052002
0.108673 0.108673 0.108673
0.174988 0.174988 0.174988
0.249237 0.249237 0.249237
0.330139 0.330170 0.330109
0.416290 0.416351 0.416290
0.504242 0.504303 0.504242
0.593170 0.593262 0.593170
0.680450 0.680542 0.680420
0.095886 0.095886 0.095886
0.159241 0.159241 0.159241
0.230408 0.230408 0.230408
0.309784 0.309814 0.309753
0.394775 0.394836 0.394775
0.483795 0.483856 0.483795
0.572723 0.572815 0.572723
0.660614 0.660706 0.660583
0.744568 0.744690 0.744568
0.145172 0.145172 0.145172
0.214722 0.214722 0.214722
0.291290 0.291290 0.291229
0.373505 0.373596 0.373505
0.461731 0.461823 0.461731
0.552216 0.552277 0.552185
0.640564 0.640656 0.640533
0.725708 0.725800 0.725677
0.804535 0.804657 0.804535
0.199493 0.199493 0.199493
0.274628 0.274628 0.274597
0.355743 0.355835 0.355713
0.441498 0.441589 0.441498
0.529999 0.530060 0.529968
0.620331 0.620422 0.620331
0.706482 0.706573 0.706451
0.787048 0.787140 0.787018
0.858765 0.858887 0.858734
0.258545 0.258545 0.258545
0.338196 0.338257 0.338165
0.423035 0.423126 0.423035
0.511169 0.511230 0.511139
0.600037 0.600128 0.600006
0.686920 0.687012 0.686890
0.769012 0.769135 0.768982
0.843109 0.843231 0.843079
0.905609 0.905762 0.905579
0.319611 0.319611 0.319550
0.403290 0.403381 0.403290
0.490753 0.490814 0.490753
0.579620 0.579712 0.579620
0.667267 0.667358 0.667236
0.750732 0.750824 0.750702
0.828217 0.828339 0.828186
0.893463 0.893585 0.893433
0.944061 0.944183 0.944031
0.384308 0.384399 0.384308
0.470612 0.470673 0.470612
0.559265 0.559357 0.559235
0.647400 0.647491 0.647369
0.732056 0.732178 0.732056
0.810181 0.810303 0.810150
0.879578 0.879700 0.879547
0.934662 0.934814 0.934631
0.971527 0.971680 0.971497
0.451538 0.451599 0.451538
0.539154 0.539246 0.539124
0.627411 0.627502 0.627380
0.713135 0.713226 0.713104
0.793030 0.793182 0.793030
0.863831 0.863953 0.863800
0.922852 0.923004 0.922821
0.964539 0.964691 0.964539
0.991211 0.991364 0.991180
0.022278 0.022278 0.022278
0.071655 0.071655 0.071655
0.132599 0.132599 0.132599
0.202087 0.202087 0.202087
0.278992 0.278992 0.278992
0.362061 0.362122 0.362030
0.449890 0.449951 0.449890
0.538513 0.538574 0.538483
0.627167 0.627258 0.627167
0.059052 0.059052 0.059052
0.116882 0.116882 0.116882
0.184326 0.184326 0.184326
0.259552 0.259552 0.259552
0.341248 0.341309 0.341217
0.427948 0.428040 0.427948
0.517944 0.518005 0.517914
0.606781 0.606903 0.606781
0.693542 0.693634 0.693512
0.103912 0.103912 0.103912
0.168335 0.168335 0.168335
0.240479 0.240479 0.240479
0.320709 0.320740 0.320679
0.406342 0.406433 0.406342
0.495728 0.495789 0.495697
0.586395 0.586487 0.586395
0.673859 0.673950 0.673828
0.756958 0.757080 0.756958
0.154114 0.154114 0.154114
0.224640 0.224640 0.224640
0.302063 0.302063 0.302002
0.384949 0.385040 0.384949
0.473602 0.473694 0.473602
0.564178 0.564270 0.564148
0.653931 0.654022 0.653900
0.738312 0.738434 0.738281
0.815918 0.816040 0.815918
0.209229 0.209229 0.209229
0.285187 0.285187 0.285187
0.367004 0.367096 0.367004
0.453308 0.453369 0.453308
0.541962 0.542053 0.541931
0.632141 0.632233 0.632111
0.719299 0.719391 0.719269
0.798737 0.798859 0.798706
0.868805 0.868927 0.868774
0.268829 0.268829 0.268829
0.349365 0.349426 0.349335
0.434753 0.434845 0.434753
0.523132 0.523193 0.523132
0.611908 0.612000 0.611877
0.698334 0.698425 0.698303
0.781036 0.781158 0.781006
0.853546 0.853668 0.853516
0.913940 0.914093 0.913910
0.332336 0.332397 0.332306
0.416565 0.416656 0.416565
0.504395 0.504456 0.504364
0.593262 0.593353 0.593262
0.680481 0.680573 0.680450
0.762970 0.763092 0.762970
0.837677 0.837799 0.837646
0.901215 0.901337 0.901184
0.949493 0.949615 0.949463
0.397247 0.397339 0.397247
0.484314 0.484375 0.484314
0.572906 0.572998 0.572876
0.660736 0.660828 0.660706
0.744629 0.744720 0.744598
0.821442 0.821564 0.821411
0.887756 0.887909 0.887756
0.940643 0.940765 0.940613
0.975281 0.975464 0.975281
0.464813 0.464874 0.464813
0.552856 0.552948 0.552826
0.640839 0.640961 0.640839
0.725891 0.726013 0.725891
0.804626 0.804749 0.804626
0.873718 0.873840 0.873688
0.929413 0.929535 0.929382
0.968719 0.968872 0.968689
0.994141 0.994293 0.994110
0.027252 0.027252 0.027252
0.079102 0.079102 0.079102
0.141357 0.141357 0.141357
0.211792 0.211792 0.211792
0.289642 0.289642 0.289642
0.373413 0.373505 0.373413
0.461700 0.461761 0.461700
0.552246 0.552338 0.552216
0.640625 0.640717 0.640594
0.066467 0.066467 0.066467
0.125305 0.125305 0.125305
0.193848 0.193848 0.193848
0.269989 0.269989 0.269989
0.352448 0.352509 0.352417
0.439728 0.439789 0.439728
0.529938 0.529999 0.529907
0.620331 0.620422 0.620331
0.706512 0.706604 0.706482
0.112091 0.112091 0.112091
0.177643 0.177643 0.177643
0.250763 0.250763 0.250763
0.331757 0.331787 0.331696
0.417999 0.418060 0.417999
0.507690 0.507751 0.507660
0.598297 0.598389 0.598297
0.687012 0.687134 0.686981
0.769165 0.769287 0.769165
0.163116 0.163116 0.163116
0.234680 0.234680 0.234680
0.312897 0.312927 0.312866
0.396454 0.396515 0.396454
0.485535 0.485596 0.485504
0.576141 0.576233 0.576111
0.665558 0.665649 0.665527
0.750763 0.750885 0.750732
0.827026 0.827148 0.826996
0.219116 0.219116 0.219116
0.295898 0.295898 0.295868
0.378387 0.378479 0.378387
0.465118 0.465210 0.465118
0.553925 0.554016 0.553894
0.643890 0.643982 0.643890
0.730408 0.730530 0.730408
0.810181 0.810303 0.810181
0.878510 0.878662 0.878510
0.279205 0.279205 0.279205
0.360626 0.360718 0.360626
0.446564 0.446625 0.446564
0.535126 0.535187 0.535095
0.623749 0.623840 0.623718
0.709656 0.709747 0.709625
0.791382 0.791504 0.791351
0.863739 0.863831 0.863678
0.921875 0.922028 0.921875
0.343689 0.343750 0.343658
0.428253 0.428345 0.428253
0.516357 0.516418 0.516327
0.605164 0.605286 0.605164
0.691925 0.692017 0.691895
0.773560 0.773682 0.773560
0.846985 0.847107 0.846954
0.909729 0.909851 0.909698
0.955322 0.955475 0.955322
0.410400 0.410492 0.410400
0.497833 0.497894 0.497833
0.586609 0.586700 0.586609
0.673950 0.674042 0.673920
0.756989 0.757080 0.756958
0.832428 0.832550 0.832397
0.896820 0.896942 0.896790
0.946289 0.946411 0.946259
0.978851 0.979004 0.978851
0.478333 0.478424 0.478333
0.566620 0.566711 0.566589
0.654266 0.654358 0.654236
0.738495 0.738617 0.738464
0.815979 0.816101 0.815948
0.883270 0.883423 0.883270
0.936554 0.936676 0.936523
0.972626 0.972778 0.972595
0.997040 0.997192 0.997009
0.032684 0.032684 0.032684
0.086884 0.086884 0.086884
0.150177 0.150177 0.150177
0.221680 0.221680 0.221680
0.300385 0.300385 0.300354
0.384796 0.384888 0.384796
0.473572 0.473633 0.473572
0.564209 0.564301 0.564209
0.653992 0.654114 0.653992
0.073761 0.073761 0.073761
0.133820 0.133820 0.133820
0.203491 0.203491 0.203491
0.280518 0.280518 0.280518
0.363678 0.363770 0.363678
0.451477 0.451569 0.451477
0.541931 0.541992 0.541901
0.632111 0.632233 0.632111
0.719360 0.719452 0.719330
0.120361 0.120361 0.120361
0.186890 0.186890 0.186890
0.261078 0.261078 0.261078
0.342865 0.342926 0.342834
0.429657 0.429749 0.429657
0.519653 0.519714 0.519623
0.610199 0.610291 0.610168
0.698425 0.698517 0.698395
0.781158 0.781281 0.781158
0.172302 0.172302 0.172302
0.244781 0.244781 0.244781
0.323853 0.323883 0.323792
0.408020 0.408081 0.408020
0.497437 0.497498 0.497437
0.588074 0.588165 0.588043
0.677155 0.677246 0.677124
0.761505 0.761627 0.761475
0.837891 0.838013 0.837860
0.229156 0.229156 0.229156
0.306671 0.306671 0.306641
0.389832 0.389923 0.389832
0.477020 0.477081 0.477020
0.565887 0.565979 0.565887
0.655579 0.655670 0.655579
0.741394 0.741516 0.741364
0.820038 0.820160 0.820038
0.887909 0.888031 0.887878
0.289825 0.289825 0.289825
0.371918 0.372009 0.371918
0.458405 0.458496 0.458405
0.547089 0.547180 0.547089
0.635498 0.635590 0.635498
0.720825 0.720947 0.720825
0.801544 0.801666 0.801544
0.872406 0.872528 0.872375
0.929443 0.929565 0.929413
0.354553 0.354645 0.354553
0.440033 0.440094 0.440033
0.528351 0.528412 0.528320
0.617035 0.617157 0.617035
0.703278 0.703369 0.703247
0.784027 0.784119 0.783997
0.856079 0.856201 0.856049
0.916840 0.916992 0.916809
0.960724 0.960876 0.960724
0.422272 0.422363 0.422272
0.509857 0.509918 0.509827
0.598511 0.598633 0.598511
0.685486 0.685577 0.685455
0.767639 0.767761 0.767639
0.841797 0.841949 0.841797
0.904449 0.904572 0.904419
0.951630 0.951752 0.951599
0.982727 0.982880 0.982697
0.492279 0.492371 0.492279
0.580170 0.580261 0.580170
0.667572 0.667664 0.667542
0.750946 0.751068 0.750916
0.827087 0.827209 0.827057
0.892487 0.892609 0.892456
0.943268 0.943390 0.943237
0.976868 0.977020 0.976868
0.999908 1.000000 0.999878
