滤镜资源/Professional Luts Collection/Lutify.me Professional/Black & White Films/Cryolite.cube
# Created by: Lutify.me
# Copyright: (c) Copyright Lutify.me 2015
# Website: https://lutify.me
#LUT size
LUT_3D_SIZE 5
#LUT data points
0.000000 0.000000 0.000000
0.081390 0.081390 0.081390
0.211853 0.211853 0.211853
0.370148 0.370239 0.370148
0.545380 0.545441 0.545349
0.056122 0.056122 0.056122
0.181763 0.181763 0.181763
0.334900 0.334961 0.334869
0.507690 0.507751 0.507660
0.683746 0.683838 0.683716
0.147888 0.147888 0.147888
0.297424 0.297424 0.297363
0.470215 0.470276 0.470215
0.647278 0.647369 0.647278
0.810272 0.810394 0.810242
0.258667 0.258667 0.258667
0.426453 0.426514 0.426453
0.606842 0.606964 0.606842
0.778107 0.778229 0.778076
0.911957 0.912079 0.911926
0.385071 0.385162 0.385071
0.562866 0.562958 0.562836
0.738525 0.738617 0.738495
0.885651 0.885803 0.885651
0.974823 0.974976 0.974792
0.006958 0.006958 0.006958
0.099365 0.099365 0.099365
0.234619 0.234619 0.234619
0.396362 0.396454 0.396362
0.572754 0.572815 0.572723
0.072784 0.072784 0.072784
0.200836 0.200836 0.200836
0.357300 0.357361 0.357269
0.531647 0.531708 0.531616
0.706512 0.706635 0.706512
0.168427 0.168427 0.168427
0.319214 0.319244 0.319153
0.494080 0.494141 0.494049
0.670532 0.670654 0.670532
0.829773 0.829895 0.829742
0.282532 0.282532 0.282532
0.450012 0.450104 0.450012
0.630524 0.630646 0.630524
0.798645 0.798798 0.798645
0.925751 0.925873 0.925720
0.411194 0.411285 0.411194
0.586639 0.586731 0.586639
0.760162 0.760254 0.760132
0.901367 0.901520 0.901337
0.981812 0.981964 0.981781
0.014374 0.014374 0.014374
0.115662 0.115662 0.115662
0.258057 0.258057 0.258057
0.422974 0.423035 0.422974
0.600037 0.600128 0.600037
0.087982 0.087982 0.087982
0.220398 0.220398 0.220398
0.383270 0.383362 0.383270
0.559052 0.559113 0.559021
0.732056 0.732147 0.732025
0.189819 0.189819 0.189819
0.344482 0.344543 0.344452
0.518036 0.518097 0.518005
0.693512 0.693604 0.693481
0.848450 0.848572 0.848419
0.307190 0.307190 0.307129
0.477142 0.477203 0.477142
0.653992 0.654083 0.653961
0.818542 0.818665 0.818542
0.938263 0.938416 0.938263
0.437866 0.437958 0.437866
0.613892 0.613983 0.613892
0.781219 0.781342 0.781219
0.915985 0.916107 0.915955
0.988190 0.988342 0.988159
0.022278 0.022278 0.022278
0.132599 0.132599 0.132599
0.278992 0.278992 0.278992
0.449890 0.449951 0.449890
0.627167 0.627258 0.627167
0.103912 0.103912 0.103912
0.240479 0.240479 0.240479
0.406342 0.406433 0.406342
0.586395 0.586487 0.586395
0.756958 0.757080 0.756958
0.209229 0.209229 0.209229
0.367004 0.367096 0.367004
0.541962 0.542053 0.541931
0.719299 0.719391 0.719269
0.868805 0.868927 0.868774
0.332336 0.332397 0.332306
0.504395 0.504456 0.504364
0.680481 0.680573 0.680450
0.837677 0.837799 0.837646
0.949493 0.949615 0.949463
0.464813 0.464874 0.464813
0.640839 0.640961 0.640839
0.804626 0.804749 0.804626
0.929413 0.929535 0.929382
0.994141 0.994293 0.994110
0.032684 0.032684 0.032684
0.150177 0.150177 0.150177
0.300385 0.300385 0.300354
0.473572 0.473633 0.473572
0.653992 0.654114 0.653992
0.120361 0.120361 0.120361
0.261078 0.261078 0.261078
0.429657 0.429749 0.429657
0.610199 0.610291 0.610168
0.781158 0.781281 0.781158
0.229156 0.229156 0.229156
0.389832 0.389923 0.389832
0.565887 0.565979 0.565887
0.741394 0.741516 0.741364
0.887909 0.888031 0.887878
0.354553 0.354645 0.354553
0.528351 0.528412 0.528320
0.703278 0.703369 0.703247
0.856079 0.856201 0.856049
0.960724 0.960876 0.960724
0.492279 0.492371 0.492279
0.667572 0.667664 0.667542
0.827087 0.827209 0.827057
0.943268 0.943390 0.943237
0.999908 1.000000 0.999878
