滤镜资源/Professional Luts Collection/Triune-Digital-Cinematic-LUTs/3D LUTs (3DL)/REDLOGFILM/BW/Casino Royale 1 - REDlogFilm.3dl
# Created by Benjamin (IWLTBAP) : http://luts.iwltbap.com
# Copyright: (C) Copyright 2016 Triune Films and IWLTBAP
# Blockbuster LUTs Pack
0 128 256 384 512 640 768 896 1023
0 0 0
1 1 1
2 2 2
5 4 5
10 8 9
16 14 14
21 19 20
26 24 25
29 26 27
16 14 14
21 19 20
26 23 24
33 30 31
43 40 40
55 51 52
65 61 61
73 69 69
78 73 74
68 64 64
78 73 74
92 86 87
107 102 102
125 119 119
143 137 137
158 151 151
169 163 162
179 172 171
204 197 196
219 211 210
243 236 233
278 270 267
310 302 298
337 328 324
363 354 349
380 371 366
393 385 379
459 450 442
482 472 464
522 513 503
570 560 549
630 620 608
674 664 650
709 700 685
732 722 707
752 742 726
786 776 759
824 814 797
866 856 837
929 919 899
1005 995 973
1081 1071 1046
1122 1112 1087
1147 1137 1111
1175 1165 1138
1107 1097 1072
1139 1129 1103
1197 1187 1159
1263 1253 1224
1348 1338 1307
1433 1423 1389
1501 1492 1456
1539 1529 1493
1562 1552 1515
1370 1361 1328
1404 1395 1362
1455 1445 1411
1533 1524 1487
1624 1615 1576
1708 1699 1659
1785 1777 1734
1831 1822 1778
1864 1855 1811
1580 1571 1533
1618 1609 1570
1676 1667 1627
1739 1730 1689
1840 1831 1787
1925 1916 1870
1998 1990 1942
2057 2049 2000
2085 2077 2028
33 30 31
4 3 3
5 4 5
9 8 8
15 13 13
21 19 20
28 25 26
33 30 31
37 34 35
34 31 32
66 62 62
75 70 71
86 81 82
103 98 98
120 114 114
134 128 128
144 138 138
156 150 149
100 94 95
154 147 147
175 168 167
195 188 186
218 211 209
243 236 233
264 256 253
280 272 268
294 286 282
256 248 245
339 331 326
371 363 357
414 405 398
448 439 432
485 476 467
512 503 494
533 524 514
548 538 528
536 526 516
646 636 623
692 682 668
750 740 725
821 811 794
867 857 838
903 893 873
930 920 900
952 942 921
883 873 853
1021 1010 988
1075 1065 1040
1142 1132 1106
1226 1216 1187
1305 1295 1265
1351 1342 1310
1378 1369 1336
1400 1391 1358
1211 1201 1173
1370 1360 1328
1424 1415 1381
1497 1487 1452
1590 1581 1543
1676 1667 1627
1741 1732 1690
1776 1767 1725
1800 1791 1748
1480 1471 1436
1639 1630 1591
1699 1690 1649
1775 1766 1724
1867 1859 1815
1960 1951 1905
2026 2019 1971
2077 2070 2024
2104 2097 2051
1697 1688 1647
1856 1848 1803
1915 1907 1861
1996 1988 1940
2088 2081 2033
2168 2162 2116
2232 2226 2183
2280 2275 2233
2316 2311 2268
148 142 141
72 67 68
13 11 12
15 13 14
22 20 20
30 27 28
37 34 35
44 40 41
49 45 46
151 145 144
213 206 204
98 93 94
105 100 100
123 117 117
141 135 135
157 150 150
170 163 162
177 170 169
159 153 152
227 219 217
321 313 308
348 340 335
381 372 366
412 403 397
438 429 422
461 452 444
476 467 459
338 330 325
434 425 418
575 565 554
636 626 614
678 668 655
718 708 694
753 743 728
779 769 753
796 786 770
649 639 626
774 764 747
949 939 918
1027 1017 994
1106 1096 1071
1156 1146 1120
1197 1187 1159
1227 1217 1189
1250 1240 1211
1023 1013 990
1172 1162 1135
1377 1368 1335
1461 1451 1416
1547 1537 1501
1628 1619 1580
1676 1667 1627
1707 1698 1658
1737 1728 1687
1370 1360 1328
1525 1516 1480
1745 1736 1694
1834 1825 1781
1922 1914 1868
2012 2004 1957
2080 2073 2026
2112 2105 2057
2132 2125 2078
1642 1633 1594
1809 1801 1758
2027 2020 1972
2113 2106 2059
2197 2191 2146
2278 2273 2230
2342 2336 2294
2389 2384 2342
2411 2406 2364
1858 1849 1805
2025 2017 1969
2235 2230 2187
2311 2305 2263
2395 2390 2348
2471 2466 2423
2537 2533 2489
2579 2574 2531
2613 2609 2566
457 448 440
309 301 297
152 146 146
33 30 31
35 32 33
45 42 43
54 50 51
61 57 57
67 62 63
458 449 441
561 552 541
353 344 339
146 139 139
152 145 145
172 165 164
190 183 181
203 196 194
213 206 204
467 458 450
571 562 551
718 708 693
427 418 411
438 429 422
472 462 454
501 492 483
521 512 503
540 531 521
487 478 469
598 588 577
770 760 744
986 976 954
1035 1025 1002
1084 1074 1049
1119 1109 1083
1155 1145 1118
1177 1167 1140
820 810 792
958 948 926
1162 1152 1125
1441 1432 1398
1543 1533 1497
1600 1591 1553
1641 1632 1593
1676 1667 1627
1702 1693 1652
1223 1213 1185
1381 1372 1339
1603 1594 1555
1904 1896 1850
2009 2001 1954
2094 2087 2041
2138 2131 2085
2169 2162 2117
2195 2188 2144
1583 1574 1536
1753 1744 1702
1981 1973 1926
2268 2262 2219
2365 2360 2317
2444 2439 2396
2506 2501 2458
2536 2532 2489
2556 2551 2508
1872 1864 1819
2032 2025 1978
2254 2248 2205
2519 2514 2471
2611 2606 2563
2683 2680 2636
2740 2736 2693
2783 2780 2737
2806 2803 2760
2080 2073 2024
2238 2232 2189
2445 2441 2398
2701 2697 2654
2789 2786 2743
2860 2857 2814
2914 2912 2869
2952 2949 2906
2986 2983 2941
1020 1010 987
803 793 776
542 533 523
259 252 249
65 61 62
67 62 63
78 73 73
86 81 82
93 88 89
1028 1018 995
1157 1147 1120
865 855 836
505 496 487
209 202 200
213 205 204
231 223 221
246 238 236
257 249 247
1030 1020 997
1179 1169 1142
1363 1353 1321
947 937 916
530 521 511
537 527 518
566 556 546
591 581 570
604 595 583
1037 1027 1003
1187 1177 1149
1399 1390 1357
1657 1648 1608
1187 1177 1150
1195 1185 1157
1235 1226 1197
1266 1256 1226
1291 1281 1251
1074 1064 1040
1226 1217 1188
1440 1431 1397
1753 1744 1703
2081 2074 2027
2125 2118 2072
2165 2159 2113
2195 2189 2143
2217 2211 2165
1483 1474 1438
1644 1635 1596
1873 1865 1820
2185 2178 2134
2508 2504 2460
2598 2593 2550
2635 2631 2588
2663 2659 2616
2685 2681 2638
1856 1848 1803
2024 2017 1970
2242 2236 2193
2523 2519 2476
2823 2820 2777
2906 2903 2860
2957 2954 2911
2984 2982 2939
3003 3001 2958
2140 2134 2087
2286 2281 2237
2492 2488 2445
2758 2754 2711
3036 3033 2992
3115 3112 3071
3163 3161 3121
3198 3196 3157
3214 3212 3173
2332 2327 2285
2483 2478 2435
2678 2674 2631
2931 2928 2885
3192 3190 3150
3262 3260 3221
3308 3307 3269
3343 3341 3304
3369 3368 3331
1691 1682 1642
1435 1426 1392
1107 1097 1071
696 687 672
322 313 309
102 97 97
104 99 99
114 108 108
123 117 117
1696 1687 1646
1852 1843 1799
1510 1501 1465
1052 1042 1018
585 575 564
272 264 261
277 269 265
292 284 280
305 296 292
1701 1692 1652
1867 1859 1814
2063 2055 2009
1607 1598 1559
1053 1043 1019
626 616 604
633 624 611
657 647 634
677 668 654
1714 1705 1664
1877 1869 1824
2109 2102 2056
2349 2344 2301
1834 1825 1782
1320 1310 1279
1326 1316 1285
1358 1348 1316
1381 1371 1338
1729 1720 1678
1894 1886 1841
2120 2114 2068
2408 2403 2361
2680 2676 2632
2269 2263 2218
2279 2273 2229
2311 2305 2262
2334 2328 2285
1760 1752 1710
1929 1921 1875
2155 2149 2103
2442 2437 2394
2760 2756 2713
3016 3013 2971
3038 3035 2993
3062 3060 3018
3079 3077 3035
2113 2106 2058
2269 2264 2221
2474 2469 2426
2742 2738 2695
3033 3031 2989
3277 3275 3236
3331 3329 3292
3352 3350 3313
3368 3367 3330
2372 2367 2324
2518 2513 2470
2716 2712 2668
2959 2957 2914
3233 3231 3192
3452 3451 3416
3503 3502 3469
3532 3532 3499
3546 3545 3513
2561 2557 2514
2704 2700 2657
2886 2883 2840
3122 3120 3079
3373 3372 3335
3576 3575 3544
3623 3623 3593
3651 3651 3622
3671 3670 3643
2264 2258 2216
2012 2004 1957
1652 1643 1604
1185 1175 1147
684 675 661
327 318 314
135 129 129
139 133 133
149 143 142
2266 2260 2217
2402 2397 2354
2081 2074 2028
1593 1583 1546
1037 1027 1004
593 584 572
324 315 311
333 325 320
344 336 331
2268 2263 2220
2416 2411 2369
2591 2587 2543
2176 2169 2124
1595 1586 1548
1061 1051 1027
706 696 682
714 704 689
735 725 710
2280 2274 2232
2425 2420 2378
2625 2621 2578
2836 2833 2790
2386 2381 2338
1847 1839 1795
1418 1409 1375
1428 1419 1385
1455 1445 1411
2287 2282 2239
2440 2435 2392
2637 2633 2590
2891 2888 2845
3124 3122 3081
2741 2737 2694
2369 2364 2321
2379 2373 2331
2401 2396 2354
2299 2294 2252
2448 2443 2400
2643 2639 2596
2898 2894 2852
3175 3173 3133
3381 3380 3343
3125 3122 3081
3133 3131 3090
3153 3151 3110
2322 2316 2274
2468 2463 2420
2665 2661 2618
2916 2913 2870
3194 3192 3152
3427 3426 3390
3587 3586 3555
3598 3597 3567
3611 3611 3581
2556 2552 2509
2696 2692 2649
2879 2876 2833
3114 3112 3071
3368 3367 3330
3581 3580 3550
3729 3728 3703
3757 3756 3733
3771 3770 3748
2737 2734 2690
2869 2866 2823
3043 3040 2999
3263 3262 3223
3500 3499 3465
3695 3695 3668
3831 3831 3811
3858 3858 3840
3875 3875 3858
2635 2631 2588
2407 2402 2360
2086 2079 2032
1586 1577 1539
1036 1026 1003
589 579 568
312 304 300
164 157 156
169 162 162
2640 2635 2592
2764 2761 2718
2474 2470 2427
2019 2011 1966
1436 1426 1392
923 913 893
576 566 555
371 362 356
376 367 361
2644 2640 2596
2784 2781 2737
2936 2933 2890
2563 2558 2515
2023 2016 1969
1464 1454 1420
1038 1027 1004
763 753 737
775 765 749
2652 2648 2605
2790 2787 2744
2967 2964 2922
3157 3155 3114
2750 2746 2703
2261 2255 2211
1821 1812 1769
1490 1481 1445
1511 1502 1466
2666 2662 2618
2801 2797 2754
2977 2975 2932
3204 3203 3163
3408 3407 3371
3070 3068 3027
2718 2715 2671
2440 2435 2392
2452 2447 2405
2675 2671 2627
2809 2805 2762
2985 2982 2940
3211 3209 3170
3454 3452 3418
3629 3628 3599
3394 3392 3356
3180 3178 3137
3193 3191 3151
2678 2674 2631
2814 2811 2768
2991 2988 2946
3217 3215 3175
3458 3457 3422
3660 3659 3631
3790 3790 3768
3639 3639 3610
3649 3648 3620
2692 2689 2645
2825 2821 2778
3002 2999 2957
3225 3223 3184
3467 3466 3431
3666 3666 3638
3809 3809 3788
3902 3901 3886
3910 3910 3895
2858 2855 2812
2988 2986 2943
3155 3153 3113
3364 3362 3325
3586 3585 3555
3771 3771 3748
3902 3902 3887
3988 3988 3979
4005 4005 3997
2907 2904 2861
2696 2692 2648
2394 2388 2346
1919 1910 1864
1337 1327 1296
837 827 809
506 497 488
307 298 295
184 177 176
2903 2900 2858
3021 3019 2977
2758 2754 2711
2329 2324 2281
1758 1749 1708
1217 1207 1178
820 810 793
566 556 546
403 394 388
2915 2912 2869
3038 3036 2994
3177 3175 3135
2832 2829 2786
2337 2331 2288
1789 1780 1737
1341 1331 1300
1029 1019 995
810 799 782
2921 2918 2875
3046 3044 3002
3205 3203 3163
3375 3374 3337
3010 3007 2965
2559 2554 2511
2148 2142 2097
1812 1803 1760
1553 1543 1506
2931 2928 2885
3053 3050 3008
3216 3214 3174
3417 3416 3380
3598 3598 3567
3298 3297 3259
2979 2976 2934
2714 2710 2666
2490 2485 2442
2941 2938 2895
3064 3062 3020
3223 3221 3181
3425 3424 3388
3640 3640 3611
3794 3794 3772
3587 3586 3556
3390 3389 3353
3222 3220 3181
2943 2940 2897
3067 3065 3023
3228 3226 3186
3430 3429 3393
3644 3644 3615
3821 3821 3801
3934 3934 3921
3800 3799 3778
3671 3670 3643
2949 2946 2903
3071 3068 3027
3234 3232 3192
3434 3433 3398
3647 3647 3618
3824 3824 3804
3949 3949 3937
4028 4028 4022
3930 3930 3917
2959 2956 2913
3074 3071 3030
3239 3237 3197
3439 3438 3403
3651 3650 3622
3827 3827 3807
3951 3951 3939
4035 4035 4030
4095 4095 4095
