滤镜资源/Professional Luts Collection/Triune-Digital-Cinematic-LUTs/3D LUTs (3DL)/REDLOGFILM/BW/Casino Royale 1 - REDlogFilm.3dl
# Created by Benjamin (IWLTBAP) : http://luts.iwltbap.com
# Copyright: (C) Copyright 2016 Triune Films and IWLTBAP
# Blockbuster LUTs Pack
0 64 128 192 256 320 384 448 512 576 640 704 768 832 896 960 1023
0 0 0
0 0 0
1 1 1
2 1 1
2 2 2
4 3 3
5 4 5
8 6 7
10 8 9
13 11 12
16 14 14
19 17 17
21 19 20
24 21 22
26 24 25
28 26 27
29 26 27
5 4 5
7 5 6
8 6 7
9 8 8
11 10 10
13 11 12
16 14 15
19 17 18
23 20 21
27 25 25
31 28 29
34 31 32
39 35 36
41 38 39
45 41 42
47 43 44
49 45 46
16 14 14
18 16 17
21 19 20
23 20 21
26 23 24
29 26 27
33 30 31
38 35 36
43 40 40
49 46 46
55 51 52
59 55 55
65 61 61
68 63 64
73 69 69
76 71 72
78 73 74
34 31 32
39 35 36
42 39 39
48 44 45
51 47 48
56 52 53
61 56 57
68 63 64
75 70 71
83 78 79
90 85 85
96 91 91
102 97 97
106 100 100
111 106 106
117 111 111
119 114 114
68 64 64
72 67 68
78 73 74
84 79 80
92 86 87
99 94 94
107 102 102
117 111 111
125 119 119
134 128 128
143 137 137
152 146 145
158 151 151
165 158 157
169 163 162
176 169 168
179 172 171
123 117 117
129 123 123
134 128 128
143 137 137
155 149 148
167 161 160
177 170 169
190 183 181
201 194 193
214 207 205
225 217 215
234 226 224
243 235 233
251 243 240
259 252 249
266 258 255
271 263 260
204 197 196
212 205 203
219 211 210
231 224 222
243 236 233
262 254 251
278 270 267
295 287 283
310 302 298
326 317 313
337 328 324
351 343 338
363 354 349
372 364 358
380 371 366
391 382 376
393 385 379
318 310 306
329 321 317
337 329 324
353 344 339
370 362 356
388 379 373
410 401 395
439 430 423
455 446 438
476 467 459
493 483 475
508 499 490
520 510 501
532 522 513
541 532 522
549 539 529
558 549 538
459 450 442
472 463 455
482 472 464
499 490 481
522 513 503
542 532 522
570 560 549
603 593 581
630 620 608
655 645 632
674 664 650
691 681 667
709 700 685
720 710 696
732 722 707
741 731 715
752 742 726
622 612 600
634 625 612
650 640 627
666 656 643
691 681 667
715 705 691
750 740 724
783 773 757
821 811 793
856 846 828
879 869 849
897 887 868
912 902 882
931 921 901
942 932 911
957 947 926
965 955 934
786 776 759
805 795 778
824 814 797
841 831 813
866 856 837
892 882 862
929 919 899
966 956 934
1005 995 973
1048 1038 1014
1081 1071 1046
1104 1094 1069
1122 1112 1087
1135 1126 1100
1147 1137 1111
1164 1154 1128
1175 1165 1138
954 944 923
966 956 934
986 976 954
1003 993 970
1037 1027 1003
1067 1057 1033
1098 1088 1063
1142 1132 1106
1181 1171 1144
1228 1218 1189
1265 1256 1226
1299 1289 1259
1314 1304 1274
1332 1322 1291
1349 1339 1307
1357 1347 1316
1375 1365 1333
1107 1097 1072
1122 1112 1087
1139 1129 1103
1163 1153 1127
1197 1187 1159
1228 1218 1189
1263 1253 1224
1305 1295 1265
1348 1338 1307
1396 1387 1354
1433 1423 1389
1469 1459 1424
1501 1492 1456
1519 1509 1473
1539 1529 1493
1547 1538 1501
1562 1552 1515
1238 1229 1200
1252 1242 1213
1276 1266 1236
1298 1288 1258
1336 1326 1294
1360 1351 1319
1407 1398 1364
1444 1434 1400
1492 1482 1447
1534 1524 1488
1577 1567 1530
1615 1606 1567
1649 1640 1601
1669 1660 1620
1685 1676 1636
1707 1698 1657
1712 1703 1662
1370 1361 1328
1379 1369 1337
1404 1395 1362
1430 1421 1387
1455 1445 1411
1490 1481 1445
1533 1524 1487
1576 1567 1530
1624 1615 1576
1665 1656 1617
1708 1699 1659
1741 1732 1691
1785 1777 1734
1806 1797 1754
1831 1822 1778
1847 1838 1794
1864 1855 1811
1482 1473 1437
1493 1484 1448
1509 1500 1464
1536 1527 1490
1568 1559 1522
1602 1593 1555
1649 1640 1600
1689 1680 1640
1736 1728 1686
1785 1776 1733
1821 1813 1769
1865 1856 1812
1897 1888 1843
1920 1912 1866
1951 1943 1897
1970 1961 1915
1983 1975 1928
1580 1571 1533
1600 1590 1552
1618 1609 1570
1635 1626 1587
1676 1667 1627
1704 1695 1654
1739 1730 1689
1797 1789 1745
1840 1831 1787
1885 1877 1832
1925 1916 1870
1967 1959 1912
1998 1990 1942
2031 2023 1974
2057 2049 2000
2074 2066 2017
2085 2077 2028
10 9 9
2 1 1
2 1 2
3 2 2
4 3 3
5 4 5
7 6 6
10 8 9
12 11 11
15 13 14
18 16 17
22 19 20
25 22 23
27 24 25
29 26 27
31 28 29
33 30 31
10 9 9
19 17 17
21 18 19
22 20 21
25 23 24
29 26 27
32 30 30
38 35 35
43 39 40
48 44 45
54 50 51
59 55 56
62 58 59
66 62 63
70 66 66
74 70 70
77 72 73
23 21 22
36 32 33
40 36 37
43 39 40
47 43 44
50 46 47
56 52 53
62 58 59
69 65 65
76 71 72
83 78 79
89 84 84
94 89 89
99 94 94
104 99 99
107 102 102
110 105 105
46 42 43
61 57 58
68 63 64
73 68 69
79 74 75
85 80 80
91 86 87
98 93 93
108 103 103
116 111 111
124 118 118
132 126 126
139 132 132
145 139 139
152 146 145
155 149 148
160 153 152
82 77 78
103 97 98
110 105 105
118 112 112
129 123 123
137 131 130
145 138 138
156 149 149
165 159 158
177 171 169
187 180 178
195 188 187
204 197 195
211 204 202
218 211 209
226 218 216
230 223 221
140 134 134
171 165 164
179 172 171
187 180 178
201 194 192
215 208 206
227 219 217
239 231 229
251 243 241
266 258 255
278 270 267
289 281 278
299 291 287
308 300 296
318 310 305
324 315 311
331 322 318
229 221 219
264 256 253
274 266 263
285 277 274
302 294 290
319 310 306
339 331 326
357 348 343
371 362 357
389 380 374
404 395 388
418 409 402
428 419 412
440 431 423
450 441 434
459 450 442
466 457 449
348 340 335
392 384 377
403 395 388
417 408 401
435 426 419
459 450 442
481 472 463
510 500 491
533 524 514
550 540 530
568 559 548
586 576 565
600 591 579
613 604 592
622 612 600
634 624 612
638 629 616
492 483 475
542 533 523
560 550 540
576 567 556
597 588 576
621 612 600
650 641 628
685 675 661
721 711 696
743 733 718
762 752 736
779 769 753
796 786 769
811 801 783
824 814 797
835 825 807
841 831 813
663 653 640
717 707 692
735 725 710
755 745 730
776 766 750
807 797 780
842 832 814
876 866 847
915 905 885
953 943 922
976 966 945
998 988 966
1013 1003 980
1028 1018 995
1043 1033 1009
1058 1048 1024
1063 1053 1029
834 824 806
893 883 863
916 906 886
935 925 904
962 952 930
989 979 957
1027 1017 994
1067 1057 1033
1108 1098 1072
1148 1138 1112
1182 1172 1145
1205 1196 1168
1226 1216 1188
1242 1232 1203
1256 1246 1217
1267 1258 1228
1276 1266 1237
1001 991 969
1062 1052 1028
1091 1081 1056
1109 1099 1074
1134 1124 1098
1171 1161 1134
1205 1195 1167
1248 1238 1209
1292 1282 1252
1330 1320 1289
1374 1364 1332
1401 1392 1359
1425 1415 1382
1444 1435 1401
1462 1452 1417
1473 1464 1429
1488 1479 1443
1155 1145 1118
1224 1214 1185
1251 1241 1212
1273 1263 1233
1297 1288 1257
1335 1325 1294
1376 1366 1334
1415 1406 1372
1459 1449 1415
1506 1496 1460
1546 1536 1500
1581 1571 1534
1608 1599 1561
1634 1625 1586
1653 1644 1604
1657 1648 1609
1674 1665 1625
1289 1279 1249
1367 1358 1325
1385 1376 1343
1411 1401 1368
1438 1428 1394
1476 1466 1431
1516 1507 1471
1559 1550 1513
1608 1599 1561
1648 1639 1600
1690 1681 1640
1728 1719 1678
1761 1752 1710
1787 1778 1735
1809 1800 1757
1815 1807 1763
1832 1824 1780
1419 1410 1376
1494 1485 1449
1517 1507 1471
1540 1531 1494
1570 1560 1523
1608 1599 1560
1643 1634 1595
1691 1682 1641
1736 1727 1686
1781 1772 1730
1826 1817 1773
1859 1850 1806
1894 1886 1841
1925 1917 1871
1949 1941 1895
1960 1952 1905
1975 1967 1920
1536 1527 1490
1607 1598 1559
1629 1620 1581
1658 1649 1610
1683 1674 1634
1717 1708 1667
1759 1751 1709
1804 1795 1752
1849 1840 1796
1899 1891 1846
1939 1931 1885
1978 1970 1923
2015 2007 1960
2041 2034 1986
2065 2058 2010
2087 2079 2031
2094 2087 2039
1638 1629 1589
1706 1697 1656
1727 1718 1677
1754 1745 1703
1791 1782 1740
1815 1807 1763
1864 1856 1811
1907 1899 1853
1951 1943 1897
2004 1996 1948
2042 2035 1987
2084 2076 2028
2112 2104 2056
2137 2131 2083
2164 2158 2112
2186 2180 2136
2203 2197 2153
33 30 31
15 14 14
4 3 3
4 3 3
5 4 5
7 6 6
9 8 8
12 10 11
15 13 13
18 16 17
21 19 20
25 22 23
28 25 26
31 28 29
33 30 31
35 32 33
37 34 35
33 30 31
47 43 44
26 23 24
26 24 25
29 26 27
32 29 30
36 33 34
42 39 40
47 43 44
53 50 50
58 54 55
64 60 61
69 64 65
73 68 69
76 71 72
80 76 76
84 79 80
34 31 32
49 45 46
66 62 62
69 65 66
75 70 71
80 75 76
86 81 82
95 89 90
103 98 98
110 105 105
120 114 114
128 122 122
134 128 128
138 132 132
144 138 138
151 144 144
156 150 149
59 55 56
77 72 73
101 95 96
110 105 105
115 110 110
123 117 117
131 125 125
142 135 135
151 145 144
162 155 155
171 165 164
179 173 172
189 182 180
195 188 186
201 194 192
206 199 197
212 204 203
100 94 95
124 118 118
154 147 147
165 159 158
175 168 167
184 178 176
195 188 186
207 199 198
218 211 209
231 223 221
243 236 233
255 247 244
264 256 253
271 263 260
280 272 268
285 277 274
294 286 282
163 156 156
194 187 186
230 223 221
244 237 234
258 251 248
275 267 264
287 279 275
301 293 289
317 308 304
331 322 318
345 336 331
360 351 346
370 361 356
379 370 365
389 381 374
397 388 382
404 395 389
256 248 245
292 284 281
339 331 326
353 345 340
371 363 357
391 382 376
414 405 398
433 424 417
448 439 432
468 459 451
485 476 467
499 489 480
512 503 494
522 512 503
533 524 514
544 534 524
548 538 528
382 373 367
427 418 412
480 471 462
499 490 481
518 509 499
541 531 521
571 561 550
599 589 578
622 613 601
644 635 622
660 650 637
680 670 656
694 684 670
705 695 681
718 709 694
728 719 704
739 730 714
536 526 516
587 577 566
646 636 623
669 660 646
692 682 668
718 708 693
750 740 725
786 776 759
821 811 794
845 835 816
867 857 838
883 873 854
903 893 873
917 907 887
930 920 900
940 930 910
952 942 921
706 696 681
772 762 746
836 826 808
860 850 832
882 872 852
914 904 884
950 940 919
987 977 955
1027 1017 994
1064 1054 1029
1090 1080 1056
1111 1101 1075
1129 1119 1093
1143 1133 1107
1156 1146 1120
1170 1160 1133
1183 1173 1146
883 873 853
947 937 916
1021 1010 988
1048 1038 1014
1075 1065 1040
1107 1097 1072
1142 1132 1106
1182 1172 1145
1226 1216 1187
1269 1259 1229
1305 1295 1265
1326 1317 1286
1351 1342 1310
1366 1356 1324
1378 1369 1336
1390 1380 1348
1400 1391 1358
1054 1044 1020
1123 1113 1088
1203 1193 1165
1229 1219 1191
1253 1243 1214
1287 1277 1247
1326 1316 1285
1372 1362 1330
1416 1407 1373
1455 1445 1411
1495 1486 1450
1532 1523 1486
1553 1544 1507
1572 1563 1525
1588 1579 1541
1602 1593 1555
1609 1599 1561
1211 1201 1173
1288 1278 1248
1370 1360 1328
1395 1386 1353
1424 1415 1381
1460 1450 1416
1497 1487 1452
1544 1535 1498
1590 1581 1543
1630 1621 1582
1676 1667 1627
1712 1703 1662
1741 1732 1690
1764 1755 1713
1776 1767 1725
1793 1784 1741
1800 1791 1748
1353 1343 1311
1428 1419 1385
1509 1499 1464
1536 1527 1491
1567 1558 1521
1602 1593 1555
1645 1636 1597
1690 1681 1641
1732 1723 1682
1777 1768 1726
1820 1812 1768
1856 1847 1803
1894 1886 1841
1924 1915 1869
1940 1932 1886
1948 1940 1893
1962 1954 1908
1480 1471 1436
1558 1549 1511
1639 1630 1591
1667 1658 1618
1699 1690 1649
1735 1726 1685
1775 1766 1724
1821 1812 1769
1867 1859 1815
1913 1905 1859
1960 1951 1905
1994 1987 1939
2026 2019 1971
2052 2044 1998
2077 2070 2024
2086 2079 2032
2104 2097 2051
1597 1587 1549
1667 1657 1618
1758 1749 1707
1787 1778 1735
1812 1803 1760
1851 1842 1798
1890 1882 1837
1938 1930 1884
1981 1973 1926
2028 2020 1973
2068 2061 2013
2104 2097 2050
2137 2131 2084
2162 2156 2110
2187 2181 2135
2211 2205 2161
2222 2216 2172
1697 1688 1647
1779 1770 1728
1856 1848 1803
1887 1879 1834
1915 1907 1861
1953 1945 1898
1996 1988 1940
2041 2033 1985
2088 2081 2033
2128 2121 2074
2168 2162 2116
2206 2200 2156
2232 2226 2183
2256 2250 2207
2280 2275 2233
2300 2295 2253
2316 2311 2268
75 71 71
48 44 45
24 22 23
7 6 6
7 6 7
9 7 8
11 10 10
15 13 13
18 15 16
22 19 20
25 22 23
29 26 27
32 29 30
35 32 33
37 34 35
40 37 38
42 39 39
76 71 72
95 90 90
62 58 59
33 30 31
33 30 31
37 34 35
41 38 39
47 43 44
53 49 50
60 56 56
65 60 61
70 66 66
76 71 72
81 76 77
84 79 80
88 83 84
