滤镜资源/Professional Luts Collection/Triune-Digital-Cinematic-LUTs/3D LUTs (3DL)/REDLOGFILM/BW/Casino Royale 1 - REDlogFilm.3dl
# Created by Benjamin (IWLTBAP) : http://luts.iwltbap.com
# Copyright: (C) Copyright 2016 Triune Films and IWLTBAP
# Blockbuster LUTs Pack
0 256 512 768 1023
0 0 0
2 2 2
10 8 9
21 19 20
29 26 27
68 64 64
92 86 87
125 119 119
158 151 151
179 172 171
459 450 442
522 513 503
630 620 608
709 700 685
752 742 726
1107 1097 1072
1197 1187 1159
1348 1338 1307
1501 1492 1456
1562 1552 1515
1580 1571 1533
1676 1667 1627
1840 1831 1787
1998 1990 1942
2085 2077 2028
148 142 141
13 11 12
22 20 20
37 34 35
49 45 46
159 153 152
321 313 308
381 372 366
438 429 422
476 467 459
649 639 626
949 939 918
1106 1096 1071
1197 1187 1159
1250 1240 1211
1370 1360 1328
1745 1736 1694
1922 1914 1868
2080 2073 2026
2132 2125 2078
1858 1849 1805
2235 2230 2187
2395 2390 2348
2537 2533 2489
2613 2609 2566
1020 1010 987
542 533 523
65 61 62
78 73 73
93 88 89
1030 1020 997
1363 1353 1321
530 521 511
566 556 546
604 595 583
1074 1064 1040
1440 1431 1397
2081 2074 2027
2165 2159 2113
2217 2211 2165
1856 1848 1803
2242 2236 2193
2823 2820 2777
2957 2954 2911
3003 3001 2958
2332 2327 2285
2678 2674 2631
3192 3190 3150
3308 3307 3269
3369 3368 3331
2264 2258 2216
1652 1643 1604
684 675 661
135 129 129
149 143 142
2268 2263 2220
2591 2587 2543
1595 1586 1548
706 696 682
735 725 710
2287 2282 2239
2637 2633 2590
3124 3122 3081
2369 2364 2321
2401 2396 2354
2322 2316 2274
2665 2661 2618
3194 3192 3152
3587 3586 3555
3611 3611 3581
2737 2734 2690
3043 3040 2999
3500 3499 3465
3831 3831 3811
3875 3875 3858
2907 2904 2861
2394 2388 2346
1337 1327 1296
506 497 488
184 177 176
2915 2912 2869
3177 3175 3135
2337 2331 2288
1341 1331 1300
810 799 782
2931 2928 2885
3216 3214 3174
3598 3598 3567
2979 2976 2934
2490 2485 2442
2943 2940 2897
3228 3226 3186
3644 3644 3615
3934 3934 3921
3671 3670 3643
2959 2956 2913
3239 3237 3197
3651 3650 3622
3951 3951 3939
4095 4095 4095
