滤镜资源/Professional Luts Collection/Triune-Digital-Cinematic-LUTs/3D LUTs (3DL)/REDLOGFILM/BW/Noir 3 - REDlogFilm.3dl
# Created by Benjamin (IWLTBAP) : http://luts.iwltbap.com
# Copyright: (C) Copyright 2016 Triune Films and IWLTBAP
# Blockbuster LUTs Pack
0 64 128 192 256 320 384 448 512 576 640 704 768 832 896 960 1023
0 2 1
11 14 15
22 27 29
35 40 44
48 55 61
63 71 79
79 88 99
97 106 120
116 126 143
136 146 166
157 169 192
178 192 219
198 214 246
219 237 273
241 262 303
262 287 335
283 312 367
21 25 27
11 14 15
22 26 28
34 39 44
48 54 60
63 70 79
78 87 98
96 105 119
115 125 142
135 145 166
157 168 191
178 191 218
198 213 244
219 236 272
240 261 302
261 286 334
282 310 365
43 49 54
33 37 41
23 27 29
34 39 43
47 53 60
62 69 78
78 86 97
96 105 119
115 125 141
135 145 165
156 167 190
177 190 217
197 212 243
218 235 271
239 259 301
260 284 332
281 309 363
67 74 84
56 63 71
45 51 57
35 40 45
47 53 59
61 69 77
77 86 97
95 104 118
114 124 141
134 144 164
155 166 189
176 189 216
196 211 242
217 234 269
238 258 299
259 283 331
279 307 361
93 102 116
82 90 102
71 79 89
59 66 74
49 55 61
61 68 76
77 85 96
94 103 117
114 123 140
133 143 163
154 165 188
175 188 215
195 210 241
215 233 268
237 257 297
258 282 329
278 306 359
125 135 153
113 122 139
100 110 124
87 96 109
74 82 93
63 71 80
76 84 95
93 103 116
113 122 139
132 142 162
153 164 187
174 187 214
194 209 240
214 231 266
236 255 295
257 280 327
277 304 357
164 176 201
150 161 183
135 146 166
121 131 149
106 116 131
91 100 113
79 88 99
93 102 115
112 121 138
131 141 161
152 163 186
173 186 213
193 207 238
213 230 265
234 254 293
255 279 325
275 302 355
211 227 262
194 209 240
179 192 220
162 174 199
145 156 177
127 137 156
110 119 135
96 106 120
111 121 137
130 140 160
151 162 184
172 185 211
192 206 237
212 228 263
233 252 291
254 277 323
274 301 353
268 294 345
248 271 315
229 248 287
209 226 260
190 204 234
170 182 208
149 160 182
129 139 158
115 125 141
129 139 159
150 161 183
171 183 210
191 205 235
210 227 261
231 250 289
252 275 320
272 299 351
346 387 461
318 353 419
291 321 379
266 292 342
242 263 306
218 236 272
194 209 240
171 184 210
149 160 183
133 144 163
149 159 182
170 182 208
189 204 234
209 225 259
230 249 287
251 273 318
271 297 349
436 502 593
403 457 545
370 416 498
338 377 449
305 337 400
273 300 352
245 266 310
217 234 270
192 206 237
169 181 207
153 164 187
169 181 207
188 203 232
208 224 258
229 247 285
249 272 316
269 296 347
533 642 727
496 588 677
459 534 626
420 479 571
382 430 515
343 383 457
304 336 398
269 295 345
239 259 300
211 228 262
188 202 232
172 185 211
187 201 231
206 222 256
227 246 284
248 270 314
268 294 345
638 807 861
596 742 807
553 673 751
510 608 696
467 546 637
421 480 571
376 423 506
332 370 441
291 321 379
258 282 330
231 250 289
206 223 256
190 204 235
205 221 255
226 245 282
247 269 312
267 293 343
731 951 992
691 891 935
650 826 877
604 754 816
553 673 751
503 597 687
453 525 616
401 454 543
355 398 475
312 346 410
276 304 357
249 271 316
225 244 281
207 224 258
225 243 281
246 267 311
266 291 341
833 1072 1139
785 1018 1071
740 960 1005
693 895 938
645 819 871
591 733 799
533 642 726
478 561 652
424 485 576
376 422 506
334 372 443
297 328 388
268 293 344
245 267 310
226 245 283
245 266 309
265 290 340
950 1189 1298
892 1131 1219
835 1075 1142
782 1014 1067
730 947 990
676 867 914
619 777 835
556 678 755
498 590 679
444 512 604
396 448 535
355 397 475
318 354 420
288 318 375
264 289 338
245 266 309
264 289 338
1069 1310 1468
1010 1249 1382
947 1185 1293
883 1122 1206
817 1056 1117
758 984 1031
698 903 945
639 808 862
574 707 778
514 614 702
463 540 631
416 473 564
376 422 506
342 382 455
310 344 408
284 312 368
263 288 336
24 28 30
29 34 37
40 46 51
53 59 67
66 74 83
81 90 101
98 107 122
117 127 144
137 148 168
160 172 196
182 196 224
204 220 254
228 247 285
251 274 319
275 302 355
300 333 393
328 366 435
29 34 37
51 58 65
63 71 80
76 84 95
90 99 112
106 116 131
125 135 153
146 157 179
168 181 207
193 208 239
218 236 273
244 266 309
272 298 350
301 333 393
331 369 439
362 406 485
395 448 532
51 57 64
74 82 92
65 72 81
76 84 95
90 99 112
106 116 131
125 135 153
146 157 179
169 181 207
194 209 240
219 236 273
244 266 310
272 299 351
301 333 394
332 370 440
362 407 486
395 449 533
74 83 93
99 108 122
88 97 109
77 86 97
90 99 112
106 115 131
124 134 153
146 156 178
168 180 206
193 207 238
218 235 272
243 265 308
271 297 349
300 332 392
330 368 438
361 405 483
393 446 531
102 111 126
128 138 157
116 126 143
103 112 127
92 101 114
105 114 130
123 133 152
145 156 177
167 179 205
192 206 237
217 234 270
242 264 307
270 296 347
298 330 390
329 366 435
359 402 481
391 444 528
134 145 164
165 177 202
151 163 186
136 147 167
121 130 148
108 117 133
123 133 151
144 155 176
166 178 204
191 205 236
215 233 269
241 262 305
268 294 344
297 328 388
327 364 433
357 400 478
389 441 525
175 188 215
210 227 261
194 209 241
177 190 218
159 171 195
141 152 173
126 137 155
143 154 175
165 177 203
189 204 234
214 231 267
240 261 303
266 292 342
295 326 385
325 362 430
355 398 475
387 438 522
224 243 280
266 292 343
248 270 315
227 246 285
206 222 256
184 198 228
163 175 200
147 158 180
164 176 201
188 202 233
213 230 265
238 259 301
265 290 339
293 324 382
323 359 427
353 395 472
385 435 518
285 314 370
343 383 456
317 352 418
290 320 377
263 288 337
236 257 298
211 228 263
186 200 230
169 181 208
187 201 231
212 229 264
237 257 299
263 288 337
291 321 379
321 357 424
351 392 468
382 431 514
368 413 494
438 507 595
408 467 551
373 421 500
338 377 449
304 336 398
269 296 347
238 260 302
212 229 264
192 207 237
211 227 262
235 256 297
261 286 334
289 319 376
319 355 421
349 390 465
380 428 511
462 538 629
542 658 736
506 604 688
466 546 634
425 489 576
382 433 515
340 380 453
300 332 393
265 291 341
235 255 296
215 232 268
234 254 295
260 284 332
287 317 374
317 352 418
347 388 462
377 425 507
562 688 763
650 827 880
612 767 828
568 698 770
521 626 708
472 553 642
423 486 574
375 423 504
331 369 438
291 321 379
259 284 332
238 259 301
258 283 330
286 315 372
315 350 416
345 385 459
375 422 504
667 854 902
757 979 1030
717 924 973
670 857 908
621 780 840
569 699 771
513 614 698
458 534 624
407 465 551
360 404 482
320 356 422
286 315 372
262 287 336
284 313 369
314 348 413
343 383 457
373 419 501
764 991 1040
871 1108 1189
824 1056 1123
770 994 1048
717 924 974
662 845 896
604 755 818
545 662 740
487 575 662
433 500 589
387 438 522
346 388 462
312 346 410
288 317 374
312 347 411
341 381 454
371 417 499
874 1112 1193
999 1239 1368
945 1184 1292
884 1119 1206
821 1050 1119
757 975 1030
695 892 943
633 800 857
573 706 777
513 615 697
461 539 627
416 478 563
375 424 504
341 381 454
314 349 414
340 379 452
369 414 496
995 1234 1360
1131 1374 1543
1071 1312 1463
1002 1243 1371
931 1170 1274
860 1094 1173
787 1014 1072
720 926 978
656 834 888
594 739 805
539 655 731
487 577 662
443 514 601
405 463 547
369 416 495
340 380 453
368 413 494
1118 1360 1532
1264 1514 1711
1200 1446 1632
1126 1368 1538
1049 1289 1434
968 1207 1325
886 1124 1210
808 1041 1103
738 955 1004
675 866 913
616 773 834
563 690 764
513 614 697
470 550 640
432 497 586
398 451 537
366 411 492
48 54 61
54 60 67
59 67 75
72 80 90
85 94 106
101 111 125
119 129 147
140 150 171
163 174 199
186 200 230
210 227 261
236 256 296
262 286 335
288 317 374
318 354 420
350 391 467
380 428 513
54 60 67
77 85 96
84 92 104
96 106 120
112 121 138
129 139 158
149 160 183
172 185 211
197 212 244
224 243 281
252 275 321
282 311 366
315 350 415
349 391 466
385 435 518
420 482 570
455 528 619
60 67 76
84 93 105
109 118 134
124 133 152
140 150 171
159 171 195
182 196 224
207 223 257
236 256 297
268 293 344
302 334 395
340 380 452
380 429 511
417 477 566
458 534 622
498 592 677
536 648 729
83 92 103
109 119 135
136 146 167
127 137 156
141 151 172
161 172 197
183 197 226
208 225 259
237 258 299
269 296 347
303 336 398
342 382 455
382 433 514
420 480 570
461 538 626
501 597 682
539 653 733
111 121 137
140 150 171
170 183 209
157 169 192
143 154 175
160 171 196
182 196 225
207 224 258
236 256 297
268 294 345
302 334 395
340 380 453
380 430 512
418 478 567
458 535 623
499 594 679
537 649 730
145 156 177
178 191 219
212 230 265
197 213 245
179 192 220
163 175 200
181 195 223
206 222 256
235 255 296
267 292 343
300 332 393
338 378 450
378 428 509
416 475 564
456 532 620
496 590 675
534 645 727
187 201 231
225 243 282
268 294 344
249 272 317
226 245 284
203 219 252
186 200 229
205 221 255
233 253 294
265 291 340
298 330 390
336 375 447
376 425 506
414 472 560
454 528 617
494 586 672
532 641 724
238 259 300
286 315 371
342 383 455
317 353 418
287 317 374
258 282 330
230 250 289
210 227 262
232 252 292
264 289 338
297 328 387
334 373 444
374 422 502
411 469 557
451 524 613
491 583 668
529 637 720
304 336 398
368 415 494
437 505 593
407 465 550
370 418 496
331 370 439
294 325 384
261 286 335
239 259 301
262 287 336
295 326 385
332 370 440
372 419 499
409 466 553
448 520 609
488 578 664
526 632 716
392 444 529
468 548 636
548 668 744
513 616 698
469 551 638
424 488 574
378 428 509
335 374 444
295 326 385
268 294 345
293 324 382
330 368 437
369 416 495
406 463 550
446 516 605
486 574 660
523 628 713
489 578 668
577 711 781
663 847 898
626 788 848
577 712 782
526 633 715
473 555 644
421 484 571
373 421 501
329 367 436
300 332 392
328 365 434
367 414 492
404 460 547
443 513 602
483 571 657
520 624 709
595 739 805
687 882 929
779 1006 1061
739 954 1004
688 881 932
634 800 857
575 709 780
517 621 704
462 539 628
410 468 555
366 412 490
335 374 444
365 411 489
402 457 544
441 509 599
480 567 653
518 621 705
699 902 946
797 1029 1086
910 1149 1244
860 1097 1175
801 1029 1091
740 955 1004
680 870 920
618 775 836
556 679 755
499 593 679
447 519 608
403 459 544
370 418 497
400 455 541
438 506 596
478 564 650
516 617 702
799 1034 1091
919 1158 1256
1048 1289 1435
993 1232 1357
922 1160 1260
849 1085 1159
779 1006 1061
713 919 968
651 826 880
588 729 797
532 642 723
482 568 656
437 504 593
404 460 547
436 503 593
476 561 647
513 614 699
917 1156 1252
1053 1294 1441
1193 1439 1623
1132 1376 1545
1055 1296 1442
974 1214 1332
892 1130 1219
814 1046 1111
744 960 1010
679 869 920
620 780 840
565 694 767
517 620 703
474 558 645
439 507 596
474 558 644
511 611 696
1043 1282 1428
1189 1435 1618
1340 1594 1794
1275 1524 1718
1191 1438 1618
1104 1347 1507
1015 1255 1387
926 1164 1265
843 1077 1151
770 992 1047
707 907 959
651 825 882
598 745 810
552 673 750
511 611 694
474 558 645
509 608 694
1170 1414 1598
1327 1580 1783
1486 1747 1949
1417 1676 1879
1329 1582 1783
1235 1483 1675
1139 1382 1556
1043 1283 1427
951 1189 1299
865 1103 1182
794 1023 1082
732 947 994
679 870 920
633 798 855
586 726 794
544 660 740
508 606 691
75 83 94
80 89 100
86 95 107
93 102 115
107 117 133
124 134 153
144 154 176
167 179 204
191 205 235
217 234 270
245 266 310
273 300 352
305 338 400
339 378 451
373 419 502
407 461 551
442 510 602
80 89 100
106 115 130
112 122 139
120 130 147
135 146 166
155 166 189
176 189 217
201 217 249
229 248 287
260 284 332
293 323 382
330 368 438
369 414 495
407 463 551
446 517 607
485 572 661
