滤镜资源/Professional Luts Collection/Triune-Digital-Cinematic-LUTs/3D LUTs (3DL)/REDLOGFILM/BW/Noir 3 - REDlogFilm.3dl
# Created by Benjamin (IWLTBAP) : http://luts.iwltbap.com
# Copyright: (C) Copyright 2016 Triune Films and IWLTBAP
# Blockbuster LUTs Pack
0 128 256 384 512 640 768 896 1023
0 2 1
22 27 29
48 55 61
79 88 99
116 126 143
157 169 192
198 214 246
241 262 303
283 312 367
43 49 54
23 27 29
47 53 60
78 86 97
115 125 141
156 167 190
197 212 243
239 259 301
281 309 363
93 102 116
71 79 89
49 55 61
77 85 96
114 123 140
154 165 188
195 210 241
237 257 297
278 306 359
164 176 201
135 146 166
106 116 131
79 88 99
112 121 138
152 163 186
193 207 238
234 254 293
275 302 355
268 294 345
229 248 287
190 204 234
149 160 182
115 125 141
150 161 183
191 205 235
231 250 289
272 299 351
436 502 593
370 416 498
305 337 400
245 266 310
192 206 237
153 164 187
188 203 232
229 247 285
269 296 347
638 807 861
553 673 751
467 546 637
376 423 506
291 321 379
231 250 289
190 204 235
226 245 282
267 293 343
833 1072 1139
740 960 1005
645 819 871
533 642 726
424 485 576
334 372 443
268 293 344
226 245 283
265 290 340
1069 1310 1468
947 1185 1293
817 1056 1117
698 903 945
574 707 778
463 540 631
376 422 506
310 344 408
263 288 336
48 54 61
59 67 75
85 94 106
119 129 147
163 174 199
210 227 261
262 286 335
318 354 420
380 428 513
60 67 76
109 118 134
140 150 171
182 196 224
236 256 297
302 334 395
380 429 511
458 534 622
536 648 729
111 121 137
170 183 209
143 154 175
182 196 225
236 256 297
302 334 395
380 430 512
458 535 623
537 649 730
187 201 231
268 294 344
226 245 284
186 200 229
233 253 294
298 330 390
376 425 506
454 528 617
532 641 724
304 336 398
437 505 593
370 418 496
294 325 384
239 259 301
295 326 385
372 419 499
448 520 609
526 632 716
489 578 668
663 847 898
577 712 782
473 555 644
373 421 501
300 332 392
367 414 492
443 513 602
520 624 709
699 902 946
910 1149 1244
801 1029 1091
680 870 920
556 679 755
447 519 608
370 418 497
438 506 596
516 617 702
917 1156 1252
1193 1439 1623
1055 1296 1442
892 1130 1219
744 960 1010
620 780 840
517 620 703
439 507 596
511 611 696
1170 1414 1598
1486 1747 1949
1329 1582 1783
1139 1382 1556
951 1189 1299
794 1023 1082
679 870 920
586 726 794
508 606 691
106 116 131
118 128 146
133 143 163
174 187 214
225 244 281
287 317 374
363 407 487
440 507 598
515 616 703
118 128 146
180 194 222
201 216 249
252 275 321
326 363 432
421 481 571
518 621 707
614 770 830
701 905 949
135 145 165
202 218 251
297 328 388
378 426 509
485 572 661
607 758 821
720 930 976
829 1064 1131
946 1185 1293
215 232 268
312 346 410
461 538 628
394 446 532
490 579 668
613 767 829
725 938 985
836 1071 1140
954 1193 1304
352 394 471
506 603 689
699 900 948
603 754 817
500 594 681
607 758 820
719 929 975
828 1063 1129
945 1184 1292
555 677 754
744 963 1011
1000 1239 1367
866 1102 1181
721 931 979
614 770 831
712 920 966
820 1055 1119
936 1175 1279
772 1002 1052
1024 1263 1401
1350 1605 1807
1185 1430 1614
991 1231 1357
826 1061 1127
717 926 972
813 1047 1110
929 1167 1268
1021 1261 1398
1328 1581 1783
1693 1965 2147
1513 1776 1976
1290 1541 1739
1090 1331 1491
931 1169 1272
814 1048 1110
922 1160 1259
1291 1542 1744
1632 1902 2093
2014 2292 2418
1829 2104 2265
1591 1858 2053
1370 1626 1829
1184 1429 1614
1037 1277 1421
916 1155 1251
191 205 236
207 224 257
227 246 285
255 279 326
329 366 436
423 485 575
521 625 710
617 775 835
704 910 954
207 224 257
299 330 390
330 368 438
374 422 502
476 559 647
594 738 805
707 911 959
815 1047 1112
928 1167 1269
227 246 285
330 368 438
492 582 670
556 678 754
681 874 922
817 1052 1115
969 1208 1325
1118 1360 1528
1262 1512 1709
259 283 330
379 428 509
562 689 763
798 1025 1087
966 1206 1321
1161 1406 1580
1353 1607 1806
1530 1793 1990
1694 1964 2145
416 475 564
585 724 793
807 1040 1101
1136 1379 1546
1007 1248 1376
1179 1425 1601
1372 1627 1826
1550 1814 2009
1714 1985 2162
640 811 865
841 1077 1149
1153 1397 1575
1558 1823 2019
1376 1631 1829
1192 1438 1617
1361 1616 1815
1539 1802 1998
1702 1973 2152
875 1114 1195
1155 1399 1576
1532 1795 1996
1968 2244 2379
1775 2048 2216
1547 1811 2005
1369 1624 1823
1529 1792 1988
1691 1962 2143
1152 1395 1574
1480 1741 1943
1886 2162 2312
2320 2577 2654
2130 2402 2509
1899 2175 2322
1694 1964 2143
1529 1792 1988
1682 1953 2135
1442 1701 1906
1794 2068 2235
2204 2476 2569
2635 2834 2874
2444 2681 2743
2217 2483 2576
2013 2289 2416
1835 2109 2268
1675 1945 2128
331 369 440
361 406 484
397 450 536
442 509 601
500 593 681
618 776 835
731 947 992
841 1079 1149
961 1200 1313
361 406 484
513 614 698
560 686 762
616 772 834
683 874 925
815 1048 1112
966 1205 1319
1113 1356 1521
1257 1506 1702
397 450 536
560 686 762
769 994 1047
845 1082 1154
935 1174 1277
1118 1361 1530
1308 1560 1760
1483 1744 1947
1645 1915 2105
442 509 601
616 772 834
845 1082 1154
1203 1450 1633
1339 1592 1792
1561 1826 2022
1774 2048 2218
1963 2239 2375
2130 2404 2510
507 603 691
691 886 936
946 1185 1293
1352 1607 1807
1826 2101 2262
2059 2334 2453
2273 2536 2620
2456 2692 2752
2621 2824 2864
733 950 995
968 1207 1324
1311 1564 1764
1779 2052 2221
2262 2526 2612
2110 2382 2493
2296 2556 2636
2480 2710 2768
2645 2843 2880
1008 1247 1379
1313 1565 1766
1706 1978 2160
2190 2461 2557
2667 2860 2895
2488 2717 2773
2304 2562 2642
2470 2702 2761
2635 2835 2874
1310 1562 1764
1653 1923 2111
2065 2342 2459
2540 2759 2809
3003 3133 3123
2836 2996 3009
2636 2836 2874
2470 2703 2761
2626 2828 2868
1613 1882 2076
1974 2251 2384
2378 2629 2698
2857 3010 3021
3217 3324 3287
3104 3222 3198
2942 3082 3081
2776 2947 2968
2618 2822 2862
556 678 754
598 744 809
645 819 872
701 904 949
765 991 1041
840 1077 1147
991 1230 1356
1141 1384 1561
1288 1539 1740
598 744 809
786 1014 1071
847 1084 1157
923 1162 1262
1013 1252 1386
1111 1353 1519
1293 1544 1743
1468 1728 1931
1629 1898 2090
645 819 872
847 1084 1157
1148 1392 1568
1256 1505 1701
1365 1620 1824
1481 1742 1945
1684 1956 2140
1873 2149 2302
2041 2319 2440
701 904 949
923 1162 1262
1256 1505 1701
1694 1965 2146
1837 2112 2271
1961 2238 2374
2169 2441 2541
2352 2605 2678
2516 2740 2793
765 991 1041
1013 1252 1386
1365 1620 1824
1837 2112 2271
2341 2596 2670
2489 2718 2774
2696 2883 2915
2880 3030 3037
3028 3154 3140
848 1086 1158
1122 1364 1533
1493 1755 1957
1973 2250 2384
2501 2728 2783
2975 3109 3103
3125 3241 3213
3234 3339 3302
3318 3414 3372
1148 1391 1570
1476 1736 1939
1882 2158 2309
2360 2613 2684
2888 3036 3043
3232 3338 3300
3147 3261 3231
3243 3347 3309
3327 3422 3379
1473 1733 1938
1827 2102 2263
2236 2505 2593
2713 2896 2925
3163 3275 3243
3401 3487 3441
3327 3422 3379
3243 3347 3309
3323 3419 3376
1788 2062 2231
2147 2423 2525
2548 2767 2816
3014 3142 3130
3331 3426 3383
3520 3593 3544
3462 3541 3493
3391 3478 3432
3319 3415 3373
804 1038 1097
854 1094 1167
920 1159 1256
1001 1240 1369
1095 1336 1500
1192 1438 1625
1288 1539 1740
1459 1719 1924
1620 1889 2083
854 1094 1167
1123 1366 1536
1208 1455 1643
1304 1556 1756
1415 1673 1877
1525 1788 1989
1630 1899 2090
1812 2087 2250
1981 2258 2390
920 1159 1256
1208 1455 1643
1576 1841 2038
1696 1969 2152
1817 2092 2255
1934 2210 2352
2041 2319 2440
2221 2492 2582
2385 2635 2703
1001 1240 1369
1304 1556 1756
1696 1969 2152
2157 2430 2531
2297 2558 2638
2411 2655 2720
2517 2741 2794
2698 2884 2916
2863 3016 3026
1095 1336 1500
1415 1673 1877
1817 2092 2255
2297 2558 2638
2799 2964 2983
2935 3075 3075
3027 3154 3140
3155 3267 3236
3248 3352 3313
1192 1438 1625
1525 1788 1989
1934 2210 2352
2411 2655 2720
2935 3075 3075
3270 3372 3332
3333 3427 3384
3413 3497 3451
3477 3554 3506
1296 1548 1749
1638 1907 2097
2050 2327 2447
2525 2747 2799
3033 3159 3145
3337 3431 3388
3513 3587 3537
3566 3636 3588
3611 3680 3633
1622 1891 2084
1982 2259 2391
2387 2636 2704
2864 3017 3027
3249 3353 3314
3477 3554 3506
3610 3678 3631
3572 3642 3593
3613 3682 3635
1943 2220 2360
2298 2560 2640
2703 2887 2919
3126 3241 3213
3399 3485 3440
3579 3648 3600
3677 3747 3702
3648 3717 3671
3611 3680 3633
1098 1340 1504
1165 1409 1591
1245 1493 1689
1342 1597 1801
1454 1714 1918
1566 1831 2029
1665 1937 2125
1758 2032 2205
1925 2202 2345
1165 1409 1591
1487 1748 1950
1582 1849 2044
1688 1959 2142
1807 2082 2246
1924 2200 2343
2027 2304 2428
2118 2393 2501
2280 2544 2626
1245 1493 1689
1582 1849 2044
1976 2253 2387
2100 2377 2487
2217 2487 2579
2330 2587 2663
2430 2672 2734
2520 2744 2796
2684 2873 2907
1342 1597 1801
1688 1959 2142
2100 2377 2487
2551 2768 2816
2693 2880 2912
2807 2971 2989
2906 3051 3055
2986 3119 3111
3113 3230 3204
1454 1714 1918
1807 2082 2246
2217 2487 2579
2693 2880 2912
3135 3249 3220
3217 3324 3288
3271 3373 3333
3316 3413 3370
3391 3478 3433
1566 1831 2029
1924 2200 2343
2330 2587 2663
2807 2971 2989
3217 3324 3288
3447 3527 3480
3493 3569 3520
3524 3597 3548
3574 3643 3595
1665 1937 2125
2027 2304 2428
2430 2672 2734
2906 3051 3055
3271 3373 3333
3493 3569 3520
3624 3692 3646
3647 3716 3670
3680 3750 3705
1763 2036 2209
2122 2397 2504
2524 2747 2799
2989 3122 3113
3318 3414 3372
3525 3598 3549
3648 3716 3671
3720 3792 3749
3745 3819 3777
2077 2355 2469
2428 2670 2733
2837 2993 3008
3205 3313 3277
3453 3532 3485
3614 3683 3636
3707 3778 3734
3768 3843 3803
3746 3819 3777
1419 1677 1883
1495 1756 1960
1583 1849 2047
1686 1959 2145
1809 2083 2249
1925 2202 2345
2028 2305 2429
2117 2395 2502
2195 2470 2563
1495 1756 1960
1842 2117 2276
1942 2218 2358
2049 2326 2446
2167 2442 2541
2280 2545 2627
2380 2631 2700
2468 2702 2760
2546 2764 2814
1583 1849 2047
1942 2218 2358
2331 2589 2664
2452 2689 2749
2568 2782 2829
2684 2873 2907
2788 2955 2976
2875 3025 3033
2951 3087 3085
1686 1959 2145
2049 2326 2446
2452 2689 2749
2905 3050 3054
3030 3156 3142
3114 3231 3204
3177 3288 3254
3227 3333 3295
3269 3371 3331
1809 2083 2249
2167 2442 2541
2568 2782 2829
3030 3156 3142
3327 3423 3380
3392 3479 3433
3434 3516 3469
3467 3545 3497
3496 3571 3522
1925 2202 2345
2280 2545 2627
2684 2873 2907
3114 3231 3204
3392 3479 3433
3567 3637 3589
3602 3671 3623
3624 3692 3646
3641 3710 3664
2028 2305 2429
2380 2631 2700
2788 2955 2976
3177 3288 3254
3434 3516 3469
3602 3671 3623
3696 3767 3722
3713 3785 3741
3726 3799 3756
2117 2395 2502
2468 2702 2760
2875 3025 3033
3227 3333 3295
3467 3545 3497
3624 3692 3646
3713 3785 3741
3775 3850 3811
3788 3864 3825
2195 2470 2563
2546 2764 2814
2951 3087 3085
3269 3371 3331
3496 3571 3522
3641 3710 3664
3726 3799 3756
3788 3864 3825
3837 3917 3884
