滤镜资源/Professional Luts Collection/Triune-Digital-Cinematic-LUTs/3D LUTs (3DL)/REDLOGFILM/BW/Noir 3 - REDlogFilm.3dl
# Created by Benjamin (IWLTBAP) : http://luts.iwltbap.com
# Copyright: (C) Copyright 2016 Triune Films and IWLTBAP
# Blockbuster LUTs Pack
0 256 512 768 1023
0 2 1
48 55 61
116 126 143
198 214 246
283 312 367
93 102 116
49 55 61
114 123 140
195 210 241
278 306 359
268 294 345
190 204 234
115 125 141
191 205 235
272 299 351
638 807 861
467 546 637
291 321 379
190 204 235
267 293 343
1069 1310 1468
817 1056 1117
574 707 778
376 422 506
263 288 336
106 116 131
133 143 163
225 244 281
363 407 487
515 616 703
135 145 165
297 328 388
485 572 661
720 930 976
946 1185 1293
352 394 471
699 900 948
500 594 681
719 929 975
945 1184 1292
772 1002 1052
1350 1605 1807
991 1231 1357
717 926 972
929 1167 1268
1291 1542 1744
2014 2292 2418
1591 1858 2053
1184 1429 1614
916 1155 1251
331 369 440
397 450 536
500 593 681
731 947 992
961 1200 1313
397 450 536
769 994 1047
935 1174 1277
1308 1560 1760
1645 1915 2105
507 603 691
946 1185 1293
1826 2101 2262
2273 2536 2620
2621 2824 2864
1008 1247 1379
1706 1978 2160
2667 2860 2895
2304 2562 2642
2635 2835 2874
1613 1882 2076
2378 2629 2698
3217 3324 3287
2942 3082 3081
2618 2822 2862
804 1038 1097
920 1159 1256
1095 1336 1500
1288 1539 1740
1620 1889 2083
920 1159 1256
1576 1841 2038
1817 2092 2255
2041 2319 2440
2385 2635 2703
1095 1336 1500
1817 2092 2255
2799 2964 2983
3027 3154 3140
3248 3352 3313
1296 1548 1749
2050 2327 2447
3033 3159 3145
3513 3587 3537
3611 3680 3633
1943 2220 2360
2703 2887 2919
3399 3485 3440
3677 3747 3702
3611 3680 3633
1419 1677 1883
1583 1849 2047
1809 2083 2249
2028 2305 2429
2195 2470 2563
1583 1849 2047
2331 2589 2664
2568 2782 2829
2788 2955 2976
2951 3087 3085
1809 2083 2249
2568 2782 2829
3327 3423 3380
3434 3516 3469
3496 3571 3522
2028 2305 2429
2788 2955 2976
3434 3516 3469
3696 3767 3722
3726 3799 3756
2195 2470 2563
2951 3087 3085
3496 3571 3522
3726 3799 3756
3837 3917 3884
