滤镜资源/Professional Luts Collection/Triune-Digital-Cinematic-LUTs/3D LUTs (3DL)/REDLOGFILM/BW/Noir 2 - REDlogFilm.3dl
# Created by Benjamin (IWLTBAP) : http://luts.iwltbap.com
# Copyright: (C) Copyright 2016 Triune Films and IWLTBAP
# Blockbuster LUTs Pack
0 256 512 768 1023
0 0 0
0 0 0
0 0 0
0 0 0
0 0 0
0 0 0
0 0 0
0 0 0
0 0 0
0 0 0
0 0 0
0 0 0
0 0 0
0 0 0
0 0 0
0 0 0
0 0 0
0 0 0
0 0 0
0 0 0
0 0 0
0 0 0
0 0 0
0 0 0
0 0 0
0 0 0
0 0 0
0 0 0
0 0 0
0 0 0
0 0 0
631 631 631
649 649 649
649 649 649
649 649 649
0 0 0
649 649 649
672 672 672
672 672 672
672 672 672
0 0 0
649 649 649
672 672 672
672 672 672
672 672 672
0 0 0
649 649 649
672 672 672
672 672 672
672 672 672
0 0 0
0 0 0
0 0 0
0 0 0
0 0 0
0 0 0
649 649 649
672 672 672
672 672 672
672 672 672
0 0 0
672 672 672
2032 2032 2032
2059 2059 2059
2059 2059 2059
0 0 0
672 672 672
2059 2059 2059
2112 2112 2112
2112 2112 2112
0 0 0
672 672 672
2059 2059 2059
2112 2112 2112
2112 2112 2112
0 0 0
0 0 0
0 0 0
0 0 0
0 0 0
0 0 0
649 649 649
672 672 672
672 672 672
672 672 672
0 0 0
672 672 672
2059 2059 2059
2112 2112 2112
2112 2112 2112
0 0 0
672 672 672
2112 2112 2112
3422 3422 3422
3427 3427 3427
0 0 0
672 672 672
2112 2112 2112
3427 3427 3427
3449 3449 3449
0 0 0
0 0 0
0 0 0
0 0 0
0 0 0
0 0 0
649 649 649
672 672 672
672 672 672
672 672 672
0 0 0
672 672 672
2059 2059 2059
2112 2112 2112
2112 2112 2112
0 0 0
672 672 672
2112 2112 2112
3427 3427 3427
3449 3449 3449
0 0 0
672 672 672
2112 2112 2112
3449 3449 3449
4095 4095 4095
