滤镜资源/Professional Luts Collection/Triune-Digital-Cinematic-LUTs/3D LUTs (3DL)/REDLOGFILM/BW/Noir 2 - REDlogFilm.3dl
# Created by Benjamin (IWLTBAP) : http://luts.iwltbap.com
# Copyright: (C) Copyright 2016 Triune Films and IWLTBAP
# Blockbuster LUTs Pack
0 128 256 384 512 640 768 896 1023
0 0 0
0 0 0
0 0 0
0 0 0
0 0 0
0 0 0
0 0 0
0 0 0
0 0 0
0 0 0
0 0 0
0 0 0
0 0 0
0 0 0
0 0 0
0 0 0
0 0 0
0 0 0
0 0 0
0 0 0
0 0 0
0 0 0
0 0 0
0 0 0
0 0 0
0 0 0
0 0 0
0 0 0
0 0 0
0 0 0
0 0 0
0 0 0
0 0 0
0 0 0
0 0 0
0 0 0
0 0 0
0 0 0
0 0 0
0 0 0
0 0 0
0 0 0
0 0 0
0 0 0
0 0 0
0 0 0
0 0 0
0 0 0
0 0 0
0 0 0
0 0 0
0 0 0
0 0 0
0 0 0
0 0 0
0 0 0
0 0 0
0 0 0
0 0 0
0 0 0
0 0 0
0 0 0
0 0 0
0 0 0
0 0 0
0 0 0
0 0 0
0 0 0
0 0 0
0 0 0
0 0 0
0 0 0
0 0 0
0 0 0
0 0 0
0 0 0
0 0 0
0 0 0
0 0 0
0 0 0
0 0 0
0 0 0
0 0 0
0 0 0
0 0 0
0 0 0
0 0 0
0 0 0
0 0 0
0 0 0
0 0 0
240 240 240
248 248 248
248 248 248
248 248 248
248 248 248
248 248 248
248 248 248
248 248 248
0 0 0
248 248 248
257 257 257
257 257 257
257 257 257
257 257 257
257 257 257
257 257 257
257 257 257
0 0 0
248 248 248
257 257 257
257 257 257
257 257 257
257 257 257
257 257 257
257 257 257
257 257 257
0 0 0
248 248 248
257 257 257
257 257 257
257 257 257
257 257 257
257 257 257
257 257 257
257 257 257
0 0 0
248 248 248
257 257 257
257 257 257
257 257 257
257 257 257
257 257 257
257 257 257
257 257 257
0 0 0
248 248 248
257 257 257
257 257 257
257 257 257
257 257 257
257 257 257
257 257 257
257 257 257
0 0 0
248 248 248
257 257 257
257 257 257
257 257 257
257 257 257
257 257 257
257 257 257
257 257 257
0 0 0
248 248 248
257 257 257
257 257 257
257 257 257
257 257 257
257 257 257
257 257 257
257 257 257
0 0 0
0 0 0
0 0 0
0 0 0
0 0 0
0 0 0
0 0 0
0 0 0
0 0 0
0 0 0
248 248 248
257 257 257
257 257 257
257 257 257
257 257 257
257 257 257
257 257 257
257 257 257
0 0 0
257 257 257
631 631 631
649 649 649
649 649 649
649 649 649
649 649 649
649 649 649
649 649 649
0 0 0
257 257 257
649 649 649
672 672 672
672 672 672
672 672 672
672 672 672
672 672 672
672 672 672
0 0 0
257 257 257
649 649 649
672 672 672
672 672 672
672 672 672
672 672 672
672 672 672
672 672 672
0 0 0
257 257 257
649 649 649
672 672 672
672 672 672
672 672 672
672 672 672
672 672 672
672 672 672
0 0 0
257 257 257
649 649 649
672 672 672
672 672 672
672 672 672
672 672 672
672 672 672
672 672 672
0 0 0
257 257 257
649 649 649
672 672 672
672 672 672
672 672 672
672 672 672
672 672 672
672 672 672
0 0 0
257 257 257
649 649 649
672 672 672
672 672 672
672 672 672
672 672 672
672 672 672
672 672 672
0 0 0
0 0 0
0 0 0
0 0 0
0 0 0
0 0 0
0 0 0
0 0 0
0 0 0
0 0 0
248 248 248
257 257 257
257 257 257
257 257 257
257 257 257
257 257 257
257 257 257
257 257 257
0 0 0
257 257 257
649 649 649
672 672 672
672 672 672
672 672 672
672 672 672
672 672 672
672 672 672
0 0 0
257 257 257
672 672 672
1240 1240 1240
1268 1268 1268
1268 1268 1268
1268 1268 1268
1268 1268 1268
1268 1268 1268
0 0 0
257 257 257
672 672 672
1268 1268 1268
1312 1312 1312
1312 1312 1312
1312 1312 1312
1312 1312 1312
1312 1312 1312
0 0 0
257 257 257
672 672 672
1268 1268 1268
1312 1312 1312
1312 1312 1312
1312 1312 1312
1312 1312 1312
1312 1312 1312
0 0 0
257 257 257
672 672 672
1268 1268 1268
1312 1312 1312
1312 1312 1312
1312 1312 1312
1312 1312 1312
1312 1312 1312
0 0 0
257 257 257
672 672 672
1268 1268 1268
1312 1312 1312
1312 1312 1312
1312 1312 1312
1312 1312 1312
1312 1312 1312
0 0 0
257 257 257
672 672 672
1268 1268 1268
1312 1312 1312
1312 1312 1312
1312 1312 1312
1312 1312 1312
1312 1312 1312
0 0 0
0 0 0
0 0 0
0 0 0
0 0 0
0 0 0
0 0 0
0 0 0
0 0 0
0 0 0
248 248 248
257 257 257
257 257 257
257 257 257
257 257 257
257 257 257
257 257 257
257 257 257
0 0 0
257 257 257
649 649 649
672 672 672
672 672 672
672 672 672
672 672 672
672 672 672
672 672 672
0 0 0
257 257 257
672 672 672
1268 1268 1268
1312 1312 1312
1312 1312 1312
1312 1312 1312
1312 1312 1312
1312 1312 1312
0 0 0
257 257 257
672 672 672
1312 1312 1312
2032 2032 2032
2059 2059 2059
2059 2059 2059
2059 2059 2059
2059 2059 2059
0 0 0
257 257 257
672 672 672
1312 1312 1312
2059 2059 2059
2112 2112 2112
2112 2112 2112
2112 2112 2112
2112 2112 2112
0 0 0
257 257 257
672 672 672
1312 1312 1312
2059 2059 2059
2112 2112 2112
2112 2112 2112
2112 2112 2112
2112 2112 2112
0 0 0
257 257 257
672 672 672
1312 1312 1312
2059 2059 2059
2112 2112 2112
2112 2112 2112
2112 2112 2112
2112 2112 2112
0 0 0
257 257 257
672 672 672
1312 1312 1312
2059 2059 2059
2112 2112 2112
2112 2112 2112
2112 2112 2112
2112 2112 2112
0 0 0
0 0 0
0 0 0
0 0 0
0 0 0
0 0 0
0 0 0
0 0 0
0 0 0
0 0 0
248 248 248
257 257 257
257 257 257
257 257 257
257 257 257
257 257 257
257 257 257
257 257 257
0 0 0
257 257 257
649 649 649
672 672 672
672 672 672
672 672 672
672 672 672
672 672 672
672 672 672
0 0 0
257 257 257
672 672 672
1268 1268 1268
1312 1312 1312
1312 1312 1312
1312 1312 1312
1312 1312 1312
1312 1312 1312
0 0 0
257 257 257
672 672 672
1312 1312 1312
2059 2059 2059
2112 2112 2112
2112 2112 2112
2112 2112 2112
2112 2112 2112
0 0 0
257 257 257
672 672 672
1312 1312 1312
2112 2112 2112
2815 2815 2815
2830 2830 2830
2830 2830 2830
2830 2830 2830
0 0 0
257 257 257
672 672 672
1312 1312 1312
2112 2112 2112
2830 2830 2830
2870 2870 2870
2870 2870 2870
2870 2870 2870
0 0 0
257 257 257
672 672 672
1312 1312 1312
2112 2112 2112
2830 2830 2830
2870 2870 2870
2870 2870 2870
2870 2870 2870
0 0 0
257 257 257
672 672 672
1312 1312 1312
2112 2112 2112
2830 2830 2830
2870 2870 2870
2870 2870 2870
2870 2870 2870
0 0 0
0 0 0
0 0 0
0 0 0
0 0 0
0 0 0
0 0 0
0 0 0
0 0 0
0 0 0
248 248 248
257 257 257
257 257 257
257 257 257
257 257 257
257 257 257
257 257 257
257 257 257
0 0 0
257 257 257
649 649 649
672 672 672
672 672 672
672 672 672
672 672 672
672 672 672
672 672 672
0 0 0
257 257 257
672 672 672
1268 1268 1268
1312 1312 1312
1312 1312 1312
1312 1312 1312
1312 1312 1312
1312 1312 1312
0 0 0
257 257 257
672 672 672
1312 1312 1312
2059 2059 2059
2112 2112 2112
2112 2112 2112
2112 2112 2112
2112 2112 2112
0 0 0
257 257 257
672 672 672
1312 1312 1312
2112 2112 2112
2830 2830 2830
2870 2870 2870
2870 2870 2870
2870 2870 2870
0 0 0
257 257 257
672 672 672
1312 1312 1312
2112 2112 2112
2870 2870 2870
3422 3422 3422
3427 3427 3427
3427 3427 3427
0 0 0
257 257 257
672 672 672
1312 1312 1312
2112 2112 2112
2870 2870 2870
3427 3427 3427
3449 3449 3449
3449 3449 3449
0 0 0
257 257 257
672 672 672
1312 1312 1312
2112 2112 2112
2870 2870 2870
3427 3427 3427
3449 3449 3449
3449 3449 3449
0 0 0
0 0 0
0 0 0
0 0 0
0 0 0
0 0 0
0 0 0
0 0 0
0 0 0
0 0 0
248 248 248
257 257 257
257 257 257
257 257 257
257 257 257
257 257 257
257 257 257
257 257 257
0 0 0
257 257 257
649 649 649
672 672 672
672 672 672
672 672 672
672 672 672
672 672 672
672 672 672
0 0 0
257 257 257
672 672 672
1268 1268 1268
1312 1312 1312
1312 1312 1312
1312 1312 1312
1312 1312 1312
1312 1312 1312
0 0 0
257 257 257
672 672 672
1312 1312 1312
2059 2059 2059
2112 2112 2112
2112 2112 2112
2112 2112 2112
2112 2112 2112
0 0 0
257 257 257
672 672 672
1312 1312 1312
2112 2112 2112
2830 2830 2830
2870 2870 2870
2870 2870 2870
2870 2870 2870
0 0 0
257 257 257
672 672 672
1312 1312 1312
2112 2112 2112
2870 2870 2870
3427 3427 3427
3449 3449 3449
3449 3449 3449
0 0 0
257 257 257
672 672 672
1312 1312 1312
2112 2112 2112
2870 2870 2870
3449 3449 3449
3827 3827 3827
3828 3828 3828
0 0 0
257 257 257
672 672 672
1312 1312 1312
2112 2112 2112
2870 2870 2870
3449 3449 3449
3828 3828 3828
3836 3836 3836
0 0 0
0 0 0
0 0 0
0 0 0
0 0 0
0 0 0
0 0 0
0 0 0
0 0 0
0 0 0
248 248 248
257 257 257
257 257 257
257 257 257
257 257 257
257 257 257
257 257 257
257 257 257
0 0 0
257 257 257
649 649 649
672 672 672
672 672 672
672 672 672
672 672 672
672 672 672
672 672 672
0 0 0
257 257 257
672 672 672
1268 1268 1268
1312 1312 1312
1312 1312 1312
1312 1312 1312
1312 1312 1312
1312 1312 1312
0 0 0
257 257 257
672 672 672
1312 1312 1312
2059 2059 2059
2112 2112 2112
2112 2112 2112
2112 2112 2112
2112 2112 2112
0 0 0
257 257 257
672 672 672
1312 1312 1312
2112 2112 2112
2830 2830 2830
2870 2870 2870
2870 2870 2870
2870 2870 2870
0 0 0
257 257 257
672 672 672
1312 1312 1312
2112 2112 2112
2870 2870 2870
3427 3427 3427
3449 3449 3449
3449 3449 3449
0 0 0
257 257 257
672 672 672
1312 1312 1312
2112 2112 2112
2870 2870 2870
3449 3449 3449
3828 3828 3828
3836 3836 3836
0 0 0
257 257 257
672 672 672
1312 1312 1312
2112 2112 2112
2870 2870 2870
3449 3449 3449
3836 3836 3836
4095 4095 4095
