滤镜资源/Professional Luts Collection/Triune-Digital-Cinematic-LUTs/3D LUTs (3DL)/REDLOGFILM/BW/Noir 2 - REDlogFilm.3dl
# Created by Benjamin (IWLTBAP) : http://luts.iwltbap.com
# Copyright: (C) Copyright 2016 Triune Films and IWLTBAP
# Blockbuster LUTs Pack
0 64 128 192 256 320 384 448 512 576 640 704 768 832 896 960 1023
0 0 0
0 0 0
0 0 0
0 0 0
0 0 0
0 0 0
0 0 0
0 0 0
0 0 0
0 0 0
0 0 0
0 0 0
0 0 0
0 0 0
0 0 0
0 0 0
0 0 0
0 0 0
0 0 0
0 0 0
0 0 0
0 0 0
0 0 0
0 0 0
0 0 0
0 0 0
0 0 0
0 0 0
0 0 0
0 0 0
0 0 0
0 0 0
0 0 0
0 0 0
0 0 0
0 0 0
0 0 0
0 0 0
0 0 0
0 0 0
0 0 0
0 0 0
0 0 0
0 0 0
0 0 0
0 0 0
0 0 0
0 0 0
0 0 0
0 0 0
0 0 0
0 0 0
0 0 0
0 0 0
0 0 0
0 0 0
0 0 0
0 0 0
0 0 0
0 0 0
0 0 0
0 0 0
0 0 0
0 0 0
0 0 0
0 0 0
0 0 0
0 0 0
0 0 0
0 0 0
0 0 0
0 0 0
0 0 0
0 0 0
0 0 0
0 0 0
0 0 0
0 0 0
0 0 0
0 0 0
0 0 0
0 0 0
0 0 0
0 0 0
0 0 0
0 0 0
0 0 0
0 0 0
0 0 0
0 0 0
0 0 0
0 0 0
0 0 0
0 0 0
0 0 0
0 0 0
0 0 0
0 0 0
0 0 0
0 0 0
0 0 0
0 0 0
0 0 0
0 0 0
0 0 0
0 0 0
0 0 0
0 0 0
0 0 0
0 0 0
0 0 0
0 0 0
0 0 0
0 0 0
0 0 0
0 0 0
0 0 0
0 0 0
0 0 0
0 0 0
0 0 0
0 0 0
0 0 0
0 0 0
0 0 0
0 0 0
0 0 0
0 0 0
0 0 0
0 0 0
0 0 0
0 0 0
0 0 0
0 0 0
0 0 0
0 0 0
0 0 0
0 0 0
0 0 0
0 0 0
0 0 0
0 0 0
0 0 0
0 0 0
0 0 0
0 0 0
0 0 0
0 0 0
0 0 0
0 0 0
0 0 0
0 0 0
0 0 0
0 0 0
0 0 0
0 0 0
0 0 0
0 0 0
0 0 0
0 0 0
0 0 0
0 0 0
0 0 0
0 0 0
0 0 0
0 0 0
0 0 0
0 0 0
0 0 0
0 0 0
0 0 0
0 0 0
0 0 0
0 0 0
0 0 0
0 0 0
0 0 0
0 0 0
0 0 0
0 0 0
0 0 0
0 0 0
0 0 0
0 0 0
0 0 0
0 0 0
0 0 0
0 0 0
0 0 0
0 0 0
0 0 0
0 0 0
0 0 0
0 0 0
0 0 0
0 0 0
0 0 0
0 0 0
0 0 0
0 0 0
0 0 0
0 0 0
0 0 0
0 0 0
0 0 0
0 0 0
0 0 0
0 0 0
0 0 0
0 0 0
0 0 0
0 0 0
0 0 0
0 0 0
0 0 0
0 0 0
0 0 0
0 0 0
0 0 0
0 0 0
0 0 0
0 0 0
0 0 0
0 0 0
0 0 0
0 0 0
0 0 0
0 0 0
0 0 0
0 0 0
0 0 0
0 0 0
0 0 0
0 0 0
0 0 0
0 0 0
0 0 0
0 0 0
0 0 0
0 0 0
0 0 0
0 0 0
0 0 0
0 0 0
0 0 0
0 0 0
0 0 0
0 0 0
0 0 0
0 0 0
0 0 0
0 0 0
0 0 0
0 0 0
0 0 0
0 0 0
0 0 0
0 0 0
0 0 0
0 0 0
0 0 0
0 0 0
0 0 0
0 0 0
0 0 0
0 0 0
0 0 0
0 0 0
0 0 0
0 0 0
0 0 0
0 0 0
0 0 0
0 0 0
0 0 0
0 0 0
0 0 0
0 0 0
0 0 0
0 0 0
0 0 0
0 0 0
0 0 0
0 0 0
0 0 0
0 0 0
0 0 0
0 0 0
0 0 0
0 0 0
0 0 0
0 0 0
0 0 0
0 0 0
0 0 0
0 0 0
0 0 0
0 0 0
0 0 0
0 0 0
0 0 0
0 0 0
0 0 0
0 0 0
0 0 0
0 0 0
0 0 0
108 108 108
111 111 111
111 111 111
111 111 111
111 111 111
111 111 111
111 111 111
111 111 111
111 111 111
111 111 111
111 111 111
111 111 111
111 111 111
111 111 111
111 111 111
111 111 111
0 0 0
111 111 111
115 115 115
115 115 115
115 115 115
115 115 115
115 115 115
115 115 115
115 115 115
115 115 115
115 115 115
115 115 115
115 115 115
115 115 115
115 115 115
115 115 115
115 115 115
0 0 0
111 111 111
115 115 115
115 115 115
115 115 115
115 115 115
115 115 115
115 115 115
115 115 115
115 115 115
115 115 115
115 115 115
115 115 115
115 115 115
115 115 115
115 115 115
115 115 115
0 0 0
111 111 111
115 115 115
115 115 115
115 115 115
115 115 115
115 115 115
115 115 115
115 115 115
115 115 115
115 115 115
115 115 115
115 115 115
115 115 115
115 115 115
115 115 115
115 115 115
0 0 0
111 111 111
115 115 115
115 115 115
115 115 115
115 115 115
115 115 115
115 115 115
115 115 115
115 115 115
115 115 115
115 115 115
115 115 115
115 115 115
115 115 115
115 115 115
115 115 115
0 0 0
111 111 111
115 115 115
115 115 115
115 115 115
115 115 115
115 115 115
115 115 115
115 115 115
115 115 115
115 115 115
115 115 115
115 115 115
115 115 115
115 115 115
115 115 115
115 115 115
0 0 0
111 111 111
115 115 115
115 115 115
115 115 115
115 115 115
115 115 115
115 115 115
115 115 115
115 115 115
115 115 115
115 115 115
115 115 115
115 115 115
115 115 115
115 115 115
115 115 115
0 0 0
111 111 111
115 115 115
115 115 115
115 115 115
115 115 115
115 115 115
115 115 115
115 115 115
115 115 115
115 115 115
115 115 115
115 115 115
115 115 115
115 115 115
115 115 115
115 115 115
0 0 0
111 111 111
115 115 115
115 115 115
115 115 115
115 115 115
115 115 115
115 115 115
115 115 115
115 115 115
115 115 115
115 115 115
115 115 115
115 115 115
115 115 115
115 115 115
115 115 115
0 0 0
111 111 111
115 115 115
115 115 115
115 115 115
115 115 115
115 115 115
115 115 115
115 115 115
115 115 115
115 115 115
115 115 115
115 115 115
115 115 115
115 115 115
115 115 115
115 115 115
0 0 0
111 111 111
115 115 115
115 115 115
115 115 115
115 115 115
115 115 115
115 115 115
115 115 115
115 115 115
115 115 115
115 115 115
115 115 115
115 115 115
115 115 115
115 115 115
115 115 115
0 0 0
111 111 111
115 115 115
115 115 115
115 115 115
115 115 115
115 115 115
115 115 115
115 115 115
115 115 115
115 115 115
115 115 115
115 115 115
115 115 115
115 115 115
115 115 115
115 115 115
0 0 0
111 111 111
115 115 115
115 115 115
115 115 115
115 115 115
115 115 115
115 115 115
115 115 115
115 115 115
115 115 115
115 115 115
115 115 115
115 115 115
115 115 115
115 115 115
115 115 115
0 0 0
111 111 111
115 115 115
115 115 115
115 115 115
115 115 115
115 115 115
115 115 115
115 115 115
115 115 115
115 115 115
115 115 115
115 115 115
115 115 115
115 115 115
115 115 115
115 115 115
0 0 0
111 111 111
115 115 115
115 115 115
115 115 115
115 115 115
115 115 115
115 115 115
115 115 115
115 115 115
115 115 115
115 115 115
115 115 115
115 115 115
115 115 115
115 115 115
115 115 115
0 0 0
111 111 111
115 115 115
115 115 115
115 115 115
115 115 115
115 115 115
115 115 115
115 115 115
115 115 115
115 115 115
115 115 115
115 115 115
115 115 115
115 115 115
115 115 115
115 115 115
0 0 0
0 0 0
0 0 0
0 0 0
0 0 0
0 0 0
0 0 0
0 0 0
0 0 0
0 0 0
0 0 0
0 0 0
0 0 0
0 0 0
0 0 0
0 0 0
0 0 0
0 0 0
111 111 111
115 115 115
115 115 115
115 115 115
115 115 115
115 115 115
115 115 115
115 115 115
115 115 115
115 115 115
115 115 115
115 115 115
115 115 115
115 115 115
115 115 115
115 115 115
0 0 0
115 115 115
240 240 240
248 248 248
248 248 248
248 248 248
248 248 248
248 248 248
248 248 248
248 248 248
248 248 248
248 248 248
248 248 248
248 248 248
248 248 248
248 248 248
248 248 248
0 0 0
115 115 115
248 248 248
257 257 257
257 257 257
257 257 257
257 257 257
257 257 257
257 257 257
257 257 257
257 257 257
257 257 257
257 257 257
257 257 257
257 257 257
257 257 257
257 257 257
0 0 0
115 115 115
248 248 248
257 257 257
257 257 257
257 257 257
257 257 257
257 257 257
257 257 257
257 257 257
257 257 257
257 257 257
257 257 257
257 257 257
257 257 257
257 257 257
257 257 257
0 0 0
115 115 115
248 248 248
257 257 257
257 257 257
257 257 257
257 257 257
257 257 257
257 257 257
257 257 257
257 257 257
257 257 257
257 257 257
257 257 257
257 257 257
257 257 257
257 257 257
0 0 0
115 115 115
248 248 248
257 257 257
257 257 257
257 257 257
257 257 257
257 257 257
257 257 257
257 257 257
257 257 257
257 257 257
257 257 257
257 257 257
257 257 257
257 257 257
257 257 257
0 0 0
115 115 115
248 248 248
257 257 257
257 257 257
257 257 257
257 257 257
257 257 257
257 257 257
257 257 257
257 257 257
257 257 257
257 257 257
257 257 257
257 257 257
257 257 257
257 257 257
0 0 0
115 115 115
248 248 248
257 257 257
257 257 257
257 257 257
257 257 257
257 257 257
257 257 257
257 257 257
257 257 257
257 257 257
257 257 257
257 257 257
257 257 257
257 257 257
257 257 257
0 0 0
115 115 115
248 248 248
257 257 257
257 257 257
257 257 257
257 257 257
257 257 257
257 257 257
257 257 257
257 257 257
257 257 257
257 257 257
257 257 257
257 257 257
257 257 257
257 257 257
0 0 0
115 115 115
248 248 248
257 257 257
257 257 257
257 257 257
257 257 257
257 257 257
257 257 257
257 257 257
257 257 257
257 257 257
257 257 257
257 257 257
257 257 257
257 257 257
257 257 257
0 0 0
115 115 115
248 248 248
257 257 257
257 257 257
257 257 257
257 257 257
257 257 257
257 257 257
257 257 257
257 257 257
257 257 257
257 257 257
257 257 257
257 257 257
257 257 257
257 257 257
0 0 0
115 115 115
248 248 248
257 257 257
257 257 257
257 257 257
257 257 257
257 257 257
257 257 257
257 257 257
257 257 257
257 257 257
257 257 257
257 257 257
257 257 257
257 257 257
257 257 257
0 0 0
115 115 115
248 248 248
257 257 257
257 257 257
257 257 257
257 257 257
257 257 257
257 257 257
257 257 257
257 257 257
257 257 257
257 257 257
257 257 257
257 257 257
257 257 257
257 257 257
0 0 0
115 115 115
248 248 248
257 257 257
257 257 257
257 257 257
257 257 257
257 257 257
257 257 257
257 257 257
257 257 257
257 257 257
257 257 257
257 257 257
257 257 257
257 257 257
257 257 257
0 0 0
115 115 115
248 248 248
257 257 257
257 257 257
257 257 257
257 257 257
257 257 257
257 257 257
257 257 257
257 257 257
257 257 257
257 257 257
257 257 257
257 257 257
257 257 257
257 257 257
0 0 0
115 115 115
248 248 248
257 257 257
257 257 257
257 257 257
257 257 257
257 257 257
257 257 257
257 257 257
257 257 257
257 257 257
257 257 257
257 257 257
257 257 257
257 257 257
257 257 257
0 0 0
0 0 0
0 0 0
0 0 0
0 0 0
0 0 0
0 0 0
0 0 0
0 0 0
0 0 0
0 0 0
0 0 0
0 0 0
0 0 0
0 0 0
0 0 0
0 0 0
0 0 0
111 111 111
115 115 115
115 115 115
115 115 115
115 115 115
115 115 115
115 115 115
115 115 115
115 115 115
115 115 115
115 115 115
115 115 115
115 115 115
115 115 115
115 115 115
