滤镜资源/Lutify.me Free 3D LUTs Package/3D LUTs/Monitoring LUTs/RED DSMC2/Weapon and Epic-W IPP2/Hackmanite - IPP2.cube
# Website: https://lutify.me
# Contact: help@lutify.me
# Copyright: (c) Copyright Lutify.me 2016, G.T. Colord LTD
# Created by: Lutify.me
LUT_3D_SIZE 9
0.000000 0.000000 0.000000
0.126664 0.058687 0.046073
0.243703 0.107953 0.101948
0.392252 0.142626 0.128275
0.434759 0.152071 0.135713
0.434759 0.152071 0.135713
0.434759 0.152071 0.135713
0.434759 0.152071 0.135713
0.434759 0.152071 0.135713
0.093643 0.115795 0.091429
0.122721 0.115728 0.093845
0.232495 0.120648 0.105468
0.376587 0.138945 0.125410
0.434759 0.152071 0.135713
0.434759 0.152071 0.135713
0.434759 0.152071 0.135713
0.434759 0.152071 0.135713
0.434759 0.152071 0.135713
0.155325 0.246523 0.145825
0.152114 0.240860 0.142875
0.230454 0.235559 0.147063
0.366554 0.238979 0.163172
0.468622 0.238790 0.172469
0.463487 0.227691 0.167268
0.460642 0.221374 0.164368
0.459203 0.218117 0.162900
0.458467 0.216387 0.162134
0.239939 0.406051 0.223897
0.237442 0.400210 0.221615
0.258186 0.387621 0.218646
0.371679 0.385980 0.227539
0.510228 0.388062 0.237675
0.553440 0.380704 0.237330
0.548540 0.373227 0.234411
0.545877 0.369202 0.232813
0.544526 0.367154 0.231989
0.283835 0.539925 0.264570
0.283835 0.539925 0.264570
0.283835 0.539925 0.264570
0.377527 0.546020 0.272511
0.519568 0.549212 0.281460
0.670369 0.550677 0.287207
0.662014 0.538977 0.284629
0.657585 0.532707 0.283217
0.655478 0.529617 0.282490
0.283835 0.539925 0.264570
0.283835 0.539925 0.264570
0.283835 0.539925 0.264570
0.351516 0.557975 0.273110
0.489142 0.593389 0.288047
0.633358 0.620982 0.298395
0.725968 0.632731 0.302380
0.725968 0.632731 0.302380
0.725968 0.632731 0.302380
0.283835 0.539925 0.264570
0.283835 0.539925 0.264570
0.283835 0.539925 0.264570
0.336739 0.554067 0.271276
0.463069 0.587131 0.285571
0.591816 0.614345 0.295972
0.714387 0.631516 0.301970
0.725968 0.632731 0.302380
0.725968 0.632731 0.302380
0.283835 0.539925 0.264570
0.283835 0.539925 0.264570
0.283835 0.539925 0.264570
0.329985 0.552249 0.270423
0.449458 0.583808 0.284206
0.571558 0.610713 0.294643
0.680423 0.627599 0.300647
0.725968 0.632731 0.302380
0.725968 0.632731 0.302380
0.283835 0.539925 0.264570
0.283835 0.539925 0.264570
0.283835 0.539925 0.264570
0.326775 0.551383 0.270016
0.442555 0.582094 0.283502
0.561748 0.608841 0.293958
0.664862 0.625583 0.299966
0.725968 0.632731 0.302380
0.725968 0.632731 0.302380
0.089243 0.100982 0.174555
0.137295 0.107645 0.176478
0.249166 0.123448 0.175840
0.395193 0.153412 0.175993
0.436853 0.156886 0.157629
0.434995 0.152615 0.138227
0.434759 0.152071 0.135713
0.434759 0.152071 0.135713
0.434759 0.152071 0.135713
0.100278 0.123539 0.160534
0.125804 0.121785 0.156329
0.232683 0.122143 0.144115
0.376170 0.141099 0.136043
0.434759 0.152071 0.135713
0.434759 0.152071 0.135713
0.434759 0.152071 0.135713
0.434759 0.152071 0.135713
0.434759 0.152071 0.135713
0.150302 0.237618 0.141212
0.146967 0.231834 0.138267
0.225532 0.226430 0.142335
0.362042 0.230331 0.158902
0.465035 0.231072 0.168847
0.460201 0.220375 0.163918
0.457591 0.214259 0.161204
0.456169 0.210811 0.159696
0.455459 0.209061 0.158938
0.236032 0.396968 0.220325
0.233533 0.391239 0.218041
0.253578 0.378561 0.214873
0.366728 0.376920 0.223885
0.503448 0.378979 0.234080
0.547721 0.371991 0.233923
0.542906 0.364700 0.231000
0.540280 0.360734 0.229398
0.538929 0.358694 0.228574
0.283835 0.539925 0.264570
0.283835 0.539925 0.264570
0.283835 0.539925 0.264570
0.372560 0.532329 0.269317
0.512576 0.535368 0.278272
0.660493 0.537045 0.284189
0.653027 0.525971 0.281617
0.649054 0.520127 0.280201
0.647010 0.517159 0.279471
0.283835 0.539925 0.264570
0.283835 0.539925 0.264570
0.283835 0.539925 0.264570
0.350469 0.557701 0.272982
0.487380 0.592971 0.287884
0.630380 0.620532 0.298235
0.725968 0.632731 0.302380
0.725968 0.632731 0.302380
0.725968 0.632731 0.302380
0.283835 0.539925 0.264570
0.283835 0.539925 0.264570
0.283835 0.539925 0.264570
0.335909 0.553845 0.271172
0.461418 0.586732 0.285407
0.589317 0.613908 0.295812
0.709902 0.631045 0.301811
0.725968 0.632731 0.302380
0.725968 0.632731 0.302380
0.283835 0.539925 0.264570
0.283835 0.539925 0.264570
0.283835 0.539925 0.264570
0.329236 0.552047 0.270328
0.447840 0.583408 0.284042
0.569244 0.610275 0.294483
0.676724 0.627128 0.300488
0.725968 0.632731 0.302380
0.725968 0.632731 0.302380
0.283835 0.539925 0.264570
0.283835 0.539925 0.264570
0.283835 0.539925 0.264570
0.326025 0.551181 0.269922
0.440960 0.581693 0.283338
0.559513 0.608404 0.293798
0.661443 0.625112 0.299807
0.725968 0.632731 0.302380
0.725968 0.632731 0.302380
0.106081 0.125600 0.265093
0.148267 0.131992 0.266564
0.255882 0.151239 0.271082
0.403683 0.182963 0.281302
0.452658 0.190179 0.280015
0.451954 0.188833 0.275532
0.451551 0.188064 0.272959
0.451332 0.187646 0.271562
0.451220 0.187431 0.270843
0.106719 0.128624 0.256794
0.127072 0.126686 0.255513
0.238907 0.144230 0.259759
0.386608 0.176551 0.270245
0.451243 0.187476 0.270993
0.450561 0.186172 0.266634
0.450175 0.185425 0.264166
0.449964 0.185009 0.262815
0.449855 0.184795 0.262119
0.155210 0.237342 0.260996
0.151758 0.231281 0.257314
0.225271 0.224899 0.254281
0.360908 0.229314 0.258800
0.468795 0.231775 0.261499
0.463979 0.221537 0.255222
0.461290 0.215524 0.251648
0.459820 0.212081 0.249644
0.459063 0.210309 0.248612
0.234877 0.388136 0.287789
0.232178 0.382108 0.284478
0.247943 0.367499 0.274458
0.358784 0.362688 0.268489
0.490333 0.361314 0.262616
0.536147 0.352513 0.251351
0.530200 0.343723 0.240776
0.527005 0.338967 0.234673
0.525361 0.336521 0.231515
0.284433 0.540534 0.277324
0.281552 0.530122 0.269943
0.273933 0.503899 0.255773
0.358121 0.495141 0.259800
0.492482 0.497786 0.268751
0.626382 0.499301 0.274708
0.628508 0.490350 0.272601
0.624788 0.485120 0.271179
0.622874 0.482443 0.270448
0.283835 0.539925 0.264570
0.283835 0.539925 0.264570
0.283835 0.539925 0.264570
0.347354 0.556886 0.272599
0.482153 0.591725 0.287400
0.621674 0.619233 0.297760
0.725968 0.632731 0.302380
0.725968 0.632731 0.302380
0.725968 0.632731 0.302380
0.283835 0.539925 0.264570
0.283835 0.539925 0.264570
0.283835 0.539925 0.264570
0.333452 0.553183 0.270861
0.456533 0.585543 0.284918
0.581982 0.612607 0.295336
0.697651 0.629642 0.301337
0.725968 0.632731 0.302380
0.725968 0.632731 0.302380
0.283835 0.539925 0.264570
0.283835 0.539925 0.264570
0.283835 0.539925 0.264570
0.327000 0.551444 0.270045
0.443034 0.582214 0.283551
0.562418 0.608972 0.294006
0.665887 0.625724 0.300014
0.725968 0.632731 0.302380
0.725968 0.632731 0.302380
0.283835 0.539925 0.264570
0.283835 0.539925 0.264570
0.283835 0.539925 0.264570
0.323742 0.550566 0.269633
0.436222 0.580495 0.282845
0.552964 0.607099 0.293321
0.651439 0.623708 0.299333
0.725968 0.632731 0.302380
0.725968 0.632731 0.302380
0.129808 0.170889 0.397882
0.166667 0.175706 0.398455
0.267129 0.192092 0.401822
0.416072 0.219014 0.411157
0.472713 0.225798 0.408540
0.471774 0.224322 0.402261
0.471226 0.223447 0.398637
0.470926 0.222963 0.396670
0.470773 0.222716 0.395668
0.127468 0.167019 0.385161
0.144448 0.168779 0.383968
0.251174 0.185565 0.387201
0.398188 0.212982 0.396333
0.470805 0.222767 0.395877
0.469876 0.221268 0.389802
0.469333 0.220392 0.386263
0.469038 0.219916 0.384344
0.468887 0.219672 0.383360
0.160187 0.235553 0.372218
0.157167 0.230286 0.368123
0.226053 0.225558 0.363704
0.360940 0.232218 0.366496
0.475931 0.236541 0.367743
0.470899 0.226504 0.359290
0.468013 0.220537 0.354425
0.466466 0.217222 0.351781
0.465685 0.215444 0.350423
0.234760 0.378862 0.383919
0.231946 0.372748 0.379396
0.242706 0.357763 0.368468
0.353812 0.354006 0.366927
0.485391 0.354494 0.368621
0.539918 0.348160 0.364534
0.534639 0.340457 0.358933
0.531844 0.336308 0.355877
0.530461 0.334198 0.354325
0.287275 0.534976 0.398686
0.284819 0.526106 0.394282
0.277472 0.500812 0.381233
0.355696 0.488587 0.376027
0.487753 0.489060 0.378300
0.617575 0.489194 0.379811
0.630288 0.480832 0.375475
0.626156 0.475248 0.372455
0.624062 0.472431 0.370912
0.299257 0.588989 0.388815
0.299004 0.588110 0.386642
0.298266 0.585588 0.380309
0.357293 0.601110 0.380133
0.489637 0.627791 0.387270
0.621789 0.628297 0.389220
0.732746 0.626281 0.389553
0.726428 0.617120 0.386620
0.723150 0.612412 0.385109
0.297709 0.583686 0.375572
0.297470 0.582870 0.373574
0.296760 0.580445 0.367671
0.342357 0.591641 0.366168
0.464183 0.625778 0.374451
0.593154 0.655699 0.381655
0.715905 0.675837 0.385891
0.767945 0.681289 0.386455
0.767578 0.680873 0.385804
0.296891 0.580891 0.368755
0.296657 0.580094 0.366819
0.295969 0.577742 0.361162
0.335257 0.586999 0.359133
0.449625 0.619027 0.367183
0.571523 0.648594 0.374654
0.679877 0.667863 0.379235
0.765200 0.678232 0.381443
0.764910 0.677911 0.380907
0.296481 0.579492 0.365368
0.296250 0.578703 0.363472
0.295575 0.576395 0.357923
0.331562 0.584734 0.355695
0.442263 0.615793 0.363643
0.561184 0.645133 0.371484
0.663592 0.663871 0.376018
0.750738 0.675233 0.378460
0.763581 0.676357 0.378327
0.140777 0.188560 0.462226
0.171966 0.192925 0.465475
0.271095 0.210202 0.479136
0.422039 0.237730 0.504269
0.486721 0.247041 0.513808
0.486721 0.247041 0.513808
0.486721 0.247041 0.513808
0.486721 0.247041 0.513808
0.486721 0.247041 0.513808
0.140777 0.188560 0.462226
0.151579 0.190021 0.463314
0.256942 0.207304 0.476796
0.405505 0.235086 0.501632
0.486721 0.247041 0.513808
0.486721 0.247041 0.513808
0.486721 0.247041 0.513808
0.486721 0.247041 0.513808
0.486721 0.247041 0.513808
0.166567 0.238356 0.481482
0.164411 0.234320 0.479743
0.229693 0.232374 0.483775
0.364103 0.241270 0.495542
0.485956 0.246597 0.497316
0.483624 0.242513 0.488088
0.483043 0.241647 0.483474
0.482725 0.241166 0.480965
0.482561 0.240918 0.479673
0.238212 0.377066 0.511409
0.235373 0.370958 0.504947
0.241477 0.355225 0.488741
0.352159 0.351256 0.485177
0.483353 0.351700 0.486048
0.544440 0.346080 0.480500
0.539084 0.338442 0.472796
0.536179 0.334346 0.468646
0.534689 0.332239 0.466538
0.289565 0.530341 0.524402
0.287063 0.521429 0.517768
0.279595 0.496091 0.498646
0.353638 0.482807 0.489091
0.484278 0.482773 0.489973
0.611952 0.482633 0.490486
0.633907 0.475101 0.484869
0.629688 0.469557 0.480625
0.627518 0.466703 0.478439
0.312468 0.640008 0.519512
0.312161 0.638710 0.515894
0.311249 0.634913 0.505298
0.360947 0.617003 0.494189
0.485163 0.614691 0.494228
0.614561 0.614608 0.495103
0.735953 0.613795 0.495184
0.729121 0.604872 0.490923
0.725780 0.600365 0.488743
0.310558 0.632053 0.497474
0.310256 0.630800 0.494187
0.309361 0.627094 0.484548
0.352482 0.638510 0.479367
0.474205 0.679493 0.487115
0.608791 0.718868 0.494215
0.744165 0.745264 0.498316
0.822845 0.744544 0.497798
0.817371 0.735703 0.495575
0.309527 0.627784 0.486336
0.309227 0.626541 0.483126
0.308341 0.622872 0.473792
0.344881 0.631966 0.467899
0.458869 0.669359 0.474760
0.585327 0.706661 0.481823
0.702215 0.731451 0.485920
0.812360 0.746824 0.488148
0.823032 0.747366 0.487340
0.308999 0.625597 0.480701
0.308702 0.624369 0.477549
0.307819 0.620781 0.468417
0.340829 0.628545 0.462149
0.451211 0.664178 0.468589
0.574023 0.700956 0.475649
0.683766 0.725172 0.479704
0.781588 0.739604 0.481908
0.820116 0.743713 0.482032
0.140777 0.188560 0.462226
0.168101 0.192363 0.465057
0.268187 0.209604 0.478648
0.418660 0.237195 0.503735
0.486721 0.247041 0.513808
0.486721 0.247041 0.513808
0.486721 0.247041 0.513808
0.486721 0.247041 0.513808
0.486721 0.247041 0.513808
0.140777 0.188560 0.462226
0.147100 0.189406 0.462856
0.254092 0.206730 0.476338
0.402242 0.234550 0.501098
0.486721 0.247041 0.513808
0.486721 0.247041 0.513808
0.486721 0.247041 0.513808
0.486721 0.247041 0.513808
0.486721 0.247041 0.513808
0.158822 0.223974 0.475385
0.156663 0.219946 0.473745
0.221708 0.218066 0.477590
0.356491 0.228430 0.494309
0.486721 0.247041 0.513808
0.486721 0.247041 0.513808
0.486721 0.247041 0.513808
0.486721 0.247041 0.513808
0.486721 0.247041 0.513808
0.233806 0.364795 0.548933
0.231335 0.359420 0.545762
0.235462 0.345169 0.538538
0.347801 0.343685 0.550905
0.479359 0.346289 0.566744
0.545677 0.342725 0.570475
0.541166 0.336092 0.566137
0.538698 0.332500 0.563761
0.537428 0.330652 0.562538
0.290590 0.525632 0.645242
0.288406 0.517721 0.640493
0.281894 0.495037 0.627172
0.353271 0.481233 0.611290
0.483362 0.481076 0.611868
0.610495 0.480901 0.612161
0.639138 0.474001 0.603946
0.634856 0.468423 0.597259
0.632657 0.465606 0.593837
0.322575 0.689392 0.681478
0.322253 0.687594 0.673984
0.315998 0.647541 0.641783
0.360934 0.613882 0.616594
0.483877 0.610982 0.615280
0.612518 0.610769 0.615775
0.739135 0.610464 0.616010
0.736516 0.602022 0.609389
0.732698 0.597486 0.605878
0.320562 0.678400 0.639066
0.320241 0.676761 0.633050
0.319286 0.671878 0.616038
0.360911 0.685094 0.606056
0.483220 0.736327 0.616525
0.613850 0.742014 0.618437
0.741821 0.741457 0.618669
0.833259 0.737792 0.617253
0.827725 0.728996 0.613637
0.319464 0.672786 0.619031
0.319144 0.671152 0.613641
0.318192 0.666286 0.598001
0.353122 0.676246 0.587062
0.467329 0.722809 0.595868
0.598607 0.771917 0.605648
0.725596 0.806158 0.611483
0.851799 0.828164 0.614663
0.887800 0.831540 0.613977
0.318900 0.669907 0.609551
0.318581 0.668274 0.604321
0.317632 0.663420 0.589118
0.348631 0.671657 0.577768
0.459450 0.716119 0.585854
0.586541 0.763291 0.595429
0.704599 0.796493 0.600972
0.816066 0.817353 0.604038
0.883649 0.825815 0.604711
0.140777 0.188560 0.462226
0.165744 0.192020 0.464802
0.266488 0.209255 0.478362
0.416686 0.236883 0.503424
0.486721 0.247041 0.513808
0.486721 0.247041 0.513808
0.486721 0.247041 0.513808
0.486721 0.247041 0.513808
0.486721 0.247041 0.513808
0.140777 0.188560 0.462226
0.144415 0.189047 0.462588
0.252495 0.206409 0.476081
0.400346 0.234236 0.500785
0.486721 0.247041 0.513808
0.486721 0.247041 0.513808
0.486721 0.247041 0.513808
0.486721 0.247041 0.513808
0.486721 0.247041 0.513808
0.154351 0.215474 0.471990
0.152246 0.211348 0.470392
0.216962 0.209268 0.474107
0.353995 0.226256 0.493196
0.486721 0.247041 0.513808
0.486721 0.247041 0.513808
0.486721 0.247041 0.513808
0.486721 0.247041 0.513808
0.486721 0.247041 0.513808
0.228624 0.353531 0.542336
0.226155 0.348199 0.539215
0.228374 0.333984 0.531852
0.341476 0.332677 0.544035
0.471322 0.335403 0.559505
0.538622 0.332390 0.563688
0.534295 0.326018 0.559556
0.532034 0.322568 0.557388
0.530903 0.320792 0.556294
0.286011 0.509186 0.635547
0.283828 0.501555 0.631102
0.277293 0.480103 0.618121
0.348228 0.469282 0.623287
0.478046 0.471657 0.643885
0.603803 0.473242 0.658760
0.636606 0.467794 0.657841
0.632916 0.462949 0.654383
0.631017 0.460459 0.652603
0.323534 0.692491 0.733893
0.321340 0.676521 0.726731
0.314801 0.635440 0.706471
0.359818 0.607745 0.703342
0.483082 0.608810 0.730691
0.611883 0.609446 0.738760
0.737940 0.609089 0.739170
0.742136 0.601250 0.727973
0.738246 0.596753 0.721661
0.324697 0.701229 0.737821
0.324697 0.701229 0.737821
0.324697 0.701229 0.737821
0.366074 0.719606 0.736719
0.483496 0.739682 0.741470
0.613054 0.739308 0.742514
0.740166 0.738511 0.742660
0.841199 0.736192 0.740704
0.835567 0.727661 0.734196
0.324697 0.701229 0.737821
0.324697 0.701229 0.737821
0.324179 0.698341 0.722860
0.358150 0.708955 0.702959
0.472763 0.763626 0.717123
0.607296 0.825688 0.734466
0.741402 0.871430 0.744810
0.872064 0.872042 0.745093
0.918871 0.863271 0.741565
0.324697 0.701229 0.737821
0.324573 0.700535 0.734226
0.323610 0.695166 0.707199
0.353523 0.703491 0.687155
0.464716 0.755666 0.699643
0.594862 0.814653 0.715534
0.719026 0.857319 0.724926
0.841482 0.885758 0.730594
0.940569 0.898711 0.732465
0.140777 0.188560 0.462226
0.164454 0.191833 0.464662
0.265557 0.209064 0.478207
0.415606 0.236712 0.503253
0.486721 0.247041 0.513808
0.486721 0.247041 0.513808
0.486721 0.247041 0.513808
0.486721 0.247041 0.513808
0.486721 0.247041 0.513808
0.140777 0.188560 0.462226
0.142944 0.188850 0.462442
0.251611 0.206233 0.475940
0.399317 0.234065 0.500614
0.486721 0.247041 0.513808
0.486721 0.247041 0.513808
0.486721 0.247041 0.513808
0.486721 0.247041 0.513808
0.486721 0.247041 0.513808
0.151929 0.210710 0.470156
0.149817 0.206470 0.468581
0.214287 0.204345 0.472225
0.353010 0.226082 0.493032
0.486721 0.247041 0.513808
0.486721 0.247041 0.513808
0.486721 0.247041 0.513808
0.486721 0.247041 0.513808
0.486721 0.247041 0.513808
0.225788 0.347408 0.538752
0.223274 0.342148 0.535640
0.224454 0.327965 0.528390
0.338060 0.326714 0.540330
0.467064 0.329605 0.555791
0.534905 0.326922 0.560136
0.530794 0.320621 0.556188
0.528668 0.317286 0.554133
0.527606 0.315621 0.553106
0.283505 0.500428 0.630442
0.281315 0.493132 0.625998
0.274773 0.472116 0.613412
0.344788 0.461457 0.618224
0.473485 0.463748 0.638285
0.596788 0.465277 0.652933
0.630834 0.460221 0.652432
0.627144 0.455435 0.648974
0.625255 0.452980 0.647197
0.321014 0.674262 0.725722
0.318821 0.659625 0.718919
0.312285 0.621482 0.699408
0.356577 0.595097 0.696044
0.478439 0.596031 0.722256
0.605580 0.598508 0.745209
0.728423 0.599793 0.759440
0.736730 0.593268 0.755561
0.733408 0.589303 0.752588
0.324697 0.701229 0.737821
0.324697 0.701229 0.737821
0.324697 0.701229 0.737821
0.366207 0.723681 0.758774
0.481186 0.728191 0.793789
0.611060 0.732913 0.827417
0.738110 0.734762 0.847910
0.845621 0.734775 0.858769
0.840187 0.726945 0.852409
0.324697 0.701229 0.737821
0.324697 0.701229 0.737821
0.324697 0.701229 0.737821
0.359327 0.719934 0.755360
0.475278 0.787357 0.817383
0.612233 0.862271 0.868179
0.741217 0.869945 0.872146
0.870286 0.869219 0.871768
0.928011 0.861707 0.866206
0.324697 0.701229 0.737821
0.324697 0.701229 0.737821
0.324697 0.701229 0.737821
0.355283 0.717731 0.753352
0.467710 0.781607 0.806719
0.599600 0.848651 0.833331
0.727321 0.900313 0.849667
0.856007 0.941636 0.860796
0.979771 0.963916 0.864857
0.140777 0.188560 0.462226
0.163790 0.191736 0.464590
0.265079 0.208966 0.478128
0.415050 0.236624 0.503166
0.486721 0.247041 0.513808
0.486721 0.247041 0.513808
0.486721 0.247041 0.513808
0.486721 0.247041 0.513808
0.486721 0.247041 0.513808
0.140777 0.188560 0.462226
0.142189 0.188749 0.462366
0.251135 0.206143 0.475868
0.398789 0.233976 0.500526
0.486721 0.247041 0.513808
0.486721 0.247041 0.513808
0.486721 0.247041 0.513808
0.486721 0.247041 0.513808
0.486721 0.247041 0.513808
0.150678 0.208198 0.469223
0.148577 0.203980 0.467657
0.212912 0.201813 0.471258
0.352504 0.225992 0.492948
0.486721 0.247041 0.513808
0.486721 0.247041 0.513808
0.486721 0.247041 0.513808
0.486721 0.247041 0.513808
0.486721 0.247041 0.513808
0.224302 0.344297 0.536912
0.221777 0.339076 0.533874
0.222453 0.324874 0.526612
0.336329 0.323683 0.538447
0.464908 0.326639 0.553910
0.533041 0.324147 0.558361
0.529072 0.317920 0.554523
0.527009 0.314685 0.552529
0.525947 0.313020 0.551502
0.282213 0.496088 0.627819
0.280020 0.488901 0.623406
0.273477 0.468061 0.610993
0.343036 0.457500 0.615681
0.471164 0.459759 0.635497
0.593271 0.461282 0.650003
0.627867 0.456373 0.649651
0.624211 0.451611 0.646198
0.622355 0.449176 0.644422
0.319719 0.665314 0.721707
0.317526 0.651431 0.714904
0.310993 0.614801 0.695851
0.354914 0.588817 0.692369
0.476056 0.589681 0.718026
0.601917 0.592143 0.740350
0.721832 0.593394 0.754435
0.731570 0.587087 0.750917
0.728653 0.583302 0.747943
0.324697 0.701229 0.737821
0.324697 0.701229 0.737821
0.324697 0.701229 0.737821
0.365419 0.719651 0.756943
0.478787 0.716589 0.787988
0.607351 0.721037 0.820429
0.731369 0.723171 0.840562
0.837424 0.722914 0.850434
0.832586 0.715943 0.845907
0.324697 0.701229 0.737821
0.324697 0.701229 0.737821
0.324697 0.701229 0.737821
0.358971 0.719740 0.755183
0.474624 0.786973 0.817018
0.610216 0.853563 0.882053
0.737408 0.857893 0.911312
0.864832 0.859799 0.931512
0.925969 0.855236 0.934897
0.324697 0.701229 0.737821
0.324697 0.701229 0.737821
0.324697 0.701229 0.737821
0.354926 0.717537 0.753175
0.467272 0.782610 0.812882
0.600456 0.859520 0.882243
0.730725 0.924019 0.940288
0.863913 0.974198 0.979721
0.999987 0.999989 0.999989
