滤镜资源/Lutify.me Free 3D LUTs Package/3D LUTs/Monitoring LUTs/RED DSMC2/Weapon and Epic-W IPP2/Hackmanite - IPP2.cube
# Website: https://lutify.me
# Contact: help@lutify.me
# Copyright: (c) Copyright Lutify.me 2016, G.T. Colord LTD
# Created by: Lutify.me
LUT_3D_SIZE 17
0.000000 0.000000 0.000000
0.000013 0.000002 0.000002
0.126664 0.058687 0.046073
0.174346 0.093475 0.088924
0.243703 0.107953 0.101948
0.318529 0.124657 0.115306
0.392252 0.142626 0.128275
0.434759 0.152071 0.135713
0.434759 0.152071 0.135713
0.434759 0.152071 0.135713
0.434759 0.152071 0.135713
0.434759 0.152071 0.135713
0.434759 0.152071 0.135713
0.434759 0.152071 0.135713
0.434759 0.152071 0.135713
0.434759 0.152071 0.135713
0.434759 0.152071 0.135713
0.000004 0.000009 0.000003
0.000011 0.000009 0.000004
0.126663 0.058686 0.046073
0.174345 0.093475 0.088924
0.243703 0.107953 0.101948
0.318528 0.124657 0.115306
0.392251 0.142626 0.128275
0.434759 0.152071 0.135713
0.434759 0.152071 0.135713
0.434759 0.152071 0.135713
0.434759 0.152071 0.135713
0.434759 0.152071 0.135713
0.434759 0.152071 0.135713
0.434759 0.152071 0.135713
0.434759 0.152071 0.135713
0.434759 0.152071 0.135713
0.434759 0.152071 0.135713
0.093643 0.115795 0.091429
0.093642 0.115795 0.091429
0.122721 0.115728 0.093845
0.169200 0.116784 0.098180
0.232495 0.120648 0.105468
0.305858 0.128558 0.115180
0.376587 0.138945 0.125410
0.434759 0.152071 0.135713
0.434759 0.152071 0.135713
0.434759 0.152071 0.135713
0.434759 0.152071 0.135713
0.434759 0.152071 0.135713
0.434759 0.152071 0.135713
0.434759 0.152071 0.135713
0.434759 0.152071 0.135713
0.434759 0.152071 0.135713
0.434759 0.152071 0.135713
0.117038 0.171137 0.112676
0.117038 0.171136 0.112676
0.117832 0.165672 0.110977
0.173213 0.166919 0.115069
0.227646 0.168176 0.119717
0.300131 0.174489 0.129258
0.370012 0.181102 0.139536
0.439113 0.187024 0.148813
0.444657 0.181175 0.147155
0.442483 0.175026 0.144679
0.440798 0.170204 0.142760
0.439530 0.166511 0.141298
0.438594 0.163779 0.140217
0.437908 0.161777 0.139425
0.437406 0.160267 0.138838
0.437034 0.159115 0.138399
0.436807 0.158412 0.138131
0.155325 0.246523 0.145825
0.155325 0.246523 0.145825
0.152114 0.240860 0.142875
0.183578 0.237652 0.143800
0.230454 0.235559 0.147063
0.297355 0.236700 0.154736
0.366554 0.238979 0.163172
0.434295 0.241092 0.170551
0.468622 0.238790 0.172469
0.465635 0.232370 0.169456
0.463487 0.227691 0.167268
0.461852 0.224113 0.165602
0.460642 0.221374 0.164368
0.459815 0.219502 0.163524
0.459203 0.218117 0.162900
0.458745 0.217060 0.162428
0.458467 0.216387 0.162134
0.201091 0.324890 0.187856
0.201091 0.324890 0.187855
0.198282 0.319681 0.185282
0.194544 0.312810 0.181710
0.244241 0.311327 0.185234
0.299623 0.310297 0.189991
0.368801 0.311664 0.197085
0.436930 0.312769 0.203260
0.505166 0.313658 0.208518
0.506933 0.307704 0.206041
0.503812 0.302553 0.203596
0.501436 0.298635 0.201733
0.499714 0.295734 0.200354
0.498446 0.293598 0.199338
0.497524 0.292021 0.198589
0.496846 0.290838 0.198027
0.496431 0.290115 0.197683
0.239939 0.406051 0.223897
0.239939 0.406050 0.223897
0.237442 0.400210 0.221615
0.234141 0.392631 0.218596
0.258186 0.387621 0.218646
0.304837 0.385037 0.221675
0.371679 0.385980 0.227539
0.440883 0.387172 0.233047
0.510228 0.388062 0.237675
0.557139 0.386419 0.239531
0.553440 0.380704 0.237330
0.550623 0.376371 0.235653
0.548540 0.373227 0.234411
0.547002 0.370906 0.233494
0.545877 0.369202 0.232813
0.545038 0.367931 0.232301
0.544526 0.367154 0.231989
0.270767 0.493289 0.252936
0.270767 0.493288 0.252936
0.268556 0.486093 0.250930
0.265635 0.476767 0.248149
0.263518 0.465681 0.244837
0.313526 0.463298 0.248108
0.374384 0.463081 0.252651
0.444637 0.464505 0.257637
0.515211 0.465560 0.261767
0.588215 0.466359 0.265097
0.608921 0.462119 0.264719
0.605349 0.457025 0.263229
0.602803 0.453303 0.262126
0.600921 0.450553 0.261311
0.599544 0.448529 0.260706
0.598511 0.447011 0.260252
0.597880 0.446084 0.259975
0.283835 0.539925 0.264570
0.283835 0.539925 0.264570
0.283835 0.539925 0.264570
0.283835 0.539925 0.264570
0.283835 0.539925 0.264570
0.324855 0.548593 0.269311
0.377527 0.546020 0.272511
0.447805 0.547813 0.277332
0.519568 0.549212 0.281460
0.594225 0.550253 0.284773
0.670369 0.550677 0.287207
0.665527 0.543916 0.285725
0.662014 0.538977 0.284629
0.659470 0.535376 0.283818
0.657585 0.532707 0.283217
0.656253 0.530770 0.282766
0.655478 0.529617 0.282490
0.283835 0.539925 0.264570
0.283835 0.539925 0.264570
0.283835 0.539925 0.264570
0.283835 0.539925 0.264570
0.283835 0.539925 0.264570
0.313358 0.547764 0.268318
0.364474 0.561440 0.274692
0.435405 0.580283 0.282758
0.510055 0.598164 0.289904
0.587449 0.613577 0.295691
0.670533 0.626328 0.300218
0.725968 0.632731 0.302380
0.725968 0.632731 0.302380
0.725452 0.631929 0.302253
0.723030 0.628165 0.301653
0.721212 0.625340 0.301202
0.720102 0.623615 0.300927
0.283835 0.539925 0.264570
0.283835 0.539925 0.264570
0.283835 0.539925 0.264570
0.283835 0.539925 0.264570
0.283835 0.539925 0.264570
0.301089 0.544497 0.266761
0.351516 0.557975 0.273110
0.417840 0.575672 0.280855
0.489142 0.593389 0.288047
0.560369 0.608571 0.293860
0.633358 0.620982 0.298395
0.710656 0.631124 0.301838
0.725968 0.632731 0.302380
0.725968 0.632731 0.302380
0.725968 0.632731 0.302380
0.725968 0.632731 0.302380
0.725968 0.632731 0.302380
0.283835 0.539925 0.264570
0.283835 0.539925 0.264570
0.283835 0.539925 0.264570
0.283835 0.539925 0.264570
0.283835 0.539925 0.264570
0.290502 0.541690 0.265416
0.342663 0.555648 0.272018
0.404805 0.572279 0.279411
0.473945 0.589736 0.286626
0.541491 0.604757 0.292460
0.608677 0.617163 0.297003
0.675842 0.627014 0.300450
0.725968 0.632731 0.302380
0.725968 0.632731 0.302380
0.725968 0.632731 0.302380
0.725968 0.632731 0.302380
0.725968 0.632731 0.302380
0.283835 0.539925 0.264570
0.283835 0.539925 0.264570
0.283835 0.539925 0.264570
0.283835 0.539925 0.264570
0.283835 0.539925 0.264570
0.283835 0.539925 0.264570
0.336739 0.554067 0.271276
0.395625 0.569862 0.278359
0.463069 0.587131 0.285571
0.528242 0.602071 0.291421
0.591816 0.614345 0.295972
0.653187 0.623970 0.299421
0.714387 0.631516 0.301970
0.725968 0.632731 0.302380
0.725968 0.632731 0.302380
0.725968 0.632731 0.302380
0.725968 0.632731 0.302380
0.283835 0.539925 0.264570
0.283835 0.539925 0.264570
0.283835 0.539925 0.264570
0.283835 0.539925 0.264570
0.283835 0.539925 0.264570
0.283835 0.539925 0.264570
0.332797 0.553007 0.270778
0.389007 0.568103 0.277593
0.455232 0.585225 0.284788
0.518931 0.600090 0.290653
0.580058 0.612260 0.295209
0.638370 0.621742 0.298662
0.694394 0.629268 0.301211
0.725968 0.632731 0.302380
0.725968 0.632731 0.302380
0.725968 0.632731 0.302380
0.725968 0.632731 0.302380
0.283835 0.539925 0.264570
0.283835 0.539925 0.264570
0.283835 0.539925 0.264570
0.283835 0.539925 0.264570
0.283835 0.539925 0.264570
0.283835 0.539925 0.264570
0.329985 0.552249 0.270423
0.384159 0.566812 0.277031
0.449458 0.583808 0.284206
0.512129 0.598620 0.290081
0.571558 0.610713 0.294643
0.627848 0.620154 0.298097
0.680423 0.627599 0.300647
0.725968 0.632731 0.302380
0.725968 0.632731 0.302380
0.725968 0.632731 0.302380
0.725968 0.632731 0.302380
0.283835 0.539925 0.264570
0.283835 0.539925 0.264570
0.283835 0.539925 0.264570
0.283835 0.539925 0.264570
0.283835 0.539925 0.264570
0.283835 0.539925 0.264570
0.327991 0.551711 0.270170
0.380591 0.565858 0.276616
0.445165 0.582743 0.283769
0.507128 0.597516 0.289652
0.565407 0.609550 0.294218
0.620089 0.618996 0.297673
0.670682 0.626347 0.300224
0.718267 0.631923 0.302108
0.725968 0.632731 0.302380
0.725968 0.632731 0.302380
0.725968 0.632731 0.302380
0.283835 0.539925 0.264570
0.283835 0.539925 0.264570
0.283835 0.539925 0.264570
0.283835 0.539925 0.264570
0.283835 0.539925 0.264570
0.283835 0.539925 0.264570
0.326775 0.551383 0.270016
0.378471 0.565288 0.276367
0.442555 0.582094 0.283502
0.504085 0.596840 0.289389
0.561748 0.608841 0.293958
0.615673 0.618289 0.297415
0.664862 0.625583 0.299966
0.710993 0.631159 0.301850
0.725968 0.632731 0.302380
0.725968 0.632731 0.302380
0.725968 0.632731 0.302380
0.000004 0.000006 0.000028
0.000016 0.000008 0.000027
0.126664 0.058687 0.046073
0.174346 0.093475 0.088924
0.243703 0.107953 0.101948
0.318529 0.124657 0.115306
0.392252 0.142626 0.128275
0.434759 0.152071 0.135713
0.434759 0.152071 0.135713
0.434759 0.152071 0.135713
0.434759 0.152071 0.135713
0.434759 0.152071 0.135713
0.434759 0.152071 0.135713
0.434759 0.152071 0.135713
0.434759 0.152071 0.135713
0.434759 0.152071 0.135713
0.434759 0.152071 0.135713
0.000005 0.000011 0.000021
0.000012 0.000011 0.000019
0.126663 0.058686 0.046073
0.174345 0.093475 0.088924
0.243703 0.107953 0.101948
0.318528 0.124657 0.115306
0.392251 0.142626 0.128275
0.434759 0.152071 0.135713
0.434759 0.152071 0.135713
0.434759 0.152071 0.135713
0.434759 0.152071 0.135713
0.434759 0.152071 0.135713
0.434759 0.152071 0.135713
0.434759 0.152071 0.135713
0.434759 0.152071 0.135713
0.434759 0.152071 0.135713
0.434759 0.152071 0.135713
0.093642 0.115795 0.091429
0.093642 0.115795 0.091428
0.122721 0.115728 0.093845
0.169200 0.116783 0.098180
0.232495 0.120648 0.105468
0.305858 0.128558 0.115179
0.376587 0.138945 0.125410
0.434759 0.152071 0.135713
0.434759 0.152071 0.135713
0.434759 0.152071 0.135713
0.434759 0.152071 0.135713
0.434759 0.152071 0.135713
0.434759 0.152071 0.135713
0.434759 0.152071 0.135713
0.434759 0.152071 0.135713
0.434759 0.152071 0.135713
0.434759 0.152071 0.135713
0.117038 0.171136 0.112675
0.117038 0.171136 0.112675
0.117832 0.165671 0.110977
0.173213 0.166919 0.115069
0.227645 0.168176 0.119717
0.300131 0.174489 0.129258
0.370012 0.181101 0.139536
0.439113 0.187024 0.148813
0.444657 0.181175 0.147155
0.442483 0.175026 0.144679
0.440798 0.170204 0.142760
0.439530 0.166511 0.141298
0.438594 0.163778 0.140217
0.437908 0.161776 0.139424
0.437406 0.160266 0.138838
0.437034 0.159115 0.138399
0.436807 0.158412 0.138131
0.155325 0.246523 0.145825
0.155325 0.246523 0.145825
0.152114 0.240860 0.142875
0.183577 0.237651 0.143800
0.230454 0.235558 0.147063
0.297354 0.236700 0.154736
0.366553 0.238979 0.163172
0.434294 0.241092 0.170550
0.468621 0.238789 0.172469
0.465635 0.232370 0.169456
0.463486 0.227691 0.167268
0.461852 0.224113 0.165602
0.460642 0.221374 0.164368
0.459814 0.219501 0.163524
0.459202 0.218116 0.162900
0.458745 0.217059 0.162428
0.458467 0.216387 0.162134
0.201091 0.324890 0.187855
0.201091 0.324890 0.187855
0.198281 0.319681 0.185282
0.194544 0.312810 0.181710
0.244241 0.311327 0.185234
0.299623 0.310297 0.189991
0.368801 0.311663 0.197085
0.436929 0.312768 0.203260
0.505166 0.313658 0.208518
0.506932 0.307704 0.206041
0.503812 0.302553 0.203596
0.501436 0.298634 0.201733
0.499714 0.295733 0.200354
0.498446 0.293598 0.199338
0.497524 0.292021 0.198589
0.496845 0.290837 0.198027
0.496431 0.290115 0.197683
0.239939 0.406050 0.223897
0.239939 0.406050 0.223897
0.237442 0.400210 0.221615
0.234141 0.392630 0.218596
0.258186 0.387620 0.218646
0.304837 0.385037 0.221675
0.371678 0.385980 0.227539
0.440883 0.387172 0.233047
0.510228 0.388062 0.237675
0.557139 0.386418 0.239531
0.553440 0.380704 0.237330
0.550623 0.376371 0.235653
0.548540 0.373227 0.234411
0.547002 0.370905 0.233494
0.545877 0.369202 0.232813
0.545038 0.367930 0.232301
0.544525 0.367154 0.231988
0.270767 0.493288 0.252936
0.270767 0.493288 0.252936
0.268556 0.486093 0.250930
0.265635 0.476767 0.248149
0.263518 0.465680 0.244837
0.313526 0.463297 0.248108
0.374384 0.463080 0.252650
0.444636 0.464504 0.257637
0.515210 0.465560 0.261766
0.588214 0.466358 0.265096
0.608921 0.462118 0.264719
0.605349 0.457025 0.263229
0.602803 0.453303 0.262126
0.600921 0.450552 0.261311
0.599544 0.448529 0.260706
0.598511 0.447010 0.260252
0.597880 0.446084 0.259975
0.283835 0.539925 0.264570
0.283835 0.539925 0.264570
0.283835 0.539925 0.264570
0.283835 0.539925 0.264570
0.283835 0.539925 0.264570
0.324855 0.548593 0.269311
0.377527 0.546020 0.272511
0.447804 0.547812 0.277332
0.519568 0.549212 0.281460
0.594225 0.550252 0.284773
0.670369 0.550677 0.287207
0.665527 0.543915 0.285725
0.662014 0.538976 0.284629
0.659470 0.535376 0.283818
0.657584 0.532707 0.283217
0.656253 0.530770 0.282766
0.655478 0.529617 0.282490
0.283835 0.539925 0.264570
0.283835 0.539925 0.264570
0.283835 0.539925 0.264570
0.283835 0.539925 0.264570
0.283835 0.539925 0.264570
0.313358 0.547764 0.268318
0.364474 0.561440 0.274692
0.435405 0.580283 0.282758
0.510055 0.598164 0.289904
0.587449 0.613577 0.295691
0.670533 0.626328 0.300218
0.725968 0.632731 0.302380
0.725968 0.632731 0.302380
0.725452 0.631929 0.302253
0.723029 0.628164 0.301653
0.721212 0.625339 0.301202
0.720102 0.623615 0.300927
0.283835 0.539925 0.264570
0.283835 0.539925 0.264570
0.283835 0.539925 0.264570
0.283835 0.539925 0.264570
0.283835 0.539925 0.264570
0.301089 0.544497 0.266761
0.351516 0.557975 0.273110
0.417840 0.575672 0.280855
0.489142 0.593389 0.288047
0.560369 0.608571 0.293860
0.633357 0.620982 0.298395
0.710656 0.631124 0.301838
0.725968 0.632731 0.302380
0.725968 0.632731 0.302380
0.725968 0.632731 0.302380
0.725968 0.632731 0.302380
0.725968 0.632731 0.302380
0.283835 0.539925 0.264570
0.283835 0.539925 0.264570
0.283835 0.539925 0.264570
0.283835 0.539925 0.264570
0.283835 0.539925 0.264570
0.290502 0.541690 0.265416
0.342663 0.555648 0.272018
0.404805 0.572279 0.279411
0.473945 0.589736 0.286626
0.541491 0.604757 0.292460
0.608677 0.617163 0.297003
0.675841 0.627014 0.300450
0.725968 0.632731 0.302380
0.725968 0.632731 0.302380
0.725968 0.632731 0.302380
0.725968 0.632731 0.302380
0.725968 0.632731 0.302380
0.283835 0.539925 0.264570
0.283835 0.539925 0.264570
0.283835 0.539925 0.264570
0.283835 0.539925 0.264570
0.283835 0.539925 0.264570
0.283835 0.539925 0.264570
0.336739 0.554067 0.271276
0.395625 0.569862 0.278359
0.463069 0.587131 0.285571
0.528242 0.602071 0.291421
0.591816 0.614345 0.295972
0.653187 0.623970 0.299421
0.714387 0.631516 0.301970
0.725968 0.632731 0.302380
0.725968 0.632731 0.302380
0.725968 0.632731 0.302380
0.725968 0.632731 0.302380
0.283835 0.539925 0.264570
0.283835 0.539925 0.264570
0.283835 0.539925 0.264570
0.283835 0.539925 0.264570
0.283835 0.539925 0.264570
0.283835 0.539925 0.264570
0.332797 0.553007 0.270778
0.389007 0.568103 0.277593
0.455232 0.585225 0.284788
0.518931 0.600090 0.290653
0.580058 0.612260 0.295209
0.638370 0.621742 0.298662
0.694394 0.629268 0.301211
0.725968 0.632731 0.302380
0.725968 0.632731 0.302380
0.725968 0.632731 0.302380
0.725968 0.632731 0.302380
0.283835 0.539925 0.264570
0.283835 0.539925 0.264570
0.283835 0.539925 0.264570
0.283835 0.539925 0.264570
0.283835 0.539925 0.264570
0.283835 0.539925 0.264570
0.329985 0.552249 0.270423
0.384159 0.566812 0.277031
0.449458 0.583808 0.284206
0.512129 0.598620 0.290081
0.571558 0.610713 0.294643
0.627848 0.620154 0.298097
0.680423 0.627599 0.300647
0.725968 0.632731 0.302380
0.725968 0.632731 0.302380
0.725968 0.632731 0.302380
0.725968 0.632731 0.302380
0.283835 0.539925 0.264570
0.283835 0.539925 0.264570
0.283835 0.539925 0.264570
0.283835 0.539925 0.264570
0.283835 0.539925 0.264570
0.283835 0.539925 0.264570
0.327991 0.551711 0.270170
0.380591 0.565858 0.276616
0.445165 0.582743 0.283769
0.507128 0.597516 0.289652
0.565407 0.609550 0.294218
0.620089 0.618996 0.297673
0.670682 0.626347 0.300224
0.718267 0.631923 0.302108
0.725968 0.632731 0.302380
0.725968 0.632731 0.302380
0.725968 0.632731 0.302380
0.283835 0.539925 0.264570
0.283835 0.539925 0.264570
0.283835 0.539925 0.264570
0.283835 0.539925 0.264570
0.283835 0.539925 0.264570
0.283835 0.539925 0.264570
0.326775 0.551383 0.270016
0.378471 0.565288 0.276367
0.442555 0.582094 0.283502
0.504085 0.596840 0.289389
0.561748 0.608841 0.293958
0.615673 0.618289 0.297415
0.664862 0.625583 0.299966
0.710993 0.631159 0.301850
0.725968 0.632731 0.302380
0.725968 0.632731 0.302380
0.725968 0.632731 0.302380
0.089243 0.100982 0.174555
0.089243 0.100982 0.174555
0.137295 0.107645 0.176478
0.183168 0.113170 0.175476
0.249166 0.123448 0.175840
0.322443 0.138948 0.177189
0.395193 0.153412 0.175993
0.438113 0.159783 0.170127
0.436853 0.156886 0.157629
0.435814 0.154497 0.146897
0.434995 0.152615 0.138227
0.434759 0.152071 0.135713
0.434759 0.152071 0.135713
0.434759 0.152071 0.135713
0.434759 0.152071 0.135713
0.434759 0.152071 0.135713
0.434759 0.152071 0.135713
0.089243 0.100982 0.174555
0.089243 0.100982 0.174555
0.137294 0.107645 0.176477
0.183167 0.113170 0.175475
0.249165 0.123448 0.175839
0.322442 0.138947 0.177188
0.395192 0.153412 0.175992
0.438113 0.159782 0.170126
0.436853 0.156885 0.157628
0.435814 0.154496 0.146896
0.434995 0.152615 0.138226
0.434759 0.152071 0.135713
0.434759 0.152071 0.135713
0.434759 0.152071 0.135713
0.434759 0.152071 0.135713
0.434759 0.152071 0.135713
0.434759 0.152071 0.135713
0.100278 0.123539 0.160534
0.100278 0.123538 0.160534
0.125804 0.121785 0.156329
0.171588 0.120918 0.150152
0.232683 0.122143 0.144115
0.304792 0.126823 0.138772
0.376170 0.141099 0.136043
0.434759 0.152071 0.135713
0.434759 0.152071 0.135713
0.434759 0.152071 0.135713
0.434759 0.152071 0.135713
0.434759 0.152071 0.135713
0.434759 0.152071 0.135713
0.434759 0.152071 0.135713
0.434759 0.152071 0.135713
0.434759 0.152071 0.135713
0.434759 0.152071 0.135713
0.116278 0.167339 0.133796
0.116278 0.167339 0.133796
0.114345 0.159742 0.123472
0.169234 0.159344 0.117616
0.223535 0.159410 0.116548
0.296535 0.166094 0.125885
0.366357 0.173068 0.136186
0.435005 0.179306 0.145541
0.442015 0.173685 0.144146
0.439886 0.167550 0.141709
0.438229 0.162713 0.139795
0.436993 0.158988 0.138351
0.436089 0.156189 0.137283
0.435421 0.154120 0.136494
0.434925 0.152585 0.135909
0.434759 0.152071 0.135713
0.434759 0.152071 0.135713
0.150302 0.237618 0.141212
0.150302 0.237618 0.141212
0.146967 0.231834 0.138267
0.177308 0.228477 0.139019
0.225532 0.226430 0.142335
0.292866 0.227694 0.150227
0.362042 0.230331 0.158902
0.429386 0.232924 0.166574
0.465035 0.231072 0.168847
0.462311 0.225126 0.166070
0.460201 0.220375 0.163918
0.458695 0.216938 0.162375
0.457591 0.214259 0.161204
0.456775 0.212279 0.160338
0.456169 0.210811 0.159696
0.455721 0.209716 0.159219
0.455459 0.209061 0.158938
0.196696 0.316744 0.183780
0.196696 0.316743 0.183780
0.193847 0.311547 0.181034
0.190046 0.304692 0.177365
0.239587 0.303098 0.180816
0.295006 0.302014 0.185826
0.363930 0.303387 0.192980
0.431437 0.304524 0.199233
0.498542 0.305432 0.204508
0.502104 0.299736 0.202257
0.499037 0.294593 0.199811
0.496771 0.290707 0.197965
0.495121 0.287830 0.196598
0.493902 0.285700 0.195579
0.492997 0.284119 0.194817
0.492319 0.282933 0.194245
0.491904 0.282208 0.193896
0.236032 0.396968 0.220325
0.236032 0.396968 0.220325
0.233533 0.391239 0.218041
0.230227 0.383706 0.214969
0.253578 0.378561 0.214873
0.300350 0.375998 0.217947
0.366728 0.376920 0.223885
0.435268 0.378116 0.229435
0.503448 0.378979 0.234080
0.551415 0.377586 0.236124
0.547721 0.371991 0.233923
0.544946 0.367791 0.232245
0.542906 0.364700 0.231000
0.541398 0.362422 0.230081
0.540280 0.360734 0.229398
0.539441 0.359468 0.228886
0.538929 0.358694 0.228574
0.267308 0.482084 0.249747
0.267308 0.482084 0.249747
0.265097 0.475073 0.247632
0.262176 0.466010 0.244826
0.258786 0.455048 0.241309
0.309182 0.452788 0.244660
0.369388 0.452510 0.249265
0.438902 0.453921 0.254377
0.508293 0.454959 0.258563
0.579131 0.455712 0.261909
0.601801 0.451840 0.261692
0.598397 0.446844 0.260202
0.595888 0.443159 0.259099
0.594035 0.440485 0.258270
0.592660 0.438501 0.257655
0.591629 0.437013 0.257194
0.591001 0.436106 0.256912
0.283835 0.539925 0.264570
0.283835 0.539925 0.264570
0.283835 0.539925 0.264570
0.283835 0.539925 0.264570
0.283835 0.539925 0.264570
0.320657 0.534855 0.266177
0.372560 0.532329 0.269317
0.441972 0.533836 0.274139
0.512576 0.535368 0.278272
0.585017 0.536322 0.281598
0.660493 0.537045 0.284189
0.656113 0.530562 0.282716
0.653027 0.525971 0.281617
0.650746 0.522583 0.280804
0.649054 0.520127 0.280201
0.647785 0.518284 0.279748
0.647010 0.517159 0.279471
0.283835 0.539925 0.264570
0.283835 0.539925 0.264570
0.283835 0.539925 0.264570
0.283835 0.539925 0.264570
0.283835 0.539925 0.264570
0.312448 0.547518 0.268202
0.363272 0.561105 0.274546
0.433851 0.579881 0.282593
0.508180 0.597749 0.289743
0.584989 0.613141 0.295531
0.666891 0.625857 0.300059
0.721012 0.625029 0.301153
0.716594 0.618233 0.300058
0.713328 0.613484 0.299249
0.710906 0.609962 0.298649
0.709088 0.607319 0.298199
0.708025 0.605751 0.297924
0.283835 0.539925 0.264570
0.283835 0.539925 0.264570
0.283835 0.539925 0.264570
0.283835 0.539925 0.264570
0.283835 0.539925 0.264570
0.299894 0.544180 0.266609
0.350469 0.557701 0.272982
0.416317 0.575269 0.280689
0.487380 0.592971 0.287884
0.558134 0.608134 0.293700
0.630380 0.620532 0.298235
0.706451 0.630654 0.301679
0.725968 0.632731 0.302380
0.725968 0.632731 0.302380
0.725968 0.632731 0.302380
0.725968 0.632731 0.302380
0.725968 0.632731 0.302380
0.283835 0.539925 0.264570
0.283835 0.539925 0.264570
0.283835 0.539925 0.264570
0.283835 0.539925 0.264570
0.283835 0.539925 0.264570
0.289248 0.541358 0.265257
0.341728 0.555399 0.271901
0.403369 0.571903 0.279247
0.472235 0.589321 0.286463
0.539387 0.604334 0.292300
0.606026 0.616727 0.296843
0.672200 0.626543 0.300291
0.725968 0.632731 0.302380
0.725968 0.632731 0.302380
0.725968 0.632731 0.302380
0.725968 0.632731 0.302380
0.725968 0.632731 0.302380
0.283835 0.539925 0.264570
0.283835 0.539925 0.264570
0.283835 0.539925 0.264570
0.283835 0.539925 0.264570
0.283835 0.539925 0.264570
0.283835 0.539925 0.264570
0.335909 0.553845 0.271172
0.394216 0.569488 0.278196
0.461418 0.586732 0.285407
0.526276 0.601656 0.291261
0.589317 0.613908 0.295812
0.650046 0.623499 0.299262
0.709902 0.631045 0.301811
0.725968 0.632731 0.302380
0.725968 0.632731 0.302380
0.725968 0.632731 0.302380
0.725968 0.632731 0.302380
0.283835 0.539925 0.264570
0.283835 0.539925 0.264570
0.283835 0.539925 0.264570
0.283835 0.539925 0.264570
0.283835 0.539925 0.264570
0.283835 0.539925 0.264570
0.331974 0.552785 0.270674
0.387639 0.567739 0.277435
0.453603 0.584826 0.284624
0.517008 0.599675 0.290491
0.577642 0.611823 0.295050
0.635381 0.621289 0.298502
0.690448 0.628797 0.301052
0.725968 0.632731 0.302380
0.725968 0.632731 0.302380
0.725968 0.632731 0.302380
0.725968 0.632731 0.302380
0.283835 0.539925 0.264570
0.283835 0.539925 0.264570
0.283835 0.539925 0.264570
0.283835 0.539925 0.264570
0.283835 0.539925 0.264570
0.283835 0.539925 0.264570
0.329236 0.552047 0.270328
0.382796 0.566448 0.276872
0.447840 0.583408 0.284042
0.510241 0.598205 0.289920
0.569244 0.610275 0.294483
0.624928 0.619718 0.297938
0.676724 0.627128 0.300488
0.725708 0.632703 0.302371
0.725968 0.632731 0.302380
0.725968 0.632731 0.302380
0.725968 0.632731 0.302380
0.283835 0.539925 0.264570
0.283835 0.539925 0.264570
0.283835 0.539925 0.264570
0.283835 0.539925 0.264570
0.283835 0.539925 0.264570
0.283835 0.539925 0.264570
0.327242 0.551509 0.270075
0.379277 0.565506 0.276463
0.443553 0.582343 0.283604
0.505246 0.597099 0.289490
0.563139 0.609113 0.294058
0.617367 0.618560 0.297514
0.667040 0.625876 0.300065
0.713783 0.631452 0.301949
0.725968 0.632731 0.302380
0.725968 0.632731 0.302380
0.725968 0.632731 0.302380
0.283835 0.539925 0.264570
0.283835 0.539925 0.264570
0.283835 0.539925 0.264570
0.283835 0.539925 0.264570
0.283835 0.539925 0.264570
0.283835 0.539925 0.264570
0.326025 0.551181 0.269922
0.377176 0.564936 0.276214
0.440960 0.581693 0.283338
0.502230 0.596424 0.289227
0.559513 0.608404 0.293798
0.612950 0.617853 0.297255
0.661443 0.625112 0.299807
0.706759 0.630689 0.301691
0.725968 0.632731 0.302380
0.725968 0.632731 0.302380
0.725968 0.632731 0.302380
0.096656 0.111162 0.215248
0.096656 0.111162 0.215248
0.141679 0.117352 0.217754
0.187280 0.123608 0.219615
0.252366 0.136167 0.224385
0.326131 0.153668 0.231423
0.400195 0.169679 0.238234
0.446782 0.178358 0.241310
0.446465 0.177684 0.239005
0.446188 0.177097 0.236984
0.445968 0.176629 0.235363
0.445799 0.176272 0.234128
0.445675 0.176007 0.233213
0.445583 0.175812 0.232537
0.445514 0.175667 0.232034
0.445429 0.175486 0.231405
