滤镜资源/Lutify.me Free 3D LUTs Package/3D LUTs/Monitoring LUTs/RED DSMC2/Weapon and Epic-W IPP2/Hackmanite - IPP2.cube
# Website: https://lutify.me
# Contact: help@lutify.me
# Copyright: (c) Copyright Lutify.me 2016, G.T. Colord LTD
# Created by: Lutify.me
LUT_3D_SIZE 5
0.000000 0.000000 0.000000
0.243703 0.107953 0.101948
0.434759 0.152071 0.135713
0.434759 0.152071 0.135713
0.434759 0.152071 0.135713
0.155325 0.246523 0.145825
0.230454 0.235559 0.147063
0.468622 0.238790 0.172469
0.460642 0.221374 0.164368
0.458467 0.216387 0.162134
0.283835 0.539925 0.264570
0.283835 0.539925 0.264570
0.519568 0.549212 0.281460
0.662014 0.538977 0.284629
0.655478 0.529617 0.282490
0.283835 0.539925 0.264570
0.283835 0.539925 0.264570
0.463069 0.587131 0.285571
0.714387 0.631516 0.301970
0.725968 0.632731 0.302380
0.283835 0.539925 0.264570
0.283835 0.539925 0.264570
0.442555 0.582094 0.283502
0.664862 0.625583 0.299966
0.725968 0.632731 0.302380
0.106081 0.125600 0.265093
0.255882 0.151239 0.271082
0.452658 0.190179 0.280015
0.451551 0.188064 0.272959
0.451220 0.187431 0.270843
0.155210 0.237342 0.260996
0.225271 0.224899 0.254281
0.468795 0.231775 0.261499
0.461290 0.215524 0.251648
0.459063 0.210309 0.248612
0.284433 0.540534 0.277324
0.273933 0.503899 0.255773
0.492482 0.497786 0.268751
0.628508 0.490350 0.272601
0.622874 0.482443 0.270448
0.283835 0.539925 0.264570
0.283835 0.539925 0.264570
0.456533 0.585543 0.284918
0.697651 0.629642 0.301337
0.725968 0.632731 0.302380
0.283835 0.539925 0.264570
0.283835 0.539925 0.264570
0.436222 0.580495 0.282845
0.651439 0.623708 0.299333
0.725968 0.632731 0.302380
0.140777 0.188560 0.462226
0.271095 0.210202 0.479136
0.486721 0.247041 0.513808
0.486721 0.247041 0.513808
0.486721 0.247041 0.513808
0.166567 0.238356 0.481482
0.229693 0.232374 0.483775
0.485956 0.246597 0.497316
0.483043 0.241647 0.483474
0.482561 0.240918 0.479673
0.289565 0.530341 0.524402
0.279595 0.496091 0.498646
0.484278 0.482773 0.489973
0.633907 0.475101 0.484869
0.627518 0.466703 0.478439
0.310558 0.632053 0.497474
0.309361 0.627094 0.484548
0.474205 0.679493 0.487115
0.744165 0.745264 0.498316
0.817371 0.735703 0.495575
0.308999 0.625597 0.480701
0.307819 0.620781 0.468417
0.451211 0.664178 0.468589
0.683766 0.725172 0.479704
0.820116 0.743713 0.482032
0.140777 0.188560 0.462226
0.266488 0.209255 0.478362
0.486721 0.247041 0.513808
0.486721 0.247041 0.513808
0.486721 0.247041 0.513808
0.154351 0.215474 0.471990
0.216962 0.209268 0.474107
0.486721 0.247041 0.513808
0.486721 0.247041 0.513808
0.486721 0.247041 0.513808
0.286011 0.509186 0.635547
0.277293 0.480103 0.618121
0.478046 0.471657 0.643885
0.636606 0.467794 0.657841
0.631017 0.460459 0.652603
0.324697 0.701229 0.737821
0.324697 0.701229 0.737821
0.483496 0.739682 0.741470
0.740166 0.738511 0.742660
0.835567 0.727661 0.734196
0.324697 0.701229 0.737821
0.323610 0.695166 0.707199
0.464716 0.755666 0.699643
0.719026 0.857319 0.724926
0.940569 0.898711 0.732465
0.140777 0.188560 0.462226
0.265079 0.208966 0.478128
0.486721 0.247041 0.513808
0.486721 0.247041 0.513808
0.486721 0.247041 0.513808
0.150678 0.208198 0.469223
0.212912 0.201813 0.471258
0.486721 0.247041 0.513808
0.486721 0.247041 0.513808
0.486721 0.247041 0.513808
0.282213 0.496088 0.627819
0.273477 0.468061 0.610993
0.471164 0.459759 0.635497
0.627867 0.456373 0.649651
0.622355 0.449176 0.644422
0.324697 0.701229 0.737821
0.324697 0.701229 0.737821
0.478787 0.716589 0.787988
0.731369 0.723171 0.840562
0.832586 0.715943 0.845907
0.324697 0.701229 0.737821
0.324697 0.701229 0.737821
0.467272 0.782610 0.812882
0.730725 0.924019 0.940288
0.999987 0.999989 0.999989
