滤镜资源/Lutify.me Free 3D LUTs Package/3D LUTs/Monitoring LUTs/RED DSMC2/Weapon and Epic-W IPP2/Hilutite - IPP2.cube
# Website: https://lutify.me
# Contact: help@lutify.me
# Copyright: (c) Copyright Lutify.me 2016, G.T. Colord LTD
# Created by: Lutify.me
LUT_3D_SIZE 17
0.004056 0.007235 0.031983
0.004056 0.007235 0.031983
0.061996 0.011937 0.014899
0.160262 0.090749 0.077100
0.235397 0.106304 0.100309
0.300087 0.120475 0.112035
0.344408 0.131102 0.119888
0.362331 0.135494 0.122975
0.362331 0.135494 0.122975
0.362331 0.135494 0.122975
0.362331 0.135494 0.122975
0.362331 0.135494 0.122975
0.362331 0.135494 0.122975
0.362331 0.135494 0.122975
0.362331 0.135494 0.122975
0.362331 0.135494 0.122975
0.362331 0.135494 0.122975
0.004056 0.007235 0.031986
0.004056 0.007235 0.031984
0.061992 0.011936 0.014899
0.160262 0.090749 0.077100
0.235396 0.106304 0.100308
0.300087 0.120475 0.112035
0.344408 0.131102 0.119888
0.362331 0.135494 0.122975
0.362331 0.135494 0.122975
0.362331 0.135494 0.122975
0.362331 0.135494 0.122975
0.362331 0.135494 0.122975
0.362331 0.135494 0.122975
0.362331 0.135494 0.122975
0.362331 0.135494 0.122975
0.362331 0.135494 0.122975
0.362331 0.135494 0.122975
0.063980 0.097895 0.100904
0.063979 0.097895 0.100903
0.034314 0.061393 0.068583
0.126462 0.069531 0.053568
0.195244 0.099652 0.093713
0.281442 0.116235 0.108723
0.336805 0.129203 0.118554
0.362331 0.135494 0.122975
0.362331 0.135494 0.122975
0.362331 0.135494 0.122975
0.362331 0.135494 0.122975
0.362331 0.135494 0.122975
0.362331 0.135494 0.122975
0.362331 0.135494 0.122975
0.362331 0.135494 0.122975
0.362331 0.135494 0.122975
0.362331 0.135494 0.122975
0.121262 0.168212 0.158709
0.121262 0.168212 0.158708
0.118751 0.161346 0.152465
0.157665 0.146807 0.124962
0.205552 0.146353 0.111073
0.259876 0.153887 0.118169
0.304463 0.150206 0.121600
0.346859 0.149398 0.125666
0.353091 0.143563 0.124536
0.355617 0.138661 0.123275
0.357111 0.136903 0.122890
0.358250 0.135564 0.122607
0.359085 0.134702 0.122418
0.359654 0.134841 0.122516
0.360077 0.134944 0.122588
0.360393 0.135021 0.122643
0.360587 0.135068 0.122676
0.202240 0.250113 0.224479
0.202240 0.250112 0.224479
0.196603 0.244081 0.220174
0.209537 0.239702 0.217025
0.243827 0.224275 0.184322
0.291171 0.220221 0.146643
0.338924 0.232899 0.157595
0.374459 0.241595 0.165121
0.388531 0.240742 0.166139
0.384416 0.233642 0.162662
0.380813 0.227586 0.159640
0.378075 0.222935 0.157307
0.376074 0.219396 0.155579
0.374148 0.216290 0.154057
0.372727 0.213815 0.152920
0.371660 0.211958 0.152068
0.371012 0.210822 0.151547
0.265678 0.339613 0.272151
0.265678 0.339613 0.272151
0.262470 0.333224 0.269804
0.258019 0.324809 0.266534
0.282217 0.316482 0.266105
0.316490 0.301079 0.241423
0.369030 0.291251 0.188021
0.412287 0.301143 0.196215
0.443729 0.307801 0.201625
0.442152 0.302955 0.199396
0.437977 0.298319 0.197051
0.434818 0.294783 0.195246
0.432500 0.292165 0.193892
0.430756 0.290258 0.192902
0.429441 0.288868 0.192173
0.428458 0.287825 0.191624
0.427861 0.287188 0.191288
0.301073 0.426190 0.292113
0.301073 0.426190 0.292113
0.299098 0.420751 0.291462
0.296406 0.413371 0.290461
0.307732 0.408467 0.291070
0.340676 0.388741 0.286219
0.381852 0.373739 0.263519
0.424435 0.363499 0.234119
0.469116 0.368767 0.231613
0.492642 0.374750 0.240219
0.489523 0.369314 0.236400
0.487115 0.365199 0.233505
0.485344 0.362169 0.231355
0.484052 0.359915 0.229747
0.483096 0.358228 0.228539
0.482390 0.356964 0.227617
0.481960 0.356193 0.227054
0.323757 0.489116 0.298519
0.323757 0.489116 0.298519
0.322006 0.484925 0.297735
0.319795 0.479359 0.296906
0.317940 0.472641 0.296101
0.353234 0.463888 0.295866
0.393506 0.441571 0.288468
0.438251 0.433266 0.276340
0.480008 0.431059 0.268680
0.512353 0.430083 0.265931
0.524690 0.433894 0.278546
0.522944 0.430122 0.276150
0.521730 0.427360 0.274307
0.520853 0.425345 0.272941
0.520202 0.423850 0.271928
0.519698 0.422729 0.271169
0.519389 0.422044 0.270705
0.335111 0.514769 0.304732
0.335111 0.514769 0.304732
0.335111 0.514769 0.304732
0.335111 0.514769 0.304732
0.335111 0.514769 0.304732
0.363714 0.517078 0.306665
0.406931 0.500264 0.303591
0.446194 0.483433 0.299269
0.492496 0.485259 0.297886
0.532589 0.490616 0.304973
0.561136 0.494674 0.312518
0.558977 0.491072 0.310601
0.557324 0.488408 0.309182
0.556101 0.486439 0.308133
0.555170 0.484932 0.307320
0.554449 0.483743 0.306661
0.554009 0.483017 0.306259
0.335111 0.514769 0.304732
0.335111 0.514769 0.304732
0.335111 0.514769 0.304732
0.335111 0.514769 0.304732
0.335111 0.514769 0.304732
0.353904 0.519774 0.306640
0.398797 0.512948 0.307112
0.445651 0.506100 0.307480
0.488972 0.505854 0.309135
0.533044 0.515656 0.313193
0.565774 0.523864 0.320517
0.584676 0.531927 0.334564
0.584676 0.531927 0.334564
0.584473 0.531611 0.334375
0.583524 0.530126 0.333483
0.582811 0.529012 0.332814
0.582376 0.528331 0.332405
0.335111 0.514769 0.304732
0.335111 0.514769 0.304732
0.335111 0.514769 0.304732
0.335111 0.514769 0.304732
0.335111 0.514769 0.304732
0.345388 0.517761 0.305844
0.388084 0.514434 0.306797
0.435488 0.507692 0.307285
0.474962 0.503012 0.308052
0.519139 0.512673 0.311979
0.552099 0.519677 0.315161
0.579718 0.529555 0.330288
0.584676 0.531927 0.334564
0.584676 0.531927 0.334564
0.584676 0.531927 0.334564
0.584676 0.531927 0.334564
0.584676 0.531927 0.334564
0.335111 0.514769 0.304732
0.335111 0.514769 0.304732
0.335111 0.514769 0.304732
0.335111 0.514769 0.304732
0.335111 0.514769 0.304732
0.338979 0.515928 0.305148
0.380476 0.515589 0.306849
0.427607 0.508973 0.306978
0.465929 0.502507 0.307790
0.508348 0.510176 0.310897
0.542532 0.517685 0.314161
0.567661 0.524541 0.321577
0.584676 0.531927 0.334564
0.584676 0.531927 0.334564
0.584676 0.531927 0.334564
0.584676 0.531927 0.334564
0.584676 0.531927 0.334564
0.335111 0.514769 0.304732
0.335111 0.514769 0.304732
0.335111 0.514769 0.304732
0.335111 0.514769 0.304732
0.335111 0.514769 0.304732
0.335111 0.514769 0.304732
0.374972 0.516388 0.306569
0.422017 0.509882 0.307123
0.460627 0.503611 0.307850
0.500313 0.508396 0.310145
0.535151 0.516107 0.313382
0.559624 0.521832 0.317639
0.580918 0.530127 0.331330
0.584676 0.531927 0.334564
0.584676 0.531927 0.334564
0.584676 0.531927 0.334564
0.584676 0.531927 0.334564
0.335111 0.514769 0.304732
0.335111 0.514769 0.304732
0.335111 0.514769 0.304732
0.335111 0.514769 0.304732
0.335111 0.514769 0.304732
0.335111 0.514769 0.304732
0.371295 0.517027 0.306732
0.417580 0.510546 0.307244
0.456414 0.504289 0.307553
0.494554 0.507101 0.309621
0.529324 0.514871 0.312868
0.553961 0.520103 0.315475
0.573981 0.526860 0.325347
0.584676 0.531927 0.334564
0.584676 0.531927 0.334564
0.584676 0.531927 0.334564
0.584676 0.531927 0.334564
0.335111 0.514769 0.304732
0.335111 0.514769 0.304732
0.335111 0.514769 0.304732
0.335111 0.514769 0.304732
0.335111 0.514769 0.304732
0.335111 0.514769 0.304732
0.368644 0.517513 0.306848
0.414127 0.511021 0.307327
0.453351 0.504811 0.307529
0.490294 0.506149 0.309250
0.525103 0.513954 0.312491
0.550092 0.519262 0.314952
0.569267 0.525115 0.322479
0.584676 0.531927 0.334564
0.584676 0.531927 0.334564
0.584676 0.531927 0.334564
0.584676 0.531927 0.334564
0.335111 0.514769 0.304732
0.335111 0.514769 0.304732
0.335111 0.514769 0.304732
0.335111 0.514769 0.304732
0.335111 0.514769 0.304732
0.335111 0.514769 0.304732
0.366730 0.517878 0.306929
0.411512 0.511363 0.307302
0.451099 0.505225 0.307599
0.487077 0.505441 0.308973
0.521831 0.513253 0.312213
0.547221 0.518666 0.314654
0.565827 0.523883 0.320547
0.582164 0.530728 0.332414
0.584676 0.531927 0.334564
0.584676 0.531927 0.334564
0.584676 0.531927 0.334564
0.335111 0.514769 0.304732
0.335111 0.514769 0.304732
0.335111 0.514769 0.304732
0.335111 0.514769 0.304732
0.335111 0.514769 0.304732
0.335111 0.514769 0.304732
0.365574 0.518105 0.306978
0.409838 0.511556 0.307212
0.449717 0.505464 0.307642
0.485068 0.505015 0.308810
0.519881 0.512833 0.312043
0.545461 0.518299 0.314472
0.563729 0.523129 0.319369
0.579827 0.529606 0.330382
0.584676 0.531927 0.334564
0.584676 0.531927 0.334564
0.584676 0.531927 0.334564
0.004056 0.007235 0.031984
0.004056 0.007235 0.031987
0.061996 0.011937 0.014899
0.160262 0.090749 0.077100
0.235397 0.106304 0.100309
0.300087 0.120475 0.112035
0.344408 0.131102 0.119888
0.362331 0.135494 0.122975
0.362331 0.135494 0.122975
0.362331 0.135494 0.122975
0.362331 0.135494 0.122975
0.362331 0.135494 0.122975
0.362331 0.135494 0.122975
0.362331 0.135494 0.122975
0.362331 0.135494 0.122975
0.362331 0.135494 0.122975
0.362331 0.135494 0.122975
0.004056 0.007236 0.031988
0.004056 0.007236 0.031989
0.061992 0.011936 0.014899
0.160262 0.090749 0.077099
0.235396 0.106304 0.100308
0.300087 0.120475 0.112035
0.344408 0.131102 0.119888
0.362331 0.135494 0.122975
0.362331 0.135494 0.122975
0.362331 0.135494 0.122975
0.362331 0.135494 0.122975
0.362331 0.135494 0.122975
0.362331 0.135494 0.122975
0.362331 0.135494 0.122975
0.362331 0.135494 0.122975
0.362331 0.135494 0.122975
0.362331 0.135494 0.122975
0.063979 0.097895 0.100903
0.063978 0.097894 0.100903
0.034313 0.061391 0.068581
0.126462 0.069530 0.053567
0.195244 0.099652 0.093713
0.281442 0.116235 0.108723
0.336805 0.129203 0.118554
0.362331 0.135494 0.122975
0.362331 0.135494 0.122975
0.362331 0.135494 0.122975
0.362331 0.135494 0.122975
0.362331 0.135494 0.122975
0.362331 0.135494 0.122975
0.362331 0.135494 0.122975
0.362331 0.135494 0.122975
0.362331 0.135494 0.122975
0.362331 0.135494 0.122975
0.121262 0.168212 0.158708
0.121261 0.168212 0.158708
0.118751 0.161346 0.152465
0.157664 0.146807 0.124962
0.205552 0.146353 0.111073
0.259876 0.153886 0.118169
0.304463 0.150206 0.121600
0.346859 0.149398 0.125666
0.353091 0.143563 0.124536
0.355617 0.138661 0.123275
0.357111 0.136903 0.122890
0.358250 0.135564 0.122606
0.359085 0.134702 0.122418
0.359655 0.134841 0.122516
0.360077 0.134944 0.122588
0.360394 0.135021 0.122643
0.360587 0.135068 0.122676
0.202240 0.250112 0.224479
0.202240 0.250112 0.224479
0.196602 0.244080 0.220174
0.209537 0.239701 0.217025
0.243827 0.224275 0.184322
0.291170 0.220221 0.146643
0.338923 0.232899 0.157595
0.374459 0.241595 0.165121
0.388531 0.240742 0.166139
0.384416 0.233642 0.162661
0.380813 0.227586 0.159639
0.378075 0.222935 0.157306
0.376074 0.219396 0.155579
0.374148 0.216290 0.154056
0.372727 0.213815 0.152920
0.371660 0.211958 0.152068
0.371011 0.210822 0.151547
0.265678 0.339613 0.272151
0.265677 0.339612 0.272151
0.262470 0.333224 0.269804
0.258019 0.324809 0.266534
0.282217 0.316482 0.266105
0.316490 0.301078 0.241422
0.369030 0.291250 0.188021
0.412287 0.301143 0.196215
0.443728 0.307801 0.201625
0.442152 0.302955 0.199395
0.437977 0.298319 0.197051
0.434817 0.294783 0.195246
0.432500 0.292165 0.193891
0.430756 0.290258 0.192902
0.429441 0.288868 0.192173
0.428458 0.287824 0.191623
0.427861 0.287187 0.191288
0.301073 0.426190 0.292113
0.301073 0.426189 0.292113
0.299098 0.420751 0.291462
0.296406 0.413370 0.290461
0.307732 0.408466 0.291070
0.340676 0.388741 0.286219
0.381852 0.373739 0.263519
0.424435 0.363499 0.234119
0.469116 0.368767 0.231613
0.492642 0.374750 0.240219
0.489523 0.369314 0.236400
0.487115 0.365198 0.233505
0.485344 0.362169 0.231355
0.484052 0.359914 0.229747
0.483096 0.358228 0.228539
0.482390 0.356964 0.227617
0.481960 0.356193 0.227054
0.323757 0.489116 0.298519
0.323756 0.489116 0.298519
0.322006 0.484925 0.297735
0.319795 0.479358 0.296906
0.317940 0.472640 0.296101
0.353234 0.463888 0.295866
0.393506 0.441571 0.288468
0.438251 0.433266 0.276340
0.480008 0.431059 0.268680
0.512353 0.430083 0.265931
0.524690 0.433894 0.278546
0.522944 0.430122 0.276150
0.521730 0.427359 0.274307
0.520853 0.425345 0.272941
0.520202 0.423850 0.271928
0.519698 0.422728 0.271168
0.519389 0.422044 0.270705
0.335111 0.514769 0.304732
0.335111 0.514769 0.304732
0.335111 0.514769 0.304732
0.335111 0.514769 0.304732
0.335111 0.514769 0.304732
0.363714 0.517078 0.306665
0.406931 0.500264 0.303591
0.446194 0.483433 0.299268
0.492496 0.485259 0.297886
0.532589 0.490616 0.304973
0.561136 0.494674 0.312518
0.558977 0.491072 0.310601
0.557323 0.488408 0.309182
0.556101 0.486439 0.308132
0.555170 0.484932 0.307319
0.554449 0.483743 0.306661
0.554009 0.483017 0.306259
0.335111 0.514769 0.304732
0.335111 0.514769 0.304732
0.335111 0.514769 0.304732
0.335111 0.514769 0.304732
0.335111 0.514769 0.304732
0.353904 0.519774 0.306640
0.398797 0.512948 0.307112
0.445651 0.506100 0.307480
0.488972 0.505854 0.309135
0.533044 0.515656 0.313193
0.565774 0.523864 0.320517
0.584676 0.531927 0.334564
0.584676 0.531927 0.334564
0.584473 0.531611 0.334374
0.583524 0.530126 0.333483
0.582811 0.529011 0.332814
0.582376 0.528331 0.332405
0.335111 0.514769 0.304732
0.335111 0.514769 0.304732
0.335111 0.514769 0.304732
0.335111 0.514769 0.304732
0.335111 0.514769 0.304732
0.345388 0.517761 0.305844
0.388084 0.514434 0.306797
0.435488 0.507692 0.307285
0.474962 0.503012 0.308052
0.519139 0.512673 0.311979
0.552099 0.519677 0.315161
0.579718 0.529555 0.330288
0.584676 0.531927 0.334564
0.584676 0.531927 0.334564
0.584676 0.531927 0.334564
0.584676 0.531927 0.334564
0.584676 0.531927 0.334564
0.335111 0.514769 0.304732
0.335111 0.514769 0.304732
0.335111 0.514769 0.304732
0.335111 0.514769 0.304732
0.335111 0.514769 0.304732
0.338979 0.515928 0.305148
0.380476 0.515589 0.306849
0.427607 0.508973 0.306978
0.465929 0.502507 0.307790
0.508348 0.510176 0.310897
0.542532 0.517685 0.314161
0.567661 0.524541 0.321577
0.584676 0.531927 0.334564
0.584676 0.531927 0.334564
0.584676 0.531927 0.334564
0.584676 0.531927 0.334564
0.584676 0.531927 0.334564
0.335111 0.514769 0.304732
0.335111 0.514769 0.304732
0.335111 0.514769 0.304732
0.335111 0.514769 0.304732
0.335111 0.514769 0.304732
0.335111 0.514769 0.304732
0.374972 0.516388 0.306569
0.422017 0.509882 0.307123
0.460627 0.503611 0.307850
0.500313 0.508396 0.310145
0.535151 0.516107 0.313382
0.559624 0.521832 0.317639
0.580918 0.530127 0.331330
0.584676 0.531927 0.334564
0.584676 0.531927 0.334564
0.584676 0.531927 0.334564
0.584676 0.531927 0.334564
0.335111 0.514769 0.304732
0.335111 0.514769 0.304732
0.335111 0.514769 0.304732
0.335111 0.514769 0.304732
0.335111 0.514769 0.304732
0.335111 0.514769 0.304732
0.371295 0.517027 0.306732
0.417580 0.510546 0.307244
0.456414 0.504289 0.307553
0.494554 0.507101 0.309621
0.529324 0.514871 0.312868
0.553961 0.520103 0.315475
0.573981 0.526860 0.325347
0.584676 0.531927 0.334564
0.584676 0.531927 0.334564
0.584676 0.531927 0.334564
0.584676 0.531927 0.334564
0.335111 0.514769 0.304732
0.335111 0.514769 0.304732
0.335111 0.514769 0.304732
0.335111 0.514769 0.304732
0.335111 0.514769 0.304732
0.335111 0.514769 0.304732
0.368644 0.517513 0.306848
0.414127 0.511021 0.307327
0.453351 0.504811 0.307529
0.490294 0.506149 0.309250
0.525103 0.513954 0.312491
0.550092 0.519262 0.314952
0.569267 0.525115 0.322479
0.584676 0.531927 0.334564
0.584676 0.531927 0.334564
0.584676 0.531927 0.334564
0.584676 0.531927 0.334564
0.335111 0.514769 0.304732
0.335111 0.514769 0.304732
0.335111 0.514769 0.304732
0.335111 0.514769 0.304732
0.335111 0.514769 0.304732
0.335111 0.514769 0.304732
0.366730 0.517878 0.306929
0.411512 0.511363 0.307302
0.451099 0.505225 0.307599
0.487077 0.505441 0.308973
0.521831 0.513253 0.312213
0.547221 0.518666 0.314654
0.565827 0.523883 0.320547
0.582164 0.530728 0.332414
0.584676 0.531927 0.334564
0.584676 0.531927 0.334564
0.584676 0.531927 0.334564
0.335111 0.514769 0.304732
0.335111 0.514769 0.304732
0.335111 0.514769 0.304732
0.335111 0.514769 0.304732
0.335111 0.514769 0.304732
0.335111 0.514769 0.304732
0.365574 0.518105 0.306978
0.409838 0.511556 0.307212
0.449717 0.505464 0.307642
0.485068 0.505015 0.308810
0.519881 0.512833 0.312043
0.545460 0.518299 0.314472
0.563729 0.523129 0.319369
0.579827 0.529606 0.330382
0.584676 0.531927 0.334564
0.584676 0.531927 0.334564
0.584676 0.531927 0.334564
0.009419 0.016802 0.067968
0.009419 0.016802 0.067968
0.075867 0.052619 0.106191
0.177975 0.096594 0.101366
0.247516 0.109238 0.105163
0.309514 0.122808 0.114570
0.350831 0.132753 0.121295
0.366719 0.136564 0.123727
0.365069 0.136161 0.123444
0.363711 0.135830 0.123211
0.362641 0.135569 0.123028
0.362331 0.135494 0.122975
0.362331 0.135494 0.122975
0.362331 0.135494 0.122975
0.362331 0.135494 0.122975
0.362331 0.135494 0.122975
0.362331 0.135494 0.122975
0.009419 0.016802 0.067968
0.009419 0.016802 0.067968
0.075864 0.052618 0.106191
0.177974 0.096594 0.101366
0.247515 0.109238 0.105162
0.309513 0.122808 0.114570
0.350831 0.132753 0.121295
0.366719 0.136564 0.123727
0.365069 0.136161 0.123444
0.363710 0.135830 0.123211
0.362640 0.135569 0.123028
0.362331 0.135494 0.122975
0.362331 0.135494 0.122975
0.362331 0.135494 0.122975
0.362331 0.135494 0.122975
0.362331 0.135494 0.122975
0.362331 0.135494 0.122975
0.049328 0.090300 0.105698
0.049327 0.090299 0.105698
0.050058 0.086724 0.108426
0.134940 0.086241 0.098242
0.214207 0.101966 0.096330
0.291601 0.118540 0.110523
0.337536 0.129388 0.118683
0.362331 0.135494 0.122975
0.362331 0.135494 0.122975
0.362331 0.135494 0.122975
0.362331 0.135494 0.122975
0.362331 0.135494 0.122975
0.362331 0.135494 0.122975
0.362331 0.135494 0.122975
0.362331 0.135494 0.122975
0.362331 0.135494 0.122975
0.362331 0.135494 0.122975
0.112877 0.156976 0.151205
0.112877 0.156975 0.151205
0.110121 0.149492 0.144203
0.146886 0.134114 0.115250
0.196744 0.136266 0.107373
0.251792 0.140160 0.113224
0.303092 0.137103 0.117500
0.349119 0.141758 0.123566
0.356033 0.138173 0.123168
0.357930 0.135940 0.122684
0.359388 0.134776 0.122470
0.360428 0.135030 0.122649
0.361198 0.135217 0.122781
0.361768 0.135356 0.122878
0.362190 0.135459 0.122951
0.362331 0.135494 0.122975
0.362331 0.135494 0.122975
0.193384 0.240598 0.217712
0.193384 0.240598 0.217712
0.187534 0.234368 0.213172
0.200012 0.230218 0.209305
0.235088 0.210424 0.162246
0.283809 0.212065 0.142247
0.331202 0.224961 0.153244
0.368230 0.232890 0.160705
0.383411 0.231964 0.161834
0.378840 0.224262 0.157962
0.375056 0.217757 0.154773
0.371543 0.211754 0.151974
0.368976 0.207208 0.149873
0.367089 0.203819 0.148280
0.365688 0.201306 0.147099
0.364544 0.199245 0.146131
0.363639 0.197628 0.145371
0.260573 0.329628 0.268407
0.260573 0.329628 0.268407
0.257199 0.323260 0.265932
0.252492 0.314959 0.262360
0.276267 0.306687 0.261823
0.310765 0.291133 0.232096
0.364071 0.284300 0.184395
0.406526 0.293992 0.192562
0.436788 0.300366 0.197844
0.435697 0.295777 0.195761
0.431589 0.291136 0.193360
0.428350 0.287710 0.191563
0.425983 0.285173 0.190228
0.424236 0.283298 0.189242
0.422939 0.281900 0.188510
0.421967 0.280852 0.187961
0.421373 0.280211 0.187626
0.297948 0.417596 0.291034
0.297948 0.417595 0.291034
0.295911 0.412043 0.290276
0.293129 0.404578 0.289045
0.303559 0.399395 0.289485
0.336264 0.379779 0.284406
0.376944 0.365824 0.261676
0.420570 0.355259 0.229811
0.464202 0.361129 0.226943
0.487798 0.366357 0.234319
0.484650 0.360979 0.230509
0.482313 0.356825 0.227516
0.480600 0.353754 0.225275
0.479329 0.351482 0.223636
0.478405 0.349806 0.222398
0.477712 0.348549 0.221469
0.477288 0.347782 0.220902
0.321029 0.482542 0.297315
0.321029 0.482542 0.297315
0.319399 0.478336 0.296775
0.317246 0.472805 0.296061
0.314799 0.465598 0.295351
0.349628 0.456694 0.295349
0.388587 0.433531 0.287301
0.433215 0.425316 0.272705
0.473439 0.421199 0.261464
0.506239 0.421229 0.260496
0.521263 0.426288 0.273580
0.519642 0.422605 0.271085
0.518282 0.419970 0.269466
0.517159 0.418110 0.268484
0.516327 0.416729 0.267756
0.515702 0.415694 0.267210
0.515320 0.415061 0.266877
0.335111 0.514769 0.304732
0.335111 0.514769 0.304732
0.335111 0.514769 0.304732
0.335111 0.514769 0.304732
0.335111 0.514769 0.304732
0.359565 0.510213 0.304606
0.401878 0.493225 0.301308
0.440876 0.475835 0.296066
0.487478 0.478260 0.294290
0.527077 0.482884 0.300448
0.556599 0.487324 0.308563
0.554370 0.483612 0.306589
0.552616 0.480721 0.304988
0.551317 0.478580 0.303805
0.550355 0.476995 0.302928
0.549640 0.475821 0.302270
0.549206 0.475112 0.301868
0.335111 0.514769 0.304732
0.335111 0.514769 0.304732
0.335111 0.514769 0.304732
0.335111 0.514769 0.304732
0.335111 0.514769 0.304732
0.353205 0.519813 0.306636
0.397852 0.513075 0.307143
0.444727 0.506235 0.307415
0.487770 0.505585 0.309030
0.531845 0.515398 0.313086
0.564480 0.523399 0.319791
0.582733 0.528889 0.332740
0.581001 0.526179 0.331114
0.579724 0.524176 0.329912
0.578789 0.522720 0.329020
0.578089 0.521635 0.328351
0.577661 0.520973 0.327942
0.335111 0.514769 0.304732
0.335111 0.514769 0.304732
0.335111 0.514769 0.304732
0.335111 0.514769 0.304732
0.335111 0.514769 0.304732
0.344649 0.517556 0.305764
0.387209 0.514567 0.306829
0.434638 0.507828 0.307303
0.473789 0.502823 0.307982
0.517937 0.512414 0.311875
0.551024 0.519454 0.315049
0.578273 0.528877 0.329036
0.584676 0.531927 0.334564
0.584676 0.531927 0.334564
0.584676 0.531927 0.334564
0.584676 0.531927 0.334564
0.584676 0.531927 0.334564
0.335111 0.514769 0.304732
0.335111 0.514769 0.304732
0.335111 0.514769 0.304732
0.335111 0.514769 0.304732
0.335111 0.514769 0.304732
0.338250 0.515709 0.305069
0.379613 0.515716 0.306791
0.426729 0.509120 0.306970
0.465136 0.502690 0.307827
0.507109 0.509882 0.310768
0.541386 0.517444 0.314039
0.566367 0.524077 0.320850
0.584676 0.531927 0.334564
0.584676 0.531927 0.334564
0.584676 0.531927 0.334564
0.584676 0.531927 0.334564
0.584676 0.531927 0.334564
0.335111 0.514769 0.304732
0.335111 0.514769 0.304732
0.335111 0.514769 0.304732
0.335111 0.514769 0.304732
0.335111 0.514769 0.304732
0.335111 0.514769 0.304732
0.374200 0.516516 0.306603
0.421155 0.510027 0.307152
0.459740 0.503753 0.307788
0.499121 0.508125 0.310031
0.533953 0.515851 0.313275
0.558462 0.521473 0.317186
0.579475 0.529441 0.330078
0.584676 0.531927 0.334564
0.584676 0.531927 0.334564
0.584676 0.531927 0.334564
0.584676 0.531927 0.334564
0.335111 0.514769 0.304732
0.335111 0.514769 0.304732
0.335111 0.514769 0.304732
0.335111 0.514769 0.304732
0.335111 0.514769 0.304732
0.335111 0.514769 0.304732
0.370529 0.517163 0.306766
0.416605 0.510681 0.307268
0.455540 0.504434 0.307491
0.493345 0.506832 0.309516
0.528149 0.514614 0.312761
0.552827 0.519827 0.315237
0.572576 0.526279 0.324327
0.584676 0.531927 0.334564
0.584676 0.531927 0.334564
0.584676 0.531927 0.334564
0.584676 0.531927 0.334564
0.335111 0.514769 0.304732
0.335111 0.514769 0.304732
0.335111 0.514769 0.304732
0.335111 0.514769 0.304732
0.335111 0.514769 0.304732
0.335111 0.514769 0.304732
0.367915 0.517647 0.306878
0.413163 0.511153 0.307351
0.452502 0.504967 0.307555
0.489092 0.505881 0.309145
0.523872 0.513691 0.312386
0.549017 0.519039 0.314840
0.567974 0.524654 0.321753
0.584589 0.531886 0.334492
0.584676 0.531927 0.334564
0.584676 0.531927 0.334564
0.584676 0.531927 0.334564
0.335111 0.514769 0.304732
0.335111 0.514769 0.304732
0.335111 0.514769 0.304732
0.335111 0.514769 0.304732
0.335111 0.514769 0.304732
0.335111 0.514769 0.304732
0.366017 0.518018 0.306959
0.410485 0.511484 0.307246
0.450247 0.505373 0.307625
0.485838 0.505178 0.308873
0.520629 0.512994 0.312108
0.546136 0.518440 0.314542
0.564533 0.523418 0.319821
0.580724 0.530033 0.331161
0.584676 0.531927 0.334564
0.584676 0.531927 0.334564
0.584676 0.531927 0.334564
0.335111 0.514769 0.304732
0.335111 0.514769 0.304732
0.335111 0.514769 0.304732
0.335111 0.514769 0.304732
0.335111 0.514769 0.304732
0.335111 0.514769 0.304732
0.364860 0.518241 0.307009
0.408798 0.511672 0.307157
0.448865 0.505611 0.307668
0.483829 0.504752 0.308709
0.518679 0.512574 0.311939
0.544345 0.518066 0.314354
0.562460 0.522704 0.318738
0.578381 0.528928 0.329130
0.584676 0.531927 0.334564
0.584676 0.531927 0.334564
0.584676 0.531927 0.334564
0.042470 0.071539 0.108071
0.042469 0.071539 0.108071
0.090671 0.107075 0.127154
0.160643 0.126411 0.168438
0.248455 0.120763 0.157845
0.315270 0.131840 0.152102
0.362067 0.141920 0.153462
0.382397 0.145688 0.151968
0.381829 0.144637 0.147570
0.381384 0.143826 0.144116
0.381039 0.143199 0.141451
0.380776 0.142721 0.139422
0.380582 0.142368 0.137921
0.380438 0.142106 0.136810
0.380331 0.141912 0.135986
0.380207 0.141783 0.135484
