滤镜资源/Lutify.me Free 3D LUTs Package/3D LUTs/Monitoring LUTs/RED DSMC2/Weapon and Epic-W IPP2/Hilutite - IPP2.cube
# Website: https://lutify.me
# Contact: help@lutify.me
# Copyright: (c) Copyright Lutify.me 2016, G.T. Colord LTD
# Created by: Lutify.me
LUT_3D_SIZE 5
0.004056 0.007235 0.031983
0.235397 0.106304 0.100309
0.362331 0.135494 0.122975
0.362331 0.135494 0.122975
0.362331 0.135494 0.122975
0.202240 0.250113 0.224479
0.243827 0.224275 0.184322
0.388531 0.240742 0.166139
0.376074 0.219396 0.155579
0.371012 0.210822 0.151547
0.335111 0.514769 0.304732
0.335111 0.514769 0.304732
0.492496 0.485259 0.297886
0.557324 0.488408 0.309182
0.554009 0.483017 0.306259
0.335111 0.514769 0.304732
0.335111 0.514769 0.304732
0.460627 0.503611 0.307850
0.580918 0.530127 0.331330
0.584676 0.531927 0.334564
0.335111 0.514769 0.304732
0.335111 0.514769 0.304732
0.449717 0.505464 0.307642
0.563729 0.523129 0.319369
0.584676 0.531927 0.334564
0.099374 0.122958 0.142832
0.233161 0.188593 0.237837
0.396518 0.166801 0.222518
0.389519 0.160281 0.209523
0.389125 0.159239 0.205582
0.141330 0.215375 0.221015
0.200264 0.226882 0.238513
0.422763 0.202814 0.185887
0.400736 0.154951 0.148032
0.390340 0.145360 0.141180
0.334506 0.514353 0.308598
0.326332 0.495180 0.299754
0.471769 0.455731 0.282408
0.537080 0.455572 0.290463
0.533336 0.449367 0.286946
0.335111 0.514769 0.304732
0.335111 0.514769 0.304732
0.457109 0.504174 0.307602
0.575141 0.527405 0.326344
0.584676 0.531927 0.334564
0.335111 0.514769 0.304732
0.335111 0.514769 0.304732
0.446136 0.506030 0.307514
0.558977 0.521633 0.317387
0.584676 0.531927 0.334564
0.143691 0.218320 0.237553
0.176331 0.270411 0.306176
0.420383 0.307373 0.437391
0.420383 0.307373 0.437391
0.420383 0.307373 0.437391
0.158599 0.243311 0.263962
0.166556 0.255782 0.282549
0.418231 0.302965 0.430703
0.414002 0.297793 0.423083
0.413183 0.296677 0.421159
0.283388 0.509597 0.498455
0.276079 0.485764 0.481183
0.528141 0.542599 0.550098
0.637064 0.534036 0.526788
0.631839 0.524767 0.518922
0.332578 0.568712 0.489660
0.331932 0.568649 0.481153
0.518289 0.655699 0.532117
0.668055 0.658517 0.532808
0.687681 0.656370 0.532336
0.331734 0.568602 0.478558
0.330990 0.568372 0.469853
0.495403 0.640709 0.510658
0.640666 0.642310 0.511294
0.680946 0.649588 0.514447
0.143691 0.218320 0.237553
0.174503 0.267653 0.302068
0.420383 0.307373 0.437391
0.420383 0.307373 0.437391
0.420383 0.307373 0.437391
0.150564 0.229830 0.249760
0.157610 0.241391 0.264911
0.420383 0.307373 0.437391
0.420383 0.307373 0.437391
0.420383 0.307373 0.437391
0.281048 0.497148 0.547880
0.272670 0.470771 0.527268
0.502223 0.542582 0.623859
0.604883 0.533716 0.618197
0.598427 0.525348 0.612073
0.343030 0.584849 0.586754
0.343030 0.584849 0.586754
0.495244 0.662843 0.654144
0.722419 0.732051 0.724238
0.758198 0.726698 0.716236
0.343030 0.584849 0.586754
0.342361 0.582666 0.578671
0.486023 0.656880 0.631916
0.710568 0.773607 0.715360
0.775384 0.771984 0.716059
0.143691 0.218320 0.237553
0.173943 0.266810 0.300813
0.420383 0.307373 0.437391
0.420383 0.307373 0.437391
0.420383 0.307373 0.437391
0.148501 0.226368 0.246087
0.155441 0.237786 0.260883
0.420383 0.307373 0.437391
0.420383 0.307373 0.437391
0.420383 0.307373 0.437391
0.277646 0.486225 0.539885
0.268369 0.458133 0.515752
0.492994 0.531377 0.619519
0.594809 0.520728 0.608693
0.588497 0.512502 0.602722
0.343030 0.584849 0.586754
0.343030 0.584849 0.586754
0.482584 0.656023 0.669608
0.709410 0.728821 0.753311
0.750712 0.726462 0.754198
0.343030 0.584849 0.586754
0.343030 0.584849 0.586754
0.487688 0.664646 0.663481
0.708532 0.776534 0.766033
0.806254 0.817819 0.804769
