滤镜资源/Lutify.me Free 3D LUTs Package/3D LUTs/Monitoring LUTs/RED DSMC2/Weapon and Epic-W IPP2/Hilutite - IPP2.cube
# Website: https://lutify.me
# Contact: help@lutify.me
# Copyright: (c) Copyright Lutify.me 2016, G.T. Colord LTD
# Created by: Lutify.me
LUT_3D_SIZE 9
0.004056 0.007235 0.031983
0.061996 0.011937 0.014899
0.235397 0.106304 0.100309
0.344408 0.131102 0.119888
0.362331 0.135494 0.122975
0.362331 0.135494 0.122975
0.362331 0.135494 0.122975
0.362331 0.135494 0.122975
0.362331 0.135494 0.122975
0.063980 0.097895 0.100904
0.034314 0.061393 0.068583
0.195244 0.099652 0.093713
0.336805 0.129203 0.118554
0.362331 0.135494 0.122975
0.362331 0.135494 0.122975
0.362331 0.135494 0.122975
0.362331 0.135494 0.122975
0.362331 0.135494 0.122975
0.202240 0.250113 0.224479
0.196603 0.244081 0.220174
0.243827 0.224275 0.184322
0.338924 0.232899 0.157595
0.388531 0.240742 0.166139
0.380813 0.227586 0.159640
0.376074 0.219396 0.155579
0.372727 0.213815 0.152920
0.371012 0.210822 0.151547
0.301073 0.426190 0.292113
0.299098 0.420751 0.291462
0.307732 0.408467 0.291070
0.381852 0.373739 0.263519
0.469116 0.368767 0.231613
0.489523 0.369314 0.236400
0.485344 0.362169 0.231355
0.483096 0.358228 0.228539
0.481960 0.356193 0.227054
0.335111 0.514769 0.304732
0.335111 0.514769 0.304732
0.335111 0.514769 0.304732
0.406931 0.500264 0.303591
0.492496 0.485259 0.297886
0.561136 0.494674 0.312518
0.557324 0.488408 0.309182
0.555170 0.484932 0.307320
0.554009 0.483017 0.306259
0.335111 0.514769 0.304732
0.335111 0.514769 0.304732
0.335111 0.514769 0.304732
0.388084 0.514434 0.306797
0.474962 0.503012 0.308052
0.552099 0.519677 0.315161
0.584676 0.531927 0.334564
0.584676 0.531927 0.334564
0.584676 0.531927 0.334564
0.335111 0.514769 0.304732
0.335111 0.514769 0.304732
0.335111 0.514769 0.304732
0.374972 0.516388 0.306569
0.460627 0.503611 0.307850
0.535151 0.516107 0.313382
0.580918 0.530127 0.331330
0.584676 0.531927 0.334564
0.584676 0.531927 0.334564
0.335111 0.514769 0.304732
0.335111 0.514769 0.304732
0.335111 0.514769 0.304732
0.368644 0.517513 0.306848
0.453351 0.504811 0.307529
0.525103 0.513954 0.312491
0.569267 0.525115 0.322479
0.584676 0.531927 0.334564
0.584676 0.531927 0.334564
0.335111 0.514769 0.304732
0.335111 0.514769 0.304732
0.335111 0.514769 0.304732
0.365574 0.518105 0.306978
0.449717 0.505464 0.307642
0.519881 0.512833 0.312043
0.563729 0.523129 0.319369
0.584676 0.531927 0.334564
0.584676 0.531927 0.334564
0.009419 0.016802 0.067968
0.075867 0.052619 0.106191
0.247516 0.109238 0.105163
0.350831 0.132753 0.121295
0.365069 0.136161 0.123444
0.362641 0.135569 0.123028
0.362331 0.135494 0.122975
0.362331 0.135494 0.122975
0.362331 0.135494 0.122975
0.049328 0.090300 0.105698
0.050058 0.086724 0.108426
0.214207 0.101966 0.096330
0.337536 0.129388 0.118683
0.362331 0.135494 0.122975
0.362331 0.135494 0.122975
0.362331 0.135494 0.122975
0.362331 0.135494 0.122975
0.362331 0.135494 0.122975
0.193384 0.240598 0.217712
0.187534 0.234368 0.213172
0.235088 0.210424 0.162246
0.331202 0.224961 0.153244
0.383411 0.231964 0.161834
0.375056 0.217757 0.154773
0.368976 0.207208 0.149873
0.365688 0.201306 0.147099
0.363639 0.197628 0.145371
0.297948 0.417596 0.291034
0.295911 0.412043 0.290276
0.303559 0.399395 0.289485
0.376944 0.365824 0.261676
0.464202 0.361129 0.226943
0.484650 0.360979 0.230509
0.480600 0.353754 0.225275
0.478405 0.349806 0.222398
0.477288 0.347782 0.220902
0.335111 0.514769 0.304732
0.335111 0.514769 0.304732
0.335111 0.514769 0.304732
0.401878 0.493225 0.301308
0.487478 0.478260 0.294290
0.556599 0.487324 0.308563
0.552616 0.480721 0.304988
0.550355 0.476995 0.302928
0.549206 0.475112 0.301868
0.335111 0.514769 0.304732
0.335111 0.514769 0.304732
0.335111 0.514769 0.304732
0.387209 0.514567 0.306829
0.473789 0.502823 0.307982
0.551024 0.519454 0.315049
0.584676 0.531927 0.334564
0.584676 0.531927 0.334564
0.584676 0.531927 0.334564
0.335111 0.514769 0.304732
0.335111 0.514769 0.304732
0.335111 0.514769 0.304732
0.374200 0.516516 0.306603
0.459740 0.503753 0.307788
0.533953 0.515851 0.313275
0.579475 0.529441 0.330078
0.584676 0.531927 0.334564
0.584676 0.531927 0.334564
0.335111 0.514769 0.304732
0.335111 0.514769 0.304732
0.335111 0.514769 0.304732
0.367915 0.517647 0.306878
0.452502 0.504967 0.307555
0.523872 0.513691 0.312386
0.567974 0.524654 0.321753
0.584676 0.531927 0.334564
0.584676 0.531927 0.334564
0.335111 0.514769 0.304732
0.335111 0.514769 0.304732
0.335111 0.514769 0.304732
0.364860 0.518241 0.307009
0.448865 0.505611 0.307668
0.518679 0.512574 0.311939
0.562460 0.522704 0.318738
0.584676 0.531927 0.334564
0.584676 0.531927 0.334564
0.099374 0.122958 0.142832
0.103381 0.131192 0.152628
0.233161 0.188593 0.237837
0.384878 0.178341 0.234365
0.396518 0.166801 0.222518
0.390827 0.162001 0.214349
0.389519 0.160281 0.209523
0.389259 0.159593 0.206922
0.389125 0.159239 0.205582
0.097445 0.119471 0.138617
0.097509 0.119548 0.139245
0.216919 0.175865 0.223997
0.370717 0.164117 0.216866
0.389153 0.159312 0.205861
0.388317 0.157160 0.197724
0.387635 0.155899 0.193067
0.387261 0.155209 0.190470
0.387069 0.154853 0.189134
0.141330 0.215375 0.221015
0.138011 0.209292 0.215749
0.200264 0.226882 0.238513
0.359338 0.223773 0.211912
0.422763 0.202814 0.185887
0.413320 0.166627 0.156464
0.400736 0.154951 0.148032
0.393866 0.148634 0.143508
0.390340 0.145360 0.141180
0.289618 0.400170 0.306683
0.287404 0.393822 0.303844
0.288087 0.377567 0.293408
0.366344 0.346682 0.262637
0.449168 0.338591 0.215339
0.470529 0.337967 0.216952
0.465310 0.331384 0.213487
0.462521 0.327888 0.211765
0.461090 0.326088 0.210879
0.334506 0.514353 0.308598
0.332349 0.509191 0.305668
0.326332 0.495180 0.299754
0.387808 0.472763 0.295971
0.471769 0.455731 0.282408
0.536978 0.460418 0.290415
0.537080 0.455572 0.290463
0.534569 0.451460 0.288142
0.533336 0.449367 0.286946
0.335111 0.514769 0.304732
0.335111 0.514769 0.304732
0.335111 0.514769 0.304732
0.384604 0.514971 0.306922
0.470266 0.502240 0.307774
0.547812 0.518789 0.314715
0.584676 0.531927 0.334564
0.584676 0.531927 0.334564
0.584676 0.531927 0.334564
0.335111 0.514769 0.304732
0.335111 0.514769 0.304732
0.335111 0.514769 0.304732
0.371902 0.516920 0.306705
0.457109 0.504174 0.307602
0.530315 0.515079 0.312954
0.575141 0.527405 0.326344
0.584676 0.531927 0.334564
0.584676 0.531927 0.334564
0.335111 0.514769 0.304732
0.335111 0.514769 0.304732
0.335111 0.514769 0.304732
0.365788 0.518063 0.306969
0.449973 0.505420 0.307634
0.520241 0.512911 0.312075
0.564116 0.523268 0.319587
0.584676 0.531927 0.334564
0.584676 0.531927 0.334564
0.335111 0.514769 0.304732
0.335111 0.514769 0.304732
0.335111 0.514769 0.304732
0.362704 0.518656 0.306959
0.446136 0.506030 0.307514
0.515005 0.511747 0.311592
0.558977 0.521633 0.317387
0.584676 0.531927 0.334564
0.584676 0.531927 0.334564
0.130624 0.194438 0.213489
0.133292 0.199441 0.218902
0.166402 0.253968 0.286580
0.370589 0.279183 0.374678
0.397531 0.275329 0.377770
0.396209 0.273343 0.372560
0.395443 0.272183 0.369549
0.395041 0.271538 0.367914
0.395139 0.271041 0.367188
0.127774 0.189013 0.207898
0.128541 0.190500 0.209567
0.157332 0.240439 0.269125
0.357063 0.274071 0.362072
0.395119 0.271145 0.367340
0.395705 0.268124 0.362958
0.396050 0.266359 0.360410
0.396233 0.265348 0.358850
0.396325 0.264821 0.358020
0.147545 0.224971 0.242421
0.144793 0.220345 0.237645
0.153364 0.234249 0.257540
0.330620 0.274885 0.339869
0.412238 0.261129 0.346122
0.407074 0.251753 0.335611
0.404811 0.247174 0.329956
0.403875 0.245100 0.327133
0.403398 0.244007 0.325679
0.225967 0.361020 0.359334
0.222459 0.353836 0.353447
0.217259 0.343385 0.345575
0.363279 0.391130 0.404442
0.502393 0.389049 0.379495
0.526322 0.375741 0.363377
0.520118 0.364586 0.353785
0.516817 0.358493 0.348423
0.515139 0.355348 0.345729
0.317294 0.524248 0.409408
0.315053 0.518558 0.405033
0.308628 0.501381 0.392467
0.393490 0.510515 0.401656
0.502046 0.493656 0.392674
0.574773 0.499130 0.393582
0.576864 0.492305 0.385645
0.573625 0.487539 0.381397
0.571942 0.485098 0.379335
0.341948 0.555391 0.403623
0.342427 0.554828 0.401740
0.342823 0.552359 0.394999
0.396135 0.565899 0.392759
0.507273 0.563708 0.391871
0.573752 0.553999 0.387229
0.611060 0.556588 0.392358
0.607952 0.551932 0.388878
0.606342 0.549498 0.387036
0.342776 0.550227 0.389519
0.342552 0.549198 0.386943
0.341880 0.546126 0.379320
0.378472 0.553993 0.374769
0.486161 0.557747 0.375653
0.554765 0.553570 0.374257
0.600053 0.562336 0.378283
0.613298 0.565204 0.381547
0.612763 0.564556 0.380556
0.342006 0.546694 0.380712
0.341775 0.545678 0.378243
0.341070 0.542708 0.371177
0.370011 0.547955 0.365273
0.473479 0.551690 0.366296
0.539827 0.545466 0.364555
0.584827 0.553497 0.366085
0.608903 0.559939 0.374031
0.608435 0.559380 0.373239
0.341595 0.544919 0.376422
0.341359 0.543925 0.374055
0.340717 0.540886 0.366945
0.366008 0.544991 0.360670
0.467098 0.548617 0.361634
0.532252 0.541300 0.359715
0.577558 0.549554 0.361238
0.603369 0.556333 0.369029
0.606316 0.556889 0.369765
0.143691 0.218320 0.237553
0.146593 0.223156 0.243128
0.176331 0.270411 0.306176
0.378744 0.322936 0.423088
0.420383 0.307373 0.437391
0.420383 0.307373 0.437391
0.420383 0.307373 0.437391
0.420383 0.307373 0.437391
0.420383 0.307373 0.437391
0.143691 0.218320 0.237553
0.144677 0.219983 0.239459
0.170924 0.262265 0.294177
0.367680 0.325340 0.432446
0.420383 0.307373 0.437391
0.420383 0.307373 0.437391
0.420383 0.307373 0.437391
0.420383 0.307373 0.437391
0.420383 0.307373 0.437391
0.158599 0.243311 0.263962
0.157013 0.240669 0.261195
0.166556 0.255782 0.282549
0.302425 0.334471 0.448208
0.418231 0.302965 0.430703
0.415046 0.299218 0.425394
0.414002 0.297793 0.423083
0.413461 0.297056 0.421812
0.413183 0.296677 0.421159
0.226186 0.357885 0.401409
0.223162 0.351865 0.394092
0.215157 0.336505 0.375604
0.325918 0.399752 0.453372
0.474526 0.401624 0.486361
0.498248 0.390712 0.481524
0.491123 0.381276 0.472636
0.487221 0.376545 0.467833
0.485213 0.374119 0.465367
0.283388 0.509597 0.498455
0.281630 0.503636 0.494187
0.276079 0.485764 0.481183
0.358599 0.501441 0.503631
0.528141 0.542599 0.550098
0.627207 0.542441 0.535886
0.637064 0.534036 0.526788
0.633682 0.527947 0.521600
0.631839 0.524767 0.518922
0.333701 0.568721 0.501971
0.333525 0.568742 0.500079
0.332993 0.568750 0.494342
0.378663 0.586764 0.505763
0.532109 0.632937 0.546432
0.622397 0.620507 0.542901
0.673571 0.622689 0.545599
0.669622 0.616932 0.540372
0.667588 0.614026 0.537582
0.332578 0.568712 0.489660
0.332401 0.568704 0.487575
0.331932 0.568649 0.481153
0.372024 0.593289 0.491782
0.518289 0.655699 0.532117
0.620303 0.660465 0.534083
0.668055 0.658517 0.532808
0.689447 0.659375 0.533878
0.687681 0.656370 0.532336
0.332020 0.568666 0.482345
0.331862 0.568634 0.480196
0.331319 0.568468 0.473687
0.364321 0.587202 0.480251
0.503009 0.645757 0.517884
0.604574 0.653297 0.520491
0.649589 0.647677 0.518484
0.681887 0.653600 0.520989
0.684092 0.653537 0.520575
0.331734 0.568602 0.478558
0.331547 0.568528 0.476362
0.330990 0.568372 0.469853
0.360597 0.584229 0.474436
0.495403 0.640709 0.510658
0.596370 0.649437 0.513298
0.640666 0.642310 0.511294
0.670984 0.647555 0.512467
0.680946 0.649588 0.514447
0.143691 0.218320 0.237553
0.146193 0.222499 0.242352
0.175178 0.268670 0.303583
0.376857 0.323291 0.424223
0.420383 0.307373 0.437391
0.420383 0.307373 0.437391
0.420383 0.307373 0.437391
0.420383 0.307373 0.437391
0.420383 0.307373 0.437391
0.143691 0.218320 0.237553
0.144262 0.219283 0.238658
0.169893 0.260704 0.291925
0.364932 0.326018 0.435475
0.420383 0.307373 0.437391
0.420383 0.307373 0.437391
0.420383 0.307373 0.437391
0.420383 0.307373 0.437391
0.420383 0.307373 0.437391
0.153253 0.234342 0.254572
0.151897 0.232075 0.252123
0.160572 0.246254 0.270566
0.293481 0.329824 0.431424
0.420383 0.307373 0.437391
0.420383 0.307373 0.437391
0.420383 0.307373 0.437391
0.420383 0.307373 0.437391
0.420383 0.307373 0.437391
0.220686 0.346484 0.394592
0.218140 0.341554 0.388705
0.212323 0.330912 0.375864
0.300983 0.396101 0.465916
0.465065 0.399235 0.513390
0.491794 0.386165 0.509471
0.485900 0.378816 0.503608
0.482715 0.374825 0.500453
0.481096 0.372805 0.498880
0.284383 0.508504 0.554185
0.282886 0.503295 0.551598
0.277361 0.485318 0.539218
0.339043 0.500852 0.559364
0.513519 0.549550 0.611086
0.604297 0.546847 0.611247
0.612564 0.539686 0.607610
0.608195 0.533985 0.602567
0.605978 0.531050 0.599963
0.341441 0.580624 0.571014
0.341127 0.579995 0.568600
0.324319 0.567108 0.557342
0.360263 0.574917 0.568541
0.505464 0.620017 0.614667
0.646352 0.653377 0.651009
0.712178 0.652487 0.643012
0.710908 0.645850 0.637790
0.709255 0.642513 0.635127
0.339423 0.576620 0.556103
0.339115 0.575959 0.553710
0.338200 0.574002 0.546638
0.374330 0.592040 0.555520
0.508845 0.672736 0.613974
0.645283 0.721929 0.652642
0.705307 0.708481 0.650390
0.735173 0.709243 0.652325
0.733163 0.705830 0.650146
0.338372 0.574363 0.547966
0.338061 0.573697 0.545540
0.337135 0.571689 0.538311
0.365720 0.586593 0.544192
0.492810 0.664229 0.600170
0.632470 0.729924 0.643134
0.702314 0.733291 0.645456
0.736222 0.729718 0.645269
0.744179 0.730640 0.644827
0.337823 0.573169 0.543655
0.337513 0.572493 0.541226
0.336577 0.570434 0.533923
0.361497 0.584080 0.538561
0.484924 0.659856 0.593311
0.622755 0.724732 0.635671
0.693080 0.730480 0.638755
0.724031 0.724013 0.637681
0.741082 0.726721 0.638066
0.143691 0.218320 0.237553
0.145975 0.222139 0.241934
0.174503 0.267653 0.302068
0.375757 0.323499 0.424891
0.420383 0.307373 0.437391
0.420383 0.307373 0.437391
0.420383 0.307373 0.437391
0.420383 0.307373 0.437391
0.420383 0.307373 0.437391
0.143691 0.218320 0.237553
0.144019 0.218874 0.238189
0.169338 0.259853 0.290767
0.363184 0.326408 0.437413
0.420383 0.307373 0.437391
0.420383 0.307373 0.437391
0.420383 0.307373 0.437391
0.420383 0.307373 0.437391
0.420383 0.307373 0.437391
0.150564 0.229830 0.249760
0.149359 0.227799 0.247628
0.157610 0.241391 0.264911
0.290566 0.328251 0.425805
0.420383 0.307373 0.437391
0.420383 0.307373 0.437391
0.420383 0.307373 0.437391
0.420383 0.307373 0.437391
0.420383 0.307373 0.437391
0.215459 0.336508 0.382355
0.212932 0.332029 0.376655
0.206513 0.320878 0.362641
0.292035 0.382802 0.448805
0.453726 0.389253 0.503428
0.482617 0.374702 0.500356
0.477147 0.368308 0.495029
0.474232 0.365002 0.492206
0.472736 0.363306 0.490759
0.281048 0.497148 0.547880
0.279091 0.490826 0.543267
0.272670 0.470771 0.527268
0.320809 0.489640 0.555592
0.502223 0.542582 0.623859
0.594412 0.539906 0.619370
0.604883 0.533716 0.618197
0.600633 0.528172 0.614144
0.598427 0.525348 0.612073
0.339171 0.582458 0.585987
0.331950 0.577966 0.584569
0.309743 0.564783 0.580526
0.353073 0.571599 0.600439
0.490995 0.619683 0.662872
0.633673 0.658147 0.702787
0.696312 0.655774 0.699582
0.696246 0.649662 0.695598
0.693839 0.646235 0.692644
0.343030 0.584849 0.586754
0.343030 0.584849 0.586754
0.343030 0.584849 0.586754
0.378858 0.604146 0.601762
0.495244 0.662843 0.654144
0.627908 0.709531 0.699032
0.722419 0.732051 0.724238
0.760144 0.730508 0.719696
0.758198 0.726698 0.716236
0.343030 0.584849 0.586754
0.343030 0.584849 0.586754
0.342712 0.583819 0.582913
0.369964 0.597268 0.588722
0.494088 0.662363 0.640428
0.628022 0.737212 0.695139
0.721969 0.779155 0.725010
0.764396 0.770918 0.723198
0.774313 0.766804 0.722130
0.343030 0.584849 0.586754
0.342954 0.584603 0.585832
0.342361 0.582666 0.578671
0.365512 0.593848 0.582187
0.486023 0.656880 0.631916
0.617470 0.732093 0.686112
0.710568 0.773607 0.715360
0.756653 0.774804 0.716619
0.775384 0.771984 0.716059
0.143691 0.218320 0.237553
0.145855 0.221941 0.241706
0.174133 0.267096 0.301239
0.375150 0.323613 0.425255
0.420383 0.307373 0.437391
0.420383 0.307373 0.437391
0.420383 0.307373 0.437391
0.420383 0.307373 0.437391
0.420383 0.307373 0.437391
0.143691 0.218320 0.237553
0.143886 0.218650 0.237932
0.169034 0.259385 0.290131
0.361963 0.326609 0.438674
0.420383 0.307373 0.437391
0.420383 0.307373 0.437391
0.420383 0.307373 0.437391
0.420383 0.307373 0.437391
0.420383 0.307373 0.437391
0.149180 0.227497 0.247312
0.148047 0.225615 0.245278
0.156166 0.238989 0.262240
0.289285 0.327752 0.423380
0.420383 0.307373 0.437391
0.420383 0.307373 0.437391
0.420383 0.307373 0.437391
0.420383 0.307373 0.437391
0.420383 0.307373 0.437391
0.212550 0.331366 0.375814
0.210014 0.326974 0.370150
0.203315 0.315382 0.355326
0.287089 0.375560 0.439478
0.447790 0.384176 0.498427
0.477918 0.369184 0.495780
0.472592 0.363142 0.490620
0.469916 0.360401 0.487949
0.468665 0.359236 0.486647
0.278801 0.489902 0.542588
0.276813 0.483586 0.537872
0.269884 0.462515 0.519922
0.315305 0.482785 0.549512
0.496255 0.535157 0.621037
0.587486 0.531543 0.613208
0.598213 0.525076 0.611873
0.593991 0.519679 0.607927
0.591833 0.516868 0.605881
0.330883 0.577303 0.584368
0.323609 0.572880 0.582981
0.303633 0.558976 0.578158
0.348468 0.564529 0.596816
0.485122 0.612038 0.657168
0.628789 0.651081 0.704558
0.689225 0.649440 0.701245
0.689733 0.645037 0.698179
0.687426 0.642054 0.695931
0.343030 0.584849 0.586754
0.343030 0.584849 0.586754
0.343030 0.584849 0.586754
0.378739 0.605224 0.606913
0.485857 0.660104 0.671120
0.620781 0.709245 0.730802
0.712049 0.733351 0.755995
0.757916 0.736259 0.760606
0.755104 0.732393 0.757911
0.343030 0.584849 0.586754
0.343030 0.584849 0.586754
0.343030 0.584849 0.586754
0.370801 0.600589 0.602374
0.495908 0.669086 0.667570
0.629480 0.737627 0.727431
0.712352 0.769393 0.756544
0.773918 0.784970 0.773861
0.788325 0.781217 0.772148
0.343030 0.584849 0.586754
0.343030 0.584849 0.586754
0.343030 0.584849 0.586754
0.366881 0.598361 0.600158
0.488198 0.664605 0.662208
0.618584 0.730727 0.715608
0.708169 0.776378 0.750976
0.769428 0.802779 0.770693
0.798174 0.803840 0.772114
0.143691 0.218320 0.237553
0.145794 0.221840 0.241588
0.173943 0.266810 0.300813
0.374843 0.323671 0.425442
0.420383 0.307373 0.437391
0.420383 0.307373 0.437391
0.420383 0.307373 0.437391
0.420383 0.307373 0.437391
0.420383 0.307373 0.437391
0.143691 0.218320 0.237553
0.143818 0.218535 0.237800
0.168878 0.259145 0.289805
0.361335 0.326713 0.439313
0.420383 0.307373 0.437391
0.420383 0.307373 0.437391
0.420383 0.307373 0.437391
0.420383 0.307373 0.437391
0.420383 0.307373 0.437391
0.148501 0.226368 0.246087
0.147393 0.224529 0.244113
0.155441 0.237786 0.260883
0.288626 0.327495 0.422140
0.420383 0.307373 0.437391
0.420383 0.307373 0.437391
0.420383 0.307373 0.437391
0.420383 0.307373 0.437391
0.420383 0.307373 0.437391
0.211036 0.328743 0.372467
0.208542 0.324425 0.366819
0.201653 0.312531 0.351515
0.283817 0.372054 0.435286
0.444780 0.381604 0.495904
0.475563 0.366510 0.493492
0.470396 0.360845 0.488447
0.467961 0.358581 0.485923
0.466708 0.357415 0.484634
0.277646 0.486225 0.539885
0.275481 0.479431 0.534421
0.268369 0.458133 0.515752
0.312728 0.479293 0.546317
0.492994 0.531377 0.619519
0.583771 0.527082 0.609887
0.594809 0.520728 0.608693
0.590620 0.515287 0.604730
0.588497 0.512502 0.602722
0.326637 0.574670 0.583533
0.319141 0.570253 0.582198
0.301259 0.555935 0.576716
0.345966 0.560886 0.594916
0.482260 0.608076 0.654125
0.625428 0.646614 0.704000
0.685003 0.644651 0.697720
0.686166 0.640440 0.694715
0.683887 0.637565 0.692576
0.343030 0.584849 0.586754
0.343030 0.584849 0.586754
0.343030 0.584849 0.586754
0.376879 0.604021 0.606405
0.482584 0.656023 0.669608
0.618199 0.704485 0.728388
0.709410 0.728821 0.753311
0.753539 0.730312 0.756710
0.750712 0.726462 0.754198
0.343030 0.584849 0.586754
0.343030 0.584849 0.586754
0.343030 0.584849 0.586754
0.370453 0.600393 0.602176
0.495237 0.668721 0.667233
0.624847 0.735803 0.731345
0.706645 0.766747 0.768189
0.767801 0.780634 0.786595
0.789013 0.783112 0.789615
0.343030 0.584849 0.586754
0.343030 0.584849 0.586754
0.343030 0.584849 0.586754
0.366539 0.598165 0.599965
0.487688 0.664646 0.663481
0.619008 0.733141 0.726863
0.708532 0.776534 0.766033
0.768562 0.802560 0.790717
0.806254 0.817819 0.804769
