滤镜资源/Lutify.me Free 3D LUTs Package/3D LUTs/Monitoring LUTs/RED DSMC2/Weapon and Epic-W IPP2/Howlite - IPP2.cube
# Website: https://lutify.me
# Contact: help@lutify.me
# Copyright: (c) Copyright Lutify.me 2016, G.T. Colord LTD
# Created by: Lutify.me
LUT_3D_SIZE 5
0.000000 0.000000 0.000000
0.252458 0.114903 0.108938
0.423074 0.162247 0.147460
0.423074 0.162247 0.147460
0.423074 0.162247 0.147460
0.161738 0.257255 0.151662
0.236606 0.243405 0.151318
0.459440 0.248196 0.187131
0.450721 0.230572 0.178397
0.448393 0.225682 0.175935
0.283835 0.539925 0.264570
0.283835 0.539925 0.264570
0.544087 0.562058 0.285107
0.672392 0.553558 0.287877
0.666624 0.545437 0.286129
0.283835 0.539925 0.264570
0.283835 0.539925 0.264570
0.486463 0.592754 0.287800
0.716416 0.631728 0.302042
0.725968 0.632731 0.302380
0.283835 0.539925 0.264570
0.283835 0.539925 0.264570
0.463702 0.587301 0.285674
0.674477 0.626838 0.300390
0.725968 0.632731 0.302380
0.109308 0.132031 0.283261
0.260742 0.167450 0.277069
0.437613 0.205507 0.292825
0.437233 0.202119 0.284225
0.436976 0.201176 0.281579
0.159749 0.244768 0.270475
0.229930 0.229988 0.260642
0.458307 0.239814 0.264798
0.449500 0.222398 0.250072
0.446887 0.216930 0.245294
0.284031 0.539599 0.272676
0.275737 0.510192 0.257395
0.519444 0.517161 0.274620
0.642375 0.510540 0.277836
0.637430 0.503351 0.276024
0.283835 0.539925 0.264570
0.283835 0.539925 0.264570
0.479292 0.591041 0.287133
0.702359 0.630183 0.301520
0.725968 0.632731 0.302380
0.283835 0.539925 0.264570
0.283835 0.539925 0.264570
0.456470 0.585540 0.284945
0.662754 0.625293 0.299868
0.725968 0.632731 0.302380
0.140777 0.188560 0.462226
0.279156 0.213030 0.470155
0.458722 0.260657 0.479598
0.458722 0.260657 0.479598
0.458722 0.260657 0.479598
0.167547 0.240108 0.482246
0.231854 0.233803 0.484522
0.458561 0.260904 0.469800
0.455863 0.256847 0.460196
0.455489 0.256345 0.457724
0.295935 0.553733 0.552845
0.287598 0.522435 0.528942
0.521120 0.520369 0.529390
0.654339 0.514426 0.525895
0.647508 0.505753 0.519301
0.313036 0.642503 0.526324
0.311962 0.637872 0.513557
0.501230 0.703214 0.521219
0.769139 0.767998 0.531272
0.835577 0.759731 0.528033
0.311635 0.636506 0.509754
0.310539 0.631928 0.497257
0.474168 0.685699 0.500619
0.711246 0.747687 0.510638
0.835887 0.763572 0.511903
0.140777 0.188560 0.462226
0.273939 0.211682 0.470761
0.458722 0.260657 0.479598
0.458722 0.260657 0.479598
0.458722 0.260657 0.479598
0.154868 0.216457 0.472238
0.218521 0.209906 0.474446
0.458722 0.260657 0.479598
0.458722 0.260657 0.479598
0.458722 0.260657 0.479598
0.292663 0.533252 0.649691
0.285184 0.506268 0.633843
0.513177 0.505810 0.670718
0.639063 0.505584 0.654722
0.632296 0.497339 0.648139
0.324697 0.701229 0.737821
0.324697 0.701229 0.737821
0.508356 0.760711 0.765227
0.768093 0.767193 0.772880
0.852212 0.759946 0.766812
0.324697 0.701229 0.737821
0.323837 0.696384 0.713241
0.484810 0.771245 0.724539
0.747928 0.877733 0.757303
0.952418 0.915298 0.764416
0.140777 0.188560 0.462226
0.272341 0.211274 0.470939
0.458722 0.260657 0.479598
0.458722 0.260657 0.479598
0.458722 0.260657 0.479598
0.151074 0.208947 0.469491
0.214299 0.202146 0.471473
0.458722 0.260657 0.479598
0.458722 0.260657 0.479598
0.458722 0.260657 0.479598
0.289418 0.521353 0.642601
0.281850 0.494881 0.627057
0.505911 0.493016 0.661051
0.628578 0.492756 0.644570
0.621947 0.484553 0.638137
0.324697 0.701229 0.737821
0.324697 0.701229 0.737821
0.503516 0.739106 0.804855
0.759500 0.752660 0.859701
0.841799 0.750946 0.851837
0.324697 0.701229 0.737821
0.324697 0.701229 0.737821
0.486264 0.793692 0.823390
0.758300 0.937265 0.950697
0.999987 0.999989 0.999989
