滤镜资源/Lutify.me Free 3D LUTs Package/3D LUTs/Monitoring LUTs/RED DSMC2/Weapon and Epic-W IPP2/Howlite - IPP2.cube
# Website: https://lutify.me
# Contact: help@lutify.me
# Copyright: (c) Copyright Lutify.me 2016, G.T. Colord LTD
# Created by: Lutify.me
LUT_3D_SIZE 17
0.000000 0.000000 0.000000
0.000012 0.000002 0.000002
0.124277 0.059823 0.049509
0.174791 0.096608 0.092238
0.252458 0.114903 0.108938
0.328219 0.136199 0.125723
0.389579 0.153744 0.140131
0.423074 0.162247 0.147460
0.423074 0.162247 0.147460
0.423074 0.162247 0.147460
0.423074 0.162247 0.147460
0.423074 0.162247 0.147460
0.423074 0.162247 0.147460
0.423074 0.162247 0.147460
0.423074 0.162247 0.147460
0.423074 0.162247 0.147460
0.423074 0.162247 0.147460
0.000004 0.000009 0.000003
0.000011 0.000009 0.000004
0.124276 0.059823 0.049508
0.174791 0.096608 0.092238
0.252457 0.114903 0.108938
0.328219 0.136199 0.125723
0.389579 0.153744 0.140131
0.423074 0.162247 0.147460
0.423074 0.162247 0.147460
0.423074 0.162247 0.147460
0.423074 0.162247 0.147460
0.423074 0.162247 0.147460
0.423074 0.162247 0.147460
0.423074 0.162247 0.147460
0.423074 0.162247 0.147460
0.423074 0.162247 0.147460
0.423074 0.162247 0.147460
0.094335 0.117114 0.092036
0.094335 0.117114 0.092036
0.122026 0.116703 0.094281
0.169577 0.119336 0.101626
0.239636 0.127129 0.111797
0.317143 0.140018 0.125601
0.376983 0.150371 0.137251
0.423074 0.162247 0.147460
0.423074 0.162247 0.147460
0.423074 0.162247 0.147460
0.423074 0.162247 0.147460
0.423074 0.162247 0.147460
0.423074 0.162247 0.147460
0.423074 0.162247 0.147460
0.423074 0.162247 0.147460
0.423074 0.162247 0.147460
0.423074 0.162247 0.147460
0.118465 0.174679 0.113923
0.118465 0.174679 0.113923
0.118997 0.168954 0.112110
0.174526 0.169889 0.116115
0.233778 0.173452 0.125213
0.313349 0.185448 0.142175
0.375459 0.192134 0.153359
0.430051 0.196762 0.161715
0.433553 0.191128 0.159796
0.431271 0.185274 0.157228
0.429506 0.180396 0.155170
0.428156 0.176731 0.153600
0.427170 0.173953 0.152410
0.426452 0.171913 0.151544
0.425920 0.170401 0.150913
0.425520 0.169266 0.150443
0.425273 0.168573 0.150155
0.161738 0.257255 0.151662
0.161738 0.257255 0.151662
0.157924 0.250992 0.148208
0.187078 0.246367 0.148240
0.236606 0.243405 0.151318
0.313109 0.246053 0.164838
0.379356 0.249650 0.178223
0.433505 0.251017 0.185905
0.459440 0.248196 0.187131
0.456169 0.241698 0.183922
0.453814 0.236953 0.181629
0.452035 0.233288 0.179767
0.450721 0.230572 0.178397
0.449840 0.228708 0.177461
0.449187 0.227336 0.176770
0.448695 0.226309 0.176251
0.448393 0.225682 0.175935
0.213116 0.347386 0.198624
0.213116 0.347386 0.198624
0.210125 0.341718 0.195987
0.206107 0.334199 0.192384
0.253902 0.331828 0.195240
0.317021 0.330830 0.200687
0.395432 0.331936 0.208779
0.454909 0.331510 0.218370
0.508587 0.330785 0.224468
0.507425 0.323886 0.222582
0.503218 0.317855 0.220091
0.500141 0.313258 0.218095
0.497843 0.309857 0.216618
0.496201 0.307371 0.215557
0.494963 0.305552 0.214782
0.494046 0.304189 0.214164
0.493494 0.303357 0.213783
0.247946 0.425821 0.231161
0.247946 0.425821 0.231161
0.245871 0.420599 0.229264
0.243107 0.413676 0.226745
0.265844 0.409482 0.227127
0.317979 0.408975 0.231250
0.399660 0.413219 0.239134
0.470576 0.414640 0.244426
0.532426 0.414586 0.249583
0.571836 0.412626 0.253051
0.567345 0.406566 0.251258
0.564010 0.402001 0.249883
0.561612 0.398689 0.248802
0.559755 0.396189 0.247987
0.558430 0.394303 0.247370
0.557436 0.392888 0.246908
0.556793 0.392024 0.246625
0.273146 0.501241 0.255068
0.273146 0.501241 0.255068
0.271333 0.495137 0.253443
0.268927 0.487284 0.251282
0.267380 0.477909 0.248606
0.319853 0.478196 0.252724
0.394035 0.482647 0.259147
0.473809 0.487127 0.265130
0.540757 0.488400 0.268805
0.606599 0.488861 0.271511
0.624621 0.484958 0.271142
0.621295 0.480259 0.269854
0.618988 0.476817 0.268896
0.617282 0.474274 0.268189
0.616020 0.472401 0.267664
0.615075 0.471015 0.267270
0.614498 0.470169 0.267030
0.283835 0.539925 0.264570
0.283835 0.539925 0.264570
0.283835 0.539925 0.264570
0.283835 0.539925 0.264570
0.283835 0.539925 0.264570
0.325130 0.549092 0.269463
0.387468 0.551909 0.274364
0.472210 0.559122 0.280996
0.544087 0.562058 0.285107
0.612481 0.563204 0.287944
0.679398 0.563614 0.289975
0.675340 0.557775 0.288770
0.672392 0.553558 0.287877
0.670213 0.550456 0.287217
0.668592 0.548187 0.286726
0.667370 0.546479 0.286355
0.666624 0.545437 0.286129
0.283835 0.539925 0.264570
0.283835 0.539925 0.264570
0.283835 0.539925 0.264570
0.283835 0.539925 0.264570
0.283835 0.539925 0.264570
0.312672 0.547582 0.268262
0.369674 0.562877 0.275328
0.455503 0.585303 0.284845
0.533910 0.603235 0.291885
0.605990 0.616739 0.296897
0.679222 0.627451 0.300597
0.725968 0.632731 0.302380
0.725968 0.632731 0.302380
0.725547 0.632077 0.302276
0.723572 0.629007 0.301787
0.722089 0.626703 0.301420
0.721184 0.625296 0.301195
0.283835 0.539925 0.264570
0.283835 0.539925 0.264570
0.283835 0.539925 0.264570
0.283835 0.539925 0.264570
0.283835 0.539925 0.264570
0.300405 0.544291 0.266676
0.354682 0.558769 0.273501
0.434531 0.580073 0.282706
0.513483 0.598901 0.290199
0.581386 0.612495 0.295298
0.646714 0.622999 0.299094
0.713338 0.631406 0.301933
0.725968 0.632731 0.302380
0.725968 0.632731 0.302380
0.725968 0.632731 0.302380
0.725968 0.632731 0.302380
0.725968 0.632731 0.302380
0.283835 0.539925 0.264570
0.283835 0.539925 0.264570
0.283835 0.539925 0.264570
0.283835 0.539925 0.264570
0.283835 0.539925 0.264570
0.290171 0.541603 0.265374
0.344713 0.556176 0.272288
0.418906 0.575940 0.280981
0.497845 0.595438 0.288844
0.563781 0.609223 0.294109
0.624920 0.619727 0.297958
0.683920 0.628017 0.300788
0.725968 0.632731 0.302380
0.725968 0.632731 0.302380
0.725968 0.632731 0.302380
0.725968 0.632731 0.302380
0.725968 0.632731 0.302380
0.283835 0.539925 0.264570
0.283835 0.539925 0.264570
0.283835 0.539925 0.264570
0.283835 0.539925 0.264570
0.283835 0.539925 0.264570
0.283835 0.539925 0.264570
0.338131 0.554451 0.271484
0.407437 0.572966 0.279738
0.486463 0.592754 0.287800
0.551427 0.606781 0.293209
0.609901 0.617394 0.297148
0.664322 0.625509 0.299941
0.716416 0.631728 0.302042
0.725968 0.632731 0.302380
0.725968 0.632731 0.302380
0.725968 0.632731 0.302380
0.725968 0.632731 0.302380
0.283835 0.539925 0.264570
0.283835 0.539925 0.264570
0.283835 0.539925 0.264570
0.283835 0.539925 0.264570
0.283835 0.539925 0.264570
0.283835 0.539925 0.264570
0.333749 0.553267 0.270909
0.399318 0.570844 0.278812
0.477882 0.590698 0.287000
0.542504 0.604960 0.292539
0.599313 0.615616 0.296466
0.651083 0.623655 0.299315
0.699672 0.629874 0.301416
0.725968 0.632731 0.302380
0.725968 0.632731 0.302380
0.725968 0.632731 0.302380
0.725968 0.632731 0.302380
0.283835 0.539925 0.264570
0.283835 0.539925 0.264570
0.283835 0.539925 0.264570
0.283835 0.539925 0.264570
0.283835 0.539925 0.264570
0.283835 0.539925 0.264570
0.330632 0.552426 0.270511
0.393451 0.569275 0.278120
0.471452 0.589141 0.286401
0.535938 0.603639 0.292040
0.591650 0.614300 0.295967
0.641845 0.622269 0.298847
0.687955 0.628499 0.300951
0.725968 0.632731 0.302380
0.725968 0.632731 0.302380
0.725968 0.632731 0.302380
0.725968 0.632731 0.302380
0.283835 0.539925 0.264570
0.283835 0.539925 0.264570
0.283835 0.539925 0.264570
0.283835 0.539925 0.264570
0.283835 0.539925 0.264570
0.283835 0.539925 0.264570
0.328424 0.551835 0.270245
0.389136 0.568124 0.277614
0.466582 0.587993 0.285949
0.531119 0.602659 0.291663
0.586059 0.613320 0.295604
0.635245 0.621268 0.298495
0.679344 0.627467 0.300603
0.719616 0.632064 0.302155
0.725968 0.632731 0.302380
0.725968 0.632731 0.302380
0.725968 0.632731 0.302380
0.283835 0.539925 0.264570
0.283835 0.539925 0.264570
0.283835 0.539925 0.264570
0.283835 0.539925 0.264570
0.283835 0.539925 0.264570
0.283835 0.539925 0.264570
0.327077 0.551475 0.270083
0.386570 0.567444 0.277315
0.463702 0.587301 0.285674
0.528219 0.602048 0.291426
0.582668 0.612723 0.295383
0.631219 0.620657 0.298281
0.674477 0.626838 0.300390
0.713616 0.631435 0.301943
0.725968 0.632731 0.302380
0.725968 0.632731 0.302380
0.725968 0.632731 0.302380
0.000002 0.000004 0.000018
0.000013 0.000006 0.000017
0.124277 0.059823 0.049509
0.174791 0.096608 0.092238
0.252457 0.114903 0.108938
0.328219 0.136199 0.125723
0.389579 0.153744 0.140131
0.423074 0.162247 0.147460
0.423074 0.162247 0.147460
0.423074 0.162247 0.147460
0.423074 0.162247 0.147460
0.423074 0.162247 0.147460
0.423074 0.162247 0.147460
0.423074 0.162247 0.147460
0.423074 0.162247 0.147460
0.423074 0.162247 0.147460
0.423074 0.162247 0.147460
0.000005 0.000010 0.000015
0.000011 0.000010 0.000014
0.124276 0.059822 0.049508
0.174791 0.096608 0.092238
0.252457 0.114903 0.108938
0.328219 0.136199 0.125723
0.389579 0.153744 0.140131
0.423074 0.162247 0.147460
0.423074 0.162247 0.147460
0.423074 0.162247 0.147460
0.423074 0.162247 0.147460
0.423074 0.162247 0.147460
0.423074 0.162247 0.147460
0.423074 0.162247 0.147460
0.423074 0.162247 0.147460
0.423074 0.162247 0.147460
0.423074 0.162247 0.147460
0.094335 0.117114 0.092036
0.094334 0.117114 0.092036
0.122026 0.116702 0.094281
0.169577 0.119336 0.101626
0.239636 0.127129 0.111797
0.317142 0.140017 0.125601
0.376983 0.150371 0.137251
0.423074 0.162247 0.147460
0.423074 0.162247 0.147460
0.423074 0.162247 0.147460
0.423074 0.162247 0.147460
0.423074 0.162247 0.147460
0.423074 0.162247 0.147460
0.423074 0.162247 0.147460
0.423074 0.162247 0.147460
0.423074 0.162247 0.147460
0.423074 0.162247 0.147460
0.118465 0.174678 0.113923
0.118465 0.174678 0.113923
0.118997 0.168954 0.112110
0.174526 0.169888 0.116114
0.233778 0.173451 0.125213
0.313349 0.185448 0.142175
0.375459 0.192134 0.153359
0.430050 0.196762 0.161714
0.433553 0.191128 0.159796
0.431271 0.185274 0.157227
0.429506 0.180396 0.155170
0.428156 0.176731 0.153600
0.427170 0.173952 0.152409
0.426452 0.171913 0.151544
0.425920 0.170400 0.150913
0.425520 0.169266 0.150443
0.425273 0.168572 0.150155
0.161738 0.257255 0.151662
0.161738 0.257255 0.151662
0.157924 0.250992 0.148208
0.187078 0.246367 0.148239
0.236606 0.243404 0.151318
0.313109 0.246053 0.164838
0.379356 0.249649 0.178223
0.433505 0.251017 0.185905
0.459440 0.248196 0.187131
0.456169 0.241697 0.183922
0.453814 0.236953 0.181629
0.452035 0.233288 0.179767
0.450721 0.230572 0.178397
0.449840 0.228708 0.177460
0.449186 0.227336 0.176769
0.448695 0.226309 0.176251
0.448393 0.225682 0.175935
0.213116 0.347386 0.198624
0.213116 0.347386 0.198624
0.210125 0.341718 0.195987
0.206107 0.334199 0.192384
0.253902 0.331828 0.195240
0.317020 0.330830 0.200687
0.395432 0.331935 0.208779
0.454909 0.331509 0.218369
0.508586 0.330785 0.224468
0.507425 0.323886 0.222582
0.503217 0.317855 0.220091
0.500141 0.313258 0.218095
0.497843 0.309856 0.216618
0.496201 0.307371 0.215557
0.494963 0.305552 0.214781
0.494046 0.304188 0.214164
0.493494 0.303356 0.213782
0.247946 0.425821 0.231161
0.247946 0.425821 0.231161
0.245871 0.420599 0.229264
0.243106 0.413676 0.226745
0.265843 0.409482 0.227127
0.317978 0.408975 0.231250
0.399660 0.413219 0.239134
0.470575 0.414640 0.244426
0.532426 0.414586 0.249583
0.571836 0.412626 0.253051
0.567345 0.406566 0.251258
0.564010 0.402001 0.249883
0.561612 0.398689 0.248802
0.559755 0.396189 0.247987
0.558430 0.394303 0.247370
0.557436 0.392888 0.246908
0.556793 0.392024 0.246624
0.273146 0.501241 0.255068
0.273146 0.501241 0.255068
0.271333 0.495137 0.253443
0.268927 0.487284 0.251281
0.267379 0.477909 0.248606
0.319853 0.478195 0.252724
0.394035 0.482647 0.259147
0.473809 0.487127 0.265130
0.540757 0.488399 0.268805
0.606599 0.488861 0.271511
0.624620 0.484958 0.271142
0.621295 0.480259 0.269854
0.618987 0.476817 0.268896
0.617282 0.474273 0.268189
0.616020 0.472400 0.267664
0.615075 0.471015 0.267270
0.614498 0.470169 0.267030
0.283835 0.539925 0.264570
0.283835 0.539925 0.264570
0.283835 0.539925 0.264570
0.283835 0.539925 0.264570
0.283835 0.539925 0.264570
0.325130 0.549091 0.269463
0.387468 0.551909 0.274364
0.472210 0.559122 0.280995
0.544087 0.562057 0.285107
0.612480 0.563203 0.287944
0.679398 0.563613 0.289975
0.675339 0.557774 0.288770
0.672391 0.553558 0.287877
0.670213 0.550456 0.287217
0.668592 0.548186 0.286726
0.667369 0.546479 0.286355
0.666623 0.545437 0.286129
0.283835 0.539925 0.264570
0.283835 0.539925 0.264570
0.283835 0.539925 0.264570
0.283835 0.539925 0.264570
0.283835 0.539925 0.264570
0.312672 0.547582 0.268262
0.369674 0.562877 0.275328
0.455503 0.585303 0.284845
0.533910 0.603235 0.291885
0.605990 0.616739 0.296897
0.679222 0.627451 0.300597
0.725968 0.632731 0.302380
0.725968 0.632731 0.302380
0.725547 0.632077 0.302276
0.723571 0.629006 0.301787
0.722089 0.626702 0.301419
0.721184 0.625296 0.301195
0.283835 0.539925 0.264570
0.283835 0.539925 0.264570
0.283835 0.539925 0.264570
0.283835 0.539925 0.264570
0.283835 0.539925 0.264570
0.300405 0.544291 0.266676
0.354682 0.558769 0.273501
0.434531 0.580073 0.282706
0.513483 0.598901 0.290199
0.581386 0.612495 0.295298
0.646714 0.622999 0.299094
0.713338 0.631406 0.301933
0.725968 0.632731 0.302380
0.725968 0.632731 0.302380
0.725968 0.632731 0.302380
0.725968 0.632731 0.302380
0.725968 0.632731 0.302380
0.283835 0.539925 0.264570
0.283835 0.539925 0.264570
0.283835 0.539925 0.264570
0.283835 0.539925 0.264570
0.283835 0.539925 0.264570
0.290171 0.541603 0.265374
0.344713 0.556176 0.272288
0.418906 0.575940 0.280981
0.497845 0.595438 0.288844
0.563781 0.609223 0.294109
0.624920 0.619727 0.297958
0.683920 0.628017 0.300788
0.725968 0.632731 0.302380
0.725968 0.632731 0.302380
0.725968 0.632731 0.302380
0.725968 0.632731 0.302380
0.725968 0.632731 0.302380
0.283835 0.539925 0.264570
0.283835 0.539925 0.264570
0.283835 0.539925 0.264570
0.283835 0.539925 0.264570
0.283835 0.539925 0.264570
0.283835 0.539925 0.264570
0.338131 0.554451 0.271484
0.407437 0.572966 0.279738
0.486462 0.592754 0.287800
0.551427 0.606781 0.293209
0.609901 0.617394 0.297148
0.664321 0.625509 0.299941
0.716415 0.631728 0.302042
0.725968 0.632731 0.302380
0.725968 0.632731 0.302380
0.725968 0.632731 0.302380
0.725968 0.632731 0.302380
0.283835 0.539925 0.264570
0.283835 0.539925 0.264570
0.283835 0.539925 0.264570
0.283835 0.539925 0.264570
0.283835 0.539925 0.264570
0.283835 0.539925 0.264570
0.333749 0.553267 0.270909
0.399318 0.570844 0.278812
0.477882 0.590698 0.287000
0.542504 0.604959 0.292539
0.599313 0.615616 0.296466
0.651083 0.623655 0.299315
0.699671 0.629874 0.301416
0.725968 0.632731 0.302380
0.725968 0.632731 0.302380
0.725968 0.632731 0.302380
0.725968 0.632731 0.302380
0.283835 0.539925 0.264570
0.283835 0.539925 0.264570
0.283835 0.539925 0.264570
0.283835 0.539925 0.264570
0.283835 0.539925 0.264570
0.283835 0.539925 0.264570
0.330632 0.552426 0.270511
0.393451 0.569275 0.278120
0.471452 0.589141 0.286401
0.535938 0.603639 0.292040
0.591650 0.614300 0.295967
0.641845 0.622269 0.298847
0.687955 0.628499 0.300951
0.725968 0.632731 0.302380
0.725968 0.632731 0.302380
0.725968 0.632731 0.302380
0.725968 0.632731 0.302380
0.283835 0.539925 0.264570
0.283835 0.539925 0.264570
0.283835 0.539925 0.264570
0.283835 0.539925 0.264570
0.283835 0.539925 0.264570
0.283835 0.539925 0.264570
0.328424 0.551835 0.270245
0.389136 0.568124 0.277614
0.466582 0.587993 0.285949
0.531118 0.602658 0.291663
0.586058 0.613320 0.295604
0.635245 0.621268 0.298495
0.679344 0.627467 0.300603
0.719616 0.632064 0.302155
0.725968 0.632731 0.302380
0.725968 0.632731 0.302380
0.725968 0.632731 0.302380
0.283835 0.539925 0.264570
0.283835 0.539925 0.264570
0.283835 0.539925 0.264570
0.283835 0.539925 0.264570
0.283835 0.539925 0.264570
0.283835 0.539925 0.264570
0.327077 0.551475 0.270083
0.386570 0.567444 0.277315
0.463702 0.587301 0.285674
0.528219 0.602048 0.291426
0.582668 0.612723 0.295383
0.631219 0.620657 0.298281
0.674476 0.626838 0.300390
0.713616 0.631435 0.301943
0.725968 0.632731 0.302380
0.725968 0.632731 0.302380
0.725968 0.632731 0.302380
0.069357 0.094719 0.151390
0.069357 0.094719 0.151390
0.130127 0.103448 0.146982
0.178071 0.112127 0.150242
0.255309 0.125907 0.158119
0.330688 0.145668 0.165996
0.391404 0.160450 0.169907
0.425256 0.167058 0.168290
0.424436 0.165274 0.160667
0.423761 0.163784 0.154206
0.423228 0.162593 0.148982
0.423074 0.162247 0.147460
0.423074 0.162247 0.147460
0.423074 0.162247 0.147460
0.423074 0.162247 0.147460
0.423074 0.162247 0.147460
0.423074 0.162247 0.147460
0.069357 0.094719 0.151389
0.069356 0.094719 0.151389
0.130126 0.103448 0.146981
0.178070 0.112127 0.150241
0.255309 0.125906 0.158118
0.330688 0.145668 0.165995
0.391403 0.160449 0.169906
0.425256 0.167058 0.168289
0.424436 0.165274 0.160666
0.423761 0.163784 0.154205
0.423228 0.162593 0.148981
0.423074 0.162247 0.147460
0.423074 0.162247 0.147460
0.423074 0.162247 0.147460
0.423074 0.162247 0.147460
0.423074 0.162247 0.147460
0.423074 0.162247 0.147460
0.097609 0.119806 0.138498
0.097609 0.119806 0.138497
0.122307 0.118100 0.134135
0.168911 0.119633 0.132312
0.238035 0.125052 0.134067
0.315205 0.135879 0.139057
0.376488 0.151616 0.143713
0.423074 0.162247 0.147460
0.423074 0.162247 0.147460
0.423074 0.162247 0.147460
0.423074 0.162247 0.147460
0.423074 0.162247 0.147460
0.423074 0.162247 0.147460
0.423074 0.162247 0.147460
0.423074 0.162247 0.147460
0.423074 0.162247 0.147460
0.423074 0.162247 0.147460
0.116488 0.168533 0.125891
0.116487 0.168533 0.125891
0.114722 0.161372 0.118754
0.170029 0.161513 0.116504
0.229072 0.164638 0.122002
0.309477 0.176974 0.138259
0.371727 0.184433 0.149700
0.426100 0.189450 0.158293
0.430780 0.183917 0.156655
0.428534 0.177772 0.154047
0.426788 0.172867 0.151949
0.425476 0.169141 0.150392
0.424502 0.166355 0.149210
0.423785 0.164291 0.148331
0.423253 0.162760 0.147679
0.423074 0.162247 0.147460
0.423074 0.162247 0.147460
0.155768 0.247295 0.146233
0.155768 0.247294 0.146233
0.151947 0.240560 0.142721
0.180160 0.235838 0.142677
0.231029 0.232979 0.145925
0.307734 0.236286 0.160334
0.374231 0.240820 0.173838
0.428478 0.242826 0.181645
0.455517 0.240380 0.183290
0.452535 0.234318 0.180289
0.450251 0.229577 0.177897
0.448641 0.226196 0.176194
0.447441 0.223683 0.174934
0.446563 0.221771 0.174000
0.445912 0.220352 0.173308
0.445428 0.219299 0.172795
0.445139 0.218685 0.172492
0.208408 0.338493 0.194465
0.208408 0.338492 0.194465
0.205367 0.332820 0.191715
0.201236 0.325158 0.187986
0.248984 0.322514 0.190659
0.311602 0.321184 0.195991
0.389447 0.322298 0.205011
0.448133 0.321936 0.214470
0.500514 0.321314 0.220786
0.501004 0.314550 0.218639
0.496965 0.308520 0.216046
0.493946 0.304039 0.214095
0.491748 0.300726 0.212590
0.490128 0.298277 0.211476
0.488935 0.296461 0.210631
0.488039 0.295098 0.209997
0.487493 0.294266 0.209610
0.244693 0.417635 0.228188
0.244693 0.417635 0.228188
0.242588 0.412419 0.226282
0.239711 0.405514 0.223688
0.261682 0.401147 0.223874
0.313605 0.400419 0.227935
0.394522 0.404202 0.235696
0.464869 0.405383 0.241010
0.525376 0.405275 0.246646
0.564915 0.403265 0.250287
0.560630 0.397383 0.248378
0.557322 0.392733 0.246857
0.554792 0.389295 0.245729
0.553014 0.386761 0.244896
0.551695 0.384881 0.244277
0.550702 0.383471 0.243815
0.550105 0.382614 0.243525
0.270308 0.491789 0.252524
0.270308 0.491789 0.252524
0.268483 0.485859 0.250861
0.266072 0.478145 0.248569
0.263303 0.468696 0.245685
0.315971 0.468881 0.249926
0.389207 0.473113 0.256360
0.468419 0.477519 0.262418
0.534299 0.478679 0.266075
0.598402 0.479128 0.268780
0.618080 0.475464 0.268520
0.614971 0.470862 0.267227
0.612603 0.467487 0.266350
0.610790 0.464994 0.265777
0.609444 0.463189 0.265352
0.608434 0.461834 0.265034
0.607818 0.461007 0.264839
0.283835 0.539925 0.264570
0.283835 0.539925 0.264570
0.283835 0.539925 0.264570
0.283835 0.539925 0.264570
0.283835 0.539925 0.264570
0.321496 0.537746 0.266857
0.382801 0.540266 0.271686
0.466809 0.547362 0.278347
0.537635 0.550184 0.282491
0.604339 0.551259 0.285331
0.671074 0.551885 0.287518
0.667235 0.546291 0.286314
0.664264 0.542141 0.285413
0.662136 0.539137 0.284748
0.660572 0.536922 0.284254
0.659399 0.535261 0.283883
0.658682 0.534246 0.283657
0.283835 0.539925 0.264570
0.283835 0.539925 0.264570
0.283835 0.539925 0.264570
0.283835 0.539925 0.264570
0.283835 0.539925 0.264570
0.311722 0.547332 0.268146
0.368251 0.562481 0.275157
0.453672 0.584852 0.284655
0.532114 0.602868 0.291744
0.603766 0.616367 0.296754
0.676221 0.627063 0.300466
0.721926 0.626449 0.301379
0.718322 0.620849 0.300486
0.715659 0.616873 0.299827
0.713683 0.614001 0.299337
0.712201 0.611845 0.298970
0.711296 0.610529 0.298746
0.283835 0.539925 0.264570
0.283835 0.539925 0.264570
0.283835 0.539925 0.264570
0.283835 0.539925 0.264570
0.283835 0.539925 0.264570
0.299241 0.543986 0.266528
0.353505 0.558461 0.273356
0.432742 0.579613 0.282522
0.511674 0.598512 0.290047
0.579334 0.612127 0.295162
0.644103 0.622608 0.298961
0.709640 0.631017 0.301802
0.725968 0.632731 0.302380
0.725968 0.632731 0.302380
0.725968 0.632731 0.302380
0.725968 0.632731 0.302380
0.725968 0.632731 0.302380
0.283835 0.539925 0.264570
0.283835 0.539925 0.264570
0.283835 0.539925 0.264570
0.283835 0.539925 0.264570
0.283835 0.539925 0.264570
0.288979 0.541287 0.265222
0.343675 0.555906 0.272163
0.417119 0.575468 0.280785
0.496101 0.595028 0.288684
0.561867 0.608847 0.293973
0.622482 0.619368 0.297835
0.680672 0.627629 0.300657
0.725968 0.632731 0.302380
0.725968 0.632731 0.302380
0.725968 0.632731 0.302380
0.725968 0.632731 0.302380
0.725968 0.632731 0.302380
0.283835 0.539925 0.264570
0.283835 0.539925 0.264570
0.283835 0.539925 0.264570
0.283835 0.539925 0.264570
0.283835 0.539925 0.264570
0.283835 0.539925 0.264570
0.337210 0.554203 0.271364
0.405693 0.572520 0.279546
0.484653 0.592323 0.287632
0.549553 0.606403 0.293069
0.607678 0.617022 0.297005
0.661504 0.625120 0.299810
0.712717 0.631340 0.301911
0.725968 0.632731 0.302380
0.725968 0.632731 0.302380
0.725968 0.632731 0.302380
0.725968 0.632731 0.302380
0.283835 0.539925 0.264570
0.283835 0.539925 0.264570
0.283835 0.539925 0.264570
0.283835 0.539925 0.264570
0.283835 0.539925 0.264570
0.283835 0.539925 0.264570
0.332836 0.553019 0.270789
0.397662 0.570401 0.278617
0.476121 0.590268 0.286833
0.540630 0.604573 0.292398
0.597160 0.615243 0.296323
0.648480 0.623264 0.299183
0.696295 0.629486 0.301285
0.725968 0.632731 0.302380
0.725968 0.632731 0.302380
0.725968 0.632731 0.302380
0.725968 0.632731 0.302380
0.283835 0.539925 0.264570
0.283835 0.539925 0.264570
0.283835 0.539925 0.264570
0.283835 0.539925 0.264570
0.283835 0.539925 0.264570
0.283835 0.539925 0.264570
0.329802 0.552203 0.270411
0.391800 0.568832 0.277925
0.469620 0.588709 0.286231
0.534094 0.603272 0.291899
0.589527 0.613932 0.295830
0.639363 0.621893 0.298715
0.684707 0.628111 0.300820
0.725753 0.632708 0.302373
0.725968 0.632731 0.302380
0.725968 0.632731 0.302380
0.725968 0.632731 0.302380
0.283835 0.539925 0.264570
0.283835 0.539925 0.264570
0.283835 0.539925 0.264570
0.283835 0.539925 0.264570
0.283835 0.539925 0.264570
0.283835 0.539925 0.264570
0.327594 0.551613 0.270145
0.387554 0.567705 0.277429
0.464805 0.587566 0.285779
0.529331 0.602282 0.291517
0.583968 0.612952 0.295468
0.632763 0.620892 0.298363
0.676343 0.627079 0.300472
0.715917 0.631676 0.302024
0.725968 0.632731 0.302380
0.725968 0.632731 0.302380
0.725968 0.632731 0.302380
0.283835 0.539925 0.264570
0.283835 0.539925 0.264570
0.283835 0.539925 0.264570
0.283835 0.539925 0.264570
0.283835 0.539925 0.264570
0.283835 0.539925 0.264570
0.326247 0.551252 0.269983
0.384988 0.567025 0.277131
0.461928 0.586874 0.285504
0.526431 0.601671 0.291280
0.580600 0.612354 0.295246
0.628781 0.620296 0.298153
0.671476 0.626450 0.300259
0.709917 0.631047 0.301812
0.725968 0.632731 0.302380
0.725968 0.632731 0.302380
0.725968 0.632731 0.302380
0.097668 0.112586 0.220691
0.097668 0.112586 0.220691
0.140948 0.118563 0.220362
0.185139 0.128790 0.213685
0.256176 0.148043 0.223421
0.333744 0.166543 0.233962
0.397010 0.179587 0.239024
0.433809 0.186075 0.239350
0.433433 0.184562 0.234732
0.432912 0.183350 0.230744
0.432455 0.182448 0.227553
0.432109 0.181719 0.225082
0.431854 0.181210 0.223273
0.431662 0.180833 0.221929
0.431523 0.180538 0.220908
0.431411 0.180300 0.220088
