滤镜资源/Lutify.me Free 3D LUTs Package/3D LUTs/Monitoring LUTs/RED DSMC2/Weapon and Epic-W IPP2/Howlite - IPP2.cube
# Website: https://lutify.me
# Contact: help@lutify.me
# Copyright: (c) Copyright Lutify.me 2016, G.T. Colord LTD
# Created by: Lutify.me
LUT_3D_SIZE 9
0.000000 0.000000 0.000000
0.124277 0.059823 0.049509
0.252458 0.114903 0.108938
0.389579 0.153744 0.140131
0.423074 0.162247 0.147460
0.423074 0.162247 0.147460
0.423074 0.162247 0.147460
0.423074 0.162247 0.147460
0.423074 0.162247 0.147460
0.094335 0.117114 0.092036
0.122026 0.116703 0.094281
0.239636 0.127129 0.111797
0.376983 0.150371 0.137251
0.423074 0.162247 0.147460
0.423074 0.162247 0.147460
0.423074 0.162247 0.147460
0.423074 0.162247 0.147460
0.423074 0.162247 0.147460
0.161738 0.257255 0.151662
0.157924 0.250992 0.148208
0.236606 0.243405 0.151318
0.379356 0.249650 0.178223
0.459440 0.248196 0.187131
0.453814 0.236953 0.181629
0.450721 0.230572 0.178397
0.449187 0.227336 0.176770
0.448393 0.225682 0.175935
0.247946 0.425821 0.231161
0.245871 0.420599 0.229264
0.265844 0.409482 0.227127
0.399660 0.413219 0.239134
0.532426 0.414586 0.249583
0.567345 0.406566 0.251258
0.561612 0.398689 0.248802
0.558430 0.394303 0.247370
0.556793 0.392024 0.246625
0.283835 0.539925 0.264570
0.283835 0.539925 0.264570
0.283835 0.539925 0.264570
0.387468 0.551909 0.274364
0.544087 0.562058 0.285107
0.679398 0.563614 0.289975
0.672392 0.553558 0.287877
0.668592 0.548187 0.286726
0.666624 0.545437 0.286129
0.283835 0.539925 0.264570
0.283835 0.539925 0.264570
0.283835 0.539925 0.264570
0.354682 0.558769 0.273501
0.513483 0.598901 0.290199
0.646714 0.622999 0.299094
0.725968 0.632731 0.302380
0.725968 0.632731 0.302380
0.725968 0.632731 0.302380
0.283835 0.539925 0.264570
0.283835 0.539925 0.264570
0.283835 0.539925 0.264570
0.338131 0.554451 0.271484
0.486463 0.592754 0.287800
0.609901 0.617394 0.297148
0.716416 0.631728 0.302042
0.725968 0.632731 0.302380
0.725968 0.632731 0.302380
0.283835 0.539925 0.264570
0.283835 0.539925 0.264570
0.283835 0.539925 0.264570
0.330632 0.552426 0.270511
0.471452 0.589141 0.286401
0.591650 0.614300 0.295967
0.687955 0.628499 0.300951
0.725968 0.632731 0.302380
0.725968 0.632731 0.302380
0.283835 0.539925 0.264570
0.283835 0.539925 0.264570
0.283835 0.539925 0.264570
0.327077 0.551475 0.270083
0.463702 0.587301 0.285674
0.582668 0.612723 0.295383
0.674477 0.626838 0.300390
0.725968 0.632731 0.302380
0.725968 0.632731 0.302380
0.069357 0.094719 0.151390
0.130127 0.103448 0.146982
0.255309 0.125907 0.158119
0.391404 0.160450 0.169907
0.424436 0.165274 0.160667
0.423228 0.162593 0.148982
0.423074 0.162247 0.147460
0.423074 0.162247 0.147460
0.423074 0.162247 0.147460
0.097609 0.119806 0.138498
0.122307 0.118100 0.134135
0.238035 0.125052 0.134067
0.376488 0.151616 0.143713
0.423074 0.162247 0.147460
0.423074 0.162247 0.147460
0.423074 0.162247 0.147460
0.423074 0.162247 0.147460
0.423074 0.162247 0.147460
0.155768 0.247295 0.146233
0.151947 0.240560 0.142721
0.231029 0.232979 0.145925
0.374231 0.240820 0.173838
0.455517 0.240380 0.183290
0.450251 0.229577 0.177897
0.447441 0.223683 0.174934
0.445912 0.220352 0.173308
0.445139 0.218685 0.172492
0.244693 0.417635 0.228188
0.242588 0.412419 0.226282
0.261682 0.401147 0.223874
0.394522 0.404202 0.235696
0.525376 0.405275 0.246646
0.560630 0.397383 0.248378
0.554792 0.389295 0.245729
0.551695 0.384881 0.244277
0.550105 0.382614 0.243525
0.283835 0.539925 0.264570
0.283835 0.539925 0.264570
0.283835 0.539925 0.264570
0.382801 0.540266 0.271686
0.537635 0.550184 0.282491
0.671074 0.551885 0.287518
0.664264 0.542141 0.285413
0.660572 0.536922 0.284254
0.658682 0.534246 0.283657
0.283835 0.539925 0.264570
0.283835 0.539925 0.264570
0.283835 0.539925 0.264570
0.353505 0.558461 0.273356
0.511674 0.598512 0.290047
0.644103 0.622608 0.298961
0.725968 0.632731 0.302380
0.725968 0.632731 0.302380
0.725968 0.632731 0.302380
0.283835 0.539925 0.264570
0.283835 0.539925 0.264570
0.283835 0.539925 0.264570
0.337210 0.554203 0.271364
0.484653 0.592323 0.287632
0.607678 0.617022 0.297005
0.712717 0.631340 0.301911
0.725968 0.632731 0.302380
0.725968 0.632731 0.302380
0.283835 0.539925 0.264570
0.283835 0.539925 0.264570
0.283835 0.539925 0.264570
0.329802 0.552203 0.270411
0.469620 0.588709 0.286231
0.589527 0.613932 0.295830
0.684707 0.628111 0.300820
0.725968 0.632731 0.302380
0.725968 0.632731 0.302380
0.283835 0.539925 0.264570
0.283835 0.539925 0.264570
0.283835 0.539925 0.264570
0.326247 0.551252 0.269983
0.461928 0.586874 0.285504
0.580600 0.612354 0.295246
0.671476 0.626450 0.300259
0.725968 0.632731 0.302380
0.725968 0.632731 0.302380
0.109308 0.132031 0.283261
0.150570 0.138141 0.284227
0.260742 0.167450 0.277069
0.398392 0.200812 0.294817
0.437613 0.205507 0.292825
0.437467 0.203299 0.287406
0.437233 0.202119 0.284225
0.437062 0.201499 0.282481
0.436976 0.201176 0.281579
0.109664 0.134444 0.272964
0.129043 0.132065 0.271081
0.242051 0.158099 0.263452
0.384648 0.193962 0.282030
0.436994 0.201242 0.281767
0.436493 0.199278 0.276282
0.436408 0.197987 0.273056
0.436359 0.197273 0.271289
0.436336 0.196905 0.270378
0.159749 0.244768 0.270475
0.155772 0.237904 0.265904
0.229930 0.229988 0.260642
0.372510 0.239461 0.265491
0.458307 0.239814 0.264798
0.452668 0.228793 0.255596
0.449500 0.222398 0.250072
0.447773 0.218816 0.246926
0.446887 0.216930 0.245294
0.243241 0.408586 0.284005
0.240591 0.402498 0.279338
0.255033 0.387802 0.267208
0.383638 0.385610 0.263619
0.507851 0.383139 0.263396
0.543226 0.373195 0.256474
0.536200 0.363936 0.248967
0.532442 0.358900 0.244742
0.530577 0.356308 0.242521
0.284031 0.539599 0.272676
0.281796 0.531362 0.267557
0.275737 0.510192 0.257395
0.369232 0.508276 0.263708
0.519444 0.517161 0.274620
0.640792 0.518557 0.279635
0.642375 0.510540 0.277836
0.639057 0.505759 0.276640
0.637430 0.503351 0.276024
0.283835 0.539925 0.264570
0.283835 0.539925 0.264570
0.283835 0.539925 0.264570
0.349994 0.557545 0.272926
0.506401 0.597352 0.289591
0.636597 0.621473 0.298567
0.725968 0.632731 0.302380
0.725968 0.632731 0.302380
0.725968 0.632731 0.302380
0.283835 0.539925 0.264570
0.283835 0.539925 0.264570
0.283835 0.539925 0.264570
0.334475 0.553464 0.271005
0.479292 0.591041 0.287133
0.601049 0.615912 0.296579
0.702359 0.630183 0.301520
0.725968 0.632731 0.302380
0.725968 0.632731 0.302380
0.283835 0.539925 0.264570
0.283835 0.539925 0.264570
0.283835 0.539925 0.264570
0.327326 0.551541 0.270113
0.464234 0.587429 0.285725
0.583294 0.612833 0.295424
0.675376 0.626954 0.300429
0.725968 0.632731 0.302380
0.725968 0.632731 0.302380
0.283835 0.539925 0.264570
0.283835 0.539925 0.264570
0.283835 0.539925 0.264570
0.323740 0.550568 0.269663
0.456470 0.585540 0.284945
0.574454 0.611244 0.294840
0.662754 0.625293 0.299868
0.725968 0.632731 0.302380
0.725968 0.632731 0.302380
0.131958 0.174442 0.409815
0.167624 0.179217 0.410747
0.276105 0.200088 0.404088
0.406200 0.237565 0.407061
0.447566 0.245267 0.408382
0.446778 0.244116 0.403746
0.446322 0.243446 0.401064
0.446072 0.243080 0.399596
0.445945 0.242889 0.398843
0.130037 0.171268 0.399131
0.146281 0.173057 0.398330
0.258899 0.192775 0.394817
0.392458 0.232203 0.395333
0.445970 0.242929 0.398999
0.445193 0.241776 0.394463
0.444743 0.241094 0.391819
0.444580 0.240664 0.390400
0.444511 0.240433 0.389674
0.165124 0.242934 0.392800
0.162142 0.237637 0.388832
0.231773 0.232948 0.385212
0.367320 0.250731 0.375147
0.455488 0.255664 0.381496
0.450512 0.246210 0.373386
0.447307 0.240641 0.368539
0.445740 0.237461 0.365997
0.444935 0.235820 0.364689
0.248504 0.409154 0.417318
0.245734 0.402594 0.412451
0.254698 0.385744 0.400285
0.381304 0.381908 0.399409
0.502482 0.380836 0.399891
0.544094 0.371396 0.393705
0.537270 0.362137 0.386779
0.533629 0.357136 0.383019
0.531827 0.354560 0.381072
0.292367 0.552865 0.422968
0.290253 0.544669 0.418248
0.283923 0.521462 0.404396
0.370228 0.514385 0.399253
0.521143 0.520326 0.401834
0.640556 0.520136 0.403054
0.650407 0.512017 0.398682
0.646212 0.506572 0.395449
0.644009 0.503740 0.393776
0.301059 0.595420 0.404309
0.300729 0.594258 0.401505
0.299762 0.590769 0.393166
0.360671 0.606096 0.390510
0.516685 0.640325 0.397727
0.643631 0.641299 0.397398
0.742351 0.638891 0.396198
0.735985 0.630432 0.392929
0.732917 0.626215 0.391257
0.299027 0.588152 0.386835
0.298705 0.587060 0.384064
0.297744 0.583804 0.375863
0.343687 0.594147 0.371528
0.487583 0.633548 0.379470
0.614915 0.660263 0.383531
0.723886 0.676333 0.385256
0.766979 0.680198 0.384727
0.766413 0.679572 0.383682
0.297922 0.584409 0.377361
0.297602 0.583321 0.374678
0.296654 0.580083 0.366794
0.335600 0.588078 0.361686
0.470358 0.624600 0.368671
0.593866 0.651542 0.372812
0.690944 0.666501 0.374359
0.761897 0.674257 0.374866
0.761368 0.673597 0.373783
0.297360 0.582492 0.372649
0.297042 0.581406 0.370004
0.296097 0.578179 0.362213
0.331387 0.585028 0.356575
0.461594 0.619996 0.363090
0.583547 0.647016 0.367202
0.675440 0.661407 0.368809
0.748568 0.669888 0.369367
0.758794 0.670389 0.368558
0.140777 0.188560 0.462226
0.170880 0.192764 0.465277
0.279156 0.213030 0.470155
0.411535 0.251196 0.469258
0.458722 0.260657 0.479598
0.458722 0.260657 0.479598
0.458722 0.260657 0.479598
0.458722 0.260657 0.479598
0.458722 0.260657 0.479598
0.140777 0.188560 0.462226
0.151054 0.189949 0.463260
0.263114 0.209048 0.472181
0.398999 0.248409 0.466357
0.458722 0.260657 0.479598
0.458722 0.260657 0.479598
0.458722 0.260657 0.479598
0.458722 0.260657 0.479598
0.458722 0.260657 0.479598
0.167547 0.240108 0.482246
0.165303 0.235931 0.480439
0.231854 0.233803 0.484522
0.370053 0.252127 0.467128
0.458561 0.260904 0.469800
0.456314 0.257455 0.463199
0.455863 0.256847 0.460196
0.455616 0.256516 0.458559
0.455489 0.256345 0.457724
0.248910 0.401558 0.532446
0.245947 0.394656 0.526012
0.250333 0.376125 0.509582
0.375214 0.371130 0.509283
0.487606 0.374212 0.492726
0.528890 0.367635 0.488630
0.522559 0.358951 0.480733
0.519200 0.354324 0.476529
0.517473 0.351947 0.474375
0.295935 0.553733 0.552845
0.293853 0.545593 0.546729
0.287598 0.522435 0.528942
0.369335 0.514329 0.523487
0.521120 0.520369 0.529390
0.636395 0.521837 0.531409
0.654339 0.514426 0.525895
0.649816 0.508712 0.521553
0.647508 0.505753 0.519301
0.314699 0.649842 0.547423
0.314436 0.648680 0.543949
0.313645 0.645194 0.533783
0.366565 0.633961 0.525187
0.517647 0.645662 0.531344
0.647010 0.647221 0.532202
0.761955 0.646730 0.533171
0.755265 0.638227 0.529069
0.751884 0.633861 0.526988
0.313036 0.642503 0.526324
0.312768 0.641317 0.523097
0.311962 0.637872 0.513557
0.355682 0.650470 0.509051
0.501230 0.703214 0.521219
0.640075 0.744123 0.528236
0.769139 0.767998 0.531272
0.840161 0.767722 0.530240
0.835577 0.759731 0.528033
0.312112 0.638505 0.515322
0.311842 0.637369 0.512154
0.311025 0.633955 0.502741
0.347471 0.643479 0.496891
0.483349 0.691741 0.507581
0.617037 0.731345 0.514735
0.729145 0.754487 0.517628
0.829902 0.767512 0.519070
0.838950 0.767737 0.518055
0.311635 0.636506 0.509754
0.311360 0.635356 0.506572
0.310539 0.631928 0.497257
0.343138 0.639823 0.490871
0.474168 0.685699 0.500619
0.605930 0.725253 0.507799
0.711246 0.747687 0.510638
0.801946 0.760231 0.512071
0.835887 0.763572 0.511903
0.140777 0.188560 0.462226
0.167077 0.192208 0.464868
0.275866 0.212185 0.470535
0.408988 0.250627 0.468671
0.458722 0.260657 0.479598
0.458722 0.260657 0.479598
0.458722 0.260657 0.479598
0.458722 0.260657 0.479598
0.458722 0.260657 0.479598
0.140777 0.188560 0.462226
0.146786 0.189364 0.462824
0.259906 0.208268 0.472646
0.396496 0.247851 0.465771
0.458722 0.260657 0.479598
0.458722 0.260657 0.479598
0.458722 0.260657 0.479598
0.458722 0.260657 0.479598
0.458722 0.260657 0.479598
0.159508 0.225230 0.475764
0.157257 0.221048 0.473965
0.223446 0.218988 0.478078
0.362208 0.239173 0.464048
0.458722 0.260657 0.479598
0.458722 0.260657 0.479598
0.458722 0.260657 0.479598
0.458722 0.260657 0.479598
0.458722 0.260657 0.479598
0.242639 0.384517 0.560395
0.239803 0.378007 0.556668
0.242026 0.360456 0.547442
0.367289 0.357103 0.560633
0.479315 0.362572 0.540083
0.524320 0.358266 0.543056
0.519046 0.350883 0.537879
0.516189 0.346862 0.535112
0.514725 0.344802 0.533673
0.296532 0.548659 0.658282
0.294692 0.541269 0.654112
0.289146 0.520369 0.642006
0.367583 0.511159 0.633656
0.519106 0.516515 0.642839
0.624255 0.520645 0.626920
0.644468 0.514116 0.620386
0.639693 0.508273 0.614059
0.637192 0.505271 0.610853
0.323007 0.691775 0.691783
0.322747 0.690341 0.685456
0.317656 0.656607 0.657287
0.366115 0.631818 0.638935
0.516164 0.643148 0.649295
0.645699 0.644778 0.651462
0.761413 0.646838 0.653989
0.758306 0.638732 0.647370
0.754802 0.634498 0.643926
0.321420 0.682800 0.654962
0.321155 0.681408 0.649966
0.320366 0.677401 0.635400
0.362490 0.692539 0.628748
0.508948 0.758412 0.649247
0.646084 0.771254 0.654261
0.770569 0.771334 0.654476
0.854244 0.766875 0.653619
0.849222 0.759379 0.650322
0.320512 0.678136 0.638094
0.320250 0.676807 0.633219
0.319472 0.672830 0.619176
0.354281 0.684059 0.611292
0.490466 0.743898 0.628806
0.630877 0.797738 0.641585
0.754270 0.830852 0.647255
0.872660 0.849357 0.650267
0.902496 0.852977 0.649555
0.320051 0.675789 0.629575
0.319790 0.674455 0.624823
0.319015 0.670494 0.611471
0.349682 0.679663 0.602691
0.481044 0.736267 0.618772
0.619022 0.790096 0.631607
0.734499 0.821814 0.637097
0.839071 0.840058 0.639984
0.898997 0.847223 0.640578
0.140777 0.188560 0.462226
0.164781 0.191875 0.464636
0.273939 0.211682 0.470761
0.407494 0.250304 0.468323
0.458722 0.260657 0.479598
0.458722 0.260657 0.479598
0.458722 0.260657 0.479598
0.458722 0.260657 0.479598
0.458722 0.260657 0.479598
0.140777 0.188560 0.462226
0.144234 0.189023 0.462570
0.258108 0.207848 0.472943
0.395031 0.247521 0.465428
0.458722 0.260657 0.479598
0.458722 0.260657 0.479598
0.458722 0.260657 0.479598
0.458722 0.260657 0.479598
0.458722 0.260657 0.479598
0.154868 0.216457 0.472238
0.152694 0.212188 0.470674
0.218521 0.209906 0.474446
0.359930 0.236867 0.463098
0.458722 0.260657 0.479598
0.458722 0.260657 0.479598
0.458722 0.260657 0.479598
0.458722 0.260657 0.479598
0.458722 0.260657 0.479598
0.236612 0.370916 0.552541
0.233681 0.364506 0.548763
0.234030 0.346791 0.539253
0.359662 0.343663 0.552275
0.469970 0.350038 0.531262
0.516101 0.346738 0.535025
0.511207 0.339871 0.530249
0.508611 0.336228 0.527743
0.507272 0.334356 0.526458
0.292663 0.533252 0.649691
0.290797 0.526370 0.645611
0.285184 0.506268 0.633843
0.362437 0.498969 0.642882
0.513177 0.505810 0.670718
0.615800 0.511010 0.655622
0.639063 0.505584 0.654722
0.634552 0.500098 0.650296
0.632296 0.497339 0.648139
0.323748 0.694102 0.734617
0.321958 0.680817 0.728650
0.316624 0.645900 0.712024
0.364740 0.625845 0.713928
0.514695 0.640222 0.755896
0.644564 0.642779 0.767168
0.749794 0.647703 0.751123
0.751925 0.640568 0.742295
0.748282 0.636358 0.736988
0.324697 0.701229 0.737821
0.324697 0.701229 0.737821
0.324697 0.701229 0.737821
0.366326 0.720568 0.741202
0.508356 0.760711 0.765227
0.645083 0.767281 0.772312
0.768093 0.767193 0.772880
0.858326 0.767829 0.773117
0.852212 0.759946 0.766812
0.324697 0.701229 0.737821
0.324697 0.701229 0.737821
0.324287 0.698921 0.725925
0.358041 0.710995 0.712532
0.494293 0.780163 0.741239
0.638823 0.846146 0.765226
0.769096 0.889330 0.775701
0.889064 0.892775 0.776666
0.934460 0.884910 0.773573
0.324697 0.701229 0.737821
0.324599 0.700674 0.734962
0.323837 0.696384 0.713241
0.353351 0.705894 0.698798
0.484810 0.771245 0.724539
0.626652 0.836563 0.747227
0.747928 0.877733 0.757303
0.861911 0.901374 0.761944
0.952418 0.915298 0.764416
0.140777 0.188560 0.462226
0.163524 0.191693 0.464509
0.272883 0.211408 0.470880
0.406676 0.250127 0.468132
0.458722 0.260657 0.479598
0.458722 0.260657 0.479598
0.458722 0.260657 0.479598
0.458722 0.260657 0.479598
0.458722 0.260657 0.479598
0.140777 0.188560 0.462226
0.142837 0.188836 0.462431
0.257130 0.207621 0.473104
0.394225 0.247332 0.465240
0.458722 0.260657 0.479598
0.458722 0.260657 0.479598
0.458722 0.260657 0.479598
0.458722 0.260657 0.479598
0.458722 0.260657 0.479598
0.152370 0.211551 0.470443
0.150181 0.207158 0.468812
0.215754 0.204782 0.472482
0.359164 0.236599 0.463165
0.458722 0.260657 0.479598
0.458722 0.260657 0.479598
0.458722 0.260657 0.479598
0.458722 0.260657 0.479598
0.458722 0.260657 0.479598
0.233245 0.363562 0.548206
0.230302 0.357172 0.544436
0.229645 0.339443 0.534857
0.355505 0.336499 0.547790
0.465142 0.343536 0.526761
0.511899 0.340834 0.530939
0.507141 0.334174 0.526333
0.504671 0.330718 0.523988
0.503464 0.329019 0.522847
0.290521 0.525349 0.645006
0.288650 0.518578 0.640930
0.282992 0.498643 0.629384
0.359032 0.491155 0.637724
0.508393 0.497303 0.664347
0.608276 0.502302 0.648602
0.632077 0.497070 0.647930
0.627767 0.491734 0.643784
0.625536 0.488935 0.641623
0.321693 0.678975 0.727827
0.319904 0.666534 0.722270
0.314556 0.633932 0.705693
0.361900 0.614488 0.707259
0.510144 0.627963 0.747830
0.638536 0.632025 0.771892
0.740321 0.638555 0.762992
0.746084 0.632632 0.759148
0.743088 0.628939 0.756194
0.324697 0.701229 0.737821
0.324697 0.701229 0.737821
0.324697 0.701229 0.737821
0.366257 0.723708 0.758799
0.505854 0.749642 0.810397
0.643013 0.761165 0.847477
0.765887 0.763881 0.867470
0.854332 0.767839 0.863413
0.849549 0.761194 0.858344
0.324697 0.701229 0.737821
0.324697 0.701229 0.737821
0.324697 0.701229 0.737821
0.358807 0.719651 0.755102
0.495920 0.799156 0.828571
0.643158 0.879470 0.884915
0.768260 0.889527 0.890543
0.887574 0.887126 0.890112
0.939328 0.883800 0.887565
0.324697 0.701229 0.737821
0.324697 0.701229 0.737821
0.324697 0.701229 0.737821
0.354582 0.717349 0.753005
0.486871 0.793029 0.818242
0.630796 0.867614 0.854229
0.755713 0.915367 0.871586
0.875434 0.952818 0.881193
0.983865 0.971220 0.885252
0.140777 0.188560 0.462226
0.162878 0.191600 0.464443
0.272341 0.211274 0.470939
0.406256 0.250036 0.468034
0.458722 0.260657 0.479598
0.458722 0.260657 0.479598
0.458722 0.260657 0.479598
0.458722 0.260657 0.479598
0.458722 0.260657 0.479598
0.140777 0.188560 0.462226
0.142118 0.188739 0.462359
0.256630 0.207508 0.473186
0.393810 0.247235 0.465143
0.458722 0.260657 0.479598
0.458722 0.260657 0.479598
0.458722 0.260657 0.479598
0.458722 0.260657 0.479598
0.458722 0.260657 0.479598
0.151074 0.208947 0.469491
0.148893 0.204580 0.467833
0.214299 0.202146 0.471473
0.358770 0.236461 0.463200
0.458722 0.260657 0.479598
0.458722 0.260657 0.479598
0.458722 0.260657 0.479598
0.458722 0.260657 0.479598
0.458722 0.260657 0.479598
0.231510 0.359800 0.545982
0.228561 0.353387 0.542213
0.227378 0.335699 0.532624
0.353406 0.332949 0.545437
0.462725 0.340266 0.524502
0.509795 0.337892 0.528878
0.505130 0.331365 0.524422
0.502785 0.328064 0.522204
0.501585 0.326365 0.521059
0.289418 0.521353 0.642601
0.287534 0.514576 0.638582
0.281850 0.494881 0.627057
0.357265 0.487147 0.635156
0.505911 0.493016 0.661051
0.604347 0.497762 0.645065
0.628578 0.492756 0.644570
0.624230 0.487352 0.640357
0.621947 0.484553 0.638137
0.320637 0.671645 0.724552
0.318848 0.659725 0.718971
0.313491 0.628033 0.702693
0.360430 0.608939 0.704100
0.507804 0.621756 0.743661
0.634974 0.625823 0.766633
0.733869 0.632305 0.757616
0.741269 0.626831 0.754514
0.738033 0.623080 0.751527
0.324697 0.701229 0.737821
0.324697 0.701229 0.737821
0.324697 0.701229 0.737821
0.365530 0.720375 0.757264
0.503516 0.739106 0.804855
0.639478 0.749986 0.841194
0.759500 0.752660 0.859701
0.847035 0.757641 0.856658
0.841799 0.750946 0.851837
0.324697 0.701229 0.737821
0.324697 0.701229 0.737821
0.324697 0.701229 0.737821
0.358435 0.719448 0.754917
0.495134 0.798714 0.828152
0.641200 0.871202 0.895899
0.764527 0.876251 0.925392
0.882443 0.879956 0.942812
0.933327 0.877666 0.939214
0.324697 0.701229 0.737821
0.324697 0.701229 0.737821
0.324697 0.701229 0.737821
0.354210 0.717147 0.752820
0.486264 0.793692 0.823390
0.631491 0.876791 0.895802
0.758300 0.937265 0.950697
0.881903 0.978756 0.983303
0.999987 0.999989 0.999989
