滤镜资源/Lutify.me Free 3D LUTs Package/3D LUTs/Monitoring LUTs/Rec709/Hackmanite - Rec709.cube
# Website: https://lutify.me
# Contact: help@lutify.me
# Copyright: (c) Copyright Lutify.me 2016, G.T. Colord LTD
# Created by: Lutify.me
LUT_3D_SIZE 17
0.000000 0.000000 0.000000
0.064728 0.000000 0.000000
0.117188 0.000000 0.000000
0.157379 0.000000 0.000000
0.203369 0.000000 0.000000
0.258820 0.000000 0.000000
0.321289 0.000000 0.000000
0.388397 0.000000 0.000000
0.457642 0.000000 0.000000
0.526886 0.000000 0.000000
0.595551 0.000000 0.000000
0.663727 0.000000 0.000000
0.731476 0.000000 0.000000
0.798889 0.000000 0.000000
0.866058 0.000000 0.000000
0.933075 0.000000 0.000000
1.000000 0.000000 0.000000
0.000000 0.042389 0.000000
0.064728 0.042389 0.000000
0.117188 0.042389 0.000000
0.157379 0.042389 0.000000
0.203369 0.042389 0.000000
0.258820 0.042389 0.000000
0.321289 0.042389 0.000000
0.388397 0.042389 0.000000
0.457642 0.042389 0.000000
0.526886 0.042389 0.000000
0.595551 0.042389 0.000000
0.663727 0.042389 0.000000
0.731476 0.042389 0.000000
0.798889 0.042389 0.000000
0.866058 0.042389 0.000000
0.933075 0.042389 0.000000
1.000000 0.042389 0.000000
0.000000 0.086365 0.000000
0.064728 0.086365 0.000000
0.117188 0.086365 0.000000
0.157379 0.086365 0.000000
0.203369 0.086365 0.000000
0.258820 0.086365 0.000000
0.321289 0.086365 0.000000
0.388397 0.086365 0.000000
0.457642 0.086365 0.000000
0.526886 0.086365 0.000000
0.595551 0.086365 0.000000
0.663727 0.086365 0.000000
0.731476 0.086365 0.000000
0.798889 0.086365 0.000000
0.866058 0.086365 0.000000
0.933075 0.086365 0.000000
1.000000 0.086365 0.000000
0.000000 0.133759 0.000000
0.064728 0.133759 0.000000
0.117188 0.133759 0.000000
0.157379 0.133759 0.000000
0.203369 0.133759 0.000000
0.258820 0.133759 0.000000
0.321289 0.133759 0.000000
0.388397 0.133759 0.000000
0.457642 0.133759 0.000000
0.526886 0.133759 0.000000
0.595551 0.133759 0.000000
0.663727 0.133759 0.000000
0.731476 0.133759 0.000000
0.798889 0.133759 0.000000
0.866058 0.133759 0.000000
0.933075 0.133759 0.000000
1.000000 0.133759 0.000000
0.000000 0.188934 0.000000
0.064728 0.188934 0.000000
0.117188 0.188934 0.000000
0.157379 0.188934 0.000000
0.203369 0.188934 0.000000
0.258820 0.188934 0.000000
0.321289 0.188934 0.000000
0.388397 0.188934 0.000000
0.457642 0.188934 0.000000
0.526886 0.188934 0.000000
0.595551 0.188934 0.000000
0.663727 0.188934 0.000000
0.731476 0.188934 0.000000
0.798889 0.188934 0.000000
0.866058 0.188934 0.000000
0.933075 0.188934 0.000000
1.000000 0.188934 0.000000
0.000000 0.251587 0.000000
0.064728 0.251587 0.000000
0.117188 0.251587 0.000000
0.157379 0.251587 0.000000
0.203369 0.251587 0.000000
0.258820 0.251587 0.000000
0.321289 0.251587 0.000000
0.388397 0.251587 0.000000
0.457642 0.251587 0.000000
0.526886 0.251587 0.000000
0.595551 0.251587 0.000000
0.663727 0.251587 0.000000
0.731476 0.251587 0.000000
0.798889 0.251587 0.000000
0.866058 0.251587 0.000000
0.933075 0.251587 0.000000
1.000000 0.251587 0.000000
0.000000 0.317291 0.000000
0.064728 0.317291 0.000000
0.117188 0.317291 0.000000
0.157379 0.317291 0.000000
0.203369 0.317291 0.000000
0.258820 0.317291 0.000000
0.321289 0.317291 0.000000
0.388397 0.317291 0.000000
0.457642 0.317291 0.000000
0.526886 0.317291 0.000000
0.595551 0.317291 0.000000
0.663727 0.317291 0.000000
0.731476 0.317291 0.000000
0.798889 0.317291 0.000000
0.866058 0.317291 0.000000
0.933075 0.317291 0.000000
1.000000 0.317291 0.000000
0.000000 0.384247 0.000000
0.064728 0.384247 0.000000
0.117188 0.384247 0.000000
0.157379 0.384247 0.000000
0.203369 0.384247 0.000000
0.258820 0.384247 0.000000
0.321289 0.384247 0.000000
0.388397 0.384247 0.000000
0.457642 0.384247 0.000000
0.526886 0.384247 0.000000
0.595551 0.384247 0.000000
0.663727 0.384247 0.000000
0.731476 0.384247 0.000000
0.798889 0.384247 0.000000
0.866058 0.384247 0.000000
0.933075 0.384247 0.000000
1.000000 0.384247 0.000000
0.000000 0.451874 0.000000
0.064728 0.451874 0.000000
0.117188 0.451874 0.000000
0.157379 0.451874 0.000000
0.203369 0.451874 0.000000
0.258820 0.451874 0.000000
0.321289 0.451874 0.000000
0.388397 0.451874 0.000000
0.457642 0.451874 0.000000
0.526886 0.451874 0.000000
0.595551 0.451874 0.000000
0.663727 0.451874 0.000000
0.731476 0.451874 0.000000
0.798889 0.451874 0.000000
0.866058 0.451874 0.000000
0.933075 0.451874 0.000000
1.000000 0.451874 0.000000
0.000000 0.519836 0.000000
0.064728 0.519836 0.000000
0.117188 0.519836 0.000000
0.157379 0.519836 0.000000
0.203369 0.519836 0.000000
0.258820 0.519836 0.000000
0.321289 0.519836 0.000000
0.388397 0.519836 0.000000
0.457642 0.519836 0.000000
0.526886 0.519836 0.000000
0.595551 0.519836 0.000000
0.663727 0.519836 0.000000
0.731476 0.519836 0.000000
0.798889 0.519836 0.000000
0.866058 0.519836 0.000000
0.933075 0.519836 0.000000
1.000000 0.519836 0.000000
0.000000 0.588013 0.000000
0.064728 0.588013 0.000000
0.117188 0.588013 0.000000
0.157379 0.588013 0.000000
0.203369 0.588013 0.000000
0.258820 0.588013 0.000000
0.321289 0.588013 0.000000
0.388397 0.588013 0.000000
0.457642 0.588013 0.000000
0.526886 0.588013 0.000000
0.595551 0.588013 0.000000
0.663727 0.588013 0.000000
0.731476 0.588013 0.000000
0.798889 0.588013 0.000000
0.866058 0.588013 0.000000
0.933075 0.588013 0.000000
1.000000 0.588013 0.000000
0.000000 0.656372 0.000000
0.064728 0.656372 0.000000
0.117188 0.656372 0.000000
0.157379 0.656372 0.000000
0.203369 0.656372 0.000000
0.258820 0.656372 0.000000
0.321289 0.656372 0.000000
0.388397 0.656372 0.000000
0.457642 0.656372 0.000000
0.526886 0.656372 0.000000
0.595551 0.656372 0.000000
0.663727 0.656372 0.000000
0.731476 0.656372 0.000000
0.798889 0.656372 0.000000
0.866058 0.656372 0.000000
0.933075 0.656372 0.000000
1.000000 0.656372 0.000000
0.000000 0.724915 0.000000
0.064728 0.724915 0.000000
0.117188 0.724915 0.000000
0.157379 0.724915 0.000000
0.203369 0.724915 0.000000
0.258820 0.724915 0.000000
0.321289 0.724915 0.000000
0.388397 0.724915 0.000000
0.457642 0.724915 0.000000
0.526886 0.724915 0.000000
0.595551 0.724915 0.000000
0.663727 0.724915 0.000000
0.731476 0.724915 0.000000
0.798889 0.724915 0.000000
0.866058 0.724915 0.000000
0.933075 0.724915 0.000000
1.000000 0.724915 0.000000
0.000000 0.793549 0.000000
0.064728 0.793549 0.000000
0.117188 0.793549 0.000000
0.157379 0.793549 0.000000
0.203369 0.793549 0.000000
0.258820 0.793549 0.000000
0.321289 0.793549 0.000000
0.388397 0.793549 0.000000
0.457642 0.793549 0.000000
0.526886 0.793549 0.000000
0.595551 0.793549 0.000000
0.663727 0.793549 0.000000
0.731476 0.793549 0.000000
0.798889 0.793549 0.000000
0.866058 0.793549 0.000000
0.933075 0.793549 0.000000
1.000000 0.793549 0.000000
0.000000 0.862305 0.000000
0.064728 0.862305 0.000000
0.117188 0.862305 0.000000
0.157379 0.862305 0.000000
0.203369 0.862305 0.000000
0.258820 0.862305 0.000000
0.321289 0.862305 0.000000
0.388397 0.862305 0.000000
0.457642 0.862305 0.000000
0.526886 0.862305 0.000000
0.595551 0.862305 0.000000
0.663727 0.862305 0.000000
0.731476 0.862305 0.000000
0.798889 0.862305 0.000000
0.866058 0.862305 0.000000
0.933075 0.862305 0.000000
1.000000 0.862305 0.000000
0.000000 0.931152 0.000000
0.064728 0.931152 0.000000
0.117188 0.931152 0.000000
0.157379 0.931152 0.000000
0.203369 0.931152 0.000000
0.258820 0.931152 0.000000
0.321289 0.931152 0.000000
0.388397 0.931152 0.000000
0.457642 0.931152 0.000000
0.526886 0.931152 0.000000
0.595551 0.931152 0.000000
0.663727 0.931152 0.000000
0.731476 0.931152 0.000000
0.798889 0.931152 0.000000
0.866058 0.931152 0.000000
0.933075 0.931152 0.000000
1.000000 0.931152 0.000000
0.000000 1.000000 0.000000
0.064728 1.000000 0.000000
0.117188 1.000000 0.000000
0.157379 1.000000 0.000000
0.203369 1.000000 0.000000
0.258820 1.000000 0.000000
0.321289 1.000000 0.000000
0.388397 1.000000 0.000000
0.457642 1.000000 0.000000
0.526886 1.000000 0.000000
0.595551 1.000000 0.000000
0.663727 1.000000 0.000000
0.731476 1.000000 0.000000
0.798889 1.000000 0.000000
0.866058 1.000000 0.000000
0.933075 1.000000 0.000000
1.000000 1.000000 0.000000
0.000000 0.000000 0.132568
0.064728 0.000000 0.132568
0.117188 0.000000 0.132568
0.157379 0.000000 0.132568
0.203369 0.000000 0.132568
0.258820 0.000000 0.132568
0.321289 0.000000 0.132568
0.388397 0.000000 0.132568
0.457642 0.000000 0.132568
0.526886 0.000000 0.132568
0.595551 0.000000 0.132568
0.663727 0.000000 0.132568
0.731476 0.000000 0.132568
0.798889 0.000000 0.132568
0.866058 0.000000 0.132568
0.933075 0.000000 0.132568
1.000000 0.000000 0.132568
0.000000 0.042389 0.132568
0.064728 0.042389 0.132568
0.117188 0.042389 0.132568
0.157379 0.042389 0.132568
0.203369 0.042389 0.132568
0.258820 0.042389 0.132568
0.321289 0.042389 0.132568
0.388397 0.042389 0.132568
0.457642 0.042389 0.132568
0.526886 0.042389 0.132568
0.595551 0.042389 0.132568
0.663727 0.042389 0.132568
0.731476 0.042389 0.132568
0.798889 0.042389 0.132568
0.866058 0.042389 0.132568
0.933075 0.042389 0.132568
1.000000 0.042389 0.132568
0.000000 0.086365 0.132568
0.064728 0.086365 0.132568
0.117188 0.086365 0.132568
0.157379 0.086365 0.132568
0.203369 0.086365 0.132568
0.258820 0.086365 0.132568
0.321289 0.086365 0.132568
0.388397 0.086365 0.132568
0.457642 0.086365 0.132568
0.526886 0.086365 0.132568
0.595551 0.086365 0.132568
0.663727 0.086365 0.132568
0.731476 0.086365 0.132568
0.798889 0.086365 0.132568
0.866058 0.086365 0.132568
0.933075 0.086365 0.132568
1.000000 0.086365 0.132568
0.000000 0.133759 0.132568
0.064728 0.133759 0.132568
0.117188 0.133759 0.132568
0.157379 0.133759 0.132568
0.203369 0.133759 0.132568
0.258820 0.133759 0.132568
0.321289 0.133759 0.132568
0.388397 0.133759 0.132568
0.457642 0.133759 0.132568
0.526886 0.133759 0.132568
0.595551 0.133759 0.132568
0.663727 0.133759 0.132568
0.731476 0.133759 0.132568
0.798889 0.133759 0.132568
0.866058 0.133759 0.132568
0.933075 0.133759 0.132568
1.000000 0.133759 0.132568
0.000000 0.188934 0.132568
0.064728 0.188934 0.132568
0.117188 0.188934 0.132568
0.157379 0.188934 0.132568
0.203369 0.188934 0.132568
0.258820 0.188934 0.132568
0.321289 0.188934 0.132568
0.388397 0.188934 0.132568
0.457642 0.188934 0.132568
0.526886 0.188934 0.132568
0.595551 0.188934 0.132568
0.663727 0.188934 0.132568
0.731476 0.188934 0.132568
0.798889 0.188934 0.132568
0.866058 0.188934 0.132568
0.933075 0.188934 0.132568
1.000000 0.188934 0.132568
0.000000 0.251587 0.132568
0.064728 0.251587 0.132568
0.117188 0.251587 0.132568
0.157379 0.251587 0.132568
0.203369 0.251587 0.132568
0.258820 0.251587 0.132568
0.321289 0.251587 0.132568
0.388397 0.251587 0.132568
0.457642 0.251587 0.132568
0.526886 0.251587 0.132568
0.595551 0.251587 0.132568
0.663727 0.251587 0.132568
0.731476 0.251587 0.132568
0.798889 0.251587 0.132568
0.866058 0.251587 0.132568
0.933075 0.251587 0.132568
1.000000 0.251587 0.132568
0.000000 0.317291 0.132568
0.064728 0.317291 0.132568
0.117188 0.317291 0.132568
0.157379 0.317291 0.132568
0.203369 0.317291 0.132568
0.258820 0.317291 0.132568
0.321289 0.317291 0.132568
0.388397 0.317291 0.132568
0.457642 0.317291 0.132568
0.526886 0.317291 0.132568
0.595551 0.317291 0.132568
0.663727 0.317291 0.132568
0.731476 0.317291 0.132568
0.798889 0.317291 0.132568
0.866058 0.317291 0.132568
0.933075 0.317291 0.132568
1.000000 0.317291 0.132568
0.000000 0.384247 0.132568
0.064728 0.384247 0.132568
0.117188 0.384247 0.132568
0.157379 0.384247 0.132568
0.203369 0.384247 0.132568
0.258820 0.384247 0.132568
0.321289 0.384247 0.132568
0.388397 0.384247 0.132568
0.457642 0.384247 0.132568
0.526886 0.384247 0.132568
0.595551 0.384247 0.132568
0.663727 0.384247 0.132568
0.731476 0.384247 0.132568
0.798889 0.384247 0.132568
0.866058 0.384247 0.132568
0.933075 0.384247 0.132568
1.000000 0.384247 0.132568
0.000000 0.451874 0.132568
0.064728 0.451874 0.132568
0.117188 0.451874 0.132568
0.157379 0.451874 0.132568
0.203369 0.451874 0.132568
0.258820 0.451874 0.132568
0.321289 0.451874 0.132568
0.388397 0.451874 0.132568
0.457642 0.451874 0.132568
0.526886 0.451874 0.132568
0.595551 0.451874 0.132568
0.663727 0.451874 0.132568
0.731476 0.451874 0.132568
0.798889 0.451874 0.132568
0.866058 0.451874 0.132568
0.933075 0.451874 0.132568
1.000000 0.451874 0.132568
0.000000 0.519836 0.132568
0.064728 0.519836 0.132568
0.117188 0.519836 0.132568
0.157379 0.519836 0.132568
0.203369 0.519836 0.132568
0.258820 0.519836 0.132568
0.321289 0.519836 0.132568
0.388397 0.519836 0.132568
0.457642 0.519836 0.132568
0.526886 0.519836 0.132568
0.595551 0.519836 0.132568
0.663727 0.519836 0.132568
0.731476 0.519836 0.132568
0.798889 0.519836 0.132568
0.866058 0.519836 0.132568
0.933075 0.519836 0.132568
1.000000 0.519836 0.132568
0.000000 0.588013 0.132568
0.064728 0.588013 0.132568
0.117188 0.588013 0.132568
0.157379 0.588013 0.132568
0.203369 0.588013 0.132568
0.258820 0.588013 0.132568
0.321289 0.588013 0.132568
0.388397 0.588013 0.132568
0.457642 0.588013 0.132568
0.526886 0.588013 0.132568
0.595551 0.588013 0.132568
0.663727 0.588013 0.132568
0.731476 0.588013 0.132568
0.798889 0.588013 0.132568
0.866058 0.588013 0.132568
0.933075 0.588013 0.132568
1.000000 0.588013 0.132568
0.000000 0.656372 0.132568
0.064728 0.656372 0.132568
0.117188 0.656372 0.132568
0.157379 0.656372 0.132568
0.203369 0.656372 0.132568
0.258820 0.656372 0.132568
0.321289 0.656372 0.132568
0.388397 0.656372 0.132568
0.457642 0.656372 0.132568
0.526886 0.656372 0.132568
0.595551 0.656372 0.132568
0.663727 0.656372 0.132568
0.731476 0.656372 0.132568
0.798889 0.656372 0.132568
0.866058 0.656372 0.132568
0.933075 0.656372 0.132568
1.000000 0.656372 0.132568
0.000000 0.724915 0.132568
0.064728 0.724915 0.132568
0.117188 0.724915 0.132568
0.157379 0.724915 0.132568
0.203369 0.724915 0.132568
0.258820 0.724915 0.132568
0.321289 0.724915 0.132568
0.388397 0.724915 0.132568
0.457642 0.724915 0.132568
0.526886 0.724915 0.132568
0.595551 0.724915 0.132568
0.663727 0.724915 0.132568
0.731476 0.724915 0.132568
0.798889 0.724915 0.132568
0.866058 0.724915 0.132568
0.933075 0.724915 0.132568
1.000000 0.724915 0.132568
0.000000 0.793549 0.132568
0.064728 0.793549 0.132568
0.117188 0.793549 0.132568
0.157379 0.793549 0.132568
0.203369 0.793549 0.132568
0.258820 0.793549 0.132568
0.321289 0.793549 0.132568
0.388397 0.793549 0.132568
0.457642 0.793549 0.132568
0.526886 0.793549 0.132568
0.595551 0.793549 0.132568
0.663727 0.793549 0.132568
0.731476 0.793549 0.132568
0.798889 0.793549 0.132568
0.866058 0.793549 0.132568
0.933075 0.793549 0.132568
1.000000 0.793549 0.132568
0.000000 0.862305 0.132568
0.064728 0.862305 0.132568
0.117188 0.862305 0.132568
0.157379 0.862305 0.132568
0.203369 0.862305 0.132568
0.258820 0.862305 0.132568
0.321289 0.862305 0.132568
0.388397 0.862305 0.132568
0.457642 0.862305 0.132568
0.526886 0.862305 0.132568
0.595551 0.862305 0.132568
0.663727 0.862305 0.132568
0.731476 0.862305 0.132568
0.798889 0.862305 0.132568
0.866058 0.862305 0.132568
0.933075 0.862305 0.132568
1.000000 0.862305 0.132568
0.000000 0.931152 0.132568
0.064728 0.931152 0.132568
0.117188 0.931152 0.132568
0.157379 0.931152 0.132568
0.203369 0.931152 0.132568
0.258820 0.931152 0.132568
0.321289 0.931152 0.132568
0.388397 0.931152 0.132568
0.457642 0.931152 0.132568
0.526886 0.931152 0.132568
0.595551 0.931152 0.132568
0.663727 0.931152 0.132568
0.731476 0.931152 0.132568
0.798889 0.931152 0.132568
0.866058 0.931152 0.132568
0.933075 0.931152 0.132568
1.000000 0.931152 0.132568
0.000000 1.000000 0.132568
0.064728 1.000000 0.132568
0.117188 1.000000 0.132568
0.157379 1.000000 0.132568
0.203369 1.000000 0.132568
0.258820 1.000000 0.132568
0.321289 1.000000 0.132568
0.388397 1.000000 0.132568
0.457642 1.000000 0.132568
0.526886 1.000000 0.132568
0.595551 1.000000 0.132568
0.663727 1.000000 0.132568
0.731476 1.000000 0.132568
0.798889 1.000000 0.132568
0.866058 1.000000 0.132568
0.933075 1.000000 0.132568
1.000000 1.000000 0.132568
0.000000 0.000000 0.216888
0.064728 0.000000 0.216888
0.117188 0.000000 0.216888
0.157379 0.000000 0.216888
0.203369 0.000000 0.216888
0.258820 0.000000 0.216888
0.321289 0.000000 0.216888
0.388397 0.000000 0.216888
0.457642 0.000000 0.216888
0.526886 0.000000 0.216888
0.595551 0.000000 0.216888
0.663727 0.000000 0.216888
0.731476 0.000000 0.216888
0.798889 0.000000 0.216888
0.866058 0.000000 0.216888
0.933075 0.000000 0.216888
1.000000 0.000000 0.216888
0.000000 0.042389 0.216888
0.064728 0.042389 0.216888
0.117188 0.042389 0.216888
0.157379 0.042389 0.216888
0.203369 0.042389 0.216888
0.258820 0.042389 0.216888
0.321289 0.042389 0.216888
0.388397 0.042389 0.216888
0.457642 0.042389 0.216888
0.526886 0.042389 0.216888
0.595551 0.042389 0.216888
0.663727 0.042389 0.216888
0.731476 0.042389 0.216888
0.798889 0.042389 0.216888
0.866058 0.042389 0.216888
0.933075 0.042389 0.216888
1.000000 0.042389 0.216888
0.000000 0.086365 0.216888
0.064728 0.086365 0.216888
0.117188 0.086365 0.216888
0.157379 0.086365 0.216888
0.203369 0.086365 0.216888
0.258820 0.086365 0.216888
0.321289 0.086365 0.216888
0.388397 0.086365 0.216888
0.457642 0.086365 0.216888
0.526886 0.086365 0.216888
0.595551 0.086365 0.216888
0.663727 0.086365 0.216888
0.731476 0.086365 0.216888
0.798889 0.086365 0.216888
0.866058 0.086365 0.216888
0.933075 0.086365 0.216888
1.000000 0.086365 0.216888
0.000000 0.133759 0.216888
0.064728 0.133759 0.216888
0.117188 0.133759 0.216888
0.157379 0.133759 0.216888
0.203369 0.133759 0.216888
0.258820 0.133759 0.216888
0.321289 0.133759 0.216888
0.388397 0.133759 0.216888
0.457642 0.133759 0.216888
0.526886 0.133759 0.216888
0.595551 0.133759 0.216888
0.663727 0.133759 0.216888
0.731476 0.133759 0.216888
0.798889 0.133759 0.216888
0.866058 0.133759 0.216888
0.933075 0.133759 0.216888
1.000000 0.133759 0.216888
0.000000 0.188934 0.216888
0.064728 0.188934 0.216888
0.117188 0.188934 0.216888
0.157379 0.188934 0.216888
0.203369 0.188934 0.216888
0.258820 0.188934 0.216888
0.321289 0.188934 0.216888
0.388397 0.188934 0.216888
0.457642 0.188934 0.216888
0.526886 0.188934 0.216888
0.595551 0.188934 0.216888
0.663727 0.188934 0.216888
0.731476 0.188934 0.216888
0.798889 0.188934 0.216888
0.866058 0.188934 0.216888
0.933075 0.188934 0.216888
1.000000 0.188934 0.216888
0.000000 0.251587 0.216888
0.064728 0.251587 0.216888
0.117188 0.251587 0.216888
0.157379 0.251587 0.216888
0.203369 0.251587 0.216888
0.258820 0.251587 0.216888
0.321289 0.251587 0.216888
0.388397 0.251587 0.216888
0.457642 0.251587 0.216888
0.526886 0.251587 0.216888
0.595551 0.251587 0.216888
0.663727 0.251587 0.216888
0.731476 0.251587 0.216888
0.798889 0.251587 0.216888
0.866058 0.251587 0.216888
0.933075 0.251587 0.216888
1.000000 0.251587 0.216888
0.000000 0.317291 0.216888
0.064728 0.317291 0.216888
0.117188 0.317291 0.216888
0.157379 0.317291 0.216888
0.203369 0.317291 0.216888
0.258820 0.317291 0.216888
0.321289 0.317291 0.216888
0.388397 0.317291 0.216888
0.457642 0.317291 0.216888
0.526886 0.317291 0.216888
0.595551 0.317291 0.216888
0.663727 0.317291 0.216888
0.731476 0.317291 0.216888
0.798889 0.317291 0.216888
0.866058 0.317291 0.216888
0.933075 0.317291 0.216888
1.000000 0.317291 0.216888
0.000000 0.384247 0.216888
0.064728 0.384247 0.216888
0.117188 0.384247 0.216888
0.157379 0.384247 0.216888
0.203369 0.384247 0.216888
0.258820 0.384247 0.216888
0.321289 0.384247 0.216888
0.388397 0.384247 0.216888
0.457642 0.384247 0.216888
0.526886 0.384247 0.216888
0.595551 0.384247 0.216888
0.663727 0.384247 0.216888
0.731476 0.384247 0.216888
0.798889 0.384247 0.216888
0.866058 0.384247 0.216888
0.933075 0.384247 0.216888
1.000000 0.384247 0.216888
0.000000 0.451874 0.216888
0.064728 0.451874 0.216888
0.117188 0.451874 0.216888
0.157379 0.451874 0.216888
0.203369 0.451874 0.216888
0.258820 0.451874 0.216888
0.321289 0.451874 0.216888
0.388397 0.451874 0.216888
0.457642 0.451874 0.216888
0.526886 0.451874 0.216888
0.595551 0.451874 0.216888
0.663727 0.451874 0.216888
0.731476 0.451874 0.216888
0.798889 0.451874 0.216888
0.866058 0.451874 0.216888
0.933075 0.451874 0.216888
1.000000 0.451874 0.216888
0.000000 0.519836 0.216888
0.064728 0.519836 0.216888
0.117188 0.519836 0.216888
0.157379 0.519836 0.216888
0.203369 0.519836 0.216888
0.258820 0.519836 0.216888
0.321289 0.519836 0.216888
0.388397 0.519836 0.216888
0.457642 0.519836 0.216888
0.526886 0.519836 0.216888
0.595551 0.519836 0.216888
0.663727 0.519836 0.216888
0.731476 0.519836 0.216888
0.798889 0.519836 0.216888
0.866058 0.519836 0.216888
0.933075 0.519836 0.216888
1.000000 0.519836 0.216888
0.000000 0.588013 0.216888
0.064728 0.588013 0.216888
0.117188 0.588013 0.216888
0.157379 0.588013 0.216888
0.203369 0.588013 0.216888
0.258820 0.588013 0.216888
0.321289 0.588013 0.216888
0.388397 0.588013 0.216888
0.457642 0.588013 0.216888
0.526886 0.588013 0.216888
0.595551 0.588013 0.216888
0.663727 0.588013 0.216888
0.731476 0.588013 0.216888
0.798889 0.588013 0.216888
0.866058 0.588013 0.216888
0.933075 0.588013 0.216888
1.000000 0.588013 0.216888
0.000000 0.656372 0.216888
0.064728 0.656372 0.216888
0.117188 0.656372 0.216888
0.157379 0.656372 0.216888
0.203369 0.656372 0.216888
0.258820 0.656372 0.216888
0.321289 0.656372 0.216888
0.388397 0.656372 0.216888
0.457642 0.656372 0.216888
0.526886 0.656372 0.216888
0.595551 0.656372 0.216888
0.663727 0.656372 0.216888
0.731476 0.656372 0.216888
0.798889 0.656372 0.216888
0.866058 0.656372 0.216888
0.933075 0.656372 0.216888
1.000000 0.656372 0.216888
0.000000 0.724915 0.216888
0.064728 0.724915 0.216888
0.117188 0.724915 0.216888
0.157379 0.724915 0.216888
0.203369 0.724915 0.216888
0.258820 0.724915 0.216888
0.321289 0.724915 0.216888
0.388397 0.724915 0.216888
0.457642 0.724915 0.216888
0.526886 0.724915 0.216888
0.595551 0.724915 0.216888
0.663727 0.724915 0.216888
0.731476 0.724915 0.216888
0.798889 0.724915 0.216888
0.866058 0.724915 0.216888
0.933075 0.724915 0.216888
1.000000 0.724915 0.216888
0.000000 0.793549 0.216888
0.064728 0.793549 0.216888
0.117188 0.793549 0.216888
0.157379 0.793549 0.216888
0.203369 0.793549 0.216888
0.258820 0.793549 0.216888
0.321289 0.793549 0.216888
0.388397 0.793549 0.216888
0.457642 0.793549 0.216888
0.526886 0.793549 0.216888
0.595551 0.793549 0.216888
0.663727 0.793549 0.216888
0.731476 0.793549 0.216888
0.798889 0.793549 0.216888
0.866058 0.793549 0.216888
0.933075 0.793549 0.216888
1.000000 0.793549 0.216888
0.000000 0.862305 0.216888
0.064728 0.862305 0.216888
0.117188 0.862305 0.216888
0.157379 0.862305 0.216888
0.203369 0.862305 0.216888
0.258820 0.862305 0.216888
0.321289 0.862305 0.216888
0.388397 0.862305 0.216888
0.457642 0.862305 0.216888
0.526886 0.862305 0.216888
0.595551 0.862305 0.216888
0.663727 0.862305 0.216888
0.731476 0.862305 0.216888
0.798889 0.862305 0.216888
0.866058 0.862305 0.216888
0.933075 0.862305 0.216888
1.000000 0.862305 0.216888
0.000000 0.931152 0.216888
0.064728 0.931152 0.216888
0.117188 0.931152 0.216888
0.157379 0.931152 0.216888
0.203369 0.931152 0.216888
0.258820 0.931152 0.216888
0.321289 0.931152 0.216888
0.388397 0.931152 0.216888
0.457642 0.931152 0.216888
0.526886 0.931152 0.216888
0.595551 0.931152 0.216888
0.663727 0.931152 0.216888
0.731476 0.931152 0.216888
0.798889 0.931152 0.216888
0.866058 0.931152 0.216888
0.933075 0.931152 0.216888
1.000000 0.931152 0.216888
0.000000 1.000000 0.216888
0.064728 1.000000 0.216888
0.117188 1.000000 0.216888
0.157379 1.000000 0.216888
0.203369 1.000000 0.216888
0.258820 1.000000 0.216888
0.321289 1.000000 0.216888
0.388397 1.000000 0.216888
0.457642 1.000000 0.216888
0.526886 1.000000 0.216888
0.595551 1.000000 0.216888
0.663727 1.000000 0.216888
0.731476 1.000000 0.216888
0.798889 1.000000 0.216888
0.866058 1.000000 0.216888
0.933075 1.000000 0.216888
1.000000 1.000000 0.216888
0.000000 0.000000 0.251648
0.064728 0.000000 0.251648
0.117188 0.000000 0.251648
0.157379 0.000000 0.251648
0.203369 0.000000 0.251648
0.258820 0.000000 0.251648
0.321289 0.000000 0.251648
0.388397 0.000000 0.251648
0.457642 0.000000 0.251648
0.526886 0.000000 0.251648
0.595551 0.000000 0.251648
0.663727 0.000000 0.251648
0.731476 0.000000 0.251648
0.798889 0.000000 0.251648
0.866058 0.000000 0.251648
0.933075 0.000000 0.251648
