滤镜资源/Lutify.me Free 3D LUTs Package/3D LUTs/Monitoring LUTs/Rec709/Herderite - Rec709.cube
# Website: https://lutify.me
# Contact: help@lutify.me
# Copyright: (c) Copyright Lutify.me 2016, G.T. Colord LTD
# Created by: Lutify.me
LUT_3D_SIZE 17
0.000000 0.000000 0.000000
0.030975 0.002289 0.002167
0.074860 0.006927 0.006592
0.134094 0.014404 0.013672
0.203827 0.023834 0.022614
0.277283 0.033966 0.032196
0.351135 0.044159 0.041870
0.424286 0.054230 0.051361
0.495667 0.063934 0.060608
0.564301 0.073151 0.069336
0.629120 0.081696 0.077423
0.689056 0.089325 0.084625
0.743347 0.095886 0.090881
0.792725 0.101593 0.096283
0.838379 0.106567 0.100983
0.881622 0.111084 0.105255
0.923584 0.115387 0.109375
0.006256 0.029083 0.005157
0.031616 0.031525 0.006226
0.075012 0.036957 0.008484
0.135132 0.044037 0.014618
0.204834 0.053467 0.023529
0.278320 0.063629 0.033173
0.352173 0.073822 0.042816
0.425323 0.083832 0.052368
0.496735 0.093597 0.061584
0.565308 0.102783 0.070251
0.630188 0.111328 0.078430
0.690063 0.118958 0.085571
0.744415 0.125488 0.091888
0.793762 0.131226 0.097229
0.839417 0.136200 0.101959
0.882629 0.140686 0.106232
0.924622 0.145020 0.110321
0.019012 0.069031 0.015717
0.044495 0.071564 0.017426
0.076782 0.076447 0.018890
0.132751 0.086487 0.022949
0.205475 0.095245 0.027039
0.280426 0.104706 0.035156
0.354248 0.114899 0.044800
0.427429 0.124939 0.054352
0.498810 0.134674 0.063538
0.567413 0.143890 0.072266
0.632263 0.152435 0.080383
0.692230 0.160034 0.087616
0.746521 0.166595 0.093842
0.795868 0.172333 0.099243
0.841522 0.177277 0.103912
0.884766 0.181824 0.108215
0.926788 0.186127 0.112366
0.039520 0.121979 0.032623
0.065460 0.124207 0.034760
0.096497 0.130310 0.036682
0.138092 0.137360 0.039276
0.201019 0.150940 0.046173
0.275299 0.162323 0.049072
0.351959 0.171875 0.053802
0.429443 0.180328 0.058838
0.502258 0.189392 0.066772
0.570801 0.198608 0.075439
0.635681 0.207153 0.083588
0.695587 0.214783 0.090759
0.749908 0.221344 0.097046
0.799225 0.226990 0.102386
0.844910 0.232025 0.107117
0.888153 0.236542 0.111389
0.930145 0.240845 0.115509
0.065369 0.183807 0.053986
0.091278 0.186005 0.056061
0.123962 0.191040 0.059753
0.161499 0.201294 0.060730
0.210419 0.209198 0.065002
0.274109 0.224304 0.075867
0.346252 0.237518 0.077209
0.420654 0.248535 0.080322
0.494324 0.258057 0.084473
0.566498 0.266327 0.088562
0.633942 0.273743 0.093323
0.697632 0.279999 0.097076
0.754150 0.285431 0.101013
0.803558 0.291107 0.106415
0.849182 0.296082 0.111115
0.892395 0.300629 0.115387
0.934387 0.304932 0.119507
0.093079 0.248749 0.076843
0.119019 0.250977 0.078949
0.152527 0.255493 0.083221
0.190552 0.265594 0.086273
0.233765 0.277344 0.086700
0.286652 0.284943 0.092529
0.349091 0.300110 0.106934
0.418396 0.314514 0.107880
0.488617 0.326538 0.110382
0.558655 0.336761 0.112671
0.625519 0.345459 0.115723
0.686646 0.352905 0.119537
0.743408 0.358917 0.122192
0.795044 0.363983 0.124695
0.842346 0.368378 0.127258
0.887543 0.372314 0.129425
0.930481 0.376038 0.132080
0.121002 0.314056 0.099884
0.146912 0.316254 0.101990
0.180420 0.320770 0.106262
0.220154 0.329926 0.110931
0.262573 0.342712 0.112762
0.308960 0.353882 0.113495
0.363342 0.361084 0.120331
0.425171 0.376038 0.134521
0.489532 0.390503 0.140045
0.556183 0.403046 0.140717
0.620148 0.413483 0.142914
0.680206 0.422150 0.145264
0.735626 0.429230 0.147186
0.786499 0.435150 0.148895
0.833557 0.440094 0.150696
0.877533 0.444550 0.152863
0.920685 0.448700 0.154755
0.148590 0.378754 0.122650
0.174469 0.380981 0.124756
0.207977 0.385498 0.129028
0.249725 0.393158 0.135529
0.291443 0.407074 0.137329
0.336334 0.419708 0.138489
0.385345 0.429413 0.140991
0.439270 0.436493 0.147736
0.499725 0.450989 0.161438
0.558441 0.464691 0.173157
0.620300 0.477142 0.172699
0.678833 0.487274 0.173157
0.732727 0.495544 0.174011
0.781830 0.502289 0.175720
0.828247 0.507965 0.176453
0.872070 0.513062 0.177734
0.914093 0.517670 0.179565
0.175232 0.441956 0.144653
0.201172 0.444183 0.146759
0.234680 0.448700 0.151031
0.277161 0.455963 0.157867
0.319611 0.469482 0.161041
0.363953 0.483032 0.162750
0.409515 0.494934 0.163330
0.460571 0.503235 0.167755
0.513367 0.510101 0.174255
0.571594 0.523834 0.187225
0.626892 0.536499 0.199280
0.681122 0.547943 0.203461
0.732635 0.557312 0.204193
0.781342 0.565094 0.203705
0.826233 0.571564 0.204376
0.868683 0.577240 0.205536
0.910461 0.582489 0.206390
0.200531 0.502869 0.165527
0.226440 0.505096 0.167633
0.259949 0.509613 0.171906
0.302490 0.516846 0.178802
0.346649 0.529144 0.183838
0.390564 0.543060 0.186340
0.435455 0.556488 0.186188
0.481110 0.567413 0.186646
0.533569 0.574310 0.193207
0.584564 0.580811 0.199402
0.639771 0.593475 0.211365
0.691132 0.604828 0.222137
0.738007 0.614594 0.231384
0.784302 0.623199 0.232147
0.827667 0.630402 0.232697
0.869690 0.636780 0.232666
0.911255 0.642670 0.232269
0.223907 0.560516 0.184814
0.249786 0.562714 0.186920
0.283295 0.567261 0.191162
0.325836 0.574493 0.198059
0.371643 0.585449 0.204803
0.415070 0.600433 0.206696
0.459778 0.613586 0.208649
0.504913 0.625763 0.208618
0.552185 0.635040 0.210724
0.603180 0.641510 0.216888
0.651703 0.647552 0.222626
0.703094 0.658875 0.233368
0.750000 0.668671 0.242615
0.792969 0.677124 0.250610
0.833038 0.684479 0.257660
0.873230 0.691437 0.259338
0.912842 0.697754 0.259949
0.244781 0.614075 0.202026
0.270691 0.616272 0.204132
0.304169 0.620819 0.208405
0.346710 0.628021 0.215271
0.394073 0.637878 0.223358
0.437256 0.653046 0.225647
0.481537 0.667084 0.227112
0.526306 0.679749 0.227539
0.571045 0.690063 0.229095
0.619904 0.697815 0.232574
0.668365 0.703827 0.238281
0.713776 0.709198 0.243378
0.760651 0.718994 0.252655
0.803619 0.727417 0.260590
0.843719 0.734833 0.267670
0.881836 0.741577 0.274048
0.918976 0.747986 0.280151
0.262817 0.662842 0.216949
0.288727 0.665070 0.219055
0.322205 0.669556 0.223328
0.364716 0.676788 0.230194
0.413330 0.685944 0.238892
0.456116 0.701813 0.240601
0.500549 0.715240 0.243805
0.544952 0.728607 0.243835
0.589447 0.739624 0.245117
0.634277 0.748932 0.246063
0.682800 0.754974 0.251831
0.728149 0.760345 0.256897
0.769867 0.764984 0.261292
0.812866 0.773376 0.269287
0.852936 0.780823 0.276337
0.891022 0.787598 0.282715
0.928162 0.793976 0.288757
0.278351 0.707458 0.229767
0.304260 0.709656 0.231842
0.337799 0.714203 0.236145
0.380280 0.721405 0.242981
0.428986 0.730560 0.251678
0.472809 0.745453 0.254944
0.516968 0.759399 0.257874
0.561218 0.772858 0.258728
0.605438 0.784424 0.259796
0.648804 0.794708 0.259674
0.695251 0.801605 0.263458
0.740570 0.806976 0.268555
0.782257 0.811646 0.272949
0.820801 0.815613 0.276764
0.860870 0.823059 0.283813
0.898956 0.829773 0.290131
0.936127 0.836182 0.296234
0.292023 0.748932 0.241058
0.317932 0.751129 0.243134
0.351440 0.755646 0.247437
0.393951 0.762909 0.254272
0.442657 0.772034 0.262970
0.487335 0.786469 0.266785
0.531219 0.800812 0.269409
0.575531 0.814117 0.271271
0.619446 0.826141 0.272034
0.662659 0.836884 0.271729
0.706116 0.844879 0.273743
0.751495 0.850281 0.278839
0.793182 0.854889 0.283203
0.831726 0.858948 0.287048
0.867859 0.862427 0.290344
0.905975 0.869202 0.296722
0.943115 0.875580 0.302826
0.304474 0.788330 0.251312
0.330353 0.790558 0.253418
0.363892 0.795044 0.257690
0.406403 0.802307 0.264557
0.455109 0.811432 0.273193
0.500916 0.824463 0.278992
0.544281 0.840027 0.280151
0.588440 0.853699 0.281769
0.632355 0.865479 0.283661
0.675323 0.876648 0.283112
0.717010 0.885437 0.284210
0.761414 0.891296 0.288116
0.803131 0.895905 0.292511
0.841675 0.899933 0.296326
0.877808 0.903442 0.299652
0.912323 0.906677 0.302704
0.949463 0.913086 0.308777
0.316254 0.826691 0.261017
0.342163 0.828888 0.263123
0.375641 0.833435 0.267426
0.418182 0.840698 0.274323
0.466888 0.849823 0.282959
0.513611 0.862183 0.289642
0.557068 0.877350 0.291840
0.600952 0.891388 0.293182
0.644745 0.903564 0.294952
0.687561 0.914581 0.295685
0.729034 0.924255 0.295166
0.770844 0.931213 0.296997
0.812561 0.935852 0.301392
0.851105 0.939880 0.305206
0.887177 0.943359 0.308533
0.921783 0.946594 0.311554
0.955505 0.949646 0.314423
0.002899 0.000000 0.024445
0.029755 0.004303 0.029083
0.074127 0.008240 0.035248
0.134277 0.014587 0.041901
0.204041 0.024048 0.050873
0.277466 0.034180 0.060455
0.351318 0.044373 0.070129
0.424469 0.054413 0.079620
0.495880 0.064148 0.088867
0.564484 0.073364 0.097626
0.629303 0.081909 0.105652
0.689240 0.089478 0.112915
0.743561 0.096100 0.119110
0.792908 0.101776 0.124542
0.838593 0.106750 0.129272
0.881805 0.111298 0.133514
0.923767 0.115601 0.137634
0.005676 0.029694 0.029114
0.032227 0.032104 0.031403
0.076080 0.036774 0.035797
0.135345 0.044281 0.042908
0.205048 0.053680 0.051849
0.278503 0.063812 0.061432
0.352325 0.073975 0.071075
0.425507 0.084045 0.080627
0.496918 0.093750 0.089844
0.565552 0.102997 0.098602
0.630341 0.111511 0.106659
0.690277 0.119171 0.113892
0.744568 0.125702 0.120117
0.793945 0.131409 0.125488
0.839600 0.136383 0.130219
0.882812 0.140900 0.134491
0.924835 0.145233 0.138611
0.017212 0.069733 0.037720
0.045013 0.072083 0.041962
0.077393 0.077026 0.044098
0.135040 0.086243 0.047729
0.207153 0.094788 0.053833
0.280609 0.104889 0.063416
0.354431 0.115082 0.073059
0.427612 0.125122 0.082611
0.499054 0.134857 0.091858
0.567627 0.144073 0.100555
0.632477 0.152618 0.108673
0.692413 0.160217 0.115875
0.746674 0.166809 0.122101
0.796082 0.172485 0.127502
0.841736 0.177460 0.132202
0.884979 0.182007 0.136536
0.926910 0.186340 0.140564
0.035583 0.122803 0.052307
0.065491 0.125000 0.058868
0.097748 0.130341 0.062103
0.138672 0.137939 0.064484
0.202606 0.151276 0.070465
0.277710 0.161987 0.073914
0.355286 0.170990 0.078857
0.431000 0.179871 0.085785
0.502411 0.189606 0.095001
0.571045 0.198822 0.103760
0.635803 0.207336 0.111786
0.695801 0.214996 0.119049
0.750122 0.221527 0.125336
0.799469 0.227173 0.130646
0.845123 0.232178 0.135406
0.888336 0.236725 0.139709
0.930328 0.241089 0.143768
0.061127 0.184601 0.073395
0.091370 0.186829 0.080231
0.124847 0.191315 0.084473
0.162628 0.201477 0.086456
0.210999 0.209778 0.090179
0.275299 0.224823 0.099976
0.347870 0.237671 0.101929
0.423157 0.248291 0.104919
0.496765 0.257507 0.109619
0.569305 0.265594 0.113892
0.637115 0.272736 0.118591
0.700073 0.279053 0.123108
0.754333 0.285614 0.129272
0.803772 0.291290 0.134705
0.849426 0.296265 0.139435
0.892609 0.300842 0.143738
0.934631 0.305145 0.147797
0.088867 0.249573 0.096252
0.119049 0.251770 0.103088
0.152557 0.256317 0.107391
0.191833 0.265717 0.111572
0.234833 0.277649 0.112427
0.287262 0.285522 0.117737
0.349670 0.300690 0.132080
0.419739 0.314880 0.132355
0.490173 0.326630 0.135101
0.560455 0.336639 0.137695
0.627563 0.345123 0.140839
0.688934 0.352386 0.144745
0.745819 0.358276 0.147430
0.797668 0.363220 0.150024
0.845123 0.367615 0.152679
0.889160 0.371552 0.155548
0.933594 0.375000 0.157501
0.116760 0.314880 0.119293
0.146973 0.317078 0.126099
0.180450 0.321564 0.130402
0.221588 0.329773 0.136292
0.263763 0.342896 0.138275
0.309570 0.354492 0.138641
0.363922 0.361664 0.145477
0.425751 0.376617 0.159637
0.490540 0.391052 0.164642
0.557251 0.403290 0.165619
0.622009 0.413635 0.167267
0.682281 0.422180 0.169769
0.737915 0.429108 0.171783
0.787964 0.434937 0.174438
0.834961 0.439789 0.176208
0.880280 0.444153 0.177673
0.922272 0.448273 0.180450
0.144348 0.379547 0.142029
0.174530 0.381775 0.148865
0.208038 0.386292 0.153168
0.250580 0.393555 0.160034
0.292664 0.407104 0.162750
0.337402 0.420074 0.163879
0.385956 0.429993 0.166168
0.439850 0.437103 0.172882
0.500336 0.451569 0.186646
0.559937 0.465363 0.196533
0.621918 0.477631 0.196259
0.680695 0.487640 0.196960
0.734009 0.495758 0.198944
0.784058 0.502441 0.199768
0.829651 0.508057 0.201538
0.873505 0.513000 0.202820
0.916718 0.517578 0.203857
0.171021 0.442810 0.164062
0.201233 0.445007 0.170898
0.234711 0.449524 0.175171
0.277252 0.456787 0.182068
0.320984 0.469391 0.186554
0.365204 0.483002 0.188690
0.410614 0.495270 0.188995
0.461182 0.503845 0.192932
0.513977 0.510712 0.199432
0.572235 0.524414 0.212463
0.627441 0.537079 0.224426
0.682281 0.548492 0.227600
0.734558 0.557861 0.227509
0.782593 0.565460 0.228149
0.827545 0.571838 0.228943
0.870972 0.577484 0.229065
0.911957 0.582703 0.231140
0.196320 0.503693 0.184937
0.226501 0.505890 0.191772
0.260010 0.510406 0.196045
0.302551 0.517639 0.202911
0.348083 0.528870 0.209320
0.391724 0.543365 0.211456
0.436646 0.556366 0.212616
0.482086 0.567719 0.212585
0.534180 0.574890 0.218414
0.585144 0.581421 0.224579
0.640350 0.594086 0.236572
0.691742 0.605377 0.247345
0.738617 0.615173 0.256561
0.784851 0.623688 0.257172
0.828918 0.630920 0.256775
0.870972 0.637268 0.256866
0.912628 0.643066 0.256531
0.219696 0.561340 0.204224
0.249878 0.563568 0.211029
0.283325 0.568054 0.215302
0.325897 0.575287 0.222168
0.372925 0.585632 0.229553
0.416260 0.600647 0.231812
0.460815 0.614258 0.233154
0.505951 0.625977 0.234406
0.552795 0.635620 0.235901
0.603790 0.642120 0.242065
0.652313 0.648132 0.247772
0.703705 0.659454 0.258545
0.750549 0.669250 0.267761
0.793549 0.677704 0.275787
0.833649 0.685089 0.282837
0.873840 0.691925 0.284332
0.914185 0.698334 0.283844
0.240540 0.614868 0.221436
0.270721 0.617096 0.228271
0.304230 0.621613 0.232544
0.346771 0.628845 0.239441
0.395386 0.638000 0.248138
0.438477 0.653229 0.250702
0.482697 0.667236 0.252502
0.527527 0.679443 0.254364
0.572083 0.690704 0.254028
0.620453 0.698395 0.257751
0.668976 0.704437 0.263458
0.714355 0.709808 0.268555
0.761261 0.719574 0.277802
0.804230 0.728027 0.285797
0.844269 0.735443 0.292847
0.882446 0.742188 0.299255
0.919586 0.748566 0.305328
0.258606 0.663635 0.236328
0.288788 0.665863 0.243164
0.322266 0.670349 0.247406
0.364777 0.677643 0.254303
0.413483 0.686737 0.262939
0.457733 0.701202 0.266754
0.501556 0.715942 0.268127
0.546234 0.728271 0.270721
0.590454 0.740295 0.269989
0.634888 0.749542 0.271271
0.683411 0.755554 0.276947
0.728729 0.760925 0.282074
0.770447 0.765564 0.286469
0.813477 0.774017 0.294464
0.853546 0.781433 0.301544
0.891632 0.788177 0.307892
0.928741 0.794586 0.313934
0.274139 0.708252 0.249146
0.304291 0.710480 0.255981
0.337799 0.714996 0.260284
0.380341 0.722260 0.267151
0.429047 0.731384 0.275787
0.474152 0.745483 0.280029
0.518158 0.759491 0.283234
0.562408 0.772949 0.284454
0.606476 0.785065 0.284485
0.649841 0.794830 0.285889
0.695801 0.802185 0.288635
0.741211 0.807587 0.293732
0.782898 0.812225 0.298126
0.821381 0.816223 0.301910
0.861481 0.823639 0.308990
0.899506 0.830383 0.315308
0.936707 0.836792 0.321442
0.287781 0.749725 0.260437
0.317993 0.751953 0.267303
0.351501 0.756470 0.271545
0.394012 0.763702 0.278473
0.442719 0.772858 0.287079
0.488983 0.785706 0.293060
0.532532 0.800842 0.294861
0.576660 0.814148 0.296906
0.620636 0.826263 0.298035
0.663818 0.836975 0.297943
0.706696 0.845459 0.298889
0.752106 0.850830 0.303986
0.793793 0.855499 0.308411
0.832336 0.859497 0.312195
0.868469 0.863037 0.315552
0.906586 0.869751 0.321930
0.943695 0.876190 0.327972
0.300232 0.789154 0.270721
0.330414 0.791351 0.277527
0.363892 0.795868 0.281830
0.406403 0.803131 0.288696
0.455139 0.812256 0.297363
0.502289 0.824463 0.304108
0.545837 0.839294 0.306793
0.589630 0.853699 0.307434
0.633453 0.866180 0.308228
0.676483 0.876709 0.309265
0.718048 0.886047 0.309204
0.761993 0.891876 0.313324
0.803711 0.896515 0.317719
0.842285 0.900513 0.321503
0.878387 0.904053 0.324860
0.912903 0.907257 0.327881
0.950043 0.913666 0.333954
0.312012 0.827515 0.280426
0.342285 0.829742 0.287292
0.375763 0.834259 0.291595
0.418274 0.841461 0.298431
0.466949 0.850616 0.307098
0.514648 0.862976 0.313507
0.558105 0.878113 0.315948
0.602112 0.891388 0.318817
0.645813 0.904266 0.319519
0.688690 0.915192 0.320374
0.730103 0.924866 0.320068
0.771423 0.931824 0.322174
0.813171 0.936432 0.326569
0.851685 0.940460 0.330383
0.887848 0.943970 0.333710
0.922363 0.947174 0.336761
0.956085 0.950226 0.339630
0.008789 0.000000 0.054962
0.035675 0.007141 0.056641
0.071075 0.013123 0.069031
0.129669 0.020844 0.080841
0.202545 0.026703 0.090210
0.277863 0.034546 0.098724
0.351715 0.044739 0.108429
0.424866 0.054810 0.117920
0.496246 0.064514 0.127197
0.564911 0.073730 0.135925
0.629700 0.082275 0.143982
0.689636 0.089905 0.151184
0.743927 0.096466 0.157379
0.793304 0.102142 0.162842
0.838959 0.107147 0.167572
0.882202 0.111664 0.171844
0.924194 0.115997 0.175903
0.007080 0.024323 0.066681
0.038116 0.032074 0.061951
0.073578 0.040894 0.071350
0.133301 0.047607 0.082062
0.205414 0.054047 0.090149
0.278900 0.064178 0.099731
0.352722 0.074371 0.109375
0.425903 0.084442 0.118866
0.497314 0.094177 0.128113
0.565918 0.103394 0.136871
0.630737 0.111908 0.144928
0.690674 0.119537 0.152161
0.744965 0.126099 0.158417
0.794342 0.131775 0.163757
0.839996 0.136780 0.168518
0.883209 0.141327 0.172760
0.925201 0.145630 0.176941
0.017303 0.070923 0.069153
0.043854 0.073303 0.071411
0.078613 0.078247 0.076080
0.137817 0.085724 0.083191
0.207550 0.095184 0.092133
0.281006 0.105255 0.101685
0.354858 0.115479 0.111389
0.428009 0.125519 0.120880
0.499390 0.135254 0.130127
0.568054 0.144470 0.138855
0.632874 0.152985 0.146942
0.692780 0.160645 0.154175
0.747101 0.167206 0.160400
0.796448 0.172852 0.165771
0.842102 0.177856 0.170502
0.885345 0.182404 0.174805
0.927307 0.186707 0.178894
0.035187 0.123718 0.082733
0.062103 0.126373 0.085144
0.099121 0.131165 0.093018
0.139893 0.139160 0.096497
0.206451 0.151367 0.101196
0.283051 0.160583 0.106140
0.358246 0.170166 0.114532
0.431396 0.180237 0.124054
0.502808 0.189972 0.133301
0.571442 0.199219 0.142059
0.636261 0.207733 0.150116
0.696198 0.215363 0.157379
0.750427 0.221924 0.163574
0.799866 0.227631 0.168976
0.845490 0.232605 0.173676
0.888763 0.237122 0.178009
0.930664 0.241425 0.182037
0.059418 0.186066 0.100616
0.085846 0.188477 0.103363
0.124969 0.192993 0.114380
0.165039 0.201874 0.118988
0.212250 0.210999 0.122192
0.278076 0.225769 0.129852
0.352020 0.237610 0.132568
0.427582 0.247437 0.136902
0.502899 0.255951 0.141541
0.574860 0.263611 0.146729
0.640503 0.271820 0.154114
0.700470 0.279449 0.161407
0.754730 0.286041 0.167603
0.804138 0.291656 0.172974
0.849731 0.296692 0.177643
0.893036 0.301208 0.182037
0.934998 0.305511 0.186066
0.084320 0.251221 0.120300
0.110443 0.253448 0.123291
0.152679 0.257935 0.137238
0.194489 0.265808 0.143433
0.237061 0.278351 0.145142
0.288513 0.286743 0.149750
0.351807 0.301971 0.161957
0.422699 0.315521 0.162811
0.494934 0.326691 0.165192
0.564697 0.336182 0.169189
0.631561 0.344269 0.173187
0.694366 0.351074 0.176575
0.751770 0.356781 0.179535
0.802856 0.361633 0.182831
0.850647 0.365692 0.185486
0.896271 0.369324 0.187683
0.939575 0.372925 0.190369
0.108856 0.316528 0.140167
0.138306 0.318726 0.146301
0.180603 0.323242 0.160278
0.223114 0.330505 0.167145
0.266144 0.343414 0.170502
0.311340 0.355530 0.170990
0.365143 0.362885 0.177490
0.427002 0.377838 0.191681
0.493286 0.392059 0.194366
0.560516 0.403900 0.195984
0.625671 0.413757 0.198059
0.686432 0.421967 0.200836
0.742340 0.428680 0.203064
0.792694 0.434235 0.205750
0.840088 0.438934 0.207764
0.885559 0.443054 0.209198
0.927887 0.447021 0.212006
0.135742 0.381226 0.162231
0.165894 0.383423 0.169067
0.208160 0.387939 0.183044
0.250702 0.395203 0.189911
0.295288 0.407288 0.194916
0.339691 0.420624 0.196625
0.387146 0.431213 0.198181
0.441071 0.438293 0.204895
0.501556 0.452789 0.218628
0.561951 0.466522 0.226715
0.624695 0.478516 0.226349
0.683014 0.488220 0.228241
0.737274 0.496124 0.229614
0.786652 0.502563 0.231567
0.834290 0.507965 0.231781
0.877411 0.512817 0.234100
0.919708 0.517334 0.236237
0.162354 0.444458 0.184265
0.192566 0.446655 0.191101
0.234863 0.451172 0.205048
0.277374 0.458405 0.211945
0.323792 0.469269 0.218719
0.367615 0.483368 0.221222
0.412781 0.495941 0.221741
0.462372 0.505035 0.224945
0.515198 0.511902 0.231445
0.573425 0.525635 0.244415
0.628662 0.538269 0.256439
0.685059 0.549683 0.256714
0.737610 0.558777 0.256989
0.785858 0.566254 0.257935
0.830994 0.572479 0.258911
0.873718 0.577972 0.260376
0.915771 0.583008 0.261383
0.187653 0.505341 0.205109
0.217865 0.507538 0.211945
0.260162 0.512085 0.225922
0.302612 0.519318 0.232788
0.351013 0.528442 0.241577
0.394135 0.543945 0.243134
0.438904 0.556976 0.245087
0.484283 0.568329 0.245850
0.535400 0.576111 0.250397
0.586365 0.582611 0.256561
0.641571 0.595245 0.268585
0.692963 0.606598 0.279327
0.740387 0.616455 0.287201
0.787292 0.624847 0.286926
0.831512 0.631958 0.286835
0.873627 0.638153 0.287109
0.915344 0.643829 0.287018
0.211029 0.563019 0.224426
0.241211 0.565216 0.231232
0.283478 0.569702 0.245209
0.326019 0.576965 0.252075
0.374725 0.586090 0.260742
0.418915 0.600586 0.264252
0.463318 0.614319 0.266449
0.508270 0.626556 0.267517
0.554016 0.636810 0.267914
0.605011 0.643341 0.274109
0.653503 0.649323 0.279785
0.704926 0.660675 0.290527
0.751801 0.670471 0.299805
0.794769 0.678894 0.307770
0.835419 0.686432 0.313568
0.876282 0.693176 0.313660
0.916779 0.699463 0.313416
0.231903 0.616516 0.241608
0.262115 0.618744 0.248474
0.304382 0.623260 0.262421
0.346863 0.630524 0.269287
0.395599 0.639679 0.277985
0.441284 0.652985 0.283234
0.485168 0.667664 0.284790
0.529755 0.680328 0.286255
0.574249 0.691559 0.286591
0.621674 0.699615 0.289764
0.670166 0.705597 0.295441
0.715576 0.710999 0.300537
0.762482 0.720764 0.309845
0.805420 0.729218 0.317780
0.845520 0.736633 0.324860
0.883606 0.743378 0.331207
0.920746 0.749786 0.337280
0.249969 0.665283 0.256531
0.280121 0.667511 0.263336
0.322418 0.672028 0.277344
0.364929 0.679291 0.284210
0.413635 0.688416 0.292877
0.460602 0.700806 0.299286
0.504211 0.715668 0.301361
0.548523 0.729126 0.302490
0.592773 0.740631 0.303467
0.636200 0.750732 0.303223
0.684601 0.756744 0.308960
0.729950 0.762115 0.314087
0.771667 0.766785 0.318451
0.814697 0.775208 0.326508
0.854706 0.782654 0.333496
0.892853 0.789368 0.339874
0.930023 0.795776 0.345978
0.265472 0.709900 0.269348
0.295715 0.712158 0.276184
0.337921 0.716614 0.290131
0.380463 0.723907 0.297028
0.429169 0.733032 0.305664
0.477081 0.744965 0.312683
0.520538 0.760345 0.314301
0.564819 0.773224 0.317230
0.608795 0.785370 0.317902
0.652008 0.796082 0.317383
0.697052 0.803406 0.320648
0.742401 0.808777 0.325714
0.784119 0.813446 0.330170
0.822632 0.817444 0.333954
0.862671 0.824860 0.340973
0.900818 0.831604 0.347382
0.937927 0.838013 0.353424
0.279144 0.751404 0.280640
0.309357 0.753601 0.287476
0.351624 0.758118 0.301453
0.394135 0.765350 0.308319
0.442871 0.774475 0.316956
0.491669 0.785797 0.324615
0.535126 0.801025 0.327057
0.579010 0.814972 0.328552
0.622864 0.827026 0.330139
0.665955 0.837769 0.330536
0.707947 0.846649 0.330902
0.753296 0.852051 0.335999
0.795044 0.856689 0.340393
0.833527 0.860687 0.344208
0.869659 0.864197 0.347504
0.907776 0.870972 0.353882
0.944916 0.877411 0.360016
0.291595 0.790802 0.290924
0.321808 0.792999 0.297760
0.364044 0.797516 0.311707
0.406555 0.804779 0.318604
0.455292 0.813904 0.327240
0.505066 0.824493 0.335663
0.548248 0.840118 0.337799
0.592133 0.853851 0.340179
0.635834 0.866302 0.341583
0.678802 0.876953 0.343109
0.720215 0.886780 0.342102
0.763275 0.893097 0.345337
0.804932 0.897736 0.349731
0.843445 0.901733 0.353516
0.879639 0.905273 0.356842
0.914124 0.908447 0.359863
0.951294 0.914856 0.365967
0.303406 0.829193 0.300629
0.333588 0.831390 0.307495
0.375854 0.835876 0.321442
0.418396 0.843140 0.328339
0.467102 0.852264 0.336975
0.517822 0.862091 0.346313
0.561066 0.877350 0.349365
0.604492 0.892151 0.350311
0.648041 0.904999 0.351471
0.690826 0.915955 0.352814
0.732269 0.925598 0.352966
0.772705 0.933014 0.354187
0.814362 0.937653 0.358582
0.852936 0.941650 0.362366
0.889038 0.945190 0.365723
0.923584 0.948395 0.368774
0.957336 0.951447 0.371643
0.018280 0.000000 0.092651
0.045990 0.008240 0.092316
0.080566 0.018494 0.104553
0.126221 0.027283 0.121948
0.192749 0.039215 0.137726
0.269714 0.045807 0.151276
0.346191 0.052307 0.161163
0.422943 0.058350 0.169556
0.496887 0.065155 0.177399
0.565521 0.074371 0.186157
0.630341 0.082916 0.194214
0.690277 0.090546 0.201477
0.744568 0.097107 0.207672
0.793915 0.102783 0.213043
0.839600 0.107788 0.217804
0.882812 0.112274 0.222076
