滤镜资源/Lutify.me Free 3D LUTs Package/3D LUTs/Monitoring LUTs/Rec709/Hiddenite - Rec709.cube
# Website: https://lutify.me
# Contact: help@lutify.me
# Copyright: (c) Copyright Lutify.me 2016, G.T. Colord LTD
# Created by: Lutify.me
LUT_3D_SIZE 9
0.000000 0.000000 0.000000
0.028931 0.010864 0.017975
0.088043 0.014526 0.029358
0.167908 0.018646 0.043396
0.262756 0.025604 0.055695
0.368011 0.033508 0.068695
0.478119 0.041260 0.083923
0.590759 0.049133 0.100250
0.705536 0.057098 0.117706
0.017426 0.042145 0.032867
0.052673 0.052185 0.042847
0.110199 0.059326 0.050507
0.189117 0.067261 0.060211
0.286499 0.075562 0.072418
0.394989 0.083954 0.086945
0.508148 0.092041 0.104309
0.625336 0.099670 0.123962
0.745209 0.107086 0.145447
0.022705 0.108765 0.054871
0.066071 0.117401 0.061859
0.126556 0.126129 0.069458
0.208221 0.135956 0.079376
0.306946 0.146484 0.091980
0.415894 0.157227 0.106964
0.528656 0.167969 0.123596
0.644287 0.178528 0.141846
0.761719 0.189087 0.161560
0.036774 0.196198 0.082581
0.080719 0.207153 0.090607
0.144958 0.217041 0.098511
0.229614 0.228668 0.108795
0.330688 0.241211 0.121552
0.440765 0.254059 0.136292
0.554291 0.266754 0.152618
0.669861 0.279358 0.170288
0.787354 0.291901 0.189636
0.051941 0.304352 0.117157
0.096588 0.317657 0.126770
0.165131 0.328003 0.135071
0.252838 0.340912 0.146057
0.356232 0.354858 0.159088
0.467651 0.369080 0.173828
0.581909 0.383148 0.190063
0.698059 0.397125 0.207550
0.815735 0.410858 0.226440
0.068176 0.424835 0.157043
0.112244 0.440826 0.169128
0.185791 0.450653 0.177155
0.277008 0.463837 0.188416
0.382477 0.478394 0.202118
0.495178 0.493256 0.217163
0.610107 0.508087 0.233337
0.726898 0.522736 0.250732
0.845032 0.537292 0.269318
0.085358 0.549744 0.200806
0.127167 0.569061 0.216034
0.206573 0.577515 0.223389
0.300995 0.590576 0.234924
0.408691 0.605347 0.248779
0.522369 0.620697 0.264099
0.638245 0.635956 0.280548
0.755646 0.651123 0.297852
0.874084 0.666138 0.316223
0.103638 0.677551 0.247833
0.140686 0.701202 0.267487
0.227295 0.707214 0.272949
0.325073 0.720032 0.284393
0.434631 0.734863 0.298523
0.549591 0.750427 0.314087
0.666199 0.765930 0.330475
0.784210 0.781464 0.347839
0.902985 0.796814 0.365875
0.124176 0.806091 0.299591
0.151886 0.836975 0.323242
0.247681 0.839264 0.325409
0.349274 0.851318 0.336548
0.460510 0.866119 0.350739
0.576569 0.881622 0.366302
0.694061 0.897308 0.382782
0.812622 0.912933 0.399994
0.931732 0.928589 0.417908
0.004181 0.004181 0.022736
0.028595 0.012756 0.065918
0.089813 0.015747 0.076599
0.170624 0.019775 0.090179
0.265167 0.027740 0.100800
0.371277 0.035889 0.112762
0.482422 0.044128 0.126068
0.596008 0.052429 0.140503
0.711700 0.060883 0.156067
0.022247 0.041931 0.077911
0.050262 0.056580 0.085724
0.110779 0.061829 0.096771
0.190674 0.069733 0.106506
0.288788 0.078278 0.118408
0.398346 0.086945 0.132385
0.512329 0.095703 0.147797
0.630554 0.103821 0.165863
0.751038 0.111816 0.185577
0.035248 0.103149 0.106567
0.067566 0.119690 0.110504
0.127686 0.129608 0.115112
0.210358 0.139496 0.125244
0.310120 0.150299 0.137482
0.420105 0.161407 0.151337
0.533722 0.172638 0.166534
0.650055 0.183624 0.183228
0.768219 0.194702 0.201447
0.047455 0.192444 0.132935
0.080750 0.213257 0.132843
0.147156 0.222382 0.140564
0.233154 0.233856 0.151184
0.335114 0.246490 0.163971
0.446136 0.259613 0.178040
0.560120 0.272644 0.193420
0.676331 0.285675 0.210236
0.794281 0.298615 0.228271
0.061890 0.303375 0.163177
0.097412 0.325928 0.165466
0.168488 0.335236 0.173218
0.257568 0.347809 0.184265
0.361847 0.361694 0.197449
0.473999 0.376038 0.212067
0.588654 0.390320 0.227905
0.705322 0.404510 0.244751
0.823456 0.418488 0.262909
0.078949 0.425354 0.199860
0.113434 0.450806 0.204926
0.190216 0.459137 0.211945
0.282806 0.471985 0.223389
0.389069 0.486450 0.237000
0.502380 0.501343 0.252136
0.617859 0.516205 0.268127
0.734894 0.530975 0.285217
0.853271 0.545746 0.303223
0.096405 0.552002 0.240845
0.128693 0.580200 0.249573
0.211700 0.586975 0.255432
0.307678 0.599670 0.266968
0.416046 0.614319 0.280853
0.530365 0.629608 0.296204
0.646606 0.644867 0.312531
0.764160 0.660095 0.329559
0.882935 0.675323 0.347687
0.115692 0.680237 0.286407
0.144287 0.710846 0.304840
0.232788 0.717560 0.302856
0.332367 0.729767 0.314087
0.442688 0.744476 0.328247
0.557983 0.759949 0.343811
0.674988 0.775452 0.360107
0.793182 0.791016 0.377258
0.912292 0.806427 0.395233
0.135712 0.810638 0.335114
0.159851 0.843445 0.364014
0.253784 0.850159 0.353516
0.356750 0.861725 0.364380
0.468903 0.876251 0.378387
0.585388 0.891693 0.394012
0.703217 0.907349 0.410400
0.821991 0.922974 0.427338
0.941345 0.938568 0.445129
0.009003 0.009003 0.048431
0.019623 0.019806 0.122925
0.089661 0.017883 0.139069
0.170929 0.022522 0.151550
0.266663 0.030334 0.162964
0.373718 0.038513 0.175629
0.485535 0.046906 0.189270
0.599823 0.055389 0.203644
0.716064 0.064148 0.218964
0.018250 0.050781 0.114624
0.036713 0.069366 0.131042
0.103760 0.068237 0.158661
0.190613 0.073151 0.170044
0.289856 0.081543 0.182770
0.399902 0.090515 0.197205
0.515228 0.099182 0.213379
0.633270 0.107849 0.230743
0.754883 0.115906 0.250549
0.050903 0.100494 0.152008
0.078064 0.118561 0.168304
0.123505 0.137238 0.172180
0.210754 0.143646 0.190521
0.311798 0.154327 0.203308
0.422607 0.165558 0.217621
0.536926 0.176819 0.232910
0.653625 0.188202 0.249359
0.772644 0.199493 0.266998
0.067688 0.183716 0.196564
0.097168 0.204834 0.213898
0.152893 0.223236 0.213043
0.234100 0.239105 0.216888
0.337311 0.251587 0.229950
0.449158 0.264648 0.244415
0.563873 0.277863 0.259827
0.680634 0.290985 0.276215
0.799194 0.304169 0.293518
0.082428 0.292694 0.238312
0.110260 0.318573 0.256195
0.170715 0.339905 0.242615
0.259338 0.354248 0.248810
0.364899 0.367828 0.262115
0.477875 0.382019 0.276917
0.593231 0.396362 0.292603
0.710388 0.410645 0.309174
0.828857 0.424988 0.326538
0.098022 0.416412 0.276947
0.124817 0.445099 0.297852
0.189911 0.467865 0.274597
0.285156 0.479584 0.285553
0.393005 0.493469 0.299103
0.506927 0.508301 0.314148
0.623016 0.523224 0.330109
0.740662 0.538086 0.346771
0.859528 0.552887 0.364349
0.115417 0.544617 0.316589
0.139282 0.576019 0.343353
0.212036 0.596832 0.315277
0.310822 0.608307 0.325958
0.420563 0.622437 0.339661
0.535736 0.637512 0.355011
0.652527 0.652802 0.371033
0.770691 0.668030 0.387817
0.889679 0.683289 0.405273
0.133636 0.675537 0.358612
0.157593 0.707855 0.387970
0.233734 0.728363 0.359406
0.336273 0.739227 0.369720
0.447906 0.753479 0.383575
0.564087 0.768738 0.398895
0.681824 0.784119 0.414978
0.800354 0.799683 0.431824
0.919708 0.815186 0.449188
0.154510 0.807007 0.403778
0.179443 0.839752 0.433533
0.254547 0.862030 0.407104
0.361420 0.871918 0.416565
0.474945 0.885925 0.430115
0.592255 0.901093 0.445374
0.710602 0.916718 0.461487
0.829742 0.932312 0.478210
0.949463 0.947968 0.495605
0.014618 0.014618 0.079041
0.017029 0.032898 0.140778
0.061737 0.033661 0.218262
0.167023 0.027191 0.235168
0.266144 0.033752 0.248505
0.374542 0.041748 0.261932
0.487305 0.050049 0.276184
0.602295 0.058594 0.291077
0.719147 0.067413 0.306580
0.018127 0.061371 0.143860
0.019653 0.085663 0.191559
0.080231 0.084778 0.231903
0.182648 0.080017 0.256104
0.287842 0.086243 0.269592
0.399628 0.094818 0.284882
0.515289 0.103699 0.301270
0.634155 0.112396 0.319305
0.756073 0.120789 0.339050
0.042084 0.114044 0.208557
0.060272 0.136688 0.234070
0.107178 0.154175 0.236694
0.197083 0.154755 0.277802
0.310608 0.159607 0.292542
0.422882 0.170441 0.307251
0.538116 0.181793 0.322906
0.655609 0.193085 0.339569
0.775116 0.204498 0.357178
0.086426 0.181519 0.255951
0.107422 0.207306 0.282990
0.166199 0.223846 0.287537
0.226562 0.250854 0.293976
0.336792 0.257507 0.320557
0.450073 0.270294 0.335266
0.565643 0.283234 0.350861
0.683228 0.296417 0.367249
0.802216 0.309662 0.384338
0.106171 0.285553 0.310822
0.128479 0.314453 0.339264
0.192932 0.331085 0.344391
0.271027 0.352448 0.349640
0.364716 0.374603 0.352936
0.479065 0.388397 0.367706
0.595428 0.402527 0.383331
0.713257 0.416748 0.399689
0.832367 0.430939 0.416687
0.126984 0.403168 0.368378
0.150391 0.433746 0.397827
0.213898 0.454895 0.395355
0.291656 0.481201 0.386841
0.393311 0.501068 0.388794
0.508820 0.515350 0.403595
0.625854 0.529907 0.419312
0.744171 0.544708 0.435638
0.863464 0.559540 0.452576
0.143341 0.531494 0.415588
0.167664 0.563049 0.445557
0.231628 0.586395 0.438812
0.313568 0.613861 0.420685
0.421631 0.630646 0.427032
0.538269 0.645233 0.441925
0.655945 0.660187 0.457550
0.774841 0.675354 0.473907
0.894379 0.690552 0.490875
0.161438 0.662994 0.459900
0.186584 0.695251 0.490143
0.251923 0.719604 0.481903
0.335602 0.748779 0.456604
0.449524 0.762421 0.467651
0.567200 0.777161 0.482452
0.685730 0.792328 0.498199
0.805084 0.807678 0.514465
0.924927 0.823090 0.531403
0.181763 0.795898 0.503571
0.207825 0.828613 0.534149
0.270355 0.855774 0.527008
0.360535 0.882996 0.498169
0.477051 0.895599 0.510651
0.595886 0.910248 0.525238
0.715179 0.925476 0.540863
0.835052 0.940887 0.557190
0.955231 0.956390 0.574036
0.016418 0.024048 0.107819
0.017639 0.043518 0.172272
0.033569 0.055420 0.284332
0.126740 0.046783 0.330536
0.258881 0.039856 0.349731
0.372070 0.046143 0.365814
0.487244 0.053772 0.381134
0.603241 0.062225 0.396210
0.720886 0.071045 0.411896
0.018768 0.071625 0.183411
0.020325 0.095825 0.241608
0.057373 0.108185 0.285706
0.144257 0.101654 0.351990
0.279938 0.093353 0.374298
0.395813 0.100677 0.389130
0.512848 0.109314 0.405609
0.632477 0.118042 0.423615
0.754730 0.126526 0.443268
0.029785 0.131470 0.273743
0.047394 0.154999 0.301270
0.079865 0.178741 0.317657
0.168823 0.176086 0.367249
0.295654 0.171204 0.398132
0.420349 0.176697 0.413910
0.537109 0.187592 0.429626
0.655518 0.198792 0.446106
0.775818 0.210052 0.463623
0.078949 0.196533 0.328033
0.099396 0.222900 0.356781
0.136963 0.249481 0.373413
0.206940 0.271698 0.373230
0.315308 0.274292 0.424988
0.448029 0.277069 0.443054
0.565186 0.289673 0.458405
0.683716 0.302582 0.474548
0.803497 0.315704 0.491272
0.129578 0.282318 0.383606
0.153076 0.311096 0.413208
0.199677 0.336700 0.433594
0.280975 0.357819 0.433533
0.354065 0.390076 0.441559
0.477570 0.395782 0.475769
0.595367 0.409363 0.490936
0.714233 0.423248 0.506866
0.834137 0.437378 0.523468
0.157471 0.396484 0.440460
0.182312 0.427032 0.470490
0.228546 0.455048 0.493042
0.321289 0.472168 0.493622
0.411896 0.496674 0.505219
0.507507 0.523132 0.510773
0.626099 0.537231 0.525940
0.745483 0.551636 0.541840
0.865479 0.566315 0.558289
0.176941 0.519440 0.510132
0.202637 0.550934 0.540833
0.249115 0.580078 0.565155
0.345581 0.598907 0.553284
0.434570 0.628082 0.550629
0.537323 0.653503 0.547546
0.656677 0.667908 0.562622
0.776520 0.682709 0.578522
0.896851 0.697754 0.595001
0.196869 0.648285 0.565277
0.223358 0.680511 0.596405
0.264282 0.713623 0.623810
0.365814 0.733032 0.599304
0.456940 0.764069 0.586456
0.566711 0.785919 0.586029
0.686920 0.800507 0.601074
0.807220 0.815460 0.616943
0.927917 0.830719 0.633392
0.215118 0.782104 0.614655
0.242218 0.814758 0.646088
0.287018 0.845337 0.680573
0.387299 0.869110 0.642120
0.480682 0.900879 0.622101
0.595886 0.919586 0.626312
0.716797 0.934143 0.641266
0.837708 0.949188 0.657135
0.958649 0.964508 0.673523
0.017059 0.034821 0.137573
0.018341 0.054932 0.205536
0.019745 0.079193 0.293640
0.085449 0.070404 0.428986
0.210724 0.061218 0.453522
0.362183 0.053375 0.475891
0.481598 0.059631 0.492828
0.602417 0.066406 0.510925
0.721100 0.075073 0.526123
0.019409 0.082703 0.225159
0.022888 0.106476 0.288391
0.028473 0.135040 0.365326
0.112061 0.125000 0.441437
0.232300 0.117767 0.480316
0.387817 0.108124 0.502533
0.507263 0.116211 0.518127
0.628082 0.124725 0.535614
0.751007 0.133240 0.554749
0.028900 0.146210 0.317688
0.034088 0.174591 0.376190
0.054596 0.203918 0.410065
0.148163 0.200073 0.430908
0.253601 0.196899 0.504547
0.405762 0.188141 0.528503
0.533264 0.194550 0.544312
0.653137 0.205475 0.560333
0.774292 0.216522 0.577515
0.064453 0.217590 0.402802
0.083954 0.244629 0.432556
0.108032 0.276642 0.467224
0.178864 0.297760 0.460449
0.286255 0.298187 0.519958
0.425049 0.294189 0.556580
0.561981 0.297119 0.574097
0.681976 0.309601 0.589722
0.802795 0.322388 0.606171
0.124817 0.296722 0.465393
0.148071 0.325775 0.495758
0.176178 0.359833 0.530823
0.251038 0.385162 0.521606
0.332275 0.413025 0.527802
0.448822 0.417480 0.586426
0.592499 0.417236 0.606903
0.713013 0.430542 0.622314
0.833771 0.444336 0.638458
0.178864 0.395386 0.523346
0.204620 0.425873 0.554077
0.235321 0.461212 0.589630
0.332214 0.476929 0.587646
0.415588 0.506897 0.591309
0.494080 0.541504 0.600952
0.623627 0.545319 0.641724
0.744476 0.559204 0.656982
0.865631 0.573486 0.673065
0.215515 0.511597 0.577057
0.242554 0.542969 0.608093
0.274658 0.579193 0.643921
0.373352 0.595825 0.642700
0.470734 0.619110 0.650635
0.564514 0.646301 0.664490
0.658020 0.674194 0.679596
0.775848 0.690521 0.692932
0.897217 0.705139 0.708862
0.223724 0.643890 0.654877
0.251038 0.676086 0.686249
0.283417 0.713104 0.722534
0.391144 0.726074 0.717865
0.493622 0.748688 0.719086
0.587891 0.778473 0.721588
0.684937 0.809204 0.714966
0.806915 0.823669 0.730194
0.928589 0.838470 0.746155
0.256165 0.767059 0.717957
0.284454 0.799713 0.749786
0.331055 0.830566 0.781982
0.415558 0.857697 0.776764
0.515503 0.884003 0.768616
0.610687 0.915680 0.761078
0.715210 0.943237 0.753571
0.837646 0.957642 0.768738
0.959656 0.972534 0.784607
0.017731 0.046021 0.168365
0.018951 0.066895 0.237885
0.021606 0.091736 0.326355
0.053711 0.098877 0.481140
0.162445 0.085571 0.557098
0.309326 0.075836 0.582703
0.469360 0.067902 0.604645
0.593292 0.073761 0.623322
0.718689 0.079956 0.643463
0.020630 0.094147 0.266602
0.025482 0.117920 0.333679
0.031097 0.146942 0.415527
0.082520 0.156219 0.487000
0.187225 0.144104 0.584656
0.334442 0.134247 0.612122
0.498230 0.124390 0.633911
0.620697 0.132568 0.650421
0.744354 0.141083 0.668457
0.031525 0.160400 0.353333
0.036377 0.189484 0.414398
0.042023 0.224518 0.486420
0.107513 0.234253 0.515533
0.216827 0.222809 0.605957
0.357178 0.215973 0.639160
0.519775 0.205627 0.662140
0.648010 0.213074 0.677887
0.770447 0.223938 0.694336
0.050964 0.238770 0.479858
0.069702 0.266510 0.510315
0.092621 0.299164 0.545593
0.141602 0.329254 0.558380
0.265533 0.322968 0.590057
0.382446 0.322235 0.666168
0.539734 0.313629 0.691498
0.677795 0.317474 0.708313
0.800018 0.329895 0.724182
0.108856 0.319824 0.542236
0.131256 0.349365 0.573029
0.158478 0.383820 0.608734
0.213470 0.415741 0.622101
0.305054 0.438751 0.617249
0.422638 0.441742 0.678711
0.561584 0.439331 0.722076
0.709167 0.438690 0.741394
0.831635 0.451935 0.757080
0.178558 0.407227 0.609711
0.204315 0.437927 0.640991
0.234924 0.473328 0.677032
0.294678 0.506439 0.690521
0.385315 0.534637 0.679962
0.471680 0.565063 0.689514
0.588409 0.571198 0.752106
0.741119 0.567505 0.776154
0.863708 0.581177 0.791656
0.232300 0.513184 0.667114
0.259888 0.544647 0.698639
0.292419 0.580994 0.735016
0.361877 0.609863 0.754822
0.475281 0.627197 0.749176
0.557495 0.661957 0.755005
0.638397 0.697327 0.764618
0.768921 0.701050 0.811218
0.895569 0.713074 0.826996
0.275055 0.630554 0.719330
0.303711 0.662659 0.750977
0.337280 0.699707 0.787506
0.405029 0.730469 0.809784
0.524811 0.745605 0.803345
0.624176 0.771576 0.814423
0.719360 0.799500 0.829071
0.812286 0.828705 0.844971
0.927155 0.846619 0.863495
0.286713 0.763885 0.795990
0.315765 0.796509 0.827972
0.363770 0.827637 0.857300
0.445648 0.852570 0.873901
0.538910 0.880127 0.880402
0.649445 0.901520 0.886627
0.745209 0.931091 0.893433
0.839752 0.963043 0.891693
0.958405 0.980896 0.900909
0.018372 0.057465 0.199921
0.019623 0.079224 0.271851
0.024170 0.104431 0.359924
0.030579 0.135010 0.467010
0.114288 0.114105 0.658997
0.253754 0.102386 0.686493
0.413574 0.092010 0.711853
0.578552 0.083435 0.735596
0.705688 0.089233 0.755280
0.023224 0.105682 0.307465
0.028107 0.130005 0.377899
0.033722 0.159698 0.462158
0.040222 0.195679 0.562073
0.150360 0.171814 0.671875
0.283813 0.161896 0.719696
0.442810 0.151611 0.745392
0.610443 0.141479 0.767487
0.735413 0.149841 0.784485
0.034149 0.173065 0.401794
0.039032 0.202454 0.466217
0.044708 0.237579 0.541962
0.059998 0.276855 0.606903
0.191101 0.250946 0.667572
0.311157 0.244476 0.748199
0.467102 0.235352 0.773987
0.635986 0.223663 0.797577
0.764343 0.232178 0.813385
0.046844 0.257233 0.536224
0.056061 0.288757 0.589111
0.078033 0.321960 0.624939
0.110779 0.359131 0.654572
0.234192 0.352875 0.668213
0.344818 0.349609 0.771301
0.491852 0.343933 0.803101
0.656464 0.333618 0.827332
0.795013 0.338257 0.844543
0.092438 0.343414 0.622894
0.113922 0.373352 0.654236
0.140045 0.408142 0.690338
0.182983 0.445099 0.713043
0.268707 0.469635 0.709869
0.402191 0.466675 0.752502
0.520142 0.467987 0.832886
0.678772 0.460144 0.859833
0.827179 0.460327 0.877991
0.159912 0.431946 0.689514
0.184875 0.462769 0.721130
0.217285 0.497681 0.753632
0.268921 0.534149 0.772003
0.353027 0.563263 0.772003
0.445435 0.590454 0.780457
0.566467 0.594818 0.839783
0.702454 0.594269 0.891022
0.859680 0.589691 0.912567
0.237366 0.521942 0.757538
0.265045 0.553436 0.789337
0.306732 0.586975 0.813477
0.364532 0.623199 0.830048
0.447510 0.654968 0.833405
0.529724 0.689423 0.840820
0.616150 0.721283 0.853302
0.731812 0.728943 0.919128
0.889282 0.723694 0.944397
0.289124 0.633850 0.813568
0.318176 0.665863 0.845612
0.373505 0.695282 0.860168
0.439789 0.728699 0.875671
0.540649 0.750549 0.889221
0.630463 0.781372 0.900391
0.710541 0.817963 0.910919
0.791199 0.854431 0.921997
0.908386 0.865906 0.968048
0.333893 0.753204 0.866394
0.375488 0.781006 0.889404
0.442657 0.805481 0.901917
0.521240 0.833679 0.916199
0.613922 0.860565 0.930786
0.708710 0.889099 0.945953
0.802551 0.918304 0.961182
0.894318 0.948669 0.976685
0.975586 0.984467 0.992310
0.019012 0.069519 0.231598
0.021179 0.091827 0.304352
0.026733 0.117737 0.392578
0.033264 0.149811 0.498322
0.091644 0.149261 0.642212
0.211426 0.132965 0.741974
0.366943 0.120880 0.773254
0.534637 0.110107 0.796234
0.681305 0.109833 0.811157
0.025787 0.118317 0.344482
0.030670 0.143402 0.416534
0.036346 0.173920 0.501770
0.047516 0.209839 0.585938
0.130890 0.209351 0.645874
0.245880 0.196320 0.757996
0.397675 0.186096 0.790131
0.558167 0.177673 0.812347
0.704285 0.177734 0.829041
0.036743 0.186951 0.444733
0.041595 0.216675 0.510956
0.047363 0.252319 0.588715
0.077271 0.287811 0.616150
0.173340 0.289093 0.648407
0.281525 0.279572 0.777039
0.426849 0.273163 0.808136
0.581299 0.266876 0.832703
0.729187 0.266602 0.849518
0.049530 0.273895 0.573090
0.059967 0.305420 0.623749
0.090240 0.336334 0.641602
0.128815 0.372437 0.662018
0.214020 0.388733 0.682251
0.338562 0.381073 0.762695
0.460022 0.382050 0.828491
0.606598 0.379578 0.852997
0.757385 0.377747 0.872833
0.093811 0.361664 0.664825
0.123779 0.389038 0.679901
0.160980 0.420807 0.697235
0.206848 0.457520 0.717041
0.275879 0.490326 0.726349
0.400909 0.494812 0.753937
0.502014 0.502075 0.848999
0.638031 0.505096 0.876465
0.783661 0.505676 0.897461
0.165924 0.449402 0.724335
0.201813 0.476990 0.738586
0.245300 0.508911 0.754974
0.297729 0.545685 0.773895
0.371216 0.579865 0.782562
0.454834 0.611938 0.791718
0.571747 0.621826 0.832947
0.677612 0.633850 0.899109
0.811005 0.640503 0.922272
0.250946 0.537567 0.782379
0.292175 0.565186 0.795715
0.341064 0.596985 0.810913
0.398712 0.633667 0.828400
0.471924 0.669556 0.840179
0.553802 0.704254 0.848419
0.634277 0.739410 0.861328
0.738251 0.756714 0.907928
0.846893 0.773682 0.945984
0.332367 0.634125 0.836609
0.378784 0.660706 0.848724
0.433136 0.691528 0.862610
0.496429 0.726898 0.878479
0.580170 0.757812 0.894135
0.661560 0.794006 0.902802
0.738556 0.831848 0.915924
0.813995 0.870392 0.930817
0.901520 0.898315 0.970428
0.396362 0.745575 0.878784
0.450562 0.769318 0.890198
0.513580 0.796539 0.903168
0.586914 0.827911 0.918121
0.673767 0.858246 0.933502
0.766815 0.887909 0.948914
0.853424 0.920898 0.964996
0.930786 0.958740 0.980927
1.000000 1.000000 1.000000
