滤镜资源/Lutify.me Free 3D LUTs Package/3D LUTs/Monitoring LUTs/Rec709/Hiddenite - Rec709.cube
# Website: https://lutify.me
# Contact: help@lutify.me
# Copyright: (c) Copyright Lutify.me 2016, G.T. Colord LTD
# Created by: Lutify.me
LUT_3D_SIZE 5
0.000000 0.000000 0.000000
0.088043 0.014526 0.029358
0.262756 0.025604 0.055695
0.478119 0.041260 0.083923
0.705536 0.057098 0.117706
0.022705 0.108765 0.054871
0.126556 0.126129 0.069458
0.306946 0.146484 0.091980
0.528656 0.167969 0.123596
0.761719 0.189087 0.161560
0.051941 0.304352 0.117157
0.165131 0.328003 0.135071
0.356232 0.354858 0.159088
0.581909 0.383148 0.190063
0.815735 0.410858 0.226440
0.085358 0.549744 0.200806
0.206573 0.577515 0.223389
0.408691 0.605347 0.248779
0.638245 0.635956 0.280548
0.874084 0.666138 0.316223
0.124176 0.806091 0.299591
0.247681 0.839264 0.325409
0.460510 0.866119 0.350739
0.694061 0.897308 0.382782
0.931732 0.928589 0.417908
0.009003 0.009003 0.048431
0.089661 0.017883 0.139069
0.266663 0.030334 0.162964
0.485535 0.046906 0.189270
0.716064 0.064148 0.218964
0.050903 0.100494 0.152008
0.123505 0.137238 0.172180
0.311798 0.154327 0.203308
0.536926 0.176819 0.232910
0.772644 0.199493 0.266998
0.082428 0.292694 0.238312
0.170715 0.339905 0.242615
0.364899 0.367828 0.262115
0.593231 0.396362 0.292603
0.828857 0.424988 0.326538
0.115417 0.544617 0.316589
0.212036 0.596832 0.315277
0.420563 0.622437 0.339661
0.652527 0.652802 0.371033
0.889679 0.683289 0.405273
0.154510 0.807007 0.403778
0.254547 0.862030 0.407104
0.474945 0.885925 0.430115
0.710602 0.916718 0.461487
0.949463 0.947968 0.495605
0.016418 0.024048 0.107819
0.033569 0.055420 0.284332
0.258881 0.039856 0.349731
0.487244 0.053772 0.381134
0.720886 0.071045 0.411896
0.029785 0.131470 0.273743
0.079865 0.178741 0.317657
0.295654 0.171204 0.398132
0.537109 0.187592 0.429626
0.775818 0.210052 0.463623
0.129578 0.282318 0.383606
0.199677 0.336700 0.433594
0.354065 0.390076 0.441559
0.595367 0.409363 0.490936
0.834137 0.437378 0.523468
0.176941 0.519440 0.510132
0.249115 0.580078 0.565155
0.434570 0.628082 0.550629
0.656677 0.667908 0.562622
0.896851 0.697754 0.595001
0.215118 0.782104 0.614655
0.287018 0.845337 0.680573
0.480682 0.900879 0.622101
0.716797 0.934143 0.641266
0.958649 0.964508 0.673523
0.017731 0.046021 0.168365
0.021606 0.091736 0.326355
0.162445 0.085571 0.557098
0.469360 0.067902 0.604645
0.718689 0.079956 0.643463
0.031525 0.160400 0.353333
0.042023 0.224518 0.486420
0.216827 0.222809 0.605957
0.519775 0.205627 0.662140
0.770447 0.223938 0.694336
0.108856 0.319824 0.542236
0.158478 0.383820 0.608734
0.305054 0.438751 0.617249
0.561584 0.439331 0.722076
0.831635 0.451935 0.757080
0.232300 0.513184 0.667114
0.292419 0.580994 0.735016
0.475281 0.627197 0.749176
0.638397 0.697327 0.764618
0.895569 0.713074 0.826996
0.286713 0.763885 0.795990
0.363770 0.827637 0.857300
0.538910 0.880127 0.880402
0.745209 0.931091 0.893433
0.958405 0.980896 0.900909
0.019012 0.069519 0.231598
0.026733 0.117737 0.392578
0.091644 0.149261 0.642212
0.366943 0.120880 0.773254
0.681305 0.109833 0.811157
0.036743 0.186951 0.444733
0.047363 0.252319 0.588715
0.173340 0.289093 0.648407
0.426849 0.273163 0.808136
0.729187 0.266602 0.849518
0.093811 0.361664 0.664825
0.160980 0.420807 0.697235
0.275879 0.490326 0.726349
0.502014 0.502075 0.848999
0.783661 0.505676 0.897461
0.250946 0.537567 0.782379
0.341064 0.596985 0.810913
0.471924 0.669556 0.840179
0.634277 0.739410 0.861328
0.846893 0.773682 0.945984
0.396362 0.745575 0.878784
0.513580 0.796539 0.903168
0.673767 0.858246 0.933502
0.853424 0.920898 0.964996
1.000000 1.000000 1.000000
