滤镜资源/Lutify.me Free 3D LUTs Package/3D LUTs/Monitoring LUTs/Rec709/Hiddenite - Rec709.cube
# Website: https://lutify.me
# Contact: help@lutify.me
# Copyright: (c) Copyright Lutify.me 2016, G.T. Colord LTD
# Created by: Lutify.me
LUT_3D_SIZE 17
0.000000 0.000000 0.000000
0.007874 0.007874 0.011566
0.028931 0.010864 0.017975
0.056122 0.012665 0.023285
0.088043 0.014526 0.029358
0.125275 0.016510 0.036102
0.167908 0.018646 0.043396
0.214111 0.021667 0.049744
0.262756 0.025604 0.055695
0.314484 0.029602 0.061981
0.368011 0.033508 0.068695
0.422607 0.037354 0.076141
0.478119 0.041260 0.083923
0.534149 0.045166 0.091858
0.590759 0.049133 0.100250
0.647919 0.053070 0.108856
0.705536 0.057098 0.117706
0.015442 0.015442 0.023560
0.023468 0.023773 0.032684
0.046448 0.026642 0.035645
0.072235 0.029755 0.039246
0.103088 0.033112 0.043304
0.139526 0.036560 0.048126
0.180878 0.040344 0.053406
0.227448 0.044067 0.059265
0.277435 0.047913 0.065674
0.330933 0.051544 0.072723
0.386536 0.055084 0.080658
0.443024 0.058533 0.089111
0.500732 0.061798 0.098541
0.559113 0.065125 0.108032
0.618347 0.068329 0.118378
0.678558 0.071381 0.129150
0.736847 0.075531 0.138885
0.017426 0.042145 0.032867
0.029572 0.049133 0.039551
0.052673 0.052185 0.042847
0.079010 0.055603 0.046265
0.110199 0.059326 0.050507
0.146973 0.063293 0.054932
0.189117 0.067261 0.060211
0.235809 0.071381 0.065979
0.286499 0.075562 0.072418
0.339722 0.079803 0.079285
0.394989 0.083954 0.086945
0.451050 0.087982 0.095490
0.508148 0.092041 0.104309
0.566345 0.095886 0.113739
0.625336 0.099670 0.123962
0.684906 0.103455 0.134460
0.745209 0.107086 0.145447
0.018982 0.072998 0.043396
0.035645 0.078491 0.048431
0.058960 0.081879 0.051392
0.085876 0.085571 0.054962
0.118103 0.089630 0.058899
0.155579 0.093994 0.063385
0.198334 0.098480 0.068634
0.245422 0.103210 0.074371
0.296021 0.108093 0.080627
0.349457 0.112915 0.088013
0.404633 0.117554 0.095795
0.460785 0.122314 0.103912
0.517548 0.127045 0.112671
0.575012 0.131714 0.121765
0.633301 0.136353 0.131226
0.692108 0.140991 0.141205
0.751495 0.145508 0.151520
0.022705 0.108765 0.054871
0.041901 0.113800 0.058807
0.066071 0.117401 0.061859
0.093689 0.121552 0.065460
0.126556 0.126129 0.069458
0.164917 0.130890 0.074036
0.208221 0.135956 0.079376
0.255737 0.141266 0.085236
0.306946 0.146484 0.091980
0.360565 0.151917 0.099335
0.415894 0.157227 0.106964
0.471954 0.162659 0.114899
0.528656 0.167969 0.123596
0.586121 0.173279 0.132507
0.644287 0.178528 0.141846
0.702759 0.183746 0.151489
0.761719 0.189087 0.161560
0.029633 0.149597 0.067383
0.048279 0.155579 0.071777
0.073212 0.159424 0.075012
0.101929 0.163727 0.078400
0.135742 0.168610 0.082581
0.174591 0.173920 0.087708
0.218628 0.179474 0.093018
0.266785 0.185150 0.099182
0.318359 0.191132 0.105774
0.372589 0.196991 0.112915
0.428009 0.202911 0.120514
0.484131 0.208862 0.128296
0.541077 0.214691 0.136871
0.598450 0.220581 0.145630
0.656586 0.226349 0.155029
0.715118 0.232208 0.164490
0.773956 0.237976 0.174347
0.036774 0.196198 0.082581
0.055084 0.203033 0.087616
0.080719 0.207153 0.090607
0.110168 0.211823 0.094269
0.144958 0.217041 0.098511
0.184967 0.222687 0.103363
0.229614 0.228668 0.108795
0.278503 0.234863 0.114990
0.330688 0.241211 0.121552
0.385162 0.247650 0.128784
0.440765 0.254059 0.136292
0.497131 0.260468 0.144226
0.554291 0.266754 0.152618
0.611816 0.273041 0.161316
0.669861 0.279358 0.170288
0.728394 0.285645 0.179810
0.787354 0.291901 0.189636
0.044220 0.248108 0.099213
0.061798 0.256134 0.104828
0.088623 0.260162 0.107971
0.119202 0.265015 0.111572
0.154816 0.270599 0.115936
0.195618 0.276520 0.121033
0.241119 0.282806 0.126617
0.290527 0.289429 0.132721
0.343353 0.296143 0.139435
0.398224 0.302917 0.146729
0.454132 0.309753 0.154236
0.510712 0.316559 0.162170
0.567963 0.323242 0.170410
0.625610 0.329956 0.179077
0.683868 0.336670 0.188049
0.742462 0.343292 0.197418
0.801270 0.349915 0.207031
0.051941 0.304352 0.117157
0.068695 0.313599 0.123810
0.096588 0.317657 0.126770
0.128479 0.322357 0.130463
0.165131 0.328003 0.135071
0.206543 0.334351 0.140320
0.252838 0.340912 0.146057
0.303101 0.347778 0.152222
0.356232 0.354858 0.159088
0.411469 0.361938 0.166260
0.467651 0.369080 0.173828
0.524536 0.376129 0.181763
0.581909 0.383148 0.190063
0.639801 0.390167 0.198639
0.698059 0.397125 0.207550
0.756866 0.403961 0.216888
0.815735 0.410858 0.226440
0.059967 0.363708 0.136658
0.075562 0.374329 0.144379
0.104706 0.378143 0.147247
0.137634 0.382904 0.150940
0.175232 0.388672 0.155609
0.217865 0.394928 0.160797
0.264801 0.401733 0.166626
0.315704 0.408691 0.173065
0.369293 0.415985 0.180023
0.424927 0.423309 0.187286
0.481415 0.430634 0.194794
0.538452 0.437866 0.202820
0.596008 0.445068 0.211182
0.654053 0.452332 0.219666
0.712555 0.459473 0.228607
0.771271 0.466553 0.237793
0.830383 0.473724 0.247345
0.068176 0.424835 0.157043
0.082092 0.437042 0.166321
0.112244 0.440826 0.169128
0.147003 0.445068 0.172577
0.185791 0.450653 0.177155
0.229218 0.457031 0.182434
0.277008 0.463837 0.188416
0.328339 0.471039 0.195068
0.382477 0.478394 0.202118
0.438385 0.485809 0.209473
0.495178 0.493256 0.217163
0.552460 0.500702 0.225037
0.610107 0.508087 0.233337
0.668335 0.515442 0.241913
0.726898 0.522736 0.250732
0.785919 0.529999 0.259888
0.845032 0.537292 0.269318
0.076691 0.486938 0.178497
0.088409 0.501007 0.189392
0.119873 0.504395 0.192108
0.156281 0.508179 0.195251
0.196228 0.513672 0.199738
0.240479 0.520020 0.205292
0.289062 0.526825 0.211273
0.340973 0.534088 0.217926
0.395508 0.541534 0.225006
0.451874 0.549103 0.232452
0.508850 0.556641 0.240173
0.566345 0.564148 0.248108
0.624207 0.571655 0.256439
0.682617 0.579224 0.265015
0.741272 0.586639 0.273895
0.800385 0.594116 0.282928
0.859619 0.601440 0.292297
0.085358 0.549744 0.200806
0.095581 0.565277 0.213074
0.127167 0.569061 0.216034
0.165497 0.572235 0.218842
0.206573 0.577515 0.223389
0.251862 0.583710 0.228729
0.300995 0.590576 0.234924
0.353668 0.597839 0.241577
0.408691 0.605347 0.248779
0.465210 0.613068 0.256317
0.522369 0.620697 0.264099
0.580200 0.628357 0.272156
0.638245 0.635956 0.280548
0.696808 0.643555 0.288971
0.755646 0.651123 0.297852
0.814697 0.658722 0.306854
0.874084 0.666138 0.316223
0.094360 0.613373 0.223938
0.104950 0.629089 0.236664
0.134644 0.634369 0.241058
0.174652 0.636993 0.243286
0.217072 0.642029 0.247650
0.263184 0.648163 0.253113
0.313202 0.655029 0.259308
0.366302 0.662262 0.266083
0.421692 0.669830 0.273254
0.478485 0.677582 0.280853
0.536011 0.685333 0.288727
0.593872 0.693085 0.296844
0.652252 0.700714 0.305176
0.710999 0.708374 0.313660
0.769897 0.716064 0.322449
0.829254 0.723694 0.331512
0.888550 0.731323 0.340698
0.103638 0.677551 0.247833
0.114441 0.693359 0.260895
0.140686 0.701202 0.267487
0.183472 0.702637 0.268890
0.227295 0.707214 0.272949
0.274475 0.713196 0.278168
0.325073 0.720032 0.284393
0.378937 0.727203 0.291168
0.434631 0.734863 0.298523
0.491699 0.742584 0.306122
0.549591 0.750427 0.314087
0.607697 0.758179 0.322144
0.666199 0.765930 0.330475
0.725006 0.773651 0.339050
0.784210 0.781464 0.347839
0.843445 0.789093 0.356720
0.902985 0.796814 0.365875
0.114258 0.741089 0.273743
0.125397 0.757080 0.287201
0.146088 0.768982 0.295135
0.192291 0.768829 0.295013
0.237549 0.773041 0.298859
0.285767 0.778839 0.304108
0.337250 0.785553 0.310333
0.391479 0.792694 0.317047
0.447723 0.800232 0.324371
0.505066 0.808014 0.332031
0.563049 0.815826 0.339935
0.621460 0.823639 0.348053
0.680084 0.831482 0.356415
0.739105 0.839264 0.364899
0.798340 0.847076 0.373657
0.857819 0.854858 0.382568
0.917389 0.862518 0.391754
0.124176 0.806091 0.299591
0.135468 0.822144 0.313599
0.151886 0.836975 0.323242
0.200562 0.835724 0.322235
0.247681 0.839264 0.325409
0.297119 0.844788 0.330414
0.349274 0.851318 0.336548
0.404022 0.858459 0.343384
0.460510 0.866119 0.350739
0.518280 0.873871 0.358398
0.576569 0.881622 0.366302
0.635132 0.889435 0.374420
0.694061 0.897308 0.382782
0.753174 0.905121 0.391296
0.812622 0.912933 0.399994
0.872070 0.920776 0.408875
0.931732 0.928589 0.417908
0.002075 0.002075 0.011108
0.008392 0.008392 0.034912
0.029358 0.011475 0.041260
0.056793 0.013153 0.046448
0.088959 0.015045 0.052429
0.126404 0.017029 0.059143
0.169128 0.019104 0.066315
0.214905 0.022552 0.072388
0.263855 0.026489 0.077881
0.315796 0.030518 0.083862
0.369568 0.034607 0.090240
0.424469 0.038574 0.096985
0.480194 0.042633 0.103912
0.536591 0.046692 0.111084
0.593475 0.050751 0.118896
0.650970 0.054901 0.126678
0.708771 0.059052 0.135040
0.016266 0.016266 0.044617
0.022003 0.025909 0.053253
0.045868 0.027802 0.058594
0.072144 0.030914 0.061859
0.103210 0.034210 0.065887
0.139587 0.037811 0.070496
0.181824 0.041229 0.076050
0.227844 0.045166 0.081818
0.278564 0.048889 0.088165
0.332642 0.052460 0.095306
0.387878 0.056366 0.102509
0.444946 0.059937 0.110382
0.502747 0.063446 0.118958
0.561554 0.066803 0.128082
0.621246 0.070099 0.137787
0.681519 0.073395 0.147949
0.740112 0.077637 0.157104
0.019318 0.041229 0.060089
0.030640 0.049194 0.064514
0.051941 0.053650 0.065643
0.078918 0.056732 0.069122
0.110657 0.060272 0.073273
0.147583 0.064240 0.077759
0.189972 0.068268 0.083008
0.236694 0.072571 0.088684
0.287323 0.076813 0.094788
0.340912 0.081116 0.101685
0.396606 0.085327 0.109009
0.453186 0.089478 0.116882
0.510498 0.093719 0.125092
0.568939 0.097717 0.133942
0.627777 0.101868 0.143250
0.687561 0.105804 0.153137
0.748260 0.109528 0.163666
0.021210 0.071808 0.070892
0.035461 0.079559 0.072113
0.058655 0.083344 0.074036
0.086182 0.086792 0.077576
0.118652 0.090759 0.081604
0.156342 0.095154 0.086273
0.199097 0.099762 0.091461
0.246460 0.104523 0.097107
0.297485 0.109375 0.103455
0.351227 0.114349 0.110138
0.406464 0.119293 0.117340
0.462769 0.124237 0.124969
0.519836 0.129089 0.132996
0.577759 0.133850 0.141602
0.636200 0.138733 0.150452
0.695160 0.143524 0.159821
0.754791 0.148193 0.169678
0.026764 0.107086 0.080292
0.041412 0.115753 0.081085
0.065643 0.119354 0.084229
0.093719 0.123291 0.087738
0.127258 0.127563 0.091797
0.165710 0.132416 0.096527
0.209259 0.137482 0.101807
0.257080 0.142853 0.107452
0.308594 0.148285 0.113861
0.362457 0.153778 0.120575
0.417999 0.159302 0.127960
0.474365 0.164734 0.135590
0.531311 0.170258 0.143555
0.589020 0.175690 0.151978
0.647217 0.181122 0.160706
0.705780 0.186615 0.169830
0.765289 0.191925 0.179626
0.033020 0.148712 0.091309
0.047882 0.158020 0.093384
0.073242 0.161621 0.096252
0.102234 0.165863 0.099823
0.136475 0.170685 0.103973
0.175964 0.175903 0.108673
0.220215 0.181427 0.114105
0.268616 0.187286 0.120026
0.320587 0.193237 0.126404
0.374878 0.199310 0.133423
0.430542 0.205292 0.140656
0.486847 0.211334 0.148254
0.544037 0.217316 0.156281
0.601715 0.223297 0.164795
0.659760 0.229248 0.173431
0.718414 0.235229 0.182587
0.777557 0.241089 0.192017
0.039856 0.196350 0.103943
0.054901 0.206268 0.107178
0.081360 0.209930 0.110046
0.111328 0.214386 0.113800
0.146454 0.219543 0.118073
0.186462 0.225311 0.123016
0.231537 0.231171 0.128510
0.280640 0.237457 0.134583
0.333069 0.243896 0.141052
0.387817 0.250336 0.148132
0.443542 0.256897 0.155548
0.500122 0.263367 0.163086
0.557373 0.269775 0.171265
0.615082 0.276215 0.179749
0.673248 0.282623 0.188324
0.731995 0.288971 0.197510
0.790955 0.295319 0.206940
0.047302 0.249115 0.118622
0.062103 0.259796 0.123199
0.089050 0.263794 0.126160
0.120392 0.268188 0.129883
0.156769 0.273499 0.134216
0.197601 0.279572 0.139252
0.243408 0.285889 0.144928
0.293152 0.292542 0.151093
0.346100 0.299255 0.157745
0.401184 0.306122 0.164795
0.457184 0.313019 0.172333
0.513977 0.319794 0.180084
0.571289 0.326660 0.188141
0.629181 0.333435 0.196686
0.687500 0.340179 0.205414
0.746063 0.346924 0.214447
0.805237 0.353638 0.223785
0.055237 0.305939 0.135559
0.068939 0.317963 0.141144
0.097626 0.321533 0.144043
0.129974 0.326172 0.147644
0.167023 0.331757 0.152100
0.208923 0.337860 0.157379
0.255432 0.344391 0.163208
0.305908 0.351288 0.169556
0.359283 0.358337 0.176208
0.414734 0.365479 0.183380
0.471130 0.372620 0.190918
0.527954 0.379761 0.198792
0.585419 0.386810 0.206879
0.643524 0.393890 0.215302
0.701874 0.400909 0.224030
0.760742 0.407898 0.233093
0.819672 0.414886 0.242462
0.063171 0.365997 0.153870
0.076019 0.379150 0.160858
0.105957 0.382507 0.163605
0.139496 0.387085 0.167084
0.177673 0.392578 0.171631
0.220490 0.398865 0.177063
0.267792 0.405579 0.182983
0.318817 0.412598 0.189301
0.372681 0.419800 0.196259
0.428406 0.427185 0.203522
0.484985 0.434509 0.211060
0.542175 0.441833 0.219116
0.599823 0.449066 0.227203
0.657990 0.456360 0.235626
0.716461 0.463501 0.244385
0.775482 0.470612 0.253418
0.834595 0.477814 0.262817
0.071747 0.427246 0.173737
0.083252 0.441528 0.182953
0.114014 0.445282 0.184601
0.149139 0.449463 0.187958
0.188354 0.454956 0.192505
0.232117 0.461182 0.197845
0.280121 0.468018 0.203888
0.331726 0.475159 0.210327
0.386078 0.482513 0.217407
0.442108 0.489960 0.224854
0.498901 0.497406 0.232483
0.556244 0.504852 0.240295
0.614227 0.512329 0.248688
0.672455 0.519653 0.257111
0.731140 0.527008 0.265808
0.790161 0.534332 0.274933
0.849365 0.541626 0.284180
0.080658 0.489441 0.194794
0.090668 0.504730 0.207153
0.121307 0.509399 0.207001
0.158539 0.512817 0.209961
0.198883 0.518219 0.214417
0.243622 0.524384 0.219757
0.292267 0.531281 0.225891
0.344604 0.538452 0.232544
0.399353 0.545868 0.239563
0.455719 0.553406 0.247131
0.512848 0.561035 0.254883
0.570343 0.568573 0.262848
0.628479 0.576141 0.271088
0.686737 0.583618 0.279510
0.745667 0.591125 0.288300
0.804779 0.598511 0.297302
0.864136 0.605957 0.306610
0.089722 0.552277 0.216980
0.100067 0.567902 0.229553
0.129089 0.574158 0.230347
0.167908 0.577118 0.232849
0.209503 0.582184 0.237335
0.255096 0.588379 0.242767
0.304596 0.595245 0.248962
0.357483 0.602417 0.255676
0.412506 0.609985 0.262817
0.469177 0.617584 0.270386
0.526581 0.625244 0.278137
0.584259 0.632965 0.286285
0.642639 0.640564 0.294556
0.701172 0.648193 0.302948
0.760101 0.655731 0.311768
0.819336 0.663269 0.320770
0.878693 0.670868 0.329987
0.099091 0.615906 0.240112
0.109711 0.631592 0.253174
0.135315 0.640472 0.255463
0.176727 0.642395 0.257111
0.219818 0.647064 0.261322
0.266571 0.653046 0.266602
0.316956 0.659729 0.272766
0.370209 0.667023 0.279572
0.425751 0.674591 0.286774
0.482605 0.682312 0.294312
0.540314 0.690033 0.302185
0.598328 0.697754 0.310364
0.656738 0.705475 0.318634
0.715515 0.713165 0.327179
0.774506 0.720795 0.335938
0.833740 0.728516 0.344879
0.893219 0.736115 0.354065
0.108734 0.680023 0.264099
0.119659 0.695831 0.277405
0.141724 0.707367 0.281372
0.186127 0.707916 0.282074
0.230408 0.712341 0.285919
0.278046 0.718231 0.291168
0.329010 0.724976 0.297455
0.382843 0.732269 0.304230
0.438934 0.739655 0.311523
0.496155 0.747406 0.319122
0.553864 0.755219 0.327057
0.612183 0.763031 0.335144
0.670746 0.770782 0.343506
0.729645 0.778564 0.352020
0.788849 0.786285 0.360718
0.848206 0.794006 0.369629
0.907776 0.801727 0.378815
0.118561 0.744598 0.288879
0.129761 0.760559 0.302643
0.147797 0.774933 0.308289
0.194794 0.774384 0.307922
0.240875 0.778259 0.311401
0.289398 0.783966 0.316620
0.341187 0.790588 0.322784
0.395538 0.797760 0.329620
0.451965 0.805328 0.336945
0.509430 0.813049 0.344543
0.567566 0.820831 0.352478
0.626038 0.828644 0.360626
0.684784 0.836517 0.368896
0.743927 0.844238 0.377411
0.803192 0.852051 0.386139
0.862640 0.859863 0.394958
0.922241 0.867615 0.404083
0.130005 0.808533 0.315277
0.141510 0.824554 0.329163
0.155365 0.840973 0.340546
0.203186 0.841431 0.334717
0.251160 0.844604 0.337708
0.300842 0.850037 0.342712
0.353394 0.856506 0.348724
0.408142 0.863739 0.355530
0.464935 0.871155 0.362823
0.522827 0.878815 0.370514
0.581116 0.886688 0.378448
0.639862 0.894562 0.386566
0.698761 0.902374 0.394897
0.757965 0.910248 0.403412
0.817383 0.918030 0.412018
0.876953 0.925873 0.420898
0.936615 0.933655 0.429901
0.004181 0.004181 0.022736
0.009430 0.009430 0.056152
0.028595 0.012756 0.065918
0.057312 0.013947 0.070648
0.089813 0.015747 0.076599
0.127563 0.017670 0.082977
0.170624 0.019775 0.090179
0.216064 0.023682 0.095337
0.265167 0.027740 0.100800
0.317322 0.031799 0.106628
0.371277 0.035889 0.112762
0.426514 0.040009 0.119324
0.482422 0.044128 0.126068
0.538971 0.048279 0.132996
0.596008 0.052429 0.140503
0.653687 0.056641 0.148132
0.711700 0.060883 0.156067
0.016205 0.018890 0.059998
0.019775 0.029541 0.069702
0.042389 0.030975 0.081512
0.071960 0.032257 0.085388
0.103455 0.035461 0.089386
0.140381 0.038849 0.094238
0.182007 0.042725 0.099304
0.229218 0.046356 0.105164
0.279938 0.050201 0.111511
0.333618 0.054108 0.118286
0.389313 0.057922 0.125427
0.446472 0.061584 0.133453
0.504913 0.065002 0.141998
0.563751 0.068634 0.150696
0.623474 0.072083 0.160095
0.684113 0.075348 0.170105
0.743073 0.079620 0.179077
0.022247 0.041931 0.077911
0.034424 0.049438 0.083679
0.050262 0.056580 0.085724
0.078613 0.058411 0.092621
0.110779 0.061829 0.096771
0.148254 0.065613 0.101257
0.190674 0.069733 0.106506
0.237854 0.073944 0.112274
0.288788 0.078278 0.118408
0.342407 0.082703 0.125153
0.398346 0.086945 0.132385
0.454987 0.091278 0.139954
0.512329 0.095703 0.147797
0.571075 0.099762 0.156616
0.630554 0.103821 0.165863
0.690491 0.107819 0.175537
0.751038 0.111816 0.185577
0.028778 0.069519 0.092224
0.042023 0.076965 0.098328
0.061646 0.082947 0.100342
0.085815 0.088776 0.101044
0.118958 0.092529 0.105072
0.157043 0.096741 0.109833
0.199921 0.101440 0.115021
0.247772 0.106201 0.120789
0.298737 0.111115 0.127106
0.352753 0.116119 0.133728
0.408447 0.121124 0.140900
0.464935 0.126190 0.148193
0.522247 0.131104 0.156189
0.580109 0.136108 0.164398
0.638702 0.141052 0.172974
0.697845 0.145966 0.182068
0.757751 0.150635 0.191681
0.035248 0.103149 0.106567
0.047852 0.112183 0.112122
0.067566 0.119690 0.110504
0.093903 0.125305 0.110962
0.127686 0.129608 0.115112
0.166504 0.134369 0.119873
0.210358 0.139496 0.125244
0.258514 0.144775 0.131256
0.310120 0.150299 0.137482
0.364410 0.155823 0.144287
0.420105 0.161407 0.151337
0.476471 0.167084 0.158630
0.533722 0.172638 0.166534
0.591522 0.178131 0.174683
0.650055 0.183624 0.183228
0.708923 0.189178 0.192169
0.768219 0.194702 0.201447
0.040894 0.144684 0.119415
0.053436 0.154877 0.125122
0.073914 0.163391 0.120880
0.102417 0.168427 0.122772
0.137390 0.172882 0.126953
0.176910 0.178162 0.131958
0.221497 0.183777 0.137299
0.270264 0.189545 0.143341
0.322235 0.195587 0.149689
0.376831 0.201660 0.156525
0.432709 0.207733 0.163696
0.489227 0.213898 0.171204
0.546539 0.219879 0.178986
0.604309 0.226013 0.187164
0.662689 0.232025 0.195831
0.721436 0.238098 0.204498
0.780670 0.244141 0.213684
0.047455 0.192444 0.132935
0.059662 0.203918 0.138855
0.080750 0.213257 0.132843
0.111633 0.217438 0.136292
0.147156 0.222382 0.140564
0.187958 0.227814 0.145508
0.233154 0.233856 0.151184
0.282562 0.240082 0.157288
0.335114 0.246490 0.163971
0.390045 0.252991 0.170868
0.446136 0.259613 0.178040
0.502716 0.266174 0.185577
0.560120 0.272644 0.193420
0.617981 0.279144 0.201782
0.676331 0.285675 0.210236
0.735138 0.292145 0.219116
0.794281 0.298615 0.228271
0.054535 0.245667 0.147339
0.066254 0.258301 0.154236
0.089142 0.267395 0.148224
0.121002 0.271698 0.151703
0.157684 0.276825 0.156097
0.199310 0.282593 0.161102
0.245392 0.288879 0.166809
0.295288 0.295502 0.173126
0.348511 0.302277 0.179718
0.403687 0.309082 0.186890
0.459991 0.316071 0.194275
0.516785 0.322968 0.201874
0.574280 0.329803 0.209778
0.632202 0.336670 0.218170
0.690735 0.343506 0.226715
0.749451 0.350311 0.235535
0.808685 0.357056 0.244690
0.061890 0.303375 0.163177
0.073425 0.316772 0.171539
0.097412 0.325928 0.165466
0.130737 0.330017 0.168762
0.168488 0.335236 0.173218
0.210785 0.341309 0.178528
0.257568 0.347809 0.184265
0.308380 0.354645 0.190704
0.361847 0.361694 0.197449
0.417511 0.368866 0.204590
0.473999 0.376038 0.212067
0.531067 0.383209 0.219910
0.588654 0.390320 0.227905
0.646851 0.397400 0.236237
0.705322 0.404510 0.244751
0.764252 0.411499 0.253723
0.823456 0.418488 0.262909
0.069946 0.363892 0.180695
0.080872 0.377869 0.191376
0.105774 0.387360 0.184357
0.140594 0.391174 0.187500
0.179260 0.396576 0.192017
0.222626 0.402618 0.197357
0.270172 0.409302 0.203247
0.321503 0.416321 0.209686
0.375519 0.423523 0.216644
0.431519 0.430878 0.223907
0.488220 0.438171 0.231445
0.545471 0.445465 0.239288
0.603302 0.452820 0.247498
0.661530 0.460114 0.255768
0.720154 0.467285 0.264374
0.779175 0.474487 0.273346
0.838318 0.481689 0.282501
0.078949 0.425354 0.199860
0.088867 0.440399 0.212189
0.113434 0.450806 0.204926
0.150269 0.453979 0.207581
0.190216 0.459137 0.211945
0.234344 0.465302 0.217346
0.282806 0.471985 0.223389
0.334534 0.479095 0.229950
0.389069 0.486450 0.237000
0.445374 0.493927 0.244415
0.502380 0.501343 0.252136
0.559906 0.508820 0.259918
0.617859 0.516205 0.268127
0.676178 0.523651 0.276520
0.734894 0.530975 0.285217
0.794067 0.538361 0.294128
0.853271 0.545746 0.303223
0.087280 0.488556 0.219696
0.097534 0.503815 0.232300
0.121521 0.514771 0.226379
0.159851 0.517700 0.228790
0.201019 0.522705 0.233154
0.246063 0.528717 0.238586
0.295258 0.535461 0.244629
0.347656 0.542664 0.251404
0.402710 0.550018 0.258514
0.459229 0.557587 0.265930
0.516357 0.565186 0.273651
0.574066 0.572754 0.281616
0.632294 0.580261 0.289825
0.690796 0.587769 0.298279
0.749603 0.595276 0.306915
0.808746 0.602875 0.315796
0.868195 0.610229 0.325012
0.096405 0.552002 0.240845
0.106903 0.567505 0.253845
0.128693 0.580200 0.249573
0.169250 0.582245 0.251160
0.211700 0.586975 0.255432
0.257782 0.592926 0.260803
0.307678 0.599670 0.266968
0.360718 0.606873 0.273651
0.416046 0.614319 0.280853
0.472900 0.621918 0.288391
0.530365 0.629608 0.296204
0.588226 0.637268 0.304291
0.646606 0.644867 0.312531
0.705261 0.652527 0.320953
0.764160 0.660095 0.329559
0.823395 0.667725 0.338501
0.882935 0.675323 0.347687
0.106476 0.615387 0.263580
0.117310 0.631104 0.276825
0.136414 0.645477 0.275696
0.178619 0.647461 0.274689
0.222260 0.651978 0.278748
0.269318 0.657806 0.283966
0.320068 0.664490 0.290161
0.373688 0.671600 0.296906
0.429382 0.679108 0.304108
0.486450 0.686829 0.311707
0.544189 0.694611 0.319580
0.602203 0.702362 0.327728
0.660736 0.709991 0.335907
0.719543 0.717712 0.344482
0.778748 0.725433 0.353119
0.838135 0.733063 0.362091
0.897614 0.740723 0.371063
0.115692 0.680237 0.286407
0.126892 0.696045 0.300018
0.144287 0.710846 0.304840
0.187592 0.713470 0.299225
0.232788 0.717560 0.302856
0.281006 0.723206 0.308014
0.332367 0.729767 0.314087
0.386536 0.737000 0.320923
0.442688 0.744476 0.328247
0.500000 0.752197 0.335968
0.557983 0.759949 0.343811
0.616333 0.767700 0.351807
0.674988 0.775452 0.360107
0.733978 0.783234 0.368622
0.793182 0.791016 0.377258
0.852722 0.798706 0.386169
0.912292 0.806427 0.395233
0.125092 0.745758 0.310028
0.136475 0.761719 0.323822
0.151672 0.777161 0.334198
0.196503 0.780090 0.324585
0.243530 0.783539 0.327759
0.292419 0.789124 0.332886
0.344604 0.795593 0.339020
0.399353 0.802734 0.345825
0.455872 0.810150 0.353027
0.513580 0.817841 0.360626
0.571777 0.825684 0.368561
0.630219 0.833496 0.376709
0.689148 0.841278 0.384979
0.748260 0.849091 0.393372
0.807617 0.856934 0.402130
0.867157 0.864716 0.410858
0.926880 0.872467 0.420013
0.135712 0.810638 0.335114
0.147400 0.826721 0.349243
0.159851 0.843445 0.364014
0.204742 0.847412 0.351044
0.253784 0.850159 0.353516
0.304077 0.855286 0.358398
0.356750 0.861725 0.364380
0.412140 0.868713 0.371063
0.468903 0.876251 0.378387
0.526886 0.883942 0.386047
0.585388 0.891693 0.394012
0.644135 0.899567 0.402039
0.703217 0.907349 0.410400
0.762451 0.915192 0.418823
0.821991 0.922974 0.427338
0.881622 0.930786 0.436188
0.941345 0.938568 0.445129
0.006500 0.006500 0.035034
0.011230 0.011230 0.073547
0.022339 0.016663 0.094788
0.056824 0.015137 0.099213
0.090088 0.016663 0.104706
0.128510 0.018494 0.111359
0.171082 0.021088 0.117920
0.216675 0.024933 0.123169
0.266113 0.028961 0.128876
0.318420 0.033081 0.134949
0.372681 0.037170 0.141174
0.428009 0.041290 0.147583
0.484100 0.045502 0.154449
0.540894 0.049713 0.161407
0.598145 0.053925 0.168701
0.655884 0.058228 0.176178
