滤镜资源/Lutify.me Free 3D LUTs Package/3D LUTs/Monitoring LUTs/Rec709/Hilutite - Rec709.cube
# Website: https://lutify.me
# Contact: help@lutify.me
# Copyright: (c) Copyright Lutify.me 2016, G.T. Colord LTD
# Created by: Lutify.me
LUT_3D_SIZE 17
0.000000 0.000000 0.008636
0.000000 0.000000 0.004822
0.034363 0.000000 0.000275
0.104889 0.000000 0.000000
0.170349 0.000000 0.000000
0.235779 0.000000 0.000000
0.301941 0.000000 0.000000
0.364594 0.000000 0.000000
0.425049 0.000000 0.000000
0.484497 0.000000 0.000000
0.542358 0.000000 0.000000
0.597229 0.000031 0.000031
0.643402 0.000000 0.000000
0.683594 0.000000 0.000000
0.719696 0.000000 0.000000
0.752838 0.000000 0.000000
0.782135 0.000000 0.000000
0.000000 0.005005 0.022614
0.000000 0.000000 0.006744
0.031921 0.000000 0.000000
0.082275 0.002563 0.000000
0.131104 0.005768 0.000000
0.180664 0.007202 0.000000
0.226807 0.008026 0.000000
0.279236 0.007782 0.000000
0.335510 0.005981 0.000000
0.395325 0.003876 0.000000
0.463745 0.001007 0.000000
0.527283 0.000275 0.000031
0.583954 0.000885 0.000031
0.637665 0.001556 0.000000
0.684845 0.003723 0.000031
0.723633 0.006042 0.000031
0.754913 0.009247 0.000031
0.000000 0.051483 0.048859
0.003662 0.044067 0.042328
0.061737 0.039551 0.007599
0.109619 0.040863 0.000000
0.151489 0.046478 0.000000
0.198608 0.051147 0.000000
0.246368 0.055206 0.000000
0.294189 0.057892 0.000000
0.345306 0.058899 0.000031
0.392029 0.058777 0.000000
0.440796 0.058746 0.000000
0.491089 0.058075 0.000031
0.539307 0.058197 0.000000
0.584442 0.059937 0.000000
0.627747 0.062286 0.000061
0.668427 0.065308 0.000031
0.703613 0.070099 0.000031
0.000000 0.105621 0.084656
0.037567 0.100586 0.081299
0.088043 0.096985 0.067993
0.149719 0.086975 0.000916
0.192566 0.090820 0.000000
0.234619 0.096924 0.000000
0.278229 0.104279 0.000000
0.321747 0.111572 0.000031
0.373108 0.117767 0.000000
0.426788 0.122772 0.000031
0.477692 0.127380 0.000031
0.529663 0.132690 0.000031
0.580505 0.138336 0.000031
0.623657 0.143768 0.000031
0.664459 0.149750 0.000031
0.703888 0.155884 0.000031
0.740601 0.162354 0.000000
0.028992 0.161224 0.121490
0.073212 0.162689 0.118896
0.121033 0.153778 0.116089
0.173370 0.150696 0.081177
0.229919 0.139069 0.000031
0.273987 0.143646 0.000031
0.320068 0.150330 0.000000
0.366577 0.157684 0.000000
0.417023 0.165558 0.000000
0.470490 0.174164 0.000031
0.517090 0.181427 0.000031
0.563477 0.188904 0.000031
0.609467 0.196869 0.000000
0.650452 0.204681 0.000000
0.687073 0.211700 0.000031
0.723877 0.218658 0.000061
0.758484 0.225739 0.000000
0.069061 0.217590 0.153900
0.108887 0.221619 0.152283
0.155579 0.208130 0.152313
0.200653 0.208252 0.143280
0.251648 0.203430 0.090454
0.307068 0.192566 0.000031
0.357910 0.197937 0.000031
0.408234 0.205017 0.000031
0.460541 0.212830 0.000000
0.514740 0.221680 0.000000
0.561981 0.229675 0.000000
0.606598 0.237549 0.000031
0.649811 0.245911 0.000031
0.691132 0.254822 0.000031
0.725647 0.262238 0.000061
0.758118 0.270050 0.000031
0.789154 0.278046 0.000031
0.105560 0.277283 0.181030
0.141907 0.281860 0.180542
0.188721 0.272125 0.183716
0.227203 0.264557 0.176117
0.270874 0.264709 0.161499
0.325073 0.258850 0.099213
0.382874 0.249359 0.007782
0.439331 0.254547 0.000031
0.493958 0.262573 0.000031
0.548035 0.271790 0.000031
0.596130 0.280182 0.000031
0.638947 0.288452 0.000031
0.681030 0.297485 0.000031
0.720001 0.306549 0.000000
0.754425 0.315002 0.000061
0.784912 0.323303 0.000031
0.817566 0.331360 0.000031
0.135468 0.342163 0.201233
0.169556 0.346985 0.201141
0.213135 0.340515 0.204865
0.251434 0.326874 0.203033
0.290833 0.325226 0.189911
0.337189 0.326233 0.170807
0.389038 0.319885 0.113190
0.449829 0.309235 0.018829
0.512390 0.315338 0.001587
0.568848 0.324585 0.000031
0.617950 0.333862 0.000031
0.660767 0.342682 0.000031
0.701324 0.351898 0.000031
0.740204 0.361633 0.000031
0.774841 0.371002 0.000031
0.804810 0.379456 0.000031
0.841736 0.388214 0.000031
0.157654 0.413757 0.213165
0.190338 0.418365 0.213837
0.229828 0.415405 0.216949
0.270081 0.401550 0.217377
0.306732 0.387115 0.210571
0.351196 0.389832 0.190979
0.397400 0.391052 0.169128
0.447083 0.386261 0.117584
0.504456 0.374176 0.031342
0.572754 0.379517 0.013367
0.626617 0.388916 0.005280
0.672394 0.397308 0.000031
0.712921 0.406464 0.000031
0.752502 0.416687 0.000031
0.787720 0.426971 0.000031
0.818390 0.436188 0.000031
0.856262 0.445099 0.000031
0.171204 0.493744 0.217102
0.202332 0.497833 0.217621
0.240265 0.498474 0.219116
0.280914 0.485016 0.220123
0.321808 0.470673 0.216522
0.361145 0.457642 0.205750
0.406464 0.460266 0.184387
0.452576 0.461517 0.158325
0.503967 0.459106 0.115417
0.559814 0.450226 0.047333
0.615784 0.450531 0.025604
0.670135 0.457153 0.022980
0.716949 0.465820 0.010437
0.759491 0.475433 0.003937
0.796143 0.484619 0.000031
0.827087 0.493134 0.000031
0.864410 0.506775 0.012238
0.176086 0.573090 0.211853
0.209045 0.577240 0.212646
0.245728 0.579895 0.212830
0.286346 0.567169 0.212494
0.329437 0.553314 0.209625
0.369965 0.538605 0.202942
0.410095 0.527222 0.190063
0.459290 0.529541 0.167969
0.508789 0.530518 0.133057
0.560486 0.529694 0.103729
0.610626 0.525269 0.060089
0.658295 0.523621 0.034241
0.707001 0.527161 0.030579
0.756561 0.534180 0.027832
0.797791 0.542572 0.017120
0.831512 0.550903 0.010498
0.864044 0.566956 0.040192
0.178711 0.645721 0.201752
0.212494 0.649292 0.201447
0.249146 0.652435 0.200500
0.289642 0.640350 0.198486
0.331573 0.627045 0.195892
0.373352 0.613007 0.190613
0.415070 0.598389 0.180298
0.460754 0.589508 0.164185
0.513947 0.591919 0.140808
0.565430 0.592621 0.108337
0.610413 0.591858 0.090240
0.657257 0.589752 0.059967
0.703430 0.588806 0.037445
0.748840 0.592102 0.034760
0.791321 0.596008 0.033783
0.831177 0.602142 0.032806
0.865143 0.617889 0.061371
0.179749 0.713348 0.186005
0.214447 0.716431 0.184723
0.251556 0.718475 0.182922
0.290161 0.706940 0.181030
0.331665 0.694305 0.179077
0.374878 0.681152 0.173645
0.419617 0.667542 0.165070
0.464966 0.651764 0.154297
0.516785 0.648102 0.135315
0.568939 0.649384 0.112732
0.614105 0.648987 0.086700
0.658539 0.648804 0.072357
0.703979 0.648468 0.054443
0.748566 0.648926 0.039978
0.790375 0.651520 0.036987
0.826355 0.654358 0.038269
0.863190 0.665924 0.083282
0.180695 0.773834 0.166626
0.216003 0.776001 0.164978
0.251740 0.776245 0.162964
0.290588 0.765900 0.161102
0.332275 0.754364 0.157806
0.377228 0.742340 0.153320
0.425446 0.728821 0.148438
0.473389 0.714966 0.139648
0.520172 0.700684 0.127991
0.571686 0.701904 0.114502
0.619049 0.703094 0.100281
0.665405 0.704437 0.084534
0.710480 0.705841 0.078094
0.754700 0.707611 0.080505
0.795776 0.709412 0.075317
0.831146 0.711609 0.074371
0.864838 0.718445 0.105743
0.182648 0.823944 0.151123
0.218628 0.825867 0.149445
0.255493 0.825195 0.147430
0.295227 0.815186 0.145660
0.338013 0.804382 0.142731
0.384613 0.793274 0.138916
0.433777 0.781433 0.133850
0.484253 0.769104 0.127655
0.531372 0.756104 0.120880
0.575409 0.748108 0.114777
0.624451 0.749847 0.107086
0.671783 0.751953 0.099121
0.717224 0.753937 0.091736
0.760559 0.756317 0.092407
0.801086 0.759338 0.106171
0.836304 0.761139 0.106781
0.868683 0.765961 0.131714
0.189758 0.865601 0.142639
0.226746 0.866974 0.141144
0.264648 0.865479 0.139526
0.305145 0.855896 0.138367
0.348969 0.846008 0.136658
0.397278 0.835449 0.134094
0.448029 0.824860 0.131134
0.498383 0.813873 0.127594
0.544006 0.803009 0.124725
0.585388 0.792236 0.122437
0.631683 0.789032 0.117706
0.679230 0.791351 0.113922
0.724670 0.793640 0.111237
0.767456 0.796326 0.109070
0.806274 0.798859 0.116486
0.840790 0.801147 0.131927
0.872162 0.804749 0.154938
0.201904 0.903687 0.141815
0.239441 0.905121 0.140717
0.277771 0.903015 0.139221
0.319214 0.893860 0.138733
0.364563 0.884613 0.137970
0.413818 0.874847 0.136932
0.465759 0.864899 0.135712
0.512939 0.855530 0.132935
0.557434 0.845825 0.132538
0.600311 0.836151 0.132599
0.640411 0.826355 0.132721
0.688049 0.827271 0.130951
0.732727 0.829529 0.130127
0.774841 0.832092 0.129852
0.812256 0.834259 0.130188
0.844940 0.836487 0.139282
0.876282 0.839874 0.182678
0.000000 0.000000 0.014587
0.000000 0.000000 0.032471
0.048065 0.000000 0.024567
0.138031 0.000000 0.015900
0.213379 0.000000 0.008026
0.282654 0.000000 0.002563
0.339783 0.000000 0.001495
0.401520 0.000000 0.001465
0.465546 0.000000 0.001709
0.523590 0.000000 0.001923
0.579071 0.000000 0.001984
0.632294 0.000031 0.002045
0.678131 0.000000 0.001831
0.716766 0.000000 0.001740
0.752197 0.000000 0.001465
0.784180 0.000000 0.000946
0.813416 0.000000 0.000610
0.000000 0.007019 0.040924
0.000000 0.013885 0.053925
0.017059 0.016266 0.044525
0.088257 0.015656 0.037506
0.159271 0.011047 0.024139
0.226013 0.003296 0.010590
0.275726 0.000000 0.001343
0.324860 0.000000 0.000000
0.378174 0.000000 0.000000
0.443024 0.000000 0.000000
0.516266 0.000000 0.000000
0.578522 0.000000 0.000000
0.633087 0.000000 0.000000
0.684204 0.000031 0.000031
0.728577 0.000000 0.000000
0.763550 0.000000 0.000000
0.793976 0.000000 0.000000
0.000000 0.050629 0.064850
0.000000 0.057037 0.069519
0.048279 0.054077 0.056580
0.119415 0.048767 0.029816
0.185150 0.040314 0.004395
0.222198 0.041229 0.000000
0.262878 0.043396 0.000000
0.306458 0.044373 0.000000
0.353119 0.044342 0.000031
0.397491 0.044250 0.000000
0.447540 0.044159 0.000031
0.502411 0.043945 0.000031
0.553894 0.044250 0.000031
0.601196 0.045685 0.000031
0.645874 0.047974 0.000031
0.687134 0.050842 0.000000
0.720917 0.055298 0.000031
0.000000 0.105377 0.097778
0.020844 0.111664 0.100677
0.080597 0.103943 0.092010
0.146637 0.100098 0.052887
0.206238 0.088440 0.000031
0.244263 0.094208 0.000000
0.284821 0.100403 0.000000
0.327728 0.106750 0.000000
0.380768 0.112396 0.000000
0.433350 0.117249 0.000031
0.484497 0.121490 0.000000
0.536255 0.126862 0.000000
0.586121 0.132233 0.000031
0.628723 0.137848 0.000000
0.669678 0.143738 0.000031
0.708679 0.150208 0.000031
0.745483 0.156738 0.000031
0.010773 0.162415 0.133514
0.058563 0.168152 0.133087
0.115509 0.158234 0.127533
0.169922 0.157623 0.108429
0.233246 0.144836 0.026886
0.281281 0.143066 0.000031
0.324982 0.149078 0.000000
0.371643 0.156158 0.000000
0.422424 0.164093 0.000031
0.475311 0.172211 0.000000
0.521210 0.179443 0.000031
0.567749 0.187134 0.000031
0.613373 0.195129 0.000031
0.654022 0.202454 0.000000
0.691711 0.209412 0.000031
0.728455 0.216278 0.000031
0.763428 0.223511 0.000061
0.058685 0.219482 0.169006
0.095917 0.225342 0.164551
0.151093 0.217712 0.163452
0.197784 0.213257 0.157227
0.249603 0.211182 0.120178
0.311920 0.197052 0.019867
0.362396 0.198578 0.000031
0.413177 0.205292 0.000031
0.465790 0.212891 0.000000
0.519989 0.221680 0.000031
0.566498 0.229462 0.000031
0.611328 0.237335 0.000031
0.654266 0.245728 0.000031
0.694916 0.254517 0.000031
0.729370 0.261932 0.000000
0.761505 0.269562 0.000000
0.792938 0.277435 0.000031
0.102814 0.279633 0.200256
0.128418 0.286469 0.190399
0.181183 0.282623 0.192810
0.224304 0.269501 0.187592
0.269684 0.270081 0.175964
0.325043 0.266998 0.130463
0.386017 0.254242 0.026215
0.444122 0.255920 0.000031
0.498444 0.263733 0.000031
0.552673 0.272614 0.000031
0.600067 0.280884 0.000031
0.643311 0.289185 0.000031
0.685089 0.298096 0.000031
0.723816 0.307129 0.000000
0.757690 0.315399 0.000000
0.787964 0.323792 0.000031
0.825378 0.331543 0.000031
0.135864 0.345612 0.222107
0.158234 0.352905 0.211639
0.203613 0.353973 0.213684
0.248749 0.337921 0.213715
0.289398 0.331085 0.201233
0.337128 0.332550 0.185455
0.390778 0.328094 0.140259
0.453247 0.315582 0.038971
0.515625 0.318420 0.004730
0.572266 0.326691 0.000031
0.621033 0.335724 0.000031
0.664001 0.344696 0.000031
0.704590 0.353699 0.000031
0.743622 0.363312 0.000031
0.777863 0.372437 0.000031
0.807678 0.381195 0.000031
0.848206 0.389343 0.000031
0.158630 0.417725 0.234467
0.179382 0.425110 0.224304
0.220062 0.428467 0.225952
0.265198 0.414703 0.227478
0.306458 0.398407 0.221741
0.350861 0.396393 0.203278
0.397980 0.398254 0.185028
0.449432 0.395294 0.143982
0.509674 0.384644 0.070496
0.575287 0.384338 0.021332
0.628479 0.391602 0.005737
0.674957 0.399811 0.000031
0.715393 0.408905 0.000031
0.755096 0.419250 0.000031
0.790680 0.429169 0.000031
0.820862 0.438110 0.000031
0.864655 0.447784 0.000031
0.167969 0.498657 0.235382
0.191803 0.504791 0.228638
0.230927 0.508484 0.229980
0.275208 0.498932 0.231140
0.319733 0.483582 0.227997
0.360840 0.467316 0.219269
0.406616 0.467560 0.198822
0.453827 0.469025 0.171204
0.507080 0.468567 0.141785
0.566254 0.463379 0.094452
0.619110 0.458282 0.047241
0.672211 0.461914 0.030365
0.719147 0.469818 0.014832
0.761932 0.478912 0.007690
0.800995 0.487732 0.000031
0.830841 0.495789 0.000031
0.866730 0.511932 0.024780
0.168610 0.579285 0.228180
0.198639 0.584015 0.225372
0.236725 0.587585 0.226135
0.280212 0.582306 0.226135
0.326385 0.567719 0.223999
0.369537 0.552521 0.218231
0.409973 0.536499 0.207428
0.460541 0.538208 0.187531
0.511871 0.539612 0.156982
0.565277 0.540619 0.137146
0.617096 0.538879 0.109314
0.665100 0.536865 0.082123
0.711243 0.536407 0.058472
0.759674 0.540833 0.043762
0.800110 0.548126 0.029327
0.833954 0.556305 0.023407
0.867157 0.573517 0.056702
0.170776 0.651367 0.219574
0.203552 0.655457 0.217682
0.241547 0.658722 0.217285
0.284485 0.654663 0.216309
0.327972 0.641571 0.213562
0.372620 0.627258 0.209534
0.417755 0.612427 0.202484
0.462555 0.599426 0.189880
0.517578 0.602142 0.170776
0.570862 0.603760 0.145599
0.617584 0.605194 0.139221
0.666016 0.605774 0.123657
0.713104 0.606323 0.109070
0.757385 0.607971 0.099304
0.799744 0.611267 0.092773
0.838623 0.616913 0.081818
0.870514 0.631683 0.107452
0.171021 0.718445 0.206696
0.207306 0.721466 0.205658
0.245300 0.724396 0.204559
0.286011 0.720428 0.203613
0.328888 0.708466 0.201355
0.374542 0.695435 0.197388
0.422852 0.681458 0.192657
0.470032 0.667175 0.183655
0.521240 0.658508 0.171326
0.574890 0.661194 0.156860
0.621735 0.662537 0.141937
0.668304 0.664551 0.137024
0.715515 0.666656 0.137146
0.760254 0.668701 0.130981
0.801208 0.671051 0.128082
0.836426 0.673340 0.128113
0.872864 0.681793 0.146912
0.173889 0.777924 0.194092
0.209961 0.779968 0.192902
0.246521 0.782013 0.191589
0.286560 0.779297 0.189331
0.331390 0.767517 0.188660
0.378723 0.755676 0.185303
0.428741 0.743134 0.180542
0.479309 0.729858 0.174194
0.528687 0.715698 0.168182
0.577728 0.712891 0.159851
0.626007 0.714874 0.151337
0.673370 0.716827 0.142822
0.718903 0.719482 0.138885
0.763580 0.722443 0.150879
0.804291 0.724823 0.149475
0.839478 0.726868 0.150055
0.872253 0.730927 0.163788
0.177002 0.827301 0.185730
0.213928 0.829010 0.184662
0.251495 0.830841 0.183350
0.292419 0.828552 0.181152
0.337372 0.817963 0.179260
0.386810 0.806610 0.178345
0.438873 0.795502 0.175232
0.492218 0.783569 0.171295
0.541107 0.771729 0.167389
0.582489 0.760101 0.164307
0.631653 0.760834 0.159546
0.679688 0.763123 0.155029
0.725098 0.765747 0.151398
0.768250 0.768250 0.150299
0.808350 0.771423 0.167694
0.843079 0.773285 0.168762
0.875000 0.776337 0.180695
0.185730 0.868439 0.183044
0.223358 0.869843 0.182037
0.261627 0.871368 0.181061
0.303284 0.869171 0.179321
0.349365 0.859253 0.178284
0.399872 0.849121 0.176819
0.453156 0.838745 0.175140
0.505432 0.828064 0.173218
0.552765 0.817688 0.171814
0.595917 0.807312 0.170685
0.638519 0.799255 0.169891
0.686462 0.801544 0.167908
0.731964 0.804016 0.166595
0.774628 0.806396 0.165497
0.812683 0.809082 0.169067
0.846771 0.811462 0.186554
0.877930 0.814148 0.199219
0.198700 0.906219 0.186401
0.236725 0.907410 0.185608
0.275787 0.908722 0.184967
0.318298 0.906921 0.183563
0.365295 0.897491 0.183228
0.416931 0.887909 0.182800
0.471069 0.878021 0.182343
0.520721 0.868774 0.182404
0.566803 0.859344 0.182739
0.610870 0.849731 0.183228
0.651855 0.840240 0.184082
0.694977 0.836548 0.182739
0.739655 0.838837 0.182587
0.781128 0.841278 0.182526
0.818237 0.843384 0.182983
0.850494 0.845306 0.188080
0.881744 0.848511 0.223877
0.000000 0.000000 0.023132
0.000000 0.000000 0.049286
0.015839 0.000458 0.072998
0.121002 0.000000 0.064911
0.202179 0.000000 0.050842
0.274994 0.000000 0.038727
0.340210 0.000000 0.031555
0.404144 0.000000 0.028900
0.472687 0.000000 0.026672
0.531799 0.000000 0.025848
0.589722 0.000000 0.024475
0.643829 0.000000 0.023590
0.692841 0.000031 0.022522
0.733185 0.000000 0.021667
0.770386 0.000031 0.021088
0.804413 0.000000 0.019836
0.836243 0.000000 0.019409
0.000000 0.012421 0.051788
0.000000 0.022003 0.066895
0.000000 0.029755 0.087616
0.082642 0.029510 0.074188
0.164062 0.026520 0.067627
0.239899 0.021362 0.058014
0.309479 0.012817 0.046631
0.376526 0.003418 0.037109
0.438843 0.000000 0.028931
0.508789 0.000000 0.021240
0.576996 0.000000 0.016052
0.635620 0.000000 0.013977
0.688904 0.000000 0.012604
0.738251 0.000000 0.010620
0.782684 0.000000 0.009186
0.819366 0.000000 0.007599
0.851837 0.000000 0.006226
0.000000 0.052155 0.081848
0.000000 0.062897 0.096619
0.003052 0.072601 0.110840
0.093475 0.075012 0.099182
0.163269 0.075745 0.092926
0.233704 0.071228 0.077423
0.299622 0.066223 0.062531
0.369049 0.057800 0.047028
0.445099 0.044769 0.029236
0.517303 0.033173 0.015137
0.579681 0.026062 0.007202
0.632385 0.021515 0.003876
0.675171 0.017792 0.001007
0.715546 0.017792 0.000519
0.755188 0.018768 0.000153
0.793182 0.020416 0.000092
0.826019 0.023804 0.000000
0.000000 0.106842 0.112976
0.000000 0.114807 0.124420
0.058960 0.122986 0.128845
0.127899 0.119965 0.111694
0.199585 0.117035 0.093140
0.266479 0.111420 0.069061
0.334869 0.103394 0.040161
0.402100 0.095184 0.010834
0.452118 0.095978 0.000336
0.490295 0.100098 0.000031
0.535522 0.104370 0.000061
0.581146 0.108826 0.000000
0.625732 0.113831 0.000031
0.666412 0.118439 0.000000
0.706116 0.123810 0.000031
0.744324 0.129425 0.000031
0.780640 0.135162 0.000061
0.000000 0.163788 0.148499
0.023102 0.171692 0.157684
0.095612 0.178314 0.156006
0.159607 0.169617 0.147308
0.222076 0.169098 0.117706
0.290771 0.161682 0.074158
0.356171 0.154449 0.030640
0.412323 0.151917 0.000031
0.451965 0.159363 0.000031
0.498718 0.167328 0.000031
0.542175 0.174713 0.000000
0.585632 0.182037 0.000031
0.632416 0.188995 0.000031
0.674896 0.195251 0.000000
0.714874 0.201263 0.000031
0.753296 0.207275 0.000031
0.790131 0.213348 0.000000
0.021423 0.221680 0.184174
0.074219 0.229431 0.190186
0.129700 0.235382 0.185333
0.189056 0.222961 0.177399
0.242310 0.223145 0.162323
0.309326 0.219666 0.117065
0.378357 0.210510 0.051910
0.442719 0.205841 0.004486
0.490417 0.211914 0.000000
0.539246 0.220245 0.000000
0.582611 0.227478 0.000031
0.624847 0.235413 0.000031
0.666199 0.243652 0.000000
0.705505 0.251984 0.000000
0.741394 0.259033 0.000031
0.775970 0.266388 0.000031
0.817963 0.273010 0.000031
0.075745 0.283325 0.215454
0.118286 0.290466 0.219482
0.160004 0.296173 0.210876
0.217438 0.283539 0.208740
0.264252 0.279724 0.200287
0.320618 0.279449 0.174316
0.389069 0.275604 0.120880
0.455414 0.266602 0.044067
0.519989 0.266693 0.007629
0.572906 0.273193 0.000031
0.616150 0.280884 0.000031
0.657623 0.288879 0.000031
0.697113 0.297363 0.000031
0.735596 0.306213 0.000000
0.770233 0.314026 0.000000
0.802368 0.321655 0.000000
0.852966 0.328003 0.000031
0.119629 0.350891 0.241089
0.151825 0.357544 0.240570
0.184601 0.364014 0.229614
0.239441 0.356598 0.231293
0.285187 0.340424 0.223846
0.334534 0.342590 0.211548
0.390015 0.341553 0.184570
0.458679 0.339691 0.136993
0.524445 0.334442 0.069855
0.586578 0.335449 0.029053
0.638428 0.340393 0.010162
0.684326 0.346527 0.000031
0.721344 0.354889 0.000031
0.758728 0.363831 0.000031
0.793243 0.372437 0.000031
0.824097 0.380493 0.000031
0.878693 0.391968 0.009247
0.148621 0.424103 0.258179
0.174500 0.430359 0.253021
0.203003 0.437042 0.242096
0.254120 0.434814 0.243927
0.303680 0.416229 0.242188
0.349121 0.406769 0.228455
0.397705 0.409332 0.213898
0.451447 0.409698 0.189240
0.519806 0.407471 0.156677
0.585754 0.407806 0.109375
0.638916 0.410400 0.075409
0.686554 0.413971 0.049255
0.731415 0.420532 0.035217
0.773773 0.428497 0.025482
0.811005 0.437469 0.023163
0.845947 0.444977 0.018982
0.877014 0.462280 0.053955
0.163452 0.504211 0.263702
0.188293 0.510071 0.257812
0.215668 0.516541 0.247253
0.263824 0.519409 0.248688
0.314789 0.502167 0.248260
0.361572 0.484924 0.242157
0.406708 0.478638 0.227264
0.456665 0.480988 0.204224
0.511902 0.483337 0.189545
0.575256 0.483215 0.168518
0.633362 0.483490 0.144592
0.684052 0.487610 0.120972
0.729706 0.494202 0.103760
0.773010 0.501434 0.088440
0.811737 0.509613 0.080780
0.844788 0.517822 0.077301
0.874603 0.532837 0.102478
0.169861 0.583954 0.261261
0.193634 0.589325 0.253540
0.224182 0.594666 0.246063
0.270538 0.598999 0.246613
0.320984 0.585571 0.245850
0.368378 0.570007 0.242004
0.413055 0.553955 0.234222
0.462830 0.549835 0.219513
0.516998 0.552704 0.197723
0.572266 0.556000 0.189514
0.625702 0.557220 0.177551
0.675903 0.558136 0.165497
0.725800 0.561157 0.154755
0.771729 0.567719 0.140106
0.810364 0.576141 0.131439
0.843628 0.583618 0.125488
0.875427 0.595123 0.137054
0.171844 0.655762 0.254669
0.195282 0.660950 0.244629
0.231567 0.664795 0.241394
0.275818 0.668732 0.240814
0.323120 0.658722 0.239136
0.371307 0.644470 0.236725
0.420013 0.629822 0.231567
0.467010 0.614532 0.223450
0.522095 0.614044 0.209045
0.577179 0.617004 0.192108
0.624908 0.619598 0.190765
0.674500 0.622162 0.186127
0.722321 0.623810 0.179291
0.767029 0.626282 0.175781
0.811127 0.631531 0.170898
0.845337 0.638367 0.161102
0.876099 0.649292 0.172272
0.172272 0.721954 0.244476
0.198608 0.726288 0.234802
0.237305 0.729065 0.233673
0.278748 0.731995 0.232666
0.324890 0.724579 0.231476
0.373810 0.711853 0.228577
0.425537 0.697998 0.225342
0.476746 0.683716 0.220184
0.526154 0.670197 0.211761
0.580872 0.672852 0.201935
0.628784 0.675232 0.192322
0.675903 0.677948 0.188324
0.723541 0.680756 0.195740
0.768219 0.683380 0.192871
0.808807 0.685944 0.192017
0.843933 0.688568 0.192596
0.878967 0.695953 0.197510
0.173126 0.780975 0.233826
0.202698 0.783722 0.226959
0.240479 0.785675 0.226135
0.281921 0.787933 0.225037
0.328644 0.782501 0.223907
0.378845 0.771057 0.221619
0.432129 0.758820 0.218384
0.486511 0.745758 0.215637
0.537903 0.732666 0.210571
0.583801 0.723877 0.206085
0.633148 0.726288 0.200806
0.680725 0.728760 0.195679
0.726501 0.731384 0.191589
0.770844 0.734863 0.206268
0.811157 0.737152 0.206116
0.845947 0.739258 0.207001
0.878143 0.742371 0.215240
0.174500 0.830200 0.226837
0.208527 0.832092 0.223145
0.246735 0.833771 0.222260
0.288727 0.835876 0.220856
0.336670 0.831573 0.220062
0.387970 0.820984 0.218536
0.443176 0.809937 0.216614
0.498871 0.798553 0.214294
0.549805 0.786957 0.211823
0.592896 0.775818 0.209930
0.638916 0.771271 0.208344
0.686707 0.773651 0.205719
0.732300 0.776184 0.203674
0.775024 0.778961 0.202209
0.814728 0.782043 0.219910
0.849091 0.783936 0.221100
0.880798 0.786194 0.226318
0.182800 0.870941 0.226318
0.219452 0.872406 0.224396
0.258392 0.874023 0.223785
0.300751 0.875793 0.222778
0.348480 0.872650 0.221069
0.402344 0.862030 0.221802
0.458435 0.851929 0.220856
0.512695 0.841827 0.220001
0.561859 0.831787 0.219269
0.606049 0.821747 0.219086
0.647308 0.811646 0.219116
0.693817 0.811035 0.217529
0.738678 0.813721 0.216919
0.780792 0.816223 0.216736
0.818604 0.818451 0.216980
0.852203 0.821075 0.236145
0.883636 0.822998 0.241852
0.195953 0.908447 0.231079
0.233917 0.909882 0.230438
0.273041 0.911224 0.229950
0.316162 0.912720 0.229218
0.364594 0.910675 0.228119
0.418915 0.900970 0.227997
0.475037 0.891357 0.228088
0.526581 0.881927 0.228333
0.574493 0.872711 0.228790
0.619476 0.863373 0.229492
0.661407 0.853973 0.230408
0.701202 0.845398 0.231445
0.746094 0.847656 0.231354
0.787415 0.849915 0.231628
0.823944 0.852081 0.232422
0.855743 0.853912 0.233582
0.886658 0.856506 0.262878
0.000000 0.000000 0.038544
0.000000 0.007019 0.055328
0.000000 0.031982 0.099243
0.069275 0.025177 0.118347
0.171906 0.016937 0.118561
0.266174 0.003418 0.106628
0.327148 0.000000 0.093445
0.396027 0.000000 0.083038
0.469543 0.000000 0.073944
0.532928 0.000000 0.068817
0.590302 0.000000 0.067291
0.645233 0.000000 0.066162
0.696289 0.000000 0.064941
0.736633 0.000000 0.064575
0.773346 0.000000 0.064209
0.807495 0.000000 0.063690
