滤镜资源/Lutify.me Free 3D LUTs Package/3D LUTs/Monitoring LUTs/Rec709/Hilutite - Rec709.cube
# Website: https://lutify.me
# Contact: help@lutify.me
# Copyright: (c) Copyright Lutify.me 2016, G.T. Colord LTD
# Created by: Lutify.me
LUT_3D_SIZE 5
0.000000 0.000000 0.008636
0.170349 0.000000 0.000000
0.425049 0.000000 0.000000
0.643402 0.000000 0.000000
0.782135 0.000000 0.000000
0.028992 0.161224 0.121490
0.229919 0.139069 0.000031
0.417023 0.165558 0.000000
0.609467 0.196869 0.000000
0.758484 0.225739 0.000000
0.157654 0.413757 0.213165
0.306732 0.387115 0.210571
0.504456 0.374176 0.031342
0.712921 0.406464 0.000031
0.856262 0.445099 0.000031
0.179749 0.713348 0.186005
0.331665 0.694305 0.179077
0.516785 0.648102 0.135315
0.703979 0.648468 0.054443
0.863190 0.665924 0.083282
0.201904 0.903687 0.141815
0.364563 0.884613 0.137970
0.557434 0.845825 0.132538
0.732727 0.829529 0.130127
0.876282 0.839874 0.182678
0.000000 0.010834 0.056824
0.125549 0.049652 0.165710
0.477661 0.007812 0.145020
0.696045 0.000000 0.124054
0.841339 0.000000 0.116455
0.000000 0.163574 0.182556
0.131317 0.212036 0.249451
0.465759 0.216461 0.209961
0.741058 0.210785 0.173218
0.906555 0.216461 0.156982
0.071198 0.431854 0.304718
0.269653 0.466278 0.309845
0.520905 0.449127 0.284149
0.748047 0.474304 0.221863
0.887665 0.513153 0.227600
0.153900 0.731812 0.332367
0.307343 0.745605 0.316772
0.545105 0.709778 0.310699
0.738190 0.709351 0.311859
0.889069 0.727753 0.316010
0.188934 0.914215 0.338013
0.359680 0.920227 0.336731
0.587860 0.901489 0.338776
0.759094 0.866547 0.342560
0.897186 0.874268 0.363861
0.000000 0.080017 0.129242
0.000000 0.145691 0.217255
0.314972 0.154633 0.346375
0.588013 0.124817 0.387634
0.817169 0.091309 0.392761
0.000031 0.201599 0.244049
0.025269 0.253601 0.323792
0.359955 0.289551 0.432007
0.703156 0.269073 0.451660
0.937073 0.239502 0.433655
0.000000 0.412323 0.418854
0.129822 0.486053 0.503967
0.437164 0.534088 0.578217
0.764282 0.543549 0.530243
0.927338 0.556122 0.506134
0.013794 0.727844 0.500336
0.246216 0.753967 0.547577
0.552948 0.779633 0.584045
0.764801 0.761230 0.593018
0.910553 0.778656 0.574371
0.132965 0.916962 0.545441
0.341095 0.929260 0.591370
0.587372 0.937683 0.605072
0.791840 0.918915 0.609100
0.917206 0.908386 0.621307
0.000000 0.141846 0.192749
0.000031 0.193695 0.263550
0.131165 0.284637 0.465912
0.529236 0.218567 0.556915
0.711395 0.184753 0.610077
0.000000 0.245667 0.303741
0.000000 0.299835 0.397461
0.205719 0.381470 0.602325
0.608521 0.342010 0.648834
0.797577 0.329010 0.689117
0.000031 0.441803 0.537140
0.061493 0.518799 0.659546
0.374146 0.584259 0.707062
0.709106 0.587860 0.749115
0.898804 0.578247 0.769684
0.000031 0.727020 0.712463
0.180115 0.749756 0.745178
0.488770 0.777740 0.780518
0.775909 0.799225 0.809967
0.938995 0.807556 0.792297
0.129181 0.889038 0.717804
0.311279 0.912994 0.753906
0.549835 0.938416 0.788055
0.801208 0.951599 0.816559
0.935791 0.936768 0.820496
0.000031 0.203857 0.261841
0.000031 0.248901 0.335327
0.040466 0.341217 0.533997
0.468597 0.324677 0.777771
0.730896 0.240784 0.749390
0.000000 0.297272 0.384125
0.000000 0.352783 0.485718
0.136810 0.443329 0.680298
0.581665 0.403778 0.858582
0.797455 0.361420 0.815857
0.000031 0.473694 0.639069
0.039856 0.563660 0.753845
0.265045 0.636017 0.849670
0.693939 0.611847 0.944061
0.865265 0.619446 0.877563
0.000000 0.734863 0.852448
0.130341 0.762360 0.885071
0.420166 0.799347 0.901611
0.743378 0.825439 0.917084
0.913483 0.826630 0.918976
0.141113 0.883545 0.856903
0.325775 0.901703 0.880188
0.562836 0.920593 0.903473
0.796814 0.941132 0.927704
0.951233 0.960602 0.950958
