滤镜资源/Lutify.me Free 3D LUTs Package/3D LUTs/Monitoring LUTs/Rec709/Hilutite - Rec709.cube
# Website: https://lutify.me
# Contact: help@lutify.me
# Copyright: (c) Copyright Lutify.me 2016, G.T. Colord LTD
# Created by: Lutify.me
LUT_3D_SIZE 9
0.000000 0.000000 0.008636
0.034363 0.000000 0.000275
0.170349 0.000000 0.000000
0.301941 0.000000 0.000000
0.425049 0.000000 0.000000
0.542358 0.000000 0.000000
0.643402 0.000000 0.000000
0.719696 0.000000 0.000000
0.782135 0.000000 0.000000
0.000000 0.051483 0.048859
0.061737 0.039551 0.007599
0.151489 0.046478 0.000000
0.246368 0.055206 0.000000
0.345306 0.058899 0.000031
0.440796 0.058746 0.000000
0.539307 0.058197 0.000000
0.627747 0.062286 0.000061
0.703613 0.070099 0.000031
0.028992 0.161224 0.121490
0.121033 0.153778 0.116089
0.229919 0.139069 0.000031
0.320068 0.150330 0.000000
0.417023 0.165558 0.000000
0.517090 0.181427 0.000031
0.609467 0.196869 0.000000
0.687073 0.211700 0.000031
0.758484 0.225739 0.000000
0.105560 0.277283 0.181030
0.188721 0.272125 0.183716
0.270874 0.264709 0.161499
0.382874 0.249359 0.007782
0.493958 0.262573 0.000031
0.596130 0.280182 0.000031
0.681030 0.297485 0.000031
0.754425 0.315002 0.000061
0.817566 0.331360 0.000031
0.157654 0.413757 0.213165
0.229828 0.415405 0.216949
0.306732 0.387115 0.210571
0.397400 0.391052 0.169128
0.504456 0.374176 0.031342
0.626617 0.388916 0.005280
0.712921 0.406464 0.000031
0.787720 0.426971 0.000031
0.856262 0.445099 0.000031
0.176086 0.573090 0.211853
0.245728 0.579895 0.212830
0.329437 0.553314 0.209625
0.410095 0.527222 0.190063
0.508789 0.530518 0.133057
0.610626 0.525269 0.060089
0.707001 0.527161 0.030579
0.797791 0.542572 0.017120
0.864044 0.566956 0.040192
0.179749 0.713348 0.186005
0.251556 0.718475 0.182922
0.331665 0.694305 0.179077
0.419617 0.667542 0.165070
0.516785 0.648102 0.135315
0.614105 0.648987 0.086700
0.703979 0.648468 0.054443
0.790375 0.651520 0.036987
0.863190 0.665924 0.083282
0.182648 0.823944 0.151123
0.255493 0.825195 0.147430
0.338013 0.804382 0.142731
0.433777 0.781433 0.133850
0.531372 0.756104 0.120880
0.624451 0.749847 0.107086
0.717224 0.753937 0.091736
0.801086 0.759338 0.106171
0.868683 0.765961 0.131714
0.201904 0.903687 0.141815
0.277771 0.903015 0.139221
0.364563 0.884613 0.137970
0.465759 0.864899 0.135712
0.557434 0.845825 0.132538
0.640411 0.826355 0.132721
0.732727 0.829529 0.130127
0.812256 0.834259 0.130188
0.876282 0.839874 0.182678
0.000000 0.000000 0.023132
0.015839 0.000458 0.072998
0.202179 0.000000 0.050842
0.340210 0.000000 0.031555
0.472687 0.000000 0.026672
0.589722 0.000000 0.024475
0.692841 0.000031 0.022522
0.770386 0.000031 0.021088
0.836243 0.000000 0.019409
0.000000 0.052155 0.081848
0.003052 0.072601 0.110840
0.163269 0.075745 0.092926
0.299622 0.066223 0.062531
0.445099 0.044769 0.029236
0.579681 0.026062 0.007202
0.675171 0.017792 0.001007
0.755188 0.018768 0.000153
0.826019 0.023804 0.000000
0.000000 0.163788 0.148499
0.095612 0.178314 0.156006
0.222076 0.169098 0.117706
0.356171 0.154449 0.030640
0.451965 0.159363 0.000031
0.542175 0.174713 0.000000
0.632416 0.188995 0.000031
0.714874 0.201263 0.000031
0.790131 0.213348 0.000000
0.075745 0.283325 0.215454
0.160004 0.296173 0.210876
0.264252 0.279724 0.200287
0.389069 0.275604 0.120880
0.519989 0.266693 0.007629
0.616150 0.280884 0.000031
0.697113 0.297363 0.000031
0.770233 0.314026 0.000000
0.852966 0.328003 0.000031
0.148621 0.424103 0.258179
0.203003 0.437042 0.242096
0.303680 0.416229 0.242188
0.397705 0.409332 0.213898
0.519806 0.407471 0.156677
0.638916 0.410400 0.075409
0.731415 0.420532 0.035217
0.811005 0.437469 0.023163
0.877014 0.462280 0.053955
0.169861 0.583954 0.261261
0.224182 0.594666 0.246063
0.320984 0.585571 0.245850
0.413055 0.553955 0.234222
0.516998 0.552704 0.197723
0.625702 0.557220 0.177551
0.725800 0.561157 0.154755
0.810364 0.576141 0.131439
0.875427 0.595123 0.137054
0.172272 0.721954 0.244476
0.237305 0.729065 0.233673
0.324890 0.724579 0.231476
0.425537 0.697998 0.225342
0.526154 0.670197 0.211761
0.628784 0.675232 0.192322
0.723541 0.680756 0.195740
0.808807 0.685944 0.192017
0.878967 0.695953 0.197510
0.174500 0.830200 0.226837
0.246735 0.833771 0.222260
0.336670 0.831573 0.220062
0.443176 0.809937 0.216614
0.549805 0.786957 0.211823
0.638916 0.771271 0.208344
0.732300 0.776184 0.203674
0.814728 0.782043 0.219910
0.880798 0.786194 0.226318
0.195953 0.908447 0.231079
0.273041 0.911224 0.229950
0.364594 0.910675 0.228119
0.475037 0.891357 0.228088
0.574493 0.872711 0.228790
0.661407 0.853973 0.230408
0.746094 0.847656 0.231354
0.823944 0.852081 0.232422
0.886658 0.856506 0.262878
0.000000 0.010834 0.056824
0.000000 0.044434 0.104065
0.125549 0.049652 0.165710
0.300323 0.028809 0.166290
0.477661 0.007812 0.145020
0.584351 0.000153 0.133636
0.696045 0.000000 0.124054
0.775909 0.000000 0.119141
0.841339 0.000000 0.116455
0.000000 0.069183 0.110229
0.000000 0.094177 0.143921
0.112000 0.116364 0.187286
0.286438 0.110229 0.177216
0.461121 0.098633 0.159332
0.620117 0.084015 0.144104
0.753357 0.067841 0.130768
0.854950 0.054932 0.120544
0.934937 0.045074 0.113281
0.000000 0.163574 0.182556
0.000031 0.190674 0.213287
0.131317 0.212036 0.249451
0.311920 0.215393 0.227600
0.465759 0.216461 0.209961
0.617035 0.211761 0.188538
0.741058 0.210785 0.173218
0.831360 0.212311 0.163025
0.906555 0.216461 0.156982
0.000000 0.286102 0.249573
0.073242 0.304230 0.270660
0.231079 0.323059 0.277161
0.361755 0.317169 0.255493
0.516968 0.321259 0.222382
0.648132 0.326904 0.193176
0.753601 0.333832 0.172333
0.840637 0.341858 0.158508
0.904022 0.362305 0.176056
0.071198 0.431854 0.304718
0.162720 0.449127 0.316284
0.269653 0.466278 0.309845
0.392487 0.440338 0.293732
0.520905 0.449127 0.284149
0.649658 0.461578 0.244843
0.748047 0.474304 0.221863
0.830322 0.488098 0.205109
0.887665 0.513153 0.227600
0.128113 0.594604 0.326630
0.206970 0.607330 0.334045
0.293121 0.619995 0.316650
0.414124 0.601929 0.314026
0.526642 0.583588 0.297729
0.638733 0.592346 0.297546
0.741638 0.600189 0.281433
0.824310 0.615601 0.261169
0.886993 0.633972 0.269745
0.153900 0.731812 0.332367
0.224792 0.738586 0.326141
0.307343 0.745605 0.316772
0.426178 0.737762 0.315155
0.545105 0.709778 0.310699
0.642975 0.702393 0.302124
0.738190 0.709351 0.311859
0.822388 0.714539 0.311737
0.889069 0.727753 0.316010
0.162994 0.837250 0.327454
0.237610 0.840607 0.324615
0.326080 0.845306 0.320557
0.445679 0.843323 0.319611
0.566101 0.821106 0.319397
0.656494 0.800079 0.318817
0.746826 0.799164 0.318542
0.827423 0.804840 0.335327
0.892334 0.808746 0.343689
0.188934 0.914215 0.338013
0.267242 0.916718 0.337494
0.359680 0.920227 0.336731
0.478119 0.920532 0.336151
0.587860 0.901489 0.338776
0.681061 0.882904 0.340424
0.759094 0.866547 0.342560
0.835358 0.870636 0.343323
0.897186 0.874268 0.363861
0.000000 0.045746 0.093842
0.000000 0.068512 0.123199
0.000000 0.123505 0.206665
0.224487 0.102570 0.255219
0.362671 0.091766 0.272003
0.534454 0.072845 0.269958
0.686523 0.058228 0.261017
0.802643 0.038605 0.252563
0.887604 0.014069 0.247589
0.000000 0.095428 0.140411
0.000000 0.120514 0.172729
0.000000 0.156860 0.227020
0.218079 0.162476 0.274109
0.376678 0.159271 0.287567
0.568298 0.138336 0.280792
0.731842 0.116486 0.268829
0.842926 0.100952 0.258911
0.927856 0.087494 0.251617
0.000000 0.181152 0.215393
0.000000 0.202820 0.241272
0.065460 0.232605 0.289124
0.240814 0.253937 0.363647
0.445251 0.243317 0.324371
0.625946 0.236237 0.302277
0.767822 0.230957 0.291260
0.866852 0.226807 0.282898
0.949219 0.223938 0.275452
0.000000 0.281189 0.292847
0.000031 0.315155 0.327057
0.123383 0.338287 0.366272
0.262787 0.362732 0.411255
0.479797 0.365479 0.366730
0.629181 0.371490 0.364044
0.752045 0.375397 0.348511
0.847137 0.378723 0.334290
0.917755 0.386658 0.328369
0.000000 0.430542 0.355927
0.046600 0.448853 0.375580
0.201538 0.474213 0.407257
0.361755 0.499512 0.426605
0.510590 0.489410 0.409180
0.648254 0.504700 0.386597
0.753204 0.517029 0.366577
0.839172 0.528961 0.348206
0.903320 0.543518 0.347839
0.031555 0.594574 0.393616
0.135895 0.611298 0.412933
0.260864 0.630371 0.435059
0.391022 0.644562 0.437500
0.535889 0.624084 0.428741
0.648468 0.626892 0.434906
0.751038 0.637817 0.419983
0.834930 0.651276 0.398071
0.897430 0.665100 0.394958
0.090576 0.733826 0.411560
0.188660 0.744537 0.428864
0.294556 0.754547 0.448639
0.411713 0.763062 0.440887
0.558167 0.753296 0.439362
0.656738 0.729980 0.437286
0.751770 0.736664 0.448486
0.836060 0.742340 0.449921
0.899811 0.754211 0.437469
0.125702 0.840973 0.423431
0.222382 0.846252 0.444611
0.318420 0.851715 0.450714
0.437897 0.857971 0.447754
0.573120 0.854462 0.447418
0.676147 0.833191 0.450073
0.760468 0.820496 0.451355
0.839203 0.825684 0.467316
0.903046 0.828644 0.473206
0.171448 0.918335 0.446960
0.262421 0.921783 0.463318
0.356476 0.925110 0.463928
0.474670 0.929504 0.463745
0.591553 0.929382 0.463013
0.695129 0.910278 0.465424
0.775940 0.891449 0.469391
0.846313 0.887787 0.471405
0.907227 0.891266 0.491150
0.000000 0.080017 0.129242
0.000000 0.100281 0.153381
0.000000 0.145691 0.217255
0.109802 0.191498 0.309204
0.314972 0.154633 0.346375
0.435425 0.145233 0.373352
0.588013 0.124817 0.387634
0.719391 0.105194 0.392059
0.817169 0.091309 0.392761
0.000000 0.124176 0.171143
0.000000 0.146362 0.198853
0.000000 0.180847 0.250946
0.087769 0.225250 0.336609
0.329407 0.201263 0.375458
0.459259 0.199036 0.397766
0.628418 0.178894 0.411346
0.765442 0.161011 0.413635
0.869110 0.145050 0.412323
0.000031 0.201599 0.244049
0.000031 0.219666 0.267395
0.025269 0.253601 0.323792
0.134033 0.293304 0.401306
0.359955 0.289551 0.432007
0.516632 0.288300 0.447021
0.703156 0.269073 0.451660
0.831757 0.254486 0.444763
0.937073 0.239502 0.433655
0.000000 0.297089 0.335419
0.000031 0.315125 0.358521
0.051788 0.356903 0.426086
0.222351 0.385651 0.464600
0.399445 0.404083 0.555054
0.598083 0.395081 0.510223
0.768555 0.382507 0.487701
0.874939 0.380371 0.466461
0.955841 0.378723 0.455231
0.000000 0.412323 0.418854
0.000031 0.461151 0.466614
0.129822 0.486053 0.503967
0.287842 0.508545 0.540771
0.437164 0.534088 0.578217
0.640961 0.539215 0.533447
0.764282 0.543549 0.530243
0.856415 0.550385 0.517914
0.927338 0.556122 0.506134
0.000000 0.585571 0.476501
0.048523 0.603912 0.497467
0.194824 0.626099 0.524384
0.343964 0.647949 0.556366
0.526947 0.666779 0.586212
0.656952 0.656616 0.571625
0.760559 0.668579 0.559082
0.844238 0.681519 0.546844
0.910767 0.689972 0.528992
0.013794 0.727844 0.500336
0.129730 0.740692 0.522766
0.246216 0.753967 0.547577
0.388336 0.768921 0.574432
0.552948 0.779633 0.584045
0.674103 0.767181 0.583740
0.764801 0.761230 0.593018
0.847046 0.769165 0.592285
0.910553 0.778656 0.574371
0.073059 0.837341 0.522186
0.177338 0.845917 0.542969
0.288452 0.854706 0.567017
0.431885 0.863831 0.595245
0.568909 0.869171 0.595825
0.688049 0.865417 0.596924
0.775391 0.844482 0.598999
0.851074 0.845734 0.607391
0.913696 0.848572 0.615631
0.132965 0.916962 0.545441
0.232086 0.922577 0.567566
0.341095 0.929260 0.591370
0.469116 0.934418 0.604767
0.587372 0.937683 0.605072
0.702026 0.938049 0.606415
0.791840 0.918915 0.609100
0.857361 0.905548 0.612701
0.917206 0.908386 0.621307
0.000000 0.112274 0.162140
0.000031 0.131775 0.184937
0.000031 0.170258 0.240814
0.000000 0.220093 0.322876
0.230408 0.231567 0.494598
0.419769 0.193024 0.450012
0.530121 0.177917 0.487213
0.647308 0.163727 0.501984
0.751434 0.141541 0.516174
0.000031 0.153229 0.201904
0.000031 0.173584 0.227997
0.000000 0.206055 0.280487
0.021210 0.249573 0.355652
0.236938 0.266632 0.542389
0.440796 0.234558 0.484100
0.560486 0.228455 0.516388
0.685486 0.212189 0.534698
0.799500 0.192963 0.549988
0.000031 0.222748 0.272003
0.000031 0.241547 0.298340
0.001892 0.275665 0.358887
0.089661 0.315063 0.432129
0.275940 0.338684 0.583679
0.480347 0.320312 0.539612
0.610352 0.322235 0.565826
0.743652 0.306702 0.584290
0.858551 0.284698 0.593903
0.000031 0.314606 0.372742
0.000000 0.331848 0.399323
0.022552 0.375610 0.480896
0.188080 0.409729 0.519775
0.322815 0.447693 0.620178
0.542023 0.433411 0.609344
0.676636 0.431885 0.625244
0.809418 0.418304 0.632294
0.914642 0.401733 0.629272
0.000000 0.426361 0.481232
0.000000 0.457001 0.522430
0.080475 0.501862 0.591431
0.242157 0.526794 0.623047
0.412781 0.558350 0.640289
0.600616 0.563263 0.689819
0.740570 0.559784 0.672699
0.870697 0.548096 0.658203
0.955292 0.547791 0.636230
0.000000 0.558228 0.554138
0.000000 0.613800 0.611694
0.153961 0.632111 0.637299
0.297455 0.650391 0.662323
0.479950 0.668945 0.687225
0.629242 0.685577 0.712372
0.772919 0.690186 0.690491
0.864258 0.695679 0.678680
0.933289 0.700470 0.668457
0.000000 0.720123 0.601807
0.079437 0.731140 0.618164
0.202942 0.744354 0.636505
0.345001 0.763153 0.662201
0.526031 0.780396 0.690979
0.674744 0.790009 0.711700
0.776215 0.781189 0.708191
0.857697 0.790009 0.702972
0.921265 0.797516 0.688965
0.026947 0.829620 0.611115
0.140259 0.839355 0.631989
0.254883 0.849945 0.655121
0.394135 0.862061 0.680420
0.555206 0.871826 0.705170
0.686493 0.877350 0.715332
0.789948 0.870422 0.716949
0.861420 0.862000 0.720093
0.924652 0.865784 0.724731
0.122345 0.905151 0.639130
0.209015 0.916412 0.656830
0.308563 0.927124 0.675995
0.441620 0.935242 0.698669
0.583344 0.941193 0.720673
0.700073 0.945007 0.722809
0.800690 0.942719 0.724091
0.868835 0.924225 0.727661
0.926544 0.923187 0.729523
0.000000 0.141846 0.192749
0.000000 0.160492 0.214966
0.000031 0.193695 0.263550
0.000031 0.239349 0.340607
0.131165 0.284637 0.465912
0.374420 0.260132 0.535187
0.529236 0.218567 0.556915
0.633911 0.197083 0.595093
0.711395 0.184753 0.610077
0.000031 0.182281 0.233582
0.000000 0.201630 0.259857
0.000000 0.232635 0.313538
0.000000 0.272919 0.384399
0.157043 0.317627 0.519409
0.399841 0.290375 0.605469
0.562592 0.259888 0.596344
0.663757 0.248962 0.628723
0.749969 0.237305 0.643066
0.000000 0.245667 0.303741
0.000000 0.265808 0.334381
0.000000 0.299835 0.397461
0.067230 0.338684 0.469666
0.205719 0.381470 0.602325
0.453125 0.352356 0.703033
0.608521 0.342010 0.648834
0.706940 0.341034 0.675140
0.797577 0.329010 0.689117
0.000000 0.333710 0.412689
0.000031 0.353973 0.448608
0.011200 0.398102 0.530640
0.167694 0.435608 0.571136
0.274353 0.479370 0.675598
0.503693 0.457520 0.787598
0.657776 0.460266 0.703003
0.758087 0.457367 0.726074
0.850220 0.445923 0.736115
0.000031 0.441803 0.537140
0.000031 0.471741 0.585510
0.061493 0.518799 0.659546
0.211578 0.549347 0.682495
0.374146 0.584259 0.707062
0.549927 0.591766 0.802338
0.709106 0.587860 0.749115
0.803131 0.588470 0.763916
0.898804 0.578247 0.769684
0.000031 0.565704 0.627777
0.000031 0.626801 0.707245
0.121948 0.642975 0.731537
0.272736 0.660492 0.753448
0.437225 0.684845 0.765472
0.608521 0.705811 0.773041
0.752380 0.705872 0.786316
0.850800 0.704529 0.791473
0.945648 0.696960 0.781525
0.000031 0.727020 0.712463
0.046570 0.737701 0.728760
0.180115 0.749756 0.745178
0.317505 0.763519 0.763184
0.488770 0.777740 0.780518
0.645538 0.788239 0.794495
0.775909 0.799225 0.809967
0.871765 0.803986 0.800110
0.938995 0.807556 0.792297
0.000000 0.823242 0.710083
0.110474 0.831512 0.723602
0.224182 0.840759 0.738098
0.359619 0.854401 0.757050
0.515747 0.866791 0.776794
0.667419 0.877167 0.796204
0.792786 0.884888 0.812469
0.871429 0.876984 0.814697
0.933319 0.882050 0.811707
0.129181 0.889038 0.717804
0.216248 0.900513 0.734955
0.311279 0.912994 0.753906
0.425140 0.925873 0.772217
0.549835 0.938416 0.788055
0.689545 0.946747 0.806641
0.801208 0.951599 0.816559
0.879944 0.945526 0.818176
0.935791 0.936768 0.820496
0.000000 0.173096 0.226074
0.000000 0.190369 0.248413
0.000000 0.220123 0.295624
0.000000 0.262726 0.371460
0.059052 0.314026 0.499146
0.265442 0.319550 0.687653
0.490631 0.287567 0.606720
0.638702 0.231812 0.660034
0.721252 0.207275 0.689117
0.000000 0.210938 0.267639
0.000000 0.229889 0.295563
0.000000 0.259796 0.351898
0.000031 0.298645 0.422546
0.092651 0.350250 0.559082
0.292084 0.349731 0.741760
0.534332 0.316254 0.654358
0.667664 0.278992 0.693146
0.755615 0.262085 0.722229
0.000031 0.270905 0.340759
0.000031 0.290375 0.374603
0.000031 0.325256 0.439545
0.057343 0.363708 0.511169
0.156860 0.414673 0.638824
0.352264 0.405212 0.809753
0.599792 0.374542 0.721252
0.708435 0.359650 0.736694
0.796204 0.343262 0.763458
0.000031 0.353882 0.455536
0.000031 0.378082 0.503113
0.006683 0.423523 0.577332
0.154449 0.461761 0.619629
0.245026 0.507721 0.718597
0.436615 0.499023 0.852844
0.664856 0.473572 0.797211
0.754608 0.478577 0.781128
0.836914 0.465515 0.803650
0.000000 0.457214 0.588715
0.000031 0.496033 0.658813
0.048523 0.540894 0.708008
0.196442 0.572723 0.733276
0.349762 0.607513 0.762024
0.526428 0.615082 0.847748
0.711761 0.596039 0.853394
0.796722 0.605774 0.817169
0.867676 0.603424 0.833221
0.000031 0.576172 0.689636
0.000031 0.635101 0.777893
0.106873 0.655090 0.793365
0.246277 0.678070 0.805267
0.400055 0.705902 0.823151
0.582092 0.722839 0.837402
0.742554 0.715454 0.883850
0.830688 0.723175 0.843994
0.895660 0.725647 0.854187
0.000000 0.728882 0.786682
0.017578 0.746735 0.809784
0.159515 0.757202 0.823853
0.300903 0.769714 0.839539
0.458221 0.784515 0.852020
0.615112 0.798523 0.856598
0.761047 0.812592 0.863281
0.858063 0.813751 0.865814
0.932800 0.811340 0.872101
0.000000 0.826141 0.798096
0.103455 0.833771 0.809692
0.220612 0.842743 0.821930
0.351837 0.852905 0.835052
0.498993 0.862549 0.847382
0.646515 0.871979 0.858978
0.776520 0.881409 0.870605
0.878754 0.890717 0.884003
0.943726 0.893188 0.876953
0.135284 0.882202 0.790100
0.221954 0.890991 0.802460
0.318756 0.900696 0.815582
0.431793 0.911041 0.828918
0.557739 0.924347 0.844147
0.682190 0.937439 0.860535
0.791595 0.950897 0.875793
0.882355 0.956543 0.887085
0.944092 0.947937 0.888702
0.000031 0.203857 0.261841
0.000000 0.221161 0.286469
0.000031 0.248901 0.335327
0.000031 0.290009 0.412750
0.040466 0.341217 0.533997
0.231018 0.364075 0.676239
0.468597 0.324677 0.777771
0.612518 0.299988 0.704315
0.730896 0.240784 0.749390
0.000000 0.239380 0.304688
0.000031 0.258881 0.336823
0.000031 0.288025 0.394928
0.000031 0.326050 0.466309
0.075073 0.378632 0.595551
0.261200 0.394836 0.737976
0.516296 0.350769 0.811401
0.647400 0.333038 0.740143
0.760406 0.290710 0.778137
0.000000 0.297272 0.384125
0.000000 0.316681 0.422241
0.000000 0.352783 0.485718
0.053040 0.391632 0.557892
0.136810 0.443329 0.680298
0.316895 0.448395 0.823578
0.581665 0.403778 0.858582
0.696747 0.396088 0.786560
0.797455 0.361420 0.815857
0.000031 0.379486 0.511810
0.000031 0.407013 0.564545
0.006683 0.450958 0.625427
0.141632 0.489899 0.671326
0.215027 0.536804 0.772797
0.409790 0.532196 0.886353
0.651337 0.492828 0.915253
0.758606 0.492340 0.840576
0.835876 0.486237 0.851105
0.000031 0.473694 0.639069
0.000031 0.527649 0.718018
0.039856 0.563660 0.753845
0.153473 0.597382 0.791229
0.265045 0.636017 0.849670
0.512329 0.634491 0.894257
0.693939 0.611847 0.944061
0.803772 0.613159 0.877197
0.865265 0.619446 0.877563
0.000031 0.593994 0.756775
0.000000 0.652496 0.828979
0.073212 0.673279 0.841522
0.182281 0.699341 0.865265
0.358154 0.727051 0.880432
0.561676 0.738800 0.893097
0.716370 0.733795 0.947205
0.837341 0.727661 0.916840
0.891327 0.737549 0.900299
0.000000 0.734863 0.852448
0.022888 0.749878 0.873688
0.130341 0.762360 0.885071
0.261017 0.781769 0.895477
0.420166 0.799347 0.901611
0.584259 0.814850 0.906952
0.743378 0.825439 0.917084
0.853973 0.819580 0.952179
0.913483 0.826630 0.918976
0.000000 0.828613 0.866028
0.100067 0.837067 0.877289
0.209625 0.846222 0.889008
0.336456 0.857086 0.902252
0.478973 0.866821 0.914581
0.623047 0.876984 0.926300
0.754211 0.888458 0.930237
0.859070 0.900330 0.934753
0.935974 0.900604 0.937622
0.141113 0.883545 0.856903
0.228058 0.892151 0.868164
0.325775 0.901703 0.880188
0.436798 0.910950 0.891632
0.562836 0.920593 0.903473
0.687561 0.930725 0.915588
0.796814 0.941132 0.927704
0.880219 0.950439 0.938904
0.951233 0.960602 0.950958
