滤镜资源/Lutify.me Free 3D LUTs Package/3D LUTs/Monitoring LUTs/Rec709/Howlite - Rec709.cube
# Website: https://lutify.me
# Contact: help@lutify.me
# Copyright: (c) Copyright Lutify.me 2016, G.T. Colord LTD
# Created by: Lutify.me
LUT_3D_SIZE 17
0.000000 0.000000 0.000000
0.059265 0.001221 0.001221
0.110291 0.002289 0.002289
0.152466 0.003174 0.003174
0.201050 0.004211 0.004211
0.261322 0.005463 0.005463
0.332123 0.006927 0.006927
0.409149 0.008545 0.008545
0.486084 0.010132 0.010132
0.558228 0.011688 0.011688
0.623596 0.013031 0.013031
0.683380 0.014282 0.014282
0.739746 0.015442 0.015442
0.794464 0.016602 0.016602
0.848083 0.017731 0.017731
0.900970 0.018829 0.018829
0.953522 0.019928 0.019928
0.000000 0.044006 0.000000
0.062012 0.044006 0.000336
0.112885 0.044861 0.003082
0.154541 0.045868 0.004608
0.202759 0.046997 0.005920
0.263031 0.048279 0.007172
0.333893 0.049744 0.008698
0.410889 0.051361 0.010284
0.487793 0.052979 0.011841
0.559906 0.054474 0.013367
0.625305 0.055878 0.014740
0.685150 0.057068 0.016052
0.741516 0.058228 0.017212
0.796234 0.059387 0.018372
0.849762 0.060547 0.019409
0.902649 0.061646 0.020508
0.955292 0.062714 0.021698
0.000000 0.089630 0.000000
0.062164 0.089630 0.000000
0.115692 0.089630 0.000000
0.158539 0.089905 0.002380
0.206818 0.090790 0.005035
0.266449 0.092133 0.007385
0.335632 0.094116 0.010437
0.412659 0.095764 0.012054
0.489624 0.097321 0.013672
0.561737 0.098846 0.015198
0.627136 0.100189 0.016571
0.686920 0.101471 0.017822
0.743286 0.102631 0.018982
0.797943 0.103821 0.020081
0.851562 0.104919 0.021210
0.904419 0.106049 0.022278
0.957062 0.107117 0.023468
0.000000 0.138947 0.000000
0.062195 0.138916 0.000031
0.115692 0.138977 0.000031
0.159912 0.138947 0.000000
0.210083 0.139008 0.001709
0.270599 0.139740 0.005127
0.340729 0.141174 0.008728
0.417206 0.142883 0.011566
0.492645 0.144928 0.014709
0.563660 0.146820 0.017120
0.629059 0.148193 0.018494
0.688843 0.149445 0.019745
0.745178 0.150665 0.020874
0.799927 0.151764 0.022064
0.853485 0.152863 0.023132
0.906464 0.153961 0.024323
0.958954 0.155060 0.025360
0.000000 0.196930 0.000000
0.062164 0.196930 0.000000
0.115692 0.196930 0.000000
0.159912 0.196930 0.000000
0.210815 0.196930 0.000031
0.273773 0.196930 0.000793
0.345337 0.197510 0.005188
0.421906 0.198822 0.009552
0.498535 0.200317 0.012634
0.569336 0.202118 0.015930
0.634003 0.203674 0.018341
0.692657 0.205292 0.020752
0.747467 0.207062 0.023163
0.802185 0.208160 0.024323
0.855774 0.209290 0.025421
0.908630 0.210419 0.026489
0.961182 0.211517 0.027588
0.000000 0.266266 0.000000
0.062134 0.266266 0.000000
0.115723 0.266235 0.000031
0.159912 0.266266 0.000000
0.210846 0.266296 0.000031
0.274048 0.266296 0.000000
0.348328 0.266266 0.000000
0.426849 0.266602 0.004456
0.503571 0.267609 0.009705
0.575562 0.268860 0.013000
0.639862 0.270386 0.016541
0.699158 0.271637 0.018860
0.754700 0.273041 0.021301
0.808197 0.274506 0.023834
0.862152 0.275482 0.024872
0.913391 0.277130 0.027557
0.966003 0.278229 0.028503
0.000000 0.343719 0.000000
0.062195 0.343719 0.000000
0.115723 0.343719 0.000000
0.159943 0.343689 0.000031
0.210876 0.343719 0.000000
0.274078 0.343689 0.000031
0.348328 0.343750 0.000000
0.429108 0.343719 0.000000
0.507965 0.343872 0.004150
0.580566 0.344543 0.008881
0.645996 0.345459 0.012451
0.706238 0.346313 0.014740
0.761169 0.347687 0.018677
0.816833 0.348450 0.019440
0.869720 0.349609 0.022003
0.921600 0.350952 0.024689
0.972778 0.352417 0.027466
0.000000 0.424347 0.000000
0.062164 0.424347 0.000000
0.115723 0.424347 0.000000
0.159973 0.424316 0.000031
0.210815 0.424347 0.000000
0.274017 0.424347 0.000000
0.348297 0.424347 0.000000
0.429047 0.424347 0.000031
0.509857 0.424347 0.000061
0.584778 0.424347 0.001648
0.650726 0.424713 0.006958
0.711823 0.425140 0.009125
0.767853 0.425934 0.013245
0.822815 0.426727 0.015656
0.876343 0.427582 0.018219
0.928772 0.428680 0.020782
0.980682 0.429749 0.023651
0.000000 0.503693 0.000000
0.062256 0.503632 0.000031
0.115723 0.503693 0.000000
0.159851 0.503693 0.000000
0.210907 0.503662 0.000031
0.274109 0.503662 0.000031
0.348389 0.503662 0.000031
0.429077 0.503723 0.000031
0.509796 0.503693 0.000000
0.585449 0.503693 0.000031
0.653961 0.503723 0.000031
0.715088 0.503815 0.003967
0.772034 0.504089 0.008331
0.827637 0.504547 0.010712
0.881744 0.505127 0.013184
0.933563 0.506073 0.018219
0.987427 0.506592 0.018677
0.000000 0.578735 0.000000
0.062164 0.578735 0.000000
0.115723 0.578735 0.000000
0.159973 0.578705 0.000031
0.210815 0.578735 0.000000
0.274109 0.578705 0.000031
0.348297 0.578735 0.000000
0.429108 0.578735 0.000000
0.509796 0.578735 0.000000
0.585449 0.578735 0.000031
0.653961 0.578766 0.000031
0.716736 0.578674 0.000031
0.775879 0.578705 0.000061
0.831329 0.578827 0.004639
0.886139 0.579071 0.007172
0.938599 0.579651 0.012177
0.991516 0.580231 0.014954
0.000000 0.647858 0.000000
0.062164 0.647858 0.000000
0.115662 0.647888 0.000031
0.159912 0.647858 0.000000
0.210846 0.647858 0.000000
0.274109 0.647858 0.000000
0.348328 0.647888 0.000031
0.429108 0.647858 0.000000
0.509766 0.647858 0.000000
0.585388 0.647858 0.000000
0.653931 0.647858 0.000031
0.716644 0.647888 0.000031
0.775879 0.647827 0.000061
0.833160 0.647858 0.000031
0.888428 0.647919 0.002502
0.942749 0.647949 0.005249
0.994995 0.648438 0.010620
0.000000 0.711365 0.000000
0.062164 0.711365 0.000000
0.115692 0.711395 0.000031
0.159973 0.711304 0.000031
0.210846 0.711365 0.000000
0.274048 0.711365 0.000000
0.348389 0.711365 0.000000
0.429138 0.711365 0.000000
0.509766 0.711395 0.000031
0.585449 0.711365 0.000000
0.654022 0.711334 0.000031
0.716766 0.711334 0.000061
0.775787 0.711395 0.000031
0.833221 0.711365 0.000031
0.889404 0.711365 0.000000
0.944855 0.711395 0.000031
0.998871 0.711426 0.002777
0.000000 0.771393 0.000000
0.062134 0.771393 0.000000
0.115631 0.771393 0.000000
0.159882 0.771393 0.000000
0.210968 0.771362 0.000031
0.274017 0.771393 0.000000
0.348419 0.771362 0.000031
0.429199 0.771362 0.000031
0.509796 0.771393 0.000000
0.585510 0.771362 0.000031
0.654053 0.771393 0.000000
0.716736 0.771362 0.000031
0.775757 0.771393 0.000031
0.833191 0.771362 0.000000
0.889343 0.771423 0.000031
0.944855 0.771393 0.000031
0.999908 0.771423 0.000031
0.000000 0.829712 0.000000
0.062195 0.829712 0.000000
0.115662 0.829712 0.000000
0.159851 0.829742 0.000031
0.210907 0.829651 0.000031
0.274078 0.829712 0.000000
0.348419 0.829681 0.000031
0.429077 0.829742 0.000031
0.509857 0.829681 0.000031
0.585419 0.829712 0.000000
0.654083 0.829681 0.000031
0.716675 0.829712 0.000000
0.775818 0.829712 0.000000
0.833160 0.829712 0.000031
0.889404 0.829681 0.000000
0.944855 0.829742 0.000031
0.999908 0.829773 0.000031
0.000000 0.887024 0.000000
0.062164 0.887024 0.000000
0.115662 0.887054 0.000031
0.159851 0.887054 0.000031
0.210968 0.886963 0.000031
0.273987 0.887054 0.000031
0.348267 0.887054 0.000031
0.429047 0.887054 0.000031
0.509766 0.887024 0.000000
0.585358 0.887024 0.000000
0.653992 0.887024 0.000000
0.716797 0.886993 0.000031
0.775757 0.887054 0.000031
0.833130 0.887054 0.000031
0.889404 0.887024 0.000000
0.944916 0.887024 0.000031
1.000000 0.886993 0.000214
0.000000 0.943665 0.000000
0.062195 0.943665 0.000000
0.115662 0.943665 0.000000
0.159912 0.943695 0.000031
0.210815 0.943665 0.000000
0.274200 0.943634 0.000031
0.348358 0.943665 0.000000
0.429199 0.943634 0.000031
0.509857 0.943634 0.000031
0.585419 0.943665 0.000000
0.654083 0.943665 0.000000
0.716736 0.943665 0.000000
0.775757 0.943695 0.000031
0.833099 0.943695 0.000031
0.889343 0.943726 0.000061
0.944855 0.943695 0.000031
1.000000 0.943604 0.000244
0.000000 1.000000 0.000000
0.062286 0.999939 0.000031
0.115753 0.999939 0.000031
0.159912 1.000000 0.000000
0.210968 0.999939 0.000031
0.274200 0.999969 0.000031
0.348389 0.999969 0.000031
0.429199 0.999969 0.000031
0.509766 1.000000 0.000000
0.585449 1.000000 0.000000
0.654053 1.000000 0.000000
0.716797 0.999969 0.000031
0.775879 0.999969 0.000031
0.833252 0.999969 0.000031
0.889404 1.000000 0.000000
0.944824 1.000000 0.000000
1.000000 1.000000 0.000000
0.000000 0.000000 0.089569
0.057587 0.003906 0.081238
0.104584 0.006958 0.082550
0.147156 0.007233 0.085602
0.197388 0.007141 0.087952
0.259125 0.007568 0.089813
0.331879 0.008057 0.091309
0.409821 0.009216 0.092834
0.486755 0.010803 0.094452
0.558838 0.012299 0.095947
0.624268 0.013702 0.097321
0.684021 0.014923 0.098572
0.740417 0.016113 0.099762
0.795105 0.017242 0.100800
0.848755 0.018402 0.101929
0.901611 0.019470 0.103027
0.954163 0.020569 0.104218
0.000000 0.044006 0.089569
0.061829 0.044464 0.088074
0.109528 0.047638 0.086975
0.152496 0.047913 0.089020
0.202545 0.048096 0.090302
0.263702 0.048950 0.091461
0.334534 0.050415 0.092926
0.411530 0.052002 0.094574
0.488464 0.053619 0.096191
0.560577 0.055115 0.097687
0.625977 0.056488 0.099030
0.685760 0.057739 0.100220
0.742157 0.058929 0.101471
0.796844 0.060059 0.102509
0.850403 0.061157 0.103729
0.903351 0.062286 0.104797
0.955902 0.063385 0.105865
0.000000 0.089630 0.089569
0.062164 0.089630 0.089569
0.114471 0.090149 0.090088
0.156647 0.091034 0.090973
0.205200 0.092041 0.091980
0.265503 0.093292 0.093262
0.336304 0.094788 0.094727
0.413300 0.096405 0.096313
0.490265 0.098022 0.097931
0.562317 0.099518 0.099396
0.627777 0.100830 0.100830
0.687592 0.102112 0.102112
0.743958 0.103271 0.103271
0.798676 0.104431 0.104431
0.852295 0.105560 0.105560
0.905182 0.106659 0.106659
0.957733 0.107758 0.107758
0.000000 0.138947 0.089569
0.062164 0.138947 0.089569
0.115692 0.138947 0.089569
0.159760 0.138947 0.089966
0.208221 0.139709 0.092621
0.267792 0.141113 0.094849
0.338226 0.142761 0.096649
0.415222 0.144348 0.098236
0.492188 0.145935 0.099854
0.564301 0.147491 0.101379
0.629730 0.148834 0.102783
0.689514 0.150055 0.104034
0.745819 0.151276 0.105133
0.800537 0.152405 0.106293
0.854156 0.153534 0.107422
0.907104 0.154602 0.108582
0.959625 0.155731 0.109650
0.000000 0.196930 0.089569
0.062164 0.196930 0.089569
0.115692 0.196930 0.089569
0.159912 0.196930 0.089569
0.210846 0.196930 0.089569
0.272491 0.197205 0.092346
0.343292 0.198364 0.095642
0.418884 0.200287 0.099243
0.494507 0.202362 0.102173
0.566559 0.203888 0.103638
0.631958 0.205231 0.105011
0.691772 0.206482 0.106293
0.748138 0.207703 0.107452
0.802887 0.208801 0.108643
0.856415 0.209961 0.109680
0.909332 0.211029 0.110809
0.961884 0.212128 0.111908
0.000000 0.266266 0.089569
0.062164 0.266266 0.089569
0.115723 0.266266 0.089569
0.159943 0.266266 0.089569
0.210846 0.266266 0.089569
0.274048 0.266266 0.089569
0.347717 0.266296 0.090973
0.424927 0.267212 0.096008
0.501648 0.268555 0.099487
0.573059 0.270142 0.102386
0.636993 0.271942 0.105652
0.695801 0.273499 0.107849
0.750824 0.275146 0.110138
0.805573 0.276245 0.111328
0.859161 0.277405 0.112427
0.912079 0.278473 0.113556
0.964600 0.279602 0.114624
0.000000 0.343719 0.089539
0.062164 0.343719 0.089600
0.115692 0.343719 0.089569
0.159912 0.343689 0.089539
0.210876 0.343719 0.089569
0.274048 0.343719 0.089569
0.348328 0.343719 0.089569
0.429108 0.343719 0.089569
0.506989 0.344147 0.094971
0.579285 0.345093 0.098938
0.644470 0.346252 0.102081
0.703156 0.347656 0.105408
0.759064 0.348907 0.107666
0.812927 0.350250 0.109985
0.865326 0.351715 0.112366
0.918640 0.352661 0.113434
0.969574 0.354248 0.116058
0.000000 0.424347 0.089600
0.062164 0.424347 0.089569
0.115692 0.424316 0.089539
0.159943 0.424347 0.089569
0.210846 0.424347 0.089569
0.274048 0.424347 0.089569
0.348328 0.424347 0.089569
0.429077 0.424347 0.089539
0.509796 0.424347 0.089569
0.583710 0.424469 0.093658
0.650177 0.424957 0.096771
0.710052 0.425751 0.100067
0.765869 0.426727 0.103760
0.820557 0.427673 0.105988
0.873871 0.428711 0.108398
0.926086 0.429901 0.110870
0.977692 0.431244 0.113495
0.000000 0.503693 0.089539
0.062164 0.503693 0.089539
0.115662 0.503693 0.089569
0.159943 0.503693 0.089569
0.210907 0.503693 0.089569
0.274078 0.503693 0.089569
0.348297 0.503693 0.089569
0.429077 0.503693 0.089569
0.509735 0.503693 0.089508
0.585419 0.503693 0.089569
0.653442 0.503693 0.091217
0.714386 0.503906 0.094604
0.771179 0.504395 0.098328
0.825623 0.505127 0.102325
0.879517 0.505920 0.104675
0.932434 0.506714 0.107178
0.984680 0.507721 0.109802
0.000000 0.578735 0.089569
0.062164 0.578735 0.089539
0.115692 0.578705 0.089539
0.159912 0.578735 0.089569
0.210907 0.578735 0.089569
0.274078 0.578735 0.089569
0.348358 0.578735 0.089569
0.429108 0.578735 0.089569
0.509796 0.578705 0.089539
0.585419 0.578766 0.089569
0.653992 0.578766 0.089569
0.716675 0.578735 0.089539
0.775024 0.578766 0.091461
0.830505 0.578949 0.095612
0.884094 0.579498 0.099884
0.937561 0.580078 0.102295
0.990448 0.580750 0.104919
0.000000 0.647858 0.089508
0.062164 0.647858 0.089630
0.115753 0.647858 0.089569
0.159912 0.647858 0.089569
0.210876 0.647858 0.089569
0.273987 0.647858 0.089569
0.348297 0.647888 0.089600
0.429108 0.647858 0.089569
0.509796 0.647858 0.089569
0.585419 0.647858 0.089569
0.654022 0.647827 0.089600
0.716736 0.647827 0.089600
0.775848 0.647858 0.089600
0.833221 0.647858 0.089600
0.887604 0.647949 0.094025
0.941681 0.648224 0.096375
0.993927 0.648712 0.101288
0.000031 0.711304 0.089661
0.062164 0.711365 0.089569
0.115692 0.711365 0.089569
0.159851 0.711365 0.089569
0.210876 0.711365 0.089569
0.274017 0.711365 0.089569
0.348358 0.711334 0.089539
0.429138 0.711334 0.089539
0.509796 0.711395 0.089600
0.585388 0.711395 0.089600
0.653992 0.711365 0.089569
0.716736 0.711365 0.089600
0.775879 0.711365 0.089630
0.833191 0.711365 0.089569
0.889435 0.711334 0.089600
0.943970 0.711426 0.091980
0.997925 0.711456 0.094604
0.000000 0.771393 0.089630
0.062164 0.771393 0.089508
0.115692 0.771393 0.089569
0.159973 0.771393 0.089569
0.210907 0.771393 0.089569
0.274017 0.771393 0.089569
0.348267 0.771423 0.089600
0.429138 0.771393 0.089569
0.509735 0.771423 0.089600
0.585449 0.771393 0.089569
0.654053 0.771393 0.089569
0.716644 0.771423 0.089600
0.775787 0.771423 0.089539
0.833160 0.771423 0.089539
0.889374 0.771423 0.089539
0.944885 0.771362 0.089569
0.999939 0.771454 0.089508
0.000000 0.829712 0.089539
0.062195 0.829742 0.089539
0.115753 0.829681 0.089539
0.159851 0.829712 0.089569
0.210815 0.829712 0.089569
0.274048 0.829712 0.089569
0.348328 0.829712 0.089569
0.429108 0.829712 0.089569
0.509857 0.829681 0.089539
0.585419 0.829712 0.089569
0.654053 0.829681 0.089539
0.716766 0.829712 0.089569
0.775848 0.829712 0.089569
0.833191 0.829742 0.089569
0.889435 0.829681 0.089600
0.944946 0.829681 0.089630
0.999969 0.829712 0.089539
0.000000 0.887024 0.089661
0.062195 0.887054 0.089569
0.115692 0.887054 0.089600
0.159851 0.887024 0.089569
0.210876 0.887024 0.089569
0.274109 0.886993 0.089539
0.348328 0.887024 0.089569
0.429108 0.887024 0.089569
0.509735 0.887054 0.089600
0.585449 0.887024 0.089569
0.653992 0.887024 0.089569
0.716705 0.887054 0.089600
0.775848 0.887024 0.089569
0.833130 0.887054 0.089600
0.889374 0.887024 0.089539
0.944885 0.887054 0.089569
0.999969 0.887054 0.089539
0.000000 0.943665 0.089630
0.062195 0.943695 0.089539
0.115662 0.943695 0.089600
0.159882 0.943695 0.089600
0.210907 0.943634 0.089539
0.274109 0.943665 0.089569
0.348328 0.943665 0.089569
0.429077 0.943695 0.089600
0.509766 0.943695 0.089600
0.585419 0.943665 0.089569
0.653992 0.943634 0.089539
0.716766 0.943634 0.089539
0.775818 0.943665 0.089569
0.833160 0.943665 0.089569
0.889404 0.943634 0.089539
0.944916 0.943665 0.089600
0.999969 0.943726 0.089539
0.000000 1.000000 0.089600
0.062164 1.000000 0.089630
0.115753 0.999969 0.089539
0.159912 1.000000 0.089691
0.210907 0.999969 0.089539
0.274048 1.000000 0.089569
0.348297 1.000000 0.089569
0.429169 0.999969 0.089539
0.509857 0.999969 0.089539
0.585419 0.999969 0.089539
0.654022 1.000000 0.089722
0.716705 1.000000 0.089752
0.775787 1.000000 0.089752
0.833252 0.999969 0.089539
0.889343 1.000000 0.089813
0.944885 1.000000 0.089569
1.000000 1.000000 0.089569
0.000000 0.000000 0.173553
0.061401 0.001190 0.169312
0.107727 0.006958 0.158142
0.145386 0.010468 0.156891
0.190765 0.012878 0.159332
0.250427 0.013855 0.163666
0.322876 0.014008 0.167908
0.401642 0.014435 0.171082
0.482117 0.014130 0.173401
0.554901 0.015228 0.175171
0.623138 0.015137 0.176483
0.682770 0.016449 0.177826
0.741028 0.016724 0.178711
0.795746 0.017883 0.179871
0.849335 0.018982 0.180969
0.902252 0.020111 0.182068
0.954773 0.021179 0.183228
0.000031 0.044037 0.173431
0.062164 0.044006 0.173553
0.112488 0.047211 0.165131
0.149475 0.051666 0.160980
0.194824 0.054047 0.163330
0.255707 0.054413 0.167786
0.328888 0.054291 0.171204
0.407166 0.055145 0.173584
0.486664 0.055450 0.175354
0.561188 0.055725 0.176666
0.626587 0.057098 0.178070
0.686401 0.058380 0.179352
0.742767 0.059540 0.180481
0.797485 0.060699 0.181580
0.851044 0.061798 0.182800
0.903961 0.062897 0.183838
0.956512 0.063995 0.184937
0.000000 0.089630 0.173553
0.062164 0.089630 0.173553
0.115570 0.089905 0.172516
0.153656 0.094360 0.165161
0.199615 0.096405 0.167877
0.261414 0.096436 0.171509
0.334229 0.096741 0.173798
0.413055 0.097443 0.175507
0.490906 0.098633 0.176971
0.562988 0.100128 0.178436
0.628357 0.101471 0.179810
0.688171 0.102753 0.181061
0.744537 0.103912 0.182281
0.799255 0.105072 0.183380
0.852844 0.106171 0.184570
0.905762 0.107300 0.185669
0.958282 0.108368 0.186798
0.000000 0.138947 0.173553
0.062164 0.138947 0.173553
0.115692 0.138947 0.173553
0.158722 0.140045 0.170868
0.205566 0.141815 0.172516
0.267670 0.142059 0.174225
0.338837 0.143372 0.175690
0.415863 0.144958 0.177307
0.492798 0.146576 0.178864
0.564941 0.148132 0.180389
0.630310 0.149475 0.181763
0.690094 0.150696 0.182953
0.746460 0.151886 0.184265
0.801147 0.153015 0.185303
0.854767 0.154144 0.186462
0.907654 0.155243 0.187561
0.960205 0.156342 0.188721
0.000000 0.196930 0.173553
0.062164 0.196930 0.173584
0.115692 0.196930 0.173553
0.159912 0.196930 0.173553
0.210663 0.196960 0.173950
0.270294 0.198303 0.176483
0.341125 0.199768 0.177948
0.418121 0.201385 0.179535
0.495056 0.203003 0.181152
0.567230 0.204498 0.182709
0.632629 0.205872 0.184082
0.692383 0.207092 0.185303
0.748718 0.208282 0.186462
0.803467 0.209412 0.187622
0.857025 0.210571 0.188721
0.909973 0.211639 0.189850
0.962494 0.212769 0.190918
0.000000 0.266266 0.173553
0.062195 0.266296 0.173553
0.115692 0.266266 0.173553
0.159912 0.266266 0.173553
0.210846 0.266266 0.173553
0.274048 0.266266 0.173553
0.346222 0.266724 0.176910
0.422821 0.268250 0.180237
0.498535 0.270203 0.183319
0.569916 0.271942 0.185394
0.635315 0.273285 0.186768
0.695099 0.274567 0.188019
0.751434 0.275787 0.189178
0.806152 0.276917 0.190308
0.859772 0.277954 0.191467
0.912720 0.279083 0.192596
0.965271 0.280151 0.193695
0.000000 0.343719 0.173523
0.062164 0.343719 0.173523
0.115692 0.343719 0.173523
0.159912 0.343719 0.173553
0.210846 0.343719 0.173553
0.274048 0.343719 0.173553
0.348328 0.343719 0.173553
0.428192 0.343781 0.175629
0.505585 0.344696 0.179840
0.577393 0.346039 0.183228
0.641998 0.347504 0.185944
0.700317 0.349152 0.188995
0.755768 0.350616 0.191132
0.809143 0.352234 0.193298
0.862762 0.353363 0.194458
0.915649 0.354462 0.195526
0.968292 0.355530 0.196716
0.000000 0.424347 0.173523
0.062164 0.424347 0.173584
0.115692 0.424347 0.173553
0.159912 0.424347 0.173523
0.210846 0.424347 0.173553
0.274048 0.424377 0.173584
0.348297 0.424347 0.173553
0.429077 0.424347 0.173523
0.509796 0.424347 0.173553
0.582672 0.424744 0.178864
0.648132 0.425659 0.182709
0.707642 0.426666 0.185699
0.764008 0.427704 0.187622
0.817291 0.429169 0.191162
0.870117 0.430481 0.193420
0.923431 0.431396 0.194275
0.974762 0.432861 0.196747
0.000000 0.503693 0.173523
0.062164 0.503693 0.173523
0.115692 0.503693 0.173584
0.159912 0.503693 0.173584
0.210846 0.503662 0.173523
0.274048 0.503693 0.173553
0.348297 0.503693 0.173553
0.429138 0.503693 0.173553
0.509766 0.503693 0.173523
0.585449 0.503693 0.173584
0.652863 0.503784 0.176178
0.713043 0.504242 0.180511
0.769623 0.504913 0.183838
0.823792 0.505890 0.187347
0.877472 0.506805 0.189575
0.930084 0.507812 0.191895
0.982056 0.508972 0.194336
0.000000 0.578735 0.173492
0.062164 0.578735 0.173523
0.115692 0.578735 0.173584
0.159912 0.578735 0.173523
0.210846 0.578735 0.173553
0.274048 0.578735 0.173553
0.348358 0.578735 0.173553
0.429077 0.578735 0.173553
0.509796 0.578735 0.173553
0.585358 0.578735 0.173492
0.654022 0.578705 0.173584
0.716675 0.578766 0.173523
0.773651 0.578918 0.178436
0.828827 0.579346 0.182068
0.883331 0.579865 0.184265
0.935455 0.580811 0.188232
0.988098 0.581604 0.190704
0.000000 0.647858 0.173523
0.062164 0.647858 0.173553
0.115692 0.647858 0.173523
0.159912 0.647858 0.173615
0.210846 0.647858 0.173553
0.274078 0.647858 0.173553
0.348297 0.647858 0.173553
0.429108 0.647858 0.173553
0.509796 0.647827 0.173523
0.585449 0.647858 0.173553
0.653992 0.647888 0.173553
0.716675 0.647858 0.173523
0.775787 0.647858 0.173523
0.832489 0.647858 0.175415
0.886810 0.648102 0.179352
0.939758 0.648590 0.183502
0.992981 0.649139 0.185913
0.000000 0.711365 0.173492
0.062164 0.711365 0.173584
0.115692 0.711365 0.173584
0.159912 0.711365 0.173523
0.210846 0.711365 0.173553
0.274017 0.711395 0.173584
0.348328 0.711365 0.173553
0.429077 0.711365 0.173553
0.509796 0.711334 0.173523
0.585449 0.711365 0.173553
0.653992 0.711365 0.173553
0.716675 0.711365 0.173523
0.775787 0.711395 0.173523
0.833130 0.711395 0.173492
0.889435 0.711334 0.173584
0.943146 0.711456 0.177826
0.996979 0.711639 0.180206
0.000000 0.771393 0.173645
0.062195 0.771423 0.173523
0.115692 0.771393 0.173492
0.159943 0.771423 0.173523
0.210876 0.771362 0.173523
0.274078 0.771362 0.173523
0.348297 0.771423 0.173584
0.429138 0.771393 0.173553
0.509827 0.771393 0.173553
0.585419 0.771362 0.173523
0.654022 0.771362 0.173523
0.716675 0.771423 0.173584
0.775818 0.771393 0.173553
0.833221 0.771393 0.173584
0.889374 0.771393 0.173523
0.944855 0.771423 0.173523
0.999146 0.771423 0.175934
0.000000 0.829712 0.173615
0.062164 0.829712 0.173462
0.115692 0.829712 0.173553
0.159912 0.829712 0.173492
0.210876 0.829712 0.173553
0.274017 0.829742 0.173584
0.348328 0.829712 0.173553
0.429077 0.829712 0.173553
0.509796 0.829712 0.173553
0.585419 0.829712 0.173553
0.653992 0.829712 0.173553
0.716736 0.829681 0.173523
0.775848 0.829681 0.173523
0.833221 0.829681 0.173584
0.889465 0.829681 0.173615
0.944916 0.829681 0.173584
1.000000 0.829712 0.173553
0.000000 0.887024 0.173462
0.062164 0.887024 0.173523
0.115692 0.887024 0.173492
0.159912 0.887024 0.173584
0.210815 0.887024 0.173553
0.274048 0.887024 0.173553
0.348267 0.887024 0.173553
0.429077 0.887024 0.173553
0.509766 0.887054 0.173584
0.585358 0.887054 0.173584
0.653961 0.887024 0.173553
0.716675 0.887024 0.173553
0.775848 0.886993 0.173523
0.833191 0.887024 0.173553
0.889435 0.886993 0.173584
0.944824 0.887024 0.173492
1.000000 0.887024 0.173553
0.000000 0.943665 0.173492
0.062134 0.943634 0.173615
0.115723 0.943695 0.173523
0.159912 0.943665 0.173492
0.210815 0.943695 0.173584
0.274109 0.943634 0.173523
0.348389 0.943634 0.173523
0.429077 0.943665 0.173553
0.509766 0.943695 0.173584
0.585480 0.943634 0.173523
0.653961 0.943695 0.173584
0.716736 0.943665 0.173553
0.775787 0.943695 0.173584
0.833130 0.943695 0.173584
0.889343 0.943665 0.173553
0.944855 0.943726 0.173523
0.999969 0.943665 0.173523
0.000031 0.999939 0.173615
0.062286 1.000000 0.173523
0.115692 1.000000 0.173553
0.159882 0.999969 0.173615
0.210876 1.000000 0.173553
0.274048 1.000000 0.173553
0.348389 1.000000 0.173676
0.429169 0.999969 0.173523
0.509796 1.000000 0.173676
0.585358 1.000000 0.173553
0.653961 1.000000 0.173553
0.716705 1.000000 0.173553
0.775848 1.000000 0.173553
0.833191 1.000000 0.173767
0.889404 0.999969 0.173523
0.944916 1.000000 0.173553
1.000000 1.000000 0.173553
0.000000 0.000000 0.245270
0.062164 0.000000 0.245270
0.112091 0.004089 0.233063
0.149628 0.009064 0.224640
0.192017 0.014130 0.221069
0.248291 0.017059 0.224030
0.316132 0.019501 0.228363
0.393860 0.020081 0.233704
0.472412 0.020355 0.237885
0.546570 0.020599 0.240967
0.615295 0.020050 0.243256
0.675903 0.020782 0.245026
0.733490 0.021301 0.246460
0.789734 0.021637 0.247803
0.845184 0.021790 0.248932
0.900269 0.021820 0.249786
