滤镜资源/Professional Luts Collection/Triune-Digital-Cinematic-LUTs/3D LUTs (3DL)/REDLOGFILM/300 - REDlogFilm.3dl
# Created by Benjamin (IWLTBAP) : http://luts.iwltbap.com
# Copyright: (C) Copyright 2016 Triune Films and IWLTBAP
# Blockbuster LUTs Pack
0 64 128 192 256 320 384 448 512 576 640 704 768 832 896 960 1023
0 0 0
0 1 34
0 3 86
0 4 171
0 8 287
2 15 441
15 30 666
32 75 930
56 125 1206
82 174 1480
101 217 1723
118 255 1938
131 288 2125
145 315 2270
158 338 2396
167 356 2498
173 371 2580
3 38 1
5 41 39
6 42 94
7 44 179
8 50 299
12 62 455
27 91 678
51 142 942
77 192 1214
103 240 1488
123 282 1730
140 321 1945
153 355 2133
167 382 2277
180 405 2404
187 423 2503
193 438 2585
7 99 3
10 105 40
12 112 103
14 115 189
16 124 311
24 143 473
43 179 693
75 227 956
101 277 1226
127 324 1497
151 367 1741
166 404 1956
181 438 2141
199 465 2288
210 488 2415
216 506 2514
221 521 2594
14 194 4
19 202 43
23 211 109
26 217 201
30 229 322
46 257 487
73 295 711
107 342 973
135 389 1242
161 436 1513
185 477 1756
202 515 1970
219 547 2155
232 573 2299
243 594 2425
251 612 2526
257 627 2606
30 345 10
34 352 51
40 361 122
46 372 215
54 384 341
80 413 509
109 450 733
142 492 993
174 538 1264
204 585 1535
227 625 1776
245 660 1989
263 692 2173
276 720 2317
289 743 2445
299 761 2544
307 774 2625
81 567 22
86 574 69
92 582 142
99 588 236
110 599 361
126 616 536
157 652 762
191 691 1021
223 734 1292
253 779 1564
278 818 1804
300 854 2018
317 884 2202
334 910 2347
348 933 2474
357 949 2573
363 962 2653
152 828 42
155 832 97
161 839 168
169 847 268
180 859 405
195 875 582
213 895 796
247 933 1057
281 974 1326
313 1016 1598
338 1054 1838
364 1089 2052
383 1118 2236
400 1143 2382
414 1165 2509
424 1181 2606
432 1195 2687
232 1128 83
236 1133 144
242 1140 221
248 1146 323
259 1157 458
275 1172 636
291 1190 849
312 1214 1098
347 1253 1367
380 1293 1637
409 1331 1879
435 1364 2094
457 1396 2279
474 1421 2424
490 1440 2549
501 1457 2648
510 1471 2731
316 1441 142
321 1447 203
326 1451 280
332 1458 381
342 1466 517
358 1483 694
376 1502 907
395 1522 1152
416 1545 1408
450 1586 1679
480 1622 1923
508 1655 2138
532 1686 2324
549 1711 2468
567 1732 2596
578 1749 2695
589 1762 2779
402 1757 203
404 1760 264
410 1763 339
417 1768 440
426 1780 576
441 1795 751
460 1813 964
478 1834 1209
500 1856 1466
521 1881 1723
552 1918 1967
580 1951 2183
606 1982 2370
625 2005 2515
644 2028 2642
659 2046 2744
670 2062 2827
483 2040 260
484 2042 320
489 2047 397
496 2054 499
504 2062 631
518 2076 805
538 2096 1019
558 2117 1265
578 2139 1521
597 2161 1775
617 2184 2009
643 2216 2223
674 2249 2410
696 2276 2559
717 2301 2689
734 2319 2790
748 2336 2875
554 2292 310
557 2295 372
560 2297 449
569 2306 551
575 2314 681
590 2328 855
607 2346 1068
630 2369 1314
651 2392 1571
671 2414 1826
689 2434 2057
707 2455 2262
734 2487 2449
762 2518 2601
790 2551 2735
807 2573 2841
821 2590 2925
617 2513 355
620 2516 417
625 2520 494
632 2526 597
640 2538 728
654 2552 902
673 2571 1113
697 2594 1361
720 2619 1619
745 2644 1876
765 2668 2108
782 2687 2314
799 2707 2491
826 2737 2642
852 2766 2777
871 2790 2882
888 2809 2970
670 2688 392
673 2691 453
678 2696 531
686 2705 634
693 2714 765
707 2727 940
729 2750 1152
753 2773 1398
778 2801 1659
803 2828 1917
827 2852 2151
845 2873 2357
863 2893 2536
875 2908 2676
902 2938 2809
922 2961 2914
939 2982 3002
729 2856 429
732 2859 489
736 2864 567
743 2871 670
752 2880 803
768 2897 978
789 2918 1189
811 2940 1437
838 2969 1698
862 2996 1957
886 3023 2194
907 3044 2399
925 3062 2579
936 3078 2719
947 3091 2838
967 3113 2944
984 3132 3033
766 2982 455
773 2988 518
778 2992 595
785 3001 697
796 3011 830
812 3029 1006
832 3047 1217
856 3073 1465
884 3101 1728
910 3128 1987
933 3156 2225
954 3176 2430
970 3196 2611
984 3211 2751
995 3224 2872
1004 3237 2970
1021 3255 3059
802 3088 477
808 3094 539
814 3100 618
822 3107 719
832 3119 854
849 3134 1029
870 3156 1241
894 3183 1489
921 3210 1753
949 3238 2015
972 3265 2251
992 3285 2458
1009 3305 2637
1024 3323 2779
1035 3334 2901
1044 3346 2999
1050 3356 3078
35 1 0
40 2 36
40 4 90
41 5 175
41 9 293
53 17 450
75 31 673
103 76 937
130 127 1209
158 177 1484
176 219 1727
194 258 1942
209 290 2129
226 318 2275
233 339 2399
243 358 2501
250 374 2583
39 38 1
44 41 39
44 42 94
45 45 181
53 51 300
77 69 467
106 105 693
135 154 957
165 205 1228
189 252 1500
208 294 1742
226 334 1957
240 366 2146
255 393 2291
263 415 2415
271 433 2514
281 450 2597
43 99 3
49 105 40
54 112 103
56 117 191
69 124 311
98 157 483
127 193 708
158 240 970
187 289 1240
211 336 1509
234 378 1753
251 417 1967
266 449 2154
281 475 2300
289 498 2424
298 516 2524
305 532 2606
53 194 5
59 202 43
65 211 109
73 217 201
92 240 326
124 273 498
151 308 723
186 355 986
215 400 1255
242 447 1525
265 489 1768
283 526 1981
301 560 2168
310 584 2311
321 605 2436
331 623 2537
340 639 2621
79 346 11
98 366 52
108 376 123
117 384 219
126 396 343
153 425 518
187 463 746
220 506 1006
251 550 1276
283 599 1548
307 638 1790
324 672 2001
344 707 2188
357 733 2331
368 755 2459
379 773 2558
389 790 2640
141 568 22
158 585 71
166 594 144
174 600 240
183 611 368
202 631 547
229 662 772
266 705 1033
300 747 1304
331 791 1576
357 831 1817
378 866 2029
397 897 2215
413 923 2361
426 947 2486
435 963 2585
445 978 2667
212 830 44
226 843 99
232 849 175
241 859 279
253 871 416
269 887 592
286 906 805
322 947 1069
356 986 1337
389 1029 1610
416 1067 1851
443 1104 2066
461 1130 2250
477 1156 2395
492 1178 2522
503 1195 2620
513 1210 2701
294 1129 84
309 1146 154
314 1152 231
321 1158 334
333 1171 470
349 1185 647
365 1203 860
387 1228 1110
421 1266 1378
455 1308 1649
485 1346 1892
513 1382 2109
536 1411 2294
553 1435 2437
568 1456 2562
580 1472 2662
591 1487 2745
377 1440 143
392 1456 213
399 1464 291
406 1471 392
416 1479 528
431 1495 704
448 1514 917
469 1535 1164
490 1559 1420
525 1599 1693
556 1637 1935
584 1672 2152
611 1702 2339
629 1726 2483
644 1747 2610
656 1764 2709
668 1780 2793
466 1759 206
479 1773 276
484 1778 352
491 1783 453
502 1794 588
516 1808 763
534 1827 976
555 1849 1223
575 1871 1479
595 1896 1735
628 1933 1981
658 1968 2197
684 1999 2385
704 2023 2530
724 2046 2658
741 2065 2761
758 2086 2849
546 2043 263
560 2057 333
563 2061 409
571 2068 511
580 2077 644
593 2091 818
612 2110 1031
634 2132 1278
655 2155 1535
675 2177 1789
694 2199 2022
723 2233 2238
754 2268 2426
777 2294 2576
801 2323 2707
820 2345 2811
840 2365 2901
614 2292 312
630 2309 384
635 2313 461
646 2322 564
651 2330 694
667 2344 869
686 2363 1082
709 2387 1330
731 2412 1587
751 2433 1841
770 2454 2074
788 2475 2278
821 2514 2471
849 2544 2622
875 2575 2756
896 2600 2864
915 2622 2953
679 2515 358
696 2533 431
701 2538 508
711 2545 612
721 2558 743
735 2573 917
756 2595 1130
782 2618 1379
807 2646 1638
831 2672 1898
853 2697 2130
872 2716 2334
889 2736 2514
913 2765 2662
940 2794 2798
961 2819 2907
981 2843 2999
734 2690 394
754 2714 467
761 2720 546
770 2730 650
779 2740 783
794 2753 956
815 2776 1170
840 2801 1417
869 2832 1678
893 2859 1940
916 2882 2173
936 2903 2381
952 2924 2557
968 2941 2701
993 2969 2835
1014 2993 2942
1035 3018 3031
792 2858 431
812 2881 503
818 2886 580
827 2895 685
838 2906 820
856 2924 995
875 2944 1208
899 2969 1455
928 3000 1718
954 3028 1981
976 3054 2217
999 3074 2423
1015 3093 2601
1028 3111 2744
1040 3123 2863
1060 3145 2971
1080 3167 3062
832 2986 458
858 3015 532
864 3019 609
871 3026 711
884 3040 849
902 3057 1025
922 3079 1238
945 3103 1485
973 3132 1748
1001 3161 2011
1024 3188 2249
1046 3208 2455
1062 3228 2635
1076 3245 2777
1087 3256 2898
1097 3269 2997
1117 3291 3088
870 3092 479
898 3125 556
905 3132 635
912 3139 736
923 3151 873
940 3165 1049
962 3188 1263
985 3216 1511
1013 3243 1776
1041 3272 2038
1067 3301 2277
1086 3319 2484
1104 3341 2666
1119 3358 2807
1130 3369 2929
1139 3381 3028
1146 3391 3107
91 2 0
98 4 37
107 5 94
111 7 180
118 11 299
142 18 459
169 35 680
198 80 943
227 131 1214
254 180 1488
274 223 1731
293 262 1946
307 292 2134
326 321 2281
333 342 2404
340 360 2505
348 377 2588
96 39 1
106 42 39
115 44 98
122 47 186
142 53 307
167 72 475
196 110 700
227 158 963
258 209 1232
283 257 1504
302 298 1747
322 337 1963
336 368 2150
352 395 2294
361 417 2420
368 437 2521
378 454 2604
104 99 3
113 105 40
127 112 103
145 119 193
167 136 317
197 170 497
227 208 722
257 253 983
286 301 1253
312 348 1522
335 390 1765
354 430 1981
371 462 2168
385 487 2313
395 511 2439
404 530 2539
412 546 2621
118 194 6
132 203 44
154 221 111
165 229 203
189 254 330
219 288 513
249 322 737
283 368 999
311 412 1268
340 460 1538
364 501 1782
384 540 1996
403 575 2183
414 598 2327
425 621 2453
434 637 2552
444 653 2635
155 347 11
175 367 53
196 389 124
208 398 220
219 410 347
246 438 531
280 476 758
316 520 1021
347 561 1289
378 611 1561
404 652 1805
423 687 2016
441 720 2201
458 747 2346
470 770 2474
478 784 2573
488 801 2655
218 569 23
234 586 71
253 605 145
262 613 244
275 625 381
292 643 560
320 675 784
358 720 1048
394 760 1316
425 805 1589
452 845 1831
474 880 2044
495 912 2229
512 937 2375
526 960 2502
533 977 2601
544 993 2684
288 830 44
303 845 102
319 862 185
329 869 289
341 882 427
358 899 603
375 919 817
413 960 1082
447 1000 1351
482 1043 1623
511 1083 1867
537 1119 2082
557 1148 2267
574 1172 2411
588 1193 2537
601 1212 2639
612 1228 2721
370 1132 85
384 1148 156
400 1162 242
411 1171 346
420 1182 483
437 1198 659
453 1214 870
475 1241 1121
511 1280 1390
548 1323 1663
578 1361 1907
606 1396 2123
628 1426 2309
646 1449 2453
663 1472 2578
676 1490 2680
689 1506 2764
456 1445 146
469 1459 216
487 1476 301
494 1483 403
506 1494 540
519 1508 716
536 1526 929
558 1549 1176
581 1574 1433
617 1615 1706
648 1653 1950
678 1688 2167
704 1719 2354
723 1743 2499
741 1765 2626
754 1783 2728
769 1801 2814
542 1760 207
556 1774 278
573 1790 365
581 1798 467
592 1808 601
606 1824 776
623 1842 989
647 1863 1237
666 1887 1493
687 1912 1751
719 1948 1995
752 1985 2212
781 2018 2401
804 2045 2550
827 2072 2681
846 2091 2786
864 2113 2875
624 2044 265
638 2060 336
652 2076 422
661 2082 524
671 2094 659
685 2108 832
705 2127 1046
725 2149 1292
748 2172 1550
768 2194 1806
787 2217 2036
821 2253 2255
853 2290 2446
880 2320 2598
908 2352 2733
929 2379 2840
949 2399 2930
693 2294 315
709 2311 387
726 2329 474
736 2339 578
744 2347 712
760 2363 886
780 2384 1100
805 2410 1347
826 2432 1604
848 2457 1860
871 2480 2092
889 2501 2298
926 2543 2494
957 2576 2648
986 2609 2783
1006 2633 2891
1025 2655 2981
758 2517 362
776 2536 435
797 2559 523
806 2568 627
819 2580 761
835 2596 934
856 2619 1150
882 2643 1397
909 2673 1658
933 2700 1920
957 2724 2152
977 2746 2358
994 2765 2537
1021 2796 2688
1050 2831 2825
1072 2856 2936
1092 2878 3028
810 2693 396
834 2719 472
862 2749 564
873 2759 667
885 2771 802
900 2785 975
922 2808 1191
948 2834 1440
976 2864 1701
1000 2893 1964
1024 2916 2198
1045 2938 2406
1061 2957 2584
1076 2973 2726
1104 3006 2862
1125 3031 2971
1146 3056 3064
872 2864 434
894 2887 506
921 2916 598
933 2927 703
943 2939 840
961 2956 1015
982 2977 1228
1007 3002 1477
1035 3032 1740
1063 3061 2004
1086 3087 2242
1105 3105 2448
1121 3126 2628
1135 3141 2767
1150 3157 2889
1172 3180 3000
1192 3203 3092
915 2991 461
941 3022 536
969 3053 627
980 3061 731
990 3073 869
1006 3088 1044
1029 3112 1260
1054 3137 1508
1080 3165 1769
1110 3195 2035
1133 3220 2272
1155 3243 2483
1172 3264 2663
1184 3279 2804
1196 3292 2927
1209 3305 3027
1229 3327 3119
951 3099 482
981 3133 560
1011 3167 652
1022 3176 757
1030 3185 894
1045 3199 1069
1070 3224 1286
1095 3250 1535
1122 3278 1799
1151 3309 2063
1175 3334 2301
1196 3358 2513
1215 3378 2694
1228 3393 2835
1239 3406 2957
1249 3417 3057
1257 3426 3137
207 3 0
214 5 38
216 7 98
216 9 186
238 14 307
264 21 469
293 41 691
323 86 953
352 134 1223
380 184 1495
402 228 1739
423 267 1954
436 297 2139
453 324 2286
464 347 2410
471 365 2511
478 379 2594
214 40 2
230 44 40
238 46 102
238 50 191
260 57 315
286 78 484
316 117 709
349 165 972
377 212 1239
404 259 1511
428 303 1755
449 342 1971
463 373 2156
476 398 2300
490 421 2426
496 441 2526
