滤镜资源/Professional Luts Collection/Triune-Digital-Cinematic-LUTs/3D LUTs (3DL)/REDLOGFILM/300 - REDlogFilm.3dl
# Created by Benjamin (IWLTBAP) : http://luts.iwltbap.com
# Copyright: (C) Copyright 2016 Triune Films and IWLTBAP
# Blockbuster LUTs Pack
0 128 256 384 512 640 768 896 1023
0 0 0
0 3 86
0 8 287
15 30 666
56 125 1206
101 217 1723
131 288 2125
158 338 2396
173 371 2580
7 99 3
12 112 103
16 124 311
43 179 693
101 277 1226
151 367 1741
181 438 2141
210 488 2415
221 521 2594
30 345 10
40 361 122
54 384 341
109 450 733
174 538 1264
227 625 1776
263 692 2173
289 743 2445
307 774 2625
152 828 42
161 839 168
180 859 405
213 895 796
281 974 1326
338 1054 1838
383 1118 2236
414 1165 2509
432 1195 2687
316 1441 142
326 1451 280
342 1466 517
376 1502 907
416 1545 1408
480 1622 1923
532 1686 2324
567 1732 2596
589 1762 2779
483 2040 260
489 2047 397
504 2062 631
538 2096 1019
578 2139 1521
617 2184 2009
674 2249 2410
717 2301 2689
748 2336 2875
617 2513 355
625 2520 494
640 2538 728
673 2571 1113
720 2619 1619
765 2668 2108
799 2707 2491
852 2766 2777
888 2809 2970
729 2856 429
736 2864 567
752 2880 803
789 2918 1189
838 2969 1698
886 3023 2194
925 3062 2579
947 3091 2838
984 3132 3033
802 3088 477
814 3100 618
832 3119 854
870 3156 1241
921 3210 1753
972 3265 2251
1009 3305 2637
1035 3334 2901
1050 3356 3078
91 2 0
107 5 94
118 11 299
169 35 680
227 131 1214
274 223 1731
307 292 2134
333 342 2404
348 377 2588
104 99 3
127 112 103
167 136 317
227 208 722
286 301 1253
335 390 1765
371 462 2168
395 511 2439
412 546 2621
155 347 11
196 389 124
219 410 347
280 476 758
347 561 1289
404 652 1805
441 720 2201
470 770 2474
488 801 2655
288 830 44
319 862 185
341 882 427
375 919 817
447 1000 1351
511 1083 1867
557 1148 2267
588 1193 2537
612 1228 2721
456 1445 146
487 1476 301
506 1494 540
536 1526 929
581 1574 1433
648 1653 1950
704 1719 2354
741 1765 2626
769 1801 2814
624 2044 265
652 2076 422
671 2094 659
705 2127 1046
748 2172 1550
787 2217 2036
853 2290 2446
908 2352 2733
949 2399 2930
758 2517 362
797 2559 523
819 2580 761
856 2619 1150
909 2673 1658
957 2724 2152
994 2765 2537
1050 2831 2825
1092 2878 3028
872 2864 434
921 2916 598
943 2939 840
982 2977 1228
1035 3032 1740
1086 3087 2242
1121 3126 2628
1150 3157 2889
1192 3203 3092
951 3099 482
1011 3167 652
1030 3185 894
1070 3224 1286
1122 3278 1799
1175 3334 2301
1215 3378 2694
1239 3406 2957
1257 3426 3137
382 8 3
400 13 105
397 19 318
457 51 707
518 144 1236
568 232 1749
606 304 2147
629 354 2422
646 386 2604
390 113 6
429 125 111
436 154 332
498 223 741
564 313 1272
618 401 1785
654 470 2182
683 520 2455
700 555 2638
407 364 14
451 402 131
496 447 376
564 515 795
638 604 1328
697 688 1843
741 757 2242
773 805 2513
793 839 2698
523 837 46
558 869 193
608 916 457
647 955 853
726 1039 1388
795 1123 1906
849 1193 2309
883 1239 2581
907 1273 2767
686 1449 153
721 1481 308
771 1531 574
808 1565 964
852 1614 1471
929 1699 1993
996 1773 2403
1048 1833 2688
1085 1877 2882
854 2050 271
888 2083 430
942 2136 694
981 2175 1086
1032 2227 1594
1083 2281 2090
1170 2375 2516
1230 2442 2808
1272 2487 3006
999 2531 372
1045 2578 535
1123 2658 809
1166 2701 1204
1219 2756 1717
1274 2812 2220
1312 2856 2610
1374 2925 2905
1417 2974 3108
1116 2880 444
1171 2936 612
1254 3022 888
1295 3064 1285
1350 3121 1804
1403 3180 2311
1446 3225 2706
1470 3253 2970
1511 3301 3172
1199 3117 492
1261 3186 667
1343 3274 946
1383 3315 1342
1442 3373 1865
1495 3428 2375
1534 3471 2769
1562 3502 3038
1576 3520 3216
867 29 11
896 38 128
884 47 361
904 90 749
976 174 1278
1030 258 1785
1073 326 2184
1098 373 2453
1116 406 2634
875 155 14
911 173 135
924 207 384
936 258 777
1011 343 1308
1067 426 1818
1114 495 2218
1144 542 2487
1164 576 2671
870 434 24
919 461 152
969 490 415
991 545 825
1070 630 1361
1135 712 1874
1188 783 2275
1219 829 2546
1243 862 2730
918 859 57
955 893 214
1011 941 479
1088 1009 903
1175 1097 1444
1256 1186 1968
1325 1261 2379
1382 1327 2666
1420 1367 2862
1069 1465 168
1102 1495 325
1156 1547 589
1239 1622 1015
1295 1677 1530
1400 1782 2066
1496 1882 2499
1560 1951 2795
1600 1995 2994
1233 2063 286
1270 2100 446
1337 2164 716
1453 2276 1156
1516 2337 1675
1572 2396 2181
1667 2494 2616
1736 2569 2918
1777 2614 3121
1386 2553 389
1440 2609 554
1525 2693 832
1645 2814 1281
1708 2876 1805
1764 2933 2314
1806 2980 2711
1873 3053 3016
1918 3102 3221
1512 2912 462
1572 2969 631
1656 3060 914
1776 3187 1367
1842 3249 1897
1896 3306 2411
1941 3354 2814
1969 3384 3083
2011 3428 3291
1596 3152 511
1659 3218 686
1745 3308 968
1862 3432 1424
1925 3498 1957
1983 3555 2476
2028 3601 2883
2058 3629 3155
2080 3651 3342
1480 81 29
1508 94 160
1512 116 425
1511 176 830
1545 225 1329
1612 302 1840
1661 366 2236
1692 411 2506
1711 440 2685
1488 233 34
1514 245 168
1549 274 441
1549 336 857
1577 392 1357
1647 469 1870
1699 535 2270
1733 581 2537
1758 614 2720
1488 511 50
1537 530 205
1577 552 469
1607 608 897
1631 675 1406
1705 755 1921
1762 823 2323
1805 870 2595
1831 903 2779
1498 940 116
1545 973 274
1615 1020 538
1692 1064 957
1727 1140 1488
1822 1232 2016
1911 1321 2439
1977 1387 2732
2016 1429 2929
1580 1495 196
1617 1528 354
1677 1580 622
1777 1668 1056
1917 1793 1624
2051 1921 2185
2154 2025 2629
2222 2097 2932
2263 2143 3135
1733 2091 312
1781 2132 472
1864 2209 747
1994 2330 1196
2145 2476 1782
2214 2543 2300
2313 2646 2749
2382 2723 3060
2427 2769 3270
1900 2593 414
1962 2653 582
2051 2741 862
2179 2866 1318
2330 3022 1915
2396 3088 2440
2440 3135 2846
2512 3209 3162
2561 3259 3378
2031 2955 490
2090 3015 658
2178 3105 943
2307 3238 1403
2459 3396 2016
2526 3461 2553
2574 3508 2965
2610 3542 3243
2656 3588 3457
2112 3196 537
2177 3264 712
2266 3355 998
2390 3487 1461
2546 3646 2092
2618 3712 2636
2667 3756 3050
2703 3789 3328
2723 3810 3512
2074 148 61
2096 160 212
2119 190 484
2121 247 905
2124 312 1409
2168 356 1892
2223 416 2291
2261 459 2559
2283 489 2741
2083 312 72
2109 327 230
2148 350 496
2162 407 928
2161 477 1437
2201 523 1922
2261 586 2324
2300 628 2590
2327 661 2776
2098 591 110
2137 604 262
2174 627 528
2221 676 960
2225 755 1485
2259 806 1972
2329 874 2378
2380 926 2657
2414 961 2844
2103 1030 178
2153 1058 336
2226 1090 595
2299 1133 1017
2345 1217 1571
2390 1294 2074
2485 1384 2500
2551 1448 2795
2592 1491 2992
2130 1568 256
2180 1609 421
2275 1684 697
2420 1795 1138
2554 1889 1702
2615 1990 2245
2715 2089 2690
2784 2162 2996
2826 2211 3204
2241 2128 343
2300 2181 509
2394 2264 786
2528 2388 1239
2690 2541 1833
2831 2681 2418
2930 2789 2883
2999 2869 3206
3045 2919 3420
2413 2639 444
2479 2701 612
2569 2791 896
2700 2918 1353
2858 3079 1959
3001 3227 2574
3055 3282 2995
3126 3360 3321
3175 3410 3540
2541 3001 517
2601 3062 688
2692 3154 975
2820 3285 1437
2980 3452 2068
3128 3603 2708
3182 3654 3125
3218 3688 3406
3266 3736 3623
2622 3242 564
2687 3310 741
2775 3403 1029
2899 3535 1495
3065 3702 2153
3215 3851 2796
3273 3904 3217
3307 3936 3493
3331 3955 3677
2536 215 105
2560 228 260
2588 250 525
2597 309 956
2593 373 1472
2622 425 1955
2655 458 2333
2696 501 2602
2722 529 2783
2552 380 123
2575 393 278
2614 413 546
2640 466 978
2641 539 1504
2660 593 1986
2693 629 2364
2738 673 2636
2768 703 2820
2575 654 160
2605 669 315
2644 692 577
2704 734 1009
2713 812 1550
2734 885 2044
2770 924 2425
2829 976 2708
2867 1014 2899
2581 1098 230
2639 1123 389
2714 1154 647
2788 1201 1074
2855 1285 1636
2889 1392 2162
2931 1438 2552
2997 1501 2846
3038 1541 3046
2610 1659 316
2689 1716 483
2794 1794 758
2933 1888 1196
3047 1964 1761
3109 2074 2331
3149 2141 2736
3214 2214 3046
3255 2263 3254
2707 2219 399
2773 2278 570
2866 2363 851
3010 2493 1312
3186 2654 1910
3305 2759 2494
3352 2844 2941
3417 2923 3261
3460 2974 3477
2822 2684 470
2889 2745 641
2978 2834 925
3111 2963 1386
3269 3125 1998
3413 3278 2630
3519 3393 3118
3592 3474 3445
3638 3522 3661
2942 3042 542
3004 3102 713
3095 3192 1002
3224 3328 1470
3381 3493 2108
3535 3652 2759
3643 3765 3251
3681 3801 3530
3731 3849 3746
3021 3282 589
3087 3349 764
3173 3439 1055
3296 3571 1525
3461 3740 2193
3615 3900 2849
3723 3988 3334
3760 4012 3612
3782 4026 3796
2857 261 139
2878 273 293
2912 296 561
2916 349 990
2921 417 1518
2934 475 1999
2970 509 2378
2991 535 2633
3015 559 2813
2869 424 160
2891 436 312
2934 460 580
2967 508 1010
2971 580 1547
2975 646 2034
3010 679 2409
3033 704 2666
3071 738 2852
2903 702 199
2928 713 352
2966 738 612
3032 777 1042
3052 860 1595
3069 945 2100
3103 985 2483
3128 1011 2741
3176 1053 2936
2916 1148 269
2975 1173 424
3050 1205 684
3125 1254 1113
3202 1335 1681
3240 1450 2225
3271 1509 2616
3297 1538 2882
3337 1577 3080
2964 1736 357
3040 1792 523
3145 1863 799
3273 1945 1233
3380 2016 1802
3443 2122 2384
3474 2216 2807
3500 2250 3082
3542 2300 3290
3031 2289 441
3098 2350 611
3205 2446 901
3354 2580 1359
3519 2724 1961
3617 2812 2550
3668 2912 3018
3698 2960 3300
3737 3009 3509
3140 2752 511
3207 2816 685
3296 2903 971
3426 3035 1437
3582 3200 2071
3733 3359 2707
3822 3447 3176
3863 3505 3479
3912 3560 3698
3221 3071 562
3283 3134 735
3368 3221 1022
3498 3355 1490
3655 3524 2138
3800 3679 2790
3910 3796 3286
3984 3853 3611
4008 3872 3815
3295 3310 606
3362 3378 783
3445 3466 1072
3568 3600 1550
3730 3770 2224
3882 3929 2881
3983 4000 3366
4013 4025 3677
4020 4034 3860
3070 293 165
3089 305 317
3129 327 583
3137 379 1015
3142 448 1545
3142 506 2028
3179 542 2407
3202 564 2663
3216 581 2833
3086 456 184
3106 469 335
3150 493 602
3187 538 1035
3195 611 1575
3198 680 2070
3233 719 2449
3258 743 2706
3273 761 2877
3124 735 222
3147 746 377
3188 769 640
3257 812 1070
3282 892 1625
3300 978 2137
3334 1032 2525
3361 1058 2785
3380 1079 2963
3147 1187 295
3206 1210 449
3280 1241 710
3351 1288 1137
3434 1369 1710
3472 1482 2261
3496 1558 2661
3522 1584 2925
3542 1604 3104
3201 1786 384
3277 1840 550
3373 1907 823
3497 1978 1255
3600 2050 1830
3662 2157 2421
3691 2263 2860
3714 2304 3133
3734 2327 3314
3250 2337 467
3326 2406 641
3439 2503 929
3583 2632 1389
3733 2763 1996
3822 2851 2589
3873 2945 3061
3905 3009 3351
3923 3031 3534
3356 2798 539
3421 2864 715
3508 2951 1002
3636 3079 1470
3801 3258 2122
3944 3407 2754
4023 3486 3217
4043 3548 3530
4054 3580 3720
3428 3116 585
3493 3182 762
3581 3273 1054
3703 3400 1525
3859 3571 2191
4007 3729 2848
4066 3831 3336
4086 3861 3638
4093 3879 3832
3479 3330 618
3541 3397 797
3627 3488 1087
3750 3618 1567
3909 3788 2244
4040 3947 2903
4085 4007 3385
4095 4029 3696
4095 4037 3872
