滤镜资源/Professional Luts Collection/Triune-Digital-Cinematic-LUTs/3D LUTs (3DL)/REDLOGFILM/300 - REDlogFilm.3dl
# Created by Benjamin (IWLTBAP) : http://luts.iwltbap.com
# Copyright: (C) Copyright 2016 Triune Films and IWLTBAP
# Blockbuster LUTs Pack
0 256 512 768 1023
0 0 0
0 8 287
56 125 1206
131 288 2125
173 371 2580
30 345 10
54 384 341
174 538 1264
263 692 2173
307 774 2625
316 1441 142
342 1466 517
416 1545 1408
532 1686 2324
589 1762 2779
617 2513 355
640 2538 728
720 2619 1619
799 2707 2491
888 2809 2970
802 3088 477
832 3119 854
921 3210 1753
1009 3305 2637
1050 3356 3078
382 8 3
397 19 318
518 144 1236
606 304 2147
646 386 2604
407 364 14
496 447 376
638 604 1328
741 757 2242
793 839 2698
686 1449 153
771 1531 574
852 1614 1471
996 1773 2403
1085 1877 2882
999 2531 372
1123 2658 809
1219 2756 1717
1312 2856 2610
1417 2974 3108
1199 3117 492
1343 3274 946
1442 3373 1865
1534 3471 2769
1576 3520 3216
1480 81 29
1512 116 425
1545 225 1329
1661 366 2236
1711 440 2685
1488 511 50
1577 552 469
1631 675 1406
1762 823 2323
1831 903 2779
1580 1495 196
1677 1580 622
1917 1793 1624
2154 2025 2629
2263 2143 3135
1900 2593 414
2051 2741 862
2330 3022 1915
2440 3135 2846
2561 3259 3378
2112 3196 537
2266 3355 998
2546 3646 2092
2667 3756 3050
2723 3810 3512
2536 215 105
2588 250 525
2593 373 1472
2655 458 2333
2722 529 2783
2575 654 160
2644 692 577
2713 812 1550
2770 924 2425
2867 1014 2899
2610 1659 316
2794 1794 758
3047 1964 1761
3149 2141 2736
3255 2263 3254
2822 2684 470
2978 2834 925
3269 3125 1998
3519 3393 3118
3638 3522 3661
3021 3282 589
3173 3439 1055
3461 3740 2193
3723 3988 3334
3782 4026 3796
3070 293 165
3129 327 583
3142 448 1545
3179 542 2407
3216 581 2833
3124 735 222
3188 769 640
3282 892 1625
3334 1032 2525
3380 1079 2963
3201 1786 384
3373 1907 823
3600 2050 1830
3691 2263 2860
3734 2327 3314
3356 2798 539
3508 2951 1002
3801 3258 2122
4023 3486 3217
4054 3580 3720
3479 3330 618
3627 3488 1087
3909 3788 2244
4085 4007 3385
4095 4037 3872
