滤镜资源/Professional Luts Collection/Triune-Digital-Cinematic-LUTs/3D LUTs (3DL)/REDLOGFILM/Alien - REDlogFilm.3dl
# Created by Benjamin (IWLTBAP) : http://luts.iwltbap.com
# Copyright: (C) Copyright 2016 Triune Films and IWLTBAP
# Blockbuster LUTs Pack
0 128 256 384 512 640 768 896 1023
6 12 52
7 16 165
8 28 367
7 61 712
8 139 1241
14 204 1840
18 277 2354
18 347 2697
20 403 2928
7 151 83
8 154 197
7 163 402
7 192 741
8 280 1266
13 358 1863
15 437 2367
17 509 2712
21 561 2965
7 396 142
6 399 255
6 408 451
5 444 817
0 552 1343
4 645 1928
15 733 2437
19 801 2799
22 842 3056
5 852 268
5 856 390
5 875 598
0 927 971
0 1028 1534
7 1141 2140
18 1230 2640
23 1284 2992
29 1308 3248
8 1583 506
8 1588 649
9 1605 879
12 1654 1254
18 1737 1807
35 1820 2450
56 1883 2964
71 1926 3310
82 1959 3530
40 2332 775
41 2341 932
45 2357 1188
56 2394 1590
70 2456 2141
89 2534 2752
114 2610 3258
139 2668 3582
160 2715 3794
78 2953 1013
82 2961 1180
89 2976 1460
103 3009 1900
122 3068 2474
150 3147 3040
186 3230 3489
219 3290 3799
242 3326 4008
117 3379 1219
123 3389 1389
132 3405 1680
147 3442 2132
175 3518 2703
210 3604 3245
247 3669 3656
276 3711 3943
371 3741 4085
154 3678 1371
160 3691 1546
169 3713 1845
187 3765 2304
222 3843 2862
258 3909 3380
289 3960 3773
416 3998 3996
673 4030 4088
102 17 58
100 22 178
98 34 395
96 65 737
96 142 1270
102 194 1872
107 267 2379
108 343 2718
111 397 2944
104 154 80
102 157 207
101 167 412
97 195 757
98 278 1286
103 338 1889
106 423 2393
107 499 2730
113 555 2977
94 401 146
94 404 263
93 413 461
92 449 832
90 553 1358
99 628 1951
104 717 2454
114 788 2816
120 834 3082
92 862 271
92 865 395
91 881 606
87 933 980
87 1031 1545
93 1143 2156
109 1232 2657
123 1285 3011
135 1312 3265
95 1591 507
94 1597 651
96 1610 884
99 1659 1260
113 1742 1815
142 1825 2458
162 1890 2971
177 1934 3316
188 1968 3535
149 2338 771
150 2347 926
153 2363 1189
162 2400 1593
176 2462 2146
196 2540 2759
222 2617 3266
248 2677 3592
269 2723 3803
186 2960 1017
189 2969 1181
197 2983 1462
211 3015 1904
231 3075 2478
260 3156 3047
295 3239 3497
327 3297 3808
350 3331 4016
225 3385 1223
232 3396 1389
241 3412 1681
257 3450 2136
285 3528 2711
320 3613 3253
355 3675 3664
384 3716 3950
493 3748 4085
263 3687 1378
270 3702 1548
279 3723 1847
297 3775 2308
331 3851 2868
367 3916 3386
399 3966 3780
539 4005 3996
807 4041 4088
281 30 72
282 33 192
276 48 406
255 84 823
251 148 1357
265 188 1964
279 252 2451
288 327 2779
291 384 2995
293 160 85
293 162 205
282 175 425
261 214 842
255 275 1375
267 323 1970
281 420 2452
287 496 2779
290 551 3014
299 405 135
297 408 259
279 423 479
266 462 865
266 529 1413
276 597 2015
286 703 2492
302 776 2844
301 828 3135
233 887 277
234 891 400
234 902 629
227 951 1010
228 1043 1579
257 1148 2199
286 1237 2703
301 1291 3058
308 1320 3314
249 1610 512
249 1618 655
253 1628 898
263 1672 1278
284 1755 1837
313 1837 2483
334 1906 2994
351 1953 3335
363 1989 3555
320 2352 771
322 2363 921
325 2378 1191
334 2414 1604
349 2476 2164
371 2555 2779
398 2634 3288
424 2697 3614
446 2741 3826
360 2973 1029
364 2983 1189
372 2998 1468
386 3029 1915
406 3091 2493
436 3176 3065
471 3258 3516
508 3312 3828
536 3345 4035
400 3397 1239
407 3409 1400
417 3429 1687
433 3469 2150
462 3549 2728
500 3631 3268
541 3689 3681
574 3729 3965
699 3763 4085
439 3704 1397
445 3720 1563
455 3746 1852
475 3797 2319
511 3868 2881
555 3931 3399
590 3980 3793
785 4028 3997
1040 4061 4089
666 97 164
670 90 262
674 78 437
619 108 827
573 161 1526
586 211 2113
600 258 2604
617 294 2942
634 322 3160
685 214 171
684 215 280
691 203 451
635 238 850
580 284 1565
594 338 2143
606 388 2628
626 434 2963
642 483 3187
722 409 163
724 418 286
729 439 489
666 470 897
600 506 1624
611 572 2191
623 666 2664
635 755 2991
627 828 3252
740 891 252
737 900 375
723 918 595
604 983 1065
594 1033 1670
626 1140 2281
650 1232 2799
667 1277 3174
589 1342 3458
541 1660 526
541 1670 667
542 1686 912
543 1716 1341
552 1793 1914
580 1876 2564
603 1951 3071
622 2001 3409
644 2045 3629
583 2390 783
586 2401 930
590 2420 1193
599 2452 1646
615 2514 2220
640 2594 2842
678 2680 3351
717 2742 3674
746 2782 3886
627 3004 1065
631 3015 1222
639 3034 1491
656 3066 1953
684 3134 2539
727 3226 3111
772 3300 3565
813 3348 3879
840 3378 4074
674 3430 1280
682 3445 1441
697 3473 1717
719 3518 2190
758 3597 2772
806 3671 3309
847 3724 3721
969 3771 3993
1118 3809 4087
722 3746 1445
730 3764 1610
745 3794 1887
772 3840 2352
813 3904 2913
859 3964 3428
906 4013 3822
1208 4071 3999
1452 4076 4091
1242 193 304
1247 196 414
1256 191 585
1234 153 841
1175 215 1453
1175 247 2211
1189 306 2848
1213 360 3188
1231 394 3394
1257 310 308
1259 313 418
1264 316 600
1255 283 863
1195 340 1483
1194 377 2254
1206 442 2887
1229 498 3221
1240 531 3430
1294 462 274
1301 498 413
1303 529 622
1323 525 926
1245 564 1551
1235 614 2352
1249 692 2979
1259 741 3291
1254 775 3528
1413 882 289
1423 877 413
1430 891 624
1453 978 1038
1376 1058 1703
1312 1106 2571
1312 1184 3115
1305 1246 3441
1193 1376 3758
1474 1703 410
1479 1713 537
1476 1725 776
1454 1757 1282
1335 1856 2028
1285 1925 2719
1302 2002 3242
1211 2091 3623
1102 2143 3876
1153 2486 822
1154 2493 990
1159 2517 1259
1136 2557 1718
1081 2613 2367
1052 2694 2996
1090 2772 3490
1135 2824 3809
1177 2860 4025
990 3063 1131
998 3079 1289
1013 3105 1554
1035 3149 2010
1081 3227 2654
1135 3311 3213
1186 3373 3674
1259 3418 3975
1452 3464 4086
1060 3509 1357
1069 3526 1520
1087 3556 1793
1113 3604 2254
1160 3672 2851
1211 3737 3376
1255 3787 3789
1542 3849 3998
1756 3888 4090
1114 3827 1524
1124 3841 1690
1140 3867 1963
1167 3912 2407
1292 3977 2979
1501 4049 3501
1654 4078 3864
1818 4081 4003
2071 4081 4093
1913 321 472
1930 325 584
1956 333 771
1959 333 1060
1876 288 1431
1853 327 2084
1870 383 2715
1908 440 3258
1931 471 3605
1933 433 473
1941 441 587
1967 450 775
1968 457 1075
1900 423 1452
1879 464 2123
1892 525 2752
1923 578 3294
1949 607 3653
1980 577 425
1990 610 563
2003 660 787
2005 680 1106
1975 671 1514
1941 727 2214
1950 790 2855
1959 818 3372
1998 850 3776
2117 944 400
2138 947 521
2162 970 723
2154 1089 1165
2171 1155 1715
2087 1213 2393
2083 1232 3074
2077 1258 3589
2085 1303 3908
2334 1724 358
2365 1729 485
2398 1737 706
2374 1738 1211
2383 1840 1934
2302 1908 2655
2231 1899 3435
2210 2007 3820
2201 2080 4069
2430 2512 550
2428 2541 693
2397 2574 990
2367 2569 1533
2304 2642 2263
2184 2755 3082
2152 2851 3620
2178 2919 3976
2228 2957 4087
2170 3159 914
2165 3170 1100
2176 3190 1418
2163 3225 1955
2017 3322 2725
1878 3429 3393
1935 3495 3835
2115 3543 4000
2298 3568 4092
2122 3572 1261
2125 3589 1437
2140 3623 1744
2134 3684 2283
1892 3775 2944
1658 3823 3465
1794 3885 3861
2319 3950 4004
2513 3966 4093
2365 3888 1435
2354 3905 1632
2327 3941 1961
2244 4005 2493
2174 4071 3095
2307 4080 3601
2459 4085 3866
2581 4087 4004
2752 4085 4092
2445 423 592
2464 423 703
2499 430 894
2509 449 1200
2490 440 1610
2458 415 2155
2495 493 2722
2518 542 3149
2538 562 3453
2471 511 559
2483 544 698
2517 564 899
2547 590 1214
2544 594 1660
2485 555 2185
2517 631 2748
2537 676 3175
2561 698 3489
2532 651 494
2542 685 632
2561 753 867
2614 830 1239
2613 844 1739
2545 803 2247
2569 878 2815
2582 906 3233
2619 929 3579
2701 1008 478
2722 1018 601
2748 1039 806
2754 1170 1251
2747 1279 1897
2687 1245 2383
2687 1298 2988
2695 1310 3433
2745 1358 3853
2902 1687 420
2922 1693 550
2940 1704 786
2907 1734 1321
2918 1926 2108
2919 1914 2644
2859 1956 3248
2880 2010 3719
2894 2077 4035
3029 2510 451
3032 2531 588
3030 2574 865
3006 2563 1453
3028 2624 2254
3070 2713 2917
3020 2793 3456
3006 2838 3897
3017 2900 4082
3018 3169 817
3013 3174 1001
3016 3188 1308
3039 3243 1842
3042 3303 2563
3058 3392 3199
3033 3491 3753
3044 3558 3986
3067 3596 4090
3072 3600 1115
3072 3620 1306
3086 3653 1619
3110 3703 2139
3121 3766 2790
3057 3867 3441
2816 3977 3865
3051 3985 4002
3140 3984 4092
3164 3930 1359
3170 3953 1561
3182 3983 1890
3194 4027 2413
3192 4065 3035
3117 4079 3603
3125 4086 3864
3183 4088 4003
3269 4087 4093
2800 471 669
2809 472 780
2826 480 968
2840 503 1283
2850 506 1737
2871 467 2269
2889 548 2802
2921 577 3178
2937 602 3456
2827 555 630
2836 592 769
2857 620 977
2884 645 1299
2888 650 1782
2898 611 2298
2911 686 2831
2939 714 3207
2957 737 3492
2906 696 559
2915 732 699
2934 807 945
2973 885 1337
2963 901 1870
2959 862 2358
2956 918 2891
2978 942 3269
3005 964 3572
3071 1025 518
3081 1035 641
3090 1065 858
3090 1258 1383
3100 1343 2029
3109 1291 2503
3064 1323 3052
3076 1348 3434
3133 1387 3809
3228 1705 507
3230 1708 643
3224 1725 921
3194 1791 1480
3234 2012 2235
3303 1989 2766
3257 1988 3336
3260 2041 3700
3276 2118 3981
3336 2527 551
3337 2555 710
3324 2541 1061
3328 2575 1635
3367 2675 2414
3427 2773 3043
3427 2851 3560
3399 2881 3880
3396 2910 4069
3377 3212 869
3382 3217 1053
3410 3241 1378
3434 3306 1929
3441 3380 2636
3488 3446 3260
3534 3494 3723
3489 3532 3972
3486 3574 4085
3425 3662 1274
3442 3681 1459
3464 3713 1772
3480 3765 2296
3501 3820 2922
3533 3879 3471
3552 3935 3841
3526 3978 3992
3532 3985 4093
3510 3991 1523
3521 4007 1714
3534 4035 2033
3553 4062 2530
3581 4069 3117
3598 4077 3636
3593 4084 3862
3571 4090 4003
3617 4089 4094
3077 502 722
3082 510 838
3089 519 1027
3098 537 1353
3089 536 1830
3155 486 2385
3160 563 2894
3184 599 3247
3208 626 3511
3093 581 676
3101 616 816
3112 645 1029
3125 663 1360
3114 666 1860
3185 623 2415
3184 699 2932
3205 737 3293
3226 763 3549
3157 716 600
3163 749 741
3175 822 995
3186 890 1386
3180 903 1936
3252 850 2476
3239 927 3029
3254 969 3396
3271 1000 3637
3277 1086 600
3281 1094 719
3286 1127 939
3290 1337 1497
3321 1398 2115
3384 1334 2614
3370 1327 3252
3378 1381 3615
3392 1433 3835
3394 1761 654
3392 1770 812
3381 1781 1115
3393 1856 1584
3452 2079 2328
3526 2077 2880
3510 2043 3394
3525 2115 3789
3525 2187 3995
3503 2572 765
3503 2563 950
3506 2575 1265
3540 2633 1801
3583 2773 2567
3641 2848 3163
3664 2914 3645
3650 2939 3948
3641 2958 4067
3590 3244 1025
3612 3263 1216
3636 3301 1545
3650 3363 2050
3682 3430 2726
3718 3492 3355
3747 3538 3802
3747 3574 3979
3737 3592 4080
3670 3712 1397
3681 3733 1593
3686 3768 1909
3700 3819 2395
3731 3872 2988
3763 3925 3521
3791 3969 3846
3811 3981 3990
3799 3984 4090
3721 4040 1690
3729 4057 1889
3738 4062 2201
3758 4067 2669
3784 4074 3220
3809 4081 3662
3829 4086 3868
3841 4089 4005
3846 4090 4094
