滤镜资源/Professional Luts Collection/Triune-Digital-Cinematic-LUTs/3D LUTs (3DL)/REDLOGFILM/Alien - REDlogFilm.3dl
# Created by Benjamin (IWLTBAP) : http://luts.iwltbap.com
# Copyright: (C) Copyright 2016 Triune Films and IWLTBAP
# Blockbuster LUTs Pack
0 256 512 768 1023
6 12 52
8 28 367
8 139 1241
18 277 2354
20 403 2928
7 396 142
6 408 451
0 552 1343
15 733 2437
22 842 3056
8 1583 506
9 1605 879
18 1737 1807
56 1883 2964
82 1959 3530
78 2953 1013
89 2976 1460
122 3068 2474
186 3230 3489
242 3326 4008
154 3678 1371
169 3713 1845
222 3843 2862
289 3960 3773
673 4030 4088
281 30 72
276 48 406
251 148 1357
279 252 2451
291 384 2995
299 405 135
279 423 479
266 529 1413
286 703 2492
301 828 3135
249 1610 512
253 1628 898
284 1755 1837
334 1906 2994
363 1989 3555
360 2973 1029
372 2998 1468
406 3091 2493
471 3258 3516
536 3345 4035
439 3704 1397
455 3746 1852
511 3868 2881
590 3980 3793
1040 4061 4089
1242 193 304
1256 191 585
1175 215 1453
1189 306 2848
1231 394 3394
1294 462 274
1303 529 622
1245 564 1551
1249 692 2979
1254 775 3528
1474 1703 410
1476 1725 776
1335 1856 2028
1302 2002 3242
1102 2143 3876
990 3063 1131
1013 3105 1554
1081 3227 2654
1186 3373 3674
1452 3464 4086
1114 3827 1524
1140 3867 1963
1292 3977 2979
1654 4078 3864
2071 4081 4093
2445 423 592
2499 430 894
2490 440 1610
2495 493 2722
2538 562 3453
2532 651 494
2561 753 867
2613 844 1739
2569 878 2815
2619 929 3579
2902 1687 420
2940 1704 786
2918 1926 2108
2859 1956 3248
2894 2077 4035
3018 3169 817
3016 3188 1308
3042 3303 2563
3033 3491 3753
3067 3596 4090
3164 3930 1359
3182 3983 1890
3192 4065 3035
3125 4086 3864
3269 4087 4093
3077 502 722
3089 519 1027
3089 536 1830
3160 563 2894
3208 626 3511
3157 716 600
3175 822 995
3180 903 1936
3239 927 3029
3271 1000 3637
3394 1761 654
3381 1781 1115
3452 2079 2328
3510 2043 3394
3525 2187 3995
3590 3244 1025
3636 3301 1545
3682 3430 2726
3747 3538 3802
3737 3592 4080
3721 4040 1690
3738 4062 2201
3784 4074 3220
3829 4086 3868
3846 4090 4094
