滤镜资源/Professional Luts Collection/Triune-Digital-Cinematic-LUTs/3D LUTs (3DL)/REDLOGFILM/Alien - REDlogFilm.3dl
# Created by Benjamin (IWLTBAP) : http://luts.iwltbap.com
# Copyright: (C) Copyright 2016 Triune Films and IWLTBAP
# Blockbuster LUTs Pack
0 64 128 192 256 320 384 448 512 576 640 704 768 832 896 960 1023
6 12 52
6 14 103
7 16 165
8 20 250
8 28 367
8 42 518
7 61 712
7 90 960
8 139 1241
11 178 1543
14 204 1840
16 235 2114
18 277 2354
18 313 2541
18 347 2697
19 377 2823
20 403 2928
7 75 66
7 76 116
7 78 181
8 82 269
8 89 384
8 100 534
7 118 724
7 148 972
8 201 1250
11 243 1551
14 270 1849
16 305 2124
17 347 2360
17 383 2545
17 419 2700
18 449 2830
20 474 2942
7 151 83
8 153 133
8 154 197
8 157 287
7 163 402
7 173 551
7 192 741
7 225 990
8 280 1266
11 326 1564
13 358 1863
15 393 2136
15 437 2367
16 475 2551
17 509 2712
19 539 2848
21 561 2965
8 255 108
8 256 157
8 258 220
7 261 305
6 266 423
6 277 575
6 297 769
6 333 1021
3 393 1297
8 443 1591
12 474 1887
13 514 2154
14 561 2385
16 599 2575
18 633 2742
20 659 2883
22 679 3003
7 396 142
6 398 193
6 399 255
6 402 337
6 408 451
6 420 611
5 444 817
1 491 1073
0 552 1343
1 606 1636
4 645 1928
12 690 2196
15 733 2437
17 770 2629
19 801 2799
21 824 2940
22 842 3056
6 590 193
6 592 244
6 593 307
6 597 392
6 606 506
4 623 667
1 656 886
0 706 1142
0 762 1417
0 814 1721
0 864 2020
6 914 2291
15 957 2526
18 992 2714
19 1020 2882
20 1041 3018
21 1057 3133
5 852 268
5 853 323
5 856 390
5 862 479
5 875 598
1 896 759
0 927 971
0 975 1238
0 1028 1534
1 1085 1846
7 1141 2140
14 1190 2404
18 1230 2640
21 1260 2827
23 1284 2992
25 1300 3130
29 1308 3248
5 1196 372
5 1199 432
5 1203 506
4 1210 602
4 1222 728
4 1239 892
4 1266 1098
5 1310 1361
8 1367 1669
14 1427 1993
19 1474 2290
22 1513 2555
28 1545 2791
34 1568 2980
41 1587 3148
49 1600 3286
55 1613 3393
8 1583 506
8 1585 570
8 1588 649
8 1593 750
9 1605 879
10 1625 1046
12 1654 1254
14 1693 1511
18 1737 1807
25 1782 2138
35 1820 2450
46 1853 2728
56 1883 2964
64 1907 3149
71 1926 3310
77 1943 3434
82 1959 3530
16 1982 647
16 1985 712
16 1989 795
16 1995 901
17 2005 1037
19 2022 1211
24 2045 1426
31 2075 1684
42 2108 1970
54 2144 2289
64 2182 2603
74 2220 2884
84 2257 3124
93 2281 3311
101 2303 3462
110 2327 3576
118 2350 3665
40 2332 775
41 2336 844
41 2341 932
42 2347 1044
45 2357 1188
49 2373 1369
56 2394 1590
63 2423 1851
70 2456 2141
78 2493 2451
89 2534 2752
101 2574 3027
114 2610 3258
126 2640 3434
139 2668 3582
150 2694 3701
160 2715 3794
63 2659 894
64 2662 965
66 2666 1056
67 2673 1174
69 2683 1323
73 2698 1513
79 2718 1745
86 2746 2021
95 2779 2317
106 2817 2621
117 2856 2902
132 2896 3156
150 2935 3380
165 2968 3553
180 2999 3699
193 3022 3815
203 3041 3908
78 2953 1013
80 2957 1087
82 2961 1180
85 2967 1303
89 2976 1460
96 2990 1658
103 3009 1900
112 3034 2181
122 3068 2474
135 3107 2771
150 3147 3040
168 3189 3278
186 3230 3489
203 3263 3656
219 3290 3799
232 3311 3915
242 3326 4008
97 3182 1122
100 3186 1196
103 3190 1292
107 3196 1417
112 3205 1576
117 3219 1779
125 3238 2022
135 3267 2303
149 3304 2596
164 3346 2889
181 3389 3149
199 3430 3378
218 3467 3577
235 3494 3736
250 3516 3877
262 3534 3991
272 3548 4078
117 3379 1219
120 3383 1295
123 3389 1389
127 3395 1515
132 3405 1680
138 3419 1884
147 3442 2132
159 3476 2413
175 3518 2703
193 3563 2991
210 3604 3245
229 3639 3464
247 3669 3656
263 3692 3808
276 3711 3943
331 3727 4041
371 3741 4085
137 3540 1300
139 3544 1375
143 3550 1472
146 3557 1602
151 3569 1768
158 3589 1977
168 3616 2225
182 3655 2507
200 3699 2791
218 3740 3073
237 3773 3320
254 3803 3534
271 3829 3720
284 3849 3863
357 3867 3992
403 3879 4045
538 3901 4086
154 3678 1371
157 3684 1447
160 3691 1546
164 3699 1677
169 3713 1845
177 3735 2056
187 3765 2304
203 3803 2581
222 3843 2862
241 3879 3139
258 3909 3380
274 3936 3590
289 3960 3773
301 3979 3912
416 3998 3996
587 4020 4047
673 4030 4088
49 14 55
48 16 108
48 18 176
48 23 265
48 31 378
49 44 527
47 63 722
46 93 973
48 140 1252
51 176 1555
53 199 1853
56 230 2125
58 271 2365
58 310 2551
59 346 2706
59 374 2831
60 400 2935
50 76 64
49 78 121
49 80 186
49 84 274
49 91 389
49 102 538
47 119 731
47 151 981
48 200 1259
51 237 1562
54 262 1860
56 297 2132
57 340 2370
58 378 2555
58 414 2709
58 445 2837
60 470 2946
49 153 84
48 155 137
48 156 203
48 159 292
48 165 407
47 175 556
47 193 748
47 227 998
48 279 1273
51 319 1575
54 349 1874
55 386 2146
56 429 2380
56 467 2562
57 504 2721
59 534 2855
60 558 2971
47 257 109
47 258 162
47 260 225
46 263 310
45 268 428
45 279 580
46 298 776
46 335 1027
45 392 1302
50 438 1599
52 467 1898
53 507 2165
54 553 2395
56 592 2582
58 626 2748
60 654 2889
61 675 3010
46 399 144
45 400 196
45 402 258
45 405 340
45 410 455
45 422 616
44 447 824
41 494 1079
40 553 1350
42 600 1646
47 638 1937
52 683 2204
55 726 2445
57 763 2635
59 794 2806
61 819 2949
62 838 3068
45 593 194
45 594 246
45 596 310
45 600 394
45 608 509
43 625 671
40 659 892
39 709 1147
39 763 1423
39 814 1728
40 863 2027
48 912 2298
55 955 2534
57 990 2723
58 1018 2891
59 1039 3028
60 1056 3143
44 857 269
44 857 324
44 860 392
44 865 481
43 878 601
40 898 763
39 929 975
39 977 1242
39 1029 1538
40 1086 1852
46 1142 2147
53 1191 2412
57 1231 2647
61 1261 2834
65 1284 2999
71 1301 3137
76 1310 3255
44 1199 373
44 1202 433
43 1206 507
43 1213 604
43 1224 730
43 1241 895
43 1268 1101
44 1312 1364
47 1369 1673
53 1429 1997
59 1476 2293
66 1515 2560
75 1547 2795
83 1571 2984
90 1590 3152
97 1604 3289
103 1616 3396
47 1587 506
47 1589 571
47 1592 650
47 1596 751
48 1607 881
49 1627 1048
51 1656 1256
53 1694 1514
58 1739 1810
70 1784 2141
83 1822 2453
94 1855 2731
104 1887 2967
112 1911 3152
119 1929 3312
125 1947 3436
130 1964 3532
56 1985 646
56 1988 711
56 1992 794
57 1998 901
58 2008 1038
62 2024 1213
67 2047 1428
78 2077 1686
91 2110 1973
102 2146 2292
112 2184 2606
122 2223 2888
132 2260 3127
141 2284 3314
150 2306 3465
159 2331 3579
167 2354 3668
90 2335 773
90 2339 842
91 2344 929
92 2350 1043
94 2360 1188
98 2375 1370
104 2397 1591
111 2426 1853
118 2459 2143
126 2496 2454
137 2536 2755
149 2577 3030
163 2613 3261
175 2644 3438
188 2672 3587
200 2698 3705
210 2718 3798
111 2662 892
112 2666 963
113 2670 1053
115 2676 1173
117 2686 1324
121 2701 1514
127 2721 1747
134 2749 2024
144 2782 2319
154 2820 2624
166 2859 2905
182 2899 3160
199 2939 3384
214 2972 3557
229 3003 3703
241 3025 3819
251 3044 3912
127 2956 1015
128 2960 1088
130 2965 1180
133 2970 1303
138 2979 1461
144 2992 1660
151 3011 1902
160 3037 2182
171 3071 2476
184 3111 2774
199 3151 3043
217 3193 3282
235 3234 3492
252 3267 3660
267 3293 3803
280 3313 3918
291 3328 4012
146 3185 1124
148 3189 1197
151 3194 1291
155 3199 1416
160 3208 1576
166 3221 1780
173 3240 2024
184 3270 2306
198 3308 2599
214 3350 2892
230 3393 3153
248 3434 3382
266 3470 3580
283 3496 3740
298 3519 3880
310 3536 3994
320 3550 4080
166 3382 1220
169 3386 1295
172 3392 1389
176 3399 1515
181 3408 1680
188 3423 1885
196 3446 2134
209 3480 2417
225 3522 2707
243 3567 2994
259 3608 3248
278 3642 3468
296 3672 3659
311 3695 3812
324 3714 3947
385 3730 4041
426 3744 4085
186 3542 1301
188 3547 1377
192 3554 1472
196 3562 1601
201 3574 1768
208 3593 1978
218 3621 2228
232 3659 2509
249 3703 2794
268 3743 3076
286 3777 3323
303 3806 3537
319 3831 3723
332 3851 3866
410 3871 3993
456 3883 4045
595 3905 4086
203 3682 1374
206 3689 1449
210 3696 1547
213 3704 1678
218 3717 1846
226 3740 2057
237 3769 2306
252 3807 2584
271 3846 2865
290 3882 3142
307 3912 3382
323 3939 3593
337 3963 3776
350 3981 3914
470 4001 3996
647 4024 4047
733 4035 4088
102 17 58
101 19 111
100 22 178
99 26 275
98 34 395
98 47 541
96 65 737
95 97 992
96 142 1270
99 172 1575
102 194 1872
104 225 2141
107 267 2379
108 308 2564
108 343 2718
109 372 2842
111 397 2944
104 77 64
104 78 120
102 82 189
101 86 287
100 94 402
99 105 550
97 122 745
95 155 998
97 202 1275
100 233 1580
102 256 1878
105 291 2148
106 336 2385
107 376 2568
107 411 2722
109 442 2848
111 467 2955
104 154 80
104 155 136
102 157 207
102 161 296
101 167 412
99 177 561
97 195 757
97 230 1009
98 278 1286
101 311 1590
103 338 1889
105 377 2160
106 423 2393
106 462 2574
107 499 2730
110 531 2863
113 555 2977
100 260 110
99 261 163
99 263 230
97 266 316
95 271 434
95 281 586
96 300 783
96 337 1036
97 388 1311
100 429 1613
102 458 1912
103 498 2180
104 545 2410
105 585 2591
108 620 2755
114 650 2897
117 672 3019
94 401 146
94 403 198
94 404 263
93 408 345
93 413 461
93 425 624
92 449 832
90 497 1087
90 553 1358
94 593 1658
99 628 1951
101 672 2218
104 717 2454
107 756 2644
114 788 2816
117 814 2960
120 834 3082
92 597 196
92 598 248
92 600 314
93 604 398
92 612 513
90 629 677
87 662 900
87 713 1154
87 765 1431
87 814 1737
89 862 2036
99 909 2306
104 952 2543
108 986 2733
113 1014 2901
116 1037 3041
118 1054 3157
92 862 271
92 864 326
92 865 395
92 870 485
91 881 606
87 901 770
87 933 980
87 980 1247
87 1031 1545
87 1087 1860
93 1143 2156
101 1192 2421
109 1232 2657
117 1262 2844
123 1285 3011
129 1301 3149
135 1312 3265
92 1204 374
91 1207 434
91 1211 510
91 1217 608
91 1227 734
90 1243 899
90 1270 1105
91 1314 1369
94 1371 1679
102 1431 2003
113 1479 2299
124 1518 2566
133 1550 2802
141 1575 2990
148 1594 3158
155 1608 3294
161 1621 3401
95 1591 507
94 1594 571
94 1597 651
95 1600 753
96 1610 884
97 1629 1052
99 1659 1260
103 1697 1518
113 1742 1815
129 1787 2146
142 1825 2458
152 1858 2736
162 1890 2971
170 1915 3155
177 1934 3316
183 1951 3439
188 1968 3535
109 1988 645
110 1992 710
110 1996 792
110 2002 901
113 2011 1039
118 2027 1215
126 2050 1431
137 2079 1689
149 2113 1976
160 2149 2297
170 2187 2611
181 2227 2893
191 2264 3132
200 2289 3317
209 2311 3469
218 2336 3583
227 2359 3672
149 2338 771
149 2343 839
150 2347 926
151 2353 1041
153 2363 1189
156 2378 1371
162 2400 1593
169 2429 1856
176 2462 2146
185 2499 2458
196 2540 2759
209 2581 3035
222 2617 3266
235 2648 3443
248 2677 3592
260 2703 3710
269 2723 3803
169 2666 890
170 2671 960
171 2675 1050
173 2681 1171
176 2690 1324
180 2704 1515
186 2725 1749
193 2752 2027
203 2786 2322
213 2824 2627
226 2864 2908
242 2904 3164
259 2944 3389
274 2977 3562
288 3007 3709
300 3030 3824
311 3048 3917
186 2960 1017
187 2964 1089
189 2969 1181
192 2974 1303
197 2983 1462
204 2996 1661
211 3015 1904
220 3041 2185
231 3075 2478
244 3115 2778
260 3156 3047
277 3198 3287
295 3239 3497
311 3271 3665
327 3297 3808
340 3317 3923
350 3331 4016
205 3187 1127
207 3192 1199
210 3197 1292
214 3203 1415
220 3212 1577
226 3225 1781
233 3244 2026
244 3274 2309
258 3313 2603
274 3356 2897
290 3399 3158
307 3439 3386
326 3474 3585
343 3500 3745
357 3522 3885
369 3539 3998
379 3553 4081
225 3385 1223
228 3390 1296
232 3396 1389
236 3402 1515
241 3412 1681
248 3427 1887
257 3450 2136
269 3485 2421
285 3528 2711
303 3574 2998
320 3613 3253
337 3646 3472
355 3675 3664
370 3698 3816
384 3716 3950
450 3733 4042
493 3748 4085
246 3546 1305
249 3551 1379
252 3558 1474
256 3568 1601
261 3580 1769
269 3599 1980
278 3626 2231
292 3665 2514
309 3709 2798
328 3748 3079
346 3781 3327
363 3810 3541
378 3835 3727
395 3855 3871
476 3874 3993
523 3887 4045
668 3911 4087
263 3687 1378
266 3693 1453
270 3702 1548
274 3711 1678
279 3723 1847
287 3746 2059
297 3775 2308
312 3812 2587
331 3851 2868
350 3887 3144
367 3916 3386
382 3942 3597
399 3966 3780
417 3985 3918
539 4005 3996
720 4030 4047
807 4041 4088
173 22 63
173 23 116
171 26 183
168 32 277
166 39 406
163 52 569
160 72 768
158 106 1023
159 144 1305
162 167 1616
165 189 1906
171 220 2168
179 264 2400
183 305 2582
185 340 2738
187 369 2861
188 394 2961
178 80 68
177 82 123
176 84 191
172 90 286
168 97 415
164 109 574
161 127 774
159 162 1029
160 203 1308
163 227 1615
166 249 1908
172 285 2174
179 334 2407
182 374 2587
184 409 2740
186 440 2865
