滤镜资源/Professional Luts Collection/Triune-Digital-Cinematic-LUTs/3D LUTs (3DL)/REDLOGFILM/Gone Girl - REDlogFilm.3dl
# Created by Benjamin (IWLTBAP) : http://luts.iwltbap.com
# Copyright: (C) Copyright 2016 Triune Films and IWLTBAP
# Blockbuster LUTs Pack
0 128 256 384 512 640 768 896 1023
24 23 9
38 52 126
96 98 490
158 99 1031
394 156 1749
585 250 2359
755 298 2801
864 329 3121
934 352 3334
59 201 24
38 213 122
74 259 424
120 274 975
353 290 1717
562 353 2358
758 384 2835
866 412 3155
944 429 3377
77 606 77
68 593 191
67 601 449
99 643 999
285 652 1739
483 660 2373
665 680 2842
821 678 3192
923 679 3418
132 1230 236
130 1223 329
132 1240 558
149 1285 1076
267 1307 1840
416 1321 2441
580 1318 2915
672 1321 3233
739 1330 3410
251 2010 434
252 2019 508
256 2049 705
266 2106 1188
287 2139 1926
360 2181 2545
441 2208 3069
543 2206 3340
620 2204 3507
367 2700 629
370 2715 700
376 2749 886
393 2803 1332
409 2853 2031
434 2900 2631
477 2940 3165
517 2965 3450
545 2978 3653
462 3211 792
467 3233 866
476 3271 1039
493 3331 1462
508 3394 2131
527 3435 2715
545 3459 3221
578 3486 3501
589 3500 3726
526 3553 907
531 3574 979
540 3608 1150
552 3663 1559
571 3730 2194
589 3779 2774
603 3808 3268
629 3825 3545
654 3833 3768
566 3786 981
570 3805 1053
585 3832 1230
639 3856 1647
717 3887 2277
784 3910 2844
828 3928 3308
864 3939 3582
879 3946 3784
227 89 55
247 79 158
277 97 485
339 99 1036
557 161 1760
732 256 2376
901 302 2812
1010 332 3135
1079 355 3348
189 213 27
199 211 125
234 259 424
300 283 974
502 299 1718
702 360 2376
891 388 2844
1001 414 3169
1080 431 3389
194 608 83
199 589 194
203 597 449
240 645 998
414 650 1729
612 669 2384
811 689 2859
963 688 3211
1064 692 3433
198 1246 227
202 1235 333
210 1249 562
239 1286 1080
366 1304 1838
516 1323 2445
668 1323 2924
764 1328 3239
847 1340 3413
298 2026 436
302 2033 514
309 2061 709
323 2113 1194
344 2150 1934
425 2197 2555
519 2214 3074
627 2208 3341
697 2207 3512
415 2714 637
421 2730 709
426 2764 892
445 2820 1343
460 2876 2043
483 2919 2644
532 2954 3176
572 2979 3459
601 2990 3664
510 3242 801
516 3263 877
525 3299 1049
542 3357 1474
555 3415 2141
572 3454 2726
590 3475 3233
625 3502 3510
634 3515 3739
572 3581 916
578 3601 990
586 3635 1160
598 3688 1570
616 3752 2205
636 3798 2785
658 3821 3277
695 3832 3553
718 3840 3776
610 3811 990
619 3827 1066
653 3842 1253
706 3865 1669
783 3896 2295
848 3918 2859
893 3935 3319
928 3946 3593
942 3953 3793
880 278 220
887 267 315
793 181 546
758 107 1031
916 172 1773
1066 258 2403
1212 309 2828
1307 343 3149
1376 364 3363
645 336 135
655 332 236
616 306 460
650 280 969
829 304 1734
1017 356 2406
1181 395 2856
1289 419 3188
1368 435 3406
548 593 81
543 574 188
546 581 429
577 640 970
746 662 1739
935 689 2397
1114 700 2881
1252 695 3238
1346 700 3449
483 1241 199
474 1226 307
456 1231 552
447 1277 1066
586 1301 1823
737 1327 2445
930 1333 2930
1068 1346 3233
1156 1361 3412
426 2062 449
421 2065 525
429 2086 723
442 2140 1210
468 2178 1952
581 2209 2555
701 2211 3064
793 2209 3338
864 2211 3518
511 2764 661
513 2777 725
525 2808 911
544 2861 1369
561 2912 2062
585 2949 2665
640 2978 3195
704 2991 3466
744 2996 3668
601 3292 821
606 3311 892
615 3346 1070
629 3398 1496
642 3450 2159
654 3488 2746
675 3505 3253
716 3529 3525
727 3540 3757
655 3627 931
660 3647 1008
669 3679 1180
681 3730 1591
702 3790 2226
749 3818 2807
783 3833 3290
816 3843 3571
838 3851 3792
723 3835 1024
742 3844 1111
777 3857 1297
828 3880 1712
905 3910 2326
968 3931 2888
1014 3948 3338
1047 3958 3613
1058 3964 3810
2096 589 560
2032 565 611
1950 497 802
1778 328 1227
1669 214 1814
1742 286 2437
1828 337 2873
1889 369 3192
1933 392 3397
1726 607 417
1721 599 491
1688 580 698
1578 422 1129
1556 309 1776
1690 364 2446
1796 416 2901
1878 439 3237
1927 462 3440
1508 829 310
1502 813 381
1503 820 604
1434 757 1072
1444 666 1753
1580 694 2419
1742 693 2940
1843 699 3287
1901 718 3478
1352 1272 207
1336 1258 274
1313 1247 510
1283 1271 1028
1362 1306 1786
1487 1357 2431
1616 1378 2954
1698 1400 3257
1761 1416 3438
1278 2047 363
1261 2048 433
1239 2058 633
1161 2103 1154
1161 2127 1874
1280 2178 2504
1426 2198 3029
1533 2216 3310
1598 2231 3513
1243 2772 608
1218 2786 670
1161 2821 863
1057 2880 1357
982 2931 2056
1046 2949 2637
1186 2960 3147
1350 2962 3411
1419 2973 3629
1167 3353 823
1131 3376 889
1064 3416 1087
976 3464 1544
905 3523 2196
919 3556 2785
1016 3545 3263
1142 3547 3530
1242 3547 3749
1074 3739 983
1042 3762 1058
1033 3777 1264
1009 3799 1708
1024 3828 2305
1077 3846 2876
1130 3860 3335
1182 3868 3605
1261 3875 3816
1220 3873 1189
1221 3881 1271
1226 3893 1459
1221 3914 1863
1233 3942 2420
1293 3961 2969
1358 3976 3393
1418 3986 3655
1480 3991 3846
3071 943 879
3053 940 926
3050 924 1079
2904 759 1513
2726 534 2069
2590 411 2524
2609 404 2936
2647 432 3250
2678 454 3445
2936 981 806
2895 973 848
2896 974 1015
2774 817 1446
2626 583 2037
2531 473 2522
2590 472 2981
2641 497 3296
2680 517 3489
2728 1180 660
2707 1164 707
2703 1173 884
2627 1108 1389
2490 859 1985
2454 719 2516
2554 695 3035
2612 713 3346
2678 716 3545
2507 1606 522
2499 1593 568
2496 1594 742
2445 1607 1301
2362 1495 1947
2318 1410 2466
2401 1421 2992
2459 1435 3288
2508 1444 3474
2275 2175 401
2262 2172 460
2243 2173 621
2169 2178 1166
2195 2195 1909
2244 2236 2505
2336 2269 3045
2409 2288 3329
2444 2301 3547
2237 2834 564
2226 2843 623
2196 2867 781
2169 2890 1314
2172 2911 2009
2201 2927 2581
2275 2966 3109
2352 2990 3393
2375 3006 3631
2223 3368 750
2206 3384 807
2179 3409 971
2164 3434 1461
2177 3460 2117
2197 3472 2694
2237 3471 3161
2288 3501 3453
2305 3520 3690
2196 3720 871
2180 3740 929
2171 3762 1102
2184 3782 1569
2200 3818 2215
2213 3832 2793
2260 3827 3241
2291 3828 3522
2303 3843 3754
2236 3910 981
2230 3923 1043
2233 3939 1236
2248 3959 1687
2289 3990 2323
2313 4006 2892
2353 4015 3319
2372 4022 3619
2380 4023 3831
3690 1216 1111
3687 1215 1154
3700 1229 1282
3606 1076 1704
3493 830 2289
3389 672 2730
3340 565 3065
3327 513 3301
3334 500 3466
3664 1261 1080
3656 1260 1121
3667 1272 1242
3583 1140 1680
3479 885 2294
3386 727 2750
3345 616 3103
3340 563 3344
3355 558 3512
3606 1442 982
3603 1433 1029
3613 1448 1154
3560 1379 1663
3449 1104 2284
3377 913 2763
3367 762 3166
3386 698 3428
3407 702 3591
3450 1880 819
3452 1873 863
3476 1882 963
3452 1900 1565
3384 1783 2228
3273 1620 2680
3237 1484 3082
3235 1440 3319
3261 1439 3510
3304 2450 679
3304 2451 718
3309 2460 805
3248 2464 1406
3239 2477 2149
3196 2432 2681
3147 2322 3080
3177 2309 3329
3202 2316 3553
3164 2950 597
3149 2952 653
3116 2958 784
3064 2960 1334
3042 2964 2033
3057 2987 2637
3088 3005 3113
3142 3022 3405
3169 3037 3642
3078 3398 706
3068 3410 762
3052 3429 898
3015 3451 1421
3013 3468 2090
3022 3484 2691
3056 3485 3138
3098 3515 3447
3126 3532 3684
3067 3743 839
3063 3754 898
3055 3771 1054
3045 3789 1551
3054 3813 2188
3067 3823 2802
3098 3826 3225
3116 3826 3516
3136 3836 3745
3117 3918 962
3113 3929 1020
3108 3946 1197
3106 3968 1662
3128 4003 2283
3153 4018 2905
3192 4022 3317
3203 4023 3628
3209 4020 3835
3926 1395 1325
3927 1400 1368
3929 1418 1476
3889 1288 1865
3825 1069 2420
3777 918 2856
3741 802 3173
3720 733 3351
3710 711 3480
3926 1458 1300
3924 1461 1341
3926 1475 1445
3891 1359 1854
3824 1129 2426
3775 972 2872
3739 852 3195
3720 786 3377
3711 772 3507
3902 1625 1193
3902 1619 1239
3907 1633 1349
3887 1572 1828
3830 1304 2434
3781 1123 2900
3744 990 3233
3726 930 3419
3719 917 3549
3823 2047 998
3826 2043 1041
3837 2053 1134
3824 2072 1731
3787 1955 2395
3741 1787 2846
3719 1629 3217
3715 1560 3419
3720 1524 3579
3754 2611 854
3759 2615 893
3772 2628 976
3750 2638 1586
3736 2661 2329
3712 2608 2869
3671 2470 3210
3668 2412 3410
3671 2364 3598
3729 3114 756
3726 3118 807
3717 3126 924
3691 3130 1502
3667 3142 2201
3663 3152 2803
3663 3137 3230
3666 3091 3451
3672 3056 3647
3675 3459 768
3669 3467 820
3658 3478 945
3625 3488 1467
3603 3503 2121
3592 3507 2729
3611 3517 3175
3625 3535 3472
3636 3538 3694
3644 3757 833
3644 3768 891
3642 3781 1030
3631 3795 1528
3623 3817 2173
3620 3823 2790
3636 3830 3215
3643 3830 3524
3653 3837 3746
3687 3939 949
3689 3949 1007
3690 3964 1168
3691 3984 1635
3701 4015 2276
3706 4022 2899
3724 4028 3318
3725 4025 3642
3724 4020 3845
3995 1519 1425
3995 1523 1467
3998 1540 1570
3977 1439 1933
3934 1215 2497
3906 1078 2916
3885 969 3221
3873 902 3392
3867 868 3509
3996 1580 1416
3996 1584 1460
3998 1599 1560
3980 1509 1939
3938 1277 2517
3911 1140 2938
3891 1025 3246
3880 961 3420
3875 929 3537
3996 1738 1359
3996 1735 1409
3998 1751 1515
3989 1693 1953
3948 1433 2547
3921 1282 2974
3900 1156 3285
3890 1095 3460
3884 1064 3578
3987 2160 1113
3987 2158 1157
3988 2168 1249
3984 2187 1841
3965 2076 2496
3941 1903 2951
3923 1754 3292
3913 1691 3469
3907 1642 3614
3948 2719 937
3951 2724 974
3957 2736 1059
3941 2745 1691
3933 2773 2434
3925 2721 2977
3906 2583 3299
3898 2512 3487
3895 2448 3654
3941 3199 875
3940 3203 923
3937 3210 1043
3918 3216 1620
3903 3234 2309
3899 3246 2923
3897 3237 3315
3888 3178 3523
3887 3129 3693
3913 3526 880
3911 3534 933
3905 3546 1059
3887 3561 1565
3870 3583 2223
3869 3591 2832
3877 3599 3257
3879 3597 3549
3875 3584 3740
3890 3801 926
3890 3810 979
3889 3822 1108
3885 3837 1599
3877 3858 2223
3872 3859 2833
3874 3866 3257
3885 3863 3575
3890 3863 3791
3916 3974 1005
3920 3984 1062
3925 3997 1216
3934 4015 1693
3938 4047 2312
3940 4049 2926
3945 4056 3353
3954 4049 3680
3953 4044 3888
4041 1602 1496
4042 1607 1539
4045 1624 1638
4032 1528 2000
4005 1308 2556
3988 1177 2965
3975 1071 3256
3967 1003 3428
3964 973 3538
4043 1661 1492
4043 1667 1535
4046 1682 1631
4036 1592 2013
4009 1368 2577
3993 1236 2988
3982 1127 3282
3976 1061 3455
3973 1034 3565
4046 1814 1434
4046 1814 1482
4048 1830 1582
4045 1770 2030
4022 1527 2600
4007 1383 3020
3996 1261 3318
3990 1196 3495
3987 1167 3609
4051 2231 1202
4052 2233 1246
4053 2244 1331
4054 2263 1925
4043 2161 2559
4032 1990 3011
4022 1845 3335
4018 1787 3502
4015 1736 3648
4052 2790 1009
4054 2794 1051
4055 2805 1152
4041 2814 1780
4026 2847 2512
4035 2795 3051
4022 2663 3351
4014 2591 3539
4030 2518 3716
4042 3243 949
4042 3247 1000
4039 3254 1131
4028 3264 1698
4014 3288 2392
4020 3306 3005
4013 3299 3374
4013 3241 3588
4021 3190 3758
4016 3561 962
4014 3569 1014
4008 3581 1135
3998 3602 1632
3993 3633 2300
4004 3649 2904
4003 3664 3317
4011 3658 3617
4010 3639 3804
4002 3834 998
4003 3842 1050
4003 3855 1178
4002 3873 1657
4010 3902 2299
4015 3913 2908
4025 3920 3335
4034 3917 3648
4032 3911 3855
4031 4005 1068
4035 4014 1126
4040 4025 1288
4050 4043 1760
4053 4062 2469
4065 4070 3049
4074 4075 3479
4086 4078 3739
4085 4076 3924
