滤镜资源/Professional Luts Collection/Triune-Digital-Cinematic-LUTs/3D LUTs (3DL)/REDLOGFILM/Gone Girl - REDlogFilm.3dl
# Created by Benjamin (IWLTBAP) : http://luts.iwltbap.com
# Copyright: (C) Copyright 2016 Triune Films and IWLTBAP
# Blockbuster LUTs Pack
0 64 128 192 256 320 384 448 512 576 640 704 768 832 896 960 1023
24 23 9
30 35 51
38 52 126
59 74 273
96 98 490
121 94 750
158 99 1031
262 134 1366
394 156 1749
494 206 2087
585 250 2359
672 279 2592
755 298 2801
815 314 2972
864 329 3121
905 340 3241
934 352 3334
41 97 15
36 103 52
38 121 120
54 141 252
84 172 449
110 178 712
140 180 1000
249 203 1345
385 214 1735
481 259 2072
578 298 2359
671 321 2600
757 336 2816
817 351 2988
865 366 3135
906 377 3256
937 387 3351
59 201 24
50 205 60
38 213 122
52 230 244
74 259 424
98 272 681
120 274 975
224 287 1323
353 290 1717
456 321 2061
562 353 2358
671 371 2614
758 384 2835
810 403 3002
866 412 3155
910 421 3278
944 429 3377
68 371 40
55 370 81
50 366 149
50 368 253
64 394 428
76 414 685
101 417 977
197 427 1326
316 420 1717
428 430 2067
536 445 2373
649 458 2632
737 473 2850
797 489 3024
866 490 3188
918 495 3316
956 501 3415
77 606 77
73 599 129
68 593 191
69 591 289
67 601 449
73 629 702
99 643 999
179 657 1362
285 652 1739
400 648 2080
483 660 2373
573 672 2623
665 680 2842
746 681 3027
821 678 3192
886 673 3328
923 679 3418
93 889 155
91 881 205
90 876 261
89 878 353
89 890 504
91 913 736
103 940 1034
169 954 1409
263 952 1787
370 946 2113
452 953 2394
532 961 2641
602 963 2864
663 964 3041
730 964 3190
786 967 3302
827 972 3386
132 1230 236
131 1227 278
130 1223 329
130 1228 413
132 1240 558
135 1262 787
149 1285 1076
191 1305 1451
267 1307 1840
339 1315 2166
416 1321 2441
512 1319 2685
580 1318 2915
626 1320 3089
672 1321 3233
708 1326 3333
739 1330 3410
191 1620 332
191 1620 369
191 1621 414
191 1629 492
194 1645 627
198 1672 842
206 1698 1127
221 1715 1493
254 1736 1882
305 1750 2215
365 1762 2491
432 1770 2754
515 1761 2982
575 1756 3140
618 1758 3270
648 1764 3366
671 1769 3443
251 2010 434
251 2014 467
252 2019 508
253 2030 580
256 2049 705
261 2078 913
266 2106 1188
273 2123 1545
287 2139 1926
321 2159 2255
360 2181 2545
398 2199 2825
441 2208 3069
494 2206 3223
543 2206 3340
586 2205 3428
620 2204 3507
309 2377 538
310 2383 569
311 2390 608
314 2403 677
318 2425 795
327 2454 992
334 2484 1257
339 2506 1606
351 2523 1980
364 2547 2302
391 2575 2597
422 2594 2881
455 2608 3126
479 2619 3290
501 2629 3415
522 2637 3512
554 2633 3600
367 2700 629
368 2706 660
370 2715 700
372 2729 770
376 2749 886
386 2777 1069
393 2803 1332
398 2828 1666
409 2853 2031
421 2876 2349
434 2900 2631
455 2922 2915
477 2940 3165
499 2953 3328
517 2965 3450
532 2974 3554
545 2978 3653
418 2980 713
420 2988 745
422 2998 786
425 3013 855
429 3032 968
439 3060 1146
447 3086 1399
451 3115 1729
458 3146 2081
471 3169 2391
483 3186 2671
494 3200 2950
510 3220 3193
529 3234 3356
545 3246 3479
558 3253 3590
576 3254 3688
462 3211 792
465 3221 824
467 3233 866
471 3249 932
476 3271 1039
486 3301 1215
493 3331 1462
500 3362 1790
508 3394 2131
515 3419 2433
527 3435 2715
534 3446 2990
545 3459 3221
562 3474 3379
578 3486 3501
583 3494 3623
589 3500 3726
497 3395 854
499 3404 884
501 3416 927
505 3432 992
511 3453 1097
519 3482 1271
526 3511 1513
533 3544 1833
544 3578 2165
552 3608 2462
560 3628 2750
566 3640 3023
574 3651 3247
583 3663 3403
597 3675 3526
604 3682 3650
608 3688 3753
526 3553 907
528 3563 937
531 3574 979
535 3589 1045
540 3608 1150
547 3636 1322
552 3663 1559
558 3697 1868
571 3730 2194
581 3759 2487
589 3779 2774
595 3794 3046
603 3808 3268
611 3819 3422
629 3825 3545
643 3829 3667
654 3833 3768
549 3681 948
551 3690 977
553 3701 1020
556 3715 1085
561 3735 1191
567 3761 1360
574 3785 1596
582 3817 1899
619 3836 2227
659 3848 2519
685 3859 2803
703 3869 3070
724 3878 3286
745 3884 3437
760 3888 3562
769 3892 3677
780 3896 3775
566 3786 981
568 3794 1010
570 3805 1053
573 3819 1117
585 3832 1230
613 3844 1407
639 3856 1647
675 3871 1953
717 3887 2277
756 3900 2567
784 3910 2844
804 3920 3101
828 3928 3308
850 3935 3457
864 3939 3582
870 3943 3692
879 3946 3784
98 50 25
106 54 65
114 52 129
135 73 274
177 97 487
205 94 744
239 99 1038
335 135 1372
465 158 1754
556 210 2092
643 253 2366
732 281 2598
816 299 2806
876 315 2978
926 330 3128
966 342 3247
995 354 3341
95 106 17
98 108 54
107 120 120
126 141 252
160 174 450
194 183 709
226 186 1004
322 207 1355
449 217 1735
539 262 2075
634 301 2367
728 323 2607
815 337 2821
875 352 2994
923 367 3141
965 378 3262
996 388 3358
113 206 24
113 205 61
108 211 122
124 228 243
149 259 424
182 274 679
207 278 976
299 292 1334
423 295 1716
524 327 2064
622 358 2367
726 373 2621
813 386 2839
865 405 3007
922 413 3161
966 422 3285
1001 429 3383
125 372 41
124 367 82
121 361 148
122 364 252
138 391 429
156 413 683
183 418 978
267 429 1334
383 423 1716
492 433 2071
602 451 2381
709 464 2639
796 478 2857
855 493 3032
925 493 3196
976 497 3324
1014 503 3421
127 609 80
130 598 133
127 592 194
128 591 290
131 599 450
136 630 703
163 646 1001
240 657 1362
344 651 1734
453 648 2080
539 664 2377
632 677 2629
726 684 2850
804 685 3036
880 681 3200
945 677 3336
983 684 3425
127 898 153
128 890 201
127 885 257
127 887 350
127 898 503
134 917 737
155 942 1037
230 950 1401
321 947 1781
423 943 2111
497 955 2398
577 963 2645
653 966 2868
720 968 3044
785 969 3192
838 972 3304
880 978 3388
161 1239 232
162 1234 279
161 1230 330
161 1235 414
165 1247 559
175 1265 789
191 1286 1078
233 1305 1450
313 1305 1839
385 1313 2166
462 1322 2443
555 1321 2689
619 1321 2919
663 1323 3093
711 1324 3236
749 1330 3335
780 1334 3412
215 1627 331
217 1627 372
217 1628 418
218 1636 495
220 1652 629
228 1676 844
237 1701 1130
253 1717 1494
286 1738 1884
344 1751 2216
405 1766 2493
474 1771 2755
554 1763 2984
612 1758 3143
654 1760 3272
683 1766 3369
706 1772 3446
272 2017 435
274 2021 470
275 2025 511
276 2036 583
279 2056 706
285 2083 913
292 2110 1190
299 2125 1548
313 2143 1929
348 2167 2260
390 2188 2550
428 2206 2830
476 2211 3072
530 2209 3225
581 2207 3340
622 2206 3429
655 2205 3509
330 2383 540
333 2389 573
335 2396 612
337 2408 681
342 2429 799
351 2458 994
357 2488 1260
363 2512 1610
376 2532 1986
389 2557 2309
416 2583 2604
448 2601 2887
482 2614 3132
506 2624 3295
530 2634 3418
549 2642 3516
582 2638 3604
388 2705 632
391 2712 664
393 2721 704
395 2734 773
398 2755 889
408 2783 1072
417 2811 1337
421 2839 1672
432 2864 2037
443 2886 2355
456 2909 2637
477 2930 2921
502 2946 3170
525 2959 3332
542 2971 3454
557 2979 3559
569 2984 3658
440 2991 718
443 2999 750
445 3009 791
447 3023 860
452 3043 972
461 3071 1151
469 3097 1404
474 3126 1734
481 3156 2086
492 3178 2397
504 3194 2676
514 3208 2955
531 3228 3198
550 3241 3360
566 3253 3483
583 3259 3594
601 3260 3692
484 3225 796
487 3235 830
489 3247 871
493 3263 937
499 3284 1044
508 3314 1220
515 3343 1468
521 3373 1795
529 3403 2136
536 3428 2438
548 3443 2720
554 3454 2995
565 3466 3226
583 3481 3383
599 3493 3505
604 3501 3629
609 3507 3732
518 3408 858
520 3418 890
523 3430 932
527 3445 997
533 3465 1102
541 3495 1277
547 3522 1518
553 3555 1838
565 3589 2169
573 3618 2467
580 3637 2755
586 3648 3028
594 3659 3252
603 3671 3408
617 3682 3530
624 3689 3654
627 3696 3759
547 3566 912
550 3575 942
552 3586 984
556 3600 1049
561 3620 1155
568 3648 1327
573 3674 1564
578 3707 1873
591 3740 2199
601 3769 2492
610 3788 2779
616 3802 3051
624 3816 3272
640 3823 3425
659 3828 3549
673 3833 3670
683 3836 3771
569 3693 953
571 3702 982
574 3713 1024
576 3727 1090
581 3746 1196
587 3771 1366
595 3795 1601
608 3823 1905
649 3840 2234
689 3852 2527
714 3863 2810
732 3872 3076
754 3881 3291
775 3887 3441
789 3891 3567
798 3895 3681
809 3899 3779
586 3797 985
588 3806 1015
590 3816 1057
597 3828 1124
616 3837 1241
643 3848 1418
669 3860 1657
705 3875 1963
747 3891 2285
786 3903 2575
813 3914 2851
833 3923 3107
858 3932 3313
880 3938 3461
893 3942 3587
899 3946 3697
907 3949 3788
227 89 55
248 92 99
247 79 158
242 74 276
277 97 485
308 94 737
339 99 1036
429 136 1380
557 161 1760
643 216 2097
732 256 2376
820 282 2606
901 302 2812
960 317 2985
1010 332 3135
1049 344 3254
1079 355 3348
201 136 38
211 137 77
221 140 143
220 142 254
248 173 449
284 183 703
313 187 1001
406 206 1361
533 220 1740
622 267 2081
718 303 2377
812 324 2614
897 339 2826
955 355 3000
1004 369 3149
1046 379 3270
1077 389 3365
189 213 27
192 211 64
199 211 125
212 227 243
234 259 424
271 277 675
300 283 974
384 295 1338
502 299 1718
602 331 2068
702 360 2376
807 373 2629
891 388 2844
943 406 3013
1001 414 3169
1045 423 3293
1080 431 3389
196 374 41
199 366 86
205 358 149
208 360 251
222 389 428
243 412 680
270 420 977
349 429 1338
463 426 1716
576 439 2073
685 458 2389
792 469 2644
874 481 2863
931 494 3038
1002 493 3204
1052 497 3331
1090 504 3428
194 608 83
197 598 135
199 589 194
201 589 290
203 597 449
208 629 701
240 645 998
318 653 1353
414 650 1729
518 650 2081
612 669 2384
717 682 2636
811 689 2859
887 691 3046
963 688 3211
1027 683 3345
1064 692 3433
185 902 142
189 892 193
191 884 254
189 886 347
192 894 499
203 912 732
225 937 1032
300 945 1392
387 943 1773
480 942 2110
552 957 2401
638 967 2649
720 970 2873
795 973 3049
863 976 3196
917 980 3307
957 986 3391
198 1246 227
200 1240 278
202 1235 333
203 1239 418
210 1249 562
223 1265 791
239 1286 1080
283 1305 1449
366 1304 1838
442 1312 2165
516 1323 2445
605 1323 2694
668 1323 2924
713 1326 3097
764 1328 3239
809 1335 3337
847 1340 3413
246 1635 330
248 1634 373
250 1634 422
251 1642 499
253 1658 632
264 1680 847
274 1704 1133
289 1720 1497
327 1741 1887
390 1753 2217
453 1768 2494
525 1772 2756
602 1764 2987
657 1761 3146
697 1763 3276
725 1769 3372
747 1774 3449
298 2026 436
300 2029 471
302 2033 514
304 2043 585
309 2061 709
316 2087 914
323 2113 1194
330 2130 1552
344 2150 1934
382 2175 2266
425 2197 2555
465 2212 2834
519 2214 3074
577 2210 3225
627 2208 3341
666 2208 3431
697 2207 3512
357 2391 543
360 2396 577
364 2403 618
367 2415 686
371 2436 804
380 2465 996
386 2495 1265
392 2520 1615
406 2542 1992
418 2568 2316
446 2592 2611
480 2609 2894
514 2621 3138
541 2630 3300
564 2640 3423
584 2646 3520
618 2642 3609
415 2714 637
418 2721 669
421 2730 709
423 2743 777
426 2764 892
436 2791 1077
445 2820 1343
448 2849 1678
460 2876 2043
471 2898 2362
483 2919 2644
506 2939 2929
532 2954 3176
555 2966 3338
572 2979 3459
588 2986 3566
601 2990 3664
466 3004 724
469 3011 756
472 3021 796
474 3035 864
479 3055 976
488 3083 1156
496 3110 1410
500 3138 1740
507 3168 2091
518 3189 2404
530 3205 2683
539 3218 2962
556 3237 3205
576 3250 3366
594 3262 3488
613 3266 3598
631 3267 3696
510 3242 801
514 3252 836
516 3263 877
520 3278 943
525 3299 1049
534 3329 1226
542 3357 1474
547 3385 1801
555 3415 2141
561 3439 2444
572 3454 2726
578 3463 3001
590 3475 3233
608 3490 3388
625 3502 3510
629 3510 3635
634 3515 3739
543 3424 862
547 3434 897
549 3445 938
553 3460 1003
558 3480 1108
567 3509 1284
573 3537 1525
578 3568 1844
590 3601 2175
597 3630 2473
604 3648 2761
610 3658 3034
617 3668 3258
627 3680 3413
641 3691 3536
647 3698 3661
650 3705 3766
572 3581 916
575 3590 949
578 3601 990
581 3615 1055
586 3635 1160
593 3662 1333
598 3688 1570
602 3720 1878
616 3752 2205
627 3780 2499
636 3798 2785
643 3811 3057
658 3821 3277
677 3827 3429
695 3832 3553
708 3836 3674
718 3840 3776
593 3707 957
596 3716 988
598 3727 1030
601 3741 1095
605 3760 1201
612 3784 1372
620 3808 1608
645 3828 1915
687 3844 2243
725 3857 2536
751 3867 2819
768 3876 3083
790 3885 3296
811 3891 3446
824 3895 3573
832 3899 3687
844 3903 3784
610 3811 990
612 3820 1021
619 3827 1066
633 3833 1137
653 3842 1253
680 3853 1430
706 3865 1669
741 3880 1973
783 3896 2295
822 3908 2584
848 3918 2859
869 3927 3114
893 3935 3319
916 3942 3466
928 3946 3593
934 3949 3703
942 3953 3793
478 161 118
500 161 166
489 147 223
465 122 317
451 101 483
477 94 732
505 102 1031
588 138 1392
701 165 1768
778 219 2104
865 256 2389
948 284 2617
1025 305 2819
1081 322 2992
1129 336 3142
1170 347 3261
1199 358 3355
402 195 87
418 195 131
422 196 198
405 179 286
395 175 445
430 181 700
461 187 997
551 206 1370
670 223 1748
752 270 2088
848 302 2391
938 324 2626
1018 342 2834
1073 359 3006
1123 371 3157
1166 380 3279
