滤镜资源/Professional Luts Collection/Triune-Digital-Cinematic-LUTs/3D LUTs (3DL)/REDLOGFILM/Gone Girl - REDlogFilm.3dl
# Created by Benjamin (IWLTBAP) : http://luts.iwltbap.com
# Copyright: (C) Copyright 2016 Triune Films and IWLTBAP
# Blockbuster LUTs Pack
0 256 512 768 1023
24 23 9
96 98 490
394 156 1749
755 298 2801
934 352 3334
77 606 77
67 601 449
285 652 1739
665 680 2842
923 679 3418
251 2010 434
256 2049 705
287 2139 1926
441 2208 3069
620 2204 3507
462 3211 792
476 3271 1039
508 3394 2131
545 3459 3221
589 3500 3726
566 3786 981
585 3832 1230
717 3887 2277
828 3928 3308
879 3946 3784
880 278 220
793 181 546
916 172 1773
1212 309 2828
1376 364 3363
548 593 81
546 581 429
746 662 1739
1114 700 2881
1346 700 3449
426 2062 449
429 2086 723
468 2178 1952
701 2211 3064
864 2211 3518
601 3292 821
615 3346 1070
642 3450 2159
675 3505 3253
727 3540 3757
723 3835 1024
777 3857 1297
905 3910 2326
1014 3948 3338
1058 3964 3810
3071 943 879
3050 924 1079
2726 534 2069
2609 404 2936
2678 454 3445
2728 1180 660
2703 1173 884
2490 859 1985
2554 695 3035
2678 716 3545
2275 2175 401
2243 2173 621
2195 2195 1909
2336 2269 3045
2444 2301 3547
2223 3368 750
2179 3409 971
2177 3460 2117
2237 3471 3161
2305 3520 3690
2236 3910 981
2233 3939 1236
2289 3990 2323
2353 4015 3319
2380 4023 3831
3926 1395 1325
3929 1418 1476
3825 1069 2420
3741 802 3173
3710 711 3480
3902 1625 1193
3907 1633 1349
3830 1304 2434
3744 990 3233
3719 917 3549
3754 2611 854
3772 2628 976
3736 2661 2329
3671 2470 3210
3671 2364 3598
3675 3459 768
3658 3478 945
3603 3503 2121
3611 3517 3175
3636 3538 3694
3687 3939 949
3690 3964 1168
3701 4015 2276
3724 4028 3318
3724 4020 3845
4041 1602 1496
4045 1624 1638
4005 1308 2556
3975 1071 3256
3964 973 3538
4046 1814 1434
4048 1830 1582
4022 1527 2600
3996 1261 3318
3987 1167 3609
4052 2790 1009
4055 2805 1152
4026 2847 2512
4022 2663 3351
4030 2518 3716
4016 3561 962
4008 3581 1135
3993 3633 2300
4003 3664 3317
4010 3639 3804
4031 4005 1068
4040 4025 1288
4053 4062 2469
4074 4075 3479
4085 4076 3924
