滤镜资源/Professional Luts Collection/Triune-Digital-Cinematic-LUTs/3D LUTs (3DL)/REDLOGFILM/Guardians of the Galaxy - REDlogFilm.3dl
# Created by Benjamin (IWLTBAP) : http://luts.iwltbap.com
# Copyright: (C) Copyright 2016 Triune Films and IWLTBAP
# Blockbuster LUTs Pack
0 256 512 768 1023
0 0 0
0 91 473
0 360 1355
0 639 2197
0 771 2612
0 494 112
0 513 554
4 680 1403
10 918 2214
9 1035 2609
118 1479 271
136 1534 664
168 1673 1716
198 1803 2514
210 1902 2921
338 2421 491
289 2376 1019
350 2864 2121
392 2922 3019
399 2906 3400
541 2855 732
372 2831 1215
426 3289 2182
477 3465 3232
491 3414 3564
520 133 64
544 192 537
357 492 1453
254 738 2262
243 868 2686
605 611 225
459 658 639
272 847 1488
236 1027 2252
228 1133 2669
261 1566 322
257 1558 756
279 1727 1749
293 1851 2571
308 1987 3032
514 2471 534
382 2449 1091
453 2966 2270
509 3029 3140
522 2999 3490
661 2976 828
472 2940 1352
535 3403 2409
615 3573 3365
628 3522 3689
1701 413 42
1761 402 390
1994 642 1394
1808 908 2313
1648 1001 2715
1886 823 162
1895 830 486
2039 1029 1541
1599 1168 2466
1376 1271 2830
2341 1896 383
2299 1983 844
1858 2215 2079
1306 2203 2912
1516 2477 3470
2051 2863 824
1907 2907 1240
1245 3128 2343
1248 3524 3535
1423 3541 3831
2054 3573 1073
1994 3753 1534
1576 4031 2698
1552 3966 3757
1524 3894 3919
2879 732 145
2950 732 483
3156 863 1359
3192 1092 2190
3183 1248 2706
3002 1083 251
3007 1069 457
3161 1137 1440
3187 1401 2391
3192 1526 2916
3483 2085 387
3470 2119 610
3415 2337 1950
3421 2442 3067
3473 2679 3648
3691 3373 761
3697 3459 1189
3648 3580 2284
3430 3695 3439
3389 3663 3824
3643 3903 1429
3661 3950 1899
3624 4041 2726
3292 4089 3473
3352 4025 3915
3444 930 173
3496 935 514
3618 1012 1402
3570 1228 2266
3582 1362 2773
3555 1297 265
3581 1309 471
3664 1337 1539
3616 1606 2542
3691 1720 3082
3943 2322 442
3941 2394 840
3908 2630 2178
3859 2780 3239
3941 2848 3705
3994 3390 1159
3999 3479 1707
4002 3611 2543
3962 3709 3404
3925 3788 3842
4008 3930 1495
4009 3969 1885
4003 4061 2872
3961 4074 3647
3941 4081 3912
