滤镜资源/Professional Luts Collection/Triune-Digital-Cinematic-LUTs/3D LUTs (3DL)/REDLOGFILM/Guardians of the Galaxy - REDlogFilm.3dl
# Created by Benjamin (IWLTBAP) : http://luts.iwltbap.com
# Copyright: (C) Copyright 2016 Triune Films and IWLTBAP
# Blockbuster LUTs Pack
0 64 128 192 256 320 384 448 512 576 640 704 768 832 896 960 1023
0 0 0
0 0 84
0 18 184
0 49 314
0 91 473
0 144 658
0 206 872
0 278 1110
0 360 1355
0 446 1606
0 521 1830
0 585 2026
0 639 2197
0 681 2326
0 716 2440
0 746 2534
0 771 2612
0 66 32
0 69 93
0 83 193
0 111 319
0 150 480
0 198 667
0 259 881
0 330 1119
0 411 1364
0 494 1613
0 567 1836
0 629 2028
0 682 2196
0 721 2326
0 756 2438
0 784 2530
0 809 2607
0 179 60
0 182 107
0 184 213
0 200 333
0 227 487
0 269 675
0 328 891
0 399 1130
0 475 1376
0 556 1623
0 627 1844
0 687 2034
0 737 2197
0 776 2326
0 811 2440
0 838 2529
0 861 2605
0 317 83
0 321 129
0 328 235
0 328 363
0 345 512
0 376 692
0 422 902
0 486 1141
0 561 1387
0 638 1635
0 708 1855
0 766 2043
0 814 2203
0 853 2329
0 885 2441
0 913 2529
0 934 2603
0 494 112
0 497 159
0 504 241
0 514 402
0 513 554
0 533 732
0 571 935
0 618 1162
4 680 1403
6 749 1651
8 817 1871
9 872 2057
10 918 2214
11 955 2339
11 987 2448
11 1013 2535
9 1035 2609
1 712 146
5 709 187
8 715 268
13 736 405
18 750 606
23 748 786
29 771 989
35 814 1217
40 862 1449
44 916 1685
48 967 1897
51 1013 2079
53 1053 2235
55 1088 2357
56 1119 2465
56 1145 2553
57 1167 2628
37 953 183
41 951 227
45 956 297
50 976 421
56 1014 611
62 1029 854
67 1027 1062
75 1048 1287
80 1090 1519
85 1139 1753
91 1186 1964
95 1227 2145
99 1262 2299
101 1289 2417
103 1314 2523
105 1337 2609
106 1356 2685
78 1214 223
81 1213 271
85 1221 335
90 1239 450
96 1273 615
102 1334 884
109 1344 1148
116 1340 1378
123 1358 1607
130 1397 1837
136 1441 2049
142 1485 2237
147 1522 2398
150 1552 2521
154 1580 2629
156 1603 2718
158 1622 2793
118 1479 271
121 1480 327
125 1486 395
130 1497 491
136 1534 664
143 1589 881
151 1677 1220
160 1673 1478
168 1673 1716
176 1689 1945
184 1722 2155
192 1763 2346
198 1803 2514
202 1833 2643
205 1861 2756
208 1883 2845
210 1902 2921
158 1744 341
161 1742 413
166 1744 489
171 1750 578
177 1784 740
185 1844 948
195 1939 1228
207 2038 1590
218 2029 1834
230 2038 2081
239 2058 2301
247 2079 2488
252 2109 2658
256 2136 2792
258 2159 2906
261 2177 2994
263 2193 3067
195 2014 377
198 1998 475
203 1975 579
209 1975 680
216 2005 833
227 2075 1046
238 2162 1279
252 2317 1652
268 2385 1959
282 2377 2203
293 2389 2434
301 2409 2647
305 2414 2811
307 2424 2941
308 2435 3049
310 2449 3134
313 2458 3202
256 2241 411
242 2239 511
238 2211 637
245 2175 772
255 2202 927
266 2280 1142
280 2377 1379
294 2520 1687
312 2673 2071
328 2694 2330
340 2683 2551
349 2684 2752
353 2701 2947
354 2695 3071
354 2688 3169
355 2691 3250
358 2694 3311
338 2421 491
309 2428 583
279 2420 697
278 2365 852
289 2376 1019
302 2461 1234
316 2563 1469
331 2696 1749
350 2864 2121
366 2958 2448
377 2944 2661
387 2928 2851
392 2922 3019
395 2939 3176
396 2923 3271
397 2914 3347
399 2906 3400
403 2559 553
376 2568 654
333 2574 767
309 2535 916
316 2513 1088
330 2597 1302
344 2701 1539
360 2825 1807
378 2982 2140
393 3135 2529
405 3146 2745
415 3126 2937
422 3110 3096
425 3101 3220
428 3107 3343
430 3100 3421
432 3085 3472
459 2679 620
435 2686 721
394 2693 837
353 2672 979
340 2638 1150
352 2708 1362
366 2812 1594
382 2928 1849
399 3085 2159
414 3250 2551
426 3299 2804
436 3280 2990
446 3264 3152
451 3247 3270
454 3238 3371
457 3248 3469
461 3244 3530
507 2775 680
483 2780 779
447 2783 892
407 2763 1033
361 2745 1197
372 2811 1404
385 2935 1631
400 3064 1871
416 3211 2180
431 3354 2554
443 3422 2858
453 3407 3037
463 3381 3197
469 3366 3316
473 3351 3409
476 3342 3483
479 3350 3557
541 2855 732
512 2863 825
467 2871 930
401 2873 1059
372 2831 1215
383 2924 1414
397 3040 1642
411 3157 1880
426 3289 2182
443 3419 2545
456 3503 2889
467 3496 3072
477 3465 3232
483 3443 3349
486 3426 3440
489 3417 3509
491 3414 3564
0 6 18
0 19 92
0 41 194
0 72 330
0 117 493
0 169 679
0 228 891
0 300 1128
0 379 1370
0 464 1618
0 539 1841
0 603 2034
0 658 2207
0 699 2340
0 733 2455
0 764 2550
0 789 2628
0 89 60
0 92 100
0 107 200
0 136 330
0 176 491
0 224 678
0 281 892
0 352 1129
0 431 1372
0 513 1620
0 586 1843
0 648 2038
0 701 2209
0 741 2343
0 776 2458
0 805 2552
0 829 2630
0 190 92
0 190 131
0 196 216
0 218 341
0 249 495
0 293 684
0 351 900
0 421 1139
0 496 1384
0 575 1630
0 645 1850
0 705 2043
0 755 2210
0 796 2343
0 830 2458
0 857 2551
0 881 2627
0 327 110
0 330 157
0 336 239
0 337 369
0 356 520
0 392 701
0 443 912
0 510 1150
0 583 1395
0 659 1642
0 727 1861
0 784 2051
0 833 2213
0 870 2343
0 904 2457
0 931 2549
0 953 2623
0 504 137
0 507 183
0 514 265
5 524 404
8 524 562
12 543 741
16 581 945
20 631 1173
23 698 1413
25 771 1659
27 836 1877
27 890 2065
27 936 2224
27 973 2351
27 1005 2463
26 1032 2553
26 1054 2628
20 724 167
25 721 210
30 726 294
35 745 419
41 762 610
45 760 796
50 781 1000
56 824 1229
60 871 1458
64 924 1692
67 978 1903
69 1028 2089
71 1072 2246
72 1107 2370
73 1138 2480
73 1164 2571
74 1186 2646
57 964 201
61 960 246
65 965 317
70 987 447
76 1024 618
82 1041 861
87 1039 1074
94 1060 1300
100 1100 1530
104 1147 1761
109 1191 1972
113 1232 2156
116 1269 2312
118 1299 2434
120 1328 2542
122 1353 2632
123 1374 2706
95 1223 237
100 1221 288
104 1230 353
109 1250 474
114 1286 641
121 1344 888
128 1358 1158
135 1354 1391
142 1370 1619
148 1406 1848
154 1448 2060
160 1492 2251
165 1531 2414
168 1564 2542
172 1592 2652
174 1614 2743
175 1633 2818
134 1486 281
139 1487 340
142 1493 408
148 1505 509
154 1543 685
160 1598 896
169 1685 1219
178 1686 1487
187 1687 1729
196 1701 1959
203 1732 2168
210 1775 2364
216 1817 2537
220 1848 2669
223 1876 2784
226 1900 2876
228 1918 2951
174 1757 341
178 1756 416
182 1753 498
187 1757 588
194 1791 751
203 1854 967
213 1948 1233
226 2053 1593
237 2047 1846
250 2056 2098
259 2075 2320
266 2097 2512
271 2127 2685
274 2153 2822
277 2177 2937
279 2196 3029
282 2212 3101
214 2030 368
215 2023 467
220 1995 580
226 1987 693
234 2019 849
245 2093 1070
257 2185 1311
273 2336 1658
289 2417 1980
304 2409 2228
315 2416 2462
322 2434 2677
325 2436 2842
326 2444 2971
327 2452 3078
330 2465 3164
332 2475 3230
286 2256 410
269 2267 515
257 2243 644
264 2200 791
274 2225 953
286 2308 1175
301 2412 1419
317 2558 1726
336 2712 2098
352 2738 2367
364 2722 2590
371 2718 2791
374 2729 2983
374 2717 3102
373 2705 3196
374 2706 3275
377 2708 3334
370 2437 498
345 2453 603
304 2454 716
298 2400 877
309 2403 1049
323 2493 1270
338 2600 1511
355 2741 1804
374 2904 2157
389 3003 2489
401 2987 2702
409 2966 2892
414 2956 3058
415 2964 3208
416 2942 3297
416 2929 3366
418 2920 3419
438 2580 569
412 2595 680
368 2601 795
333 2569 945
336 2544 1122
350 2630 1341
365 2737 1581
382 2865 1856
400 3021 2184
415 3173 2561
426 3186 2778
435 3158 2968
442 3139 3126
446 3128 3251
448 3128 3368
450 3113 3438
452 3100 3488
492 2701 637
469 2713 749
428 2719 866
383 2698 1010
362 2670 1183
373 2738 1399
387 2844 1632
402 2974 1887
419 3131 2204
434 3281 2569
446 3328 2829
457 3306 3014
466 3286 3176
471 3269 3295
476 3260 3395
479 3263 3487
482 3259 3546
540 2797 700
516 2806 809
478 2807 922
431 2790 1062
380 2777 1227
390 2854 1433
404 2976 1660
418 3102 1901
434 3244 2215
449 3372 2568
462 3438 2872
473 3423 3053
484 3397 3215
491 3381 3334
495 3367 3428
498 3358 3503
501 3365 3575
570 2883 747
529 2904 843
472 2920 946
401 2919 1077
391 2870 1239
402 2968 1441
415 3080 1670
429 3192 1910
444 3319 2217
462 3440 2567
475 3519 2902
487 3511 3088
498 3480 3250
505 3458 3368
509 3441 3460
512 3431 3528
514 3429 3583
131 45 35
125 52 91
124 70 210
107 93 343
98 138 511
85 194 700
69 259 913
49 327 1149
40 404 1389
35 488 1634
29 561 1855
28 624 2047
27 677 2217
26 718 2353
26 754 2468
25 784 2563
25 810 2643
136 120 77
122 123 117
117 135 212
104 160 345
93 199 513
76 256 704
59 315 918
44 383 1153
38 458 1393
33 539 1637
28 611 1858
27 671 2050
26 723 2220
26 763 2356
25 797 2471
24 825 2566
24 850 2646
135 223 121
122 226 160
106 226 226
97 245 352
82 281 514
58 331 705
46 387 921
41 454 1157
36 525 1395
30 602 1640
26 670 1861
24 728 2053
24 779 2221
23 819 2356
23 852 2472
22 879 2566
22 902 2646
102 351 151
98 357 194
82 362 262
79 371 381
71 395 535
53 431 719
42 478 929
39 542 1165
34 612 1405
28 685 1650
24 751 1869
22 807 2058
21 854 2222
21 892 2353
20 925 2468
19 951 2563
19 973 2639
58 525 176
51 527 216
50 533 300
53 544 428
53 548 573
47 572 755
47 613 960
48 665 1186
50 727 1421
51 796 1665
51 859 1884
52 912 2072
51 957 2231
50 993 2358
49 1025 2470
49 1052 2564
48 1074 2640
49 740 194
54 736 237
58 741 323
62 759 451
68 774 619
73 774 806
77 795 1011
81 838 1238
85 892 1469
88 950 1702
90 1003 1913
92 1052 2098
93 1093 2254
94 1127 2378
94 1157 2488
94 1183 2580
94 1205 2657
81 977 225
86 973 269
91 974 342
95 997 475
100 1034 644
107 1052 865
113 1051 1082
118 1069 1308
123 1109 1538
127 1155 1769
131 1201 1980
134 1247 2167
137 1287 2324
138 1320 2448
140 1350 2557
141 1375 2648
142 1396 2724
118 1234 256
122 1232 304
126 1234 371
132 1254 494
137 1292 666
143 1350 897
152 1367 1160
158 1364 1398
165 1378 1626
171 1414 1856
176 1455 2068
181 1497 2261
185 1535 2427
188 1570 2555
191 1599 2668
193 1623 2760
195 1644 2839
154 1493 290
159 1493 347
163 1496 420
168 1506 519
174 1546 703
181 1604 919
190 1687 1213
200 1694 1488
209 1696 1735
218 1711 1968
224 1742 2179
232 1784 2378
237 1825 2554
240 1856 2688
244 1884 2804
246 1907 2898
248 1925 2975
193 1769 340
198 1769 416
202 1762 501
207 1762 597
213 1794 761
223 1859 982
233 1955 1248
247 2063 1591
259 2061 1851
273 2071 2111
282 2090 2337
288 2112 2531
292 2140 2707
296 2165 2845
298 2188 2963
301 2208 3053
304 2224 3126
236 2046 356
235 2046 455
240 2019 577
246 1998 702
254 2026 860
265 2103 1085
278 2201 1336
295 2351 1670
313 2441 1992
328 2433 2247
339 2438 2486
345 2454 2704
347 2454 2868
348 2458 2995
349 2466 3103
352 2479 3188
356 2491 3253
323 2267 412
306 2281 517
281 2274 641
284 2224 801
295 2242 973
308 2329 1201
324 2437 1451
341 2592 1770
361 2743 2122
378 2776 2397
390 2756 2624
397 2749 2827
398 2752 3013
397 2734 3127
397 2720 3218
399 2722 3295
404 2727 3355
410 2454 504
386 2470 611
342 2483 732
321 2438 894
331 2426 1075
345 2519 1300
360 2629 1546
379 2778 1852
399 2939 2199
416 3043 2522
427 3027 2739
435 3003 2930
439 2988 3095
439 2988 3236
440 2961 3321
441 2947 3386
445 2939 3438
475 2599 585
451 2614 695
408 2624 820
362 2602 968
358 2573 1149
372 2653 1370
387 2761 1612
404 2894 1896
423 3053 2233
440 3199 2581
452 3219 2807
462 3189 2998
468 3167 3157
472 3154 3281
474 3150 3393
477 3132 3459
481 3120 3508
531 2722 657
506 2734 770
465 2740 894
421 2718 1038
385 2698 1212
393 2757 1427
407 2866 1660
424 3003 1919
441 3163 2246
458 3309 2600
472 3356 2854
484 3335 3041
494 3312 3204
500 3296 3323
503 3284 3424
506 3285 3511
511 3279 3568
577 2817 725
549 2822 833
505 2827 948
455 2811 1086
401 2799 1253
410 2876 1458
424 2996 1686
439 3123 1932
456 3267 2256
473 3396 2609
488 3460 2893
501 3447 3078
513 3420 3242
520 3403 3361
524 3389 3456
528 3382 3531
531 3388 3601
595 2905 768
549 2928 861
490 2939 970
417 2933 1104
411 2888 1268
423 2985 1471
435 3096 1700
450 3212 1943
467 3343 2264
487 3469 2625
503 3543 2924
517 3535 3116
529 3504 3280
535 3484 3397
539 3466 3488
543 3457 3557
544 3456 3613
305 84 49
300 92 97
304 93 202
301 124 359
265 164 532
241 220 723
219 290 940
191 368 1177
160 443 1417
142 521 1661
135 590 1881
131 649 2069
129 702 2235
125 743 2368
123 778 2484
123 808 2579
122 834 2660
313 157 87
305 161 127
298 167 204
298 190 362
262 228 535
237 282 730
209 349 947
178 424 1183
151 497 1422
138 572 1662
133 640 1880
129 697 2067
126 747 2233
123 787 2367
122 821 2483
121 850 2579
