滤镜资源/Professional Luts Collection/Triune-Digital-Cinematic-LUTs/3D LUTs (3DL)/REDLOGFILM/Guardians of the Galaxy - REDlogFilm.3dl
# Created by Benjamin (IWLTBAP) : http://luts.iwltbap.com
# Copyright: (C) Copyright 2016 Triune Films and IWLTBAP
# Blockbuster LUTs Pack
0 128 256 384 512 640 768 896 1023
0 0 0
0 18 184
0 91 473
0 206 872
0 360 1355
0 521 1830
0 639 2197
0 716 2440
0 771 2612
0 179 60
0 184 213
0 227 487
0 328 891
0 475 1376
0 627 1844
0 737 2197
0 811 2440
0 861 2605
0 494 112
0 504 241
0 513 554
0 571 935
4 680 1403
8 817 1871
10 918 2214
11 987 2448
9 1035 2609
37 953 183
45 956 297
56 1014 611
67 1027 1062
80 1090 1519
91 1186 1964
99 1262 2299
103 1314 2523
106 1356 2685
118 1479 271
125 1486 395
136 1534 664
151 1677 1220
168 1673 1716
184 1722 2155
198 1803 2514
205 1861 2756
210 1902 2921
195 2014 377
203 1975 579
216 2005 833
238 2162 1279
268 2385 1959
293 2389 2434
305 2414 2811
308 2435 3049
313 2458 3202
338 2421 491
279 2420 697
289 2376 1019
316 2563 1469
350 2864 2121
377 2944 2661
392 2922 3019
396 2923 3271
399 2906 3400
459 2679 620
394 2693 837
340 2638 1150
366 2812 1594
399 3085 2159
426 3299 2804
446 3264 3152
454 3238 3371
461 3244 3530
541 2855 732
467 2871 930
372 2831 1215
397 3040 1642
426 3289 2182
456 3503 2889
477 3465 3232
486 3426 3440
491 3414 3564
131 45 35
124 70 210
98 138 511
69 259 913
40 404 1389
29 561 1855
27 677 2217
26 754 2468
25 810 2643
135 223 121
106 226 226
82 281 514
46 387 921
36 525 1395
26 670 1861
24 779 2221
23 852 2472
22 902 2646
58 525 176
50 533 300
53 548 573
47 613 960
50 727 1421
51 859 1884
51 957 2231
49 1025 2470
48 1074 2640
81 977 225
91 974 342
100 1034 644
113 1051 1082
123 1109 1538
131 1201 1980
137 1287 2324
140 1350 2557
142 1396 2724
154 1493 290
163 1496 420
174 1546 703
190 1687 1213
209 1696 1735
224 1742 2179
237 1825 2554
244 1884 2804
248 1925 2975
236 2046 356
240 2019 577
254 2026 860
278 2201 1336
313 2441 1992
339 2438 2486
347 2454 2868
349 2466 3103
356 2491 3253
410 2454 504
342 2483 732
331 2426 1075
360 2629 1546
399 2939 2199
427 3027 2739
439 2988 3095
440 2961 3321
445 2939 3438
531 2722 657
465 2740 894
385 2698 1212
407 2866 1660
441 3163 2246
472 3356 2854
494 3312 3204
503 3284 3424
511 3279 3568
595 2905 768
490 2939 970
411 2888 1268
435 3096 1700
467 3343 2264
503 3543 2924
529 3504 3280
539 3466 3488
544 3456 3613
520 133 64
517 134 179
544 192 537
438 315 969
357 492 1453
273 636 1915
254 738 2262
246 812 2508
243 868 2686
551 295 131
532 303 230
537 345 556
416 459 992
315 621 1472
259 745 1917
245 840 2258
239 911 2502
236 960 2675
605 611 225
550 630 353
459 658 639
347 735 1036
272 847 1488
247 946 1919
236 1027 2252
231 1088 2494
228 1133 2669
398 1098 298
331 1105 432
285 1119 731
279 1166 1142
261 1209 1584
242 1284 2008
233 1356 2346
231 1415 2582
230 1458 2754
261 1566 322
256 1541 472
257 1558 756
263 1705 1279
279 1727 1749
285 1769 2191
293 1851 2571
300 1927 2842
308 1987 3032
322 2059 366
300 2063 542
306 2011 848
329 2184 1349
366 2433 1991
401 2453 2498
407 2467 2889
413 2501 3145
431 2563 3318
514 2471 534
450 2497 741
382 2449 1091
411 2637 1576
453 2966 2270
490 3066 2764
509 3029 3140
512 2998 3364
522 2999 3490
631 2760 719
558 2766 944
460 2741 1275
461 2891 1718
501 3208 2347
545 3402 2932
574 3371 3269
583 3343 3495
591 3341 3632
661 2976 828
549 2995 1033
472 2940 1352
496 3135 1786
535 3403 2409
585 3596 3062
615 3573 3365
624 3535 3567
628 3522 3689
1067 261 63
1068 281 161
1114 269 447
1175 391 940
1053 542 1511
882 695 1958
794 828 2297
727 924 2540
681 985 2715
1117 414 127
1114 417 213
1132 423 451
1211 535 982
1000 670 1557
827 814 1993
709 934 2329
627 1020 2569
582 1065 2736
1228 685 184
1212 697 295
1182 738 573
1204 825 1081
914 929 1625
727 1044 2057
581 1144 2372
544 1198 2594
534 1235 2756
1378 1167 334
1347 1185 467
1266 1246 753
959 1353 1270
753 1386 1728
591 1455 2125
544 1495 2430
532 1533 2655
527 1565 2827
1318 1756 473
1225 1770 585
976 1804 801
673 1876 1364
621 1995 1943
583 1970 2318
565 2011 2676
578 2105 2976
612 2204 3199
995 2185 546
921 2193 627
748 2202 847
569 2235 1384
601 2552 2129
660 2642 2614
654 2651 2996
691 2720 3282
775 2836 3489
894 2516 635
815 2540 790
650 2537 1099
567 2637 1621
626 2984 2338
721 3205 2925
771 3218 3255
786 3209 3480
831 3233 3622
927 2810 817
847 2822 1025
725 2792 1348
636 2953 1826
710 3313 2509
825 3585 3170
867 3595 3473
869 3568 3627
896 3561 3737
965 3099 921
853 3134 1109
688 3129 1437
705 3264 1942
794 3576 2628
907 3822 3328
949 3818 3610
950 3787 3739
946 3767 3819
1701 413 42
1720 420 133
1761 402 390
1888 487 862
1994 642 1394
1910 822 1926
1808 908 2313
1707 957 2553
1648 1001 2715
1767 567 93
1770 564 167
1812 570 385
1925 604 879
2006 763 1435
1866 928 1983
1720 989 2357
1609 1038 2594
1519 1079 2742
1886 823 162
1882 825 239
1895 830 486
1967 852 936
2039 1029 1541
1823 1131 2112
1599 1168 2466
1447 1219 2677
1376 1271 2830
2127 1226 268
2121 1240 332
2115 1282 629
2066 1414 1178
2053 1521 1780
1694 1521 2331
1423 1559 2671
1294 1617 2908
1224 1675 3087
2341 1896 383
2327 1924 508
2299 1983 844
2218 2088 1354
1858 2215 2079
1513 2166 2554
1306 2203 2912
1379 2354 3251
1516 2477 3470
2276 2525 502
2229 2532 654
2150 2540 973
1967 2560 1407
1459 2675 2140
1399 2923 2883
1317 2922 3210
1441 3021 3490
1653 3133 3683
2051 2863 824
1994 2879 978
1907 2907 1240
1682 2934 1621
1245 3128 2343
1146 3502 3180
1248 3524 3535
1293 3502 3702
1423 3541 3831
2006 3218 949
1969 3265 1136
1889 3374 1407
1625 3510 1813
1343 3687 2584
1259 3901 3401
1319 3894 3722
1309 3847 3863
1402 3826 3947
2054 3573 1073
2038 3640 1265
1994 3753 1534
1788 3890 1935
1576 4031 2698
1488 4035 3525
1552 3966 3757
1537 3920 3857
1524 3894 3919
2356 580 96
2380 588 201
2427 582 437
2577 613 829
2662 732 1341
2741 877 1791
2741 1003 2160
2681 1107 2477
2643 1163 2677
2404 711 149
2413 714 210
2445 692 424
2587 708 836
2666 831 1367
2735 980 1828
2713 1109 2221
2643 1206 2538
2608 1252 2733
2507 951 219
2506 952 276
2513 931 440
2606 907 850
2691 1040 1441
2747 1195 1927
2676 1326 2381
2609 1384 2668
2599 1410 2866
2735 1353 315
2729 1359 372
2729 1378 517
2728 1440 1037
2770 1495 1644
2804 1658 2232
2710 1699 2673
2674 1714 2990
2650 1773 3228
3010 1956 380
3012 1972 458
3016 2005 638
3007 2108 1243
2923 2301 2028
2904 2386 2654
2776 2322 3106
2748 2426 3412
2806 2577 3609
3167 2730 552
3167 2757 660
3161 2799 941
3136 2862 1464
3075 2985 2133
2892 3079 2886
2711 3048 3314
2718 3110 3584
2819 3216 3751
3145 3293 694
3150 3322 998
3154 3364 1345
3142 3412 1798
3008 3402 2284
2629 3461 2866
2576 3604 3497
2580 3551 3682
2673 3562 3806
3157 3592 1101
3153 3623 1338
3148 3678 1667
3135 3734 2071
3041 3771 2451
2593 3843 2907
2484 3919 3601
2527 3898 3823
2578 3864 3914
3161 3797 1291
3164 3828 1502
3167 3875 1809
3175 3945 2183
3096 4020 2572
2697 4078 3038
2596 4051 3664
2635 4003 3841
2646 3968 3920
2879 732 145
2905 742 249
2950 732 483
3044 735 829
3156 863 1359
3158 976 1806
3192 1092 2190
3201 1188 2497
3183 1248 2706
2918 861 188
2933 870 238
2962 848 460
3049 822 827
3152 955 1381
3151 1074 1841
3184 1199 2254
3192 1286 2556
3178 1343 2771
3002 1083 251
3008 1089 295
3007 1069 457
3081 1023 823
3161 1137 1440
3157 1269 1933
3187 1401 2391
3200 1474 2694
3192 1526 2916
3191 1478 329
3192 1481 375
3179 1490 496
3195 1506 957
3217 1519 1584
3212 1682 2196
3251 1782 2665
3298 1858 3007
3330 1942 3272
3483 2085 387
3485 2100 458
3470 2119 610
3466 2185 1162
3415 2337 1950
3371 2373 2584
3421 2442 3067
3462 2533 3423
3473 2679 3648
3637 2750 583
3638 2774 701
3639 2816 977
3637 2876 1523
3600 2976 2149
3521 3133 2855
3477 3190 3323
3442 3202 3588
3451 3302 3753
3691 3373 761
3696 3407 874
3697 3459 1189
3684 3528 1745
3648 3580 2284
3549 3627 2925
3430 3695 3439
3380 3651 3689
3389 3663 3824
3651 3753 1209
3653 3775 1439
3654 3805 1760
3660 3843 2162
3642 3878 2597
3499 3890 3009
3295 3968 3402
3315 3988 3813
3338 3952 3917
3643 3903 1429
3648 3920 1624
3661 3950 1899
3666 3992 2274
3624 4041 2726
3487 4080 3116
3292 4089 3473
3318 4059 3829
3352 4025 3915
3222 848 164
3251 861 272
3289 852 500
3326 827 846
3445 947 1373
3437 1072 1841
3423 1154 2211
3433 1257 2539
3449 1315 2758
3261 981 204
3279 992 247
3302 971 471
3338 928 831
3447 1041 1400
3432 1169 1884
3419 1265 2277
3434 1359 2606
3454 1412 2822
3337 1201 262
3352 1212 301
3358 1200 461
3413 1165 821
3470 1231 1466
3451 1375 2005
3434 1480 2425
3465 1561 2758
3505 1614 2987
3513 1594 325
3521 1600 362
3514 1614 488
3546 1657 969
3550 1667 1652
3535 1832 2309
3529 1927 2749
3610 1999 3101
3680 2071 3364
3779 2215 405
3781 2233 490
3767 2255 661
3752 2321 1263
3721 2466 2025
3684 2501 2642
3692 2624 3145
3766 2691 3469
3788 2770 3677
3884 2820 629
3889 2853 757
3897 2911 1099
3894 2993 1666
3853 3064 2222
3788 3180 2859
3745 3231 3318
3762 3284 3609
3755 3341 3776
3907 3381 833
3912 3414 991
3917 3466 1435
3920 3535 1884
3912 3582 2360
3862 3605 2889
3799 3681 3384
3764 3732 3688
3749 3751 3823
3917 3750 997
3919 3773 1188
3917 3809 1589
3902 3867 2065
3882 3929 2593
3837 3952 3069
3788 3990 3484
3733 4046 3751
3714 4020 3917
3898 3966 1436
3900 3980 1620
3901 4004 1887
3891 4036 2283
3866 4053 2829
3815 4063 3272
3770 4082 3579
3724 4089 3783
3728 4078 3919
3444 930 173
3465 943 285
3496 935 514
3517 899 864
3618 1012 1402
3598 1145 1892
3570 1228 2266
3569 1308 2556
3582 1362 2773
3483 1067 211
3499 1081 252
3512 1061 484
3544 1022 844
3629 1116 1440
3604 1253 1951
3577 1353 2350
3577 1423 2637
3602 1477 2863
3555 1297 265
3572 1313 304
3581 1309 471
3636 1291 853
3664 1337 1539
3647 1508 2125
3616 1606 2542
3634 1670 2835
3691 1720 3082
3731 1705 312
3743 1723 353
3744 1759 504
3775 1837 1098
3780 1859 1792
3762 2021 2454
3747 2111 2897
3793 2162 3189
3859 2195 3441
3943 2322 442
3946 2350 564
3941 2394 840
3931 2484 1453
3908 2630 2178
3867 2660 2755
3859 2780 3239
3897 2835 3505
3941 2848 3705
3979 2894 702
3983 2938 888
3997 3009 1334
4002 3096 1823
3993 3158 2334
3943 3278 2938
3905 3327 3363
3904 3393 3631
3930 3410 3801
3994 3390 1159
3996 3425 1389
3999 3479 1707
4001 3554 2108
4002 3611 2543
3997 3628 2968
3962 3709 3404
3934 3767 3688
3925 3788 3842
4007 3718 1368
4009 3740 1547
4009 3775 1808
4008 3828 2168
4006 3911 2611
3989 3970 3069
3962 4007 3481
3949 4038 3755
3938 4060 3907
4008 3930 1495
4009 3943 1650
4009 3969 1885
4008 4022 2263
4003 4061 2872
3981 4071 3353
3961 4074 3647
3952 4079 3837
3941 4081 3912
