滤镜资源/Professional Luts Collection/Triune-Digital-Cinematic-LUTs/3D LUTs (3DL)/REDLOGFILM/Harry Potter - REDlogFilm.3dl
# Created by Benjamin (IWLTBAP) : http://luts.iwltbap.com
# Copyright: (C) Copyright 2016 Triune Films and IWLTBAP
# Blockbuster LUTs Pack
0 256 512 768 1023
0 0 104
0 9 412
0 310 1032
0 518 1675
87 633 2084
0 421 291
0 454 535
0 597 1197
47 785 1870
316 905 2289
496 1433 857
484 1484 1092
403 1599 1777
570 1767 2561
680 1851 2896
1264 2613 1663
1257 2652 1874
1275 2722 2403
1186 2756 2987
1245 2808 3251
1746 3067 2008
1742 3091 2198
1758 3136 2714
1689 3171 3169
1699 3186 3358
112 5 172
66 36 469
66 344 1068
236 543 1709
444 668 2133
123 442 243
73 482 554
94 608 1198
410 813 1902
540 939 2329
730 1506 880
692 1529 1130
644 1664 1818
792 1845 2619
896 1932 2951
1554 2666 1678
1480 2683 1894
1475 2768 2434
1421 2818 3023
1474 2869 3281
2053 3111 2024
2029 3125 2221
2037 3176 2748
1971 3211 3195
1975 3226 3375
1561 346 150
1509 374 502
1229 523 1260
1153 728 1987
1138 849 2389
1657 557 44
1668 542 446
1249 784 1369
1161 1011 2158
1167 1141 2548
1957 1751 696
1900 1784 1004
1497 1902 1973
1481 2039 2756
1561 2120 3109
2498 2811 1607
2474 2842 1853
2363 2922 2525
2249 2981 3116
2223 3014 3345
2782 3204 2016
2775 3226 2243
2723 3273 2825
2701 3313 3254
2686 3322 3418
2594 521 287
2595 564 563
2563 857 1526
2461 1090 2398
2430 1220 2748
2663 640 140
2692 669 489
2631 1011 1546
2538 1377 2521
2518 1509 2869
3001 1713 341
3019 1683 455
3035 1972 1803
2844 2291 2923
2832 2332 3205
3186 2861 1377
3182 2889 1620
3168 3013 2483
3063 3106 3176
3057 3135 3394
3298 3240 1815
3293 3268 2079
3252 3335 2787
3199 3373 3300
3189 3382 3449
2954 657 362
2963 700 625
2989 1067 1660
2933 1367 2591
2932 1485 2944
2987 770 277
2999 809 573
3034 1184 1655
2978 1556 2660
2981 1681 3013
3212 1746 487
3224 1803 781
3247 2089 1923
3167 2361 2965
3156 2413 3237
3435 2901 1567
3426 2941 1832
3390 3047 2541
3325 3138 3186
3303 3166 3408
3464 3291 2142
3446 3315 2396
3404 3364 2939
3370 3394 3326
3367 3408 3467
