滤镜资源/Professional Luts Collection/Triune-Digital-Cinematic-LUTs/3D LUTs (3DL)/REDLOGFILM/Harry Potter - REDlogFilm.3dl
# Created by Benjamin (IWLTBAP) : http://luts.iwltbap.com
# Copyright: (C) Copyright 2016 Triune Films and IWLTBAP
# Blockbuster LUTs Pack
0 64 128 192 256 320 384 448 512 576 640 704 768 832 896 960 1023
0 0 104
0 0 160
0 1 233
0 3 313
0 9 412
0 37 535
0 119 683
0 235 853
0 310 1032
0 375 1222
0 429 1388
0 476 1534
0 518 1675
3 555 1799
22 588 1915
49 613 2009
87 633 2084
0 14 131
0 13 185
0 17 262
0 29 343
0 57 441
0 117 562
0 213 709
0 295 879
0 358 1059
0 415 1244
0 467 1410
0 513 1556
0 557 1700
6 593 1824
30 625 1940
69 651 2035
114 672 2110
0 99 170
0 107 222
0 114 285
0 134 367
0 175 468
0 233 591
0 299 738
0 359 909
0 413 1088
0 467 1273
0 517 1437
0 563 1586
0 607 1732
17 642 1858
52 674 1976
104 700 2071
160 722 2147
0 268 220
0 275 269
0 284 324
0 293 395
0 315 495
0 347 623
0 390 774
0 440 949
0 488 1132
0 536 1313
0 585 1477
0 632 1632
8 676 1782
51 712 1913
103 746 2032
172 774 2128
229 796 2203
0 421 291
0 427 329
0 434 379
0 443 444
0 454 535
0 473 663
0 507 822
0 551 1007
0 597 1197
0 644 1382
0 691 1547
4 738 1710
47 785 1870
134 824 2007
209 857 2123
271 883 2216
316 905 2289
0 588 375
0 596 410
0 603 454
0 612 517
0 625 605
0 643 727
0 667 891
0 709 1091
0 755 1293
3 807 1489
32 857 1669
108 905 1845
212 951 2012
288 990 2147
338 1023 2259
373 1050 2346
399 1073 2418
7 808 490
9 816 525
11 826 567
11 836 626
9 850 717
7 871 838
2 897 1002
1 931 1209
22 983 1430
99 1039 1640
206 1093 1837
292 1142 2026
357 1184 2194
404 1221 2323
442 1253 2430
470 1277 2514
492 1297 2579
276 1100 653
280 1108 688
286 1121 734
280 1135 792
278 1149 881
267 1172 1010
226 1203 1173
153 1237 1379
166 1277 1596
274 1333 1819
357 1386 2031
418 1430 2223
465 1467 2385
505 1501 2510
539 1530 2612
563 1550 2688
581 1565 2747
496 1433 857
493 1439 893
493 1452 942
491 1468 1007
484 1484 1092
483 1505 1221
470 1534 1385
438 1567 1576
403 1599 1777
417 1635 1989
469 1686 2207
524 1730 2401
570 1767 2561
609 1796 2680
641 1820 2774
663 1838 2844
680 1851 2896
677 1790 1097
671 1793 1131
670 1805 1182
670 1822 1249
662 1835 1330
658 1853 1451
658 1879 1607
644 1910 1785
612 1938 1965
586 1962 2165
601 1988 2363
650 2033 2557
697 2070 2715
736 2097 2826
765 2117 2912
786 2133 2975
805 2146 3023
875 2117 1323
866 2121 1359
861 2129 1408
862 2145 1474
856 2160 1554
844 2173 1657
851 2195 1804
856 2225 1972
844 2248 2138
819 2267 2325
799 2282 2508
816 2309 2685
851 2340 2834
886 2363 2936
913 2381 3016
936 2395 3075
953 2406 3121
1077 2394 1515
1070 2398 1550
1063 2405 1595
1065 2420 1658
1066 2435 1737
1053 2446 1830
1056 2464 1962
1076 2490 2120
1077 2511 2285
1060 2526 2462
1038 2539 2634
1018 2549 2788
1023 2564 2918
1045 2586 3018
1067 2602 3095
1085 2615 3152
1103 2626 3195
1264 2613 1663
1259 2618 1696
1252 2624 1739
1254 2637 1798
1257 2652 1874
1247 2663 1961
1243 2677 2078
1267 2700 2235
1275 2722 2403
1263 2738 2577
1236 2747 2737
1209 2753 2875
1186 2756 2987
1190 2768 3079
1205 2783 3155
1222 2795 3210
1245 2808 3251
1405 2771 1770
1401 2776 1803
1397 2782 1843
1399 2793 1898
1404 2808 1969
1393 2817 2050
1387 2829 2161
1407 2851 2319
1415 2871 2489
1403 2886 2660
1377 2894 2813
1351 2899 2939
1325 2901 3044
1306 2902 3124
1312 2911 3195
1332 2925 3249
1362 2938 3289
1523 2894 1853
1519 2898 1884
1516 2903 1923
1517 2913 1975
1519 2926 2042
1509 2936 2122
1501 2948 2233
1517 2966 2391
1524 2983 2562
1510 2997 2726
1487 3006 2872
1466 3012 2993
1444 3016 3093
1423 3016 3168
1415 3016 3228
1455 3033 3280
1493 3048 3319
1634 2990 1929
1630 2993 1959
1626 2998 1996
1627 3007 2048
1629 3018 2116
1617 3027 2200
1608 3038 2313
1626 3053 2471
1637 3070 2639
1619 3082 2795
1601 3092 2929
1583 3100 3041
1567 3104 3134
1548 3105 3205
1536 3107 3260
1557 3112 3303
1603 3126 3341
1746 3067 2008
1742 3070 2037
1739 3074 2075
1741 3082 2128
1742 3091 2198
1730 3098 2286
1723 3107 2400
1741 3121 2552
1758 3136 2714
1749 3148 2857
1734 3157 2980
1712 3165 3083
1689 3171 3169
1666 3174 3236
1660 3177 3288
1671 3181 3327
1699 3186 3358
11 0 118
11 0 171
11 2 248
11 4 325
11 11 421
11 43 543
11 131 689
11 243 858
11 315 1036
11 378 1226
11 433 1391
11 479 1535
13 521 1676
30 557 1800
68 590 1916
117 615 2010
164 635 2084
11 12 125
11 19 190
11 24 265
11 36 344
11 66 442
11 123 563
11 217 708
11 294 876
11 356 1053
11 415 1242
11 467 1407
12 513 1554
17 559 1700
40 595 1827
86 627 1942
143 652 2036
193 673 2111
11 102 161
11 114 226
11 122 288
11 143 369
11 182 470
11 239 593
11 303 740
11 360 909
11 414 1089
11 468 1272
11 518 1437
13 565 1587
25 610 1735
64 645 1862
125 677 1980
184 703 2075
235 725 2150
11 267 212
11 280 273
11 291 328
11 299 397
11 321 498
11 352 626
11 394 778
11 443 952
11 490 1133
11 539 1315
11 588 1480
21 635 1635
53 679 1786
111 716 1917
181 750 2038
241 778 2133
285 800 2207
11 420 286
11 427 332
11 437 382
11 447 447
11 458 538
11 477 666
11 511 826
11 555 1010
11 600 1199
11 646 1383
14 693 1549
44 741 1712
113 789 1874
204 828 2011
272 861 2129
320 888 2221
354 909 2294
11 589 372
11 594 411
11 605 456
11 615 519
11 629 608
11 646 730
11 671 893
11 713 1094
11 760 1296
18 810 1491
71 860 1670
165 908 1847
267 956 2016
333 995 2153
376 1029 2264
407 1057 2352
432 1080 2424
37 811 489
37 816 525
36 827 568
35 839 628
30 855 719
22 876 841
20 901 1005
24 936 1213
57 989 1434
148 1045 1644
254 1100 1842
337 1148 2032
396 1192 2201
440 1230 2330
476 1261 2437
504 1285 2520
525 1305 2586
324 1106 654
321 1109 689
323 1121 734
322 1139 796
319 1155 883
311 1178 1013
277 1209 1178
217 1244 1383
239 1285 1601
326 1342 1825
399 1394 2037
456 1439 2230
502 1478 2393
541 1512 2519
574 1541 2620
598 1561 2697
615 1577 2755
529 1441 859
526 1445 897
522 1454 943
522 1472 1010
516 1491 1097
514 1513 1226
504 1542 1390
475 1576 1581
442 1608 1782
457 1645 1995
507 1696 2214
561 1741 2409
607 1779 2570
645 1808 2688
678 1833 2783
700 1850 2852
715 1863 2904
714 1799 1100
708 1802 1137
699 1808 1183
699 1826 1251
695 1844 1337
689 1862 1455
690 1887 1612
678 1919 1790
647 1948 1971
622 1972 2171
638 1998 2369
689 2045 2565
736 2082 2723
774 2109 2833
806 2130 2920
828 2146 2982
845 2158 3031
916 2126 1326
908 2130 1365
898 2136 1411
895 2150 1476
893 2168 1560
880 2182 1662
883 2203 1808
889 2233 1976
880 2257 2143
856 2278 2331
840 2293 2514
857 2320 2691
894 2352 2840
927 2375 2943
955 2394 3023
978 2407 3082
994 2418 3127
1117 2402 1518
1110 2406 1555
1101 2412 1599
1097 2423 1659
1100 2443 1742
1089 2455 1835
1089 2472 1965
1108 2497 2124
1111 2519 2291
1096 2536 2468
1075 2549 2640
1057 2559 2793
1063 2575 2924
1086 2597 3024
1108 2614 3101
1125 2626 3158
1142 2638 3200
1306 2621 1665
1298 2624 1699
1291 2630 1742
1284 2640 1799
1291 2658 1877
1282 2671 1965
1276 2684 2081
1298 2707 2238
1307 2729 2408
1296 2746 2582
1270 2756 2742
1246 2763 2881
1225 2766 2993
1229 2778 3084
1245 2794 3160
1261 2806 3215
1283 2818 3256
1446 2777 1772
1438 2780 1805
1433 2786 1845
1430 2796 1899
1436 2812 1971
1427 2823 2054
1419 2836 2165
1437 2857 2322
1445 2876 2493
1434 2892 2664
1409 2901 2818
1385 2907 2945
1361 2910 3049
1343 2911 3128
1351 2921 3200
1372 2935 3254
1400 2948 3293
1566 2901 1856
1558 2903 1887
1554 2908 1925
1550 2916 1975
1553 2930 2044
1544 2943 2127
1534 2954 2238
1547 2971 2396
1554 2989 2567
1539 3002 2731
1518 3012 2877
1497 3019 2997
1478 3023 3097
1458 3024 3172
1450 3024 3232
1493 3042 3284
1529 3055 3323
1680 2997 1932
1675 2999 1962
1670 3003 1999
1666 3010 2049
1669 3024 2119
1660 3034 2205
1648 3044 2318
1663 3059 2475
1674 3075 2644
1656 3088 2800
1633 3098 2933
1615 3105 3045
1601 3111 3138
1584 3112 3209
1573 3114 3264
1596 3120 3307
1640 3133 3344
1793 3073 2010
1790 3076 2041
1785 3079 2077
1782 3086 2129
1785 3097 2201
1775 3105 2290
1766 3113 2404
1782 3127 2556
1799 3142 2719
1791 3154 2862
1773 3163 2985
1752 3171 3087
1730 3177 3173
1707 3180 3239
1698 3184 3291
1710 3187 3330
1739 3192 3361
25 1 138
25 1 191
25 2 261
25 6 339
25 17 432
25 52 551
25 145 697
25 252 864
25 321 1042
25 383 1230
25 437 1396
26 483 1540
36 525 1680
84 562 1806
147 595 1922
205 620 2016
257 641 2093
25 21 141
25 37 203
25 35 275
25 44 354
25 77 450
25 138 570
25 228 715
25 301 881
25 361 1058
25 420 1246
25 471 1410
28 517 1557
49 562 1702
106 600 1830
170 631 1946
228 656 2039
275 677 2114
25 111 155
25 120 217
25 132 293
25 151 372
25 188 471
25 245 593
25 305 738
25 359 905
25 412 1082
25 467 1269
26 517 1434
33 566 1587
70 612 1737
141 648 1866
212 680 1983
266 706 2077
305 728 2151
25 273 204
25 280 264
25 294 332
25 306 402
25 326 501
25 358 630
25 399 781
25 445 953
25 492 1134
25 541 1316
28 591 1481
55 639 1638
125 683 1791
199 721 1924
267 756 2045
316 783 2139
351 806 2215
25 423 281
25 428 326
25 438 385
25 452 451
25 464 542
25 483 671
25 518 831
25 560 1015
25 604 1201
31 649 1385
51 697 1553
118 746 1717
212 794 1879
284 833 2017
339 867 2136
375 893 2228
401 914 2301
26 592 371
26 596 407
25 604 458
26 619 522
26 634 612
25 652 734
25 677 898
26 719 1098
31 765 1300
67 814 1494
149 863 1672
248 912 1850
331 962 2022
385 1002 2159
422 1037 2272
450 1065 2360
473 1088 2432
116 817 489
114 819 524
110 826 570
99 843 631
92 861 722
63 883 846
49 909 1009
55 944 1218
108 997 1439
214 1053 1649
320 1108 1849
389 1156 2039
444 1202 2210
486 1240 2340
518 1271 2447
544 1296 2529
564 1315 2595
385 1115 656
383 1118 691
379 1123 737
377 1141 800
373 1163 888
367 1187 1018
339 1218 1184
298 1255 1389
318 1295 1607
387 1352 1832
449 1405 2045
502 1451 2239
548 1492 2405
585 1527 2530
616 1554 2631
641 1575 2707
658 1591 2766
572 1452 863
568 1455 900
563 1461 949
560 1477 1014
557 1501 1105
554 1524 1232
545 1552 1397
520 1588 1589
492 1621 1790
506 1658 2003
555 1709 2222
606 1754 2418
652 1794 2581
689 1823 2698
722 1848 2793
745 1867 2862
761 1880 2914
760 1812 1104
755 1814 1141
746 1819 1190
736 1830 1254
735 1855 1346
729 1874 1461
729 1899 1619
720 1930 1797
693 1960 1979
668 1985 2179
685 2011 2377
735 2059 2574
784 2098 2733
823 2124 2843
859 2147 2930
882 2163 2992
898 2175 3040
972 2139 1332
960 2141 1370
950 2147 1418
938 2156 1479
937 2177 1566
926 2194 1668
925 2214 1814
931 2243 1982
925 2268 2150
902 2290 2339
891 2307 2522
909 2333 2699
947 2366 2849
979 2390 2952
1009 2410 3032
1030 2423 3091
1045 2434 3136
1173 2415 1523
1163 2417 1559
1152 2421 1605
1141 2430 1663
1140 2448 1745
1135 2466 1842
1131 2483 1970
1148 2507 2129
1154 2530 2297
1141 2548 2476
1122 2562 2648
1106 2572 2801
1114 2590 2932
1137 2611 3032
1160 2629 3109
1176 2641 3166
1191 2652 3208
1364 2631 1669
1354 2633 1702
1341 2637 1746
1330 2645 1802
1328 2662 1879
1327 2680 1971
1319 2693 2085
1337 2715 2243
1347 2738 2414
1336 2756 2589
1312 2767 2749
1291 2775 2888
1274 2779 3000
1278 2791 3091
1295 2808 3168
1310 2820 3222
1330 2831 3262
1498 2786 1776
1489 2788 1808
1480 2793 1849
1474 2801 1901
1474 2816 1972
1472 2832 2060
1461 2845 2169
1474 2864 2327
1482 2884 2498
1472 2900 2670
1448 2909 2824
1426 2916 2951
1407 2921 3056
1390 2922 3135
1398 2933 3206
1422 2947 3260
1450 2960 3299
1620 2910 1859
1613 2912 1890
1605 2915 1929
1599 2922 1979
1597 2935 2046
1593 2951 2133
1579 2963 2243
1589 2979 2401
1596 2996 2573
1579 3009 2737
1556 3019 2883
1536 3027 3003
1520 3033 3103
1502 3034 3178
1496 3035 3238
1539 3052 3289
1577 3065 3327
1740 3006 1935
1735 3008 1966
1729 3011 2004
1722 3017 2053
1720 3028 2121
1715 3042 2211
1702 3052 2325
1714 3066 2481
1726 3083 2651
1708 3096 2807
1681 3105 2939
1657 3113 3051
1645 3119 3144
1630 3121 3214
1621 3123 3269
1644 3129 3311
1690 3142 3348
1855 3082 2013
1851 3084 2043
1847 3087 2082
1839 3092 2132
1839 3102 2204
1835 3113 2296
1824 3121 2411
1836 3134 2562
1854 3150 2725
1846 3161 2868
1828 3171 2991
1807 3178 3092
1786 3185 3179
1765 3189 3244
1753 3192 3296
1764 3196 3335
1795 3201 3364
43 3 156
43 3 208
43 5 278
43 11 356
43 23 446
43 66 564
43 165 708
43 264 874
43 329 1051
43 389 1238
43 443 1404
48 489 1549
86 532 1691
159 569 1817
239 602 1934
303 630 2032
345 652 2109
43 36 159
43 53 215
43 61 289
43 67 368
43 94 461
43 160 581
43 243 725
43 311 891
43 369 1067
43 427 1254
43 478 1419
55 524 1566
112 570 1712
192 606 1840
266 639 1957
321 665 2053
