滤镜资源/Professional Luts Collection/Triune-Digital-Cinematic-LUTs/3D LUTs (3DL)/REDLOGFILM/Harry Potter - REDlogFilm.3dl
# Created by Benjamin (IWLTBAP) : http://luts.iwltbap.com
# Copyright: (C) Copyright 2016 Triune Films and IWLTBAP
# Blockbuster LUTs Pack
0 128 256 384 512 640 768 896 1023
0 0 104
0 1 233
0 9 412
0 119 683
0 310 1032
0 429 1388
0 518 1675
22 588 1915
87 633 2084
0 99 170
0 114 285
0 175 468
0 299 738
0 413 1088
0 517 1437
0 607 1732
52 674 1976
160 722 2147
0 421 291
0 434 379
0 454 535
0 507 822
0 597 1197
0 691 1547
47 785 1870
209 857 2123
316 905 2289
7 808 490
11 826 567
9 850 717
2 897 1002
22 983 1430
206 1093 1837
357 1184 2194
442 1253 2430
492 1297 2579
496 1433 857
493 1452 942
484 1484 1092
470 1534 1385
403 1599 1777
469 1686 2207
570 1767 2561
641 1820 2774
680 1851 2896
875 2117 1323
861 2129 1408
856 2160 1554
851 2195 1804
844 2248 2138
799 2282 2508
851 2340 2834
913 2381 3016
953 2406 3121
1264 2613 1663
1252 2624 1739
1257 2652 1874
1243 2677 2078
1275 2722 2403
1236 2747 2737
1186 2756 2987
1205 2783 3155
1245 2808 3251
1523 2894 1853
1516 2903 1923
1519 2926 2042
1501 2948 2233
1524 2983 2562
1487 3006 2872
1444 3016 3093
1415 3016 3228
1493 3048 3319
1746 3067 2008
1739 3074 2075
1742 3091 2198
1723 3107 2400
1758 3136 2714
1734 3157 2980
1689 3171 3169
1660 3177 3288
1699 3186 3358
25 1 138
25 2 261
25 17 432
25 145 697
25 321 1042
25 437 1396
36 525 1680
147 595 1922
257 641 2093
25 111 155
25 132 293
25 188 471
25 305 738
25 412 1082
26 517 1434
70 612 1737
212 680 1983
305 728 2151
25 423 281
25 438 385
25 464 542
25 518 831
25 604 1201
51 697 1553
212 794 1879
339 867 2136
401 914 2301
116 817 489
110 826 570
92 861 722
49 909 1009
108 997 1439
320 1108 1849
444 1202 2210
518 1271 2447
564 1315 2595
572 1452 863
563 1461 949
557 1501 1105
545 1552 1397
492 1621 1790
555 1709 2222
652 1794 2581
722 1848 2793
761 1880 2914
972 2139 1332
950 2147 1418
937 2177 1566
925 2214 1814
925 2268 2150
891 2307 2522
947 2366 2849
1009 2410 3032
1045 2434 3136
1364 2631 1669
1341 2637 1746
1328 2662 1879
1319 2693 2085
1347 2738 2414
1312 2767 2749
1274 2779 3000
1295 2808 3168
1330 2831 3262
1620 2910 1859
1605 2915 1929
1597 2935 2046
1579 2963 2243
1596 2996 2573
1556 3019 2883
1520 3033 3103
1496 3035 3238
1577 3065 3327
1855 3082 2013
1847 3087 2082
1839 3102 2204
1824 3121 2411
1854 3150 2725
1828 3171 2991
1786 3185 3179
1753 3192 3296
1795 3201 3364
112 5 172
79 8 290
66 36 469
66 200 726
66 344 1068
84 453 1418
236 543 1709
380 618 1961
444 668 2133
139 159 173
123 188 301
66 236 495
66 331 760
67 432 1104
115 535 1454
299 631 1761
411 704 2016
471 755 2187
123 442 243
97 449 352
73 482 554
71 529 834
94 608 1198
258 712 1565
410 813 1902
487 887 2160
540 939 2329
393 847 488
368 854 568
345 874 732
311 937 1029
378 1022 1459
491 1133 1873
582 1235 2243
644 1304 2479
684 1349 2630
730 1506 880
718 1511 965
692 1529 1130
677 1595 1425
644 1664 1818
700 1755 2257
792 1845 2619
858 1898 2828
896 1932 2951
1167 2187 1345
1134 2189 1429
1082 2202 1584
1058 2253 1833
1070 2307 2176
1047 2352 2552
1107 2414 2878
1168 2458 3061
1201 2483 3164
1554 2666 1678
1529 2672 1755
1480 2683 1894
1462 2725 2102
1475 2768 2434
1446 2800 2775
1421 2818 3023
1443 2848 3190
1474 2869 3281
1813 2942 1870
1800 2948 1941
1783 2960 2061
1761 2992 2267
1762 3023 2594
1705 3047 2905
1654 3061 3123
1650 3069 3256
1732 3094 3340
2053 3111 2024
2043 3116 2094
2029 3125 2221
2019 3149 2439
2037 3176 2748
2016 3198 3010
1971 3211 3195
1940 3219 3309
1975 3226 3375
826 192 164
803 202 304
740 223 494
590 300 793
519 403 1136
557 502 1480
621 600 1799
673 679 2059
702 730 2226
876 290 134
894 293 279
803 319 502
602 396 815
532 484 1164
571 583 1516
633 690 1853
685 768 2113
717 820 2278
942 492 146
967 485 248
899 516 512
640 585 881
569 656 1246
608 764 1626
676 875 1989
726 950 2239
764 1006 2404
959 931 409
940 935 500
896 944 678
695 998 1070
671 1075 1492
729 1192 1926
795 1292 2294
847 1362 2530
884 1408 2694
1246 1615 844
1205 1627 946
1106 1649 1141
933 1668 1478
892 1750 1883
940 1843 2337
1025 1927 2692
1089 1979 2891
1121 2011 3015
1621 2279 1333
1575 2288 1435
1470 2284 1596
1344 2315 1883
1329 2386 2233
1319 2438 2615
1375 2493 2931
1424 2536 3109
1446 2559 3209
1957 2742 1679
1920 2745 1764
1874 2757 1912
1821 2783 2143
1780 2832 2468
1723 2864 2821
1684 2883 3065
1713 2910 3222
1750 2929 3306
2195 3000 1866
2184 3009 1946
2168 3024 2078
2132 3042 2316
2104 3080 2639
2066 3104 2947
1998 3117 3157
2007 3126 3280
2050 3143 3359
2385 3158 2035
2381 3166 2113
2372 3177 2249
2351 3192 2490
2354 3222 2791
2350 3244 3045
2319 3260 3221
2289 3268 3330
2312 3272 3394
1561 346 150
1549 353 302
1509 374 502
1374 417 833
1229 523 1260
1166 622 1620
1153 728 1987
1144 800 2234
1138 849 2389
1598 398 72
1597 406 268
1556 427 493
1401 480 842
1226 600 1283
1163 707 1658
1153 818 2037
1141 893 2281
1137 944 2436
1657 557 44
1669 540 181
1668 542 446
1471 650 887
1249 784 1369
1162 896 1767
1161 1011 2158
1157 1087 2394
1167 1141 2548
1820 979 149
1831 973 246
1847 960 427
1696 1077 994
1313 1245 1622
1208 1335 2053
1222 1426 2413
1235 1485 2637
1258 1529 2792
1957 1751 696
1942 1760 796
1900 1784 1004
1802 1828 1417
1497 1902 1973
1442 1972 2416
1481 2039 2756
1536 2088 2972
1561 2120 3109
2226 2371 1204
2217 2387 1311
2191 2415 1515
2116 2462 1856
1970 2513 2298
1879 2567 2699
1871 2608 3006
1905 2644 3171
1900 2664 3267
2498 2811 1607
2489 2822 1696
2474 2842 1853
2425 2878 2127
2363 2922 2525
2284 2962 2878
2249 2981 3116
2255 3001 3258
2223 3014 3345
2664 3057 1818
2659 3066 1898
2650 3083 2038
2628 3113 2314
2600 3149 2710
2579 3180 3004
2535 3196 3199
2538 3203 3313
2489 3210 3390
2782 3204 2016
2781 3212 2096
2775 3226 2243
2755 3249 2512
2723 3273 2825
2726 3299 3085
2701 3313 3254
2678 3321 3359
2686 3322 3418
2189 443 231
2188 453 340
2168 482 533
2093 561 897
1985 674 1385
1909 791 1835
1869 893 2198
1838 972 2427
1830 1027 2575
2223 486 181
2223 495 316
2208 525 522
2142 610 904
2001 739 1398
1926 881 1874
1884 991 2242
1854 1073 2473
1851 1130 2621
2272 593 60
2289 580 201
2312 593 449
2257 704 908
2063 913 1463
1976 1092 1982
1927 1201 2349
1910 1281 2575
1913 1337 2724
2416 989 89
2429 980 213
2461 936 350
2457 1064 926
2277 1374 1677
2127 1556 2239
2062 1618 2572
2062 1673 2779
2086 1714 2918
2678 1746 415
2690 1748 467
2715 1749 580
2726 1812 1050
2647 1990 1859
2390 2160 2537
2336 2197 2851
2345 2229 3043
2356 2253 3166
2745 2425 1043
2743 2439 1141
2742 2472 1347
2753 2528 1730
2730 2613 2239
2615 2687 2754
2583 2723 3041
2574 2749 3210
2573 2768 3304
2898 2856 1463
2897 2867 1551
2898 2889 1727
2916 2932 2026
2885 2991 2458
2812 3036 2919
2786 3066 3153
2755 3082 3297
2743 3095 3379
3019 3091 1716
3019 3099 1799
3023 3116 1948
3025 3149 2216
2982 3196 2676
2934 3228 3035
2915 3252 3233
2904 3257 3342
2878 3265 3415
3097 3232 1946
3097 3241 2029
3093 3254 2183
3075 3281 2474
3039 3313 2831
3011 3335 3110
3008 3351 3283
2991 3358 3380
2988 3359 3435
2594 521 287
2595 531 380
2595 564 563
2591 683 962
2563 857 1526
2480 977 2005
2461 1090 2398
2436 1157 2608
2430 1220 2748
2620 563 266
2621 572 364
2624 604 551
2621 727 961
2583 905 1531
2496 1048 2029
2482 1173 2430
2460 1248 2643
2455 1311 2783
2663 640 140
2676 641 266
2692 669 489
2700 804 947
2631 1011 1546
2551 1240 2116
2538 1377 2521
2519 1451 2733
2518 1509 2869
2761 1000 204
2769 991 277
2793 941 381
2831 1027 879
2796 1393 1677
2700 1665 2328
2665 1772 2703
2642 1815 2896
2651 1848 3019
3001 1713 341
3006 1706 384
3019 1683 455
3046 1713 846
3035 1972 1803
2905 2216 2576
2844 2291 2923
2832 2310 3100
2832 2332 3205
3153 2387 784
3153 2388 838
3154 2404 998
3168 2473 1424
3161 2591 2051
3047 2717 2727
2976 2784 3078
2964 2796 3237
2960 2814 3323
3186 2861 1377
3185 2868 1453
3182 2889 1620
3186 2941 1945
3168 3013 2483
3100 3071 2934
3063 3106 3176
3057 3123 3313
3057 3135 3394
3251 3101 1625
3250 3108 1695
3248 3125 1846
3251 3163 2145
3219 3221 2667
3175 3256 3008
3145 3280 3249
3134 3289 3358
3123 3297 3430
3298 3240 1815
3296 3248 1898
3293 3268 2079
3280 3299 2404
3252 3335 2787
3212 3358 3110
3199 3373 3300
3195 3382 3395
3189 3382 3449
2831 593 325
2832 602 410
2837 641 596
2846 779 1013
2842 995 1620
2784 1142 2132
2767 1261 2519
2765 1330 2746
2758 1378 2871
2847 634 305
2849 643 395
2853 677 579
2864 815 1003
2861 1038 1621
2796 1195 2146
2781 1320 2539
2779 1398 2768
2775 1450 2893
2877 707 197
2885 714 314
2895 745 526
2914 883 979
2908 1123 1628
2833 1326 2196
2825 1488 2607
2823 1570 2833
2818 1605 2953
2941 1020 228
2946 1008 295
2962 975 426
2996 1075 917
3004 1401 1681
2949 1690 2356
2926 1841 2761
2917 1898 2965
2920 1916 3080
3138 1688 347
3138 1682 402
3147 1686 528
3169 1789 1030
3167 2040 1875
3095 2248 2578
3059 2333 2952
3047 2366 3125
3047 2369 3226
3301 2362 746
3302 2365 806
3306 2380 953
3311 2494 1491
3281 2636 2154
3219 2735 2723
3164 2813 3094
3142 2831 3246
3141 2836 3334
3374 2848 1298
3371 2858 1387
3364 2891 1602
3346 2957 1986
3306 3034 2515
3276 3082 2903
3244 3122 3175
3221 3146 3327
3217 3152 3403
3400 3103 1615
3397 3112 1702
3386 3142 1923
3364 3189 2283
3325 3242 2772
3298 3274 3064
3277 3295 3257
3268 3309 3371
3266 3316 3441
3416 3249 1858
3412 3260 1954
3404 3282 2141
3379 3317 2483
3358 3351 2825
3330 3373 3109
3309 3385 3299
3307 3396 3407
3302 3397 3459
2954 657 362
2956 666 446
2963 700 625
2981 839 1045
2989 1067 1660
2955 1249 2211
2933 1367 2591
2933 1443 2816
2932 1485 2944
2965 698 346
2967 706 431
2974 737 610
2994 875 1034
3004 1106 1657
2964 1298 2222
2945 1420 2608
2945 1500 2833
2946 1549 2964
2987 770 277
2991 779 377
2999 809 573
3022 941 1007
3034 1184 1655
2988 1400 2252
2978 1556 2660
2980 1638 2885
2981 1681 3013
3036 1077 326
3039 1076 404
3048 1086 581
3080 1211 1041
3103 1485 1724
3067 1724 2373
3057 1868 2791
3059 1935 3002
3062 1973 3115
3212 1746 487
3214 1757 572
3224 1803 781
3241 1902 1233
3247 2089 1923
3194 2281 2593
3167 2361 2965
3159 2396 3142
3156 2413 3237
3361 2434 1018
3362 2447 1111
3366 2478 1292
3369 2560 1663
3355 2662 2193
3301 2757 2745
3259 2829 3098
3245 2854 3258
3236 2863 3340
3435 2901 1567
3432 2913 1657
3426 2941 1832
3409 2993 2156
3390 3047 2541
3355 3095 2919
3325 3138 3186
3313 3163 3337
3303 3166 3408
3457 3153 1904
3453 3163 1992
3444 3183 2159
3421 3215 2443
3401 3253 2764
3376 3285 3060
3358 3304 3259
3354 3323 3379
3345 3326 3447
3464 3291 2142
3458 3300 2233
3446 3315 2396
3424 3339 2667
3404 3364 2939
3380 3383 3174
3370 3394 3326
3367 3405 3416
3367 3408 3467
