滤镜资源/Professional Luts Collection/Triune-Digital-Cinematic-LUTs/3D LUTs (3DL)/REDLOGFILM/Indiana Jones - REDlogFilm.3dl
# Created by Benjamin (IWLTBAP) : http://luts.iwltbap.com
# Copyright: (C) Copyright 2016 Triune Films and IWLTBAP
# Blockbuster LUTs Pack
0 128 256 384 512 640 768 896 1023
34 51 40
42 57 109
67 81 268
112 124 574
184 147 909
255 152 1153
301 141 1318
319 128 1399
335 126 1463
38 140 50
45 138 114
75 161 267
125 230 576
201 260 940
285 274 1226
320 259 1383
346 249 1479
361 256 1556
48 296 67
57 296 136
73 309 280
135 389 598
235 453 1015
319 502 1348
379 525 1579
399 504 1664
413 494 1723
62 602 98
65 599 176
84 614 344
160 660 659
266 748 1088
355 814 1444
425 876 1711
464 910 1861
488 926 1952
113 1063 165
114 1063 257
127 1057 419
227 1145 832
322 1191 1249
411 1260 1596
479 1319 1855
532 1392 2055
568 1432 2181
174 1530 211
176 1531 308
184 1526 482
259 1562 873
389 1679 1443
474 1722 1769
534 1750 2006
578 1784 2174
613 1828 2306
217 1881 225
222 1868 332
219 1856 495
278 1878 911
438 2044 1558
536 2108 1932
585 2116 2141
623 2133 2296
650 2144 2402
250 2134 245
254 2125 349
254 2108 522
289 2054 879
465 2276 1623
574 2361 2037
627 2380 2263
662 2383 2395
690 2393 2496
269 2311 252
271 2305 359
275 2290 526
294 2187 847
470 2404 1618
591 2518 2088
657 2557 2338
693 2562 2475
717 2570 2567
118 65 45
123 63 115
148 71 272
180 105 580
242 132 901
299 141 1132
330 129 1279
345 115 1359
363 111 1429
118 149 50
137 160 128
168 186 310
210 255 696
304 298 1088
363 307 1349
382 286 1454
421 288 1603
454 316 1722
124 308 65
137 329 145
155 346 315
226 456 701
325 546 1147
402 585 1476
449 591 1676
469 568 1764
491 577 1851
140 627 98
157 670 190
171 669 382
245 734 742
355 855 1224
447 945 1598
504 1000 1839
540 1028 1988
568 1052 2092
202 1107 159
214 1153 252
221 1165 441
313 1249 922
395 1284 1337
492 1378 1711
549 1423 1956
606 1502 2164
639 1537 2284
256 1576 191
261 1617 284
278 1623 480
326 1636 908
462 1769 1521
541 1798 1845
593 1816 2068
639 1863 2251
672 1904 2378
290 1936 196
300 1970 289
313 1957 476
354 1980 944
509 2146 1627
599 2177 1993
645 2182 2204
683 2201 2362
709 2207 2462
320 2170 189
395 2232 270
337 2211 483
366 2194 893
534 2380 1682
635 2430 2103
687 2444 2324
721 2445 2457
746 2452 2553
359 2354 180
444 2408 264
367 2398 489
377 2355 852
542 2531 1698
656 2600 2167
716 2620 2395
748 2622 2528
772 2634 2624
344 89 51
338 89 124
304 84 287
319 116 598
357 122 941
394 139 1157
417 138 1299
432 132 1387
448 129 1459
324 180 52
380 200 130
362 189 337
373 226 748
412 264 1144
450 279 1369
463 258 1461
495 269 1602
522 287 1714
300 345 56
335 371 123
396 433 387
418 557 901
520 653 1479
582 652 1807
621 656 1998
636 651 2081
668 682 2205
303 687 93
325 719 173
365 812 432
425 920 915
519 1082 1453
613 1191 1863
665 1222 2104
696 1237 2246
730 1282 2371
345 1168 130
366 1199 217
400 1320 417
458 1419 1030
539 1474 1495
625 1563 1889
696 1636 2171
744 1699 2360
773 1730 2478
429 1645 141
489 1673 221
505 1743 414
467 1816 961
603 1967 1659
661 1948 1967
724 2001 2234
775 2057 2431
807 2091 2556
536 1994 122
624 2031 210
702 2096 380
490 2181 932
636 2340 1736
713 2341 2125
762 2322 2331
805 2357 2505
836 2385 2626
621 2234 98
772 2291 168
854 2348 346
518 2404 862
649 2569 1757
752 2625 2235
803 2608 2450
833 2597 2580
858 2616 2690
690 2406 84
839 2461 151
891 2517 349
526 2571 884
655 2721 1760
776 2808 2293
834 2819 2534
860 2794 2658
877 2778 2742
1007 175 114
1045 175 194
921 158 351
736 116 573
682 138 1000
641 180 1389
635 174 1547
641 164 1624
651 160 1686
907 261 103
1189 330 226
1182 323 429
969 229 711
757 237 1112
685 277 1456
659 268 1609
674 263 1717
698 272 1829
881 446 99
1032 484 186
1229 611 481
1249 568 948
1117 541 1450
893 511 1739
836 510 1963
829 508 2075
861 525 2209
829 762 90
929 792 158
1034 891 342
1209 1231 1155
1210 1399 1781
1185 1489 2253
1102 1487 2520
1080 1527 2701
1112 1599 2810
842 1239 80
922 1265 142
1025 1325 278
1161 1730 1113
1077 1844 1766
1103 1971 2213
1080 2035 2515
1086 2077 2724
1112 2143 2859
964 1717 59
1040 1732 102
1117 1788 245
1111 2113 922
1024 2322 1858
1040 2298 2203
1058 2373 2508
1065 2416 2726
1087 2464 2866
1044 2038 67
1151 2073 78
1284 2133 235
1180 2444 901
962 2648 1868
1034 2687 2330
1049 2644 2543
1061 2685 2748
1085 2720 2884
1130 2262 75
1246 2312 84
1367 2358 211
1193 2642 824
940 2889 1881
995 2949 2414
1035 2910 2643
1070 2891 2786
1102 2931 2925
1181 2430 80
1296 2478 88
1448 2524 175
1101 2809 892
935 3041 1890
1016 3119 2457
1069 3130 2738
1109 3110 2879
1141 3100 2974
1875 302 146
1896 294 243
1819 273 460
1592 202 686
1467 159 991
1604 199 1470
1539 217 1751
1480 217 1859
1384 220 1928
1773 414 154
2041 468 278
2073 439 528
1878 354 815
1608 259 1066
1655 286 1503
1596 298 1774
1484 297 1866
1466 307 1972
1679 586 154
1843 661 271
2162 833 611
2200 788 1063
2078 531 1357
1897 462 1678
1774 457 1920
1695 465 2045
1658 481 2161
1684 930 122
1808 971 208
1941 1104 441
2239 1468 1218
2334 1447 1789
2275 1290 2210
2158 1125 2441
2079 1124 2617
2031 1298 2754
1748 1389 102
1831 1415 167
1934 1448 302
2033 1759 830
2270 2204 1994
2211 2332 2465
2166 2376 2774
2115 2446 2971
2110 2528 3100
1713 1792 68
1816 1848 96
1914 1890 227
1874 2106 597
2112 2628 1993
2118 2716 2466
2082 2777 2787
2016 2826 2988
2047 2887 3129
1736 2133 74
1812 2165 81
1899 2204 146
1860 2413 515
2026 2959 2015
1953 3046 2535
1947 3052 2802
1934 3095 3011
1951 3133 3147
1732 2334 77
1778 2371 84
1873 2417 99
1900 2592 434
1979 3186 2065
1920 3289 2600
1842 3301 2887
1858 3294 3046
1943 3340 3184
1747 2482 81
1798 2522 88
1915 2576 98
1900 2758 435
1879 3335 2138
1893 3442 2651
1821 3461 2939
1830 3469 3111
1906 3485 3221
2546 402 207
2537 377 315
2469 359 512
2308 302 773
2242 268 1102
2302 283 1459
2376 280 1781
2387 278 1904
2392 276 1979
2467 543 185
2642 573 337
2662 521 576
2550 455 890
2358 377 1173
2324 364 1484
2411 362 1790
2423 359 1911
2414 355 1986
2379 787 183
2532 845 313
2730 947 639
2819 892 1104
2701 644 1416
2524 536 1620
2549 514 1881
2542 507 2019
2532 509 2123
2314 1074 142
2412 1131 229
2554 1300 492
2836 1615 1296
2918 1611 1835
2911 1347 2129
2872 1045 2310
2832 934 2443
2871 1074 2641
2315 1486 103
2385 1531 169
2444 1594 316
2607 1935 938
2923 2364 2030
2978 2363 2466
2947 2315 2791
2927 2364 2978
2940 2463 3104
2259 1886 75
2328 1941 90
2397 1980 220
2487 2214 589
2766 2651 1794
2985 2946 2618
3033 3055 2963
3031 3112 3163
3088 3181 3294
2244 2230 81
2301 2259 88
2369 2283 131
2409 2473 439
2637 2929 1603
2963 3265 2661
2942 3310 2990
3006 3369 3201
3092 3432 3330
2212 2440 83
2269 2463 90
2346 2506 101
2360 2637 304
2633 3130 1566
2947 3495 2754
2937 3540 3057
2917 3552 3219
3053 3606 3352
2181 2576 85
2238 2607 91
2316 2669 102
2346 2814 253
2674 3317 1736
2949 3655 2844
2990 3692 3108
2983 3706 3272
3010 3717 3377
2914 459 226
2881 430 365
2811 405 582
2647 345 812
2562 310 1148
2573 313 1482
2620 306 1758
2644 302 1904
2649 301 1978
2904 589 228
2999 620 355
2995 565 624
2900 501 959
2711 432 1241
2617 394 1523
2634 381 1773
2650 377 1910
2653 376 1983
2788 887 229
2894 928 338
3069 995 635
3148 893 1116
3027 706 1470
2866 586 1688
2773 535 1865
2801 539 2016
2850 555 2130
2691 1171 164
2766 1206 257
2905 1365 495
3172 1677 1251
3281 1715 1844
3260 1470 2146
3156 1147 2290
3149 1043 2418
3211 1171 2589
2642 1581 89
2708 1610 167
2776 1708 328
2990 2033 974
3303 2425 1997
3385 2464 2481
3405 2409 2739
3424 2402 2937
3438 2498 3077
2578 1968 79
2624 1995 87
2701 2049 201
2857 2323 690
3169 2735 1800
3424 3036 2658
3446 3076 2965
3465 3157 3172
3472 3206 3288
2529 2260 84
2580 2294 91
2646 2330 120
2760 2551 449
3052 2962 1581
3327 3274 2514
3531 3482 3094
3581 3543 3303
3624 3599 3423
2504 2472 87
2553 2508 93
2630 2568 104
2704 2709 285
2955 3122 1413
3284 3477 2520
3538 3676 3153
3557 3701 3311
3597 3751 3443
2479 2620 88
2529 2657 95
2612 2747 106
2711 2889 256
2949 3300 1518
3333 3662 2693
3544 3791 3179
3558 3814 3336
3568 3825 3433
3113 482 254
3072 459 404
2991 422 614
2758 347 814
2677 314 1153
2693 317 1498
2729 309 1749
2754 305 1903
2764 305 1980
3126 618 255
3196 662 388
3163 588 623
3064 518 971
2891 456 1279
2761 402 1548
2751 386 1774
2766 381 1913
2779 381 1990
3018 931 230
3109 948 351
3266 1064 662
3343 961 1145
3219 767 1511
3068 628 1754
2966 567 1925
2950 557 2048
3008 577 2169
2909 1233 171
2986 1269 271
3128 1399 495
3376 1724 1232
3488 1782 1837
3449 1588 2172
3364 1287 2347
3314 1137 2466
3377 1276 2622
2843 1620 93
2916 1657 175
3000 1752 341
3188 2021 875
3509 2449 1975
3598 2495 2472
3606 2507 2769
3601 2454 2923
3625 2569 3081
2766 2005 82
2814 2029 89
2910 2093 209
3067 2328 645
3382 2733 1719
3639 3071 2628
3687 3126 2996
3688 3175 3181
3715 3237 3304
2724 2308 86
2769 2335 93
2849 2385 104
2992 2588 468
3288 2984 1568
3549 3274 2474
3745 3502 3108
3767 3554 3315
3799 3600 3427
2686 2498 89
2730 2543 95
2802 2603 106
2927 2772 319
3222 3173 1486
3506 3459 2459
3691 3654 3020
3815 3778 3369
3850 3800 3472
2670 2643 90
2713 2691 97
2796 2774 108
2933 2942 259
3197 3325 1554
3508 3639 2565
3700 3781 3066
3828 3867 3381
3839 3870 3465
3229 497 259
3168 471 403
3093 433 614
2891 369 832
2801 333 1180
2787 322 1514
2809 311 1764
2834 307 1908
2842 307 1982
3246 641 261
3301 682 409
3275 604 632
3182 531 980
2996 467 1282
2853 408 1558
2835 389 1792
2848 385 1920
2865 386 1998
3155 966 238
3240 984 363
3398 1114 721
3452 1009 1159
3350 820 1536
3211 665 1800
3118 605 1988
3102 593 2112
3112 595 2198
3058 1279 174
3145 1323 283
3263 1468 532
3488 1750 1241
3584 1799 1832
3569 1729 2228
3520 1515 2444
3489 1391 2576
3490 1423 2686
2975 1649 96
3040 1687 178
3153 1778 360
3357 2104 981
3628 2490 2008
3702 2540 2486
3709 2587 2806
3710 2581 2977
3720 2595 3085
2901 2029 84
2953 2052 91
3060 2108 220
3227 2359 657
3532 2777 1762
3732 3091 2645
3792 3172 3026
3793 3228 3218
3797 3238 3305
2841 2310 87
2889 2332 93
2986 2404 105
3155 2639 526
3439 3018 1606
3681 3302 2508
3851 3525 3126
3872 3581 3343
3874 3586 3423
2816 2529 90
2863 2575 96
2954 2647 108
3100 2841 393
3393 3210 1571
3658 3490 2498
3818 3662 3032
3903 3786 3376
3922 3792 3470
2786 2672 91
2832 2720 98
2915 2796 110
3059 2981 321
3359 3344 1608
3637 3619 2520
3790 3751 2998
3874 3842 3325
3922 3881 3468
