滤镜资源/Professional Luts Collection/Triune-Digital-Cinematic-LUTs/3D LUTs (3DL)/REDLOGFILM/Indiana Jones - REDlogFilm.3dl
# Created by Benjamin (IWLTBAP) : http://luts.iwltbap.com
# Copyright: (C) Copyright 2016 Triune Films and IWLTBAP
# Blockbuster LUTs Pack
0 64 128 192 256 320 384 448 512 576 640 704 768 832 896 960 1023
34 51 40
38 53 72
42 57 109
54 64 171
67 81 268
100 100 401
112 124 574
133 138 757
184 147 909
224 151 1042
255 152 1153
285 148 1250
301 141 1318
312 133 1362
319 128 1399
329 126 1435
335 126 1463
39 90 43
39 89 74
44 93 111
53 101 170
74 116 265
98 140 392
122 173 563
138 191 741
184 197 909
231 202 1054
265 201 1172
293 198 1275
311 195 1351
324 187 1399
333 181 1436
340 180 1470
349 179 1501
38 140 50
40 139 79
45 138 114
55 146 171
75 161 267
102 188 397
125 230 576
147 255 770
201 260 940
252 268 1102
285 274 1226
305 265 1311
320 259 1383
335 256 1439
346 249 1479
354 252 1520
361 256 1556
42 205 57
45 205 88
51 204 123
56 208 178
76 223 271
100 252 401
130 301 590
163 333 802
217 344 980
269 364 1155
304 385 1298
328 388 1401
345 380 1473
358 372 1523
367 365 1562
375 360 1597
384 362 1631
48 296 67
56 293 98
57 296 136
64 302 196
73 309 280
96 337 407
135 389 598
177 427 820
235 453 1015
281 480 1196
319 502 1348
354 520 1481
379 525 1579
392 517 1632
399 504 1664
407 498 1695
413 494 1723
51 421 79
55 421 110
61 422 150
63 431 217
72 439 307
97 451 423
147 499 609
186 544 829
246 580 1036
297 619 1231
333 641 1384
372 664 1530
404 684 1653
423 694 1730
437 693 1780
444 687 1813
451 680 1838
62 602 98
64 602 130
65 599 176
71 602 246
84 614 344
114 638 491
160 660 659
206 698 865
266 748 1088
315 788 1284
355 814 1444
395 847 1592
425 876 1711
446 894 1795
464 910 1861
477 921 1913
488 926 1952
90 827 129
95 826 167
94 827 218
100 821 285
111 824 383
141 859 553
185 894 751
235 916 942
292 956 1163
342 993 1362
383 1022 1520
423 1066 1668
455 1108 1794
479 1137 1889
498 1156 1964
513 1167 2021
524 1176 2066
113 1063 165
110 1065 207
114 1063 257
115 1065 326
127 1057 419
157 1082 580
227 1145 832
280 1176 1060
322 1191 1249
369 1223 1433
411 1260 1596
449 1292 1736
479 1319 1855
505 1355 1959
532 1392 2055
551 1416 2127
568 1432 2181
142 1318 203
144 1318 243
147 1319 292
146 1324 363
154 1312 464
181 1311 612
244 1373 862
311 1434 1153
356 1450 1349
400 1475 1522
443 1503 1681
478 1526 1817
505 1542 1929
531 1566 2025
558 1601 2119
580 1628 2194
597 1650 2256
174 1530 211
174 1530 256
176 1531 308
176 1533 374
184 1526 482
207 1507 642
259 1562 873
329 1645 1183
389 1679 1443
436 1705 1622
474 1722 1769
508 1739 1898
534 1750 2006
558 1764 2094
578 1784 2174
597 1807 2246
613 1828 2306
198 1714 222
202 1711 269
203 1711 323
201 1710 390
205 1706 487
222 1680 651
267 1736 893
348 1838 1225
417 1873 1510
470 1910 1712
506 1927 1857
536 1934 1972
560 1942 2078
581 1953 2163
599 1966 2238
616 1977 2300
630 1990 2353
217 1881 225
218 1874 274
222 1868 332
222 1862 404
219 1856 495
237 1841 653
278 1878 911
367 1999 1268
438 2044 1558
498 2088 1783
536 2108 1932
564 2114 2046
585 2116 2141
605 2123 2223
623 2133 2296
638 2139 2354
650 2144 2402
235 2015 233
234 2011 283
238 2002 341
239 1998 417
234 1985 512
247 1959 650
283 1977 905
373 2102 1273
452 2171 1594
515 2217 1825
558 2247 1989
586 2254 2107
609 2259 2205
627 2258 2277
644 2266 2348
659 2272 2404
671 2277 2450
250 2134 245
249 2131 296
254 2125 349
253 2122 421
254 2108 522
252 2065 651
289 2054 879
369 2170 1246
465 2276 1623
528 2322 1859
574 2361 2037
604 2375 2165
627 2380 2263
647 2382 2335
662 2383 2395
678 2388 2451
690 2393 2496
261 2231 249
264 2227 301
266 2225 355
268 2221 422
265 2210 525
262 2162 661
291 2124 859
365 2222 1214
470 2352 1628
537 2408 1885
584 2449 2068
619 2472 2208
644 2478 2307
663 2481 2379
679 2483 2441
693 2485 2491
705 2491 2537
269 2311 252
268 2308 305
271 2305 359
274 2302 427
275 2290 526
271 2244 669
294 2187 847
363 2266 1188
470 2404 1618
544 2477 1903
591 2518 2088
629 2548 2237
657 2557 2338
676 2559 2411
693 2562 2475
707 2566 2526
717 2570 2567
72 55 41
70 56 71
81 57 111
88 63 174
107 73 269
130 97 409
137 114 576
167 124 755
211 140 905
248 145 1035
278 145 1142
299 142 1233
313 135 1297
323 128 1342
329 122 1379
342 119 1418
347 119 1448
69 97 45
74 99 79
86 101 118
95 109 181
115 124 285
140 152 435
155 179 627
195 201 824
247 208 984
281 220 1129
306 217 1230
322 209 1306
339 206 1382
355 203 1443
366 200 1488
378 208 1540
385 209 1570
76 143 50
83 147 86
84 148 120
94 157 179
113 173 281
144 203 420
160 245 611
190 267 808
241 275 976
290 286 1146
313 289 1256
332 275 1335
350 271 1413
366 272 1480
376 271 1527
390 282 1581
399 284 1613
80 208 57
86 214 93
91 214 129
94 221 188
112 236 286
140 272 425
171 320 627
208 353 844
260 367 1021
302 388 1191
335 407 1333
355 404 1424
372 396 1495
384 390 1549
395 383 1591
405 387 1636
414 387 1671
84 299 66
89 308 101
94 307 140
101 314 204
110 323 295
134 359 431
179 418 644
224 462 875
278 496 1077
321 525 1257
361 544 1412
391 556 1539
415 559 1632
427 550 1684
434 537 1717
444 537 1760
450 534 1788
79 431 77
86 444 112
92 442 155
97 446 224
105 458 321
138 475 450
191 533 654
234 584 887
291 629 1104
338 672 1301
376 694 1458
411 712 1597
438 729 1708
457 742 1784
470 742 1834
480 745 1877
487 738 1903
97 613 98
104 629 133
103 627 181
107 619 254
121 636 360
154 664 515
197 690 694
246 738 913
304 791 1143
354 834 1345
395 866 1510
431 901 1651
458 926 1763
479 944 1847
496 960 1915
511 975 1971
521 980 2009
128 843 129
132 860 166
133 860 217
137 853 289
150 854 399
180 895 578
230 934 787
275 955 988
327 993 1208
379 1042 1416
420 1081 1577
457 1120 1718
488 1160 1844
511 1185 1938
530 1203 2014
546 1219 2073
559 1227 2119
152 1082 166
159 1103 209
159 1102 262
160 1107 333
167 1104 431
198 1121 602
266 1189 871
315 1220 1103
354 1231 1287
403 1271 1478
446 1311 1644
480 1338 1780
510 1366 1899
536 1399 2003
563 1439 2102
583 1461 2170
598 1477 2225
184 1336 196
192 1352 235
193 1356 286
193 1365 364
198 1362 466
219 1346 624
279 1406 887
343 1476 1189
387 1489 1384
431 1511 1559
472 1537 1715
505 1554 1845
532 1573 1960
559 1602 2061
586 1639 2157
607 1665 2230
623 1686 2291
213 1549 205
217 1565 245
219 1566 301
221 1569 375
225 1573 481
243 1548 645
289 1597 893
362 1691 1222
421 1718 1478
467 1739 1657
503 1755 1802
534 1767 1925
560 1780 2035
584 1798 2126
605 1819 2209
623 1840 2277
639 1861 2338
231 1738 210
234 1755 252
237 1753 311
244 1747 383
248 1745 486
262 1736 656
300 1775 915
380 1883 1258
448 1917 1541
500 1945 1744
535 1960 1886
563 1965 2001
587 1974 2107
607 1985 2193
627 1998 2268
641 2008 2328
655 2020 2381
251 1905 213
254 1923 258
257 1918 316
261 1910 393
266 1902 491
276 1897 655
310 1919 927
399 2043 1295
469 2087 1588
526 2121 1809
563 2138 1958
590 2143 2073
612 2143 2167
631 2153 2251
648 2162 2325
663 2166 2380
675 2171 2427
267 2036 218
272 2058 257
274 2051 320
280 2043 401
280 2034 498
285 2020 650
320 2029 923
408 2148 1299
484 2219 1624
543 2252 1853
585 2277 2018
612 2284 2137
634 2287 2235
652 2287 2306
670 2295 2376
684 2298 2429
696 2302 2475
281 2150 221
280 2177 262
287 2172 319
292 2166 403
295 2155 505
294 2129 641
324 2115 896
404 2220 1274
495 2323 1650
556 2359 1888
601 2392 2067
630 2405 2195
654 2408 2291
673 2410 2362
689 2410 2423
703 2414 2476
714 2419 2522
291 2248 225
293 2273 265
293 2271 326
298 2266 408
305 2253 512
305 2227 645
327 2193 877
406 2281 1253
502 2405 1663
566 2451 1919
613 2483 2102
645 2501 2236
670 2504 2332
688 2507 2404
705 2510 2467
718 2514 2519
731 2520 2565
295 2330 229
310 2359 260
308 2355 324
302 2350 413
309 2337 515
314 2308 649
330 2262 860
402 2325 1225
501 2459 1653
573 2521 1938
619 2553 2123
656 2578 2264
681 2583 2363
701 2586 2436
719 2589 2499
731 2596 2552
742 2599 2592
118 65 45
119 64 76
123 63 115
131 66 176
148 71 272
171 94 419
180 105 580
206 114 754
242 132 901
274 140 1030
299 141 1132
317 138 1216
330 129 1279
339 122 1323
345 115 1359
354 113 1398
363 111 1429
117 103 46
123 107 80
128 106 119
140 111 184
157 121 288
178 147 446
190 165 636
237 186 830
276 201 986
307 214 1130
330 210 1224
341 202 1289
359 197 1363
371 196 1422
382 191 1467
396 198 1522
402 199 1555
118 149 50
127 155 85
137 160 128
147 171 197
168 186 310
191 225 479
210 255 696
270 286 926
304 298 1088
341 309 1245
363 307 1349
370 290 1390
382 286 1454
402 286 1531
421 288 1603
438 302 1669
454 316 1722
122 215 55
130 221 92
138 233 137
150 237 203
165 254 305
191 299 465
211 346 686
263 382 915
307 400 1084
342 417 1244
374 431 1386
389 422 1457
403 411 1519
419 405 1584
431 403 1644
445 408 1695
457 419 1743
124 308 65
130 317 99
137 329 145
146 333 216
155 346 315
189 389 468
226 456 701
276 510 947
325 546 1147
365 568 1321
402 585 1476
433 593 1597
449 591 1676
462 581 1727
469 568 1764
482 573 1812
491 577 1851
120 441 75
127 456 111
134 472 161
139 470 234
151 481 340
188 511 488
237 580 715
289 651 975
343 698 1194
390 739 1393
429 763 1553
460 778 1679
482 794 1778
499 805 1850
512 802 1901
524 809 1948
534 814 1986
140 627 98
148 645 133
157 670 190
160 656 267
171 669 382
203 702 549
245 734 742
300 800 990
355 855 1224
405 899 1428
447 945 1598
480 983 1736
504 1000 1839
522 1013 1918
540 1028 1988
556 1043 2047
568 1052 2092
174 863 127
182 880 165
186 903 217
186 896 293
197 891 413
228 941 609
281 987 832
324 1012 1051
372 1047 1267
423 1106 1478
468 1157 1651
502 1193 1789
529 1226 1908
553 1250 2002
573 1267 2079
589 1284 2140
603 1297 2189
202 1107 159
207 1129 201
214 1153 252
215 1162 337
221 1165 441
246 1177 634
313 1249 922
359 1279 1160
395 1284 1337
446 1330 1534
492 1378 1711
521 1398 1840
549 1423 1956
578 1461 2064
606 1502 2164
625 1524 2232
639 1537 2284
231 1355 178
236 1373 218
244 1398 268
248 1413 358
251 1424 467
266 1403 640
322 1454 922
386 1533 1238
428 1540 1431
471 1556 1605
511 1582 1762
541 1596 1887
568 1617 2002
597 1652 2107
624 1689 2207
642 1715 2279
657 1734 2338
256 1576 191
257 1595 233
261 1617 284
269 1618 363
278 1623 480
288 1616 645
326 1636 908
406 1744 1266
462 1769 1521
505 1784 1701
541 1798 1845
568 1804 1962
593 1816 2068
616 1837 2163
639 1863 2251
657 1884 2320
672 1904 2378
274 1770 196
277 1786 241
280 1807 291
286 1804 368
295 1799 479
309 1804 656
340 1825 934
425 1938 1302
489 1974 1585
538 1993 1785
571 2002 1925
597 2004 2038
619 2012 2141
640 2025 2229
660 2042 2309
676 2050 2368
689 2059 2418
290 1936 196
295 1953 239
300 1970 289
306 1966 373
313 1957 476
326 1964 656
354 1980 944
440 2094 1324
509 2146 1627
563 2168 1847
599 2177 1993
625 2182 2109
645 2182 2204
665 2192 2290
683 2201 2362
697 2205 2417
709 2207 2462
307 2061 191
311 2084 231
332 2106 283
319 2102 371
328 2089 479
336 2088 636
362 2094 927
445 2198 1323
523 2274 1658
578 2299 1890
619 2315 2054
646 2321 2173
668 2322 2270
684 2322 2340
703 2330 2410
717 2333 2464
728 2335 2506
320 2170 189
337 2199 226
395 2232 270
348 2226 365
337 2211 483
345 2195 618
366 2194 893
447 2279 1303
534 2380 1682
591 2407 1923
635 2430 2103
665 2443 2231
687 2444 2324
706 2445 2396
721 2445 2457
735 2449 2510
746 2452 2553
329 2271 192
365 2296 220
422 2329 266
385 2327 360
346 2312 489
355 2292 623
373 2281 870
446 2348 1287
539 2467 1698
601 2504 1956
647 2523 2139
680 2541 2272
703 2541 2365
722 2541 2435
738 2543 2499
751 2549 2551
762 2553 2594
359 2354 180
394 2380 214
444 2408 264
413 2409 358
367 2398 489
360 2376 633
377 2355 852
446 2400 1267
542 2531 1698
610 2583 1980
656 2600 2167
692 2618 2301
716 2620 2395
733 2619 2466
748 2622 2528
762 2629 2581
772 2634 2624
202 77 53
202 77 85
198 74 125
197 71 182
210 74 278
228 97 433
236 108 593
256 109 761
288 121 907
314 136 1035
334 142 1136
352 141 1220
367 135 1287
375 129 1333
382 122 1370
391 120 1408
399 118 1441
199 114 52
206 121 88
206 120 128
203 116 191
216 123 297
235 149 468
248 156 662
287 171 845
319 189 1004
346 205 1134
364 205 1225
376 193 1286
390 191 1356
402 191 1415
411 187 1459
425 193 1512
