滤镜资源/Professional Luts Collection/Triune-Digital-Cinematic-LUTs/3D LUTs (3DL)/REDLOGFILM/Indiana Jones - REDlogFilm.3dl
# Created by Benjamin (IWLTBAP) : http://luts.iwltbap.com
# Copyright: (C) Copyright 2016 Triune Films and IWLTBAP
# Blockbuster LUTs Pack
0 256 512 768 1023
34 51 40
67 81 268
184 147 909
301 141 1318
335 126 1463
48 296 67
73 309 280
235 453 1015
379 525 1579
413 494 1723
113 1063 165
127 1057 419
322 1191 1249
479 1319 1855
568 1432 2181
217 1881 225
219 1856 495
438 2044 1558
585 2116 2141
650 2144 2402
269 2311 252
275 2290 526
470 2404 1618
657 2557 2338
717 2570 2567
344 89 51
304 84 287
357 122 941
417 138 1299
448 129 1459
300 345 56
396 433 387
520 653 1479
621 656 1998
668 682 2205
345 1168 130
400 1320 417
539 1474 1495
696 1636 2171
773 1730 2478
536 1994 122
702 2096 380
636 2340 1736
762 2322 2331
836 2385 2626
690 2406 84
891 2517 349
655 2721 1760
834 2819 2534
877 2778 2742
1875 302 146
1819 273 460
1467 159 991
1539 217 1751
1384 220 1928
1679 586 154
2162 833 611
2078 531 1357
1774 457 1920
1658 481 2161
1748 1389 102
1934 1448 302
2270 2204 1994
2166 2376 2774
2110 2528 3100
1736 2133 74
1899 2204 146
2026 2959 2015
1947 3052 2802
1951 3133 3147
1747 2482 81
1915 2576 98
1879 3335 2138
1821 3461 2939
1906 3485 3221
2914 459 226
2811 405 582
2562 310 1148
2620 306 1758
2649 301 1978
2788 887 229
3069 995 635
3027 706 1470
2773 535 1865
2850 555 2130
2642 1581 89
2776 1708 328
3303 2425 1997
3405 2409 2739
3438 2498 3077
2529 2260 84
2646 2330 120
3052 2962 1581
3531 3482 3094
3624 3599 3423
2479 2620 88
2612 2747 106
2949 3300 1518
3544 3791 3179
3568 3825 3433
3229 497 259
3093 433 614
2801 333 1180
2809 311 1764
2842 307 1982
3155 966 238
3398 1114 721
3350 820 1536
3118 605 1988
3112 595 2198
2975 1649 96
3153 1778 360
3628 2490 2008
3709 2587 2806
3720 2595 3085
2841 2310 87
2986 2404 105
3439 3018 1606
3851 3525 3126
3874 3586 3423
2786 2672 91
2915 2796 110
3359 3344 1608
3790 3751 2998
3922 3881 3468
