滤镜资源/Professional Luts Collection/Triune-Digital-Cinematic-LUTs/3D LUTs (3DL)/REDLOGFILM/Interstellar - REDlogFilm.3dl
# Created by Benjamin (IWLTBAP) : http://luts.iwltbap.com
# Copyright: (C) Copyright 2016 Triune Films and IWLTBAP
# Blockbuster LUTs Pack
0 128 256 384 512 640 768 896 1023
0 0 74
0 69 168
0 240 402
0 517 781
0 870 1260
0 1148 1661
0 1378 1982
0 1554 2241
0 1678 2433
0 148 76
0 149 212
0 259 407
0 530 800
0 879 1278
0 1153 1686
0 1384 2013
0 1559 2279
0 1686 2471
0 471 66
0 483 163
0 468 508
0 588 809
0 908 1290
0 1180 1718
0 1403 2079
0 1573 2377
0 1695 2588
0 933 34
0 932 69
0 1041 501
0 1019 1026
0 1096 1416
0 1305 1797
0 1492 2131
0 1628 2402
0 1729 2607
0 1419 74
0 1420 140
0 1410 353
0 1856 1362
0 1709 1785
0 1681 2154
0 1823 2539
0 1944 2821
0 2041 3010
0 1949 15
0 1957 106
0 1701 547
0 2022 1263
0 2597 2276
0 2350 2622
0 2275 2984
0 2320 3202
0 2374 3329
250 2197 262
249 2221 315
14 2161 638
0 2152 1315
0 2999 2498
0 2976 2995
0 2772 3281
0 2690 3455
0 2681 3549
0 2786 0
0 2831 0
0 2840 222
0 2896 1102
0 3347 2300
0 3424 3269
0 3131 3500
0 3011 3622
0 2936 3694
0 3370 0
0 3410 0
0 3446 0
0 3463 747
0 3700 2158
0 3724 3453
0 3404 3631
0 3238 3758
0 3146 3798
0 48 91
0 96 215
0 234 399
0 512 774
0 864 1246
0 1145 1643
0 1376 1960
0 1554 2215
0 1683 2402
0 152 103
0 157 224
0 301 450
0 548 822
0 883 1289
0 1161 1689
0 1390 2017
0 1565 2281
0 1688 2474
0 536 26
0 530 188
0 503 529
0 639 859
0 934 1331
0 1194 1754
0 1413 2109
0 1580 2402
0 1698 2614
0 996 0
0 985 80
0 1014 412
0 1079 1065
0 1161 1481
0 1362 1864
0 1533 2191
0 1661 2457
0 1752 2647
0 1473 2
0 1468 53
0 1414 304
0 1826 1273
0 1780 1823
0 1756 2231
0 1893 2627
0 2013 2909
0 2098 3087
96 1989 0
46 1991 12
0 1845 452
0 1966 1184
0 2648 2296
0 2408 2644
0 2346 3043
0 2386 3259
0 2436 3385
381 2234 225
355 2250 248
112 2261 518
0 2100 1227
0 2940 2379
0 3034 3009
0 2819 3293
0 2747 3494
0 2737 3587
179 2819 0
112 2846 0
0 2892 80
0 2879 969
0 3317 2163
0 3477 3288
0 3183 3506
0 3064 3640
0 2992 3725
0 3399 0
0 3418 0
0 3475 0
0 3468 478
0 3692 2042
0 3788 3449
0 3467 3635
0 3290 3761
0 3212 3827
289 189 151
347 178 220
482 312 455
294 525 835
181 847 1235
31 1137 1602
0 1374 1908
0 1558 2147
0 1685 2325
307 243 150
316 276 255
450 353 493
264 554 855
138 875 1273
1 1155 1642
0 1388 1957
0 1567 2207
0 1694 2390
335 485 141
332 505 252
321 529 581
126 718 981
3 995 1431
0 1229 1813
0 1439 2154
0 1601 2434
0 1717 2637
333 1054 1
285 1082 21
56 1133 339
0 1175 1155
0 1249 1602
0 1411 1947
0 1561 2268
0 1679 2531
0 1770 2733
463 1594 0
417 1624 0
139 1704 60
0 1739 1100
0 1898 1915
0 1861 2364
0 1979 2747
0 2092 3020
0 2171 3177
640 2069 0
605 2073 0
462 2085 133
0 1895 1037
0 2692 2296
0 2505 2707
0 2439 3128
0 2469 3333
0 2516 3452
757 2408 93
743 2405 118
632 2429 258
7 2168 1051
0 2842 2174
0 3142 3051
0 2892 3326
0 2829 3547
0 2810 3638
674 2960 0
660 2960 0
524 3003 0
0 2945 740
0 3296 1987
0 3580 3328
0 3275 3527
0 3133 3661
0 3076 3770
507 3498 0
480 3500 0
243 3537 0
0 3536 150
0 3698 1896
0 3875 3382
0 3583 3650
0 3365 3778
0 3274 3848
818 436 278
829 385 295
1014 488 507
1223 737 834
1108 924 1311
793 1137 1655
678 1364 1836
600 1557 2029
528 1690 2182
840 448 283
858 502 337
1010 504 510
1225 759 857
1068 926 1360
752 1148 1675
636 1376 1874
553 1564 2078
477 1695 2239
940 610 247
940 635 321
987 703 573
1226 851 964
851 962 1523
620 1214 1778
483 1438 2043
362 1606 2282
255 1722 2473
1057 976 327
1084 1002 367
1112 1069 537
977 1250 1242
588 1336 1811
267 1476 2169
60 1602 2479
6 1729 2770
0 1836 2984
1133 1685 0
1140 1699 18
1156 1749 229
831 1919 817
135 2093 2128
27 1995 2594
0 2062 2909
0 2136 3126
0 2193 3259
1260 2162 0
1268 2170 26
1259 2199 216
1081 2306 663
30 2613 2148
0 2665 2883
0 2532 3239
0 2545 3418
0 2580 3531
1312 2653 0
1315 2639 5
1312 2615 130
1118 2768 538
36 2805 1917
0 3313 3154
0 3014 3411
0 2914 3609
0 2882 3693
1265 3256 0
1243 3212 0
1184 3164 0
849 3577 28
0 3321 1719
0 3669 3221
0 3446 3578
0 3243 3710
0 3168 3822
1260 3614 0
1228 3626 0
1165 3622 0
887 3745 0
0 3754 1530
0 3922 3087
0 3768 3695
0 3510 3817
0 3390 3886
1510 751 522
1521 711 550
1672 740 647
2012 974 965
2266 1261 1232
2126 1492 1489
2074 1709 1738
2078 1803 1998
1878 1784 2341
1534 751 537
1545 788 526
1693 756 650
2021 990 981
2267 1274 1252
2120 1504 1514
2067 1714 1768
2032 1755 2078
1793 1743 2418
1631 932 509
1639 933 514
1739 891 631
2035 1053 1040
2259 1333 1334
2092 1557 1614
2068 1689 1897
1824 1626 2355
1499 1635 2631
1954 1190 581
1974 1213 580
1914 1256 543
2009 1399 1266
2220 1578 1625
2083 1647 1997
1634 1552 2544
1222 1591 2868
1072 1704 3082
2137 1848 549
2166 1885 557
2150 1941 563
2202 2068 1160
2127 2212 2195
1656 2080 2885
1250 2099 3244
969 2141 3412
833 2199 3531
2108 2576 84
2108 2595 66
2084 2639 40
2149 2667 522
2047 2703 1865
1431 2867 3093
1171 2626 3379
888 2609 3525
761 2621 3621
1994 3017 0
1995 3037 0
1981 3065 0
2097 3059 427
1978 3186 1477
855 3386 3038
688 3192 3531
595 2991 3672
495 2946 3748
2009 3530 0
2004 3538 0
1973 3531 0
1989 3576 101
1824 3795 1132
664 3758 2755
223 3693 3642
245 3400 3780
281 3257 3866
2023 3704 0
2010 3720 0
1971 3760 0
1896 3897 0
1791 4095 1013
544 4069 2571
0 3987 3720
0 3710 3867
0 3533 3937
2249 1030 882
2248 1004 913
2316 1033 948
2622 1212 1123
2796 1426 1329
2940 1693 1519
2866 1900 1943
2829 2058 2236
2935 2085 2444
2261 1047 877
2272 1049 884
2321 1039 945
2631 1223 1133
2798 1439 1348
2944 1702 1556
2860 1914 1981
2834 2056 2266
2991 2053 2494
2344 1211 828
2343 1197 837
2356 1117 900
2641 1260 1166
2803 1489 1420
2943 1735 1679
2842 1950 2094
2929 2005 2384
3115 1955 2700
2608 1534 823
2587 1542 803
2499 1549 733
2633 1527 1300
2817 1708 1686
2928 1942 2049
2956 1981 2393
3093 1927 2843
2892 1927 3167
2785 1935 703
2814 1967 707
2791 2002 686
2826 2136 1173
2917 2406 2293
3046 2409 2626
3030 2261 3123
2596 2140 3429
2315 2068 3603
2826 2784 734
2828 2802 729
2821 2823 715
2830 2875 861
3012 2985 2055
3123 3062 3029
2856 2890 3445
2577 2789 3681
2426 2762 3804
2547 3328 0
2545 3330 0
2539 3338 0
2630 3374 91
2884 3402 1588
2981 3461 2716
2745 3436 3565
2542 3203 3733
2413 3147 3832
2491 3655 0
2488 3652 0
2480 3653 0
2610 3686 113
2807 3741 1460
2815 3862 2361
2396 3861 3546
2389 3609 3822
2344 3417 3897
2495 3773 0
2493 3788 0
2479 3822 0
2573 3888 81
2760 4034 1313
2760 4095 2240
2250 4090 3340
2229 3949 3883
2204 3727 3973
2746 1255 1113
2743 1241 1129
2769 1249 1149
2953 1365 1197
3132 1609 1448
3229 1807 1696
3308 2074 2200
3301 2209 2498
3442 2207 2710
2755 1281 1095
2762 1275 1105
2771 1252 1145
2965 1374 1203
3138 1623 1468
3231 1816 1727
3310 2086 2236
3313 2211 2530
3500 2175 2749
2822 1435 1035
2815 1416 1042
2813 1352 1084
2990 1408 1222
3152 1672 1542
3234 1860 1839
3318 2121 2344
3398 2179 2628
3657 2079 2890
3013 1813 942
2989 1818 922
2905 1797 872
3038 1682 1335
3175 1838 1771
3238 2069 2170
3392 2209 2599
3702 2062 2934
3725 2083 3224
3180 2186 812
3192 2214 807
3152 2248 783
3162 2372 1199
3299 2498 2293
3352 2577 2715
3708 2444 3076
3725 2398 3415
3617 2436 3623
3241 2682 839
3256 2707 846
3240 2715 844
3212 2750 902
3417 2974 2218
3518 3172 3094
3648 3087 3366
3657 3002 3624
3502 2953 3744
3214 3418 772
3215 3420 772
3212 3411 776
3209 3407 779
3382 3459 1814
3563 3558 2839
3644 3604 3533
3604 3544 3679
3529 3482 3807
2842 3811 0
2839 3805 0
2831 3789 0
2925 3781 0
3232 3810 1370
3455 3844 2550
3570 3898 3337
3564 3811 3793
3495 3692 3879
2794 3867 0
2788 3867 0
2788 3882 0
2963 3928 39
3228 3995 1377
3393 4051 2419
3484 4095 3168
3377 4091 3813
3441 3937 3959
3048 1411 1232
3046 1395 1247
3055 1390 1265
3145 1484 1248
3347 1739 1535
3400 1894 1830
3468 2187 2384
3570 2302 2716
3837 2211 2943
3058 1439 1214
3062 1432 1223
3058 1395 1262
3160 1493 1253
3353 1754 1561
3403 1908 1865
3473 2196 2412
3593 2299 2747
3895 2183 2983
3108 1584 1149
3101 1566 1155
3101 1511 1192
3211 1522 1275
3373 1797 1644
3420 1978 1995
3490 2225 2498
3708 2255 2846
4008 2122 3112
3252 2022 984
3228 2020 966
3166 1987 941
3305 1826 1351
3408 1929 1823
3443 2184 2307
3548 2321 2694
3997 2172 3114
4077 2155 3373
3377 2398 846
3376 2415 845
3360 2454 844
3370 2549 1226
3523 2544 2268
3561 2644 2767
3712 2651 3044
4087 2463 3473
4056 2478 3679
3370 2733 865
3370 2745 867
3369 2766 870
3372 2848 913
3628 3096 2273
3722 3210 3102
3762 3193 3366
4036 3019 3648
4015 3005 3814
3362 3241 933
3364 3254 932
3364 3261 933
3380 3265 1016
3611 3336 2041
3814 3535 2996
3858 3649 3571
3892 3590 3728
3923 3547 3836
3347 3693 713
3349 3690 728
3349 3691 725
3386 3689 918
3575 3739 1774
3757 3837 2580
3884 3904 3392
3916 3916 3803
3936 3918 3895
3076 3951 0
3071 3959 0
3062 3977 0
3194 4013 5
3464 4062 1294
3670 4077 2441
3834 4093 3286
3909 4095 3720
3917 4061 3955
3236 1516 1298
3233 1499 1312
3234 1483 1332
3296 1573 1298
3438 1839 1638
3454 2029 2019
3488 2263 2449
3728 2394 2918
3964 2307 3114
3243 1544 1279
3247 1537 1289
3239 1491 1329
3305 1580 1301
3439 1852 1663
3456 2055 2061
3492 2274 2474
3751 2387 2936
4006 2289 3150
3282 1686 1211
3279 1669 1219
3282 1619 1255
3349 1609 1318
3444 1899 1744
3463 2136 2189
3509 2311 2554
3846 2356 3017
4057 2288 3253
3333 2097 994
3321 2104 980
3310 2095 978
3455 1930 1380
3465 2027 1902
3499 2321 2451
3567 2440 2755
4011 2360 3200
4095 2363 3455
3379 2428 846
3378 2445 848
3376 2493 850
3447 2616 1244
3607 2593 2290
3620 2731 2831
3745 2778 3113
4057 2678 3439
4095 2647 3688
3371 2726 865
3370 2737 866
3369 2764 870
3378 2872 946
3683 3143 2305
3808 3242 3122
3831 3260 3413
3991 3184 3585
4095 3080 3822
3359 3204 932
3359 3208 932
3360 3215 932
3404 3229 1159
3653 3333 2193
3860 3574 3044
3961 3677 3589
3970 3650 3743
4074 3564 3880
3374 3605 915
3374 3606 914
3373 3610 911
3458 3626 1316
3655 3672 2191
3838 3769 2970
3984 3880 3533
4057 3963 3847
4055 3931 3953
3190 3849 0
3180 3858 0
3157 3879 0
3295 3919 241
3522 3973 1417
3753 4033 2506
3939 4086 3322
4047 4095 3770
4090 4095 3984
