滤镜资源/Professional Luts Collection/Triune-Digital-Cinematic-LUTs/3D LUTs (3DL)/REDLOGFILM/Interstellar - REDlogFilm.3dl
# Created by Benjamin (IWLTBAP) : http://luts.iwltbap.com
# Copyright: (C) Copyright 2016 Triune Films and IWLTBAP
# Blockbuster LUTs Pack
0 64 128 192 256 320 384 448 512 576 640 704 768 832 896 960 1023
0 0 74
0 20 115
0 69 168
0 138 264
0 240 402
0 365 573
0 517 781
0 695 1022
0 870 1260
0 1027 1476
0 1148 1661
0 1261 1828
0 1378 1982
0 1467 2118
0 1554 2241
0 1624 2347
0 1678 2433
0 60 63
0 61 132
0 87 177
0 149 269
0 250 411
0 373 582
0 522 789
0 697 1026
0 874 1263
0 1028 1481
0 1151 1666
0 1265 1832
0 1377 1990
0 1472 2125
0 1553 2249
0 1624 2355
0 1682 2439
0 148 76
0 157 122
0 149 212
0 178 287
0 259 407
0 383 586
0 530 800
0 704 1040
0 879 1278
0 1031 1498
0 1153 1686
0 1271 1854
0 1384 2013
0 1475 2153
0 1559 2279
0 1627 2386
0 1686 2471
0 286 86
0 287 103
0 308 219
0 279 337
0 306 436
0 399 583
0 542 797
0 713 1048
0 885 1296
0 1037 1524
0 1160 1716
0 1276 1889
0 1390 2054
0 1481 2198
0 1563 2329
0 1634 2438
0 1688 2527
0 471 66
0 470 74
0 483 163
0 514 382
0 468 508
0 488 639
0 588 809
0 738 1037
0 908 1290
0 1059 1521
0 1180 1718
0 1294 1901
0 1403 2079
0 1492 2234
0 1573 2377
0 1640 2493
0 1695 2588
0 696 40
0 689 65
0 688 88
0 728 292
0 771 586
0 718 728
0 728 895
0 832 1097
0 960 1308
0 1090 1518
0 1207 1715
0 1320 1899
0 1428 2077
0 1513 2234
0 1590 2379
0 1655 2499
0 1706 2598
0 933 34
0 932 56
0 932 69
0 949 170
0 1041 501
0 1088 869
0 1019 1026
0 1010 1212
0 1096 1416
0 1202 1618
0 1305 1797
0 1404 1966
0 1492 2131
0 1563 2272
0 1628 2402
0 1684 2511
0 1729 2607
0 1189 17
0 1191 39
0 1191 68
0 1185 109
0 1246 402
0 1427 874
0 1462 1242
0 1360 1390
0 1317 1569
0 1381 1767
0 1473 1961
0 1565 2147
0 1647 2328
0 1713 2475
0 1772 2601
0 1820 2707
0 1866 2789
0 1419 74
0 1421 89
0 1420 140
0 1409 207
0 1410 353
0 1575 788
0 1856 1362
0 1829 1637
0 1709 1785
0 1643 1961
0 1681 2154
0 1751 2352
0 1823 2539
0 1886 2693
0 1944 2821
0 1994 2925
0 2041 3010
0 1693 17
0 1701 20
0 1686 115
0 1612 283
0 1552 417
0 1682 786
0 1980 1290
0 2284 1856
0 2177 2031
0 2055 2208
0 1980 2401
0 1988 2585
0 2033 2768
0 2083 2911
0 2130 3032
0 2173 3125
0 2209 3190
0 1949 15
0 1957 18
0 1957 106
0 1881 304
0 1701 547
0 1741 821
0 2022 1263
0 2477 1911
0 2597 2276
0 2463 2428
0 2350 2622
0 2289 2824
0 2275 2984
0 2291 3108
0 2320 3202
0 2349 3274
0 2374 3329
96 2078 155
108 2082 165
108 2087 235
39 2079 352
0 1910 619
0 1778 881
0 2058 1298
0 2471 1831
0 2881 2477
0 2817 2652
0 2684 2812
0 2585 2991
0 2535 3158
0 2507 3259
0 2504 3339
0 2520 3402
0 2531 3452
250 2197 262
258 2203 268
249 2221 315
161 2230 413
14 2161 638
0 1899 919
0 2152 1315
0 2531 1775
0 2999 2498
0 3115 2865
0 2976 2995
0 2845 3154
0 2772 3281
0 2723 3387
0 2690 3455
0 2681 3510
0 2681 3549
3 2628 0
3 2642 0
0 2677 0
0 2623 206
0 2426 578
0 2333 799
0 2519 1229
0 2812 1705
0 3157 2402
0 3335 3024
0 3217 3142
0 3061 3284
0 2962 3402
0 2910 3479
0 2854 3546
0 2825 3590
0 2809 3625
0 2786 0
0 2801 0
0 2831 0
0 2847 0
0 2840 222
0 2785 578
0 2896 1102
0 3110 1659
0 3347 2300
0 3529 3085
0 3424 3269
0 3258 3387
0 3131 3500
0 3065 3573
0 3011 3622
0 2963 3663
0 2936 3694
0 3114 0
0 3127 0
0 3159 0
0 3182 0
0 3187 0
0 3152 202
0 3212 944
0 3368 1601
0 3533 2213
0 3686 3070
0 3584 3371
0 3433 3465
0 3276 3575
0 3195 3647
0 3143 3700
0 3089 3722
0 3050 3749
0 3370 0
0 3380 0
0 3410 0
0 3432 0
0 3446 0
0 3429 0
0 3463 747
0 3575 1548
0 3700 2158
0 3824 3033
0 3724 3453
0 3567 3534
0 3404 3631
0 3300 3704
0 3238 3758
0 3204 3793
0 3146 3798
0 11 82
0 36 138
0 73 177
0 136 263
0 237 400
0 363 569
0 515 777
0 692 1017
0 869 1254
0 1025 1470
0 1149 1653
0 1262 1821
0 1375 1976
0 1468 2111
0 1554 2233
0 1625 2337
0 1681 2424
0 61 79
0 64 138
0 102 189
0 167 287
0 264 420
0 382 589
0 527 794
0 698 1030
0 872 1265
0 1025 1480
0 1150 1665
0 1266 1831
0 1378 1988
0 1472 2123
0 1556 2247
0 1624 2353
0 1682 2439
0 149 90
0 152 129
0 153 215
0 190 297
0 277 427
0 396 604
0 539 811
0 708 1049
0 879 1287
0 1032 1503
0 1157 1689
0 1274 1856
0 1386 2015
0 1476 2153
0 1562 2279
0 1628 2387
0 1687 2473
0 291 95
0 292 130
0 300 195
0 295 342
0 326 451
0 417 599
0 556 812
0 723 1061
0 892 1309
0 1043 1532
0 1165 1721
0 1280 1894
0 1393 2059
0 1483 2201
0 1566 2333
0 1632 2442
0 1690 2531
0 493 57
0 493 106
0 478 144
0 513 353
0 487 517
0 513 657
0 613 832
0 753 1052
0 919 1302
0 1066 1533
0 1185 1730
0 1299 1911
0 1406 2088
0 1497 2241
0 1574 2383
0 1642 2498
0 1694 2595
0 724 14
0 722 71
0 694 106
0 719 258
0 788 571
0 742 741
0 758 917
0 860 1122
0 983 1330
0 1105 1534
0 1217 1725
0 1328 1909
0 1434 2086
0 1519 2242
0 1594 2385
0 1656 2505
0 1711 2603
0 954 5
0 952 45
0 939 88
0 943 132
0 1027 461
0 1105 861
0 1048 1044
0 1042 1236
0 1126 1444
0 1232 1647
0 1334 1828
0 1427 1998
0 1511 2158
0 1582 2301
0 1643 2427
0 1695 2534
0 1737 2622
0 1192 5
0 1193 24
0 1197 74
0 1191 116
0 1234 351
0 1407 821
0 1483 1240
0 1393 1409
0 1353 1597
0 1414 1798
0 1506 1993
0 1596 2187
0 1676 2366
0 1742 2515
0 1798 2639
0 1848 2745
0 1894 2829
0 1430 50
0 1431 60
0 1430 131
0 1417 206
0 1403 315
0 1556 746
0 1844 1324
0 1854 1644
0 1745 1803
0 1679 1992
0 1713 2189
0 1782 2389
0 1853 2579
0 1915 2733
0 1976 2864
0 2027 2966
0 2067 3046
0 1719 0
0 1722 0
0 1719 50
0 1646 243
0 1567 411
0 1659 739
0 1949 1243
0 2290 1845
0 2203 2038
0 2083 2219
0 2018 2432
0 2024 2621
0 2067 2804
0 2117 2948
0 2164 3067
0 2203 3154
0 2242 3221
0 1966 1
0 1970 3
0 1974 51
0 1929 239
0 1738 523
0 1723 781
0 1996 1226
0 2444 1860
0 2622 2286
0 2487 2434
0 2377 2632
0 2324 2852
0 2306 3009
0 2324 3132
0 2352 3228
0 2378 3300
0 2404 3356
126 2083 131
132 2085 137
133 2090 201
73 2088 322
4 1985 567
0 1772 850
0 2032 1264
0 2433 1781
0 2871 2453
0 2843 2659
0 2708 2815
0 2610 2998
0 2563 3179
0 2534 3278
0 2533 3360
0 2547 3422
0 2559 3473
282 2205 249
286 2210 253
269 2225 286
205 2244 380
26 2209 586
0 1916 885
0 2127 1276
0 2503 1733
0 2975 2448
0 3137 2875
0 3002 3000
0 2869 3156
0 2791 3286
0 2750 3403
0 2717 3471
0 2707 3525
0 2707 3567
52 2638 0
51 2649 0
2 2680 0
0 2671 115
0 2466 533
0 2349 770
0 2503 1184
0 2797 1674
0 3133 2341
0 3355 3020
0 3245 3147
0 3086 3286
0 2984 3403
0 2929 3484
0 2881 3561
0 2851 3605
0 2837 3644
0 2794 0
0 2803 0
0 2833 0
0 2858 0
0 2859 158
0 2808 546
0 2887 1045
0 3103 1620
0 3330 2233
0 3532 3049
0 3447 3277
0 3288 3388
0 3153 3502
0 3083 3576
0 3043 3634
0 2995 3678
0 2962 3707
0 3123 0
0 3130 0
0 3157 0
0 3190 0
0 3197 0
0 3172 159
0 3209 870
0 3361 1560
0 3527 2162
0 3696 3026
0 3611 3381
0 3459 3470
0 3303 3576
0 3213 3648
0 3161 3703
0 3120 3734
0 3078 3764
0 3379 0
0 3382 0
0 3405 0
0 3440 0
0 3453 0
0 3444 0
0 3461 614
0 3571 1499
0 3697 2105
0 3822 2970
0 3754 3453
0 3598 3536
0 3432 3631
0 3326 3705
0 3260 3757
0 3222 3796
0 3179 3810
0 48 91
0 56 149
0 96 215
0 150 285
0 234 399
0 362 569
0 512 774
0 688 1011
0 864 1246
0 1021 1460
0 1145 1643
0 1261 1807
0 1376 1960
0 1471 2093
0 1554 2215
0 1625 2318
0 1683 2402
0 77 84
0 93 146
0 120 217
0 170 291
0 260 419
0 380 588
0 523 789
0 694 1023
0 867 1256
0 1022 1470
0 1149 1651
0 1264 1817
0 1379 1972
0 1473 2106
0 1556 2229
0 1627 2332
0 1685 2416
0 152 103
0 155 146
0 157 224
0 212 317
0 301 450
0 414 619
0 548 822
0 712 1055
0 883 1289
0 1037 1504
0 1161 1689
0 1280 1857
0 1390 2017
0 1483 2154
0 1565 2281
0 1634 2387
0 1688 2474
0 319 107
0 313 151
0 299 212
0 300 346
0 346 470
0 443 630
0 578 845
0 738 1089
0 905 1326
0 1053 1543
0 1174 1729
0 1289 1900
0 1398 2064
0 1489 2206
0 1569 2337
0 1634 2447
0 1693 2535
0 536 26
0 541 91
0 530 188
0 517 323
0 503 529
0 539 681
0 639 859
0 776 1082
0 934 1331
0 1077 1558
0 1194 1754
0 1306 1934
0 1413 2109
0 1502 2261
0 1580 2402
0 1644 2519
0 1698 2614
0 770 0
0 768 33
0 762 132
0 721 229
0 787 541
0 764 757
0 789 947
0 891 1155
0 1007 1360
0 1123 1560
0 1229 1746
0 1339 1927
0 1441 2106
0 1526 2261
0 1601 2404
0 1662 2524
0 1715 2623
0 996 0
0 993 3
0 985 80
0 953 147
0 1014 412
0 1129 851
0 1079 1065
0 1078 1271
0 1161 1481
0 1264 1684
0 1362 1864
0 1454 2034
0 1533 2191
0 1600 2330
0 1661 2457
0 1711 2562
0 1752 2647
0 1224 0
0 1222 1
0 1215 56
0 1208 144
0 1223 299
0 1382 756
0 1509 1238
0 1430 1431
0 1396 1634
0 1454 1838
0 1542 2036
0 1629 2230
0 1708 2410
0 1770 2556
0 1830 2686
0 1876 2787
0 1920 2873
0 1473 2
0 1473 3
0 1468 53
0 1444 200
0 1414 304
0 1533 693
0 1826 1273
0 1890 1656
0 1780 1823
0 1724 2033
0 1756 2231
0 1821 2437
0 1893 2627
0 1954 2780
0 2013 2909
0 2060 3009
0 2098 3087
32 1750 0
29 1752 0
2 1772 1
0 1749 117
0 1608 396
0 1634 680
0 1911 1183
0 2291 1824
0 2237 2050
0 2120 2236
0 2064 2473
0 2066 2663
0 2108 2846
0 2156 2991
0 2201 3105
0 2241 3189
0 2274 3251
96 1989 0
92 1990 0
46 1991 12
19 1992 129
0 1845 452
0 1712 738
0 1966 1184
0 2402 1797
0 2648 2296
0 2516 2444
0 2408 2644
0 2368 2887
0 2346 3043
0 2359 3162
0 2386 3259
0 2411 3329
0 2436 3385
256 2105 111
254 2105 116
231 2106 154
189 2108 265
36 2072 488
0 1792 807
0 1999 1220
0 2392 1728
0 2858 2425
0 2875 2672
0 2738 2821
0 2637 3007
0 2602 3206
0 2570 3305
0 2568 3386
0 2577 3447
0 2590 3494
381 2234 225
380 2236 228
355 2250 248
291 2276 314
112 2261 518
0 1989 844
0 2100 1227
0 2472 1686
0 2940 2379
0 3163 2889
0 3034 3009
0 2893 3161
0 2819 3293
0 2785 3425
0 2747 3494
0 2736 3547
0 2737 3587
197 2666 0
194 2671 0
140 2698 0
15 2745 3
0 2596 392
0 2398 743
0 2490 1124
0 2784 1634
0 3109 2267
0 3367 3000
0 3281 3157
0 3119 3290
0 3008 3407
0 2951 3491
0 2913 3579
0 2885 3625
0 2867 3660
179 2819 0
170 2824 0
112 2846 0
8 2890 0
0 2892 80
0 2845 495
0 2879 969
0 3094 1572
0 3317 2163
0 3538 3003
0 3477 3288
0 3324 3392
0 3183 3506
0 3111 3581
0 3064 3640
0 3028 3696
0 2992 3725
0 3147 0
0 3152 0
0 3170 0
0 3209 0
0 3224 0
0 3198 100
0 3208 765
0 3357 1506
0 3520 2097
0 3692 2954
0 3644 3390
0 3494 3477
0 3338 3578
0 3242 3653
0 3188 3706
0 3149 3746
0 3109 3781
0 3399 0
0 3404 0
0 3418 0
0 3453 0
0 3475 0
0 3465 0
0 3468 478
0 3569 1432
0 3692 2042
0 3819 2890
0 3788 3449
0 3635 3543
0 3467 3635
0 3357 3707
0 3290 3761
0 3242 3800
0 3212 3827
101 100 106
132 75 135
172 119 209
194 173 329
129 260 454
94 365 583
66 511 777
22 682 1004
0 858 1235
0 1014 1446
0 1140 1626
0 1260 1787
0 1377 1939
0 1472 2069
0 1556 2188
0 1627 2289
0 1682 2373
105 128 108
107 140 153
139 136 233
167 190 352
116 277 459
83 379 595
57 521 792
13 688 1016
0 859 1245
0 1015 1455
0 1145 1634
0 1263 1797
0 1378 1950
0 1474 2081
0 1558 2201
0 1627 2303
