滤镜资源/Professional Luts Collection/Triune-Digital-Cinematic-LUTs/3D LUTs (3DL)/REDLOGFILM/Interstellar - REDlogFilm.3dl
# Created by Benjamin (IWLTBAP) : http://luts.iwltbap.com
# Copyright: (C) Copyright 2016 Triune Films and IWLTBAP
# Blockbuster LUTs Pack
0 256 512 768 1023
0 0 74
0 240 402
0 870 1260
0 1378 1982
0 1678 2433
0 471 66
0 468 508
0 908 1290
0 1403 2079
0 1695 2588
0 1419 74
0 1410 353
0 1709 1785
0 1823 2539
0 2041 3010
250 2197 262
14 2161 638
0 2999 2498
0 2772 3281
0 2681 3549
0 3370 0
0 3446 0
0 3700 2158
0 3404 3631
0 3146 3798
289 189 151
482 312 455
181 847 1235
0 1374 1908
0 1685 2325
335 485 141
321 529 581
3 995 1431
0 1439 2154
0 1717 2637
463 1594 0
139 1704 60
0 1898 1915
0 1979 2747
0 2171 3177
757 2408 93
632 2429 258
0 2842 2174
0 2892 3326
0 2810 3638
507 3498 0
243 3537 0
0 3698 1896
0 3583 3650
0 3274 3848
1510 751 522
1672 740 647
2266 1261 1232
2074 1709 1738
1878 1784 2341
1631 932 509
1739 891 631
2259 1333 1334
2068 1689 1897
1499 1635 2631
2137 1848 549
2150 1941 563
2127 2212 2195
1250 2099 3244
833 2199 3531
1994 3017 0
1981 3065 0
1978 3186 1477
688 3192 3531
495 2946 3748
2023 3704 0
1971 3760 0
1791 4095 1013
0 3987 3720
0 3533 3937
2746 1255 1113
2769 1249 1149
3132 1609 1448
3308 2074 2200
3442 2207 2710
2822 1435 1035
2813 1352 1084
3152 1672 1542
3318 2121 2344
3657 2079 2890
3180 2186 812
3152 2248 783
3299 2498 2293
3708 2444 3076
3617 2436 3623
3214 3418 772
3212 3411 776
3382 3459 1814
3644 3604 3533
3529 3482 3807
2794 3867 0
2788 3882 0
3228 3995 1377
3484 4095 3168
3441 3937 3959
3236 1516 1298
3234 1483 1332
3438 1839 1638
3488 2263 2449
3964 2307 3114
3282 1686 1211
3282 1619 1255
3444 1899 1744
3509 2311 2554
4057 2288 3253
3379 2428 846
3376 2493 850
3607 2593 2290
3745 2778 3113
4095 2647 3688
3359 3204 932
3360 3215 932
3653 3333 2193
3961 3677 3589
4074 3564 3880
3190 3849 0
3157 3879 0
3522 3973 1417
3939 4086 3322
4090 4095 3984
