滤镜资源/Professional Luts Collection/Triune-Digital-Cinematic-LUTs/3D LUTs (3DL)/REDLOGFILM/Prometheus - REDlogFilm.3dl
# Created by Benjamin (IWLTBAP) : http://luts.iwltbap.com
# Copyright: (C) Copyright 2016 Triune Films and IWLTBAP
# Blockbuster LUTs Pack
0 256 512 768 1023
0 0 0
0 64 694
46 301 1737
198 453 2758
281 557 3176
0 591 202
0 712 816
73 911 1745
181 1046 2528
244 1118 2938
240 1631 660
283 1714 1115
347 1832 1881
445 1955 2631
501 2014 3020
586 2527 1088
626 2605 1493
700 2730 2201
776 2856 2910
808 2916 3285
765 2998 1286
804 3085 1673
878 3230 2370
943 3355 3067
978 3394 3422
762 32 0
708 142 727
518 347 1693
500 454 2469
524 535 2861
667 624 187
462 729 822
418 891 1685
420 1013 2485
454 1084 2890
443 1620 606
490 1718 1103
551 1837 1918
632 1948 2675
683 2010 3078
753 2507 1011
818 2635 1447
902 2782 2230
989 2930 2994
1014 2969 3367
941 3030 1268
997 3159 1670
1070 3300 2403
1172 3434 3151
1241 3484 3523
1943 407 304
1880 352 548
1822 432 1608
1557 405 2560
1455 456 2934
1962 873 347
1932 810 663
1802 970 1802
1440 982 2687
1358 1006 3020
2035 1841 731
1942 1898 1178
1601 1987 2084
1341 1998 2820
1358 2054 3223
1564 2602 969
1428 2649 1338
1464 2847 2179
1645 3078 3136
1711 3153 3547
1476 3043 1236
1512 3159 1606
1706 3431 2457
1992 3679 3393
2064 3717 3760
2959 757 594
2826 712 775
2862 718 1478
2697 657 2463
2628 653 2909
2851 1087 552
2830 1030 801
2823 1049 1553
2637 1003 2591
2606 1034 3041
3057 1959 764
3097 1996 1067
3079 2027 1799
2867 2065 2981
2825 2009 3453
3237 2869 1116
3221 2966 1508
3215 3163 2333
3127 3405 3416
3235 3484 3850
3285 3413 1347
3299 3560 1851
3356 3755 2668
3257 3869 3533
3395 3946 3964
3433 935 718
3318 923 896
3347 909 1500
3210 815 2441
3111 773 2912
3340 1216 677
3336 1191 919
3335 1204 1570
3185 1117 2578
3091 1089 3017
3557 2082 865
3608 2082 1120
3604 2083 1790
3424 2092 2955
3442 2271 3484
3766 2991 1218
3740 3126 1693
3799 3364 2528
3810 3482 3416
3788 3550 3907
3753 3541 1613
3799 3678 2064
3845 3836 2810
3881 3973 3626
3962 4055 4062
