滤镜资源/Professional Luts Collection/Triune-Digital-Cinematic-LUTs/3D LUTs (3DL)/REDLOGFILM/Prometheus - REDlogFilm.3dl
# Created by Benjamin (IWLTBAP) : http://luts.iwltbap.com
# Copyright: (C) Copyright 2016 Triune Films and IWLTBAP
# Blockbuster LUTs Pack
0 64 128 192 256 320 384 448 512 576 640 704 768 832 896 960 1023
0 0 0
0 0 66
0 0 252
0 0 463
0 64 694
0 135 928
0 205 1182
0 264 1457
46 301 1737
97 329 2047
135 363 2325
167 406 2562
198 453 2758
224 486 2895
246 514 3011
266 538 3103
281 557 3176
0 11 0
0 11 96
0 51 279
0 110 482
0 180 709
0 244 941
0 308 1194
14 363 1469
67 402 1752
109 433 2058
135 467 2333
161 502 2561
184 543 2750
204 573 2886
222 599 3001
239 622 3090
251 642 3163
0 144 7
0 167 154
0 201 320
0 257 514
0 323 730
0 384 957
0 443 1207
9 493 1482
50 529 1766
87 562 2064
113 592 2335
138 621 2561
163 660 2743
182 693 2878
198 721 2993
214 745 3083
226 766 3157
0 359 107
0 382 232
0 410 379
0 447 552
0 503 761
0 556 986
0 607 1229
0 660 1500
34 701 1782
73 737 2078
106 770 2342
133 794 2565
162 826 2748
188 856 2885
210 882 3003
228 902 3095
242 916 3170
0 591 202
0 619 325
0 645 458
0 675 620
0 712 816
0 762 1042
5 813 1282
39 861 1547
73 911 1745
101 953 1923
131 990 2150
157 1020 2353
181 1046 2528
201 1069 2664
218 1089 2777
232 1105 2866
244 1118 2938
0 852 330
0 879 442
0 904 560
12 937 705
28 973 878
41 1003 1068
67 1039 1256
99 1083 1473
129 1123 1688
157 1162 1908
185 1199 2122
208 1231 2316
231 1258 2486
249 1281 2618
264 1301 2727
275 1315 2814
284 1326 2884
54 1109 447
66 1133 546
79 1156 658
94 1184 788
112 1218 948
130 1250 1129
147 1278 1324
172 1315 1537
199 1353 1747
225 1390 1963
249 1423 2170
272 1455 2361
294 1485 2527
312 1508 2656
327 1526 2765
339 1541 2851
349 1553 2919
150 1375 555
160 1393 646
171 1414 755
183 1437 877
199 1465 1029
217 1500 1210
233 1532 1404
249 1561 1606
270 1594 1810
297 1631 2026
321 1665 2227
345 1694 2410
368 1723 2575
386 1744 2702
401 1761 2811
413 1774 2897
422 1785 2964
240 1631 660
248 1647 743
257 1664 845
269 1686 966
283 1714 1115
299 1747 1290
316 1780 1482
331 1808 1684
347 1832 1881
371 1865 2093
398 1900 2293
423 1930 2472
445 1955 2631
465 1975 2758
480 1992 2867
492 2005 2952
501 2014 3020
333 1890 771
341 1905 849
349 1921 942
359 1943 1061
375 1972 1208
392 2003 1378
410 2034 1569
426 2063 1768
440 2085 1966
458 2110 2171
485 2142 2368
511 2170 2543
532 2194 2700
549 2213 2824
565 2232 2932
578 2248 3018
587 2260 3087
422 2123 885
431 2140 962
439 2158 1056
450 2180 1171
466 2208 1312
483 2236 1473
501 2265 1653
520 2295 1849
537 2321 2049
556 2348 2253
577 2376 2444
602 2407 2621
623 2434 2777
639 2454 2899
650 2471 3004
660 2484 3088
668 2495 3156
509 2337 993
517 2354 1072
527 2373 1166
538 2394 1277
553 2419 1412
571 2448 1570
587 2475 1740
604 2504 1929
625 2536 2130
646 2569 2334
665 2600 2522
686 2628 2693
706 2657 2848
720 2678 2970
731 2696 3075
738 2707 3158
742 2715 3225
586 2527 1088
594 2543 1166
603 2561 1258
613 2581 1366
626 2605 1493
643 2633 1648
660 2663 1819
679 2695 2005
700 2730 2201
724 2767 2404
744 2803 2593
760 2831 2762
776 2856 2910
788 2877 3030
798 2897 3136
805 2908 3219
808 2916 3285
643 2675 1149
651 2690 1221
660 2709 1315
672 2732 1429
685 2756 1557
701 2785 1708
719 2816 1876
741 2852 2064
762 2890 2261
784 2930 2462
804 2967 2650
820 2998 2818
832 3022 2964
840 3036 3078
849 3052 3181
855 3062 3263
860 3070 3329
693 2805 1205
699 2819 1273
708 2838 1361
720 2860 1475
735 2888 1609
751 2918 1758
769 2952 1923
790 2990 2111
811 3029 2307
832 3071 2509
852 3109 2696
865 3137 2862
878 3162 3009
885 3176 3122
892 3187 3220
899 3197 3303
904 3205 3369
734 2912 1252
740 2928 1319
748 2946 1405
759 2968 1513
773 2996 1645
791 3029 1793
808 3063 1958
830 3103 2148
849 3143 2344
870 3183 2544
888 3220 2731
903 3248 2898
914 3272 3044
923 3287 3158
932 3299 3256
937 3306 3335
944 3312 3400
765 2998 1286
772 3016 1356
781 3035 1440
790 3057 1544
804 3085 1673
821 3118 1820
838 3152 1984
859 3192 2175
878 3230 2370
897 3268 2569
916 3303 2754
930 3331 2920
943 3355 3067
953 3370 3182
964 3384 3281
973 3390 3360
978 3394 3422
11 0 0
11 0 57
11 0 246
11 12 472
11 86 711
11 152 952
31 203 1206
77 253 1478
122 288 1755
166 321 2059
201 358 2336
235 402 2571
267 449 2767
293 485 2909
315 513 3025
336 537 3117
352 557 3191
11 11 0
11 27 95
11 74 275
11 132 481
11 201 714
15 265 954
53 323 1210
104 374 1485
149 405 1762
188 430 2065
216 464 2340
240 500 2573
264 539 2766
284 572 2906
303 598 3021
321 620 3112
332 639 3185
11 170 0
11 183 149
11 215 316
11 270 513
19 336 736
34 396 971
71 449 1227
116 496 1501
155 527 1779
186 557 2076
204 587 2345
221 616 2573
240 656 2758
255 691 2896
269 718 3011
283 740 3101
294 759 3173
11 356 98
11 390 234
11 419 385
11 461 564
12 516 773
28 570 999
60 616 1246
50 677 1410
82 724 1646
97 777 1846
127 807 2092
161 832 2332
183 860 2508
200 882 2644
216 902 2758
233 919 2865
299 915 3187
11 617 247
11 642 351
11 669 479
11 698 626
11 731 799
20 778 1002
45 826 1209
77 871 1426
107 914 1645
137 957 1870
165 994 2086
189 1024 2283
209 1047 2457
227 1068 2591
242 1088 2703
255 1105 2792
266 1118 2869
21 853 335
31 884 448
40 908 565
55 939 706
73 974 871
88 1004 1057
112 1040 1265
141 1082 1483
168 1122 1697
195 1159 1918
220 1195 2131
244 1224 2325
264 1250 2496
281 1272 2628
296 1292 2738
307 1307 2826
316 1318 2896
95 1105 434
108 1131 540
120 1155 656
135 1183 789
153 1218 950
170 1250 1134
186 1279 1332
211 1316 1546
237 1354 1758
262 1389 1974
284 1420 2180
305 1450 2371
327 1478 2538
344 1501 2668
358 1520 2777
369 1535 2864
379 1547 2933
187 1374 547
197 1392 641
209 1414 754
221 1438 880
236 1467 1033
253 1502 1215
270 1534 1411
285 1563 1615
307 1597 1822
332 1632 2036
356 1664 2237
378 1693 2420
400 1720 2585
418 1742 2714
433 1759 2824
445 1773 2910
454 1784 2978
274 1631 653
283 1648 739
292 1666 843
304 1689 968
318 1716 1117
334 1749 1293
351 1781 1487
366 1810 1691
381 1835 1890
406 1867 2103
432 1901 2303
456 1930 2482
478 1955 2642
497 1976 2770
513 1993 2881
525 2006 2967
534 2016 3035
364 1885 760
373 1904 839
382 1922 934
392 1943 1056
407 1972 1205
424 2003 1378
443 2035 1570
459 2064 1773
473 2087 1973
492 2113 2181
520 2145 2379
545 2173 2554
566 2197 2712
583 2217 2838
600 2237 2947
612 2253 3034
622 2265 3103
453 2120 871
463 2140 948
472 2159 1042
482 2180 1160
497 2207 1303
515 2238 1469
534 2268 1652
554 2298 1853
571 2325 2055
590 2353 2262
612 2382 2456
637 2413 2634
658 2441 2791
674 2462 2914
686 2479 3020
695 2492 3104
702 2504 3174
540 2335 979
551 2356 1058
561 2377 1155
573 2398 1271
587 2424 1407
605 2454 1569
621 2482 1742
640 2513 1934
661 2547 2138
684 2581 2346
703 2613 2537
724 2641 2710
743 2670 2866
757 2691 2988
767 2708 3093
773 2719 3176
776 2726 3244
617 2529 1077
628 2550 1155
638 2570 1250
649 2591 1364
662 2614 1493
679 2645 1651
696 2675 1824
716 2709 2015
739 2746 2214
764 2787 2420
784 2823 2611
799 2851 2781
814 2875 2931
825 2895 3051
835 2914 3157
841 2923 3239
843 2928 3304
677 2683 1146
687 2702 1221
696 2723 1314
708 2746 1429
721 2770 1561
738 2801 1714
757 2834 1885
780 2874 2078
802 2914 2277
825 2955 2482
844 2993 2671
859 3022 2841
871 3044 2988
878 3056 3102
887 3071 3204
892 3081 3286
896 3086 3350
727 2814 1203
735 2833 1274
744 2853 1362
756 2876 1476
770 2903 1613
787 2936 1764
806 2970 1931
828 3013 2125
849 3053 2323
871 3095 2527
890 3133 2716
903 3160 2882
915 3183 3030
922 3195 3143
929 3205 3241
937 3215 3324
943 3222 3390
768 2924 1253
776 2943 1324
784 2963 1408
795 2986 1517
809 3015 1650
826 3049 1801
845 3084 1968
866 3125 2161
886 3165 2358
907 3205 2561
925 3243 2749
939 3269 2916
951 3291 3062
960 3305 3177
969 3316 3275
976 3322 3354
983 3329 3420
797 3011 1289
808 3032 1362
816 3053 1444
826 3077 1548
839 3105 1677
856 3137 1828
874 3172 1994
895 3212 2186
914 3251 2383
933 3289 2583
952 3323 2770
966 3349 2937
980 3371 3084
991 3385 3198
1003 3398 3298
1013 3405 3377
1020 3410 3440
267 0 0
241 0 13
167 0 258
167 41 487
129 124 713
107 191 928
111 239 1148
133 287 1376
162 331 1601
193 370 1833
222 403 2063
247 439 2274
265 473 2456
280 502 2596
290 527 2714
422 534 3130
438 553 3205
202 51 0
139 61 116
102 101 304
103 160 496
97 229 707
88 295 924
105 349 1146
136 403 1367
166 451 1582
196 484 1807
224 511 2047
247 539 2280
257 569 2461
266 594 2600
273 617 2716
283 639 2807
298 660 2898
104 194 51
60 208 191
59 241 345
70 296 524
77 361 723
82 425 932
103 477 1148
133 525 1371
160 570 1593
181 605 1820
198 639 2043
211 675 2248
220 702 2430
231 723 2574
250 740 2719
261 763 2808
271 783 2879
55 370 145
37 401 271
33 434 409
52 475 570
63 530 758
73 586 957
93 633 1166
117 679 1386
139 726 1609
157 767 1839
177 801 2063
196 833 2265
216 860 2438
231 878 2574
244 897 2688
258 916 2778
271 935 2850
40 599 237
30 639 354
36 668 484
47 695 633
64 729 806
83 778 1005
107 825 1214
132 867 1433
159 910 1653
186 953 1880
212 988 2097
233 1017 2294
252 1038 2468
268 1058 2602
283 1078 2715
295 1095 2804
306 1109 2876
75 841 320
86 882 439
99 909 565
113 940 707
128 974 874
144 1006 1066
166 1041 1275
191 1082 1493
216 1120 1709
241 1156 1930
265 1190 2143
286 1218 2336
305 1241 2506
320 1263 2639
335 1282 2750
346 1297 2838
355 1309 2908
144 1096 418
158 1128 527
171 1157 654
185 1185 790
203 1219 953
219 1252 1141
235 1280 1342
258 1316 1557
283 1355 1770
306 1389 1986
327 1418 2192
346 1445 2382
366 1471 2549
382 1493 2680
395 1512 2791
406 1526 2878
415 1538 2947
230 1370 535
241 1391 629
254 1415 748
266 1438 879
281 1468 1035
298 1504 1221
314 1535 1418
330 1565 1625
351 1599 1834
375 1634 2048
397 1663 2248
418 1690 2431
439 1716 2597
456 1738 2727
471 1756 2838
482 1770 2924
492 1781 2993
314 1627 641
325 1648 729
335 1669 837
347 1691 966
360 1718 1119
376 1750 1296
392 1783 1492
408 1812 1699
424 1837 1900
448 1870 2114
473 1902 2314
497 1931 2493
518 1955 2654
537 1976 2784
553 1994 2896
564 2007 2983
574 2018 3050
401 1879 744
412 1899 826
422 1920 922
433 1943 1048
447 1971 1201
464 2002 1377
481 2034 1570
499 2064 1777
513 2088 1979
533 2115 2191
561 2148 2390
586 2176 2566
607 2200 2725
625 2221 2852
642 2243 2964
654 2258 3051
662 2270 3120
489 2114 854
501 2136 932
512 2157 1026
522 2181 1145
535 2207 1293
554 2239 1464
573 2270 1650
595 2302 1856
612 2330 2061
631 2358 2271
655 2388 2469
681 2420 2648
701 2448 2806
716 2470 2930
729 2488 3037
737 2502 3123
744 2513 3193
576 2331 962
589 2353 1040
602 2379 1139
614 2403 1258
627 2428 1399
645 2459 1565
662 2489 1741
682 2521 1938
705 2557 2146
728 2594 2358
749 2626 2552
770 2655 2728
789 2684 2885
801 2704 3007
810 2721 3113
815 2731 3196
818 2738 3264
654 2528 1062
666 2551 1139
679 2577 1237
692 2601 1356
704 2625 1491
721 2656 1652
739 2688 1829
761 2724 2023
784 2764 2226
811 2807 2437
832 2844 2631
847 2872 2802
860 2894 2953
871 2914 3074
880 2931 3180
884 2938 3261
886 2943 3326
716 2687 1137
726 2709 1212
739 2735 1308
752 2760 1426
764 2785 1562
782 2816 1719
801 2851 1892
826 2895 2090
849 2937 2293
873 2982 2502
892 3020 2695
907 3050 2866
918 3070 3014
925 3081 3129
934 3094 3231
938 3102 3311
942 3105 3374
767 2822 1198
776 2844 1272
788 2869 1363
799 2894 1477
814 2922 1615
831 2955 1770
850 2991 1939
874 3036 2138
895 3079 2339
918 3123 2547
937 3161 2739
951 3188 2907
962 3209 3056
969 3220 3169
976 3228 3267
985 3238 3349
990 3242 3414
807 2934 1250
817 2956 1323
827 2981 1411
838 3006 1519
852 3035 1652
870 3070 1807
888 3105 1976
910 3148 2173
930 3189 2373
952 3231 2579
971 3268 2770
984 3294 2938
997 3314 3085
1007 3327 3200
1017 3337 3299
1025 3342 3377
1033 3349 3444
838 3024 1290
848 3047 1363
859 3072 1449
870 3097 1551
882 3125 1680
898 3158 1834
916 3193 2003
937 3234 2197
958 3273 2396
977 3312 2599
996 3346 2789
1011 3371 2957
1026 3392 3104
1039 3405 3220
1053 3418 3321
1064 3426 3400
1071 3429 3463
508 0 0
513 0 11
492 0 187
419 56 496
363 140 725
314 218 943
294 274 1177
299 310 1405
305 333 1625
310 353 1837
319 380 2047
337 420 2249
352 455 2427
363 483 2563
373 511 2681
382 535 2773
389 555 2847
522 71 0
499 69 61
454 86 253
364 167 506
321 247 722
290 320 942
274 364 1172
283 399 1396
297 430 1616
313 460 1831
331 490 2047
347 524 2251
355 555 2429
360 580 2565
365 604 2682
370 625 2773
