滤镜资源/Professional Luts Collection/Triune-Digital-Cinematic-LUTs/3D LUTs (3DL)/REDLOGFILM/Prometheus - REDlogFilm.3dl
# Created by Benjamin (IWLTBAP) : http://luts.iwltbap.com
# Copyright: (C) Copyright 2016 Triune Films and IWLTBAP
# Blockbuster LUTs Pack
0 128 256 384 512 640 768 896 1023
0 0 0
0 0 252
0 64 694
0 205 1182
46 301 1737
135 363 2325
198 453 2758
246 514 3011
281 557 3176
0 144 7
0 201 320
0 323 730
0 443 1207
50 529 1766
113 592 2335
163 660 2743
198 721 2993
226 766 3157
0 591 202
0 645 458
0 712 816
5 813 1282
73 911 1745
131 990 2150
181 1046 2528
218 1089 2777
244 1118 2938
54 1109 447
79 1156 658
112 1218 948
147 1278 1324
199 1353 1747
249 1423 2170
294 1485 2527
327 1526 2765
349 1553 2919
240 1631 660
257 1664 845
283 1714 1115
316 1780 1482
347 1832 1881
398 1900 2293
445 1955 2631
480 1992 2867
501 2014 3020
422 2123 885
439 2158 1056
466 2208 1312
501 2265 1653
537 2321 2049
577 2376 2444
623 2434 2777
650 2471 3004
668 2495 3156
586 2527 1088
603 2561 1258
626 2605 1493
660 2663 1819
700 2730 2201
744 2803 2593
776 2856 2910
798 2897 3136
808 2916 3285
693 2805 1205
708 2838 1361
735 2888 1609
769 2952 1923
811 3029 2307
852 3109 2696
878 3162 3009
892 3187 3220
904 3205 3369
765 2998 1286
781 3035 1440
804 3085 1673
838 3152 1984
878 3230 2370
916 3303 2754
943 3355 3067
964 3384 3281
978 3394 3422
267 0 0
167 0 258
129 124 713
111 239 1148
162 331 1601
222 403 2063
265 473 2456
290 527 2714
438 553 3205
104 194 51
59 241 345
77 361 723
103 477 1148
160 570 1593
198 639 2043
220 702 2430
250 740 2719
271 783 2879
40 599 237
36 668 484
64 729 806
107 825 1214
159 910 1653
212 988 2097
252 1038 2468
283 1078 2715
306 1109 2876
144 1096 418
171 1157 654
203 1219 953
235 1280 1342
283 1355 1770
327 1418 2192
366 1471 2549
395 1512 2791
415 1538 2947
314 1627 641
335 1669 837
360 1718 1119
392 1783 1492
424 1837 1900
473 1902 2314
518 1955 2654
553 1994 2896
574 2018 3050
489 2114 854
512 2157 1026
535 2207 1293
573 2270 1650
612 2330 2061
655 2388 2469
701 2448 2806
729 2488 3037
744 2513 3193
654 2528 1062
679 2577 1237
704 2625 1491
739 2688 1829
784 2764 2226
832 2844 2631
860 2894 2953
880 2931 3180
886 2943 3326
767 2822 1198
788 2869 1363
814 2922 1615
850 2991 1939
895 3079 2339
937 3161 2739
962 3209 3056
976 3228 3267
990 3242 3414
838 3024 1290
859 3072 1449
882 3125 1680
916 3193 2003
958 3273 2396
996 3346 2789
1026 3392 3104
1053 3418 3321
1071 3429 3463
762 32 0
770 1 150
708 142 727
573 283 1187
518 347 1693
505 401 2122
500 454 2469
507 496 2701
524 535 2861
797 257 20
763 232 222
622 369 734
500 507 1211
481 553 1672
485 593 2088
495 653 2455
493 698 2697
499 734 2857
667 624 187
599 665 442
462 729 822
422 823 1252
418 891 1685
413 961 2118
420 1013 2485
434 1051 2729
454 1084 2890
384 1051 386
364 1126 623
370 1237 962
394 1297 1367
427 1354 1797
458 1407 2220
485 1446 2572
509 1481 2814
526 1507 2970
443 1620 606
463 1661 798
490 1718 1103
518 1780 1492
551 1837 1918
594 1899 2334
632 1948 2675
661 1984 2920
683 2010 3078
592 2089 801
618 2132 967
649 2195 1241
682 2261 1626
723 2327 2059
773 2394 2488
821 2458 2832
846 2498 3067
861 2523 3229
753 2507 1011
782 2563 1179
818 2635 1447
852 2700 1809
902 2782 2230
956 2875 2657
989 2930 2994
1010 2964 3224
1014 2969 3367
868 2816 1160
896 2879 1333
928 2953 1593
964 3024 1934
1012 3115 2352
1060 3203 2770
1094 3255 3102
1116 3275 3320
1135 3285 3465
941 3030 1268
968 3092 1435
997 3159 1670
1027 3223 1998
1070 3300 2403
1119 3378 2816
1172 3434 3151
1217 3471 3378
1241 3484 3523
1352 209 112
1345 200 232
1378 174 486
1312 299 1152
1182 319 1703
1010 360 2202
969 441 2546
945 495 2774
937 530 2926
1376 371 117
1357 334 247
1379 324 517
1282 500 1195
1118 580 1747
960 624 2232
909 662 2560
883 689 2777
878 713 2921
1412 726 219
1409 731 380
1368 734 684
1178 874 1308
997 946 1815
920 947 2229
871 952 2544
844 978 2766
837 1008 2912
1385 1256 440
1318 1269 631
1213 1316 997
998 1337 1463
916 1391 1888
842 1430 2282
793 1437 2611
798 1464 2843
808 1486 2997
1183 1686 601
1058 1668 770
926 1698 1077
870 1840 1530
855 1886 1982
847 1911 2388
854 1937 2718
872 1966 2957
894 1995 3116
894 2117 784
878 2139 933
886 2185 1174
922 2273 1580
938 2332 2057
989 2410 2521
1034 2470 2865
1056 2510 3106
1077 2543 3276
939 2471 945
955 2514 1089
993 2597 1346
1041 2693 1725
1085 2779 2195
1154 2890 2669
1216 2969 3037
1241 3004 3274
1254 3015 3421
1039 2785 1102
1061 2843 1263
1097 2933 1520
1143 3033 1878
1193 3128 2331
1264 3239 2794
1334 3313 3159
1379 3348 3394
1411 3363 3544
1112 3017 1230
1135 3077 1393
1172 3158 1634
1213 3241 1967
1264 3325 2404
1356 3432 2865
1460 3526 3239
1519 3573 3477
1545 3585 3623
1943 407 304
1867 386 373
1880 352 548
1928 378 1004
1822 432 1608
1725 419 2159
1557 405 2560
1474 430 2785
1455 456 2934
1899 533 276
1871 487 373
1890 479 584
1931 528 1046
1807 594 1664
1685 605 2236
1492 593 2613
1434 635 2831
1426 668 2975
1962 873 347
1968 844 454
1932 810 663
1927 869 1132
1802 970 1802
1604 995 2333
1440 982 2687
1382 995 2886
1358 1006 3020
2031 1324 476
2012 1346 648
1994 1391 950
1955 1421 1358
1752 1467 1938
1508 1464 2416
1383 1412 2716
1332 1406 2923
1323 1425 3067
2035 1841 731
1997 1864 913
1942 1898 1178
1845 1951 1581
1601 1987 2084
1435 2003 2510
1341 1998 2820
1330 2015 3050
1358 2054 3223
1901 2287 876
1844 2289 1001
1721 2297 1226
1530 2336 1592
1438 2442 2108
1452 2535 2626
1445 2567 2965
1468 2607 3213
1532 2674 3406
1564 2602 969
1497 2617 1116
1428 2649 1338
1408 2716 1664
1464 2847 2179
1542 2970 2731
1645 3078 3136
1673 3117 3381
1711 3153 3547
1444 2841 1122
1431 2869 1263
1435 2924 1474
1470 3027 1814
1554 3179 2314
1668 3323 2863
1797 3444 3277
1856 3486 3523
1898 3503 3675
1476 3043 1236
1485 3087 1380
1512 3159 1606
1578 3270 1950
1706 3431 2457
1848 3574 2994
1992 3679 3393
2046 3710 3623
2064 3717 3760
2503 599 471
2381 573 515
2390 533 663
2413 539 967
2410 534 1485
2325 561 2066
2254 548 2506
2206 562 2780
2161 567 2948
2386 701 421
2364 658 509
2384 637 684
2404 646 989
2389 647 1525
2286 679 2108
2222 693 2565
2152 708 2838
2105 712 3000
2455 999 467
2450 956 553
2429 915 722
2407 951 1073
2405 969 1634
2265 976 2224
2193 988 2684
2099 960 2938
2071 964 3085
2536 1423 560
2550 1432 684
2555 1436 889
2513 1417 1202
2459 1449 1764
2316 1493 2416
2195 1456 2845
2109 1404 3079
2075 1397 3219
2602 1886 732
2599 1904 881
2588 1947 1144
2585 2014 1518
2569 2057 1968
2381 2106 2598
2195 2074 3005
2103 2001 3273
2114 2025 3439
2630 2391 981
2613 2414 1121
2589 2454 1352
2576 2521 1698
2511 2612 2174
2316 2715 2766
2156 2732 3152
2178 2772 3418
2320 2864 3629
2557 2802 1123
2535 2823 1248
2506 2851 1434
2464 2899 1732
2300 2979 2217
2169 3110 2814
2240 3232 3280
2300 3281 3548
2406 3336 3736
2463 3047 1151
2436 3074 1287
2412 3118 1502
2390 3194 1838
2253 3288 2319
2230 3436 2911
2364 3560 3389
2498 3614 3666
2551 3636 3826
2421 3215 1192
2407 3256 1359
2422 3331 1635
2451 3439 2024
2422 3542 2483
2457 3692 3076
2635 3790 3514
2748 3830 3750
2742 3839 3888
2959 757 594
2806 738 633
2826 712 775
2843 712 1041
2862 718 1478
2798 677 1982
2697 657 2463
2647 643 2736
2628 653 2909
2803 848 535
2789 814 620
2803 799 781
2830 809 1061
2837 814 1505
2763 772 2032
2663 760 2501
2621 764 2780
2607 784 2953
2851 1087 552
2843 1053 641
2830 1030 801
2823 1049 1108
2823 1049 1553
2730 1005 2125
2637 1003 2591
2617 1022 2869
2606 1034 3041
2941 1492 638
2966 1492 737
2978 1475 889
2934 1440 1163
2865 1460 1643
2768 1393 2264
2688 1417 2741
2675 1420 3010
2646 1403 3177
3057 1959 764
3072 1973 874
3097 1996 1067
3134 2027 1375
3079 2027 1799
2968 2029 2473
2867 2065 2981
2826 2011 3263
2825 2009 3453
3162 2436 945
3179 2464 1073
3197 2507 1283
3200 2584 1634
3203 2717 2157
3185 2815 2743
3063 2876 3267
3041 2897 3523
3112 2970 3705
3237 2869 1116
3234 2908 1269
3221 2966 1508
3213 3052 1869
3215 3163 2333
3157 3296 2912
3127 3405 3416
3168 3443 3683
3235 3484 3850
3258 3191 1245
3245 3239 1415
3239 3313 1679
3277 3419 2040
3279 3519 2488
3157 3576 2986
3131 3667 3456
3257 3744 3758
3308 3767 3919
3285 3413 1347
3275 3473 1551
3299 3560 1851
3341 3670 2252
3356 3755 2668
3232 3789 3097
3257 3869 3533
3369 3930 3814
3395 3946 3964
3247 867 669
3115 861 709
3126 843 850
3158 846 1108
3158 830 1476
3135 815 1992
3014 747 2455
2946 720 2740
2914 711 2902
3105 955 614
3095 931 698
3095 916 846
3139 934 1128
3135 921 1502
3105 896 2024
2977 842 2502
2911 817 2773
2888 818 2936
3138 1157 622
3133 1134 712
3124 1124 867
3121 1139 1160
3123 1140 1553
3078 1105 2090
2957 1063 2586
2901 1039 2846
2892 1046 3010
3228 1546 698
3250 1538 790
3258 1512 932
3230 1481 1187
3167 1500 1638
3129 1469 2197
2999 1423 2714
2958 1411 2971
2964 1429 3147
3362 2029 818
3382 2032 915
3409 2035 1077
3445 2047 1342
3400 2028 1749
3284 2040 2359
3155 1994 2925
3148 2033 3217
3189 2112 3435
3492 2516 983
3514 2544 1101
3542 2585 1291
3568 2655 1610
3562 2774 2134
3544 2856 2701
3464 2858 3264
3431 2922 3549
3456 2992 3727
3580 2922 1148
3587 2963 1299
3573 3032 1559
3569 3133 1935
3597 3260 2416
3593 3383 2964
3589 3459 3433
3571 3504 3728
3584 3530 3888
3604 3249 1314
3581 3311 1515
3582 3396 1801
3614 3500 2171
3642 3607 2609
3611 3670 3075
3601 3762 3529
3676 3829 3828
3690 3840 3981
3588 3497 1518
3597 3560 1721
3627 3641 1999
3662 3734 2361
3685 3816 2767
3640 3876 3198
3645 3933 3580
3746 4002 3874
3760 4019 4029
3433 935 718
3304 938 757
3318 923 896
3361 926 1146
3347 909 1500
3330 890 2006
3210 815 2441
3144 786 2752
3111 773 2912
3303 1030 666
3295 1010 749
3290 991 891
3341 1010 1163
3331 996 1521
3312 976 2039
3186 903 2495
3117 879 2786
3088 870 2944
3340 1216 677
3338 1200 767
3336 1191 919
3337 1195 1186
3335 1204 1570
3302 1189 2093
3185 1117 2578
3119 1099 2862
3091 1089 3017
3426 1587 745
3445 1576 838
3452 1550 983
3443 1532 1228
3385 1554 1666
3360 1554 2193
3244 1486 2714
3187 1487 3000
3172 1492 3164
3557 2082 865
3579 2083 963
3608 2082 1120
3645 2099 1380
3604 2083 1790
3512 2131 2385
3424 2092 2955
3416 2195 3292
3442 2271 3484
3692 2588 1034
3715 2620 1153
3740 2666 1352
3753 2744 1693
3757 2835 2178
3747 2916 2739
3702 2918 3260
3658 3000 3602
3672 3061 3764
3766 2991 1218
3753 3042 1403
3740 3126 1693
3765 3247 2081
3799 3364 2528
3808 3448 3005
3810 3482 3416
3784 3508 3739
3788 3550 3907
3750 3311 1431
3743 3375 1638
3766 3461 1919
3797 3566 2291
3824 3658 2706
3819 3715 3140
3828 3794 3555
3892 3858 3848
3891 3866 4002
3753 3541 1613
3774 3602 1804
3799 3678 2064
3823 3756 2405
3845 3836 2810
3839 3902 3243
3881 3973 3626
3941 4031 3902
3962 4055 4062
