滤镜资源/Professional Luts Collection/Triune-Digital-Cinematic-LUTs/3D LUTs (3DL)/REDLOGFILM/Saving Private Ryan - REDlogFilm.3dl
# Created by Benjamin (IWLTBAP) : http://luts.iwltbap.com
# Copyright: (C) Copyright 2016 Triune Films and IWLTBAP
# Blockbuster LUTs Pack
0 128 256 384 512 640 768 896 1023
5 16 15
7 10 135
18 20 365
47 51 790
63 74 1325
125 129 1837
177 173 2224
208 202 2480
231 221 2649
28 194 45
23 164 165
34 162 410
61 189 829
78 214 1363
130 258 1870
187 301 2264
218 328 2519
241 345 2689
85 503 109
75 472 223
79 472 494
100 484 904
124 525 1433
169 555 1944
213 590 2334
246 615 2591
266 632 2756
193 977 211
183 965 339
183 970 596
192 988 1020
219 1020 1549
257 1056 2059
290 1094 2438
312 1117 2686
326 1131 2850
365 1627 378
346 1616 502
331 1606 735
334 1622 1167
352 1654 1699
376 1675 2186
403 1704 2559
423 1724 2806
437 1738 2971
549 2275 570
527 2245 678
493 2216 883
480 2227 1292
491 2259 1838
502 2272 2312
524 2290 2667
538 2301 2905
547 2305 3065
694 2774 729
672 2746 835
636 2698 1016
606 2692 1391
603 2715 1934
612 2727 2406
618 2734 2747
633 2749 2982
643 2758 3150
798 3118 839
777 3091 945
738 3033 1113
695 3001 1457
679 3015 1994
688 3033 2468
694 3041 2812
699 3047 3047
707 3052 3212
868 3345 910
848 3321 1018
813 3274 1198
758 3214 1505
735 3222 2034
739 3236 2505
747 3248 2859
751 3255 3100
753 3256 3261
104 12 10
109 14 142
121 26 377
150 56 793
174 76 1312
236 124 1820
285 165 2203
318 194 2458
342 213 2629
125 172 30
125 167 172
138 169 422
169 197 842
193 224 1378
254 270 1888
309 312 2277
341 337 2531
365 356 2701
187 483 88
186 481 232
190 485 508
213 500 918
235 528 1443
284 575 1957
334 605 2346
371 631 2600
391 649 2766
301 982 210
305 993 356
294 989 610
301 1004 1031
326 1034 1559
362 1073 2075
395 1110 2452
419 1133 2700
437 1147 2864
482 1643 386
485 1655 529
451 1638 755
441 1647 1182
457 1672 1710
482 1695 2197
510 1723 2571
531 1745 2817
546 1760 2983
670 2301 589
667 2300 716
626 2255 909
596 2255 1303
599 2283 1852
611 2297 2327
632 2313 2680
647 2324 2920
656 2328 3083
817 2803 749
811 2801 877
773 2747 1047
727 2721 1407
714 2738 1944
722 2752 2421
728 2759 2763
742 2771 2998
752 2779 3166
915 3135 853
909 3134 982
872 3086 1157
820 3035 1478
793 3042 2005
799 3059 2480
805 3066 2827
808 3071 3064
817 3078 3230
984 3360 925
978 3360 1056
947 3324 1241
887 3244 1526
853 3252 2043
852 3265 2518
857 3273 2871
861 3280 3117
863 3282 3276
307 26 20
320 30 145
331 40 402
372 71 818
393 89 1325
441 130 1814
491 171 2197
522 199 2455
545 218 2629
336 176 36
346 180 181
353 183 440
385 207 853
403 231 1372
460 270 1871
511 310 2263
540 333 2513
561 350 2682
380 495 94
391 506 247
399 509 523
406 528 941
436 563 1474
500 612 1984
552 639 2371
588 664 2622
606 681 2786
488 1005 218
501 1022 366
500 1038 642
486 1045 1058
509 1075 1587
551 1111 2100
595 1150 2478
627 1170 2726
653 1184 2892
680 1678 404
695 1691 551
691 1714 803
633 1690 1205
640 1715 1741
665 1739 2226
693 1765 2593
713 1786 2837
729 1803 3005
876 2346 617
879 2353 756
877 2347 975
805 2312 1330
788 2330 1878
798 2346 2354
817 2360 2705
832 2372 2947
842 2378 3115
1034 2845 772
1025 2847 909
1007 2844 1129
942 2776 1436
908 2789 1971
911 2805 2452
918 2814 2802
928 2820 3039
935 2820 3205
1122 3170 874
1124 3174 1015
1104 3176 1236
1044 3099 1520
996 3102 2026
990 3113 2511
995 3123 2863
998 3126 3106
1002 3126 3265
1188 3390 943
1183 3392 1081
1168 3397 1307
1116 3327 1589
1060 3311 2063
1044 3320 2549
1045 3326 2902
1049 3331 3151
1050 3331 3312
760 91 77
777 95 212
784 98 461
782 107 850
812 128 1362
851 168 1854
871 200 2227
883 222 2475
896 237 2643
821 248 105
827 255 245
826 242 492
819 242 881
835 267 1403
853 299 1893
874 332 2275
890 352 2526
904 367 2692
883 560 163
905 573 307
886 578 572
865 570 961
858 601 1484
880 640 1993
911 667 2375
938 682 2626
950 691 2785
934 1063 256
982 1089 411
1006 1108 683
958 1124 1122
927 1161 1648
968 1202 2145
1003 1231 2519
1025 1251 2766
1048 1262 2934
1143 1738 449
1185 1760 600
1215 1784 854
1167 1816 1284
1042 1812 1809
1065 1841 2294
1082 1858 2650
1113 1875 2894
1135 1891 3067
1394 2402 658
1407 2423 805
1414 2437 1053
1383 2457 1449
1167 2432 1938
1152 2450 2423
1155 2461 2765
1177 2466 3006
1198 2474 3178
1563 2905 818
1572 2916 961
1537 2926 1202
1517 2934 1577
1305 2898 2024
1234 2908 2513
1248 2923 2871
1249 2922 3111
1257 2922 3277
1659 3231 920
1665 3242 1062
1620 3246 1300
1589 3252 1671
1422 3196 2075
1310 3213 2570
1310 3222 2936
1314 3230 3191
1316 3229 3350
1723 3446 988
1721 3456 1129
1676 3458 1363
1646 3468 1736
1509 3405 2124
1366 3415 2600
1357 3421 2975
1362 3430 3229
1365 3432 3389
1420 186 174
1414 182 288
1420 184 530
1403 186 918
1370 187 1406
1440 234 1916
1462 265 2292
1472 284 2536
1475 295 2696
1505 345 211
1506 342 340
1494 330 565
1475 324 950
1433 319 1442
1476 371 1963
1480 394 2331
1482 412 2572
1473 422 2733
1604 662 267
1610 679 413
1627 676 664
1578 660 1030
1512 664 1523
1515 714 2037
1514 731 2407
1499 736 2656
1483 745 2821
1726 1156 363
1746 1176 511
1754 1218 789
1734 1242 1203
1631 1227 1679
1611 1267 2188
1603 1298 2555
1589 1310 2795
1595 1321 2959
1831 1810 517
1861 1831 663
1878 1854 915
1872 1917 1367
1811 1942 1901
1773 1970 2385
1784 2002 2740
1783 2015 2983
1785 2026 3154
2032 2485 728
2052 2509 874
2067 2525 1117
2047 2543 1525
2029 2593 2057
1911 2586 2516
1893 2597 2871
1892 2610 3122
1899 2618 3291
2189 2978 881
2207 2996 1023
2195 3014 1266
2177 3019 1663
2164 3066 2174
2015 3044 2600
1973 3045 2973
1952 3047 3214
1954 3056 3381
2283 3295 973
2295 3312 1116
2276 3326 1364
2257 3333 1756
2245 3363 2244
2084 3337 2650
2008 3336 3026
2006 3342 3279
1998 3346 3437
2348 3506 1036
2349 3522 1181
2331 3533 1430
2311 3539 1816
2300 3565 2295
2146 3530 2682
2032 3527 3059
2020 3534 3316
2041 3540 3480
2054 302 292
2032 293 395
2059 297 614
2052 298 985
1992 289 1469
1975 292 1937
2017 325 2332
2035 346 2587
2031 356 2747
2125 442 319
2131 444 436
2140 433 651
2133 432 1020
2058 421 1508
2042 424 1976
2077 460 2383
2069 478 2635
2049 484 2792
2233 737 370
2244 754 501
2273 771 750
2289 736 1090
2169 749 1598
2123 755 2069
2130 794 2466
2104 807 2707
2079 811 2861
2365 1238 463
2378 1263 611
2402 1306 883
2439 1334 1287
2341 1324 1756
2260 1332 2218
2203 1356 2596
2172 1364 2831
2165 1366 3000
2508 1881 611
2518 1906 756
2541 1943 1013
2530 2022 1469
2522 2055 1983
2425 2039 2408
2327 2047 2772
2348 2070 3043
2354 2086 3209
2615 2508 767
2628 2531 911
2636 2567 1163
2634 2601 1578
2639 2657 2126
2617 2719 2608
2535 2716 2955
2526 2735 3224
2551 2755 3401
2734 3003 917
2752 3023 1059
2752 3058 1312
2748 3077 1716
2752 3131 2240
2749 3198 2723
2697 3198 3080
2659 3192 3319
2664 3204 3487
2821 3321 1006
2836 3343 1150
2834 3373 1406
2820 3401 1811
2831 3438 2314
2824 3505 2793
2756 3492 3138
2731 3492 3385
2727 3493 3537
2873 3531 1065
2880 3552 1209
2879 3574 1465
2867 3602 1866
2880 3637 2359
2865 3699 2832
2786 3676 3167
2753 3672 3412
2764 3680 3574
2532 388 379
2505 378 471
2539 384 684
2573 389 1023
2449 370 1522
2429 368 1980
2417 371 2345
2447 388 2608
2449 402 2780
2606 517 405
2611 518 515
2622 515 719
2682 524 1056
2529 503 1568
2504 500 2023
2488 503 2386
2506 523 2660
2487 533 2827
2696 812 452
2717 817 579
2764 827 817
2839 780 1133
2678 822 1657
2623 818 2119
2584 811 2476
2565 841 2739
2542 852 2905
2817 1314 549
2833 1339 691
2874 1373 953
2931 1384 1336
2890 1374 1794
2793 1394 2276
2718 1402 2626
2674 1414 2883
2638 1414 3041
2965 1939 682
2972 1972 834
2992 2013 1096
2988 2086 1545
3016 2120 2047
2946 2115 2472
2858 2104 2799
2790 2095 3050
2760 2111 3225
3110 2542 818
3114 2568 964
3104 2617 1229
3094 2681 1672
3099 2734 2200
3099 2787 2668
3031 2782 3000
2980 2782 3239
2958 2797 3416
3167 3009 939
3172 3028 1078
3167 3071 1333
3165 3118 1756
3174 3167 2273
3201 3247 2777
3197 3289 3156
3184 3307 3394
3187 3314 3549
3231 3331 1026
3240 3352 1169
3247 3386 1427
3241 3427 1840
3263 3475 2346
3281 3551 2846
3285 3587 3223
3258 3601 3455
3265 3605 3609
3281 3545 1089
3288 3563 1232
3301 3592 1490
3301 3628 1896
3322 3676 2395
3332 3744 2881
3326 3773 3246
3290 3781 3476
3302 3788 3641
2845 443 435
2823 434 526
2861 442 729
2941 454 1060
2804 434 1549
2760 428 2018
2734 424 2368
2720 424 2609
2718 429 2782
2911 569 459
2923 572 568
2933 569 761
3027 582 1093
2887 567 1590
2838 561 2065
2810 556 2416
2786 556 2658
2776 562 2837
2990 857 505
3010 862 628
3056 859 855
3139 812 1162
3043 854 1672
2953 864 2159
2924 846 2505
2874 845 2746
2859 867 2922
3094 1354 593
3107 1381 738
3165 1411 996
3241 1410 1366
3239 1391 1810
3105 1428 2308
3062 1440 2654
3007 1436 2896
2976 1439 3070
3261 1974 722
3270 2006 874
3289 2057 1143
3290 2124 1589
3358 2137 2064
3282 2138 2498
3197 2144 2837
3120 2129 3072
3077 2128 3243
3447 2569 855
3454 2597 1005
3428 2651 1281
3417 2727 1729
3426 2790 2252
3426 2833 2714
3380 2835 3046
3311 2817 3269
3292 2825 3433
3557 3025 962
3551 3050 1106
3527 3095 1374
3496 3163 1818
3512 3224 2329
3521 3291 2814
3525 3327 3192
3493 3333 3415
3493 3344 3572
3530 3340 1047
3530 3361 1189
3534 3397 1446
3539 3449 1863
3558 3499 2373
3568 3567 2856
3584 3612 3249
3586 3635 3487
3598 3654 3644
3565 3555 1107
3564 3572 1247
3577 3600 1503
3578 3640 1910
3597 3692 2409
3613 3756 2890
3631 3802 3285
3630 3823 3521
3628 3834 3673
3047 479 471
3025 469 561
3062 476 757
3155 490 1081
3052 478 1558
2973 466 2039
2944 460 2391
2929 459 2622
2903 456 2783
3101 601 492
3111 604 599
3122 599 785
3224 615 1114
3138 610 1596
3048 599 2083
3025 595 2435
3005 592 2672
2969 587 2833
3176 882 536
3191 885 653
3235 880 876
3327 835 1184
3271 861 1669
3153 892 2178
3142 876 2526
3104 865 2762
3065 867 2927
3278 1372 618
3290 1398 766
3354 1425 1018
3438 1413 1375
3480 1392 1809
3308 1447 2326
3278 1459 2673
3226 1458 2906
3185 1453 3077
3466 1993 747
3476 2022 897
3492 2074 1165
3497 2139 1606
3591 2139 2068
3520 2141 2505
3420 2159 2857
3363 2165 3102
3290 2144 3257
3663 2586 877
3662 2616 1029
3638 2672 1309
3625 2749 1758
3636 2814 2278
3646 2852 2733
3613 2866 3070
3567 2862 3302
3514 2848 3447
3762 3034 981
3759 3062 1129
3723 3115 1406
3693 3187 1849
3710 3254 2361
3708 3316 2835
3716 3353 3217
3702 3362 3440
3688 3363 3584
3741 3351 1065
3737 3377 1211
3738 3413 1471
3730 3469 1892
3754 3530 2403
3758 3591 2879
3773 3634 3271
3773 3657 3509
3772 3665 3650
3740 3562 1120
3738 3581 1262
3748 3608 1513
3757 3651 1922
3781 3707 2424
3787 3765 2896
3806 3811 3290
3798 3829 3530
3810 3852 3687
