滤镜资源/Professional Luts Collection/Triune-Digital-Cinematic-LUTs/3D LUTs (3DL)/REDLOGFILM/Saving Private Ryan - REDlogFilm.3dl
# Created by Benjamin (IWLTBAP) : http://luts.iwltbap.com
# Copyright: (C) Copyright 2016 Triune Films and IWLTBAP
# Blockbuster LUTs Pack
0 64 128 192 256 320 384 448 512 576 640 704 768 832 896 960 1023
5 16 15
6 13 68
7 10 135
11 12 223
18 20 365
32 35 564
47 51 790
58 66 1050
63 74 1325
101 103 1604
125 129 1837
152 153 2044
177 173 2224
194 189 2362
208 202 2480
220 212 2573
231 221 2649
15 95 28
12 82 81
14 77 147
16 72 235
25 80 383
38 94 581
53 111 806
63 125 1066
69 136 1343
105 163 1620
127 187 1850
157 211 2061
182 231 2241
199 245 2379
213 258 2497
224 268 2590
236 277 2666
28 194 45
25 179 97
23 164 165
25 154 258
34 162 410
48 175 603
61 189 829
69 199 1089
78 214 1363
109 243 1640
130 258 1870
161 281 2083
187 301 2264
205 316 2401
218 328 2519
230 337 2613
241 345 2689
49 329 69
46 313 122
42 296 189
41 288 296
50 288 446
62 298 637
74 304 861
82 316 1118
94 340 1390
119 364 1665
142 371 1899
170 393 2110
195 407 2291
213 417 2430
228 432 2549
239 442 2643
249 451 2719
85 503 109
80 489 159
75 472 223
74 470 335
79 472 494
90 477 681
100 484 904
107 496 1159
124 525 1433
148 541 1706
169 555 1944
191 573 2154
213 590 2334
231 603 2473
246 615 2591
257 624 2682
266 632 2756
134 719 158
128 705 207
123 694 274
124 695 385
125 697 537
132 706 733
139 713 953
146 727 1211
167 754 1491
188 767 1758
208 787 1997
227 806 2207
244 824 2386
260 838 2524
272 848 2637
281 857 2727
288 863 2799
193 977 211
187 969 265
183 965 339
182 966 447
183 970 596
187 977 789
192 988 1020
201 1000 1278
219 1020 1549
238 1036 1817
257 1056 2059
274 1075 2264
290 1094 2438
302 1107 2573
312 1117 2686
320 1125 2776
326 1131 2850
270 1292 286
264 1287 344
258 1284 417
253 1282 518
251 1283 662
253 1289 859
258 1299 1092
267 1314 1354
282 1329 1620
299 1346 1886
315 1361 2122
330 1378 2323
345 1397 2496
356 1411 2628
365 1420 2741
373 1427 2833
380 1433 2909
365 1627 378
356 1622 433
346 1616 502
336 1609 597
331 1606 735
329 1611 928
334 1622 1167
341 1636 1430
352 1654 1699
365 1667 1958
376 1675 2186
390 1691 2387
403 1704 2559
414 1714 2692
423 1724 2806
431 1731 2897
437 1738 2971
462 1963 473
453 1955 525
442 1947 592
427 1935 681
413 1926 810
408 1929 996
409 1941 1233
416 1958 1506
422 1971 1771
429 1980 2025
441 1990 2252
454 2003 2451
466 2014 2619
475 2021 2748
482 2026 2859
488 2030 2948
493 2034 3021
549 2275 570
539 2261 617
527 2245 678
511 2229 763
493 2216 883
484 2218 1062
480 2227 1292
484 2245 1569
491 2259 1838
495 2265 2089
502 2272 2312
513 2282 2506
524 2290 2667
532 2297 2795
538 2301 2905
543 2303 2992
547 2305 3065
624 2540 654
615 2530 702
603 2513 759
587 2491 839
568 2474 953
554 2472 1120
546 2478 1345
545 2492 1618
550 2505 1890
555 2510 2142
559 2515 2360
564 2520 2547
573 2528 2708
582 2536 2836
589 2543 2947
595 2547 3037
599 2549 3111
694 2774 729
684 2762 777
672 2746 835
656 2723 909
636 2698 1016
617 2689 1173
606 2692 1391
600 2703 1661
603 2715 1934
608 2723 2190
612 2727 2406
614 2729 2590
618 2734 2747
626 2742 2871
633 2749 2982
639 2755 3074
643 2758 3150
751 2961 789
741 2948 836
728 2932 895
712 2908 968
690 2875 1065
667 2858 1215
653 2858 1426
644 2866 1694
644 2877 1967
650 2888 2225
653 2892 2441
655 2894 2624
658 2898 2782
661 2903 2904
667 2908 3014
673 2913 3106
677 2916 3182
798 3118 839
789 3106 886
777 3091 945
761 3069 1021
738 3033 1113
712 3005 1254
695 3001 1457
684 3008 1721
679 3015 1994
684 3026 2250
688 3033 2468
691 3036 2652
694 3041 2812
696 3044 2938
699 3047 3047
703 3051 3138
707 3052 3212
837 3244 878
828 3233 925
816 3218 985
801 3199 1063
779 3164 1158
751 3127 1289
730 3118 1483
717 3124 1741
709 3129 2016
712 3137 2270
716 3145 2488
720 3151 2676
723 3155 2837
725 3159 2965
727 3162 3076
728 3162 3165
732 3163 3239
868 3345 910
859 3335 958
848 3321 1018
833 3303 1097
813 3274 1198
783 3227 1319
758 3214 1505
746 3219 1758
735 3222 2034
735 3227 2289
739 3236 2505
743 3243 2695
747 3248 2859
749 3252 2987
751 3255 3100
752 3256 3190
753 3256 3261
49 14 13
51 15 71
53 12 138
56 14 226
64 23 369
78 37 567
93 53 791
105 67 1048
110 75 1318
147 100 1593
177 127 1831
202 150 2036
224 169 2214
240 184 2352
256 198 2470
268 209 2564
279 217 2639
58 86 22
57 83 83
59 78 150
62 74 238
71 83 389
85 98 586
100 114 811
110 129 1075
118 141 1348
158 168 1622
184 193 1857
212 215 2067
234 235 2247
250 249 2384
265 262 2502
278 272 2596
289 280 2671
71 185 39
71 180 100
68 166 168
71 158 263
81 165 415
94 179 609
108 193 835
117 203 1098
128 217 1368
160 242 1644
186 263 1878
215 286 2089
239 306 2270
256 320 2407
272 332 2525
285 342 2619
295 350 2694
92 320 63
91 314 124
87 297 192
87 290 300
96 292 452
110 301 642
122 310 867
131 322 1126
143 339 1395
170 363 1669
195 378 1905
223 398 2115
247 412 2296
266 424 2435
283 438 2554
294 448 2647
305 457 2723
128 495 101
127 493 162
121 476 226
121 475 341
127 478 500
138 483 687
149 491 910
157 502 1164
174 525 1436
197 544 1710
219 563 1949
241 580 2159
265 596 2339
283 609 2477
300 621 2595
312 631 2686
321 639 2761
180 710 149
181 712 211
174 702 280
173 702 391
175 704 544
181 713 738
189 720 959
197 733 1217
215 753 1492
236 772 1762
257 794 2004
275 813 2214
294 830 2393
310 843 2529
323 854 2642
333 863 2731
342 870 2803
241 976 207
243 980 270
238 978 346
234 977 454
232 977 601
235 984 793
241 995 1025
249 1007 1283
266 1024 1552
286 1043 1824
304 1063 2066
321 1082 2271
336 1100 2444
348 1113 2578
358 1124 2692
366 1131 2782
373 1137 2855
320 1297 289
322 1304 354
314 1299 427
306 1295 528
302 1294 670
301 1296 864
306 1307 1098
315 1321 1359
330 1337 1626
346 1353 1894
361 1369 2128
376 1386 2330
391 1404 2502
403 1418 2635
413 1428 2748
421 1435 2840
428 1441 2917
417 1633 381
418 1640 444
406 1633 514
392 1624 608
382 1619 743
378 1621 934
382 1633 1174
387 1645 1435
398 1661 1703
411 1676 1963
423 1684 2190
437 1699 2391
451 1712 2564
462 1723 2697
471 1733 2811
479 1740 2901
486 1747 2977
516 1975 480
515 1975 538
503 1964 603
485 1952 693
468 1940 817
460 1941 1001
458 1954 1239
463 1968 1513
470 1980 1776
477 1989 2031
489 2000 2256
503 2014 2455
514 2024 2622
523 2031 2752
530 2036 2864
537 2040 2953
542 2045 3027
603 2287 579
602 2285 634
589 2269 693
572 2248 775
551 2232 893
537 2230 1065
531 2239 1297
533 2256 1575
539 2269 1844
543 2276 2097
550 2283 2318
562 2292 2511
572 2300 2673
580 2307 2801
586 2311 2911
591 2313 2999
596 2314 3072
680 2552 662
677 2553 720
666 2539 778
650 2516 854
629 2493 965
610 2486 1127
598 2489 1350
595 2503 1623
599 2515 1895
604 2521 2149
608 2526 2367
613 2531 2554
622 2538 2715
630 2545 2843
637 2552 2954
643 2556 3045
647 2559 3119
749 2787 737
745 2785 793
732 2769 852
717 2746 925
696 2717 1028
674 2705 1182
659 2704 1398
650 2713 1665
652 2724 1938
657 2733 2196
661 2738 2412
663 2740 2596
667 2744 2753
674 2752 2878
681 2759 2989
687 2764 3081
692 2768 3157
804 2971 797
801 2969 853
788 2953 912
772 2931 987
750 2896 1080
725 2873 1224
707 2871 1435
696 2877 1699
693 2886 1971
699 2898 2229
702 2903 2447
705 2905 2630
707 2909 2789
711 2914 2911
716 2919 3022
722 2923 3113
726 2927 3189
851 3126 845
848 3125 902
836 3111 962
819 3090 1038
798 3056 1132
771 3021 1265
750 3017 1467
736 3021 1726
730 3027 1999
733 3037 2255
737 3044 2473
740 3047 2657
743 3052 2819
746 3055 2945
747 3057 3054
752 3061 3145
756 3063 3219
889 3251 885
886 3250 942
875 3237 1002
860 3219 1080
839 3189 1179
810 3144 1301
786 3133 1491
771 3137 1746
760 3140 2020
762 3148 2276
766 3156 2492
769 3160 2680
772 3166 2843
774 3168 2971
776 3171 3082
777 3172 3171
780 3174 3245
920 3352 918
918 3351 975
907 3340 1035
892 3322 1113
873 3297 1217
843 3248 1335
815 3227 1514
799 3232 1764
786 3233 2037
785 3240 2295
790 3249 2510
793 3254 2700
796 3260 2864
798 3263 2994
800 3266 3106
801 3266 3196
802 3267 3267
104 12 10
105 13 65
109 14 142
113 17 232
121 26 377
135 40 571
150 56 793
164 69 1047
174 76 1312
202 97 1579
236 124 1820
262 146 2026
285 165 2203
302 180 2340
318 194 2458
331 204 2552
342 213 2629
112 81 18
112 81 78
115 80 154
118 77 245
128 86 396
142 101 590
158 117 812
172 131 1073
183 142 1343
215 166 1609
245 190 1848
273 212 2058
297 230 2235
313 244 2372
327 257 2489
340 267 2582
352 275 2659
125 172 30
125 174 94
125 167 172
128 162 270
138 169 422
153 183 616
169 197 842
180 208 1108
193 224 1378
222 246 1647
254 270 1888
283 292 2098
309 312 2277
326 325 2414
341 337 2531
355 347 2625
365 356 2701
148 307 50
148 307 116
146 299 195
147 294 306
156 297 459
171 306 650
186 318 875
195 330 1137
207 342 1403
233 362 1676
263 388 1916
290 406 2124
317 420 2305
336 432 2444
353 447 2561
365 457 2654
375 467 2729
187 483 88
188 486 154
186 481 232
185 482 349
190 485 508
202 491 696
213 500 918
220 513 1173
235 528 1443
260 552 1717
284 575 1957
308 590 2166
334 605 2346
354 618 2484
371 631 2600
383 641 2692
391 649 2766
238 704 140
239 707 205
241 712 287
237 712 399
237 714 553
243 721 746
251 730 967
258 742 1225
276 761 1499
296 783 1770
316 805 2013
335 822 2224
356 838 2401
376 851 2536
391 863 2648
403 872 2737
412 879 2809
301 982 210
303 987 273
305 993 356
299 991 463
294 989 610
296 994 800
301 1004 1031
310 1018 1291
326 1034 1559
344 1053 1833
362 1073 2075
379 1093 2280
395 1110 2452
408 1122 2586
419 1133 2700
428 1141 2790
437 1147 2864
382 1305 292
386 1312 358
389 1321 441
376 1315 542
366 1311 681
360 1307 870
365 1317 1104
374 1332 1368
388 1348 1635
404 1364 1904
420 1380 2137
435 1398 2338
450 1415 2510
462 1428 2643
473 1438 2758
481 1445 2851
487 1452 2926
482 1643 386
484 1648 448
485 1655 529
468 1648 624
451 1638 755
441 1636 942
441 1647 1182
447 1658 1443
457 1672 1710
470 1687 1970
482 1695 2197
496 1710 2398
510 1723 2571
521 1734 2703
531 1745 2817
539 1753 2908
546 1760 2983
582 1990 489
582 1990 547
582 1991 621
562 1975 709
539 1961 831
526 1958 1007
521 1969 1247
524 1983 1522
529 1993 1784
537 2002 2039
549 2014 2262
562 2027 2461
574 2037 2627
583 2044 2757
590 2049 2869
597 2054 2960
602 2059 3034
670 2301 589
669 2302 647
667 2300 716
651 2278 794
626 2255 909
606 2248 1072
596 2255 1303
594 2271 1583
599 2283 1852
604 2290 2105
611 2297 2327
622 2306 2518
632 2313 2680
640 2319 2809
647 2324 2920
652 2326 3009
656 2328 3083
748 2569 673
746 2570 732
744 2570 804
729 2548 877
706 2520 981
681 2505 1138
665 2504 1357
658 2517 1630
661 2528 1902
665 2535 2158
669 2541 2377
674 2545 2564
683 2552 2725
691 2558 2853
698 2564 2965
703 2568 3056
707 2570 3130
817 2803 749
814 2802 805
811 2801 877
794 2779 952
773 2747 1047
747 2724 1194
727 2721 1407
715 2728 1672
714 2738 1944
719 2748 2204
722 2752 2421
725 2755 2605
728 2759 2763
735 2766 2887
742 2771 2998
747 2776 3091
752 2779 3166
871 2984 807
868 2983 864
864 2981 934
847 2960 1011
826 2927 1104
799 2894 1239
777 2890 1445
761 2893 1706
756 2901 1978
760 2911 2236
763 2917 2454
765 2919 2637
768 2923 2797
771 2927 2920
776 2931 3030
782 2936 3122
786 2940 3198
915 3135 853
913 3135 911
909 3134 982
893 3116 1059
872 3086 1157
844 3043 1281
820 3035 1478
803 3039 1735
793 3042 2005
796 3052 2262
799 3059 2480
802 3062 2665
805 3066 2827
807 3070 2954
808 3071 3064
813 3075 3155
817 3078 3230
953 3259 893
950 3259 951
947 3258 1022
933 3243 1101
913 3217 1204
885 3171 1321
857 3150 1503
839 3156 1756
825 3157 2026
824 3165 2284
828 3173 2501
831 3176 2688
833 3180 2851
836 3184 2981
838 3187 3093
839 3187 3182
842 3190 3255
984 3360 925
982 3361 985
978 3360 1056
965 3346 1135
947 3324 1241
919 3279 1359
887 3244 1526
868 3250 1773
853 3252 2043
848 3256 2303
852 3265 2518
854 3269 2707
857 3273 2871
859 3277 3002
861 3280 3117
862 3281 3206
863 3282 3276
187 15 12
189 16 58
192 18 134
197 22 237
206 31 388
219 45 580
234 61 800
251 73 1054
264 80 1315
286 100 1576
319 125 1815
349 148 2023
373 167 2200
390 182 2338
405 195 2456
417 205 2551
429 214 2628
196 76 17
197 77 67
200 78 146
205 81 253
214 91 405
228 105 596
243 121 816
257 134 1072
270 144 1338
296 165 1601
329 189 1839
359 211 2048
383 229 2226
399 242 2363
413 255 2481
425 265 2574
