滤镜资源/Professional Luts Collection/Triune-Digital-Cinematic-LUTs/3D LUTs (3DL)/REDLOGFILM/Saving Private Ryan - REDlogFilm.3dl
# Created by Benjamin (IWLTBAP) : http://luts.iwltbap.com
# Copyright: (C) Copyright 2016 Triune Films and IWLTBAP
# Blockbuster LUTs Pack
0 256 512 768 1023
5 16 15
18 20 365
63 74 1325
177 173 2224
231 221 2649
85 503 109
79 472 494
124 525 1433
213 590 2334
266 632 2756
365 1627 378
331 1606 735
352 1654 1699
403 1704 2559
437 1738 2971
694 2774 729
636 2698 1016
603 2715 1934
618 2734 2747
643 2758 3150
868 3345 910
813 3274 1198
735 3222 2034
747 3248 2859
753 3256 3261
307 26 20
331 40 402
393 89 1325
491 171 2197
545 218 2629
380 495 94
399 509 523
436 563 1474
552 639 2371
606 681 2786
680 1678 404
691 1714 803
640 1715 1741
693 1765 2593
729 1803 3005
1034 2845 772
1007 2844 1129
908 2789 1971
918 2814 2802
935 2820 3205
1188 3390 943
1168 3397 1307
1060 3311 2063
1045 3326 2902
1050 3331 3312
1420 186 174
1420 184 530
1370 187 1406
1462 265 2292
1475 295 2696
1604 662 267
1627 676 664
1512 664 1523
1514 731 2407
1483 745 2821
1831 1810 517
1878 1854 915
1811 1942 1901
1784 2002 2740
1785 2026 3154
2189 2978 881
2195 3014 1266
2164 3066 2174
1973 3045 2973
1954 3056 3381
2348 3506 1036
2331 3533 1430
2300 3565 2295
2032 3527 3059
2041 3540 3480
2532 388 379
2539 384 684
2449 370 1522
2417 371 2345
2449 402 2780
2696 812 452
2764 827 817
2678 822 1657
2584 811 2476
2542 852 2905
2965 1939 682
2992 2013 1096
3016 2120 2047
2858 2104 2799
2760 2111 3225
3167 3009 939
3167 3071 1333
3174 3167 2273
3197 3289 3156
3187 3314 3549
3281 3545 1089
3301 3592 1490
3322 3676 2395
3326 3773 3246
3302 3788 3641
3047 479 471
3062 476 757
3052 478 1558
2944 460 2391
2903 456 2783
3176 882 536
3235 880 876
3271 861 1669
3142 876 2526
3065 867 2927
3466 1993 747
3492 2074 1165
3591 2139 2068
3420 2159 2857
3290 2144 3257
3762 3034 981
3723 3115 1406
3710 3254 2361
3716 3353 3217
3688 3363 3584
3740 3562 1120
3748 3608 1513
3781 3707 2424
3806 3811 3290
3810 3852 3687
