滤镜资源/Professional Luts Collection/Triune-Digital-Cinematic-LUTs/3D LUTs (3DL)/REDLOGFILM/Star Wars The Force Awakens - REDlogFilm.3dl
# Created by Benjamin (IWLTBAP) : http://luts.iwltbap.com
# Copyright: (C) Copyright 2016 Triune Films and IWLTBAP
# Blockbuster LUTs Pack
0 256 512 768 1023
46 12 9
110 108 377
268 500 1356
582 687 2418
707 876 2899
101 452 82
136 510 425
223 864 1345
508 1135 2297
703 1340 2869
130 1528 280
159 1555 630
355 1761 1578
643 2149 2497
868 2360 3008
477 2676 682
490 2684 977
743 2910 1946
1024 3115 2839
1245 3257 3274
737 3246 909
760 3264 1191
987 3440 2100
1299 3622 3055
1434 3743 3481
464 112 56
508 124 388
585 366 1395
869 533 2494
1056 728 3050
467 469 68
449 537 488
541 846 1422
811 1032 2476
964 1288 2891
475 1607 181
488 1651 588
623 1823 1609
919 2205 2549
1187 2411 3035
846 2747 635
818 2726 980
999 2908 1892
1342 3150 2842
1551 3302 3299
1069 3277 985
1078 3293 1266
1274 3455 2092
1607 3670 3084
1733 3786 3510
1676 316 208
1759 344 484
1612 415 1279
1841 647 2376
2223 987 2959
1503 666 227
1727 613 477
1709 831 1332
1947 1074 2498
2228 1369 3047
1897 1688 273
1994 1784 561
1841 1964 1791
2088 2297 2785
2276 2501 3266
2197 2874 338
2261 2995 629
2151 3058 2040
2224 3345 3021
2354 3488 3453
2440 3544 789
2419 3501 1214
2347 3634 2255
2364 3863 3237
2491 3922 3620
2838 673 417
2882 679 648
2923 911 1506
3120 1250 2543
3293 1368 3044
2879 1081 435
2939 1047 672
3050 1356 1677
3135 1587 2599
3313 1694 3094
3078 2049 468
3094 2197 1011
3160 2343 2073
3310 2507 2865
3422 2627 3305
3273 3116 824
3248 3087 1178
3357 3289 2119
3453 3553 3165
3558 3685 3647
3292 3615 1015
3298 3606 1317
3425 3813 2283
3543 3996 3311
3606 4077 3759
3316 878 487
3307 912 760
3347 1129 1696
3537 1402 2698
3727 1555 3223
3368 1275 515
3358 1282 804
3423 1518 1805
3552 1734 2742
3755 1890 3279
3478 2282 870
3478 2326 1262
3633 2472 2160
3736 2659 2953
3859 2809 3452
3642 3151 990
3631 3148 1309
3786 3382 2294
3918 3668 3286
3997 3749 3681
3745 3685 1137
3740 3689 1466
3865 3847 2418
3985 4059 3347
4065 4095 3950
