滤镜资源/Professional Luts Collection/Triune-Digital-Cinematic-LUTs/3D LUTs (3DL)/REDLOGFILM/Star Wars The Force Awakens - REDlogFilm.3dl
# Created by Benjamin (IWLTBAP) : http://luts.iwltbap.com
# Copyright: (C) Copyright 2016 Triune Films and IWLTBAP
# Blockbuster LUTs Pack
0 64 128 192 256 320 384 448 512 576 640 704 768 832 896 960 1023
46 12 9
48 13 61
61 25 132
79 56 231
110 108 377
159 177 574
198 256 821
209 372 1095
268 500 1356
362 567 1642
449 604 1932
523 636 2199
582 687 2418
624 735 2585
660 785 2723
686 832 2823
707 876 2899
46 77 15
51 82 65
60 97 134
80 130 231
112 188 376
160 265 576
197 351 824
205 464 1088
260 576 1348
350 649 1626
433 690 1907
509 713 2177
567 757 2397
611 802 2566
647 849 2704
673 896 2803
695 938 2881
62 176 30
62 182 82
69 191 146
82 216 237
115 264 379
162 338 577
199 431 821
200 553 1084
241 664 1338
325 742 1603
410 786 1874
491 806 2149
551 843 2375
596 885 2545
633 931 2684
662 980 2785
685 1024 2866
78 294 51
79 298 100
87 310 168
96 325 260
117 362 391
163 433 583
197 531 816
187 639 1077
223 749 1336
292 846 1588
383 903 1845
460 937 2101
526 968 2334
576 1005 2510
618 1050 2655
654 1105 2768
683 1152 2859
101 452 82
104 453 128
110 463 196
122 484 299
136 510 425
165 568 601
189 655 821
178 752 1079
223 864 1345
286 964 1592
363 1034 1830
436 1089 2066
508 1135 2297
568 1178 2485
621 1229 2645
664 1287 2770
703 1340 2869
134 667 130
137 666 175
137 672 235
146 688 333
161 721 484
170 763 647
171 831 854
173 913 1109
228 1012 1366
287 1108 1609
367 1188 1847
453 1265 2086
528 1337 2312
588 1398 2494
642 1454 2654
685 1510 2780
722 1562 2879
128 929 168
129 930 214
129 936 275
132 948 367
143 978 527
147 1019 728
154 1057 926
186 1116 1165
242 1203 1410
313 1301 1657
406 1397 1901
490 1495 2135
562 1574 2352
617 1640 2524
664 1699 2675
703 1751 2795
739 1798 2891
98 1222 199
99 1226 252
101 1231 320
105 1239 409
118 1264 565
147 1299 803
179 1334 1026
212 1372 1244
271 1446 1480
370 1555 1730
458 1674 1975
537 1777 2208
601 1863 2416
650 1930 2582
696 1988 2728
739 2038 2846
782 2081 2938
130 1528 280
135 1529 331
139 1533 398
149 1541 490
159 1555 630
187 1584 856
235 1638 1116
289 1693 1352
355 1761 1578
431 1867 1817
510 1979 2060
581 2071 2291
643 2149 2497
703 2212 2664
761 2268 2807
818 2318 2920
868 2360 3008
245 1870 391
245 1867 438
245 1866 502
246 1859 591
251 1863 727
272 1898 929
319 1952 1180
401 2069 1460
458 2142 1690
518 2220 1932
576 2296 2163
641 2364 2383
716 2432 2588
787 2492 2751
858 2546 2888
920 2591 2994
972 2628 3078
332 2200 509
333 2198 556
333 2195 618
330 2181 703
327 2159 821
347 2190 994
392 2262 1231
479 2384 1532
556 2476 1798
615 2527 2039
672 2574 2269
735 2627 2484
813 2690 2681
890 2745 2834
962 2792 2961
1020 2831 3062
1070 2862 3143
398 2469 609
399 2466 655
401 2467 717
403 2468 799
400 2451 909
410 2451 1056
463 2522 1279
549 2612 1572
661 2726 1890
723 2771 2141
779 2811 2373
844 2864 2583
922 2920 2767
996 2964 2908
1061 3004 3030
1115 3040 3128
1164 3071 3209
477 2676 682
480 2676 728
484 2680 788
490 2685 867
490 2684 977
491 2663 1111
550 2720 1323
633 2800 1601
743 2910 1946
826 2991 2241
884 3032 2469
953 3076 2669
1024 3115 2839
1093 3153 2975
1154 3191 3095
1204 3223 3191
1245 3257 3274
582 2858 743
584 2860 789
588 2865 848
589 2862 926
583 2846 1027
595 2849 1163
643 2897 1361
710 2973 1626
805 3068 1988
914 3168 2319
982 3206 2540
1048 3237 2733
1114 3271 2900
1171 3304 3032
1229 3343 3153
1276 3379 3251
1312 3409 3333
639 2995 788
642 2996 835
645 3000 893
650 3004 968
658 3011 1072
671 3019 1209
708 3063 1404
776 3135 1682
870 3216 2029
995 3315 2377
1070 3352 2602
1131 3377 2790
1191 3408 2958
1245 3445 3093
1291 3481 3211
1330 3514 3309
1365 3543 3388
689 3133 842
690 3134 888
695 3139 946
700 3145 1022
708 3151 1120
723 3160 1257
766 3199 1470
839 3265 1744
932 3339 2064
1058 3429 2417
1139 3467 2653
1197 3492 2841
1254 3525 3009
1299 3560 3146
1340 3595 3262
1372 3625 3359
1401 3652 3439
737 3246 909
739 3247 954
744 3252 1014
750 3257 1091
760 3264 1191
774 3272 1317
818 3308 1527
895 3372 1798
987 3440 2100
1109 3521 2450
1196 3563 2697
1252 3590 2886
1299 3622 3055
1341 3655 3189
1380 3689 3308
1409 3720 3405
1434 3743 3481
110 19 17
108 20 72
112 23 138
129 44 237
163 85 387
206 142 585
240 211 823
257 308 1105
324 425 1375
416 508 1667
504 562 1964
576 609 2228
634 664 2447
678 713 2613
712 767 2748
736 819 2842
756 868 2915
101 83 25
100 81 75
109 82 140
129 108 240
163 161 388
209 230 588
245 313 829
255 432 1099
315 552 1361
405 617 1650
489 654 1940
561 687 2206
618 737 2424
660 788 2589
694 841 2723
719 890 2819
739 935 2890
108 181 33
110 181 83
115 189 149
130 214 243
165 265 388
211 334 590
245 424 834
250 540 1095
300 654 1350
388 725 1626
468 763 1907
544 784 2179
601 827 2400
645 872 2568
680 921 2705
706 971 2801
728 1017 2875
121 300 53
127 303 103
134 313 170
144 328 264
168 366 400
212 436 597
244 531 833
242 647 1092
277 754 1345
353 841 1601
438 889 1868
518 910 2141
579 946 2367
626 986 2539
663 1034 2679
697 1092 2783
725 1141 2866
149 455 82
153 457 131
159 463 194
169 486 300
185 514 433
215 572 614
238 660 837
225 757 1090
259 867 1349
333 965 1597
412 1031 1842
486 1076 2088
556 1111 2323
610 1154 2505
657 1204 2658
702 1268 2778
741 1325 2875
183 670 129
185 670 176
187 673 233
192 688 327
209 724 484
218 768 653
219 835 862
212 918 1113
260 1016 1370
330 1111 1613
410 1187 1851
491 1259 2091
564 1325 2319
626 1382 2504
679 1439 2664
723 1500 2788
762 1553 2885
177 933 164
180 934 214
180 939 275
183 948 361
191 980 514
200 1023 727
197 1063 927
215 1122 1167
274 1207 1413
356 1305 1662
448 1399 1907
531 1494 2144
602 1571 2361
658 1636 2536
705 1694 2687
745 1750 2805
781 1798 2898
150 1224 191
153 1226 248
154 1232 317
159 1240 405
170 1263 549
186 1301 791
208 1340 1025
244 1379 1244
317 1454 1484
412 1563 1734
500 1681 1981
580 1784 2216
643 1869 2425
693 1935 2592
740 1994 2737
785 2047 2853
830 2091 2945
186 1529 273
190 1534 326
195 1536 394
202 1543 484
213 1557 615
229 1591 840
275 1641 1110
336 1701 1352
398 1772 1580
475 1875 1821
553 1986 2066
623 2081 2297
686 2158 2504
748 2220 2671
810 2278 2814
868 2329 2926
918 2368 3012
294 1874 385
293 1870 435
295 1872 499
296 1867 585
301 1869 718
318 1901 917
361 1955 1169
442 2074 1458
501 2149 1691
561 2225 1936
620 2303 2168
686 2372 2389
763 2441 2595
837 2501 2758
910 2555 2894
971 2599 2999
1024 2636 3082
378 2205 504
376 2201 553
378 2199 614
376 2190 697
370 2167 815
387 2192 986
433 2269 1219
516 2382 1523
601 2481 1799
659 2531 2041
717 2579 2272
783 2635 2490
862 2698 2686
941 2753 2838
1014 2799 2965
1071 2838 3065
1120 2868 3147
443 2472 603
443 2469 652
444 2468 713
447 2470 795
446 2462 907
451 2452 1050
504 2523 1270
590 2610 1558
703 2725 1884
770 2777 2141
827 2818 2374
893 2871 2584
974 2926 2770
1047 2970 2910
1112 3011 3032
1167 3046 3130
1216 3077 3212
524 2679 680
525 2678 727
529 2681 787
535 2688 866
538 2691 975
536 2666 1108
592 2717 1315
676 2798 1588
785 2907 1936
874 2997 2241
934 3040 2468
1004 3081 2667
1075 3120 2837
1145 3158 2975
1206 3196 3095
1256 3230 3192
1295 3263 3276
631 2860 741
632 2862 787
635 2865 846
637 2867 925
631 2851 1027
641 2851 1161
686 2895 1355
753 2972 1617
847 3066 1977
963 3173 2318
1034 3212 2540
1100 3242 2732
1165 3275 2899
1221 3309 3032
1280 3349 3155
1326 3385 3254
1362 3416 3337
686 2996 787
688 2997 832
690 3002 891
694 3007 967
703 3013 1071
716 3022 1208
752 3062 1403
821 3135 1679
913 3215 2017
1042 3317 2372
1122 3356 2603
1183 3382 2790
1242 3413 2957
1294 3449 3093
1340 3486 3214
1380 3520 3314
1414 3549 3392
735 3135 848
737 3135 893
741 3140 953
747 3147 1030
756 3153 1130
770 3162 1264
811 3198 1471
885 3265 1743
978 3340 2057
1106 3430 2412
1192 3472 2654
1250 3498 2841
1304 3530 3011
1348 3564 3147
1387 3599 3265
1421 3632 3364
1448 3659 3444
785 3248 917
786 3248 962
791 3252 1020
799 3259 1099
808 3265 1199
822 3274 1327
863 3306 1527
942 3371 1797
1034 3441 2093
1155 3520 2442
1249 3569 2699
1305 3597 2888
1350 3627 3057
1391 3660 3193
1428 3694 3311
1457 3725 3408
1485 3750 3486
195 42 24
196 42 77
199 50 147
200 53 247
226 91 396
272 151 601
307 213 838
324 276 1117
390 345 1399
478 405 1700
561 465 1993
633 528 2254
693 597 2474
739 661 2643
778 733 2778
804 798 2870
824 857 2939
190 102 31
180 97 82
194 101 149
199 104 251
226 146 405
268 206 606
296 260 837
314 349 1114
382 455 1388
471 535 1683
556 592 1979
629 646 2244
684 708 2461
726 763 2623
759 823 2750
784 877 2843
804 925 2909
182 186 43
180 183 92
183 184 159
193 194 264
228 237 415
270 300 613
298 385 847
311 506 1108
371 622 1371
459 685 1663
541 721 1954
612 753 2219
666 805 2436
706 857 2598
737 916 2722
762 966 2813
783 1013 2882
185 312 57
189 315 108
195 322 175
202 332 275
231 369 417
272 434 616
299 529 854
305 647 1108
352 753 1360
431 824 1631
511 860 1911
585 883 2182
643 923 2405
687 968 2572
721 1023 2701
750 1079 2797
778 1130 2872
207 461 80
212 463 132
217 477 200
227 493 302
243 521 447
274 579 635
295 669 858
289 768 1106
326 874 1359
398 964 1611
477 1017 1870
551 1051 2128
615 1086 2358
665 1129 2534
708 1183 2677
750 1250 2788
791 1311 2879
238 679 129
241 678 177
242 684 236
248 691 324
262 729 485
277 774 668
278 840 880
277 925 1125
324 1024 1377
390 1114 1620
464 1185 1861
540 1248 2105
612 1304 2335
672 1358 2521
726 1418 2679
776 1487 2800
818 1544 2895
236 942 155
239 943 209
241 947 277
243 953 359
248 982 504
258 1030 725
259 1070 933
279 1130 1171
335 1215 1419
412 1310 1668
500 1400 1917
583 1494 2157
653 1569 2376
709 1632 2550
757 1691 2702
802 1751 2817
841 1801 2907
217 1232 175
217 1234 232
220 1237 309
225 1245 404
234 1264 536
251 1306 770
272 1348 1025
305 1390 1247
375 1466 1490
467 1571 1742
554 1688 1992
634 1792 2227
696 1876 2437
747 1942 2605
796 2002 2750
844 2057 2863
893 2101 2953
254 1535 263
259 1542 317
264 1547 389
269 1551 482
280 1563 607
296 1597 821
334 1649 1099
393 1716 1353
453 1785 1583
530 1887 1830
607 1997 2074
677 2093 2305
742 2170 2514
807 2233 2680
871 2292 2822
931 2341 2932
982 2381 3019
356 1882 377
355 1878 428
356 1883 495
360 1887 583
361 1881 708
374 1906 902
413 1965 1154
492 2080 1455
555 2159 1695
615 2233 1941
677 2314 2177
743 2383 2397
824 2452 2604
899 2512 2766
973 2566 2900
1036 2610 3004
1089 2645 3086
440 2215 497
437 2210 548
435 2205 612
435 2205 694
429 2187 811
439 2197 978
484 2275 1209
564 2381 1512
655 2488 1802
714 2537 2045
774 2586 2277
844 2647 2499
925 2709 2693
1006 2762 2844
1080 2808 2970
1137 2846 3070
1186 2876 3151
506 2480 596
503 2475 649
502 2473 711
504 2475 792
506 2476 905
503 2458 1045
555 2524 1262
640 2610 1546
757 2726 1879
830 2785 2144
888 2827 2376
956 2879 2586
1040 2935 2772
1113 2978 2913
1179 3019 3035
1232 3053 3133
1280 3086 3215
590 2688 679
589 2686 726
591 2688 788
597 2694 867
603 2699 974
597 2677 1108
646 2715 1307
731 2797 1574
836 2905 1924
936 3007 2244
999 3050 2469
1069 3089 2666
1140 3127 2837
1210 3166 2976
1271 3204 3097
1321 3238 3196
1359 3272 3280
697 2867 741
697 2867 786
699 2871 846
702 2878 925
698 2867 1029
701 2858 1162
740 2895 1349
809 2974 1608
900 3066 1965
1025 3179 2315
1100 3221 2541
1166 3249 2732
1229 3282 2898
1284 3315 3032
1344 3357 3159
1389 3394 3259
1425 3424 3341
751 3003 786
751 3003 832
752 3006 890
754 3013 968
759 3019 1071
774 3028 1213
807 3061 1403
878 3136 1678
970 3217 2005
1101 3319 2366
1188 3363 2604
1249 3390 2791
1307 3421 2959
1357 3456 3096
1401 3492 3217
1442 3530 3320
1474 3558 3399
794 3141 856
796 3141 901
800 3144 960
807 3151 1039
817 3159 1140
830 3167 1273
867 3198 1472
942 3266 1743
1036 3342 2048
1163 3430 2403
1258 3479 2658
1316 3507 2845
1368 3538 3014
1411 3571 3151
1448 3606 3269
1482 3640 3369
1510 3668 3451
846 3252 928
847 3253 974
852 3255 1032
859 3262 1111
870 3270 1213
884 3279 1341
922 3306 1531
1001 3371 1800
1093 3444 2085
1212 3521 2433
1314 3576 2702
1371 3606 2893
1415 3636 3061
1452 3667 3197
1488 3701 3316
1517 3732 3412
1547 3759 3493
309 65 36
317 61 84
326 73 155
329 81 250
327 99 404
356 157 608
393 226 847
413 293 1125
475 353 1407
561 396 1711
641 433 2007
708 477 2271
767 526 2497
813 572 2672
863 634 2823
904 704 2931
939 772 3015
293 128 40
306 128 86
321 135 159
323 140 257
323 159 418
353 214 625
384 276 864
406 336 1133
469 396 1413
554 442 1717
633 482 2018
702 539 2279
761 608 2497
807 677 2663
848 755 2795
884 829 2894
