滤镜资源/Professional Luts Collection/Triune-Digital-Cinematic-LUTs/3D LUTs (3DL)/REDLOGFILM/Star Wars The Force Awakens - REDlogFilm.3dl
# Created by Benjamin (IWLTBAP) : http://luts.iwltbap.com
# Copyright: (C) Copyright 2016 Triune Films and IWLTBAP
# Blockbuster LUTs Pack
0 128 256 384 512 640 768 896 1023
46 12 9
61 25 132
110 108 377
198 256 821
268 500 1356
449 604 1932
582 687 2418
660 785 2723
707 876 2899
62 176 30
69 191 146
115 264 379
199 431 821
241 664 1338
410 786 1874
551 843 2375
633 931 2684
685 1024 2866
101 452 82
110 463 196
136 510 425
189 655 821
223 864 1345
363 1034 1830
508 1135 2297
621 1229 2645
703 1340 2869
128 929 168
129 936 275
143 978 527
154 1057 926
242 1203 1410
406 1397 1901
562 1574 2352
664 1699 2675
739 1798 2891
130 1528 280
139 1533 398
159 1555 630
235 1638 1116
355 1761 1578
510 1979 2060
643 2149 2497
761 2268 2807
868 2360 3008
332 2200 509
333 2195 618
327 2159 821
392 2262 1231
556 2476 1798
672 2574 2269
813 2690 2681
962 2792 2961
1070 2862 3143
477 2676 682
484 2680 788
490 2684 977
550 2720 1323
743 2910 1946
884 3032 2469
1024 3115 2839
1154 3191 3095
1245 3257 3274
639 2995 788
645 3000 893
658 3011 1072
708 3063 1404
870 3216 2029
1070 3352 2602
1191 3408 2958
1291 3481 3211
1365 3543 3388
737 3246 909
744 3252 1014
760 3264 1191
818 3308 1527
987 3440 2100
1196 3563 2697
1299 3622 3055
1380 3689 3308
1434 3743 3481
195 42 24
199 50 147
226 91 396
307 213 838
390 345 1399
561 465 1993
693 597 2474
778 733 2778
824 857 2939
182 186 43
183 184 159
228 237 415
298 385 847
371 622 1371
541 721 1954
666 805 2436
737 916 2722
783 1013 2882
207 461 80
217 477 200
243 521 447
295 669 858
326 874 1359
477 1017 1870
615 1086 2358
708 1183 2677
791 1311 2879
236 942 155
241 947 277
248 982 504
259 1070 933
335 1215 1419
500 1400 1917
653 1569 2376
757 1691 2702
841 1801 2907
254 1535 263
264 1547 389
280 1563 607
334 1649 1099
453 1785 1583
607 1997 2074
742 2170 2514
871 2292 2822
982 2381 3019
440 2215 497
435 2205 612
429 2187 811
484 2275 1209
655 2488 1802
774 2586 2277
925 2709 2693
1080 2808 2970
1186 2876 3151
590 2688 679
591 2688 788
603 2699 974
646 2715 1307
836 2905 1924
999 3050 2469
1140 3127 2837
1271 3204 3097
1359 3272 3280
751 3003 786
752 3006 890
759 3019 1071
807 3061 1403
970 3217 2005
1188 3363 2604
1307 3421 2959
1401 3492 3217
1474 3558 3399
846 3252 928
852 3255 1032
870 3270 1213
922 3306 1531
1093 3444 2085
1314 3576 2702
1415 3636 3061
1488 3701 3316
1547 3759 3493
464 112 56
488 96 166
508 124 388
515 229 846
585 366 1395
743 442 1994
869 533 2494
963 621 2829
1056 728 3050
447 236 64
470 239 171
503 271 413
492 354 893
587 468 1443
739 542 2046
858 644 2529
961 797 2831
1035 939 2999
467 469 68
460 488 200
449 537 488
461 649 941
541 846 1422
699 933 2015
811 1032 2476
882 1168 2720
964 1288 2891
416 987 111
406 995 243
408 1014 484
426 1093 985
505 1243 1447
654 1398 1955
804 1538 2430
931 1685 2745
1040 1808 2939
475 1607 181
486 1635 312
488 1651 588
504 1682 1074
623 1823 1609
775 2032 2111
919 2205 2549
1068 2330 2847
1187 2411 3035
651 2298 376
638 2255 577
625 2252 805
643 2301 1188
826 2512 1809
955 2616 2303
1125 2741 2715
1281 2836 2986
1388 2901 3166
846 2747 635
828 2726 771
818 2726 980
825 2732 1294
999 2908 1892
1202 3083 2481
1342 3150 2842
1468 3231 3109
1551 3302 3299
970 3041 833
971 3042 939
975 3052 1117
983 3078 1423
1149 3230 1990
1391 3391 2619
1505 3450 2972
1588 3519 3232
1660 3591 3423
1069 3277 985
1075 3284 1095
1078 3293 1266
1107 3322 1559
1274 3455 2092
1507 3602 2713
1607 3670 3084
1673 3731 3335
1733 3786 3510
960 183 98
972 177 211
1020 192 403
986 237 806
970 384 1372
1049 456 1951
1196 529 2405
1317 631 2734
1436 760 2961
915 330 137
974 310 217
1033 300 391
1003 354 822
942 495 1432
1072 560 2008
1208 649 2478
1343 789 2807
1464 930 3017
961 542 123
932 542 256
1010 552 417
1042 657 881
950 675 1551
1103 749 2149
1259 921 2606
1390 1092 2890
1483 1229 3070
1004 982 126
1003 991 232
1017 999 412
882 1119 1012
897 1218 1612
1005 1340 2136
1139 1521 2524
1301 1690 2800
1442 1812 2999
1080 1605 177
1054 1661 294
1005 1786 501
881 1805 1077
922 1885 1708
1082 2088 2215
1266 2263 2615
1434 2369 2887
1552 2441 3065
1250 2240 275
1206 2304 390
1135 2390 652
1097 2415 1242
1118 2556 1818
1300 2694 2363
1479 2794 2744
1622 2883 3008
1719 2954 3194
1375 2922 385
1342 2941 529
1294 2864 933
1224 2837 1418
1300 2955 1894
1547 3142 2527
1679 3203 2881
1784 3288 3156
1859 3360 3349
1504 3305 660
1471 3205 932
1415 3145 1240
1421 3207 1590
1453 3264 2025
1706 3437 2644
1828 3522 3030
1898 3584 3285
1969 3653 3471
1571 3395 968
1567 3387 1115
1538 3372 1375
1534 3398 1685
1575 3477 2129
1803 3646 2723
1927 3751 3145
1992 3802 3384
2050 3845 3552
1676 316 208
1688 315 306
1759 344 484
1787 369 787
1612 415 1279
1589 503 1886
1841 647 2376
2079 844 2718
2223 987 2959
1671 424 211
1687 416 307
1769 440 489
1855 489 793
1629 542 1291
1627 642 1937
1849 782 2403
2080 989 2745
2223 1131 2991
1503 666 227
1515 655 325
1727 613 477
1888 688 821
1709 831 1332
1743 903 2028
1947 1074 2498
2106 1253 2816
2228 1369 3047
1647 1098 221
1684 1105 340
1749 1134 586
1851 1250 1020
1883 1387 1567
1914 1413 2237
2076 1587 2682
2173 1694 2993
2260 1770 3229
1897 1688 273
1940 1722 383
1994 1784 561
2037 1918 941
1841 1964 1791
1951 2145 2382
2088 2297 2785
2198 2414 3068
2276 2501 3266
2030 2305 297
2075 2358 406
2140 2461 579
2129 2672 1057
1920 2588 1933
2009 2802 2507
2141 2908 2872
2224 3008 3137
2289 3082 3325
2197 2874 338
2207 2907 443
2261 2995 629
2183 3038 1281
2151 3058 2040
2115 3245 2628
2224 3345 3021
2299 3421 3276
2354 3488 3453
2363 3367 546
2365 3367 691
2338 3352 970
2279 3307 1502
2234 3384 2159
2225 3549 2707
2291 3658 3150
2359 3704 3384
2427 3755 3555
2440 3544 789
2437 3531 942
2419 3501 1214
2367 3537 1635
2347 3634 2255
2302 3768 2780
2364 3863 3237
2428 3895 3466
2491 3922 3620
2403 543 356
2436 552 451
2509 572 602
2614 605 844
2410 686 1353
2486 871 1864
2644 1011 2384
2809 1152 2722
2895 1222 2951
2403 654 358
2418 651 448
2495 671 607
2621 728 870
2467 833 1383
2498 1004 1893
2635 1138 2403
2807 1279 2737
2897 1344 2963
2309 885 371
2402 881 458
2467 858 611
2581 971 957
2569 1100 1473
2531 1241 1977
2647 1368 2456
2819 1495 2772
2911 1546 3002
2359 1301 416
2373 1306 511
2400 1369 762
2548 1428 1181
2669 1545 1679
2637 1677 2172
2778 1791 2593
2877 1846 2878
2952 1879 3108
2549 1831 392
2622 1876 497
2726 1960 681
2662 2129 1374
2682 2242 1952
2836 2362 2429
2913 2360 2790
2988 2414 3095
3044 2462 3328
2755 2526 391
2768 2550 491
2819 2645 693
2845 2690 1266
2876 2805 1958
2919 2911 2576
3004 3030 2981
3033 3106 3245
3060 3170 3433
2864 3119 448
2855 3117 582
2851 3116 839
2891 3134 1390
2937 3223 2061
2973 3314 2663
2987 3495 3160
3017 3566 3408
3044 3635 3589
2919 3410 687
2911 3392 826
2898 3358 1068
2949 3394 1493
2985 3531 2139
3049 3651 2760
2997 3796 3268
3028 3843 3517
3081 3877 3665
2939 3560 864
2937 3547 991
2943 3534 1195
2983 3571 1571
3025 3713 2207
3103 3856 2818
3044 3966 3306
3073 4007 3582
3127 4027 3712
2838 673 417
2850 668 502
2882 679 648
2931 737 921
2923 911 1506
2957 1086 2075
3120 1250 2543
3225 1333 2833
3293 1368 3044
2855 814 424
2874 803 510
2911 809 659
2962 892 955
2968 1069 1563
2962 1208 2102
3122 1376 2561
3225 1456 2844
3300 1491 3059
2879 1081 435
2901 1070 523
2939 1047 672
3003 1175 1036
3050 1356 1677
2989 1429 2153
3135 1587 2599
3232 1659 2875
3313 1694 3094
2933 1500 506
2926 1517 598
2890 1588 907
3008 1633 1273
3109 1783 1847
3092 1835 2281
3190 1943 2690
3273 1991 2958
3348 2030 3175
3078 2049 468
3110 2083 582
3094 2197 1011
3048 2299 1598
3160 2343 2073
3272 2415 2499
3310 2507 2865
3374 2574 3128
3422 2627 3305
3239 2693 541
3222 2683 685
3200 2667 957
3220 2700 1440
3268 2904 2168
3321 3056 2683
3417 3159 3058
3460 3183 3316
3511 3217 3486
3273 3116 824
3263 3102 957
3248 3087 1178
3272 3119 1522
3357 3289 2119
3397 3450 2713
3453 3553 3165
3499 3631 3469
3558 3685 3647
3272 3426 954
3267 3417 1073
3267 3411 1265
3289 3439 1608
3379 3621 2220
3456 3747 2779
3496 3808 3244
3524 3898 3582
3572 3933 3726
3292 3615 1015
3293 3608 1127
3298 3606 1317
3330 3644 1673
3425 3813 2283
3494 3912 2865
3543 3996 3311
3559 4049 3608
3606 4077 3759
3109 777 456
3117 767 539
3125 785 693
3145 882 1027
3174 1046 1624
3261 1213 2217
3386 1354 2653
3493 1430 2939
3572 1487 3157
3105 912 461
3117 901 547
3127 911 706
3154 1013 1050
3195 1183 1658
3271 1336 2229
3387 1476 2665
3497 1554 2956
3578 1617 3173
3187 1182 477
3191 1177 566
3195 1184 735
3214 1293 1153
3280 1460 1757
3309 1561 2256
3398 1682 2698
3508 1762 2993
3599 1830 3212
3218 1688 606
3193 1710 727
3204 1761 1032
3306 1763 1368
3391 1904 1930
3443 1971 2377
3451 2031 2771
3555 2115 3076
3639 2174 3290
3393 2245 651
3365 2245 827
3288 2296 1273
3304 2382 1691
3438 2428 2135
3582 2513 2583
3563 2598 2908
3648 2692 3220
3708 2746 3404
3470 2724 754
3453 2709 897
3429 2697 1136
3470 2776 1567
3502 3026 2323
3619 3139 2777
3701 3239 3132
3749 3283 3379
3795 3292 3563
3511 3130 949
3506 3125 1071
3496 3127 1275
3514 3163 1604
3637 3344 2233
3695 3518 2843
3740 3628 3235
3798 3680 3481
3846 3725 3660
3564 3457 1044
3559 3451 1162
3558 3449 1361
3572 3473 1690
3682 3620 2291
3736 3773 2819
3802 3862 3275
3835 3925 3558
3875 3965 3714
3590 3683 1104
3586 3680 1225
3586 3682 1429
3602 3715 1793
3699 3843 2371
3783 3964 2900
3838 4037 3332
3882 4085 3616
3912 4095 3834
3316 878 487
3316 883 581
3307 912 760
3308 998 1130
3347 1129 1696
3435 1291 2296
3537 1402 2698
3653 1491 3017
3727 1555 3223
3310 1004 493
3311 1009 587
3305 1027 769
3308 1116 1148
3356 1254 1719
3446 1414 2299
3538 1527 2710
3654 1619 3034
3733 1686 3239
3368 1275 515
3364 1272 612
3358 1282 804
3343 1362 1240
3423 1518 1805
3482 1636 2315
3552 1734 2742
3663 1832 3063
3755 1890 3279
3383 1815 750
3377 1834 902
3417 1854 1148
3465 1828 1432
3547 1955 1969
3641 2053 2439
3609 2089 2809
3705 2185 3134
3790 2243 3350
3478 2282 870
3470 2290 1006
3478 2326 1262
3551 2403 1661
3633 2472 2160
3754 2593 2640
3736 2659 2953
3798 2757 3252
3859 2809 3452
3585 2726 836
3573 2716 967
3561 2718 1183
3594 2781 1553
3733 3025 2246
3806 3182 2829
3895 3276 3181
3902 3321 3398
3955 3340 3592
3642 3151 990
3638 3146 1106
3631 3148 1309
3653 3193 1647
3786 3382 2294
3859 3555 2876
3918 3668 3286
3963 3720 3522
3997 3749 3681
3705 3473 1067
3702 3467 1185
3701 3466 1385
3717 3503 1747
3831 3653 2362
3890 3801 2889
3966 3887 3330
4006 3950 3585
4033 3982 3731
3745 3685 1137
3742 3684 1259
3740 3689 1466
3758 3726 1852
3865 3847 2418
3933 3966 2927
3985 4059 3347
4037 4095 3655
4065 4095 3950
