滤镜资源/Professional Luts Collection/Triune-Digital-Cinematic-LUTs/3D LUTs (3DL)/REDLOGFILM/The Revenant - REDlogFilm.3dl
# Created by Benjamin (IWLTBAP) : http://luts.iwltbap.com
# Copyright: (C) Copyright 2016 Triune Films and IWLTBAP
# Blockbuster LUTs Pack
0 64 128 192 256 320 384 448 512 576 640 704 768 832 896 960 1023
0 0 0
0 4 12
1 10 29
1 19 57
2 32 106
5 72 214
11 154 370
22 272 553
40 405 762
62 521 957
89 632 1153
110 705 1303
137 783 1442
154 831 1543
165 862 1613
178 897 1694
197 950 1801
7 44 19
7 51 53
5 56 77
7 75 130
7 97 196
11 151 327
18 231 474
32 349 663
52 468 854
76 581 1057
103 682 1246
124 749 1385
151 823 1524
164 860 1607
180 903 1702
190 931 1759
202 962 1823
13 106 46
13 115 93
11 123 138
10 138 191
13 171 285
18 234 423
26 304 563
42 417 757
63 523 933
89 633 1144
118 730 1333
140 793 1474
164 860 1605
180 903 1696
191 934 1760
208 981 1857
215 1000 1904
24 228 109
25 242 181
22 248 229
22 268 298
24 292 378
30 337 513
41 408 665
56 491 834
79 594 1041
107 695 1241
136 782 1426
159 846 1566
184 915 1710
199 956 1807
211 987 1874
218 1007 1912
229 1036 1985
44 421 273
47 439 321
47 444 368
48 452 432
55 484 519
59 504 637
69 550 770
85 616 965
111 707 1196
139 789 1384
160 848 1524
182 910 1672
207 976 1821
218 1006 1899
229 1037 1977
237 1060 2018
241 1076 2051
97 677 454
97 676 476
98 676 512
101 682 568
107 697 645
118 725 784
130 764 955
150 820 1169
170 877 1374
187 923 1550
207 976 1715
229 1038 1889
243 1085 1997
251 1110 2063
260 1147 2138
265 1163 2176
266 1168 2190
196 979 664
198 984 689
200 986 725
205 996 782
212 1007 878
214 1004 993
227 1038 1190
239 1080 1406
256 1137 1631
270 1183 1825
280 1223 1985
290 1261 2123
298 1295 2238
304 1316 2311
313 1343 2375
318 1361 2428
322 1374 2476
317 1357 922
319 1362 948
321 1370 987
325 1384 1055
332 1404 1156
333 1406 1280
341 1430 1470
353 1470 1698
371 1525 1926
390 1579 2148
404 1623 2328
416 1659 2481
421 1673 2591
422 1674 2655
428 1694 2740
429 1696 2787
428 1692 2809
454 1779 1214
454 1779 1237
459 1795 1281
466 1814 1347
468 1820 1431
476 1839 1571
483 1859 1764
493 1883 1985
509 1931 2220
528 1986 2450
546 2038 2658
560 2081 2820
563 2090 2934
567 2102 3021
574 2122 3111
574 2120 3165
573 2119 3210
596 2199 1513
596 2201 1539
596 2198 1571
600 2211 1627
609 2234 1719
616 2253 1857
628 2286 2046
636 2307 2267
645 2330 2498
664 2384 2731
682 2439 2943
695 2478 3119
702 2498 3248
711 2524 3358
717 2541 3428
719 2547 3495
720 2550 3535
713 2544 1772
716 2553 1792
716 2553 1826
722 2570 1889
728 2587 1975
738 2615 2115
752 2651 2301
760 2673 2520
767 2691 2742
778 2721 2974
798 2780 3189
816 2831 3373
826 2861 3500
836 2890 3572
841 2906 3579
844 2913 3585
849 2928 3584
812 2835 1998
812 2837 2012
817 2851 2046
820 2858 2105
824 2870 2182
838 2908 2322
850 2942 2503
864 2979 2732
872 3000 2950
880 3020 3175
897 3068 3390
912 3113 3532
922 3144 3566
934 3177 3570
936 3183 3570
939 3191 3569
940 3197 3569
892 3072 2181
892 3073 2201
894 3079 2228
902 3100 2283
911 3125 2382
920 3150 2509
935 3193 2700
943 3213 2897
956 3247 3128
962 3263 3346
967 3274 3515
971 3287 3564
977 3303 3564
979 3311 3563
980 3314 3563
980 3314 3563
980 3314 3563
958 3268 2326
957 3265 2345
960 3273 2379
969 3298 2442
974 3313 2524
984 3339 2653
993 3365 2823
1003 3391 3031
996 3365 3253
986 3334 3452
981 3317 3554
980 3315 3562
981 3316 3559
981 3317 3555
981 3317 3555
982 3318 3551
982 3319 3550
1017 3442 2464
1017 3440 2482
1015 3436 2510
1023 3457 2570
1029 3475 2660
1029 3472 2772
1027 3465 2934
1020 3441 3129
1001 3381 3349
985 3328 3521
982 3319 3547
982 3320 3546
983 3321 3541
984 3324 3534
990 3325 3536
1092 3348 3556
1153 3363 3566
1057 3560 2578
1056 3556 2601
1056 3554 2631
1055 3551 2681
1055 3551 2765
1049 3529 2868
1033 3481 3024
1015 3423 3211
995 3359 3420
982 3320 3544
983 3323 3537
1015 3331 3539
1108 3353 3557
1203 3377 3567
1322 3407 3587
1591 3472 3633
1767 3514 3666
1064 3579 2668
1062 3573 2691
1059 3564 2724
1057 3555 2770
1052 3539 2838
1041 3505 2948
1027 3460 3092
1008 3400 3286
989 3341 3476
983 3324 3533
986 3326 3529
1087 3350 3547
1424 3431 3606
1778 3517 3668
2045 3582 3713
2225 3627 3743
2397 3670 3773
15 0 0
22 5 21
22 11 38
21 20 73
17 34 126
9 76 242
12 165 403
23 279 578
40 405 774
64 528 982
88 631 1161
113 715 1328
139 789 1459
159 845 1583
171 879 1656
182 910 1726
201 960 1826
21 31 15
23 54 65
21 57 82
21 68 129
14 91 202
11 138 313
18 229 480
31 343 658
50 457 848
76 583 1066
100 674 1239
125 750 1392
150 820 1524
168 869 1630
184 913 1728
195 944 1790
207 978 1862
26 91 49
30 114 95
29 128 151
27 141 214
18 169 298
17 226 423
26 302 570
42 414 755
61 518 936
88 630 1146
116 722 1326
140 794 1480
164 858 1607
179 902 1697
195 945 1785
210 985 1872
216 1002 1914
29 214 114
29 225 151
30 249 227
22 261 307
24 283 375
30 337 519
40 404 666
56 492 838
79 593 1044
105 687 1233
136 782 1427
160 847 1574
180 905 1694
201 961 1821
213 993 1888
221 1014 1931
232 1045 2009
51 406 246
51 421 288
49 430 351
50 447 429
53 475 519
57 496 624
70 554 784
84 614 968
106 693 1173
135 779 1374
159 844 1526
183 912 1679
204 968 1810
217 1005 1908
231 1041 1986
238 1066 2030
243 1081 2065
98 671 444
100 676 475
100 681 516
101 682 579
108 701 654
117 722 783
131 764 958
149 816 1166
170 875 1376
188 924 1556
208 980 1729
226 1030 1875
240 1074 1986
249 1105 2059
259 1141 2131
266 1168 2186
271 1185 2222
194 974 659
196 979 684
199 983 718
204 993 784
211 1003 880
215 1005 1001
226 1034 1189
239 1079 1406
255 1131 1625
268 1179 1824
280 1223 1991
289 1258 2122
297 1291 2236
304 1316 2315
310 1336 2371
317 1359 2431
323 1376 2482
318 1360 926
319 1362 948
322 1373 990
325 1383 1060
331 1398 1156
334 1408 1289
339 1426 1470
353 1472 1698
370 1524 1925
388 1575 2140
403 1621 2329
416 1657 2478
421 1672 2595
422 1675 2657
426 1688 2736
427 1691 2786
427 1690 2815
453 1777 1222
455 1783 1245
460 1797 1283
464 1808 1343
469 1820 1433
476 1839 1574
483 1858 1766
493 1884 1989
508 1928 2218
528 1987 2450
544 2032 2651
557 2072 2813
563 2089 2936
568 2104 3029
573 2119 3112
575 2123 3171
576 2128 3228
595 2196 1512
597 2201 1535
599 2207 1573
602 2214 1630
608 2232 1721
616 2254 1861
628 2286 2051
635 2305 2273
646 2335 2502
662 2380 2727
680 2434 2943
695 2478 3116
705 2507 3260
710 2521 3357
717 2542 3434
719 2548 3494
719 2549 3529
713 2545 1772
716 2553 1792
719 2562 1830
723 2574 1893
728 2588 1977
739 2617 2120
751 2649 2304
760 2673 2527
769 2697 2750
779 2724 2979
798 2778 3192
816 2833 3373
826 2860 3503
835 2887 3573
842 2907 3579
844 2914 3585
848 2926 3584
806 2819 1984
811 2832 2010
817 2852 2046
821 2862 2104
827 2878 2190
836 2904 2329
850 2943 2509
862 2975 2738
873 3002 2955
880 3022 3184
895 3064 3387
912 3113 3533
924 3148 3567
932 3172 3570
935 3181 3570
937 3188 3569
940 3194 3569
892 3073 2180
892 3071 2202
896 3085 2238
902 3100 2277
911 3126 2384
919 3147 2507
932 3184 2689
944 3215 2900
955 3246 3130
962 3264 3350
967 3275 3519
971 3285 3565
977 3303 3564
980 3313 3563
980 3314 3563
980 3314 3563
980 3314 3563
955 3258 2317
958 3268 2343
960 3272 2378
969 3299 2437
975 3315 2524
984 3339 2656
993 3365 2827
1002 3389 3032
996 3365 3253
986 3333 3454
981 3317 3556
980 3315 3562
981 3316 3559
981 3317 3554
982 3318 3553
982 3318 3550
982 3318 3550
1019 3447 2466
1018 3445 2483
1019 3447 2515
1022 3456 2560
1030 3477 2659
1029 3472 2771
1027 3465 2930
1020 3440 3134
1002 3382 3343
984 3327 3523
982 3319 3547
982 3320 3546
984 3322 3541
985 3324 3534
995 3327 3534
1127 3357 3561
1193 3373 3573
1059 3564 2579
1058 3561 2602
1057 3558 2631
1056 3555 2673
1057 3555 2765
1049 3531 2862
1034 3483 3020
1015 3422 3216
995 3360 3416
982 3320 3543
983 3322 3539
1017 3332 3539
1134 3359 3561
1225 3383 3571
1422 3431 3603
1663 3489 3645
1805 3523 3672
1064 3579 2663
1063 3574 2691
1059 3564 2720
1056 3553 2764
1052 3539 2837
1041 3507 2943
1027 3461 3090
1008 3403 3278
989 3342 3475
983 3324 3533
989 3326 3529
1124 3358 3555
1505 3450 3620
1830 3529 3677
2085 3593 3720
2266 3637 3751
2418 3675 3777
35 1 1
41 5 20
51 12 48
49 20 83
43 35 147
13 78 271
12 169 429
24 289 608
40 406 790
64 532 1004
92 643 1192
114 719 1344
138 786 1472
158 843 1590
176 893 1695
187 922 1754
202 963 1839
49 38 19
46 51 66
56 57 96
54 70 151
36 88 223
15 136 336
18 231 499
31 347 674
50 460 866
76 583 1078
101 677 1255
126 753 1406
150 820 1535
171 878 1655
186 920 1747
198 953 1813
210 986 1889
61 88 42
63 114 116
59 130 160
51 135 222
29 161 309
18 220 427
25 300 578
40 405 746
61 514 945
89 632 1156
114 718 1329
139 790 1478
162 852 1601
178 898 1694
196 948 1797
211 989 1887
219 1010 1940
68 217 124
74 233 173
69 255 240
53 263 318
36 281 387
30 333 523
38 392 660
57 497 851
77 586 1037
104 686 1239
131 767 1405
157 840 1566
179 900 1692
197 949 1801
213 993 1890
224 1022 1954
232 1045 2015
79 402 245
78 414 290
74 422 337
77 441 426
69 465 514
61 488 622
69 549 783
83 610 967
104 684 1158
134 775 1375
158 842 1532
183 911 1684
203 966 1811
218 1008 1922
231 1042 1990
241 1074 2049
246 1094 2092
110 661 440
110 677 480
110 680 521
107 676 576
110 702 661
116 719 781
130 761 955
148 815 1169
168 869 1372
187 922 1561
206 974 1727
223 1020 1859
237 1066 1982
248 1100 2061
258 1136 2128
266 1166 2185
273 1196 2244
192 969 657
194 971 681
197 979 717
202 986 779
209 999 873
214 1003 1000
224 1027 1182
239 1077 1407
254 1127 1620
268 1179 1832
279 1219 1990
289 1257 2125
297 1291 2242
306 1321 2324
308 1329 2366
315 1352 2426
322 1375 2484
319 1362 931
318 1360 953
321 1370 993
323 1377 1054
328 1391 1147
334 1407 1285
338 1422 1467
352 1470 1702
369 1521 1926
388 1574 2143
401 1614 2325
414 1653 2476
420 1669 2591
423 1678 2664
424 1681 2730
424 1682 2777
428 1693 2827
450 1769 1217
454 1780 1245
458 1791 1284
464 1808 1346
468 1817 1439
475 1837 1574
482 1855 1763
492 1881 1983
508 1928 2222
528 1987 2451
542 2028 2643
556 2069 2812
565 2094 2942
568 2104 3029
573 2118 3113
574 2120 3169
575 2125 3229
594 2193 1512
597 2201 1539
599 2208 1572
601 2214 1631
608 2233 1723
617 2257 1866
626 2282 2052
635 2303 2280
647 2336 2507
661 2378 2727
678 2428 2942
694 2475 3111
706 2508 3261
710 2519 3353
717 2540 3439
719 2548 3498
719 2548 3524
711 2538 1770
715 2549 1794
718 2560 1829
723 2572 1891
729 2590 1980
738 2613 2118
749 2645 2302
760 2673 2534
771 2703 2758
779 2725 2980
796 2774 3194
816 2831 3370
825 2859 3500
833 2882 3573
841 2905 3577
845 2917 3584
849 2929 3584
803 2811 1976
809 2828 2013
815 2846 2047
821 2861 2105
829 2883 2201
838 2908 2338
850 2941 2512
860 2968 2733
873 3003 2962
880 3019 3191
894 3061 3387
911 3112 3529
924 3150 3568
933 3175 3570
936 3184 3570
939 3194 3569
943 3204 3569
894 3080 2182
895 3080 2207
896 3083 2240
904 3107 2290
910 3123 2383
921 3153 2514
930 3178 2679
945 3219 2906
955 3245 3134
963 3266 3355
966 3273 3520
970 3285 3565
977 3305 3563
980 3313 3563
980 3314 3563
980 3314 3563
980 3314 3563
956 3262 2318
958 3267 2343
961 3275 2381
968 3295 2438
975 3316 2527
984 3339 2653
995 3369 2834
1002 3389 3026
996 3366 3255
986 3332 3457
981 3317 3556
981 3315 3562
981 3316 3558
981 3318 3553
982 3319 3549
983 3319 3549
982 3319 3550
1017 3441 2460
1019 3448 2486
1020 3449 2516
1024 3462 2569
1030 3478 2659
1029 3471 2776
1029 3469 2936
1019 3437 3137
1002 3382 3344
984 3327 3523
982 3319 3550
983 3320 3546
984 3322 3538
999 3327 3537
1052 3341 3543
1203 3376 3574
1192 3373 3573
1059 3564 2581
1058 3560 2604
1057 3558 2631
1056 3555 2684
1058 3558 2766
1048 3529 2870
1034 3484 3017
1014 3420 3223
995 3360 3416
982 3320 3543
983 3322 3541
1020 3332 3540
1134 3359 3561
1238 3386 3573
1550 3462 3624
1744 3509 3659
1895 3545 3687
1064 3579 2663
1062 3574 2688
1060 3565 2723
1056 3553 2770
1052 3539 2839
1041 3506 2945
1027 3460 3092
1008 3402 3280
989 3342 3475
983 3324 3533
990 3327 3529
1174 3370 3564
1601 3473 3639
1892 3545 3687
2164 3612 3733
2331 3653 3762
2479 3690 3787
65 7 7
85 8 29
98 12 54
107 21 102
98 35 171
52 77 299
13 158 444
23 285 625
43 422 834
65 537 1031
93 646 1213
120 735 1385
141 796 1512
158 844 1608
177 895 1707
192 936 1790
204 968 1858
101 51 35
106 57 70
128 60 108
123 64 159
113 90 243
54 140 370
21 218 512
31 343 693
50 461 889
76 580 1095
105 689 1290
129 762 1434
152 827 1567
171 878 1669
188 925 1763
203 966 1847
