滤镜资源/Professional Luts Collection/Triune-Digital-Cinematic-LUTs/3D LUTs (3DL)/REDLOGFILM/The Conjuring - REDlogFilm.3dl
# Created by Benjamin (IWLTBAP) : http://luts.iwltbap.com
# Copyright: (C) Copyright 2016 Triune Films and IWLTBAP
# Blockbuster LUTs Pack
0 64 128 192 256 320 384 448 512 576 640 704 768 832 896 960 1023
28 32 41
28 30 71
27 29 108
27 30 162
27 31 238
29 36 340
31 47 465
39 71 618
58 107 787
80 148 958
98 185 1109
113 215 1238
129 246 1354
140 269 1445
151 291 1523
159 307 1584
164 319 1633
33 75 50
33 75 89
32 73 127
32 74 186
32 74 262
34 81 364
39 96 493
50 124 650
69 162 821
90 201 988
108 237 1137
124 270 1270
139 301 1386
151 325 1477
161 347 1555
169 363 1616
175 375 1665
39 133 61
39 134 103
39 135 157
39 133 219
39 133 298
40 140 400
49 161 532
64 191 692
83 230 861
103 271 1028
121 306 1177
138 342 1313
153 373 1429
165 396 1518
174 417 1595
182 433 1656
189 446 1706
46 221 79
47 221 122
47 221 179
47 221 255
49 219 338
54 228 447
64 246 579
80 277 740
99 315 905
120 358 1077
139 397 1231
155 431 1364
170 461 1478
181 485 1567
190 505 1644
198 521 1705
204 534 1755
58 340 103
55 338 145
57 339 203
61 339 283
66 342 390
73 346 503
84 362 639
99 391 795
119 429 965
141 472 1140
159 511 1292
177 547 1427
191 576 1541
202 599 1630
211 618 1705
218 632 1765
224 644 1813
87 487 131
74 487 174
71 490 234
78 492 318
87 493 428
97 499 564
107 510 703
122 534 862
143 572 1040
164 614 1211
184 654 1365
201 687 1500
215 715 1615
225 736 1703
235 755 1777
243 770 1837
251 784 1887
133 666 155
119 663 198
103 663 252
97 670 343
106 679 470
120 683 614
133 693 775
149 710 946
169 742 1117
190 782 1289
210 819 1449
228 851 1584
242 879 1696
255 900 1783
267 919 1859
278 935 1921
287 948 1971
215 884 186
191 875 231
164 869 284
139 872 364
131 886 497
145 897 670
163 902 840
181 920 1026
201 943 1206
223 976 1386
242 1010 1541
261 1041 1672
280 1067 1785
295 1088 1876
309 1106 1954
320 1120 2017
328 1131 2069
337 1128 230
305 1116 274
264 1099 328
218 1090 403
182 1104 526
176 1119 712
194 1126 911
214 1135 1100
235 1154 1290
259 1181 1472
285 1212 1632
307 1240 1768
326 1264 1886
343 1284 1980
358 1301 2060
368 1314 2120
376 1325 2169
490 1379 279
444 1364 326
399 1345 380
336 1321 446
271 1321 557
234 1346 749
231 1354 972
254 1357 1179
278 1368 1367
304 1390 1553
330 1415 1716
354 1440 1859
375 1464 1980
391 1482 2072
404 1498 2150
415 1510 2211
422 1519 2259
607 1612 340
565 1590 378
513 1565 429
457 1537 498
375 1518 596
307 1542 773
281 1561 1017
292 1559 1242
321 1565 1440
344 1577 1620
371 1600 1787
397 1624 1933
417 1643 2051
433 1660 2144
446 1674 2225
456 1684 2287
464 1693 2337
720 1825 412
671 1801 448
621 1771 484
561 1735 548
480 1700 640
391 1712 798
339 1740 1045
331 1742 1297
360 1740 1499
388 1750 1685
412 1764 1847
435 1785 1992
455 1803 2114
470 1818 2209
484 1832 2290
494 1843 2355
504 1853 2409
836 2023 473
782 1996 515
720 1965 557
662 1924 605
585 1876 690
480 1864 826
404 1898 1064
378 1908 1341
398 1900 1552
428 1902 1740
451 1914 1903
474 1931 2047
492 1947 2171
505 1960 2267
519 1973 2351
531 1985 2419
540 1995 2473
934 2185 525
879 2158 566
814 2126 615
743 2083 663
674 2025 732
559 1990 854
465 2019 1075
421 2040 1369
429 2030 1595
456 2023 1778
480 2033 1945
502 2047 2090
522 2063 2217
535 2076 2314
547 2088 2398
559 2099 2467
568 2108 2522
1023 2328 571
966 2302 613
899 2267 664
820 2224 719
747 2163 778
635 2104 883
524 2124 1085
464 2156 1387
457 2145 1630
481 2133 1813
506 2137 1979
526 2150 2126
545 2164 2253
563 2182 2358
575 2194 2443
585 2203 2511
593 2212 2565
1106 2454 615
1050 2430 655
981 2395 705
900 2352 764
811 2284 824
704 2210 915
578 2212 1096
506 2252 1399
484 2243 1656
502 2226 1843
525 2224 2005
547 2235 2156
566 2250 2286
583 2266 2390
599 2283 2481
607 2291 2548
615 2299 2603
1174 2559 654
1121 2537 693
1052 2503 741
969 2458 801
875 2396 869
765 2306 948
626 2285 1108
544 2332 1408
511 2328 1680
521 2306 1871
543 2298 2029
564 2307 2180
584 2325 2316
600 2338 2418
618 2356 2512
627 2365 2580
634 2373 2635
59 34 43
59 32 76
58 31 113
59 32 170
60 34 247
61 39 347
65 50 469
73 73 619
90 107 784
111 145 953
130 181 1102
144 209 1228
158 237 1341
169 259 1430
179 280 1508
188 297 1570
194 309 1619
66 78 52
66 80 95
66 77 134
66 78 192
67 80 270
69 87 373
74 103 502
86 133 662
105 171 833
125 210 999
144 247 1149
160 280 1282
174 310 1397
186 334 1488
197 357 1566
205 373 1628
210 385 1677
73 138 63
73 140 111
74 141 164
73 140 225
74 140 305
76 148 408
84 169 543
100 202 705
119 241 874
140 282 1041
157 317 1191
174 352 1326
189 384 1442
201 408 1531
211 428 1608
219 445 1670
225 457 1720
82 228 81
83 228 129
83 228 186
84 229 261
86 228 346
90 236 454
100 255 589
116 288 752
135 326 918
156 369 1090
174 407 1243
191 442 1376
206 473 1492
217 496 1581
226 515 1656
233 530 1716
239 542 1766
96 346 106
96 348 154
94 348 211
97 348 291
103 350 398
109 355 511
119 371 648
135 401 806
155 440 978
177 484 1155
196 523 1306
213 559 1441
227 587 1554
238 609 1643
246 627 1717
253 642 1776
259 654 1825
127 496 132
127 501 184
114 501 240
114 501 323
123 502 435
132 509 572
143 520 712
158 545 875
180 585 1054
201 628 1225
221 667 1380
237 699 1515
250 726 1629
262 748 1717
272 767 1791
281 782 1851
290 796 1901
174 674 154
179 683 208
158 681 264
141 685 352
143 692 478
156 695 622
170 706 787
187 724 959
206 757 1131
228 796 1305
247 832 1464
265 864 1599
281 892 1710
295 913 1797
308 933 1875
318 948 1937
327 961 1988
265 896 185
269 907 240
237 897 299
197 893 377
174 903 505
181 912 680
200 918 853
218 934 1038
238 958 1219
260 991 1401
282 1025 1556
303 1056 1688
321 1082 1802
336 1103 1893
351 1121 1973
362 1135 2037
371 1147 2088
403 1144 226
395 1152 283
348 1135 342
291 1117 415
239 1122 533
220 1139 721
231 1144 924
251 1151 1113
274 1169 1303
301 1198 1486
326 1228 1646
349 1257 1784
368 1281 1903
385 1301 1998
400 1319 2078
410 1331 2138
417 1341 2186
563 1399 275
550 1402 331
491 1382 390
419 1354 463
341 1340 564
288 1365 752
274 1375 983
295 1376 1193
319 1385 1381
346 1409 1569
372 1434 1732
397 1460 1876
418 1482 1996
433 1500 2087
446 1516 2165
457 1528 2227
465 1537 2277
686 1638 348
673 1637 398
617 1609 442
548 1577 512
457 1545 610
373 1558 774
333 1582 1022
335 1580 1256
362 1585 1455
388 1598 1638
415 1620 1804
441 1644 1949
460 1663 2068
476 1679 2162
490 1693 2242
499 1703 2304
507 1713 2355
807 1854 416
780 1851 475
723 1820 513
658 1782 567
572 1739 661
468 1732 803
398 1761 1046
381 1767 1310
406 1763 1515
434 1772 1703
459 1787 1866
481 1807 2011
500 1824 2134
515 1839 2229
529 1853 2311
539 1863 2375
549 1874 2430
921 2051 479
889 2045 537
822 2012 583
755 1970 630
676 1919 708
562 1889 838
470 1921 1069
431 1933 1351
445 1924 1568
473 1924 1755
496 1936 1920
519 1953 2066
537 1969 2191
551 1983 2288
565 1996 2373
577 2008 2441
586 2018 2495
1019 2213 533
986 2209 592
918 2176 641
838 2131 693
761 2071 753
646 2020 869
534 2044 1083
478 2067 1378
476 2055 1609
501 2045 1794
526 2056 1962
547 2070 2108
569 2088 2239
583 2101 2338
596 2115 2423
607 2126 2492
616 2135 2547
1108 2356 580
1075 2356 641
1007 2322 692
921 2275 747
834 2212 805
729 2146 905
598 2152 1097
524 2183 1395
508 2173 1644
527 2158 1830
552 2161 1997
572 2175 2146
593 2190 2276
611 2208 2383
624 2222 2469
633 2232 2536
641 2240 2591
1191 2483 626
1159 2483 686
1092 2452 735
1008 2408 794
908 2343 859
802 2256 939
659 2238 1105
570 2280 1406
537 2272 1670
550 2254 1863
572 2249 2024
593 2260 2176
613 2277 2309
631 2292 2413
647 2310 2505
655 2318 2572
661 2325 2625
1264 2591 668
1230 2589 727
1164 2561 774
1081 2518 834
978 2457 904
869 2359 975
714 2315 1120
611 2360 1413
568 2362 1695
571 2338 1894
593 2330 2054
613 2337 2204
633 2355 2341
650 2369 2445
667 2387 2538
676 2396 2606
682 2401 2659
97 34 44
98 34 79
99 34 122
98 36 181
98 38 258
99 43 357
104 54 477
114 77 622
130 107 781
149 143 946
167 177 1095
181 204 1219
194 229 1328
204 249 1414
213 268 1490
221 285 1553
228 299 1604
105 81 53
106 83 99
106 82 143
106 83 203
106 86 282
108 92 382
114 107 507
127 135 663
144 170 830
163 207 993
181 242 1141
196 272 1270
210 299 1382
220 321 1469
231 342 1547
239 359 1609
245 372 1660
113 144 65
114 147 114
115 149 173
114 147 234
115 149 315
119 157 419
128 179 554
144 214 720
164 254 890
184 295 1057
201 331 1208
218 366 1342
232 396 1457
244 420 1546
254 441 1623
262 457 1686
268 471 1736
127 236 82
128 237 132
129 239 196
129 239 270
130 239 355
133 245 463
144 266 602
161 302 768
180 342 936
201 384 1108
219 421 1260
236 457 1394
251 488 1510
262 511 1598
270 529 1673
277 544 1733
283 556 1783
144 354 106
146 358 158
146 361 222
143 360 301
147 361 407
153 366 522
164 383 660
180 416 821
200 456 997
222 500 1173
241 539 1324
258 574 1459
271 601 1572
282 624 1660
291 641 1734
299 656 1793
306 668 1842
175 504 131
177 509 186
177 518 254
163 516 332
168 515 445
177 521 582
187 534 724
204 562 893
225 603 1072
246 645 1244
266 684 1401
283 716 1535
297 742 1648
310 765 1736
321 784 1810
330 799 1870
338 812 1921
230 685 152
235 695 207
238 708 281
206 708 365
192 711 491
202 713 636
215 722 801
232 742 975
252 776 1149
274 815 1327
296 852 1486
315 884 1619
331 911 1731
345 932 1819
358 951 1897
368 967 1959
377 979 2010
329 911 181
334 923 238
339 938 311
288 927 397
239 929 518
229 935 694
245 939 870
264 954 1056
285 977 1237
310 1011 1420
333 1046 1576
354 1077 1709
372 1103 1824
388 1123 1916
403 1142 1998
414 1157 2063
423 1168 2114
496 1162 216
488 1173 278
474 1184 353
401 1161 435
324 1151 545
281 1165 733
280 1169 942
300 1172 1130
325 1191 1322
352 1220 1505
377 1249 1665
400 1278 1805
420 1303 1926
437 1323 2019
452 1341 2098
462 1353 2159
469 1363 2208
654 1423 272
645 1427 329
628 1431 398
538 1402 481
440 1374 583
364 1389 757
336 1403 995
345 1400 1210
370 1408 1400
399 1432 1590
425 1457 1753
450 1483 1897
471 1506 2017
485 1523 2108
498 1537 2184
508 1550 2247
517 1561 2298
787 1667 351
772 1670 409
757 1669 469
681 1634 532
573 1593 637
464 1583 779
405 1611 1027
392 1610 1276
417 1611 1474
444 1624 1660
472 1646 1828
496 1669 1971
516 1688 2092
531 1704 2185
544 1718 2265
553 1728 2328
562 1739 2381
917 1888 420
890 1889 483
860 1886 552
796 1848 601
698 1796 683
572 1765 819
479 1790 1048
448 1801 1327
465 1794 1536
492 1801 1726
517 1815 1890
539 1834 2035
557 1852 2159
572 1866 2255
585 1880 2337
596 1892 2403
605 1902 2457
1033 2086 488
1001 2085 547
964 2081 621
887 2039 673
801 1981 735
677 1932 859
559 1951 1075
504 1969 1365
506 1958 1589
531 1953 1777
554 1966 1944
577 1982 2091
596 2000 2219
611 2015 2318
624 2027 2402
635 2039 2470
644 2048 2524
1127 2246 542
1095 2247 603
1055 2242 677
970 2199 733
882 2137 789
770 2072 896
628 2076 1093
554 2103 1391
541 2092 1631
560 2078 1817
583 2086 1986
605 2101 2134
627 2120 2267
642 2134 2367
654 2147 2452
666 2159 2522
675 2168 2578
1216 2390 589
1183 2392 653
1142 2389 727
1055 2345 785
954 2281 848
852 2201 933
697 2185 1111
604 2222 1411
575 2211 1665
589 2197 1857
612 2196 2023
632 2210 2175
654 2226 2307
672 2244 2413
685 2258 2501
693 2268 2568
701 2276 2623
1302 2522 638
1270 2523 701
1229 2521 774
1145 2480 834
1038 2418 904
928 2324 972
769 2276 1125
654 2316 1415
610 2315 1693
613 2294 1890
634 2288 2054
655 2299 2207
675 2315 2340
694 2332 2446
709 2349 2538
718 2357 2606
723 2363 2659
1379 2629 679
1346 2632 746
1304 2630 818
1222 2591 877
1111 2531 948
999 2439 1016
840 2360 1143
699 2396 1418
646 2410 1718
637 2381 1923
655 2372 2085
676 2378 2235
694 2393 2371
712 2409 2477
729 2425 2570
738 2435 2639
744 2440 2692
155 41 47
160 42 86
164 44 133
164 45 196
162 47 274
160 52 373
159 64 491
168 86 634
183 116 790
202 150 952
218 180 1096
232 209 1222
244 233 1330
254 253 1416
263 271 1491
271 288 1553
278 302 1604
169 90 58
171 92 105
174 93 153
174 91 214
171 95 295
169 101 395
169 115 517
178 140 666
196 173 829
214 208 991
230 241 1136
245 271 1265
258 297 1375
268 317 1461
277 337 1538
285 352 1598
