滤镜资源/Professional Luts Collection/Triune-Digital-Cinematic-LUTs/3D LUTs (3DL)/REDLOGFILM/The Revenant - REDlogFilm.3dl
# Created by Benjamin (IWLTBAP) : http://luts.iwltbap.com
# Copyright: (C) Copyright 2016 Triune Films and IWLTBAP
# Blockbuster LUTs Pack
0 128 256 384 512 640 768 896 1023
0 0 0
1 10 29
2 32 106
11 154 370
40 405 762
89 632 1153
137 783 1442
165 862 1613
197 950 1801
13 106 46
11 123 138
13 171 285
26 304 563
63 523 933
118 730 1333
164 860 1605
191 934 1760
215 1000 1904
44 421 273
47 444 368
55 484 519
69 550 770
111 707 1196
160 848 1524
207 976 1821
229 1037 1977
241 1076 2051
196 979 664
200 986 725
212 1007 878
227 1038 1190
256 1137 1631
280 1223 1985
298 1295 2238
313 1343 2375
322 1374 2476
454 1779 1214
459 1795 1281
468 1820 1431
483 1859 1764
509 1931 2220
546 2038 2658
563 2090 2934
574 2122 3111
573 2119 3210
713 2544 1772
716 2553 1826
728 2587 1975
752 2651 2301
767 2691 2742
798 2780 3189
826 2861 3500
841 2906 3579
849 2928 3584
892 3072 2181
894 3079 2228
911 3125 2382
935 3193 2700
956 3247 3128
967 3274 3515
977 3303 3564
980 3314 3563
980 3314 3563
1017 3442 2464
1015 3436 2510
1029 3475 2660
1027 3465 2934
1001 3381 3349
982 3319 3547
983 3321 3541
990 3325 3536
1153 3363 3566
1064 3579 2668
1059 3564 2724
1052 3539 2838
1027 3460 3092
989 3341 3476
986 3326 3529
1424 3431 3606
2045 3582 3713
2397 3670 3773
35 1 1
51 12 48
43 35 147
12 169 429
40 406 790
92 643 1192
138 786 1472
176 893 1695
202 963 1839
61 88 42
59 130 160
29 161 309
25 300 578
61 514 945
114 718 1329
162 852 1601
196 948 1797
219 1010 1940
79 402 245
74 422 337
69 465 514
69 549 783
104 684 1158
158 842 1532
203 966 1811
231 1042 1990
246 1094 2092
192 969 657
197 979 717
209 999 873
224 1027 1182
254 1127 1620
279 1219 1990
297 1291 2242
308 1329 2366
322 1375 2484
450 1769 1217
458 1791 1284
468 1817 1439
482 1855 1763
508 1928 2222
542 2028 2643
565 2094 2942
573 2118 3113
575 2125 3229
711 2538 1770
718 2560 1829
729 2590 1980
749 2645 2302
771 2703 2758
796 2774 3194
825 2859 3500
841 2905 3577
849 2929 3584
894 3080 2182
896 3083 2240
910 3123 2383
930 3178 2679
955 3245 3134
966 3273 3520
977 3305 3563
980 3314 3563
980 3314 3563
1017 3441 2460
1020 3449 2516
1030 3478 2659
1029 3469 2936
1002 3382 3344
982 3319 3550
984 3322 3538
1052 3341 3543
1192 3373 3573
1064 3579 2663
1060 3565 2723
1052 3539 2839
1027 3460 3092
989 3342 3475
990 3327 3529
1601 3473 3639
2164 3612 3733
2479 3690 3787
128 23 26
186 25 83
215 38 210
95 163 486
43 420 850
94 650 1247
146 811 1550
178 899 1726
200 959 1863
238 111 76
260 122 168
269 167 340
107 284 612
60 510 982
114 719 1360
166 864 1655
200 956 1842
223 1019 1980
293 433 265
297 441 371
286 458 521
155 542 807
102 679 1183
156 836 1538
206 974 1855
225 1026 1984
243 1083 2104
297 987 669
288 993 734
264 1003 871
229 1028 1191
252 1121 1629
278 1215 2008
296 1286 2250
310 1333 2403
319 1364 2495
453 1776 1215
457 1788 1287
467 1815 1436
480 1850 1758
505 1919 2221
542 2028 2648
564 2091 2945
571 2113 3123
574 2120 3231
709 2533 1768
717 2556 1844
727 2585 1990
748 2642 2307
769 2697 2758
796 2773 3188
829 2870 3514
840 2903 3574
841 2906 3585
896 3085 2192
900 3095 2255
911 3127 2394
931 3181 2699
956 3248 3146
966 3272 3519
977 3305 3563
980 3314 3563
980 3314 3563
1021 3453 2480
1020 3450 2530
1027 3470 2656
1027 3464 2945
1001 3381 3350
981 3317 3553
984 3323 3538
1201 3376 3572
1405 3425 3608
1062 3573 2677
1059 3563 2731
1049 3532 2850
1025 3456 3106
989 3342 3475
1049 3340 3542
1793 3520 3671
2378 3665 3770
2689 3743 3823
456 61 72
545 78 170
612 96 308
658 192 627
509 425 1022
153 645 1362
144 804 1666
169 873 1807
200 959 1985
614 162 152
669 183 244
714 208 403
719 309 743
493 527 1150
150 704 1462
158 842 1723
189 928 1910
212 992 2049
712 451 285
751 444 379
788 471 580
770 560 923
546 707 1311
189 823 1626
195 943 1906
218 1008 2066
240 1073 2203
867 1116 752
862 1104 817
861 1104 973
817 1134 1292
585 1175 1704
304 1197 2041
291 1264 2291
302 1308 2442
313 1344 2551
918 1873 1301
916 1888 1369
884 1891 1504
768 1908 1815
560 1919 2236
535 2007 2666
557 2071 2966
562 2085 3135
569 2107 3263
970 2595 1826
960 2600 1890
916 2616 2018
802 2648 2329
765 2683 2756
799 2781 3216
822 2851 3519
834 2885 3579
841 2906 3585
1044 3098 2217
1040 3116 2282
990 3138 2413
938 3169 2699
951 3234 3137
964 3267 3533
978 3299 3564
1033 3327 3572
1144 3355 3587
1110 3458 2496
1097 3465 2557
1071 3481 2679
1028 3460 2958
1000 3378 3359
983 3319 3548
1144 3361 3564
1709 3499 3658
1990 3569 3704
1146 3588 2700
1140 3580 2761
1125 3548 2880
1044 3457 3120
989 3337 3492
1541 3458 3630
2280 3641 3753
2729 3752 3832
3019 3823 3891
964 193 235
1083 231 319
1143 253 431
1265 317 736
1308 487 1239
1240 711 1656
1112 910 1960
1039 1016 2141
884 1070 2247
1153 284 307
1184 291 363
1261 327 492
1359 394 828
1349 566 1336
1262 785 1753
1129 966 2029
986 1055 2194
821 1108 2311
1273 461 391
1311 447 446
1368 483 599
1456 566 955
1424 738 1489
1323 922 1892
1161 1085 2181
995 1149 2319
842 1179 2419
1518 1094 741
1532 1093 806
1565 1072 962
1593 1142 1325
1561 1301 1875
1441 1398 2277
1260 1443 2516
1108 1452 2649
983 1455 2736
1712 2081 1405
1710 2072 1475
1716 2083 1654
1695 2096 1978
1608 2146 2431
1465 2202 2854
1302 2209 3119
1193 2202 3274
1126 2193 3371
1786 2778 1994
1798 2799 2057
1790 2817 2198
1719 2845 2497
1575 2855 2902
1382 2899 3326
1220 2930 3600
1255 2957 3658
1330 2984 3670
1853 3287 2381
1841 3300 2446
1829 3327 2578
1752 3360 2852
1586 3376 3255
1373 3361 3604
1633 3460 3671
1844 3526 3704
1994 3563 3727
1896 3650 2664
1879 3648 2704
1871 3664 2837
1774 3637 3091
1568 3512 3467
1643 3481 3656
2140 3605 3734
2432 3678 3779
2708 3746 3831
1905 3774 2848
1900 3760 2912
1879 3726 3027
1796 3636 3261
1694 3508 3611
2394 3669 3773
2951 3806 3877
3281 3889 3937
3532 3953 3984
1514 358 408
1587 376 460
1645 392 540
1801 453 817
1893 567 1294
1919 769 1820
1892 934 2160
1843 1044 2346
1814 1122 2474
1663 414 452
1708 426 497
1767 441 592
1885 499 878
1971 625 1380
1951 838 1925
1898 988 2227
1860 1106 2426
1839 1192 2572
1801 503 510
1819 509 544
1874 532 649
1999 605 975
2060 748 1505
2019 945 2043
1958 1095 2348
1891 1185 2519
1837 1253 2627
2046 970 741
2074 960 791
2115 932 908
2216 1031 1261
2230 1223 1867
2178 1377 2370
2092 1443 2646
2034 1495 2806
1984 1532 2912
2351 2072 1385
2362 2073 1437
2383 2077 1596
2405 2093 1981
2412 2270 2574
2364 2362 3028
2296 2395 3323
2242 2404 3493
2198 2398 3599
2479 2923 2056
2493 2936 2127
2497 2965 2304
2484 3009 2640
2445 3040 3070
2366 3112 3509
2285 3151 3782
2313 3188 3837
2387 3215 3849
2541 3447 2541
2548 3463 2603
2548 3486 2732
2522 3531 3007
2453 3574 3415
2364 3586 3765
2527 3683 3821
2649 3726 3839
2738 3744 3855
2580 3803 2810
2572 3814 2870
2572 3828 2992
2543 3821 3244
2430 3722 3623
2624 3725 3819
2985 3815 3882
3248 3881 3931
3455 3933 3969
2582 3931 3006
2587 3926 3060
2576 3892 3170
2531 3811 3413
2695 3750 3802
3228 3876 3928
3621 3975 4001
3905 4046 4060
4031 4079 4083
1861 445 495
1941 465 547
2015 486 628
2156 531 872
2310 643 1338
2372 805 1857
2377 993 2286
2372 1090 2496
2344 1165 2629
1997 487 536
2039 502 577
2109 521 654
2243 570 914
2371 687 1404
2418 854 1924
2394 1043 2358
2376 1141 2559
2381 1228 2712
2156 557 584
2184 566 615
2245 588 698
2373 651 998
2483 777 1494
2494 949 2051
2441 1132 2464
2402 1211 2640
2394 1294 2789
2425 904 774
2442 884 799
2482 873 896
2627 961 1225
2676 1130 1797
2655 1319 2380
2607 1433 2727
2550 1473 2895
2497 1499 2989
2772 1904 1334
2785 1892 1385
2818 1886 1513
2887 1868 1867
2928 2113 2501
2885 2326 3062
2847 2378 3375
2814 2395 3556
2791 2404 3680
2973 2981 2067
2988 3002 2147
3005 3029 2317
3016 3090 2681
2999 3148 3182
2974 3236 3630
2929 3280 3913
2962 3309 3950
3003 3323 3960
3017 3509 2569
3024 3532 2644
3043 3567 2804
3040 3639 3132
3015 3687 3536
2980 3729 3889
3126 3832 3924
3218 3859 3938
3315 3882 3955
2964 3873 2916
2968 3891 2980
3017 3929 3120
3044 3936 3374
3028 3864 3753
3292 3892 3940
3648 3981 4009
3810 4023 4039
3951 4058 4069
2912 4004 3108
2926 3996 3175
2948 3968 3298
3072 3930 3564
3381 3920 3934
3825 4026 4043
4080 4091 4092
4082 4092 4093
4091 4094 4094
2115 496 553
2182 516 598
2246 536 675
2399 585 912
2563 685 1362
2661 836 1889
2670 1000 2311
2656 1125 2565
2665 1207 2739
2227 531 583
2286 550 627
2340 568 703
2484 624 966
2627 728 1416
2703 883 1968
2698 1053 2391
2705 1188 2655
2676 1250 2802
2390 601 639
2418 605 662
2475 622 741
2605 685 1026
2732 802 1512
2767 954 2051
2748 1120 2469
2707 1249 2724
2704 1318 2874
2640 858 771
2657 844 809
2719 849 903
2870 922 1207
2946 1069 1758
2945 1255 2341
2899 1399 2730
2847 1465 2938
2816 1500 3052
3033 1789 1312
3046 1780 1355
3087 1755 1473
3184 1711 1790
3247 1960 2433
3217 2229 3037
3189 2331 3394
3154 2336 3572
3128 2344 3692
3207 2885 2052
3232 2900 2135
3269 2922 2289
3340 2979 2647
3340 3117 3188
3340 3271 3693
3321 3344 3988
3361 3383 4025
3396 3388 4028
3176 3520 2585
3188 3535 2650
3234 3581 2819
3301 3672 3163
3358 3749 3609
3376 3818 3973
3513 3907 3994
3607 3944 4010
3673 3961 4022
3122 3869 2936
3132 3902 3008
3171 3943 3160
3230 3990 3433
3365 3941 3844
3742 4005 4025
3958 4060 4067
4077 4090 4092
4095 4095 4095
3083 4037 3194
3094 4027 3244
3135 4003 3372
3295 3971 3660
3652 3984 4002
4064 4087 4089
4095 4095 4095
4095 4095 4095
4095 4095 4095
2270 532 586
2356 551 636
2424 569 710
2554 618 943
2748 726 1388
2856 876 1921
2853 1008 2310
2871 1130 2594
2858 1232 2798
2381 570 626
2430 581 659
2485 591 725
2640 653 988
2800 757 1436
2889 913 1991
2897 1060 2392
2913 1184 2670
2905 1273 2849
2531 618 659
2570 626 693
2609 642 766
2758 708 1040
2893 816 1512
2942 968 2059
2927 1129 2481
2930 1243 2728
2932 1337 2921
2779 829 785
2799 820 820
2882 832 905
3016 899 1178
3110 1036 1734
3114 1200 2301
3087 1359 2712
3049 1449 2949
3030 1503 3090
3181 1708 1276
3208 1685 1331
3272 1649 1428
3386 1615 1735
3461 1849 2378
3452 2101 2978
3402 2268 3380
3370 2284 3573
3337 2289 3695
3311 2811 2030
3327 2830 2117
3377 2834 2253
3460 2873 2601
3577 2969 3116
3587 3251 3706
3575 3316 3982
3605 3350 4035
3633 3345 4035
3278 3533 2612
3293 3544 2670
3336 3585 2835
3406 3674 3184
3504 3774 3644
3630 3875 4013
3811 3968 4050
3882 4002 4061
3960 4029 4074
3224 3879 2948
3236 3903 3020
3276 3934 3170
3338 4022 3476
3459 3964 3862
3890 4043 4056
4087 4093 4093
4095 4095 4095
4095 4095 4095
3190 4055 3248
3200 4041 3308
3266 4026 3432
3405 3990 3711
3809 4023 4037
4087 4093 4094
4095 4095 4095
4095 4095 4095
4095 4095 4095
