滤镜资源/Professional Luts Collection/Triune-Digital-Cinematic-LUTs/3D LUTs (3DL)/REDLOGFILM/The Ring - REDlogFilm.3dl
# Created by Benjamin (IWLTBAP) : http://luts.iwltbap.com
# Copyright: (C) Copyright 2016 Triune Films and IWLTBAP
# Blockbuster LUTs Pack
0 128 256 384 512 640 768 896 1023
0 0 0
0 0 95
0 9 267
0 50 661
0 195 1221
0 364 1806
0 502 2267
0 610 2592
0 679 2809
0 100 0
0 110 110
0 127 309
0 185 711
0 322 1264
0 483 1838
0 621 2302
0 717 2615
0 790 2841
0 328 10
0 354 132
0 390 370
0 455 795
0 576 1355
0 722 1924
0 846 2384
0 942 2703
0 1006 2912
0 834 67
0 852 208
0 897 482
0 973 934
0 1079 1525
0 1202 2106
0 1310 2572
0 1388 2881
0 1440 3097
0 1540 235
0 1554 369
0 1597 630
0 1685 1098
0 1804 1733
0 1921 2345
0 2019 2822
0 2088 3150
0 2137 3368
0 2279 429
0 2293 554
0 2324 795
0 2413 1263
0 2546 1913
0 2669 2559
0 2771 3061
0 2839 3403
0 2885 3633
0 2874 588
0 2887 707
0 2921 941
0 3005 1399
0 3138 2056
0 3282 2726
0 3388 3247
0 3452 3592
0 3507 3834
0 3291 704
0 3301 819
0 3328 1042
0 3419 1501
0 3556 2161
0 3696 2829
0 3798 3352
0 3885 3723
0 3929 3953
0 3583 784
0 3588 900
0 3615 1121
0 3703 1564
0 3846 2231
0 3985 2904
0 4087 3432
0 4095 3793
0 4095 4043
90 0 0
100 0 100
99 9 291
90 56 681
90 197 1242
90 367 1817
90 506 2281
90 605 2601
90 679 2825
90 105 0
95 111 110
91 131 318
90 188 721
90 322 1275
90 480 1845
90 621 2308
90 716 2629
90 790 2846
90 332 10
90 357 136
90 396 377
90 466 805
90 582 1368
90 721 1932
90 848 2387
90 938 2701
90 1006 2922
90 832 68
90 852 212
90 903 484
90 980 940
90 1083 1530
90 1201 2110
90 1309 2568
90 1391 2888
90 1447 3105
90 1544 239
90 1557 372
90 1599 628
90 1685 1101
90 1806 1729
90 1920 2346
90 2021 2829
90 2090 3149
90 2141 3377
90 2275 431
90 2286 553
90 2323 795
90 2416 1264
90 2546 1915
90 2674 2564
90 2771 3067
90 2844 3403
90 2891 3638
90 2876 591
90 2889 709
90 2920 945
90 3014 1404
90 3143 2061
90 3280 2726
90 3380 3237
90 3454 3593
90 3502 3830
90 3288 704
90 3311 825
90 3338 1048
90 3421 1502
90 3557 2159
90 3704 2836
90 3811 3361
90 3880 3718
90 3928 3959
90 3583 784
90 3588 900
90 3622 1121
90 3703 1567
90 3844 2227
90 3985 2904
90 4090 3435
90 4095 3802
90 4095 4043
266 0 0
301 1 110
319 11 325
302 57 733
237 198 1284
235 369 1859
235 509 2325
235 606 2638
235 679 2861
272 106 1
294 119 121
317 137 347
294 194 761
235 327 1317
235 488 1885
235 627 2347
235 723 2657
235 790 2877
265 338 12
272 367 138
277 401 390
254 475 827
235 588 1393
235 722 1955
235 854 2417
235 943 2729
235 1008 2951
235 839 75
235 858 216
235 903 485
235 981 946
235 1088 1540
235 1208 2127
235 1316 2589
235 1392 2902
235 1451 3119
235 1546 245
235 1561 377
235 1603 633
235 1691 1106
235 1809 1741
235 1925 2356
235 2021 2834
235 2094 3165
235 2138 3387
235 2282 434
235 2293 559
235 2337 802
235 2421 1269
235 2548 1921
235 2675 2566
235 2771 3067
235 2843 3411
235 2893 3643
235 2879 596
235 2888 712
235 2928 948
235 3015 1406
235 3146 2060
235 3281 2730
235 3382 3244
235 3457 3598
235 3508 3835
235 3298 709
235 3306 824
235 3336 1051
235 3422 1500
235 3560 2162
235 3695 2833
235 3810 3365
235 3882 3719
235 3932 3963
235 3583 785
235 3594 905
235 3623 1131
235 3707 1568
235 3846 2232
235 3985 2907
235 4087 3439
235 4095 3803
235 4095 4044
641 11 10
699 20 133
760 28 388
808 75 819
800 216 1389
643 379 1958
469 521 2417
458 619 2737
458 690 2950
656 128 11
708 140 140
760 160 399
808 220 838
796 344 1405
631 499 1977
465 634 2437
458 732 2749
458 800 2966
678 366 27
707 392 164
751 434 434
795 494 878
773 604 1456
593 740 2032
461 861 2488
458 955 2807
458 1018 3022
628 859 93
639 881 239
663 922 511
678 998 979
607 1104 1581
467 1223 2174
458 1325 2634
458 1403 2956
458 1460 3175
458 1563 260
458 1573 391
458 1614 646
458 1704 1122
458 1820 1758
458 1937 2383
458 2035 2869
458 2106 3199
458 2151 3420
458 2293 446
458 2303 568
458 2342 813
458 2430 1282
458 2560 1936
458 2688 2589
458 2787 3090
458 2855 3436
458 2904 3667
458 2887 607
458 2898 720
458 2930 955
458 3018 1413
458 3157 2076
458 3291 2743
458 3395 3262
458 3465 3612
458 3514 3856
458 3306 719
458 3310 834
458 3346 1061
458 3432 1512
458 3569 2173
458 3704 2842
458 3821 3379
458 3893 3739
458 3939 3978
458 3593 795
458 3603 911
458 3630 1138
458 3713 1579
458 3854 2239
458 3995 2917
458 4095 3449
458 4095 3816
458 4095 4060
1200 56 35
1258 68 177
1334 87 463
1427 139 924
1501 256 1522
1511 410 2107
1475 541 2570
1415 642 2889
1351 709 3104
1207 177 38
1258 195 185
1334 223 470
1430 280 932
1503 388 1533
1510 529 2115
1474 658 2582
1414 753 2898
1348 823 3118
1232 429 57
1273 453 211
1341 485 491
1430 545 962
1495 648 1565
1502 774 2157
1462 890 2623
1397 980 2944
1322 1043 3161
1260 906 140
1281 924 284
1328 963 559
1404 1037 1033
1459 1138 1655
1453 1254 2263
1395 1357 2736
1313 1431 3060
1206 1486 3277
1171 1592 295
1180 1607 425
1206 1650 685
1251 1732 1161
1274 1851 1809
1216 1967 2441
1066 2059 2930
931 2126 3260
821 2173 3487
768 2319 473
770 2332 600
772 2369 842
775 2454 1308
766 2585 1969
738 2710 2626
738 2807 3135
738 2875 3484
738 2925 3713
738 2914 632
738 2923 748
738 2959 981
738 3039 1437
738 3175 2103
738 3311 2773
738 3413 3299
738 3486 3652
738 3532 3893
738 3333 742
738 3339 859
738 3369 1085
738 3452 1534
738 3590 2199
738 3727 2874
738 3840 3408
738 3908 3767
738 3949 4011
738 3613 820
738 3622 935
738 3650 1158
738 3733 1602
738 3872 2262
738 4012 2944
738 4095 3479
738 4095 3840
738 4095 4090
1766 143 83
1818 158 243
1908 184 531
2035 230 1017
2153 328 1640
2219 455 2245
2243 583 2722
2239 677 3044
2226 740 3265
1776 269 94
1820 281 249
1907 310 534
2039 361 1022
2150 454 1649
2222 581 2258
2242 702 2733
2243 791 3057
2232 853 3276
1800 505 119
1839 519 274
1917 556 558
2039 614 1043
2151 703 1673
2219 822 2286
2237 936 2763
2233 1017 3085
2222 1077 3311
1839 964 200
1867 980 338
1927 1017 611
2036 1092 1102
2140 1191 1744
2200 1297 2365
2212 1394 2846
2208 1470 3180
2196 1521 3401
1854 1642 342
1865 1656 473
1907 1694 731
1982 1774 1210
2073 1890 1869
2114 2003 2512
2120 2102 3018
2103 2164 3352
2079 2210 3582
1735 2358 514
1739 2369 635
1766 2404 878
1812 2488 1348
1874 2620 2017
1891 2744 2680
1864 2838 3195
1821 2907 3545
1776 2949 3780
1377 2944 665
1386 2958 783
1398 2986 1014
1412 3073 1473
1424 3209 2143
1340 3343 2817
1279 3448 3352
1198 3517 3705
1098 3565 3947
1003 3356 773
1003 3363 889
1003 3398 1114
1003 3480 1564
1003 3618 2233
1003 3755 2914
1003 3867 3447
1002 3928 3813
1002 3963 4055
1002 3642 848
1002 3652 966
1002 3678 1184
1002 3760 1629
1002 3897 2294
1002 4037 2979
1002 4095 3518
1002 4095 3885
1002 4095 4095
2225 224 151
2267 240 303
2365 265 590
2509 312 1085
2661 399 1732
2753 511 2349
2806 628 2847
2822 714 3166
2828 776 3393
2229 345 156
2277 357 306
2365 385 598
2511 435 1088
2657 520 1737
2755 635 2361
2803 745 2848
2823 830 3176
2831 888 3398
2247 572 181
2296 588 332
2372 618 612
2511 674 1106
2656 761 1753
2756 875 2383
2801 975 2870
2821 1054 3200
2828 1113 3424
2300 1021 249
2329 1031 389
2394 1071 662
2522 1141 1156
2654 1237 1813
2744 1340 2446
2791 1438 2943
2810 1506 3280
2815 1557 3507
2344 1687 387
2360 1699 517
2402 1734 770
2503 1817 1259
2617 1928 1923
2700 2041 2577
2738 2128 3083
2753 2201 3430
2755 2249 3662
2309 2392 553
2316 2407 675
2347 2440 913
2413 2521 1385
2511 2650 2061
2578 2776 2731
2600 2871 3253
2604 2940 3607
2594 2984 3841
2189 2985 702
2194 2987 817
2217 3027 1050
2266 3106 1507
2336 3243 2179
2380 3367 2853
2392 3480 3397
2379 3545 3761
2362 3595 4002
2013 3392 805
2021 3403 922
2033 3431 1151
2066 3511 1598
2126 3644 2264
2150 3787 2954
2138 3894 3494
2096 3938 3858
2092 3978 4090
1815 3669 880
1811 3679 996
1834 3709 1217
1842 3788 1661
1885 3921 2322
1868 4060 3011
1823 4095 3552
1735 4095 3929
1904 4095 4085
2545 282 198
2587 296 350
2679 322 633
2836 369 1132
3003 446 1790
3114 558 2422
3179 665 2915
3208 747 3245
3234 810 3477
2554 398 203
2588 408 350
2682 438 637
2837 488 1134
3000 568 1792
3118 677 2430
3179 782 2921
3217 866 3262
3234 921 3487
2562 621 221
2602 635 368
2689 666 649
2839 721 1147
2999 805 1807
3112 910 2446
3178 1011 2946
3212 1088 3275
3224 1142 3504
2617 1063 289
2645 1076 429
2713 1111 700
2847 1180 1193
3002 1274 1861
3112 1375 2508
3170 1467 3009
3200 1537 3351
3214 1586 3578
2670 1720 421
2687 1733 549
2736 1767 803
2842 1846 1289
2973 1956 1962
3078 2070 2623
3135 2160 3137
3158 2227 3484
3166 2270 3718
2664 2424 583
2679 2436 704
2710 2466 943
2796 2553 1417
2903 2677 2092
2985 2798 2768
3041 2901 3299
3059 2967 3658
3057 3007 3888
2594 3002 724
2601 3009 842
2625 3044 1073
2692 3129 1535
2782 3257 2207
2853 3389 2889
2888 3494 3425
2897 3562 3785
2890 3608 4032
2498 3421 834
2503 3423 946
2522 3451 1172
2572 3530 1619
2649 3670 2292
2709 3808 2981
2724 3905 3516
2737 3957 3896
2757 3988 4095
2381 3692 904
2396 3703 1021
2410 3732 1241
2449 3811 1684
2518 3945 2347
2565 4079 3042
2574 4095 3586
2584 4095 3946
2678 4095 4085
2757 324 230
2804 334 377
2891 356 651
3058 405 1164
3229 489 1825
3356 590 2471
3431 696 2967
3473 772 3302
3489 836 3531
2763 435 235
2804 450 378
2892 476 660
3058 526 1166
3229 607 1829
3357 709 2476
3431 807 2974
3473 893 3317
3489 947 3541
2788 661 251
2816 672 397
2903 703 678
3061 759 1178
3229 838 1845
3360 940 2492
3431 1034 2990
3467 1108 3334
3489 1165 3561
2828 1097 318
2859 1103 456
2929 1136 721
3068 1206 1220
3233 1301 1893
3353 1401 2543
3428 1496 3056
3462 1562 3397
3482 1606 3629
2887 1745 440
2909 1755 576
2959 1792 825
3072 1868 1315
3217 1980 1989
3333 2091 2657
3395 2182 3172
3427 2251 3528
3443 2292 3762
2902 2446 607
2918 2454 723
2947 2486 963
3037 2573 1435
3160 2694 2116
3257 2819 2793
3316 2915 3321
3343 2977 3682
3359 3028 3924
2857 3018 743
2867 3035 865
2895 3067 1096
2964 3151 1552
3061 3275 2225
3145 3415 2915
3198 3507 3453
3213 3585 3821
3227 3632 4062
2784 3432 846
2794 3439 967
2814 3460 1185
2868 3551 1639
2955 3690 2315
3032 3823 2999
3072 3928 3547
3088 3957 3908
3129 3988 4095
2705 3708 920
2715 3719 1035
2736 3749 1257
2782 3828 1700
2860 3961 2363
2923 4088 3063
2958 4095 3609
2981 4095 3961
3102 4095 4074
