滤镜资源/Professional Luts Collection/Triune-Digital-Cinematic-LUTs/3D LUTs (3DL)/REDLOGFILM/The Grand Budapest Hotel - REDlogFilm.3dl
# Created by Benjamin (IWLTBAP) : http://luts.iwltbap.com
# Copyright: (C) Copyright 2016 Triune Films and IWLTBAP
# Blockbuster LUTs Pack
0 64 128 192 256 320 384 448 512 576 640 704 768 832 896 960 1023
0 0 0
35 20 125
66 41 257
99 66 393
150 99 586
211 132 802
251 173 1063
321 295 1378
371 390 1675
420 453 1971
448 477 2208
472 463 2405
513 590 2566
552 723 2688
566 755 2759
567 748 2803
566 741 2831
19 52 9
36 66 104
70 86 237
102 111 373
153 143 567
215 181 789
262 241 1057
330 364 1366
387 476 1670
449 566 1963
481 630 2190
499 622 2377
518 647 2525
544 736 2631
565 793 2711
570 807 2751
556 767 2746
48 126 24
52 132 97
80 152 233
112 174 365
156 207 540
222 259 753
271 330 1014
334 452 1319
397 559 1615
447 639 1894
487 710 2114
509 746 2288
528 774 2426
544 806 2515
550 816 2579
553 822 2606
555 836 2597
82 216 47
85 222 119
90 228 215
117 246 342
159 283 517
230 341 730
279 413 981
339 530 1280
405 632 1568
450 715 1836
488 778 2054
519 828 2227
542 869 2369
556 892 2461
565 906 2524
570 917 2555
563 912 2537
122 330 71
123 330 139
130 340 230
142 351 341
179 388 505
237 445 715
293 519 960
350 622 1254
414 717 1535
455 795 1793
495 858 2011
526 905 2182
551 944 2322
565 971 2416
574 988 2479
578 998 2507
572 995 2484
182 468 102
186 474 173
192 484 262
200 496 366
217 520 507
257 578 710
313 651 953
374 748 1241
432 835 1515
473 907 1767
511 965 1978
540 1012 2150
562 1052 2287
580 1080 2382
591 1097 2445
595 1108 2475
591 1113 2457
254 645 139
260 655 215
264 661 294
270 675 395
286 701 527
309 740 720
351 817 963
415 908 1243
466 989 1514
505 1056 1759
541 1114 1965
568 1159 2138
588 1194 2273
604 1219 2370
615 1236 2433
620 1248 2469
614 1247 2450
347 880 201
348 882 264
354 894 344
363 912 446
375 933 575
390 963 752
420 1024 979
469 1112 1266
517 1188 1532
550 1247 1770
583 1297 1975
609 1338 2145
630 1369 2279
646 1393 2376
655 1408 2444
658 1413 2482
657 1413 2477
436 1123 249
436 1125 319
442 1136 402
449 1151 501
457 1175 634
467 1204 807
486 1248 1025
530 1315 1290
570 1384 1552
598 1439 1789
628 1488 1997
654 1526 2169
679 1555 2303
692 1575 2400
698 1585 2473
699 1588 2510
696 1580 2511
519 1354 303
518 1353 370
524 1369 460
534 1382 564
541 1404 698
548 1433 869
565 1473 1080
591 1519 1325
619 1577 1578
649 1632 1815
679 1674 2020
704 1710 2193
725 1741 2336
734 1755 2428
740 1763 2502
741 1761 2545
735 1747 2553
583 1543 345
580 1539 395
591 1557 505
597 1572 617
601 1595 750
610 1624 921
629 1660 1128
647 1701 1369
665 1742 1607
692 1788 1835
720 1830 2044
743 1863 2214
759 1894 2358
768 1907 2455
773 1911 2529
775 1910 2576
771 1899 2604
640 1697 387
632 1684 414
639 1701 526
641 1722 656
644 1744 792
653 1773 967
676 1808 1170
688 1842 1403
704 1878 1632
726 1917 1854
748 1959 2063
770 1989 2231
788 2017 2376
797 2027 2473
800 2026 2543
801 2024 2595
803 2026 2642
682 1818 421
673 1804 447
670 1812 536
673 1835 676
678 1859 822
684 1890 1002
709 1924 1204
725 1958 1434
737 1992 1658
752 2021 1871
771 2062 2078
792 2090 2245
812 2116 2390
820 2123 2483
823 2122 2558
824 2120 2613
833 2134 2675
702 1895 439
688 1872 458
687 1883 541
691 1910 693
693 1928 841
702 1965 1026
727 1997 1229
744 2031 1455
754 2064 1678
768 2092 1885
788 2131 2089
808 2161 2254
826 2184 2392
832 2187 2488
837 2190 2565
844 2199 2631
853 2214 2696
704 1931 440
695 1916 460
689 1918 536
693 1948 700
697 1970 852
706 2006 1041
734 2043 1247
749 2075 1474
760 2109 1697
773 2133 1895
789 2166 2085
806 2192 2247
822 2211 2376
835 2227 2484
847 2244 2571
856 2258 2646
862 2267 2710
689 1932 429
681 1918 449
679 1931 558
683 1958 715
689 1986 871
703 2024 1066
729 2057 1276
742 2093 1495
756 2127 1714
772 2159 1914
792 2196 2108
808 2221 2256
825 2243 2387
846 2276 2502
858 2297 2590
866 2310 2660
874 2325 2724
645 1874 390
641 1868 415
648 1891 555
658 1938 739
665 1971 908
692 2013 1106
710 2050 1320
725 2089 1535
743 2123 1744
764 2167 1948
791 2216 2140
818 2256 2291
841 2292 2428
857 2320 2534
868 2341 2614
874 2352 2665
880 2360 2734
180 2 1
143 21 118
160 42 250
176 67 389
211 99 585
260 133 801
294 171 1059
340 217 1363
388 259 1657
433 300 1964
481 330 2215
524 355 2425
562 426 2612
577 528 2742
589 589 2812
590 592 2852
589 590 2877
117 55 11
129 80 112
153 102 244
163 121 378
203 148 573
253 175 792
289 210 1051
337 262 1357
386 320 1655
433 371 1954
463 397 2192
500 427 2390
520 443 2545
541 530 2645
557 634 2707
554 616 2742
541 575 2718
102 128 26
117 143 119
138 159 236
155 179 366
194 211 540
256 251 752
298 305 1014
354 391 1315
403 477 1603
459 571 1882
500 631 2100
519 673 2276
540 707 2413
553 733 2501
558 748 2558
566 776 2584
570 819 2552
125 220 49
129 227 121
133 233 223
159 251 350
196 288 516
262 331 727
305 394 976
364 510 1274
429 613 1561
473 695 1827
510 760 2044
539 809 2211
561 846 2347
574 871 2437
582 889 2496
586 901 2521
577 897 2487
160 332 70
164 336 136
167 342 229
177 353 345
211 388 509
266 439 711
320 508 956
374 611 1248
440 709 1530
481 789 1788
519 852 2001
549 898 2167
573 936 2299
585 961 2389
593 978 2450
596 986 2473
586 985 2436
216 471 99
220 477 170
224 484 258
232 497 364
249 521 507
285 574 707
340 646 951
400 740 1238
457 830 1512
498 906 1765
535 963 1969
565 1012 2139
584 1048 2269
599 1075 2359
609 1093 2419
613 1105 2444
604 1104 2418
285 646 135
288 651 210
294 661 294
302 676 395
315 698 529
337 739 719
376 814 963
439 903 1240
491 987 1513
530 1058 1759
565 1112 1960
594 1159 2130
610 1192 2257
625 1218 2350
635 1235 2413
638 1245 2443
633 1247 2422
373 875 194
376 881 257
381 894 347
387 906 446
399 929 578
414 961 756
445 1022 981
491 1108 1264
540 1184 1531
575 1248 1773
607 1298 1972
632 1339 2139
652 1368 2268
668 1392 2363
677 1405 2427
681 1415 2461
679 1417 2457
459 1114 237
458 1119 304
464 1131 394
472 1146 498
479 1169 634
490 1199 808
509 1244 1025
553 1311 1287
595 1384 1555
621 1440 1792
651 1489 1994
677 1527 2163
702 1557 2296
715 1577 2392
721 1588 2461
722 1591 2500
721 1589 2510
538 1344 290
539 1346 351
545 1361 452
556 1377 560
561 1396 696
572 1431 869
588 1472 1084
613 1518 1328
641 1577 1581
673 1633 1822
702 1674 2020
727 1710 2188
747 1740 2326
757 1757 2422
762 1765 2491
764 1767 2537
765 1768 2574
599 1529 335
597 1526 370
610 1547 495
617 1563 610
621 1588 751
630 1618 925
647 1651 1132
666 1693 1370
684 1735 1608
715 1786 1842
741 1826 2044
763 1857 2208
778 1885 2345
786 1898 2444
793 1907 2518
794 1907 2568
804 1924 2629
656 1682 378
649 1670 404
655 1685 508
659 1708 644
660 1731 790
671 1763 967
694 1799 1176
706 1834 1407
722 1870 1636
748 1915 1863
769 1954 2064
790 1984 2228
805 2008 2365
815 2020 2463
821 2026 2540
828 2034 2605
839 2053 2667
698 1803 412
688 1788 435
686 1797 520
690 1822 670
694 1846 820
703 1881 1005
729 1916 1213
742 1950 1440
758 1989 1665
775 2021 1883
791 2058 2079
812 2086 2245
830 2109 2382
839 2119 2480
849 2130 2566
859 2146 2637
869 2162 2700
717 1878 429
705 1859 447
700 1860 513
707 1894 684
711 1921 840
721 1957 1030
747 1990 1237
763 2027 1461
775 2061 1688
790 2092 1898
808 2129 2094
826 2154 2254
844 2176 2390
860 2198 2498
871 2214 2587
879 2227 2657
888 2245 2722
718 1915 431
709 1899 451
700 1889 494
710 1936 693
715 1964 855
727 2001 1046
756 2040 1259
769 2073 1481
781 2109 1705
798 2141 1911
817 2176 2105
835 2205 2264
857 2236 2404
874 2263 2516
885 2281 2604
893 2296 2680
901 2309 2738
704 1917 420
696 1903 440
693 1906 504
702 1950 709
708 1982 878
723 2020 1072
751 2058 1285
764 2096 1508
779 2131 1724
799 2170 1937
819 2208 2126
846 2250 2287
870 2289 2430
886 2316 2538
896 2335 2626
904 2349 2695
911 2362 2751
669 1875 389
664 1869 413
672 1895 549
680 1940 743
692 1981 926
720 2024 1127
737 2061 1341
755 2105 1555
780 2153 1772
809 2211 1988
839 2265 2178
866 2310 2333
886 2345 2467
899 2367 2567
911 2391 2659
917 2402 2714
923 2411 2770
348 13 4
326 27 116
298 50 248
298 73 383
320 100 582
360 134 800
392 173 1061
439 216 1368
495 257 1667
550 297 1980
612 328 2234
663 354 2443
695 374 2625
700 400 2767
695 423 2848
678 414 2883
669 412 2907
299 71 15
309 94 110
287 112 238
289 134 376
313 160 575
343 180 795
369 211 1053
408 252 1353
459 293 1652
513 338 1959
555 378 2202
578 387 2393
596 402 2544
606 420 2649
616 457 2723
610 485 2750
557 432 2698
234 134 28
260 159 134
270 183 249
251 198 377
260 225 546
299 251 759
332 284 1019
377 331 1311
423 425 1595
468 486 1871
511 549 2091
544 626 2266
560 647 2402
571 676 2482
580 707 2539
587 746 2555
588 801 2503
200 221 50
218 238 133
195 241 227
200 257 351
235 293 516
295 329 727
336 388 974
392 489 1271
454 589 1557
499 675 1819
537 742 2032
563 792 2196
584 827 2327
596 854 2414
605 880 2469
606 886 2484
600 889 2435
201 334 70
206 342 142
206 346 234
214 356 344
248 392 507
301 439 715
353 506 957
404 606 1248
471 705 1528
510 785 1783
546 847 1991
576 894 2155
601 933 2283
612 956 2368
619 974 2424
619 984 2437
606 984 2388
252 473 98
257 480 166
261 488 257
270 502 369
284 526 510
319 577 712
372 650 958
432 743 1244
491 834 1517
529 909 1765
566 969 1967
595 1016 2131
613 1051 2256
624 1073 2340
634 1095 2397
635 1107 2417
628 1108 2382
321 649 134
325 656 207
330 668 295
337 682 400
348 703 531
372 745 728
411 822 972
473 913 1253
524 996 1522
562 1064 1762
599 1124 1964
625 1168 2125
641 1201 2254
653 1223 2338
662 1241 2396
665 1253 2422
662 1258 2402
402 872 185
407 882 259
413 895 348
421 912 450
432 934 582
447 969 766
478 1032 995
525 1118 1278
573 1195 1544
607 1257 1781
641 1311 1980
665 1351 2142
686 1381 2271
699 1402 2357
708 1418 2419
712 1429 2455
715 1439 2469
486 1109 228
487 1117 295
494 1133 391
503 1150 502
510 1174 641
522 1208 819
543 1255 1042
587 1323 1304
626 1395 1568
656 1454 1806
687 1504 2007
710 1539 2169
733 1568 2298
745 1588 2390
753 1602 2458
755 1608 2498
763 1623 2540
564 1337 284
567 1343 337
573 1361 447
586 1381 564
594 1405 704
602 1438 883
622 1483 1101
648 1531 1346
676 1591 1601
708 1646 1836
737 1689 2033
760 1723 2197
779 1753 2333
788 1770 2426
794 1779 2495
799 1787 2548
808 1805 2606
627 1528 333
625 1524 363
635 1544 479
646 1566 608
650 1590 754
661 1626 938
682 1665 1150
700 1708 1392
719 1751 1627
749 1801 1859
775 1842 2061
798 1874 2224
811 1901 2359
820 1917 2452
827 1925 2527
838 1942 2597
850 1963 2661
681 1677 373
675 1669 400
680 1679 487
687 1709 640
690 1736 796
702 1771 979
727 1809 1194
738 1847 1425
756 1885 1656
782 1930 1885
804 1971 2083
824 2001 2244
840 2025 2379
851 2040 2476
864 2058 2564
878 2080 2639
887 2094 2700
724 1800 409
714 1786 429
711 1784 480
720 1823 660
723 1850 823
733 1888 1016
762 1927 1230
775 1965 1458
790 2000 1686
810 2038 1903
828 2076 2103
848 2105 2264
867 2129 2401
882 2149 2502
897 2173 2597
906 2190 2671
915 2204 2733
740 1869 424
733 1858 445
725 1847 479
734 1891 670
741 1925 843
752 1966 1041
780 2001 1256
796 2040 1485
809 2076 1710
826 2110 1923
846 2149 2120
867 2179 2282
887 2208 2421
904 2237 2529
915 2256 2620
926 2275 2698
933 2288 2754
747 1914 430
737 1899 449
731 1891 482
739 1937 682
745 1970 857
760 2013 1063
790 2053 1281
803 2090 1507
816 2127 1730
836 2162 1944
857 2203 2137
884 2246 2304
905 2282 2445
920 2308 2556
931 2326 2644
941 2345 2716
946 2353 2771
734 1919 420
727 1911 443
723 1906 479
734 1958 701
742 1997 887
762 2041 1094
789 2080 1313
803 2122 1538
820 2161 1759
847 2209 1978
875 2263 2171
899 2306 2337
923 2349 2478
935 2369 2581
944 2386 2664
952 2399 2738
958 2408 2792
706 1895 399
701 1886 416
707 1907 525
716 1958 744
730 2007 945
760 2049 1151
783 2098 1377
808 2157 1597
837 2215 1817
870 2274 2035
896 2330 2230
922 2375 2384
942 2407 2518
951 2425 2614
961 2445 2697
967 2454 2763
972 2461 2813
533 31 5
522 30 91
480 55 246
454 87 384
456 106 578
479 135 803
518 176 1071
570 219 1382
621 260 1684
688 300 1997
753 331 2254
808 357 2463
841 375 2643
856 392 2788
856 400 2870
839 401 2908
831 401 2930
481 89 12
479 114 104
464 122 234
440 145 371
446 171 572
470 189 798
496 215 1056
532 254 1362
575 294 1659
619 335 1962
667 364 2204
709 388 2402
744 401 2551
748 410 2650
749 414 2718
731 413 2736
