滤镜资源/Professional Luts Collection/Triune-Digital-Cinematic-LUTs/3D LUTs (3DL)/REDLOGFILM/The Grand Budapest Hotel - REDlogFilm.3dl
# Created by Benjamin (IWLTBAP) : http://luts.iwltbap.com
# Copyright: (C) Copyright 2016 Triune Films and IWLTBAP
# Blockbuster LUTs Pack
0 256 512 768 1023
0 0 0
150 99 586
371 390 1675
513 590 2566
566 741 2831
122 330 71
179 388 505
414 717 1535
551 944 2322
572 995 2484
436 1123 249
457 1175 634
570 1384 1552
679 1555 2303
696 1580 2511
682 1818 421
678 1859 822
737 1992 1658
812 2116 2390
833 2134 2675
645 1874 390
665 1971 908
743 2123 1744
841 2292 2428
880 2360 2734
812 51 1
697 120 594
807 265 1711
1045 378 2666
1058 404 2956
497 368 84
495 453 546
561 683 1540
688 932 2277
688 1011 2368
595 1130 200
614 1209 649
729 1448 1614
839 1630 2341
884 1718 2648
838 1852 425
843 1922 833
915 2097 1750
1009 2264 2502
1057 2348 2849
839 1989 442
867 2118 966
993 2381 1896
1096 2566 2630
1121 2625 2937
2302 121 61
2331 61 450
2044 307 1812
2108 398 2788
2146 420 3050
2110 517 23
2124 609 486
1905 783 1750
1736 915 2549
1531 1032 2843
1965 1485 345
2097 1549 544
2006 1869 1926
1582 1951 2802
1425 2005 3073
2291 2430 614
2380 2490 772
1953 2742 1908
1651 2829 2899
1619 2828 3228
2476 2700 671
2498 2832 874
1897 3028 2001
1703 3093 2975
1698 3108 3297
3332 309 103
3305 189 478
3039 359 1900
2936 417 2859
2450 336 2499
3212 544 61
3162 482 409
2972 651 1750
2817 836 2573
2814 1020 3006
3299 1715 249
3381 1781 412
3534 2044 1854
3395 2320 3149
3302 2360 3562
3466 2688 668
3533 2770 830
3805 3213 2079
3795 3587 3450
3670 3644 3918
3553 2972 751
3598 3085 924
3815 3549 2266
3775 3875 3495
3427 3864 3907
3679 509 223
3612 505 640
3391 537 1946
2744 363 2242
2751 365 2559
3416 517 71
3318 436 449
3194 683 1796
3100 880 2627
3156 1108 3080
3556 1764 254
3638 1863 430
3805 2121 1904
3703 2380 3192
3669 2459 3618
3705 2697 636
3712 2805 837
4010 3225 2097
4090 3624 3462
4057 3694 3981
3721 3004 762
3748 3119 938
4008 3620 2436
4080 3918 3487
4091 4057 4059
