滤镜资源/Professional Luts Collection/Triune-Digital-Cinematic-LUTs/3D LUTs (3DL)/REDLOGFILM/The Lord of the Rings - REDlogFilm.3dl
# Created by Benjamin (IWLTBAP) : http://luts.iwltbap.com
# Copyright: (C) Copyright 2016 Triune Films and IWLTBAP
# Blockbuster LUTs Pack
0 128 256 384 512 640 768 896 1023
21 19 18
26 24 79
51 34 281
143 114 638
221 181 1098
382 228 1914
595 335 2656
693 395 2998
711 410 3096
26 88 23
32 108 102
82 166 319
170 247 675
245 314 1161
390 323 1977
514 377 2454
558 404 2638
562 413 2697
80 326 64
104 349 180
141 388 383
219 472 735
267 505 1331
382 516 1932
468 548 2274
512 574 2466
526 594 2538
214 701 199
239 729 314
274 778 519
293 854 862
330 865 1370
432 892 1863
522 937 2235
578 971 2461
597 995 2550
409 1227 393
432 1288 497
460 1390 660
488 1419 974
545 1460 1480
640 1511 1997
724 1562 2390
770 1582 2619
786 1584 2727
707 1952 616
728 1987 706
747 2014 863
779 2053 1178
838 2116 1691
902 2162 2204
968 2198 2586
1007 2207 2825
1015 2188 2948
943 2457 812
946 2460 887
959 2479 1038
995 2525 1353
1053 2591 1856
1103 2633 2354
1160 2671 2747
1187 2665 2978
1214 2677 3145
1064 2733 919
1061 2726 985
1074 2743 1138
1108 2787 1454
1161 2847 1947
1214 2898 2434
1237 2897 2782
1285 2930 3046
1320 2954 3233
1097 2836 949
1090 2824 1018
1103 2839 1181
1148 2900 1525
1202 2961 2015
1261 3023 2497
1313 3077 2866
1371 3135 3136
1397 3148 3298
91 22 21
120 27 90
172 55 307
244 137 660
326 208 1156
498 238 2045
675 336 2694
727 372 2901
749 390 3011
131 113 29
150 138 127
198 192 346
275 274 700
339 305 1275
485 332 2030
615 396 2540
684 440 2805
691 453 2879
193 349 89
216 377 210
247 420 412
318 500 772
354 500 1391
480 527 2026
586 577 2452
640 609 2675
634 629 2697
326 729 230
344 763 347
371 813 545
364 870 878
413 894 1453
531 932 1999
622 977 2374
672 1009 2583
693 1043 2668
519 1298 416
531 1370 501
549 1443 665
571 1479 1000
627 1512 1539
734 1573 2093
813 1614 2478
857 1631 2703
888 1654 2843
812 2035 644
826 2071 731
839 2090 881
869 2125 1208
922 2176 1737
991 2225 2272
1053 2250 2654
1092 2263 2894
1135 2297 3077
1019 2483 825
1041 2541 913
1046 2545 1054
1078 2584 1376
1137 2645 1900
1186 2683 2405
1235 2706 2784
1287 2743 3049
1329 2775 3234
1129 2743 925
1142 2782 999
1156 2800 1152
1196 2848 1488
1245 2901 1989
1299 2947 2489
1350 2992 2869
1402 3032 3134
1440 3061 3314
1163 2849 957
1185 2902 1043
1208 2932 1221
1254 2991 1581
1324 3074 2097
1395 3152 2597
1448 3207 2966
1499 3253 3224
1522 3261 3385
309 36 31
330 57 140
372 99 349
445 181 703
518 181 1345
699 253 2196
785 322 2595
830 362 2813
852 383 2942
342 166 62
359 187 180
400 230 387
479 319 750
516 294 1405
640 339 2092
743 406 2547
794 446 2780
780 456 2812
404 396 134
426 421 252
468 469 460
486 514 827
515 509 1449
621 546 2046
710 598 2447
755 635 2667
761 670 2744
540 782 274
561 812 385
549 860 551
500 888 892
564 924 1486
676 978 2053
764 1031 2445
817 1074 2678
854 1117 2827
713 1429 427
709 1471 521
701 1507 683
723 1544 1038
783 1591 1609
887 1656 2170
962 1698 2565
1017 1734 2818
1063 1771 3002
962 2091 677
977 2152 762
993 2174 922
1024 2213 1264
1081 2270 1810
1145 2318 2340
1212 2358 2735
1277 2409 3018
1319 2443 3204
1174 2574 877
1185 2617 948
1201 2637 1105
1241 2686 1448
1295 2746 1973
1352 2796 2489
1416 2850 2887
1479 2905 3173
1517 2932 3355
1287 2846 983
1294 2876 1048
1315 2900 1209
1354 2951 1556
1413 3020 2072
1491 3105 2598
1549 3163 2992
1601 3206 3266
1635 3231 3445
1325 2965 1020
1336 2997 1090
1374 3048 1285
1440 3142 1667
1524 3248 2207
1605 3337 2725
1659 3392 3105
1700 3426 3359
1722 3436 3517
672 138 128
693 157 236
729 193 436
834 200 808
963 186 1521
1019 273 2108
1080 349 2526
1102 382 2745
1070 379 2809
703 264 165
724 290 279
773 329 483
868 302 846
922 301 1500
964 366 2128
1000 426 2538
1010 458 2751
951 464 2773
770 490 230
801 518 341
859 534 519
887 512 871
894 533 1488
911 593 2067
944 647 2455
958 684 2673
966 724 2806
934 892 309
951 910 388
950 919 555
940 935 925
937 997 1529
935 1056 2096
990 1109 2496
1028 1155 2742
1080 1205 2939
1153 1557 500
1155 1596 577
1155 1614 755
1134 1638 1120
1080 1693 1679
1128 1762 2242
1195 1819 2650
1268 1879 2945
1324 1931 3148
1415 2261 792
1421 2304 864
1411 2318 1019
1390 2359 1378
1345 2409 1900
1404 2476 2448
1493 2552 2878
1568 2618 3182
1612 2653 3377
1615 2773 1004
1623 2798 1072
1600 2812 1213
1531 2839 1546
1564 2914 2081
1641 3000 2625
1712 3070 3044
1775 3123 3336
1814 3153 3528
1735 3068 1122
1720 3066 1177
1693 3085 1314
1630 3126 1654
1714 3242 2215
1803 3343 2761
1859 3400 3161
1909 3444 3441
1939 3463 3618
1803 3209 1174
1789 3223 1235
1770 3278 1417
1749 3367 1805
1828 3475 2356
1903 3559 2876
1958 3613 3261
1993 3645 3515
2020 3661 3682
1158 256 245
1221 282 359
1428 301 558
1568 314 932
1575 315 1500
1620 389 2096
1669 458 2531
1677 488 2765
1650 488 2858
1239 389 288
1366 407 393
1505 415 579
1595 413 949
1623 407 1558
1644 467 2147
1650 512 2538
1617 522 2736
1542 523 2812
1452 598 320
1527 613 426
1582 625 607
1616 629 973
1630 649 1561
1658 716 2132
1662 766 2522
1635 798 2752
1628 846 2943
1604 1020 423
1679 1034 505
1702 1056 690
1712 1102 1077
1732 1160 1646
1773 1244 2217
1802 1323 2635
1810 1375 2919
1802 1430 3126
1867 1727 670
1920 1764 744
1946 1795 916
1964 1845 1308
1987 1924 1872
2037 2031 2439
2076 2123 2886
2071 2173 3180
2021 2209 3377
2192 2500 985
2235 2530 1064
2261 2565 1204
2278 2617 1597
2298 2699 2162
2298 2776 2691
2309 2862 3126
2280 2907 3416
2249 2937 3608
2420 3033 1211
2455 3055 1283
2468 3084 1398
2489 3149 1803
2506 3244 2368
2488 3322 2885
2432 3360 3271
2431 3413 3563
2401 3428 3740
2547 3337 1335
2574 3355 1402
2582 3391 1518
2614 3486 1944
2624 3581 2502
2579 3643 2993
2524 3678 3372
2510 3708 3637
2482 3707 3795
2632 3498 1397
2653 3536 1472
2665 3603 1624
2689 3702 2072
2692 3790 2617
2643 3845 3093
2600 3877 3457
2590 3896 3702
2632 3873 3828
2051 475 472
2134 505 577
2201 534 742
2225 545 1055
2267 560 1610
2311 575 2200
2370 637 2665
2425 689 2978
1946 476 2542
2087 568 484
2237 610 609
2294 625 765
2300 625 1082
2294 620 1628
2271 605 2153
2233 619 2489
2155 605 2629
2158 626 2804
2148 760 526
2292 785 631
2336 809 799
2348 823 1133
2359 846 1686
2362 854 2217
2360 892 2596
2368 934 2869
2394 995 3078
2322 1187 648
2421 1207 734
2464 1242 902
2488 1310 1279
2511 1364 1822
2538 1426 2361
2588 1506 2796
2618 1567 3094
2634 1631 3308
2644 1923 901
2715 1963 989
2751 2004 1136
2789 2079 1533
2822 2180 2106
2861 2265 2645
2915 2355 3084
2963 2434 3399
2986 2500 3615
2976 2699 1196
3030 2732 1278
3068 2772 1400
3111 2851 1807
3123 2936 2370
3146 3017 2901
3184 3096 3321
3218 3161 3622
3228 3206 3797
3177 3223 1392
3236 3251 1472
3267 3286 1589
3290 3366 1976
3303 3453 2541
3314 3520 3058
3309 3558 3438
3323 3606 3717
3358 3624 3857
3292 3521 1506
3353 3550 1585
3378 3607 1711
3394 3688 2097
3393 3762 2646
3390 3814 3144
3378 3846 3511
3368 3865 3760
3413 3852 3888
3364 3686 1568
3424 3747 1659
3430 3804 1782
3439 3883 2210
3436 3951 2746
3436 3995 3228
3419 4008 3567
3419 4008 3788
3424 3982 3903
2689 702 696
2705 709 770
2731 720 907
2768 736 1200
2789 744 1719
2875 777 2331
2961 809 2824
2956 829 3078
2366 577 2601
2609 737 664
2794 796 791
2789 794 915
2764 782 1197
2742 772 1696
2702 749 2179
2623 710 2475
2613 721 2698
2643 750 2894
2648 892 691
2792 927 797
2845 952 951
2844 963 1260
2849 979 1781
2833 975 2281
2853 997 2675
2877 1039 2963
2907 1106 3169
2849 1325 819
2954 1349 908
2987 1385 1060
3016 1456 1425
3051 1523 1961
3086 1588 2498
3114 1637 2911
3152 1697 3211
3188 1769 3431
3214 2070 1079
3267 2110 1164
3301 2148 1291
3351 2237 1692
3402 2363 2279
3436 2443 2809
3466 2507 3220
3500 2566 3517
3528 2632 3730
3518 2826 1352
3580 2864 1437
3621 2909 1560
3664 3003 1954
3685 3099 2521
3694 3168 3040
3694 3211 3421
3710 3254 3698
3710 3312 3847
3705 3333 1530
3766 3361 1611
3796 3411 1732
3822 3495 2098
3819 3566 2644
3797 3606 3134
3783 3633 3500
3783 3660 3758
3793 3692 3898
3811 3621 1629
3864 3659 1710
3885 3715 1830
3887 3782 2179
3858 3826 2698
3838 3864 3182
3829 3892 3549
3808 3898 3782
3830 3907 3926
3870 3792 1684
3903 3837 1763
3916 3893 1880
3911 3956 2273
3881 3998 2781
3860 4026 3248
3838 4038 3584
3833 4041 3811
3874 4041 3945
3040 824 817
3034 821 880
3050 828 1006
3074 839 1283
3100 849 1785
3268 918 2441
3274 916 2865
2708 667 2580
2649 651 2663
2916 837 766
3075 888 881
3056 879 996
3026 865 1269
2967 839 1725
2875 795 2147
2878 792 2499
2915 805 2766
2932 825 2954
2941 974 784
3074 1009 887
3128 1034 1037
3110 1034 1333
3104 1036 1829
3126 1061 2340
3155 1086 2741
3183 1118 3024
3226 1196 3243
3176 1418 926
3265 1438 1010
3279 1469 1146
3317 1549 1518
3360 1618 2049
3407 1689 2590
3438 1738 2997
3463 1778 3282
3513 1864 3509
3528 2141 1172
3572 2181 1254
3606 2224 1376
3672 2336 1795
3727 2463 2376
3762 2546 2904
3787 2604 3308
3799 2639 3580
3821 2705 3779
3838 2894 1441
3886 2932 1524
3910 2983 1651
3939 3085 2065
3971 3187 2628
3994 3253 3120
3995 3286 3491
3987 3305 3739
3956 3361 3871
3968 3370 1608
3975 3402 1695
3987 3452 1830
4013 3541 2249
4040 3616 2779
4047 3668 3239
4047 3687 3557
4039 3692 3784
4020 3718 3917
4009 3632 1705
4020 3677 1795
4032 3726 1922
4047 3795 2335
4047 3856 2901
4047 3899 3348
4047 3913 3617
4047 3916 3803
4047 3933 3949
4037 3801 1766
4046 3845 1848
4047 3886 2011
4047 3952 2557
4047 4002 3054
4047 4030 3457
4047 4048 3726
4047 4060 3920
4047 4064 4018
3222 882 875
3205 874 932
3207 876 1054
3172 860 1305
3220 881 1798
2773 682 1980
2780 682 2304
2816 695 2548
2854 710 2735
3051 873 804
3157 902 896
3095 874 998
3047 854 1274
2996 831 1708
3031 843 2185
3072 857 2559
3096 864 2813
3135 881 3011
3075 1005 820
3172 1036 909
3237 1063 1069
3250 1074 1385
3275 1098 1884
3309 1125 2397
3335 1146 2780
3368 1190 3071
3415 1262 3286
3324 1466 970
3415 1494 1056
3451 1534 1207
3503 1615 1586
3555 1694 2124
3603 1764 2655
3639 1820 3063
3663 1862 3346
3710 1943 3563
3700 2191 1225
3749 2235 1308
3796 2293 1443
3858 2405 1867
3904 2533 2449
3940 2622 2973
3960 2670 3361
3973 2701 3627
3983 2757 3802
3946 2904 1477
3961 2979 1591
3969 3016 1718
4001 3138 2200
4034 3245 2746
4060 3317 3194
4071 3333 3504
4079 3343 3730
4086 3393 3883
4020 3379 1673
4028 3414 1762
4040 3464 1906
4069 3561 2376
4094 3638 2894
4095 3683 3329
4095 3728 3629
4095 3762 3815
4095 3741 3928
4060 3637 1781
4070 3675 1871
4083 3726 2024
4095 3797 2509
4095 3863 3068
4095 3909 3482
4095 3933 3736
4095 3982 3941
4095 3972 4005
4086 3795 1849
4095 3833 1947
4095 3878 2146
4095 3939 2711
4095 3992 3235
4095 4029 3616
4095 4054 3854
4095 4074 3997
4095 4090 4087
