滤镜资源/Professional Luts Collection/Triune-Digital-Cinematic-LUTs/3D LUTs (3DL)/REDLOGFILM/The Grand Budapest Hotel - REDlogFilm.3dl
# Created by Benjamin (IWLTBAP) : http://luts.iwltbap.com
# Copyright: (C) Copyright 2016 Triune Films and IWLTBAP
# Blockbuster LUTs Pack
0 128 256 384 512 640 768 896 1023
0 0 0
66 41 257
150 99 586
251 173 1063
371 390 1675
448 477 2208
513 590 2566
566 755 2759
566 741 2831
48 126 24
80 152 233
156 207 540
271 330 1014
397 559 1615
487 710 2114
528 774 2426
550 816 2579
555 836 2597
122 330 71
130 340 230
179 388 505
293 519 960
414 717 1535
495 858 2011
551 944 2322
574 988 2479
572 995 2484
254 645 139
264 661 294
286 701 527
351 817 963
466 989 1514
541 1114 1965
588 1194 2273
615 1236 2433
614 1247 2450
436 1123 249
442 1136 402
457 1175 634
486 1248 1025
570 1384 1552
628 1488 1997
679 1555 2303
698 1585 2473
696 1580 2511
583 1543 345
591 1557 505
601 1595 750
629 1660 1128
665 1742 1607
720 1830 2044
759 1894 2358
773 1911 2529
771 1899 2604
682 1818 421
670 1812 536
678 1859 822
709 1924 1204
737 1992 1658
771 2062 2078
812 2116 2390
823 2122 2558
833 2134 2675
704 1931 440
689 1918 536
697 1970 852
734 2043 1247
760 2109 1697
789 2166 2085
822 2211 2376
847 2244 2571
862 2267 2710
645 1874 390
648 1891 555
665 1971 908
710 2050 1320
743 2123 1744
791 2216 2140
841 2292 2428
868 2341 2614
880 2360 2734
348 13 4
298 50 248
320 100 582
392 173 1061
495 257 1667
612 328 2234
695 374 2625
695 423 2848
669 412 2907
234 134 28
270 183 249
260 225 546
332 284 1019
423 425 1595
511 549 2091
560 647 2402
580 707 2539
588 801 2503
201 334 70
206 346 234
248 392 507
353 506 957
471 705 1528
546 847 1991
601 933 2283
619 974 2424
606 984 2388
321 649 134
330 668 295
348 703 531
411 822 972
524 996 1522
599 1124 1964
641 1201 2254
662 1241 2396
662 1258 2402
486 1109 228
494 1133 391
510 1174 641
543 1255 1042
626 1395 1568
687 1504 2007
733 1568 2298
753 1602 2458
763 1623 2540
627 1528 333
635 1544 479
650 1590 754
682 1665 1150
719 1751 1627
775 1842 2061
811 1901 2359
827 1925 2527
850 1963 2661
724 1800 409
711 1784 480
723 1850 823
762 1927 1230
790 2000 1686
828 2076 2103
867 2129 2401
897 2173 2597
915 2204 2733
747 1914 430
731 1891 482
745 1970 857
790 2053 1281
816 2127 1730
857 2203 2137
905 2282 2445
931 2326 2644
946 2353 2771
706 1895 399
707 1907 525
730 2007 945
783 2098 1377
837 2215 1817
896 2330 2230
942 2407 2518
961 2445 2697
972 2461 2813
812 51 1
790 40 208
697 120 594
714 179 1091
807 265 1711
943 336 2278
1045 378 2666
1086 403 2896
1058 404 2956
676 181 17
665 227 220
602 269 558
586 311 1040
608 345 1608
649 411 2096
696 494 2416
676 575 2531
654 764 2427
497 368 84
530 416 259
495 453 546
456 509 976
561 683 1540
633 835 1995
688 932 2277
704 986 2406
688 1011 2368
469 674 119
481 709 283
465 728 535
512 845 992
624 1027 1552
699 1158 1990
740 1242 2273
761 1287 2412
778 1328 2490
595 1130 200
598 1153 353
614 1209 649
652 1305 1080
729 1448 1614
794 1558 2049
839 1630 2341
860 1673 2510
884 1718 2648
733 1561 331
731 1563 405
756 1643 765
799 1734 1200
835 1824 1684
889 1919 2117
930 1986 2421
966 2042 2632
984 2081 2771
838 1852 425
827 1839 483
843 1922 833
885 2015 1280
915 2097 1750
959 2178 2173
1009 2264 2502
1034 2311 2711
1057 2348 2849
865 1979 454
855 1966 505
868 2052 865
913 2152 1333
948 2243 1799
1003 2347 2224
1057 2438 2553
1076 2483 2765
1095 2514 2898
839 1989 442
834 1984 492
867 2118 966
940 2259 1434
993 2381 1896
1049 2489 2320
1096 2566 2630
1112 2606 2819
1121 2625 2937
1507 78 7
1509 21 119
1448 77 569
1321 207 1122
1337 276 1774
1418 347 2344
1537 387 2718
1601 410 2942
1581 411 2996
1360 225 5
1362 267 165
1323 249 517
1189 349 1074
1108 368 1668
1068 401 2141
1027 434 2424
938 461 2528
755 764 2348
1179 445 53
1233 491 200
1213 538 536
1120 631 1081
959 692 1650
808 792 2053
831 929 2308
837 1018 2412
843 1078 2460
1005 778 162
1081 826 280
1131 907 589
1030 982 1088
831 1052 1623
862 1217 2052
896 1307 2326
913 1362 2471
940 1420 2618
1057 1267 248
1101 1294 323
1092 1362 604
921 1397 1077
920 1546 1689
965 1650 2121
998 1725 2413
1033 1785 2631
1058 1839 2782
1126 1731 316
1158 1750 380
1115 1787 606
1031 1872 1206
1030 1963 1759
1072 2054 2201
1126 2147 2543
1160 2207 2769
1183 2251 2921
1182 2044 366
1203 2051 421
1134 2065 633
1094 2171 1321
1110 2251 1822
1162 2360 2275
1220 2456 2631
1242 2511 2858
1257 2539 2998
1215 2185 387
1216 2190 443
1151 2200 659
1113 2316 1381
1174 2443 1879
1222 2558 2336
1269 2638 2682
1291 2692 2910
1303 2713 3041
1283 2251 396
1258 2249 442
1185 2333 834
1160 2461 1494
1218 2585 1982
1265 2689 2429
1301 2760 2755
1320 2802 2958
1331 2816 3071
2302 121 61
2315 79 155
2331 61 450
2166 192 1147
2044 307 1812
2049 355 2398
2108 398 2788
2165 419 2995
2146 420 3050
2219 275 32
2217 240 147
2215 163 415
2064 276 1097
1910 364 1709
1865 395 2194
1843 419 2479
1764 422 2569
1548 453 2553
2110 517 23
2150 516 100
2124 609 486
2068 613 1059
1905 783 1750
1813 849 2242
1736 915 2549
1635 972 2703
1531 1032 2843
1999 930 124
2044 953 187
2147 1016 494
2062 1111 1093
1935 1268 1841
1832 1365 2373
1718 1429 2698
1571 1444 2884
1442 1469 2983
1965 1485 345
2029 1519 405
2097 1549 544
2132 1713 1189
2006 1869 1926
1774 1926 2469
1582 1951 2802
1494 1973 2987
1425 2005 3073
2126 2049 524
2198 2082 590
2230 2113 704
2198 2251 1232
1976 2402 1924
1655 2437 2471
1589 2503 2873
1568 2512 3074
1543 2505 3161
2291 2430 614
2362 2461 680
2380 2490 772
2291 2628 1258
1953 2742 1908
1678 2774 2469
1651 2829 2899
1645 2845 3129
1619 2828 3228
2392 2622 654
2446 2643 713
2450 2681 805
2322 2849 1301
1947 2927 1922
1705 2948 2481
1679 2992 2915
1681 3015 3156
1648 2990 3250
2476 2700 671
2508 2748 734
2498 2832 874
2310 3006 1440
1897 3028 2001
1721 3054 2569
1703 3093 2975
1708 3115 3191
1698 3108 3297
2922 189 89
2921 144 188
2942 96 410
2852 164 1092
2638 353 1847
2600 378 2431
2614 402 2821
2661 426 3044
2142 335 2504
2856 314 72
2840 263 165
2830 167 385
2732 224 1067
2505 393 1748
2432 409 2198
2369 403 2446
2279 395 2512
2248 407 2620
2834 546 42
2846 544 112
2820 553 427
2794 513 988
2623 731 1772
2501 838 2261
2424 884 2554
2386 949 2782
2360 1053 2975
2831 1007 94
2865 1028 156
2958 1034 350
2897 1197 1076
2802 1260 1789
2681 1482 2448
2618 1521 2828
2560 1567 3076
2497 1620 3240
2848 1642 257
2920 1681 318
2993 1695 422
3144 1812 1102
3031 1991 1879
2938 2159 2640
2835 2235 3103
2761 2262 3351
2681 2290 3496
2965 2245 541
3057 2292 597
3091 2328 693
3244 2428 1128
3245 2694 2010
3157 2906 2786
3013 2993 3294
2883 2984 3536
2730 2960 3646
3086 2633 687
3155 2658 741
3183 2692 832
3295 2844 1235
3270 3098 2057
3184 3320 2814
2998 3379 3312
2840 3376 3563
2617 3322 3669
3160 2812 727
3221 2836 780
3242 2894 880
3345 3083 1322
3309 3327 2135
3190 3509 2826
2960 3538 3292
2724 3514 3541
2401 3430 3626
3204 2894 738
3265 2953 804
3266 3014 907
3366 3251 1490
3310 3476 2282
3171 3615 2906
2910 3616 3325
2611 3565 3531
2189 3437 3566
3332 309 103
3319 319 265
3305 189 478
3260 214 1115
3039 359 1900
2946 417 2492
2936 417 2859
2947 445 3054
2450 336 2499
3233 364 83
3202 334 175
3167 189 392
3069 216 1057
2835 368 1753
2704 431 2169
2626 414 2386
2587 408 2527
2592 411 2666
3212 544 61
3201 527 132
3162 482 409
3126 427 1000
2972 651 1750
2831 801 2244
2817 836 2573
2799 867 2809
2814 1020 3006
3264 1053 93
3284 1074 153
3359 1049 299
3299 1224 1063
3252 1252 1720
3153 1475 2450
3095 1572 2876
3064 1579 3120
3045 1644 3296
3299 1715 249
3341 1755 311
3381 1781 412
3581 1838 1039
3534 2044 1854
3453 2114 2542
3395 2320 3149
3342 2305 3401
3302 2360 3562
3392 2325 498
3441 2356 557
3463 2400 661
3677 2537 1108
3773 2760 1955
3763 2955 2732
3671 3071 3309
3619 3152 3662
3560 3164 3816
3466 2688 668
3515 2718 721
3533 2770 830
3705 2970 1274
3805 3213 2079
3832 3430 2840
3795 3587 3450
3744 3647 3774
3670 3644 3918
3517 2869 727
3560 2910 791
3575 2966 895
3718 3184 1387
3805 3415 2144
3834 3622 2877
3803 3784 3482
3732 3835 3786
3620 3818 3931
3553 2972 751
3580 3022 821
3598 3085 924
3752 3342 1562
3815 3549 2266
3833 3755 3009
3775 3875 3495
3629 3890 3752
3427 3864 3907
3553 417 138
3532 450 332
3503 372 563
3492 359 1130
3302 513 1958
3170 549 2561
3102 443 2873
2689 363 2476
2642 357 2535
3432 423 87
3375 382 181
3312 211 423
3201 219 1083
2950 355 1738
2781 424 2100
2762 421 2369
2757 421 2550
2760 424 2700
3394 550 66
3370 533 134
3305 482 430
3243 413 1057
3084 610 1764
3001 786 2256
2993 836 2598
2994 888 2834
3031 1036 3041
3453 1083 95
3459 1108 154
3515 1096 296
3467 1264 1090
3434 1271 1716
3357 1484 2467
3293 1611 2901
3275 1614 3147
3282 1666 3328
3482 1742 248
3509 1785 313
3536 1826 414
3761 1901 1081
3718 2078 1865
3648 2137 2529
3605 2346 3166
3566 2369 3434
3554 2392 3591
3578 2335 477
3622 2376 543
3641 2426 652
3844 2564 1137
3947 2803 1978
3964 2987 2730
3859 3058 3264
3864 3213 3690
3833 3219 3847
3644 2695 639
3655 2731 709
3663 2789 825
3831 2945 1229
3954 3184 2029
4011 3466 2861
4027 3615 3441
4011 3687 3789
3975 3703 3977
3663 2877 712
3667 2926 795
3677 2988 902
3818 3186 1389
3934 3437 2197
4016 3684 2969
4026 3834 3512
4036 3903 3825
4020 3927 4022
3670 2990 755
3678 3047 830
3695 3105 931
3854 3354 1607
3952 3591 2372
4022 3801 3063
4028 3909 3474
4038 4016 3851
3911 4005 4014
3679 509 223
3655 532 399
3612 505 640
3600 424 1099
3391 537 1946
2771 361 1992
2744 363 2242
2743 364 2422
2751 365 2559
3458 408 91
3369 332 162
3289 161 455
3080 234 1177
2913 356 1733
2848 426 2115
2852 427 2392
2848 428 2577
2857 433 2725
3416 517 71
3389 527 122
3318 436 449
3272 431 1137
3194 683 1796
3104 827 2299
3100 880 2627
3112 965 2882
3156 1108 3080
3501 1131 106
3496 1156 160
3598 1145 325
3562 1311 1140
3531 1311 1750
3462 1521 2497
3401 1656 2933
3383 1666 3180
3398 1720 3354
3556 1764 254
3586 1820 320
3638 1863 430
3856 1956 1142
3805 2121 1904
3736 2186 2570
3703 2380 3192
3667 2426 3467
3669 2459 3618
3671 2324 459
3707 2397 545
3711 2443 656
3904 2535 1141
4009 2751 1938
4041 3006 2749
3939 3048 3251
3937 3168 3686
3956 3289 3876
3705 2697 636
3706 2744 716
3712 2805 837
3891 2976 1286
4010 3225 2097
4067 3437 2858
4090 3624 3462
4090 3730 3795
4057 3694 3981
3713 2890 722
3718 2939 802
3728 3002 909
3880 3215 1453
3990 3468 2262
4067 3704 3011
4081 3848 3535
4093 3960 3895
4090 3933 4044
3721 3004 762
3729 3056 834
3748 3119 938
3911 3381 1667
4008 3620 2436
4072 3813 3093
4080 3918 3487
4086 3978 3722
4091 4057 4059
