滤镜资源/Professional Luts Collection/Triune-Digital-Cinematic-LUTs/3D LUTs (3DL)/REDLOGFILM/The Ring - REDlogFilm.3dl
# Created by Benjamin (IWLTBAP) : http://luts.iwltbap.com
# Copyright: (C) Copyright 2016 Triune Films and IWLTBAP
# Blockbuster LUTs Pack
0 256 512 768 1023
0 0 0
0 9 267
0 195 1221
0 502 2267
0 679 2809
0 328 10
0 390 370
0 576 1355
0 846 2384
0 1006 2912
0 1540 235
0 1597 630
0 1804 1733
0 2019 2822
0 2137 3368
0 2874 588
0 2921 941
0 3138 2056
0 3388 3247
0 3507 3834
0 3583 784
0 3615 1121
0 3846 2231
0 4087 3432
0 4095 4043
266 0 0
319 11 325
237 198 1284
235 509 2325
235 679 2861
265 338 12
277 401 390
235 588 1393
235 854 2417
235 1008 2951
235 1546 245
235 1603 633
235 1809 1741
235 2021 2834
235 2138 3387
235 2879 596
235 2928 948
235 3146 2060
235 3382 3244
235 3508 3835
235 3583 785
235 3623 1131
235 3846 2232
235 4087 3439
235 4095 4044
1200 56 35
1334 87 463
1501 256 1522
1475 541 2570
1351 709 3104
1232 429 57
1341 485 491
1495 648 1565
1462 890 2623
1322 1043 3161
1171 1592 295
1206 1650 685
1274 1851 1809
1066 2059 2930
821 2173 3487
738 2914 632
738 2959 981
738 3175 2103
738 3413 3299
738 3532 3893
738 3613 820
738 3650 1158
738 3872 2262
738 4095 3479
738 4095 4090
2225 224 151
2365 265 590
2661 399 1732
2806 628 2847
2828 776 3393
2247 572 181
2372 618 612
2656 761 1753
2801 975 2870
2828 1113 3424
2344 1687 387
2402 1734 770
2617 1928 1923
2738 2128 3083
2755 2249 3662
2189 2985 702
2217 3027 1050
2336 3243 2179
2392 3480 3397
2362 3595 4002
1815 3669 880
1834 3709 1217
1885 3921 2322
1823 4095 3552
1904 4095 4085
2757 324 230
2891 356 651
3229 489 1825
3431 696 2967
3489 836 3531
2788 661 251
2903 703 678
3229 838 1845
3431 1034 2990
3489 1165 3561
2887 1745 440
2959 1792 825
3217 1980 1989
3395 2182 3172
3443 2292 3762
2857 3018 743
2895 3067 1096
3061 3275 2225
3198 3507 3453
3227 3632 4062
2705 3708 920
2736 3749 1257
2860 3961 2363
2958 4095 3609
3102 4095 4074
