滤镜资源/Professional Luts Collection/Triune-Digital-Cinematic-LUTs/3D LUTs (3DL)/REDLOGFILM/The Revenant - REDlogFilm.3dl
# Created by Benjamin (IWLTBAP) : http://luts.iwltbap.com
# Copyright: (C) Copyright 2016 Triune Films and IWLTBAP
# Blockbuster LUTs Pack
0 256 512 768 1023
0 0 0
2 32 106
40 405 762
137 783 1442
197 950 1801
44 421 273
55 484 519
111 707 1196
207 976 1821
241 1076 2051
454 1779 1214
468 1820 1431
509 1931 2220
563 2090 2934
573 2119 3210
892 3072 2181
911 3125 2382
956 3247 3128
977 3303 3564
980 3314 3563
1064 3579 2668
1052 3539 2838
989 3341 3476
1424 3431 3606
2397 3670 3773
128 23 26
215 38 210
43 420 850
146 811 1550
200 959 1863
293 433 265
286 458 521
102 679 1183
206 974 1855
243 1083 2104
453 1776 1215
467 1815 1436
505 1919 2221
564 2091 2945
574 2120 3231
896 3085 2192
911 3127 2394
956 3248 3146
977 3305 3563
980 3314 3563
1062 3573 2677
1049 3532 2850
989 3342 3475
1793 3520 3671
2689 3743 3823
964 193 235
1143 253 431
1308 487 1239
1112 910 1960
884 1070 2247
1273 461 391
1368 483 599
1424 738 1489
1161 1085 2181
842 1179 2419
1712 2081 1405
1716 2083 1654
1608 2146 2431
1302 2209 3119
1126 2193 3371
1853 3287 2381
1829 3327 2578
1586 3376 3255
1633 3460 3671
1994 3563 3727
1905 3774 2848
1879 3726 3027
1694 3508 3611
2951 3806 3877
3532 3953 3984
1861 445 495
2015 486 628
2310 643 1338
2377 993 2286
2344 1165 2629
2156 557 584
2245 588 698
2483 777 1494
2441 1132 2464
2394 1294 2789
2772 1904 1334
2818 1886 1513
2928 2113 2501
2847 2378 3375
2791 2404 3680
3017 3509 2569
3043 3567 2804
3015 3687 3536
3126 3832 3924
3315 3882 3955
2912 4004 3108
2948 3968 3298
3381 3920 3934
4080 4091 4092
4091 4094 4094
2270 532 586
2424 569 710
2748 726 1388
2853 1008 2310
2858 1232 2798
2531 618 659
2609 642 766
2893 816 1512
2927 1129 2481
2932 1337 2921
3181 1708 1276
3272 1649 1428
3461 1849 2378
3402 2268 3380
3337 2289 3695
3278 3533 2612
3336 3585 2835
3504 3774 3644
3811 3968 4050
3960 4029 4074
3190 4055 3248
3266 4026 3432
3809 4023 4037
4095 4095 4095
4095 4095 4095
