滤镜资源/Professional Luts Collection/Triune-Digital-Cinematic-LUTs/3D LUTs (3DL)/REDLOGFILM/The Conjuring - REDlogFilm.3dl
# Created by Benjamin (IWLTBAP) : http://luts.iwltbap.com
# Copyright: (C) Copyright 2016 Triune Films and IWLTBAP
# Blockbuster LUTs Pack
0 256 512 768 1023
28 32 41
27 31 238
58 107 787
129 246 1354
164 319 1633
58 340 103
66 342 390
119 429 965
191 576 1541
224 644 1813
337 1128 230
182 1104 526
235 1154 1290
326 1264 1886
376 1325 2169
836 2023 473
585 1876 690
398 1900 1552
492 1947 2171
540 1995 2473
1174 2559 654
875 2396 869
511 2328 1680
584 2325 2316
634 2373 2635
239 52 55
254 61 293
259 132 808
312 243 1336
344 309 1610
327 386 107
326 409 441
330 504 1049
399 646 1622
440 715 1896
775 1212 189
718 1285 593
485 1266 1383
579 1374 1991
623 1432 2270
1373 2179 484
1208 2200 870
722 2085 1672
785 2105 2311
825 2147 2615
1721 2735 677
1558 2763 1097
916 2559 1766
887 2521 2471
942 2573 2802
1102 212 154
1079 209 387
966 269 936
937 398 1498
926 447 1750
1411 574 253
1406 626 558
1176 645 1124
1016 763 1717
976 810 1995
1841 1363 338
1918 1496 723
1629 1737 1730
1420 1779 2372
1401 1834 2664
2456 2451 581
2497 2601 976
2405 2827 2014
1823 2712 2793
1762 2696 3066
2717 3029 719
2726 3142 1169
2654 3278 2152
1920 3127 2909
1910 3118 3225
1954 369 272
1887 370 501
1828 412 1027
1664 479 1547
1646 594 1892
2264 733 352
2256 794 662
2170 855 1242
1978 928 1801
1821 1019 2154
2789 1637 598
2885 1823 1012
2932 2121 1956
2674 2109 2486
2308 2071 2806
3221 2593 779
3293 2774 1203
3348 3047 2245
3381 3255 3090
3347 3301 3416
3428 3114 841
3485 3272 1224
3537 3512 2310
3538 3673 3196
3463 3692 3564
2325 425 309
2258 426 533
2219 485 1068
2127 543 1575
1999 589 1856
2605 819 411
2606 858 698
2577 937 1275
2520 1043 1853
2359 1069 2138
3136 1758 699
3255 1952 1118
3294 2176 1982
3218 2222 2549
3006 2225 2831
3569 2717 922
3635 2903 1400
3726 3191 2388
3755 3347 3188
3698 3364 3463
3704 3157 940
3763 3313 1333
3853 3563 2382
3899 3737 3327
3877 3790 3688
