滤镜资源/Professional Luts Collection/Triune-Digital-Cinematic-LUTs/3D LUTs (3DL)/REDLOGFILM/The Ring - REDlogFilm.3dl
# Created by Benjamin (IWLTBAP) : http://luts.iwltbap.com
# Copyright: (C) Copyright 2016 Triune Films and IWLTBAP
# Blockbuster LUTs Pack
0 64 128 192 256 320 384 448 512 576 640 704 768 832 896 960 1023
0 0 0
0 0 40
0 0 95
0 0 169
0 9 267
0 17 427
0 50 661
0 111 931
0 195 1221
0 281 1527
0 364 1806
0 439 2057
0 502 2267
0 561 2442
0 610 2592
0 651 2712
0 679 2809
0 40 0
0 47 47
0 47 102
0 53 182
0 58 288
0 72 453
0 109 683
0 168 947
0 253 1242
0 334 1541
0 415 1818
0 491 2065
0 555 2281
0 609 2452
0 658 2604
0 698 2726
0 727 2824
0 100 0
0 102 47
0 110 110
0 116 191
0 127 309
0 147 487
0 185 711
0 242 972
0 322 1264
0 402 1558
0 483 1838
0 556 2082
0 621 2302
0 672 2472
0 717 2615
0 759 2741
0 790 2841
0 186 0
0 197 53
0 203 116
0 214 207
0 233 335
0 257 519
0 294 744
0 353 1012
0 425 1298
0 501 1594
0 580 1867
0 647 2112
0 713 2331
0 764 2501
0 808 2646
0 843 2762
0 876 2863
0 328 10
0 341 64
0 354 132
0 369 229
0 390 370
0 425 566
0 455 795
0 517 1068
0 576 1355
0 652 1654
0 722 1924
0 783 2161
0 846 2384
0 895 2550
0 942 2703
0 977 2820
0 1006 2912
0 552 28
0 560 87
0 573 161
0 594 268
0 615 423
0 650 622
0 691 863
0 737 1137
0 797 1434
0 863 1734
0 925 2004
0 988 2244
0 1043 2458
0 1084 2627
0 1129 2771
0 1165 2893
0 1193 2990
0 834 67
0 841 130
0 852 208
0 871 319
0 897 482
0 929 683
0 973 934
0 1026 1224
0 1079 1525
0 1144 1833
0 1202 2106
0 1259 2350
0 1310 2572
0 1349 2733
0 1388 2881
0 1421 3002
0 1440 3097
0 1171 143
0 1182 206
0 1190 287
0 1207 394
0 1234 549
0 1273 760
0 1313 1013
0 1374 1317
0 1427 1629
0 1488 1941
0 1544 2225
0 1600 2478
0 1644 2692
0 1685 2864
0 1724 3015
0 1752 3136
0 1770 3231
0 1540 235
0 1543 297
0 1554 369
0 1571 477
0 1597 630
0 1638 838
0 1685 1098
0 1746 1411
0 1804 1733
0 1864 2052
0 1921 2345
0 1972 2604
0 2019 2822
0 2056 3003
0 2088 3150
0 2116 3270
0 2137 3368
0 1921 334
0 1931 393
0 1939 465
0 1953 565
0 1975 716
0 2017 923
0 2063 1184
0 2127 1495
0 2190 1826
0 2253 2161
0 2311 2460
0 2359 2722
0 2412 2953
0 2442 3132
0 2477 3290
0 2503 3412
0 2527 3512
0 2279 429
0 2282 482
0 2293 554
0 2302 652
0 2324 795
0 2366 1000
0 2413 1263
0 2479 1581
0 2546 1913
0 2613 2257
0 2669 2559
0 2725 2831
0 2771 3061
0 2809 3244
0 2839 3403
0 2870 3534
0 2885 3633
0 2595 513
0 2598 565
0 2606 634
0 2621 731
0 2646 875
0 2682 1074
0 2727 1333
0 2795 1649
0 2865 1991
0 2929 2336
0 2996 2650
0 3051 2919
0 3101 3162
0 3139 3350
0 3172 3506
0 3193 3633
0 3219 3738
0 2874 588
0 2884 640
0 2887 707
0 2896 800
0 2921 941
0 2962 1140
0 3005 1399
0 3073 1717
0 3138 2056
0 3216 2416
0 3282 2726
0 3340 3001
0 3388 3247
0 3425 3431
0 3452 3592
0 3479 3723
0 3507 3834
0 3103 656
0 3107 707
0 3108 767
0 3119 860
0 3136 994
0 3169 1191
0 3227 1450
0 3297 1770
0 3364 2114
0 3438 2465
0 3499 2778
0 3561 3063
0 3603 3297
0 3648 3498
0 3682 3661
0 3706 3792
0 3729 3898
0 3291 704
0 3293 754
0 3301 819
0 3308 906
0 3328 1042
0 3362 1236
0 3419 1501
0 3487 1814
0 3556 2161
0 3635 2507
0 3696 2829
0 3763 3114
0 3798 3352
0 3841 3549
0 3885 3723
0 3904 3845
0 3929 3953
0 3450 748
0 3450 799
0 3455 859
0 3466 950
0 3487 1086
0 3523 1277
0 3574 1536
0 3642 1854
0 3716 2199
0 3786 2543
0 3856 2869
0 3919 3156
0 3958 3396
0 3992 3592
0 4007 3759
0 4033 3902
0 4047 4000
0 3583 784
0 3583 838
0 3588 900
0 3599 986
0 3615 1121
0 3649 1312
0 3703 1564
0 3771 1882
0 3846 2231
0 3919 2585
0 3985 2904
0 4042 3188
0 4087 3432
0 4095 3627
0 4095 3793
0 4095 3931
0 4095 4043
40 0 0
47 0 40
47 0 95
42 0 175
40 9 281
40 17 441
40 54 669
40 113 942
40 195 1228
40 281 1529
40 366 1809
40 437 2058
40 502 2272
40 561 2446
40 606 2594
40 647 2715
40 679 2817
40 47 0
41 47 47
41 47 102
40 53 182
40 63 295
40 72 463
40 109 687
40 172 957
40 249 1242
40 334 1541
40 415 1824
40 491 2071
40 555 2286
40 609 2456
40 653 2606
40 694 2726
40 727 2824
40 102 0
40 107 47
40 111 110
40 116 191
40 128 315
40 144 489
40 188 715
40 248 978
40 324 1269
40 404 1565
40 484 1843
40 557 2090
40 621 2303
40 672 2476
40 716 2621
40 758 2743
40 790 2841
40 186 0
40 198 53
40 203 116
40 214 207
40 229 337
40 258 525
40 299 750
40 355 1018
40 426 1302
40 501 1596
40 580 1872
40 648 2115
40 713 2331
40 764 2502
40 808 2652
40 843 2768
40 876 2869
40 333 10
40 342 64
40 357 136
40 371 231
40 394 374
40 424 567
40 462 799
40 517 1072
40 579 1358
40 650 1654
40 724 1927
40 784 2163
40 848 2386
40 893 2549
40 938 2700
40 974 2820
40 1006 2919
40 552 28
40 562 82
40 574 163
40 596 270
40 620 426
40 650 620
40 690 864
40 739 1142
40 794 1432
40 865 1736
40 926 2007
40 990 2249
40 1043 2458
40 1086 2632
40 1131 2780
40 1166 2899
40 1193 2992
40 833 67
40 841 130
40 852 212
40 872 323
40 900 483
40 932 684
40 977 938
40 1027 1226
40 1081 1526
40 1141 1832
40 1201 2106
40 1260 2353
40 1310 2570
40 1353 2738
40 1388 2883
40 1422 3006
40 1446 3104
40 1173 147
40 1184 207
40 1188 283
40 1205 393
40 1235 548
40 1273 759
40 1317 1017
40 1373 1319
40 1429 1626
40 1487 1943
40 1547 2228
40 1599 2478
40 1646 2697
40 1685 2866
40 1724 3016
40 1750 3135
40 1770 3231
40 1540 235
40 1543 293
40 1554 371
40 1571 472
40 1595 627
40 1637 836
40 1683 1098
40 1743 1408
40 1806 1731
40 1863 2053
40 1922 2346
40 1973 2606
40 2018 2823
40 2055 2999
40 2092 3153
40 2121 3277
40 2140 3375
40 1919 335
40 1931 395
40 1939 465
40 1953 565
40 1975 716
40 2017 923
40 2064 1183
40 2126 1496
40 2191 1827
40 2253 2161
40 2311 2461
40 2365 2725
40 2410 2952
40 2446 3132
40 2479 3290
40 2504 3413
40 2522 3514
40 2273 429
40 2279 480
40 2289 551
40 2300 648
40 2326 797
40 2366 1000
40 2416 1263
40 2480 1580
40 2544 1913
40 2614 2258
40 2675 2564
40 2725 2831
40 2773 3065
40 2806 3245
40 2842 3401
40 2872 3533
40 2889 3634
40 2598 516
40 2602 569
40 2606 635
40 2622 731
40 2645 875
40 2680 1073
40 2731 1333
40 2797 1652
40 2866 1995
40 2932 2336
40 2995 2647
40 3052 2922
40 3100 3162
40 3139 3347
40 3164 3502
40 3191 3631
40 3218 3737
40 2877 591
40 2879 640
40 2887 707
40 2894 802
40 2916 943
40 2953 1136
40 3009 1401
40 3074 1717
40 3139 2058
40 3213 2411
40 3279 2725
40 3338 3000
40 3384 3241
40 3425 3431
40 3452 3591
40 3477 3720
40 3502 3829
40 3096 653
40 3107 707
40 3110 767
40 3120 861
40 3143 1000
40 3176 1195
40 3227 1452
40 3296 1769
40 3365 2113
40 3440 2468
40 3504 2782
40 3562 3064
40 3608 3302
40 3648 3498
40 3682 3660
40 3703 3789
40 3725 3898
40 3289 704
40 3303 759
40 3302 820
40 3309 908
40 3336 1048
40 3371 1242
40 3420 1501
40 3484 1813
40 3558 2161
40 3638 2514
40 3700 2831
40 3758 3112
40 3801 3357
40 3839 3549
40 3880 3718
40 3902 3846
40 3926 3957
40 3450 748
40 3457 799
40 3458 860
40 3466 950
40 3492 1089
40 3527 1279
40 3574 1536
40 3643 1854
40 3714 2197
40 3790 2549
40 3856 2868
40 3917 3156
40 3959 3399
40 3986 3595
40 4005 3758
40 4030 3899
40 4047 4004
40 3583 784
40 3583 831
40 3588 898
40 3599 986
40 3620 1121
40 3649 1312
40 3703 1564
40 3771 1882
40 3842 2227
40 3919 2582
40 3985 2900
40 4042 3188
40 4087 3432
40 4095 3631
40 4095 3796
40 4095 3931
40 4095 4043
90 0 0
97 0 45
100 0 100
103 0 176
99 9 291
91 17 453
90 56 681
90 115 952
90 197 1242
90 281 1540
90 367 1817
90 435 2063
90 506 2281
90 561 2448
90 605 2601
90 644 2721
90 679 2825
95 47 0
95 47 47
98 47 102
98 53 182
95 63 302
91 72 475
90 111 698
90 176 971
90 249 1254
90 336 1551
90 417 1826
90 489 2072
90 555 2291
90 609 2462
90 653 2614
90 691 2731
90 727 2832
90 105 0
95 110 52
95 111 110
95 120 195
91 131 318
90 147 499
90 188 721
90 249 987
90 322 1275
90 404 1571
90 480 1845
90 556 2093
90 621 2308
90 672 2479
90 716 2629
90 754 2749
90 790 2846
90 190 4
91 199 54
91 207 117
91 215 211
90 230 343
90 255 527
90 302 757
90 357 1022
90 429 1310
90 503 1606
90 578 1876
90 651 2126
90 713 2338
90 764 2507
90 808 2660
90 843 2774
90 876 2870
90 332 10
90 343 64
90 357 136
90 377 237
90 396 377
90 423 572
90 466 805
90 517 1077
90 582 1368
90 649 1658
90 721 1932
90 789 2173
90 848 2387
90 897 2556
90 938 2701
90 973 2821
90 1006 2922
90 549 28
90 564 86
90 575 158
90 596 272
90 624 426
90 651 625
90 692 866
90 741 1145
90 797 1439
90 864 1738
90 927 2011
90 987 2252
90 1043 2460
90 1088 2634
90 1127 2780
90 1165 2903
90 1193 2997
90 832 68
90 841 132
90 852 212
90 873 324
90 903 484
90 934 685
90 980 940
90 1027 1226
90 1083 1530
90 1141 1833
90 1201 2110
90 1258 2356
90 1309 2568
90 1351 2741
90 1391 2888
90 1420 3006
90 1447 3105
90 1174 148
90 1178 207
90 1194 287
90 1207 393
90 1236 551
90 1271 759
90 1319 1019
90 1374 1320
90 1428 1630
90 1489 1946
90 1545 2226
90 1601 2483
90 1645 2698
90 1681 2864
90 1723 3020
90 1750 3138
90 1770 3235
90 1544 239
90 1552 297
90 1557 372
90 1570 477
90 1599 628
90 1639 837
90 1685 1101
90 1744 1408
90 1806 1729
90 1864 2056
90 1920 2346
90 1974 2608
90 2021 2829
90 2059 3002
90 2090 3149
90 2121 3277
90 2141 3377
90 1917 335
90 1927 395
90 1939 468
90 1953 567
90 1976 715
90 2016 923
90 2066 1184
90 2125 1497
90 2191 1827
90 2252 2161
90 2313 2464
90 2366 2726
90 2408 2950
90 2444 3134
90 2479 3292
90 2506 3414
90 2522 3515
90 2275 431
90 2277 485
90 2286 553
90 2301 650
90 2323 795
90 2363 1000
90 2416 1264
90 2481 1583
90 2546 1915
90 2616 2261
90 2674 2564
90 2725 2834
90 2771 3067
90 2805 3247
90 2844 3403
90 2872 3532
90 2891 3638
90 2596 514
90 2598 565
90 2607 636
90 2623 734
90 2646 875
90 2682 1074
90 2732 1336
90 2798 1655
90 2865 1995
90 2935 2337
90 2995 2647
90 3053 2928
90 3100 3162
90 3136 3345
90 3168 3508
90 3195 3633
90 3219 3739
90 2876 591
90 2885 647
90 2889 709
90 2898 803
90 2920 945
90 2953 1137
90 3014 1404
90 3076 1721
90 3143 2061
90 3215 2409
90 3280 2726
90 3338 3004
90 3380 3237
90 3424 3433
90 3454 3593
90 3480 3723
90 3502 3830
90 3100 650
90 3101 701
90 3114 772
90 3124 862
90 3142 1000
90 3171 1192
90 3227 1452
90 3296 1771
90 3365 2113
90 3438 2467
90 3504 2783
90 3561 3064
90 3610 3307
90 3645 3495
90 3685 3667
90 3708 3792
90 3728 3902
90 3288 704
90 3299 758
90 3311 825
90 3311 913
90 3338 1048
90 3373 1244
90 3421 1502
90 3489 1816
90 3557 2159
90 3634 2514
90 3704 2836
90 3763 3115
90 3811 3361
90 3848 3553
90 3880 3718
90 3906 3848
90 3928 3959
90 3450 748
90 3457 802
90 3469 869
90 3467 953
90 3493 1090
90 3531 1281
90 3575 1539
90 3646 1856
90 3713 2196
90 3792 2554
90 3857 2873
90 3918 3158
90 3965 3404
90 3985 3593
90 4007 3762
90 4027 3896
90 4050 4007
90 3583 784
90 3583 836
90 3588 900
90 3599 987
90 3622 1121
90 3653 1312
90 3703 1567
90 3771 1884
90 3844 2227
90 3919 2583
90 3985 2904
90 4043 3190
90 4090 3435
90 4095 3628
90 4095 3802
90 4095 3933
90 4095 4043
159 0 0
172 0 47
175 0 105
181 0 185
186 10 302
178 23 475
158 56 701
153 115 967
153 196 1257
153 283 1558
153 367 1831
153 438 2077
153 506 2293
153 561 2464
153 605 2614
153 644 2735
153 679 2836
166 47 0
172 47 47
175 52 110
180 54 192
184 63 315
173 76 490
155 113 717
153 174 981
153 252 1271
153 338 1569
153 421 1844
153 489 2087
153 558 2305
153 612 2472
153 658 2626
153 694 2746
