滤镜资源/Professional Luts Collection/Triune-Digital-Cinematic-LUTs/3D LUTs (3DL)/REDLOGFILM/The Conjuring - REDlogFilm.3dl
# Created by Benjamin (IWLTBAP) : http://luts.iwltbap.com
# Copyright: (C) Copyright 2016 Triune Films and IWLTBAP
# Blockbuster LUTs Pack
0 128 256 384 512 640 768 896 1023
28 32 41
27 29 108
27 31 238
31 47 465
58 107 787
98 185 1109
129 246 1354
151 291 1523
164 319 1633
39 133 61
39 135 157
39 133 298
49 161 532
83 230 861
121 306 1177
153 373 1429
174 417 1595
189 446 1706
58 340 103
57 339 203
66 342 390
84 362 639
119 429 965
159 511 1292
191 576 1541
211 618 1705
224 644 1813
133 666 155
103 663 252
106 679 470
133 693 775
169 742 1117
210 819 1449
242 879 1696
267 919 1859
287 948 1971
337 1128 230
264 1099 328
182 1104 526
194 1126 911
235 1154 1290
285 1212 1632
326 1264 1886
358 1301 2060
376 1325 2169
607 1612 340
513 1565 429
375 1518 596
281 1561 1017
321 1565 1440
371 1600 1787
417 1643 2051
446 1674 2225
464 1693 2337
836 2023 473
720 1965 557
585 1876 690
404 1898 1064
398 1900 1552
451 1914 1903
492 1947 2171
519 1973 2351
540 1995 2473
1023 2328 571
899 2267 664
747 2163 778
524 2124 1085
457 2145 1630
506 2137 1979
545 2164 2253
575 2194 2443
593 2212 2565
1174 2559 654
1052 2503 741
875 2396 869
626 2285 1108
511 2328 1680
543 2298 2029
584 2325 2316
618 2356 2512
634 2373 2635
97 34 44
99 34 122
98 38 258
104 54 477
130 107 781
167 177 1095
194 229 1328
213 268 1490
228 299 1604
113 144 65
115 149 173
115 149 315
128 179 554
164 254 890
201 331 1208
232 396 1457
254 441 1623
268 471 1736
144 354 106
146 361 222
147 361 407
164 383 660
200 456 997
241 539 1324
271 601 1572
291 641 1734
306 668 1842
230 685 152
238 708 281
192 711 491
215 722 801
252 776 1149
296 852 1486
331 911 1731
358 951 1897
377 979 2010
496 1162 216
474 1184 353
324 1151 545
280 1169 942
325 1191 1322
377 1249 1665
420 1303 1926
452 1341 2098
469 1363 2208
787 1667 351
757 1669 469
573 1593 637
405 1611 1027
417 1611 1474
472 1646 1828
516 1688 2092
544 1718 2265
562 1739 2381
1033 2086 488
964 2081 621
801 1981 735
559 1951 1075
506 1958 1589
554 1966 1944
596 2000 2219
624 2027 2402
644 2048 2524
1216 2390 589
1142 2389 727
954 2281 848
697 2185 1111
575 2211 1665
612 2196 2023
654 2226 2307
685 2258 2501
701 2276 2623
1379 2629 679
1304 2630 818
1111 2531 948
840 2360 1143
646 2410 1718
655 2372 2085
694 2393 2371
729 2425 2570
744 2440 2692
239 52 55
261 58 148
254 61 293
247 83 512
259 132 808
287 191 1105
312 243 1336
330 281 1499
344 309 1610
294 180 81
300 188 196
288 178 340
272 200 571
282 259 890
314 330 1197
343 392 1445
361 428 1603
374 455 1713
327 386 107
345 404 225
326 409 441
303 429 704
330 504 1049
368 585 1372
399 646 1622
422 687 1786
440 715 1896
429 724 136
461 758 268
425 796 539
367 788 854
394 839 1207
438 912 1546
475 970 1792
504 1011 1964
522 1037 2080
775 1212 189
788 1245 326
718 1285 593
474 1257 991
485 1266 1383
535 1320 1729
579 1374 1991
604 1408 2157
623 1432 2270
1106 1742 346
1065 1763 492
1008 1771 706
676 1715 1059
609 1707 1543
654 1735 1904
692 1773 2170
718 1804 2348
735 1826 2466
1373 2179 484
1307 2198 646
1208 2200 870
891 2061 1117
722 2085 1672
743 2070 2026
785 2105 2311
809 2130 2494
825 2147 2615
1576 2505 590
1510 2528 773
1406 2534 1002
1119 2349 1188
824 2361 1734
811 2327 2123
848 2352 2409
880 2383 2605
890 2392 2722
1721 2735 677
1656 2749 856
1558 2763 1097
1296 2593 1270
916 2559 1766
866 2526 2200
887 2521 2471
922 2553 2671
942 2573 2802
581 119 97
600 121 186
590 125 342
541 140 566
537 198 876
541 256 1173
545 300 1396
548 329 1544
550 349 1643
693 249 129
695 262 234
677 253 384
611 260 623
575 324 947
558 384 1245
561 433 1478
568 464 1633
573 486 1738
812 460 174
836 486 287
799 513 489
696 501 742
608 549 1080
598 618 1402
613 673 1642
625 710 1807
636 734 1915
909 786 155
979 835 295
990 893 546
806 935 963
702 965 1322
725 1038 1659
748 1091 1908
763 1124 2076
774 1146 2189
1201 1271 204
1259 1322 352
1281 1397 603
1115 1500 1102
861 1450 1542
871 1491 1887
892 1536 2143
903 1562 2308
912 1581 2417
1583 1818 348
1592 1872 489
1548 1936 752
1459 2021 1200
1025 1943 1702
1014 1944 2080
1030 1967 2346
1041 1988 2519
1056 2012 2641
1860 2304 491
1859 2350 627
1798 2399 917
1706 2458 1333
1224 2360 1795
1126 2324 2224
1152 2341 2506
1161 2354 2684
1174 2370 2807
2050 2653 596
2045 2689 752
1988 2728 1059
1891 2774 1461
1453 2631 1812
1209 2606 2326
1211 2597 2603
1238 2616 2795
1249 2630 2919
2175 2882 682
2170 2915 857
2119 2947 1163
2034 2992 1560
1663 2837 1856
1289 2810 2385
1252 2768 2663
1276 2786 2859
1301 2802 2987
1102 212 154
1081 204 234
1079 209 387
1050 230 632
966 269 936
950 344 1261
937 398 1498
932 429 1651
926 447 1750
1243 356 199
1228 357 296
1194 346 436
1163 362 683
1064 394 996
1001 482 1339
962 526 1566
947 555 1720
935 576 1824
1411 574 253
1423 605 367
1406 626 558
1327 618 795
1176 645 1124
1060 716 1470
1016 763 1717
989 791 1886
976 810 1995
1636 907 307
1664 950 428
1671 1035 680
1619 1114 1041
1344 1092 1376
1175 1132 1745
1145 1185 2006
1129 1218 2170
1120 1238 2281
1841 1363 338
1894 1418 475
1918 1496 723
1916 1673 1210
1629 1737 1730
1424 1729 2110
1420 1779 2372
1407 1813 2548
1401 1834 2664
2196 1931 450
2237 2002 585
2267 2093 832
2239 2218 1287
2120 2381 1900
1726 2318 2366
1636 2292 2620
1613 2307 2793
1615 2330 2915
2456 2451 581
2482 2521 713
2497 2601 976
2451 2682 1418
2405 2827 2014
1988 2775 2490
1823 2712 2793
1773 2690 2952
1762 2696 3066
2610 2806 669
2631 2870 803
2633 2934 1091
2588 2994 1535
2559 3097 2089
2173 3037 2518
1875 2964 2870
1865 2953 3054
1852 2948 3162
2717 3029 719
2736 3085 861
2726 3142 1169
2689 3196 1620
2654 3278 2152
2339 3199 2511
1920 3127 2909
1881 3110 3101
1910 3118 3225
1592 308 229
1544 292 302
1534 301 451
1516 313 683
1479 339 975
1366 380 1276
1346 468 1560
1331 516 1740
1309 540 1848
1721 440 262
1709 450 362
1666 442 505
1628 456 746
1581 479 1042
1476 519 1344
1434 621 1653
1375 662 1827
1340 676 1927
1918 651 301
1918 687 420
1896 729 623
1841 729 866
1767 754 1182
1632 802 1503
1520 881 1809
1436 901 1967
1391 911 2066
2166 1013 386
2193 1064 504
2218 1162 760
2185 1263 1141
2077 1250 1438
1885 1285 1779
1672 1311 2082
1574 1323 2254
1528 1336 2381
2426 1511 505
2447 1567 636
2492 1665 887
2539 1868 1384
2504 1980 1854
2270 1960 2168
1903 1896 2440
1876 1933 2657
1864 1961 2777
2668 2043 589
2700 2108 728
2744 2220 1002
2776 2362 1472
2793 2547 2064
2744 2655 2511
2497 2623 2800
2380 2615 3000
2404 2648 3139
2918 2529 679
2955 2602 812
2993 2705 1083
3000 2816 1550
3018 2974 2122
3011 3085 2617
2870 3100 2963
2760 3080 3169
2734 3083 3298
3077 2858 734
3110 2926 859
3127 3020 1119
3120 3122 1591
3126 3248 2158
3128 3360 2684
2988 3356 3020
2902 3360 3272
2875 3351 3393
3159 3073 774
3183 3139 899
3197 3229 1167
3186 3326 1657
3196 3439 2213
3182 3532 2736
3038 3506 3056
2930 3516 3317
2936 3519 3458
1954 369 272
1897 357 349
1887 370 501
1854 381 730
1828 412 1027
1758 434 1301
1664 479 1547
1659 545 1752
1646 594 1892
2078 493 297
2063 504 400
2013 502 543
1985 527 788
1948 564 1100
1885 587 1381
1788 624 1622
1767 711 1855
1724 756 1990
2264 733 352
2272 755 463
2256 794 662
2211 814 912
2170 855 1242
2099 894 1549
1978 928 1801
1905 1001 2033
1821 1019 2154
2503 1119 460
2541 1171 579
2595 1261 823
2560 1349 1190
2502 1352 1496
2428 1396 1821
2289 1440 2097
2130 1471 2326
1983 1453 2432
2789 1637 598
2824 1709 745
2885 1823 1012
2937 2011 1496
2932 2121 1956
2849 2116 2249
2674 2109 2486
2429 2069 2671
2308 2071 2806
3041 2180 734
3074 2250 882
3125 2367 1173
3172 2541 1667
3211 2697 2198
3222 2784 2616
3100 2774 2853
2960 2751 3015
2857 2751 3154
3221 2593 779
3248 2658 912
3293 2774 1203
3324 2913 1695
3348 3047 2245
3394 3193 2759
3381 3255 3090
3351 3282 3289
3347 3301 3416
3350 2900 814
3378 2966 940
3415 3073 1224
3439 3194 1715
3466 3324 2286
3510 3467 2833
3502 3519 3178
3444 3534 3381
3435 3549 3516
3428 3114 841
3453 3175 958
3485 3272 1224
3507 3387 1703
3537 3512 2310
3569 3634 2858
3538 3673 3196
3472 3678 3406
3463 3692 3564
2179 401 293
2126 392 371
2117 408 523
2086 422 752
2068 459 1055
2026 491 1340
1944 507 1553
1871 540 1725
1864 593 1876
2293 532 322
2285 539 419
2236 535 562
2218 570 812
2191 616 1129
2161 657 1426
2074 668 1643
1996 701 1818
1986 764 1980
2473 787 389
2486 812 500
2475 835 686
2441 852 929
2425 914 1270
2398 974 1597
2310 990 1825
2210 1013 2002
2156 1070 2168
2707 1178 502
2748 1235 626
2813 1322 866
2788 1388 1206
2755 1408 1525
2711 1458 1857
2633 1498 2112
2533 1532 2312
2424 1559 2468
3005 1714 659
3045 1788 809
3120 1916 1088
3175 2092 1559
3161 2171 1989
3119 2168 2282
3025 2190 2529
2880 2179 2692
2765 2179 2827
3277 2258 806
3311 2331 959
3356 2457 1271
3410 2637 1761
3457 2789 2269
3461 2851 2665
3400 2851 2907
3295 2833 3053
3253 2841 3176
3439 2671 864
3465 2735 1009
3504 2856 1327
3549 3008 1818
3576 3140 2358
3615 3260 2835
3619 3319 3159
3572 3326 3326
3565 3347 3450
3526 2935 879
3548 2998 1011
3585 3106 1302
3631 3244 1796
3658 3373 2393
3700 3499 2900
3713 3562 3252
3702 3593 3460
3700 3615 3591
3592 3136 900
3613 3195 1017
3653 3296 1297
3696 3425 1798
3726 3550 2406
3764 3655 2927
3777 3722 3300
3757 3748 3513
3728 3755 3637
2325 425 309
2270 411 384
2258 426 533
2234 448 767
2219 485 1068
2197 528 1362
2127 543 1575
2052 559 1730
1999 589 1856
2431 561 343
2419 565 434
2375 558 573
2368 598 824
2352 645 1139
2340 700 1447
2272 717 1667
2199 723 1822
2140 751 1946
2605 819 411
2614 839 518
2606 858 698
2575 870 935
2577 937 1275
2570 1013 1615
2520 1043 1853
2440 1049 2012
2359 1069 2138
2833 1210 526
2871 1265 650
2936 1345 884
2914 1389 1198
2903 1426 1527
2878 1493 1874
2831 1537 2136
2758 1566 2316
2677 1591 2458
3136 1758 699
3179 1828 845
3255 1952 1118
3307 2116 1573
3294 2176 1982
3275 2186 2290
3218 2222 2549
3126 2241 2721
3006 2225 2831
3416 2304 841
3447 2376 999
3491 2500 1314
3552 2681 1793
3600 2826 2286
3595 2877 2680
3563 2884 2932
3505 2895 3099
3428 2880 3193
3569 2717 922
3594 2783 1072
3635 2903 1400
3689 3056 1865
3726 3191 2388
3751 3299 2867
3755 3347 3188
3724 3357 3356
3698 3364 3463
3652 2979 935
3677 3043 1077
3715 3150 1383
3767 3291 1857
3806 3422 2403
3831 3520 2918
3845 3591 3294
3835 3622 3497
3820 3630 3607
3704 3157 940
3725 3216 1059
3763 3313 1333
3813 3443 1813
3853 3563 2382
3880 3659 2916
3899 3737 3327
3890 3770 3553
3877 3790 3688
