滤镜资源/Professional Luts Collection/Triune-Digital-Cinematic-LUTs/3D LUTs (3DL)/REDLOGFILM/The Lord of the Rings - REDlogFilm.3dl
# Created by Benjamin (IWLTBAP) : http://luts.iwltbap.com
# Copyright: (C) Copyright 2016 Triune Films and IWLTBAP
# Blockbuster LUTs Pack
0 64 128 192 256 320 384 448 512 576 640 704 768 832 896 960 1023
21 19 18
23 21 46
26 24 79
30 27 163
51 34 281
99 71 444
143 114 638
183 150 860
221 181 1098
284 209 1445
382 228 1914
494 276 2323
595 335 2656
663 377 2882
693 395 2998
704 405 3056
711 410 3096
23 47 20
25 49 47
28 51 83
36 57 172
65 92 301
108 132 461
152 167 650
190 210 876
232 245 1116
295 252 1521
384 267 1949
482 310 2301
566 356 2593
606 382 2738
627 397 2825
637 403 2876
626 400 2872
26 88 23
29 100 51
32 108 102
48 130 193
82 166 319
127 204 483
170 247 675
207 285 898
245 314 1161
310 312 1594
390 323 1977
470 354 2285
514 377 2454
541 394 2561
558 404 2638
563 410 2679
562 413 2697
32 187 30
39 198 66
51 209 130
70 226 219
108 263 346
154 303 513
189 344 700
225 381 932
256 393 1247
317 388 1657
392 405 1990
443 421 2201
483 441 2357
514 457 2474
534 471 2558
549 482 2622
546 488 2632
80 326 64
90 335 118
104 349 180
115 365 265
141 388 383
178 426 542
219 472 735
246 504 991
267 505 1331
324 503 1691
382 516 1932
431 534 2126
468 548 2274
490 558 2374
512 574 2466
527 585 2528
526 594 2538
143 498 127
153 510 177
166 527 242
182 543 328
198 563 442
228 599 597
262 642 795
256 655 1065
284 658 1380
337 660 1647
387 672 1870
431 685 2055
470 703 2213
501 722 2336
527 740 2434
542 754 2496
547 769 2524
214 701 199
225 714 251
239 729 314
252 748 401
274 778 519
297 817 670
293 854 862
293 863 1113
330 865 1370
383 879 1639
432 892 1863
481 915 2069
522 937 2235
553 955 2362
578 971 2461
593 983 2527
597 995 2550
308 953 293
317 967 343
329 985 406
341 1012 491
352 1050 593
354 1101 724
361 1121 909
378 1125 1141
421 1139 1403
471 1161 1674
521 1183 1912
564 1203 2112
603 1224 2283
633 1242 2412
655 1256 2513
672 1267 2585
680 1276 2620
409 1227 393
418 1249 440
432 1288 497
445 1341 564
460 1390 660
473 1407 794
488 1419 974
511 1438 1213
545 1460 1480
594 1486 1757
640 1511 1997
686 1539 2211
724 1562 2390
753 1577 2520
770 1582 2619
783 1585 2690
786 1584 2727
554 1599 501
568 1638 542
580 1669 592
592 1691 658
607 1711 756
623 1734 892
641 1754 1076
661 1771 1311
692 1800 1582
735 1834 1863
781 1862 2112
823 1889 2325
853 1901 2494
874 1907 2619
890 1908 2720
899 1904 2792
894 1888 2823
707 1952 616
718 1972 658
728 1987 706
739 2004 772
747 2014 863
763 2036 998
779 2053 1178
803 2079 1416
838 2116 1691
867 2139 1961
902 2162 2204
938 2181 2410
968 2198 2586
992 2208 2719
1007 2207 2825
1015 2203 2900
1015 2188 2948
839 2233 724
845 2243 762
849 2248 805
854 2255 866
859 2259 952
874 2281 1087
899 2315 1274
920 2336 1508
949 2364 1771
980 2394 2042
1009 2418 2284
1041 2436 2491
1072 2454 2672
1096 2465 2811
1108 2462 2914
1113 2453 2987
1117 2445 3045
943 2457 812
941 2452 842
946 2460 887
953 2472 950
959 2479 1038
973 2498 1170
995 2525 1353
1021 2556 1591
1053 2591 1856
1075 2607 2114
1103 2633 2354
1129 2651 2561
1160 2671 2747
1178 2675 2877
1187 2665 2978
1193 2659 3056
1214 2677 3145
1008 2605 869
1007 2604 899
1011 2609 943
1017 2617 1004
1027 2632 1096
1042 2652 1230
1061 2676 1410
1084 2701 1642
1117 2738 1909
1145 2767 2170
1172 2791 2407
1188 2798 2602
1213 2813 2778
1231 2817 2914
1247 2821 3026
1260 2823 3114
1273 2831 3190
1064 2733 919
1057 2720 941
1061 2726 985
1063 2728 1044
1074 2743 1138
1088 2763 1272
1108 2787 1454
1130 2811 1685
1161 2847 1947
1190 2877 2204
1214 2898 2434
1223 2894 2620
1237 2897 2782
1263 2914 2927
1285 2930 3046
1304 2943 3147
1320 2954 3233
1091 2806 944
1087 2798 967
1086 2794 1008
1091 2801 1071
1097 2808 1162
1109 2825 1297
1134 2857 1488
1161 2890 1724
1189 2921 1980
1217 2949 2233
1243 2973 2465
1254 2976 2648
1269 2982 2810
1301 3014 2962
1332 3044 3094
1351 3058 3190
1368 3071 3276
1097 2836 949
1089 2824 974
1090 2824 1018
1096 2831 1084
1103 2839 1181
1121 2864 1328
1148 2900 1525
1178 2938 1767
1202 2961 2015
1226 2983 2258
1261 3023 2497
1285 3047 2688
1313 3077 2866
1340 3102 3008
1371 3135 3136
1387 3148 3216
1397 3148 3298
49 20 20
51 22 47
53 25 80
70 28 166
107 40 291
146 83 456
186 125 646
227 160 869
267 198 1112
337 208 1524
436 234 1979
545 285 2373
633 337 2681
692 373 2880
712 387 2965
724 397 3025
731 402 3066
51 50 22
54 52 50
68 54 96
84 68 183
122 102 312
156 141 470
196 176 659
238 220 886
277 247 1164
343 250 1576
433 274 1986
522 315 2325
602 360 2603
659 395 2795
701 421 2941
721 435 3025
722 437 3056
57 101 26
75 111 53
84 122 114
99 142 205
134 177 331
171 216 495
215 259 687
255 298 910
284 307 1217
351 308 1635
432 326 2001
511 360 2303
576 394 2539
621 421 2702
650 439 2818
664 450 2883
650 448 2870
90 198 32
97 209 78
105 221 142
121 240 231
158 274 358
200 316 527
236 355 714
264 386 957
294 386 1291
361 390 1686
432 407 2012
498 431 2280
554 457 2484
590 479 2618
606 492 2692
617 501 2742
605 506 2735
133 336 77
143 345 128
154 361 194
167 379 280
187 403 396
224 440 555
264 485 751
280 505 1020
306 502 1361
365 507 1719
433 524 2011
489 544 2225
531 565 2386
553 576 2484
572 589 2567
577 597 2607
573 608 2607
187 507 136
197 520 187
213 538 255
224 556 338
241 575 452
272 612 608
297 650 812
290 655 1085
323 663 1412
382 671 1713
436 686 1945
477 697 2126
521 718 2292
550 735 2412
573 755 2504
586 770 2558
588 785 2575
260 714 211
270 728 263
283 744 329
299 765 416
317 794 532
331 832 678
325 862 870
325 872 1134
367 878 1411
423 893 1689
477 910 1926
525 931 2128
566 953 2297
597 971 2419
620 988 2516
635 1001 2578
638 1016 2596
354 968 306
359 980 354
369 1002 415
376 1033 492
387 1075 593
390 1118 727
395 1140 918
414 1144 1162
456 1156 1433
510 1179 1716
561 1204 1959
606 1225 2163
644 1243 2330
674 1262 2460
695 1272 2554
711 1286 2627
721 1300 2665
458 1255 405
465 1291 446
477 1330 498
486 1372 564
500 1416 661
511 1436 799
524 1443 985
544 1459 1230
580 1480 1505
631 1508 1790
681 1537 2038
724 1561 2251
762 1582 2426
790 1595 2557
807 1601 2654
818 1603 2721
826 1606 2768
604 1646 511
612 1676 550
626 1707 600
637 1730 666
648 1746 763
662 1764 900
680 1784 1090
699 1798 1329
728 1824 1603
772 1856 1891
816 1883 2138
859 1908 2354
891 1923 2528
912 1930 2655
926 1929 2751
937 1929 2825
943 1923 2879
758 2003 632
765 2013 670
771 2025 717
780 2038 780
787 2045 870
801 2065 1006
816 2081 1189
838 2102 1430
870 2134 1706
903 2162 1986
939 2185 2232
971 2199 2434
999 2208 2605
1019 2213 2736
1038 2220 2844
1047 2216 2924
1065 2231 3003
881 2263 733
887 2276 772
890 2281 816
892 2284 873
894 2284 957
912 2308 1093
931 2332 1279
956 2360 1521
983 2386 1788
1017 2418 2068
1041 2433 2301
1070 2447 2506
1099 2462 2683
1122 2472 2820
1141 2478 2937
1154 2481 3025
1171 2493 3103
976 2468 816
985 2491 854
987 2494 898
992 2501 957
994 2503 1042
1007 2517 1174
1028 2545 1361
1057 2581 1604
1089 2615 1873
1113 2633 2139
1135 2650 2371
1157 2661 2574
1188 2681 2759
1207 2684 2892
1224 2689 3009
1247 2708 3110
1268 2725 3198
1040 2614 874
1048 2635 906
1050 2640 951
1052 2641 1010
1061 2653 1100
1077 2674 1235
1096 2699 1420
1127 2736 1662
1155 2766 1929
1178 2784 2188
1200 2801 2419
1219 2813 2621
1244 2826 2798
1272 2845 2944
1295 2860 3065
1311 2869 3158
1323 2875 3234
1091 2733 920
1096 2749 950
1094 2746 989
1097 2749 1049
1107 2763 1140
1127 2792 1281
1146 2815 1467
1165 2836 1699
1197 2872 1963
1227 2901 2227
1251 2922 2460
1265 2927 2653
1287 2942 2825
1317 2965 2973
1339 2980 3092
1360 2996 3195
1377 3009 3276
1118 2807 945
1125 2825 976
1121 2818 1013
1125 2824 1077
1138 2843 1173
1154 2864 1313
1176 2891 1505
1198 2916 1739
1226 2946 1996
1256 2976 2260
1283 3002 2495
1304 3019 2688
1332 3045 2866
1357 3065 3007
1386 3090 3134
1406 3106 3231
1421 3117 3310
1122 2834 949
1130 2854 983
1129 2852 1024
1134 2859 1093
1151 2883 1200
1167 2905 1348
1193 2940 1548
1224 2979 1791
1254 3012 2050
1287 3048 2308
1321 3085 2543
1351 3116 2742
1375 3140 2913
1400 3162 3051
1432 3192 3182
1449 3206 3266
1457 3205 3338
91 22 21
101 24 49
120 27 90
139 31 180
172 55 307
205 97 469
244 137 660
285 176 885
326 208 1156
398 202 1611
498 238 2045
604 294 2428
675 336 2694
708 359 2820
727 372 2901
738 382 2961
749 390 3011
106 51 24
120 54 52
133 66 109
156 82 200
185 117 327
214 153 483
256 193 674
295 238 901
334 249 1218
403 249 1649
491 280 2033
576 321 2363
649 364 2623
698 396 2802
735 420 2934
752 431 3009
748 431 3026
131 113 29
141 127 65
150 138 127
165 159 217
198 192 346
232 229 509
275 274 700
305 303 943
339 305 1275
406 307 1685
485 332 2030
557 365 2317
615 396 2540
657 423 2694
684 440 2805
697 451 2870
691 453 2879
160 213 45
165 226 94
173 239 158
186 257 246
219 288 373
257 332 540
293 371 728
315 391 990
347 385 1336
413 390 1718
483 410 2033
545 436 2290
595 462 2488
632 485 2630
657 502 2734
667 512 2792
662 519 2797
193 349 89
201 360 142
216 377 210
228 395 296
247 420 412
282 459 571
318 500 772
322 505 1048
354 500 1391
415 508 1735
480 527 2026
538 551 2264
586 577 2452
619 594 2581
640 609 2675
645 618 2710
634 629 2697
249 520 150
257 534 201
272 551 269
284 570 354
298 591 468
328 626 623
337 659 830
331 658 1107
369 664 1428
432 679 1754
491 697 2016
536 713 2214
582 738 2388
613 756 2511
634 773 2594
644 790 2641
640 805 2640
326 729 230
336 745 282
344 763 347
362 785 436
371 813 545
371 848 684
364 870 878
369 880 1149
413 894 1453
474 911 1754
531 932 1999
578 953 2198
622 977 2374
649 992 2489
672 1009 2583
687 1026 2641
693 1043 2668
419 988 323
422 1004 368
421 1028 420
427 1061 496
435 1103 596
434 1135 729
439 1159 927
455 1165 1186
500 1178 1472
556 1202 1761
610 1228 2013
659 1253 2223
698 1273 2396
728 1291 2525
746 1301 2614
760 1312 2676
776 1332 2734
519 1298 416
523 1336 453
531 1370 501
538 1407 567
549 1443 665
560 1468 805
571 1479 1000
590 1489 1252
627 1512 1539
682 1542 1836
734 1573 2093
779 1598 2307
813 1614 2478
840 1627 2609
857 1631 2703
869 1637 2771
888 1654 2843
662 1697 524
671 1721 562
680 1747 611
691 1773 677
697 1784 769
711 1803 909
729 1822 1105
749 1838 1354
779 1863 1637
821 1892 1929
866 1918 2178
908 1942 2395
944 1962 2579
966 1968 2706
981 1969 2805
995 1974 2886
1012 1986 2960
812 2035 644
821 2058 685
826 2071 731
833 2082 792
839 2090 881
851 2105 1016
869 2125 1208
890 2145 1456
922 2176 1737
955 2203 2023
991 2225 2272
1023 2237 2477
1053 2250 2654
1074 2259 2785
1092 2263 2894
1114 2279 2994
1135 2297 3077
923 2272 739
936 2311 781
945 2330 831
949 2335 889
949 2332 971
963 2351 1105
982 2374 1295
1010 2405 1546
1036 2429 1819
1069 2458 2103
1090 2469 2336
1118 2481 2541
1150 2498 2722
1173 2508 2858
1199 2525 2982
1223 2544 3083
1241 2557 3165
1019 2483 825
1031 2513 862
1041 2541 913
1044 2544 970
1046 2545 1054
1059 2562 1187
1078 2584 1376
1108 2617 1627
1137 2645 1900
1163 2667 2167
1186 2683 2405
1204 2690 2603
1235 2706 2784
1259 2720 2921
1287 2743 3049
1311 2763 3152
1329 2775 3234
1086 2637 887
1091 2655 917
1104 2684 966
1107 2689 1025
1112 2693 1111
1127 2712 1249
1146 2734 1438
1178 2770 1689
1203 2794 1953
1224 2810 2212
1248 2829 2447
1269 2842 2651
1299 2862 2830
1330 2889 2977
1355 2907 3100
1376 2923 3201
1385 2926 3272
1129 2743 925
1135 2762 957
1142 2782 999
1148 2789 1062
1156 2800 1152
1177 2827 1298
1196 2848 1488
1218 2872 1725
1245 2901 1989
1273 2925 2256
1299 2947 2489
1325 2971 2693
1350 2992 2869
1379 3015 3015
1402 3032 3134
1427 3056 3238
1440 3061 3314
1158 2818 952
1164 2837 983
1172 2857 1026
1176 2863 1090
1188 2878 1186
1208 2903 1334
1228 2928 1529
1250 2951 1765
1280 2983 2031
1313 3018 2301
1351 3058 2541
1372 3076 2737
1401 3107 2915
1426 3127 3055
1452 3149 3175
1473 3165 3278
1483 3169 3353
1163 2849 957
1172 2872 990
1185 2902 1043
1190 2908 1111
1208 2932 1221
1226 2955 1374
1254 2991 1581
1288 3034 1831
1324 3074 2097
1360 3113 2360
1395 3152 2597
1425 3184 2795
1448 3207 2966
1473 3228 3104
1499 3253 3224
1514 3261 3317
1522 3261 3385
180 26 24
192 29 52
205 32 109
227 44 201
254 75 325
289 115 489
323 154 677
365 197 907
406 194 1252
481 199 1696
581 244 2125
669 296 2465
718 329 2656
745 350 2771
775 374 2889
789 384 2954
793 390 2994
200 60 28
207 73 63
224 85 130
242 102 218
268 134 343
299 171 502
335 214 695
370 249 941
412 239 1299
477 246 1714
561 281 2084
643 328 2398
710 368 2645
750 393 2805
778 415 2924
794 426 2993
