滤镜资源/Professional Luts Collection/Triune-Digital-Cinematic-LUTs/3D LUTs (3DL)/REDLOGFILM/The Lord of the Rings - REDlogFilm.3dl
# Created by Benjamin (IWLTBAP) : http://luts.iwltbap.com
# Copyright: (C) Copyright 2016 Triune Films and IWLTBAP
# Blockbuster LUTs Pack
0 256 512 768 1023
21 19 18
51 34 281
221 181 1098
595 335 2656
711 410 3096
80 326 64
141 388 383
267 505 1331
468 548 2274
526 594 2538
409 1227 393
460 1390 660
545 1460 1480
724 1562 2390
786 1584 2727
943 2457 812
959 2479 1038
1053 2591 1856
1160 2671 2747
1214 2677 3145
1097 2836 949
1103 2839 1181
1202 2961 2015
1313 3077 2866
1397 3148 3298
309 36 31
372 99 349
518 181 1345
785 322 2595
852 383 2942
404 396 134
468 469 460
515 509 1449
710 598 2447
761 670 2744
713 1429 427
701 1507 683
783 1591 1609
962 1698 2565
1063 1771 3002
1174 2574 877
1201 2637 1105
1295 2746 1973
1416 2850 2887
1517 2932 3355
1325 2965 1020
1374 3048 1285
1524 3248 2207
1659 3392 3105
1722 3436 3517
1158 256 245
1428 301 558
1575 315 1500
1669 458 2531
1650 488 2858
1452 598 320
1582 625 607
1630 649 1561
1662 766 2522
1628 846 2943
1867 1727 670
1946 1795 916
1987 1924 1872
2076 2123 2886
2021 2209 3377
2420 3033 1211
2468 3084 1398
2506 3244 2368
2432 3360 3271
2401 3428 3740
2632 3498 1397
2665 3603 1624
2692 3790 2617
2600 3877 3457
2632 3873 3828
2689 702 696
2731 720 907
2789 744 1719
2961 809 2824
2366 577 2601
2648 892 691
2845 952 951
2849 979 1781
2853 997 2675
2907 1106 3169
3214 2070 1079
3301 2148 1291
3402 2363 2279
3466 2507 3220
3528 2632 3730
3705 3333 1530
3796 3411 1732
3819 3566 2644
3783 3633 3500
3793 3692 3898
3870 3792 1684
3916 3893 1880
3881 3998 2781
3838 4038 3584
3874 4041 3945
3222 882 875
3207 876 1054
3220 881 1798
2780 682 2304
2854 710 2735
3075 1005 820
3237 1063 1069
3275 1098 1884
3335 1146 2780
3415 1262 3286
3700 2191 1225
3796 2293 1443
3904 2533 2449
3960 2670 3361
3983 2757 3802
4020 3379 1673
4040 3464 1906
4094 3638 2894
4095 3728 3629
4095 3741 3928
4086 3795 1849
4095 3878 2146
4095 3992 3235
4095 4054 3854
4095 4090 4087
