滤镜资源/Lutify.me Free 3D LUTs Package/Capture One/Mac/Lutify.me JPG Styles/50%/LM-JPG-Herderite-50.costyle
<?xml version="1.0"?>
<SL Engine="1000">
	<E K="ICCProfile" V="LM-JPG-Herderite-50.icm" />
	<E K="Name" V="LM-JPG-Herderite" />
	<E K="StyleSource" V="Styles" />
	<E K="UUID" V="8D82A4AF-9998-4243-A18B-2E372EA82F27" />
</SL>
