滤镜资源/Lutify.me Free 3D LUTs Package/Capture One/Mac/Lutify.me JPG Styles/50%/LM-JPG-Hilutite-50.costyle
<?xml version="1.0"?>
<SL Engine="1000">
	<E K="ICCProfile" V="LM-JPG-Hilutite-50.icm" />
	<E K="Name" V="LM-JPG-Hilutite" />
	<E K="StyleSource" V="Styles" />
	<E K="UUID" V="885F803D-328B-4824-9155-CDDB44C3D11C" />
</SL>
