滤镜资源/Lutify.me Free 3D LUTs Package/Capture One/Mac/Lutify.me JPG Styles/50%/LM-JPG-Hypersthene-50.costyle
<?xml version="1.0"?>
<SL Engine="1000">
	<E K="ICCProfile" V="LM-JPG-Hypersthene-50.icm" />
	<E K="Name" V="LM-JPG-Hypersthene" />
	<E K="StyleSource" V="Styles" />
	<E K="UUID" V="D282487E-5148-459F-A5F5-479CC81D88C4" />
</SL>
