滤镜资源/Lutify.me Free 3D LUTs Package/Capture One/Mac/Lutify.me JPG Styles/50%/LM-JPG-Hackmanite-50.costyle
<?xml version="1.0"?>
<SL Engine="1000">
	<E K="ICCProfile" V="LM-JPG-Hackmanite-50.icm" />
	<E K="Name" V="LM-JPG-Hackmanite" />
	<E K="StyleSource" V="Styles" />
	<E K="UUID" V="3E8D84C8-F178-49E2-8030-34AD8F4B3C78" />
</SL>
