滤镜资源/Lutify.me Free 3D LUTs Package/3D LUTs/Monitoring LUTs/RED DSMC2/Scarlet-W IPP2/Hackmanite - Scarlet-W-IPP2.cube
# Website: https://lutify.me
# Contact: help@lutify.me
# Created by: Lutify.me
# Copyright: (c) Copyright Lutify.me 2016, G.T. Colord LTD
LUT_3D_SIZE 5
0.000000 0.000000 0.000000
0.291349 0.013969 0.066670
0.896715 0.106925 0.271042
1.000000 0.646628 0.711680
1.000000 0.926155 0.941360
0.003717 0.241175 0.009594
0.210823 0.224194 0.008412
0.885791 0.159612 0.252621
1.000000 0.644652 0.706880
1.000000 0.924421 0.939823
0.006496 0.758996 0.099995
0.012045 0.757374 0.097574
0.698550 0.731394 0.090695
1.000000 0.716459 0.646311
1.000000 0.914121 0.927430
0.123455 0.973115 0.495745
0.127498 0.973036 0.495548
0.429243 0.970512 0.490622
0.935084 0.956091 0.532500
1.000000 0.944162 0.885411
0.679681 1.000000 0.806995
0.680352 1.000000 0.806985
0.703778 1.000000 0.806616
0.871752 1.000000 0.804662
1.000000 1.000000 0.827922
0.019738 0.003465 0.340424
0.283553 0.003120 0.333462
0.891545 0.095363 0.340302
1.000000 0.641308 0.710524
1.000000 0.924792 0.940279
0.003717 0.204555 0.299517
0.201651 0.186905 0.292748
0.879581 0.141856 0.315793
1.000000 0.638805 0.705322
1.000000 0.923041 0.938730
0.006199 0.756156 0.155716
0.011191 0.754523 0.152688
0.697716 0.728605 0.141521
1.000000 0.714338 0.645162
1.000000 0.912263 0.925803
0.123197 0.972981 0.501524
0.127230 0.972900 0.501326
0.428780 0.970376 0.496422
0.935046 0.955965 0.536639
1.000000 0.943732 0.883080
0.679644 1.000000 0.807305
0.680316 1.000000 0.807294
0.703747 1.000000 0.806926
0.871740 1.000000 0.804962
1.000000 1.000000 0.828133
0.053071 0.006594 0.813606
0.182097 0.005730 0.811378
0.832152 0.010881 0.787387
1.000000 0.571133 0.769624
1.000000 0.911355 0.932460
0.026904 0.023072 0.802562
0.112025 0.020145 0.800366
0.821420 0.021344 0.779825
1.000000 0.568364 0.767365
1.000000 0.909444 0.930904
0.003946 0.706565 0.712136
0.004475 0.704515 0.711039
0.682242 0.675082 0.696656
1.000000 0.679730 0.730635
1.000000 0.898908 0.918266
0.114654 0.968681 0.643207
0.118775 0.968599 0.643047
0.413381 0.966003 0.638573
0.933801 0.951779 0.646695
1.000000 0.940470 0.873612
0.678329 1.000000 0.818338
0.679005 1.000000 0.818327
0.702569 1.000000 0.817955
0.871279 1.000000 0.815710
1.000000 1.000000 0.835773
0.008087 0.002511 1.000000
0.014634 0.002472 1.000000
0.913210 0.002365 1.000000
1.000000 0.047662 0.990537
1.000000 0.866368 0.960336
0.006480 0.002581 1.000000
0.010702 0.002581 1.000000
0.901555 0.002472 1.000000
1.000000 0.051797 0.989920
1.000000 0.863582 0.960036
0.003717 0.556993 0.995894
0.003717 0.547463 0.995327
0.609269 0.415653 0.988128
1.000000 0.419819 0.975846
1.000000 0.849293 0.957070
0.050262 0.943494 0.938318
0.053304 0.943381 0.938253
0.263160 0.939949 0.936319
0.925896 0.923782 0.927947
1.000000 0.921982 0.934880
0.661035 1.000000 0.911430
0.661770 1.000000 0.911420
0.687228 1.000000 0.911085
0.865651 1.000000 0.907918
1.000000 1.000000 0.909426
0.003717 0.002365 1.000000
0.003717 0.002365 1.000000
0.096492 0.002365 1.000000
1.000000 0.002365 1.000000
1.000000 0.270015 1.000000
0.003717 0.002365 1.000000
0.003717 0.002365 1.000000
0.088809 0.002365 1.000000
1.000000 0.002365 1.000000
1.000000 0.275140 1.000000
0.003717 0.002365 1.000000
0.003717 0.002365 1.000000
0.003717 0.002365 1.000000
1.000000 0.002365 1.000000
1.000000 0.458216 1.000000
0.003717 0.949171 1.000000
0.003717 0.947500 1.000000
0.022350 0.905832 1.000000
0.910858 0.874861 1.000000
1.000000 0.869612 1.000000
0.571315 1.000000 1.000000
0.572470 1.000000 1.000000
0.611595 1.000000 1.000000
0.846235 1.000000 1.000000
1.000000 1.000000 1.000000
