滤镜资源/Lutify.me Free 3D LUTs Package/3D LUTs/Monitoring LUTs/RED DSMC2/Scarlet-W IPP2/Hackmanite - Scarlet-W-IPP2.cube
# Website: https://lutify.me
# Contact: help@lutify.me
# Created by: Lutify.me
# Copyright: (c) Copyright Lutify.me 2016, G.T. Colord LTD
LUT_3D_SIZE 9
0.000000 0.000000 0.000000
0.096567 0.002365 0.007773
0.291349 0.013969 0.066670
0.647538 0.041788 0.172832
0.896715 0.106925 0.271042
1.000000 0.374063 0.507173
1.000000 0.646628 0.711680
1.000000 0.817435 0.850373
1.000000 0.926155 0.941360
0.003717 0.057214 0.007773
0.069054 0.053209 0.007773
0.283339 0.029690 0.050678
0.642978 0.047976 0.165769
0.895202 0.109849 0.268875
1.000000 0.373087 0.504770
1.000000 0.645728 0.710708
1.000000 0.816723 0.849743
1.000000 0.925713 0.940980
0.003717 0.241175 0.009594
0.003885 0.239446 0.009425
0.210823 0.224194 0.008412
0.611685 0.174343 0.111721
0.885791 0.159612 0.252621
1.000000 0.387422 0.495333
1.000000 0.644652 0.706880
1.000000 0.814161 0.847136
1.000000 0.924421 0.939823
0.004023 0.532294 0.025464
0.004154 0.531732 0.025116
0.020368 0.526240 0.022131
0.470465 0.505434 0.016786
0.843212 0.456710 0.202586
0.995872 0.481993 0.452046
1.000000 0.651282 0.691135
1.000000 0.809072 0.839365
1.000000 0.920282 0.935829
0.006496 0.758996 0.099995
0.006754 0.758858 0.099781
0.012045 0.757374 0.097574
0.177712 0.750100 0.089517
0.698550 0.731394 0.090695
0.963867 0.694701 0.329291
1.000000 0.716459 0.646311
1.000000 0.812812 0.821614
1.000000 0.914121 0.927430
0.032049 0.899572 0.244866
0.032502 0.899543 0.244828
0.037801 0.899213 0.244397
0.086643 0.897268 0.242161
0.530968 0.890449 0.238516
0.849147 0.876657 0.261354
1.000000 0.852223 0.561107
1.000000 0.860955 0.783196
1.000000 0.916162 0.912440
0.123455 0.973115 0.495745
0.123775 0.973110 0.495729
0.127498 0.973036 0.495548
0.154865 0.972567 0.494444
0.429243 0.970512 0.490622
0.764826 0.964928 0.490913
0.935084 0.956091 0.532500
1.000000 0.940377 0.729191
1.000000 0.944162 0.885411
0.430838 1.000000 0.683655
0.431146 1.000000 0.683651
0.434665 1.000000 0.683613
0.456625 1.000000 0.683365
0.545041 1.000000 0.682254
0.726996 1.000000 0.679886
0.892173 1.000000 0.683931
0.981263 0.996704 0.711991
1.000000 0.985922 0.851162
0.679681 1.000000 0.806995
0.679734 1.000000 0.806994
0.680352 1.000000 0.806985
0.684365 1.000000 0.806922
0.703778 1.000000 0.806616
0.767415 1.000000 0.805606
0.871752 1.000000 0.804662
0.957645 1.000000 0.809288
1.000000 1.000000 0.827922
0.003717 0.002365 0.169475
0.094264 0.002365 0.165106
0.290551 0.011652 0.135755
0.645296 0.040220 0.190727
0.895631 0.105500 0.275374
1.000000 0.371707 0.507062
1.000000 0.645420 0.710960
1.000000 0.816677 0.849784
1.000000 0.926154 0.941364
0.003717 0.047426 0.138290
0.064464 0.042212 0.132050
0.282550 0.025013 0.110318
0.640702 0.046215 0.185632
0.894106 0.108390 0.272936
1.000000 0.370742 0.504673
1.000000 0.644519 0.709994
1.000000 0.815962 0.849151
1.000000 0.925712 0.940985
0.003717 0.237679 0.015218
0.003885 0.235932 0.014486
0.209925 0.220531 0.010625
0.609726 0.171357 0.129616
0.884613 0.157771 0.256109
1.000000 0.385326 0.495255
1.000000 0.643461 0.706158
1.000000 0.814152 0.847170
1.000000 0.924419 0.939827
0.003989 0.531267 0.031344
0.004154 0.530703 0.030929
0.019947 0.525204 0.027374
0.470145 0.504398 0.020139
0.842429 0.456016 0.206511
0.995421 0.480996 0.451974
1.000000 0.650251 0.690365
1.000000 0.808321 0.838748
1.000000 0.919819 0.935438
0.006469 0.758756 0.104125
0.006723 0.758619 0.103902
0.011971 0.757133 0.101613
0.177386 0.749858 0.093228
0.698481 0.731162 0.094260
0.963138 0.694682 0.329317
1.000000 0.716032 0.645370
1.000000 0.812209 0.820934
1.000000 0.913662 0.927011
0.032009 0.899522 0.245866
0.032463 0.899493 0.245827
0.037758 0.899163 0.245392
0.086574 0.897218 0.243129
0.530906 0.890398 0.239431
0.849133 0.876610 0.262643
1.000000 0.852267 0.560008
1.000000 0.860763 0.782353
1.000000 0.915810 0.911955
0.123434 0.973104 0.496215
0.123754 0.973098 0.496200
0.127476 0.973025 0.496019
0.154839 0.972557 0.494915
0.429208 0.970501 0.491096
0.764816 0.964917 0.491361
0.935080 0.956082 0.532835
1.000000 0.940394 0.728798
1.000000 0.944057 0.884803
0.430821 1.000000 0.683756
0.431130 1.000000 0.683752
0.434649 1.000000 0.683713
0.456611 1.000000 0.683465
0.545031 1.000000 0.682356
0.726991 1.000000 0.679986
0.892172 1.000000 0.684023
0.981262 0.996701 0.712061
1.000000 0.985950 0.850544
0.679678 1.000000 0.807020
0.679731 1.000000 0.807019
0.680349 1.000000 0.807010
0.684362 1.000000 0.806947
0.703776 1.000000 0.806642
0.767414 1.000000 0.805630
0.871751 1.000000 0.804686
0.957644 1.000000 0.809311
1.000000 1.000000 0.827939
0.019738 0.003465 0.340424
0.064291 0.003306 0.339690
0.283553 0.003120 0.333462
0.637250 0.028584 0.315903
0.891545 0.095363 0.340302
1.000000 0.358953 0.516027
1.000000 0.641308 0.710524
1.000000 0.814317 0.848290
1.000000 0.924792 0.940279
0.010860 0.007080 0.336293
0.040034 0.006325 0.335546
0.275359 0.004618 0.329258
0.633049 0.033049 0.312271
0.889430 0.097693 0.337647
1.000000 0.359010 0.514471
1.000000 0.640398 0.709575
1.000000 0.813598 0.847658
1.000000 0.924345 0.939896
0.003717 0.204555 0.299517
0.003717 0.202705 0.298775
0.201651 0.186905 0.292748
0.601113 0.140883 0.279234
0.879581 0.141856 0.315793
1.000000 0.374641 0.505576
1.000000 0.638805 0.705322
1.000000 0.811021 0.845040
1.000000 0.923041 0.938730
0.003885 0.521016 0.183678
0.003946 0.520438 0.182277
0.015999 0.514826 0.169992
0.466908 0.493848 0.142398
0.836697 0.447945 0.241611
0.993774 0.475002 0.464455
1.000000 0.646154 0.689599
1.000000 0.805979 0.837225
1.000000 0.918408 0.934306
0.006199 0.756156 0.155716
0.006427 0.756016 0.155450
0.011191 0.754523 0.152688
0.173786 0.747221 0.142385
0.697716 0.728605 0.141521
0.960842 0.693393 0.348824
1.000000 0.714338 0.645162
1.000000 0.810305 0.819297
1.000000 0.912263 0.925803
0.031569 0.898960 0.259346
0.032019 0.898930 0.259291
0.037286 0.898599 0.258691
0.085800 0.896651 0.255559
0.530198 0.889828 0.250528
0.848973 0.876073 0.279000
1.000000 0.852172 0.560206
1.000000 0.860119 0.780369
1.000000 0.914737 0.910562
0.123197 0.972981 0.501524
0.123515 0.972974 0.501509
0.127230 0.972900 0.501326
0.154544 0.972431 0.500230
0.428780 0.970376 0.496422
0.764704 0.964791 0.496413
0.935046 0.955965 0.536639
1.000000 0.940469 0.726902
1.000000 0.943732 0.883080
0.430633 1.000000 0.684906
0.430943 1.000000 0.684902
0.434465 1.000000 0.684863
0.456438 1.000000 0.684616
0.544907 1.000000 0.683505
0.726933 1.000000 0.681124
0.892150 1.000000 0.685070
0.981253 0.996672 0.712862
1.000000 0.985992 0.849460
0.679644 1.000000 0.807305
0.679699 1.000000 0.807304
0.680316 1.000000 0.807294
0.684329 1.000000 0.807232
0.703747 1.000000 0.806926
0.767392 1.000000 0.805914
0.871740 1.000000 0.804962
0.957639 1.000000 0.809562
1.000000 1.000000 0.828133
0.044070 0.005895 0.591950
0.059162 0.005741 0.591549
0.257263 0.004674 0.587832
0.601681 0.005386 0.575554
0.876511 0.059304 0.548705
1.000000 0.299056 0.581426
1.000000 0.623009 0.715983
1.000000 0.805945 0.844717
1.000000 0.920104 0.936807
0.038667 0.007629 0.589894
0.052160 0.007405 0.589492
0.248641 0.005771 0.585792
0.598465 0.006433 0.573610
0.874182 0.060683 0.547781
1.000000 0.299252 0.580542
1.000000 0.622048 0.715145
1.000000 0.805204 0.844096
1.000000 0.919642 0.936418
0.009919 0.076741 0.571148
0.014581 0.074778 0.570747
0.170886 0.060089 0.567240
0.568865 0.039520 0.556225
0.863723 0.088685 0.536523
0.998565 0.319907 0.574599
1.000000 0.621179 0.711711
1.000000 0.802574 0.841523
1.000000 0.918301 0.935228
0.003717 0.477885 0.511052
0.003717 0.477211 0.510729
0.005991 0.470753 0.507677
0.453057 0.447417 0.497554
0.817713 0.404576 0.486377
0.987567 0.443257 0.544658
1.000000 0.630392 0.697362
1.000000 0.797629 0.833823
1.000000 0.914036 0.931123
0.005151 0.743060 0.408407
0.005287 0.742915 0.408211
0.008050 0.741353 0.406136
0.154548 0.733807 0.397227
0.693733 0.715147 0.387290
0.952892 0.684430 0.460135
1.000000 0.706405 0.655379
1.000000 0.803485 0.815880
1.000000 0.907927 0.922443
0.029010 0.895614 0.386969
0.029434 0.895583 0.386898
0.034536 0.895248 0.386102
0.081244 0.893276 0.381759
0.525929 0.886412 0.372361
0.848007 0.872817 0.392269
1.000000 0.850821 0.577461
1.000000 0.857675 0.776493
1.000000 0.911432 0.906744
0.121684 0.972190 0.533491
0.121998 0.972183 0.533476
0.125664 0.972108 0.533301
0.152672 0.971638 0.532227
0.426035 0.969574 0.528396
0.763993 0.963983 0.526902
0.934821 0.955216 0.559769
1.000000 0.940449 0.725343
1.000000 0.942727 0.878424
0.429410 1.000000 0.692258
0.429719 1.000000 0.692254
0.433256 1.000000 0.692216
0.455319 1.000000 0.691969
0.544100 1.000000 0.690858
0.726556 1.000000 0.688401
0.892004 1.000000 0.691786
0.981196 0.996483 0.718022
1.000000 0.986164 0.845045
0.679430 1.000000 0.809165
0.679484 1.000000 0.809164
0.680102 1.000000 0.809154
0.684120 1.000000 0.809092
0.703553 1.000000 0.808785
0.767252 1.000000 0.807767
0.871665 1.000000 0.806767
0.957603 1.000000 0.811205
1.000000 1.000000 0.829406
0.053071 0.006594 0.813606
0.060002 0.006511 0.813419
0.182097 0.005730 0.811378
0.593247 0.004652 0.804532
0.832152 0.010881 0.787387
0.991483 0.143303 0.753184
1.000000 0.571133 0.769624
1.000000 0.786459 0.848413
1.000000 0.911355 0.932460
0.050245 0.007360 0.812681
0.056854 0.007266 0.812494
0.173603 0.006337 0.810447
0.589636 0.005052 0.803583
0.831165 0.011590 0.786685
0.990929 0.143264 0.753071
1.000000 0.569937 0.769260
1.000000 0.785650 0.847913
1.000000 0.910863 0.932076
0.026904 0.023072 0.802562
0.030989 0.022802 0.802373
0.112025 0.020145 0.800366
0.551400 0.015219 0.793934
0.821420 0.021344 0.779825
0.987927 0.156010 0.750897
1.000000 0.568364 0.767365
1.000000 0.782827 0.845819
1.000000 0.909444 0.930904
0.006166 0.358980 0.771755
0.006799 0.357719 0.771568
0.025769 0.346556 0.769906
0.415551 0.310212 0.764293
0.781564 0.255773 0.753258
0.974417 0.321904 0.736647
1.000000 0.582121 0.759078
1.000000 0.777903 0.839446
1.000000 0.904967 0.926858
0.003946 0.706565 0.712136
0.003946 0.706390 0.712041
0.004475 0.704515 0.711039
0.104894 0.695703 0.706470
0.682242 0.675082 0.696656
0.935409 0.648943 0.689927
1.000000 0.679730 0.730635
1.000000 0.786946 0.823933
1.000000 0.898908 0.918266
0.020560 0.883591 0.642316
0.020894 0.883558 0.642275
0.024987 0.883200 0.641814
0.065484 0.881099 0.639196
0.509502 0.873920 0.631535
0.844388 0.860380 0.626274
1.000000 0.842699 0.672273
1.000000 0.850814 0.788716
1.000000 0.904207 0.901905
0.114654 0.968681 0.643207
0.115001 0.968675 0.643194
0.118775 0.968599 0.643047
0.144445 0.968115 0.642131
0.413381 0.966003 0.638573
0.760786 0.960359 0.633733
0.933801 0.951779 0.646695
1.000000 0.939027 0.743617
1.000000 0.940470 0.873612
0.423286 1.000000 0.725223
0.423603 1.000000 0.725220
0.427215 1.000000 0.725182
0.449730 1.000000 0.724939
0.540084 1.000000 0.723826
0.724693 1.000000 0.721089
0.891287 1.000000 0.722266
0.980910 0.995540 0.741957
1.000000 0.986124 0.842977
0.678329 1.000000 0.818338
0.678383 1.000000 0.818337
0.679005 1.000000 0.818327
0.683043 1.000000 0.818264
0.702569 1.000000 0.817955
0.766536 1.000000 0.816908
0.871279 1.000000 0.815710
0.957420 1.000000 0.819361
1.000000 1.000000 0.835773
0.035947 0.004050 0.957694
0.038482 0.004034 0.957615
0.080887 0.003850 0.956708
0.600677 0.003340 0.952553
0.848126 0.003521 0.943699
0.960687 0.022569 0.922212
1.000000 0.414347 0.888933
1.000000 0.743185 0.890505
1.000000 0.895732 0.935025
0.034826 0.004191 0.957308
0.037291 0.004170 0.957229
0.078777 0.003971 0.956319
0.597208 0.003419 0.952154
0.846803 0.003622 0.943271
0.960439 0.023026 0.922015
1.000000 0.412196 0.888990
1.000000 0.742152 0.890359
1.000000 0.895171 0.934733
0.023435 0.007270 0.952787
0.025290 0.007219 0.952704
0.057146 0.006639 0.951757
0.554104 0.005108 0.947472
0.830957 0.005872 0.938246
0.957769 0.028509 0.919913
1.000000 0.410156 0.888871
1.000000 0.739743 0.889821
1.000000 0.893563 0.933839
0.005592 0.105323 0.932598
0.005835 0.104589 0.932512
0.013391 0.096491 0.931506
0.308089 0.072998 0.927629
0.773033 0.057355 0.921239
0.944550 0.079776 0.909795
1.000000 0.440507 0.886567
1.000000 0.733007 0.887339
1.000000 0.888551 0.930768
0.005358 0.637639 0.900938
0.005502 0.637291 0.900874
0.008111 0.633797 0.900232
0.080823 0.619802 0.897643
0.658809 0.591290 0.892024
0.907378 0.563023 0.883642
1.000000 0.605082 0.872680
1.000000 0.748327 0.879664
1.000000 0.882285 0.924192
0.007422 0.858183 0.855086
0.007531 0.858144 0.855063
0.009057 0.857702 0.854816
0.032229 0.855154 0.853402
0.465975 0.846764 0.848863
0.836378 0.831935 0.841522
0.988085 0.817613 0.837583
1.000000 0.831154 0.856842
1.000000 0.891066 0.910867
0.093180 0.958960 0.814239
0.093470 0.958953 0.814231
0.096821 0.958870 0.814133
0.121259 0.958339 0.813513
0.371907 0.956041 0.810937
0.751355 0.950059 0.805334
0.930847 0.941536 0.802489
1.000000 0.931910 0.822969
1.000000 0.934949 0.886354
0.399927 1.000000 0.812095
0.400268 1.000000 0.812092
0.404166 1.000000 0.812059
0.428413 1.000000 0.811844
0.525039 1.000000 0.810832
0.717949 1.000000 0.807896
0.888746 0.997138 0.805336
0.979889 0.992098 0.811771
1.000000 0.984547 0.861463
0.673836 1.000000 0.850601
0.673891 1.000000 0.850600
0.674525 1.000000 0.850590
0.678645 1.000000 0.850527
0.698561 1.000000 0.850216
0.763632 1.000000 0.849111
0.869739 1.000000 0.847369
0.956692 1.000000 0.848687
1.000000 1.000000 0.859481
0.008087 0.002511 1.000000
0.008420 0.002511 1.000000
0.014634 0.002472 1.000000
0.343088 0.002472 1.000000
0.913210 0.002365 1.000000
0.991158 0.002656 1.000000
1.000000 0.047662 0.990537
1.000000 0.646017 0.963214
1.000000 0.866368 0.960336
0.007928 0.002511 1.000000
0.008248 0.002511 1.000000
0.014282 0.002511 1.000000
0.336416 0.002472 1.000000
0.912307 0.002365 1.000000
0.990701 0.002680 1.000000
1.000000 0.047990 0.990487
1.000000 0.644396 0.963286
1.000000 0.865643 0.960265
0.006480 0.002581 1.000000
0.006679 0.002581 1.000000
0.010702 0.002581 1.000000
0.264641 0.002511 1.000000
0.901555 0.002472 1.000000
0.985272 0.002942 1.000000
1.000000 0.051797 0.989920
1.000000 0.639916 0.963462
1.000000 0.863582 0.960036
0.003885 0.013554 1.000000
0.003885 0.013494 1.000000
0.004083 0.012815 1.000000
0.073147 0.008972 1.000000
0.806659 0.007647 1.000000
0.952199 0.019300 0.999194
1.000000 0.080437 0.986671
1.000000 0.632679 0.963592
1.000000 0.856472 0.959169
0.003717 0.556993 0.995894
0.003717 0.556238 0.995848
0.003717 0.547463 0.995327
0.023174 0.485451 0.991945
0.609269 0.415653 0.988128
0.903307 0.366447 0.983128
1.000000 0.419819 0.975846
1.000000 0.663505 0.961015
1.000000 0.849293 0.957070
0.007200 0.823802 0.968143
0.007300 0.823730 0.968127
0.008652 0.822940 0.967949
0.026600 0.818721 0.967002
0.350003 0.806738 0.964293
0.823940 0.787996 0.959730
0.970372 0.773779 0.954454
1.000000 0.790133 0.948386
1.000000 0.864770 0.950599
0.050262 0.943494 0.938318
0.050502 0.943485 0.938312
0.053304 0.943381 0.938253
0.073669 0.942726 0.937881
0.263160 0.939949 0.936319
0.733058 0.933018 0.932543
0.925896 0.923782 0.927947
1.000000 0.916072 0.925604
1.000000 0.921982 0.934880
0.335185 0.997163 0.915529
0.335604 0.997161 0.915527
0.340368 0.997139 0.915503
0.369949 0.996995 0.915350
0.485596 0.996297 0.914618
0.702082 0.993959 0.912293
0.883290 0.989551 0.908680
0.977725 0.984536 0.907022
1.000000 0.979064 0.916205
0.661035 1.000000 0.911430
0.661095 1.000000 0.911429
0.661770 1.000000 0.911420
0.666148 1.000000 0.911365
0.687228 1.000000 0.911085
0.755613 1.000000 0.910044
0.865651 1.000000 0.907918
0.954800 1.000000 0.906510
1.000000 1.000000 0.909426
0.003717 0.002365 1.000000
0.003717 0.002365 1.000000
0.003885 0.002365 1.000000
0.007432 0.002365 1.000000
1.000000 0.002365 1.000000
1.000000 0.002365 1.000000
1.000000 0.002365 1.000000
1.000000 0.102197 1.000000
1.000000 0.810595 0.999365
0.003717 0.002365 1.000000
0.003717 0.002365 1.000000
0.003885 0.002365 1.000000
0.007343 0.002365 1.000000
1.000000 0.002365 1.000000
1.000000 0.002365 1.000000
1.000000 0.002472 1.000000
1.000000 0.102485 1.000000
1.000000 0.809536 0.999422
0.003717 0.002365 1.000000
0.003717 0.002365 1.000000
0.003717 0.002365 1.000000
0.006466 0.002365 1.000000
1.000000 0.002365 1.000000
1.000000 0.002365 1.000000
1.000000 0.002472 1.000000
1.000000 0.105826 1.000000
1.000000 0.806561 0.999578
0.003717 0.002365 1.000000
0.003717 0.002365 1.000000
0.003717 0.002365 1.000000
0.004133 0.002365 1.000000
0.964642 0.002365 1.000000
1.000000 0.002365 1.000000
1.000000 0.005073 1.000000
1.000000 0.130449 1.000000
1.000000 0.797577 1.000000
0.003717 0.414823 1.000000
0.003717 0.413669 1.000000
0.003717 0.400121 1.000000
0.003717 0.299207 1.000000
0.409875 0.085155 1.000000
0.909405 0.072878 1.000000
1.000000 0.107563 1.000000
1.000000 0.357254 1.000000
1.000000 0.789228 1.000000
0.003717 0.830247 1.000000
0.003717 0.829974 1.000000
0.003717 0.826825 1.000000
0.003717 0.804766 1.000000
0.123793 0.755120 1.000000
0.804050 0.725562 1.000000
0.968042 0.707572 1.000000
1.000000 0.720262 1.000000
1.000000 0.818922 0.997386
0.024931 0.926931 1.000000
0.025071 0.926915 1.000000
0.026712 0.926749 1.000000
0.038815 0.925721 1.000000
0.132232 0.921678 0.999616
0.698976 0.912695 0.997201
0.919639 0.901783 0.994030
1.000000 0.894512 0.990981
1.000000 0.900566 0.987665
0.194573 0.988321 0.983075
0.194882 0.988319 0.983074
0.198444 0.988291 0.983058
0.225666 0.988114 0.982956
0.389725 0.987264 0.982469
0.671829 0.984489 0.980901
0.875020 0.979472 0.978175
0.974833 0.974107 0.975511
1.000000 0.969728 0.974121
0.633712 1.000000 0.969775
0.633780 1.000000 0.969775
0.634552 1.000000 0.969767
0.639562 1.000000 0.969726
0.663579 1.000000 0.969515
0.739771 1.000000 0.968713
0.858329 1.000000 0.966896
0.951684 1.000000 0.964759
1.000000 1.000000 0.963785
0.003717 0.002365 1.000000
0.003717 0.002365 1.000000
0.003717 0.002365 1.000000
0.003717 0.002365 1.000000
0.096492 0.002365 1.000000
1.000000 0.002365 1.000000
1.000000 0.002365 1.000000
1.000000 0.002365 1.000000
1.000000 0.270015 1.000000
0.003717 0.002365 1.000000
0.003717 0.002365 1.000000
0.003717 0.002365 1.000000
0.003717 0.002365 1.000000
0.095909 0.002365 1.000000
1.000000 0.002365 1.000000
1.000000 0.002365 1.000000
1.000000 0.002365 1.000000
1.000000 0.270427 1.000000
0.003717 0.002365 1.000000
0.003717 0.002365 1.000000
0.003717 0.002365 1.000000
0.003717 0.002365 1.000000
0.088809 0.002365 1.000000
1.000000 0.002365 1.000000
1.000000 0.002365 1.000000
1.000000 0.002365 1.000000
1.000000 0.275140 1.000000
0.003717 0.002365 1.000000
0.003717 0.002365 1.000000
0.003717 0.002365 1.000000
0.003717 0.002365 1.000000
0.049411 0.002365 1.000000
1.000000 0.002365 1.000000
1.000000 0.002365 1.000000
1.000000 0.002713 1.000000
1.000000 0.306684 1.000000
0.003717 0.002365 1.000000
0.003717 0.002365 1.000000
0.003717 0.002365 1.000000
0.003717 0.002365 1.000000
0.003717 0.002365 1.000000
1.000000 0.002365 1.000000
1.000000 0.002365 1.000000
1.000000 0.054851 1.000000
1.000000 0.458216 1.000000
0.003717 0.908279 1.000000
0.003717 0.908102 1.000000
0.003717 0.906054 1.000000
0.003717 0.891838 1.000000
0.003717 0.791860 1.000000
0.756705 0.596914 1.000000
0.968853 0.568114 1.000000
1.000000 0.605745 1.000000
1.000000 0.698270 1.000000
0.003717 0.949171 1.000000
0.003717 0.949038 1.000000
0.003717 0.947500 1.000000
0.003717 0.936852 1.000000
0.022350 0.905832 1.000000
0.605902 0.889383 1.000000
0.910858 0.874861 1.000000
0.999448 0.866484 1.000000
1.000000 0.869612 1.000000
0.093693 0.979740 1.000000
0.093816 0.979737 1.000000
0.095240 0.979696 1.000000
0.105094 0.979429 1.000000
0.163757 0.978194 1.000000
0.600192 0.974465 1.000000
0.861850 0.968330 1.000000
0.971443 0.962224 1.000000
1.000000 0.958235 1.000000
0.571315 1.000000 1.000000
0.571408 1.000000 1.000000
0.572470 1.000000 1.000000
0.579330 1.000000 1.000000
0.611595 1.000000 1.000000
0.708342 1.000000 1.000000
0.846235 1.000000 1.000000
0.947436 1.000000 1.000000
1.000000 1.000000 1.000000
