滤镜资源/Lutify.me Free 3D LUTs Package/3D LUTs/Monitoring LUTs/RED DSMC2/Scarlet-W IPP2/Hackmanite - Scarlet-W-IPP2.cube
# Website: https://lutify.me
# Contact: help@lutify.me
# Created by: Lutify.me
# Copyright: (c) Copyright Lutify.me 2016, G.T. Colord LTD
LUT_3D_SIZE 17
0.000000 0.000000 0.000000
0.020420 0.002365 0.007773
0.096567 0.002365 0.007773
0.165718 0.004681 0.021818
0.291349 0.013969 0.066670
0.468154 0.025622 0.115512
0.647538 0.041788 0.172832
0.790869 0.065709 0.222833
0.896715 0.106925 0.271042
0.966968 0.197467 0.381768
1.000000 0.374063 0.507173
1.000000 0.527501 0.619245
1.000000 0.646628 0.711680
1.000000 0.740314 0.787012
1.000000 0.817435 0.850373
1.000000 0.878725 0.901454
1.000000 0.926155 0.941360
0.000000 0.000026 0.000000
0.000004 0.000010 0.000000
0.089255 0.002848 0.007773
0.162837 0.009200 0.016651
0.288636 0.017938 0.061019
0.465875 0.028433 0.111581
0.645685 0.043693 0.170323
0.789718 0.067018 0.222093
0.896039 0.107752 0.270180
0.966600 0.197916 0.380749
1.000000 0.373722 0.506376
1.000000 0.526965 0.618625
1.000000 0.646710 0.711663
1.000000 0.740347 0.787005
1.000000 0.816696 0.849749
1.000000 0.878730 0.901452
1.000000 0.926158 0.941360
0.003717 0.057214 0.007773
0.003717 0.055930 0.007773
0.069054 0.053209 0.007773
0.156907 0.041016 0.011131
0.283339 0.029690 0.050678
0.461909 0.035080 0.104202
0.642978 0.047976 0.165769
0.787782 0.069887 0.220720
0.895202 0.109849 0.268875
0.966172 0.199737 0.379424
1.000000 0.373087 0.504770
1.000000 0.526660 0.617966
1.000000 0.645728 0.710708
1.000000 0.739948 0.786611
1.000000 0.816723 0.849743
1.000000 0.878151 0.900959
1.000000 0.925713 0.940980
0.003717 0.124335 0.007773
0.003717 0.123675 0.007773
0.004326 0.122349 0.007773
0.134170 0.117279 0.007773
0.262456 0.105078 0.021947
0.446890 0.081691 0.079261
0.633703 0.070151 0.149536
0.782688 0.083796 0.215489
0.892310 0.119953 0.264068
0.964738 0.208699 0.374704
1.000000 0.376629 0.502419
1.000000 0.526309 0.615875
1.000000 0.645296 0.709644
1.000000 0.738836 0.785409
1.000000 0.816080 0.849095
1.000000 0.877602 0.900456
1.000000 0.925278 0.940596
0.003717 0.241175 0.009594
0.003717 0.240598 0.009532
0.003885 0.239446 0.009425
0.024553 0.235027 0.009013
0.210823 0.224194 0.008412
0.410220 0.204592 0.034282
0.611685 0.174343 0.111721
0.769962 0.146789 0.195575
0.885791 0.159612 0.252621
0.961659 0.242663 0.363400
1.000000 0.387422 0.495333
1.000000 0.528450 0.611826
1.000000 0.644652 0.706880
1.000000 0.737393 0.783307
1.000000 0.814161 0.847136
1.000000 0.876547 0.899437
1.000000 0.924421 0.939823
0.003885 0.389846 0.013679
0.003885 0.389500 0.013584
0.003946 0.388808 0.013420
0.005479 0.386110 0.012828
0.120042 0.379311 0.011665
0.334086 0.366662 0.010353
0.566598 0.343786 0.056158
0.743069 0.313730 0.152733
0.871229 0.293512 0.234764
0.954240 0.323294 0.336190
1.000000 0.418327 0.481404
1.000000 0.536215 0.602876
1.000000 0.645362 0.701444
1.000000 0.736014 0.779708
1.000000 0.812044 0.844398
1.000000 0.874508 0.897359
1.000000 0.922725 0.938252
0.004023 0.532294 0.025464
0.004057 0.532108 0.025347
0.004154 0.531732 0.025116
0.004876 0.530228 0.024229
0.020368 0.526240 0.022131
0.212499 0.518371 0.019177
0.470465 0.505434 0.016786
0.691955 0.482846 0.087612
0.843212 0.456710 0.202586
0.940515 0.446644 0.290672
0.995872 0.481993 0.452046
1.000000 0.560173 0.586235
1.000000 0.651282 0.691135
1.000000 0.735021 0.772519
1.000000 0.809072 0.839365
1.000000 0.871187 0.893600
1.000000 0.920282 0.935829
0.004615 0.656353 0.051896
0.004659 0.656259 0.051798
0.004782 0.656067 0.051605
0.005431 0.655284 0.050829
0.010798 0.653108 0.048828
0.071920 0.648501 0.045289
0.352321 0.640362 0.041146
0.593911 0.628144 0.039793
0.794717 0.606539 0.142048
0.915679 0.585076 0.245516
0.984406 0.581344 0.402245
1.000000 0.612349 0.557272
1.000000 0.671771 0.673886
1.000000 0.740317 0.761756
1.000000 0.807963 0.832151
1.000000 0.867931 0.888405
1.000000 0.917346 0.932441
0.006496 0.758996 0.099995
0.006576 0.758951 0.099924
0.006754 0.758858 0.099781
0.007607 0.758477 0.099196
0.012045 0.757374 0.097574
0.035548 0.754878 0.094302
0.177712 0.750100 0.089517
0.495890 0.742360 0.085893
0.698550 0.731394 0.090695
0.872305 0.711676 0.210917
0.963867 0.694701 0.329291
1.000000 0.693325 0.511052
1.000000 0.716459 0.646311
1.000000 0.759392 0.745104
1.000000 0.812812 0.821614
1.000000 0.866545 0.881243
1.000000 0.914121 0.927430
0.013738 0.839473 0.177933
0.013878 0.839452 0.177889
0.014167 0.839409 0.177796
0.015428 0.839231 0.177410
0.019773 0.838702 0.176302
0.034708 0.837443 0.173840
0.095450 0.834837 0.169550
0.360536 0.830242 0.164676
0.621458 0.823212 0.164455
0.783321 0.813829 0.182014
0.927094 0.796689 0.271061
0.993534 0.783601 0.452627
1.000000 0.782388 0.606395
1.000000 0.797927 0.719911
1.000000 0.829502 0.805838
1.000000 0.870938 0.871708
1.000000 0.913021 0.921166
0.032049 0.899572 0.244866
0.032196 0.899562 0.244853
0.032502 0.899543 0.244828
0.033780 0.899461 0.244719
0.037801 0.899213 0.244397
0.049663 0.898605 0.243644
0.086643 0.897268 0.242161
0.223201 0.894709 0.240003
0.530968 0.890449 0.238516
0.724801 0.884335 0.241829
0.849147 0.876657 0.261354
0.964016 0.862359 0.404857
1.000000 0.852223 0.561107
1.000000 0.850587 0.686503
1.000000 0.860955 0.783196
1.000000 0.884346 0.857217
1.000000 0.916162 0.912440
0.067676 0.942877 0.366246
0.067810 0.942873 0.366233
0.068085 0.942863 0.366206
0.069248 0.942825 0.366096
0.072897 0.942710 0.365767
0.082946 0.942419 0.364960
0.108833 0.941758 0.363227
0.183470 0.940405 0.360184
0.453481 0.937960 0.356627
0.664080 0.934152 0.357023
0.805825 0.929044 0.370745
0.898757 0.922964 0.407634
0.988548 0.911340 0.528993
1.000000 0.903420 0.652414
1.000000 0.901498 0.755297
1.000000 0.908751 0.838102
1.000000 0.926627 0.900781
0.123455 0.973115 0.495745
0.123560 0.973113 0.495740
0.123775 0.973110 0.495729
0.124682 0.973091 0.495685
0.127498 0.973036 0.495548
0.135056 0.972895 0.495209
0.154865 0.972567 0.494444
0.227462 0.971867 0.492947
0.429243 0.970512 0.490622
0.619135 0.968227 0.488653
0.764826 0.964928 0.490913
0.867385 0.960773 0.503744
0.935084 0.956091 0.532500
1.000000 0.946662 0.630879
1.000000 0.940377 0.729191
1.000000 0.938534 0.815854
1.000000 0.944162 0.885411
0.225166 0.994148 0.599977
0.225340 0.994148 0.599975
0.225699 0.994146 0.599971
0.227210 0.994136 0.599950
0.231991 0.994110 0.599889
0.244996 0.994039 0.599733
0.278521 0.993875 0.599374
0.352779 0.993513 0.598625
0.469229 0.992778 0.597284
0.606660 0.991451 0.595523
0.735913 0.989385 0.594745
0.838994 0.986612 0.598146
0.912284 0.983335 0.609744
0.961700 0.979750 0.632477
1.000000 0.972054 0.713197
1.000000 0.966837 0.795921
1.000000 0.965428 0.867823
0.430838 1.000000 0.683655
0.430940 1.000000 0.683653
0.431146 1.000000 0.683651
0.432019 1.000000 0.683641
0.434665 1.000000 0.683613
0.441319 1.000000 0.683539
0.456625 1.000000 0.683365
0.488201 1.000000 0.682988
0.545041 1.000000 0.682254
0.628978 1.000000 0.681087
0.726996 1.000000 0.679886
0.819115 1.000000 0.680046
0.892173 1.000000 0.683931
0.944969 0.999449 0.694050
0.981263 0.996704 0.711991
1.000000 0.990246 0.780735
1.000000 0.985922 0.851162
0.575396 1.000000 0.751032
0.575437 1.000000 0.751031
0.575520 1.000000 0.751030
0.575869 1.000000 0.751025
0.576926 1.000000 0.751010
0.579615 1.000000 0.750974
0.585953 1.000000 0.750887
0.599716 1.000000 0.750694
0.627024 1.000000 0.750302
0.673751 1.000000 0.749605
0.739016 1.000000 0.748657
0.811797 1.000000 0.747983
0.877871 1.000000 0.748780
0.930350 1.000000 0.752681
0.968807 1.000000 0.761246
0.995817 1.000000 0.775503
1.000000 1.000000 0.837031
0.679681 1.000000 0.806995
0.679698 1.000000 0.806994
0.679734 1.000000 0.806994
0.679886 1.000000 0.806992
0.680352 1.000000 0.806985
0.681538 1.000000 0.806966
0.684365 1.000000 0.806922
0.690657 1.000000 0.806824
0.703778 1.000000 0.806616
0.728340 1.000000 0.806224
0.767415 1.000000 0.805606
0.818263 1.000000 0.804912
0.871752 1.000000 0.804662
0.919530 1.000000 0.805753
0.957645 1.000000 0.809288
0.986117 1.000000 0.816297
1.000000 1.000000 0.827922
0.000000 0.000000 0.000106
0.001627 0.000000 0.000067
0.095819 0.002365 0.014027
0.165406 0.004162 0.047846
0.291083 0.013159 0.084942
0.467407 0.024955 0.127942
0.646451 0.041223 0.179542
0.790066 0.065187 0.224425
0.896180 0.106343 0.272219
0.966650 0.196358 0.382106
1.000000 0.372956 0.506899
1.000000 0.526699 0.618829
1.000000 0.646610 0.711744
1.000000 0.740307 0.787039
1.000000 0.816682 0.849762
1.000000 0.878724 0.901457
1.000000 0.926155 0.941361
0.000000 0.000003 0.000007
0.000002 0.000001 0.000004
0.088258 0.002472 0.008483
0.162519 0.007673 0.036983
0.288379 0.016918 0.078686
0.465729 0.027746 0.123851
0.645105 0.043160 0.177145
0.789301 0.066585 0.223783
0.896028 0.107497 0.271751
0.966596 0.197640 0.381820
1.000000 0.372619 0.506103
1.000000 0.526162 0.618213
1.000000 0.646117 0.711268
1.000000 0.739874 0.786653
1.000000 0.816694 0.849759
1.000000 0.878141 0.900965
1.000000 0.926157 0.941361
0.003717 0.054234 0.007773
0.003717 0.052858 0.007773
0.067601 0.049922 0.007773
0.156606 0.036321 0.020022
0.283076 0.028056 0.066936
0.461148 0.034216 0.115652
0.642393 0.047406 0.172421
0.787362 0.069442 0.222391
0.894661 0.109243 0.270011
0.965850 0.198631 0.379773
1.000000 0.372954 0.505187
1.000000 0.525857 0.617554
1.000000 0.645711 0.710773
1.000000 0.739476 0.786259
1.000000 0.815968 0.849130
1.000000 0.878150 0.900963
1.000000 0.925712 0.940982
0.003717 0.122907 0.008589
0.003717 0.122241 0.008483
0.004212 0.120903 0.008341
0.133786 0.115782 0.008124
0.262170 0.103533 0.030756
0.446094 0.079944 0.088401
0.633098 0.069371 0.155536
0.781854 0.083227 0.217600
0.891757 0.119331 0.265164
0.964411 0.207595 0.375066
1.000000 0.375562 0.502147
1.000000 0.525514 0.615460
1.000000 0.644702 0.709252
1.000000 0.738364 0.785056
1.000000 0.815325 0.848479
1.000000 0.877601 0.900460
1.000000 0.925278 0.940599
0.003717 0.240014 0.010665
0.003717 0.239434 0.010550
0.003885 0.238279 0.010366
0.023846 0.233845 0.009780
0.210524 0.222978 0.008849
0.409342 0.203487 0.039430
0.611033 0.173356 0.117350
0.769078 0.146001 0.197878
0.885209 0.158924 0.253603
0.961318 0.241576 0.363771
1.000000 0.387291 0.495767
1.000000 0.527682 0.611408
1.000000 0.644066 0.706483
1.000000 0.737386 0.783334
1.000000 0.814157 0.847148
1.000000 0.875953 0.898942
1.000000 0.924421 0.939824
0.003717 0.389191 0.015032
0.003885 0.388845 0.014926
0.003946 0.388152 0.014724
0.005426 0.385450 0.013981
0.119659 0.378646 0.012550
0.333885 0.365991 0.010934
0.565854 0.343213 0.059565
0.742557 0.313215 0.155610
0.870587 0.293048 0.235419
0.954235 0.323014 0.337481
1.000000 0.417560 0.481117
1.000000 0.536167 0.603054
1.000000 0.644799 0.701039
1.000000 0.735552 0.779348
1.000000 0.812041 0.844410
1.000000 0.873912 0.896860
1.000000 0.922724 0.938254
0.004023 0.531955 0.027287
0.004057 0.531768 0.027165
0.004154 0.531392 0.026917
0.004870 0.529887 0.025977
0.020229 0.525898 0.023754
0.212281 0.518027 0.020461
0.470360 0.505092 0.017764
0.691914 0.482522 0.090043
0.843196 0.456437 0.204055
0.940080 0.446404 0.290949
0.995648 0.481548 0.451726
1.000000 0.559630 0.585777
1.000000 0.650777 0.690709
1.000000 0.735013 0.772550
1.000000 0.809068 0.839377
1.000000 0.871186 0.893604
1.000000 0.920282 0.935831
0.004606 0.656186 0.053532
0.004659 0.656091 0.053432
0.004774 0.655899 0.053233
0.005422 0.655116 0.052439
0.010755 0.652939 0.050383
0.071777 0.648331 0.046746
0.352203 0.640193 0.042481
0.593861 0.627978 0.041057
0.793785 0.606527 0.142817
0.915673 0.584960 0.246096
0.984130 0.581200 0.401877
1.000000 0.612043 0.556758
1.000000 0.671389 0.673426
1.000000 0.740309 0.761791
1.000000 0.807960 0.832165
1.000000 0.867930 0.888410
1.000000 0.916882 0.932036
0.006486 0.758917 0.101335
0.006567 0.758872 0.101264
0.006745 0.758780 0.101119
0.007597 0.758398 0.100526
0.012019 0.757295 0.098884
0.035498 0.754799 0.095570
0.177605 0.750020 0.090719
0.495836 0.742281 0.087035
0.698528 0.731319 0.091851
0.871605 0.711722 0.211038
0.963504 0.694717 0.328916
1.000000 0.693296 0.511320
1.000000 0.716253 0.645788
1.000000 0.759116 0.744680
1.000000 0.812809 0.821629
1.000000 0.866543 0.881248
1.000000 0.914121 0.927433
0.013726 0.839437 0.178924
0.013864 0.839415 0.178878
0.014153 0.839373 0.178785
0.015413 0.839194 0.178397
0.019755 0.838665 0.177280
0.034683 0.837406 0.174804
0.095412 0.834800 0.170486
0.360481 0.830205 0.165574
0.621435 0.823175 0.165335
0.783310 0.813795 0.182953
0.926588 0.796747 0.270871
0.993293 0.783626 0.451989
1.000000 0.782338 0.605796
1.000000 0.797792 0.719434
1.000000 0.829094 0.805054
1.000000 0.870478 0.871107
1.000000 0.913021 0.921168
0.032035 0.899556 0.245192
0.032183 0.899546 0.245179
0.032489 0.899527 0.245154
0.033767 0.899444 0.245045
0.037786 0.899196 0.244722
0.049646 0.898588 0.243966
0.086621 0.897252 0.242478
0.223151 0.894693 0.240310
0.530949 0.890432 0.238815
0.724792 0.884319 0.242132
0.849142 0.876641 0.261775
0.964015 0.862346 0.405185
1.000000 0.852249 0.560488
1.000000 0.850562 0.685976
1.000000 0.860769 0.782311
1.000000 0.884344 0.857224
1.000000 0.916162 0.912444
0.067666 0.942869 0.366621
0.067799 0.942865 0.366609
0.068075 0.942856 0.366582
0.069237 0.942818 0.366473
0.072886 0.942702 0.366144
0.082934 0.942412 0.365338
0.108820 0.941750 0.363606
0.183448 0.940397 0.360567
0.453465 0.937952 0.357010
0.664072 0.934144 0.357395
0.805822 0.929036 0.371083
0.898755 0.922957 0.407901
0.988301 0.911382 0.528513
1.000000 0.903443 0.651890
1.000000 0.901495 0.755322
1.000000 0.908750 0.838112
1.000000 0.926396 0.900232
0.123449 0.973112 0.495899
0.123553 0.973110 0.495894
0.123767 0.973105 0.495883
0.124674 0.973088 0.495838
0.127491 0.973031 0.495702
0.135049 0.972892 0.495363
0.154855 0.972563 0.494599
0.227444 0.971864 0.493102
0.429232 0.970509 0.490778
0.619130 0.968223 0.488806
0.764823 0.964925 0.491060
0.867383 0.960769 0.503877
0.935083 0.956088 0.532609
1.000000 0.946695 0.630471
1.000000 0.940375 0.729217
1.000000 0.938533 0.815865
1.000000 0.944058 0.884795
0.225157 0.994147 0.600047
0.225330 0.994146 0.600044
0.225688 0.994144 0.600040
0.227203 0.994135 0.600020
0.231981 0.994108 0.599958
0.244986 0.994038 0.599804
0.278507 0.993873 0.599444
0.352768 0.993512 0.598696
0.469223 0.992777 0.597354
0.606656 0.991450 0.595593
0.735911 0.989383 0.594812
0.838993 0.986610 0.598210
0.912284 0.983334 0.609801
0.961699 0.979749 0.632525
1.000000 0.972081 0.712858
1.000000 0.966873 0.795158
1.000000 0.965428 0.867828
0.430832 1.000000 0.683688
0.430933 1.000000 0.683686
0.431140 1.000000 0.683684
0.432014 1.000000 0.683675
0.434660 1.000000 0.683645
0.441312 1.000000 0.683572
0.456620 1.000000 0.683398
0.488196 1.000000 0.683020
0.545038 1.000000 0.682288
0.628974 1.000000 0.681121
0.726995 1.000000 0.679919
0.819114 1.000000 0.680078
0.892173 1.000000 0.683961
0.944969 0.999448 0.694077
0.981262 0.996703 0.712014
1.000000 0.990245 0.780747
1.000000 0.985922 0.851167
0.575395 1.000000 0.751047
0.575436 1.000000 0.751047
0.575517 1.000000 0.751046
0.575867 1.000000 0.751042
0.576925 1.000000 0.751028
0.579613 1.000000 0.750990
0.585950 1.000000 0.750903
0.599713 1.000000 0.750711
0.627022 1.000000 0.750318
0.673750 1.000000 0.749621
0.739015 1.000000 0.748673
0.811796 1.000000 0.748000
0.877871 1.000000 0.748797
0.930350 1.000000 0.752696
0.968807 1.000000 0.761259
0.995817 1.000000 0.775514
1.000000 1.000000 0.837036
0.679680 1.000000 0.807003
0.679698 1.000000 0.807002
0.679733 1.000000 0.807002
0.679885 1.000000 0.807000
0.680351 1.000000 0.806993
0.681537 1.000000 0.806975
0.684364 1.000000 0.806931
0.690657 1.000000 0.806832
0.703777 1.000000 0.806625
0.728340 1.000000 0.806232
0.767415 1.000000 0.805613
0.818262 1.000000 0.804920
0.871752 1.000000 0.804670
0.919528 1.000000 0.805760
0.957645 1.000000 0.809296
0.986116 1.000000 0.816303
1.000000 1.000000 0.827928
0.003717 0.002365 0.169475
0.008927 0.002365 0.168054
0.094264 0.002365 0.165106
0.164769 0.003450 0.153574
0.290551 0.011652 0.135755
0.466516 0.023701 0.152430
0.645296 0.040220 0.190727
0.789233 0.064328 0.228020
0.895631 0.105500 0.275374
0.966327 0.194967 0.383567
1.000000 0.371707 0.507062
1.000000 0.525845 0.618584
1.000000 0.645420 0.710960
1.000000 0.739827 0.786714
1.000000 0.816677 0.849784
1.000000 0.878135 0.900974
1.000000 0.926154 0.941364
0.003717 0.002365 0.160250
0.003717 0.002365 0.158697
0.086177 0.002365 0.155464
0.161873 0.005365 0.142637
0.287865 0.015021 0.127375
0.464226 0.026332 0.148395
0.643943 0.042107 0.189052
0.788075 0.065620 0.227253
0.894951 0.106323 0.274411
0.965956 0.195418 0.382568
1.000000 0.371370 0.506270
1.000000 0.525308 0.617971
1.000000 0.645504 0.710942
1.000000 0.739395 0.786328
1.000000 0.816689 0.849781
1.000000 0.878139 0.900973
1.000000 0.925707 0.940985
0.003717 0.047426 0.138290
0.003717 0.045787 0.136311
0.064464 0.042212 0.132050
0.155994 0.025990 0.110380
0.282550 0.025013 0.110318
0.460239 0.032565 0.140724
0.640702 0.046215 0.185632
0.786126 0.068456 0.225817
0.894106 0.108390 0.272936
0.965523 0.197238 0.381262
1.000000 0.370742 0.504673
1.000000 0.525005 0.617313
1.000000 0.644519 0.709994
1.000000 0.738997 0.785933
1.000000 0.815962 0.849151
1.000000 0.877558 0.900478
1.000000 0.925712 0.940985
0.003717 0.119999 0.022191
0.003717 0.119322 0.020800
0.004057 0.117960 0.018418
0.133011 0.112740 0.012708
0.261597 0.100380 0.058323
0.445140 0.076285 0.110220
0.631888 0.067818 0.168563
0.780988 0.082222 0.220943
0.891190 0.118394 0.267908
0.964078 0.206187 0.376601
1.000000 0.374351 0.502327
1.000000 0.524668 0.615221
1.000000 0.644090 0.708929
1.000000 0.737884 0.784730
1.000000 0.815318 0.848502
1.000000 0.877009 0.899973
1.000000 0.925276 0.940601
0.003717 0.237679 0.015218
0.003717 0.237096 0.014961
0.003885 0.235932 0.014486
0.022458 0.231467 0.012969
0.209925 0.220531 0.010625
0.408286 0.201181 0.052217
0.609726 0.171357 0.129616
0.768158 0.144292 0.203188
0.884613 0.157771 0.256109
0.960969 0.240130 0.365354
1.000000 0.385326 0.495255
1.000000 0.526863 0.611169
1.000000 0.643461 0.706158
1.000000 0.736908 0.783008
1.000000 0.814152 0.847170
1.000000 0.875952 0.898951
1.000000 0.924419 0.939827
0.003717 0.387874 0.018995
0.003885 0.387527 0.018827
0.003946 0.386832 0.018496
0.005338 0.384123 0.017323
0.118882 0.377311 0.015072
0.333481 0.364638 0.012599
0.564360 0.342050 0.067074
0.741053 0.312258 0.161378
0.869929 0.292085 0.237136
0.953483 0.321677 0.338378
1.000000 0.416018 0.480576
1.000000 0.534772 0.602201
1.000000 0.644215 0.700708
1.000000 0.735081 0.779017
1.000000 0.811283 0.843795
1.000000 0.873910 0.896868
1.000000 0.922724 0.938257
0.003989 0.531267 0.031344
0.004057 0.531080 0.031204
0.004154 0.530703 0.030929
0.004840 0.529197 0.029871
0.019947 0.525204 0.027374
0.211839 0.517330 0.023579
0.470145 0.504398 0.020139
0.690693 0.482024 0.094499
0.842429 0.456016 0.206511
0.939638 0.445966 0.292355
0.995421 0.480996 0.451974
1.000000 0.559041 0.585526
1.000000 0.650251 0.690365
1.000000 0.734132 0.771814
1.000000 0.808321 0.838748
1.000000 0.870587 0.893099
1.000000 0.919819 0.935438
0.004596 0.655845 0.057008
0.004650 0.655750 0.056903
0.004766 0.655558 0.056693
0.005397 0.654775 0.055857
0.010664 0.652596 0.053685
0.071485 0.647988 0.049840
0.351962 0.639848 0.045313
0.593758 0.627641 0.043741
0.793748 0.606223 0.145953
0.915130 0.584817 0.246828
0.983850 0.580977 0.402181
1.000000 0.611695 0.556480
1.000000 0.670987 0.673056
1.000000 0.739542 0.761016
1.000000 0.807254 0.831514
1.000000 0.867339 0.887887
1.000000 0.916880 0.932039
0.006469 0.758756 0.104125
0.006551 0.758711 0.104052
0.006723 0.758619 0.103902
0.007571 0.758237 0.103295
0.011971 0.757133 0.101613
0.035397 0.754637 0.098212
0.177386 0.749858 0.093228
0.495728 0.742119 0.089416
0.698481 0.731162 0.094260
0.870893 0.711698 0.212016
0.963138 0.694682 0.329317
1.000000 0.693177 0.511002
1.000000 0.716032 0.645370
1.000000 0.758833 0.744296
1.000000 0.812209 0.820934
1.000000 0.866541 0.881261
1.000000 0.913662 0.927011
0.013698 0.839363 0.180971
0.013836 0.839342 0.180925
0.014124 0.839299 0.180830
0.015384 0.839121 0.180438
0.019719 0.838592 0.179308
0.034633 0.837332 0.176799
0.095331 0.834727 0.172421
0.360364 0.830131 0.167435
0.621392 0.823102 0.167156
0.783290 0.813725 0.184480
0.926582 0.796689 0.271830
0.993051 0.783630 0.451686
1.000000 0.782276 0.605320
1.000000 0.797651 0.719005
1.000000 0.829088 0.805090
1.000000 0.870474 0.871120
1.000000 0.912593 0.920720
0.032009 0.899522 0.245866
0.032157 0.899513 0.245853
0.032463 0.899493 0.245827
0.033741 0.899410 0.245717
0.037758 0.899163 0.245392
0.049611 0.898554 0.244629
0.086574 0.897218 0.243129
0.223051 0.894659 0.240943
0.530906 0.890398 0.239431
0.724773 0.884285 0.242756
0.849133 0.876610 0.262643
0.963661 0.862385 0.405039
1.000000 0.852267 0.560008
1.000000 0.850531 0.685504
1.000000 0.860763 0.782353
1.000000 0.884037 0.856563
1.000000 0.915810 0.911955
0.067645 0.942854 0.367404
0.067779 0.942850 0.367391
0.068054 0.942841 0.367365
0.069216 0.942802 0.367253
0.072864 0.942687 0.366914
0.082910 0.942397 0.366108
0.108794 0.941735 0.364380
0.183404 0.940383 0.361348
0.453429 0.937935 0.357793
0.664056 0.934128 0.358152
0.805813 0.929021 0.371773
0.898750 0.922942 0.408447
0.988298 0.911371 0.528783
1.000000 0.903463 0.651428
1.000000 0.901469 0.754389
1.000000 0.908615 0.837371
1.000000 0.926394 0.900240
0.123434 0.973104 0.496215
0.123539 0.973102 0.496210
0.123754 0.973098 0.496200
0.124660 0.973080 0.496155
0.127476 0.973025 0.496019
0.135033 0.972884 0.495679
0.154839 0.972557 0.494915
0.227412 0.971856 0.493420
0.429208 0.970501 0.491096
0.619117 0.968216 0.489120
0.764816 0.964917 0.491361
0.867379 0.960762 0.504150
0.935080 0.956082 0.532835
1.000000 0.946691 0.630588
1.000000 0.940394 0.728798
1.000000 0.938530 0.815887
1.000000 0.944057 0.884803
0.225137 0.994144 0.600190
0.225311 0.994143 0.600187
0.225669 0.994141 0.600182
0.227182 0.994131 0.600163
0.231958 0.994104 0.600101
0.244963 0.994035 0.599946
0.278485 0.993870 0.599586
0.352748 0.993508 0.598839
0.469208 0.992773 0.597497
0.606646 0.991445 0.595735
0.735906 0.989380 0.594953
0.838990 0.986606 0.598343
0.912282 0.983330 0.609921
0.961698 0.979745 0.632625
1.000000 0.972106 0.712548
1.000000 0.966870 0.795182
1.000000 0.965414 0.867179
0.430821 1.000000 0.683756
0.430922 1.000000 0.683755
0.431130 1.000000 0.683752
0.432004 1.000000 0.683743
0.434649 1.000000 0.683713
0.441302 1.000000 0.683639
0.456611 1.000000 0.683465
0.488187 1.000000 0.683088
0.545031 1.000000 0.682356
0.628969 1.000000 0.681188
0.726991 1.000000 0.679986
0.819111 1.000000 0.680143
0.892172 1.000000 0.684023
0.944967 0.999446 0.694133
0.981262 0.996701 0.712061
1.000000 0.990243 0.780772
1.000000 0.985950 0.850544
0.575391 1.000000 0.751081
0.575432 1.000000 0.751080
0.575514 1.000000 0.751079
0.575862 1.000000 0.751075
0.576920 1.000000 0.751060
0.579608 1.000000 0.751024
0.585946 1.000000 0.750937
0.599709 1.000000 0.750744
0.627018 1.000000 0.750351
0.673747 1.000000 0.749654
0.739013 1.000000 0.748707
0.811795 1.000000 0.748032
0.877869 1.000000 0.748828
0.930349 1.000000 0.752725
0.968806 1.000000 0.761286
0.995816 1.000000 0.775537
1.000000 1.000000 0.837047
0.679678 1.000000 0.807020
0.679695 1.000000 0.807020
0.679731 1.000000 0.807019
0.679883 1.000000 0.807017
0.680349 1.000000 0.807010
0.681536 1.000000 0.806991
0.684362 1.000000 0.806947
0.690654 1.000000 0.806848
0.703776 1.000000 0.806642
0.728337 1.000000 0.806249
0.767414 1.000000 0.805630
0.818261 1.000000 0.804936
0.871751 1.000000 0.804686
0.919528 1.000000 0.805777
0.957644 1.000000 0.809311
0.986116 1.000000 0.816317
1.000000 1.000000 0.827939
0.006347 0.002538 0.246710
0.018981 0.002511 0.246483
0.086756 0.002472 0.246020
0.162278 0.002511 0.244286
0.288524 0.007125 0.240410
0.464186 0.019387 0.234292
0.642721 0.036646 0.229904
0.787054 0.061283 0.244371
0.893951 0.102425 0.290023
0.965341 0.190179 0.390462
1.000000 0.367591 0.508598
1.000000 0.523157 0.618266
1.000000 0.644111 0.710609
1.000000 0.738369 0.785809
1.000000 0.815901 0.849252
1.000000 0.877535 0.900516
