滤镜资源/Lutify.me Free 3D LUTs Package/3D LUTs/Monitoring LUTs/RED DSMC2/Scarlet-W IPP2/Herderite - Scarlet-W-IPP2.cube
# Website: https://lutify.me
# Contact: help@lutify.me
# Created by: Lutify.me
# Copyright: (c) Copyright Lutify.me 2016, G.T. Colord LTD
LUT_3D_SIZE 17
0.000000 0.000000 0.000000
0.009046 0.002180 0.002115
0.054353 0.006174 0.005912
0.147303 0.019301 0.019652
0.316923 0.048730 0.050510
0.506930 0.082866 0.086732
0.676465 0.117101 0.126041
0.789663 0.151613 0.171966
0.864482 0.203976 0.251302
0.917936 0.315688 0.403463
0.952950 0.502485 0.556917
0.964103 0.649529 0.672776
0.971289 0.751098 0.753428
0.976093 0.820178 0.809551
0.979322 0.871110 0.852176
0.981433 0.908992 0.884537
0.982729 0.937378 0.908750
0.000003 0.000017 0.000003
0.000003 0.000007 0.000001
0.048237 0.005847 0.005308
0.142871 0.021690 0.018168
0.313833 0.050915 0.049068
0.504721 0.084608 0.085594
0.674931 0.118460 0.125059
0.788895 0.152821 0.170964
0.864084 0.204839 0.250096
0.917724 0.316140 0.402245
0.952916 0.502132 0.556084
0.964064 0.649045 0.672219
0.971295 0.751162 0.753419
0.976094 0.820200 0.809547
0.979293 0.870640 0.851773
0.981433 0.908995 0.884535
0.982729 0.937379 0.908750
0.011309 0.041720 0.009591
0.010992 0.040638 0.009329
0.036501 0.041089 0.009983
0.134359 0.042948 0.016649
0.307698 0.058441 0.046528
0.500931 0.088925 0.083536
0.672759 0.121852 0.123389
0.787639 0.155520 0.169142
0.863656 0.207132 0.248338
0.917569 0.318084 0.400751
0.952851 0.501474 0.554407
0.964039 0.648765 0.671617
0.971250 0.750361 0.752675
0.976076 0.819925 0.809275
0.979294 0.870657 0.851770
0.981412 0.908649 0.884229
0.982720 0.937111 0.908526
0.036604 0.111292 0.030475
0.036302 0.110533 0.030225
0.035923 0.109027 0.029742
0.105110 0.114069 0.032062
0.284301 0.127061 0.043005
0.487722 0.128581 0.077674
0.665725 0.140802 0.117803
0.784679 0.168961 0.163517
0.862450 0.218846 0.242110
0.917251 0.327716 0.395614
0.953057 0.504956 0.552243
0.963993 0.648427 0.669728
0.971229 0.750002 0.751841
0.976025 0.819155 0.808447
0.979268 0.870247 0.851357
0.981393 0.908321 0.883918
0.982711 0.936849 0.908301
0.089908 0.238295 0.074771
0.089658 0.237706 0.074555
0.089232 0.236537 0.074142
0.095084 0.232613 0.073068
0.230611 0.249341 0.079270
0.442893 0.269101 0.094035
0.652890 0.256903 0.112217
0.779979 0.240559 0.154387
0.861069 0.265239 0.228513
0.917575 0.363633 0.384001
0.953678 0.515542 0.545481
0.964066 0.650283 0.666225
0.971204 0.749447 0.749695
0.975953 0.818152 0.807019
0.979190 0.869023 0.850108
0.981356 0.907688 0.883289
0.982695 0.936331 0.907846
0.152136 0.384210 0.126733
0.152000 0.383883 0.126606
0.151755 0.383233 0.126360
0.151351 0.380729 0.125526
0.208793 0.381276 0.129766
0.390093 0.413020 0.138727
0.593919 0.434813 0.163085
0.747698 0.426332 0.176770
0.851673 0.412089 0.218506
0.918107 0.445907 0.355046
0.955519 0.545568 0.532670
0.964402 0.657084 0.658645
0.971281 0.749902 0.745559
0.975873 0.817183 0.804613
0.979102 0.867669 0.848380
0.981284 0.906463 0.882008
0.982665 0.935303 0.906923
0.205975 0.513816 0.173032
0.205927 0.513657 0.172964
0.205843 0.513336 0.172832
0.205649 0.512061 0.172337
0.210428 0.509070 0.171666
0.353682 0.530272 0.187232
0.538936 0.562149 0.193360
0.705958 0.578765 0.232200
0.815160 0.574597 0.253517
0.891849 0.573805 0.336359
0.956556 0.605436 0.504395
0.965589 0.678021 0.644925
0.971467 0.754477 0.737956
0.975780 0.816455 0.799834
0.978970 0.865761 0.845233
0.981168 0.904461 0.879698
0.982629 0.933812 0.905502
0.245389 0.614462 0.209669
0.245383 0.614391 0.209637
0.245384 0.614246 0.209574
0.245452 0.613660 0.209332
0.247171 0.612129 0.208995
0.272298 0.610953 0.210295
0.497889 0.660890 0.230616
0.660760 0.681111 0.238841
0.794046 0.691211 0.280891
0.868527 0.690660 0.342310
0.931872 0.698814 0.486586
0.965683 0.722836 0.622630
0.972237 0.769938 0.725414
0.975899 0.820010 0.792658
0.978880 0.865013 0.840702
0.981058 0.902471 0.876534
0.982561 0.932043 0.903480
0.270616 0.686205 0.238478
0.270643 0.686177 0.238466
0.270702 0.686119 0.238441
0.271002 0.685886 0.238351
0.272714 0.685268 0.238275
0.282531 0.684289 0.239452
0.393068 0.698163 0.254627
0.618338 0.757113 0.264863
0.751603 0.767656 0.276917
0.856459 0.774495 0.329420
0.912634 0.778862 0.459561
0.953466 0.788364 0.607481
0.970163 0.803838 0.708781
0.976528 0.832932 0.781925
0.978968 0.868000 0.834238
0.981026 0.901536 0.872238
0.982499 0.930067 0.900481
0.286033 0.737172 0.266840
0.286092 0.737163 0.266840
0.286215 0.737144 0.266840
0.286750 0.737068 0.266847
0.288594 0.736858 0.266926
0.295073 0.736512 0.267615
0.329978 0.738267 0.275083
0.552697 0.790088 0.299943
0.718497 0.823585 0.304483
0.816474 0.828781 0.318631
0.900824 0.835899 0.408664
0.946035 0.843956 0.586334
0.962522 0.849346 0.696577
0.973507 0.859388 0.770021
0.979327 0.878404 0.824939
0.981142 0.904015 0.866724
0.982594 0.929200 0.896777
0.288929 0.775902 0.305938
0.288996 0.775900 0.305941
0.289137 0.775895 0.305949
0.289771 0.775883 0.306004
0.291907 0.775879 0.306264
0.298134 0.775951 0.307162
0.320949 0.777105 0.312408
0.467803 0.798518 0.348766
0.675865 0.855033 0.360503
0.795551 0.870846 0.370860
0.865329 0.874526 0.399549
0.935327 0.884209 0.549325
0.961532 0.888935 0.680673
0.969317 0.891905 0.760875
0.976343 0.898736 0.816202
0.981299 0.911945 0.858515
0.982517 0.930954 0.892053
0.305056 0.809367 0.417994
0.305131 0.809378 0.417991
0.305283 0.809399 0.417982
0.305929 0.809493 0.417954
0.307957 0.809788 0.417875
0.313536 0.810600 0.417743
0.332700 0.812462 0.419389
0.412785 0.826142 0.433309
0.650598 0.870859 0.493364
0.774182 0.901710 0.495557
0.855548 0.909391 0.514667
0.905900 0.912394 0.552381
0.959224 0.919021 0.660773
0.969436 0.920398 0.750132
0.973887 0.922110 0.809244
0.978709 0.926994 0.852625
0.982208 0.937221 0.886234
0.344564 0.836040 0.536806
0.344678 0.836056 0.536819
0.344911 0.836090 0.536847
0.345898 0.836233 0.536965
0.348958 0.836677 0.537331
0.357183 0.837874 0.538354
0.380459 0.842420 0.541560
0.461546 0.858202 0.555397
0.641813 0.890536 0.603189
0.767244 0.917655 0.621402
0.844571 0.933232 0.624040
0.899387 0.937407 0.638219
0.934808 0.939140 0.663463
0.972580 0.942878 0.739270
0.974975 0.942464 0.800806
0.977607 0.943486 0.846949
0.980778 0.947450 0.881442
0.459677 0.872460 0.637731
0.459861 0.872494 0.637761
0.460233 0.872566 0.637825
0.461764 0.872892 0.638083
0.466394 0.873945 0.638867
0.478327 0.876782 0.640882
0.509816 0.882900 0.646181
0.573959 0.895605 0.657505
0.665816 0.914057 0.674678
0.770992 0.930221 0.704828
0.842149 0.945988 0.710166
0.892364 0.954394 0.712440
0.929867 0.956802 0.723116
0.955267 0.957801 0.740513
0.977348 0.958908 0.794061
0.978929 0.958156 0.840252
0.980298 0.958834 0.877204
0.634440 0.913808 0.725362
0.634519 0.913824 0.725375
0.634678 0.913855 0.725402
0.635356 0.913988 0.725517
0.637407 0.914392 0.725867
0.642565 0.915409 0.726746
0.654430 0.917746 0.728765
0.678584 0.922418 0.732923
0.720979 0.930734 0.740434
0.780026 0.941353 0.753266
0.845528 0.950930 0.769529
0.890289 0.961587 0.771295
0.924732 0.967693 0.774120
0.951435 0.970341 0.782213
0.969900 0.970923 0.794424
0.980629 0.970211 0.833995
0.981745 0.969384 0.870477
0.741187 0.936030 0.783840
0.741216 0.936036 0.783844
0.741275 0.936047 0.783854
0.741523 0.936096 0.783895
0.742274 0.936244 0.784018
0.744185 0.936620 0.784331
0.748687 0.937506 0.785068
0.758325 0.939425 0.786616
0.777209 0.943022 0.789754
0.808526 0.948473 0.795274
0.852550 0.954522 0.808249
0.890718 0.961042 0.812529
0.921277 0.967599 0.813693
0.945791 0.971475 0.816291
0.965315 0.973495 0.822686
0.979258 0.975067 0.831806
0.982712 0.976578 0.864501
0.811105 0.949848 0.825819
0.811116 0.949850 0.825820
0.811139 0.949854 0.825824
0.811237 0.949871 0.825839
0.811536 0.949923 0.825885
0.812297 0.950056 0.826002
0.814113 0.950373 0.826280
0.818154 0.951079 0.826899
0.826422 0.952516 0.828160
0.841559 0.955146 0.830491
0.864089 0.958698 0.834586
0.895334 0.962584 0.842776
0.921107 0.967391 0.844827
0.942780 0.971559 0.845811
0.960968 0.974015 0.848425
0.975291 0.975524 0.853147
0.982512 0.976388 0.859769
0.000002 0.000000 0.000018
0.000716 0.000049 0.000057
0.053615 0.006100 0.007043
0.146835 0.018923 0.024611
0.316631 0.048189 0.054646
0.506183 0.082301 0.089533
0.675537 0.116593 0.128221
0.789087 0.151049 0.173985
0.864113 0.203308 0.252867
0.917660 0.314459 0.403774
0.952872 0.501380 0.556567
0.964051 0.648810 0.672377
0.971287 0.751087 0.753474
0.976093 0.820173 0.809568
0.979293 0.870631 0.851781
0.981433 0.908992 0.884538
0.982729 0.937378 0.908751
0.000000 0.000002 0.000001
0.000001 0.000001 0.000001
0.047530 0.005531 0.005374
0.142363 0.020635 0.022005
0.313527 0.050230 0.052825
0.504572 0.084109 0.088433
0.674435 0.117963 0.127324
0.788602 0.152380 0.173146
0.864086 0.204582 0.252291
0.917717 0.315854 0.403515
0.952838 0.501030 0.555735
0.964013 0.648325 0.671811
0.971264 0.750684 0.753103
0.976074 0.819874 0.809299
0.979293 0.870639 0.851779
0.981412 0.908643 0.884233
0.982729 0.937378 0.908751
0.010575 0.039209 0.008983
0.010236 0.038050 0.008703
0.034953 0.038181 0.009252
0.133765 0.039455 0.018199
0.307354 0.057206 0.049585
0.500166 0.088209 0.086103
0.672256 0.121320 0.125593
0.787340 0.155066 0.171296
0.863281 0.206410 0.249863
0.917290 0.316858 0.401074
0.952848 0.501348 0.554824
0.963988 0.648046 0.671206
0.971248 0.750349 0.752723
0.976055 0.819599 0.809027
0.979264 0.870176 0.851374
0.981412 0.908648 0.884232
0.982720 0.937111 0.908528
0.035930 0.109655 0.030049
0.035627 0.108889 0.029783
0.035219 0.107365 0.029288
0.104157 0.112218 0.031561
0.284144 0.125165 0.044252
0.486834 0.126739 0.079626
0.665180 0.139969 0.119756
0.784070 0.168347 0.165240
0.862064 0.218091 0.243570
0.916970 0.326495 0.395952
0.952981 0.503890 0.551897
0.963942 0.647715 0.669314
0.971193 0.749530 0.751515
0.976004 0.818829 0.808199
0.979238 0.869766 0.850959
0.981393 0.908320 0.883921
0.982711 0.936849 0.908302
0.089375 0.237117 0.074503
0.089126 0.236526 0.074279
0.088701 0.235352 0.073853
0.094305 0.231392 0.072754
0.229888 0.247995 0.078913
0.442106 0.267732 0.094435
0.652306 0.255676 0.113336
0.779297 0.239573 0.155697
0.860652 0.264400 0.229805
0.917288 0.362468 0.384366
0.953676 0.515419 0.545932
0.964017 0.649595 0.665809
0.971169 0.748980 0.749365
0.975953 0.818148 0.807036
0.979190 0.869021 0.850115
0.981334 0.907333 0.882982
0.982695 0.936331 0.907847
0.151767 0.383594 0.126690
0.151704 0.383273 0.126576
0.151460 0.382620 0.126325
0.151035 0.380111 0.125465
0.208144 0.380580 0.129632
0.389713 0.412321 0.138602
0.593277 0.434151 0.163401
0.747485 0.425737 0.177362
0.851522 0.411486 0.219125
0.918109 0.445646 0.356668
0.955465 0.544819 0.532319
0.964402 0.657043 0.658802
0.971248 0.749453 0.745225
0.975853 0.816864 0.804360
0.979102 0.867667 0.848387
0.981262 0.906107 0.881698
0.982665 0.935303 0.906924
0.205809 0.513535 0.173187
0.205761 0.513374 0.173119
0.205677 0.513053 0.172984
0.205481 0.511777 0.172481
0.210257 0.508781 0.171836
0.353388 0.529895 0.187367
0.538762 0.561824 0.193428
0.705932 0.578502 0.232526
0.815211 0.574367 0.254137
0.891640 0.573535 0.336547
0.956384 0.604998 0.504006
0.965553 0.677548 0.644467
0.971438 0.754074 0.737608
0.975780 0.816450 0.799854
0.978970 0.865759 0.845240
0.981168 0.904460 0.879700
0.982629 0.933812 0.905503
0.245292 0.614342 0.209856
0.245290 0.614270 0.209824
0.245288 0.614126 0.209760
0.245356 0.613539 0.209515
0.247061 0.612007 0.209167
0.272170 0.610820 0.210490
0.497767 0.660744 0.230798
0.660691 0.680979 0.239022
0.793470 0.691096 0.281007
0.868595 0.690606 0.342913
0.931648 0.698669 0.486218
0.965647 0.722581 0.622123
0.972215 0.769646 0.725025
0.975899 0.820005 0.792681
0.978880 0.865011 0.840711
0.981058 0.902471 0.876537
0.982544 0.931771 0.903234
0.270541 0.686162 0.238669
0.270567 0.686134 0.238656
0.270628 0.686077 0.238632
0.270927 0.685843 0.238540
0.272633 0.685224 0.238460
0.282439 0.684244 0.239626
0.392932 0.698097 0.254828
0.618296 0.757059 0.265080
0.751582 0.767609 0.277141
0.856065 0.774456 0.329420
0.912407 0.778818 0.459181
0.953495 0.788347 0.607679
0.970101 0.803704 0.708375
0.976514 0.832745 0.781625
0.978968 0.867999 0.834247
0.981026 0.901535 0.872241
0.982499 0.930067 0.900483
0.285951 0.737164 0.267026
0.286010 0.737154 0.267026
0.286132 0.737136 0.267026
0.286667 0.737059 0.267032
0.288511 0.736849 0.267110
0.294985 0.736502 0.267794
0.329944 0.738255 0.275331
0.552670 0.790065 0.300184
0.718484 0.823569 0.304732
0.816472 0.828767 0.318900
0.900536 0.835872 0.408413
0.945866 0.843919 0.585794
0.962476 0.849302 0.696165
0.973459 0.859312 0.769718
0.979290 0.878157 0.824437
0.981124 0.903738 0.866359
0.982594 0.929200 0.896778
0.288772 0.775920 0.306142
0.288840 0.775918 0.306145
0.288980 0.775914 0.306153
0.289613 0.775901 0.306208
0.291750 0.775897 0.306467
0.297976 0.775969 0.307363
0.320789 0.777122 0.312603
0.467756 0.798527 0.349106
0.675884 0.855041 0.360858
0.795561 0.870854 0.371236
0.865349 0.874541 0.400012
0.935342 0.884218 0.549621
0.961511 0.888927 0.680220
0.969283 0.891879 0.760569
0.976280 0.898628 0.815702
0.981300 0.911943 0.858519
0.982517 0.930954 0.892054
0.305021 0.809376 0.418324
0.305095 0.809386 0.418321
0.305248 0.809408 0.418313
0.305894 0.809501 0.418284
0.307921 0.809796 0.418206
0.313500 0.810609 0.418074
0.332642 0.812485 0.419707
0.412789 0.826161 0.433635
0.650633 0.870845 0.493743
0.774212 0.901720 0.495919
0.855563 0.909404 0.514981
0.905912 0.912403 0.552622
0.959070 0.919000 0.660372
0.969421 0.920395 0.749795
0.973889 0.922109 0.809256
0.978709 0.926993 0.852630
0.982202 0.937082 0.885900
0.344550 0.836042 0.536928
0.344663 0.836058 0.536942
0.344896 0.836092 0.536970
0.345882 0.836235 0.537087
0.348943 0.836679 0.537454
0.357168 0.837876 0.538476
0.380439 0.842421 0.541681
0.461518 0.858202 0.555512
0.641752 0.890543 0.603245
0.767254 0.917652 0.621530
0.844580 0.933234 0.624164
0.899391 0.937410 0.638325
0.934812 0.939142 0.663546
0.972570 0.942882 0.738997
0.974976 0.942464 0.800821
0.977607 0.943485 0.846954
0.980738 0.947395 0.881128
0.459667 0.872458 0.637778
0.459850 0.872491 0.637808
0.460223 0.872563 0.637872
0.461757 0.872891 0.638131
0.466385 0.873942 0.638914
0.478314 0.876781 0.640929
0.509803 0.882897 0.646228
0.573947 0.895605 0.657551
0.665812 0.914059 0.674722
0.770989 0.930223 0.704872
0.842152 0.945987 0.710214
0.892367 0.954395 0.712487
0.929869 0.956803 0.723156
0.955268 0.957802 0.740546
0.977342 0.958913 0.793865
0.978916 0.958158 0.839844
0.980298 0.958834 0.877207
0.634435 0.913808 0.725381
0.634513 0.913823 0.725394
0.634674 0.913855 0.725421
0.635351 0.913988 0.725537
0.637402 0.914392 0.725886
0.642559 0.915408 0.726765
0.654425 0.917746 0.728784
0.678580 0.922418 0.732942
0.720975 0.930735 0.740453
0.780023 0.941354 0.753283
0.845527 0.950931 0.769548
0.890290 0.961587 0.771316
0.924733 0.967694 0.774139
0.951436 0.970341 0.782230
0.969900 0.970923 0.794437
0.980629 0.970210 0.834001
0.981745 0.969384 0.870479
0.741186 0.936030 0.783848
0.741215 0.936036 0.783853
0.741273 0.936047 0.783863
0.741521 0.936096 0.783904
0.742273 0.936244 0.784027
0.744183 0.936620 0.784339
0.748686 0.937506 0.785077
0.758323 0.939425 0.786625
0.777207 0.943022 0.789763
0.808525 0.948473 0.795282
0.852549 0.954523 0.808257
0.890719 0.961042 0.812538
0.921278 0.967600 0.813703
0.945791 0.971476 0.816299
0.965315 0.973495 0.822694
0.979259 0.975067 0.831812
0.982712 0.976578 0.864503
0.811104 0.949848 0.825823
0.811115 0.949850 0.825825
0.811138 0.949854 0.825828
0.811236 0.949871 0.825843
0.811535 0.949923 0.825889
0.812296 0.950056 0.826006
0.814112 0.950373 0.826284
0.818153 0.951079 0.826903
0.826421 0.952516 0.828164
0.841559 0.955147 0.830494
0.864088 0.958698 0.834588
0.895334 0.962585 0.842780
0.921107 0.967391 0.844832
0.942780 0.971559 0.845815
0.960969 0.974015 0.848429
0.975290 0.975524 0.853150
0.982512 0.976388 0.859772
0.006237 0.001687 0.035086
0.008197 0.002229 0.034675
0.050042 0.009087 0.042188
0.145936 0.018605 0.050715
0.316073 0.047219 0.066806
0.505331 0.081330 0.097313
0.674574 0.115791 0.133892
0.788505 0.150176 0.178634
0.863754 0.202384 0.256997
0.917376 0.312938 0.405416
0.952790 0.500140 0.556652
0.964000 0.648048 0.672122
0.971226 0.750128 0.752848
0.976072 0.819843 0.809338
0.979293 0.870628 0.851794
0.981412 0.908640 0.884238
0.982729 0.937377 0.908753
0.005791 0.001687 0.032510
0.005716 0.001687 0.032076
0.044303 0.008120 0.038355
0.141479 0.019131 0.046370
0.312951 0.048998 0.064153
0.503098 0.082941 0.095695
0.673453 0.117022 0.132760
0.787730 0.151367 0.177593
0.863350 0.203241 0.255716
0.917160 0.313392 0.404221
0.952757 0.499792 0.555824
0.963961 0.647563 0.671548
0.971232 0.750193 0.752838
0.976053 0.819544 0.809070
0.979293 0.870635 0.851792
0.981412 0.908642 0.884238
0.982719 0.937108 0.908529
0.008200 0.034108 0.031701
0.007849 0.032710 0.030861
0.032084 0.031962 0.031266
0.132619 0.031901 0.037002
0.306719 0.054965 0.059520
0.499262 0.086939 0.092713
0.670804 0.120163 0.130453
0.786459 0.154031 0.175683
0.862916 0.205469 0.253822
0.917003 0.315336 0.402750
0.952692 0.499140 0.554158
0.963936 0.647285 0.670943
0.971178 0.749401 0.752076
0.976035 0.819268 0.808796
0.979264 0.870173 0.851387
0.981391 0.908295 0.883930
0.982719 0.937111 0.908529
0.034250 0.106384 0.030850
0.033976 0.105599 0.030400
0.033559 0.104030 0.029583
0.102241 0.108470 0.031220
0.283762 0.121345 0.048752
0.485700 0.122981 0.084430
0.664091 0.138312 0.124012
0.783445 0.167327 0.169537
0.861677 0.216991 0.247330
0.916682 0.324959 0.397679
0.952902 0.502689 0.552001
0.963891 0.646960 0.669054
0.971157 0.749045 0.751241
0.975983 0.818498 0.807968
0.979238 0.869762 0.850973
0.981372 0.907966 0.883618
0.982711 0.936848 0.908303
0.088245 0.234762 0.074298
0.087997 0.234166 0.074053
0.087576 0.232983 0.073584
0.092753 0.228945 0.072401
0.228438 0.245286 0.078351
0.441423 0.264982 0.095577
0.651085 0.253216 0.115847
0.778538 0.237513 0.158812
0.860217 0.263038 0.233204
0.916993 0.360944 0.386206
0.953539 0.513490 0.545270
0.963967 0.648863 0.665550
0.971133 0.748500 0.749091
0.975932 0.817818 0.806805
0.979190 0.869018 0.850128
0.981334 0.907332 0.882986
0.982695 0.936330 0.907849
0.151140 0.382373 0.126806
0.151078 0.382049 0.126683
0.150835 0.381394 0.126414
0.150380 0.378871 0.125483
0.206831 0.379185 0.129486
0.388948 0.410912 0.138438
0.591996 0.432811 0.164142
0.746695 0.424580 0.178549
0.851766 0.410253 0.220919
0.917558 0.444261 0.357674
0.955355 0.543305 0.531652
0.964311 0.655791 0.657963
0.971213 0.748989 0.744946
0.975832 0.816540 0.804127
0.979072 0.867185 0.847990
0.981262 0.906106 0.881702
0.982665 0.935303 0.906926
0.205447 0.512965 0.173550
0.205414 0.512805 0.173482
0.205331 0.512483 0.173343
0.205124 0.511205 0.172821
0.209911 0.508195 0.172236
0.352786 0.529149 0.187699
0.538411 0.561165 0.193634
0.705046 0.577926 0.233095
0.814803 0.573947 0.255180
0.891738 0.573034 0.337776
0.956210 0.604468 0.504230
0.965517 0.677038 0.644201
0.971409 0.753655 0.737321
0.975740 0.815841 0.799318
0.978941 0.865283 0.844834
0.981146 0.904102 0.879386
0.982619 0.933534 0.905272
0.245096 0.614099 0.210258
0.245094 0.614027 0.210225
0.245092 0.613882 0.210159
0.245155 0.613295 0.209908
0.246834 0.611760 0.209537
0.271908 0.610552 0.210908
0.497519 0.660445 0.231188
0.660550 0.680708 0.239410
0.793427 0.690893 0.281872
0.868356 0.690489 0.343672
0.931529 0.698460 0.486401
0.965634 0.722285 0.621823
0.972194 0.769340 0.724708
0.975864 0.819474 0.792123
0.978851 0.864562 0.840279
0.981037 0.902118 0.876213
0.982544 0.931771 0.903236
0.270386 0.686075 0.239067
0.270414 0.686046 0.239054
0.270472 0.685989 0.239028
0.270770 0.685755 0.238934
0.272468 0.685134 0.238845
0.282247 0.684151 0.239988
0.392654 0.697962 0.255251
0.618213 0.756949 0.265533
0.751537 0.767511 0.277607
0.855674 0.774389 0.329850
0.912228 0.778781 0.459515
0.953461 0.788260 0.607407
0.970055 0.803553 0.708040
0.976501 0.832549 0.781351
0.978942 0.867615 0.833792
0.981026 0.901534 0.872249
0.982483 0.929798 0.900228
0.285781 0.737147 0.267411
0.285839 0.737138 0.267411
0.285962 0.737119 0.267411
0.286497 0.737043 0.267416
0.288338 0.736832 0.267490
0.294803 0.736482 0.268163
0.329873 0.738230 0.275843
0.552615 0.790021 0.300684
0.718461 0.823538 0.305249
0.816473 0.828744 0.319504
0.900581 0.835892 0.409466
0.945709 0.843884 0.585535
0.962440 0.849252 0.695832
0.973417 0.859231 0.769443
0.979292 0.878153 0.824458
0.981124 0.903736 0.866366
0.982580 0.928948 0.896508
0.288450 0.775958 0.306563
0.288518 0.775956 0.306567
0.288659 0.775951 0.306574
0.289290 0.775938 0.306627
0.291426 0.775934 0.306885
0.297652 0.776005 0.307776
0.320459 0.777155 0.313004
0.467659 0.798545 0.349806
0.675920 0.855058 0.361589
0.795583 0.870871 0.372012
0.865392 0.874571 0.400965
0.935141 0.884198 0.549460
0.961494 0.888919 0.679868
0.969252 0.891851 0.760293
0.976284 0.898624 0.815724
0.981256 0.911766 0.858146
0.982499 0.930749 0.891768
0.304948 0.809392 0.419004
0.305023 0.809403 0.419000
0.305175 0.809425 0.418993
0.305821 0.809518 0.418963
0.307849 0.809814 0.418882
0.313426 0.810626 0.418751
0.332523 0.812531 0.420358
0.412800 0.826201 0.434298
0.650705 0.870816 0.494518
0.774272 0.901741 0.496654
0.855591 0.909430 0.515623
0.905935 0.912422 0.553115
0.959079 0.919005 0.660585
0.969408 0.920392 0.749497
0.973838 0.922079 0.808763
0.978668 0.926913 0.852241
0.982202 0.937081 0.885904
0.344520 0.836046 0.537181
0.344633 0.836062 0.537195
0.344867 0.836096 0.537222
0.345852 0.836239 0.537340
0.348913 0.836683 0.537707
0.357134 0.837880 0.538726
0.380403 0.842424 0.541930
0.461463 0.858203 0.555751
0.641625 0.890555 0.603358
0.767274 0.917649 0.621794
0.844600 0.933237 0.624420
0.899399 0.937418 0.638541
0.934819 0.939147 0.663719
0.972573 0.942883 0.739075
0.974966 0.942463 0.800577
0.977608 0.943485 0.846964
0.980738 0.947395 0.881132
0.459647 0.872454 0.637876
0.459831 0.872486 0.637906
0.460204 0.872558 0.637969
0.461736 0.872884 0.638229
0.466364 0.873936 0.639012
0.478286 0.876779 0.641025
0.509782 0.882893 0.646324
0.573922 0.895604 0.657645
0.665804 0.914062 0.674810
0.770982 0.930226 0.704962
0.842160 0.945986 0.710315
0.892373 0.954395 0.712584
0.929872 0.956805 0.723240
0.955270 0.957804 0.740613
0.977336 0.958918 0.793685
0.978916 0.958157 0.839857
0.980285 0.958814 0.876877
0.634425 0.913807 0.725421
0.634504 0.913822 0.725434
0.634665 0.913854 0.725461
0.635342 0.913987 0.725577
0.637392 0.914391 0.725926
0.642550 0.915408 0.726805
0.654417 0.917746 0.728824
0.678572 0.922418 0.732981
0.720968 0.930735 0.740492
0.780018 0.941356 0.753317
0.845526 0.950934 0.769586
0.890293 0.961587 0.771358
0.924736 0.967695 0.774178
0.951437 0.970341 0.782264
0.969900 0.970923 0.794465
0.980630 0.970210 0.834015
0.981736 0.969387 0.870167
0.741183 0.936030 0.783867
0.741212 0.936035 0.783871
0.741270 0.936047 0.783881
0.741518 0.936096 0.783922
0.742269 0.936243 0.784044
0.744179 0.936619 0.784357
0.748682 0.937506 0.785094
0.758320 0.939424 0.786643
0.777203 0.943022 0.789780
0.808524 0.948473 0.795299
0.852548 0.954524 0.808274
0.890720 0.961042 0.812557
0.921278 0.967600 0.813720
0.945792 0.971476 0.816316
0.965316 0.973496 0.822709
0.979258 0.975068 0.831824
0.982712 0.976579 0.864509
0.811102 0.949848 0.825831
0.811114 0.949850 0.825833
0.811137 0.949854 0.825836
0.811234 0.949871 0.825852
0.811533 0.949923 0.825897
0.812295 0.950056 0.826014
0.814110 0.950373 0.826292
0.818151 0.951079 0.826911
0.826420 0.952516 0.828173
0.841557 0.955147 0.830503
0.864085 0.958698 0.834594
0.895333 0.962585 0.842788
0.921107 0.967391 0.844841
0.942781 0.971559 0.845824
0.960968 0.974015 0.848436
0.975291 0.975524 0.853157
0.982513 0.976388 0.859778
0.019392 0.002040 0.087229
0.024476 0.003352 0.086902
0.056324 0.014020 0.087754
0.132977 0.030113 0.114337
0.310984 0.048577 0.137597
0.503507 0.078552 0.151387
0.672652 0.113266 0.167076
0.787117 0.147641 0.202392
0.862713 0.199088 0.276277
0.916505 0.307741 0.413322
0.952535 0.496073 0.557950
0.963842 0.645652 0.671694
0.971148 0.749093 0.752529
0.976010 0.818837 0.808692
0.979263 0.870135 0.851447
0.981390 0.908282 0.883953
