滤镜资源/Lutify.me Free 3D LUTs Package/3D LUTs/Monitoring LUTs/RED DSMC2/Scarlet-W IPP2/Herderite - Scarlet-W-IPP2.cube
# Website: https://lutify.me
# Contact: help@lutify.me
# Created by: Lutify.me
# Copyright: (c) Copyright Lutify.me 2016, G.T. Colord LTD
LUT_3D_SIZE 9
0.000000 0.000000 0.000000
0.054353 0.006174 0.005912
0.316923 0.048730 0.050510
0.676465 0.117101 0.126041
0.864482 0.203976 0.251302
0.952950 0.502485 0.556917
0.971289 0.751098 0.753428
0.979322 0.871110 0.852176
0.982729 0.937378 0.908750
0.011309 0.041720 0.009591
0.036501 0.041089 0.009983
0.307698 0.058441 0.046528
0.672759 0.121852 0.123389
0.863656 0.207132 0.248338
0.952851 0.501474 0.554407
0.971250 0.750361 0.752675
0.979294 0.870657 0.851770
0.982720 0.937111 0.908526
0.089908 0.238295 0.074771
0.089232 0.236537 0.074142
0.230611 0.249341 0.079270
0.652890 0.256903 0.112217
0.861069 0.265239 0.228513
0.953678 0.515542 0.545481
0.971204 0.749447 0.749695
0.979190 0.869023 0.850108
0.982695 0.936331 0.907846
0.205975 0.513816 0.173032
0.205843 0.513336 0.172832
0.210428 0.509070 0.171666
0.538936 0.562149 0.193360
0.815160 0.574597 0.253517
0.956556 0.605436 0.504395
0.971467 0.754477 0.737956
0.978970 0.865761 0.845233
0.982629 0.933812 0.905502
0.270616 0.686205 0.238478
0.270702 0.686119 0.238441
0.272714 0.685268 0.238275
0.393068 0.698163 0.254627
0.751603 0.767656 0.276917
0.912634 0.778862 0.459561
0.970163 0.803838 0.708781
0.978968 0.868000 0.834238
0.982499 0.930067 0.900481
0.288929 0.775902 0.305938
0.289137 0.775895 0.305949
0.291907 0.775879 0.306264
0.320949 0.777105 0.312408
0.675865 0.855033 0.360503
0.865329 0.874526 0.399549
0.961532 0.888935 0.680673
0.976343 0.898736 0.816202
0.982517 0.930954 0.892053
0.344564 0.836040 0.536806
0.344911 0.836090 0.536847
0.348958 0.836677 0.537331
0.380459 0.842420 0.541560
0.641813 0.890536 0.603189
0.844571 0.933232 0.624040
0.934808 0.939140 0.663463
0.974975 0.942464 0.800806
0.980778 0.947450 0.881442
0.634440 0.913808 0.725362
0.634678 0.913855 0.725402
0.637407 0.914392 0.725867
0.654430 0.917746 0.728765
0.720979 0.930734 0.740434
0.845528 0.950930 0.769529
0.924732 0.967693 0.774120
0.969900 0.970923 0.794424
0.981745 0.969384 0.870477
0.811105 0.949848 0.825819
0.811139 0.949854 0.825824
0.811536 0.949923 0.825885
0.814113 0.950373 0.826280
0.826422 0.952516 0.828160
0.864089 0.958698 0.834586
0.921107 0.967391 0.844827
0.960968 0.974015 0.848425
0.982512 0.976388 0.859769
0.006237 0.001687 0.035086
0.050042 0.009087 0.042188
0.316073 0.047219 0.066806
0.674574 0.115791 0.133892
0.863754 0.202384 0.256997
0.952790 0.500140 0.556652
0.971226 0.750128 0.752848
0.979293 0.870628 0.851794
0.982729 0.937377 0.908753
0.008200 0.034108 0.031701
0.032084 0.031962 0.031266
0.306719 0.054965 0.059520
0.670804 0.120163 0.130453
0.862916 0.205469 0.253822
0.952692 0.499140 0.554158
0.971178 0.749401 0.752076
0.979264 0.870173 0.851387
0.982719 0.937111 0.908529
0.088245 0.234762 0.074298
0.087576 0.232983 0.073584
0.228438 0.245286 0.078351
0.651085 0.253216 0.115847
0.860217 0.263038 0.233204
0.953539 0.513490 0.545270
0.971133 0.748500 0.749091
0.979190 0.869018 0.850128
0.982695 0.936330 0.907849
0.205447 0.512965 0.173550
0.205331 0.512483 0.173343
0.209911 0.508195 0.172236
0.538411 0.561165 0.193634
0.814803 0.573947 0.255180
0.956210 0.604468 0.504230
0.971409 0.753655 0.737321
0.978941 0.865283 0.844834
0.982619 0.933534 0.905272
0.270386 0.686075 0.239067
0.270472 0.685989 0.239028
0.272468 0.685134 0.238845
0.392654 0.697962 0.255251
0.751537 0.767511 0.277607
0.912228 0.778781 0.459515
0.970055 0.803553 0.708040
0.978942 0.867615 0.833792
0.982483 0.929798 0.900228
0.288450 0.775958 0.306563
0.288659 0.775951 0.306574
0.291426 0.775934 0.306885
0.320459 0.777155 0.313004
0.675920 0.855058 0.361589
0.865392 0.874571 0.400965
0.961494 0.888919 0.679868
0.976284 0.898624 0.815724
0.982499 0.930749 0.891768
0.344520 0.836046 0.537181
0.344867 0.836096 0.537222
0.348913 0.836683 0.537707
0.380403 0.842424 0.541930
0.641625 0.890555 0.603358
0.844600 0.933237 0.624420
0.934819 0.939147 0.663719
0.974966 0.942463 0.800577
0.980738 0.947395 0.881132
0.634425 0.913807 0.725421
0.634665 0.913854 0.725461
0.637392 0.914391 0.725926
0.654417 0.917746 0.728824
0.720968 0.930735 0.740492
0.845526 0.950934 0.769586
0.924736 0.967695 0.774178
0.969900 0.970923 0.794465
0.981736 0.969387 0.870167
0.811102 0.949848 0.825831
0.811137 0.949854 0.825836
0.811533 0.949923 0.825897
0.814110 0.950373 0.826292
0.826420 0.952516 0.828173
0.864085 0.958698 0.834594
0.921107 0.967391 0.844841
0.960968 0.974015 0.848436
0.982513 0.976388 0.859778
0.050763 0.003807 0.178909
0.070774 0.009914 0.177856
0.285329 0.072807 0.246848
0.659041 0.120422 0.290632
0.858128 0.195448 0.342298
0.950673 0.489347 0.565749
0.970971 0.746895 0.752345
0.979202 0.869129 0.850813
0.982697 0.936563 0.908112
0.046070 0.004893 0.175664
0.058301 0.007753 0.174783
0.276333 0.071255 0.240491
0.656516 0.121741 0.285115
0.857774 0.196786 0.338431
0.950943 0.489016 0.564004
0.970919 0.746165 0.751578
0.979174 0.868672 0.850406
0.982687 0.936294 0.907887
0.066725 0.206848 0.194240
0.066025 0.204871 0.192926
0.213943 0.212707 0.205443
0.642949 0.217957 0.239794
0.856766 0.244932 0.311894
0.952967 0.503033 0.555328
0.970843 0.744838 0.748251
0.979070 0.867028 0.848736
0.982663 0.935506 0.907201
0.194775 0.505517 0.195590
0.194698 0.505002 0.195155
0.198712 0.500210 0.192122
0.533546 0.551611 0.214960
0.815033 0.566742 0.282948
0.954978 0.598911 0.517452
0.971204 0.750405 0.736550
0.978850 0.863795 0.843825
0.982576 0.932702 0.904594
0.266911 0.684865 0.247438
0.266995 0.684775 0.247379
0.268892 0.683881 0.246973
0.388093 0.695910 0.264504
0.750892 0.765988 0.287630
0.912290 0.778782 0.477104
0.970172 0.802263 0.707588
0.978863 0.866403 0.832703
0.982432 0.928982 0.899495
0.283840 0.776726 0.315655
0.284040 0.776717 0.315651
0.286371 0.776684 0.315487
0.314388 0.777835 0.320287
0.676652 0.855273 0.375111
0.866182 0.875157 0.418484
0.961494 0.888873 0.680001
0.976155 0.898237 0.814564
0.982450 0.930121 0.890949
0.344016 0.836115 0.541412
0.344362 0.836165 0.541453
0.348399 0.836751 0.541940
0.379777 0.842460 0.546112
0.639491 0.890758 0.605241
0.844921 0.933297 0.628710
0.934937 0.939229 0.666620
0.974921 0.942453 0.799472
0.980625 0.947221 0.880247
0.634263 0.913795 0.726097
0.634503 0.913842 0.726137
0.637233 0.914380 0.726603
0.654267 0.917736 0.729502
0.720834 0.930740 0.741140
0.845500 0.950972 0.770221
0.924776 0.967713 0.774845
0.969913 0.970927 0.794930
0.981719 0.969389 0.869624
0.811073 0.949849 0.825971
0.811108 0.949855 0.825976
0.811504 0.949925 0.826037
0.814082 0.950375 0.826432
0.826394 0.952517 0.828310
0.864037 0.958705 0.834688
0.921115 0.967392 0.844989
0.960971 0.974020 0.848567
0.982517 0.976392 0.859878
0.117740 0.007694 0.378118
0.124916 0.009945 0.377667
0.312797 0.096239 0.424887
0.588425 0.157768 0.530116
0.794751 0.226081 0.556447
0.923975 0.456879 0.628017
0.969248 0.733373 0.755779
0.978892 0.863824 0.848378
0.982575 0.933777 0.906058
0.114783 0.007779 0.377092
0.121213 0.009802 0.376595
0.304148 0.094327 0.417858
0.585816 0.157743 0.528107
0.793611 0.226772 0.555619
0.924206 0.456823 0.627281
0.969196 0.732595 0.755125
0.978863 0.863352 0.847978
0.982566 0.933500 0.905829
0.100966 0.041879 0.393511
0.102857 0.041389 0.391600
0.225736 0.097058 0.370079
0.562465 0.172976 0.511046
0.793530 0.247549 0.549287
0.928960 0.472597 0.623681
0.969464 0.731405 0.752452
0.978758 0.861676 0.846334
0.982540 0.932690 0.905129
0.169016 0.482839 0.457321
0.168800 0.482219 0.456894
0.167608 0.476354 0.452906
0.525054 0.521669 0.502113
0.836808 0.519790 0.525340
0.950246 0.569623 0.597960
0.970357 0.738100 0.741790
0.978535 0.858505 0.841422
0.982401 0.930176 0.902654
0.239243 0.687240 0.425695
0.239270 0.687143 0.425503
0.240072 0.686138 0.423498
0.340722 0.696229 0.428777
0.756295 0.766525 0.490766
0.918510 0.776968 0.565592
0.972382 0.795703 0.713076
0.978602 0.862080 0.830341
0.982263 0.926468 0.897452
0.279077 0.780867 0.428848
0.279242 0.780860 0.428797
0.281372 0.780770 0.428278
0.303730 0.782663 0.426546
0.686378 0.855491 0.501945
0.871327 0.879249 0.529279
0.962050 0.888754 0.692548
0.975969 0.896732 0.812101
0.982313 0.928187 0.888682
0.341075 0.836426 0.566251
0.341414 0.836475 0.566289
0.345375 0.837053 0.566749
0.376033 0.842592 0.570729
0.629556 0.891810 0.618653
0.846792 0.933436 0.654190
0.935649 0.939704 0.684240
0.974877 0.942402 0.798557
0.980405 0.946615 0.877889
0.633246 0.913696 0.730455
0.633484 0.913744 0.730493
0.636208 0.914294 0.730943
0.653291 0.917673 0.733835
0.719973 0.930767 0.745284
0.845335 0.951217 0.774288
0.925038 0.967827 0.779114
0.969994 0.970950 0.797927
0.981651 0.969397 0.867412
0.810884 0.949859 0.826883
0.810919 0.949865 0.826888
0.811316 0.949934 0.826948
0.813896 0.950385 0.827344
0.826225 0.952523 0.829210
0.863750 0.958746 0.835326
0.921162 0.967392 0.845955
0.960986 0.974053 0.849419
0.982545 0.976419 0.860540
0.152687 0.009148 0.506451
0.155996 0.010181 0.506266
0.271450 0.073391 0.502126
0.609878 0.183761 0.696070
0.758458 0.202795 0.701624
0.869223 0.337327 0.715469
0.953770 0.706101 0.791010
0.976966 0.852851 0.850483
0.982210 0.928766 0.903401
0.151244 0.009122 0.506146
0.154398 0.010099 0.505963
0.262124 0.067544 0.501872
0.607260 0.183666 0.695256
0.757852 0.203097 0.701150
0.868894 0.337225 0.715341
0.953596 0.705192 0.790670
0.976924 0.852328 0.850160
0.982191 0.928481 0.903167
0.139613 0.014113 0.504511
0.141214 0.014507 0.504053
0.191320 0.033719 0.500505
0.579784 0.185637 0.685166
0.752030 0.207836 0.696653
0.869522 0.350202 0.716050
0.953525 0.703786 0.789350
0.976806 0.850473 0.848813
0.982138 0.927655 0.902456
0.116740 0.340974 0.673036
0.116332 0.339060 0.673248
0.118021 0.321297 0.675315
0.518059 0.416007 0.612152
0.762398 0.422030 0.710909
0.891069 0.503631 0.733757
0.956807 0.712387 0.785279
0.976798 0.846972 0.844737
0.981978 0.925036 0.900007
0.235831 0.674699 0.643894
0.235793 0.674576 0.643809
0.235594 0.673274 0.642923
0.283690 0.672803 0.644095
0.753268 0.748437 0.720243
0.930829 0.748455 0.733004
0.973139 0.776444 0.768500
0.978084 0.851539 0.834858
0.981842 0.921358 0.894857
0.267966 0.781495 0.629321
0.268087 0.781484 0.629299
0.269577 0.781381 0.629071
0.286542 0.781761 0.628695
0.675407 0.853324 0.688417
0.877646 0.881518 0.715100
0.968237 0.887022 0.750883
0.977347 0.892265 0.817436
0.982139 0.923929 0.885618
0.331536 0.836238 0.645688
0.331790 0.836287 0.645715
0.335095 0.836855 0.646070
0.364571 0.840894 0.649379
0.616648 0.891175 0.690195
0.852099 0.933167 0.733605
0.937809 0.940787 0.745321
0.975247 0.942123 0.809109
0.980209 0.945290 0.875249
0.628373 0.913121 0.749582
0.628608 0.913174 0.749621
0.631283 0.913780 0.750062
0.648284 0.917419 0.752865
0.716029 0.930807 0.763900
0.844427 0.952292 0.792318
0.926175 0.968294 0.798029
0.970322 0.971004 0.811806
0.981608 0.969336 0.866366
0.809925 0.949901 0.831374
0.809959 0.949907 0.831379
0.810359 0.949977 0.831440
0.812951 0.950430 0.831837
0.825368 0.952577 0.833703
0.863375 0.958904 0.839672
0.921356 0.967371 0.850634
0.961060 0.974213 0.853651
0.982684 0.976552 0.863847
0.157592 0.005049 0.574325
0.158813 0.005416 0.574274
0.181543 0.013718 0.573086
0.629262 0.194118 0.772560
0.777673 0.209800 0.789930
0.837827 0.227074 0.785605
0.922503 0.590585 0.831812
0.968204 0.832973 0.872720
0.981180 0.920372 0.904645
0.157019 0.004959 0.574176
0.158205 0.005312 0.574125
0.180193 0.013252 0.572959
0.626752 0.193451 0.770819
0.776934 0.209772 0.789648
0.837711 0.227357 0.785512
0.922162 0.588734 0.831524
0.968093 0.832352 0.872557
0.981149 0.920052 0.904465
0.151835 0.005630 0.572381
0.152594 0.005741 0.572379
0.167349 0.009768 0.571758
0.595136 0.185403 0.748654
0.768141 0.210104 0.786360
0.836495 0.230792 0.784550
0.921836 0.586976 0.831164
0.967852 0.830881 0.872079
0.981068 0.919123 0.903895
0.145625 0.058226 0.614318
0.145716 0.057805 0.613682
0.148768 0.053787 0.606337
0.406123 0.175385 0.609465
0.738175 0.242044 0.777843
0.833789 0.270082 0.783033
0.926521 0.612772 0.834437
0.967270 0.826659 0.870254
0.980844 0.916196 0.901956
0.228058 0.631374 0.726992
0.228032 0.631115 0.726891
0.228214 0.628546 0.725910
0.257500 0.621196 0.724844
0.750229 0.694659 0.794194
0.890278 0.701590 0.839971
0.949989 0.742717 0.849444
0.969871 0.834721 0.867412
0.980816 0.912220 0.897961
0.267413 0.774567 0.742554
0.267448 0.774547 0.742540
0.267958 0.774327 0.742403
0.276409 0.773508 0.742032
0.639471 0.836365 0.802992
0.874674 0.869108 0.836843
0.971798 0.870386 0.843706
0.979825 0.879744 0.856531
0.981686 0.916555 0.890347
0.319757 0.834166 0.739392
0.319978 0.834196 0.739419
0.322577 0.834552 0.739739
0.342570 0.837397 0.742367
0.581991 0.882812 0.785093
0.846923 0.929377 0.826461
0.939069 0.938815 0.835993
0.977674 0.940048 0.849296
0.981041 0.942185 0.880345
0.609579 0.911271 0.795162
0.609841 0.911323 0.795208
0.612835 0.911911 0.795736
0.631356 0.915551 0.799009
0.703988 0.929885 0.810434
0.835116 0.954055 0.830250
0.928311 0.967425 0.844953
0.970980 0.970583 0.849519
0.981825 0.968850 0.875563
0.806570 0.949806 0.847358
0.806606 0.949812 0.847363
0.807019 0.949879 0.847419
0.809683 0.950325 0.847786
0.822323 0.952596 0.849554
0.861538 0.959239 0.854999
0.921698 0.967407 0.866633
0.961450 0.974665 0.868840
0.983138 0.977004 0.875832
0.149435 0.001940 0.592676
0.149572 0.001965 0.592684
0.152136 0.002408 0.592826
0.435932 0.136279 0.657218
0.816618 0.216566 0.823414
0.856124 0.219501 0.826065
0.863296 0.249993 0.824457
0.955640 0.773836 0.898375
0.976458 0.907747 0.916004
0.149369 0.001928 0.592672
0.149501 0.001952 0.592680
0.151991 0.002402 0.592824
0.430347 0.134614 0.653237
0.816156 0.216534 0.823383
0.855895 0.219501 0.826052
0.863328 0.250251 0.824464
0.955451 0.772695 0.898230
0.976398 0.907359 0.915916
0.148772 0.001858 0.592649
0.148855 0.001873 0.592654
0.150514 0.002173 0.592750
0.367337 0.116064 0.607937
0.810661 0.216219 0.823026
0.853174 0.219477 0.825885
0.863701 0.253259 0.824544
0.954930 0.769540 0.897820
0.976228 0.906254 0.915654
0.147973 0.006498 0.596001
0.147972 0.006471 0.595982
0.148035 0.006198 0.595758
0.180377 0.014245 0.593910
0.760515 0.215695 0.819696
0.837213 0.228510 0.825085
0.867008 0.277734 0.826136
0.954086 0.764442 0.897082
0.975587 0.902423 0.914788
0.200175 0.567486 0.780195
0.199840 0.566808 0.780343
0.196170 0.558182 0.781775
0.176095 0.489875 0.793524
0.699478 0.553945 0.803031
0.865866 0.545707 0.866179
0.924550 0.596445 0.875085
0.957601 0.785905 0.899175
0.975059 0.898383 0.913314
0.265283 0.757421 0.790786
0.265310 0.757380 0.790771
0.265700 0.756941 0.790616
0.271889 0.754931 0.790110
0.547799 0.798193 0.835008
0.875209 0.846182 0.881761
0.951216 0.852569 0.903105
0.970038 0.864989 0.904689
0.976972 0.905984 0.911173
0.298842 0.826474 0.794407
0.298946 0.826480 0.794413
0.300160 0.826545 0.794492
0.310132 0.827331 0.795335
0.492810 0.859417 0.826156
0.833891 0.920452 0.885087
0.936514 0.930591 0.896417
0.982660 0.931057 0.899436
0.982770 0.934681 0.904986
0.561146 0.902566 0.835175
0.561484 0.902633 0.835238
0.565337 0.903392 0.835957
0.588870 0.907995 0.840310
0.676201 0.924786 0.856171
0.823111 0.950439 0.880082
0.925458 0.964052 0.892912
0.970782 0.967898 0.896499
0.982726 0.966940 0.901398
0.798160 0.949268 0.876445
0.798200 0.949274 0.876451
0.798641 0.949352 0.876519
0.801433 0.949837 0.876946
0.814726 0.952152 0.878798
0.855920 0.959134 0.884181
0.917465 0.968611 0.891740
0.962406 0.975154 0.897974
0.984067 0.977933 0.900505
0.147632 0.001537 0.592548
0.147632 0.001537 0.592548
0.147701 0.001549 0.592552
0.149164 0.001814 0.592637
0.860563 0.219625 0.826342
0.860563 0.219625 0.826342
0.860563 0.219625 0.826342
0.870526 0.299096 0.835691
0.972025 0.877805 0.930699
0.147632 0.001537 0.592548
0.147632 0.001537 0.592548
0.147701 0.001549 0.592552
0.149127 0.001807 0.592634
0.860563 0.219625 0.826342
0.860563 0.219625 0.826342
0.860568 0.219692 0.826347
0.870573 0.299384 0.835735
0.971940 0.877202 0.930646
0.147632 0.001537 0.592548
0.147632 0.001537 0.592548
0.147632 0.001537 0.592548
0.148766 0.001742 0.592613
0.860563 0.219625 0.826342
0.860563 0.219625 0.826342
0.860568 0.219692 0.826347
0.871117 0.302725 0.836243
0.971699 0.875510 0.930497
0.147632 0.001537 0.592548
0.147632 0.001537 0.592548
0.147632 0.001537 0.592548
0.147803 0.001568 0.592558
0.842747 0.218398 0.825177
0.860563 0.219625 0.826342
0.860700 0.221326 0.826468
0.875501 0.328455 0.840351
0.970971 0.870398 0.930022
0.134354 0.390734 0.813614
0.133919 0.388949 0.813714
0.128816 0.367985 0.814889
0.116490 0.221939 0.798341
0.496556 0.213187 0.696059
0.820289 0.267869 0.828591
0.871399 0.304462 0.836507
0.914911 0.542583 0.877369
0.970266 0.865545 0.929365
0.265743 0.761965 0.806192
0.265702 0.761805 0.806154
0.265225 0.759944 0.805705
0.261761 0.746634 0.802475
0.320274 0.724084 0.802719
0.861753 0.809768 0.887818
0.946654 0.814428 0.921250
0.964014 0.823698 0.923481
0.972679 0.882522 0.930376
0.287576 0.817908 0.819719
0.287628 0.817903 0.819721
0.288234 0.817864 0.819748
0.293042 0.817729 0.820033
0.354179 0.824183 0.827615
0.812096 0.907373 0.910126
0.937304 0.919360 0.923068
0.978412 0.923896 0.932711
0.978888 0.926999 0.931545
0.433415 0.873891 0.841004
0.433747 0.873955 0.841065
0.437582 0.874696 0.841775
0.465213 0.880080 0.846911
0.604852 0.907482 0.873025
0.804635 0.943754 0.907812
0.919136 0.958977 0.923048
0.969035 0.962964 0.927783
0.984535 0.962215 0.928313
0.781842 0.947664 0.900511
0.781886 0.947672 0.900519
0.782387 0.947761 0.900601
0.785639 0.948335 0.901134
0.801229 0.951086 0.903687
0.847509 0.958806 0.910633
0.912793 0.968695 0.919176
0.961696 0.975597 0.924851
0.985012 0.978851 0.926616
0.147632 0.001537 0.592548
0.147632 0.001537 0.592548
0.147632 0.001537 0.592548
0.147632 0.001537 0.592548
0.195767 0.017487 0.592128
0.860563 0.219625 0.826342
0.860563 0.219625 0.826342
0.860563 0.219625 0.826342
0.900409 0.464472 0.863768
0.147632 0.001537 0.592548
0.147632 0.001537 0.592548
0.147632 0.001537 0.592548
0.147632 0.001537 0.592548
0.195265 0.017245 0.592142
0.860563 0.219625 0.826342
0.860563 0.219625 0.826342
0.860563 0.219625 0.826342
0.900478 0.464847 0.863833
0.147632 0.001537 0.592548
0.147632 0.001537 0.592548
0.147632 0.001537 0.592548
0.147632 0.001537 0.592548
0.190146 0.014940 0.592350
0.860563 0.219625 0.826342
0.860563 0.219625 0.826342
0.860563 0.219625 0.826342
0.901271 0.469146 0.864582
0.147632 0.001537 0.592548
0.147632 0.001537 0.592548
0.147632 0.001537 0.592548
0.147632 0.001537 0.592548
0.167608 0.006168 0.593166
0.860563 0.219625 0.826342
0.860563 0.219625 0.826342
0.860580 0.219844 0.826359
0.906574 0.497653 0.869551
0.147632 0.001537 0.592548
0.147632 0.001537 0.592548
0.147632 0.001537 0.592548
0.147632 0.001537 0.592548
0.147632 0.001537 0.592548
0.860563 0.219625 0.826342
0.860563 0.219625 0.826342
0.864129 0.255809 0.829679
0.930762 0.629180 0.892252
0.276936 0.806822 0.816729
0.276913 0.806724 0.816706
0.276636 0.805582 0.816447
0.274687 0.797587 0.814611
0.259722 0.738806 0.800564
0.820453 0.718499 0.870153
0.930762 0.716156 0.905964
0.951285 0.745464 0.911546
0.961823 0.809552 0.921407
0.282415 0.829523 0.821869
0.282398 0.829449 0.821852
0.282193 0.828600 0.821661
0.280777 0.822719 0.820339
0.283732 0.806034 0.816955
0.749200 0.883833 0.897439
0.931315 0.905899 0.919914
0.976074 0.908948 0.935054
0.976582 0.910659 0.935289
0.328035 0.850757 0.829834
0.328130 0.850769 0.829848
0.329234 0.850916 0.830004
0.336871 0.851938 0.831090
0.398077 0.862043 0.841159
0.756844 0.930369 0.907365
0.911375 0.952451 0.930754
0.968568 0.956516 0.937660
0.982806 0.957763 0.941120
0.740296 0.940707 0.907036
0.740361 0.940719 0.907047
0.741096 0.940855 0.907176
0.745847 0.941735 0.908007
0.767848 0.945767 0.911837
0.829664 0.956547 0.922055
0.907254 0.968609 0.933465
0.959300 0.975927 0.940413
0.985657 0.979492 0.943817
