滤镜资源/Lutify.me Free 3D LUTs Package/3D LUTs/Monitoring LUTs/RED DSMC2/Scarlet-W IPP2/Herderite - Scarlet-W-IPP2.cube
# Website: https://lutify.me
# Contact: help@lutify.me
# Created by: Lutify.me
# Copyright: (c) Copyright Lutify.me 2016, G.T. Colord LTD
LUT_3D_SIZE 5
0.000000 0.000000 0.000000
0.316923 0.048730 0.050510
0.864482 0.203976 0.251302
0.971289 0.751098 0.753428
0.982729 0.937378 0.908750
0.089908 0.238295 0.074771
0.230611 0.249341 0.079270
0.861069 0.265239 0.228513
0.971204 0.749447 0.749695
0.982695 0.936331 0.907846
0.270616 0.686205 0.238478
0.272714 0.685268 0.238275
0.751603 0.767656 0.276917
0.970163 0.803838 0.708781
0.982499 0.930067 0.900481
0.344564 0.836040 0.536806
0.348958 0.836677 0.537331
0.641813 0.890536 0.603189
0.934808 0.939140 0.663463
0.980778 0.947450 0.881442
0.811105 0.949848 0.825819
0.811536 0.949923 0.825885
0.826422 0.952516 0.828160
0.921107 0.967391 0.844827
0.982512 0.976388 0.859769
0.050763 0.003807 0.178909
0.285329 0.072807 0.246848
0.858128 0.195448 0.342298
0.970971 0.746895 0.752345
0.982697 0.936563 0.908112
0.066725 0.206848 0.194240
0.213943 0.212707 0.205443
0.856766 0.244932 0.311894
0.970843 0.744838 0.748251
0.982663 0.935506 0.907201
0.266911 0.684865 0.247438
0.268892 0.683881 0.246973
0.750892 0.765988 0.287630
0.970172 0.802263 0.707588
0.982432 0.928982 0.899495
0.344016 0.836115 0.541412
0.348399 0.836751 0.541940
0.639491 0.890758 0.605241
0.934937 0.939229 0.666620
0.980625 0.947221 0.880247
0.811073 0.949849 0.825971
0.811504 0.949925 0.826037
0.826394 0.952517 0.828310
0.921115 0.967392 0.844989
0.982517 0.976392 0.859878
0.152687 0.009148 0.506451
0.271450 0.073391 0.502126
0.758458 0.202795 0.701624
0.953770 0.706101 0.791010
0.982210 0.928766 0.903401
0.139613 0.014113 0.504511
0.191320 0.033719 0.500505
0.752030 0.207836 0.696653
0.953525 0.703786 0.789350
0.982138 0.927655 0.902456
0.235831 0.674699 0.643894
0.235594 0.673274 0.642923
0.753268 0.748437 0.720243
0.973139 0.776444 0.768500
0.981842 0.921358 0.894857
0.331536 0.836238 0.645688
0.335095 0.836855 0.646070
0.616648 0.891175 0.690195
0.937809 0.940787 0.745321
0.980209 0.945290 0.875249
0.809925 0.949901 0.831374
0.810359 0.949977 0.831440
0.825368 0.952577 0.833703
0.921356 0.967371 0.850634
0.982684 0.976552 0.863847
0.149435 0.001940 0.592676
0.152136 0.002408 0.592826
0.816618 0.216566 0.823414
0.863296 0.249993 0.824457
0.976458 0.907747 0.916004
0.148772 0.001858 0.592649
0.150514 0.002173 0.592750
0.810661 0.216219 0.823026
0.863701 0.253259 0.824544
0.976228 0.906254 0.915654
0.200175 0.567486 0.780195
0.196170 0.558182 0.781775
0.699478 0.553945 0.803031
0.924550 0.596445 0.875085
0.975059 0.898383 0.913314
0.298842 0.826474 0.794407
0.300160 0.826545 0.794492
0.492810 0.859417 0.826156
0.936514 0.930591 0.896417
0.982770 0.934681 0.904986
0.798160 0.949268 0.876445
0.798641 0.949352 0.876519
0.814726 0.952152 0.878798
0.917465 0.968611 0.891740
0.984067 0.977933 0.900505
0.147632 0.001537 0.592548
0.147632 0.001537 0.592548
0.195767 0.017487 0.592128
0.860563 0.219625 0.826342
0.900409 0.464472 0.863768
0.147632 0.001537 0.592548
0.147632 0.001537 0.592548
0.190146 0.014940 0.592350
0.860563 0.219625 0.826342
0.901271 0.469146 0.864582
0.147632 0.001537 0.592548
0.147632 0.001537 0.592548
0.147632 0.001537 0.592548
0.860563 0.219625 0.826342
0.930762 0.629180 0.892252
0.282415 0.829523 0.821869
0.282193 0.828600 0.821661
0.283732 0.806034 0.816955
0.931315 0.905899 0.919914
0.976582 0.910659 0.935289
0.740296 0.940707 0.907036
0.741096 0.940855 0.907176
0.767848 0.945767 0.911837
0.907254 0.968609 0.933465
0.985657 0.979492 0.943817
