滤镜资源/Lutify.me Free 3D LUTs Package/3D LUTs/Monitoring LUTs/RED DSMC2/Scarlet-W IPP2/Hiddenite - Scarlet-W-IPP2.cube
# Website: https://lutify.me
# Contact: help@lutify.me
# Created by: Lutify.me
# Copyright: (c) Copyright Lutify.me 2016, G.T. Colord LTD
LUT_3D_SIZE 9
0.000000 0.000000 0.000000
0.019599 0.010883 0.018116
0.153270 0.024091 0.055674
0.431896 0.059334 0.116933
0.663574 0.124876 0.218596
0.816303 0.366286 0.510367
0.878024 0.635578 0.777717
0.908524 0.813868 0.948542
0.934158 0.940468 0.975741
0.016633 0.024722 0.028821
0.026729 0.030163 0.035887
0.152870 0.031396 0.056279
0.429242 0.062978 0.115880
0.662641 0.126968 0.216963
0.816083 0.365272 0.507761
0.877832 0.634651 0.776558
0.908650 0.812951 0.948005
0.933819 0.940057 0.975693
0.029434 0.143219 0.067006
0.029284 0.142092 0.066624
0.137102 0.150522 0.078808
0.427804 0.149791 0.123578
0.663498 0.164959 0.210699
0.819331 0.377674 0.501909
0.877660 0.633375 0.772625
0.909260 0.809530 0.945887
0.932825 0.938853 0.975550
0.062455 0.376403 0.143759
0.062400 0.375920 0.143579
0.063942 0.374515 0.144277
0.377211 0.404769 0.178782
0.685731 0.405769 0.238314
0.836825 0.462243 0.481977
0.879499 0.638723 0.759320
0.911663 0.801809 0.940239
0.929599 0.934951 0.975085
0.094207 0.584718 0.225195
0.094222 0.584646 0.225168
0.094782 0.584471 0.225383
0.189665 0.601470 0.238787
0.614114 0.641387 0.288013
0.852782 0.653011 0.420572
0.895070 0.698782 0.733439
0.913764 0.803760 0.925174
0.925221 0.928313 0.974709
0.133214 0.721987 0.330313
0.133276 0.722071 0.330358
0.134073 0.723116 0.330991
0.142677 0.734472 0.339656
0.511122 0.782270 0.359862
0.786009 0.808292 0.410387
0.926209 0.824873 0.688196
0.925869 0.848029 0.901786
0.925344 0.927149 0.975037
0.239414 0.791517 0.633740
0.239523 0.791650 0.633854
0.240789 0.793182 0.635191
0.250804 0.805177 0.645812
0.453113 0.866555 0.603819
0.738978 0.902952 0.624910
0.890600 0.916556 0.682301
0.945125 0.921843 0.872415
0.939604 0.944980 0.979367
0.515472 0.872279 0.832763
0.515681 0.872344 0.832761
0.518067 0.873089 0.832750
0.532954 0.877736 0.832672
0.595725 0.895936 0.832322
0.721731 0.938385 0.826225
0.860521 0.965168 0.833756
0.940980 0.973565 0.869563
0.961294 0.972917 0.983937
0.724934 0.917915 0.935383
0.724972 0.917926 0.935387
0.725410 0.918054 0.935445
0.728255 0.918883 0.935820
0.742006 0.922908 0.937664
0.786859 0.936189 0.943967
0.862921 0.957454 0.954297
0.926242 0.975745 0.963587
0.962613 0.983799 0.980270
0.003935 0.003935 0.018575
0.017906 0.012038 0.047946
0.152357 0.023502 0.067014
0.429873 0.058633 0.121239
0.662499 0.123897 0.221896
0.815759 0.364164 0.509689
0.877756 0.634371 0.776719
0.908621 0.812921 0.948016
0.934158 0.940467 0.975741
0.017144 0.019608 0.048012
0.021919 0.025793 0.053045
0.151340 0.029323 0.065468
0.427395 0.062003 0.119912
0.661569 0.125935 0.220057
0.815542 0.363160 0.507100
0.877565 0.633443 0.775563
0.908747 0.812000 0.947477
0.933819 0.940057 0.975693
0.029085 0.140957 0.067152
0.028931 0.139813 0.066676
0.135931 0.147907 0.078348
0.425906 0.147769 0.125619
0.662218 0.163620 0.213178
0.818857 0.375749 0.501324
0.877398 0.632183 0.771628
0.909242 0.809533 0.945903
0.932825 0.938853 0.975550
0.062415 0.375624 0.144095
0.062363 0.375145 0.143912
0.063838 0.373628 0.144501
0.376839 0.403883 0.178825
0.685078 0.405262 0.239358
0.836191 0.461256 0.481595
0.879276 0.637684 0.758318
0.911775 0.800859 0.939699
0.929247 0.934524 0.975035
0.094317 0.584571 0.225666
0.094331 0.584500 0.225638
0.094881 0.584311 0.225833
0.189415 0.601351 0.239077
0.614129 0.641296 0.288320
0.852129 0.652911 0.420495
0.894979 0.698309 0.732419
0.913646 0.803127 0.924378
0.924909 0.927857 0.974680
0.133485 0.721859 0.331307
0.133546 0.721942 0.331351
0.134341 0.722987 0.331979
0.142938 0.734334 0.340610
0.511142 0.782335 0.360522
0.786095 0.808381 0.411303
0.926217 0.824843 0.687151
0.925847 0.847785 0.900942
0.925086 0.926772 0.975016
0.239556 0.791441 0.634187
0.239665 0.791573 0.634301
0.240931 0.793106 0.635638
0.250944 0.805097 0.646258
0.453220 0.866461 0.604480
0.738970 0.902973 0.625329
0.890598 0.916570 0.682619
0.945136 0.921833 0.872049
0.939486 0.944779 0.979381
0.515488 0.872268 0.832849
0.515698 0.872334 0.832847
0.518083 0.873078 0.832836
0.532972 0.877727 0.832758
0.595751 0.895923 0.832417
0.721760 0.938369 0.826343
0.860518 0.965175 0.833842
0.940977 0.973567 0.869628
0.961109 0.972913 0.983888
0.724943 0.917912 0.935395
0.724980 0.917923 0.935400
0.725418 0.918051 0.935458
0.728263 0.918880 0.935833
0.742015 0.922905 0.937677
0.786862 0.936189 0.943983
0.862927 0.957452 0.954317
0.926249 0.975743 0.963604
0.962617 0.983797 0.980285
0.013632 0.014986 0.075058
0.016117 0.019864 0.095998
0.144829 0.024047 0.180949
0.421978 0.056091 0.209244
0.658621 0.118638 0.276168
0.812847 0.353223 0.515489
0.876807 0.630385 0.775239
0.908765 0.810093 0.946569
0.933128 0.939217 0.975595
0.012974 0.015704 0.072723
0.014787 0.018271 0.085234
0.139954 0.024211 0.177121
0.419683 0.058369 0.206802
0.657054 0.120243 0.273850
0.812853 0.353185 0.513960
0.876614 0.629449 0.774097
0.908891 0.809169 0.946029
0.932786 0.938803 0.975546
0.054982 0.110187 0.160179
0.054549 0.109110 0.159208
0.122015 0.135597 0.170425
0.416569 0.129952 0.195907
0.656418 0.153603 0.260807
0.816440 0.366714 0.508932
0.876331 0.627649 0.769625
0.909502 0.805728 0.943901
0.931783 0.937588 0.975403
0.067495 0.366656 0.167340
0.067336 0.366176 0.166847
0.067482 0.364176 0.164354
0.375294 0.397539 0.191193
0.680786 0.400052 0.259234
0.833534 0.456205 0.492182
0.878343 0.633701 0.756525
0.911716 0.798186 0.938044
0.928237 0.933193 0.974914
0.096317 0.582774 0.233356
0.096318 0.582696 0.233300
0.096700 0.582403 0.233171
0.186731 0.600481 0.243703
0.614614 0.640667 0.293029
0.850714 0.652830 0.436956
0.894596 0.696658 0.731772
0.913258 0.801163 0.922342
0.923961 0.926485 0.974591
0.136781 0.720290 0.344157
0.136842 0.720373 0.344191
0.137624 0.721415 0.344692
0.146090 0.732700 0.352611
0.511444 0.783183 0.368586
0.787088 0.809515 0.422952
0.926196 0.824764 0.687316
0.925751 0.847021 0.898904
0.924313 0.925638 0.974950
0.241179 0.790573 0.639224
0.241286 0.790705 0.639338
0.242537 0.792240 0.640675
0.252522 0.804194 0.651276
0.454407 0.865393 0.611919
0.738870 0.903211 0.630067
0.890577 0.916728 0.686225
0.945184 0.921777 0.870280
0.939133 0.944187 0.979417
0.515675 0.872151 0.833836
0.515886 0.872216 0.833834
0.518273 0.872962 0.833822
0.533170 0.877612 0.833745
0.596039 0.895774 0.833486
0.722074 0.938193 0.827675
0.860477 0.965246 0.834829
0.940948 0.973593 0.870370
0.960781 0.972902 0.983800
0.725040 0.917879 0.935545
0.725078 0.917890 0.935550
0.725516 0.918018 0.935608
0.728361 0.918847 0.935983
0.742116 0.922872 0.937827
0.786961 0.936162 0.944137
0.862996 0.957431 0.954549
0.926325 0.975725 0.963790
0.962666 0.983785 0.980460
0.017497 0.042048 0.158296
0.017637 0.044261 0.165841
0.050717 0.071837 0.369540
0.373124 0.054066 0.438211
0.634766 0.101061 0.465294
0.799119 0.304676 0.566014
0.872445 0.613121 0.775706
0.908484 0.800677 0.942393
0.929619 0.934956 0.975101
0.017482 0.041904 0.156762
0.017605 0.043878 0.163283
0.045039 0.073681 0.358258
0.370820 0.054409 0.436324
0.633001 0.101850 0.464366
0.799173 0.304793 0.565197
0.872237 0.612143 0.774659
0.908599 0.799735 0.941854
0.929267 0.934529 0.975051
0.018981 0.074198 0.204928
0.018967 0.073807 0.205151
0.022540 0.102132 0.297083
0.356929 0.071686 0.426326
0.629944 0.121577 0.457948
0.802517 0.322075 0.563848
0.872099 0.611088 0.771165
0.909178 0.796260 0.939736
0.928237 0.933281 0.974903
0.138095 0.303880 0.401391
0.137884 0.303340 0.400899
0.136267 0.298650 0.396711
0.349632 0.385273 0.436509
0.660557 0.374053 0.474576
0.821055 0.430646 0.562604
0.874537 0.619052 0.759848
0.909901 0.789832 0.932664
0.925298 0.929029 0.974622
0.151901 0.547593 0.438156
0.151843 0.547514 0.437950
0.151461 0.546965 0.436054
0.188027 0.585059 0.463492
0.620780 0.646302 0.445525
0.844762 0.650800 0.538106
0.892716 0.689628 0.739498
0.911793 0.794299 0.917346
0.921040 0.922313 0.974306
0.169982 0.702625 0.470968
0.170034 0.702705 0.470979
0.170705 0.703717 0.471203
0.178799 0.714722 0.477682
0.512136 0.791101 0.464026
0.791305 0.815719 0.515298
0.925924 0.824591 0.703535
0.925291 0.844374 0.894609
0.921985 0.922224 0.974746
0.252631 0.784407 0.668008
0.252739 0.784537 0.668125
0.254001 0.786060 0.669504
0.263895 0.797874 0.680199
0.462312 0.858662 0.654986
0.738056 0.904649 0.658897
0.890380 0.917609 0.708130
0.945206 0.921652 0.868803
0.937869 0.942654 0.979186
0.515765 0.871970 0.840054
0.516019 0.872012 0.840056
0.518931 0.872490 0.840086
0.534421 0.876879 0.840052
0.597877 0.894817 0.840325
0.724083 0.937069 0.836198
0.860212 0.965705 0.841151
0.940763 0.973758 0.875145
0.959444 0.972854 0.983441
0.725677 0.917663 0.936523
0.725715 0.917675 0.936528
0.726154 0.917802 0.936586
0.729002 0.918633 0.936961
0.742775 0.922659 0.938803
0.787664 0.935962 0.945114
0.863475 0.957328 0.955786
0.926822 0.975604 0.965002
0.962987 0.983701 0.981606
0.018781 0.064473 0.221668
0.018845 0.065535 0.225324
0.022327 0.096184 0.330454
0.280523 0.091838 0.634446
0.560216 0.082536 0.661856
0.750976 0.187206 0.692443
0.859041 0.566840 0.813434
0.903210 0.782426 0.940314
0.923612 0.927173 0.974372
0.018769 0.064344 0.220822
0.018829 0.065348 0.224287
0.021833 0.094004 0.322191
0.276987 0.092195 0.633026
0.559602 0.082891 0.661320
0.750463 0.187126 0.692257
0.858768 0.565673 0.812783
0.903209 0.781491 0.939780
0.923281 0.926699 0.974340
0.018906 0.067904 0.225041
0.018934 0.068393 0.226710
0.019743 0.082749 0.274109
0.242022 0.099533 0.621980
0.554388 0.088165 0.656958
0.751033 0.197136 0.693036
0.858448 0.564044 0.810577
0.903337 0.778125 0.937694
0.922322 0.925318 0.974248
0.065342 0.269605 0.518259
0.064955 0.268944 0.517662
0.063277 0.265929 0.515562
0.223115 0.323358 0.582199
0.586250 0.259797 0.694726
0.777856 0.331184 0.716999
0.861902 0.576654 0.806224
0.904576 0.771441 0.932300
0.919284 0.920888 0.973966
0.224368 0.497893 0.638842
0.224305 0.497743 0.638706
0.223741 0.496261 0.637378
0.243219 0.514769 0.656756
0.585512 0.640338 0.704766
0.820074 0.629544 0.749906
0.885318 0.668679 0.804313
0.907738 0.778784 0.920571
0.915061 0.914230 0.973652
0.239555 0.666624 0.683828
0.239603 0.666677 0.683867
0.240205 0.667356 0.684388
0.247543 0.675674 0.691710
0.535282 0.769519 0.736751
0.786651 0.819946 0.734587
0.923724 0.822890 0.792036
0.923403 0.838539 0.904285
0.917413 0.915283 0.974289
0.282401 0.769469 0.752453
0.282504 0.769584 0.752559
0.283743 0.770957 0.753832
0.293403 0.781665 0.763887
0.484980 0.839375 0.777730
0.732752 0.908822 0.760112
0.888317 0.920080 0.789803
0.944573 0.921507 0.885650
0.935772 0.940124 0.978704
0.511888 0.873254 0.866824
0.512147 0.873298 0.866826
0.515104 0.873795 0.866844
0.533608 0.876852 0.867001
0.603424 0.891948 0.868969
0.733434 0.932116 0.872371
0.858817 0.967788 0.869784
0.939835 0.974441 0.897295
0.958747 0.972739 0.983217
0.728791 0.916591 0.941342
0.728829 0.916602 0.941347
0.729270 0.916731 0.941406
0.732132 0.917565 0.941782
0.745980 0.921607 0.943625
0.791138 0.934967 0.949948
0.866250 0.956767 0.960877
0.929286 0.975002 0.971017
0.964592 0.983283 0.987336
0.019282 0.073538 0.246265
0.019328 0.073966 0.247650
0.019925 0.081447 0.272594
0.228322 0.123191 0.742689
0.527534 0.101099 0.788882
0.667568 0.107782 0.799651
0.812067 0.430529 0.879335
0.876939 0.754685 0.947522
0.913735 0.915198 0.972970
0.019264 0.073383 0.245733
0.019308 0.073796 0.247072
0.019913 0.081061 0.271277
0.224729 0.123414 0.741911
0.526023 0.101166 0.788596
0.667490 0.108086 0.799559
0.811531 0.428573 0.878833
0.876848 0.753557 0.947341
0.913433 0.914661 0.972887
0.019207 0.072794 0.242922
0.019222 0.073055 0.243781
0.019599 0.078054 0.260334
0.181290 0.127265 0.732000
0.508621 0.102531 0.785989
0.666798 0.111787 0.798696
0.811080 0.426673 0.878258
0.876789 0.750804 0.946921
0.912671 0.913055 0.972652
0.026764 0.124420 0.351465
0.026690 0.123994 0.350745
0.026044 0.120199 0.345285
0.039630 0.187853 0.557258
0.460936 0.139228 0.781542
0.675124 0.145951 0.807469
0.818356 0.454747 0.883467
0.877385 0.742504 0.945750
0.910324 0.907973 0.971917
0.183527 0.471654 0.734605
0.183374 0.471444 0.734422
0.182057 0.469605 0.732853
0.190277 0.477348 0.740811
0.507779 0.599112 0.800267
0.740676 0.573127 0.896195
0.862042 0.607420 0.917340
0.885111 0.753792 0.948441
0.907669 0.900864 0.970994
0.287752 0.631639 0.802797
0.287761 0.631631 0.802792
0.287917 0.631603 0.802802
0.291845 0.634827 0.806229
0.529879 0.740252 0.880220
0.753456 0.820423 0.892749
0.900571 0.809756 0.939630
0.908569 0.829649 0.955432
0.911120 0.905795 0.972684
0.334608 0.740627 0.834249
0.334697 0.740722 0.834340
0.335735 0.741828 0.835400
0.343605 0.750201 0.843505
0.479677 0.824332 0.901803
0.768323 0.884479 0.915428
0.889452 0.916354 0.930292
0.937482 0.921933 0.956968
0.933804 0.937946 0.977608
0.528863 0.862243 0.913519
0.529082 0.862316 0.913551
0.531589 0.863154 0.913914
0.547245 0.868330 0.916234
0.613511 0.887697 0.924304
0.752663 0.925728 0.939871
0.875803 0.957762 0.954897
0.941721 0.972806 0.963188
0.962623 0.972807 0.985023
0.745128 0.910837 0.952858
0.745166 0.910849 0.952864
0.745595 0.910988 0.952935
0.748430 0.911871 0.953371
0.762484 0.915942 0.955267
0.807493 0.929952 0.962246
0.880227 0.953404 0.974252
0.939932 0.973307 0.984843
0.972164 0.984039 0.991265
0.019152 0.072225 0.239261
0.019154 0.072279 0.239435
0.019205 0.073264 0.242626
0.034627 0.157220 0.520499
0.595274 0.108640 0.802057
0.673969 0.111215 0.810864
0.694696 0.144408 0.820653
0.825723 0.689301 0.930806
0.900295 0.894794 0.969361
0.019150 0.072199 0.239178
0.019153 0.072251 0.239345
0.019203 0.073229 0.242496
0.034295 0.155469 0.514655
0.594110 0.108708 0.801913
0.673560 0.111202 0.810825
0.694785 0.144660 0.820719
0.825316 0.687733 0.930515
0.899875 0.894180 0.969268
0.019140 0.072004 0.238519
0.019142 0.072036 0.238623
0.019175 0.072688 0.240723
0.030444 0.136337 0.451663
0.580271 0.109601 0.800255
0.668690 0.111026 0.810359
0.695828 0.147591 0.821480
0.824197 0.683392 0.929711
0.898678 0.892429 0.969001
0.019421 0.077569 0.252057
0.019419 0.077535 0.251975
0.019402 0.077199 0.251159
0.020563 0.087037 0.284362
0.461466 0.120590 0.787477
0.643076 0.120647 0.810529
0.703511 0.170345 0.827319
0.822414 0.676335 0.928409
0.895372 0.885990 0.967826
0.149983 0.429237 0.708997
0.149571 0.428735 0.708618
0.144642 0.423027 0.704834
0.115148 0.386731 0.680649
0.395158 0.461555 0.763323
0.660098 0.420147 0.868057
0.779382 0.468671 0.890484
0.830237 0.705838 0.933922
0.892071 0.879221 0.966543
0.311989 0.600836 0.823413
0.311974 0.600805 0.823394
0.311890 0.600516 0.823204
0.314884 0.601137 0.823190
0.467998 0.690792 0.862827
0.736557 0.797493 0.897390
0.837095 0.806222 0.948299
0.867777 0.824086 0.956060
0.898614 0.891751 0.968877
0.375404 0.703360 0.863067
0.375492 0.703401 0.863086
0.376518 0.703869 0.863312
0.384658 0.707518 0.865064
0.499050 0.762347 0.890729
0.785985 0.869777 0.938500
0.884226 0.919390 0.956902
0.926416 0.929482 0.974909
0.930567 0.936165 0.975196
0.564752 0.825787 0.916118
0.565003 0.825885 0.916166
0.567863 0.827000 0.916713
0.585372 0.834029 0.920133
0.666112 0.855321 0.932068
0.807257 0.902145 0.956038
0.912197 0.947020 0.975185
0.958325 0.971961 0.985376
0.968058 0.975784 0.987722
0.783959 0.897073 0.952985
0.783999 0.897086 0.952992
0.784445 0.897241 0.953070
0.787265 0.898285 0.953583
0.800922 0.903229 0.956033
0.844755 0.919623 0.964093
0.911268 0.948396 0.976969
0.959630 0.974734 0.987674
0.983580 0.988977 0.994266
0.019111 0.071436 0.236780
0.019111 0.071436 0.236780
0.019113 0.071463 0.236868
0.019142 0.072038 0.238720
0.681935 0.111603 0.811650
0.681935 0.111603 0.811650
0.681935 0.111603 0.811650
0.708369 0.191367 0.832349
0.877957 0.852814 0.961179
0.019111 0.071436 0.236780
0.019111 0.071436 0.236780
0.019113 0.071463 0.236868
0.019141 0.072023 0.238673
0.681935 0.111603 0.811650
0.681935 0.111603 0.811650
0.681963 0.111682 0.811672
0.708443 0.191615 0.832410
0.877521 0.851873 0.961004
0.019111 0.071436 0.236780
0.019111 0.071436 0.236780
0.019111 0.071436 0.236780
0.019134 0.071881 0.238215
0.681935 0.111603 0.811650
0.681935 0.111603 0.811650
0.681963 0.111682 0.811672
0.709305 0.194492 0.833108
0.876293 0.849230 0.960510
0.019111 0.071436 0.236780
0.019111 0.071436 0.236780
0.019111 0.071436 0.236780
0.019115 0.071503 0.236997
0.649780 0.109161 0.808258
0.681935 0.111603 0.811650
0.682656 0.113628 0.812214
0.715561 0.216057 0.838160
0.872584 0.841237 0.959019
0.077594 0.338992 0.648821
0.077090 0.338277 0.648313
0.071179 0.329869 0.642353
0.047793 0.262466 0.553639
0.080715 0.224187 0.602358
0.608274 0.163799 0.815603
0.709753 0.195988 0.833471
0.766333 0.414335 0.880197
0.869321 0.833633 0.957580
0.319968 0.608435 0.827033
0.319849 0.608212 0.826949
0.318256 0.605782 0.825894
0.304339 0.590613 0.817399
0.316553 0.587138 0.809872
0.694372 0.748793 0.878152
0.812838 0.753806 0.937953
0.845510 0.769228 0.945173
0.881315 0.859913 0.962503
0.370327 0.691445 0.858674
0.370371 0.691458 0.858682
0.370895 0.691630 0.858774
0.374916 0.693128 0.859537
0.418232 0.713035 0.868977
0.761510 0.854815 0.931386
0.875538 0.910520 0.953149
0.919903 0.923146 0.973419
0.923340 0.927442 0.974134
0.496776 0.783417 0.897705
0.496988 0.783507 0.897749
0.499342 0.784586 0.898259
0.516920 0.792303 0.901926
0.613649 0.834297 0.921881
0.801453 0.892550 0.952480
0.913281 0.945962 0.973765
0.960289 0.972707 0.985516
0.969731 0.977188 0.988363
0.785835 0.893302 0.951801
0.785879 0.893318 0.951809
0.786375 0.893502 0.951900
0.789593 0.894692 0.952491
0.805019 0.900396 0.955324
0.852779 0.919281 0.964412
0.920275 0.952508 0.978129
0.969471 0.980507 0.990302
0.993492 0.995588 0.997717
0.019111 0.071436 0.236780
0.019111 0.071436 0.236780
0.019111 0.071436 0.236780
0.019111 0.071436 0.236780
0.020356 0.088290 0.291164
0.681935 0.111603 0.811650
0.681935 0.111603 0.811650
0.681935 0.111603 0.811650
0.746885 0.335741 0.864181
0.019111 0.071436 0.236780
0.019111 0.071436 0.236780
0.019111 0.071436 0.236780
0.019111 0.071436 0.236780
0.020326 0.088153 0.290703
0.681935 0.111603 0.811650
0.681935 0.111603 0.811650
0.681935 0.111603 0.811650
0.746974 0.336100 0.864256
0.019111 0.071436 0.236780
0.019111 0.071436 0.236780
0.019111 0.071436 0.236780
0.019111 0.071436 0.236780
0.020134 0.086603 0.285672
0.681935 0.111603 0.811650
0.681935 0.111603 0.811650
0.681935 0.111603 0.811650
0.747996 0.340209 0.865110
0.019111 0.071436 0.236780
0.019111 0.071436 0.236780
0.019111 0.071436 0.236780
0.019111 0.071436 0.236780
0.019618 0.079058 0.261351
0.681935 0.111603 0.811650
0.681935 0.111603 0.811650
0.682027 0.111863 0.811723
0.755005 0.368247 0.870884
0.019111 0.071436 0.236780
0.019111 0.071436 0.236780
0.019111 0.071436 0.236780
0.019111 0.071436 0.236780
0.019111 0.071436 0.236780
0.681935 0.111603 0.811650
0.681935 0.111603 0.811650
0.696092 0.151797 0.822475
0.784835 0.511950 0.898635
0.354105 0.672315 0.851097
0.354025 0.672172 0.851043
0.353095 0.670506 0.850414
0.346657 0.658946 0.846045
0.296112 0.581807 0.812350
0.594195 0.632002 0.849181
0.774426 0.619759 0.913867
0.815157 0.658029 0.925394
0.838975 0.748175 0.941337
0.373061 0.705424 0.863605
0.372998 0.705316 0.863564
0.372271 0.704076 0.863095
0.367239 0.695485 0.859848
0.359606 0.673860 0.851976
0.689714 0.814259 0.914073
0.853035 0.889230 0.943353
0.903717 0.901601 0.970637
0.905931 0.904281 0.971147
0.425795 0.747414 0.881174
0.425866 0.747443 0.881188
0.426681 0.747776 0.881351
0.432278 0.750109 0.882498
0.472456 0.767772 0.890954
0.751508 0.870636 0.942227
0.900098 0.937724 0.969680
0.952729 0.967051 0.982715
0.964896 0.972730 0.986354
0.750853 0.882379 0.946127
0.750914 0.882400 0.946138
0.751613 0.882642 0.946260
0.756131 0.884208 0.947049
0.777210 0.891666 0.950763
0.839030 0.915120 0.962222
0.920009 0.952865 0.978548
0.973762 0.983420 0.991802
1.000000 1.000000 1.000000
