滤镜资源/Lutify.me Free 3D LUTs Package/3D LUTs/Monitoring LUTs/RED DSMC2/Scarlet-W IPP2/Hiddenite - Scarlet-W-IPP2.cube
# Website: https://lutify.me
# Contact: help@lutify.me
# Created by: Lutify.me
# Copyright: (c) Copyright Lutify.me 2016, G.T. Colord LTD
LUT_3D_SIZE 5
0.000000 0.000000 0.000000
0.153270 0.024091 0.055674
0.663574 0.124876 0.218596
0.878024 0.635578 0.777717
0.934158 0.940468 0.975741
0.029434 0.143219 0.067006
0.137102 0.150522 0.078808
0.663498 0.164959 0.210699
0.877660 0.633375 0.772625
0.932825 0.938853 0.975550
0.094207 0.584718 0.225195
0.094782 0.584471 0.225383
0.614114 0.641387 0.288013
0.895070 0.698782 0.733439
0.925221 0.928313 0.974709
0.239414 0.791517 0.633740
0.240789 0.793182 0.635191
0.453113 0.866555 0.603819
0.890600 0.916556 0.682301
0.939604 0.944980 0.979367
0.724934 0.917915 0.935383
0.725410 0.918054 0.935445
0.742006 0.922908 0.937664
0.862921 0.957454 0.954297
0.962613 0.983799 0.980270
0.013632 0.014986 0.075058
0.144829 0.024047 0.180949
0.658621 0.118638 0.276168
0.876807 0.630385 0.775239
0.933128 0.939217 0.975595
0.054982 0.110187 0.160179
0.122015 0.135597 0.170425
0.656418 0.153603 0.260807
0.876331 0.627649 0.769625
0.931783 0.937588 0.975403
0.096317 0.582774 0.233356
0.096700 0.582403 0.233171
0.614614 0.640667 0.293029
0.894596 0.696658 0.731772
0.923961 0.926485 0.974591
0.241179 0.790573 0.639224
0.242537 0.792240 0.640675
0.454407 0.865393 0.611919
0.890577 0.916728 0.686225
0.939133 0.944187 0.979417
0.725040 0.917879 0.935545
0.725516 0.918018 0.935608
0.742116 0.922872 0.937827
0.862996 0.957431 0.954549
0.962666 0.983785 0.980460
0.018781 0.064473 0.221668
0.022327 0.096184 0.330454
0.560216 0.082536 0.661856
0.859041 0.566840 0.813434
0.923612 0.927173 0.974372
0.018906 0.067904 0.225041
0.019743 0.082749 0.274109
0.554388 0.088165 0.656958
0.858448 0.564044 0.810577
0.922322 0.925318 0.974248
0.224368 0.497893 0.638842
0.223741 0.496261 0.637378
0.585512 0.640338 0.704766
0.885318 0.668679 0.804313
0.915061 0.914230 0.973652
0.282401 0.769469 0.752453
0.283743 0.770957 0.753832
0.484980 0.839375 0.777730
0.888317 0.920080 0.789803
0.935772 0.940124 0.978704
0.728791 0.916591 0.941342
0.729270 0.916731 0.941406
0.745980 0.921607 0.943625
0.866250 0.956767 0.960877
0.964592 0.983283 0.987336
0.019152 0.072225 0.239261
0.019205 0.073264 0.242626
0.595274 0.108640 0.802057
0.694696 0.144408 0.820653
0.900295 0.894794 0.969361
0.019140 0.072004 0.238519
0.019175 0.072688 0.240723
0.580271 0.109601 0.800255
0.695828 0.147591 0.821480
0.898678 0.892429 0.969001
0.149983 0.429237 0.708997
0.144642 0.423027 0.704834
0.395158 0.461555 0.763323
0.779382 0.468671 0.890484
0.892071 0.879221 0.966543
0.375404 0.703360 0.863067
0.376518 0.703869 0.863312
0.499050 0.762347 0.890729
0.884226 0.919390 0.956902
0.930567 0.936165 0.975196
0.783959 0.897073 0.952985
0.784445 0.897241 0.953070
0.800922 0.903229 0.956033
0.911268 0.948396 0.976969
0.983580 0.988977 0.994266
0.019111 0.071436 0.236780
0.019111 0.071436 0.236780
0.020356 0.088290 0.291164
0.681935 0.111603 0.811650
0.746885 0.335741 0.864181
0.019111 0.071436 0.236780
0.019111 0.071436 0.236780
0.020134 0.086603 0.285672
0.681935 0.111603 0.811650
0.747996 0.340209 0.865110
0.019111 0.071436 0.236780
0.019111 0.071436 0.236780
0.019111 0.071436 0.236780
0.681935 0.111603 0.811650
0.784835 0.511950 0.898635
0.373061 0.705424 0.863605
0.372271 0.704076 0.863095
0.359606 0.673860 0.851976
0.853035 0.889230 0.943353
0.905931 0.904281 0.971147
0.750853 0.882379 0.946127
0.751613 0.882642 0.946260
0.777210 0.891666 0.950763
0.920009 0.952865 0.978548
1.000000 1.000000 1.000000
