滤镜资源/Lutify.me Free 3D LUTs Package/3D LUTs/Monitoring LUTs/RED DSMC2/Scarlet-W IPP2/Hiddenite - Scarlet-W-IPP2.cube
# Website: https://lutify.me
# Contact: help@lutify.me
# Created by: Lutify.me
# Copyright: (c) Copyright Lutify.me 2016, G.T. Colord LTD
LUT_3D_SIZE 17
0.000000 0.000000 0.000000
0.003310 0.003310 0.006051
0.019599 0.010883 0.018116
0.064539 0.014544 0.030477
0.153270 0.024091 0.055674
0.281949 0.039775 0.083107
0.431896 0.059334 0.116933
0.561515 0.084302 0.157718
0.663574 0.124876 0.218596
0.746987 0.207861 0.344290
0.816303 0.366286 0.510367
0.851554 0.515793 0.658311
0.878024 0.635578 0.777717
0.898031 0.731009 0.873592
0.908524 0.813868 0.948542
0.906130 0.892480 0.970799
0.934158 0.940468 0.975741
0.000010 0.000010 0.000015
0.000004 0.000004 0.000006
0.016844 0.010635 0.017485
0.064804 0.015794 0.031522
0.152981 0.025683 0.055772
0.280933 0.041215 0.082773
0.430728 0.060400 0.116502
0.560644 0.085181 0.157146
0.663086 0.125435 0.217890
0.746734 0.208136 0.343359
0.816226 0.365934 0.509499
0.851434 0.515244 0.657575
0.878043 0.635656 0.777722
0.898039 0.731041 0.873594
0.908641 0.812928 0.948002
0.906133 0.892484 0.970800
0.934159 0.940469 0.975741
0.016633 0.024722 0.028821
0.016555 0.023969 0.028526
0.026729 0.030163 0.035887
0.071588 0.029108 0.040684
0.152870 0.031396 0.056279
0.279608 0.044695 0.082433
0.429242 0.062978 0.115880
0.559270 0.087143 0.156170
0.662641 0.126968 0.216963
0.746708 0.209478 0.342405
0.816083 0.365272 0.507761
0.851368 0.514914 0.656856
0.877832 0.634651 0.776558
0.897957 0.730627 0.873118
0.908650 0.812951 0.948005
0.906039 0.891776 0.970703
0.933819 0.940057 0.975693
0.019347 0.067283 0.042837
0.019325 0.066850 0.042681
0.019400 0.066043 0.042426
0.067488 0.072921 0.051019
0.153008 0.075484 0.062322
0.277876 0.072551 0.084121
0.425320 0.076886 0.114480
0.556569 0.096841 0.153732
0.661861 0.134629 0.214237
0.747240 0.216165 0.339514
0.816905 0.368318 0.506299
0.851303 0.514452 0.654731
0.877753 0.634168 0.775431
0.897734 0.729465 0.871694
0.908800 0.812095 0.947477
0.905960 0.891093 0.970611
0.933485 0.939653 0.975645
0.029434 0.143219 0.067006
0.029371 0.142836 0.066872
0.029284 0.142092 0.066624
0.034237 0.141127 0.067101
0.137102 0.150522 0.078808
0.274835 0.154182 0.096447
0.427804 0.149791 0.123578
0.557284 0.143267 0.155273
0.663498 0.164959 0.210699
0.751350 0.242308 0.335322
0.819331 0.377674 0.501909
0.851839 0.516243 0.651335
0.877660 0.633375 0.772625
0.897458 0.727920 0.869334
0.909260 0.809530 0.945887
0.905824 0.889758 0.970434
0.932825 0.938853 0.975550
0.045689 0.253676 0.102880
0.045648 0.253390 0.102782
0.045577 0.252830 0.102598
0.045547 0.250847 0.102023
0.090120 0.256786 0.108474
0.247535 0.269830 0.124444
0.423474 0.274111 0.147921
0.567137 0.268581 0.175855
0.677099 0.267735 0.219210
0.761318 0.307236 0.326503
0.826212 0.405083 0.495630
0.853734 0.523087 0.644597
0.877938 0.633717 0.767618
0.897239 0.726336 0.865580
0.910032 0.806495 0.943812
0.905590 0.887139 0.970093
0.931513 0.937264 0.975362
0.062455 0.376403 0.143759
0.062436 0.376241 0.143698
0.062400 0.375920 0.143579
0.062303 0.374714 0.143161
0.063942 0.374515 0.144277
0.182430 0.388927 0.158268
0.377211 0.404769 0.178782
0.557062 0.409517 0.205337
0.685731 0.405769 0.238314
0.774717 0.413528 0.314287
0.836825 0.462243 0.481977
0.859372 0.544899 0.634603
0.879499 0.638723 0.759320
0.897203 0.724885 0.858528
0.911663 0.801809 0.940239
0.905315 0.882733 0.969536
0.929599 0.934951 0.975085
0.078305 0.489484 0.184466
0.078298 0.489405 0.184435
0.078289 0.489252 0.184377
0.078273 0.488663 0.184170
0.078756 0.487844 0.184253
0.091496 0.495940 0.192104
0.311107 0.516680 0.213308
0.502939 0.531477 0.234669
0.673114 0.536903 0.264189
0.780635 0.536725 0.312390
0.848340 0.552095 0.458182
0.871483 0.593029 0.619774
0.884488 0.657369 0.748154
0.898677 0.729325 0.849676
0.912327 0.799768 0.933799
0.905470 0.877852 0.968991
0.927484 0.931950 0.974866
0.094207 0.584718 0.225195
0.094212 0.584694 0.225185
0.094222 0.584646 0.225168
0.094286 0.584483 0.225124
0.094782 0.584471 0.225383
0.098000 0.587632 0.228548
0.189665 0.601470 0.238787
0.445614 0.628879 0.267880
0.614114 0.641387 0.288013
0.766559 0.647913 0.324222
0.852782 0.653011 0.420572
0.889824 0.667876 0.596020
0.895070 0.698782 0.733439
0.903502 0.746709 0.838926
0.913764 0.803760 0.925174
0.906926 0.873931 0.968758
0.925221 0.928313 0.974709
0.110819 0.662109 0.267873
0.110836 0.662122 0.267885
0.110870 0.662150 0.267908
0.111022 0.662280 0.268018
0.111574 0.662808 0.268471
0.113660 0.665176 0.270512
0.125418 0.678763 0.281295
0.355828 0.700244 0.294595
0.569510 0.722495 0.320741
0.708176 0.732878 0.339922
0.838923 0.741635 0.400859
0.903463 0.750493 0.563624
0.910449 0.760038 0.712695
0.912837 0.782479 0.825261
0.918096 0.818892 0.914760
0.910350 0.874913 0.969440
0.924286 0.926106 0.974753
0.133214 0.721987 0.330313
0.133234 0.722014 0.330327
0.133276 0.722071 0.330358
0.133460 0.722314 0.330497
0.134073 0.723116 0.330991
0.135945 0.725573 0.332684
0.142677 0.734472 0.339656
0.256755 0.753930 0.331075
0.511122 0.782270 0.359862
0.676406 0.798982 0.383112
0.786009 0.808292 0.410387
0.893104 0.819854 0.538114
0.926209 0.824873 0.688196
0.925356 0.831502 0.807701
0.925869 0.848029 0.901786
0.919542 0.882984 0.965770
0.925344 0.927149 0.975037
0.178243 0.760946 0.473425
0.178269 0.760981 0.473446
0.178323 0.761054 0.473488
0.178550 0.761364 0.473673
0.179266 0.762339 0.474268
0.181270 0.765031 0.476019
0.187339 0.773023 0.481899
0.238225 0.795496 0.472078
0.460986 0.831715 0.458838
0.640879 0.851160 0.481267
0.765194 0.863543 0.508404
0.848082 0.871252 0.550802
0.928883 0.878912 0.672629
0.937648 0.880712 0.789699
0.935778 0.885640 0.886419
0.929851 0.901419 0.964726
0.930351 0.933844 0.975711
0.239414 0.791517 0.633740
0.239450 0.791560 0.633777
0.239523 0.791650 0.633854
0.239831 0.792023 0.634180
0.240789 0.793182 0.635191
0.243370 0.796299 0.637936
0.250804 0.805177 0.645812
0.304386 0.824194 0.642570
0.453113 0.866555 0.603819
0.610241 0.890079 0.607332
0.738978 0.902952 0.624910
0.830292 0.911387 0.648066
0.890600 0.916556 0.682301
0.947611 0.921420 0.781278
0.945125 0.921843 0.872415
0.941351 0.926931 0.951353
0.939604 0.944980 0.979367
0.337336 0.832123 0.771262
0.337461 0.832157 0.771307
0.337667 0.832251 0.771417
0.338270 0.832780 0.771944
0.340753 0.834213 0.773045
0.349569 0.837514 0.772355
0.374798 0.845764 0.762009
0.434062 0.858594 0.750422
0.515348 0.882361 0.742075
0.610107 0.913532 0.727683
0.717511 0.931513 0.728287
0.810282 0.940180 0.742390
0.876083 0.945889 0.761065
0.920133 0.949469 0.787489
0.952568 0.951623 0.866078
0.949717 0.952151 0.942160
0.948667 0.960518 0.979709
0.515472 0.872279 0.832763
0.515541 0.872300 0.832762
0.515681 0.872344 0.832761
0.516273 0.872529 0.832758
0.518067 0.873089 0.832750
0.522578 0.874497 0.832727
0.532954 0.877736 0.832672
0.555652 0.883991 0.832433
0.595725 0.895936 0.832322
0.653668 0.914910 0.831509
0.721731 0.938385 0.826225
0.793604 0.957061 0.821878
0.860521 0.965168 0.833756
0.908583 0.971073 0.849213
0.940980 0.973565 0.869563
0.955407 0.974013 0.934337
0.961294 0.972917 0.983937
0.633883 0.898847 0.891672
0.633915 0.898853 0.891674
0.633981 0.898867 0.891678
0.634255 0.898925 0.891697
0.635088 0.899101 0.891755
0.637205 0.899549 0.891901
0.642195 0.900604 0.892246
0.652791 0.903005 0.893101
0.672756 0.908371 0.894436
0.706545 0.917870 0.896791
0.752724 0.932085 0.899445
0.803506 0.948906 0.900492
0.850553 0.964777 0.898904
0.894517 0.973775 0.903453
0.929281 0.978806 0.915183
0.953889 0.982728 0.931642
0.964910 0.983200 0.988468
0.724934 0.917915 0.935383
0.724946 0.917919 0.935384
0.724972 0.917926 0.935387
0.725080 0.917958 0.935402
0.725410 0.918054 0.935445
0.726251 0.918299 0.935556
0.728255 0.918883 0.935820
0.732715 0.920184 0.936407
0.742006 0.922908 0.937664
0.759356 0.928038 0.940089
0.786859 0.936189 0.943967
0.822848 0.946949 0.949297
0.862921 0.957454 0.954297
0.898486 0.967111 0.959177
0.926242 0.975745 0.963587
0.949029 0.981585 0.970212
0.962613 0.983799 0.980270
0.000002 0.000002 0.000009
0.000192 0.000192 0.000293
0.019186 0.010895 0.019126
0.064218 0.014452 0.034462
0.152873 0.023866 0.058522
0.281312 0.039480 0.084982
0.430970 0.059033 0.118145
0.560841 0.083938 0.158807
0.663030 0.124444 0.219436
0.746478 0.206971 0.344347
0.816048 0.365277 0.509830
0.851370 0.515004 0.657704
0.878018 0.635566 0.777774
0.898029 0.731005 0.873615
0.908632 0.812918 0.948005
0.906129 0.892480 0.970799
0.934158 0.940468 0.975741
0.000001 0.000001 0.000003
0.000001 0.000001 0.000002
0.016355 0.010446 0.017288
0.063904 0.015387 0.034067
0.152508 0.025337 0.058418
0.280750 0.040941 0.084675
0.430286 0.060112 0.117825
0.560323 0.084910 0.158367
0.663079 0.125315 0.219187
0.746691 0.207967 0.344326
0.815972 0.364928 0.508963
0.851249 0.514455 0.656970
0.877912 0.635060 0.777192
0.897939 0.730557 0.873138
0.908636 0.812929 0.948007
0.906033 0.891770 0.970701
0.934159 0.940469 0.975741
0.016453 0.022974 0.028137
0.016369 0.022167 0.027822
0.025666 0.028240 0.035296
0.070236 0.026796 0.040957
0.152341 0.030591 0.058648
0.278903 0.044275 0.084109
0.428783 0.062663 0.117159
0.558932 0.086870 0.157361
0.662099 0.126501 0.217765
0.746198 0.208591 0.342473
0.816051 0.365176 0.508141
0.851183 0.514125 0.656252
0.877827 0.634638 0.776616
0.897858 0.730144 0.872663
0.908759 0.811998 0.947467
0.906038 0.891777 0.970703
0.933819 0.940057 0.975692
0.019302 0.066348 0.042647
0.019279 0.065910 0.042471
0.019325 0.065088 0.042170
0.067044 0.071935 0.050759
0.152524 0.074572 0.063509
0.277058 0.071485 0.085305
0.424816 0.076395 0.115595
0.555843 0.096448 0.154627
0.661296 0.134144 0.214991
0.746722 0.215290 0.339595
0.816659 0.367343 0.505773
0.851120 0.513671 0.654126
0.877623 0.633572 0.774903
0.897634 0.728982 0.871238
0.908910 0.811141 0.946937
0.905959 0.891093 0.970611
0.933486 0.939653 0.975645
0.029313 0.142460 0.066927
0.029250 0.142075 0.066785
0.029163 0.141328 0.066523
0.033925 0.140283 0.066921
0.136714 0.149653 0.078595
0.274032 0.153393 0.097010
0.427167 0.149119 0.124207
0.556439 0.142668 0.155874
0.662882 0.164429 0.211333
0.750829 0.241427 0.335401
0.819305 0.377578 0.502306
0.851662 0.515487 0.650732
0.877532 0.632786 0.772094
0.897456 0.727915 0.869358
0.909254 0.809531 0.945892
0.905725 0.889036 0.970335
0.932825 0.938853 0.975550
0.045600 0.253133 0.102869
0.045588 0.252878 0.102792
0.045517 0.252315 0.102602
0.045480 0.250312 0.101995
0.089765 0.256229 0.108387
0.247282 0.269269 0.124325
0.422798 0.273639 0.148174
0.566676 0.268199 0.176243
0.676488 0.267335 0.219623
0.761293 0.307066 0.327621
0.826034 0.404363 0.495159
0.853722 0.523052 0.644759
0.877815 0.633149 0.767086
0.897142 0.725862 0.865119
0.910026 0.806496 0.943818
0.905492 0.886413 0.969993
0.931512 0.937264 0.975362
0.062442 0.376145 0.143859
0.062422 0.375982 0.143797
0.062386 0.375661 0.143676
0.062287 0.374451 0.143251
0.063906 0.374220 0.144339
0.182229 0.388630 0.158293
0.377085 0.404473 0.178781
0.557032 0.409295 0.205554
0.685726 0.405597 0.238736
0.774292 0.413279 0.314404
0.836517 0.461783 0.481520
0.859247 0.544353 0.634015
0.879391 0.638211 0.758783
0.897200 0.724880 0.858555
0.911657 0.801810 0.940245
0.905314 0.882734 0.969536
0.929600 0.934952 0.975085
0.078313 0.489376 0.184574
0.078307 0.489299 0.184543
0.078296 0.489144 0.184484
0.078280 0.488555 0.184275
0.078756 0.487726 0.184346
0.091411 0.495828 0.192198
0.311016 0.516554 0.213385
0.502898 0.531355 0.234748
0.672334 0.536819 0.264196
0.780655 0.536681 0.312850
0.848050 0.551905 0.457756
0.871411 0.592704 0.619189
0.884404 0.656972 0.747612
0.898675 0.729320 0.849706
0.912326 0.799766 0.933811
0.905468 0.877853 0.968990
0.927169 0.931493 0.974837
0.094243 0.584669 0.225347
0.094247 0.584645 0.225338
0.094258 0.584599 0.225321
0.094321 0.584434 0.225275
0.094814 0.584418 0.225529
0.098028 0.587572 0.228685
0.189583 0.601430 0.238880
0.445588 0.628841 0.267969
0.614118 0.641358 0.288112
0.765954 0.647884 0.324179
0.852443 0.652958 0.420205
0.889820 0.667865 0.596274
0.895027 0.698550 0.732881
0.903449 0.746414 0.838452
0.913763 0.803758 0.925188
0.906923 0.873931 0.968758
0.925221 0.928313 0.974709
0.110878 0.662077 0.268057
0.110894 0.662089 0.268068
0.110929 0.662117 0.268091
0.111080 0.662247 0.268200
0.111631 0.662774 0.268652
0.113716 0.665140 0.270689
0.125440 0.678733 0.281498
0.355809 0.700245 0.294710
0.569520 0.722499 0.320858
0.708200 0.732885 0.340052
0.838468 0.741613 0.400670
0.903239 0.750447 0.562992
0.910439 0.759952 0.712107
0.912815 0.782316 0.824773
0.918033 0.818436 0.913915
0.910307 0.874287 0.969362
0.924286 0.926106 0.974753
0.133302 0.721945 0.330637
0.133322 0.721972 0.330651
0.133364 0.722028 0.330682
0.133547 0.722272 0.330820
0.134161 0.723074 0.331314
0.136031 0.725530 0.333003
0.142763 0.734428 0.339968
0.256722 0.753957 0.331299
0.511129 0.782291 0.360077
0.676427 0.799004 0.383330
0.786038 0.808319 0.410686
0.893111 0.819865 0.538410
0.926214 0.824858 0.687608
0.925356 0.831442 0.807193
0.925849 0.847787 0.900903
0.919539 0.882984 0.965772
0.925344 0.927150 0.975037
0.178337 0.760898 0.473809
0.178363 0.760933 0.473830
0.178416 0.761007 0.473874
0.178643 0.761316 0.474058
0.179360 0.762291 0.474653
0.181364 0.764984 0.476405
0.187433 0.772973 0.482284
0.238272 0.795445 0.472600
0.460975 0.831742 0.459164
0.640883 0.851185 0.481580
0.765202 0.863563 0.508699
0.848087 0.871265 0.551040
0.928662 0.878892 0.672150
0.937657 0.880700 0.789210
0.935777 0.885639 0.886442
0.929850 0.901420 0.964728
0.930286 0.933493 0.975691
0.239461 0.791493 0.633886
0.239496 0.791536 0.633924
0.239569 0.791624 0.634001
0.239877 0.791998 0.634325
0.240835 0.793157 0.635336
0.243417 0.796274 0.638083
0.250850 0.805150 0.645958
0.304381 0.824183 0.642775
0.453148 0.866525 0.604036
0.610234 0.890086 0.607476
0.738975 0.902959 0.625047
0.830291 0.911393 0.648192
0.890599 0.916561 0.682404
0.947619 0.921425 0.780902
0.945125 0.921843 0.872439
0.941348 0.926932 0.951363
0.939486 0.944779 0.979382
0.337353 0.832114 0.771312
0.337477 0.832147 0.771357
0.337685 0.832239 0.771466
0.338290 0.832770 0.771995
0.340769 0.834203 0.773097
0.349591 0.837497 0.772434
0.374805 0.845752 0.762086
0.434070 0.858585 0.750497
0.515365 0.882349 0.742157
0.610125 0.913518 0.727779
0.717507 0.931516 0.728351
0.810280 0.940184 0.742451
0.876083 0.945892 0.761119
0.920131 0.949472 0.787535
0.952580 0.951625 0.865768
0.949744 0.952134 0.941456
0.948668 0.960518 0.979710
0.515477 0.872275 0.832791
0.515546 0.872297 0.832790
0.515686 0.872340 0.832789
0.516278 0.872525 0.832787
0.518072 0.873085 0.832778
0.522582 0.874493 0.832755
0.532959 0.877733 0.832700
0.555659 0.883988 0.832462
0.595734 0.895931 0.832354
0.653676 0.914905 0.831542
0.721741 0.938380 0.826264
0.793603 0.957062 0.821910
0.860520 0.965170 0.833784
0.908582 0.971074 0.849238
0.940979 0.973566 0.869585
0.955407 0.974013 0.934348
0.961296 0.972918 0.983937
0.633883 0.898848 0.891682
0.633915 0.898854 0.891685
0.633979 0.898868 0.891690
0.634254 0.898926 0.891709
0.635087 0.899102 0.891767
0.637204 0.899550 0.891913
0.642194 0.900605 0.892257
0.652790 0.903006 0.893112
0.672754 0.908372 0.894448
0.706548 0.917870 0.896804
0.752728 0.932083 0.899459
0.803511 0.948904 0.900508
0.850557 0.964776 0.898923
0.894518 0.973775 0.903467
0.929281 0.978807 0.915196
0.953888 0.982729 0.931653
0.964911 0.983200 0.988473
0.724937 0.917914 0.935387
0.724949 0.917918 0.935388
0.724975 0.917925 0.935392
0.725083 0.917957 0.935406
0.725413 0.918053 0.935450
0.726253 0.918298 0.935560
0.728258 0.918882 0.935824
0.732719 0.920183 0.936411
0.742008 0.922907 0.937668
0.759359 0.928038 0.940093
0.786860 0.936189 0.943972
0.822849 0.946949 0.949303
0.862923 0.957453 0.954303
0.898488 0.967111 0.959182
0.926245 0.975744 0.963594
0.949029 0.981584 0.970217
0.962615 0.983798 0.980275
0.003935 0.003935 0.018575
0.004262 0.004262 0.021417
0.017906 0.012038 0.047946
0.063907 0.014763 0.053885
0.152357 0.023502 0.067014
0.280517 0.039062 0.089595
0.429873 0.058633 0.121239
0.560212 0.083412 0.161418
0.662499 0.123897 0.221896
0.745925 0.205910 0.345419
0.815759 0.364164 0.509689
0.851172 0.514177 0.657250
0.877756 0.634371 0.776719
0.897927 0.730516 0.873184
0.908621 0.812921 0.948016
0.906028 0.891767 0.970700
0.934158 0.940467 0.975741
0.003753 0.003753 0.017529
0.003722 0.003722 0.017353
0.015358 0.011311 0.044592
0.062735 0.015177 0.051974
0.151735 0.024848 0.066179
0.279482 0.040375 0.089061
0.429298 0.059613 0.120885
0.559330 0.084277 0.160821
0.661996 0.124456 0.221111
0.745672 0.206188 0.344507
0.815683 0.363816 0.508826
0.851051 0.513628 0.656517
0.877776 0.634450 0.776723
0.897837 0.730070 0.872707
0.908625 0.812931 0.948017
0.906030 0.891771 0.970701
0.933817 0.940054 0.975692
0.017144 0.019608 0.048012
0.016925 0.018713 0.047058
0.021919 0.025793 0.053045
0.067468 0.022142 0.053979
0.151340 0.029323 0.065468
0.278041 0.043568 0.088272
0.427395 0.062003 0.119912
0.557925 0.086219 0.159777
0.661569 0.125935 0.220057
0.745643 0.207531 0.343572
0.815542 0.363160 0.507100
0.850985 0.513300 0.655800
0.877565 0.633443 0.775563
0.897756 0.729656 0.872231
0.908747 0.812000 0.947477
0.905937 0.891061 0.970604
0.933819 0.940057 0.975693
0.019251 0.064469 0.044411
0.019223 0.064022 0.044000
0.019229 0.063164 0.043274
0.066136 0.069962 0.050892
0.151627 0.072725 0.067561
0.275898 0.069307 0.088314
0.423830 0.075434 0.118047
0.555102 0.095843 0.156961
0.660732 0.133480 0.217101
0.746153 0.214238 0.340737
0.816379 0.366266 0.505657
0.850923 0.512852 0.653678
0.877488 0.632963 0.774436
0.897532 0.728493 0.870805
0.908898 0.811143 0.946948
0.905858 0.890375 0.970512
0.933485 0.939652 0.975645
0.029085 0.140957 0.067152
0.029020 0.140568 0.066986
0.028931 0.139813 0.066676
0.033299 0.138616 0.066833
0.135931 0.147907 0.078348
0.272897 0.151825 0.098665
0.425906 0.147769 0.125619
0.555436 0.141459 0.157410
0.662218 0.163620 0.213178
0.750259 0.240320 0.336543
0.818857 0.375749 0.501324
0.851471 0.514693 0.650291
0.877398 0.632183 0.771628
0.897354 0.727428 0.868926
0.909242 0.809533 0.945903
0.905722 0.889038 0.970335
0.932825 0.938853 0.975550
0.045495 0.252125 0.103051
0.045485 0.251863 0.102961
0.045417 0.251289 0.102747
0.045358 0.249262 0.102072
0.089049 0.255125 0.108312
0.246783 0.268149 0.124153
0.421449 0.272697 0.148775
0.565358 0.267450 0.176982
0.675834 0.266600 0.220926
0.760360 0.305882 0.328038
0.825680 0.402925 0.494251
0.853401 0.521673 0.643573
0.877686 0.632567 0.766619
0.897042 0.725382 0.864685
0.910135 0.805539 0.943278
0.905489 0.886415 0.969993
0.931513 0.937264 0.975362
0.062415 0.375624 0.144095
0.062400 0.375468 0.144036
0.062363 0.375145 0.143912
0.062258 0.373925 0.143469
0.063838 0.373628 0.144501
0.181829 0.388042 0.158403
0.376839 0.403883 0.178825
0.556025 0.408853 0.205846
0.685078 0.405262 0.239358
0.773867 0.412921 0.315428
0.836191 0.461256 0.481595
0.859111 0.543774 0.633619
0.879276 0.637684 0.758318
0.897014 0.723975 0.857627
0.911775 0.800859 0.939699
0.905216 0.882003 0.969436
0.929247 0.934524 0.975035
0.078331 0.489165 0.184809
0.078326 0.489087 0.184778
0.078315 0.488931 0.184717
0.078295 0.488337 0.184501
0.078760 0.487488 0.184548
0.091240 0.495607 0.192405
0.310831 0.516298 0.213552
0.502815 0.531110 0.234921
0.672359 0.536654 0.264624
0.780210 0.536569 0.313360
0.847759 0.551682 0.457952
0.871331 0.592354 0.618825
0.884316 0.656561 0.747152
0.898515 0.728523 0.848770
0.912183 0.799035 0.933015
0.905378 0.877123 0.968892
0.927168 0.931492 0.974837
0.094317 0.584571 0.225666
0.094321 0.584548 0.225657
0.094331 0.584500 0.225638
0.094393 0.584334 0.225590
0.094881 0.584311 0.225833
0.098086 0.587449 0.228971
0.189415 0.601351 0.239077
0.445541 0.628766 0.268157
0.614129 0.641296 0.288320
0.765373 0.647844 0.324367
0.852129 0.652911 0.420495
0.889791 0.667730 0.595931
0.894979 0.698309 0.732419
0.903393 0.746113 0.838014
0.913646 0.803127 0.924378
0.906919 0.873934 0.968758
0.924909 0.927857 0.974680
0.110999 0.662011 0.268437
0.111016 0.662024 0.268447
0.111050 0.662051 0.268471
0.111201 0.662181 0.268579
0.111750 0.662707 0.269026
0.113830 0.665067 0.271055
0.125484 0.678672 0.281918
0.355769 0.700250 0.294949
0.569544 0.722509 0.321100
0.708249 0.732901 0.340353
0.838528 0.741654 0.401363
0.903015 0.750402 0.562672
0.910425 0.759861 0.711633
0.912792 0.782151 0.824330
0.918031 0.818432 0.913948
0.910305 0.874288 0.969361
0.923994 0.925670 0.974728
0.133485 0.721859 0.331307
0.133504 0.721886 0.331321
0.133546 0.721942 0.331351
0.133729 0.722185 0.331487
0.134341 0.722987 0.331979
0.136208 0.725441 0.333660
0.142938 0.734334 0.340610
0.256657 0.754012 0.331759
0.511142 0.782335 0.360522
0.676471 0.799051 0.383780
0.786095 0.808381 0.411303
0.892798 0.819852 0.538243
0.926217 0.824843 0.687151
0.925355 0.831381 0.806737
0.925847 0.847785 0.900942
0.919716 0.882451 0.965454
0.925086 0.926772 0.975016
0.178569 0.760776 0.474622
0.178594 0.760812 0.474643
0.178646 0.760886 0.474685
0.178864 0.761201 0.474864
0.179556 0.762190 0.475442
0.181555 0.764885 0.477192
0.187626 0.772870 0.483072
0.238370 0.795341 0.473661
0.460952 0.831796 0.459829
0.640891 0.851235 0.482216
0.765217 0.863603 0.509301
0.848098 0.871292 0.551528
0.928661 0.878899 0.672405
0.937665 0.880689 0.788778
0.935790 0.885551 0.885557
0.929935 0.901138 0.964268
0.930284 0.933494 0.975691
0.239556 0.791441 0.634187
0.239592 0.791484 0.634225
0.239665 0.791573 0.634301
0.239973 0.791946 0.634626
0.240931 0.793106 0.635638
0.243512 0.796222 0.638383
0.250944 0.805097 0.646258
0.304373 0.824160 0.643194
0.453220 0.866461 0.604480
0.610219 0.890104 0.607773
0.738970 0.902973 0.625329
0.830287 0.911406 0.648450
0.890598 0.916570 0.682619
0.947618 0.921429 0.781011
0.945136 0.921833 0.872049
0.941342 0.926934 0.951381
0.939486 0.944779 0.979381
0.337387 0.832094 0.771417
0.337512 0.832127 0.771462
0.337724 0.832217 0.771568
0.338329 0.832747 0.772098
0.340800 0.834183 0.773206
0.349632 0.837462 0.772595
0.374823 0.845731 0.762241
0.434087 0.858567 0.750650
0.515399 0.882322 0.742322
0.610160 0.913486 0.727976
0.717499 0.931523 0.728483
0.810274 0.940189 0.742576
0.876079 0.945896 0.761231
0.920129 0.949475 0.787628
0.952591 0.951629 0.865484
0.949743 0.952133 0.941478
0.948586 0.960421 0.979568
0.515488 0.872268 0.832849
0.515557 0.872290 0.832849
0.515698 0.872334 0.832847
0.516290 0.872518 0.832845
0.518083 0.873078 0.832836
0.522594 0.874486 0.832813
0.532972 0.877727 0.832758
0.555672 0.883980 0.832522
0.595751 0.895923 0.832417
0.653694 0.914896 0.831610
0.721760 0.938369 0.826343
0.793602 0.957065 0.821976
0.860518 0.965175 0.833842
0.908580 0.971076 0.849290
0.940977 0.973567 0.869628
0.955406 0.974013 0.934370
0.961109 0.972913 0.983888
0.633881 0.898850 0.891707
0.633913 0.898856 0.891709
0.633977 0.898870 0.891713
0.634252 0.898928 0.891733
0.635084 0.899104 0.891790
0.637201 0.899552 0.891936
0.642192 0.900607 0.892281
0.652788 0.903008 0.893135
0.672753 0.908374 0.894473
0.706553 0.917868 0.896831
0.752739 0.932079 0.899488
0.803521 0.948900 0.900541
0.850563 0.964772 0.898961
0.894517 0.973776 0.903497
0.929280 0.978809 0.915221
0.953887 0.982730 0.931675
0.964914 0.983199 0.988483
0.724943 0.917912 0.935395
0.724955 0.917916 0.935397
0.724980 0.917923 0.935400
0.725088 0.917955 0.935415
0.725418 0.918051 0.935458
0.726259 0.918296 0.935569
0.728263 0.918880 0.935833
0.732723 0.920181 0.936420
0.742015 0.922905 0.937677
0.759365 0.928036 0.940102
0.786862 0.936189 0.943983
0.822851 0.946948 0.949314
0.862927 0.957452 0.954317
0.898493 0.967110 0.959193
0.926249 0.975743 0.963604
0.949033 0.981583 0.970229
0.962617 0.983797 0.980285
0.007462 0.007517 0.038524
0.008485 0.008539 0.044362
0.014042 0.014586 0.081694
0.061740 0.015953 0.094255
0.150654 0.022907 0.106639
0.278622 0.038298 0.120166
0.427601 0.057615 0.139679
0.558219 0.082142 0.174550
0.660950 0.122061 0.233544
0.744172 0.202357 0.350910
0.814807 0.360555 0.510208
0.850544 0.511599 0.656257
0.877458 0.633088 0.776045
0.897614 0.729038 0.871949
0.908687 0.811977 0.947518
0.905917 0.891054 0.970600
