滤镜资源/Lutify.me Free 3D LUTs Package/3D LUTs/Monitoring LUTs/RED DSMC2/Scarlet-W IPP2/Hilutite - Scarlet-W-IPP2.cube
# Website: https://lutify.me
# Contact: help@lutify.me
# Created by: Lutify.me
# Copyright: (c) Copyright Lutify.me 2016, G.T. Colord LTD
LUT_3D_SIZE 5
0.000000 0.000000 0.008636
0.263264 0.000000 0.000037
0.862557 0.090420 0.100533
0.949553 0.746016 0.757308
0.948470 0.925329 0.919094
0.063974 0.208822 0.149582
0.251148 0.171536 0.021906
0.838498 0.151597 0.062438
0.948876 0.744660 0.753387
0.948465 0.924486 0.918205
0.178115 0.748017 0.193186
0.181162 0.746657 0.192988
0.689516 0.665602 0.117503
0.924962 0.796090 0.710416
0.947584 0.919601 0.911147
0.229346 0.909435 0.558639
0.234248 0.909765 0.559499
0.558943 0.922576 0.589593
0.889474 0.893163 0.643973
0.944104 0.927798 0.895218
0.756373 0.949855 0.844736
0.756966 0.949891 0.844823
0.777433 0.951123 0.847899
0.884937 0.953682 0.852831
0.941402 0.944373 0.867250
0.000000 0.031667 0.079358
0.206549 0.069862 0.208939
0.870526 0.089894 0.184606
0.950168 0.741564 0.755505
0.948481 0.924670 0.918458
0.000000 0.178053 0.193509
0.129379 0.209573 0.246875
0.863678 0.156770 0.174602
0.949408 0.739824 0.751145
0.948477 0.923820 0.917562
0.174284 0.747529 0.207710
0.176733 0.746180 0.206754
0.692824 0.669977 0.145607
0.924922 0.794678 0.708910
0.947478 0.918746 0.910168
0.227163 0.909216 0.563636
0.232036 0.909548 0.564512
0.558252 0.922732 0.596852
0.889827 0.893662 0.648197
0.943962 0.927407 0.894107
0.756289 0.949847 0.844850
0.756883 0.949883 0.844937
0.777355 0.951120 0.848010
0.884938 0.953727 0.852992
0.941416 0.944392 0.867361
0.000002 0.168010 0.221163
0.000002 0.201100 0.268197
0.613815 0.219251 0.613544
0.927680 0.689648 0.801873
0.948770 0.918336 0.913538
0.000003 0.168751 0.221196
0.000000 0.180721 0.236863
0.608314 0.222384 0.610185
0.927779 0.686924 0.800097
0.948683 0.917456 0.912592
0.000027 0.704663 0.683025
0.000027 0.702558 0.681713
0.727451 0.761149 0.777792
0.948454 0.771878 0.776023
0.947469 0.912606 0.905281
0.179340 0.900271 0.666234
0.183747 0.900655 0.667006
0.523356 0.922798 0.721699
0.898123 0.905966 0.750037
0.943355 0.925330 0.889302
0.753281 0.949546 0.848911
0.753879 0.949582 0.848999
0.774530 0.950882 0.852041
0.884934 0.954851 0.858651
0.941918 0.945075 0.871374
0.000023 0.205710 0.264178
0.000017 0.206548 0.265285
0.658391 0.279204 0.718520
0.747781 0.262468 0.762041
0.939797 0.899216 0.925118
0.000025 0.205524 0.263929
0.000021 0.206072 0.264653
0.647369 0.285731 0.714722
0.749214 0.264756 0.763186
0.939368 0.897855 0.924703
0.000053 0.566071 0.733113
0.000047 0.556686 0.724287
0.505529 0.602459 0.899967
0.862412 0.581649 0.866762
0.936784 0.890482 0.922371
0.093754 0.869156 0.837413
0.096022 0.869338 0.837672
0.312495 0.888250 0.862614
0.911886 0.923606 0.914584
0.948132 0.923218 0.915580
0.739205 0.939430 0.883961
0.739805 0.939505 0.884047
0.759962 0.942162 0.886865
0.881239 0.956821 0.905052
0.946697 0.951611 0.908132
0.000028 0.205096 0.263374
0.000028 0.205096 0.263374
0.000030 0.217788 0.281241
0.731721 0.241804 0.750167
0.822365 0.435586 0.838980
0.000028 0.205096 0.263374
0.000028 0.205096 0.263374
0.000023 0.216447 0.279210
0.731721 0.241804 0.750167
0.823836 0.440816 0.840336
0.000028 0.205096 0.263374
0.000028 0.205096 0.263374
0.000028 0.205096 0.263374
0.731721 0.241804 0.750167
0.866524 0.625315 0.878691
0.061433 0.869898 0.864600
0.058627 0.869426 0.864873
0.029085 0.853709 0.868964
0.892758 0.906554 0.940103
0.937101 0.904057 0.938529
0.666198 0.928846 0.913385
0.667216 0.928935 0.913490
0.701225 0.931901 0.916965
0.869135 0.949088 0.937336
0.951233 0.960602 0.950958
