滤镜资源/Lutify.me Free 3D LUTs Package/3D LUTs/Monitoring LUTs/RED DSMC2/Scarlet-W IPP2/Hilutite - Scarlet-W-IPP2.cube
# Website: https://lutify.me
# Contact: help@lutify.me
# Created by: Lutify.me
# Copyright: (c) Copyright Lutify.me 2016, G.T. Colord LTD
LUT_3D_SIZE 9
0.000000 0.000000 0.008636
0.003384 0.000000 0.005527
0.263264 0.000000 0.000037
0.594180 0.000016 0.001101
0.862557 0.090420 0.100533
0.954211 0.452118 0.483183
0.949553 0.746016 0.757308
0.947349 0.866100 0.862799
0.948470 0.925329 0.919094
0.000000 0.019735 0.030576
0.001853 0.009774 0.014021
0.224311 0.000838 0.000020
0.574886 0.000004 0.000553
0.857405 0.097536 0.100362
0.953863 0.450925 0.479905
0.949550 0.745293 0.756455
0.947355 0.865648 0.862387
0.948470 0.925114 0.918873
0.063974 0.208822 0.149582
0.063001 0.207308 0.148695
0.251148 0.171536 0.021906
0.519470 0.168627 0.000031
0.838498 0.151597 0.062438
0.945813 0.472354 0.475373
0.948876 0.744660 0.753387
0.947310 0.864030 0.860717
0.948465 0.924486 0.918205
0.172612 0.510224 0.218788
0.172637 0.509536 0.218776
0.179053 0.503895 0.218279
0.514767 0.441188 0.092776
0.793188 0.436364 0.017235
0.912656 0.582579 0.434673
0.942006 0.752062 0.743285
0.946714 0.860885 0.855970
0.948415 0.922466 0.915922
0.178115 0.748017 0.193186
0.178261 0.747893 0.193170
0.181162 0.746657 0.192988
0.307092 0.732489 0.188002
0.689516 0.665602 0.117503
0.875614 0.715667 0.350514
0.924962 0.796090 0.710416
0.942073 0.863995 0.846567
0.947584 0.919601 0.911147
0.193365 0.856035 0.263138
0.193612 0.856027 0.263066
0.196695 0.855926 0.262289
0.225500 0.855972 0.256365
0.607041 0.804519 0.244072
0.813925 0.802992 0.285155
0.919163 0.852859 0.673327
0.936209 0.885526 0.832662
0.945608 0.919817 0.904102
0.229346 0.909435 0.558639
0.229733 0.909462 0.558706
0.234248 0.909765 0.559499
0.269498 0.911842 0.566108
0.558943 0.922576 0.589593
0.804160 0.893832 0.595166
0.889474 0.893163 0.643973
0.933405 0.912000 0.814607
0.944104 0.927798 0.895218
0.536016 0.939144 0.754885
0.536342 0.939160 0.754927
0.540067 0.939340 0.755420
0.563310 0.940466 0.758494
0.653678 0.944857 0.771225
0.797966 0.950380 0.774979
0.886055 0.932798 0.780937
0.925492 0.932102 0.801420
0.942536 0.940890 0.879724
0.756373 0.949855 0.844736
0.756420 0.949858 0.844743
0.756966 0.949891 0.844823
0.760517 0.950105 0.845348
0.777433 0.951123 0.847899
0.825762 0.953608 0.852645
0.884937 0.953682 0.852831
0.922371 0.943172 0.857015
0.941402 0.944373 0.867250
0.000000 0.000000 0.019790
0.001580 0.000480 0.043856
0.291020 0.000000 0.004015
0.605860 0.000008 0.004269
0.865804 0.087511 0.104756
0.954634 0.448913 0.482091
0.949632 0.745022 0.756577
0.947371 0.865616 0.862406
0.948471 0.925329 0.919096
0.000000 0.012243 0.045185
0.000000 0.013769 0.053733
0.254075 0.000264 0.003313
0.592404 0.000084 0.002249
0.861065 0.094478 0.104369
0.954287 0.447733 0.478836
0.949574 0.744322 0.755697
0.947377 0.865162 0.861992
0.948471 0.925114 0.918875
0.061674 0.205780 0.148635
0.060708 0.204244 0.147664
0.249231 0.168325 0.019622
0.516926 0.165036 0.000031
0.836848 0.152934 0.073562
0.946679 0.469392 0.474293
0.948897 0.743704 0.752627
0.947319 0.864023 0.860735
0.948466 0.924486 0.918207
0.172208 0.509211 0.219412
0.172251 0.508520 0.219393
0.178435 0.502845 0.218783
0.514578 0.440184 0.092718
0.794452 0.436447 0.019370
0.912635 0.581472 0.434411
0.942019 0.751239 0.742513
0.946730 0.860407 0.855562
0.948416 0.922242 0.915694
0.177831 0.747941 0.194108
0.177976 0.747818 0.194090
0.180860 0.746576 0.193892
0.306702 0.732796 0.188947
0.689739 0.665877 0.119482
0.875302 0.715560 0.350389
0.924830 0.795732 0.709466
0.942032 0.863620 0.846139
0.947555 0.919390 0.910896
0.193203 0.856102 0.264612
0.193450 0.856093 0.264540
0.196530 0.855993 0.263756
0.225360 0.856030 0.257846
0.607289 0.804937 0.245528
0.814123 0.803333 0.286933
0.919056 0.852716 0.672328
0.936156 0.885354 0.832184
0.945573 0.919642 0.903835
0.229166 0.909418 0.559047
0.229553 0.909444 0.559115
0.234067 0.909748 0.559908
0.269295 0.911836 0.566503
0.558889 0.922589 0.590186
0.804223 0.893937 0.595727
0.889503 0.893204 0.644315
0.933378 0.911967 0.814365
0.944067 0.927699 0.894929
0.535971 0.939141 0.754935
0.536298 0.939156 0.754978
0.540022 0.939337 0.755471
0.563267 0.940462 0.758545
0.653644 0.944857 0.771272
0.797963 0.950381 0.775050
0.886064 0.932813 0.781001
0.925496 0.932107 0.801464
0.942498 0.940849 0.879411
0.756366 0.949854 0.844745
0.756413 0.949857 0.844752
0.756959 0.949890 0.844832
0.760510 0.950105 0.845357
0.777427 0.951123 0.847908
0.825761 0.953609 0.852658
0.884937 0.953685 0.852844
0.922373 0.943175 0.857027
0.941404 0.944375 0.867259
0.000000 0.031667 0.079358
0.000000 0.037000 0.086581
0.206549 0.069862 0.208939
0.648798 0.016036 0.158259
0.870526 0.089894 0.184606
0.957098 0.432000 0.488575
0.950168 0.741564 0.755505
0.947508 0.864102 0.861368
0.948481 0.924670 0.918458
0.000000 0.031008 0.078375
0.000000 0.033715 0.082001
0.198005 0.069061 0.204766
0.640064 0.019055 0.153838
0.869791 0.092793 0.182129
0.957146 0.431962 0.486540
0.950097 0.740863 0.754626
0.947515 0.863646 0.860954
0.948482 0.924454 0.918235
0.000000 0.178053 0.193509
0.000000 0.176373 0.192198
0.129379 0.209573 0.246875
0.609565 0.160449 0.157721
0.863678 0.156770 0.174602
0.953747 0.452997 0.481504
0.949408 0.739824 0.751145
0.947471 0.862018 0.859277
0.948477 0.923820 0.917562
0.169717 0.502891 0.250072
0.169669 0.502128 0.249674
0.172081 0.495965 0.244233
0.516419 0.439166 0.123781
0.805516 0.450883 0.103533
0.917542 0.575963 0.450613
0.942948 0.747698 0.741091
0.946837 0.858917 0.854513
0.948390 0.921576 0.915017
0.174284 0.747529 0.207710
0.174399 0.747404 0.207637
0.176733 0.746180 0.206754
0.301778 0.737387 0.201187
0.692824 0.669977 0.145607
0.876317 0.720434 0.375690
0.924922 0.794678 0.708910
0.941983 0.862458 0.845078
0.947478 0.918746 0.910168
0.191042 0.856980 0.283251
0.191296 0.856969 0.283168
0.194393 0.856872 0.282266
0.223757 0.856824 0.276399
0.610351 0.810092 0.263182
0.816500 0.807444 0.308644
0.919073 0.852703 0.672483
0.936029 0.884860 0.831023
0.945473 0.919115 0.903061
0.227163 0.909216 0.563636
0.227547 0.909242 0.563705
0.232036 0.909548 0.564512
0.267112 0.911708 0.571043
0.558252 0.922732 0.596852
0.804941 0.895122 0.602051
0.889827 0.893662 0.648197
0.933244 0.911799 0.813194
0.943962 0.927407 0.894107
0.535460 0.939102 0.755510
0.535789 0.939118 0.755553
0.539516 0.939298 0.756047
0.562773 0.940424 0.759122
0.653240 0.944849 0.771807
0.797922 0.950401 0.775850
0.886163 0.932989 0.781731
0.925545 0.932175 0.801962
0.942430 0.940776 0.878862
0.756289 0.949847 0.844850
0.756337 0.949850 0.844857
0.756883 0.949883 0.844937
0.760433 0.950097 0.845463
0.777355 0.951120 0.848010
0.825750 0.953612 0.852811
0.884938 0.953727 0.852992
0.922392 0.943205 0.857160
0.941416 0.944392 0.867361
0.000005 0.112272 0.162755
0.000005 0.114093 0.164838
0.000023 0.188666 0.270280
0.428948 0.175774 0.429380
0.723332 0.154337 0.459327
0.930587 0.369863 0.576191
0.952946 0.726050 0.756771
0.948331 0.858684 0.858639
0.948548 0.922413 0.916392
0.000004 0.111653 0.162020
0.000010 0.113177 0.163772
0.000020 0.184814 0.264554
0.426476 0.175531 0.427523
0.722591 0.155418 0.458642
0.931279 0.369738 0.574941
0.952966 0.725260 0.756000
0.948344 0.858213 0.858230
0.948549 0.922190 0.916165
0.000004 0.136515 0.184884
0.000001 0.135624 0.184100
0.000011 0.166616 0.230252
0.403460 0.183124 0.414939
0.738621 0.179708 0.456957
0.941439 0.389869 0.568467
0.953046 0.724454 0.752898
0.948319 0.856550 0.856573
0.948545 0.921538 0.915477
0.000011 0.438371 0.436253
0.000010 0.437701 0.435766
0.000007 0.431573 0.431371
0.430752 0.528484 0.573001
0.833138 0.491179 0.489131
0.945006 0.537150 0.551806
0.948927 0.733280 0.743631
0.947557 0.853584 0.851903
0.948258 0.919566 0.913047
0.089214 0.749819 0.426744
0.089401 0.749707 0.426591
0.092352 0.748586 0.425146
0.234855 0.756632 0.442883
0.724656 0.726526 0.430187
0.883784 0.742437 0.515816
0.926869 0.791012 0.716006
0.942275 0.858310 0.842651
0.947311 0.916752 0.908110
0.160034 0.862312 0.428193
0.160347 0.862314 0.428185
0.164144 0.862369 0.428148
0.201579 0.862991 0.432087
0.628353 0.852453 0.424143
0.830248 0.830053 0.455710
0.920743 0.854642 0.687968
0.935765 0.883345 0.828535
0.945198 0.917534 0.900889
0.216151 0.908068 0.587707
0.216535 0.908090 0.587781
0.221023 0.908350 0.588653
0.256282 0.910263 0.595597
0.554672 0.923394 0.631989
0.808474 0.901416 0.634586
0.891698 0.896438 0.671079
0.933133 0.911629 0.812227
0.943668 0.926608 0.891809
0.532050 0.938845 0.759178
0.532382 0.938861 0.759221
0.536182 0.939045 0.759721
0.559593 0.940179 0.762812
0.650650 0.944802 0.775229
0.797656 0.950526 0.780967
0.886798 0.934115 0.786407
0.925864 0.932612 0.805167
0.942155 0.940475 0.876625
0.755788 0.949796 0.845535
0.755836 0.949799 0.845542
0.756383 0.949832 0.845623
0.759937 0.950047 0.846149
0.776887 0.951098 0.848674
0.825668 0.953634 0.853791
0.884958 0.953998 0.853941
0.922516 0.943405 0.858025
0.941500 0.944506 0.868030
0.000002 0.168010 0.221163
0.000002 0.168822 0.222129
0.000002 0.201100 0.268197
0.321287 0.287577 0.661534
0.613815 0.219251 0.613544
0.768264 0.296702 0.674013
0.927680 0.689648 0.801873
0.950154 0.845821 0.858973
0.948770 0.918336 0.913538
0.000004 0.167725 0.220816
0.000004 0.168491 0.221728
0.000005 0.197942 0.263018
0.313957 0.288779 0.658949
0.613231 0.219450 0.613137
0.767895 0.296680 0.673875
0.927458 0.688610 0.801532
0.950176 0.845286 0.858599
0.948751 0.918109 0.913303
0.000003 0.168751 0.221196
0.000002 0.169056 0.221579
0.000000 0.180721 0.236863
0.245097 0.302418 0.617878
0.608314 0.222384 0.610185
0.771284 0.309307 0.677614
0.927779 0.686924 0.800097
0.950236 0.843425 0.857099
0.948683 0.917456 0.912592
0.000023 0.370962 0.464337
0.000024 0.370002 0.463130
0.000003 0.362593 0.454181
0.223305 0.466644 0.638494
0.680654 0.395403 0.698119
0.836436 0.451158 0.732369
0.935940 0.696052 0.794624
0.950207 0.840213 0.852931
0.948406 0.915397 0.910170
0.000027 0.704663 0.683025
0.000027 0.704479 0.682906
0.000027 0.702558 0.681713
0.024045 0.710997 0.697165
0.727451 0.761149 0.777792
0.910358 0.747854 0.745887
0.948454 0.771878 0.776023
0.947442 0.846741 0.845326
0.947469 0.912606 0.905281
0.047367 0.843428 0.634919
0.047672 0.843437 0.634931
0.051410 0.843574 0.635106
0.087863 0.845371 0.639572
0.608256 0.881095 0.722946
0.851326 0.861513 0.726297
0.927676 0.864743 0.762182
0.936392 0.881369 0.833666
0.944827 0.914385 0.897714
0.179340 0.900271 0.666234
0.179716 0.900294 0.666300
0.183747 0.900655 0.667006
0.215543 0.903324 0.672468
0.523356 0.922798 0.721699
0.816494 0.921657 0.735868
0.898123 0.905966 0.750037
0.934393 0.912948 0.823376
0.943355 0.925330 0.889302
0.519229 0.936798 0.775449
0.519520 0.936827 0.775483
0.522846 0.937154 0.775866
0.545252 0.938774 0.778643
0.638656 0.944067 0.790443
0.796376 0.951062 0.803203
0.889218 0.939076 0.806557
0.927362 0.934603 0.820014
0.942022 0.940287 0.875581
0.753281 0.949546 0.848911
0.753328 0.949549 0.848917
0.753879 0.949582 0.848999
0.757451 0.949798 0.849527
0.774530 0.950882 0.852041
0.824900 0.953690 0.858169
0.884934 0.954851 0.858651
0.923129 0.944395 0.862320
0.941918 0.945075 0.871374
0.000003 0.199865 0.257287
0.000001 0.200194 0.257748
0.000010 0.205395 0.265163
0.248711 0.349889 0.684549
0.602837 0.280587 0.675717
0.712689 0.236893 0.716058
0.860432 0.568207 0.833502
0.930114 0.825275 0.883406
0.950528 0.911122 0.913774
0.000005 0.199662 0.257012
0.000002 0.199980 0.257458
0.000011 0.205002 0.264614
0.245060 0.350460 0.677118
0.601581 0.281036 0.675147
0.712707 0.237158 0.716090
0.859979 0.566065 0.833080
0.929897 0.824676 0.883219
0.950508 0.910815 0.913607
0.000011 0.198178 0.255064
0.000011 0.198362 0.255301
0.000007 0.201819 0.260049
0.182247 0.350002 0.617645
0.587003 0.286249 0.669140
0.713115 0.240353 0.716662
0.859544 0.564023 0.832610
0.929460 0.823240 0.882694
0.950402 0.909956 0.913077
0.000026 0.235261 0.298121
0.000026 0.234872 0.297658
0.000018 0.231036 0.293229
0.000018 0.299979 0.423716
0.554165 0.314653 0.674652
0.722082 0.272579 0.728245
0.865724 0.593477 0.837624
0.928598 0.819046 0.880790
0.950100 0.907269 0.911257
0.000035 0.637247 0.749927
0.000034 0.636907 0.749698
0.000026 0.634088 0.748216
0.000037 0.655591 0.790672
0.665393 0.727607 0.865844
0.848744 0.701689 0.851504
0.899842 0.737816 0.858191
0.935746 0.826195 0.878127
0.950000 0.903813 0.907375
0.003260 0.823207 0.789019
0.003308 0.823190 0.789015
0.003978 0.823002 0.789007
0.013939 0.822861 0.790351
0.507835 0.854289 0.836954
0.860617 0.872430 0.868158
0.939116 0.866233 0.856360
0.946185 0.874780 0.867541
0.947169 0.908501 0.900901
0.145332 0.876788 0.767045
0.145592 0.876813 0.767077
0.148607 0.877099 0.767445
0.172064 0.879270 0.770371
0.430401 0.907063 0.804254
0.810456 0.929797 0.849507
0.907785 0.918064 0.851621
0.939737 0.917238 0.864611
0.944086 0.924453 0.894685
0.501055 0.925440 0.813527
0.501370 0.925470 0.813568
0.504966 0.925815 0.814033
0.527307 0.927962 0.816909
0.616025 0.937122 0.827747
0.789119 0.951792 0.850368
0.893092 0.949998 0.853525
0.931388 0.939441 0.858390
0.943159 0.941252 0.884896
0.746311 0.947239 0.861487
0.746354 0.947245 0.861493
0.746849 0.947307 0.861560
0.750195 0.947682 0.862004
0.767349 0.949220 0.864229
0.820371 0.953515 0.872101
0.884238 0.956328 0.875389
0.925146 0.948335 0.877362
0.943425 0.947061 0.883390
0.000023 0.205710 0.264178
0.000023 0.205753 0.264235
0.000017 0.206548 0.265285
0.000031 0.298266 0.429083
0.658391 0.279204 0.718520
0.725272 0.244955 0.747221
0.747781 0.262468 0.762041
0.904700 0.771360 0.899624
0.939797 0.899216 0.925118
0.000024 0.205689 0.264151
0.000023 0.205731 0.264206
0.000018 0.206514 0.265239
0.000031 0.295981 0.424462
0.657529 0.279713 0.718218
0.724942 0.245121 0.747072
0.747894 0.262648 0.762131
0.904458 0.770264 0.899440
0.939683 0.898862 0.925013
0.000025 0.205524 0.263929
0.000025 0.205550 0.263964
0.000021 0.206072 0.264653
0.000000 0.272653 0.380179
0.647369 0.285731 0.714722
0.721010 0.247092 0.745290
0.749214 0.264756 0.763186
0.903791 0.767233 0.898924
0.939368 0.897855 0.924703
0.000011 0.209081 0.267902
0.000011 0.209060 0.267878
0.000012 0.208841 0.267636
0.000000 0.216441 0.278574
0.564073 0.315959 0.709838
0.699361 0.266367 0.737944
0.758841 0.282915 0.771668
0.902709 0.762331 0.898034
0.937825 0.894306 0.923842
0.000053 0.566071 0.733113
0.000052 0.565256 0.732340
0.000047 0.556686 0.724287
0.000029 0.506115 0.674903
0.505529 0.602459 0.899967
0.793537 0.539374 0.845119
0.862412 0.581649 0.866762
0.907322 0.782864 0.901103
0.936784 0.890482 0.922371
0.000027 0.811326 0.857087
0.000027 0.811288 0.857089
0.000026 0.810881 0.857141
0.000025 0.809293 0.858282
0.341773 0.829100 0.892741
0.835221 0.857857 0.916238
0.910928 0.849497 0.909773
0.927087 0.858669 0.911979
0.942342 0.897170 0.920699
0.093754 0.869156 0.837413
0.093933 0.869170 0.837434
0.096022 0.869338 0.837672
0.111251 0.870668 0.839514
0.312495 0.888250 0.862614
0.776096 0.916243 0.899687
0.911886 0.923606 0.914584
0.947058 0.920495 0.910349
0.948132 0.923218 0.915580
0.442493 0.910842 0.853044
0.442873 0.910870 0.853081
0.447200 0.911184 0.853501
0.474215 0.913276 0.856079
0.580588 0.921702 0.866396
0.768500 0.941183 0.888490
0.890486 0.952523 0.905566
0.936838 0.946089 0.906300
0.946655 0.944203 0.911643
0.739205 0.939430 0.883961
0.739254 0.939436 0.883968
0.739805 0.939505 0.884047
0.743318 0.939963 0.884531
0.759962 0.942162 0.886865
0.810693 0.949024 0.894406
0.881239 0.956821 0.905052
0.927631 0.956271 0.905940
0.946697 0.951611 0.908132
0.000028 0.205096 0.263374
0.000028 0.205096 0.263374
0.000027 0.205118 0.263403
0.000024 0.205578 0.264011
0.731721 0.241804 0.750167
0.731721 0.241804 0.750167
0.731721 0.241804 0.750167
0.765391 0.302584 0.783435
0.927705 0.874055 0.930608
0.000028 0.205096 0.263374
0.000028 0.205096 0.263374
0.000027 0.205118 0.263403
0.000024 0.205567 0.263995
0.731721 0.241804 0.750167
0.731721 0.241804 0.750167
0.731758 0.241850 0.750202
0.765482 0.302801 0.783532
0.927525 0.873498 0.930478
0.000028 0.205096 0.263374
0.000028 0.205096 0.263374
0.000028 0.205096 0.263374
0.000025 0.205453 0.263845
0.731721 0.241804 0.750167
0.731721 0.241804 0.750167
0.731758 0.241850 0.750202
0.766533 0.305306 0.784650
0.927021 0.871932 0.930111
0.000028 0.205096 0.263374
0.000028 0.205096 0.263374
0.000028 0.205096 0.263374
0.000027 0.205150 0.263446
0.705196 0.254072 0.737871
0.731721 0.241804 0.750167
0.732665 0.242972 0.751056
0.774840 0.325256 0.793345
0.925503 0.867196 0.928990
0.000028 0.446636 0.607131
0.000027 0.445842 0.606086
0.000015 0.436516 0.593811
0.000011 0.367537 0.493250
0.038939 0.358677 0.541164
0.679110 0.312929 0.743615
0.767080 0.306609 0.785231
0.845924 0.528784 0.860110
0.924128 0.862666 0.927841
0.000995 0.809961 0.865321
0.000884 0.809800 0.865312
0.000056 0.807877 0.865200
0.000017 0.793608 0.864260
0.053068 0.771036 0.875847
0.806435 0.824707 0.941622
0.897632 0.814629 0.915284
0.912725 0.823848 0.918338
0.929214 0.878268 0.931214
0.044453 0.864196 0.869426
0.044548 0.864198 0.869438
0.045677 0.864227 0.869584
0.054964 0.864551 0.870649
0.143658 0.869767 0.880008
0.732742 0.907375 0.931868
0.898544 0.917903 0.939363
0.941447 0.915177 0.938739
0.942624 0.917574 0.938356
0.300341 0.897302 0.872429
0.300674 0.897335 0.872470
0.304437 0.897695 0.872936
0.331350 0.900157 0.875976
0.482155 0.912414 0.891227
0.736794 0.932150 0.915185
0.879304 0.943888 0.930611
0.937934 0.948228 0.938642
0.949797 0.945384 0.938342
0.718870 0.933372 0.905209
0.718925 0.933377 0.905215
0.719559 0.933438 0.905283
0.723674 0.933833 0.905722
0.743396 0.935728 0.907825
0.801752 0.941664 0.914533
0.875104 0.952138 0.925613
0.926069 0.959209 0.933181
0.950696 0.958285 0.934041
0.000028 0.205096 0.263374
0.000028 0.205096 0.263374
0.000028 0.205096 0.263374
0.000028 0.205096 0.263374
0.000030 0.217788 0.281241
0.731721 0.241804 0.750167
0.731721 0.241804 0.750167
0.731721 0.241804 0.750167
0.822365 0.435586 0.838980
0.000028 0.205096 0.263374
0.000028 0.205096 0.263374
0.000028 0.205096 0.263374
0.000028 0.205096 0.263374
0.000031 0.217669 0.281063
0.731721 0.241804 0.750167
0.731721 0.241804 0.750167
0.731721 0.241804 0.750167
0.822484 0.436006 0.839089
0.000028 0.205096 0.263374
0.000028 0.205096 0.263374
0.000028 0.205096 0.263374
0.000028 0.205096 0.263374
0.000023 0.216447 0.279210
0.731721 0.241804 0.750167
0.731721 0.241804 0.750167
0.731721 0.241804 0.750167
0.823836 0.440816 0.840336
0.000028 0.205096 0.263374
0.000028 0.205096 0.263374
0.000028 0.205096 0.263374
0.000028 0.205096 0.263374
0.000000 0.210931 0.271211
0.731721 0.241804 0.750167
0.731721 0.241804 0.750167
0.731842 0.241954 0.750281
0.832850 0.474641 0.848421
0.000028 0.205096 0.263374
0.000028 0.205096 0.263374
0.000028 0.205096 0.263374
0.000028 0.205096 0.263374
0.000028 0.205096 0.263374
0.731721 0.241804 0.750167
0.731721 0.241804 0.750167
0.750331 0.269564 0.767900
0.866524 0.625315 0.878691
0.015125 0.853741 0.867448
0.015000 0.853655 0.867448
0.013549 0.852664 0.867438
0.006780 0.845382 0.867212
0.000008 0.785222 0.863733
0.746049 0.737178 0.951789
0.873234 0.722104 0.894616
0.894338 0.750305 0.902835
0.909145 0.810700 0.915325
0.061433 0.869898 0.864600
0.061209 0.869861 0.864622
0.058627 0.869426 0.864873
0.040746 0.866414 0.866610
0.029085 0.853709 0.868964
0.637959 0.890677 0.926429
0.892758 0.906554 0.940103
0.936425 0.902540 0.938261
0.937101 0.904057 0.938529
0.177433 0.884742 0.868240
0.177538 0.884751 0.868254
0.178760 0.884862 0.868423
0.187247 0.885631 0.869599
0.249949 0.891753 0.878115
0.658214 0.925134 0.920424
0.864097 0.940109 0.941904
0.932620 0.942888 0.948580
0.948996 0.942681 0.949107
0.666198 0.928846 0.913385
0.666280 0.928853 0.913394
0.667216 0.928935 0.913490
0.673263 0.929467 0.914114
0.701225 0.931901 0.916965
0.779375 0.939275 0.925618
0.869135 0.949088 0.937336
0.923957 0.956252 0.945898
0.951233 0.960602 0.950958
