滤镜资源/Lutify.me Free 3D LUTs Package/3D LUTs/Monitoring LUTs/RED DSMC2/Scarlet-W IPP2/Hilutite - Scarlet-W-IPP2.cube
# Website: https://lutify.me
# Contact: help@lutify.me
# Created by: Lutify.me
# Copyright: (c) Copyright Lutify.me 2016, G.T. Colord LTD
LUT_3D_SIZE 17
0.000000 0.000000 0.008636
0.000000 0.000000 0.010933
0.003384 0.000000 0.005527
0.118305 0.000000 0.002108
0.263264 0.000000 0.000037
0.412018 0.000000 0.000000
0.594180 0.000016 0.001101
0.736047 0.002762 0.018667
0.862557 0.090420 0.100533
0.930937 0.231998 0.267296
0.954211 0.452118 0.483183
0.952777 0.632155 0.651666
0.949553 0.746016 0.757308
0.948986 0.815282 0.818897
0.947349 0.866100 0.862799
0.947238 0.901755 0.895152
0.948470 0.925329 0.919094
0.000000 0.000000 0.008645
0.000000 0.000000 0.008638
0.000000 0.000000 0.006094
0.107190 0.000000 0.002178
0.251930 0.000000 0.000052
0.402724 0.000000 0.000000
0.587732 0.000013 0.000947
0.736406 0.004987 0.017901
0.861027 0.092251 0.100031
0.930796 0.232317 0.266258
0.954099 0.451699 0.482089
0.952736 0.631592 0.650956
0.949539 0.746086 0.757311
0.948975 0.815307 0.818899
0.947361 0.865630 0.862388
0.947237 0.901758 0.895152
0.948470 0.925330 0.919094
0.000000 0.019735 0.030576
0.000000 0.018485 0.029998
0.001853 0.009774 0.014021
0.084243 0.002364 0.001245
0.224311 0.000838 0.000020
0.383208 0.000000 0.000000
0.574886 0.000004 0.000553
0.735467 0.008917 0.015950
0.857405 0.097536 0.100362
0.930775 0.234067 0.265289
0.953863 0.450925 0.479905
0.952565 0.631336 0.650280
0.949550 0.745293 0.756455
0.948968 0.815035 0.818623
0.947355 0.865648 0.862387
0.947228 0.901447 0.894844
0.948470 0.925114 0.918873
0.000667 0.095166 0.078208
0.000667 0.094412 0.077704
0.000933 0.092924 0.076653
0.103737 0.073758 0.021961
0.214792 0.069798 0.000015
0.337910 0.044832 0.000024
0.506858 0.015244 0.000004
0.705256 0.015765 0.001428
0.844569 0.117176 0.101804
0.925747 0.245206 0.264511
0.952670 0.455886 0.478530
0.951782 0.631283 0.648344
0.949383 0.745005 0.755578
0.948919 0.814285 0.817800
0.947345 0.865242 0.861971
0.947213 0.901154 0.894533
0.948469 0.924903 0.918651
0.063974 0.208822 0.149582
0.063626 0.208311 0.149293
0.063001 0.207308 0.148695
0.069824 0.205222 0.144112
0.251148 0.171536 0.021906
0.394673 0.172028 0.000004
0.519470 0.168627 0.000031
0.630451 0.145114 0.000004
0.838498 0.151597 0.062438
0.903409 0.290406 0.270437
0.945813 0.472354 0.475373
0.949271 0.634608 0.645586
0.948876 0.744660 0.753387
0.948701 0.813350 0.816438
0.947310 0.864030 0.860717
0.947174 0.900590 0.893907
0.948465 0.924486 0.918205
0.138589 0.348721 0.203757
0.138482 0.348360 0.203684
0.138287 0.347646 0.203535
0.137833 0.345015 0.202704
0.213896 0.335533 0.204342
0.400098 0.296660 0.053479
0.588719 0.298688 0.000031
0.691153 0.296717 0.000031
0.807567 0.288619 0.000158
0.895271 0.370373 0.231815
0.928636 0.516191 0.470054
0.942655 0.645634 0.640552
0.947586 0.745656 0.749442
0.948040 0.812567 0.814281
0.947159 0.862709 0.859015
0.947080 0.899502 0.892638
0.948453 0.923661 0.917302
0.172612 0.510224 0.218788
0.172616 0.509995 0.218785
0.172637 0.509536 0.218776
0.172856 0.507725 0.218732
0.179053 0.503895 0.218279
0.328266 0.467837 0.216530
0.514767 0.441188 0.092776
0.692681 0.429835 0.005052
0.793188 0.436364 0.017235
0.865766 0.489417 0.195013
0.912656 0.582579 0.434673
0.931469 0.673103 0.628947
0.942006 0.752062 0.743285
0.946202 0.812351 0.810252
0.946714 0.860885 0.855970
0.946855 0.897735 0.890368
0.948415 0.922466 0.915922
0.177559 0.648078 0.206647
0.177586 0.647977 0.206653
0.177659 0.647774 0.206665
0.178033 0.646956 0.206717
0.180889 0.644880 0.206860
0.214153 0.643491 0.207039
0.434885 0.579784 0.182983
0.611108 0.569911 0.096468
0.756352 0.561089 0.069980
0.841653 0.595489 0.180640
0.891323 0.660994 0.406516
0.918038 0.717234 0.600705
0.934973 0.768469 0.730239
0.941305 0.817309 0.805299
0.945284 0.860469 0.851927
0.946353 0.896022 0.887324
0.948161 0.921087 0.913975
0.178115 0.748017 0.193186
0.178161 0.747977 0.193181
0.178261 0.747893 0.193170
0.178740 0.747558 0.193126
0.181162 0.746657 0.192988
0.193750 0.745175 0.192594
0.307092 0.732489 0.188002
0.549814 0.669161 0.147670
0.689516 0.665602 0.117503
0.811212 0.674029 0.182969
0.875614 0.715667 0.350514
0.910650 0.762229 0.575036
0.924962 0.796090 0.710416
0.937047 0.829522 0.794637
0.942073 0.863995 0.846567
0.945216 0.895359 0.883346
0.947584 0.919601 0.911147
0.180456 0.813876 0.203610
0.180533 0.813865 0.203594
0.180690 0.813842 0.203561
0.181380 0.813748 0.203422
0.183749 0.813486 0.203014
0.191950 0.812993 0.202022
0.229734 0.813127 0.199543
0.466250 0.770484 0.186572
0.648932 0.740255 0.167980
0.758436 0.742345 0.182175
0.852377 0.759417 0.291986
0.904495 0.799386 0.535652
0.920897 0.826273 0.693477
0.930909 0.849091 0.783999
0.937779 0.872825 0.838810
0.943506 0.897302 0.878975
0.946566 0.919090 0.907830
0.193365 0.856035 0.263138
0.193445 0.856032 0.263114
0.193612 0.856027 0.263066
0.194339 0.856000 0.262867
0.196695 0.855926 0.262289
0.203552 0.855807 0.260884
0.225500 0.855972 0.256365
0.359375 0.857562 0.249951
0.607041 0.804519 0.244072
0.734907 0.795961 0.245635
0.813925 0.802992 0.285155
0.887800 0.830283 0.489249
0.919163 0.852859 0.673327
0.929001 0.870133 0.774028
0.936209 0.885526 0.832662
0.941446 0.902480 0.873626
0.945608 0.919817 0.904102
0.210739 0.889206 0.422613
0.210831 0.889206 0.422596
0.211019 0.889206 0.422560
0.211820 0.889208 0.422414
0.214330 0.889217 0.421973
0.221155 0.889415 0.421014
0.241111 0.889810 0.418537
0.319324 0.892091 0.413618
0.579160 0.886963 0.408229
0.722700 0.855086 0.411637
0.807857 0.851262 0.430786
0.859518 0.858197 0.485656
0.912061 0.875358 0.647911
0.927005 0.888366 0.759476
0.935223 0.899496 0.826066
0.940494 0.910306 0.868572
0.944860 0.922784 0.900252
0.229346 0.909435 0.558639
0.229473 0.909444 0.558661
0.229733 0.909462 0.558706
0.230833 0.909535 0.558899
0.234248 0.909765 0.559499
0.243378 0.910377 0.561126
0.269498 0.911842 0.566108
0.362340 0.916199 0.585069
0.558943 0.922576 0.589593
0.715658 0.915647 0.588883
0.804160 0.893832 0.595166
0.856157 0.889728 0.611984
0.889474 0.893163 0.643973
0.926302 0.903445 0.744161
0.933405 0.912000 0.814607
0.939274 0.919208 0.861378
0.944104 0.927798 0.895218
0.337005 0.926478 0.667196
0.337216 0.926492 0.667235
0.337650 0.926518 0.667316
0.339464 0.926627 0.667654
0.345133 0.926961 0.668665
0.360289 0.927801 0.671197
0.398696 0.929973 0.677609
0.479008 0.933726 0.690006
0.593775 0.937580 0.702142
0.708197 0.940669 0.701312
0.801409 0.932147 0.702435
0.854399 0.917017 0.708135
0.886713 0.913639 0.719515
0.910378 0.916025 0.739777
0.933055 0.923074 0.805175
0.938377 0.928728 0.852226
0.943096 0.934500 0.888483
0.536016 0.939144 0.754885
0.536125 0.939149 0.754898
0.536342 0.939160 0.754927
0.537267 0.939205 0.755050
0.540067 0.939340 0.755420
0.547109 0.939681 0.756352
0.563310 0.940466 0.758494
0.595940 0.942113 0.762904
0.653678 0.944857 0.771225
0.725893 0.947488 0.774916
0.797966 0.950380 0.774979
0.853796 0.941984 0.776614
0.886055 0.932798 0.780937
0.908400 0.930643 0.788773
0.925492 0.932102 0.801420
0.938034 0.936431 0.842693
0.942536 0.940890 0.879724
0.668112 0.945455 0.807574
0.668152 0.945457 0.807580
0.668234 0.945461 0.807591
0.668576 0.945480 0.807637
0.669613 0.945537 0.807778
0.672252 0.945682 0.808137
0.678471 0.946023 0.808981
0.691950 0.946756 0.810820
0.718395 0.947938 0.814749
0.759989 0.950124 0.820396
0.806345 0.951905 0.820380
0.852378 0.953013 0.820586
0.885460 0.944861 0.822177
0.907151 0.938482 0.825735
0.923526 0.937879 0.830924
0.936166 0.939705 0.839140
0.942001 0.945188 0.872035
0.756373 0.949855 0.844736
0.756388 0.949856 0.844737
0.756420 0.949858 0.844743
0.756555 0.949866 0.844763
0.756966 0.949891 0.844823
0.758015 0.949954 0.844979
0.760517 0.950105 0.845348
0.766083 0.950441 0.846171
0.777433 0.951123 0.847899
0.798117 0.952300 0.851207
0.825762 0.953608 0.852645
0.856245 0.954814 0.852631
0.884937 0.953682 0.852831
0.906966 0.947311 0.854360
0.922371 0.943172 0.857015
0.934623 0.943068 0.861044
0.941402 0.944373 0.867250
0.000000 0.000000 0.008640
0.000000 0.000000 0.008628
0.002693 0.000000 0.006641
0.127862 0.000000 0.003408
0.271114 0.000000 0.000981
0.417847 0.000000 0.000000
0.599025 0.000015 0.001295
0.736000 0.001877 0.020784
0.863265 0.089360 0.101737
0.930632 0.230855 0.267363
0.954360 0.450626 0.482404
0.952905 0.631240 0.651034
0.949565 0.745999 0.757351
0.948995 0.815275 0.818911
0.947366 0.865620 0.862394
0.947239 0.901754 0.895154
0.948470 0.925329 0.919094
0.000000 0.000000 0.008638
0.000000 0.000000 0.008637
0.000020 0.000000 0.006326
0.113150 0.000000 0.004610
0.259257 0.000000 0.000719
0.409021 0.000000 0.000000
0.593142 0.000013 0.001173
0.736837 0.004252 0.020135
0.862081 0.092140 0.102089
0.930757 0.232186 0.267422
0.954248 0.450210 0.481313
0.952848 0.630687 0.650319
0.949572 0.745600 0.756923
0.949000 0.814977 0.818634
0.947363 0.865628 0.862394
0.947231 0.901442 0.894846
0.948470 0.925330 0.919094
0.000000 0.016834 0.029235
0.000000 0.015496 0.028616
0.000995 0.007048 0.012613
0.086463 0.001771 0.002239
0.232929 0.000679 0.000029
0.389430 0.000000 0.000000
0.580234 0.000004 0.000777
0.738210 0.009106 0.018724
0.858509 0.096286 0.101365
0.930459 0.232935 0.265375
0.953981 0.450719 0.480352
0.952669 0.630435 0.649641
0.949563 0.745275 0.756499
0.948993 0.814706 0.818359
0.947372 0.865167 0.861980
0.947229 0.901447 0.894846
0.948471 0.925114 0.918874
0.000667 0.093539 0.077201
0.000667 0.092778 0.076681
0.000814 0.091279 0.075627
0.102361 0.072055 0.020853
0.213845 0.067932 0.000009
0.337169 0.041267 0.000022
0.513435 0.013006 0.000003
0.710016 0.016107 0.003667
0.845597 0.116006 0.102797
0.926216 0.243746 0.264328
0.952812 0.454446 0.477770
0.951882 0.630393 0.647706
0.949386 0.744531 0.755175
0.948943 0.813956 0.817535
0.947362 0.864761 0.861564
0.947214 0.901153 0.894535
0.948470 0.924903 0.918652
0.063235 0.207804 0.149161
0.062888 0.207291 0.148863
0.062264 0.206283 0.148253
0.068794 0.204132 0.143690
0.250455 0.170488 0.021283
0.393427 0.170988 0.000001
0.518590 0.167455 0.000031
0.631347 0.143372 0.000001
0.837824 0.151794 0.065669
0.903913 0.288949 0.270297
0.946147 0.472058 0.475777
0.949360 0.633750 0.644954
0.948877 0.744193 0.752982
0.948711 0.813343 0.816452
0.947313 0.864027 0.860723
0.947167 0.900272 0.893597
0.948466 0.924486 0.918205
0.138347 0.348055 0.203873
0.138294 0.347712 0.203777
0.138095 0.346996 0.203619
0.137606 0.344353 0.202759
0.213224 0.335074 0.204205
0.399901 0.295954 0.052511
0.588099 0.298154 0.000031
0.690734 0.296234 0.000031
0.807543 0.288518 0.002250
0.895554 0.370448 0.234044
0.928709 0.515248 0.469461
0.942747 0.645547 0.640693
0.947582 0.745209 0.749035
0.948059 0.812246 0.814014
0.947162 0.862706 0.859022
0.947072 0.899183 0.892325
0.948453 0.923660 0.917303
0.172489 0.509886 0.218982
0.172494 0.509655 0.218978
0.172516 0.509195 0.218968
0.172735 0.507381 0.218919
0.178856 0.503544 0.218436
0.328044 0.467573 0.216662
0.514702 0.440848 0.092731
0.692714 0.429618 0.005018
0.793804 0.436416 0.018024
0.865645 0.489206 0.195228
0.912535 0.582060 0.434161
0.931449 0.672577 0.628354
0.941994 0.751664 0.742872
0.946214 0.812343 0.810267
0.946717 0.860882 0.855977
0.946856 0.897734 0.890370
0.948416 0.922466 0.915923
0.177440 0.647969 0.206829
0.177473 0.647867 0.206835
0.177542 0.647664 0.206847
0.177917 0.646845 0.206897
0.180759 0.644764 0.207036
0.213977 0.643368 0.207207
0.434795 0.579711 0.183219
0.611127 0.569886 0.096874
0.755799 0.561193 0.070899
0.841792 0.595697 0.181603
0.891146 0.660776 0.406082
0.917948 0.716940 0.600018
0.934947 0.768176 0.729757
0.941318 0.817300 0.805316
0.945288 0.860466 0.851934
0.946354 0.896022 0.887327
0.948135 0.920873 0.913731
0.178022 0.747992 0.193485
0.178068 0.747951 0.193480
0.178169 0.747869 0.193469
0.178647 0.747531 0.193424
0.181063 0.746630 0.193281
0.193644 0.745146 0.192877
0.306965 0.732587 0.188309
0.549827 0.669205 0.148094
0.689588 0.665691 0.118145
0.810841 0.674070 0.183095
0.875413 0.715512 0.349972
0.910675 0.762262 0.575318
0.924886 0.795911 0.709895
0.937024 0.829338 0.794334
0.942076 0.863993 0.846576
0.945217 0.895358 0.883349
0.947584 0.919601 0.911148
0.180386 0.813882 0.203947
0.180462 0.813870 0.203931
0.180619 0.813847 0.203897
0.181308 0.813753 0.203758
0.183677 0.813490 0.203347
0.191873 0.812998 0.202351
0.229651 0.813130 0.199865
0.466252 0.770590 0.186928
0.648979 0.740322 0.168409
0.758501 0.742439 0.182705
0.852105 0.759383 0.291706
0.904332 0.799243 0.534885
0.920845 0.826156 0.692934
0.930866 0.848976 0.783664
0.937718 0.872563 0.838327
0.943479 0.897043 0.878630
0.946566 0.919090 0.907831
0.193312 0.856057 0.263618
0.193393 0.856054 0.263595
0.193558 0.856048 0.263547
0.194285 0.856022 0.263348
0.196641 0.855948 0.262768
0.203497 0.855829 0.261359
0.225454 0.855992 0.256849
0.359279 0.857716 0.250392
0.607123 0.804655 0.244547
0.734968 0.796050 0.246131
0.813988 0.803103 0.285764
0.887832 0.830339 0.489689
0.919103 0.852779 0.672765
0.928960 0.870059 0.773689
0.936154 0.885353 0.832163
0.941447 0.902480 0.873629
0.945608 0.919817 0.904103
0.210698 0.889218 0.423090
0.210790 0.889218 0.423073
0.210979 0.889219 0.423038
0.211779 0.889220 0.422892
0.214289 0.889230 0.422451
0.221113 0.889427 0.421493
0.241069 0.889830 0.419029
0.319272 0.892108 0.414120
0.579169 0.887073 0.408740
0.722768 0.855191 0.412133
0.807892 0.851320 0.431249
0.859546 0.858242 0.486027
0.911911 0.875304 0.647412
0.926965 0.888315 0.759075
0.935224 0.899498 0.826078
0.940495 0.910306 0.868576
0.944816 0.922654 0.899965
0.229288 0.909430 0.558772
0.229414 0.909438 0.558795
0.229674 0.909456 0.558840
0.230774 0.909530 0.559033
0.234188 0.909759 0.559632
0.243321 0.910372 0.561261
0.269430 0.911840 0.566237
0.362266 0.916200 0.585199
0.558926 0.922581 0.589788
0.715663 0.915686 0.589070
0.804180 0.893866 0.595350
0.856169 0.889744 0.612126
0.889484 0.893176 0.644084
0.926269 0.903409 0.743829
0.933407 0.912003 0.814623
0.939275 0.919209 0.861384
0.944067 0.927698 0.894925
0.336972 0.926476 0.667240
0.337182 0.926489 0.667279
0.337616 0.926515 0.667360
0.339434 0.926625 0.667700
0.345100 0.926958 0.668709
0.360256 0.927799 0.671241
0.398657 0.929969 0.677652
0.478971 0.933725 0.690049
0.593768 0.937581 0.702206
0.708193 0.940670 0.701375
0.801411 0.932159 0.702495
0.854406 0.917029 0.708191
0.886717 0.913646 0.719568
0.910381 0.916031 0.739818
0.933033 0.923051 0.804961
0.938327 0.928672 0.851822
0.943096 0.934500 0.888486
0.536001 0.939143 0.754901
0.536109 0.939148 0.754915
0.536327 0.939159 0.754944
0.537252 0.939203 0.755067
0.540052 0.939339 0.755437
0.547093 0.939680 0.756369
0.563295 0.940465 0.758510
0.595927 0.942111 0.762920
0.653667 0.944857 0.771241
0.725891 0.947488 0.774939
0.797965 0.950380 0.775002
0.853798 0.941990 0.776637
0.886058 0.932803 0.780958
0.908402 0.930645 0.788792
0.925493 0.932104 0.801435
0.938034 0.936431 0.842700
0.942536 0.940890 0.879727
0.668108 0.945454 0.807581
0.668148 0.945456 0.807586
0.668228 0.945461 0.807597
0.668570 0.945479 0.807644
0.669609 0.945536 0.807785
0.672246 0.945681 0.808143
0.678465 0.946022 0.808988
0.691945 0.946756 0.810826
0.718390 0.947938 0.814756
0.759988 0.950124 0.820405
0.806344 0.951905 0.820389
0.852377 0.953015 0.820595
0.885461 0.944864 0.822187
0.907152 0.938484 0.825743
0.923526 0.937880 0.830931
0.936166 0.939706 0.839146
0.942001 0.945188 0.872037
0.756371 0.949855 0.844739
0.756386 0.949856 0.844741
0.756418 0.949858 0.844746
0.756552 0.949866 0.844766
0.756964 0.949891 0.844826
0.758013 0.949954 0.844982
0.760514 0.950105 0.845351
0.766082 0.950441 0.846175
0.777431 0.951123 0.847902
0.798116 0.952300 0.851210
0.825762 0.953609 0.852649
0.856244 0.954814 0.852636
0.884937 0.953683 0.852835
0.906966 0.947312 0.854363
0.922372 0.943173 0.857020
0.934623 0.943068 0.861047
0.941403 0.944374 0.867254
0.000000 0.000000 0.019790
0.000000 0.000000 0.021648
0.001580 0.000480 0.043856
0.145310 0.000210 0.023740
0.291020 0.000000 0.004015
0.435808 0.000004 0.001344
0.605860 0.000008 0.004269
0.737040 0.000418 0.025536
0.865804 0.087511 0.104756
0.930280 0.229588 0.268656
0.954634 0.448913 0.482091
0.953115 0.630239 0.650527
0.949632 0.745022 0.756577
0.949030 0.814938 0.818660
0.947371 0.865616 0.862406
0.947233 0.901438 0.894851
0.948471 0.925329 0.919096
0.000000 0.000000 0.019118
0.000000 0.000000 0.019005
0.000588 0.000503 0.040627
0.138079 0.000255 0.021265
0.279730 0.000000 0.003587
0.427930 0.000006 0.001454
0.602005 0.000008 0.003462
0.737348 0.002615 0.024732
0.864084 0.089587 0.104357
0.930127 0.229919 0.267647
0.954522 0.448499 0.481005
0.953043 0.629694 0.649809
0.949617 0.745094 0.756580
0.949034 0.814640 0.818384
0.947368 0.865624 0.862405
0.947233 0.901441 0.894851
0.948472 0.925112 0.918875
0.000000 0.012243 0.045185
0.000000 0.010647 0.043861
0.000000 0.013769 0.053733
0.093172 0.003680 0.025474
0.254075 0.000264 0.003313
0.406358 0.000002 0.000979
0.592404 0.000084 0.002249
0.738651 0.007434 0.023262
0.861065 0.094478 0.104369
0.930102 0.231673 0.266702
0.954287 0.447733 0.478836
0.952865 0.629444 0.649133
0.949574 0.744322 0.755697
0.949027 0.814369 0.818108
0.947377 0.865162 0.861992
0.947223 0.901130 0.894542
0.948471 0.925114 0.918875
0.000667 0.090272 0.076368
0.000667 0.089493 0.075708
0.000728 0.087954 0.074421
0.099429 0.068923 0.019917
0.212821 0.063358 0.000000
0.337615 0.033441 0.000020
0.527476 0.008365 0.000002
0.722043 0.019032 0.010891
0.848271 0.114292 0.105671
0.927516 0.241770 0.265100
0.953082 0.452785 0.477492
0.952076 0.629409 0.647201
0.949406 0.744036 0.754820
0.948978 0.813618 0.817283
0.947367 0.864756 0.861576
0.947208 0.900836 0.894230
0.948470 0.924903 0.918653
0.061674 0.205780 0.148635
0.061329 0.205261 0.148317
0.060708 0.204244 0.147664
0.066666 0.201965 0.143025
0.249231 0.168325 0.019622
0.391419 0.168903 0.000000
0.516926 0.165036 0.000031
0.635662 0.138584 0.000006
0.836848 0.152934 0.073562
0.905429 0.286893 0.271211
0.946679 0.469392 0.474293
0.949544 0.632799 0.644459
0.948897 0.743704 0.752627
0.948744 0.813007 0.816201
0.947319 0.864023 0.860735
0.947169 0.900271 0.893602
0.948466 0.924486 0.918207
0.137977 0.346782 0.204247
0.137907 0.346439 0.204129
0.137686 0.345719 0.203935
0.137159 0.343056 0.203015
0.211825 0.334222 0.203976
0.399516 0.294558 0.050676
0.586865 0.297076 0.000031
0.689644 0.295267 0.000031
0.807700 0.288871 0.008789
0.895575 0.368972 0.235378
0.928844 0.513328 0.468333
0.942868 0.644005 0.639464
0.947597 0.744739 0.748680
0.948089 0.811916 0.813762
0.947179 0.862223 0.858614
0.947074 0.899182 0.892330
0.948453 0.923660 0.917304
0.172208 0.509211 0.219412
0.172228 0.508983 0.219405
0.172251 0.508520 0.219393
0.172463 0.506697 0.219334
0.178435 0.502845 0.218783
0.327580 0.467094 0.216974
0.514578 0.440184 0.092718
0.691994 0.429156 0.005114
0.794452 0.436447 0.019370
0.865672 0.489357 0.197249
0.912635 0.581472 0.434411
0.931451 0.672024 0.628024
0.942019 0.751239 0.742513
0.946208 0.811749 0.809732
0.946730 0.860407 0.855562
0.946848 0.897413 0.890054
0.948416 0.922242 0.915694
0.177195 0.647753 0.207214
0.177228 0.647652 0.207220
0.177299 0.647447 0.207231
0.177667 0.646625 0.207277
0.180483 0.644535 0.207405
0.213613 0.643126 0.207559
0.434611 0.579568 0.183716
0.611170 0.569844 0.097742
0.756312 0.561683 0.073749
0.841708 0.595911 0.182874
0.891057 0.660650 0.406398
0.917933 0.716630 0.599615
0.934929 0.767874 0.729368
0.941269 0.816796 0.804778
0.945263 0.860033 0.851515
0.946342 0.895706 0.887002
0.948136 0.920873 0.913732
0.177831 0.747941 0.194108
0.177878 0.747901 0.194102
0.177976 0.747818 0.194090
0.178453 0.747480 0.194042
0.180860 0.746576 0.193892
0.193424 0.745089 0.193468
0.306702 0.732796 0.188947
0.549858 0.669300 0.148978
0.689739 0.665877 0.119482
0.810560 0.674256 0.184022
0.875302 0.715560 0.350389
0.910642 0.762135 0.574940
0.924830 0.795732 0.709466
0.937001 0.829145 0.794063
0.942032 0.863620 0.846139
0.945220 0.895356 0.883355
0.947555 0.919390 0.910896
0.180239 0.813893 0.204643
0.180314 0.813882 0.204627
0.180472 0.813859 0.204593
0.181161 0.813764 0.204452
0.183527 0.813501 0.204037
0.191713 0.813008 0.203032
0.229478 0.813136 0.200531
0.466257 0.770813 0.187666
0.649078 0.740463 0.169296
0.758620 0.742617 0.183714
0.852244 0.759641 0.293111
0.904198 0.799160 0.534528
0.920804 0.826051 0.692496
0.930827 0.848863 0.783360
0.937721 0.872563 0.838345
0.943480 0.897042 0.878636
0.946529 0.918893 0.907568
0.193203 0.856102 0.264612
0.193283 0.856099 0.264588
0.193450 0.856093 0.264540
0.194175 0.856066 0.264339
0.196530 0.855993 0.263756
0.203383 0.855872 0.262338
0.225360 0.856030 0.257846
0.359083 0.858031 0.251302
0.607289 0.804937 0.245528
0.735095 0.796235 0.247152
0.814123 0.803333 0.286933
0.887654 0.830324 0.489488
0.919056 0.852716 0.672328
0.928922 0.869989 0.773383
0.936156 0.885354 0.832184
0.941403 0.902283 0.873261
0.945573 0.919642 0.903835
0.210597 0.889242 0.424064
0.210689 0.889243 0.424047
0.210879 0.889243 0.424013
0.211682 0.889245 0.423867
0.214204 0.889255 0.423427
0.221029 0.889452 0.422470
0.240982 0.889869 0.420034
0.319169 0.892143 0.415143
0.579187 0.887296 0.409784
0.722907 0.855404 0.413145
0.807962 0.851436 0.432194
0.859603 0.858336 0.486784
0.911932 0.875337 0.647689
0.926930 0.888269 0.758720
0.935168 0.899389 0.825588
0.940445 0.910184 0.868199
0.944817 0.922654 0.899968
0.229166 0.909418 0.559047
0.229293 0.909426 0.559070
0.229553 0.909444 0.559115
0.230653 0.909518 0.559308
0.234067 0.909748 0.559908
0.243202 0.910361 0.561537
0.269295 0.911836 0.566503
0.362118 0.916201 0.585467
0.558889 0.922589 0.590186
0.715672 0.915768 0.589455
0.804223 0.893937 0.595727
0.856191 0.889779 0.612416
0.889503 0.893204 0.644315
0.926279 0.903422 0.743924
0.933378 0.911967 0.814365
0.939277 0.919210 0.861395
0.944067 0.927699 0.894929
0.336904 0.926471 0.667332
0.337116 0.926483 0.667370
0.337549 0.926510 0.667451
0.339365 0.926619 0.667791
0.345029 0.926952 0.668800
0.360185 0.927794 0.671331
0.398586 0.929962 0.677741
0.478899 0.933721 0.690136
0.593752 0.937582 0.702337
0.708183 0.940671 0.701505
0.801415 0.932185 0.702621
0.854418 0.917052 0.708307
0.886726 0.913658 0.719675
0.910388 0.916041 0.739902
0.933013 0.923030 0.804765
0.938329 0.928673 0.851835
0.943054 0.934436 0.888166
0.535971 0.939141 0.754935
0.536078 0.939146 0.754949
0.536298 0.939156 0.754978
0.537223 0.939201 0.755101
0.540022 0.939337 0.755471
0.547064 0.939678 0.756403
0.563267 0.940462 0.758545
0.595901 0.942109 0.762954
0.653644 0.944857 0.771272
0.725886 0.947489 0.774987
0.797963 0.950381 0.775050
0.853801 0.942000 0.776683
0.886064 0.932813 0.781001
0.908405 0.930650 0.788830
0.925496 0.932107 0.801464
0.938036 0.936433 0.842713
0.942498 0.940849 0.879411
0.668097 0.945453 0.807594
0.668137 0.945455 0.807600
0.668218 0.945460 0.807611
0.668560 0.945478 0.807657
0.669597 0.945535 0.807798
0.672236 0.945680 0.808157
0.678455 0.946021 0.809001
0.691934 0.946755 0.810839
0.718380 0.947938 0.814769
0.759986 0.950124 0.820425
0.806343 0.951905 0.820409
0.852377 0.953020 0.820614
0.885463 0.944868 0.822204
0.907154 0.938488 0.825759
0.923528 0.937883 0.830947
0.936168 0.939708 0.839158
0.942002 0.945189 0.872043
0.756366 0.949854 0.844745
0.756381 0.949855 0.844747
0.756413 0.949857 0.844752
0.756548 0.949865 0.844772
0.756959 0.949890 0.844832
0.758009 0.949954 0.844988
0.760510 0.950105 0.845357
0.766076 0.950441 0.846180
0.777427 0.951123 0.847908
0.798111 0.952300 0.851216
0.825761 0.953609 0.852658
0.856244 0.954815 0.852645
0.884937 0.953685 0.852844
0.906967 0.947314 0.854372
0.922373 0.943175 0.857027
0.934624 0.943069 0.861054
0.941404 0.944375 0.867259
0.000000 0.001603 0.039031
0.000000 0.001632 0.041481
0.000000 0.016227 0.070817
0.090575 0.019510 0.108994
0.295093 0.006279 0.075707
0.459091 0.000000 0.047770
0.619845 0.000000 0.032635
0.744167 0.001113 0.050852
0.875605 0.082139 0.120210
0.929123 0.225520 0.275276
0.955756 0.443215 0.482256
0.953929 0.627029 0.649309
0.949769 0.743932 0.756083
0.949157 0.813907 0.817941
0.947408 0.865119 0.862042
0.947234 0.901116 0.894561
