滤镜资源/Lutify.me Free 3D LUTs Package/3D LUTs/Monitoring LUTs/RED DSMC2/Scarlet-W IPP2/Howlite - Scarlet-W-IPP2.cube
# Website: https://lutify.me
# Contact: help@lutify.me
# Created by: Lutify.me
# Copyright: (c) Copyright Lutify.me 2016, G.T. Colord LTD
LUT_3D_SIZE 9
0.000000 0.000000 0.000000
0.089884 0.004313 0.006713
0.298786 0.020649 0.047435
0.672018 0.057077 0.132132
0.878682 0.128232 0.282856
0.971452 0.426190 0.575696
0.986338 0.709000 0.767086
0.993092 0.852993 0.881180
0.996646 0.941188 0.953449
0.003543 0.059394 0.005038
0.066335 0.055257 0.005324
0.290323 0.036262 0.038154
0.668292 0.063197 0.126669
0.877574 0.131135 0.279649
0.971626 0.424911 0.573262
0.986324 0.708184 0.766277
0.993073 0.852406 0.880674
0.996633 0.940830 0.953154
0.003543 0.254532 0.006219
0.003702 0.252583 0.006109
0.219240 0.235393 0.005452
0.645658 0.190414 0.090887
0.871977 0.181271 0.256783
0.974378 0.440477 0.564212
0.986341 0.707171 0.763132
0.993004 0.850292 0.878598
0.996599 0.939784 0.952259
0.003830 0.591669 0.016520
0.003955 0.591085 0.016293
0.019424 0.585380 0.014349
0.524063 0.563088 0.010898
0.860566 0.511466 0.170254
0.975053 0.546496 0.522724
0.986672 0.712870 0.750595
0.992883 0.846066 0.872493
0.996504 0.936420 0.949178
0.006207 0.800471 0.066610
0.006452 0.800353 0.066460
0.011495 0.799086 0.064917
0.182409 0.792915 0.059198
0.747346 0.776927 0.060018
0.967008 0.745664 0.364586
0.988644 0.768375 0.715959
0.992911 0.848989 0.858948
0.996399 0.931389 0.942679
0.030541 0.917765 0.231276
0.030974 0.917741 0.231195
0.036096 0.917473 0.230310
0.084086 0.915885 0.225800
0.589586 0.910234 0.218249
0.875334 0.898855 0.260938
0.998822 0.878749 0.631222
0.995256 0.887428 0.829690
0.996830 0.932713 0.931441
0.122557 0.978049 0.561155
0.122905 0.978044 0.561137
0.126968 0.977984 0.560932
0.157119 0.977597 0.559675
0.477105 0.975923 0.555475
0.804344 0.971351 0.555801
0.946552 0.964115 0.599857
0.999931 0.951229 0.779853
0.998669 0.954674 0.910033
0.478941 1.000000 0.740706
0.479295 1.000000 0.740702
0.483347 1.000000 0.740662
0.508625 1.000000 0.740410
0.604030 1.000000 0.739530
0.771917 1.000000 0.737468
0.911080 1.000000 0.740949
0.984577 0.997309 0.765079
1.000000 0.988505 0.880604
0.730750 1.000000 0.844520
0.730797 1.000000 0.844520
0.731340 1.000000 0.844513
0.734873 1.000000 0.844465
0.751867 1.000000 0.844231
0.806540 1.000000 0.843397
0.894177 1.000000 0.842715
0.965132 1.000000 0.846414
1.000000 1.000000 0.861679
0.003543 0.002458 0.120905
0.084759 0.007904 0.106976
0.297167 0.019141 0.093520
0.670164 0.055597 0.148796
0.877483 0.126975 0.288790
0.971022 0.423593 0.575493
0.986295 0.707922 0.766470
0.993071 0.852369 0.880704
0.996645 0.941188 0.953452
0.003543 0.049234 0.094427
0.061575 0.044279 0.087713
0.289530 0.031822 0.076536
0.666394 0.061513 0.143092
0.876598 0.129734 0.285579
0.971195 0.422328 0.573074
0.986266 0.707113 0.765658
0.993051 0.851780 0.880197
0.996633 0.940830 0.953158
0.003543 0.250592 0.009864
0.003702 0.248622 0.009390
0.218230 0.231264 0.006891
0.643872 0.187401 0.102604
0.871012 0.179422 0.262002
0.974279 0.438058 0.564031
0.986284 0.706115 0.762507
0.993003 0.850285 0.878624
0.996598 0.939783 0.952262
0.003798 0.590603 0.020329
0.003955 0.590017 0.020059
0.019018 0.584305 0.017750
0.523703 0.561964 0.013070
0.859775 0.510755 0.175105
0.974655 0.545397 0.522595
0.986631 0.711952 0.749936
0.992862 0.845448 0.871997
0.996490 0.936046 0.948875
0.006179 0.800271 0.069519
0.006421 0.800153 0.069363
0.011423 0.798884 0.067761
0.182048 0.792710 0.061819
0.747288 0.776728 0.062534
0.966427 0.745644 0.364585
0.988623 0.768008 0.715146
0.992886 0.848493 0.858404
0.996382 0.931021 0.942348
0.030504 0.917724 0.233331
0.030937 0.917700 0.233249
0.036055 0.917432 0.232356
0.084018 0.915844 0.227786
0.589522 0.910194 0.220130
0.875321 0.898815 0.263022
0.998839 0.878783 0.630132
0.995264 0.887263 0.829005
0.996817 0.932429 0.931063
0.122534 0.978040 0.561673
0.122882 0.978034 0.561656
0.126944 0.977975 0.561451
0.157090 0.977590 0.560190
0.477064 0.975914 0.555995
0.804336 0.971343 0.556293
0.946549 0.964106 0.600193
0.999934 0.951244 0.779512
0.998679 0.954582 0.909549
0.478921 1.000000 0.740792
0.479277 1.000000 0.740788
0.483327 1.000000 0.740749
0.508609 1.000000 0.740497
0.604020 1.000000 0.739617
0.771913 1.000000 0.737554
0.911079 1.000000 0.741028
0.984576 0.997306 0.765138
1.000000 0.988528 0.880103
0.730747 1.000000 0.844541
0.730794 1.000000 0.844540
0.731337 1.000000 0.844533
0.734870 1.000000 0.844485
0.751865 1.000000 0.844252
0.806539 1.000000 0.843417
0.894177 1.000000 0.842735
0.965132 1.000000 0.846432
1.000000 1.000000 0.861693
0.018806 0.003601 0.372894
0.061741 0.003435 0.371905
0.276589 0.023505 0.327479
0.645622 0.055237 0.331258
0.864912 0.122201 0.372710
0.967617 0.410198 0.583766
0.986060 0.704312 0.765986
0.993001 0.850431 0.879485
0.996602 0.940089 0.952607
0.010340 0.007357 0.367331
0.038256 0.006572 0.366326
0.268024 0.024409 0.322295
0.643824 0.058688 0.327172
0.863883 0.124182 0.369473
0.967786 0.410160 0.582252
0.986025 0.703498 0.765185
0.992981 0.849839 0.878977
0.996589 0.939728 0.952310
0.003543 0.213900 0.317208
0.003543 0.211894 0.316184
0.208943 0.194785 0.307793
0.633347 0.159147 0.290529
0.864809 0.164911 0.343480
0.971801 0.426687 0.574126
0.986020 0.702025 0.761679
0.992912 0.847712 0.876892
0.996554 0.938672 0.951407
0.003730 0.579988 0.132961
0.003787 0.579386 0.131771
0.015256 0.573306 0.121329
0.520147 0.550531 0.097916
0.852868 0.502486 0.239474
0.973232 0.538918 0.535790
0.986480 0.708314 0.749174
0.992786 0.843526 0.870751
0.996438 0.934914 0.947985
0.005908 0.798076 0.109199
0.006125 0.797957 0.108973
0.010665 0.796681 0.106643
0.178082 0.790464 0.097924
0.746652 0.774540 0.097165
0.963987 0.744654 0.391466
0.988563 0.766581 0.714911
0.992811 0.846931 0.857078
0.996326 0.929902 0.941393
0.030087 0.917265 0.257674
0.030516 0.917241 0.257586
0.035598 0.916970 0.256610
0.083236 0.915371 0.251625
0.588803 0.909740 0.242967
0.875164 0.898362 0.288121
0.998833 0.878706 0.630334
0.995271 0.886722 0.827394
0.996778 0.931565 0.929979
0.122273 0.977939 0.567509
0.122620 0.977934 0.567492
0.126675 0.977873 0.567295
0.156766 0.977490 0.566029
0.476571 0.975812 0.561855
0.804240 0.971244 0.561850
0.946516 0.964007 0.604013
0.999948 0.951305 0.777867
0.998706 0.954300 0.908178
0.478705 1.000000 0.741785
0.479062 1.000000 0.741781
0.483116 1.000000 0.741741
0.508411 1.000000 0.741489
0.603887 1.000000 0.740603
0.771864 1.000000 0.738533
0.911061 1.000000 0.741930
0.984568 0.997283 0.765817
1.000000 0.988563 0.879224
0.730717 1.000000 0.844775
0.730765 1.000000 0.844774
0.731309 1.000000 0.844766
0.734841 1.000000 0.844719
0.751840 1.000000 0.844485
0.806520 1.000000 0.843650
0.894168 1.000000 0.842964
0.965127 1.000000 0.846638
1.000000 1.000000 0.861852
0.042194 0.006131 0.658159
0.056790 0.005986 0.657683
0.266622 0.012166 0.630320
0.599117 0.047193 0.584547
0.822301 0.106621 0.581056
0.951343 0.348530 0.638436
0.984473 0.688600 0.769734
0.992743 0.843575 0.876474
0.996437 0.936321 0.949892
0.036976 0.007929 0.656262
0.050009 0.007704 0.655834
0.257629 0.012299 0.631220
0.596510 0.048038 0.582884
0.820656 0.107877 0.580267
0.951526 0.348645 0.637723
0.984446 0.687732 0.769031
0.992722 0.842965 0.875975
0.996424 0.935948 0.949589
0.009466 0.079648 0.638216
0.013908 0.077603 0.637848
0.174874 0.062378 0.634453
0.573802 0.078562 0.570205
0.817879 0.133048 0.573654
0.954086 0.370963 0.634439
0.984679 0.686757 0.766276
0.992650 0.840795 0.873922
0.996387 0.934862 0.948668
0.003563 0.532898 0.577461
0.003563 0.532142 0.577120
0.005734 0.524894 0.573901
0.504518 0.498521 0.563109
0.829798 0.457853 0.552868
0.966574 0.504929 0.615102
0.985681 0.694514 0.754941
0.992482 0.836702 0.867848
0.996240 0.931434 0.945446
0.004914 0.786896 0.459966
0.005043 0.786772 0.459724
0.007679 0.785440 0.457167
0.156766 0.778983 0.446148
0.743122 0.762911 0.433673
0.955060 0.737728 0.530074
0.988349 0.759973 0.723160
0.992560 0.841353 0.854217
0.996139 0.926445 0.938723
0.027648 0.914516 0.433285
0.028052 0.914490 0.433196
0.032934 0.914213 0.432189
0.078680 0.912586 0.426592
0.584387 0.906921 0.414673
0.874358 0.895696 0.440039
0.998541 0.877627 0.647463
0.995199 0.884721 0.824262
0.996658 0.928909 0.926995
0.120596 0.977292 0.600797
0.120938 0.977286 0.600784
0.124933 0.977220 0.600635
0.154682 0.976835 0.599632
0.473423 0.975157 0.595656
0.803604 0.970587 0.594106
0.946332 0.963378 0.627234
0.999958 0.951289 0.776516
0.998725 0.953466 0.904433
0.477297 1.000000 0.748122
0.477652 1.000000 0.748119
0.481724 1.000000 0.748083
0.507122 1.000000 0.747834
0.603031 1.000000 0.746908
0.771546 1.000000 0.744796
0.910947 1.000000 0.747709
0.984521 0.997128 0.770190
1.000000 0.988703 0.875645
0.730528 1.000000 0.846300
0.730576 1.000000 0.846299
0.731120 1.000000 0.846291
0.734657 1.000000 0.846244
0.751672 1.000000 0.846007
0.806402 1.000000 0.845168
0.894107 1.000000 0.844450
0.965098 1.000000 0.847984
1.000000 1.000000 0.862894
0.050853 0.006869 0.849968
0.057584 0.006776 0.849808
0.187288 0.005949 0.848121
0.595481 0.049497 0.756506
0.782248 0.065191 0.754534
0.911841 0.199659 0.748867
0.972941 0.646037 0.807764
0.990659 0.828433 0.878564
0.995983 0.929399 0.946356
0.048112 0.007664 0.849210
0.054530 0.007560 0.849051
0.177902 0.006583 0.847308
0.592567 0.049539 0.756032
0.781565 0.065830 0.754069
0.911430 0.199598 0.748760
0.972857 0.644905 0.807407
0.990616 0.827770 0.878159
0.995962 0.929007 0.946051
0.025621 0.023995 0.840881
0.029510 0.023720 0.840733
0.110347 0.020907 0.839045
0.562675 0.055129 0.753247
0.775091 0.074824 0.749779
0.910422 0.211902 0.748318
0.972864 0.643331 0.805900
0.990499 0.825443 0.876484
0.995903 0.927874 0.945123
0.005900 0.393981 0.815358
0.006504 0.392467 0.815199
0.024589 0.378991 0.813875
0.461111 0.335340 0.808925
0.767728 0.305889 0.752039
0.920220 0.384719 0.756046
0.975046 0.655500 0.800762
0.990536 0.821232 0.871504
0.995733 0.924287 0.941933
0.003779 0.755491 0.765230
0.003779 0.755339 0.765150
0.004284 0.753715 0.764297
0.102863 0.746094 0.760362
0.733004 0.727940 0.751900
0.935865 0.709729 0.748491
0.987895 0.737745 0.783331
0.992062 0.827884 0.859871
0.995632 0.919339 0.935277
0.019599 0.904587 0.704308
0.019918 0.904560 0.704271
0.023815 0.904269 0.703859
0.062920 0.902536 0.701487
0.566807 0.896610 0.694584
0.871313 0.885425 0.689833
0.996718 0.871498 0.735713
0.994379 0.879437 0.834307
0.996393 0.923126 0.923128
0.113068 0.974451 0.705076
0.113430 0.974445 0.705065
0.117446 0.974383 0.704932
0.145558 0.973966 0.704146
0.458596 0.972262 0.700939
0.800899 0.967600 0.696550
0.945484 0.960589 0.708252
0.999833 0.950123 0.792336
0.998664 0.951638 0.900612
0.470304 1.000000 0.776311
0.470669 1.000000 0.776309
0.474826 1.000000 0.776276
0.500744 1.000000 0.776061
0.598909 1.000000 0.775080
0.769953 1.000000 0.772782
0.910344 1.000000 0.773789
0.984302 0.996358 0.790476
1.000000 0.988670 0.873967
0.729560 1.000000 0.853822
0.729607 1.000000 0.853821
0.730155 1.000000 0.853814
0.733709 1.000000 0.853765
0.750822 1.000000 0.853525
0.805795 1.000000 0.852656
0.893779 1.000000 0.851759
0.964947 1.000000 0.854665
1.000000 1.000000 0.868110
0.034296 0.004217 0.966267
0.036740 0.004201 0.966204
0.078343 0.004005 0.965383
0.612229 0.043273 0.875592
0.795555 0.060809 0.863546
0.880087 0.083431 0.854976
0.948700 0.493109 0.873719
0.982284 0.797176 0.906100
0.994666 0.917402 0.947703
0.033214 0.004364 0.965958
0.035591 0.004343 0.965895
0.076231 0.004130 0.965068
0.609677 0.042875 0.875945
0.794576 0.060849 0.863208
0.879946 0.083862 0.854872
0.948466 0.490721 0.873521
0.982174 0.796363 0.905909
0.994633 0.916957 0.947463
0.022358 0.007559 0.962336
0.024120 0.007507 0.962271
0.054796 0.006913 0.961456
0.575391 0.039154 0.879736
0.782947 0.062345 0.859338
0.878475 0.089048 0.853807
0.948241 0.488455 0.873214
0.981935 0.794454 0.905330
0.994547 0.915678 0.946721
0.005345 0.109362 0.946050
0.005576 0.108597 0.945989
0.012757 0.100158 0.945286
0.331503 0.077692 0.934727
0.744163 0.109855 0.850279
0.873551 0.138183 0.851224
0.951478 0.521584 0.874910
0.981339 0.789055 0.903051
0.994303 0.911674 0.944204
0.005137 0.694269 0.920790
0.005275 0.693952 0.920737
0.007761 0.690777 0.920211
0.078240 0.677950 0.918135
0.712248 0.650997 0.913493
0.895666 0.642097 0.881490
0.969096 0.682673 0.882144
0.983769 0.800493 0.899021
0.994239 0.906501 0.939092
0.007087 0.883601 0.883750
0.007191 0.883569 0.883732
0.008644 0.883202 0.883537
0.030722 0.881086 0.882418
0.519089 0.874127 0.878754
0.864662 0.861805 0.872785
0.983614 0.852916 0.871251
0.993541 0.864194 0.886573
0.995442 0.912952 0.929470
0.090616 0.966468 0.850474
0.090918 0.966462 0.850467
0.094418 0.966394 0.850386
0.120140 0.965965 0.849916
0.409274 0.964064 0.847786
0.792821 0.959169 0.843156
0.943045 0.952180 0.840823
0.999064 0.944437 0.859389
0.998055 0.947370 0.911184
0.442707 1.000000 0.848754
0.443110 1.000000 0.848752
0.447707 1.000000 0.848728
0.476149 1.000000 0.848549
0.583441 1.000000 0.847654
0.764121 1.000000 0.845292
0.908246 0.997663 0.843204
0.983449 0.993548 0.848448
0.999978 0.987377 0.889007
0.725604 1.000000 0.880134
0.725652 1.000000 0.880133
0.726210 1.000000 0.880125
0.729838 1.000000 0.880074
0.747356 1.000000 0.879857
0.803323 1.000000 0.878943
0.892459 1.000000 0.877529
0.964347 1.000000 0.878597
1.000000 1.000000 0.887349
0.007706 0.002605 0.999996
0.008023 0.002605 0.999996
0.013928 0.002565 0.999996
0.369294 0.010262 0.973188
0.844316 0.062996 0.904672
0.901570 0.066304 0.907725
0.912236 0.110240 0.905892
0.972013 0.720511 0.947243
0.989950 0.896502 0.962839
0.007555 0.002605 0.999996
0.007860 0.002605 0.999996
0.013594 0.002605 0.999996
0.361804 0.009647 0.974934
0.843652 0.062960 0.904636
0.901236 0.066310 0.907710
0.912267 0.110556 0.905890
0.971879 0.719129 0.947158
0.989891 0.895944 0.962732
0.006180 0.002678 0.999996
0.006370 0.002678 0.999996
0.010192 0.002678 0.999996
0.280472 0.003670 0.995414
0.835751 0.062636 0.904218
0.897274 0.066358 0.907527
0.912623 0.114243 0.905865
0.971510 0.715312 0.946907
0.989725 0.894354 0.962412
0.003729 0.014128 0.999868
0.003729 0.014065 0.999869
0.003918 0.013356 0.999878
0.070679 0.009336 0.999856
0.765811 0.063961 0.901005
0.874603 0.080966 0.907248
0.915329 0.142013 0.906364
0.970912 0.709141 0.946396
0.989089 0.888867 0.961289
0.003661 0.617123 0.996730
0.003663 0.616377 0.996695
0.003655 0.607391 0.996258
0.022102 0.541380 0.993532
0.663327 0.466424 0.974135
0.873770 0.437225 0.929659
0.950474 0.500321 0.934213
0.973432 0.735229 0.947185
0.988557 0.883232 0.959343
0.006866 0.855003 0.974614
0.006961 0.854943 0.974601
0.008247 0.854285 0.974459
0.025332 0.850777 0.973686
0.382938 0.840761 0.971538
0.854238 0.825018 0.967887
0.960410 0.823207 0.950322
0.983724 0.836958 0.948773
0.990440 0.894723 0.956214
0.048138 0.953796 0.950708
0.048371 0.953789 0.950704
0.051089 0.953700 0.950662
0.071108 0.953156 0.950405
0.279142 0.950902 0.949132
0.777171 0.945195 0.946128
0.938956 0.937621 0.942419
0.996622 0.932844 0.941376
0.996684 0.937697 0.948540
0.365078 0.997684 0.932547
0.365583 0.997682 0.932546
0.371325 0.997664 0.932527
0.406930 0.997546 0.932392
0.540925 0.996979 0.931746
0.750400 0.995068 0.929911
0.903704 0.991468 0.927017
0.981667 0.987374 0.925690
0.999725 0.982931 0.933540
0.714281 1.000000 0.929239
0.714335 1.000000 0.929238
0.714943 1.000000 0.929232
0.718836 1.000000 0.929192
0.737394 1.000000 0.928962
0.796464 1.000000 0.928118
0.889065 1.000000 0.926408
0.962788 1.000000 0.925280
1.000000 1.000000 0.927616
0.003553 0.002454 0.999997
0.003553 0.002454 0.999997
0.003712 0.002454 0.999997
0.007083 0.002454 0.999997
0.908035 0.066360 0.908035
0.908035 0.066360 0.908035
0.908035 0.066360 0.908035
0.917605 0.163362 0.917605
0.985606 0.853969 0.985179
0.003553 0.002454 0.999997
0.003553 0.002454 0.999997
0.003712 0.002454 0.999997
0.006999 0.002454 0.999997
0.908035 0.066360 0.908035
0.908035 0.066360 0.908035
0.908046 0.066463 0.908046
0.917633 0.163643 0.917633
0.985526 0.853141 0.985137
0.003553 0.002454 0.999997
0.003553 0.002454 0.999997
0.003553 0.002454 0.999997
0.006165 0.002454 0.999997
0.908035 0.066360 0.908035
0.908035 0.066360 0.908035
0.908046 0.066463 0.908046
0.917956 0.166895 0.917956
0.985301 0.850815 0.985017
0.003553 0.002454 0.999997
0.003553 0.002454 0.999997
0.003553 0.002454 0.999997
0.003948 0.002454 0.999997
0.882075 0.064999 0.906674
0.908035 0.066360 0.908035
0.908298 0.068997 0.908298
0.920281 0.190869 0.920281
0.984621 0.843790 0.984621
0.003612 0.460588 0.999997
0.003609 0.459220 0.999997
0.003572 0.443151 0.999997
0.003577 0.322192 0.999852
0.447318 0.097873 0.968394
0.848311 0.131347 0.911280
0.918123 0.168587 0.918123
0.943939 0.430836 0.943939
0.983980 0.837219 0.983980
0.003718 0.860343 1.000000
0.003720 0.860117 1.000000
0.003731 0.857494 0.999997
0.003633 0.839095 0.999938
0.122898 0.797204 1.000000
0.837226 0.772387 0.998325
0.954124 0.770760 0.976330
0.978570 0.782270 0.978570
0.986213 0.860458 0.984456
0.023757 0.940218 0.999965
0.023889 0.940206 0.999965
0.025445 0.940075 0.999963
0.037091 0.939217 0.999979
0.132228 0.935835 0.999695
0.747741 0.928529 0.997755
0.933637 0.919801 0.994416
0.991985 0.918946 0.985876
0.992469 0.923517 0.984095
0.201101 0.990464 0.986510
0.201443 0.990463 0.986508
0.205385 0.990448 0.986491
0.235941 0.990305 0.986419
0.430674 0.989601 0.986041
0.723838 0.987335 0.984786
0.896841 0.983239 0.982610
0.979287 0.978858 0.980487
0.998761 0.975897 0.979497
0.689571 1.000000 0.975890
0.689632 1.000000 0.975891
0.690330 1.000000 0.975886
0.694859 1.000000 0.975862
0.716571 1.000000 0.975737
0.782913 1.000000 0.975041
0.882961 1.000000 0.973621
0.960220 1.000000 0.971911
1.000000 1.000000 0.971132
0.003553 0.002454 0.999997
0.003553 0.002454 0.999997
0.003553 0.002454 0.999997
0.003553 0.002454 0.999997
0.094082 0.002511 0.999995
0.908035 0.066360 0.908035
0.908035 0.066360 0.908035
0.908035 0.066360 0.908035
0.934341 0.333379 0.934341
0.003553 0.002454 0.999997
0.003553 0.002454 0.999997
0.003553 0.002454 0.999997
0.003553 0.002454 0.999997
0.093472 0.002512 1.000000
0.908035 0.066360 0.908035
0.908035 0.066360 0.908035
0.908035 0.066360 0.908035
0.934385 0.333828 0.934385
0.003553 0.002454 0.999997
0.003553 0.002454 0.999997
0.003553 0.002454 0.999997
0.003553 0.002454 0.999997
0.086271 0.002507 0.999962
0.908035 0.066360 0.908035
0.908035 0.066360 0.908035
0.908035 0.066360 0.908035
0.934896 0.338972 0.934896
0.003553 0.002454 0.999997
0.003553 0.002454 0.999997
0.003553 0.002454 0.999997
0.003553 0.002454 0.999997
0.047347 0.002467 0.999898
0.908035 0.066360 0.908035
0.908035 0.066360 0.908035
0.908069 0.066699 0.908069
0.938328 0.373921 0.938328
0.003553 0.002454 0.999997
0.003553 0.002454 0.999997
0.003553 0.002454 0.999997
0.003553 0.002454 0.999997
0.003553 0.002454 0.999997
0.908035 0.066360 0.908035
0.908035 0.066360 0.908035
0.913057 0.117349 0.913057
0.954885 0.542134 0.954885
0.003587 0.924897 0.999935
0.003587 0.924753 0.999935
0.003581 0.923076 0.999929
0.003607 0.911380 0.999931
0.003567 0.828316 0.999916
0.794437 0.660081 0.987721
0.942896 0.650797 0.964523
0.969113 0.686145 0.969113
0.976809 0.764446 0.976809
0.003615 0.958421 1.000000
0.003615 0.958312 1.000000
0.003620 0.957047 1.000000
0.003658 0.948286 1.000000
0.021390 0.922871 0.999962
0.663670 0.909373 0.999993
0.926424 0.897551 0.999384
0.989504 0.897463 0.989888
0.990145 0.899899 0.990145
0.091277 0.983404 1.000000
0.091405 0.983402 1.000000
0.092893 0.983368 1.000000
0.103167 0.983161 1.000000
0.166972 0.982196 1.000000
0.658334 0.979128 1.000000
0.885896 0.974142 1.000000
0.976014 0.969520 0.999306
0.996853 0.968058 0.996853
0.630360 1.000000 1.000000
0.630451 1.000000 1.000000
0.631486 1.000000 1.000000
0.638176 1.000000 1.000000
0.669004 1.000000 1.000000
0.755813 1.000000 1.000000
0.872879 1.000000 1.000000
0.956719 1.000000 1.000000
1.000000 1.000000 1.000000
