滤镜资源/Lutify.me Free 3D LUTs Package/3D LUTs/Monitoring LUTs/RED DSMC2/Scarlet-W IPP2/Howlite - Scarlet-W-IPP2.cube
# Website: https://lutify.me
# Contact: help@lutify.me
# Created by: Lutify.me
# Copyright: (c) Copyright Lutify.me 2016, G.T. Colord LTD
LUT_3D_SIZE 5
0.000000 0.000000 0.000000
0.298786 0.020649 0.047435
0.878682 0.128232 0.282856
0.986338 0.709000 0.767086
0.996646 0.941188 0.953449
0.003543 0.254532 0.006219
0.219240 0.235393 0.005452
0.871977 0.181271 0.256783
0.986341 0.707171 0.763132
0.996599 0.939784 0.952259
0.006207 0.800471 0.066610
0.011495 0.799086 0.064917
0.747346 0.776927 0.060018
0.988644 0.768375 0.715959
0.996399 0.931389 0.942679
0.122557 0.978049 0.561155
0.126968 0.977984 0.560932
0.477105 0.975923 0.555475
0.946552 0.964115 0.599857
0.998669 0.954674 0.910033
0.730750 1.000000 0.844520
0.731340 1.000000 0.844513
0.751867 1.000000 0.844231
0.894177 1.000000 0.842715
1.000000 1.000000 0.861679
0.018806 0.003601 0.372894
0.276589 0.023505 0.327479
0.864912 0.122201 0.372710
0.986060 0.704312 0.765986
0.996602 0.940089 0.952607
0.003543 0.213900 0.317208
0.208943 0.194785 0.307793
0.864809 0.164911 0.343480
0.986020 0.702025 0.761679
0.996554 0.938672 0.951407
0.005908 0.798076 0.109199
0.010665 0.796681 0.106643
0.746652 0.774540 0.097165
0.988563 0.766581 0.714911
0.996326 0.929902 0.941393
0.122273 0.977939 0.567509
0.126675 0.977873 0.567295
0.476571 0.975812 0.561855
0.946516 0.964007 0.604013
0.998706 0.954300 0.908178
0.730717 1.000000 0.844775
0.731309 1.000000 0.844766
0.751840 1.000000 0.844485
0.894168 1.000000 0.842964
1.000000 1.000000 0.861852
0.050853 0.006869 0.849968
0.187288 0.005949 0.848121
0.782248 0.065191 0.754534
0.972941 0.646037 0.807764
0.995983 0.929399 0.946356
0.025621 0.023995 0.840881
0.110347 0.020907 0.839045
0.775091 0.074824 0.749779
0.972864 0.643331 0.805900
0.995903 0.927874 0.945123
0.003779 0.755491 0.765230
0.004284 0.753715 0.764297
0.733004 0.727940 0.751900
0.987895 0.737745 0.783331
0.995632 0.919339 0.935277
0.113068 0.974451 0.705076
0.117446 0.974383 0.704932
0.458596 0.972262 0.700939
0.945484 0.960589 0.708252
0.998664 0.951638 0.900612
0.729560 1.000000 0.853822
0.730155 1.000000 0.853814
0.750822 1.000000 0.853525
0.893779 1.000000 0.851759
1.000000 1.000000 0.868110
0.007706 0.002605 0.999996
0.013928 0.002565 0.999996
0.844316 0.062996 0.904672
0.912236 0.110240 0.905892
0.989950 0.896502 0.962839
0.006180 0.002678 0.999996
0.010192 0.002678 0.999996
0.835751 0.062636 0.904218
0.912623 0.114243 0.905865
0.989725 0.894354 0.962412
0.003661 0.617123 0.996730
0.003655 0.607391 0.996258
0.663327 0.466424 0.974135
0.950474 0.500321 0.934213
0.988557 0.883232 0.959343
0.048138 0.953796 0.950708
0.051089 0.953700 0.950662
0.279142 0.950902 0.949132
0.938956 0.937621 0.942419
0.996684 0.937697 0.948540
0.714281 1.000000 0.929239
0.714943 1.000000 0.929232
0.737394 1.000000 0.928962
0.889065 1.000000 0.926408
1.000000 1.000000 0.927616
0.003553 0.002454 0.999997
0.003553 0.002454 0.999997
0.094082 0.002511 0.999995
0.908035 0.066360 0.908035
0.934341 0.333379 0.934341
0.003553 0.002454 0.999997
0.003553 0.002454 0.999997
0.086271 0.002507 0.999962
0.908035 0.066360 0.908035
0.934896 0.338972 0.934896
0.003553 0.002454 0.999997
0.003553 0.002454 0.999997
0.003553 0.002454 0.999997
0.908035 0.066360 0.908035
0.954885 0.542134 0.954885
0.003615 0.958421 1.000000
0.003620 0.957047 1.000000
0.021390 0.922871 0.999962
0.926424 0.897551 0.999384
0.990145 0.899899 0.990145
0.630360 1.000000 1.000000
0.631486 1.000000 1.000000
0.669004 1.000000 1.000000
0.872879 1.000000 1.000000
1.000000 1.000000 1.000000
