滤镜资源/Lutify.me Free 3D LUTs Package/3D LUTs/Monitoring LUTs/RED DSMC2/Scarlet-W IPP2/Howlite - Scarlet-W-IPP2.cube
# Website: https://lutify.me
# Contact: help@lutify.me
# Created by: Lutify.me
# Copyright: (c) Copyright Lutify.me 2016, G.T. Colord LTD
LUT_3D_SIZE 17
0.000000 0.000000 0.000000
0.018683 0.002796 0.005247
0.089884 0.004313 0.006713
0.161524 0.008219 0.016866
0.298786 0.020649 0.047435
0.498869 0.036858 0.084385
0.672018 0.057077 0.132132
0.792019 0.084171 0.194042
0.878682 0.128232 0.282856
0.934176 0.225369 0.429179
0.971452 0.426190 0.575696
0.980616 0.596044 0.686095
0.986338 0.709000 0.767086
0.990299 0.789148 0.829747
0.993092 0.852993 0.881180
0.995090 0.902920 0.922005
0.996646 0.941188 0.953449
0.000000 0.000027 0.000000
0.000004 0.000011 0.000000
0.082716 0.004690 0.006581
0.158690 0.012677 0.013830
0.295831 0.024567 0.044091
0.496541 0.039620 0.081841
0.670481 0.058949 0.130175
0.791132 0.085461 0.192626
0.878171 0.129047 0.281568
0.934009 0.225770 0.427978
0.971507 0.425747 0.574888
0.980573 0.595506 0.685549
0.986344 0.709072 0.767075
0.990300 0.789175 0.829742
0.993072 0.852385 0.880678
0.995090 0.902924 0.922004
0.996646 0.941190 0.953449
0.003543 0.059394 0.005038
0.003543 0.058061 0.005038
0.066335 0.055257 0.005324
0.153965 0.044553 0.011399
0.290323 0.036262 0.038154
0.492554 0.046194 0.077125
0.668292 0.063197 0.126669
0.789665 0.088304 0.190019
0.877574 0.131135 0.279649
0.933971 0.227552 0.426478
0.971626 0.424911 0.573262
0.980566 0.595189 0.684963
0.986324 0.708184 0.766277
0.990284 0.788842 0.829423
0.993073 0.852406 0.880674
0.995066 0.902456 0.921611
0.996633 0.940830 0.953154
0.003543 0.129133 0.005038
0.003543 0.128445 0.005038
0.004123 0.127065 0.005038
0.134221 0.121784 0.005038
0.271717 0.111196 0.021013
0.477989 0.092768 0.062110
0.661118 0.085336 0.114388
0.786040 0.102177 0.181416
0.875645 0.141270 0.272698
0.934825 0.236131 0.421086
0.972649 0.428597 0.571057
0.980606 0.594791 0.683116
0.986320 0.707786 0.765399
0.990241 0.787911 0.828451
0.993055 0.851876 0.880158
0.995045 0.902013 0.921211
0.996621 0.940478 0.952857
0.003543 0.254532 0.006219
0.003543 0.253881 0.006178
0.003702 0.252583 0.006109
0.023400 0.247603 0.005842
0.219240 0.235393 0.005452
0.446976 0.216066 0.032261
0.645658 0.190414 0.090887
0.778169 0.165584 0.160858
0.871977 0.181271 0.256783
0.936403 0.271473 0.408621
0.974378 0.440477 0.564212
0.980893 0.596829 0.679644
0.986341 0.707171 0.763132
0.990181 0.786699 0.826769
0.993004 0.850292 0.878598
0.995004 0.901158 0.920403
0.996599 0.939784 0.952259
0.003702 0.430988 0.008862
0.003702 0.430577 0.008801
0.003761 0.429757 0.008696
0.005222 0.426556 0.008313
0.118827 0.418411 0.007561
0.363761 0.403201 0.006710
0.620455 0.376627 0.045804
0.767288 0.345417 0.125240
0.866010 0.326142 0.228234
0.934013 0.363257 0.378387
0.975723 0.476014 0.551306
0.981750 0.604351 0.672080
0.986501 0.707691 0.758738
0.990115 0.785533 0.823926
0.992950 0.848540 0.876436
0.994928 0.899504 0.918760
0.996556 0.938408 0.951045
0.003830 0.591669 0.016520
0.003862 0.591476 0.016444
0.003955 0.591085 0.016293
0.004643 0.589523 0.015714
0.019424 0.585380 0.014349
0.221106 0.577136 0.012422
0.524063 0.563088 0.010898
0.740068 0.538544 0.061494
0.860566 0.511466 0.170254
0.930685 0.504492 0.323318
0.975053 0.546496 0.522724
0.982586 0.628122 0.658404
0.986672 0.712870 0.750595
0.990040 0.784665 0.818292
0.992883 0.846066 0.872493
0.994811 0.896804 0.915798
0.996504 0.936420 0.949178
0.004418 0.711311 0.033685
0.004459 0.711225 0.033621
0.004576 0.711050 0.033495
0.005194 0.710338 0.032988
0.010303 0.708366 0.031664
0.069349 0.704196 0.029362
0.385711 0.696769 0.026670
0.652345 0.685629 0.025793
0.829670 0.665394 0.097630
0.925186 0.645850 0.242503
0.973464 0.645590 0.466416
0.984362 0.677089 0.634052
0.987276 0.730534 0.737256
0.990142 0.788993 0.809981
0.992819 0.845109 0.866908
0.994729 0.894126 0.911748
0.996435 0.934036 0.946550
0.006207 0.800471 0.066610
0.006283 0.800433 0.066560
0.006452 0.800353 0.066460
0.007266 0.800028 0.066049
0.011495 0.799086 0.064917
0.033911 0.796981 0.062574
0.182409 0.792915 0.059198
0.552254 0.786293 0.056629
0.747346 0.776927 0.060018
0.894564 0.759933 0.166228
0.967008 0.745664 0.364586
0.990602 0.746832 0.588163
0.988644 0.768375 0.715959
0.990685 0.804758 0.797547
0.992911 0.848989 0.858948
0.994796 0.892888 0.906263
0.996399 0.931389 0.942679
0.013108 0.868036 0.128163
0.013241 0.868019 0.128124
0.013516 0.867984 0.128043
0.014716 0.867839 0.127706
0.018852 0.867409 0.126735
0.033102 0.866379 0.124596
0.093003 0.864215 0.120974
0.395591 0.860406 0.116836
0.678270 0.854528 0.116638
0.820021 0.846698 0.131567
0.939933 0.832357 0.276627
0.992446 0.821590 0.517354
0.994338 0.821780 0.678982
0.992306 0.836052 0.778284
0.993352 0.862462 0.847312
0.995076 0.896264 0.899166
0.996575 0.930349 0.937941
0.030541 0.917765 0.231276
0.030682 0.917757 0.231249
0.030974 0.917741 0.231195
0.032202 0.917674 0.230969
0.036096 0.917473 0.230310
0.047580 0.916974 0.228783
0.084086 0.915885 0.225800
0.233187 0.913775 0.221304
0.589586 0.910234 0.218249
0.770034 0.905206 0.225078
0.875334 0.898855 0.260938
0.970399 0.887083 0.455590
0.998822 0.878749 0.631222
0.996885 0.878008 0.747876
0.995256 0.887428 0.829690
0.995472 0.906954 0.888535
0.996830 0.932713 0.931441
0.065116 0.953283 0.406814
0.065250 0.953279 0.406796
0.065524 0.953272 0.406759
0.066689 0.953242 0.406609
0.070342 0.953151 0.406157
0.080392 0.952914 0.405102
0.106965 0.952362 0.402878
0.188799 0.951253 0.398869
0.504999 0.949238 0.394216
0.717030 0.946094 0.394715
0.839024 0.941907 0.412586
0.916516 0.936957 0.458992
0.990584 0.927418 0.596311
0.999481 0.920947 0.714629
0.998556 0.919585 0.804175
0.997335 0.926097 0.873055
0.997200 0.940968 0.922892
0.122557 0.978049 0.561155
0.122671 0.978047 0.561149
0.122905 0.978044 0.561137
0.123895 0.978029 0.561087
0.126968 0.977984 0.560932
0.135214 0.977869 0.560546
0.157119 0.977597 0.559675
0.237967 0.977030 0.558039
0.477105 0.975923 0.555475
0.676054 0.974058 0.553337
0.804344 0.971351 0.555801
0.890486 0.967955 0.569788
0.946552 0.964115 0.599857
0.999987 0.956383 0.694080
0.999931 0.951229 0.779853
0.999363 0.949820 0.853136
0.998669 0.954674 0.910033
0.235389 0.995228 0.665661
0.235584 0.995228 0.665659
0.235988 0.995226 0.665655
0.237688 0.995216 0.665635
0.243126 0.995191 0.665571
0.258157 0.995133 0.665388
0.297276 0.994999 0.665091
0.386283 0.994703 0.664398
0.522698 0.994103 0.663151
0.664401 0.993020 0.661498
0.779617 0.991333 0.660767
0.866857 0.989080 0.663957
0.927709 0.986385 0.674689
0.968474 0.983470 0.695437
1.000000 0.977183 0.766104
0.999991 0.972923 0.835390
0.999881 0.971745 0.894378
0.478941 1.000000 0.740706
0.479058 1.000000 0.740704
0.479295 1.000000 0.740702
0.480301 1.000000 0.740692
0.483347 1.000000 0.740662
0.491006 1.000000 0.740587
0.508625 1.000000 0.740410
0.543835 1.000000 0.740156
0.604030 1.000000 0.739530
0.685268 1.000000 0.738502
0.771917 1.000000 0.737468
0.850201 0.999987 0.737593
0.911080 1.000000 0.740949
0.954690 0.999550 0.749681
0.984577 0.997309 0.765079
0.999991 0.992036 0.822849
1.000000 0.988505 0.880604
0.634340 1.000000 0.798051
0.634380 1.000000 0.798050
0.634461 1.000000 0.798049
0.634801 1.000000 0.798045
0.635832 1.000000 0.798033
0.638453 1.000000 0.798003
0.644633 1.000000 0.797930
0.657889 1.000000 0.797772
0.683440 1.000000 0.797447
0.725529 1.000000 0.796893
0.782267 1.000000 0.796055
0.844047 1.000000 0.795544
0.899181 1.000000 0.796189
0.942634 1.000000 0.799454
0.974340 0.999983 0.806606
0.996558 0.999996 0.818533
1.000000 1.000000 0.869141
0.730750 1.000000 0.844520
0.730764 1.000000 0.844520
0.730797 1.000000 0.844520
0.730930 1.000000 0.844518
0.731340 1.000000 0.844513
0.732384 1.000000 0.844499
0.734873 1.000000 0.844465
0.740412 1.000000 0.844390
0.751867 1.000000 0.844231
0.773106 1.000000 0.843931
0.806540 1.000000 0.843397
0.849468 1.000000 0.842824
0.894177 1.000000 0.842715
0.933698 1.000000 0.843518
0.965132 1.000000 0.846414
0.988574 1.000000 0.852156
1.000000 1.000000 0.861679
0.000000 0.000000 0.000069
0.001476 0.000031 0.000068
0.088921 0.004464 0.010457
0.160997 0.007970 0.032748
0.298543 0.019919 0.059383
0.498116 0.036234 0.092603
0.671103 0.056533 0.137449
0.791373 0.083654 0.197116
0.878218 0.127660 0.284562
0.933780 0.224249 0.429523
0.971283 0.424951 0.575379
0.980554 0.595243 0.685712
0.986334 0.708987 0.767137
0.990299 0.789142 0.829767
0.993071 0.852373 0.880688
0.995090 0.902919 0.922008
0.996646 0.941188 0.953450
0.000000 0.000004 0.000004
0.000002 0.000001 0.000003
0.081734 0.004303 0.006974
0.158246 0.011292 0.026171
0.295588 0.023618 0.055320
0.496422 0.038989 0.089966
0.670004 0.058446 0.135592
0.790803 0.085043 0.195901
0.878169 0.128806 0.283947
0.933902 0.225542 0.429242
0.971338 0.424512 0.574573
0.980521 0.594699 0.685161
0.986324 0.708541 0.766739
0.990282 0.788780 0.829453
0.993072 0.852383 0.880686
0.995066 0.902449 0.921615
0.996646 0.941189 0.953450
0.003543 0.056300 0.005038
0.003543 0.054873 0.005038
0.064870 0.051843 0.005353
0.153384 0.039897 0.016733
0.290026 0.034684 0.047988
0.491772 0.045366 0.084684
0.667809 0.062653 0.131949
0.789333 0.087872 0.193253
0.877135 0.130526 0.281343
0.933571 0.226435 0.426836
0.971538 0.424801 0.573673
0.980519 0.594381 0.684573
0.986320 0.708170 0.766329
0.990267 0.788448 0.829133
0.993051 0.851785 0.880181
0.995066 0.902456 0.921614
0.996633 0.940830 0.953156
0.003543 0.127646 0.005567
0.003543 0.126952 0.005498
0.004015 0.125559 0.005406
0.133802 0.120225 0.005266
0.271035 0.109744 0.026763
0.477092 0.091033 0.068087
0.660601 0.084573 0.119156
0.785365 0.101610 0.184375
0.875195 0.140643 0.274331
0.934326 0.235062 0.421484
0.972487 0.427402 0.570744
0.980560 0.593991 0.682724
0.986293 0.707259 0.765061
0.990223 0.787517 0.828161
0.993034 0.851254 0.879663
0.995045 0.902012 0.921215
0.996621 0.940478 0.952859
0.003543 0.253223 0.006913
0.003543 0.252569 0.006838
0.003702 0.251267 0.006719
0.022727 0.246270 0.006339
0.218904 0.234023 0.005736
0.445800 0.214938 0.035597
0.645063 0.189416 0.094571
0.777444 0.164793 0.163455
0.871501 0.180573 0.258241
0.936090 0.270279 0.409027
0.974375 0.440329 0.564656
0.980849 0.596054 0.679249
0.986314 0.706651 0.762791
0.990181 0.786694 0.826790
0.993003 0.850289 0.878607
0.994980 0.900679 0.920009
0.996598 0.939784 0.952260
0.003543 0.430211 0.009741
0.003702 0.429800 0.009673
0.003761 0.428978 0.009543
0.005171 0.425774 0.009062
0.118407 0.417612 0.008135
0.363520 0.402394 0.007087
0.619686 0.375957 0.048027
0.766763 0.344852 0.127633
0.865491 0.325605 0.229473
0.934013 0.362942 0.380016
0.975686 0.475134 0.550972
0.981743 0.604307 0.672235
0.986476 0.707190 0.758391
0.990098 0.785147 0.823631
0.992950 0.848537 0.876445
0.994903 0.899023 0.918362
0.996556 0.938407 0.951047
0.003830 0.591317 0.017701
0.003862 0.591123 0.017622
0.003955 0.590732 0.017460
0.004637 0.589168 0.016847
0.019290 0.585025 0.015402
0.220861 0.576763 0.013253
0.523945 0.562717 0.011531
0.740025 0.538183 0.063211
0.860484 0.511190 0.172087
0.930316 0.504222 0.323692
0.974855 0.546002 0.522356
0.982562 0.627597 0.657968
0.986652 0.712420 0.750233
0.990040 0.784659 0.818316
0.992883 0.846063 0.872502
0.994811 0.896803 0.915801
0.996504 0.936420 0.949180
0.004409 0.711157 0.034748
0.004460 0.711070 0.034683
0.004569 0.710896 0.034552
0.005185 0.710184 0.034034
0.010263 0.708211 0.032674
0.069205 0.704041 0.030307
0.385571 0.696615 0.027535
0.652298 0.685479 0.026613
0.828878 0.665384 0.098280
0.925177 0.645739 0.243679
0.973252 0.645439 0.465960
0.984347 0.676803 0.633554
0.987259 0.730202 0.736862
0.990142 0.788987 0.810008
0.992819 0.845106 0.866918
0.994728 0.894125 0.911752
0.996417 0.933664 0.946229
0.006197 0.800405 0.067554
0.006274 0.800367 0.067504
0.006443 0.800288 0.067402
0.007255 0.799962 0.066986
0.011470 0.799020 0.065839
0.033863 0.796913 0.063469
0.182291 0.792848 0.060047
0.552196 0.786225 0.057435
0.747327 0.776862 0.060833
0.893982 0.759972 0.166376
0.966731 0.745673 0.364043
0.990595 0.746810 0.588441
0.988634 0.768198 0.715509
0.990673 0.804528 0.797203
0.992911 0.848986 0.858960
0.994796 0.892887 0.906267
0.996399 0.931389 0.942680
0.013096 0.868005 0.129007
0.013229 0.867987 0.128967
0.013503 0.867952 0.128886
0.014703 0.867807 0.128547
0.018836 0.867377 0.127569
0.033078 0.866349 0.125414
0.092962 0.864185 0.121769
0.395523 0.860375 0.117598
0.678249 0.854497 0.117386
0.820011 0.846669 0.132365
0.939517 0.832405 0.276321
0.992269 0.821607 0.516591
0.994353 0.821733 0.678415
0.992301 0.835938 0.777897
0.993332 0.862129 0.846692
0.995057 0.895890 0.898695
0.996575 0.930349 0.937943
0.030528 0.917751 0.231946
0.030670 0.917743 0.231919
0.030961 0.917728 0.231865
0.032189 0.917661 0.231639
0.036082 0.917459 0.230979
0.047563 0.916961 0.229446
0.084064 0.915872 0.226449
0.233131 0.913762 0.221933
0.589566 0.910221 0.218864
0.770027 0.905191 0.225699
0.875331 0.898840 0.261620
0.970398 0.887072 0.455994
0.998832 0.878770 0.630608
0.996894 0.877984 0.747414
0.995266 0.887267 0.828970
0.995472 0.906952 0.888540
0.996830 0.932713 0.931443
0.065106 0.953277 0.407306
0.065239 0.953273 0.407289
0.065514 0.953266 0.407253
0.066678 0.953236 0.407103
0.070331 0.953145 0.406651
0.080380 0.952909 0.405597
0.106951 0.952356 0.403375
0.188774 0.951246 0.399370
0.504981 0.949231 0.394718
0.717023 0.946088 0.395203
0.839020 0.941900 0.413015
0.916514 0.936951 0.459321
0.990379 0.927452 0.595806
0.999481 0.920966 0.714167
0.998555 0.919584 0.804196
0.997335 0.926096 0.873063
0.997188 0.940781 0.922469
0.122550 0.978046 0.561324
0.122663 0.978044 0.561319
0.122897 0.978041 0.561307
0.123887 0.978026 0.561256
0.126960 0.977980 0.561101
0.135206 0.977866 0.560717
0.157108 0.977595 0.559844
0.237948 0.977027 0.558209
0.477092 0.975921 0.555645
0.676049 0.974054 0.553504
0.804341 0.971349 0.555962
0.890485 0.967951 0.569929
0.946551 0.964112 0.599966
0.999988 0.956411 0.693713
0.999931 0.951228 0.779875
0.999363 0.949819 0.853145
0.998680 0.954583 0.909543
0.235378 0.995227 0.665726
0.235572 0.995226 0.665723
0.235976 0.995224 0.665720
0.237679 0.995215 0.665701
0.243115 0.995189 0.665635
0.258146 0.995132 0.665453
0.297259 0.994997 0.665156
0.386271 0.994702 0.664463
0.522691 0.994102 0.663216
0.664397 0.993019 0.661562
0.779615 0.991331 0.660829
0.866856 0.989080 0.664017
0.927709 0.986384 0.674742
0.968473 0.983469 0.695481
1.000000 0.977204 0.765817
0.999990 0.972952 0.834759
0.999881 0.971745 0.894382
0.478934 1.000000 0.740734
0.479051 1.000000 0.740732
0.479289 1.000000 0.740730
0.480294 1.000000 0.740721
0.483340 1.000000 0.740690
0.490998 1.000000 0.740615
0.508619 1.000000 0.740438
0.543830 1.000000 0.740184
0.604027 1.000000 0.739559
0.685265 1.000000 0.738531
0.771916 1.000000 0.737496
0.850200 0.999987 0.737620
0.911080 1.000000 0.740975
0.954690 0.999549 0.749705
0.984576 0.997308 0.765098
0.999991 0.992035 0.822859
1.000000 0.988505 0.880608
0.634339 1.000000 0.798064
0.634379 1.000000 0.798064
0.634458 1.000000 0.798063
0.634798 1.000000 0.798059
0.635831 1.000000 0.798048
0.638451 1.000000 0.798016
0.644631 1.000000 0.797943
0.657887 1.000000 0.797786
0.683438 1.000000 0.797461
0.725528 1.000000 0.796906
0.782266 1.000000 0.796069
0.844046 1.000000 0.795558
0.899181 1.000000 0.796202
0.942634 1.000000 0.799466
0.974340 0.999983 0.806617
0.996558 0.999996 0.818542
1.000000 1.000000 0.869145
0.730749 1.000000 0.844527
0.730764 1.000000 0.844526
0.730796 1.000000 0.844526
0.730929 1.000000 0.844525
0.731339 1.000000 0.844519
0.732383 1.000000 0.844505
0.734872 1.000000 0.844472
0.740412 1.000000 0.844397
0.751866 1.000000 0.844237
0.773106 1.000000 0.843937
0.806540 1.000000 0.843403
0.849467 1.000000 0.842831
0.894178 1.000000 0.842722
0.933697 1.000000 0.843524
0.965132 1.000000 0.846421
0.988573 1.000000 0.852161
1.000000 1.000000 0.861684
0.003543 0.002458 0.120905
0.008507 0.002458 0.119698
0.084759 0.007904 0.106976
0.153972 0.011889 0.101369
0.297167 0.019141 0.093520
0.497254 0.035085 0.111478
0.670164 0.055597 0.148796
0.790721 0.082828 0.204084
0.877483 0.126975 0.288790
0.933270 0.222898 0.431192
0.971022 0.423593 0.575493
0.980489 0.594392 0.685473
0.986295 0.707922 0.766470
0.990281 0.788742 0.829499
0.993071 0.852369 0.880704
0.995065 0.902444 0.921622
0.996645 0.941188 0.953452
0.003543 0.002458 0.113072
0.003543 0.002458 0.111754
0.077371 0.007399 0.099543
0.151847 0.013056 0.093584
0.294860 0.022110 0.087590
0.494904 0.037663 0.108315
0.669057 0.057459 0.146923
0.789826 0.084101 0.202613
0.877060 0.127743 0.287513
0.933100 0.223301 0.430016
0.971076 0.423155 0.574690
0.980466 0.593844 0.684918
0.986301 0.707994 0.766458
0.990265 0.788380 0.829184
0.993071 0.852379 0.880702
0.995065 0.902447 0.921621
0.996632 0.940826 0.953158
0.003543 0.049234 0.094427
0.003543 0.047533 0.092747
0.061575 0.044279 0.087713
0.150452 0.031121 0.073366
0.289530 0.031822 0.076536
0.490876 0.043817 0.102356
0.666394 0.061513 0.143092
0.788346 0.086908 0.199879
0.876598 0.129734 0.285579
0.933056 0.225084 0.428539
0.971195 0.422328 0.573074
0.980464 0.593527 0.684330
0.986266 0.707113 0.765658
0.990249 0.788047 0.828864
0.993051 0.851780 0.880197
0.995042 0.901978 0.921227
0.996633 0.940830 0.953158
0.003543 0.124617 0.014384
0.003543 0.123912 0.013482
0.003866 0.122493 0.011938
0.132952 0.117058 0.008250
0.269521 0.106905 0.044478
0.476010 0.087430 0.082401
0.659571 0.083062 0.129515
0.784676 0.100632 0.190830
0.874741 0.139717 0.278459
0.933601 0.233791 0.423292
0.972230 0.426088 0.570876
0.980505 0.593143 0.682483
0.986263 0.706718 0.764779
0.990206 0.787115 0.827892
0.993034 0.851249 0.879680
0.995020 0.901534 0.920826
0.996621 0.940477 0.952861
0.003543 0.250592 0.009864
0.003543 0.249934 0.009697
0.003702 0.248622 0.009390
0.021404 0.243590 0.008407
0.218230 0.231264 0.006891
0.444199 0.212602 0.043906
0.643872 0.187401 0.102604
0.776676 0.163092 0.169480
0.871012 0.179422 0.262002
0.935768 0.268704 0.410917
0.974279 0.438058 0.564031
0.980795 0.595234 0.679010
0.986284 0.706115 0.762507
0.990164 0.786295 0.826520
0.993003 0.850285 0.878624
0.994979 0.900678 0.920015
0.996598 0.939783 0.952262
0.003543 0.428649 0.012314
0.003702 0.428237 0.012205
0.003761 0.427413 0.011991
0.005087 0.424198 0.011231
0.117554 0.416006 0.009769
0.363033 0.400766 0.008166
0.618136 0.374600 0.052927
0.765344 0.343793 0.132400
0.864956 0.324505 0.232742
0.933371 0.361370 0.381083
0.975609 0.473352 0.550336
0.981666 0.602898 0.671435
0.986448 0.706673 0.758103
0.990081 0.784754 0.823358
0.992929 0.847913 0.875950
0.994903 0.899022 0.918368
0.996556 0.938408 0.951049
0.003798 0.590603 0.020329
0.003862 0.590409 0.020238
0.003955 0.590017 0.020059
0.004609 0.588452 0.019370
0.019018 0.584305 0.017750
0.220365 0.576006 0.015274
0.523703 0.561964 0.013070
0.738969 0.537625 0.066283
0.859775 0.510755 0.175105
0.929862 0.503774 0.325649
0.974655 0.545397 0.522595
0.982538 0.627028 0.657718
0.986631 0.711952 0.749936
0.990006 0.783922 0.817706
0.992862 0.845448 0.871997
0.994787 0.896319 0.915398
0.996490 0.936046 0.948875
0.004402 0.710843 0.037005
0.004453 0.710757 0.036937
0.004563 0.710581 0.036799
0.005164 0.709870 0.036254
0.010177 0.707895 0.034819
0.068914 0.703728 0.032313
0.385284 0.696300 0.029371
0.652199 0.685171 0.028352
0.828842 0.665096 0.100939
0.924745 0.645597 0.245131
0.973008 0.645228 0.466324
0.984333 0.676482 0.633277
0.987242 0.729853 0.736541
0.990111 0.788344 0.809371
0.992791 0.844527 0.866393
0.994705 0.893648 0.911335
0.996417 0.933663 0.946231
0.006179 0.800271 0.069519
0.006257 0.800232 0.069468
0.006421 0.800153 0.069363
0.007229 0.799827 0.068937
0.011423 0.798884 0.067761
0.033765 0.796775 0.065334
0.182048 0.792710 0.061819
0.552080 0.786087 0.059115
0.747288 0.776728 0.062534
0.893391 0.759951 0.167570
0.966427 0.745644 0.364585
0.990594 0.746707 0.588115
0.988623 0.768008 0.715146
0.990662 0.804290 0.796891
0.992886 0.848493 0.858404
0.994795 0.892885 0.906276
0.996382 0.931021 0.942348
0.013071 0.867941 0.130753
0.013203 0.867924 0.130713
0.013477 0.867889 0.130630
0.014677 0.867744 0.130287
0.018803 0.867314 0.129298
0.033029 0.866287 0.127107
0.092875 0.864124 0.123412
0.395381 0.860312 0.119177
0.678208 0.854436 0.118931
0.819994 0.846610 0.133946
0.939510 0.832358 0.277869
0.992082 0.821608 0.516223
0.994364 0.821675 0.677966
0.992296 0.835819 0.777549
0.993332 0.862124 0.846720
0.995057 0.895888 0.898705
0.996561 0.930005 0.937592
0.030504 0.917724 0.233331
0.030645 0.917716 0.233304
0.030937 0.917700 0.233249
0.032164 0.917633 0.233021
0.036055 0.917432 0.232356
0.047530 0.916933 0.230810
0.084018 0.915844 0.227786
0.233019 0.913733 0.223229
0.589522 0.910194 0.220130
0.770015 0.905160 0.226981
0.875321 0.898815 0.263022
0.970105 0.887105 0.455814
0.998839 0.878783 0.630132
0.996903 0.877956 0.747002
0.995264 0.887263 0.829005
0.995467 0.906699 0.888017
0.996817 0.932429 0.931063
0.065084 0.953263 0.408313
0.065218 0.953260 0.408295
0.065493 0.953253 0.408261
0.066657 0.953223 0.408111
0.070309 0.953132 0.407659
0.080356 0.952896 0.406607
0.106924 0.952343 0.404390
0.188726 0.951235 0.400392
0.504943 0.949216 0.395745
0.717007 0.946075 0.396198
0.839011 0.941886 0.413894
0.916510 0.936939 0.459995
0.990378 0.927443 0.596090
0.999481 0.920982 0.713760
0.998568 0.919557 0.803403
0.997342 0.925980 0.872459
0.997188 0.940780 0.922475
0.122534 0.978040 0.561673
0.122648 0.978038 0.561668
0.122882 0.978034 0.561656
0.123872 0.978020 0.561605
0.126944 0.977975 0.561451
0.135189 0.977860 0.561065
0.157090 0.977590 0.560190
0.237912 0.977021 0.558559
0.477064 0.975914 0.555995
0.676036 0.974049 0.553850
0.804336 0.971343 0.556293
0.890482 0.967946 0.570216
0.946549 0.964106 0.600193
0.999988 0.956407 0.693818
0.999934 0.951244 0.779512
0.999362 0.949817 0.853163
0.998679 0.954582 0.909549
0.235356 0.995224 0.665859
0.235551 0.995223 0.665857
0.235954 0.995221 0.665852
0.237656 0.995211 0.665834
0.243088 0.995186 0.665769
0.258120 0.995130 0.665585
0.297233 0.994995 0.665288
0.386246 0.994700 0.664595
0.522675 0.994099 0.663349
0.664388 0.993015 0.661695
0.779612 0.991329 0.660959
0.866854 0.989076 0.664141
0.927707 0.986380 0.674853
0.968472 0.983467 0.695571
1.000000 0.977225 0.765554
0.999990 0.972950 0.834779
0.999883 0.971734 0.893851
0.478921 1.000000 0.740792
0.479038 1.000000 0.740791
0.479277 1.000000 0.740788
0.480283 1.000000 0.740779
0.483327 1.000000 0.740749
0.490987 1.000000 0.740674
0.508609 1.000000 0.740497
0.543821 1.000000 0.740243
0.604020 1.000000 0.739617
0.685260 1.000000 0.738589
0.771913 1.000000 0.737554
0.850198 0.999987 0.737676
0.911079 1.000000 0.741028
0.954689 0.999548 0.749753
0.984576 0.997306 0.765138
0.999991 0.992034 0.822879
1.000000 0.988528 0.880103
0.634335 1.000000 0.798093
0.634374 1.000000 0.798092
0.634454 1.000000 0.798091
0.634794 1.000000 0.798087
0.635825 1.000000 0.798075
0.638447 1.000000 0.798044
0.644627 1.000000 0.797971
0.657882 1.000000 0.797814
0.683435 1.000000 0.797489
0.725525 1.000000 0.796934
0.782265 1.000000 0.796097
0.844045 1.000000 0.795585
0.899180 1.000000 0.796229
0.942633 1.000000 0.799490
0.974339 0.999983 0.806640
0.996557 0.999996 0.818561
1.000000 1.000000 0.869154
0.730747 1.000000 0.844541
0.730762 1.000000 0.844541
0.730794 1.000000 0.844540
0.730927 1.000000 0.844538
0.731337 1.000000 0.844533
0.732382 1.000000 0.844519
0.734870 1.000000 0.844485
0.740409 1.000000 0.844410
0.751865 1.000000 0.844252
0.773104 1.000000 0.843951
0.806539 1.000000 0.843417
0.849466 1.000000 0.842844
0.894177 1.000000 0.842735
0.933697 1.000000 0.843537
0.965132 1.000000 0.846432
0.988573 1.000000 0.852172
1.000000 1.000000 0.861693
0.006043 0.002637 0.235115
0.018072 0.002609 0.234649
0.083172 0.004080 0.228345
0.152608 0.013117 0.208397
0.280738 0.024642 0.206886
0.486730 0.035903 0.207691
0.666996 0.052999 0.204147
0.789085 0.079964 0.235585
0.874788 0.124660 0.308476
0.931489 0.218342 0.439159
0.970011 0.419206 0.576863
0.980296 0.591709 0.685097
0.986228 0.706767 0.766144
0.990228 0.787525 0.828746
0.993048 0.851731 0.880272
0.995040 0.901961 0.921255
