滤镜资源/Lutify.me Free 3D LUTs Package/Capture One/Windows/Lutify.me JPG Styles/100%/LM-JPG-Hackmanite-100.costyle
<?xml version="1.0"?>
<SL Engine="1000">
	<E K="ICCProfile" V="LM-JPG-Hackmanite-100.icm" />
	<E K="Name" V="LM-JPG-Hackmanite" />
	<E K="StyleSource" V="Styles" />
	<E K="UUID" V="3E8D64C8-F176-49E2-8030-34AD6F4B3C78" />
</SL>
