滤镜资源/Professional Luts Collection/Triune-Digital-Cinematic-LUTs/3D LUTs (CUBE)/STANDARD/Alien - Rec709.cube
#Created by Benjamin (IWLTBAP) : http://luts.iwltbap.com
#Copyright: (C) Copyright 2016 Triune Films and IWLTBAP
TITLE "Blockbuster LUTs Pack (Rec.709)"
#LUT size
LUT_3D_SIZE 5
#LUT data points
DOMAIN_MIN 0.000000 0.000000 0.000000
DOMAIN_MAX 0.903226 0.903226 0.903226
0.002045 0.004272 0.018097
0.048676 0.017548 0.034119
0.171478 0.054901 0.088867
0.347076 0.105713 0.156738
0.547058 0.158691 0.223175
0.002075 0.099304 0.064362
0.061462 0.104004 0.061432
0.203156 0.104156 0.084198
0.384186 0.135223 0.132324
0.608856 0.173798 0.172424
0.002075 0.270935 0.144043
0.023010 0.287048 0.147797
0.234528 0.302246 0.125549
0.466156 0.307526 0.125092
0.680603 0.305908 0.149384
0.010345 0.490234 0.257568
0.049072 0.501038 0.256958
0.095001 0.525848 0.277069
0.522552 0.550232 0.184357
0.738403 0.544434 0.165192
0.035370 0.739563 0.398132
0.074432 0.748749 0.408783
0.122711 0.770782 0.434235
0.365723 0.804291 0.429749
0.753723 0.824371 0.385254
0.002991 0.013733 0.076691
0.044891 0.023682 0.097687
0.176056 0.047241 0.123260
0.360443 0.111145 0.205231
0.562561 0.163666 0.273041
0.001953 0.109436 0.123993
0.042603 0.122528 0.144409
0.208893 0.130768 0.154907
0.392822 0.181061 0.218536
0.622253 0.230316 0.268402
0.002014 0.283112 0.224518
0.023254 0.293610 0.241272
0.233093 0.315826 0.210236
0.494049 0.314606 0.197296
0.688690 0.321808 0.260925
0.013489 0.503418 0.357025
0.052094 0.514252 0.363953
0.100891 0.542908 0.373688
0.504364 0.563995 0.317749
0.730865 0.552521 0.311493
0.042206 0.751740 0.521515
0.082153 0.763947 0.529419
0.134277 0.792389 0.548981
0.379913 0.827789 0.563843
0.770599 0.849518 0.530731
0.002441 0.036285 0.175995
0.031342 0.049133 0.239563
0.141083 0.065033 0.241821
0.339874 0.092133 0.246918
0.565979 0.173859 0.346466
0.000000 0.145966 0.234161
0.039673 0.145844 0.265228
0.188751 0.145264 0.282501
0.401764 0.196106 0.301910
0.619537 0.275055 0.410797
0.003967 0.315918 0.333710
0.029022 0.326721 0.354980
0.168427 0.354919 0.408630
0.488647 0.364441 0.389557
0.680084 0.410889 0.474243
0.020844 0.525635 0.469696
0.057404 0.536194 0.482178
0.100281 0.563232 0.527191
0.485107 0.585052 0.494568
0.737244 0.579834 0.529785
0.050537 0.774078 0.653961
0.091339 0.788818 0.666718
0.149506 0.819946 0.700470
0.350830 0.862305 0.741425
0.774994 0.874939 0.708435
0.004517 0.068512 0.323792
0.034912 0.065491 0.385742
0.143799 0.077637 0.462585
0.325714 0.108032 0.407043
0.564636 0.151306 0.453125
0.000000 0.189240 0.380493
0.041046 0.174683 0.417999
0.172058 0.165894 0.531281
0.370422 0.212189 0.474823
0.613922 0.251709 0.502594
0.007141 0.359100 0.500854
0.041168 0.369995 0.522705
0.175690 0.383575 0.577148
0.458130 0.385406 0.570618
0.704376 0.406982 0.604340
0.027069 0.555786 0.624817
0.065430 0.567444 0.642395
0.113190 0.596375 0.691559
0.420044 0.631744 0.749115
0.761292 0.627411 0.712646
0.063416 0.808533 0.791443
0.107269 0.824799 0.804657
0.170807 0.852325 0.833862
0.259003 0.888275 0.877380
0.787292 0.899933 0.855255
0.006409 0.111664 0.513062
0.044098 0.093018 0.567322
0.153931 0.110199 0.649628
0.338196 0.140991 0.690887
0.580597 0.193787 0.667145
0.006165 0.240570 0.570251
0.054138 0.230988 0.599152
0.177246 0.214874 0.707001
0.371246 0.236206 0.765045
0.614502 0.277130 0.713470
0.015808 0.395111 0.686615
0.054199 0.408783 0.710205
0.187225 0.425323 0.765686
0.425415 0.397522 0.885529
0.676331 0.414093 0.816711
0.041016 0.598724 0.811218
0.081726 0.613892 0.828461
0.142334 0.644073 0.871887
0.420929 0.684418 0.948181
0.747131 0.668304 0.902313
0.085175 0.850067 0.933533
0.132507 0.861084 0.947876
0.196350 0.882965 0.977142
0.417023 0.931000 0.991760
0.783905 0.941040 0.985535
