滤镜资源/Professional Luts Collection/Triune-Digital-Cinematic-LUTs/3D LUTs (CUBE)/STANDARD/Alien - Rec709.cube
#Created by Benjamin (IWLTBAP) : http://luts.iwltbap.com
#Copyright: (C) Copyright 2016 Triune Films and IWLTBAP
TITLE "Blockbuster LUTs Pack (Rec.709)"
#LUT size
LUT_3D_SIZE 32
#LUT data points
0.002045 0.004272 0.018097
0.005432 0.005066 0.019104
0.009033 0.006012 0.020203
0.012817 0.007141 0.021545
0.019531 0.008484 0.023071
0.027496 0.010101 0.024963
0.036896 0.013123 0.028442
0.048676 0.017548 0.034119
0.062622 0.022827 0.041168
0.079437 0.028656 0.049652
0.096222 0.033966 0.057465
0.114258 0.039124 0.065186
0.132416 0.044128 0.072723
0.151855 0.049438 0.080780
0.171478 0.054901 0.088867
0.191620 0.060730 0.097076
0.212982 0.067017 0.105713
0.235962 0.074158 0.114960
0.260284 0.081635 0.124542
0.287903 0.089752 0.135284
0.317230 0.097748 0.146088
0.347076 0.105713 0.156738
0.376556 0.113922 0.167328
0.404999 0.122223 0.177246
0.434479 0.131012 0.186798
0.461853 0.139099 0.195679
0.490173 0.146606 0.204895
0.518433 0.152863 0.213654
0.547058 0.158691 0.223175
0.575348 0.163818 0.232452
0.608307 0.169159 0.242065
0.645996 0.174622 0.251251
0.002350 0.015381 0.023529
0.005951 0.015900 0.022766
0.009888 0.016327 0.022675
0.013855 0.016998 0.023407
0.021851 0.017883 0.024872
0.029572 0.019287 0.026672
0.039368 0.022644 0.031342
0.051178 0.026733 0.037292
0.065796 0.031311 0.044098
0.082794 0.036041 0.051392
0.099792 0.040771 0.058716
0.117615 0.045746 0.066315
0.135834 0.050659 0.073853
0.155243 0.055847 0.081848
0.174652 0.061462 0.089752
0.194641 0.067596 0.097839
0.215637 0.074036 0.106354
0.238037 0.080963 0.115326
0.262634 0.088501 0.125061
0.290802 0.096710 0.135956
0.320984 0.104950 0.147034
0.350983 0.112854 0.157623
0.379974 0.121155 0.168243
0.408020 0.129364 0.177795
0.437225 0.137451 0.186554
0.466156 0.143250 0.192902
0.494568 0.148926 0.199982
0.522827 0.154144 0.207336
0.551270 0.159943 0.216583
0.579712 0.164886 0.225952
0.610657 0.169769 0.234039
0.648773 0.175049 0.243286
0.002625 0.026703 0.029358
0.005310 0.027527 0.029510
0.009979 0.027679 0.027985
0.014771 0.027985 0.026825
0.023224 0.028473 0.027222
0.031311 0.029205 0.029175
0.041870 0.032104 0.033936
0.054016 0.035309 0.039154
0.068970 0.039215 0.045471
0.085968 0.043701 0.052765
0.103241 0.048370 0.060089
0.121246 0.053406 0.067657
0.139587 0.058411 0.075104
0.158936 0.063843 0.083038
0.177948 0.069397 0.090851
0.197784 0.075317 0.098785
0.218109 0.081482 0.107056
0.240326 0.088226 0.115906
0.264954 0.095734 0.125641
0.293488 0.104034 0.136658
0.324585 0.112549 0.148071
0.354767 0.119598 0.157959
0.383392 0.126678 0.167419
0.411346 0.132812 0.174988
0.440338 0.138763 0.181244
0.470245 0.144684 0.186737
0.499420 0.150513 0.193359
0.527740 0.155762 0.200256
0.556244 0.161469 0.209076
0.585175 0.166290 0.218658
0.614807 0.170746 0.226135
0.651764 0.175598 0.234650
0.002808 0.038910 0.035431
0.005005 0.039948 0.036102
0.008789 0.040497 0.035767
0.014587 0.040497 0.033722
0.023834 0.040802 0.031555
0.032837 0.041199 0.031616
0.044769 0.042023 0.033234
0.056671 0.042145 0.037750
0.071960 0.043976 0.042877
0.089447 0.048126 0.049805
0.106781 0.053345 0.057709
0.124817 0.058533 0.065582
0.143372 0.063782 0.073578
0.162628 0.069275 0.081696
0.181427 0.074646 0.089264
0.201111 0.080200 0.096985
0.221161 0.085938 0.104950
0.243408 0.092102 0.113312
0.267578 0.098877 0.122528
0.296478 0.106567 0.133057
0.327942 0.114288 0.143799
0.358673 0.121246 0.153656
0.387634 0.128479 0.162445
0.415924 0.134644 0.169586
0.444977 0.140564 0.175354
0.474945 0.146332 0.180603
0.505310 0.152344 0.186646
0.533600 0.157623 0.193695
0.561859 0.163147 0.201599
0.591034 0.167908 0.210358
0.622131 0.172272 0.218170
0.656952 0.176483 0.226685
0.002777 0.052704 0.041931
0.004669 0.053711 0.042725
0.007904 0.054443 0.042999
0.012665 0.054840 0.042267
0.023743 0.054810 0.039825
0.033813 0.055115 0.036682
0.046661 0.055634 0.036621
0.059998 0.056519 0.038361
0.075378 0.055908 0.043365
0.093018 0.057037 0.049988
0.110931 0.059052 0.056030
0.128815 0.061157 0.061035
0.147644 0.066284 0.069153
0.166718 0.071594 0.077240
0.185486 0.076782 0.084747
0.205109 0.082306 0.092560
0.225159 0.087921 0.100433
0.247559 0.094086 0.108948
0.271362 0.100616 0.117950
0.300415 0.108307 0.128296
0.331909 0.116180 0.138885
0.363831 0.123474 0.148712
0.392883 0.130585 0.157043
0.421570 0.136688 0.163940
0.450745 0.142456 0.169037
0.481049 0.148193 0.173798
0.512024 0.154236 0.179474
0.540833 0.159698 0.186584
0.569885 0.165100 0.194733
0.599030 0.169739 0.202545
0.630157 0.173950 0.209930
0.663910 0.177582 0.218414
0.002289 0.066925 0.048859
0.004242 0.067688 0.049561
0.006226 0.068665 0.050232
0.010406 0.069366 0.050446
0.020721 0.069550 0.049530
0.033386 0.069611 0.046356
0.047913 0.069916 0.042023
0.062164 0.070648 0.042114
0.079041 0.071777 0.044220
0.096283 0.070557 0.050018
0.116577 0.070770 0.057312
0.134613 0.072113 0.063873
0.152985 0.073853 0.069305
0.171387 0.076019 0.074310
0.190125 0.079407 0.080139
0.209595 0.084808 0.087860
0.229950 0.090515 0.095764
0.252960 0.096771 0.104279
0.277679 0.103546 0.113403
0.306854 0.111206 0.123535
0.337341 0.118866 0.133423
0.369568 0.126190 0.143066
0.398895 0.132904 0.150970
0.428375 0.138885 0.157623
0.458038 0.144562 0.162018
0.488556 0.150238 0.166687
0.519348 0.156036 0.171722
0.549469 0.161896 0.178558
0.580933 0.167450 0.187225
0.610870 0.171967 0.195099
0.640900 0.175751 0.201874
0.672760 0.178833 0.209351
0.002106 0.082062 0.056244
0.003906 0.082977 0.056854
0.005768 0.083893 0.057495
0.008331 0.085114 0.057953
0.014618 0.085663 0.058014
0.029755 0.085632 0.056854
0.046600 0.085815 0.053650
0.063354 0.085999 0.048035
0.081635 0.087097 0.048157
0.099792 0.088531 0.050751
0.119598 0.086639 0.057465
0.140259 0.085876 0.064636
0.159180 0.086548 0.071075
0.177246 0.087952 0.076996
0.196198 0.090424 0.082733
0.215912 0.093384 0.088074
0.237061 0.096863 0.093903
0.260590 0.100891 0.100250
0.286041 0.107239 0.108978
0.314819 0.114838 0.118927
0.344360 0.122009 0.127991
0.375397 0.129089 0.136658
0.405975 0.135468 0.144043
0.436279 0.141327 0.150330
0.466644 0.146820 0.153992
0.497803 0.152527 0.158264
0.529266 0.158295 0.163727
0.561005 0.164459 0.170959
0.592773 0.169525 0.178711
0.624176 0.174011 0.186554
0.654724 0.178680 0.194366
0.683472 0.183167 0.201965
0.002075 0.099304 0.064362
0.003906 0.100525 0.064972
0.005676 0.101532 0.065582
0.007507 0.102905 0.066315
0.010925 0.104431 0.066711
0.023560 0.105316 0.066650
0.040405 0.104584 0.065063
0.061462 0.104004 0.061432
0.083069 0.104309 0.055359
0.102600 0.105560 0.055450
0.123474 0.107025 0.058075
0.143585 0.104523 0.064789
0.165375 0.102539 0.071960
0.183960 0.102539 0.077820
0.203156 0.104156 0.084198
0.223083 0.106567 0.090912
0.244934 0.109955 0.097931
0.269226 0.114197 0.104492
0.295929 0.118988 0.111664
0.325195 0.124451 0.119019
0.354431 0.129333 0.125641
0.384186 0.135223 0.132324
0.414062 0.140930 0.138367
0.444244 0.146790 0.144073
0.475952 0.153259 0.149261
0.507782 0.160370 0.155029
0.541077 0.166534 0.160980
0.574524 0.171387 0.167206
0.608856 0.173798 0.172424
0.637695 0.175934 0.177521
0.666199 0.181610 0.185974
0.693787 0.188934 0.195709
0.002075 0.118164 0.073242
0.003906 0.119415 0.073853
0.005676 0.120697 0.074463
0.007477 0.122314 0.075165
0.009277 0.124298 0.076050
0.016388 0.126801 0.076202
0.032593 0.127747 0.075928
0.053741 0.125031 0.073608
0.080444 0.124084 0.070160
0.104004 0.124115 0.063507
0.126434 0.125671 0.063477
0.147705 0.127319 0.065674
0.169250 0.124084 0.072601
0.190430 0.121155 0.079193
0.210724 0.120941 0.085327
0.231262 0.122253 0.092072
0.254059 0.125092 0.099335
0.279175 0.129272 0.107086
0.306763 0.134216 0.115540
0.335815 0.139954 0.123352
0.365234 0.144867 0.129639
0.394287 0.150665 0.135834
0.423920 0.156250 0.141418
0.454437 0.162323 0.146942
0.486877 0.168427 0.152008
0.518982 0.175049 0.157776
0.553253 0.181244 0.163940
0.587952 0.186066 0.170044
0.623993 0.188599 0.175110
0.651398 0.188660 0.177795
0.678406 0.192505 0.184418
0.702972 0.201965 0.195526
0.002075 0.139496 0.083130
0.003906 0.141022 0.083771
0.005676 0.142548 0.084503
0.007446 0.144501 0.085175
0.009186 0.146820 0.085938
0.011108 0.149597 0.086609
0.024719 0.153046 0.086243
0.043549 0.153107 0.085266
0.071289 0.148560 0.082855
0.102112 0.147491 0.080078
0.128387 0.147278 0.072968
0.151459 0.148834 0.071991
0.174316 0.151031 0.073914
0.195862 0.147919 0.080261
0.218353 0.144257 0.086945
0.240143 0.143494 0.093353
0.263947 0.144623 0.100739
0.290100 0.148315 0.108429
0.318756 0.152924 0.116852
0.347656 0.157501 0.123718
0.376312 0.162842 0.130371
0.404938 0.168304 0.137024
0.435455 0.173187 0.142731
0.466736 0.179230 0.148285
0.498840 0.186127 0.154510
0.532074 0.191650 0.160919
0.566925 0.197662 0.167328
0.600403 0.201416 0.172485
0.633057 0.203369 0.176636
0.661652 0.204010 0.179047
0.687836 0.208130 0.185181
0.709564 0.222046 0.202240
0.001862 0.161713 0.093994
0.003632 0.163696 0.094208
0.005432 0.165497 0.094757
0.007172 0.167572 0.095490
0.009003 0.170441 0.096161
0.010773 0.173309 0.097076
0.019165 0.178802 0.096710
0.035431 0.181854 0.095978
0.056213 0.180878 0.094116
0.092865 0.175720 0.092010
0.126465 0.174225 0.089661
0.152924 0.173859 0.082520
0.177246 0.175842 0.080750
0.200500 0.178772 0.081512
0.224152 0.177399 0.086212
0.247925 0.172211 0.093170
0.272919 0.170013 0.100830
0.300323 0.170502 0.108643
0.329926 0.174591 0.116211
0.359406 0.178864 0.122772
0.388245 0.183777 0.128815
0.417358 0.189148 0.135040
0.447968 0.195038 0.140839
0.480469 0.200378 0.146576
0.512970 0.206055 0.152863
0.546051 0.210602 0.158997
0.579407 0.215698 0.166382
0.611450 0.217743 0.171692
0.640686 0.219147 0.176788
0.670013 0.221344 0.181641
0.694824 0.226868 0.189484
0.715912 0.242828 0.209320
0.001678 0.185730 0.105286
0.003479 0.187347 0.105591
0.005219 0.189606 0.105865
0.007019 0.192139 0.106323
0.008820 0.195343 0.106781
0.010590 0.198792 0.107635
0.015350 0.203491 0.108032
0.029907 0.209381 0.107697
0.048309 0.212463 0.105804
0.073273 0.209747 0.102753
0.117676 0.206604 0.101410
0.152161 0.204346 0.098724
0.179077 0.204193 0.091583
0.203644 0.207092 0.089111
0.228729 0.211700 0.089050
0.254700 0.212067 0.091248
0.281647 0.205872 0.099060
0.309937 0.201843 0.107422
0.340393 0.202026 0.114685
0.370392 0.205078 0.121368
0.399902 0.208771 0.127014
0.429749 0.213104 0.132751
0.461029 0.218719 0.138062
0.493774 0.223633 0.144379
0.527008 0.227661 0.150085
0.559326 0.231781 0.156433
0.591461 0.234863 0.163116
0.623077 0.236084 0.167725
0.650269 0.236877 0.170990
0.678589 0.242188 0.182190
0.703033 0.248383 0.192139
0.722900 0.265137 0.213806
0.001617 0.212189 0.117279
0.003418 0.213623 0.117615
0.005188 0.215393 0.117981
0.007050 0.217621 0.118500
0.008850 0.220886 0.118805
0.010651 0.224579 0.119293
0.015137 0.228821 0.119843
0.022034 0.234467 0.119843
0.041931 0.239990 0.119598
0.062744 0.242767 0.115936
0.094940 0.240753 0.112061
0.144135 0.239014 0.111023
0.180786 0.235229 0.106567
0.207153 0.236023 0.099640
0.233917 0.240784 0.096252
0.261566 0.246613 0.095184
0.289978 0.248657 0.097473
0.319519 0.242554 0.104370
0.350555 0.236389 0.112091
0.381622 0.236542 0.118225
0.411530 0.238892 0.124420
0.441650 0.242401 0.130402
0.474091 0.245697 0.135529
0.507416 0.248779 0.141479
0.539490 0.251099 0.147583
0.570923 0.254120 0.153564
0.602478 0.255646 0.159210
0.632874 0.256989 0.164062
0.661194 0.257324 0.164124
0.688354 0.264130 0.178192
0.711273 0.273315 0.193695
0.729340 0.289520 0.216522
0.001556 0.240479 0.130219
0.003387 0.241821 0.130341
0.005219 0.243469 0.130676
0.007050 0.245697 0.131195
0.009033 0.248596 0.131744
0.011749 0.252106 0.132294
0.016724 0.256134 0.132874
0.021973 0.260681 0.133179
0.031219 0.266083 0.133057
0.057129 0.270447 0.132904
0.079773 0.271942 0.126984
0.121307 0.271271 0.122711
0.170380 0.271698 0.119965
0.207489 0.268311 0.115356
0.238373 0.269470 0.107391
0.267151 0.274292 0.102997
0.297729 0.279633 0.101685
0.330200 0.282196 0.103607
0.361084 0.277435 0.109711
0.391846 0.272675 0.116241
0.423126 0.272003 0.121490
0.454803 0.273071 0.127594
0.486694 0.274506 0.133270
0.518341 0.275574 0.139252
0.550537 0.276764 0.144836
0.581757 0.278839 0.149872
0.613129 0.279114 0.154785
0.643250 0.279724 0.158691
0.670532 0.279724 0.156982
0.698151 0.287689 0.172424
0.718628 0.300507 0.197113
0.736786 0.313965 0.218567
0.002075 0.270935 0.144043
0.003906 0.271973 0.144287
0.005737 0.273254 0.144592
0.007568 0.274994 0.145081
0.009430 0.277100 0.145752
0.013275 0.279846 0.146362
0.018219 0.283295 0.147003
0.023010 0.287048 0.147797
0.030365 0.292053 0.148041
0.046814 0.298248 0.148712
0.071838 0.300781 0.147247
0.100433 0.301788 0.139557
0.148468 0.302551 0.133423
0.196198 0.303528 0.129333
0.234528 0.302246 0.125549
0.268005 0.303986 0.117157
0.302185 0.308411 0.110992
0.338135 0.312134 0.107727
0.372925 0.315735 0.109161
0.403229 0.312073 0.114685
0.434509 0.307831 0.120056
0.466156 0.307526 0.125092
0.498840 0.306793 0.130219
0.530762 0.305725 0.136200
0.562286 0.305664 0.142151
0.593170 0.306885 0.146606
0.624084 0.306488 0.150330
0.654388 0.306580 0.152039
0.680603 0.305908 0.149384
0.707367 0.313904 0.169250
0.726685 0.326935 0.199188
0.742584 0.338867 0.221252
0.002441 0.301178 0.160065
0.004272 0.302612 0.160065
0.006134 0.303802 0.160431
0.007965 0.305328 0.160919
0.009766 0.307343 0.161682
0.014862 0.309692 0.162354
0.019684 0.312561 0.163391
0.024597 0.316040 0.164551
0.029602 0.320038 0.165466
0.038818 0.324890 0.165863
0.060852 0.330048 0.167572
0.090698 0.331757 0.161865
0.124237 0.333313 0.152710
0.176819 0.334991 0.145386
0.223572 0.336578 0.138611
0.263519 0.337433 0.136169
0.300934 0.340698 0.127258
0.340820 0.342804 0.118378
0.380920 0.346832 0.113403
0.415405 0.349884 0.113861
0.446930 0.347992 0.117706
0.478882 0.344238 0.123505
0.511292 0.342041 0.128906
0.542480 0.339722 0.132355
0.575684 0.337738 0.138824
0.606293 0.337402 0.144135
0.636749 0.335999 0.147736
0.666779 0.335236 0.149445
0.693634 0.336517 0.155670
0.717102 0.342896 0.170074
0.734558 0.353882 0.201294
0.749664 0.364655 0.223816
0.002716 0.331543 0.176605
0.004517 0.332947 0.176666
0.006378 0.334473 0.176758
0.008240 0.336090 0.177032
0.011108 0.338165 0.177826
0.016418 0.340424 0.178497
0.021332 0.343109 0.179321
0.026215 0.346252 0.180359
0.031219 0.349762 0.181702
0.036591 0.353821 0.182587
0.048706 0.358856 0.184479
0.073883 0.362213 0.186310
0.111481 0.364380 0.177490
0.153137 0.368347 0.166473
0.206757 0.370087 0.153717
0.252594 0.371185 0.147858
0.297058 0.373657 0.145447
0.338684 0.377350 0.136200
0.383179 0.379852 0.125031
0.423859 0.383057 0.117737
0.458771 0.386444 0.117523
0.491028 0.384583 0.119934
0.523438 0.380615 0.126312
0.556335 0.375549 0.132233
0.587677 0.372589 0.137054
0.620300 0.370239 0.141693
0.649231 0.368195 0.146362
0.679596 0.367340 0.148651
0.703369 0.367310 0.157135
0.724396 0.373352 0.175781
0.740723 0.382965 0.204346
0.756805 0.393250 0.226685
0.003082 0.363922 0.192566
0.004913 0.365356 0.192627
0.006714 0.366821 0.192749
0.008545 0.368591 0.192963
0.012787 0.370789 0.193542
0.018188 0.373169 0.194122
0.023438 0.375824 0.194733
0.028717 0.378723 0.195526
0.034027 0.381866 0.196564
0.039551 0.385284 0.197723
0.045013 0.389099 0.198486
0.059418 0.393585 0.203491
0.090240 0.395233 0.205963
0.137756 0.399323 0.192474
0.186249 0.407288 0.178070
0.236023 0.406616 0.163483
0.286377 0.410767 0.156372
0.335022 0.412415 0.153198
0.381470 0.414948 0.143402
0.426971 0.416534 0.129883
0.468201 0.419250 0.121277
0.502686 0.421326 0.120483
0.536224 0.419495 0.122650
0.569946 0.414215 0.130035
0.601288 0.409973 0.135925
0.631195 0.405701 0.140930
0.660828 0.402039 0.144287
0.688934 0.399353 0.149048
0.712799 0.399048 0.159088
0.732208 0.404999 0.179047
0.747864 0.412811 0.206055
0.762695 0.424500 0.231537
0.004028 0.396301 0.208679
0.005951 0.397705 0.208221
0.007812 0.398987 0.208160
0.011475 0.400604 0.208405
0.017212 0.402344 0.208832
0.022339 0.404480 0.209412
0.027649 0.406891 0.209869
0.033020 0.409515 0.210419
0.038483 0.412445 0.211212
0.044373 0.415405 0.212219
0.050171 0.418823 0.213165
0.055786 0.422821 0.215118
0.070953 0.426941 0.222778
0.111115 0.429565 0.224457
0.168823 0.434998 0.206329
0.220123 0.448761 0.187378
0.269012 0.445282 0.172943
0.323669 0.450500 0.164581
0.378113 0.451874 0.160522
0.427399 0.452271 0.149933
0.473846 0.451874 0.134216
0.510284 0.452026 0.124695
0.545197 0.453735 0.124207
0.579742 0.451630 0.126587
0.611115 0.446167 0.135315
0.640411 0.442078 0.142303
0.669708 0.438171 0.146881
0.695221 0.433350 0.149628
0.719360 0.432129 0.160187
0.739075 0.437317 0.180786
0.754822 0.446320 0.210175
0.770172 0.459625 0.236389
0.005432 0.428406 0.224548
0.007385 0.429291 0.224426
0.010834 0.430542 0.224182
0.016876 0.431885 0.224091
0.022461 0.433411 0.224335
0.027802 0.435394 0.224823
0.033234 0.437408 0.225342
0.038727 0.439758 0.225739
0.044250 0.442444 0.226349
0.049957 0.445251 0.227142
0.055786 0.448334 0.228302
0.061493 0.451935 0.230499
0.066986 0.455963 0.233276
0.082764 0.460144 0.242706
0.138184 0.466125 0.242432
0.203766 0.480316 0.215393
0.254730 0.492523 0.193848
0.305267 0.486725 0.181488
0.363495 0.488831 0.173065
0.425690 0.487305 0.167450
0.475891 0.486511 0.156525
0.519135 0.485718 0.141022
0.554199 0.485168 0.130890
0.587677 0.486023 0.129059
0.620422 0.483734 0.133148
0.648865 0.478668 0.141083
0.677002 0.474426 0.148529
0.701172 0.470490 0.155334
0.725708 0.467224 0.158905
0.745331 0.471466 0.181061
0.760986 0.482361 0.213654
0.776093 0.493042 0.244751
0.007019 0.459839 0.240601
0.010712 0.460693 0.240082
0.016785 0.461578 0.239929
0.022308 0.462738 0.239929
0.027771 0.464172 0.240112
0.033295 0.465759 0.240448
0.038757 0.467743 0.240906
0.044281 0.469910 0.241211
0.049774 0.472290 0.241730
0.055206 0.475128 0.242523
0.060760 0.478149 0.243683
0.066254 0.481567 0.245819
0.071625 0.485260 0.248840
0.077667 0.489471 0.252289
0.103607 0.494904 0.265808
0.171387 0.505432 0.255463
0.239105 0.523041 0.225433
0.287781 0.529907 0.201965
0.344238 0.526306 0.190216
0.408173 0.523438 0.182068
0.476074 0.518219 0.175110
0.522888 0.517731 0.164520
0.561462 0.516632 0.148712
0.595276 0.516541 0.138489
0.628296 0.517761 0.136200
0.657196 0.516327 0.141144
0.683563 0.511597 0.149109
0.708313 0.508209 0.155640
0.731323 0.505249 0.164307
0.751465 0.508698 0.181946
0.767487 0.521484 0.216553
0.782562 0.528839 0.251770
0.010345 0.490234 0.257568
0.016693 0.491241 0.256531
0.022430 0.492279 0.256104
0.027679 0.493469 0.255920
0.032990 0.494995 0.255981
0.038300 0.496643 0.256287
0.043701 0.498779 0.256561
0.049072 0.501038 0.256958
0.054291 0.503601 0.257568
0.059479 0.506653 0.258270
0.064789 0.509827 0.259491
0.070160 0.513367 0.261993
0.075470 0.517242 0.265198
0.080780 0.521118 0.268372
0.095001 0.525848 0.277069
0.129395 0.533630 0.289459
0.208588 0.544830 0.266052
0.271790 0.561981 0.234436
0.323273 0.566895 0.213654
0.388153 0.561310 0.200165
0.457092 0.553558 0.190765
0.522552 0.550232 0.184357
0.566437 0.549377 0.173737
0.601501 0.548218 0.158875
0.634583 0.548828 0.148804
0.664612 0.550262 0.145386
0.690887 0.551086 0.149658
0.714539 0.547363 0.156891
0.738403 0.544434 0.165192
0.758057 0.548492 0.186920
0.774536 0.562958 0.221161
0.789825 0.566528 0.258362
0.015564 0.522766 0.274109
0.021332 0.523895 0.273590
0.026550 0.525055 0.273010
0.031891 0.526337 0.272583
0.037140 0.527832 0.272430
0.042328 0.529510 0.272583
0.047546 0.531647 0.272919
0.052673 0.533905 0.273438
0.057739 0.536469 0.273834
0.062714 0.539673 0.274750
0.067749 0.543030 0.276031
0.073029 0.546509 0.278778
0.078430 0.550293 0.282684
0.084137 0.554169 0.286346
0.091400 0.558014 0.290192
0.117767 0.562317 0.302826
0.165253 0.576660 0.309387
0.245056 0.586304 0.274628
0.307373 0.603760 0.244049
0.363190 0.605164 0.225861
0.432953 0.597412 0.211853
0.504059 0.588074 0.201385
0.565338 0.585022 0.195679
0.604156 0.582642 0.184418
0.637085 0.582275 0.171326
0.668091 0.582764 0.160889
0.695404 0.584045 0.156219
0.720490 0.586609 0.159821
0.744659 0.585419 0.166931
0.764252 0.592682 0.190094
0.780487 0.606323 0.231293
0.796173 0.609344 0.268372
0.019348 0.556183 0.291443
0.024628 0.557495 0.290680
0.029785 0.558777 0.290009
0.034882 0.560181 0.289703
0.039978 0.561951 0.289764
0.045197 0.563782 0.289795
0.050415 0.566071 0.290619
0.055542 0.568604 0.291290
0.060547 0.571228 0.292206
0.065826 0.574280 0.294983
0.070923 0.577606 0.297058
0.076233 0.581085 0.300049
0.081696 0.584564 0.304047
0.087982 0.588409 0.307892
0.095337 0.592194 0.311615
0.102692 0.595978 0.314636
0.138336 0.602173 0.327118
0.212036 0.617554 0.321350
0.282166 0.625641 0.284607
0.343384 0.639069 0.257233
0.408905 0.641144 0.239624
0.477020 0.634277 0.227112
0.549469 0.624969 0.215302
0.602448 0.623474 0.209167
0.637268 0.621613 0.198425
0.668030 0.620453 0.185638
0.697388 0.621338 0.176453
0.724792 0.619904 0.169067
0.749359 0.628967 0.178009
0.770264 0.642059 0.200104
0.788147 0.654480 0.239502
0.804016 0.654327 0.278595
0.021912 0.591949 0.309296
0.027191 0.593231 0.308685
0.032410 0.594696 0.307922
0.037781 0.596130 0.308228
0.042969 0.597931 0.308533
0.048065 0.599945 0.308929
0.053467 0.602051 0.310608
0.058533 0.604523 0.311798
0.063568 0.607117 0.313324
0.068970 0.609833 0.316040
0.074371 0.612915 0.319305
0.079742 0.616058 0.322906
0.085175 0.619324 0.326813
0.092010 0.622864 0.330872
0.099304 0.626343 0.334656
0.106628 0.629913 0.337860
0.116669 0.633789 0.341003
0.165802 0.645172 0.354218
0.257080 0.654388 0.332642
0.320953 0.664124 0.294983
0.382782 0.672089 0.273499
0.456177 0.675903 0.254578
0.523499 0.671295 0.241058
0.587860 0.665405 0.232758
0.633484 0.666809 0.226379
0.665314 0.664886 0.217346
0.696442 0.665649 0.205780
0.725983 0.667664 0.196289
0.753143 0.667145 0.193115
0.773834 0.683746 0.220673
0.792267 0.692200 0.261261
0.809723 0.693939 0.297028
0.023712 0.629272 0.327087
0.028961 0.630463 0.327057
0.034210 0.631683 0.326813
0.039612 0.633057 0.327057
0.045197 0.634674 0.328552
0.050751 0.636444 0.330170
0.056396 0.638397 0.332184
0.061676 0.640533 0.334717
0.066986 0.642792 0.337311
0.072388 0.645386 0.340149
0.077820 0.648132 0.343201
0.083313 0.650909 0.346741
0.089111 0.653992 0.350586
0.096436 0.657440 0.355164
0.103882 0.660919 0.359009
0.111328 0.664520 0.362518
0.119110 0.668488 0.365509
0.138794 0.673401 0.369415
0.217346 0.691315 0.379913
0.298737 0.691650 0.345551
0.361542 0.697968 0.312195
0.427063 0.704407 0.293549
0.504944 0.710052 0.270447
0.568665 0.707550 0.258514
0.622375 0.705322 0.255859
0.660492 0.704529 0.250061
0.692078 0.707001 0.243530
0.724030 0.711395 0.235413
0.752441 0.717316 0.234772
0.777954 0.721100 0.243866
0.795929 0.725220 0.287720
0.815948 0.729401 0.322174
0.026825 0.665955 0.349823
0.032379 0.667206 0.350555
0.037872 0.668335 0.351257
0.043335 0.669617 0.351746
0.048950 0.671051 0.353333
0.054626 0.672668 0.355194
0.060272 0.674500 0.357330
0.065552 0.676483 0.359833
0.070892 0.678680 0.362457
0.076324 0.681061 0.365112
0.081757 0.683655 0.368164
0.087341 0.686493 0.371277
0.093811 0.689331 0.375000
0.101257 0.692474 0.379395
0.109039 0.696075 0.383636
0.116821 0.699829 0.387390
0.124695 0.704041 0.390747
0.134430 0.708862 0.393738
0.186127 0.723022 0.402802
0.264374 0.728607 0.398682
0.338806 0.728546 0.362885
0.405579 0.733215 0.329102
0.477570 0.739716 0.309875
0.553375 0.745453 0.290405
0.612579 0.743042 0.283600
0.654968 0.741638 0.285858
0.688599 0.740479 0.279510
0.719818 0.746490 0.279724
0.749329 0.751495 0.284851
0.775818 0.755829 0.296967
0.800659 0.760254 0.315308
0.823334 0.766815 0.352814
0.030914 0.702759 0.373566
0.036407 0.703735 0.374298
0.041962 0.704803 0.375153
0.047607 0.705994 0.376312
0.053253 0.707245 0.377686
0.058929 0.708740 0.379395
0.064392 0.710480 0.381439
0.069763 0.712341 0.383850
0.075134 0.714386 0.386475
0.080719 0.716736 0.389252
0.086243 0.719299 0.392273
0.091919 0.722046 0.395599
0.099518 0.725128 0.399506
0.107056 0.728302 0.403717
0.115112 0.731934 0.408325
0.123169 0.735901 0.412476
0.131348 0.740479 0.416290
