滤镜资源/Professional Luts Collection/Triune-Digital-Cinematic-LUTs/3D LUTs (CUBE)/STANDARD/Alien - Rec709.cube
#Created by Benjamin (IWLTBAP) : http://luts.iwltbap.com
#Copyright: (C) Copyright 2016 Triune Films and IWLTBAP
TITLE "Blockbuster LUTs Pack (Rec.709)"
#LUT size
LUT_3D_SIZE 8
#LUT data points
DOMAIN_MIN 0.000000 0.000000 0.000000
DOMAIN_MAX 0.903226 0.903226 0.903226
0.002045 0.004272 0.018097
0.019531 0.008484 0.023071
0.062622 0.022827 0.041168
0.132416 0.044128 0.072723
0.212982 0.067017 0.105713
0.317230 0.097748 0.146088
0.434479 0.131012 0.186798
0.547058 0.158691 0.223175
0.002777 0.052704 0.041931
0.023743 0.054810 0.039825
0.075378 0.055908 0.043365
0.147644 0.066284 0.069153
0.225159 0.087921 0.100433
0.331909 0.116180 0.138885
0.450745 0.142456 0.169037
0.569885 0.165100 0.194733
0.002075 0.118164 0.073242
0.009277 0.124298 0.076050
0.080444 0.124084 0.070160
0.169250 0.124084 0.072601
0.254059 0.125092 0.099335
0.365234 0.144867 0.129639
0.486877 0.168427 0.152008
0.623993 0.188599 0.175110
0.001617 0.212189 0.117279
0.008850 0.220886 0.118805
0.041931 0.239990 0.119598
0.180786 0.235229 0.106567
0.289978 0.248657 0.097473
0.411530 0.238892 0.124420
0.539490 0.251099 0.147583
0.661194 0.257324 0.164124
0.002716 0.331543 0.176605
0.011108 0.338165 0.177826
0.031219 0.349762 0.181702
0.111481 0.364380 0.177490
0.297058 0.373657 0.145447
0.458771 0.386444 0.117523
0.587677 0.372589 0.137054
0.703369 0.367310 0.157135
0.007019 0.459839 0.240601
0.027771 0.464172 0.240112
0.049774 0.472290 0.241730
0.071625 0.485260 0.248840
0.239105 0.523041 0.225433
0.476074 0.518219 0.175110
0.628296 0.517761 0.136200
0.731323 0.505249 0.164307
0.021912 0.591949 0.309296
0.042969 0.597931 0.308533
0.063568 0.607117 0.313324
0.085175 0.619324 0.326813
0.116669 0.633789 0.341003
0.382782 0.672089 0.273499
0.633484 0.666809 0.226379
0.753143 0.667145 0.193115
0.035370 0.739563 0.398132
0.057892 0.743774 0.402679
0.079987 0.750824 0.411469
0.106445 0.762451 0.425171
0.140137 0.780243 0.443481
0.285004 0.808075 0.454712
0.621765 0.812469 0.341309
0.753723 0.824371 0.385254
0.002747 0.007965 0.047760
0.017761 0.013123 0.058502
0.065155 0.019958 0.065369
0.136292 0.040100 0.090973
0.216370 0.068115 0.129242
0.325867 0.100220 0.171570
0.451202 0.133850 0.213898
0.556763 0.159973 0.249664
0.002106 0.055145 0.070190
0.019409 0.058136 0.077576
0.076508 0.060089 0.074677
0.148895 0.079865 0.104889
0.226898 0.101288 0.135071
0.337311 0.132050 0.175842
0.457764 0.167664 0.214325
0.577179 0.192810 0.241241
0.002106 0.121796 0.103790
0.009430 0.128143 0.110535
0.076630 0.129456 0.106140
0.172607 0.126434 0.107727
0.258209 0.131073 0.130157
0.373291 0.156189 0.163940
0.497528 0.179077 0.181030
0.630951 0.204559 0.212677
0.001526 0.219208 0.156189
0.008728 0.225403 0.161987
0.041504 0.244812 0.159546
0.180450 0.244049 0.142273
0.295624 0.251465 0.133118
0.427673 0.243347 0.159454
0.556427 0.258240 0.185852
0.671204 0.264465 0.209595
0.002808 0.335541 0.223511
0.011780 0.341736 0.227509
0.032410 0.355865 0.230927
0.102966 0.371033 0.237000
0.297089 0.378448 0.183105
0.473297 0.397186 0.153229
0.610535 0.377808 0.177216
0.706726 0.371429 0.204193
0.007111 0.466064 0.295074
0.028900 0.470795 0.295166
0.051788 0.479645 0.294861
0.074005 0.493744 0.298126
0.230133 0.518555 0.303497
0.479340 0.536041 0.219666
0.638336 0.527679 0.178162
0.732727 0.517029 0.216095
0.023438 0.598236 0.372162
0.044861 0.604462 0.371674
0.065857 0.615326 0.372925
0.087830 0.627930 0.384369
0.123535 0.644379 0.398468
0.387329 0.667664 0.362610
0.619812 0.671875 0.304810
0.749817 0.684570 0.273529
0.039337 0.745667 0.467529
0.062103 0.751221 0.467896
0.084412 0.760101 0.473389
0.112610 0.773712 0.486420
0.147461 0.793152 0.505768
0.293457 0.819824 0.524261
0.614624 0.826843 0.422729
0.764008 0.837646 0.463898
0.002808 0.016083 0.087860
0.013123 0.020447 0.112305
0.055908 0.027527 0.113770
0.129761 0.034393 0.117218
0.218292 0.060913 0.147583
0.328491 0.100311 0.197906
0.459045 0.138153 0.244843
0.563629 0.165131 0.281281
0.002106 0.061646 0.112244
0.015961 0.065430 0.120850
0.062347 0.067932 0.128967
0.153107 0.073364 0.129822
0.230286 0.100281 0.162689
0.337860 0.135468 0.207672
0.468842 0.176086 0.248352
0.594818 0.215118 0.291779
0.000519 0.133270 0.148865
0.007263 0.139740 0.159393
0.046783 0.153107 0.175140
0.177612 0.142242 0.156799
0.260254 0.158508 0.185944
0.372345 0.189484 0.224182
0.501373 0.213959 0.239655
0.634552 0.246033 0.282074
0.000275 0.230774 0.203552
0.007202 0.234497 0.211243
0.034729 0.246552 0.229340
0.165833 0.253387 0.212830
0.298370 0.253845 0.192841
0.425995 0.251282 0.212677
0.565796 0.267975 0.238831
0.672211 0.279297 0.269867
0.003754 0.348724 0.272919
0.014648 0.352844 0.278534
0.034973 0.363617 0.291473
0.097992 0.384613 0.298615
0.296295 0.386444 0.257996
0.477020 0.398254 0.215576
0.612732 0.381195 0.240112
0.700348 0.382660 0.298340
0.008850 0.474915 0.351013
0.031219 0.479065 0.354431
0.053345 0.487579 0.363007
0.075378 0.501648 0.369049
0.218506 0.533600 0.383209
0.461700 0.524658 0.326447
0.628967 0.539612 0.264771
0.722748 0.513489 0.328857
0.025757 0.607513 0.435669
0.047516 0.612946 0.438324
0.068878 0.622345 0.447357
0.091827 0.635925 0.457001
0.126099 0.654724 0.466156
0.381622 0.675781 0.452148
0.613098 0.679138 0.396179
0.753876 0.688538 0.381622
0.043060 0.753998 0.539825
0.066345 0.759583 0.542786
0.089111 0.769165 0.550659
0.118927 0.785370 0.561646
0.155151 0.807220 0.576874
0.302307 0.832703 0.600525
0.617584 0.839355 0.517700
0.771698 0.853699 0.555115
0.002594 0.027435 0.141327
0.011475 0.034485 0.169708
0.044495 0.044495 0.206512
0.103058 0.053253 0.197083
0.204041 0.053619 0.183075
0.317291 0.087646 0.218109
0.457275 0.139038 0.277100
0.563599 0.173706 0.324280
0.002014 0.075562 0.169098
0.013062 0.079346 0.183533
0.048065 0.084076 0.236969
0.124878 0.093719 0.215515
0.222961 0.094269 0.198944
0.338776 0.133087 0.240601
0.467712 0.184753 0.294250
0.598511 0.223053 0.342590
0.000000 0.154694 0.213287
0.007202 0.160889 0.224213
0.044128 0.168549 0.241272
0.144440 0.163483 0.242981
0.267670 0.168121 0.232971
0.377014 0.201355 0.277740
0.506592 0.245331 0.315826
0.634796 0.284088 0.372955
0.000000 0.247528 0.264221
0.007202 0.251617 0.272400
0.027527 0.260864 0.293610
0.100250 0.276520 0.319580
0.307343 0.273743 0.283905
0.424133 0.297241 0.321075
0.550354 0.322998 0.354187
0.663269 0.359772 0.410736
0.004669 0.366058 0.332367
0.018097 0.370026 0.338409
0.038361 0.379547 0.352051
0.093994 0.396515 0.385376
0.286591 0.400879 0.367401
0.467377 0.393127 0.337738
0.592499 0.391479 0.365479
0.693939 0.408905 0.410004
0.014038 0.487122 0.413086
0.035522 0.491180 0.417755
0.056885 0.499481 0.428162
0.078918 0.514069 0.449890
0.192200 0.548431 0.474335
0.451813 0.538055 0.421295
0.617828 0.526703 0.391785
0.726349 0.530762 0.446411
0.028595 0.619080 0.506348
0.051025 0.624695 0.510559
0.072845 0.633972 0.520813
0.097168 0.647644 0.539856
0.128510 0.666962 0.556152
0.371216 0.692078 0.554138
0.613373 0.690796 0.499634
0.758575 0.709686 0.504425
0.047577 0.766174 0.615479
0.070831 0.772278 0.620392
0.094055 0.782990 0.629608
0.126282 0.800385 0.647156
0.163574 0.822144 0.665527
0.298615 0.849060 0.685913
0.613586 0.849640 0.627655
0.773438 0.868164 0.659698
0.002747 0.048615 0.212677
0.011749 0.050598 0.241455
0.040436 0.054230 0.290253
0.094086 0.060394 0.309448
0.191742 0.075287 0.284027
0.300568 0.090210 0.269714
0.434631 0.125610 0.307587
0.567291 0.169769 0.370972
0.000336 0.103180 0.237823
0.015015 0.097504 0.253815
0.045166 0.091248 0.310577
0.104248 0.096802 0.344818
0.207428 0.111481 0.310883
0.320007 0.132080 0.283539
0.471069 0.180573 0.339355
0.596466 0.222046 0.405701
0.000000 0.178925 0.282959
0.008209 0.182190 0.294739
0.049896 0.169830 0.327118
0.121521 0.154022 0.389496
0.247223 0.180908 0.345001
0.357513 0.193817 0.313599
0.512604 0.248138 0.382629
0.634064 0.287079 0.449982
0.000488 0.273010 0.347382
0.007477 0.276794 0.357574
0.024750 0.286713 0.381226
0.111816 0.290070 0.403992
0.277344 0.295471 0.393890
0.427094 0.306183 0.388519
0.560455 0.336700 0.437866
0.671997 0.365875 0.494720
0.006287 0.386047 0.409271
0.023315 0.390106 0.416107
0.044495 0.398987 0.432312
0.082703 0.414246 0.468262
0.234283 0.433441 0.498810
0.467407 0.420044 0.441986
0.601532 0.437958 0.486572
0.702057 0.469147 0.542053
0.018860 0.501709 0.486389
0.039886 0.506042 0.491577
0.061005 0.514374 0.504089
0.083221 0.529236 0.527161
0.185944 0.560516 0.574554
0.433441 0.559692 0.541229
0.627441 0.537048 0.508087
0.735596 0.570526 0.581940
0.032684 0.634033 0.584717
0.055176 0.639343 0.589844
0.076874 0.648224 0.600647
0.103027 0.662628 0.619995
0.137909 0.684662 0.655029
0.321411 0.716095 0.684021
0.607391 0.708069 0.615601
0.759979 0.724060 0.633820
0.053833 0.783020 0.692932
0.077271 0.790466 0.698883
0.101837 0.802032 0.709381
0.135620 0.818848 0.726440
0.174927 0.839661 0.750397
0.261200 0.865845 0.774017
0.598145 0.870148 0.737946
0.778046 0.881775 0.752502
0.004181 0.065125 0.299255
0.013794 0.059784 0.332550
0.043030 0.064178 0.373627
0.097992 0.070374 0.431702
0.185455 0.080627 0.412415
0.297943 0.101440 0.380432
0.425110 0.124390 0.380249
0.562653 0.153656 0.432343
0.001862 0.125061 0.320404
0.017487 0.110596 0.343140
0.047821 0.102295 0.394867
0.110596 0.110504 0.455444
0.203430 0.120789 0.442871
0.316833 0.144409 0.411407
0.446045 0.171173 0.404846
0.585358 0.205597 0.453522
0.000000 0.203094 0.372894
0.008667 0.203217 0.386719
0.050781 0.193054 0.412750
0.124084 0.176147 0.477203
0.226318 0.186005 0.501831
0.349243 0.219879 0.455353
0.482056 0.239746 0.444855
0.642151 0.277252 0.506378
0.004944 0.301605 0.440155
0.017578 0.305084 0.450348
0.038757 0.313721 0.475464
0.120941 0.309875 0.499756
0.248047 0.291992 0.574707
0.398590 0.325653 0.511597
0.538483 0.327942 0.498657
0.688507 0.356110 0.557678
0.008942 0.406250 0.508118
0.030670 0.410309 0.515991
0.052155 0.418365 0.534180
0.075012 0.433441 0.568848
0.232056 0.449005 0.599731
0.443695 0.434845 0.569580
0.597656 0.431488 0.555542
0.719513 0.464386 0.614502
0.022949 0.518829 0.578522
0.044312 0.523804 0.585663
0.065887 0.533112 0.601044
0.089630 0.548096 0.628174
0.163300 0.577667 0.670410
0.376678 0.589264 0.695618
0.621460 0.570312 0.621368
0.749176 0.592255 0.677948
0.037628 0.651825 0.670685
0.060486 0.657440 0.676086
0.082703 0.667175 0.687561
0.112000 0.683319 0.707611
0.150330 0.706970 0.740082
0.321533 0.737427 0.794189
0.608643 0.731537 0.728546
0.772888 0.743561 0.746155
0.061279 0.803070 0.772095
0.085052 0.811493 0.778137
0.112610 0.823486 0.788086
0.147522 0.839020 0.803741
0.187317 0.856873 0.824493
0.230927 0.877380 0.850403
0.512604 0.905334 0.876190
0.785461 0.896301 0.834961
0.005646 0.081116 0.403534
0.017944 0.074951 0.429016
0.047089 0.077667 0.471771
0.104034 0.085815 0.519409
0.192261 0.094635 0.560211
0.295105 0.111877 0.515594
0.426971 0.137787 0.503052
0.565857 0.172302 0.541931
0.004150 0.146301 0.420898
0.020203 0.134827 0.442078
0.051392 0.128784 0.484467
0.113861 0.127075 0.543457
0.206055 0.139160 0.597382
0.313080 0.163330 0.553253
0.451050 0.191895 0.532440
0.586975 0.221466 0.566437
0.001434 0.231903 0.475311
0.019623 0.229431 0.488708
0.056915 0.224792 0.507843
0.130371 0.209259 0.576111
0.229401 0.213684 0.654236
0.349243 0.239471 0.608887
0.488464 0.267670 0.582336
0.617096 0.282104 0.597626
0.007019 0.326599 0.539124
0.024292 0.330566 0.550934
0.054504 0.337860 0.577301
0.129364 0.339142 0.606476
0.244507 0.313995 0.692047
0.381470 0.318634 0.691071
0.528900 0.346771 0.635712
0.655884 0.357147 0.644073
0.015808 0.424835 0.617828
0.037231 0.429626 0.625763
0.058929 0.438965 0.642609
0.082001 0.455139 0.673492
0.240448 0.465820 0.708588
0.404419 0.423401 0.787231
0.573547 0.460663 0.696716
0.702087 0.460571 0.707703
0.028656 0.541748 0.689148
0.050751 0.547058 0.696320
0.072571 0.556519 0.712006
0.099243 0.572357 0.737732
0.137329 0.597321 0.778412
0.368195 0.613678 0.807648
0.607361 0.597626 0.756897
0.754395 0.606628 0.779205
0.045288 0.673920 0.764343
0.068512 0.680450 0.770996
0.091980 0.691620 0.784058
0.125458 0.708832 0.806244
0.167145 0.730682 0.838531
0.307312 0.763062 0.889771
0.588562 0.764465 0.876862
0.788391 0.759247 0.841522
0.071259 0.826263 0.850616
0.094513 0.832916 0.857117
0.124725 0.843628 0.867188
0.161102 0.857391 0.882385
0.201080 0.873749 0.901794
0.244415 0.892822 0.923309
0.426605 0.931305 0.969604
0.792084 0.913300 0.917480
0.006409 0.111664 0.513062
0.022614 0.108551 0.531281
0.052429 0.094269 0.578064
0.112976 0.103210 0.622772
0.198029 0.118317 0.686127
0.307556 0.135406 0.705475
0.439667 0.166229 0.656616
0.580597 0.193787 0.667145
0.005981 0.178406 0.531830
0.023407 0.170319 0.543549
0.053009 0.169006 0.576324
0.120239 0.150116 0.645355
0.213226 0.166687 0.714508
0.321259 0.182739 0.741150
0.458191 0.214691 0.680115
0.596008 0.237610 0.687378
0.006409 0.262268 0.583801
0.026459 0.258972 0.600159
0.065918 0.254028 0.622681
0.129913 0.249207 0.679565
0.230072 0.236847 0.754425
0.348419 0.247070 0.799835
0.490051 0.274719 0.733124
0.622192 0.291992 0.725220
0.009216 0.348877 0.649780
0.030731 0.353790 0.661163
0.055084 0.361816 0.690277
0.136200 0.360382 0.722565
0.241028 0.346741 0.799683
0.375336 0.340607 0.865387
0.532959 0.345917 0.805511
0.657074 0.365967 0.786865
0.022919 0.445953 0.725586
0.044281 0.452576 0.731079
0.066040 0.463318 0.746887
0.093414 0.480988 0.779755
0.235504 0.497314 0.822479
0.390198 0.478241 0.895935
0.573517 0.462372 0.877045
0.699829 0.474945 0.846985
0.036438 0.565460 0.795410
0.059509 0.572601 0.801605
0.082550 0.584198 0.815887
0.115234 0.601990 0.839691
0.159454 0.624176 0.876953
0.368561 0.649597 0.932312
0.602631 0.612457 0.914673
0.738403 0.630951 0.888641
0.058075 0.702271 0.863037
0.081116 0.709290 0.870636
0.108124 0.720520 0.884003
0.143433 0.735352 0.905365
0.185364 0.753296 0.934570
0.288116 0.781982 0.976166
0.604156 0.793884 0.974396
0.771515 0.777130 0.940979
0.085175 0.850067 0.933533
0.109283 0.855133 0.940125
0.140472 0.863373 0.951050
0.176971 0.875610 0.967682
0.247375 0.895233 0.989227
0.371765 0.922577 0.991241
0.561890 0.949677 0.992706
0.783905 0.941040 0.985535
