滤镜资源/Professional Luts Collection/Triune-Digital-Cinematic-LUTs/3D LUTs (CUBE)/STANDARD/Batman vs Superman - Rec709.cube
#Created by Benjamin (IWLTBAP) : http://luts.iwltbap.com
#Copyright: (C) Copyright 2016 Triune Films and IWLTBAP
TITLE "Blockbuster LUTs Pack (Rec.709)"
#LUT size
LUT_3D_SIZE 5
#LUT data points
DOMAIN_MIN 0.000000 0.000000 0.000000
DOMAIN_MAX 0.903226 0.903226 0.903226
0.006134 0.011078 0.013947
0.158691 0.034149 0.015320
0.340027 0.063965 0.011230
0.538910 0.099945 0.035156
0.719971 0.127991 0.041626
0.024658 0.138550 0.039825
0.117584 0.140747 0.038940
0.319763 0.188171 0.025024
0.559692 0.230743 0.024139
0.747620 0.268524 0.032043
0.036560 0.267090 0.059540
0.125946 0.274445 0.059906
0.289795 0.285004 0.042847
0.528564 0.335388 0.045044
0.739624 0.397430 0.038239
0.054504 0.402313 0.072418
0.152710 0.412781 0.084015
0.337799 0.448883 0.055573
0.519470 0.462891 0.055328
0.717896 0.509521 0.054626
0.075806 0.541138 0.098694
0.178497 0.562317 0.108093
0.334564 0.607544 0.081940
0.562714 0.653259 0.072357
0.723053 0.666779 0.065979
0.021393 0.048889 0.126343
0.126801 0.054565 0.126495
0.321503 0.080688 0.123718
0.537231 0.109528 0.133728
0.715393 0.128510 0.137360
0.018585 0.141541 0.132385
0.119843 0.184387 0.165039
0.382324 0.211395 0.137665
0.600647 0.236084 0.145538
0.765869 0.263367 0.140869
0.025543 0.279602 0.157349
0.132996 0.326935 0.180420
0.338654 0.345734 0.162811
0.619751 0.400970 0.156250
0.792114 0.444489 0.126678
0.036682 0.408081 0.184052
0.175262 0.472382 0.201874
0.374146 0.518890 0.198730
0.575806 0.542816 0.196075
0.782593 0.588654 0.189606
0.049042 0.539093 0.213287
0.210236 0.620361 0.233124
0.362885 0.674072 0.223053
0.620392 0.724854 0.230408
0.773865 0.729462 0.197144
0.035980 0.083740 0.238892
0.117004 0.088348 0.246552
0.295990 0.103760 0.241180
0.498627 0.139435 0.237366
0.701538 0.154144 0.245392
0.029236 0.178406 0.246490
0.114899 0.226685 0.296021
0.333771 0.241669 0.288391
0.581207 0.262329 0.271881
0.771576 0.272369 0.272003
0.024506 0.284912 0.261505
0.105255 0.338470 0.309814
0.323059 0.396790 0.344543
0.629944 0.441284 0.322632
0.822784 0.465851 0.309998
0.033417 0.443085 0.303925
0.119720 0.493469 0.340515
0.339264 0.564270 0.370697
0.606842 0.611359 0.349762
0.829102 0.663940 0.332123
0.046783 0.578491 0.338257
0.130920 0.627960 0.371582
0.336426 0.725891 0.378387
0.627136 0.775177 0.386169
0.800690 0.784821 0.374695
0.048370 0.123779 0.358429
0.118927 0.127808 0.368073
0.303558 0.140961 0.371948
0.510315 0.151672 0.348511
0.677032 0.183990 0.359039
0.043213 0.218506 0.368347
0.138458 0.268250 0.422546
0.331268 0.279053 0.435333
0.560211 0.296356 0.410675
0.739258 0.328613 0.434875
0.032135 0.323578 0.386017
0.123291 0.377686 0.440857
0.292694 0.443542 0.511871
0.576691 0.475830 0.506897
0.790131 0.497772 0.504822
0.031494 0.439697 0.408112
0.118896 0.503662 0.466461
0.229675 0.572327 0.531464
0.582550 0.674133 0.553131
0.837555 0.701294 0.535461
0.041229 0.607422 0.460693
0.137329 0.666138 0.514862
0.248871 0.715912 0.540466
0.606628 0.816833 0.567932
0.817963 0.831848 0.542603
0.068573 0.163116 0.477203
0.141876 0.167603 0.484009
0.313995 0.173431 0.506531
0.513611 0.192596 0.491150
0.681671 0.198639 0.498627
0.065948 0.257751 0.489563
0.162415 0.307068 0.543091
0.283813 0.315613 0.571960
0.550385 0.339508 0.593445
0.724701 0.348114 0.598663
0.055542 0.365051 0.512512
0.151398 0.419281 0.567566
0.256165 0.478607 0.641541
0.553955 0.509766 0.675659
0.762848 0.532074 0.674805
0.040436 0.480072 0.538361
0.128632 0.538910 0.592194
0.236481 0.597534 0.655548
0.585327 0.705475 0.718811
0.790558 0.725342 0.718414
0.040863 0.603912 0.565399
0.133606 0.661530 0.615387
0.216888 0.711975 0.664917
0.535400 0.817535 0.730865
0.813568 0.868591 0.728760
