滤镜资源/Professional Luts Collection/Triune-Digital-Cinematic-LUTs/3D LUTs (CUBE)/STANDARD/Batman vs Superman - Rec709.cube
#Created by Benjamin (IWLTBAP) : http://luts.iwltbap.com
#Copyright: (C) Copyright 2016 Triune Films and IWLTBAP
TITLE "Blockbuster LUTs Pack (Rec.709)"
#LUT size
LUT_3D_SIZE 8
#LUT data points
DOMAIN_MIN 0.000000 0.000000 0.000000
DOMAIN_MAX 0.903226 0.903226 0.903226
0.006134 0.011078 0.013947
0.090088 0.022461 0.014557
0.183289 0.037903 0.012970
0.285797 0.054260 0.009735
0.397888 0.073822 0.013916
0.511841 0.095306 0.031738
0.621460 0.112640 0.038849
0.719971 0.127991 0.041626
0.016632 0.083313 0.031494
0.061890 0.085052 0.031464
0.164032 0.107208 0.023834
0.277252 0.131348 0.015839
0.406403 0.150391 0.007812
0.536316 0.168457 0.018646
0.646729 0.186554 0.030182
0.739227 0.201691 0.035004
0.026733 0.157959 0.042816
0.070831 0.159271 0.042603
0.140717 0.161041 0.037537
0.245178 0.183075 0.034058
0.387146 0.216095 0.022461
0.528381 0.243591 0.025543
0.649567 0.266296 0.031464
0.747253 0.288116 0.036072
0.032410 0.229858 0.053558
0.076538 0.234467 0.051727
0.142242 0.235535 0.053986
0.235016 0.239624 0.040527
0.354980 0.265167 0.035858
0.510559 0.301208 0.036469
0.640991 0.333282 0.036194
0.742188 0.361237 0.035278
0.040344 0.304413 0.064575
0.088348 0.311554 0.058807
0.147919 0.314880 0.067566
0.255676 0.328125 0.046906
0.355408 0.333527 0.037415
0.489410 0.358643 0.044708
0.615448 0.389679 0.047913
0.732788 0.428040 0.040680
0.050964 0.383850 0.069244
0.101227 0.388489 0.072571
0.164124 0.396118 0.080627
0.270538 0.416748 0.055756
0.383301 0.434326 0.052765
0.488373 0.435883 0.051514
0.610626 0.461761 0.054810
0.716064 0.489471 0.053864
0.062622 0.460693 0.081329
0.119293 0.467743 0.088409
0.179382 0.479675 0.094330
0.258026 0.502106 0.077850
0.407654 0.531097 0.063873
0.511261 0.551971 0.061401
0.609619 0.549500 0.059692
0.720673 0.572998 0.058105
0.075806 0.541138 0.098694
0.129883 0.550232 0.103882
0.195099 0.566467 0.108307
0.277344 0.593231 0.085846
0.423065 0.625427 0.074158
0.541199 0.650177 0.073608
0.634583 0.669098 0.070953
0.723053 0.666779 0.065979
0.015076 0.033936 0.078217
0.066284 0.036346 0.078979
0.165161 0.048920 0.088348
0.278778 0.058624 0.076050
0.397430 0.075592 0.074829
0.514526 0.092804 0.084808
0.625519 0.109100 0.092102
0.722290 0.123596 0.095642
0.013672 0.084595 0.081238
0.071167 0.107147 0.098114
0.186066 0.121796 0.091736
0.315002 0.136414 0.073273
0.432922 0.151123 0.070892
0.545959 0.170319 0.089722
0.654083 0.187500 0.093384
0.744202 0.202637 0.099823
0.020477 0.160553 0.093750
0.072662 0.185608 0.109589
0.156097 0.187531 0.104828
0.294739 0.212524 0.087006
0.448273 0.235626 0.066193
0.579651 0.254852 0.069855
0.682800 0.270691 0.081757
0.769318 0.290039 0.083801
0.029633 0.233521 0.105072
0.081512 0.265411 0.119690
0.155243 0.268311 0.120514
0.263306 0.273560 0.105408
0.409760 0.300293 0.083191
0.568695 0.334930 0.085205
0.686401 0.358582 0.078766
0.775787 0.385559 0.076843
0.034576 0.306458 0.117645
0.093567 0.340851 0.124939
0.167694 0.347595 0.134308
0.288452 0.365601 0.104248
0.393433 0.371704 0.104279
0.531647 0.400177 0.116913
0.670471 0.433624 0.092926
0.772278 0.469788 0.089508
0.041687 0.380249 0.133270
0.113953 0.420868 0.138306
0.191223 0.430817 0.151398
0.293060 0.456879 0.136200
0.419006 0.477997 0.129120
0.526062 0.481964 0.121918
0.651306 0.509338 0.123901
0.759125 0.535736 0.104279
0.053223 0.463654 0.145081
0.129761 0.504425 0.155334
0.210388 0.518616 0.168518
0.280731 0.544952 0.157166
0.444946 0.579071 0.146637
0.551514 0.598541 0.137482
0.651184 0.599030 0.121613
0.754120 0.616364 0.118683
0.063354 0.545624 0.160583
0.148987 0.585266 0.172333
0.227814 0.603668 0.180847
0.305450 0.632294 0.172852
0.453308 0.667053 0.170135
0.580139 0.694122 0.157410
0.670258 0.708282 0.148071
0.757477 0.705444 0.137085
0.024109 0.054474 0.142212
0.068665 0.056030 0.143250
0.148071 0.061432 0.143311
0.246460 0.079865 0.149750
0.382050 0.092529 0.137604
0.507233 0.109985 0.147705
0.618256 0.125488 0.155304
0.711823 0.132751 0.153412
0.021912 0.104950 0.143890
0.069336 0.131378 0.168396
0.158447 0.134369 0.164520
0.291595 0.148285 0.162292
0.434296 0.160034 0.148010
0.562561 0.176575 0.157898
0.668671 0.185394 0.153503
0.751373 0.196991 0.152771
0.020111 0.161804 0.149780
0.063995 0.190002 0.173737
0.138489 0.211670 0.189758
0.305756 0.230560 0.176056
0.453094 0.243164 0.157745
0.577820 0.258667 0.165771
0.688416 0.269440 0.162262
0.777283 0.285339 0.159882
0.023041 0.244232 0.167938
0.066956 0.271454 0.186279
0.139954 0.294250 0.195587
0.275909 0.305115 0.179840
0.448547 0.336334 0.170319
0.606232 0.358185 0.159149
0.717407 0.374146 0.150543
0.796143 0.395416 0.153473
0.026978 0.320496 0.181183
0.072632 0.347778 0.199707
0.163177 0.377167 0.207245
0.288361 0.395538 0.204956
0.414795 0.408875 0.188751
0.568298 0.441376 0.196106
0.709381 0.471893 0.186371
0.798126 0.498596 0.171448
0.032196 0.394836 0.197662
0.090057 0.428619 0.211670
0.189453 0.463837 0.221191
0.299683 0.485291 0.230530
0.443756 0.517426 0.210510
0.550629 0.524994 0.213348
0.677063 0.552429 0.224945
0.792419 0.582947 0.203552
0.037018 0.468414 0.213196
0.104858 0.505127 0.223572
0.212189 0.549194 0.237396
0.300812 0.572540 0.247192
0.456146 0.613098 0.239410
0.574249 0.636536 0.236816
0.675995 0.639435 0.225586
0.781952 0.661346 0.236847
0.045654 0.542206 0.231750
0.119232 0.585327 0.239136
0.229431 0.634613 0.252747
0.313293 0.664856 0.251465
0.459015 0.701202 0.249420
0.595062 0.728729 0.255585
0.692047 0.742310 0.253571
0.778900 0.739227 0.228760
0.032471 0.073792 0.205811
0.071442 0.075714 0.209808
0.147125 0.078766 0.211578
0.240601 0.088654 0.209869
0.358246 0.109344 0.204865
0.482300 0.126892 0.206787
0.601929 0.140289 0.214966
0.707611 0.147766 0.217712
0.029205 0.125122 0.208191
0.076355 0.153870 0.236420
0.137024 0.155640 0.239716
0.264648 0.166199 0.233826
0.396454 0.185486 0.226410
0.535034 0.195038 0.225494
0.655701 0.205597 0.227753
0.754150 0.207916 0.223694
0.024841 0.181305 0.214294
0.071411 0.210571 0.241333
0.122864 0.237396 0.270050
0.269196 0.244934 0.258423
0.430206 0.260223 0.248505
0.572144 0.267181 0.240204
0.689545 0.274811 0.238251
0.785400 0.278748 0.230774
0.023621 0.243042 0.222931
0.068115 0.273895 0.250366
0.113861 0.302673 0.277374
0.252197 0.330261 0.287659
0.445282 0.355865 0.276886
0.597382 0.372772 0.262573
0.715302 0.385132 0.259399
0.808685 0.399689 0.259338
0.028168 0.327942 0.244537
0.077148 0.364319 0.271210
0.124603 0.391266 0.287628
0.259186 0.417938 0.293915
0.421814 0.444031 0.282928
0.597046 0.482697 0.281982
0.736420 0.505920 0.262787
0.826874 0.523041 0.247589
0.031799 0.415710 0.267914
0.081177 0.444672 0.287720
0.141663 0.474396 0.303833
0.266785 0.511841 0.313263
0.442871 0.549927 0.304443
0.567871 0.563354 0.296204
0.705444 0.595398 0.305145
0.820709 0.625336 0.283142
0.037842 0.490723 0.284454
0.082581 0.520203 0.304321
0.158112 0.552185 0.315186
0.293823 0.601593 0.331055
0.446594 0.643494 0.325470
0.592316 0.669891 0.321869
0.692352 0.678070 0.324249
0.800415 0.697296 0.324860
0.045288 0.564209 0.300629
0.090607 0.595886 0.322571
0.182190 0.628418 0.322510
0.298340 0.694733 0.332489
0.444183 0.732361 0.329895
0.593384 0.756226 0.340454
0.710938 0.773438 0.334930
0.794037 0.769623 0.324097
0.038666 0.095154 0.272736
0.078918 0.097565 0.277649
0.134430 0.100098 0.283325
0.245300 0.110077 0.281128
0.360321 0.117493 0.270020
0.477264 0.138794 0.268494
0.576447 0.159119 0.274872
0.692352 0.164520 0.276093
0.035400 0.148010 0.275970
0.084900 0.176880 0.304993
0.129089 0.180054 0.313507
0.262573 0.187683 0.309601
0.393341 0.195618 0.295929
0.507812 0.218262 0.293030
0.628479 0.226044 0.296112
0.737518 0.229370 0.293884
0.030487 0.204498 0.283234
0.079926 0.233154 0.310760
0.134155 0.262421 0.344696
0.256073 0.264069 0.341095
0.405487 0.280640 0.332489
0.540680 0.298950 0.320007
0.673035 0.297516 0.310638
0.771088 0.303711 0.316376
0.026611 0.263580 0.291626
0.072327 0.294708 0.321045
0.124420 0.324402 0.352692
0.232727 0.353485 0.381805
0.405212 0.372009 0.368378
0.572754 0.387665 0.358154
0.707062 0.388031 0.336609
0.801941 0.392761 0.338257
0.025787 0.327850 0.301483
0.073334 0.362335 0.332703
0.122101 0.393768 0.362823
0.201782 0.429718 0.395630
0.396698 0.474274 0.407379
0.589661 0.505554 0.396759
0.737122 0.524261 0.373505
0.833282 0.537628 0.368347
0.030487 0.417816 0.327820
0.080505 0.459900 0.361023
0.132965 0.493988 0.391235
0.218658 0.525208 0.405426
0.409088 0.575500 0.418365
0.576935 0.604309 0.404144
0.731262 0.639130 0.396149
0.844208 0.658813 0.367371
0.038330 0.514160 0.354095
0.088196 0.550171 0.382904
0.138733 0.569489 0.396057
0.240082 0.603210 0.413300
0.417908 0.669464 0.426758
0.595245 0.700378 0.407593
0.709259 0.711731 0.403656
0.823853 0.733795 0.405548
0.045227 0.593109 0.375549
0.095367 0.618073 0.393799
0.146637 0.643799 0.412384
0.246124 0.683563 0.414307
0.411804 0.757141 0.429474
0.590942 0.782928 0.439301
0.723785 0.800476 0.421265
0.808716 0.800385 0.417755
0.046082 0.118103 0.341675
0.085724 0.120392 0.345795
0.129150 0.124359 0.355042
0.249481 0.129761 0.355316
0.358521 0.141205 0.350677
0.483917 0.144043 0.330444
0.584351 0.167786 0.338989
0.674683 0.182007 0.341400
0.044006 0.171112 0.345428
0.096100 0.199707 0.375641
0.140228 0.204407 0.383942
0.258514 0.206390 0.389954
0.385529 0.222168 0.385986
0.515991 0.225128 0.359711
0.621979 0.244598 0.366699
0.716644 0.256744 0.375885
0.039185 0.227844 0.353546
0.092804 0.256165 0.382599
0.148743 0.286469 0.418304
0.238922 0.287201 0.421143
0.398254 0.305969 0.422546
0.537323 0.311707 0.401978
0.645660 0.334106 0.412018
0.751221 0.341888 0.420654
0.031525 0.287170 0.363525
0.083466 0.319244 0.395050
0.140533 0.348907 0.427734
0.230957 0.383514 0.468262
0.398102 0.395874 0.468262
0.540558 0.411224 0.460968
0.668091 0.434387 0.470734
0.780273 0.435089 0.460358
0.030487 0.349609 0.375122
0.080231 0.384766 0.407715
0.131165 0.415314 0.438110
0.192078 0.451050 0.479218
0.378235 0.498993 0.505310
0.545532 0.526245 0.504456
0.700989 0.541565 0.503235
0.811401 0.535400 0.467102
0.030487 0.416779 0.386810
0.080505 0.456635 0.421753
0.130707 0.489563 0.452698
0.182800 0.527588 0.490448
0.340637 0.576660 0.522797
0.547607 0.639282 0.526733
0.723969 0.659058 0.518829
0.840057 0.674042 0.502136
0.034882 0.511505 0.416168
0.088287 0.555054 0.454590
0.142029 0.587799 0.484436
0.196442 0.623383 0.516907
0.315338 0.659149 0.523224
0.562439 0.726898 0.530792
0.714691 0.745178 0.509644
0.835785 0.765015 0.513306
0.041565 0.607971 0.447052
0.097870 0.644806 0.480713
0.148712 0.667511 0.500458
0.215393 0.693634 0.508362
0.308868 0.740479 0.519836
0.573364 0.807709 0.540863
0.715088 0.823303 0.539978
0.816895 0.826294 0.516907
0.056702 0.140564 0.409180
0.096252 0.141968 0.411469
0.139008 0.145996 0.419159
0.238739 0.145905 0.432007
0.363708 0.161011 0.427704
0.480988 0.166504 0.409180
0.588959 0.174591 0.403595
0.683289 0.191406 0.419525
0.054779 0.192932 0.414398
0.109955 0.221191 0.444031
0.153931 0.227600 0.453339
0.242523 0.229309 0.461731
0.390411 0.244049 0.466888
0.508484 0.253143 0.454956
0.623169 0.254181 0.449432
0.716980 0.272034 0.469788
0.051025 0.249817 0.423279
0.107330 0.277191 0.451416
0.162354 0.308136 0.487427
0.229431 0.314484 0.500854
0.399628 0.324432 0.514557
0.520355 0.340576 0.510406
0.638275 0.342834 0.509247
0.737213 0.367096 0.528015
0.042877 0.310028 0.434296
0.099518 0.342010 0.466675
0.156647 0.371124 0.498749
0.214478 0.406616 0.546448
0.364349 0.414001 0.553986
0.537445 0.436310 0.563232
0.655182 0.446320 0.559845
0.757599 0.474121 0.573181
0.034882 0.371307 0.446045
0.087006 0.407379 0.480377
0.143982 0.438507 0.511841
0.203796 0.475311 0.555267
0.363159 0.520905 0.594421
0.541595 0.545502 0.601776
0.672974 0.561554 0.598633
0.785034 0.584595 0.610992
0.034882 0.438568 0.460449
0.087006 0.479462 0.498077
0.138123 0.508850 0.526672
0.191101 0.544250 0.564240
0.346039 0.593140 0.605927
0.537628 0.659363 0.627716
0.682526 0.675751 0.626526
0.811127 0.684631 0.629913
0.034882 0.510498 0.474976
0.083496 0.552185 0.512695
0.135376 0.582642 0.541260
0.192657 0.617188 0.575470
0.288879 0.660553 0.611450
0.488098 0.728699 0.636078
0.691620 0.768951 0.636292
0.826447 0.778839 0.630951
0.040863 0.604767 0.508850
0.097534 0.643463 0.542206
0.146362 0.673218 0.567993
0.189728 0.702332 0.595215
0.264648 0.742188 0.629303
0.452850 0.804779 0.631012
0.711609 0.842621 0.642395
0.818817 0.849670 0.623688
0.068573 0.163116 0.477203
0.109772 0.164490 0.479218
0.152802 0.168671 0.485748
0.229462 0.169617 0.498108
0.371185 0.181976 0.505127
0.486847 0.190796 0.494843
0.588867 0.197174 0.493408
0.681671 0.198639 0.498627
0.066742 0.215271 0.482788
0.123413 0.242493 0.510315
0.167175 0.249359 0.521027
0.230286 0.253021 0.532990
0.395630 0.261658 0.552673
0.505951 0.276245 0.552887
0.610504 0.283203 0.556122
0.707886 0.282562 0.560608
0.064972 0.273071 0.493011
0.121368 0.299072 0.519379
0.174927 0.330811 0.556671
0.221100 0.337433 0.574493
0.350830 0.336243 0.612640
0.528320 0.355743 0.610626
0.637360 0.367767 0.608978
0.730743 0.372742 0.612213
0.060059 0.334717 0.506195
0.116364 0.364929 0.537354
0.169617 0.393372 0.569031
0.227051 0.427429 0.611633
0.329987 0.434418 0.627502
0.512329 0.450470 0.656281
0.656494 0.466034 0.656921
0.752289 0.474823 0.656708
0.047394 0.396118 0.519073
0.101471 0.431427 0.553314
0.159241 0.462128 0.584412
0.219666 0.494171 0.621368
0.355774 0.540283 0.669891
0.508667 0.561188 0.691620
0.671631 0.581055 0.692474
0.773102 0.590912 0.691162
0.040436 0.462555 0.533997
0.087830 0.500671 0.569061
0.140320 0.529724 0.596588
0.207489 0.562653 0.632111
0.339935 0.608948 0.679718
0.537964 0.674896 0.715790
0.687317 0.693207 0.715912
0.788483 0.701477 0.714966
0.040436 0.535522 0.553009
0.090942 0.573181 0.586609
0.144775 0.599670 0.610016
0.200378 0.628754 0.641449
0.292755 0.671021 0.684021
0.500336 0.742737 0.723297
0.705566 0.785614 0.726715
0.798401 0.792084 0.726593
0.040863 0.603912 0.565399
0.097809 0.641052 0.597107
0.145660 0.668518 0.621796
0.192871 0.695557 0.647827
0.240356 0.729340 0.684082
0.448669 0.803375 0.729034
0.694092 0.844940 0.725952
0.813568 0.868591 0.728760
