滤镜资源/Professional Luts Collection/Triune-Digital-Cinematic-LUTs/3D LUTs (CUBE)/STANDARD/Breaking Bad - Rec709.cube
#Created by Benjamin (IWLTBAP) : http://luts.iwltbap.com
#Copyright: (C) Copyright 2016 Triune Films and IWLTBAP
TITLE "Blockbuster LUTs Pack (Rec.709)"
#LUT size
LUT_3D_SIZE 32
#LUT data points
0.008057 0.012360 0.012146
0.018097 0.014282 0.013275
0.030457 0.017242 0.015442
0.045624 0.020660 0.018250
0.063599 0.025024 0.021576
0.085236 0.029663 0.022949
0.110596 0.036011 0.027344
0.144135 0.043884 0.037842
0.183411 0.051819 0.047516
0.223083 0.058655 0.055298
0.264679 0.065399 0.062225
0.304077 0.074371 0.069458
0.345978 0.085083 0.077484
0.388275 0.095459 0.087372
0.425934 0.104980 0.095276
0.458466 0.113892 0.102631
0.489899 0.121765 0.110321
0.520599 0.129395 0.118439
0.554260 0.138214 0.127899
0.586914 0.146667 0.136658
0.617310 0.153595 0.144562
0.646484 0.161194 0.151764
0.672333 0.167969 0.157501
0.696136 0.174622 0.162628
0.719025 0.180359 0.167786
0.739929 0.186066 0.173492
0.759583 0.191101 0.178894
0.778198 0.195557 0.183868
0.795624 0.199585 0.188690
0.813019 0.203461 0.193634
0.828369 0.206909 0.197205
0.844452 0.211029 0.201141
0.010010 0.023376 0.014832
0.018829 0.025604 0.015411
0.029144 0.029175 0.016144
0.044037 0.032471 0.018829
0.061066 0.036774 0.022217
0.081757 0.041809 0.023804
0.105804 0.047760 0.026611
0.138397 0.054138 0.037506
0.176392 0.061462 0.046997
0.208771 0.067474 0.053284
0.247803 0.074341 0.060455
0.283630 0.081268 0.066498
0.320374 0.091614 0.074707
0.360168 0.101288 0.083069
0.400665 0.111237 0.092316
0.436401 0.120850 0.100128
0.469910 0.129883 0.107788
0.503357 0.138214 0.116791
0.534637 0.145844 0.125061
0.567566 0.154053 0.133972
0.598969 0.161774 0.142212
0.631775 0.170288 0.149475
0.661652 0.178131 0.155792
0.686768 0.185089 0.161407
0.712402 0.191315 0.166870
0.735992 0.196320 0.173035
0.757721 0.201813 0.179169
0.779266 0.207428 0.185516
0.797150 0.211975 0.190674
0.814789 0.216675 0.195831
0.832520 0.220978 0.200897
0.847809 0.224701 0.204742
0.011841 0.034332 0.017792
0.020660 0.036377 0.018005
0.029602 0.039856 0.018036
0.041718 0.044647 0.019409
0.058502 0.048920 0.022888
0.079102 0.053864 0.024658
0.103027 0.059418 0.026886
0.133698 0.065887 0.037231
0.168976 0.072601 0.046326
0.200012 0.078552 0.051880
0.236725 0.085083 0.059479
0.273224 0.091492 0.065369
0.308136 0.101379 0.073517
0.343842 0.111450 0.081757
0.384277 0.121307 0.091705
0.424103 0.132080 0.100433
0.461365 0.142303 0.108948
0.496155 0.152771 0.119110
0.529297 0.161804 0.128632
0.558655 0.170166 0.135590
0.588074 0.179382 0.141968
0.619751 0.187988 0.148651
0.649445 0.195312 0.155121
0.676208 0.200592 0.161591
0.703400 0.206055 0.168884
0.730621 0.210999 0.175995
0.753937 0.216370 0.182312
0.776611 0.221527 0.188690
0.796448 0.226044 0.194092
0.814606 0.230316 0.198792
0.830719 0.235229 0.202820
0.846008 0.239655 0.206512
0.013672 0.045807 0.020660
0.022583 0.047638 0.020599
0.031677 0.051331 0.020660
0.042114 0.055878 0.021179
0.056274 0.061554 0.023254
0.076050 0.066223 0.025269
0.099518 0.072052 0.027039
0.129883 0.078369 0.037170
0.165802 0.085327 0.046539
0.195068 0.091492 0.051453
0.230682 0.097992 0.059296
0.266083 0.104462 0.065491
0.300781 0.114075 0.073578
0.334656 0.123840 0.081970
0.371552 0.132812 0.090851
0.410461 0.142548 0.099792
0.450500 0.152557 0.109100
0.482330 0.164673 0.117340
0.516296 0.176086 0.127380
0.549652 0.186340 0.135803
0.580139 0.197449 0.143250
0.610291 0.208008 0.150970
0.638184 0.214355 0.157410
0.665009 0.219421 0.164215
0.692688 0.224518 0.172150
0.719391 0.229370 0.179382
0.742676 0.234680 0.185699
0.764557 0.239868 0.191071
0.787323 0.243530 0.195465
0.804993 0.247711 0.199585
0.822479 0.251740 0.203369
0.837982 0.256256 0.207092
0.016022 0.057861 0.023956
0.024689 0.059235 0.024017
0.033997 0.063171 0.024078
0.043976 0.067505 0.024536
0.055878 0.073578 0.025513
0.073334 0.080322 0.026062
0.095673 0.085846 0.027740
0.124268 0.092072 0.037262
0.164124 0.100067 0.046997
0.192108 0.105713 0.052155
0.227448 0.112366 0.060638
0.261292 0.119446 0.066986
0.296204 0.128357 0.074493
0.330566 0.137360 0.082458
0.367401 0.145569 0.091766
0.404449 0.154877 0.101379
0.440948 0.163727 0.109711
0.473633 0.175507 0.118195
0.504913 0.188690 0.127228
0.539093 0.202393 0.136261
0.572784 0.213928 0.144897
0.604980 0.225647 0.153564
0.631500 0.234802 0.160828
0.656708 0.242340 0.168091
0.683868 0.247681 0.176025
0.709076 0.253845 0.182953
0.729614 0.260681 0.188141
0.750153 0.266632 0.192841
0.772614 0.269745 0.197083
0.792480 0.272736 0.201416
0.809204 0.276581 0.205505
0.826477 0.281158 0.209503
0.018921 0.070557 0.027893
0.027618 0.071106 0.027924
0.036469 0.075348 0.028107
0.045532 0.080658 0.028809
0.057251 0.086975 0.029968
0.071564 0.093475 0.029236
0.094208 0.100708 0.029175
0.122559 0.106598 0.038574
0.161530 0.114807 0.048218
0.195557 0.122406 0.055969
0.231262 0.129700 0.063660
0.263428 0.136505 0.068970
0.299072 0.143402 0.076660
0.329773 0.151062 0.083618
0.364960 0.158813 0.092590
0.399139 0.167419 0.101837
0.434143 0.176727 0.111359
0.465942 0.187927 0.119812
0.496307 0.200531 0.127869
0.528351 0.213593 0.136322
0.561218 0.224945 0.144623
0.591797 0.236420 0.152344
0.618896 0.246185 0.159668
0.642670 0.254425 0.166382
0.667816 0.261719 0.174072
0.694061 0.268738 0.182007
0.715393 0.275818 0.187469
0.735809 0.282867 0.192688
0.756897 0.288391 0.197266
0.777252 0.293152 0.201752
0.796204 0.300323 0.207062
0.812714 0.305115 0.211304
0.021698 0.083649 0.032440
0.030182 0.085175 0.032684
0.038666 0.088318 0.032837
0.047180 0.094025 0.033417
0.058777 0.100861 0.035065
0.073975 0.107758 0.033905
0.089966 0.115265 0.032349
0.120483 0.122711 0.040527
0.157166 0.130768 0.049683
0.192719 0.138458 0.057098
0.231781 0.146729 0.065338
0.265533 0.153992 0.071259
0.301208 0.160583 0.079071
0.332153 0.166473 0.085907
0.364868 0.173706 0.094666
0.397491 0.183075 0.103577
0.428741 0.193146 0.111725
0.459137 0.203400 0.120758
0.489166 0.213196 0.129669
0.520477 0.225677 0.137787
0.552490 0.235931 0.145752
0.581757 0.246979 0.152557
0.607605 0.257690 0.158264
0.631714 0.266754 0.164948
0.656708 0.275330 0.172180
0.682220 0.283661 0.179749
0.704041 0.290161 0.185944
0.723969 0.296173 0.191528
0.744934 0.302612 0.196625
0.766296 0.308502 0.201385
0.786896 0.316498 0.207275
0.806732 0.323639 0.212738
0.023651 0.097748 0.036957
0.032501 0.099854 0.037537
0.041077 0.102570 0.037628
0.049164 0.108276 0.038330
0.061615 0.115723 0.039520
0.076691 0.123322 0.038696
0.093658 0.131805 0.038300
0.113007 0.139313 0.042145
0.151917 0.148712 0.051392
0.186798 0.155182 0.058472
0.228760 0.163239 0.066223
0.262329 0.169922 0.072510
0.297607 0.176514 0.080658
0.329346 0.183929 0.088196
0.363617 0.193298 0.096375
0.395020 0.202576 0.104675
0.425568 0.211823 0.112823
0.453766 0.219818 0.120972
0.482086 0.228302 0.129700
0.512360 0.236633 0.138367
0.543945 0.247284 0.146179
0.571472 0.260010 0.151825
0.597229 0.271210 0.157532
0.622711 0.280243 0.164124
0.646942 0.287689 0.171051
0.672729 0.295715 0.178772
0.697327 0.303894 0.186279
0.716675 0.310211 0.191559
0.736176 0.315979 0.196716
0.756165 0.321472 0.201141
0.777161 0.330017 0.206818
0.797546 0.338348 0.212708
0.025879 0.112823 0.041809
0.034760 0.114716 0.042175
0.043945 0.117706 0.042877
0.052155 0.123688 0.043823
0.063446 0.131866 0.045349
0.077850 0.140198 0.046478
0.095734 0.149628 0.048828
0.116028 0.158417 0.050140
0.143890 0.166321 0.052490
0.182831 0.173828 0.060547
0.221924 0.180145 0.067444
0.259644 0.187927 0.074799
0.293427 0.196503 0.082825
0.324829 0.204468 0.090363
0.359131 0.214386 0.098511
0.392883 0.223846 0.106445
0.424530 0.232452 0.114899
0.451355 0.238586 0.122681
0.478088 0.245422 0.130615
0.507965 0.252899 0.139252
0.537354 0.262756 0.146637
0.568054 0.276001 0.153809
0.594025 0.286346 0.159485
0.619019 0.295197 0.165619
0.642853 0.302124 0.172211
0.666107 0.309265 0.179260
0.690033 0.316772 0.186462
0.710999 0.324341 0.192566
0.730408 0.330627 0.197876
0.749359 0.336700 0.202423
0.769470 0.344940 0.207794
0.790009 0.353760 0.213837
0.030731 0.129333 0.047760
0.039856 0.131195 0.048309
0.048889 0.134186 0.049286
0.057098 0.140106 0.050079
0.067474 0.148468 0.051941
0.079712 0.155640 0.053101
0.097076 0.164703 0.055786
0.119659 0.174286 0.055817
0.142548 0.184204 0.055176
0.175507 0.190430 0.062317
0.218384 0.198181 0.070831
0.255676 0.206573 0.077728
0.292664 0.217072 0.085907
0.325470 0.225983 0.093811
0.359253 0.235382 0.101990
0.390778 0.242981 0.109314
0.423157 0.251282 0.117432
0.450684 0.256989 0.125580
0.478760 0.264038 0.134247
0.509644 0.272034 0.143036
0.536865 0.282104 0.149353
0.565521 0.292511 0.155884
0.591522 0.301849 0.161591
0.615326 0.309692 0.167145
0.638855 0.316071 0.173431
0.661987 0.322815 0.180389
0.684448 0.330322 0.187317
0.704865 0.337250 0.193237
0.724213 0.344727 0.198639
0.742615 0.351227 0.203247
0.761871 0.358459 0.208130
0.783478 0.366913 0.214661
0.036377 0.146606 0.054138
0.045776 0.149628 0.055084
0.054504 0.152527 0.056061
0.062622 0.159119 0.056824
0.072571 0.165649 0.058075
0.083954 0.173279 0.059631
0.098907 0.180725 0.061157
0.121826 0.190765 0.060760
0.144897 0.201691 0.062622
0.176300 0.208893 0.066833
0.212402 0.215668 0.073792
0.253479 0.226349 0.081238
0.290588 0.236481 0.089264
0.327942 0.247284 0.098541
0.362030 0.256653 0.107300
0.393646 0.263733 0.115112
0.422791 0.270721 0.122314
0.450989 0.277191 0.129639
0.478851 0.283478 0.137787
0.509521 0.292023 0.146271
0.537445 0.302124 0.152496
0.564636 0.311157 0.158569
0.589447 0.318939 0.163940
0.612885 0.325500 0.169403
0.634644 0.331329 0.175140
0.656677 0.337677 0.181763
0.678009 0.345245 0.188416
0.698883 0.352570 0.194580
0.717834 0.358551 0.199432
0.736633 0.365845 0.204285
0.754913 0.372864 0.208893
0.775848 0.379974 0.214813
0.042755 0.165985 0.061218
0.051666 0.168793 0.061920
0.059875 0.171722 0.062775
0.068085 0.177185 0.062897
0.078064 0.183685 0.063904
0.088470 0.190643 0.065277
0.101471 0.198486 0.066711
0.122589 0.207825 0.066956
0.147614 0.218536 0.068848
0.176208 0.228485 0.072266
0.213318 0.234894 0.077728
0.250427 0.246277 0.085144
0.292175 0.259552 0.095428
0.334137 0.270325 0.105865
0.369080 0.279480 0.114777
0.398590 0.285370 0.121674
0.425537 0.291290 0.128326
0.451080 0.296204 0.134613
0.479919 0.302917 0.141785
0.508362 0.310547 0.149017
0.536224 0.320251 0.155334
0.563416 0.328552 0.161591
0.588959 0.335724 0.167236
0.611176 0.342560 0.172668
0.632050 0.349182 0.178162
0.652954 0.355682 0.184448
0.673767 0.362366 0.190735
0.693146 0.368958 0.196167
0.711700 0.374481 0.200714
0.730347 0.380737 0.205505
0.748413 0.386719 0.209930
0.768585 0.393555 0.215393
0.048157 0.184052 0.067352
0.056824 0.187164 0.068207
0.064789 0.190369 0.068756
0.073578 0.195557 0.068787
0.082245 0.202087 0.069489
0.091125 0.210022 0.070801
0.106110 0.217560 0.072113
0.124268 0.225464 0.072998
0.150909 0.235962 0.075348
0.179047 0.248047 0.077850
0.215485 0.257385 0.083374
0.252472 0.269165 0.091553
0.290833 0.280396 0.100891
0.338074 0.293365 0.113068
0.374847 0.301575 0.121765
0.402649 0.307098 0.128387
0.427216 0.311249 0.133942
0.452026 0.315979 0.140045
0.479950 0.321533 0.146088
0.507538 0.328827 0.152405
0.534882 0.337128 0.158661
0.562439 0.345795 0.165100
0.587494 0.353210 0.170807
0.608948 0.360168 0.176239
0.629089 0.367096 0.181458
0.648804 0.373505 0.186737
0.668335 0.379395 0.192413
0.686676 0.385193 0.197296
0.704895 0.390472 0.201752
0.723328 0.395966 0.206299
0.742157 0.401733 0.211304
0.761536 0.407745 0.216492
0.052216 0.201141 0.072449
0.060760 0.205353 0.073517
0.069122 0.209747 0.074280
0.077179 0.215576 0.075195
0.085388 0.222473 0.075714
0.094147 0.230011 0.076752
0.111176 0.237061 0.077667
0.126434 0.243652 0.078796
0.155884 0.256622 0.080048
0.183350 0.270752 0.081940
0.215271 0.283325 0.088623
0.253448 0.292084 0.097931
0.293610 0.302338 0.107330
0.334351 0.314331 0.117371
0.376801 0.326263 0.127655
0.405212 0.329620 0.133911
0.429108 0.333221 0.139282
0.452332 0.336182 0.144226
0.480469 0.341553 0.150208
0.506714 0.347382 0.156067
0.533875 0.355255 0.162476
0.560822 0.363708 0.168823
0.584198 0.371094 0.174438
0.605377 0.377808 0.179718
0.625214 0.384674 0.184814
0.644379 0.390900 0.189514
0.662903 0.396362 0.194153
0.680206 0.400940 0.198425
0.698425 0.406372 0.202972
0.717377 0.411804 0.207794
0.736633 0.417328 0.212860
0.754791 0.423126 0.217682
0.055573 0.219147 0.077606
0.064484 0.224335 0.079102
0.073456 0.229095 0.080750
0.081238 0.234253 0.081421
0.088501 0.241730 0.081635
0.099518 0.248596 0.082245
0.114655 0.255768 0.083252
0.130341 0.263824 0.083466
0.159424 0.276428 0.083801
0.186798 0.290314 0.086060
0.215424 0.305267 0.093170
0.252167 0.313965 0.102966
0.292053 0.323761 0.111511
0.331177 0.335938 0.121033
0.368774 0.345947 0.130615
0.404938 0.352539 0.139099
0.429749 0.356049 0.144409
0.454041 0.358490 0.149139
0.479584 0.362640 0.154358
0.505341 0.368134 0.160034
0.531616 0.373535 0.166107
0.558533 0.381409 0.172424
0.580078 0.388672 0.177795
0.600861 0.395294 0.182983
0.620758 0.402069 0.188080
0.639679 0.408569 0.192413
0.657928 0.414215 0.196411
0.675476 0.418091 0.200623
0.693848 0.423157 0.205200
0.712921 0.428864 0.210114
0.731628 0.433929 0.214935
0.749512 0.439697 0.219696
0.059692 0.238373 0.083588
0.068665 0.242981 0.085724
0.077576 0.247925 0.087097
0.085297 0.252808 0.087463
0.092438 0.259491 0.087585
0.103333 0.266815 0.088165
0.116730 0.273407 0.088470
0.133667 0.282013 0.088257
0.162201 0.294678 0.088074
0.189056 0.307037 0.090149
0.217590 0.321716 0.097290
0.247833 0.334351 0.106750
0.287964 0.341949 0.114410
0.323425 0.351746 0.122986
0.360809 0.361511 0.132538
0.394745 0.369385 0.141266
0.428223 0.377136 0.148773
0.454071 0.379852 0.153534
0.478516 0.383698 0.158569
0.503754 0.388702 0.164032
0.529755 0.393585 0.169861
0.555328 0.398438 0.175690
0.575836 0.406281 0.180725
0.595520 0.412994 0.185425
0.615784 0.420044 0.190247
0.635101 0.427521 0.194794
0.653534 0.433075 0.198975
0.671051 0.437073 0.203247
0.689789 0.441711 0.208038
0.708435 0.446625 0.212677
0.726868 0.450928 0.217133
0.744324 0.456665 0.221802
0.064453 0.257538 0.090851
0.073456 0.261749 0.092468
0.082123 0.266724 0.093414
0.089783 0.271729 0.093750
0.097687 0.278625 0.093750
0.106750 0.285095 0.094025
0.119141 0.291107 0.094635
0.137543 0.300262 0.093781
0.165588 0.312622 0.093475
0.192505 0.324829 0.095154
0.219513 0.338165 0.102020
0.243744 0.353119 0.109558
0.282135 0.360260 0.116852
0.317719 0.367889 0.125610
0.353058 0.376831 0.134552
0.386719 0.384399 0.143280
0.418152 0.393890 0.150940
0.452423 0.400574 0.157654
0.476013 0.403961 0.162201
0.501068 0.409210 0.167694
0.526367 0.413635 0.173340
0.551025 0.418518 0.178741
0.571838 0.424103 0.183105
0.591583 0.431305 0.187805
0.611359 0.439056 0.192657
0.630859 0.446564 0.197296
0.649200 0.451904 0.201538
0.666656 0.455902 0.205811
0.684967 0.459808 0.210297
0.703735 0.464233 0.215027
0.721832 0.468170 0.219421
0.739014 0.473358 0.223938
0.070374 0.277069 0.098938
0.079437 0.281647 0.100128
0.087921 0.287750 0.100403
0.095184 0.291260 0.100372
0.103363 0.296112 0.099945
0.111023 0.302094 0.099945
0.121735 0.308075 0.100464
0.140961 0.317474 0.099213
0.167999 0.329895 0.099335
0.195312 0.342438 0.100433
0.221863 0.355927 0.107086
0.244965 0.368958 0.113098
0.275452 0.379120 0.119019
0.311401 0.383545 0.127838
0.346283 0.392029 0.136688
0.378876 0.399628 0.145142
0.409637 0.409698 0.152618
0.443481 0.419067 0.159912
0.473480 0.425476 0.166229
0.497192 0.429138 0.171021
0.522736 0.433868 0.176788
0.546204 0.438385 0.181641
0.567230 0.444122 0.186127
0.587067 0.450256 0.190399
0.607513 0.457275 0.195129
0.627045 0.464874 0.199890
0.644928 0.469910 0.204041
0.662445 0.474091 0.208374
0.680145 0.477539 0.212677
0.698395 0.481354 0.217102
0.716492 0.485168 0.221558
0.733612 0.489685 0.225861
0.077026 0.297668 0.106445
0.085999 0.303131 0.107544
0.093689 0.307739 0.106964
0.100983 0.310425 0.106598
0.109375 0.314362 0.106354
0.116699 0.320099 0.106232
0.125366 0.326080 0.106628
0.147064 0.336456 0.105225
0.172272 0.348694 0.106323
0.201294 0.361969 0.106934
0.226746 0.375214 0.112823
0.249512 0.388153 0.117584
0.272491 0.399078 0.122375
0.308563 0.402557 0.131348
0.342926 0.410431 0.140320
0.374542 0.418945 0.148529
0.402374 0.427643 0.155243
0.435425 0.436768 0.162384
0.466156 0.444305 0.168884
0.494019 0.450592 0.174927
0.518890 0.454407 0.180267
0.541901 0.458801 0.184845
0.562683 0.464111 0.189056
0.582489 0.469940 0.193390
0.602875 0.475952 0.197723
0.623352 0.482758 0.202393
0.640259 0.487457 0.206604
0.657074 0.492096 0.210815
0.674438 0.495667 0.214996
0.691833 0.499268 0.219177
0.710114 0.503113 0.223694
0.728088 0.506897 0.228088
0.083923 0.318695 0.113495
0.092407 0.323364 0.114227
0.099518 0.326477 0.113251
0.107117 0.329224 0.112885
0.115570 0.333099 0.112854
0.122345 0.339081 0.113007
0.132111 0.346680 0.112854
0.154358 0.356873 0.112427
0.179657 0.368988 0.112946
0.210266 0.383606 0.114502
0.235443 0.397308 0.119843
0.256653 0.409637 0.122650
0.275665 0.421234 0.128235
0.306274 0.425476 0.136261
0.341248 0.430756 0.144623
0.372467 0.440155 0.152832
0.399994 0.448822 0.159546
0.428864 0.455383 0.165344
0.459686 0.462708 0.171814
0.486908 0.468475 0.177216
0.514679 0.474609 0.183624
0.537354 0.478607 0.187805
0.558136 0.483643 0.192078
0.577332 0.489288 0.196136
0.597351 0.494751 0.200592
0.617004 0.500366 0.204956
0.634430 0.505768 0.208984
0.650574 0.510101 0.213013
0.668060 0.513733 0.217224
0.685547 0.517181 0.221436
0.703979 0.521149 0.226074
0.722198 0.525208 0.230560
0.090637 0.338745 0.120026
0.098419 0.342316 0.120239
0.105316 0.345428 0.119232
0.113281 0.349854 0.119812
0.121185 0.354065 0.120422
0.127930 0.360321 0.120605
0.140350 0.368347 0.119476
0.161560 0.378693 0.119659
0.189697 0.390350 0.119354
0.219421 0.405396 0.122070
0.244080 0.420044 0.125732
0.263367 0.432251 0.129089
0.281311 0.442780 0.135284
0.305237 0.448944 0.141479
0.338623 0.450958 0.148712
0.368805 0.460144 0.156555
0.395416 0.468384 0.163116
0.424866 0.475037 0.169006
0.453674 0.481476 0.174866
0.481659 0.487396 0.180603
0.506622 0.491394 0.185516
0.531708 0.497345 0.190674
0.552612 0.502380 0.194977
0.571564 0.507782 0.199158
0.591827 0.513214 0.203766
0.610687 0.518555 0.207886
0.627777 0.523376 0.211700
0.644958 0.528320 0.215607
0.661652 0.531860 0.219604
0.678986 0.535553 0.223846
0.697479 0.539825 0.228424
0.716034 0.544098 0.233032
0.096710 0.356750 0.125458
0.104218 0.361084 0.126190
0.111389 0.366119 0.126434
0.118835 0.371460 0.127197
0.126617 0.376221 0.128174
0.137268 0.383087 0.127594
0.149567 0.391144 0.126617
0.171143 0.400909 0.126343
0.201019 0.413147 0.126373
0.228180 0.428223 0.130219
0.252502 0.443481 0.132721
0.269867 0.454010 0.136353
0.287354 0.464203 0.142090
0.303864 0.472168 0.146606
0.336578 0.473724 0.153656
0.364838 0.479828 0.160370
0.391052 0.487976 0.166870
0.419647 0.494141 0.172546
0.448486 0.500610 0.178467
0.476135 0.506744 0.184174
0.501465 0.510223 0.188782
0.522888 0.513794 0.192719
0.546112 0.520813 0.197906
0.566132 0.526398 0.202545
0.586426 0.531830 0.207214
0.604553 0.537170 0.210938
0.621643 0.542297 0.214844
0.638489 0.547180 0.218719
0.655914 0.551056 0.222351
0.672516 0.554443 0.226288
0.690948 0.558685 0.230865
0.709595 0.562897 0.235535
0.102722 0.375122 0.131592
0.110046 0.380096 0.132629
0.117065 0.386200 0.133240
0.123993 0.391815 0.134216
0.134094 0.397186 0.135254
0.145752 0.404205 0.134155
0.157715 0.412018 0.133179
0.181458 0.422272 0.132843
0.209290 0.434662 0.134308
0.235107 0.448761 0.136597
0.258423 0.463348 0.138550
0.275879 0.473480 0.142853
0.292328 0.482635 0.147430
0.306427 0.491119 0.151642
0.334412 0.494232 0.157928
0.362305 0.500641 0.165131
0.391113 0.509705 0.172302
0.420258 0.516632 0.178314
0.448120 0.522827 0.184021
0.474976 0.528107 0.189301
0.496704 0.530945 0.192932
0.519440 0.533936 0.196869
0.537903 0.537079 0.200348
0.560211 0.544739 0.205872
0.580566 0.551056 0.210602
0.598511 0.556549 0.214325
0.615540 0.561523 0.218231
0.632446 0.566284 0.222015
0.649292 0.570129 0.225464
0.666718 0.573792 0.229126
0.684418 0.576508 0.233185
0.702972 0.580780 0.237793
0.108917 0.394226 0.138306
0.115967 0.399475 0.139069
0.122711 0.405914 0.139832
0.129578 0.412018 0.141266
0.142670 0.417328 0.141571
0.152557 0.424255 0.140472
0.166077 0.432587 0.139771
0.191132 0.443665 0.139801
0.217926 0.456024 0.142090
0.242065 0.468719 0.142883
0.263611 0.482086 0.144012
0.281036 0.491455 0.148682
0.296997 0.499725 0.152344
0.310425 0.507599 0.156006
0.333160 0.512695 0.162323
0.359802 0.521301 0.170197
0.390869 0.531525 0.177917
0.421753 0.540863 0.184967
0.449707 0.547241 0.190704
0.473541 0.550598 0.194824
0.495331 0.553467 0.198395
0.515839 0.555969 0.201813
0.535187 0.558655 0.205292
0.552582 0.561462 0.208557
0.573700 0.569061 0.213593
0.592560 0.575745 0.217834
0.609497 0.581024 0.221680
0.626953 0.585968 0.225769
0.644073 0.589569 0.229370
0.661011 0.593262 0.232758
0.678436 0.595734 0.235931
0.696259 0.598297 0.239929
0.115051 0.413025 0.144684
0.121490 0.418640 0.145142
0.128418 0.426147 0.146210
0.135254 0.430939 0.147461
0.148071 0.435974 0.147491
0.157501 0.442505 0.146576
0.175171 0.452179 0.146027
0.198944 0.463074 0.146149
0.224945 0.475586 0.148193
0.247253 0.487427 0.148743
0.268433 0.499786 0.149597
0.286194 0.508606 0.153381
0.301971 0.517120 0.157654
0.315399 0.525482 0.162140
0.330383 0.533997 0.167603
0.356232 0.543427 0.175629
0.390320 0.553833 0.183777
0.421814 0.563538 0.190979
0.447784 0.569824 0.196350
0.471436 0.572968 0.200256
0.491913 0.575531 0.203583
0.512146 0.578033 0.206909
0.531586 0.580292 0.210175
0.549896 0.582916 0.213531
0.565552 0.585510 0.216156
0.586060 0.593567 0.221252
0.605377 0.600525 0.226074
0.622681 0.605499 0.230103
0.639862 0.609070 0.233551
0.655823 0.612213 0.236481
0.672638 0.613434 0.238770
0.690155 0.615570 0.242310
0.120911 0.432037 0.150726
0.127472 0.439148 0.151489
0.134369 0.445831 0.152954
0.141388 0.450348 0.153198
0.153534 0.454437 0.153290
0.165070 0.461548 0.152496
0.184357 0.471680 0.152344
0.206696 0.482666 0.153198
0.232086 0.494812 0.153931
0.252533 0.504852 0.153992
0.272705 0.516357 0.155304
0.291656 0.525818 0.159180
0.307281 0.534241 0.163727
0.320374 0.543274 0.168457
0.331329 0.554596 0.173676
0.353760 0.565948 0.181305
0.388885 0.575592 0.189209
0.419708 0.585358 0.196442
0.445068 0.591309 0.201538
0.468903 0.595490 0.205597
0.489655 0.598328 0.209076
0.508942 0.600891 0.212250
0.528320 0.603485 0.215454
0.546387 0.605347 0.218719
0.563110 0.607666 0.221649
0.579254 0.610260 0.224396
0.598755 0.617126 0.229095
0.618103 0.624451 0.234161
0.635223 0.628265 0.237671
0.650787 0.631226 0.240326
0.667358 0.631989 0.242371
0.683990 0.632996 0.244659
0.127167 0.452698 0.157532
0.133636 0.458649 0.158142
0.140381 0.465210 0.159058
0.147156 0.469116 0.159058
0.159088 0.472961 0.159180
0.175110 0.481415 0.158691
0.193176 0.490967 0.158447
0.211975 0.499786 0.159058
0.237244 0.512054 0.159302
0.257507 0.522339 0.159668
0.277527 0.533356 0.161316
0.297363 0.543091 0.165344
0.312347 0.551544 0.169800
0.325073 0.560486 0.174805
0.335480 0.572693 0.179688
0.351349 0.586517 0.186340
0.386292 0.596008 0.194244
0.416229 0.605133 0.200836
0.441406 0.612244 0.206055
0.464691 0.616669 0.210175
0.485870 0.620636 0.213837
0.505310 0.623383 0.217041
0.523407 0.625214 0.220276
0.541199 0.627258 0.223389
0.559113 0.629120 0.226593
0.576019 0.631500 0.229584
0.592499 0.633545 0.232178
0.611877 0.640656 0.237061
0.630066 0.646301 0.241211
0.645813 0.649750 0.243958
0.662384 0.650574 0.246063
0.678833 0.651306 0.248047
0.133789 0.473267 0.164581
0.140076 0.479187 0.165039
0.146240 0.484253 0.164886
0.153107 0.488098 0.164917
0.168488 0.492737 0.165131
0.185699 0.501556 0.164856
0.202332 0.510620 0.164490
0.220337 0.519012 0.164795
0.241730 0.528992 0.164886
0.262268 0.539825 0.165375
0.283020 0.550385 0.167633
0.303040 0.560577 0.171692
0.317810 0.569092 0.176270
0.329498 0.578156 0.180664
0.339783 0.590942 0.185791
0.353455 0.605377 0.191803
0.383026 0.615814 0.198700
