滤镜资源/Professional Luts Collection/Triune-Digital-Cinematic-LUTs/3D LUTs (CUBE)/STANDARD/Breaking Bad - Rec709.cube
#Created by Benjamin (IWLTBAP) : http://luts.iwltbap.com
#Copyright: (C) Copyright 2016 Triune Films and IWLTBAP
TITLE "Blockbuster LUTs Pack (Rec.709)"
#LUT size
LUT_3D_SIZE 8
#LUT data points
DOMAIN_MIN 0.000000 0.000000 0.000000
DOMAIN_MAX 0.903226 0.903226 0.903226
0.008057 0.012360 0.012146
0.063599 0.025024 0.021576
0.183411 0.051819 0.047516
0.345978 0.085083 0.077484
0.489899 0.121765 0.110321
0.617310 0.153595 0.144562
0.719025 0.180359 0.167786
0.795624 0.199585 0.188690
0.016022 0.057861 0.023956
0.055878 0.073578 0.025513
0.164124 0.100067 0.046997
0.296204 0.128357 0.074493
0.440948 0.163727 0.109711
0.572784 0.213928 0.144897
0.683868 0.247681 0.176025
0.772614 0.269745 0.197083
0.025879 0.112823 0.041809
0.063446 0.131866 0.045349
0.143890 0.166321 0.052490
0.293427 0.196503 0.082825
0.424530 0.232452 0.114899
0.537354 0.262756 0.146637
0.642853 0.302124 0.172211
0.730408 0.330627 0.197876
0.048157 0.184052 0.067352
0.082245 0.202087 0.069489
0.150909 0.235962 0.075348
0.290833 0.280396 0.100891
0.427216 0.311249 0.133942
0.534882 0.337128 0.158661
0.629089 0.367096 0.181458
0.704895 0.390472 0.201752
0.064453 0.257538 0.090851
0.097687 0.278625 0.093750
0.165588 0.312622 0.093475
0.282135 0.360260 0.116852
0.418152 0.393890 0.150940
0.526367 0.413635 0.173340
0.611359 0.439056 0.192657
0.684967 0.459808 0.210297
0.090637 0.338745 0.120026
0.121185 0.354065 0.120422
0.189697 0.390350 0.119354
0.281311 0.442780 0.135284
0.395416 0.468384 0.163116
0.506622 0.491394 0.185516
0.591827 0.513214 0.203766
0.661652 0.531860 0.219604
0.115051 0.413025 0.144684
0.148071 0.435974 0.147491
0.224945 0.475586 0.148193
0.301971 0.517120 0.157654
0.390320 0.553833 0.183777
0.491913 0.575531 0.203583
0.565552 0.585510 0.216156
0.639862 0.609070 0.233551
0.140320 0.493622 0.171967
0.177521 0.512665 0.171417
0.249908 0.549438 0.171448
0.323578 0.587555 0.183441
0.376801 0.634369 0.202332
0.475525 0.660522 0.221924
0.547882 0.670868 0.235321
0.617645 0.678925 0.247131
0.015778 0.021179 0.058167
0.054474 0.022797 0.062042
0.172760 0.048431 0.083618
0.335693 0.081207 0.114044
0.482239 0.116150 0.149231
0.604004 0.147217 0.174194
0.696075 0.167603 0.197784
0.764954 0.184784 0.217834
0.017792 0.059143 0.061035
0.066986 0.077942 0.078766
0.214233 0.113586 0.104095
0.402069 0.163818 0.148438
0.548737 0.204803 0.185089
0.657349 0.236786 0.207764
0.745728 0.260559 0.227570
0.819275 0.284912 0.246063
0.027496 0.116486 0.080750
0.070618 0.142761 0.095459
0.180939 0.179504 0.096497
0.357147 0.223022 0.132416
0.478546 0.262634 0.170013
0.601288 0.313416 0.205750
0.695160 0.339478 0.225739
0.772400 0.351898 0.238617
0.047760 0.184387 0.104279
0.087982 0.222595 0.114990
0.175720 0.253723 0.112793
0.330261 0.288177 0.137115
0.462982 0.323273 0.168579
0.573334 0.365112 0.197601
0.660522 0.395569 0.220886
0.742310 0.417114 0.239319
0.063599 0.259369 0.124847
0.110199 0.303894 0.132233
0.198090 0.329651 0.124908
0.324738 0.365967 0.151672
0.456787 0.398193 0.180847
0.560211 0.429291 0.204437
0.636200 0.454254 0.222076
0.714996 0.478973 0.243073
0.090393 0.341949 0.152222
0.134216 0.379669 0.155151
0.219452 0.405548 0.150787
0.313965 0.452301 0.168304
0.439636 0.485474 0.197632
0.535492 0.507111 0.216553
0.614441 0.523438 0.231873
0.685120 0.543060 0.248627
0.114319 0.414642 0.173584
0.166931 0.453735 0.175720
0.255463 0.491760 0.175751
0.330780 0.531799 0.192596
0.429138 0.565186 0.216125
0.517883 0.583099 0.232056
0.585663 0.593750 0.243469
0.657593 0.613220 0.258057
0.139252 0.492493 0.200348
0.217499 0.541046 0.200378
0.289948 0.573822 0.205627
0.348083 0.605255 0.216339
0.402130 0.642181 0.230896
0.496185 0.662689 0.248016
0.569733 0.675812 0.262177
0.633057 0.690765 0.274261
0.029083 0.039185 0.122070
0.063416 0.040253 0.132141
0.125244 0.039398 0.127167
0.266327 0.060760 0.145874
0.419769 0.097229 0.179932
0.560852 0.131439 0.209778
0.665161 0.158722 0.235046
0.726379 0.173004 0.251495
0.031067 0.077606 0.122040
0.080444 0.107574 0.175171
0.202484 0.109283 0.188080
0.410736 0.162018 0.224731
0.552277 0.197021 0.256439
0.670197 0.225586 0.276276
0.755646 0.234192 0.288971
0.828888 0.247742 0.299835
0.035950 0.123383 0.131989
0.080994 0.161285 0.175232
0.202728 0.224579 0.234985
0.403778 0.271851 0.265717
0.550232 0.326813 0.304626
0.659302 0.361603 0.331970
0.747009 0.379089 0.335327
0.821289 0.401093 0.346069
0.053345 0.199097 0.171875
0.093567 0.241272 0.204773
0.209686 0.302460 0.241241
0.349762 0.329651 0.223633
0.494446 0.374969 0.267426
0.599792 0.416809 0.297913
0.693207 0.448547 0.323090
0.778931 0.470978 0.333130
0.068970 0.269806 0.189240
0.109863 0.313995 0.221680
0.212921 0.372314 0.232666
0.316925 0.406982 0.216492
0.459076 0.432373 0.234161
0.565735 0.469849 0.265747
0.654266 0.499573 0.299561
0.731110 0.526031 0.306183
0.091461 0.342133 0.207733
0.130249 0.388275 0.219299
0.215393 0.430695 0.218781
0.327179 0.475677 0.216064
0.444641 0.498962 0.233032
0.550354 0.529755 0.256012
0.628296 0.562744 0.284271
0.706177 0.584839 0.304810
0.112427 0.408752 0.226837
0.154114 0.468506 0.240967
0.267487 0.523071 0.238403
0.343658 0.556000 0.238220
0.417633 0.577545 0.248260
0.525513 0.604675 0.270752
0.597595 0.624146 0.282013
0.682190 0.646423 0.301788
0.135437 0.484131 0.241974
0.174164 0.539490 0.246979
0.301880 0.598969 0.250153
0.363556 0.624207 0.255554
0.414429 0.652710 0.263123
0.502930 0.675293 0.278687
0.580292 0.691772 0.293671
0.649597 0.713104 0.307770
0.026306 0.050903 0.191467
0.062531 0.046143 0.190399
0.121887 0.046539 0.191406
0.223297 0.051880 0.180908
0.381226 0.083893 0.215790
0.527344 0.121674 0.251038
0.636780 0.148956 0.275146
0.683868 0.158203 0.280731
0.036926 0.100494 0.206238
0.086761 0.130829 0.287689
0.185150 0.119049 0.285675
0.351044 0.120850 0.270721
0.514618 0.162445 0.295868
0.638733 0.199615 0.323242
0.730316 0.220062 0.341095
0.805328 0.235443 0.361755
0.046631 0.146973 0.211365
0.091156 0.199860 0.280518
0.188324 0.251556 0.346100
0.410492 0.269775 0.352051
0.560822 0.325653 0.380890
0.673340 0.352142 0.402740
0.765381 0.378113 0.414429
0.844360 0.397095 0.425781
0.057220 0.207733 0.234741
0.100464 0.257446 0.289612
0.180817 0.322021 0.344818
0.395599 0.392334 0.403961
0.547791 0.436523 0.425323
0.661987 0.479340 0.450684
0.757782 0.504730 0.471924
0.829987 0.522430 0.468597
0.081085 0.293396 0.281403
0.120239 0.344818 0.329895
0.202148 0.402710 0.360626
0.394867 0.468567 0.409576
0.509155 0.494171 0.392609
0.619019 0.536987 0.424713
0.710907 0.571960 0.454987
0.786957 0.579132 0.440552
0.104065 0.374512 0.309906
0.140076 0.417572 0.348389
0.207153 0.476318 0.375885
0.374756 0.537201 0.413483
0.455078 0.567169 0.384979
0.574066 0.585602 0.386444
0.671906 0.621246 0.424774
0.750183 0.636078 0.425079
0.126709 0.450775 0.329834
0.158325 0.487244 0.354401
0.215576 0.546356 0.365753
0.367065 0.604431 0.404633
0.444824 0.632080 0.372925
0.532227 0.652039 0.367493
0.635986 0.679962 0.398376
0.719482 0.698395 0.417328
0.145050 0.514862 0.343628
0.178802 0.559235 0.360138
0.233887 0.622101 0.374115
0.372742 0.669312 0.405823
0.451752 0.698669 0.366455
0.498657 0.720490 0.355316
0.596558 0.738647 0.373566
0.684784 0.762726 0.400848
0.031616 0.057129 0.247772
0.065582 0.050323 0.244415
0.109589 0.053864 0.259796
0.217194 0.057556 0.268188
0.355865 0.077301 0.263245
0.511444 0.116119 0.297180
0.610107 0.140991 0.319122
0.668152 0.154663 0.331116
0.044617 0.111237 0.273926
0.096039 0.148651 0.370789
0.158936 0.133362 0.359009
0.312592 0.116821 0.339996
0.471893 0.140289 0.336670
0.601196 0.175537 0.355011
0.699951 0.200806 0.383514
0.767181 0.218079 0.401794
0.055237 0.165192 0.286804
0.103912 0.225616 0.368073
0.195129 0.285339 0.455902
0.395203 0.271362 0.446411
0.560730 0.279327 0.438446
0.664703 0.315979 0.455505
0.757233 0.352570 0.474274
0.836029 0.384705 0.491638
0.069855 0.230194 0.315125
0.114868 0.290649 0.380188
0.191040 0.347015 0.440277
0.392487 0.426514 0.499573
0.551727 0.431885 0.499664
0.672668 0.477905 0.522552
0.772400 0.503967 0.539398
0.850098 0.524323 0.542694
0.087402 0.303619 0.348358
0.126495 0.351776 0.395355
0.196899 0.413757 0.443115
0.356415 0.481506 0.498779
0.548004 0.539948 0.543671
0.655853 0.578033 0.561035
0.760010 0.608521 0.580078
0.840179 0.625031 0.580292
0.108429 0.387665 0.388702
0.146088 0.433136 0.431091
0.215027 0.498962 0.475006
0.343262 0.557831 0.516022
0.521881 0.606415 0.548767
0.620087 0.629486 0.540619
0.725098 0.665466 0.570526
0.805634 0.682312 0.563416
0.134125 0.469910 0.430359
0.172852 0.521912 0.469452
0.224365 0.585632 0.509766
0.328339 0.637787 0.535767
0.516602 0.679413 0.564148
0.596283 0.701141 0.540527
0.684509 0.717743 0.541016
0.774323 0.742371 0.549744
0.158783 0.550812 0.460754
0.195190 0.603271 0.493927
0.238464 0.658691 0.514801
0.327148 0.710083 0.547028
0.506012 0.757690 0.590912
0.597595 0.774780 0.546967
0.638031 0.790527 0.522858
0.737915 0.809814 0.542419
0.040466 0.064453 0.295013
0.069397 0.060059 0.288086
0.110474 0.069183 0.332031
0.200500 0.071747 0.347626
0.374329 0.086609 0.351318
0.515442 0.119049 0.358795
0.607788 0.142700 0.373840
0.659943 0.154358 0.383789
0.055634 0.126862 0.338562
0.102631 0.155670 0.428680
0.139191 0.131409 0.410889
0.253845 0.122406 0.391113
0.426056 0.130829 0.386963
0.560364 0.161407 0.385529
0.658295 0.184967 0.410980
0.728607 0.200836 0.434174
0.066559 0.184509 0.356995
0.117737 0.254578 0.447296
0.198883 0.307861 0.543793
0.379547 0.267975 0.526611
0.540771 0.247437 0.506439
0.655151 0.261414 0.493286
0.744934 0.300049 0.512329
0.820923 0.326477 0.527679
0.080658 0.247833 0.385712
0.129242 0.318817 0.461914
0.194641 0.376709 0.530640
0.381042 0.455597 0.588898
0.541626 0.440521 0.587433
0.663788 0.451355 0.576996
0.765808 0.491577 0.596313
0.845612 0.517792 0.604736
0.097748 0.320374 0.414490
0.138428 0.374390 0.470734
0.206360 0.439484 0.527130
0.358582 0.514526 0.586670
0.529846 0.566345 0.618744
0.657013 0.572815 0.623047
0.767120 0.604523 0.637695
0.857697 0.622711 0.647400
0.117615 0.400208 0.449768
0.152191 0.439240 0.490662
0.209106 0.497345 0.536346
0.346863 0.566589 0.583344
0.521973 0.618805 0.618073
0.661194 0.663879 0.661163
0.764832 0.698517 0.678314
0.852295 0.721100 0.687744
0.140656 0.485046 0.494965
0.174683 0.524536 0.529266
0.226318 0.585571 0.572388
0.341217 0.651947 0.614349
0.497742 0.691132 0.639923
0.660767 0.731476 0.671661
0.731659 0.757629 0.666718
0.819550 0.774597 0.674469
0.167175 0.571075 0.537659
0.199890 0.614868 0.575012
0.242157 0.679596 0.613892
0.331787 0.731140 0.640900
0.489410 0.770721 0.668793
0.662994 0.809326 0.703247
0.720795 0.820648 0.677856
0.789459 0.832336 0.674072
0.048981 0.071320 0.341400
0.074158 0.066528 0.328186
0.111603 0.072296 0.365295
0.186920 0.086548 0.409851
0.366699 0.096161 0.426788
0.536102 0.128021 0.439606
0.609406 0.144989 0.436066
0.660492 0.155518 0.442810
0.064545 0.139893 0.396515
0.111298 0.164062 0.486847
0.139740 0.140717 0.472260
0.236298 0.132965 0.455170
0.401978 0.130615 0.450897
0.560638 0.159668 0.457458
0.632965 0.175629 0.452087
0.693085 0.188293 0.468048
0.077271 0.200287 0.423615
0.124878 0.265442 0.507172
0.192383 0.313049 0.609833
0.340027 0.245819 0.574158
0.495483 0.209595 0.552704
0.637451 0.220917 0.541870
0.707672 0.241089 0.532562
0.785950 0.274719 0.552551
0.092651 0.268616 0.453644
0.139435 0.339264 0.529846
0.197357 0.399506 0.603668
0.365784 0.472717 0.665894
0.527283 0.438995 0.653107
0.649994 0.420837 0.641815
0.757416 0.454834 0.638214
0.835785 0.492432 0.652679
0.108826 0.339508 0.480194
0.148438 0.391937 0.538483
0.206573 0.465576 0.606720
0.352692 0.537537 0.665070
0.529144 0.586670 0.697357
0.653900 0.575226 0.698486
0.767273 0.596832 0.692505
0.852356 0.627808 0.713257
0.126923 0.414459 0.512604
0.161163 0.453278 0.553986
0.210236 0.515717 0.608490
0.347534 0.592651 0.662689
0.516602 0.643616 0.696991
0.666290 0.688568 0.733093
0.766998 0.695221 0.735016
0.860809 0.724579 0.753082
0.147675 0.493713 0.549316
0.178955 0.525360 0.579224
0.222473 0.576691 0.621521
0.338440 0.646515 0.667999
0.496460 0.698181 0.701599
0.652100 0.741241 0.738007
0.781677 0.793091 0.775421
0.869232 0.805511 0.790649
0.171783 0.581207 0.595001
0.201874 0.613617 0.627930
0.244354 0.675995 0.669800
0.327271 0.734772 0.706757
0.482208 0.784149 0.739410
0.652924 0.818390 0.767487
0.788940 0.854889 0.796997
0.837158 0.858765 0.781982
0.052948 0.074036 0.375641
0.077057 0.070343 0.363190
0.112366 0.074188 0.388916
0.163879 0.090973 0.446960
0.350250 0.102753 0.477936
0.524170 0.126160 0.489777
0.617249 0.147339 0.494354
0.661560 0.156036 0.495758
0.069519 0.141937 0.435699
0.113617 0.163483 0.514679
0.140991 0.143524 0.509460
0.198761 0.135132 0.486603
0.375793 0.135468 0.494812
0.543823 0.156250 0.501221
0.634735 0.176117 0.505127
0.679779 0.184448 0.510620
0.087799 0.217194 0.486755
0.129913 0.273132 0.556488
0.196167 0.326904 0.676727
0.317413 0.248352 0.638580
0.458771 0.207825 0.607880
0.603180 0.210175 0.578796
0.693024 0.230316 0.572937
0.753082 0.246460 0.582367
0.103851 0.293121 0.519958
0.147308 0.354034 0.589081
0.201935 0.417084 0.677002
0.338623 0.488007 0.735596
0.509766 0.442749 0.716400
0.634796 0.389862 0.699249
0.749786 0.396729 0.680817
0.814728 0.435120 0.690277
0.119904 0.363220 0.549286
0.160645 0.418884 0.609161
0.214630 0.489624 0.685608
0.333832 0.555420 0.738007
0.521240 0.608063 0.768585
0.642181 0.601044 0.771423
0.756927 0.591827 0.762848
0.846191 0.616760 0.762817
0.136505 0.430511 0.575562
0.172577 0.476410 0.623840
0.224060 0.546265 0.692871
0.331116 0.613586 0.740356
0.510406 0.665527 0.773224
0.670227 0.715790 0.805084
0.767273 0.716949 0.804626
0.852448 0.730927 0.809235
0.154846 0.505249 0.608521
0.186584 0.539520 0.641357
0.232697 0.602753 0.700897
0.331482 0.668518 0.744507
0.491852 0.720703 0.778076
0.666870 0.768066 0.812653
0.800751 0.814911 0.847931
0.868805 0.819031 0.848511
0.177124 0.587524 0.646301
0.207001 0.617035 0.676025
0.246429 0.669281 0.717834
0.335266 0.732391 0.757050
0.470123 0.782959 0.793182
0.635498 0.820831 0.823578
0.783356 0.861145 0.851959
0.885895 0.894196 0.882263
