滤镜资源/Professional Luts Collection/Triune-Digital-Cinematic-LUTs/3D LUTs (CUBE)/STANDARD/Breaking Bad - Rec709.cube
#Created by Benjamin (IWLTBAP) : http://luts.iwltbap.com
#Copyright: (C) Copyright 2016 Triune Films and IWLTBAP
TITLE "Blockbuster LUTs Pack (Rec.709)"
#LUT size
LUT_3D_SIZE 5
#LUT data points
DOMAIN_MIN 0.000000 0.000000 0.000000
DOMAIN_MAX 0.903226 0.903226 0.903226
0.008057 0.012360 0.012146
0.144135 0.043884 0.037842
0.425934 0.104980 0.095276
0.646484 0.161194 0.151764
0.795624 0.199585 0.188690
0.023651 0.097748 0.036957
0.113007 0.139313 0.042145
0.363617 0.193298 0.096375
0.571472 0.260010 0.151825
0.736176 0.315979 0.196716
0.055573 0.219147 0.077606
0.130341 0.263824 0.083466
0.368774 0.345947 0.130615
0.558533 0.381409 0.172424
0.693848 0.423157 0.205200
0.096710 0.356750 0.125458
0.171143 0.400909 0.126343
0.336578 0.473724 0.153656
0.522888 0.513794 0.192719
0.655914 0.551056 0.222351
0.140320 0.493622 0.171967
0.229523 0.539703 0.171356
0.343658 0.608337 0.191742
0.493988 0.663879 0.225494
0.617645 0.678925 0.247131
0.025909 0.032990 0.102448
0.104370 0.034668 0.107239
0.361267 0.083710 0.153992
0.604340 0.143127 0.207367
0.740234 0.177246 0.247192
0.028595 0.105194 0.110931
0.157623 0.176239 0.185089
0.482086 0.269073 0.252472
0.682037 0.335510 0.301086
0.820953 0.370819 0.317719
0.058777 0.226288 0.157928
0.167694 0.318542 0.199188
0.399902 0.366302 0.197174
0.596039 0.437317 0.257080
0.742767 0.485413 0.288239
0.095306 0.355652 0.198273
0.199493 0.431244 0.199402
0.378723 0.493347 0.212250
0.564270 0.542725 0.250977
0.694061 0.589172 0.286499
0.134949 0.485229 0.226105
0.280792 0.580688 0.232574
0.383606 0.630920 0.247406
0.525085 0.671326 0.273590
0.645905 0.704529 0.298096
0.028900 0.054413 0.222046
0.096893 0.048126 0.223419
0.284515 0.059570 0.218994
0.549500 0.126465 0.280029
0.678680 0.157318 0.307068
0.045837 0.141754 0.245636
0.153809 0.233612 0.387817
0.486908 0.238373 0.377777
0.689484 0.302734 0.414642
0.834564 0.347076 0.444336
0.072662 0.256500 0.292480
0.160339 0.351257 0.379150
0.478149 0.471100 0.474884
0.687714 0.541901 0.517303
0.833679 0.576752 0.526367
0.111816 0.401703 0.362610
0.194611 0.497742 0.429962
0.432831 0.594757 0.493134
0.619141 0.631287 0.471832
0.771301 0.675385 0.493134
0.155121 0.541199 0.412537
0.219818 0.625153 0.449524
0.436005 0.721008 0.509979
0.553802 0.751617 0.440491
0.711487 0.790619 0.471771
0.042542 0.066223 0.306213
0.100098 0.066406 0.329254
0.285461 0.080383 0.368317
0.549866 0.129303 0.379211
0.659393 0.154846 0.397644
0.065430 0.172607 0.367279
0.165405 0.269409 0.543274
0.431946 0.197510 0.497772
0.655029 0.221344 0.475708
0.797028 0.272034 0.512390
0.091492 0.286896 0.416290
0.178284 0.398651 0.527924
0.465576 0.524933 0.628632
0.687897 0.529938 0.625244
0.850006 0.571411 0.642517
0.125244 0.424133 0.475830
0.192841 0.501923 0.546600
0.440002 0.616821 0.623108
0.689240 0.695068 0.686829
0.855652 0.744446 0.714020
0.168549 0.574860 0.553192
0.231903 0.664215 0.621338
0.403564 0.756531 0.675476
0.694916 0.820068 0.728333
0.801392 0.837372 0.701324
0.052948 0.074036 0.375641
0.102600 0.071625 0.375549
0.242432 0.096649 0.464142
0.556824 0.133057 0.492493
0.661560 0.156036 0.495758
0.084229 0.199097 0.479675
0.169464 0.281555 0.646484
0.355988 0.193390 0.580933
0.621033 0.201263 0.551758
0.735291 0.229218 0.562958
0.112640 0.330658 0.537903
0.194214 0.438843 0.658478
0.424713 0.550903 0.752655
0.661407 0.491638 0.732483
0.831848 0.530273 0.726196
0.140900 0.447876 0.582672
0.211487 0.541107 0.676941
0.406525 0.652252 0.756744
0.705017 0.741150 0.814667
0.853912 0.753052 0.820557
0.177124 0.587524 0.646301
0.235535 0.655823 0.707764
0.394501 0.757568 0.775818
0.673859 0.831146 0.832123
0.885895 0.894196 0.882263
