滤镜资源/Professional Luts Collection/Triune-Digital-Cinematic-LUTs/3D LUTs (CUBE)/STANDARD/Gone Girl - Rec709.cube
#Created by Benjamin (IWLTBAP) : http://luts.iwltbap.com
#Copyright: (C) Copyright 2016 Triune Films and IWLTBAP
TITLE "Blockbuster LUTs Pack (Rec.709)"
#LUT size
LUT_3D_SIZE 5
#LUT data points
DOMAIN_MIN 0.000000 0.000000 0.000000
DOMAIN_MAX 0.903226 0.903226 0.903226
0.006500 0.006348 0.002533
0.346741 0.106934 0.092682
0.694641 0.230103 0.205292
0.912048 0.320465 0.291260
0.976776 0.399200 0.376587
0.024414 0.205841 0.039215
0.203705 0.202209 0.030457
0.554169 0.308990 0.131470
0.867920 0.401794 0.235687
0.974823 0.477142 0.326538
0.057404 0.427063 0.099213
0.184174 0.433197 0.089081
0.482300 0.461212 0.088135
0.809235 0.556732 0.186523
0.956573 0.628326 0.257996
0.095367 0.633514 0.163971
0.156433 0.659973 0.174805
0.467529 0.665802 0.153076
0.756836 0.699554 0.153717
0.951904 0.772095 0.226440
0.136261 0.830963 0.234406
0.176331 0.863770 0.246674
0.454468 0.876740 0.232147
0.726532 0.883820 0.214233
0.935974 0.899353 0.229919
0.032562 0.026245 0.169312
0.294373 0.060303 0.192627
0.670593 0.202972 0.288086
0.908783 0.315094 0.349396
0.976532 0.402618 0.420685
0.023499 0.210388 0.163818
0.197083 0.200592 0.150574
0.554688 0.307678 0.233459
0.872498 0.405884 0.307495
0.974548 0.483429 0.380371
0.059296 0.441498 0.200470
0.146423 0.447479 0.199158
0.461365 0.456848 0.181152
0.805908 0.559967 0.252777
0.959900 0.634552 0.307526
0.099823 0.653717 0.250488
0.138702 0.676514 0.261627
0.447235 0.680267 0.239532
0.732391 0.701721 0.232117
0.948761 0.775146 0.299683
0.142151 0.853302 0.315308
0.170715 0.881744 0.329407
0.443817 0.892792 0.317352
0.717590 0.895233 0.292938
0.931610 0.905914 0.306152
0.083527 0.038422 0.357605
0.288727 0.042053 0.369202
0.603119 0.127686 0.440033
0.861481 0.233856 0.516968
0.960541 0.331604 0.575073
0.053619 0.222870 0.370239
0.224060 0.220062 0.356476
0.518646 0.267487 0.402405
0.841705 0.359894 0.499146
0.966431 0.437012 0.571381
0.064606 0.456238 0.397095
0.129974 0.465393 0.402222
0.459900 0.465240 0.389343
0.794464 0.562683 0.474426
0.954712 0.639587 0.549225
0.104614 0.670349 0.432495
0.140564 0.694733 0.447327
0.447052 0.686890 0.434326
0.719208 0.699921 0.433289
0.940918 0.778015 0.507690
0.147095 0.874359 0.480896
0.173920 0.900940 0.493866
0.445160 0.903137 0.488068
0.716858 0.900055 0.473389
0.926086 0.910370 0.482880
0.151978 0.064636 0.546234
0.326904 0.069489 0.559662
0.564697 0.090302 0.575012
0.825623 0.176941 0.643890
0.948547 0.282043 0.695038
0.117340 0.221222 0.552643
0.275940 0.230408 0.554138
0.512115 0.239929 0.568329
0.805023 0.296814 0.636444
0.953766 0.374817 0.704712
0.094543 0.467133 0.584717
0.183655 0.472046 0.584320
0.485809 0.484436 0.577484
0.773224 0.537872 0.625214
0.949432 0.614471 0.699280
0.112305 0.685822 0.614380
0.150146 0.705933 0.626953
0.459076 0.693024 0.604004
0.725494 0.707672 0.610504
0.940430 0.782623 0.688141
0.153107 0.893066 0.650024
0.178070 0.915771 0.662628
0.445404 0.914062 0.655090
0.720154 0.906097 0.650238
0.922943 0.913086 0.658569
0.223663 0.085938 0.715912
0.382507 0.091614 0.728668
0.593140 0.108582 0.749237
0.804626 0.135620 0.767303
0.937927 0.235229 0.798767
0.186310 0.225372 0.733398
0.342926 0.236298 0.743744
0.555023 0.244324 0.764679
0.803589 0.235046 0.792755
0.942627 0.316956 0.819458
0.151245 0.470642 0.767151
0.263428 0.471680 0.765869
0.527191 0.496613 0.772339
0.760956 0.498596 0.772278
0.940918 0.555328 0.816864
0.133087 0.703674 0.808167
0.193756 0.711121 0.812805
0.503723 0.709412 0.795135
0.748474 0.718018 0.791290
0.936310 0.764923 0.823822
0.159821 0.904785 0.832489
0.185913 0.923798 0.843994
0.476990 0.911530 0.819061
0.736572 0.905609 0.811157
0.928986 0.914978 0.825653
