滤镜资源/Professional Luts Collection/Triune-Digital-Cinematic-LUTs/3D LUTs (CUBE)/STANDARD/Gone Girl - Rec709.cube
#Created by Benjamin (IWLTBAP) : http://luts.iwltbap.com
#Copyright: (C) Copyright 2016 Triune Films and IWLTBAP
TITLE "Blockbuster LUTs Pack (Rec.709)"
#LUT size
LUT_3D_SIZE 8
#LUT data points
DOMAIN_MIN 0.000000 0.000000 0.000000
DOMAIN_MAX 0.903226 0.903226 0.903226
0.006500 0.006348 0.002533
0.157104 0.055420 0.042786
0.424988 0.125336 0.115753
0.617523 0.198883 0.178070
0.778534 0.255188 0.241241
0.895996 0.307678 0.280579
0.953735 0.354523 0.335602
0.976776 0.399200 0.376587
0.018890 0.111084 0.013611
0.093964 0.108276 0.014771
0.279327 0.156769 0.061523
0.502167 0.222168 0.126801
0.705750 0.283142 0.190918
0.874115 0.334106 0.253357
0.945648 0.380035 0.314972
0.977020 0.426331 0.364319
0.026917 0.236298 0.047302
0.086029 0.237885 0.039398
0.243256 0.237366 0.036285
0.451233 0.298950 0.096283
0.643646 0.358276 0.155212
0.833801 0.412445 0.215851
0.921051 0.455048 0.263367
0.973907 0.497559 0.313232
0.046722 0.364380 0.081818
0.071075 0.371429 0.082214
0.241669 0.364807 0.061646
0.411041 0.385773 0.070770
0.601776 0.445984 0.127228
0.793884 0.501068 0.186615
0.891388 0.543335 0.230957
0.960541 0.583740 0.271362
0.067963 0.489105 0.117371
0.082977 0.498871 0.119202
0.224457 0.498169 0.106659
0.390137 0.507416 0.096466
0.558289 0.531311 0.105194
0.756958 0.584991 0.160919
0.878784 0.630676 0.208923
0.954132 0.669769 0.246429
0.089294 0.604675 0.154724
0.104309 0.615234 0.159576
0.208954 0.625854 0.156586
0.384247 0.629059 0.144653
0.549316 0.642670 0.133636
0.720551 0.666687 0.144714
0.868195 0.716095 0.188568
0.953857 0.753571 0.228668
0.112793 0.720062 0.192322
0.127106 0.734711 0.198486
0.195221 0.754150 0.205994
0.379608 0.749847 0.187805
0.551270 0.756744 0.178986
0.699707 0.762817 0.167114
0.852875 0.788483 0.185120
0.947144 0.817474 0.220428
0.136261 0.830963 0.234406
0.149231 0.846710 0.239166
0.198456 0.872101 0.250641
0.357147 0.876862 0.243042
0.543121 0.877136 0.224030
0.690857 0.881836 0.216095
0.832550 0.887909 0.209290
0.935974 0.899353 0.229919
0.019684 0.023132 0.082184
0.144165 0.039001 0.094818
0.387878 0.107025 0.148834
0.595642 0.188934 0.203430
0.775665 0.253906 0.262177
0.897003 0.309662 0.297180
0.956482 0.358551 0.350677
0.977417 0.403412 0.390045
0.014862 0.108826 0.073456
0.096771 0.104187 0.069977
0.279480 0.154114 0.109283
0.507904 0.219818 0.160400
0.692749 0.280029 0.215424
0.873047 0.334351 0.270142
0.946625 0.381409 0.327911
0.977234 0.428894 0.379272
0.026581 0.235229 0.099854
0.084473 0.232513 0.095856
0.235077 0.229523 0.085602
0.450500 0.293518 0.124451
0.642120 0.353790 0.176636
0.836670 0.410248 0.229980
0.922546 0.453888 0.275024
0.973846 0.496918 0.326569
0.046936 0.367401 0.125336
0.075104 0.371796 0.129669
0.228149 0.364868 0.109314
0.401062 0.379852 0.103943
0.595978 0.442841 0.145966
0.793335 0.498779 0.196899
0.894043 0.543793 0.241364
0.962677 0.584991 0.280731
0.068909 0.496002 0.154663
0.088440 0.502960 0.158447
0.208801 0.503052 0.144684
0.384766 0.507263 0.127991
0.551300 0.530060 0.129669
0.755707 0.585938 0.169495
0.882050 0.633514 0.218170
0.956238 0.673096 0.254333
0.091339 0.614227 0.189514
0.108215 0.623840 0.195007
0.183807 0.637451 0.192749
0.377014 0.634674 0.170471
0.543335 0.647888 0.156616
0.712006 0.668152 0.163086
0.865845 0.718964 0.204071
0.952911 0.756165 0.244720
0.114899 0.730927 0.227386
0.130035 0.744476 0.233032
0.173737 0.763702 0.239471
0.367676 0.758606 0.216400
0.542053 0.764771 0.204041
0.692841 0.769592 0.188019
0.847961 0.791687 0.204071
0.945923 0.820465 0.239105
0.139221 0.842987 0.267792
0.152557 0.858215 0.274292
0.184448 0.880402 0.284363
0.339600 0.890656 0.277618
0.534485 0.887360 0.248840
0.684906 0.889069 0.238251
0.829346 0.894226 0.228149
0.934296 0.903656 0.247375
0.033539 0.023926 0.195618
0.141846 0.024933 0.189880
0.350800 0.065735 0.229706
0.563995 0.151550 0.282166
0.755341 0.222015 0.338409
0.880768 0.289001 0.364624
0.950287 0.340851 0.409485
0.974701 0.395050 0.439209
0.021271 0.120026 0.180023
0.105286 0.119049 0.174316
0.265167 0.141052 0.191620
0.494598 0.207550 0.250671
0.686951 0.269531 0.304260
0.869110 0.326935 0.354950
0.943970 0.377502 0.397461
0.977448 0.430969 0.436829
0.027344 0.245636 0.194244
0.084015 0.239929 0.188507
0.234406 0.235077 0.178833
0.444916 0.295746 0.224579
0.636536 0.357330 0.279175
0.834961 0.415619 0.324677
0.920898 0.459900 0.363312
0.973602 0.504456 0.396637
0.049438 0.378937 0.215485
0.081543 0.380890 0.217926
0.218475 0.369720 0.202942
0.390625 0.377289 0.197662
0.583649 0.443237 0.244843
0.787140 0.501007 0.288818
0.896301 0.547882 0.327850
0.963348 0.589539 0.362457
0.070862 0.509521 0.238007
0.090881 0.515656 0.239716
0.170319 0.520081 0.237213
0.374054 0.512939 0.219543
0.531372 0.529205 0.221100
0.736847 0.586578 0.264191
0.877319 0.636383 0.308136
0.955414 0.676544 0.340546
0.095154 0.628143 0.265472
0.111816 0.638000 0.270477
0.149170 0.654846 0.277618
0.364105 0.644684 0.258240
0.530579 0.655762 0.250305
0.694946 0.668304 0.251007
0.859863 0.720673 0.293182
0.949554 0.757874 0.336884
0.119049 0.743896 0.298309
0.133698 0.757294 0.304565
0.159576 0.775360 0.315002
0.351440 0.771118 0.300995
0.531982 0.773376 0.290955
0.683441 0.776306 0.274994
0.834473 0.793762 0.291656
0.940735 0.822601 0.329132
0.143066 0.856720 0.335327
0.156158 0.871216 0.342682
0.179016 0.890717 0.353668
0.330688 0.902252 0.355225
0.534790 0.892883 0.328735
0.682678 0.893738 0.321899
0.826019 0.897827 0.315704
0.930756 0.906433 0.333344
0.060822 0.034149 0.296631
0.160431 0.035583 0.304596
0.325073 0.040771 0.315399
0.521606 0.112671 0.364441
0.715546 0.184113 0.422394
0.850159 0.243469 0.458740
0.934204 0.294556 0.504181
0.965210 0.352325 0.529785
0.043884 0.124451 0.286011
0.123077 0.126251 0.288055
0.260101 0.126434 0.286102
0.466461 0.170715 0.334351
0.656036 0.228302 0.391571
0.840515 0.280914 0.450348
0.926605 0.328613 0.495514
0.967529 0.381104 0.535339
0.040009 0.254791 0.309052
0.097809 0.250916 0.301697
0.243317 0.248993 0.290039
0.431335 0.285339 0.324738
0.621033 0.347504 0.382324
0.826538 0.404388 0.438934
0.913971 0.445129 0.485687
0.971100 0.490356 0.524780
0.055237 0.386108 0.324646
0.090607 0.386230 0.325500
0.209625 0.376404 0.310883
0.391785 0.385681 0.312225
0.575287 0.445648 0.359650
0.781372 0.503265 0.418152
0.892242 0.551514 0.462067
0.959625 0.592957 0.503204
0.073425 0.517944 0.343872
0.095459 0.523499 0.347778
0.159515 0.527740 0.345581
0.374786 0.515778 0.330048
0.526489 0.528473 0.338837
0.730682 0.586823 0.387451
0.870941 0.638489 0.438446
0.953033 0.678680 0.479584
0.096771 0.638428 0.367157
0.113220 0.649506 0.374664
0.149261 0.663574 0.384338
0.362732 0.648712 0.368805
0.527435 0.657623 0.364349
0.686371 0.666046 0.369507
0.849640 0.721008 0.417847
0.945160 0.760345 0.456726
0.121460 0.753693 0.396820
0.135986 0.767029 0.403473
0.164062 0.781860 0.413147
0.351105 0.774963 0.405121
0.532928 0.775757 0.395874
0.678925 0.777954 0.389435
0.826050 0.794434 0.402435
0.937836 0.824921 0.439362
0.145050 0.868134 0.429535
0.157593 0.881989 0.435516
0.178986 0.900635 0.444580
0.322205 0.910828 0.454895
0.529938 0.898926 0.430725
0.678162 0.898560 0.422180
0.821198 0.901367 0.418030
0.927368 0.908905 0.431427
0.108002 0.041534 0.418762
0.198669 0.044128 0.425018
0.337097 0.051239 0.427917
0.499969 0.078217 0.453430
0.684357 0.144958 0.505920
0.825409 0.201599 0.545929
0.916626 0.256287 0.585907
0.956635 0.314941 0.612579
0.081848 0.123322 0.410156
0.161072 0.127075 0.411987
0.289368 0.126129 0.416901
0.455658 0.130249 0.438324
0.631805 0.179779 0.489594
0.816040 0.232544 0.548431
0.911255 0.284180 0.587189
0.958649 0.338074 0.624451
0.070587 0.254913 0.432922
0.126343 0.251801 0.426453
0.268280 0.255005 0.423279
0.419250 0.259583 0.425476
0.592682 0.306061 0.473480
0.796967 0.361786 0.529938
0.896790 0.403534 0.574158
0.963531 0.448151 0.613068
0.067505 0.393799 0.452179
0.110260 0.392242 0.452393
0.221741 0.386658 0.441956
0.401062 0.392883 0.434052
0.569580 0.434418 0.471222
0.772461 0.494263 0.525055
0.887665 0.543549 0.570251
0.957947 0.584503 0.611908
0.077026 0.523407 0.466705
0.099213 0.530914 0.472107
0.164856 0.532318 0.466827
0.377625 0.518860 0.446808
0.536438 0.535522 0.458740
0.730743 0.590210 0.502747
0.872284 0.643158 0.554688
0.951294 0.685059 0.593994
0.100830 0.644928 0.486359
0.117676 0.657623 0.493713
0.154480 0.669769 0.499115
0.365051 0.652832 0.477356
0.533539 0.659576 0.477478
0.685394 0.666901 0.481415
0.849365 0.723663 0.528748
0.942902 0.764618 0.569946
0.123596 0.764984 0.507477
0.138092 0.777191 0.513397
0.168060 0.790527 0.519653
0.345215 0.782623 0.508728
0.535736 0.780548 0.503418
0.679810 0.781433 0.496094
0.822998 0.796204 0.509094
0.932220 0.829071 0.545044
0.149384 0.880371 0.532623
0.161469 0.893524 0.539093
0.182251 0.911133 0.548187
0.304443 0.923431 0.555450
0.535400 0.904388 0.530731
0.682434 0.902130 0.524841
0.822052 0.904816 0.521637
0.925537 0.912292 0.531952
0.142059 0.061005 0.522400
0.224579 0.063995 0.529205
0.361420 0.064850 0.536011
0.496643 0.077789 0.545227
0.657288 0.117188 0.576996
0.803680 0.169891 0.617401
0.906830 0.224640 0.657135
0.950043 0.288116 0.679108
0.121246 0.124817 0.519806
0.200531 0.129791 0.525604
0.320343 0.129089 0.531708
0.470978 0.129730 0.545044
0.622284 0.151398 0.571014
0.803558 0.195068 0.629120
0.905243 0.249542 0.663116
0.952118 0.309723 0.691437
0.105621 0.254272 0.533356
0.158173 0.254608 0.533112
0.298309 0.261108 0.531677
0.439148 0.267365 0.535919
0.581573 0.280762 0.553528
0.772247 0.329102 0.603424
0.886017 0.371185 0.646027
0.956879 0.415710 0.684326
0.086884 0.398102 0.554138
0.133453 0.397156 0.552795
0.252625 0.393463 0.546417
0.419098 0.405579 0.543152
0.555817 0.415924 0.548767
0.745392 0.465302 0.594696
0.874298 0.513336 0.639740
0.952179 0.554443 0.680450
0.088257 0.531555 0.568695
0.113007 0.540558 0.574036
0.180450 0.541443 0.569946
0.392578 0.534332 0.553680
0.541656 0.546631 0.557617
0.724609 0.589508 0.597107
0.867310 0.643433 0.646820
0.950897 0.685547 0.687592
0.105286 0.653992 0.585144
0.120636 0.666046 0.593384
0.159210 0.676056 0.597626
0.368347 0.658386 0.573853
0.535156 0.662994 0.569244
0.688385 0.673584 0.578979
0.847565 0.726868 0.626282
0.943085 0.768188 0.667542
0.128479 0.772858 0.603180
0.141876 0.784088 0.610382
0.168579 0.797943 0.618713
0.346069 0.789215 0.605316
0.535187 0.785065 0.597229
0.681641 0.786591 0.591766
0.822296 0.798309 0.605865
0.932465 0.831329 0.644958
0.152283 0.890961 0.624847
0.163849 0.903137 0.630981
0.183441 0.918884 0.640167
0.307068 0.928101 0.650574
0.532288 0.909760 0.622162
0.685547 0.905426 0.622559
0.821045 0.907440 0.622223
0.922058 0.913666 0.631744
0.180908 0.075409 0.615143
0.260132 0.077301 0.623322
0.384521 0.080688 0.629517
0.508209 0.093170 0.641479
0.645081 0.104340 0.651001
0.783478 0.145599 0.684296
0.894897 0.196777 0.723938
0.943848 0.262085 0.744873
0.167114 0.130005 0.625610
0.242859 0.134674 0.632172
0.357422 0.134308 0.638489
0.489410 0.140778 0.651703
0.632446 0.138214 0.672363
0.788666 0.166321 0.706451
0.898773 0.215027 0.741699
0.945770 0.281464 0.760620
0.142090 0.257111 0.630371
0.198334 0.260681 0.633575
0.331146 0.267548 0.637634
0.461456 0.275330 0.646667
0.593781 0.276947 0.656860
0.761536 0.297791 0.685455
0.876526 0.333588 0.726929
0.949982 0.380219 0.761292
0.118774 0.400757 0.655487
0.166290 0.398529 0.654572
0.293610 0.398621 0.649353
0.442932 0.415710 0.655182
0.573730 0.421906 0.656860
0.730896 0.438324 0.676758
0.858551 0.478119 0.717255
0.946228 0.517792 0.759216
0.104980 0.540680 0.678894
0.138000 0.544495 0.680206
0.221832 0.539459 0.670441
0.417572 0.544189 0.667328
0.565063 0.554688 0.671936
0.714569 0.565308 0.680176
0.851929 0.609100 0.722565
0.944305 0.649597 0.765106
0.115692 0.665558 0.697174
0.131805 0.675507 0.706726
0.185577 0.679077 0.706207
0.390808 0.668671 0.687805
0.553406 0.672424 0.683655
0.699310 0.679260 0.686890
0.846466 0.725220 0.729279
0.942932 0.766235 0.770020
0.132874 0.779388 0.711365
0.145660 0.789551 0.718536
0.172516 0.802032 0.726288
0.367950 0.786713 0.708130
0.545410 0.782867 0.699890
0.689331 0.785217 0.696106
0.827301 0.800659 0.713348
0.931610 0.832642 0.748383
0.154968 0.897766 0.733459
0.166138 0.907928 0.739716
0.185608 0.922821 0.748779
0.325165 0.928131 0.747742
0.543213 0.906677 0.725494
0.691681 0.904175 0.724976
0.825775 0.907501 0.723083
0.923798 0.913025 0.733490
0.223663 0.085938 0.715912
0.299164 0.088715 0.722168
0.413879 0.092865 0.731232
0.529602 0.102783 0.744141
0.657776 0.114227 0.752533
0.773376 0.125671 0.759735
0.887665 0.166870 0.788544
0.937927 0.235229 0.798767
0.215302 0.136383 0.731537
0.287811 0.138428 0.741211
0.402161 0.135162 0.753265
0.526581 0.138977 0.771698
0.654236 0.144196 0.780212
0.784058 0.145294 0.787781
0.891785 0.186615 0.807617
0.940094 0.254333 0.813110
0.178375 0.257477 0.737518
0.250610 0.263153 0.740021
0.368530 0.269989 0.747498
0.488220 0.278015 0.759552
0.615173 0.279755 0.768921
0.760681 0.274109 0.776825
0.876556 0.298706 0.804138
0.944000 0.348785 0.819092
0.163208 0.395935 0.756287
0.199127 0.397583 0.759674
0.334259 0.403015 0.756256
0.470886 0.422638 0.765137
0.595703 0.426544 0.768036
0.735840 0.426331 0.770477
0.854401 0.450623 0.788300
0.943970 0.486572 0.817200
0.134460 0.542542 0.783264
0.171692 0.543304 0.782654
0.284393 0.538727 0.772247
0.446655 0.552734 0.777588
0.590210 0.562500 0.779114
0.723511 0.565369 0.776062
0.847137 0.585999 0.792145
0.938446 0.621277 0.819092
0.127838 0.675659 0.806122
0.149506 0.682617 0.811646
0.223083 0.678192 0.804047
0.425507 0.675476 0.792480
0.578735 0.682007 0.787445
0.718201 0.686920 0.787506
0.846252 0.704895 0.798126
0.937073 0.739807 0.822876
0.144226 0.789490 0.818054
0.158844 0.798462 0.823883
0.193481 0.808075 0.829071
0.397888 0.797241 0.807892
0.567627 0.794342 0.800385
0.707336 0.798462 0.796204
0.839264 0.810272 0.804291
0.932739 0.834106 0.829559
0.159821 0.904785 0.832489
0.171326 0.914307 0.838104
0.192505 0.927429 0.845917
0.368225 0.921082 0.832123
0.559174 0.905670 0.813721
0.703705 0.903961 0.812073
0.835144 0.907928 0.811859
0.928986 0.914978 0.825653
