滤镜资源/Professional Luts Collection/Triune-Digital-Cinematic-LUTs/3D LUTs (CUBE)/STANDARD/Gone Girl - Rec709.cube
#Created by Benjamin (IWLTBAP) : http://luts.iwltbap.com
#Copyright: (C) Copyright 2016 Triune Films and IWLTBAP
TITLE "Blockbuster LUTs Pack (Rec.709)"
#LUT size
LUT_3D_SIZE 32
#LUT data points
0.006500 0.006348 0.002533
0.026184 0.014648 0.007416
0.056763 0.024811 0.015381
0.099060 0.037903 0.026825
0.157104 0.055420 0.042786
0.213318 0.073822 0.057709
0.279663 0.091492 0.074982
0.346741 0.106934 0.092682
0.424988 0.125336 0.115753
0.490479 0.142334 0.137054
0.537048 0.160645 0.153717
0.577789 0.179657 0.166168
0.617523 0.198883 0.178070
0.655945 0.215454 0.191162
0.694641 0.230103 0.205292
0.733856 0.242950 0.220947
0.778534 0.255188 0.241241
0.816010 0.268280 0.253754
0.850067 0.281525 0.262543
0.878571 0.294800 0.270325
0.895996 0.307678 0.280579
0.912048 0.320465 0.291260
0.927521 0.332611 0.304749
0.941376 0.343842 0.319855
0.953735 0.354523 0.335602
0.964081 0.365356 0.348602
0.971252 0.376587 0.357971
0.973969 0.388062 0.365479
0.976776 0.399200 0.376587
0.979614 0.410828 0.385498
0.982513 0.422394 0.394958
0.985413 0.433868 0.405151
0.011658 0.025665 0.004211
0.024841 0.028137 0.004639
0.048431 0.035736 0.010040
0.082642 0.046814 0.019165
0.121826 0.059662 0.029785
0.174347 0.076233 0.044159
0.226654 0.092163 0.058136
0.284607 0.106659 0.073303
0.352417 0.121368 0.091553
0.423798 0.138733 0.112823
0.487396 0.156555 0.131927
0.535919 0.174530 0.148010
0.578094 0.191864 0.161743
0.620148 0.209839 0.175934
0.661560 0.225708 0.191040
0.714386 0.243652 0.211395
0.758179 0.256378 0.229980
0.798431 0.269531 0.244385
0.835419 0.283081 0.255005
0.869232 0.296448 0.262970
0.889404 0.309479 0.274445
0.906830 0.322418 0.285980
0.923340 0.334869 0.299500
0.938690 0.346832 0.315735
0.953278 0.358551 0.334503
0.963440 0.370087 0.345764
0.971039 0.381683 0.354279
0.973877 0.393188 0.362274
0.976807 0.404175 0.374359
0.979736 0.415619 0.383942
0.982666 0.427063 0.393768
0.985657 0.438446 0.404297
0.016296 0.049011 0.006561
0.029572 0.050537 0.006744
0.045197 0.052094 0.007111
0.071564 0.059021 0.012695
0.108429 0.070251 0.022949
0.151154 0.083435 0.034821
0.198242 0.097931 0.047760
0.248932 0.111969 0.061157
0.304413 0.125549 0.075531
0.367462 0.141235 0.093231
0.436157 0.159149 0.113831
0.497437 0.176819 0.132355
0.548676 0.193146 0.148010
0.591034 0.209869 0.162018
0.636993 0.226715 0.179077
0.688751 0.243927 0.199005
0.742859 0.260529 0.219604
0.785889 0.273743 0.235931
0.824371 0.286682 0.247986
0.860382 0.300018 0.257080
0.884430 0.313110 0.268982
0.903320 0.325714 0.281982
0.920563 0.338287 0.295715
0.936859 0.350464 0.312683
0.951782 0.362366 0.331177
0.962769 0.375214 0.342285
0.970978 0.387085 0.350952
0.973938 0.398499 0.360077
0.976959 0.409485 0.372711
0.979950 0.420715 0.382996
0.982941 0.432037 0.393127
0.985992 0.443298 0.403809
0.019318 0.077911 0.009705
0.033325 0.078522 0.009827
0.048004 0.079163 0.010040
0.067841 0.078796 0.010406
0.100311 0.085510 0.017181
0.141815 0.097656 0.028931
0.190002 0.111938 0.042358
0.239166 0.125854 0.055328
0.288513 0.139465 0.067810
0.346039 0.154297 0.083496
0.407288 0.171753 0.101807
0.469543 0.189331 0.120544
0.521851 0.205475 0.136566
0.568878 0.221436 0.151062
0.620178 0.237152 0.167633
0.670502 0.252563 0.186401
0.723724 0.267975 0.206177
0.778564 0.282806 0.227386
0.818573 0.295013 0.240784
0.856201 0.307556 0.251465
0.881897 0.319824 0.264587
0.902039 0.331879 0.279175
0.919983 0.344055 0.293915
0.936584 0.355927 0.311218
0.950653 0.367950 0.327332
0.961884 0.380676 0.338257
0.971039 0.393372 0.347595
0.974182 0.404846 0.358337
0.977264 0.415649 0.371277
0.980316 0.426697 0.382294
0.983368 0.437775 0.392700
0.986420 0.448914 0.403473
0.018890 0.111084 0.013611
0.031860 0.111969 0.013672
0.045959 0.112122 0.014282
0.067322 0.110474 0.014221
0.093964 0.108276 0.014771
0.131439 0.115173 0.022308
0.181824 0.129395 0.036438
0.231140 0.143188 0.049408
0.279327 0.156769 0.061523
0.331787 0.171387 0.075531
0.388794 0.188080 0.092407
0.447174 0.205383 0.109955
0.502167 0.222168 0.126801
0.547791 0.237640 0.140900
0.598755 0.252625 0.156769
0.652649 0.267944 0.173523
0.705750 0.283142 0.190918
0.759277 0.297791 0.210236
0.806488 0.310822 0.226837
0.845673 0.322510 0.239197
0.874115 0.334106 0.253357
0.895966 0.345520 0.269440
0.914551 0.357056 0.284210
0.930817 0.368561 0.299316
0.945648 0.380035 0.314972
0.958069 0.392212 0.326843
0.968719 0.404388 0.336945
0.973694 0.415771 0.350159
0.977020 0.426331 0.364319
0.980255 0.436859 0.377472
0.983429 0.447693 0.388336
0.986603 0.458466 0.399414
0.021515 0.143127 0.019867
0.033752 0.143768 0.021027
0.046478 0.144043 0.021729
0.068085 0.141876 0.020905
0.094269 0.139679 0.020142
0.124725 0.138519 0.019958
0.172302 0.148010 0.030090
0.222961 0.161804 0.043427
0.270599 0.175385 0.055267
0.322113 0.189789 0.068909
0.377930 0.205872 0.085419
0.432709 0.222778 0.101746
0.486389 0.239777 0.118195
0.531311 0.255554 0.132050
0.579559 0.270233 0.147003
0.631439 0.285126 0.163147
0.682526 0.300140 0.179016
0.737732 0.315155 0.196289
0.787720 0.328735 0.211853
0.834625 0.340790 0.226776
0.865204 0.351746 0.241669
0.887421 0.362762 0.256927
0.906250 0.374054 0.270264
0.923065 0.385071 0.284454
0.938324 0.396240 0.298370
0.952393 0.407562 0.311615
0.964569 0.419067 0.323181
0.972748 0.430237 0.337036
0.976471 0.440613 0.353058
0.979950 0.450500 0.368774
0.983307 0.461060 0.379425
0.986633 0.471741 0.389587
0.021881 0.175598 0.029694
0.031952 0.177063 0.029633
0.047058 0.175903 0.029022
0.068817 0.173492 0.027069
0.094818 0.171051 0.025787
0.125183 0.169739 0.024750
0.164062 0.169098 0.025238
0.213593 0.181213 0.037048
0.262177 0.194794 0.049194
0.312805 0.209045 0.062500
0.367828 0.224670 0.078644
0.420837 0.241089 0.094391
0.473724 0.258789 0.110565
0.518311 0.274353 0.124268
0.565369 0.288757 0.138824
0.616547 0.303284 0.154694
0.667297 0.317963 0.170502
0.719757 0.332733 0.186829
0.772186 0.347168 0.203156
0.819305 0.359802 0.217834
0.854126 0.370728 0.231018
0.879150 0.381531 0.245026
0.898102 0.392609 0.257416
0.914948 0.403717 0.269836
0.930725 0.414734 0.282227
0.945740 0.425781 0.294769
0.959747 0.436798 0.308258
0.970551 0.447754 0.322540
0.975708 0.458160 0.340088
0.979462 0.467865 0.355957
0.983063 0.478149 0.365662
0.986633 0.488464 0.376068
0.024414 0.205841 0.039215
0.031464 0.208588 0.039429
0.045746 0.208252 0.035889
0.066193 0.206238 0.034119
0.093109 0.203674 0.031647
0.124115 0.202118 0.029694
0.163635 0.201569 0.028564
0.203705 0.202209 0.030457
0.253113 0.215759 0.042755
0.304138 0.229919 0.056061
0.358154 0.245148 0.072083
0.409821 0.261200 0.087402
0.461304 0.278412 0.102997
0.507141 0.294708 0.116974
0.554169 0.308990 0.131470
0.604279 0.323151 0.146973
0.654358 0.337555 0.162476
0.705505 0.352020 0.178406
0.757416 0.366669 0.194519
0.806030 0.379883 0.209686
0.842682 0.391083 0.222870
0.867920 0.401794 0.235687
0.889832 0.412598 0.247772
0.909698 0.423401 0.259918
0.926361 0.434235 0.272095
0.942017 0.445007 0.284576
0.956390 0.455872 0.297119
0.967285 0.466675 0.310425
0.974823 0.477142 0.326538
0.979065 0.487274 0.341553
0.982941 0.497253 0.351929
0.986786 0.507324 0.361694
0.026917 0.236298 0.047302
0.033691 0.239075 0.046204
0.043518 0.240509 0.042999
0.060577 0.239960 0.041687
0.086029 0.237885 0.039398
0.118896 0.235962 0.036163
0.161102 0.234802 0.031616
0.201782 0.234497 0.032867
0.243256 0.237366 0.036285
0.295044 0.251343 0.049805
0.348633 0.266357 0.065582
0.399628 0.282135 0.080780
0.451233 0.298950 0.096283
0.496429 0.315216 0.109924
0.543579 0.330261 0.124298
0.593170 0.344147 0.139618
0.643646 0.358276 0.155212
0.694427 0.372467 0.170929
0.746307 0.386871 0.187012
0.795959 0.400757 0.202454
0.833801 0.412445 0.215851
0.858398 0.423157 0.227905
0.881195 0.433777 0.239899
0.902344 0.444366 0.251862
0.921051 0.455048 0.263367
0.937836 0.465759 0.274567
0.952759 0.476440 0.286346
0.964325 0.487061 0.299011
0.973907 0.497559 0.313232
0.978577 0.507812 0.327209
0.982971 0.517883 0.338989
0.987061 0.527527 0.349792
0.030792 0.267761 0.055969
0.036835 0.270691 0.052429
0.045502 0.271912 0.050232
0.058441 0.271942 0.049255
0.079437 0.271698 0.047546
0.111969 0.269775 0.043945
0.157043 0.267883 0.038544
0.199860 0.267242 0.036011
0.240875 0.267426 0.037628
0.286285 0.272858 0.044128
0.340332 0.287750 0.059845
0.391541 0.303314 0.074951
0.442719 0.320038 0.090179
0.488495 0.336487 0.103851
0.535736 0.352142 0.118134
0.582886 0.366028 0.132538
0.632660 0.379944 0.147827
0.683258 0.394012 0.163422
0.734833 0.408325 0.179382
0.785187 0.422211 0.194946
0.825989 0.435303 0.209290
0.850006 0.445831 0.220673
0.872009 0.456329 0.231750
0.894165 0.466766 0.243652
0.913879 0.477203 0.255127
0.931732 0.487732 0.266357
0.947418 0.498260 0.277039
0.961273 0.508850 0.287903
0.972351 0.519257 0.300873
0.978241 0.529785 0.313538
0.983002 0.539642 0.325989
0.987518 0.549225 0.337524
0.035828 0.300415 0.064331
0.041260 0.302673 0.064362
0.046082 0.305389 0.061615
0.056854 0.305725 0.060669
0.073669 0.305847 0.059509
0.107544 0.303436 0.054657
0.155365 0.300415 0.048157
0.199799 0.299683 0.043915
0.242035 0.299774 0.042419
0.284119 0.300201 0.044556
0.332825 0.309448 0.054565
0.383636 0.324921 0.069366
0.433685 0.341339 0.084106
0.479980 0.358185 0.097748
0.528412 0.374115 0.112244
0.574097 0.387756 0.126129
0.621674 0.401581 0.140625
0.671478 0.415497 0.155914
0.721893 0.429565 0.171387
0.772644 0.443787 0.187042
0.815765 0.457336 0.201843
0.840637 0.468140 0.213104
0.863281 0.478424 0.223999
0.884918 0.488647 0.235138
0.905945 0.498962 0.246674
0.924988 0.509277 0.257965
0.941528 0.519623 0.268524
0.956482 0.530029 0.278900
0.969910 0.540436 0.289825
0.977783 0.551056 0.299591
0.983093 0.561157 0.312958
0.987976 0.570740 0.324280
0.041412 0.333130 0.073273
0.046295 0.335388 0.073212
0.050690 0.337769 0.072479
0.057312 0.339569 0.072723
0.070068 0.340363 0.072510
0.101288 0.337982 0.067780
0.153534 0.333282 0.059326
0.199280 0.332062 0.054474
0.242706 0.332306 0.050598
0.285461 0.332703 0.049713
0.326996 0.334259 0.051941
0.374451 0.346893 0.063538
0.423035 0.363129 0.077606
0.469086 0.379883 0.091064
0.519653 0.396332 0.106079
0.565125 0.409760 0.119781
0.611908 0.423370 0.133972
0.660370 0.437134 0.148743
0.709595 0.450958 0.163788
0.758636 0.465057 0.178833
0.805176 0.479279 0.194336
0.832062 0.490356 0.206024
0.855255 0.500549 0.216766
0.877197 0.510681 0.227539
0.897980 0.520813 0.238403
0.918121 0.530945 0.249725
0.935425 0.541077 0.260162
0.951111 0.551331 0.270264
0.965057 0.561676 0.279968
0.975555 0.572327 0.287598
0.983002 0.582428 0.299500
0.988495 0.592407 0.311584
0.046722 0.364380 0.081818
0.051147 0.366760 0.081146
0.056183 0.368500 0.080841
0.062775 0.369873 0.081482
0.071075 0.371429 0.082214
0.096375 0.370941 0.079285
0.147430 0.367859 0.071991
0.197601 0.364777 0.065826
0.241669 0.364807 0.061646
0.284973 0.366058 0.057037
0.326782 0.367859 0.057129
0.365295 0.371704 0.059479
0.411041 0.385773 0.070770
0.457977 0.402557 0.084351
0.509155 0.419281 0.099396
0.554962 0.432617 0.113098
0.601776 0.445984 0.127228
0.650238 0.459564 0.141907
0.698944 0.473206 0.156738
0.747070 0.487061 0.171448
0.793884 0.501068 0.186615
0.823761 0.512970 0.199097
0.848053 0.523438 0.209900
0.870209 0.533356 0.220337
0.891388 0.543335 0.230957
0.911865 0.553345 0.241852
0.929657 0.563385 0.251984
0.946289 0.573517 0.262085
0.960541 0.583740 0.271362
0.972137 0.594269 0.279236
0.982452 0.604553 0.288910
0.989075 0.614746 0.299500
0.052032 0.395721 0.090454
0.056122 0.397980 0.089935
0.060791 0.399689 0.089783
0.067017 0.400970 0.090424
0.077454 0.401489 0.090057
0.097168 0.402222 0.088593
0.140625 0.401978 0.084015
0.191376 0.398956 0.077698
0.239746 0.397186 0.072235
0.282776 0.398376 0.067291
0.325104 0.400635 0.063324
0.363281 0.404816 0.064453
0.400818 0.410156 0.066956
0.444672 0.424011 0.077240
0.496185 0.440918 0.092255
0.542786 0.454529 0.106049
0.589447 0.467926 0.119995
0.638214 0.481323 0.134705
0.687653 0.494934 0.149658
0.735779 0.508728 0.164276
0.784119 0.522522 0.179718
0.816437 0.535217 0.192688
0.842499 0.546143 0.203888
0.865662 0.555969 0.214386
0.887604 0.565887 0.224945
0.908142 0.575745 0.235504
0.926483 0.585754 0.245514
0.943726 0.595795 0.255524
0.957642 0.605988 0.264038
0.970032 0.616364 0.271973
0.981049 0.626465 0.281952
0.988800 0.636780 0.290924
0.057404 0.427063 0.099213
0.061096 0.429199 0.099091
0.064636 0.431305 0.099060
0.069611 0.432983 0.100067
0.079285 0.433594 0.099731
0.095917 0.435364 0.099548
0.132050 0.437195 0.097290
0.184174 0.433197 0.089081
0.234192 0.430786 0.082977
0.278809 0.431122 0.077515
0.320648 0.433441 0.073822
0.359558 0.437500 0.072021
0.396667 0.442871 0.073792
0.434937 0.448395 0.077209
0.482300 0.461212 0.088135
0.530548 0.475433 0.099243
0.578278 0.489105 0.113403
0.626770 0.502533 0.127899
0.677063 0.516083 0.143036
0.726776 0.529846 0.158051
0.775085 0.543732 0.173309
0.809235 0.556732 0.186523
0.838043 0.568634 0.198395
0.862366 0.578461 0.209076
0.885468 0.588287 0.219849
0.906464 0.598206 0.230286
0.925385 0.608185 0.240234
0.943146 0.618134 0.250153
0.956573 0.628326 0.257996
0.968781 0.638641 0.265350
0.980133 0.648834 0.273712
0.988251 0.658844 0.284027
0.062775 0.458710 0.108337
0.066193 0.460663 0.108459
0.069489 0.462616 0.108673
0.073090 0.464905 0.108948
0.078705 0.467529 0.110413
0.090240 0.470856 0.112396
0.123535 0.472778 0.110565
0.177185 0.468048 0.101379
0.229095 0.464569 0.094330
0.274841 0.464233 0.089020
0.317474 0.465881 0.085297
0.356079 0.469910 0.083771
0.393036 0.475433 0.084320
0.431030 0.480804 0.087494
0.473175 0.485168 0.090271
0.519470 0.496307 0.097900
0.568726 0.510437 0.107391
0.617737 0.523651 0.121979
0.667999 0.537079 0.136993
0.718079 0.550598 0.152069
0.766083 0.564301 0.167053
0.802979 0.578094 0.180878
0.833313 0.590088 0.192963
0.858398 0.599731 0.203705
0.882507 0.609406 0.214569
0.904327 0.619171 0.225067
0.924255 0.629028 0.235199
0.942627 0.638794 0.245148
0.955505 0.648926 0.252289
0.967560 0.659180 0.259247
0.979340 0.669403 0.266357
0.988129 0.679199 0.277435
0.067963 0.489105 0.117371
0.071198 0.491272 0.117615
0.074280 0.493347 0.117889
0.077698 0.495544 0.118164
0.082977 0.498871 0.119202
0.093842 0.502380 0.121185
0.119995 0.506317 0.121796
0.170105 0.502777 0.114319
0.224457 0.498169 0.106659
0.271606 0.496796 0.101562
0.315002 0.498047 0.097687
0.353912 0.501709 0.096008
0.390137 0.507416 0.096466
0.427795 0.513062 0.097931
0.470490 0.516632 0.099731
0.510773 0.519379 0.099976
0.558289 0.531311 0.105194
0.608673 0.544830 0.116180
0.659790 0.558044 0.131378
0.709076 0.571442 0.146118
0.756958 0.584991 0.160919
0.795288 0.598755 0.174774
0.828369 0.611450 0.187500
0.854370 0.621094 0.198242
0.878784 0.630676 0.208923
0.901367 0.640320 0.219391
0.922119 0.650024 0.229614
0.941223 0.659729 0.239594
0.954132 0.669769 0.246429
0.966339 0.679840 0.253143
0.978668 0.690002 0.260193
0.988373 0.699615 0.271881
0.072937 0.518097 0.127075
0.076019 0.520416 0.127411
0.078979 0.522766 0.127747
0.082428 0.525299 0.127686
0.088959 0.528351 0.128906
0.099152 0.532684 0.130890
0.123779 0.536652 0.130371
0.164612 0.536530 0.126648
0.218262 0.532288 0.119904
0.268829 0.529205 0.114410
0.312317 0.530212 0.110382
0.351898 0.533417 0.108887
0.387970 0.538849 0.109863
0.425446 0.544678 0.109528
0.468170 0.548523 0.109070
0.508881 0.550598 0.108826
0.548431 0.553589 0.105865
0.598480 0.565735 0.112396
0.651276 0.579010 0.125763
0.700653 0.592316 0.140442
0.747803 0.605743 0.154846
0.787598 0.619415 0.168732
0.822327 0.632172 0.181702
0.850220 0.642303 0.192841
0.875519 0.651947 0.203552
0.899445 0.661438 0.214294
0.921570 0.671021 0.224884
0.940369 0.680664 0.234375
0.953552 0.690674 0.241028
0.966064 0.700653 0.247650
0.978699 0.710632 0.254852
0.988373 0.719635 0.270111
0.077911 0.547180 0.136139
0.080841 0.549530 0.136475
0.083618 0.551788 0.136841
0.087433 0.553741 0.137695
0.092621 0.558075 0.139618
0.101227 0.562744 0.141663
0.123352 0.566772 0.141113
0.160675 0.568420 0.138947
0.214142 0.564117 0.132416
0.266022 0.560638 0.126160
0.310791 0.561157 0.122009
0.350098 0.564423 0.120728
0.386475 0.569672 0.122864
0.423859 0.575531 0.123230
0.466858 0.579773 0.119202
0.508575 0.582062 0.117859
0.547729 0.583954 0.115417
0.588226 0.586182 0.112732
0.641602 0.599915 0.121796
0.691986 0.613281 0.134766
0.739014 0.626556 0.148956
0.779541 0.640137 0.162689
0.816315 0.653015 0.175964
0.846741 0.663757 0.187744
0.872711 0.673309 0.198364
0.898071 0.682648 0.209473
0.921906 0.692017 0.220581
0.940247 0.701630 0.229492
0.953613 0.711548 0.236023
0.966278 0.721436 0.242401
0.978516 0.730865 0.252869
0.988770 0.739655 0.268707
0.082886 0.576355 0.145081
0.086365 0.578156 0.145905
0.089844 0.580109 0.146851
0.093567 0.582001 0.147766
0.098541 0.586334 0.149628
0.105530 0.591766 0.152069
0.117645 0.599182 0.155609
0.152374 0.601440 0.154022
0.211121 0.595215 0.144836
0.264984 0.590790 0.137299
0.309113 0.591522 0.133301
0.348938 0.594604 0.131958
0.384766 0.599945 0.134308
0.423431 0.605042 0.135101
0.466461 0.609406 0.131195
0.508514 0.612305 0.126648
0.548248 0.614227 0.124451
0.587494 0.614716 0.121368
0.631989 0.619995 0.122284
0.682465 0.633545 0.133057
0.730438 0.647064 0.144531
0.772339 0.660767 0.157013
0.810608 0.673920 0.170410
0.842926 0.684967 0.182495
0.870544 0.694733 0.193481
0.896393 0.704010 0.204468
0.921021 0.713287 0.215576
0.940338 0.722809 0.224670
0.954132 0.732605 0.231201
0.967316 0.742371 0.237701
0.978607 0.751526 0.249146
0.988312 0.759460 0.263641
0.089294 0.604675 0.154724
0.092651 0.606415 0.155609
0.095917 0.608368 0.156494
0.099579 0.610657 0.157562
0.104309 0.615234 0.159576
0.111084 0.620697 0.162201
0.122131 0.627411 0.165283
0.148956 0.632721 0.166748
0.208954 0.625854 0.156586
0.264862 0.620392 0.148071
0.307861 0.621368 0.144409
0.347961 0.624084 0.142853
0.384247 0.629059 0.144653
0.423737 0.633575 0.144897
0.466614 0.637543 0.142334
0.508698 0.640625 0.138092
0.549316 0.642670 0.133636
0.588257 0.643585 0.130859
0.628052 0.644470 0.127899
0.672882 0.653107 0.133240
0.720551 0.666687 0.144714
0.764404 0.680847 0.153503
0.804352 0.694275 0.164764
0.839508 0.706268 0.177490
0.868195 0.716095 0.188568
0.894379 0.725403 0.199310
0.919525 0.734802 0.210236
0.938751 0.744263 0.218994
0.953857 0.753571 0.228668
0.966644 0.762756 0.238892
0.978394 0.771942 0.249176
0.987732 0.779449 0.258606
0.095367 0.633514 0.163971
0.098541 0.635162 0.164856
0.101807 0.637573 0.166077
0.105347 0.640320 0.167480
0.109833 0.644806 0.169464
0.115906 0.650116 0.171906
0.127899 0.655640 0.174377
0.156433 0.659973 0.174805
0.212189 0.654755 0.165894
0.263580 0.651001 0.158905
0.307434 0.651276 0.155426
0.347046 0.653961 0.153900
0.384338 0.658356 0.154968
0.424438 0.662292 0.155151
0.467529 0.665802 0.153076
0.509857 0.668732 0.149231
0.550323 0.670807 0.144562
0.589172 0.671906 0.140472
0.628235 0.672791 0.138092
0.666473 0.674408 0.136078
0.711731 0.685577 0.144806
0.756836 0.699554 0.153717
0.798157 0.713287 0.163696
0.835449 0.725800 0.175079
0.865662 0.735992 0.184052
0.892365 0.745270 0.194458
0.917664 0.754547 0.205139
0.936188 0.763977 0.214752
0.951904 0.772095 0.226440
0.965607 0.779633 0.238800
0.977600 0.786987 0.249329
0.986786 0.792755 0.256500
0.100861 0.662903 0.172485
0.103851 0.664612 0.173523
0.106964 0.667206 0.174835
0.110565 0.670593 0.176514
0.114960 0.675018 0.178680
0.120789 0.679962 0.181213
0.131012 0.685364 0.183899
0.159088 0.689270 0.184479
0.209839 0.686279 0.177734
0.259430 0.683075 0.171326
0.305298 0.682129 0.166901
0.345764 0.684357 0.164978
0.383392 0.688416 0.165253
0.424652 0.691406 0.165833
0.467651 0.694641 0.164215
0.510376 0.697205 0.160492
0.551056 0.699097 0.156006
0.589600 0.700195 0.151276
0.628235 0.701294 0.148163
0.665985 0.702759 0.146362
0.702881 0.705048 0.145721
0.747681 0.717834 0.154663
0.790985 0.731018 0.164337
0.830383 0.743103 0.175568
0.862244 0.752686 0.184479
0.890411 0.761353 0.193298
0.916351 0.769836 0.203552
0.934082 0.777985 0.212616
0.950256 0.785858 0.222778
0.964447 0.793182 0.235779
0.975922 0.799744 0.247986
0.985260 0.805267 0.257416
0.106750 0.692017 0.182190
0.109711 0.694061 0.183197
0.112701 0.696869 0.184418
0.116272 0.700897 0.186157
0.120636 0.705200 0.188080
0.126587 0.709747 0.190277
0.134766 0.714966 0.193054
0.158112 0.720581 0.195435
0.199921 0.721191 0.192932
0.252625 0.716400 0.185181
0.301422 0.714050 0.179504
0.343292 0.715393 0.176666
0.381989 0.718811 0.176086
0.423706 0.721527 0.175934
0.467682 0.723816 0.175293
0.510651 0.726074 0.171844
0.551819 0.727570 0.167328
0.590118 0.728577 0.162659
0.628387 0.729858 0.158722
0.665375 0.731567 0.156708
0.701447 0.733551 0.156036
0.737885 0.736786 0.155945
0.782166 0.749084 0.165619
0.824829 0.761047 0.175476
0.857758 0.769806 0.184235
0.887390 0.777710 0.192780
0.914124 0.785400 0.203369
0.932068 0.793304 0.211761
0.948547 0.801025 0.220154
0.963196 0.808197 0.232239
0.974213 0.814148 0.244751
0.983612 0.819244 0.257080
0.112793 0.720062 0.192322
0.115967 0.723663 0.193878
0.118958 0.726654 0.195221
0.122742 0.730682 0.196899
0.127106 0.734711 0.198486
0.132538 0.739197 0.200317
0.139862 0.744263 0.202515
0.160950 0.750580 0.205292
0.195221 0.754150 0.205994
0.243805 0.750824 0.200317
0.297729 0.746002 0.192474
0.339478 0.747162 0.189575
0.379608 0.749847 0.187805
0.422424 0.752014 0.186127
0.466888 0.753845 0.185333
0.510315 0.755432 0.183075
0.551270 0.756744 0.178986
0.589600 0.757629 0.174103
0.626892 0.759155 0.170563
0.663513 0.761047 0.167633
0.699707 0.762817 0.167114
0.735229 0.765198 0.166809
0.772125 0.769073 0.167419
0.816681 0.780182 0.176941
0.852875 0.788483 0.185120
0.883698 0.795593 0.193176
0.910797 0.802551 0.203796
0.930267 0.809906 0.212677
0.947144 0.817474 0.220428
0.962067 0.824463 0.231873
0.972748 0.829773 0.244873
0.982361 0.834717 0.258057
0.118774 0.747681 0.202698
0.122070 0.751862 0.204193
0.125244 0.755951 0.205719
0.128723 0.760223 0.207336
0.132782 0.764374 0.208954
0.137787 0.768829 0.210693
0.145020 0.773376 0.212463
0.164612 0.779938 0.215271
0.194641 0.785309 0.218018
0.241913 0.782318 0.212830
0.291138 0.779358 0.206879
0.334686 0.779541 0.203064
0.376465 0.781311 0.200562
0.421021 0.782684 0.196960
0.465576 0.784332 0.195374
0.508789 0.785614 0.194061
0.549255 0.786804 0.191040
0.587372 0.787598 0.186371
0.625092 0.788696 0.182892
0.661621 0.790466 0.180115
0.697845 0.792358 0.178223
0.733307 0.794525 0.177979
0.768585 0.796875 0.178436
0.807678 0.801086 0.179596
0.845551 0.808533 0.187836
0.879089 0.815033 0.195312
0.906372 0.821320 0.205231
0.927185 0.828186 0.214447
0.945831 0.835175 0.223053
0.960632 0.841797 0.235687
0.971039 0.846741 0.247467
0.981201 0.851593 0.259552
0.124603 0.774750 0.213165
0.127808 0.779266 0.214478
0.130890 0.783447 0.215912
0.134247 0.787720 0.217529
0.138214 0.792023 0.219208
0.143585 0.796326 0.220856
0.150665 0.801270 0.222778
0.170624 0.807739 0.225250
0.202545 0.812378 0.226318
0.241791 0.813171 0.224457
0.285248 0.812622 0.220978
0.327271 0.813354 0.217926
0.371216 0.813965 0.214691
0.416901 0.814606 0.210693
0.463104 0.815613 0.206665
0.506714 0.816528 0.204437
0.547363 0.817230 0.202606
0.585144 0.817810 0.198853
0.622955 0.818604 0.195709
0.659729 0.820099 0.192932
0.695831 0.821838 0.191040
0.731598 0.823975 0.189514
0.767181 0.825958 0.190216
0.803558 0.828033 0.189545
0.838226 0.830414 0.190704
0.873474 0.836212 0.198059
0.901825 0.841797 0.206879
0.923340 0.848175 0.216431
0.942932 0.854645 0.225739
0.957794 0.860687 0.237732
0.968506 0.865509 0.248962
0.978973 0.870361 0.260437
0.130432 0.802643 0.223907
0.133575 0.806915 0.225281
0.136536 0.811035 0.226379
0.139832 0.815155 0.227844
0.143799 0.819214 0.229279
0.148865 0.823730 0.231079
0.155640 0.828827 0.232971
0.172821 0.836151 0.236023
0.202026 0.841858 0.237732
0.236206 0.844635 0.237457
0.276306 0.845398 0.235870
0.318878 0.845856 0.232971
0.364624 0.845703 0.229065
0.411987 0.845764 0.224518
0.459229 0.846313 0.219574
0.504089 0.847076 0.215393
0.545227 0.847778 0.212921
