滤镜资源/Professional Luts Collection/Triune-Digital-Cinematic-LUTs/3D LUTs (CUBE)/STANDARD/Guardians of the Galaxy - Rec709.cube
#Created by Benjamin (IWLTBAP) : http://luts.iwltbap.com
#Copyright: (C) Copyright 2016 Triune Films and IWLTBAP
TITLE "Blockbuster LUTs Pack (Rec.709)"
#LUT size
LUT_3D_SIZE 32
#LUT data points
0.000000 0.000000 0.000000
0.000000 0.002594 0.005066
0.034058 0.011444 0.009247
0.064575 0.017975 0.010925
0.095215 0.025024 0.013519
0.124817 0.031525 0.015594
0.153168 0.038696 0.017090
0.181244 0.045349 0.017670
0.209045 0.051880 0.017578
0.235840 0.057861 0.016693
0.262360 0.063904 0.015381
0.288696 0.069916 0.013184
0.314758 0.075287 0.011597
0.340515 0.080872 0.010437
0.366669 0.086945 0.009613
0.391052 0.093811 0.009521
0.414917 0.101318 0.009491
0.441254 0.107910 0.011688
0.468689 0.114838 0.013397
0.496490 0.122131 0.015656
0.525543 0.129150 0.018250
0.554596 0.136078 0.021393
0.583282 0.143646 0.024536
0.612152 0.151428 0.027496
0.641083 0.159393 0.030579
0.670532 0.168182 0.032776
0.699890 0.177826 0.035095
0.728912 0.187103 0.036926
0.757324 0.196899 0.038727
0.785706 0.206726 0.040100
0.814209 0.216919 0.041229
0.840942 0.227081 0.042145
0.000000 0.019714 0.008636
0.000061 0.025421 0.016846
0.035461 0.031921 0.020508
0.066986 0.038239 0.022064
0.098053 0.044983 0.023254
0.127960 0.051880 0.025574
0.157654 0.058380 0.026550
0.186157 0.064270 0.026978
0.214355 0.070801 0.026550
0.241943 0.076355 0.025787
0.268951 0.081451 0.023651
0.295471 0.087524 0.021149
0.321747 0.093201 0.019562
0.348267 0.098846 0.017975
0.374329 0.105377 0.016998
0.399933 0.111908 0.016907
0.423431 0.119324 0.016815
0.448975 0.126129 0.018433
0.475861 0.133087 0.020233
0.503113 0.139130 0.022675
0.531799 0.146057 0.025421
0.560638 0.152771 0.028168
0.589233 0.159454 0.031433
0.617950 0.166962 0.034698
0.646545 0.175140 0.037018
0.675354 0.183990 0.039276
0.704926 0.193604 0.041077
0.733459 0.203064 0.042664
0.762238 0.212982 0.044373
0.790527 0.222809 0.045502
0.818604 0.233032 0.046417
0.845337 0.243683 0.047150
0.000000 0.045105 0.015259
0.000000 0.048157 0.023682
0.034973 0.056976 0.030487
0.068695 0.060242 0.030029
0.101898 0.065857 0.030273
0.131989 0.072601 0.032166
0.161835 0.079468 0.034302
0.191193 0.085938 0.034515
0.219818 0.092010 0.034088
0.247681 0.097473 0.033142
0.275085 0.102386 0.031647
0.302246 0.108276 0.029053
0.328857 0.113983 0.026306
0.355164 0.120483 0.024750
0.381470 0.126953 0.023621
0.407715 0.133301 0.022827
0.432465 0.139740 0.022339
0.456818 0.146606 0.023407
0.483673 0.152283 0.026123
0.510345 0.158325 0.028259
0.538177 0.163757 0.031219
0.566711 0.169952 0.034546
0.595245 0.176270 0.037445
0.623383 0.183289 0.040497
0.652161 0.191833 0.042297
0.680817 0.201172 0.044159
0.709717 0.210114 0.046051
0.738708 0.220306 0.047455
0.767242 0.229950 0.049133
0.795471 0.240326 0.049957
0.823608 0.250580 0.050781
0.850800 0.261383 0.051788
0.000000 0.069794 0.019562
0.000000 0.072540 0.027405
0.029510 0.079163 0.035919
0.068878 0.087219 0.040680
0.108124 0.088318 0.035614
0.138947 0.093628 0.038177
0.169312 0.100494 0.039703
0.198456 0.106964 0.040375
0.226959 0.113556 0.040314
0.255157 0.118958 0.038971
0.282227 0.125122 0.037018
0.309143 0.130829 0.034363
0.336090 0.135895 0.031586
0.362549 0.141785 0.029510
0.389160 0.147583 0.028656
0.415527 0.153442 0.028442
0.441071 0.159302 0.028015
0.465302 0.165680 0.029388
0.491791 0.171204 0.031921
0.518921 0.176819 0.034729
0.545929 0.182220 0.037170
0.573700 0.187439 0.040466
0.602051 0.194092 0.043365
0.629913 0.201447 0.045532
0.657898 0.209259 0.047302
0.686432 0.217957 0.049286
0.715607 0.226929 0.050995
0.744293 0.236572 0.052917
0.772949 0.246704 0.054016
0.800873 0.256836 0.054932
0.828644 0.266937 0.055756
0.855591 0.278809 0.056335
0.000000 0.094299 0.023010
0.000000 0.096802 0.030334
0.021362 0.101196 0.040314
0.059845 0.111511 0.047455
0.106262 0.118011 0.046478
0.145966 0.117554 0.043762
0.177032 0.121948 0.045349
0.206665 0.127808 0.045593
0.235565 0.133789 0.044891
0.263550 0.139404 0.043060
0.291138 0.145264 0.040497
0.318359 0.150696 0.037445
0.344696 0.156494 0.035889
0.371429 0.162506 0.034729
0.398041 0.168182 0.033447
0.424255 0.174103 0.032776
0.449738 0.179688 0.032623
0.474487 0.185760 0.034760
0.501068 0.191040 0.037628
0.527649 0.196320 0.040466
0.554779 0.201477 0.043457
0.582001 0.206818 0.045898
0.609406 0.212891 0.048340
0.637085 0.219910 0.050385
0.664856 0.227264 0.052399
0.693024 0.235443 0.054047
0.721863 0.244263 0.055725
0.750214 0.253479 0.057343
0.778656 0.263306 0.058624
0.806824 0.273529 0.059601
0.834015 0.283844 0.060120
0.860474 0.295959 0.060455
0.000000 0.118408 0.027313
0.000000 0.121246 0.033905
0.015747 0.126343 0.043915
0.050262 0.135345 0.050964
0.095276 0.143219 0.054901
0.146759 0.146912 0.054230
0.183472 0.146393 0.052582
0.214966 0.150116 0.051239
0.244446 0.154846 0.049652
0.272797 0.160156 0.047607
0.300964 0.165833 0.044525
0.328217 0.171173 0.041779
0.355743 0.176819 0.039581
0.382385 0.182648 0.038696
0.408905 0.188599 0.037659
0.435028 0.193970 0.037018
0.459259 0.199432 0.038574
0.485291 0.205017 0.041016
0.511505 0.210022 0.044281
0.538025 0.214874 0.047607
0.564941 0.220825 0.049591
0.591522 0.226196 0.051422
0.618408 0.232269 0.053528
0.645386 0.238342 0.055237
0.672852 0.245636 0.057220
0.700897 0.253296 0.058960
0.729065 0.261841 0.060333
0.757202 0.271027 0.061920
0.785248 0.280609 0.063080
0.812958 0.291168 0.063599
0.840118 0.302216 0.063904
0.867645 0.315094 0.064331
0.000000 0.142700 0.031250
0.000763 0.146179 0.037140
0.011230 0.150635 0.044739
0.043396 0.159668 0.055206
0.083221 0.168274 0.059570
0.134003 0.173737 0.063538
0.187042 0.176331 0.061218
0.221649 0.175415 0.059570
0.253723 0.177551 0.054382
0.282837 0.181732 0.050690
0.311005 0.186523 0.047943
0.338867 0.191559 0.045074
0.366180 0.197083 0.043457
0.393127 0.202454 0.042236
0.420166 0.207642 0.041565
0.445007 0.213562 0.041931
0.470276 0.218750 0.044647
0.496582 0.223969 0.048004
0.523529 0.229095 0.050934
0.549652 0.234497 0.053467
0.576599 0.240204 0.055695
0.603302 0.245728 0.057983
0.629333 0.251770 0.059448
0.655701 0.257843 0.061188
0.682343 0.264709 0.062592
0.710236 0.272156 0.064331
0.738098 0.280273 0.065704
0.766083 0.289032 0.066986
0.793457 0.298706 0.067596
0.821075 0.309296 0.068054
0.847656 0.320282 0.068115
0.875427 0.334198 0.068146
0.000000 0.166534 0.034821
0.004791 0.170074 0.040680
0.011078 0.173645 0.046570
0.038696 0.182251 0.058990
0.072968 0.192108 0.063202
0.123627 0.197876 0.066071
0.175568 0.203156 0.075775
0.225830 0.205444 0.067413
0.259613 0.203796 0.064484
0.291779 0.204193 0.056702
0.321014 0.207764 0.052246
0.349457 0.212616 0.049591
0.377106 0.217590 0.046875
0.404633 0.222687 0.045593
0.431091 0.228149 0.045807
0.455444 0.233246 0.047699
0.482269 0.238068 0.051239
0.509033 0.243713 0.054382
0.535400 0.248871 0.057098
0.562103 0.254242 0.059418
0.588531 0.259796 0.061707
0.614532 0.265900 0.063232
0.640320 0.271973 0.064575
0.666504 0.277954 0.066315
0.692841 0.284241 0.067780
0.719452 0.291595 0.068909
0.746948 0.299377 0.070282
0.774353 0.307983 0.071259
0.801880 0.317505 0.071869
0.828796 0.328064 0.071869
0.855621 0.338928 0.071747
0.883087 0.352814 0.071594
0.001740 0.190063 0.037659
0.007965 0.193329 0.043762
0.014191 0.196777 0.049622
0.032532 0.205627 0.059204
0.066040 0.216431 0.066681
0.110626 0.222015 0.067596
0.169373 0.225739 0.076965
0.217804 0.233704 0.080719
0.264191 0.233276 0.074280
0.297791 0.231659 0.067932
0.330170 0.231445 0.059235
0.360413 0.234375 0.055023
0.389069 0.238708 0.051147
0.416779 0.243469 0.048096
0.441833 0.248566 0.050171
0.467468 0.253265 0.053467
0.494873 0.258667 0.056854
0.521973 0.264038 0.059814
0.548615 0.269135 0.062653
0.574677 0.274231 0.065216
0.600372 0.279724 0.066681
0.626068 0.285797 0.068176
0.651276 0.291626 0.069397
0.677216 0.297760 0.071014
0.702942 0.304382 0.072021
0.729218 0.311340 0.073242
0.756256 0.319092 0.074402
0.783173 0.327545 0.074921
0.810333 0.336792 0.075134
0.837433 0.347229 0.075378
0.863495 0.358307 0.074677
0.890594 0.372864 0.073517
0.005676 0.212616 0.041290
0.011444 0.215363 0.046631
0.017303 0.218628 0.052643
0.028503 0.225281 0.059082
0.057617 0.236572 0.067383
0.099030 0.246918 0.070496
0.161224 0.251129 0.076782
0.215057 0.254486 0.085785
0.261017 0.262909 0.082428
0.302643 0.260010 0.080597
0.336304 0.258545 0.071991
0.368958 0.257721 0.062775
0.400146 0.260315 0.055878
0.427917 0.264313 0.052002
0.453339 0.269165 0.054352
0.480713 0.274506 0.058228
0.507935 0.279419 0.061890
0.534576 0.284393 0.064667
0.561310 0.289795 0.067352
0.587006 0.294800 0.069702
0.612366 0.300262 0.071228
0.638092 0.305939 0.072357
0.663147 0.312012 0.073425
0.688507 0.318176 0.075012
0.713715 0.324799 0.075989
0.739441 0.331635 0.077026
0.765778 0.339478 0.077515
0.792603 0.348083 0.078278
0.819519 0.357452 0.078217
0.846863 0.368317 0.077667
0.873352 0.379639 0.076874
0.900940 0.395111 0.075592
0.009399 0.234222 0.044800
0.014893 0.237122 0.050049
0.020538 0.240204 0.055542
0.027588 0.244965 0.061401
0.050537 0.256287 0.067200
0.089294 0.270599 0.073608
0.149719 0.276398 0.076080
0.211273 0.276428 0.089935
0.260651 0.285156 0.087311
0.299957 0.287811 0.085846
0.341675 0.286530 0.085480
0.375092 0.284973 0.076599
0.407745 0.284454 0.065643
0.437164 0.286804 0.057892
0.465485 0.290955 0.058044
0.493500 0.295593 0.062164
0.520630 0.300720 0.065887
0.547760 0.305542 0.069244
0.574158 0.310883 0.071777
0.599823 0.316223 0.073517
0.624786 0.321289 0.075226
0.650299 0.327209 0.076233
0.675476 0.333527 0.077271
0.700623 0.339600 0.078369
0.725952 0.346466 0.079559
0.750793 0.353455 0.080170
0.776611 0.361267 0.080597
0.803589 0.369720 0.081024
0.829865 0.379242 0.080658
0.857300 0.390106 0.079712
0.883362 0.401642 0.078064
0.911560 0.417542 0.076294
0.012573 0.255768 0.048370
0.017883 0.258728 0.053314
0.023285 0.261169 0.058319
0.029755 0.265839 0.063812
0.047150 0.276276 0.067963
0.081177 0.289307 0.073151
0.136108 0.300995 0.077301
0.204865 0.299988 0.089325
0.259766 0.306580 0.090240
0.300385 0.314178 0.086304
0.338501 0.315704 0.092194
0.380707 0.314514 0.087891
0.414093 0.312988 0.077026
0.445496 0.313049 0.066040
0.474640 0.314972 0.063263
0.505066 0.318115 0.064331
0.533905 0.322632 0.069916
0.560242 0.327393 0.072968
0.586426 0.332733 0.075073
0.612427 0.338074 0.077209
0.637482 0.343323 0.078613
0.662598 0.349091 0.079590
0.687866 0.355255 0.080505
0.712891 0.361603 0.081146
0.738159 0.368530 0.081909
0.763397 0.375854 0.082794
0.788605 0.383636 0.083069
0.814941 0.392395 0.082916
0.841614 0.401703 0.082275
0.868042 0.412415 0.080688
0.894379 0.424103 0.078888
0.922516 0.440918 0.076202
0.015991 0.277344 0.051056
0.021149 0.279938 0.055817
0.026337 0.282318 0.060303
0.032166 0.286377 0.065643
0.046173 0.295135 0.070129
0.074554 0.306824 0.072052
0.123108 0.325256 0.078918
0.194336 0.325043 0.087494
0.253082 0.327209 0.098511
0.302521 0.336578 0.087280
0.339478 0.343506 0.091278
0.378540 0.342499 0.097015
0.420502 0.342926 0.087891
0.453247 0.342224 0.076385
0.483276 0.341888 0.068939
0.513123 0.343201 0.068787
0.542847 0.346283 0.069336
0.571625 0.350250 0.074493
0.598267 0.354767 0.077911
0.624329 0.360352 0.079651
0.649475 0.365662 0.081024
0.674500 0.371246 0.082428
0.699585 0.377319 0.083344
0.724243 0.383667 0.083740
0.749664 0.390686 0.083984
0.774872 0.398346 0.084381
0.800354 0.406372 0.084198
0.826416 0.415344 0.083832
0.852814 0.424713 0.083099
0.879242 0.436127 0.080688
0.905396 0.447906 0.078369
0.932983 0.465393 0.078064
0.019135 0.298035 0.054535
0.024109 0.300781 0.058716
0.029388 0.303070 0.062744
0.034882 0.306610 0.067108
0.045135 0.313721 0.072052
0.068878 0.327454 0.071655
0.113007 0.343262 0.076843
0.181488 0.352783 0.087097
0.246124 0.349152 0.100525
0.299408 0.358734 0.096649
0.341370 0.366058 0.090240
0.379547 0.373352 0.100433
0.419159 0.370941 0.099915
0.459900 0.371826 0.088074
0.492157 0.371216 0.076721
0.521881 0.371246 0.074707
0.551331 0.372559 0.074921
0.579834 0.374847 0.075165
0.607147 0.379028 0.077148
0.634308 0.383392 0.080444
0.660522 0.388214 0.083008
0.685791 0.394165 0.084015
0.710968 0.400543 0.084595
0.736053 0.407257 0.084656
0.761322 0.414398 0.084717
0.786621 0.422180 0.084869
0.812317 0.430450 0.084625
0.838074 0.439667 0.083588
0.863556 0.449554 0.081787
0.890533 0.461334 0.080444
0.916565 0.473785 0.081421
0.942657 0.491089 0.084381
0.022339 0.318970 0.058075
0.027130 0.321472 0.061615
0.032135 0.323792 0.065582
0.037354 0.327118 0.069489
0.043823 0.332153 0.075134
0.065857 0.346252 0.073273
0.105652 0.360626 0.075287
0.168182 0.379547 0.088654
0.236938 0.373901 0.100555
0.291138 0.377808 0.107208
0.343140 0.388947 0.095428
0.380310 0.395996 0.094299
0.418579 0.402771 0.106750
0.459259 0.399902 0.099274
0.499695 0.401367 0.084717
0.531250 0.401123 0.080505
0.560120 0.401581 0.080719
0.588104 0.403168 0.080811
0.615997 0.405579 0.080872
0.642883 0.408936 0.081055
0.669891 0.413055 0.081848
0.697205 0.418945 0.083832
0.723053 0.424927 0.085449
0.748199 0.431580 0.085419
0.774017 0.439117 0.084869
0.799347 0.447388 0.084595
0.824677 0.455963 0.083862
0.850037 0.465424 0.083801
0.876007 0.475800 0.084869
0.902100 0.487915 0.086273
0.927399 0.500275 0.088043
0.952118 0.517212 0.091217
0.025696 0.340027 0.062286
0.030304 0.342590 0.064667
0.035126 0.344086 0.067932
0.040253 0.347443 0.071594
0.045868 0.351654 0.076294
0.062958 0.362976 0.076569
0.098572 0.376953 0.075165
0.158020 0.396942 0.088043
0.225433 0.400543 0.102997
0.282318 0.397552 0.114471
0.335541 0.408844 0.107849
0.383362 0.418610 0.095001
0.420959 0.427612 0.099121
0.456604 0.432068 0.109283
0.498535 0.429321 0.095581
0.539032 0.431824 0.087311
0.569580 0.432678 0.087036
0.597229 0.433624 0.086945
0.625000 0.435120 0.086945
0.652802 0.438019 0.087128
0.678772 0.440186 0.087067
0.706146 0.445038 0.086823
0.733765 0.451202 0.086945
0.760071 0.457123 0.087036
0.786072 0.464600 0.086945
0.811279 0.472961 0.087555
0.836639 0.481476 0.088531
0.862030 0.491241 0.089539
0.887268 0.501984 0.090790
0.912964 0.514160 0.092590
0.937744 0.526917 0.094269
0.960175 0.543030 0.097839
0.028809 0.361359 0.066284
0.033295 0.363678 0.068573
0.037720 0.364624 0.070801
0.043060 0.367859 0.074371
0.048553 0.371765 0.078369
0.059845 0.379395 0.080170
0.090393 0.396301 0.074249
0.150635 0.412415 0.087402
0.212982 0.428040 0.108398
0.272858 0.422089 0.116760
0.324860 0.426300 0.120605
0.379028 0.439606 0.105286
0.421539 0.448669 0.095764
0.460480 0.459045 0.103821
0.494507 0.462219 0.110016
0.538239 0.459808 0.093048
0.576416 0.464020 0.093719
0.606049 0.465179 0.093048
0.633698 0.466278 0.092957
0.661285 0.468475 0.093109
0.688293 0.470520 0.093079
0.715393 0.473480 0.092865
0.742920 0.478058 0.092834
0.769867 0.484283 0.092926
0.796844 0.490997 0.093079
0.822815 0.498932 0.093201
0.848236 0.507996 0.094238
0.873596 0.517731 0.095642
0.898682 0.528687 0.097015
0.923187 0.541046 0.098755
0.946503 0.552704 0.100739
0.963898 0.567352 0.107300
0.032043 0.382599 0.070801
0.036530 0.384308 0.073120
0.040924 0.385681 0.074677
0.045685 0.388062 0.077026
0.051117 0.392273 0.080658
0.057861 0.397034 0.084717
0.084930 0.413452 0.075195
0.142426 0.426636 0.087341
0.202240 0.444122 0.106323
0.261658 0.449707 0.121796
0.314117 0.446106 0.129028
0.369415 0.458221 0.119049
0.420441 0.469940 0.099792
0.458649 0.479492 0.098022
0.499512 0.491547 0.103180
0.533142 0.493378 0.106018
0.575836 0.492371 0.100006
0.612396 0.497253 0.100525
0.642273 0.498871 0.099915
0.670258 0.500793 0.099030
0.697449 0.502350 0.098969
0.724640 0.504852 0.099121
0.751465 0.508209 0.099213
0.778717 0.512665 0.098877
0.806000 0.519073 0.099274
0.833374 0.526520 0.099121
0.859070 0.535278 0.100464
0.883575 0.545105 0.101685
0.907745 0.555786 0.103210
0.930573 0.566986 0.105560
0.951965 0.577698 0.109467
0.965240 0.591675 0.118225
0.035309 0.402924 0.077087
0.039856 0.405975 0.078918
0.044189 0.407562 0.079498
0.048706 0.409393 0.081207
0.053925 0.413300 0.083832
0.059265 0.418213 0.087067
0.080505 0.430695 0.079437
0.131622 0.441437 0.087341
0.188965 0.457184 0.103821
0.246002 0.472748 0.125397
0.303223 0.471466 0.133759
0.355133 0.476166 0.135437
0.411743 0.489502 0.115540
0.459106 0.500763 0.095764
0.497437 0.512695 0.098511
0.538025 0.525665 0.103729
0.570374 0.527313 0.104156
0.612122 0.527466 0.107056
0.648010 0.531738 0.107849
0.677917 0.533844 0.106323
0.705566 0.535492 0.105652
0.733643 0.538086 0.105255
0.760895 0.540924 0.105255
0.788269 0.544464 0.105530
0.815369 0.548584 0.105438
0.842346 0.555115 0.105988
0.868347 0.563141 0.107025
0.892395 0.571991 0.108490
0.915375 0.581543 0.110779
0.936249 0.592163 0.115509
0.954895 0.603271 0.119476
0.967041 0.616119 0.128845
0.038635 0.424713 0.083649
0.043121 0.428864 0.083618
0.047363 0.431122 0.083527
0.051788 0.433716 0.084015
0.056732 0.436432 0.084991
0.061890 0.441040 0.086365
0.076050 0.451294 0.081024
0.122589 0.458221 0.087769
0.174225 0.469147 0.101196
0.230042 0.484619 0.121094
0.286255 0.499817 0.141296
0.341003 0.496704 0.144836
0.396332 0.507751 0.134583
0.450470 0.520355 0.110138
0.494965 0.532288 0.101501
0.534210 0.547577 0.104431
0.574341 0.561554 0.106903
0.606903 0.563599 0.109131
0.649414 0.564056 0.112823
0.683746 0.568237 0.115112
0.712372 0.570129 0.113861
0.740784 0.572266 0.112854
0.769653 0.575439 0.112579
0.796936 0.576904 0.112427
0.823914 0.579773 0.112976
0.850250 0.583527 0.113556
0.875244 0.590515 0.115112
0.899261 0.598083 0.116882
0.921906 0.606201 0.119568
0.941864 0.617157 0.124939
0.957092 0.628082 0.129456
0.969421 0.640594 0.138489
0.041595 0.448608 0.087494
0.046112 0.452515 0.086945
0.050507 0.455963 0.085541
0.055023 0.458862 0.084473
0.059631 0.461365 0.085693
0.065613 0.463867 0.086884
0.075500 0.470490 0.086060
0.120178 0.476837 0.092072
0.164124 0.484192 0.101257
0.214691 0.495941 0.117706
0.269073 0.512787 0.138062
0.323730 0.522858 0.152130
0.376740 0.524994 0.151367
0.434479 0.539673 0.133820
0.487335 0.552917 0.107422
0.528717 0.565948 0.107697
0.569031 0.583069 0.110779
0.609863 0.598541 0.113708
0.642883 0.601135 0.115173
0.684052 0.602173 0.118286
0.718262 0.605286 0.121826
0.746094 0.606812 0.122467
0.775146 0.608643 0.121826
0.803772 0.610352 0.121429
0.829895 0.611603 0.121643
0.856049 0.614349 0.122375
0.879791 0.617920 0.124664
0.903778 0.624634 0.126068
0.925964 0.632446 0.129578
0.945496 0.642212 0.134369
0.959076 0.653107 0.139679
0.970612 0.664490 0.150146
0.045044 0.473633 0.090698
0.049561 0.477814 0.088593
0.053925 0.481750 0.085724
0.058228 0.484467 0.083801
0.063812 0.485992 0.084259
0.070496 0.487427 0.086670
0.078857 0.489471 0.089935
0.115295 0.494690 0.095886
0.158691 0.501617 0.104523
0.203369 0.509064 0.117065
0.253662 0.523773 0.134033
0.305878 0.541870 0.154480
0.357788 0.546387 0.161774
0.411682 0.555420 0.157501
0.470520 0.572449 0.134888
0.523254 0.587250 0.112396
0.563171 0.601440 0.114319
0.603607 0.619751 0.117554
0.645233 0.636292 0.120117
0.678314 0.640472 0.122131
0.718231 0.640472 0.125122
0.752563 0.641846 0.129272
0.778961 0.641968 0.131836
0.806915 0.642456 0.131836
0.832947 0.643921 0.133179
0.859131 0.645294 0.133118
0.883484 0.648407 0.134308
0.906860 0.652557 0.136139
0.929626 0.659210 0.139130
0.947418 0.668488 0.145172
0.960175 0.678345 0.151428
0.971252 0.688751 0.162781
0.048523 0.498566 0.092804
0.053650 0.503662 0.089600
0.058868 0.507202 0.087311
0.064392 0.508636 0.085510
0.072784 0.507690 0.087402
0.080017 0.508270 0.088837
0.089020 0.509583 0.093536
0.110901 0.512634 0.099121
0.151276 0.518646 0.106415
0.194550 0.524750 0.117706
0.243011 0.536774 0.133759
0.290344 0.553375 0.150818
0.340118 0.572021 0.169952
0.391968 0.573730 0.168884
0.447357 0.587463 0.160370
0.506317 0.606110 0.135101
0.558716 0.623108 0.117889
0.597717 0.638489 0.120850
0.639282 0.657990 0.123627
0.679871 0.674774 0.126892
0.712250 0.678711 0.130005
0.751587 0.676605 0.133179
0.785095 0.676056 0.137482
0.810547 0.674652 0.141541
0.835754 0.675537 0.143219
0.862213 0.677185 0.143585
0.886871 0.679565 0.144989
0.909882 0.683380 0.146606
0.932831 0.687927 0.149506
0.948547 0.695282 0.156342
0.960754 0.704987 0.163849
0.972321 0.713531 0.174683
0.053680 0.523193 0.094452
0.060333 0.527252 0.092834
0.068298 0.530060 0.092346
0.076965 0.530121 0.093109
0.084473 0.529510 0.093506
0.092346 0.529297 0.096436
0.101196 0.530426 0.100433
0.112732 0.532806 0.105469
0.147888 0.537018 0.110962
0.186279 0.542358 0.119629
0.232117 0.550507 0.135101
0.278870 0.566681 0.151031
0.325287 0.583740 0.167114
0.374969 0.599304 0.181885
0.427856 0.604187 0.175140
0.483612 0.621155 0.163208
0.541443 0.640869 0.134155
0.594421 0.660431 0.124634
0.634155 0.676849 0.127319
0.673737 0.695374 0.131012
0.713501 0.711853 0.135895
0.744476 0.713623 0.139618
0.783417 0.709625 0.143158
0.816681 0.709167 0.146759
0.841614 0.709198 0.150543
0.865967 0.710266 0.153412
0.889282 0.712006 0.156097
0.912231 0.715088 0.158203
0.934875 0.719177 0.161316
0.948547 0.724792 0.169037
0.960602 0.731842 0.176270
0.971985 0.738464 0.185974
0.061859 0.545837 0.098969
0.069946 0.549561 0.098816
0.078735 0.551880 0.098846
0.087433 0.552734 0.100800
0.095856 0.552734 0.102661
0.104095 0.552490 0.104919
0.111633 0.552795 0.108856
0.120422 0.554596 0.114288
0.148193 0.558319 0.119110
0.183350 0.563385 0.125458
0.222961 0.568024 0.137909
0.268066 0.580383 0.152496
0.313354 0.597046 0.167175
0.361755 0.615662 0.183533
0.413757 0.626190 0.189087
0.468567 0.637573 0.180969
0.525696 0.657959 0.163391
0.582855 0.679077 0.134735
0.634979 0.700958 0.132019
0.673004 0.716858 0.135681
0.709808 0.733765 0.141357
0.746277 0.747040 0.147583
0.776428 0.747223 0.151489
0.814941 0.744232 0.154510
0.845734 0.745728 0.157806
0.871399 0.746643 0.160980
0.893951 0.747986 0.165375
0.914276 0.749573 0.170441
0.935303 0.752014 0.174988
0.947449 0.755829 0.182495
0.960754 0.761871 0.188660
0.972473 0.766846 0.212769
0.070679 0.566925 0.107300
0.079926 0.571045 0.109009
0.088684 0.574036 0.109650
0.097198 0.575165 0.110413
0.105560 0.576111 0.113251
0.113708 0.576416 0.115631
0.121674 0.576599 0.119385
0.129547 0.577454 0.124268
0.147675 0.579865 0.129120
0.182892 0.584808 0.134033
0.221558 0.589386 0.144165
0.261780 0.596558 0.156647
0.302795 0.610474 0.169128
0.349304 0.628510 0.183380
0.400787 0.649902 0.200653
0.455902 0.657867 0.193573
0.511627 0.673584 0.183167
0.570740 0.696533 0.162201
0.625946 0.719055 0.136322
0.674896 0.741272 0.140381
0.709808 0.756134 0.146851
0.743073 0.769196 0.154236
0.777771 0.780823 0.159698
0.807587 0.782898 0.163177
0.842529 0.781921 0.166809
0.873444 0.783234 0.170441
0.898529 0.784729 0.173889
0.920319 0.785919 0.178986
0.938721 0.787567 0.184143
0.951080 0.789825 0.190826
0.962830 0.792114 0.205811
0.973480 0.796661 0.253601
0.081055 0.588715 0.119202
0.090302 0.593384 0.120880
0.099548 0.597137 0.121857
0.107697 0.598694 0.122284
0.115631 0.600067 0.125244
0.123596 0.600922 0.128387
0.131226 0.601257 0.132385
0.139038 0.602051 0.137024
0.149109 0.603363 0.141205
0.182617 0.607513 0.145630
0.219818 0.612061 0.152985
0.259369 0.617249 0.164948
0.298798 0.628784 0.176544
0.341949 0.643982 0.187592
0.391663 0.664581 0.201477
0.444611 0.683960 0.212769
0.501160 0.693054 0.198273
0.560425 0.714233 0.187256
0.619019 0.739563 0.166687
0.669647 0.763519 0.148102
0.712830 0.782990 0.153870
0.744019 0.792297 0.162231
0.776733 0.804688 0.168549
0.809631 0.816925 0.172089
0.835541 0.819519 0.176331
0.870300 0.819641 0.180023
0.899597 0.819702 0.183929
0.923370 0.821167 0.188019
0.941711 0.822296 0.193024
0.953613 0.822174 0.199280
0.965027 0.822906 0.247559
0.975098 0.824402 0.280304
0.091797 0.610382 0.128571
0.101044 0.615784 0.131836
0.110199 0.619568 0.134094
0.118286 0.622223 0.135925
0.126495 0.624634 0.138794
0.134155 0.625641 0.142120
0.141602 0.626068 0.146118
0.149078 0.626617 0.150574
0.156494 0.627747 0.155212
0.184448 0.631378 0.159027
0.219238 0.635864 0.164062
0.256409 0.639801 0.173920
0.295105 0.647736 0.184814
0.338440 0.662872 0.196106
0.387207 0.682159 0.207306
0.437653 0.703094 0.220398
0.492615 0.716736 0.212982
