滤镜资源/Professional Luts Collection/Triune-Digital-Cinematic-LUTs/3D LUTs (CUBE)/STANDARD/Guardians of the Galaxy - Rec709.cube
#Created by Benjamin (IWLTBAP) : http://luts.iwltbap.com
#Copyright: (C) Copyright 2016 Triune Films and IWLTBAP
TITLE "Blockbuster LUTs Pack (Rec.709)"
#LUT size
LUT_3D_SIZE 5
#LUT data points
DOMAIN_MIN 0.000000 0.000000 0.000000
DOMAIN_MAX 0.903226 0.903226 0.903226
0.000000 0.000000 0.000000
0.181244 0.045349 0.017670
0.366669 0.086945 0.009613
0.554596 0.136078 0.021393
0.757324 0.196899 0.038727
0.000000 0.166534 0.034821
0.225830 0.205444 0.067413
0.431091 0.228149 0.045807
0.614532 0.265900 0.063232
0.801880 0.317505 0.071869
0.022339 0.318970 0.058075
0.168182 0.379547 0.088654
0.499695 0.401367 0.084717
0.697205 0.418945 0.083832
0.876007 0.475800 0.084869
0.045044 0.473633 0.090698
0.115295 0.494690 0.095886
0.470520 0.572449 0.134888
0.752563 0.641846 0.129272
0.929626 0.659210 0.139130
0.101593 0.631500 0.137878
0.158813 0.651093 0.165924
0.386322 0.701019 0.218750
0.746460 0.844238 0.228119
0.942657 0.889038 0.214203
0.000000 0.033142 0.154541
0.197388 0.066650 0.171417
0.391266 0.092590 0.143738
0.580566 0.134216 0.142120
0.779907 0.195068 0.154785
0.004456 0.174194 0.183929
0.157623 0.230103 0.221161
0.423615 0.249908 0.191711
0.617493 0.267395 0.161316
0.803894 0.317108 0.138519
0.027924 0.344849 0.201813
0.100677 0.374603 0.242554
0.476837 0.435425 0.255066
0.699677 0.439819 0.202301
0.876373 0.485321 0.168976
0.052399 0.489288 0.242035
0.087128 0.489044 0.250824
0.401794 0.575623 0.272125
0.748016 0.664001 0.276306
0.929352 0.687164 0.301727
0.081299 0.637482 0.314148
0.112427 0.657288 0.349365
0.320587 0.733185 0.356018
0.742249 0.868744 0.418793
0.940796 0.909698 0.399261
0.000000 0.074829 0.291656
0.154755 0.109650 0.320374
0.423645 0.137695 0.305511
0.625916 0.165985 0.289429
0.813599 0.211273 0.290466
0.007721 0.195709 0.314697
0.109253 0.252197 0.349304
0.440247 0.284729 0.362274
0.642181 0.279114 0.323059
0.820953 0.309479 0.313416
0.032379 0.354218 0.364624
0.100067 0.399261 0.388916
0.362732 0.476440 0.447052
0.681061 0.491119 0.416412
0.869568 0.515930 0.390259
0.059937 0.560394 0.432861
0.095612 0.566040 0.446747
0.265839 0.610748 0.462585
0.733795 0.697021 0.455719
0.920166 0.709381 0.474213
0.090576 0.709320 0.470856
0.122864 0.734436 0.519165
0.228271 0.787964 0.544708
0.721344 0.880402 0.544312
0.932617 0.929352 0.566589
0.000000 0.122467 0.432526
0.124359 0.163483 0.458649
0.394073 0.186554 0.463623
0.649780 0.206055 0.424652
0.816986 0.249481 0.432678
0.010406 0.226349 0.447601
0.092621 0.273865 0.468170
0.329132 0.295502 0.521179
0.658875 0.326630 0.478790
0.822662 0.356445 0.486725
0.036621 0.371521 0.494171
0.092712 0.404083 0.513245
0.281525 0.462036 0.571442
0.682129 0.520660 0.604462
0.863220 0.533142 0.589661
0.067413 0.559845 0.570221
0.109955 0.584839 0.587097
0.232269 0.683746 0.676392
0.684235 0.726135 0.681030
0.901886 0.749237 0.670837
0.099609 0.778961 0.660278
0.137299 0.809387 0.703705
0.256927 0.892334 0.783173
0.584198 0.894653 0.678802
0.917328 0.937561 0.716797
0.000000 0.168030 0.574249
0.095367 0.203156 0.595795
0.324585 0.219299 0.604553
0.636139 0.258820 0.578583
0.819153 0.293915 0.591064
0.011993 0.262848 0.580902
0.085938 0.298584 0.594696
0.253174 0.324860 0.645142
0.613739 0.358734 0.651184
0.827881 0.400146 0.665253
0.041229 0.404297 0.631561
0.088806 0.432251 0.654877
0.199860 0.496124 0.711456
0.624268 0.508575 0.776154
0.883392 0.576111 0.786713
0.071655 0.573914 0.714996
0.109070 0.602142 0.744415
0.235504 0.688324 0.803680
0.619659 0.725616 0.846436
0.897034 0.769958 0.851776
0.105438 0.765717 0.795471
0.151825 0.804718 0.833191
0.270874 0.890717 0.898773
0.578857 0.924255 0.908539
0.886230 0.960754 0.889740
