滤镜资源/Professional Luts Collection/Triune-Digital-Cinematic-LUTs/3D LUTs (CUBE)/STANDARD/Guardians of the Galaxy - Rec709.cube
#Created by Benjamin (IWLTBAP) : http://luts.iwltbap.com
#Copyright: (C) Copyright 2016 Triune Films and IWLTBAP
TITLE "Blockbuster LUTs Pack (Rec.709)"
#LUT size
LUT_3D_SIZE 8
#LUT data points
DOMAIN_MIN 0.000000 0.000000 0.000000
DOMAIN_MAX 0.903226 0.903226 0.903226
0.000000 0.000000 0.000000
0.095215 0.025024 0.013519
0.209045 0.051880 0.017578
0.314758 0.075287 0.011597
0.414917 0.101318 0.009491
0.525543 0.129150 0.018250
0.641083 0.159393 0.030579
0.757324 0.196899 0.038727
0.000000 0.094299 0.023010
0.106262 0.118011 0.046478
0.235565 0.133789 0.044891
0.344696 0.156494 0.035889
0.449738 0.179688 0.032623
0.554779 0.201477 0.043457
0.664856 0.227264 0.052399
0.778656 0.263306 0.058624
0.001740 0.190063 0.037659
0.066040 0.216431 0.066681
0.264191 0.233276 0.074280
0.389069 0.238708 0.051147
0.494873 0.258667 0.056854
0.600372 0.279724 0.066681
0.702942 0.304382 0.072021
0.810333 0.336792 0.075134
0.015991 0.277344 0.051056
0.046173 0.295135 0.070129
0.253082 0.327209 0.098511
0.420502 0.342926 0.087891
0.542847 0.346283 0.069336
0.649475 0.365662 0.081024
0.749664 0.390686 0.083984
0.852814 0.424713 0.083099
0.028809 0.361359 0.066284
0.048553 0.371765 0.078369
0.212982 0.428040 0.108398
0.421539 0.448669 0.095764
0.576416 0.464020 0.093719
0.688293 0.470520 0.093079
0.796844 0.490997 0.093079
0.898682 0.528687 0.097015
0.041595 0.448608 0.087494
0.059631 0.461365 0.085693
0.164124 0.484192 0.101257
0.376740 0.524994 0.151367
0.569031 0.583069 0.110779
0.718262 0.605286 0.121826
0.829895 0.611603 0.121643
0.925964 0.632446 0.129578
0.061859 0.545837 0.098969
0.095856 0.552734 0.102661
0.148193 0.558319 0.119110
0.313354 0.597046 0.167175
0.525696 0.657959 0.163391
0.709808 0.733765 0.141357
0.845734 0.745728 0.157806
0.935303 0.752014 0.174988
0.101593 0.631500 0.137878
0.137024 0.648010 0.152985
0.166534 0.652161 0.170258
0.295807 0.669342 0.195770
0.485474 0.758545 0.228729
0.706268 0.829834 0.226532
0.838074 0.875397 0.249298
0.942657 0.889038 0.214203
0.000000 0.016266 0.092133
0.097168 0.036194 0.106049
0.216095 0.053223 0.089783
0.319031 0.080383 0.075165
0.428497 0.108398 0.070465
0.537476 0.132538 0.079559
0.654938 0.161682 0.092773
0.772003 0.199768 0.100647
0.000000 0.097076 0.106659
0.082184 0.122864 0.121002
0.225006 0.141602 0.111633
0.342926 0.158630 0.097565
0.452454 0.177521 0.085083
0.556122 0.197235 0.085785
0.666962 0.225525 0.090424
0.783813 0.264832 0.093384
0.006104 0.198944 0.118195
0.050171 0.220459 0.143005
0.243713 0.247620 0.150116
0.381500 0.248749 0.128448
0.494934 0.266235 0.116272
0.599182 0.283417 0.102234
0.698273 0.305237 0.104309
0.809296 0.337921 0.105255
0.019714 0.286377 0.123352
0.044830 0.294983 0.148254
0.174225 0.340149 0.150299
0.407440 0.358093 0.173523
0.543640 0.355499 0.129883
0.647339 0.374390 0.114746
0.746765 0.394409 0.115936
0.851532 0.426819 0.111542
0.032288 0.368866 0.135468
0.052002 0.372253 0.150696
0.138397 0.423065 0.165710
0.394562 0.454132 0.181305
0.568665 0.479370 0.179962
0.689117 0.481354 0.140839
0.795166 0.497559 0.135010
0.897064 0.535736 0.140656
0.045563 0.449097 0.162964
0.062958 0.449799 0.166290
0.118347 0.484283 0.166718
0.338074 0.534332 0.206116
0.555603 0.586334 0.187561
0.717072 0.619781 0.173645
0.828339 0.621613 0.173889
0.925110 0.646545 0.186371
0.060394 0.529816 0.201294
0.078064 0.543823 0.208557
0.103973 0.561798 0.204895
0.269714 0.600922 0.218719
0.495117 0.657623 0.250031
0.705597 0.741730 0.245728
0.847229 0.762726 0.213501
0.936737 0.769257 0.258545
0.076813 0.618805 0.243683
0.101593 0.645660 0.264557
0.127106 0.649353 0.276764
0.258423 0.684601 0.282745
0.462341 0.778168 0.313538
0.698608 0.841095 0.335327
0.841034 0.888580 0.368530
0.943726 0.901123 0.303040
0.000000 0.039307 0.174683
0.076660 0.059937 0.193268
0.229828 0.076569 0.191681
0.341034 0.091339 0.174591
0.453308 0.108337 0.165710
0.568542 0.130402 0.161133
0.669708 0.158264 0.165558
0.779938 0.191071 0.174103
0.000000 0.108551 0.185944
0.065582 0.138794 0.203003
0.235474 0.158997 0.214600
0.356354 0.163574 0.187317
0.466309 0.171753 0.169098
0.578003 0.188446 0.159088
0.678192 0.216461 0.155792
0.789337 0.254791 0.158051
0.008514 0.200348 0.209534
0.049469 0.226135 0.222626
0.180206 0.267761 0.255066
0.363342 0.275360 0.237671
0.491577 0.286041 0.218140
0.601410 0.291840 0.196747
0.703308 0.304016 0.180939
0.818298 0.337311 0.166687
0.022491 0.307068 0.237091
0.044647 0.315887 0.248291
0.123566 0.356079 0.267975
0.381592 0.384399 0.266174
0.534302 0.378876 0.248932
0.647888 0.390137 0.225525
0.748108 0.403229 0.203156
0.855682 0.435791 0.186798
0.035583 0.393982 0.233948
0.055084 0.399719 0.253326
0.115509 0.422424 0.274567
0.316284 0.461853 0.262756
0.556549 0.502808 0.285614
0.690186 0.498688 0.259552
0.796356 0.511597 0.230194
0.894501 0.543945 0.236084
0.049347 0.475037 0.253937
0.066895 0.476746 0.264771
0.105621 0.480621 0.274353
0.254089 0.547333 0.280396
0.538086 0.594879 0.282806
0.710999 0.634735 0.292480
0.827087 0.631836 0.293762
0.921570 0.661713 0.315979
0.065521 0.561310 0.293945
0.083710 0.572174 0.309906
0.103516 0.567352 0.311676
0.207764 0.597992 0.303864
0.469055 0.661652 0.323700
0.702698 0.749603 0.333435
0.846649 0.776794 0.332458
0.938812 0.785645 0.384277
0.082886 0.647217 0.336670
0.101807 0.666290 0.363129
0.118103 0.668640 0.378021
0.222626 0.683533 0.384430
0.422363 0.805817 0.388672
0.692291 0.853180 0.425323
0.845734 0.901276 0.460052
0.939667 0.912720 0.425720
0.000000 0.062439 0.253143
0.067444 0.087677 0.272736
0.202026 0.099945 0.288422
0.356506 0.117371 0.269897
0.466431 0.129974 0.255371
0.590729 0.151276 0.250061
0.701904 0.174622 0.247467
0.809387 0.200012 0.245911
0.000000 0.125397 0.262115
0.049652 0.158905 0.279877
0.185303 0.177551 0.305054
0.372650 0.195679 0.295349
0.487061 0.199493 0.275848
0.598755 0.206665 0.259735
0.703461 0.223907 0.253540
0.810181 0.248596 0.250580
0.010895 0.210541 0.284912
0.046600 0.234314 0.298340
0.149933 0.271606 0.326355
0.364563 0.292725 0.333649
0.498169 0.294800 0.311310
0.609924 0.288422 0.280151
0.712219 0.301514 0.268768
0.821014 0.337341 0.267822
0.024841 0.303802 0.313141
0.046753 0.315857 0.321167
0.122284 0.373016 0.360809
0.292755 0.405823 0.381592
0.510559 0.411377 0.365448
0.639648 0.418732 0.340698
0.743256 0.420776 0.313629
0.853210 0.448975 0.305115
0.038666 0.409882 0.343842
0.058380 0.417786 0.343903
0.113922 0.454681 0.380890
0.239197 0.480896 0.383270
0.534454 0.526520 0.384155
0.679718 0.524811 0.379303
0.790405 0.536865 0.353027
0.889008 0.562775 0.354431
0.053497 0.519379 0.370544
0.071289 0.520264 0.373566
0.108856 0.527405 0.389618
0.194214 0.562653 0.402679
0.478302 0.594086 0.391174
0.701813 0.654388 0.398285
0.823029 0.646790 0.398071
0.916321 0.675293 0.416504
0.070435 0.601257 0.384491
0.089569 0.619690 0.412048
0.109467 0.614563 0.417480
0.172150 0.625732 0.419922
0.402527 0.672577 0.401825
0.687897 0.752625 0.429169
0.843231 0.788055 0.423950
0.936951 0.798218 0.475037
0.088196 0.685120 0.421478
0.107117 0.704865 0.450134
0.123322 0.708405 0.467957
0.185791 0.729279 0.485565
0.342194 0.813293 0.476257
0.681488 0.863739 0.498779
0.843903 0.908844 0.538391
0.934143 0.924133 0.523712
0.000000 0.087952 0.331055
0.056000 0.113403 0.350342
0.180939 0.127319 0.362793
0.341949 0.146332 0.360931
0.491180 0.157227 0.340454
0.598694 0.168243 0.328735
0.715729 0.196320 0.330475
0.817078 0.223755 0.333984
0.000000 0.147705 0.340363
0.046600 0.178528 0.354523
0.158142 0.198547 0.382263
0.334015 0.211517 0.398712
0.501251 0.227142 0.365479
0.606750 0.228149 0.347443
0.716980 0.248230 0.345612
0.818848 0.274139 0.348328
0.012451 0.225342 0.358307
0.044495 0.248413 0.370575
0.123260 0.287628 0.396454
0.296021 0.303223 0.425323
0.510529 0.324524 0.411133
0.623077 0.317596 0.388153
0.725616 0.320374 0.374176
0.828400 0.343750 0.376312
0.026947 0.310822 0.385681
0.048248 0.322174 0.393280
0.116577 0.370148 0.419556
0.256195 0.398651 0.452332
0.504974 0.427948 0.460541
0.636658 0.428375 0.443420
0.742157 0.416779 0.413239
0.850616 0.455658 0.423981
0.041077 0.409180 0.420288
0.061737 0.418488 0.426849
0.116333 0.457245 0.446960
0.209167 0.505402 0.491302
0.447815 0.548920 0.515503
0.657410 0.557861 0.503601
0.778442 0.568665 0.486633
0.883118 0.584198 0.478577
0.057587 0.526031 0.458557
0.076599 0.535065 0.459869
0.114105 0.553650 0.480042
0.182831 0.611755 0.531097
0.383545 0.616180 0.513550
0.688354 0.681000 0.515808
0.815491 0.674805 0.518311
0.910706 0.692291 0.516357
0.075836 0.653870 0.509003
0.096619 0.671814 0.526459
0.119568 0.669800 0.539215
0.179077 0.689545 0.552368
0.323486 0.701080 0.545624
0.649170 0.744110 0.534058
0.831726 0.801575 0.522949
0.932129 0.803223 0.554413
0.093628 0.733002 0.522247
0.113525 0.757812 0.561035
0.133575 0.767365 0.588379
0.197510 0.793945 0.603546
0.305054 0.844910 0.605835
0.644745 0.868561 0.556732
0.831177 0.911224 0.604187
0.930511 0.932861 0.605499
0.000000 0.115540 0.412262
0.047058 0.138000 0.428741
0.160889 0.155243 0.440796
0.312531 0.162781 0.452728
0.475647 0.189240 0.432739
0.620514 0.194702 0.407227
0.716339 0.213348 0.405426
0.818726 0.245331 0.414459
0.000000 0.172272 0.420197
0.043610 0.198212 0.429596
0.131653 0.223053 0.456970
0.273560 0.229767 0.474731
0.465179 0.255524 0.465576
0.622314 0.256531 0.430695
0.715149 0.268005 0.426239
0.818573 0.299408 0.436737
0.013855 0.242126 0.434082
0.041870 0.263855 0.443390
0.111328 0.300873 0.464203
0.248657 0.312439 0.501587
0.461639 0.330750 0.511322
0.635712 0.345245 0.475769
0.723358 0.343323 0.462097
0.829285 0.372467 0.476227
0.028900 0.324921 0.460205
0.049011 0.336182 0.466797
0.109802 0.374329 0.487976
0.214966 0.402863 0.519623
0.423981 0.421661 0.558350
0.644806 0.455414 0.547394
0.742340 0.447357 0.526886
0.851318 0.468903 0.531281
0.043854 0.414612 0.492798
0.063690 0.420929 0.499817
0.112152 0.456268 0.518860
0.181396 0.510498 0.559143
0.392395 0.531677 0.592712
0.652893 0.576172 0.607574
0.773438 0.572144 0.590729
0.877502 0.582275 0.579651
0.061737 0.527924 0.538605
0.081818 0.538483 0.548187
0.121826 0.565155 0.559235
0.190918 0.622925 0.613159
0.370544 0.659241 0.644012
0.640594 0.691162 0.646057
0.799500 0.705231 0.641510
0.900299 0.717468 0.635956
0.080780 0.654297 0.587585
0.102570 0.677490 0.605255
0.133270 0.688660 0.620514
0.195770 0.733276 0.661530
0.266174 0.780365 0.704193
0.566345 0.759460 0.649719
0.812866 0.821014 0.654724
0.921692 0.812897 0.652283
0.098480 0.778351 0.642517
0.119629 0.800140 0.665070
0.149811 0.810486 0.694794
0.218018 0.859406 0.740784
0.284180 0.898895 0.755829
0.532806 0.883270 0.662262
0.793945 0.906128 0.673737
0.921051 0.936981 0.692200
0.000000 0.142395 0.492767
0.044312 0.161163 0.506592
0.141785 0.187622 0.518585
0.274261 0.189209 0.526398
0.453003 0.215027 0.519440
0.616699 0.223175 0.488770
0.730408 0.241882 0.479584
0.815216 0.263855 0.488983
0.000000 0.196564 0.498535
0.040863 0.218048 0.505493
0.108765 0.242859 0.528320
0.240662 0.248932 0.545349
0.434082 0.262299 0.554565
0.601959 0.285858 0.524628
0.727295 0.296204 0.509766
0.814331 0.319092 0.521118
0.015442 0.258881 0.508636
0.039734 0.279480 0.516876
0.104858 0.307678 0.530884
0.196991 0.324249 0.567413
0.385651 0.328949 0.593750
0.603455 0.364502 0.577301
0.734375 0.375122 0.566528
0.823730 0.397522 0.575378
0.031097 0.342407 0.537445
0.049774 0.352753 0.544586
0.104309 0.382355 0.560211
0.170593 0.417175 0.587585
0.363831 0.425568 0.637512
0.612488 0.450409 0.646301
0.752167 0.468903 0.631836
0.844299 0.495636 0.641907
0.046600 0.429871 0.570923
0.065613 0.434418 0.579346
0.108185 0.463257 0.594299
0.172302 0.506012 0.625977
0.334717 0.528931 0.664124
0.599243 0.557648 0.706879
0.778625 0.587830 0.698853
0.871429 0.608246 0.700684
0.064636 0.535034 0.619110
0.084381 0.544525 0.632141
0.120178 0.569916 0.646179
0.184937 0.618011 0.677917
0.336151 0.650909 0.710938
0.581116 0.680176 0.743469
0.791321 0.721313 0.750671
0.890533 0.721466 0.738495
0.084625 0.652313 0.667908
0.106842 0.672302 0.691528
0.143799 0.697571 0.705078
0.211487 0.745117 0.746002
0.313690 0.797363 0.795685
0.566101 0.811890 0.790039
0.784576 0.833313 0.779388
0.906097 0.835785 0.767212
0.102600 0.772980 0.719574
0.125275 0.795959 0.740936
0.164062 0.821747 0.770752
0.234406 0.875366 0.820862
0.302124 0.925934 0.859985
0.513306 0.921600 0.828278
0.725128 0.922729 0.760254
0.907410 0.942871 0.790558
0.000000 0.168030 0.574249
0.042145 0.186493 0.587311
0.119019 0.209503 0.597534
0.252014 0.214539 0.598389
0.435211 0.227661 0.605804
0.597443 0.254852 0.580688
0.730743 0.270691 0.577087
0.819153 0.293915 0.591064
0.000000 0.219269 0.575714
0.039795 0.238983 0.583984
0.104095 0.260071 0.600037
0.206696 0.272186 0.617371
0.373840 0.273895 0.627747
0.573883 0.308960 0.616394
0.723114 0.326965 0.613190
0.819183 0.348419 0.626556
0.016479 0.277618 0.583069
0.038696 0.297760 0.591309
0.101166 0.320343 0.601593
0.164551 0.348022 0.633820
0.337341 0.348328 0.666107
0.577576 0.367035 0.671600
0.726379 0.393677 0.665344
0.833649 0.421600 0.682343
0.032990 0.360229 0.612885
0.051117 0.373627 0.625153
0.102295 0.398315 0.638428
0.163727 0.429932 0.663757
0.309479 0.436615 0.714844
0.559052 0.445801 0.739532
0.749268 0.476166 0.733246
0.866577 0.518921 0.752869
0.049469 0.449005 0.651489
0.067780 0.457794 0.667175
0.107635 0.484283 0.684021
0.173401 0.528168 0.720367
0.315002 0.556610 0.760437
0.561920 0.568542 0.814148
0.773193 0.586426 0.806732
0.894165 0.632294 0.813843
0.067017 0.547668 0.701477
0.085907 0.556396 0.719635
0.120941 0.585968 0.737671
0.190948 0.634125 0.772949
0.338501 0.677490 0.810913
0.566864 0.693604 0.838348
0.771362 0.714966 0.841217
0.898773 0.742279 0.846527
0.085968 0.655609 0.754730
0.106476 0.667786 0.773285
0.141815 0.695465 0.790039
0.211090 0.742004 0.816071
0.307892 0.793182 0.859314
0.554321 0.797211 0.859589
0.754059 0.823853 0.866730
0.894958 0.851746 0.865997
0.105438 0.765717 0.795471
0.129120 0.786255 0.819061
0.169342 0.817322 0.840698
0.237152 0.866882 0.877350
0.306000 0.913971 0.918518
0.527893 0.921753 0.911224
0.723419 0.939484 0.905701
0.886230 0.960754 0.889740
