滤镜资源/Professional Luts Collection/Triune-Digital-Cinematic-LUTs/3D LUTs (CUBE)/STANDARD/Harry Potter - Rec709.cube
#Created by Benjamin (IWLTBAP) : http://luts.iwltbap.com
#Copyright: (C) Copyright 2016 Triune Films and IWLTBAP
TITLE "Blockbuster LUTs Pack (Rec.709)"
#LUT size
LUT_3D_SIZE 32
#LUT data points
0.000000 0.000031 0.028229
0.000000 0.000061 0.032623
0.000000 0.000244 0.037598
0.000000 0.000488 0.041382
0.000061 0.000854 0.044342
0.010956 0.001312 0.046387
0.043457 0.004181 0.047607
0.087738 0.012024 0.048065
0.127502 0.024872 0.047729
0.159607 0.040100 0.046570
0.190552 0.054382 0.044861
0.222198 0.063782 0.041626
0.253204 0.070618 0.037750
0.284027 0.076996 0.034821
0.313538 0.082855 0.034088
0.341248 0.088440 0.035706
0.367340 0.093811 0.040680
0.392059 0.098969 0.046326
0.416870 0.104004 0.052094
0.443207 0.108551 0.056671
0.470825 0.112610 0.059662
0.498199 0.116760 0.061401
0.523193 0.121063 0.063049
0.546204 0.125519 0.065582
0.567780 0.130310 0.069336
0.588654 0.135254 0.073395
0.608704 0.140320 0.077240
0.628296 0.146149 0.080841
0.646606 0.152985 0.084198
0.664062 0.160278 0.087738
0.678314 0.168823 0.092560
0.690948 0.177856 0.097992
0.000000 0.000763 0.036713
0.000000 0.000305 0.034363
0.000000 0.003021 0.038727
0.000000 0.006317 0.042175
0.000488 0.010559 0.044800
0.015045 0.015045 0.046173
0.053467 0.021057 0.046539
0.099823 0.030029 0.046173
0.136780 0.041229 0.045044
0.168671 0.052246 0.042938
0.199677 0.062469 0.039917
0.231628 0.069611 0.034668
0.261932 0.075745 0.029602
0.292328 0.081665 0.025146
0.320923 0.087402 0.023254
0.347809 0.092682 0.024170
0.373169 0.097687 0.029327
0.397461 0.102631 0.036255
0.422150 0.107391 0.043732
0.448486 0.111603 0.049652
0.476105 0.115356 0.053284
0.503113 0.119385 0.056061
0.527679 0.123688 0.059082
0.550385 0.128082 0.062683
0.571686 0.132751 0.066772
0.592224 0.137634 0.071045
0.612030 0.142639 0.075012
0.631073 0.148346 0.078552
0.649048 0.155121 0.081879
0.666351 0.162354 0.085388
0.679962 0.170990 0.090454
0.692383 0.179993 0.096130
0.000000 0.021271 0.046661
0.000000 0.022034 0.043732
0.000000 0.024628 0.041901
0.000000 0.026947 0.044556
0.000854 0.031067 0.046234
0.017975 0.036926 0.046783
0.059998 0.043976 0.046356
0.106140 0.052399 0.045227
0.142059 0.060822 0.043274
0.173615 0.067505 0.040527
0.204346 0.072968 0.036591
0.235809 0.077728 0.030609
0.266327 0.082214 0.024689
0.296783 0.087128 0.018494
0.325348 0.092346 0.015045
0.352264 0.097015 0.014648
0.377563 0.101227 0.018311
0.401825 0.105652 0.024078
0.426788 0.110107 0.030853
0.453613 0.114105 0.036011
0.481628 0.117676 0.039398
0.508270 0.121704 0.043640
0.532440 0.126190 0.050018
0.555115 0.130737 0.055969
0.576233 0.135254 0.062195
0.596527 0.140045 0.067413
0.616058 0.145081 0.071503
0.634674 0.150818 0.075043
0.652100 0.157440 0.078339
0.668793 0.164612 0.082062
0.682007 0.173370 0.087524
0.694092 0.182312 0.093536
0.000000 0.052673 0.056580
0.000000 0.052673 0.053864
0.000000 0.054474 0.051788
0.000000 0.056885 0.050049
0.000885 0.059387 0.050507
0.021271 0.062653 0.049530
0.066467 0.066589 0.048370
0.112427 0.071136 0.046570
0.147339 0.076324 0.044006
0.178741 0.081177 0.040649
0.209381 0.085541 0.035980
0.240875 0.089325 0.029114
0.270721 0.092957 0.022766
0.300873 0.096222 0.015411
0.329437 0.100220 0.010498
0.356354 0.104126 0.009491
0.381348 0.107391 0.012299
0.405640 0.110748 0.016815
0.430847 0.114258 0.021149
0.458099 0.117523 0.023132
0.486328 0.120514 0.023712
0.512573 0.123901 0.026276
0.536499 0.128021 0.032135
0.559021 0.132507 0.039978
0.580383 0.137146 0.048889
0.600647 0.141968 0.056915
0.620209 0.147247 0.063660
0.638672 0.153168 0.068634
0.655731 0.159851 0.072510
0.671509 0.167206 0.076904
0.684479 0.176056 0.083191
0.696106 0.184723 0.089813
0.000000 0.076263 0.066925
0.000000 0.075989 0.064728
0.000000 0.077087 0.062500
0.000000 0.078674 0.060028
0.000183 0.080627 0.057709
0.020569 0.082550 0.055206
0.071594 0.084900 0.052368
0.117950 0.088013 0.049835
0.152649 0.091553 0.046448
0.184326 0.095459 0.042175
0.215271 0.099182 0.036682
0.246735 0.102692 0.029480
0.276764 0.106079 0.022156
0.306305 0.109314 0.014648
0.334686 0.112549 0.009064
0.361298 0.115417 0.008270
0.386017 0.117981 0.010956
0.409943 0.120453 0.015137
0.435120 0.122559 0.017944
0.462646 0.124542 0.017242
0.491241 0.126770 0.015015
0.517303 0.129120 0.015198
0.540894 0.132141 0.019012
0.563446 0.135834 0.025116
0.584686 0.139679 0.031982
0.604736 0.144104 0.039307
0.623871 0.149109 0.046692
0.642059 0.154785 0.052460
0.658844 0.161438 0.058563
0.673798 0.169128 0.066010
0.686584 0.178131 0.074768
0.698120 0.186890 0.082672
0.000000 0.094574 0.077820
0.000000 0.094452 0.076202
0.000000 0.095337 0.074615
0.000000 0.096619 0.072083
0.000275 0.097870 0.068451
0.011047 0.100159 0.065094
0.068390 0.101990 0.060791
0.119781 0.104309 0.056152
0.156860 0.107391 0.051819
0.189789 0.110596 0.046356
0.221710 0.114014 0.039154
0.253662 0.117432 0.030823
0.284210 0.120667 0.022400
0.313995 0.123566 0.014038
0.341919 0.126587 0.008362
0.367981 0.129333 0.008148
0.392334 0.131683 0.011505
0.416077 0.133972 0.015900
0.440826 0.135803 0.018402
0.467560 0.136963 0.017273
0.495728 0.138397 0.014557
0.521515 0.139862 0.014069
0.544739 0.141724 0.016968
0.566895 0.144012 0.021301
0.587982 0.146729 0.026703
0.608063 0.149902 0.032410
0.627350 0.153778 0.036804
0.645508 0.158875 0.040466
0.662079 0.164978 0.045105
0.676392 0.172516 0.053406
0.688995 0.181183 0.064026
0.699768 0.190186 0.075409
0.000000 0.111420 0.088226
0.000000 0.111298 0.086945
0.000000 0.112213 0.086090
0.000000 0.113556 0.084503
0.001404 0.114960 0.081268
0.013916 0.116821 0.076782
0.054352 0.119385 0.072998
0.114502 0.121613 0.067230
0.156921 0.124054 0.061157
0.194214 0.126984 0.053955
0.228088 0.129913 0.044769
0.260895 0.132996 0.034119
0.292023 0.135925 0.023865
0.321960 0.138458 0.015167
0.349976 0.140808 0.008911
0.375702 0.143158 0.009003
0.399597 0.145813 0.012726
0.423218 0.148254 0.017365
0.447815 0.150055 0.019379
0.474243 0.151306 0.017853
0.501617 0.152130 0.015076
0.526672 0.153229 0.014923
0.549469 0.154785 0.018372
0.571075 0.156311 0.022766
0.591431 0.157959 0.028229
0.610962 0.160217 0.033875
0.629974 0.162903 0.037384
0.648071 0.166290 0.038879
0.664795 0.171936 0.041870
0.678925 0.179016 0.048798
0.691376 0.186829 0.058655
0.701263 0.195831 0.072845
0.000000 0.128357 0.098358
0.000000 0.128326 0.097290
0.000000 0.129364 0.096832
0.000061 0.130829 0.096222
0.003143 0.132660 0.094482
0.024506 0.134460 0.090454
0.064514 0.136902 0.085785
0.104065 0.140289 0.081940
0.151825 0.143097 0.074799
0.194122 0.145569 0.066132
0.233521 0.148041 0.054504
0.268494 0.150665 0.041687
0.300385 0.153351 0.028564
0.330719 0.155975 0.018036
0.358887 0.158508 0.012085
0.384644 0.160461 0.012146
0.408356 0.162476 0.015747
0.431763 0.164703 0.019958
0.456116 0.166290 0.021515
0.482056 0.167358 0.019104
0.508911 0.168488 0.016205
0.533356 0.169464 0.016541
0.555573 0.170502 0.020416
0.576752 0.171692 0.025330
0.596497 0.172546 0.031281
0.615204 0.173737 0.037231
0.633453 0.175720 0.040680
0.651276 0.178314 0.041351
0.667236 0.181458 0.042938
0.681183 0.188202 0.049347
0.693451 0.195892 0.059021
0.702942 0.204651 0.074554
0.000000 0.145874 0.109039
0.000031 0.146088 0.108215
0.000244 0.147278 0.108032
0.001801 0.148865 0.107788
0.009857 0.150879 0.107056
0.042877 0.153015 0.104584
0.080811 0.155640 0.100311
0.112701 0.159363 0.095917
0.144409 0.163452 0.091919
0.188080 0.166748 0.083160
0.233948 0.169312 0.070129
0.274994 0.171295 0.054779
0.309021 0.173523 0.039215
0.339691 0.175781 0.025665
0.367981 0.178253 0.018158
0.393646 0.180115 0.017731
0.417358 0.181580 0.020996
0.441010 0.182922 0.023926
0.465485 0.184143 0.023865
0.491241 0.185120 0.020447
0.517578 0.186401 0.016998
0.541565 0.187561 0.018097
0.563477 0.188690 0.022369
0.584015 0.189667 0.028046
0.603363 0.190399 0.034790
0.621460 0.191193 0.041138
0.638763 0.192719 0.044830
0.655823 0.195190 0.045776
0.671356 0.197906 0.046997
0.683960 0.200958 0.051422
0.695862 0.208160 0.061096
0.705170 0.217896 0.078278
0.000031 0.164551 0.120605
0.001465 0.165070 0.119995
0.005981 0.166473 0.119995
0.017822 0.168274 0.119995
0.032745 0.170532 0.119781
0.065765 0.173126 0.118622
0.097107 0.176056 0.115570
0.124115 0.179993 0.111145
0.150146 0.184540 0.106842
0.182343 0.189514 0.102295
0.227173 0.193634 0.092102
0.275391 0.196014 0.075287
0.315857 0.197693 0.058075
0.348663 0.199463 0.042694
0.377289 0.201508 0.031647
0.403137 0.203400 0.026733
0.427124 0.205139 0.027435
0.451050 0.206665 0.029663
0.476349 0.207397 0.025024
0.502838 0.208038 0.017273
0.528778 0.208984 0.014252
0.551910 0.209198 0.018463
0.573547 0.210052 0.024628
0.593689 0.211243 0.031403
0.612335 0.212067 0.039551
0.629883 0.212952 0.046448
0.646271 0.214142 0.050049
0.662018 0.215973 0.051270
0.676544 0.218170 0.052887
0.688446 0.219910 0.056488
0.699219 0.224304 0.064270
0.708405 0.234650 0.082642
0.002228 0.184967 0.133392
0.010559 0.185822 0.132965
0.022766 0.187469 0.133118
0.046692 0.189545 0.133301
0.065338 0.192169 0.133453
0.088745 0.195160 0.132965
0.110931 0.198578 0.131195
0.134613 0.202484 0.127655
0.159485 0.207520 0.123169
0.188568 0.213470 0.118469
0.223053 0.219421 0.113495
0.268585 0.223877 0.101959
0.315735 0.226074 0.083710
0.355133 0.227722 0.067627
0.386383 0.229004 0.054626
0.413086 0.230011 0.043671
0.437439 0.231384 0.037567
0.461792 0.232788 0.035461
0.487488 0.233490 0.028534
0.514771 0.233856 0.017120
0.540894 0.234161 0.012268
0.563416 0.233826 0.016785
0.584473 0.233093 0.026520
0.604034 0.233429 0.034698
0.622345 0.234283 0.043732
0.639038 0.235077 0.051636
0.654724 0.236420 0.055420
0.669495 0.238342 0.056671
0.682739 0.240326 0.058655
0.694092 0.241943 0.062042
0.704376 0.245972 0.069794
0.713440 0.257355 0.088379
0.017242 0.206696 0.147156
0.026886 0.207947 0.147064
0.051758 0.209778 0.147278
0.074829 0.212311 0.147797
0.090881 0.215363 0.148254
0.107758 0.218506 0.148102
0.125061 0.222351 0.147369
0.146301 0.226715 0.144836
0.171356 0.232208 0.140656
0.198914 0.238739 0.135712
0.230377 0.245819 0.130981
0.265839 0.252441 0.125824
0.310425 0.256775 0.113617
0.356171 0.258789 0.094482
0.393463 0.260071 0.078400
0.422974 0.260498 0.067200
0.448730 0.261169 0.056854
0.473785 0.262268 0.048462
0.499939 0.262848 0.038940
0.527344 0.262909 0.026001
0.553436 0.262878 0.018616
0.575958 0.262299 0.021088
0.597137 0.262146 0.032440
0.616089 0.261383 0.038879
0.634003 0.261749 0.046661
0.649933 0.261841 0.054596
0.664215 0.262054 0.059753
0.677948 0.263336 0.061890
0.690399 0.265106 0.064178
0.701050 0.266663 0.067535
0.710907 0.271210 0.075562
0.719727 0.283081 0.095123
0.048035 0.229340 0.161743
0.063416 0.231171 0.162018
0.080505 0.233337 0.162323
0.094910 0.236572 0.163239
0.108765 0.239990 0.163940
0.122406 0.243256 0.164032
0.138611 0.247314 0.163635
0.160065 0.252625 0.162262
0.185852 0.259033 0.159332
0.212616 0.265839 0.154327
0.241821 0.273346 0.148956
0.274170 0.281097 0.144379
0.310638 0.288055 0.138672
0.352997 0.291962 0.126373
0.395813 0.293823 0.106842
0.430817 0.294525 0.090088
0.459869 0.294434 0.079834
0.486633 0.294922 0.070312
0.513367 0.295563 0.060760
0.540771 0.295685 0.049469
0.566650 0.295471 0.040741
0.589081 0.294220 0.037231
0.610382 0.293457 0.043488
0.628876 0.292175 0.048065
0.646057 0.291077 0.050873
0.661560 0.290619 0.057068
0.674774 0.289581 0.062653
0.687225 0.289337 0.065796
0.698792 0.290253 0.068359
0.708832 0.291077 0.071472
0.717865 0.295349 0.080322
0.726562 0.307587 0.100342
0.081390 0.254364 0.177795
0.091461 0.256439 0.178284
0.101013 0.258911 0.178711
0.111084 0.262573 0.179840
0.123352 0.266571 0.180969
0.136383 0.270172 0.181274
0.152313 0.274567 0.181000
0.174774 0.280457 0.179840
0.200775 0.287445 0.178070
0.227417 0.294464 0.174316
0.255554 0.301910 0.168488
0.286499 0.309814 0.162781
0.320160 0.317932 0.158142
0.354858 0.324585 0.152344
0.394379 0.328217 0.140106
0.433319 0.329742 0.120911
0.467438 0.329956 0.103851
0.498230 0.328888 0.091675
0.526581 0.328796 0.081726
0.554047 0.328827 0.072632
0.579437 0.328247 0.065186
0.601807 0.326599 0.059692
0.623199 0.324951 0.059143
0.641571 0.323334 0.059570
0.658325 0.321777 0.059814
0.673309 0.320190 0.061218
0.686157 0.318665 0.065643
0.697510 0.316895 0.069092
0.708405 0.316711 0.071503
0.718170 0.317108 0.074005
0.727020 0.321259 0.082489
0.735352 0.333221 0.102875
0.102386 0.279480 0.194702
0.109894 0.281647 0.195190
0.117584 0.284180 0.195709
0.126404 0.287628 0.196716
0.137512 0.292328 0.198334
0.150635 0.297302 0.199463
0.166534 0.301849 0.199219
0.188507 0.307465 0.197937
0.212860 0.314056 0.196289
0.241180 0.321411 0.193634
0.271301 0.329376 0.188629
0.300903 0.337280 0.182159
0.332581 0.345459 0.176453
0.364136 0.353058 0.171661
0.396179 0.358765 0.165558
0.432281 0.361603 0.153351
0.468781 0.362885 0.135162
0.503876 0.363037 0.117432
0.537415 0.361206 0.102356
0.566223 0.360657 0.091949
0.591339 0.359802 0.084564
0.613586 0.358002 0.080048
0.635010 0.356018 0.076477
0.653687 0.354187 0.072784
0.670227 0.352570 0.072144
0.684998 0.350494 0.070190
0.697815 0.348755 0.070862
0.708923 0.346527 0.073334
0.718903 0.344421 0.074127
0.728180 0.344055 0.076599
0.736511 0.347748 0.085083
0.744385 0.360107 0.107788
0.119171 0.305389 0.212708
0.125946 0.307526 0.213226
0.133179 0.310181 0.213867
0.141235 0.313568 0.214844
0.151581 0.318512 0.216644
0.164886 0.324493 0.218567
0.180939 0.329834 0.218933
0.202301 0.334961 0.217468
0.225800 0.340759 0.215546
0.256317 0.348022 0.212830
0.288544 0.356049 0.208954
0.317596 0.363678 0.202698
0.347107 0.371368 0.195587
0.376678 0.378876 0.189911
0.405304 0.385315 0.184814
0.434692 0.389984 0.178650
0.468658 0.392365 0.166718
0.504333 0.393555 0.149078
0.540009 0.393494 0.131195
0.575073 0.391327 0.113861
0.601685 0.390198 0.103851
0.624512 0.388550 0.098145
0.645966 0.386505 0.094025
0.664948 0.384552 0.088043
0.681824 0.383026 0.085266
0.696472 0.380890 0.082336
0.709259 0.378723 0.079346
0.720367 0.376404 0.079193
0.729889 0.373505 0.078613
0.738312 0.372131 0.081757
0.745728 0.375153 0.091400
0.752930 0.387939 0.116943
0.134705 0.332092 0.231842
0.141357 0.334442 0.232513
0.148682 0.337372 0.233368
0.156891 0.341003 0.234558
0.166382 0.345490 0.236053
0.178467 0.351410 0.238190
0.195557 0.357635 0.239227
0.218170 0.363098 0.237946
0.242859 0.368256 0.235443
0.273743 0.374695 0.232361
0.305847 0.382080 0.228851
0.335052 0.389313 0.223633
0.362427 0.396576 0.216705
0.390076 0.403564 0.209625
0.416931 0.409912 0.203400
0.443085 0.415314 0.198151
0.471466 0.419403 0.191742
0.504486 0.421722 0.179962
0.539703 0.422791 0.162689
0.575378 0.422394 0.144714
0.608765 0.420105 0.125580
0.633972 0.418304 0.116058
0.656219 0.416382 0.110596
0.675507 0.414520 0.104370
0.692932 0.413055 0.099579
0.707703 0.411102 0.095581
0.720306 0.408661 0.091461
0.730988 0.406006 0.089264
0.740082 0.402832 0.088409
0.747711 0.401306 0.093048
0.754425 0.404694 0.104980
0.761078 0.417084 0.131195
0.149872 0.359375 0.252167
0.156708 0.362061 0.253113
0.164154 0.365295 0.254211
0.172150 0.369019 0.255493
0.181183 0.373108 0.256714
0.193207 0.378510 0.258331
0.212097 0.385498 0.259979
0.236237 0.391724 0.259216
0.262238 0.396790 0.256500
0.291412 0.402100 0.252716
0.322021 0.408508 0.249084
0.352081 0.415314 0.244690
0.378479 0.421875 0.238403
0.403900 0.428497 0.231384
0.429352 0.434814 0.224457
0.454193 0.440338 0.218018
0.479767 0.445160 0.212311
0.507324 0.448700 0.205322
0.539642 0.450806 0.193390
0.574768 0.451721 0.176636
0.608582 0.451080 0.158386
0.639893 0.448425 0.138367
0.664673 0.445953 0.128540
0.684998 0.443848 0.121582
0.702911 0.442139 0.115906
0.717834 0.440369 0.110931
0.730286 0.437988 0.106812
0.740540 0.435333 0.103729
0.749298 0.432098 0.102142
0.756378 0.430878 0.108429
0.762878 0.435394 0.123169
0.768982 0.446899 0.149353
0.165619 0.387573 0.273804
0.172546 0.390472 0.274872
0.179962 0.393768 0.276093
0.187958 0.397522 0.277435
0.197998 0.401794 0.278717
0.212341 0.407562 0.280334
0.232849 0.414429 0.281830
0.256287 0.420746 0.281616
0.281677 0.426056 0.279449
0.308319 0.430542 0.275665
0.337494 0.436035 0.271698
0.367645 0.442169 0.267212
0.395447 0.447937 0.261017
0.419342 0.453857 0.253937
0.443512 0.460022 0.246735
0.467407 0.465729 0.239685
0.491577 0.470764 0.233246
0.515991 0.474701 0.227325
0.542419 0.477264 0.219879
0.574310 0.478943 0.207672
0.607361 0.479858 0.192291
0.638885 0.478851 0.173889
0.669006 0.476013 0.152985
0.692139 0.472961 0.141449
0.711151 0.470520 0.134430
0.726654 0.468689 0.128204
0.739349 0.466583 0.123627
0.749298 0.463959 0.120392
0.757904 0.461060 0.117676
0.764771 0.460754 0.125305
0.770966 0.465912 0.142609
0.776703 0.476746 0.170471
0.182434 0.417084 0.296417
0.190033 0.419891 0.297394
0.197937 0.423187 0.298553
0.207367 0.427002 0.299835
0.220184 0.431610 0.301086
0.237244 0.438110 0.303162
0.256439 0.444153 0.304352
0.277588 0.449982 0.304352
0.301025 0.455292 0.302917
0.326569 0.459778 0.299652
0.353607 0.464325 0.295685
0.382782 0.469849 0.291443
0.411041 0.475372 0.286072
0.435608 0.480469 0.278870
0.458771 0.485870 0.270599
0.482086 0.491425 0.262604
0.505005 0.496338 0.255035
0.527771 0.500366 0.248444
0.551239 0.503479 0.242432
0.577301 0.505585 0.234802
0.607727 0.507172 0.223175
0.637360 0.507996 0.210114
0.667816 0.506317 0.190582
0.695618 0.503113 0.168488
0.717285 0.499512 0.156433
0.734192 0.496643 0.147430
0.747803 0.494751 0.141205
0.757690 0.492188 0.137390
0.766052 0.489075 0.134308
0.772614 0.489349 0.143219
0.778473 0.495056 0.163177
0.784149 0.506195 0.193665
0.200897 0.446594 0.318787
0.209320 0.449371 0.319733
0.218658 0.452698 0.320801
0.230835 0.456635 0.321960
0.244354 0.461090 0.323059
0.260559 0.467407 0.325073
0.279114 0.473480 0.326599
0.298492 0.478851 0.326843
0.320801 0.484070 0.325897
0.345673 0.488678 0.323181
0.371277 0.492859 0.319489
0.398438 0.497620 0.315552
0.426575 0.503021 0.311188
0.451813 0.508087 0.305298
0.476105 0.513214 0.297241
0.498077 0.517914 0.287781
0.519653 0.522400 0.279083
0.540955 0.526245 0.271301
0.563507 0.529694 0.264526
0.586761 0.532440 0.258484
0.611084 0.534119 0.251129
0.639404 0.535431 0.240265
0.667175 0.535919 0.228424
0.695282 0.533173 0.207550
0.720337 0.529510 0.185730
0.739655 0.524902 0.171265
0.754791 0.522003 0.161682
0.765381 0.519379 0.155426
0.773865 0.516052 0.151672
0.780060 0.516937 0.162567
0.785492 0.523224 0.186279
0.790802 0.534363 0.220093
0.221344 0.475891 0.341522
0.230469 0.478668 0.342621
0.241577 0.482117 0.343750
0.253693 0.485931 0.344879
0.266388 0.489990 0.345825
0.281494 0.495300 0.347076
0.300140 0.501953 0.349335
0.319611 0.507477 0.350006
0.341980 0.512482 0.349121
0.366150 0.516968 0.346710
0.390442 0.520966 0.343292
0.416016 0.525269 0.339478
0.442993 0.530243 0.335480
0.468994 0.535065 0.330658
0.493225 0.539612 0.324188
0.513947 0.543457 0.315308
0.534851 0.547485 0.305817
0.555237 0.551208 0.296844
0.576752 0.554749 0.289032
0.598877 0.557861 0.282440
0.620209 0.559845 0.276398
0.643311 0.561096 0.269043
0.669739 0.562256 0.259338
0.695374 0.561859 0.246918
0.720520 0.558746 0.226593
0.742004 0.554443 0.203217
0.759369 0.549713 0.187714
0.771606 0.545959 0.176666
0.781006 0.542511 0.170349
0.787048 0.543610 0.182709
0.792206 0.550934 0.212128
0.797119 0.562500 0.250275
0.242767 0.505096 0.364685
0.252014 0.507843 0.365845
0.262604 0.511169 0.367279
0.273804 0.514771 0.368530
0.286316 0.518646 0.369507
0.301483 0.523071 0.370331
0.320038 0.529327 0.372314
0.340576 0.535126 0.373535
0.363586 0.540375 0.372986
0.387329 0.544983 0.370850
0.411133 0.548981 0.367706
0.435730 0.552917 0.363922
0.461456 0.557281 0.359833
0.486694 0.561554 0.355255
0.509705 0.565338 0.349823
0.530884 0.569031 0.342682
0.551422 0.572968 0.333649
0.571198 0.576813 0.324432
0.591278 0.580322 0.315765
0.611969 0.583466 0.308228
0.632141 0.585754 0.301727
0.652466 0.587158 0.295502
0.674255 0.587982 0.288208
0.697845 0.588379 0.279053
0.720947 0.587311 0.267029
0.742523 0.583405 0.244995
0.761566 0.578766 0.221832
0.776245 0.573761 0.205078
0.787109 0.569672 0.193451
0.793610 0.570465 0.206268
0.798584 0.578613 0.241669
0.802948 0.590637 0.284332
0.264679 0.533905 0.387299
0.273743 0.536591 0.388428
0.283844 0.539856 0.389954
0.294739 0.543274 0.391357
0.308594 0.546783 0.392120
0.323639 0.550812 0.393005
0.340363 0.555450 0.394073
0.359894 0.560944 0.395355
0.383423 0.566986 0.395660
0.408508 0.572479 0.394379
0.432831 0.576752 0.391541
0.456543 0.580444 0.388031
0.480408 0.583954 0.384033
0.504639 0.587677 0.379639
0.526703 0.591034 0.374603
0.548157 0.594452 0.368561
0.569031 0.598083 0.360901
0.588135 0.601715 0.351837
0.606018 0.604950 0.343140
0.625031 0.607849 0.334808
0.644318 0.610199 0.327271
0.663177 0.611786 0.320679
0.682129 0.612885 0.315216
0.701752 0.613434 0.309174
0.722931 0.613098 0.300049
0.743286 0.611450 0.288208
0.762482 0.607056 0.265472
0.779022 0.602631 0.244354
0.791595 0.597656 0.226746
0.799255 0.597595 0.236481
0.804291 0.605743 0.274719
0.808197 0.618256 0.321594
0.289398 0.561676 0.408569
0.298401 0.564331 0.409698
0.308838 0.567444 0.410980
0.321075 0.570557 0.411987
0.334808 0.573822 0.412689
0.349060 0.577301 0.413391
0.364258 0.581116 0.414246
0.381592 0.585571 0.414978
0.403839 0.591217 0.415131
0.430359 0.597839 0.414978
0.455353 0.602814 0.413086
0.477661 0.606201 0.409973
0.499908 0.609192 0.406403
0.522858 0.612457 0.402435
0.544373 0.615631 0.398010
0.565338 0.618896 0.392883
0.585999 0.622131 0.386505
0.604950 0.625244 0.378571
0.621216 0.628052 0.369934
0.638519 0.631012 0.361298
0.656494 0.633362 0.353149
0.674011 0.635223 0.346619
0.691162 0.636597 0.341431
0.708344 0.637390 0.336639
0.726318 0.637421 0.330719
0.745483 0.636871 0.322571
0.763397 0.634796 0.311188
0.780365 0.630615 0.290466
0.794617 0.626404 0.271393
0.804138 0.624939 0.271698
0.809448 0.631470 0.304962
0.812836 0.643982 0.356628
0.314850 0.588501 0.428925
0.324493 0.591034 0.429810
0.335815 0.593933 0.430817
0.348541 0.596924 0.431641
0.361755 0.600037 0.432373
0.375305 0.603210 0.433075
0.389709 0.606720 0.433899
0.405609 0.610657 0.434631
0.425934 0.615631 0.434845
0.450836 0.621796 0.434784
0.474731 0.626801 0.433655
0.497070 0.630524 0.431366
0.519409 0.633698 0.428131
0.541962 0.636749 0.424408
0.562775 0.639618 0.420288
0.582489 0.642426 0.415863
0.602600 0.645325 0.410767
0.621643 0.648102 0.404083
0.637726 0.650635 0.396057
0.653381 0.653320 0.387604
0.669403 0.656067 0.379578
0.685181 0.657990 0.372803
0.700928 0.659454 0.367126
0.716583 0.660553 0.362762
0.732300 0.660950 0.358398
0.748810 0.660858 0.353088
0.765717 0.659607 0.344727
0.781891 0.657562 0.334015
0.796539 0.653717 0.315857
0.808105 0.652161 0.310394
0.813995 0.656494 0.335083
0.817200 0.668365 0.389038
0.339539 0.613525 0.448212
0.349213 0.615845 0.449005
0.360748 0.618530 0.449829
0.373077 0.621429 0.450653
0.385834 0.624451 0.451508
0.399170 0.627655 0.452393
0.413513 0.631104 0.453278
0.429871 0.634918 0.454041
0.449097 0.639343 0.454254
0.471497 0.644409 0.453949
0.493958 0.648895 0.452789
0.516388 0.652924 0.450928
0.538696 0.656433 0.448364
0.560883 0.659607 0.445160
0.580872 0.662323 0.441498
0.599365 0.664825 0.437531
0.618713 0.667450 0.433167
0.638092 0.670074 0.427826
0.654724 0.672485 0.420898
0.668640 0.674652 0.413055
0.682861 0.676941 0.405426
0.696716 0.678833 0.398163
0.711212 0.679993 0.391418
0.725677 0.680786 0.385559
0.739685 0.681366 0.381226
0.753937 0.681427 0.376862
0.769012 0.680969 0.371246
0.784180 0.680267 0.364685
0.798676 0.679108 0.355804
0.811127 0.676880 0.346741
0.817444 0.681091 0.370392
0.820953 0.691589 0.420715
0.363800 0.637451 0.466949
0.373260 0.639496 0.467590
0.383606 0.641754 0.468414
0.395142 0.644440 0.469269
0.407593 0.647400 0.470123
0.420990 0.650574 0.471039
0.436035 0.654114 0.472046
0.453644 0.658142 0.473114
0.472748 0.662170 0.473175
0.493683 0.666412 0.472565
0.515076 0.670319 0.471100
0.536682 0.674042 0.469238
0.558472 0.677551 0.467041
0.579529 0.680756 0.464386
0.598572 0.683411 0.461273
0.616364 0.685852 0.457794
0.634796 0.688385 0.453888
