滤镜资源/Professional Luts Collection/Triune-Digital-Cinematic-LUTs/3D LUTs (CUBE)/STANDARD/Harry Potter - Rec709.cube
#Created by Benjamin (IWLTBAP) : http://luts.iwltbap.com
#Copyright: (C) Copyright 2016 Triune Films and IWLTBAP
TITLE "Blockbuster LUTs Pack (Rec.709)"
#LUT size
LUT_3D_SIZE 5
#LUT data points
DOMAIN_MIN 0.000000 0.000000 0.000000
DOMAIN_MAX 0.903226 0.903226 0.903226
0.000000 0.000031 0.028229
0.087738 0.012024 0.048065
0.313538 0.082855 0.034088
0.498199 0.116760 0.061401
0.646606 0.152985 0.084198
0.000000 0.128357 0.098358
0.104065 0.140289 0.081940
0.358887 0.158508 0.012085
0.533356 0.169464 0.016541
0.667236 0.181458 0.042938
0.102386 0.279480 0.194702
0.188507 0.307465 0.197937
0.396179 0.358765 0.165558
0.613586 0.358002 0.080048
0.718903 0.344421 0.074127
0.221344 0.475891 0.341522
0.319611 0.507477 0.350006
0.493225 0.539612 0.324188
0.643311 0.561096 0.269043
0.781006 0.542511 0.170349
0.387817 0.660065 0.484589
0.477539 0.679871 0.491089
0.615387 0.702728 0.479614
0.720825 0.716766 0.446838
0.804077 0.719757 0.410309
0.000000 0.008301 0.115692
0.022278 0.037170 0.136444
0.279846 0.093170 0.142822
0.485016 0.134216 0.155182
0.648651 0.176300 0.172302
0.000000 0.142212 0.164490
0.066711 0.154755 0.173523
0.339996 0.169067 0.151337
0.548004 0.165131 0.133453
0.681000 0.189331 0.139069
0.099426 0.298370 0.262726
0.158813 0.316803 0.276123
0.365997 0.365601 0.257568
0.629791 0.353882 0.132172
0.724884 0.332214 0.114197
0.213013 0.490784 0.404510
0.276520 0.510040 0.419891
0.455719 0.554321 0.417633
0.641571 0.581055 0.370422
0.784515 0.544952 0.214844
0.385010 0.671783 0.531952
0.464081 0.687592 0.542603
0.604156 0.713226 0.541748
0.723755 0.727783 0.515350
0.802582 0.730835 0.479370
0.000000 0.072021 0.198700
0.016541 0.088898 0.215302
0.226593 0.122345 0.248993
0.448975 0.165039 0.281677
0.647797 0.240814 0.330505
0.000000 0.165161 0.262115
0.072327 0.172760 0.264709
0.237640 0.207306 0.295898
0.490326 0.239868 0.312897
0.683075 0.269196 0.334503
0.067657 0.320526 0.362793
0.150452 0.344177 0.378845
0.250397 0.381256 0.406494
0.609558 0.412323 0.372711
0.737457 0.410065 0.360199
0.213745 0.508759 0.487579
0.271210 0.531494 0.501343
0.403168 0.567871 0.525238
0.642822 0.606293 0.503021
0.782349 0.601776 0.441742
0.389679 0.683289 0.599304
0.450195 0.699249 0.607361
0.588074 0.723022 0.628235
0.717163 0.743103 0.609039
0.791931 0.754578 0.633881
0.000000 0.112183 0.290436
0.046295 0.123169 0.304077
0.205627 0.151428 0.335907
0.418274 0.203552 0.400665
0.630096 0.288483 0.473694
0.002991 0.196686 0.359497
0.102539 0.207458 0.368042
0.210175 0.239716 0.400269
0.448425 0.305176 0.465027
0.657104 0.354523 0.509491
0.103119 0.351562 0.478363
0.168182 0.376251 0.498840
0.248352 0.407623 0.521088
0.521545 0.475189 0.569611
0.714417 0.497711 0.584808
0.197937 0.520844 0.580475
0.268433 0.549194 0.598938
0.379333 0.587128 0.626678
0.598907 0.630951 0.648682
0.757416 0.643616 0.636658
0.382355 0.692444 0.681122
0.439545 0.709015 0.693787
0.574768 0.734985 0.712189
0.699280 0.755676 0.727722
0.778748 0.768860 0.734039
0.000671 0.152435 0.396149
0.102417 0.165924 0.416748
0.211334 0.197357 0.466858
0.399109 0.248444 0.529907
0.623901 0.337067 0.613892
0.077606 0.238068 0.484589
0.139893 0.254028 0.500000
0.219696 0.288605 0.538330
0.427460 0.348450 0.593170
0.651672 0.419434 0.656891
0.148315 0.386658 0.604858
0.204254 0.414154 0.627197
0.275909 0.442474 0.647095
0.505219 0.495636 0.681396
0.696350 0.540894 0.714783
0.229431 0.548584 0.695038
0.300385 0.577454 0.712891
0.394897 0.610199 0.733948
0.594452 0.648468 0.749756
0.734161 0.673096 0.761566
0.359283 0.694580 0.754242
0.423004 0.715393 0.766327
0.560944 0.741791 0.777954
0.690155 0.764984 0.789307
0.768524 0.780334 0.798004
