滤镜资源/Professional Luts Collection/Triune-Digital-Cinematic-LUTs/3D LUTs (CUBE)/STANDARD/Harry Potter - Rec709.cube
#Created by Benjamin (IWLTBAP) : http://luts.iwltbap.com
#Copyright: (C) Copyright 2016 Triune Films and IWLTBAP
TITLE "Blockbuster LUTs Pack (Rec.709)"
#LUT size
LUT_3D_SIZE 8
#LUT data points
DOMAIN_MIN 0.000000 0.000000 0.000000
DOMAIN_MAX 0.903226 0.903226 0.903226
0.000000 0.000031 0.028229
0.000061 0.000854 0.044342
0.127502 0.024872 0.047729
0.253204 0.070618 0.037750
0.367340 0.093811 0.040680
0.470825 0.112610 0.059662
0.567780 0.130310 0.069336
0.646606 0.152985 0.084198
0.000000 0.076263 0.066925
0.000183 0.080627 0.057709
0.152649 0.091553 0.046448
0.276764 0.106079 0.022156
0.386017 0.117981 0.010956
0.491241 0.126770 0.015015
0.584686 0.139679 0.031982
0.658844 0.161438 0.058563
0.000000 0.145874 0.109039
0.009857 0.150879 0.107056
0.144409 0.163452 0.091919
0.309021 0.173523 0.039215
0.417358 0.181580 0.020996
0.517578 0.186401 0.016998
0.603363 0.190399 0.034790
0.671356 0.197906 0.046997
0.048035 0.229340 0.161743
0.108765 0.239990 0.163940
0.185852 0.259033 0.159332
0.310638 0.288055 0.138672
0.459869 0.294434 0.079834
0.566650 0.295471 0.040741
0.646057 0.291077 0.050873
0.698792 0.290253 0.068359
0.134705 0.332092 0.231842
0.166382 0.345490 0.236053
0.242859 0.368256 0.235443
0.362427 0.396576 0.216705
0.471466 0.419403 0.191742
0.608765 0.420105 0.125580
0.692932 0.413055 0.099579
0.740082 0.402832 0.088409
0.200897 0.446594 0.318787
0.244354 0.461090 0.323059
0.320801 0.484070 0.325897
0.426575 0.503021 0.311188
0.519653 0.522400 0.279083
0.611084 0.534119 0.251129
0.720337 0.529510 0.185730
0.773865 0.516052 0.151672
0.289398 0.561676 0.408569
0.334808 0.573822 0.412689
0.403839 0.591217 0.415131
0.499908 0.609192 0.406403
0.585999 0.622131 0.386505
0.656494 0.633362 0.353149
0.726318 0.637421 0.330719
0.794617 0.626404 0.271393
0.387817 0.660065 0.484589
0.429962 0.669312 0.487915
0.496185 0.683472 0.491028
0.577728 0.697388 0.484894
0.650208 0.707458 0.472870
0.708923 0.715088 0.453491
0.756775 0.719757 0.427032
0.804077 0.719757 0.410309
0.000000 0.001312 0.081177
0.000000 0.004852 0.094208
0.110535 0.034088 0.100922
0.239105 0.075653 0.101807
0.357819 0.099182 0.102875
0.465698 0.118958 0.108307
0.567566 0.138153 0.114929
0.647400 0.160065 0.123016
0.000000 0.083496 0.106934
0.000000 0.089569 0.110901
0.143555 0.097656 0.106323
0.279083 0.107086 0.094818
0.391479 0.114899 0.086182
0.497681 0.129456 0.091827
0.588867 0.146729 0.101166
0.661499 0.168945 0.110931
0.000000 0.153564 0.141663
0.003601 0.156982 0.144409
0.136566 0.165955 0.132751
0.311218 0.172821 0.089417
0.426453 0.174438 0.069305
0.528564 0.175964 0.065308
0.611359 0.177490 0.072876
0.677795 0.188141 0.076782
0.050598 0.240021 0.193451
0.100494 0.244049 0.197906
0.164368 0.264191 0.198975
0.295502 0.290955 0.179901
0.463470 0.293945 0.109680
0.576508 0.289520 0.072937
0.652100 0.283936 0.078552
0.702209 0.283356 0.088226
0.132294 0.343140 0.267059
0.160248 0.350952 0.274261
0.223206 0.376038 0.279907
0.341888 0.403625 0.266724
0.460480 0.425629 0.239136
0.613800 0.423584 0.154022
0.699646 0.410339 0.109558
0.741730 0.395599 0.098145
0.197357 0.456207 0.354675
0.228333 0.464539 0.360687
0.288879 0.482941 0.364288
0.398102 0.509796 0.359680
0.511810 0.531586 0.332031
0.610229 0.544281 0.301727
0.720215 0.534546 0.219452
0.774841 0.512268 0.157013
0.287018 0.570709 0.442169
0.320587 0.577362 0.446106
0.381195 0.592041 0.449249
0.477936 0.614197 0.447266
0.580780 0.630127 0.429962
0.655945 0.641357 0.398285
0.724762 0.643829 0.371643
0.794708 0.631073 0.300293
0.387238 0.667572 0.512451
0.420837 0.673218 0.515411
0.488434 0.687805 0.519989
0.567322 0.702362 0.519104
0.646820 0.713135 0.507416
0.709106 0.720428 0.488892
0.755920 0.725281 0.462189
0.803528 0.724243 0.442108
0.000000 0.014374 0.127350
0.000000 0.026947 0.136749
0.061493 0.054871 0.151031
0.209534 0.083740 0.157227
0.331207 0.107056 0.159363
0.449249 0.132111 0.168884
0.563080 0.156921 0.179871
0.649048 0.182953 0.190125
0.000000 0.095856 0.155640
0.000000 0.101013 0.157593
0.081482 0.111603 0.167542
0.230652 0.124695 0.168793
0.360260 0.129059 0.162781
0.481628 0.145111 0.166626
0.588531 0.167053 0.174316
0.664093 0.191193 0.182434
0.000000 0.162933 0.186615
0.003693 0.169159 0.191071
0.100372 0.179230 0.198181
0.270569 0.189240 0.182922
0.400116 0.195709 0.172150
0.525665 0.193146 0.161926
0.621857 0.184753 0.150513
0.687469 0.198700 0.151154
0.042847 0.250610 0.240540
0.098724 0.259949 0.246490
0.143036 0.270538 0.254913
0.257477 0.296082 0.247742
0.448578 0.303131 0.194855
0.581940 0.292877 0.152252
0.660950 0.271759 0.124023
0.708008 0.270142 0.130493
0.130798 0.353302 0.314240
0.158112 0.365814 0.321655
0.196655 0.379944 0.334045
0.292450 0.407318 0.331024
0.445923 0.435913 0.310516
0.614807 0.434082 0.228088
0.705933 0.409607 0.151764
0.746124 0.396027 0.143311
0.194305 0.464294 0.395599
0.223328 0.477325 0.402191
0.265533 0.489349 0.413727
0.363525 0.515503 0.415985
0.498749 0.543549 0.400024
0.608673 0.557709 0.374115
0.721985 0.546051 0.292084
0.778839 0.522217 0.219543
0.282471 0.576965 0.474701
0.315399 0.588104 0.481781
0.358490 0.596863 0.490265
0.452820 0.618347 0.493317
0.567780 0.639282 0.481110
0.659058 0.652222 0.457306
0.724396 0.656830 0.434845
0.795105 0.645142 0.372040
0.383087 0.672729 0.538330
0.418396 0.682190 0.544922
0.480774 0.692657 0.552490
0.560089 0.707947 0.555115
0.642426 0.720154 0.545990
0.710327 0.728455 0.530426
0.758514 0.732788 0.508728
0.802460 0.733612 0.493866
0.000000 0.055817 0.174652
0.000000 0.067963 0.182281
0.046387 0.082031 0.195404
0.176910 0.103180 0.214325
0.299835 0.124847 0.226074
0.425110 0.146851 0.239594
0.553406 0.182129 0.259979
0.648804 0.221954 0.283630
0.000000 0.112274 0.205780
0.000000 0.114807 0.206055
0.063354 0.123077 0.214020
0.178650 0.140137 0.229523
0.310822 0.159180 0.240509
0.445557 0.169830 0.247070
0.580475 0.197784 0.265930
0.665710 0.233124 0.283112
0.000000 0.174500 0.243652
0.007935 0.181366 0.248688
0.097626 0.189606 0.252228
0.191528 0.213165 0.273132
0.341980 0.232971 0.279510
0.490265 0.238464 0.274231
0.612122 0.239624 0.272736
0.690918 0.250702 0.275604
0.014221 0.263397 0.298370
0.088562 0.273621 0.304993
0.137756 0.286987 0.314636
0.194031 0.306885 0.330017
0.393951 0.331329 0.319855
0.560242 0.336517 0.300507
0.663086 0.331696 0.289185
0.718964 0.329285 0.285950
0.122620 0.365601 0.368286
0.153229 0.377960 0.376770
0.189789 0.395508 0.389618
0.243347 0.413574 0.404083
0.400848 0.445923 0.401062
0.610168 0.453125 0.334045
0.709015 0.435822 0.285950
0.751434 0.437622 0.296600
0.194519 0.475189 0.445465
0.222656 0.486969 0.452301
0.259430 0.502960 0.461365
0.321655 0.522278 0.477661
0.469086 0.552826 0.471588
0.610504 0.570953 0.450653
0.729309 0.560089 0.371399
0.780670 0.557648 0.355011
0.287842 0.585632 0.517487
0.315765 0.595642 0.522339
0.356018 0.610504 0.529633
0.440308 0.626495 0.541565
0.555359 0.649323 0.537750
0.656494 0.663940 0.518250
0.732086 0.667786 0.496552
0.792328 0.666962 0.472900
0.386353 0.679535 0.576294
0.413788 0.687836 0.580658
0.467987 0.699982 0.585999
0.548370 0.712311 0.598022
0.631744 0.727020 0.596375
0.705261 0.736786 0.581055
0.761414 0.741486 0.561279
0.796936 0.748230 0.584198
0.000000 0.083984 0.223511
0.000000 0.090668 0.230316
0.048798 0.101898 0.243622
0.155853 0.118164 0.260834
0.277679 0.141785 0.286194
0.399780 0.168823 0.308075
0.541992 0.204956 0.338104
0.646759 0.257599 0.375427
0.000000 0.129059 0.257141
0.000000 0.129883 0.255157
0.070709 0.138947 0.265076
0.158447 0.152893 0.279449
0.279388 0.178497 0.305786
0.412811 0.206024 0.326691
0.553131 0.225983 0.342651
0.661072 0.270966 0.378052
0.000092 0.191010 0.302979
0.029999 0.197754 0.308044
0.105255 0.203552 0.310272
0.171417 0.220306 0.325317
0.290466 0.253082 0.352753
0.447388 0.283081 0.371338
0.588837 0.294739 0.375580
0.681488 0.304108 0.384949
0.024994 0.278625 0.362701
0.095612 0.289062 0.369781
0.140625 0.301849 0.379913
0.187683 0.318665 0.388916
0.308197 0.359344 0.419464
0.506836 0.389984 0.430511
0.646667 0.391144 0.419922
0.717926 0.386108 0.412659
0.108215 0.377167 0.425568
0.145233 0.390594 0.433594
0.185638 0.408600 0.446289
0.234283 0.430786 0.462921
0.335571 0.457581 0.479156
0.577240 0.482391 0.460114
0.697327 0.479309 0.436584
0.747314 0.489960 0.445435
0.186768 0.485016 0.492645
0.220551 0.497711 0.500610
0.259674 0.514252 0.512238
0.315735 0.536591 0.528412
0.430756 0.560608 0.541565
0.592102 0.586243 0.534302
0.730957 0.578949 0.465088
0.772827 0.591919 0.487579
0.289795 0.593445 0.561401
0.320557 0.605072 0.568909
0.358612 0.619385 0.578705
0.429291 0.638062 0.589050
0.536987 0.656799 0.601074
0.644501 0.675385 0.587799
0.727478 0.682404 0.575836
0.783081 0.685760 0.572174
0.390198 0.686646 0.622498
0.416779 0.694336 0.627625
0.465210 0.705566 0.633575
0.538300 0.720673 0.643524
0.627838 0.733459 0.661743
0.696991 0.745087 0.653961
0.753265 0.752045 0.635712
0.787598 0.759552 0.673431
0.000000 0.106781 0.277252
0.000000 0.111664 0.282654
0.066315 0.121155 0.294800
0.153534 0.136078 0.312164
0.262177 0.158875 0.336121
0.386780 0.188965 0.373047
0.520233 0.227539 0.407990
0.633118 0.282898 0.453552
0.000000 0.146240 0.307922
0.002319 0.148804 0.308838
0.086548 0.157471 0.318817
0.160217 0.172485 0.334900
0.261230 0.196594 0.359344
0.394989 0.230438 0.398132
0.533264 0.265106 0.428284
0.642181 0.303467 0.462585
0.006073 0.210632 0.360382
0.066437 0.215332 0.363770
0.118866 0.223999 0.370697
0.173065 0.241333 0.386749
0.266296 0.269989 0.413940
0.420929 0.312225 0.451874
0.566467 0.346313 0.478149
0.666779 0.360413 0.492493
0.073456 0.299042 0.427521
0.115753 0.309937 0.435974
0.155762 0.324524 0.449768
0.197083 0.338623 0.457642
0.283234 0.367371 0.481628
0.460693 0.412872 0.515472
0.612000 0.439667 0.534424
0.701965 0.443756 0.536743
0.116821 0.391541 0.489532
0.153168 0.405426 0.498779
0.192841 0.423981 0.514099
0.237305 0.445648 0.533691
0.331360 0.471313 0.543884
0.511932 0.513062 0.571716
0.660889 0.530487 0.580994
0.731873 0.535309 0.577332
0.176147 0.492188 0.549530
0.211426 0.506592 0.558441
0.256927 0.525635 0.572083
0.310577 0.547150 0.588715
0.414337 0.573975 0.604401
0.553619 0.600189 0.616425
0.700378 0.610046 0.605774
0.756226 0.617828 0.604279
0.282776 0.598663 0.611450
0.315796 0.612000 0.620117
0.354980 0.626984 0.631165
0.418091 0.645294 0.643768
0.515411 0.666779 0.656006
0.628662 0.684967 0.666321
0.712219 0.696045 0.665649
0.774628 0.698486 0.647095
0.385132 0.691711 0.669220
0.410583 0.699860 0.675720
0.456421 0.710907 0.683685
0.531281 0.725952 0.694855
0.620758 0.741272 0.707642
0.686493 0.751465 0.715454
0.742004 0.760132 0.704712
0.780640 0.767181 0.723419
0.000000 0.128418 0.329498
0.001709 0.132935 0.335114
0.090088 0.141479 0.347870
0.162750 0.157715 0.370483
0.257996 0.183258 0.403931
0.375610 0.212372 0.443542
0.513885 0.250732 0.492645
0.625519 0.308563 0.537231
0.000092 0.166626 0.363037
0.037079 0.171173 0.367188
0.106415 0.181152 0.380066
0.168976 0.198029 0.402802
0.256836 0.224670 0.435394
0.383911 0.257996 0.475006
0.529114 0.300110 0.521729
0.636993 0.339691 0.554382
0.043549 0.232391 0.425964
0.096161 0.237823 0.431335
0.136078 0.249390 0.442474
0.182251 0.268250 0.462311
0.261475 0.296509 0.492035
0.401642 0.332428 0.526123
0.556946 0.378357 0.567017
0.660645 0.407959 0.591339
0.103607 0.320374 0.500519
0.137909 0.332153 0.510834
0.174530 0.348206 0.527405
0.209839 0.360748 0.534973
0.286194 0.387512 0.556458
0.440277 0.424561 0.586212
0.594025 0.464233 0.616058
0.689789 0.482849 0.633087
0.141418 0.412231 0.564758
0.173859 0.426758 0.575104
0.211304 0.446014 0.591461
0.253082 0.465881 0.610809
0.336578 0.487488 0.617157
0.497101 0.520569 0.639984
0.633698 0.550140 0.660370
0.718109 0.562653 0.671204
0.190308 0.506866 0.619415
0.225830 0.521545 0.628662
0.269196 0.540100 0.642639
0.319397 0.560394 0.658844
0.400787 0.582794 0.675049
0.550964 0.611328 0.679016
0.669373 0.633484 0.696808
0.739166 0.643707 0.701019
0.273315 0.603760 0.668121
0.310516 0.617615 0.676300
0.352264 0.633728 0.687103
0.410278 0.652222 0.699463
0.503326 0.672699 0.711029
0.618195 0.694489 0.719238
0.693298 0.707581 0.726868
0.761261 0.713013 0.722687
0.373627 0.694397 0.714020
0.401642 0.703644 0.720703
0.443970 0.715332 0.728882
0.514526 0.730042 0.737946
0.611237 0.746155 0.747375
0.680359 0.758911 0.755127
0.731140 0.766785 0.760162
0.773376 0.773712 0.764008
0.000671 0.152435 0.396149
0.046631 0.157227 0.402649
0.115112 0.169037 0.421906
0.174377 0.186127 0.450348
0.255035 0.209747 0.483917
0.365479 0.240021 0.520477
0.501831 0.280151 0.562378
0.623901 0.337067 0.613892
0.022675 0.191772 0.436035
0.085846 0.197357 0.442841
0.129852 0.209595 0.459869
0.179596 0.227509 0.485229
0.253387 0.252136 0.515381
0.374115 0.285797 0.550323
0.517242 0.326691 0.589233
0.635986 0.374084 0.633118
0.091003 0.257935 0.502869
0.123260 0.266296 0.511322
0.156830 0.277771 0.521637
0.197479 0.295654 0.540710
0.265472 0.321716 0.566193
0.398682 0.357910 0.597321
0.544006 0.397400 0.631287
0.657684 0.435516 0.665192
0.131226 0.342743 0.573151
0.161896 0.356232 0.584686
0.193542 0.370361 0.598907
0.225098 0.383331 0.607758
0.291504 0.406738 0.626160
0.438141 0.441162 0.649719
0.582001 0.475037 0.675537
0.683105 0.503784 0.698639
0.167328 0.432129 0.633972
0.198822 0.447998 0.645081
0.234467 0.466034 0.659271
0.276642 0.484955 0.675598
0.351318 0.504974 0.682343
0.497955 0.533813 0.698181
0.623596 0.558258 0.715912
0.709717 0.578461 0.730499
0.214203 0.525330 0.684143
0.252106 0.541473 0.694458
0.294464 0.559296 0.706085
0.343964 0.577972 0.718536
0.424103 0.599152 0.732117
0.553833 0.622742 0.740784
0.661774 0.638702 0.750488
0.729706 0.654083 0.755676
0.282928 0.615173 0.723450
0.321228 0.630157 0.731720
0.361328 0.645844 0.741028
0.416412 0.662598 0.750641
0.505737 0.681671 0.759583
0.606598 0.701294 0.767639
0.690369 0.714966 0.772034
0.748962 0.725800 0.778473
0.359283 0.694580 0.754242
0.392731 0.706024 0.760773
0.435974 0.718567 0.768036
0.509369 0.733093 0.774902
0.608459 0.749603 0.781250
0.676239 0.762299 0.787842
0.727325 0.771973 0.792908
0.768524 0.780334 0.798004
