滤镜资源/Professional Luts Collection/Triune-Digital-Cinematic-LUTs/3D LUTs (CUBE)/STANDARD/Indiana Jones - Rec709.cube
#Created by Benjamin (IWLTBAP) : http://luts.iwltbap.com
#Copyright: (C) Copyright 2016 Triune Films and IWLTBAP
TITLE "Blockbuster LUTs Pack (Rec.709)"
#LUT size
LUT_3D_SIZE 8
#LUT data points
DOMAIN_MIN 0.000000 0.000000 0.000000
DOMAIN_MAX 0.903226 0.903226 0.903226
0.008209 0.012512 0.009857
0.060120 0.020691 0.013367
0.173767 0.032318 0.021515
0.323792 0.054199 0.029968
0.458466 0.073883 0.035156
0.577515 0.091522 0.048920
0.671906 0.105682 0.050568
0.743317 0.115997 0.059448
0.010864 0.058289 0.015106
0.055573 0.065765 0.014252
0.156555 0.081757 0.018372
0.277405 0.104004 0.029327
0.416809 0.126862 0.037506
0.543671 0.164886 0.044220
0.647583 0.189026 0.056274
0.729645 0.202362 0.058502
0.011108 0.113373 0.020050
0.052795 0.128540 0.018921
0.139587 0.143646 0.015656
0.276031 0.166595 0.025970
0.408295 0.193146 0.030426
0.518219 0.215942 0.040192
0.617126 0.246185 0.039093
0.699310 0.268341 0.047668
0.020447 0.185883 0.029938
0.063995 0.201630 0.026794
0.144043 0.216400 0.023956
0.278687 0.242432 0.026215
0.423340 0.265930 0.030914
0.525879 0.285339 0.032806
0.613647 0.308655 0.032501
0.684570 0.327026 0.035156
0.027435 0.259888 0.040436
0.069336 0.281860 0.033844
0.152527 0.295166 0.020630
0.276123 0.313416 0.021790
0.429535 0.340820 0.024597
0.529083 0.355713 0.025635
0.608124 0.375977 0.023285
0.676453 0.392456 0.022217
0.037750 0.341919 0.050568
0.081146 0.359192 0.039398
0.170410 0.374176 0.019409
0.279785 0.390015 0.013947
0.419525 0.407288 0.016052
0.521729 0.425537 0.017456
0.600098 0.442688 0.018494
0.664459 0.457428 0.019470
0.048401 0.416992 0.054260
0.095673 0.442596 0.040100
0.199707 0.457947 0.015747
0.302307 0.462769 0.015686
0.425079 0.482422 0.017456
0.518890 0.499969 0.018707
0.585663 0.507050 0.019409
0.654633 0.526367 0.020416
0.058563 0.498444 0.057343
0.118134 0.519287 0.035126
0.216858 0.530792 0.017609
0.327789 0.532928 0.017853
0.421875 0.552795 0.018524
0.514008 0.574402 0.019775
0.580353 0.582581 0.020599
0.643402 0.588318 0.021271
0.014496 0.017212 0.050507
0.057404 0.018524 0.053680
0.168396 0.030670 0.064789
0.319733 0.052185 0.081268
0.455963 0.069824 0.098450
0.568726 0.086761 0.104492
0.654083 0.094330 0.114990
0.718262 0.102814 0.126038
0.015472 0.059174 0.051514
0.068756 0.078644 0.068176
0.210388 0.103363 0.078735
0.386658 0.140320 0.102814
0.525085 0.168457 0.119446
0.626038 0.189667 0.122803
0.708374 0.204407 0.127625
0.777252 0.221710 0.132477
0.014130 0.117249 0.063232
0.060944 0.144836 0.075043
0.179413 0.163300 0.059937
0.345734 0.195435 0.073273
0.468048 0.226837 0.092377
0.585327 0.267975 0.105194
0.672363 0.286133 0.106903
0.742493 0.291687 0.104828
0.022919 0.185211 0.077148
0.068909 0.225647 0.081970
0.172180 0.238708 0.064209
0.324158 0.254639 0.065094
0.462463 0.280975 0.072235
0.566437 0.314850 0.078125
0.648315 0.339111 0.083557
0.723907 0.354675 0.085052
0.027893 0.260529 0.087189
0.080292 0.307831 0.082581
0.188599 0.311523 0.054626
0.326416 0.323792 0.058655
0.467010 0.348480 0.061646
0.563599 0.373169 0.063354
0.634613 0.393066 0.062683
0.708252 0.412994 0.066681
0.039886 0.342651 0.098236
0.092896 0.384155 0.087433
0.203644 0.389221 0.059387
0.326233 0.400635 0.045959
0.463928 0.427307 0.048462
0.552826 0.444336 0.047485
0.625366 0.456879 0.045563
0.691101 0.472687 0.045868
0.049377 0.416046 0.102631
0.118347 0.459595 0.085999
0.233826 0.471771 0.051483
0.350250 0.477722 0.038330
0.465790 0.499390 0.034760
0.547943 0.513611 0.032166
0.610229 0.521576 0.029022
0.677094 0.537415 0.023987
0.059479 0.494263 0.111755
0.170319 0.543579 0.077850
0.263214 0.551849 0.051453
0.367523 0.553925 0.031281
0.451172 0.568298 0.021912
0.538574 0.584442 0.022980
0.606445 0.594910 0.023956
0.664734 0.606506 0.024597
0.026398 0.026642 0.109406
0.064667 0.026367 0.119995
0.131744 0.025421 0.115662
0.261566 0.036438 0.125977
0.403046 0.055664 0.145935
0.533447 0.072296 0.159760
0.630432 0.087219 0.172516
0.687195 0.093231 0.181549
0.026733 0.071960 0.108582
0.080933 0.101013 0.159607
0.211609 0.100128 0.173035
0.403717 0.139587 0.192749
0.535065 0.162170 0.210846
0.643524 0.179504 0.216827
0.721405 0.175812 0.219025
0.788300 0.180023 0.219574
0.027191 0.121552 0.115448
0.076416 0.160828 0.156921
0.209106 0.227478 0.214600
0.404938 0.263214 0.227509
0.544342 0.306396 0.246155
0.646667 0.332428 0.259064
0.727112 0.339935 0.246063
0.796143 0.354309 0.242432
0.035950 0.196930 0.147034
0.082153 0.241455 0.178131
0.207031 0.308990 0.210510
0.353912 0.308807 0.159912
0.499969 0.345123 0.184509
0.600006 0.379211 0.197327
0.687653 0.404297 0.207336
0.766998 0.418518 0.200073
0.041473 0.267609 0.156097
0.086243 0.314331 0.185608
0.198151 0.379150 0.187164
0.325500 0.375000 0.128662
0.475067 0.388947 0.124054
0.575836 0.420258 0.137329
0.659302 0.446503 0.158905
0.731018 0.464935 0.144165
0.048920 0.339966 0.163818
0.090607 0.389526 0.169464
0.188965 0.437683 0.155151
0.337585 0.435852 0.103729
0.470825 0.445618 0.096527
0.569763 0.470276 0.098541
0.644165 0.499268 0.111267
0.716705 0.517303 0.117126
0.056702 0.406525 0.171844
0.099396 0.470276 0.176361
0.239685 0.520905 0.143402
0.349670 0.518341 0.102631
0.456848 0.516815 0.082489
0.557953 0.538483 0.084625
0.625336 0.553528 0.077179
0.704193 0.571655 0.079041
0.062653 0.482544 0.171783
0.103638 0.542175 0.163025
0.270660 0.588470 0.122742
0.373169 0.583771 0.092834
0.462097 0.585907 0.059357
0.548248 0.602142 0.051636
0.620361 0.615387 0.049988
0.685730 0.633087 0.043213
0.028229 0.032928 0.171997
0.066681 0.026337 0.173401
0.129181 0.027527 0.176483
0.227142 0.029144 0.163849
0.372772 0.043793 0.188416
0.508423 0.064331 0.211182
0.609375 0.078003 0.224091
0.652161 0.079559 0.223846
0.038483 0.088867 0.184479
0.094788 0.117462 0.262238
0.196198 0.105469 0.266174
0.355225 0.097534 0.246887
0.505280 0.123993 0.259857
0.620361 0.150543 0.275940
0.704376 0.160736 0.284485
0.774323 0.166412 0.298218
0.042633 0.139557 0.188110
0.092499 0.193085 0.253418
0.192383 0.247131 0.319885
0.422607 0.260376 0.322906
0.561279 0.308075 0.337128
0.664886 0.326050 0.348175
0.748718 0.345428 0.349304
0.820679 0.358093 0.351410
0.049988 0.201019 0.206207
0.096069 0.252991 0.259186
0.178711 0.322968 0.314362
0.407288 0.394196 0.368103
0.556030 0.429962 0.373962
0.664612 0.462036 0.381500
0.753540 0.479523 0.391602
0.820038 0.487396 0.371887
0.065857 0.286194 0.244446
0.105499 0.340698 0.291260
0.190918 0.405365 0.322083
0.399719 0.476929 0.365723
0.528381 0.475555 0.309265
0.633026 0.509827 0.326294
0.719849 0.538422 0.345673
0.788635 0.534760 0.312744
0.072784 0.366699 0.263824
0.112335 0.413147 0.301605
0.182220 0.477875 0.327118
0.366577 0.546539 0.358978
0.486389 0.541138 0.274689
0.598602 0.545624 0.254211
0.691010 0.576813 0.284607
0.763092 0.583099 0.268433
0.078918 0.442963 0.274445
0.114624 0.483154 0.298523
0.173767 0.547760 0.304718
0.345673 0.613312 0.336029
0.465851 0.605621 0.243652
0.569275 0.599823 0.197418
0.666412 0.622772 0.219818
0.743652 0.636414 0.229889
0.082642 0.506714 0.278900
0.118378 0.555847 0.293243
0.176483 0.623749 0.299591
0.340118 0.677948 0.323181
0.470490 0.665405 0.207275
0.546600 0.657379 0.145050
0.638947 0.669312 0.147430
0.721344 0.689514 0.169434
0.046021 0.035248 0.222168
0.076202 0.028442 0.222687
0.121368 0.033081 0.239807
0.228851 0.033630 0.248901
0.356995 0.038177 0.238983
0.500031 0.058197 0.261597
0.590881 0.070923 0.275116
0.644104 0.076691 0.281525
0.055908 0.094482 0.244507
0.109406 0.127258 0.336426
0.171173 0.112823 0.332703
0.327972 0.093933 0.317047
0.472046 0.101471 0.305634
0.590088 0.124603 0.314026
0.682190 0.139069 0.334656
0.744507 0.149048 0.346954
0.060638 0.151733 0.255066
0.109283 0.212189 0.332153
0.201965 0.273163 0.419556
0.414124 0.258087 0.417938
0.568268 0.254974 0.400726
0.663544 0.285278 0.408813
0.748810 0.316498 0.418732
0.821442 0.344116 0.427948
0.069000 0.217407 0.278381
0.114319 0.279724 0.340881
0.191559 0.340729 0.402039
0.402802 0.425781 0.463593
0.568634 0.425842 0.458557
0.680084 0.465088 0.468719
0.771301 0.483826 0.475128
0.840729 0.498444 0.468811
0.077972 0.291138 0.305573
0.118164 0.342712 0.352112
0.190063 0.411163 0.401093
0.360016 0.487061 0.458984
0.562683 0.542267 0.494629
0.669556 0.573242 0.498444
0.767761 0.593750 0.502930
0.841492 0.599976 0.488495
0.089325 0.374481 0.337860
0.129028 0.424377 0.380707
0.198700 0.496796 0.424774
0.335571 0.563843 0.466705
0.528595 0.615326 0.493896
0.643829 0.616241 0.453949
0.743286 0.643921 0.471161
0.817627 0.648743 0.445801
0.102325 0.455444 0.370605
0.141541 0.512451 0.409760
0.192688 0.580902 0.448120
0.305603 0.641266 0.474701
0.512360 0.689209 0.498840
0.625153 0.682831 0.432068
0.713348 0.684906 0.412506
0.796997 0.699402 0.405029
0.111450 0.535614 0.391998
0.147766 0.593201 0.424713
0.189697 0.653534 0.443542
0.289673 0.711975 0.475189
0.488953 0.766388 0.514984
0.613403 0.759430 0.427399
0.680267 0.745453 0.359802
0.772888 0.758881 0.368347
0.057922 0.036713 0.263824
0.083466 0.033600 0.262299
0.126648 0.039795 0.305634
0.216278 0.041016 0.323608
0.386475 0.044769 0.325378
0.512115 0.059753 0.324371
0.596344 0.072571 0.332672
0.644012 0.076691 0.338287
0.070343 0.103394 0.301575
0.119751 0.127563 0.387726
0.154022 0.102875 0.377899
0.269501 0.097382 0.364624
0.438660 0.095551 0.358734
0.557404 0.112335 0.348785
0.648224 0.124634 0.367218
0.714081 0.131439 0.385223
0.076874 0.164001 0.316833
0.127228 0.234924 0.402802
0.209534 0.288483 0.498138
0.397797 0.246918 0.492859
0.559906 0.219208 0.471527
0.659058 0.222198 0.450592
0.741882 0.256226 0.462555
0.811676 0.277496 0.471527
0.084778 0.228516 0.340973
0.132446 0.301880 0.414246
0.198151 0.363220 0.482819
0.388428 0.449127 0.546661
0.564056 0.431000 0.547974
0.680115 0.435547 0.529785
0.773254 0.469849 0.538757
0.844879 0.490845 0.538391
0.093750 0.301941 0.364532
0.134338 0.359528 0.420166
0.202789 0.430420 0.477539
0.360443 0.513733 0.540649
0.542877 0.567993 0.571472
0.676880 0.570251 0.571289
0.778076 0.594574 0.574341
0.859985 0.605133 0.574066
0.104370 0.381958 0.393188
0.140228 0.425537 0.435394
0.198120 0.489624 0.482178
0.343048 0.569580 0.533630
0.531464 0.627136 0.567719
0.677612 0.666901 0.601379
0.781036 0.693298 0.604553
0.862854 0.705994 0.600006
0.117615 0.466309 0.430359
0.153351 0.511353 0.466766
0.204895 0.577728 0.509644
0.325684 0.653564 0.553864
0.494751 0.699280 0.579773
0.670654 0.739380 0.604584
0.758209 0.744568 0.569366
0.839996 0.752319 0.564209
0.130951 0.551453 0.464294
0.165161 0.599854 0.502350
0.204010 0.668732 0.539001
0.301270 0.729523 0.568939
0.474152 0.777130 0.597595
0.663025 0.818024 0.626373
0.745361 0.812378 0.567780
0.820557 0.810089 0.541199
0.069763 0.036041 0.305084
0.090485 0.034546 0.298065
0.130371 0.037567 0.335541
0.205933 0.050171 0.380524
0.384705 0.050781 0.398193
0.542206 0.065796 0.404053
0.606842 0.073456 0.396118
0.652679 0.076202 0.398956
0.083374 0.109375 0.352112
0.132782 0.128693 0.439484
0.158539 0.103912 0.432159
0.254822 0.101715 0.423676
0.420746 0.093231 0.420776
0.567902 0.107666 0.421204
0.631134 0.115448 0.411102
0.686584 0.120117 0.422791
0.091492 0.173065 0.375366
0.138550 0.239716 0.455627
0.208069 0.286011 0.555603
0.359009 0.217560 0.536072
0.518341 0.174927 0.516937
0.649414 0.173584 0.501068
0.710449 0.188385 0.487274
0.783112 0.218323 0.501648
0.101440 0.242828 0.400818
0.146210 0.316681 0.474670
0.204102 0.379578 0.547241
0.372772 0.460175 0.616333
0.547089 0.422729 0.610291
0.677551 0.401672 0.599121
0.771667 0.429260 0.585632
0.842834 0.463013 0.592316
0.109497 0.315308 0.422882
0.149139 0.371277 0.480621
0.205719 0.449219 0.547577
0.354462 0.530396 0.611877
0.539429 0.582397 0.646393
0.677155 0.568024 0.648346
0.786316 0.585052 0.634125
0.864197 0.610321 0.645905
0.119171 0.390594 0.449280
0.154144 0.434204 0.492279
0.202545 0.500977 0.546295
0.343750 0.589172 0.606171
0.522614 0.645905 0.642792
0.682434 0.689880 0.674438
0.787781 0.693268 0.672180
0.874512 0.716095 0.680237
0.129913 0.470245 0.479553
0.163086 0.507568 0.512543
0.207184 0.563629 0.555267
0.328278 0.644775 0.606842
0.496826 0.704681 0.643250
0.664062 0.748810 0.676147
0.802887 0.794861 0.700348
0.886322 0.801270 0.708618
0.143890 0.557251 0.517029
0.176727 0.595001 0.552551
0.217560 0.662292 0.593750
0.303650 0.729858 0.633698
0.469849 0.788452 0.669312
0.654541 0.826080 0.695404
0.800812 0.861511 0.718384
0.864380 0.852997 0.677551
0.076324 0.032318 0.334686
0.096344 0.032196 0.329224
0.133057 0.035126 0.356720
0.185699 0.048737 0.412994
0.370728 0.053436 0.446686
0.539459 0.063782 0.454376
0.622223 0.072693 0.454102
0.661102 0.074646 0.452271
0.091400 0.105530 0.386353
0.137726 0.123322 0.463989
0.162811 0.101105 0.465118
0.219025 0.099060 0.450439
0.396271 0.095367 0.462494
0.559418 0.104889 0.465302
0.640350 0.114014 0.464264
0.680847 0.115936 0.466827
0.106018 0.183197 0.430603
0.147522 0.241699 0.498932
0.216278 0.292938 0.614471
0.338226 0.212830 0.593994
0.482666 0.168396 0.568756
0.624329 0.164307 0.539337
0.702881 0.175873 0.528625
0.757416 0.186584 0.534271
0.115753 0.261169 0.458679
0.158112 0.325684 0.526886
0.213135 0.390045 0.611755
0.346924 0.469452 0.677429
0.527588 0.420380 0.668945
0.662018 0.362854 0.654205
0.770813 0.364227 0.631500
0.829407 0.400604 0.635468
0.124664 0.332489 0.483215
0.164948 0.392365 0.543121
0.217651 0.466461 0.617584
0.336670 0.541412 0.676239
0.529205 0.598480 0.712067
0.660248 0.588409 0.716797
0.786407 0.578674 0.708923
0.866028 0.597839 0.699890
0.133026 0.401093 0.505127
0.169647 0.451599 0.554535
0.220245 0.525208 0.621887
0.328003 0.602539 0.675079
0.514130 0.661407 0.713287
0.683167 0.712524 0.743134
0.790161 0.712524 0.742096
0.874908 0.722961 0.741272
0.142700 0.475830 0.531860
0.175537 0.515991 0.567963
0.221222 0.583221 0.626373
0.322205 0.659515 0.675476
0.490143 0.720367 0.713959
0.676575 0.770325 0.747467
0.819275 0.816132 0.777100
0.890930 0.818207 0.774933
0.154724 0.558502 0.563019
0.186890 0.594116 0.596405
0.226227 0.651093 0.638519
0.318268 0.724884 0.682831
0.461426 0.784302 0.723114
0.638794 0.827118 0.754425
0.797089 0.867310 0.777771
0.908081 0.897552 0.800262
