滤镜资源/Professional Luts Collection/Triune-Digital-Cinematic-LUTs/3D LUTs (CUBE)/STANDARD/Indiana Jones - Rec709.cube
#Created by Benjamin (IWLTBAP) : http://luts.iwltbap.com
#Copyright: (C) Copyright 2016 Triune Films and IWLTBAP
TITLE "Blockbuster LUTs Pack (Rec.709)"
#LUT size
LUT_3D_SIZE 32
#LUT data points
0.008209 0.012512 0.009857
0.017487 0.014252 0.010040
0.029602 0.015869 0.010956
0.043121 0.018402 0.011932
0.060120 0.020691 0.013367
0.081116 0.021393 0.012329
0.103973 0.024292 0.011963
0.136475 0.027802 0.017242
0.173767 0.032318 0.021515
0.210571 0.037598 0.025360
0.249420 0.042908 0.028564
0.285736 0.048248 0.029816
0.323792 0.054199 0.029968
0.363586 0.059601 0.032227
0.398560 0.064545 0.032867
0.429108 0.069550 0.033875
0.458466 0.073883 0.035156
0.487366 0.078003 0.038086
0.518890 0.083313 0.042358
0.549286 0.088226 0.045807
0.577515 0.091522 0.048920
0.604767 0.095551 0.050598
0.628906 0.098969 0.050781
0.650726 0.102844 0.050232
0.671906 0.105682 0.050568
0.691254 0.109192 0.052460
0.709595 0.112061 0.054688
0.726990 0.114227 0.056732
0.743317 0.115997 0.059448
0.759735 0.117767 0.061951
0.774017 0.119019 0.062775
0.788574 0.121338 0.063324
0.009216 0.023407 0.010925
0.019318 0.024567 0.011414
0.029999 0.026154 0.011414
0.044220 0.028046 0.012604
0.059937 0.030487 0.014252
0.079651 0.031982 0.012756
0.100464 0.034882 0.011597
0.131775 0.038422 0.016968
0.167114 0.043152 0.020782
0.197266 0.047729 0.023254
0.233521 0.053589 0.027893
0.266632 0.058289 0.029114
0.300354 0.064972 0.030975
0.337769 0.070129 0.032166
0.375824 0.075653 0.033569
0.408905 0.081482 0.034119
0.440735 0.086578 0.035034
0.472382 0.091431 0.038300
0.501709 0.095703 0.041504
0.532471 0.100494 0.044769
0.561768 0.104645 0.048065
0.592163 0.109253 0.048370
0.619598 0.113525 0.047546
0.642944 0.117493 0.047424
0.666534 0.120422 0.047333
0.688721 0.122406 0.049652
0.708771 0.125671 0.052277
0.729065 0.128998 0.056183
0.745667 0.131683 0.058685
0.762238 0.134552 0.061096
0.778717 0.136963 0.063782
0.792877 0.138885 0.064819
0.010101 0.034393 0.012543
0.020355 0.035522 0.012543
0.029419 0.037079 0.012054
0.042358 0.039246 0.013031
0.057709 0.042206 0.014343
0.077179 0.044006 0.012726
0.099121 0.046265 0.011505
0.127441 0.050842 0.015991
0.160522 0.054962 0.020111
0.189362 0.059296 0.021912
0.223419 0.064972 0.026276
0.256836 0.069611 0.028412
0.288513 0.076569 0.030304
0.322388 0.083099 0.031708
0.360809 0.089172 0.034576
0.398376 0.095581 0.035675
0.433685 0.101868 0.036377
0.467255 0.109070 0.040863
0.498932 0.114929 0.045044
0.525909 0.120514 0.045898
0.553345 0.126434 0.045502
0.582733 0.131348 0.044861
0.610260 0.135254 0.044769
0.634918 0.137482 0.046326
0.659973 0.139984 0.049561
0.685089 0.141785 0.052673
0.707001 0.144379 0.055664
0.728210 0.147064 0.058807
0.746460 0.149475 0.061432
0.763275 0.151794 0.062592
0.778320 0.154938 0.063354
0.792572 0.157684 0.063629
0.010315 0.045990 0.014069
0.019897 0.047546 0.013245
0.029266 0.049255 0.013092
0.041809 0.050659 0.013000
0.056519 0.053589 0.013855
0.074158 0.056305 0.012543
0.096161 0.058594 0.010803
0.124664 0.062836 0.015533
0.157532 0.067993 0.018951
0.184540 0.072418 0.020111
0.217682 0.077972 0.025269
0.249817 0.083191 0.027435
0.281921 0.089752 0.029663
0.313904 0.096771 0.031494
0.349243 0.102325 0.033966
0.386322 0.108246 0.035431
0.424805 0.114014 0.037354
0.455292 0.123291 0.038513
0.488647 0.131531 0.042480
0.519714 0.138763 0.044006
0.548187 0.146942 0.044556
0.576416 0.154724 0.045715
0.602295 0.158203 0.046387
0.626862 0.160461 0.049225
0.652832 0.162781 0.053741
0.677338 0.164886 0.057617
0.699127 0.167816 0.060089
0.719360 0.170715 0.061218
0.740051 0.171448 0.060791
0.756439 0.173645 0.061157
0.772369 0.175659 0.060944
0.786896 0.178497 0.061096
0.010864 0.058289 0.015106
0.021210 0.059174 0.014557
0.030975 0.060852 0.014191
0.041748 0.063019 0.013977
0.055573 0.065765 0.014252
0.073273 0.068848 0.012512
0.093445 0.071594 0.011108
0.119995 0.076263 0.014496
0.156555 0.081757 0.018372
0.181702 0.086365 0.019409
0.214996 0.092041 0.025055
0.246063 0.097687 0.027802
0.277405 0.104004 0.029327
0.310242 0.110138 0.030609
0.345642 0.115448 0.033386
0.381775 0.121429 0.036469
0.416809 0.126862 0.037506
0.448517 0.135529 0.039246
0.479523 0.145813 0.041351
0.512115 0.156433 0.042786
0.543671 0.164886 0.044220
0.574005 0.173767 0.046082
0.598785 0.180695 0.047974
0.622284 0.186218 0.050812
0.647583 0.189026 0.056274
0.671082 0.192993 0.058807
0.690308 0.197876 0.059479
0.709198 0.201843 0.059296
0.729645 0.202362 0.058502
0.747833 0.203186 0.059235
0.763184 0.205292 0.060364
0.779175 0.208099 0.060181
0.012787 0.070618 0.016144
0.021729 0.071686 0.016052
0.031067 0.073761 0.015808
0.041260 0.076904 0.015533
0.054504 0.080414 0.015381
0.070465 0.082642 0.013824
0.092255 0.085510 0.010468
0.119141 0.089691 0.014374
0.154236 0.095978 0.017548
0.185944 0.101898 0.021057
0.219055 0.108154 0.025757
0.248199 0.113434 0.026978
0.280090 0.117828 0.028687
0.309906 0.123047 0.029633
0.343964 0.128265 0.032501
0.377747 0.134033 0.035461
0.411926 0.140533 0.038544
0.443085 0.148895 0.040253
0.473267 0.158539 0.041168
0.503876 0.168793 0.042358
0.534851 0.177124 0.043671
0.563477 0.185913 0.043945
0.588867 0.193359 0.045410
0.611298 0.199554 0.047607
0.634949 0.204865 0.051849
0.659363 0.209869 0.056122
0.679382 0.215027 0.056854
0.698425 0.220276 0.057404
0.717743 0.223816 0.056641
0.736633 0.226501 0.056580
0.754486 0.231934 0.057953
0.769836 0.235321 0.058411
0.012451 0.084290 0.017731
0.021423 0.085968 0.017548
0.030579 0.087708 0.017120
0.039856 0.091522 0.016479
0.053772 0.095459 0.016724
0.070312 0.098206 0.014496
0.088806 0.099792 0.011810
0.117523 0.104736 0.014099
0.151093 0.110718 0.017426
0.183624 0.116760 0.020508
0.219574 0.123840 0.024567
0.249817 0.129272 0.026489
0.282471 0.133575 0.027618
0.312531 0.137329 0.029175
0.345032 0.142181 0.031891
0.377258 0.149231 0.034302
0.408264 0.156525 0.036133
0.438538 0.164459 0.038879
0.468536 0.171753 0.042267
0.498566 0.181488 0.042999
0.528442 0.189026 0.044159
0.555939 0.197327 0.043579
0.579926 0.205658 0.041687
0.602814 0.212677 0.043121
0.626190 0.219360 0.045441
0.650269 0.225739 0.048248
0.670685 0.230347 0.051178
0.689270 0.234772 0.053192
0.708740 0.239319 0.053192
0.728485 0.243164 0.052856
0.747955 0.249451 0.054077
0.766541 0.254944 0.055054
0.011292 0.098663 0.018829
0.020538 0.100891 0.018829
0.030243 0.102570 0.018341
0.038788 0.106903 0.017487
0.053772 0.111206 0.017395
0.071564 0.114197 0.015015
0.090637 0.117279 0.012848
0.111176 0.120361 0.014221
0.146637 0.127380 0.016968
0.178528 0.132172 0.019531
0.216553 0.138824 0.022919
0.246643 0.143890 0.025299
0.279449 0.148285 0.027313
0.310883 0.153625 0.028564
0.344849 0.160400 0.029663
0.376434 0.167236 0.031586
0.406952 0.174164 0.033234
0.435211 0.180145 0.036011
0.463745 0.186615 0.039215
0.492767 0.192841 0.042206
0.522339 0.200806 0.043091
0.548309 0.210663 0.040558
0.572388 0.219360 0.038879
0.596191 0.226379 0.039307
0.619019 0.231964 0.041534
0.643158 0.238129 0.044556
0.666412 0.244537 0.047607
0.684448 0.249237 0.048950
0.702667 0.253418 0.050049
0.721100 0.257111 0.049683
0.740906 0.263855 0.049866
0.760193 0.270569 0.050690
0.011108 0.113373 0.020050
0.019745 0.115753 0.019989
0.030273 0.118439 0.018951
0.039795 0.122589 0.019043
0.052795 0.128540 0.018921
0.069794 0.133362 0.017822
0.090363 0.138245 0.018066
0.112793 0.140839 0.017639
0.139587 0.143646 0.015656
0.175201 0.149109 0.019165
0.210571 0.154114 0.022064
0.244537 0.160095 0.024689
0.276031 0.166595 0.025970
0.307465 0.172638 0.027130
0.342224 0.179901 0.027924
0.376038 0.186859 0.028809
0.408295 0.193146 0.030426
0.435303 0.197723 0.033203
0.462341 0.202789 0.035858
0.490784 0.208374 0.039398
0.518219 0.215942 0.040192
0.547333 0.226227 0.039215
0.571594 0.234131 0.037628
0.594849 0.240936 0.037170
0.617126 0.246185 0.039093
0.638855 0.251740 0.042053
0.661530 0.257538 0.045013
0.681274 0.263550 0.046356
0.699310 0.268341 0.047668
0.717072 0.272705 0.047546
0.735992 0.279297 0.047485
0.755585 0.286499 0.048187
0.012573 0.130096 0.021912
0.021820 0.132416 0.021851
0.031525 0.135803 0.021698
0.041412 0.140106 0.021423
0.054413 0.146118 0.021362
0.069702 0.150299 0.020630
0.090057 0.155060 0.021362
0.115051 0.157623 0.018982
0.138885 0.159607 0.015411
0.168854 0.164368 0.018280
0.207916 0.170593 0.022827
0.241425 0.176849 0.024750
0.276062 0.185028 0.025085
0.309418 0.191864 0.026398
0.344208 0.198975 0.026794
0.376099 0.204468 0.027527
0.409332 0.210510 0.028656
0.437256 0.214844 0.031342
0.466034 0.220154 0.035187
0.494904 0.226288 0.038513
0.520264 0.234192 0.037781
0.547150 0.242096 0.036835
0.571198 0.249146 0.035767
0.593414 0.255096 0.035156
0.615387 0.259766 0.036804
0.637085 0.265076 0.039459
0.658173 0.271118 0.041870
0.677521 0.276428 0.043762
0.695557 0.282532 0.044525
0.712921 0.287415 0.044495
0.730927 0.293060 0.044220
0.751465 0.299866 0.046051
0.014343 0.147797 0.024170
0.025726 0.150635 0.023804
0.034363 0.154510 0.024292
0.045013 0.159576 0.023315
0.057281 0.164246 0.023132
0.072479 0.168732 0.022644
0.089966 0.172424 0.022827
0.115295 0.175537 0.019592
0.140411 0.178925 0.018585
0.170349 0.181030 0.019196
0.203278 0.186310 0.022858
0.239746 0.194672 0.023926
0.274719 0.202545 0.024780
0.313751 0.210999 0.025879
0.349182 0.218384 0.027344
0.381775 0.223572 0.028839
0.411987 0.228668 0.029358
0.440857 0.233490 0.030731
0.468719 0.238281 0.033539
0.497406 0.244904 0.036591
0.523285 0.252808 0.035278
0.548798 0.259552 0.034546
0.571503 0.265411 0.033722
0.593201 0.270233 0.033600
0.613464 0.274597 0.034882
0.634125 0.279663 0.036957
0.654449 0.285736 0.039520
0.674072 0.291565 0.041504
0.691650 0.296204 0.041565
0.709473 0.301880 0.041656
0.726715 0.307373 0.040894
0.746429 0.312927 0.042267
0.018066 0.167267 0.027191
0.028107 0.170532 0.026672
0.037933 0.173859 0.026489
0.048737 0.178192 0.025330
0.062195 0.182251 0.024780
0.075348 0.186768 0.024536
0.090088 0.191681 0.024506
0.115021 0.194336 0.022156
0.142059 0.197357 0.021179
0.170990 0.199036 0.020996
0.204346 0.203461 0.023438
0.237305 0.212555 0.024384
0.278412 0.223328 0.025299
0.322632 0.231873 0.027466
0.359314 0.239075 0.028687
0.389923 0.243439 0.029175
0.418060 0.247620 0.030518
0.444366 0.251160 0.031525
0.472382 0.256073 0.032990
0.498810 0.261963 0.034393
0.524658 0.269623 0.033447
0.549957 0.275940 0.032959
0.573456 0.281219 0.032654
0.594299 0.286438 0.032562
0.613647 0.291718 0.033020
0.633453 0.296844 0.035583
0.652924 0.302307 0.037506
0.671143 0.307556 0.038361
0.688385 0.311768 0.038330
0.705994 0.316498 0.038513
0.722717 0.321167 0.038177
0.741760 0.326385 0.039215
0.020447 0.185883 0.029938
0.030945 0.189178 0.029816
0.041534 0.192596 0.028992
0.053467 0.196716 0.027557
0.063995 0.201630 0.026794
0.075592 0.207367 0.025970
0.093414 0.211304 0.025879
0.115326 0.213654 0.024292
0.144043 0.216400 0.023956
0.173584 0.218628 0.022339
0.207153 0.223541 0.023804
0.239502 0.233215 0.024841
0.278687 0.242432 0.026215
0.329193 0.252991 0.028168
0.368439 0.259064 0.029510
0.397522 0.263214 0.030304
0.423340 0.265930 0.030914
0.449280 0.269226 0.032379
0.474945 0.273376 0.032532
0.500549 0.278900 0.032776
0.525879 0.285339 0.032806
0.551544 0.292023 0.032166
0.574646 0.297699 0.031860
0.594696 0.303192 0.032196
0.613647 0.308655 0.032501
0.632141 0.313751 0.032959
0.650513 0.318481 0.034393
0.667694 0.322998 0.035126
0.684570 0.327026 0.035156
0.701630 0.331207 0.035278
0.719238 0.335754 0.035553
0.737396 0.340424 0.036285
0.023071 0.202789 0.031616
0.031952 0.207947 0.031860
0.043640 0.212372 0.030609
0.054230 0.217957 0.029846
0.064606 0.223236 0.028717
0.075531 0.228943 0.027893
0.097473 0.231201 0.027069
0.115631 0.233490 0.026215
0.147980 0.237152 0.024048
0.176270 0.241638 0.021057
0.207245 0.246582 0.022675
0.240753 0.253937 0.025513
0.283661 0.262115 0.027069
0.327911 0.271790 0.028290
0.373779 0.281281 0.028717
0.403870 0.283417 0.029602
0.429016 0.285828 0.030273
0.452545 0.287689 0.030426
0.478180 0.291595 0.030884
0.502319 0.295990 0.031494
0.527588 0.302094 0.031555
0.552643 0.308716 0.031555
0.574432 0.314545 0.031250
0.594147 0.319916 0.031555
0.612762 0.325439 0.031189
0.630646 0.330231 0.031311
0.647888 0.334564 0.031342
0.663879 0.338074 0.031738
0.680939 0.342255 0.031647
0.698425 0.346466 0.032227
0.716492 0.350677 0.032593
0.733521 0.355164 0.033203
0.023468 0.221283 0.033386
0.033264 0.227295 0.033691
0.045380 0.232361 0.033844
0.055450 0.237976 0.032532
0.065613 0.243469 0.030334
0.080048 0.247711 0.029205
0.098846 0.251007 0.028320
0.117462 0.254456 0.025818
0.149902 0.257355 0.022400
0.178314 0.261688 0.019989
0.207214 0.267090 0.021698
0.239777 0.273529 0.025360
0.283813 0.281189 0.025482
0.326935 0.291046 0.026123
0.368317 0.299133 0.027252
0.407623 0.304047 0.028290
0.434052 0.306396 0.028534
0.457184 0.307800 0.028931
0.480347 0.310822 0.029022
0.503906 0.315063 0.029572
0.528229 0.319000 0.030365
0.553131 0.325256 0.030396
0.573273 0.331116 0.030151
0.592712 0.336365 0.030426
0.611328 0.341949 0.030212
0.629120 0.346893 0.029633
0.645996 0.351318 0.028534
0.662201 0.354248 0.028564
0.679169 0.358093 0.029205
0.696960 0.362701 0.028870
0.714417 0.366547 0.029541
0.731140 0.371155 0.029938
0.024872 0.240784 0.036163
0.035492 0.246124 0.037323
0.047546 0.251343 0.037292
0.058136 0.256348 0.035034
0.067047 0.262177 0.032471
0.081543 0.266815 0.030853
0.098938 0.269653 0.028992
0.119141 0.273163 0.026031
0.151398 0.276215 0.020874
0.179230 0.279205 0.019196
0.208191 0.284546 0.020386
0.236328 0.291534 0.023926
0.280823 0.297333 0.023834
0.320648 0.305237 0.024628
0.362183 0.313263 0.025970
0.399933 0.319519 0.027069
0.436707 0.325409 0.026398
0.460114 0.327057 0.026764
0.482361 0.329865 0.027161
0.505463 0.333710 0.027466
0.529388 0.337372 0.028259
0.552612 0.341095 0.029144
0.572021 0.347412 0.028534
0.590454 0.352875 0.027618
0.609406 0.358490 0.026947
0.627533 0.364624 0.025421
0.644714 0.368958 0.024719
0.660858 0.371979 0.025177
0.678284 0.375549 0.026062
0.695404 0.379425 0.026215
0.712585 0.382538 0.026733
0.728912 0.387268 0.026520
0.027435 0.259888 0.040436
0.038300 0.264771 0.040619
0.049561 0.270386 0.039581
0.059448 0.275696 0.037109
0.069336 0.281860 0.033844
0.081970 0.285858 0.031616
0.098022 0.288818 0.030029
0.121246 0.291962 0.025665
0.152527 0.295166 0.020630
0.181061 0.297821 0.018158
0.208801 0.302307 0.019653
0.232239 0.308716 0.021393
0.276123 0.313416 0.021790
0.316345 0.319733 0.022858
0.356384 0.326904 0.024445
0.393982 0.333130 0.025879
0.429535 0.340820 0.024597
0.461395 0.345734 0.024628
0.482971 0.348206 0.024841
0.505829 0.352417 0.024567
0.529083 0.355713 0.025635
0.551666 0.359467 0.025757
0.570953 0.363739 0.024902
0.589447 0.369568 0.024292
0.608124 0.375977 0.023285
0.626434 0.382080 0.021790
0.643433 0.386322 0.021454
0.659576 0.389313 0.022217
0.676453 0.392456 0.022217
0.693909 0.395813 0.022888
0.710541 0.398773 0.023407
0.726654 0.402985 0.023254
0.029755 0.279510 0.045135
0.040771 0.284821 0.044556
0.051880 0.291443 0.041077
0.061554 0.295410 0.038300
0.072662 0.299683 0.035095
0.083282 0.303619 0.032562
0.097351 0.306976 0.030975
0.122223 0.310120 0.025299
0.153076 0.313812 0.020935
0.182373 0.316528 0.016815
0.209717 0.321350 0.018677
0.232086 0.325684 0.019531
0.270386 0.329895 0.018890
0.311249 0.333740 0.021423
0.351257 0.340668 0.022614
0.388367 0.346863 0.023956
0.423828 0.354919 0.022552
0.456024 0.362549 0.021851
0.483643 0.367645 0.021912
0.505219 0.370361 0.022247
0.528656 0.374115 0.022675
0.550201 0.377441 0.022705
0.569641 0.382019 0.021912
0.588165 0.386871 0.020630
0.607117 0.392639 0.019684
0.625519 0.398804 0.018768
0.642059 0.402893 0.018433
0.658295 0.406128 0.018707
0.674683 0.408844 0.019012
0.691437 0.411804 0.019318
0.708191 0.414734 0.019714
0.724030 0.418335 0.019928
0.031891 0.300446 0.048004
0.044220 0.306122 0.046509
0.054840 0.311249 0.042572
0.064331 0.314758 0.039398
0.076355 0.318207 0.036285
0.086243 0.322113 0.033722
0.097565 0.326019 0.031494
0.126617 0.329193 0.024963
0.155792 0.333679 0.021057
0.187164 0.336212 0.016510
0.213013 0.341095 0.017334
0.235962 0.344788 0.016998
0.268890 0.347443 0.016083
0.310852 0.350403 0.019135
0.350555 0.357025 0.020813
0.387268 0.364105 0.021027
0.419678 0.371063 0.020386
0.451172 0.378510 0.019623
0.479614 0.384705 0.018707
0.505463 0.389709 0.019043
0.528107 0.392670 0.019775
0.549133 0.396057 0.018921
0.568329 0.400208 0.018158
0.586761 0.404755 0.017883
0.605255 0.409485 0.018036
0.624298 0.414795 0.018311
0.639984 0.418579 0.018585
0.655609 0.422302 0.018890
0.671661 0.425140 0.019165
0.687714 0.427948 0.019470
0.704529 0.430969 0.019775
0.721222 0.433838 0.020081
0.034821 0.321564 0.049713
0.046722 0.326752 0.047852
0.057007 0.330414 0.043579
0.067474 0.333862 0.040649
0.079712 0.337311 0.037628
0.088715 0.341827 0.034943
0.102417 0.346527 0.031036
0.131805 0.349945 0.025604
0.161652 0.353851 0.020905
0.194305 0.357635 0.016174
0.220215 0.362244 0.016449
0.243805 0.365112 0.013580
0.273651 0.368225 0.014069
0.311218 0.370819 0.016724
0.352112 0.375153 0.017914
0.389191 0.382965 0.017944
0.421112 0.389984 0.017303
0.447968 0.395325 0.016510
0.476440 0.401306 0.016632
0.501404 0.405731 0.016907
0.526978 0.410767 0.017365
0.547607 0.413666 0.017609
0.566711 0.417511 0.017853
0.584259 0.421906 0.018036
0.602692 0.426178 0.018280
0.620819 0.430542 0.018524
0.636932 0.434845 0.018738
0.651978 0.438385 0.019012
0.668060 0.441254 0.019287
0.684143 0.444000 0.019592
0.701294 0.447144 0.019928
0.718140 0.450317 0.020233
0.037750 0.341919 0.050568
0.049652 0.345764 0.048431
0.059265 0.349762 0.044220
0.070374 0.354706 0.041595
0.081146 0.359192 0.039398
0.090881 0.363739 0.036072
0.108734 0.367950 0.030487
0.136597 0.372192 0.025360
0.170410 0.374176 0.019409
0.202484 0.378632 0.015747
0.226807 0.383698 0.013489
0.250458 0.387177 0.013428
0.279785 0.390015 0.013947
0.313507 0.391479 0.014435
0.352875 0.393005 0.015289
0.389038 0.400635 0.015594
0.419525 0.407288 0.016052
0.446716 0.412628 0.016449
0.473145 0.417847 0.016785
0.498932 0.422455 0.017151
0.521729 0.425537 0.017456
0.544769 0.430145 0.017761
0.563904 0.434052 0.018005
0.581360 0.438354 0.018219
0.600098 0.442688 0.018494
0.617462 0.446869 0.018768
0.633118 0.450775 0.018951
0.649017 0.454590 0.019165
0.664459 0.457428 0.019470
0.680389 0.460449 0.019714
0.697510 0.463898 0.020020
0.714844 0.467255 0.020386
0.040771 0.359955 0.050629
0.051819 0.364899 0.049103
0.062042 0.370483 0.045685
0.071686 0.376465 0.043213
0.082092 0.381744 0.041260
0.098236 0.386322 0.035614
0.116089 0.390656 0.029388
0.144867 0.393707 0.023865
0.180573 0.395538 0.017944
0.209473 0.401428 0.015320
0.233032 0.406067 0.013916
0.257233 0.408844 0.014038
0.286377 0.411224 0.014557
0.315277 0.411560 0.014771
0.354309 0.412842 0.015350
0.388397 0.417786 0.015839
0.417847 0.424408 0.016266
0.444092 0.429474 0.016632
0.470856 0.434692 0.017059
0.496277 0.439636 0.017426
0.519440 0.442139 0.017700
0.538849 0.444733 0.017914
0.560303 0.450409 0.018188
0.578888 0.455017 0.018494
0.597626 0.459381 0.018799
0.614349 0.463470 0.018982
0.630066 0.467621 0.019165
0.645660 0.471527 0.019440
0.661530 0.474487 0.019623
0.676819 0.477203 0.019867
0.693909 0.480682 0.020172
0.711273 0.484070 0.020538
0.042938 0.378723 0.052124
0.054443 0.383972 0.050323
0.062836 0.391144 0.047211
0.073059 0.396942 0.044250
0.086456 0.403229 0.041656
0.105499 0.407043 0.034760
0.122467 0.411377 0.028442
0.154358 0.414093 0.022003
0.187317 0.417206 0.017517
0.214600 0.421692 0.014526
0.237000 0.425476 0.014282
0.263489 0.428131 0.014618
0.291504 0.429321 0.014954
0.319183 0.429413 0.015137
0.355682 0.430420 0.015594
0.389954 0.435913 0.016174
0.420471 0.443542 0.016663
0.447693 0.449188 0.017090
0.473328 0.454315 0.017456
0.497955 0.458496 0.017792
0.517670 0.460449 0.017975
0.538086 0.462585 0.018188
0.555023 0.464905 0.018372
0.575958 0.471344 0.018768
0.594849 0.476471 0.019043
0.611328 0.480713 0.019226
0.627045 0.484802 0.019440
0.642670 0.488617 0.019653
0.657990 0.491516 0.019836
0.673889 0.494324 0.020020
0.690125 0.496490 0.020294
0.707245 0.500000 0.020599
0.046234 0.397705 0.053345
0.056580 0.403625 0.050934
0.065002 0.411011 0.047699
0.074036 0.417633 0.045868
0.093933 0.423279 0.040833
0.109344 0.427551 0.033905
0.129364 0.431763 0.027069
0.162781 0.434906 0.020782
0.194397 0.438568 0.017273
0.219788 0.441162 0.015015
0.241333 0.444092 0.014740
0.268555 0.446106 0.015076
0.296600 0.445862 0.015289
0.323761 0.445312 0.015411
0.357666 0.446533 0.015869
0.391632 0.453949 0.016479
0.422852 0.462738 0.017029
0.451935 0.470612 0.017548
0.477844 0.475830 0.017944
0.499420 0.478424 0.018158
0.519226 0.480377 0.018372
0.537842 0.482117 0.018555
0.555328 0.484100 0.018768
0.571136 0.486237 0.018951
0.590881 0.492462 0.019257
0.608337 0.497833 0.019470
0.623993 0.502136 0.019653
0.640167 0.506195 0.019928
0.655914 0.508911 0.020142
0.671356 0.511719 0.020294
0.687042 0.513397 0.020447
0.703369 0.515381 0.020721
0.048401 0.416992 0.054260
0.058411 0.422943 0.050720
0.066895 0.431366 0.047668
0.077179 0.436493 0.045959
0.095673 0.442596 0.040100
0.110901 0.446442 0.033997
0.137390 0.450897 0.026337
0.168823 0.454346 0.019348
0.199707 0.457947 0.015747
0.222931 0.459991 0.015442
0.245300 0.461945 0.015228
0.273987 0.462433 0.015381
0.302307 0.462769 0.015686
0.329987 0.463013 0.015900
0.358582 0.465271 0.016235
0.392365 0.473419 0.016846
0.425079 0.482422 0.017456
0.454803 0.490631 0.017975
0.478851 0.495850 0.018341
0.500305 0.498169 0.018555
0.518890 0.499969 0.018707
0.537231 0.501709 0.018890
0.554840 0.503265 0.019104
0.571503 0.505249 0.019287
0.585663 0.507050 0.019409
0.604797 0.513733 0.019653
0.622955 0.519562 0.019989
0.639008 0.523621 0.020264
0.654633 0.526367 0.020416
0.669067 0.528687 0.020538
0.683990 0.529083 0.020630
0.699829 0.530670 0.020813
0.050354 0.436401 0.054352
0.059814 0.444000 0.050537
0.069061 0.451385 0.048218
0.079437 0.456512 0.044281
0.097961 0.461456 0.039551
0.117310 0.465302 0.032349
0.145538 0.470032 0.024780
0.175140 0.473969 0.018921
0.204987 0.476471 0.016266
0.226227 0.477295 0.015900
0.248993 0.478912 0.015656
0.280029 0.479279 0.015869
0.308655 0.479645 0.016174
0.336029 0.480865 0.016418
0.361694 0.484833 0.016693
0.393188 0.493225 0.017242
0.426361 0.501526 0.017822
0.455505 0.509827 0.018341
0.479034 0.514771 0.018677
0.500732 0.517975 0.018890
0.519562 0.520111 0.019073
0.537140 0.521912 0.019257
0.554596 0.523804 0.019409
0.571106 0.525116 0.019653
0.586273 0.526825 0.019806
0.600800 0.528717 0.019897
0.619049 0.534363 0.020203
0.637299 0.540527 0.020508
0.652954 0.543549 0.020691
0.666992 0.545654 0.020813
0.681427 0.545685 0.020813
0.696289 0.545929 0.020935
0.052826 0.457092 0.054749
0.062378 0.463715 0.051147
0.071991 0.470856 0.047607
0.082245 0.475464 0.043427
0.100403 0.480286 0.038727
0.127106 0.484558 0.030853
0.153503 0.488800 0.023254
0.178864 0.491455 0.018097
0.208099 0.493805 0.016663
0.229401 0.494934 0.016357
0.253387 0.496246 0.016144
0.286194 0.496399 0.016388
0.314484 0.496887 0.016663
0.341309 0.498413 0.016968
0.366150 0.503235 0.017181
0.393311 0.511261 0.017548
0.426239 0.519470 0.018097
0.454620 0.527100 0.018555
0.477936 0.533081 0.018890
0.499481 0.536530 0.019165
0.518860 0.539581 0.019379
0.536591 0.541595 0.019531
0.552948 0.542938 0.019714
0.569183 0.544434 0.019928
0.585327 0.545868 0.020081
0.600739 0.547577 0.020264
0.615631 0.548889 0.020416
0.633728 0.554901 0.020691
0.650574 0.559509 0.020905
0.664734 0.562042 0.020996
0.679443 0.562164 0.021057
0.693909 0.562164 0.021118
0.055298 0.478088 0.055878
0.064789 0.484619 0.051666
0.073944 0.490509 0.046265
0.084747 0.494995 0.042023
0.109497 0.499756 0.036774
0.137787 0.503845 0.028931
0.161987 0.507812 0.021057
0.185608 0.509979 0.017456
0.210693 0.511078 0.017090
0.232391 0.512604 0.016754
0.258789 0.513397 0.016693
0.292603 0.513733 0.016937
0.320892 0.514404 0.017273
0.346191 0.516174 0.017426
0.370972 0.521759 0.017609
0.395599 0.529327 0.017914
0.425629 0.536682 0.018372
