滤镜资源/Professional Luts Collection/Triune-Digital-Cinematic-LUTs/3D LUTs (CUBE)/STANDARD/Indiana Jones - Rec709.cube
#Created by Benjamin (IWLTBAP) : http://luts.iwltbap.com
#Copyright: (C) Copyright 2016 Triune Films and IWLTBAP
TITLE "Blockbuster LUTs Pack (Rec.709)"
#LUT size
LUT_3D_SIZE 5
#LUT data points
DOMAIN_MIN 0.000000 0.000000 0.000000
DOMAIN_MAX 0.903226 0.903226 0.903226
0.008209 0.012512 0.009857
0.136475 0.027802 0.017242
0.398560 0.064545 0.032867
0.604767 0.095551 0.050598
0.743317 0.115997 0.059448
0.011292 0.098663 0.018829
0.111176 0.120361 0.014221
0.344849 0.160400 0.029663
0.548309 0.210663 0.040558
0.702667 0.253418 0.050049
0.023468 0.221283 0.033386
0.117462 0.254456 0.025818
0.368317 0.299133 0.027252
0.553131 0.325256 0.030396
0.679169 0.358093 0.029205
0.040771 0.359955 0.050629
0.144867 0.393707 0.023865
0.354309 0.412842 0.015350
0.538849 0.444733 0.017914
0.661530 0.474487 0.019623
0.058563 0.498444 0.057343
0.193329 0.529633 0.017914
0.374542 0.539886 0.018158
0.530945 0.577179 0.019989
0.643402 0.588318 0.021271
0.023590 0.023163 0.091187
0.109772 0.023804 0.096680
0.347473 0.049530 0.124420
0.572296 0.079498 0.149109
0.699188 0.096466 0.173096
0.021240 0.104187 0.096832
0.162109 0.178101 0.167755
0.474792 0.250244 0.202209
0.663177 0.300018 0.222260
0.791534 0.320526 0.212677
0.033966 0.225525 0.129669
0.153137 0.324005 0.160492
0.406494 0.329193 0.108124
0.598358 0.388306 0.133911
0.735504 0.425018 0.133942
0.048035 0.354095 0.150574
0.168060 0.437988 0.129303
0.406525 0.440430 0.079498
0.583893 0.479553 0.081207
0.706299 0.518433 0.087067
0.058594 0.484650 0.151215
0.247955 0.571930 0.105865
0.423065 0.571686 0.057465
0.567780 0.596924 0.040497
0.681305 0.624359 0.032715
0.036682 0.035095 0.199219
0.105316 0.028595 0.205597
0.287292 0.030487 0.199097
0.531891 0.065186 0.239899
0.650482 0.078949 0.253998
0.049652 0.130676 0.218719
0.160461 0.222198 0.355988
0.493713 0.217102 0.344788
0.679871 0.267761 0.363922
0.813660 0.301270 0.379181
0.065033 0.247253 0.256989
0.154419 0.348511 0.342285
0.491272 0.473206 0.431610
0.695160 0.528931 0.448242
0.829987 0.546875 0.432159
0.083710 0.390411 0.311737
0.168915 0.495087 0.378021
0.427856 0.604126 0.436646
0.644440 0.601166 0.355499
0.786621 0.629913 0.351166
0.100494 0.529053 0.345581
0.165924 0.621643 0.380127
0.410675 0.729370 0.432434
0.593292 0.704010 0.267548
0.747650 0.726685 0.272614
0.060974 0.036621 0.273712
0.116821 0.036072 0.302216
0.301636 0.044525 0.343567
0.545624 0.066376 0.342651
0.645508 0.077118 0.352814
0.077698 0.149994 0.326172
0.180267 0.244293 0.494568
0.452698 0.168793 0.465607
0.655426 0.172974 0.433380
0.787506 0.213959 0.459656
0.093262 0.266479 0.367157
0.178406 0.384613 0.476807
0.475098 0.521576 0.583191
0.707306 0.519745 0.574188
0.853363 0.549225 0.574341
0.110565 0.404572 0.415833
0.180298 0.490570 0.488464
0.441467 0.623413 0.572021
0.707184 0.697479 0.622894
0.868256 0.731842 0.627350
0.134705 0.554138 0.478668
0.197662 0.651276 0.546448
0.381439 0.758789 0.604614
0.698151 0.828400 0.651367
0.831421 0.819916 0.576416
0.076324 0.032318 0.334686
0.121826 0.034271 0.343506
0.263733 0.053101 0.432495
0.568787 0.065857 0.455627
0.661102 0.074646 0.452271
0.103943 0.164093 0.424652
0.192169 0.244171 0.584930
0.378571 0.156799 0.542603
0.635834 0.150543 0.511658
0.738708 0.166962 0.516083
0.120880 0.299316 0.473907
0.200897 0.413757 0.592743
0.431274 0.537506 0.696014
0.687469 0.471985 0.683807
0.849335 0.504211 0.667358
0.135284 0.418701 0.511047
0.206146 0.519348 0.605499
0.404510 0.646088 0.693756
0.719543 0.739227 0.750763
0.876862 0.747192 0.751617
0.154724 0.558502 0.563019
0.215332 0.636322 0.628296
0.381195 0.754517 0.703827
0.679932 0.837860 0.762238
0.908081 0.897552 0.800262
