滤镜资源/Professional Luts Collection/Triune-Digital-Cinematic-LUTs/3D LUTs (CUBE)/STANDARD/Inglourious Basterds - Rec709.cube
#Created by Benjamin (IWLTBAP) : http://luts.iwltbap.com
#Copyright: (C) Copyright 2016 Triune Films and IWLTBAP
TITLE "Blockbuster LUTs Pack (Rec.709)"
#LUT size
LUT_3D_SIZE 8
#LUT data points
DOMAIN_MIN 0.000000 0.000000 0.000000
DOMAIN_MAX 0.903226 0.903226 0.903226
0.011993 0.011414 0.011932
0.086060 0.015747 0.021881
0.213165 0.039520 0.047119
0.354584 0.058228 0.070099
0.486298 0.080505 0.095886
0.614136 0.104675 0.124908
0.742157 0.133484 0.157318
0.838470 0.158020 0.181091
0.022400 0.097504 0.026093
0.080750 0.096985 0.020630
0.214478 0.112762 0.043701
0.351807 0.130859 0.066315
0.483795 0.152557 0.092224
0.619598 0.181152 0.124908
0.745575 0.216217 0.155670
0.851410 0.241760 0.183533
0.033691 0.187988 0.041809
0.085541 0.195007 0.041382
0.220886 0.193909 0.039612
0.366241 0.211029 0.064636
0.493011 0.232849 0.090271
0.619751 0.259094 0.121033
0.746979 0.293274 0.151855
0.856293 0.324432 0.181610
0.036072 0.277527 0.049377
0.089142 0.285400 0.048035
0.224731 0.293365 0.044006
0.387512 0.294006 0.066803
0.514008 0.314636 0.095215
0.636505 0.338776 0.123535
0.758759 0.371063 0.153992
0.863403 0.403656 0.181702
0.044189 0.361572 0.062714
0.100037 0.369781 0.062927
0.225647 0.388245 0.062317
0.407654 0.383881 0.072327
0.537231 0.393402 0.099823
0.657074 0.419128 0.128265
0.768188 0.451111 0.156097
0.870178 0.485779 0.183777
0.056305 0.444641 0.080322
0.114258 0.454926 0.082581
0.241058 0.475342 0.078796
0.422668 0.491272 0.086151
0.554474 0.479126 0.104065
0.671204 0.502075 0.133148
0.779358 0.535919 0.160522
0.878204 0.565552 0.189453
0.070374 0.529602 0.100433
0.132355 0.543549 0.105560
0.277130 0.573120 0.102112
0.450745 0.594452 0.111847
0.561554 0.604370 0.122742
0.682678 0.603363 0.141541
0.789001 0.624115 0.166992
0.881683 0.650909 0.199066
0.091339 0.622192 0.127869
0.162567 0.644012 0.134460
0.316559 0.682404 0.133423
0.473694 0.703552 0.140320
0.577759 0.727997 0.156555
0.680817 0.734711 0.158020
0.789185 0.728851 0.178284
0.884552 0.743011 0.209717
0.012360 0.013611 0.090515
0.073822 0.016693 0.092957
0.193787 0.037933 0.110870
0.330200 0.058014 0.136353
0.467133 0.080139 0.162262
0.607666 0.103577 0.185150
0.738373 0.132751 0.213440
0.835510 0.157166 0.236298
0.017914 0.091614 0.096405
0.078339 0.103760 0.107361
0.215942 0.125671 0.125977
0.368042 0.150116 0.153381
0.509796 0.170166 0.174103
0.649506 0.197723 0.199554
0.762421 0.230408 0.220642
0.866028 0.260040 0.247620
0.030731 0.197845 0.127747
0.086609 0.206818 0.131165
0.219513 0.204773 0.117645
0.373657 0.227936 0.146179
0.506012 0.250183 0.165192
0.641815 0.283020 0.191345
0.763977 0.318420 0.217133
0.869324 0.352051 0.245056
0.034241 0.296600 0.149689
0.093201 0.299835 0.142639
0.197632 0.308319 0.127808
0.392151 0.304657 0.139526
0.523407 0.327271 0.163269
0.651184 0.359100 0.190155
0.770752 0.396667 0.216797
0.874969 0.433044 0.245117
0.048248 0.382355 0.163391
0.104553 0.383789 0.151733
0.206207 0.403442 0.142395
0.412811 0.398956 0.142975
0.546600 0.407440 0.166901
0.669006 0.441376 0.195282
0.777496 0.479401 0.219666
0.876587 0.511200 0.250458
0.061340 0.468719 0.179352
0.119080 0.469818 0.166565
0.225250 0.497284 0.161194
0.425232 0.509003 0.158752
0.566101 0.504456 0.177887
0.680115 0.530121 0.201416
0.787781 0.562897 0.226868
0.878143 0.588074 0.258362
0.077972 0.553619 0.195251
0.138367 0.556000 0.185516
0.246033 0.591827 0.181458
0.446320 0.612793 0.184174
0.568024 0.632507 0.198181
0.688385 0.630829 0.212463
0.788910 0.647095 0.233673
0.882477 0.669617 0.265686
0.101135 0.646881 0.215179
0.168060 0.656006 0.209442
0.276978 0.693024 0.214691
0.470886 0.719696 0.212036
0.581024 0.742889 0.222107
0.682251 0.752289 0.231964
0.790802 0.746887 0.254333
0.886719 0.762054 0.277008
0.023376 0.033478 0.179596
0.082458 0.034119 0.181976
0.157532 0.038116 0.182068
0.302429 0.049622 0.191589
0.426147 0.072662 0.217865
0.565674 0.099915 0.245453
0.712372 0.131989 0.274872
0.826996 0.163269 0.297791
0.028137 0.113129 0.186768
0.084961 0.126251 0.202484
0.166656 0.132202 0.207397
0.353455 0.159058 0.225800
0.486938 0.182739 0.251434
0.639099 0.207642 0.278625
0.762970 0.239624 0.301575
0.869659 0.263885 0.321655
0.033691 0.193848 0.196838
0.089417 0.209808 0.212830
0.168335 0.233582 0.235291
0.371124 0.257996 0.244781
0.523285 0.289490 0.271301
0.660004 0.321381 0.298767
0.781677 0.358582 0.327179
0.880005 0.393402 0.356171
0.037170 0.297058 0.226898
0.095398 0.312317 0.242371
0.174011 0.334259 0.259521
0.380859 0.332031 0.227448
0.530518 0.362946 0.264099
0.664520 0.402466 0.294281
0.783905 0.445862 0.331665
0.881256 0.476746 0.357056
0.051544 0.396088 0.262543
0.111023 0.410797 0.273529
0.183441 0.424530 0.267151
0.380615 0.426941 0.222626
0.551422 0.435608 0.251160
0.673767 0.482391 0.287354
0.784515 0.518280 0.327179
0.881561 0.543579 0.348297
0.071625 0.495026 0.292664
0.130890 0.506500 0.294006
0.196594 0.505859 0.267883
0.399719 0.536896 0.247131
0.561829 0.534851 0.250519
0.686981 0.562836 0.281952
0.788910 0.592285 0.324036
0.883362 0.618134 0.350891
0.096985 0.592102 0.321442
0.156311 0.601257 0.311829
0.225494 0.600708 0.282379
0.418579 0.640900 0.276031
0.565399 0.657776 0.273712
0.686401 0.657135 0.288300
0.789398 0.669189 0.320587
0.884430 0.694366 0.349243
0.122681 0.687622 0.338104
0.176056 0.687866 0.316467
0.258606 0.701782 0.301086
0.432587 0.736176 0.317902
0.579529 0.759979 0.305878
0.684784 0.770050 0.311279
0.790497 0.766357 0.330627
0.887299 0.779510 0.355530
0.026642 0.052704 0.262115
0.084259 0.049652 0.262939
0.148834 0.051819 0.264099
0.251465 0.054016 0.259033
0.401062 0.060425 0.267609
0.541260 0.096039 0.297668
0.684937 0.123688 0.327454
0.802521 0.160828 0.357971
0.028748 0.133453 0.274200
0.087219 0.150818 0.293518
0.162445 0.150696 0.291504
0.276978 0.154480 0.291779
0.459198 0.178986 0.309845
0.603821 0.202423 0.334595
0.735931 0.252594 0.377197
0.853729 0.293152 0.415222
0.033051 0.212311 0.281250
0.089844 0.229919 0.300232
0.165405 0.249939 0.321838
0.293823 0.264160 0.327271
0.502167 0.308624 0.361023
0.644135 0.342560 0.393127
0.771484 0.386719 0.433197
0.878967 0.415955 0.461945
0.035797 0.292969 0.294250
0.094757 0.307434 0.310974
0.167480 0.327820 0.332001
0.283966 0.356995 0.358276
0.516113 0.403717 0.382538
0.658539 0.457275 0.423370
0.782776 0.488831 0.465393
0.885376 0.512146 0.490936
0.050720 0.384521 0.324097
0.109741 0.401672 0.339783
0.183899 0.430023 0.363586
0.298859 0.474762 0.398254
0.531708 0.492279 0.372711
0.658600 0.532684 0.424774
0.781433 0.568085 0.462830
0.886017 0.589203 0.487610
0.072906 0.490784 0.364777
0.138428 0.516724 0.385956
0.212830 0.549133 0.413544
0.317474 0.581512 0.431122
0.527679 0.591431 0.372314
0.674896 0.605194 0.411102
0.787598 0.640472 0.460022
0.888000 0.662994 0.484894
0.111145 0.615387 0.421631
0.177917 0.636444 0.440552
0.251770 0.661224 0.456879
0.329620 0.665680 0.431824
0.527802 0.689270 0.415771
0.674194 0.695160 0.390564
0.793671 0.710175 0.433899
0.891785 0.736542 0.474304
0.151947 0.727844 0.470642
0.215149 0.743866 0.480286
0.280273 0.756683 0.475708
0.370026 0.756866 0.448181
0.556885 0.786469 0.443207
0.685486 0.801331 0.423035
0.791565 0.795532 0.411682
0.890961 0.807251 0.441284
0.037231 0.075653 0.344391
0.090729 0.068756 0.340698
0.150330 0.070007 0.343811
0.227325 0.071747 0.343964
0.349335 0.070496 0.337341
0.507721 0.082367 0.347198
0.665070 0.119476 0.380737
0.786011 0.158203 0.416595
0.040955 0.157532 0.356628
0.097168 0.172607 0.375610
0.166718 0.172882 0.374847
0.243439 0.158997 0.366180
0.393036 0.176453 0.368622
0.565796 0.198792 0.387299
0.709167 0.247375 0.431946
0.831482 0.294830 0.478546
0.045166 0.233795 0.367035
0.099792 0.249725 0.384735
0.173035 0.271179 0.409546
0.274475 0.273041 0.408752
0.453583 0.303040 0.421021
0.617706 0.346771 0.458710
0.750580 0.388123 0.505005
0.865082 0.427673 0.548065
0.049500 0.310608 0.380096
0.105316 0.325623 0.396423
0.177521 0.344666 0.417450
0.281830 0.375671 0.451813
0.448822 0.410950 0.471558
0.654724 0.471252 0.511688
0.779816 0.505219 0.554840
0.884216 0.529694 0.587219
0.054047 0.387451 0.393829
0.112762 0.402588 0.408783
0.184235 0.425293 0.430695
0.287598 0.462006 0.469299
0.457092 0.523651 0.521820
0.663300 0.565399 0.539398
0.790161 0.600891 0.577271
0.894440 0.622986 0.605194
0.068390 0.476624 0.419281
0.132874 0.499115 0.439178
0.206451 0.529694 0.467987
0.306152 0.572144 0.510345
0.461334 0.624939 0.550995
0.667145 0.646820 0.531830
0.790833 0.677032 0.576630
0.893402 0.697906 0.599579
0.104065 0.595612 0.473480
0.173340 0.625031 0.502319
0.251038 0.654388 0.531158
0.353241 0.690887 0.565582
0.488495 0.727173 0.583130
0.677673 0.740692 0.542816
0.797699 0.750000 0.557343
0.898895 0.770050 0.587433
0.154785 0.726166 0.541473
0.224915 0.751068 0.565948
0.295929 0.774139 0.584656
0.394287 0.800568 0.606049
0.511719 0.822174 0.608246
0.688049 0.835999 0.575104
0.797302 0.838806 0.545319
0.902740 0.841400 0.556763
0.048096 0.096680 0.422150
0.103088 0.089539 0.416901
0.157471 0.084656 0.420532
0.229919 0.086426 0.418945
0.325531 0.088928 0.417328
0.470276 0.096222 0.417999
0.624054 0.120178 0.435699
0.769714 0.163361 0.477142
0.050110 0.176575 0.435516
0.108154 0.192596 0.457489
0.172516 0.189178 0.455536
0.242920 0.171082 0.440430
0.341522 0.175232 0.435547
0.526459 0.206696 0.449432
0.678558 0.238007 0.478149
0.812836 0.287109 0.532288
0.054016 0.252136 0.447662
0.113800 0.272400 0.471161
0.185486 0.293762 0.500305
0.279480 0.293762 0.499420
0.383301 0.291077 0.493927
0.583832 0.342438 0.518066
0.732452 0.379486 0.558380
0.853973 0.419220 0.602753
0.059143 0.327118 0.460602
0.119446 0.348083 0.485077
0.190491 0.370026 0.511627
0.296112 0.407684 0.552704
0.412811 0.421906 0.557434
0.616272 0.473328 0.577972
0.765137 0.511658 0.618866
0.873962 0.537903 0.658844
0.065491 0.404388 0.476501
0.127014 0.425415 0.497681
0.197083 0.450989 0.524017
0.302307 0.489288 0.567108
0.417603 0.525848 0.602142
0.637512 0.576080 0.619995
0.790192 0.610504 0.656097
0.898071 0.633636 0.688171
0.075958 0.488098 0.497009
0.139954 0.508118 0.517426
0.208893 0.532104 0.542725
0.304382 0.569794 0.583313
0.444031 0.608307 0.617737
0.659576 0.679199 0.658844
0.792633 0.701050 0.675720
0.901276 0.721497 0.699219
0.101868 0.585785 0.531921
0.169037 0.608429 0.556610
0.238098 0.634277 0.584045
0.342407 0.669281 0.621307
0.467163 0.707031 0.650757
0.668304 0.770752 0.675140
0.796234 0.777802 0.666809
0.901367 0.794128 0.692963
0.142700 0.704254 0.592560
0.210388 0.727417 0.617188
0.284546 0.754486 0.642395
0.383606 0.779877 0.663177
0.490967 0.816498 0.690887
0.681274 0.863220 0.694794
0.802399 0.864960 0.674133
0.905914 0.868256 0.673431
0.060608 0.111938 0.498535
0.113586 0.108093 0.496552
0.167450 0.095581 0.490845
0.237000 0.099945 0.496246
0.324097 0.102905 0.495239
0.434387 0.109711 0.490540
0.607391 0.131531 0.504150
0.743530 0.165131 0.533478
0.062195 0.197021 0.518829
0.123413 0.212402 0.541992
0.187897 0.207306 0.539642
0.252106 0.195374 0.536163
0.325653 0.189819 0.532928
0.463257 0.208069 0.520020
0.648254 0.244415 0.541809
0.784546 0.277466 0.581573
0.067200 0.274719 0.533813
0.127472 0.297119 0.561737
0.209045 0.320770 0.593658
0.282776 0.312927 0.589478
0.359467 0.304260 0.581940
0.517487 0.329193 0.571167
0.692017 0.371307 0.605774
0.830322 0.405334 0.648132
0.073212 0.352722 0.549438
0.136200 0.378937 0.579315
0.211914 0.404053 0.611816
0.310944 0.437683 0.650146
0.416931 0.450745 0.659485
0.570740 0.469635 0.659546
0.740875 0.512512 0.680817
0.861908 0.537354 0.714447
0.082336 0.431244 0.567444
0.146027 0.454315 0.595337
0.218658 0.480988 0.626709
0.319885 0.512665 0.662689
0.441620 0.547241 0.694427
0.609711 0.586060 0.709198
0.772766 0.614685 0.718048
0.886749 0.641663 0.747314
0.094482 0.512177 0.589935
0.158661 0.532440 0.615387
0.227112 0.555298 0.642426
0.324921 0.588531 0.677338
0.454102 0.623047 0.705170
0.642059 0.685852 0.740479
0.785736 0.707458 0.744415
0.897034 0.730438 0.769745
0.111053 0.598022 0.617371
0.174866 0.615967 0.638885
0.240662 0.636475 0.662781
0.346191 0.671112 0.695099
0.469299 0.702789 0.717773
0.644928 0.768158 0.756317
0.796539 0.798553 0.765839
0.903137 0.811462 0.778992
0.134430 0.694824 0.655762
0.199158 0.714600 0.676147
0.276428 0.740631 0.699554
0.379883 0.766449 0.720795
0.484924 0.798767 0.745880
0.631348 0.860809 0.784119
0.806915 0.880615 0.775452
0.907043 0.883392 0.770660
0.074219 0.127563 0.577301
0.123718 0.125916 0.581055
0.179535 0.117371 0.579010
0.240753 0.117035 0.590576
0.316742 0.118073 0.590576
0.419128 0.120697 0.586426
0.553864 0.138489 0.578796
0.730682 0.175568 0.606140
0.076752 0.216003 0.601166
0.142029 0.230499 0.625977
0.200073 0.228638 0.631470
0.263367 0.223267 0.625793
0.332245 0.215179 0.629150
0.444214 0.224243 0.623016
0.607178 0.257629 0.620056
0.758179 0.293060 0.654999
0.083893 0.303009 0.627686
0.149933 0.326233 0.657593
0.229065 0.353882 0.696808
0.302795 0.345642 0.693207
0.370880 0.335510 0.681305
0.484985 0.340088 0.673492
0.660004 0.378174 0.674896
0.801453 0.409485 0.709351
0.093658 0.385315 0.649750
0.156555 0.411285 0.681824
0.233795 0.438080 0.712891
0.335144 0.465546 0.741852
0.439758 0.476624 0.750946
0.531799 0.479675 0.748657
0.712494 0.499603 0.738129
0.846893 0.534210 0.769104
0.104706 0.464050 0.671265
0.167786 0.487183 0.699188
0.239746 0.511017 0.726990
0.343964 0.536743 0.752014
0.461060 0.567780 0.780884
0.588623 0.599670 0.794678
0.751709 0.618866 0.792816
0.873993 0.644623 0.811493
0.116089 0.538788 0.691345
0.179016 0.558197 0.714630
0.249359 0.582886 0.740753
0.357117 0.610168 0.764160
0.471771 0.641907 0.790741
0.628265 0.699890 0.825562
0.776184 0.720367 0.824768
0.888062 0.734100 0.835419
0.129242 0.617706 0.712738
0.192474 0.636963 0.732025
0.267578 0.661652 0.756744
0.373322 0.687592 0.778473
0.480774 0.717529 0.802429
0.639282 0.776947 0.837616
0.795868 0.810852 0.849152
0.899261 0.818542 0.852264
0.148621 0.706757 0.738098
0.218323 0.726562 0.756592
0.291229 0.748047 0.775238
0.393250 0.771576 0.795898
0.488708 0.799377 0.817078
0.624725 0.847534 0.845123
0.799988 0.887268 0.863983
0.906586 0.897797 0.863617
