滤镜资源/Professional Luts Collection/Triune-Digital-Cinematic-LUTs/3D LUTs (CUBE)/STANDARD/Inglourious Basterds - Rec709.cube
#Created by Benjamin (IWLTBAP) : http://luts.iwltbap.com
#Copyright: (C) Copyright 2016 Triune Films and IWLTBAP
TITLE "Blockbuster LUTs Pack (Rec.709)"
#LUT size
LUT_3D_SIZE 5
#LUT data points
DOMAIN_MIN 0.000000 0.000000 0.000000
DOMAIN_MAX 0.903226 0.903226 0.903226
0.011993 0.011414 0.011932
0.177521 0.033966 0.041748
0.422363 0.068878 0.083496
0.649414 0.112183 0.133911
0.838470 0.158020 0.181091
0.032074 0.164703 0.037933
0.177887 0.168579 0.032928
0.425903 0.201965 0.076843
0.652954 0.248718 0.130035
0.853790 0.304260 0.181549
0.038940 0.320007 0.054718
0.170776 0.341522 0.055450
0.467651 0.345673 0.084961
0.679321 0.387207 0.133667
0.866058 0.444000 0.181885
0.059479 0.465240 0.084625
0.198914 0.497253 0.085175
0.497192 0.511597 0.097351
0.700043 0.531372 0.139801
0.879608 0.586060 0.191559
0.091339 0.622192 0.127869
0.270874 0.676331 0.131622
0.526276 0.716064 0.148987
0.709259 0.730194 0.160004
0.884552 0.743011 0.209717
0.020905 0.027069 0.156647
0.136536 0.033539 0.160065
0.368988 0.063232 0.191467
0.613434 0.106598 0.237610
0.831390 0.161804 0.281769
0.030731 0.168182 0.172394
0.144470 0.199707 0.202789
0.446136 0.246277 0.234528
0.689148 0.298737 0.277161
0.879700 0.359436 0.322357
0.043976 0.348602 0.227753
0.155792 0.371094 0.234039
0.473236 0.370087 0.214752
0.696350 0.438629 0.267120
0.880005 0.499390 0.316711
0.074280 0.512695 0.273224
0.180908 0.516266 0.243805
0.492554 0.554077 0.223785
0.715179 0.583252 0.267700
0.882782 0.628662 0.322266
0.115997 0.675476 0.302124
0.234833 0.689545 0.276215
0.525024 0.745575 0.282227
0.710083 0.760956 0.291229
0.887238 0.774872 0.335846
0.029144 0.062561 0.303192
0.131348 0.059509 0.303833
0.298828 0.061462 0.297241
0.563873 0.099487 0.329956
0.796356 0.158752 0.387451
0.034637 0.202759 0.321320
0.148468 0.235229 0.357178
0.367126 0.256012 0.361816
0.655487 0.319550 0.419312
0.867523 0.396393 0.499908
0.046265 0.341064 0.345978
0.153595 0.368683 0.373535
0.354706 0.433350 0.437073
0.694763 0.520996 0.495239
0.891296 0.569031 0.552460
0.076935 0.509918 0.402161
0.199982 0.562866 0.449738
0.397278 0.631073 0.506958
0.702759 0.655853 0.483887
0.891876 0.701172 0.542480
0.155548 0.732391 0.510742
0.273987 0.768921 0.541412
0.448761 0.792664 0.537872
0.715271 0.823639 0.494873
0.896606 0.825043 0.497070
0.049805 0.099854 0.440338
0.144043 0.085907 0.436920
0.275146 0.090485 0.436188
0.507385 0.105591 0.439941
0.765533 0.163818 0.490936
0.055939 0.238586 0.465332
0.167145 0.274689 0.513184
0.306458 0.257843 0.500305
0.599670 0.311920 0.519501
0.841125 0.384064 0.598511
0.065338 0.370483 0.489746
0.178986 0.411163 0.533417
0.356873 0.475067 0.603851
0.664551 0.537354 0.627625
0.883789 0.589844 0.692047
0.084259 0.515686 0.525757
0.198700 0.551910 0.565399
0.384216 0.614075 0.631439
0.699249 0.710876 0.685242
0.901611 0.745117 0.719238
0.138977 0.699951 0.605530
0.262238 0.742523 0.649292
0.438110 0.791809 0.690063
0.715942 0.868561 0.715210
0.906708 0.872314 0.699493
0.074219 0.127563 0.577301
0.166565 0.120819 0.578796
0.276978 0.117584 0.592773
0.451569 0.123169 0.583466
0.730682 0.175568 0.606140
0.081848 0.281860 0.622375
0.206604 0.322815 0.681793
0.323395 0.306824 0.666779
0.518555 0.323364 0.653351
0.791534 0.381866 0.696045
0.099304 0.425385 0.661499
0.217255 0.469299 0.712372
0.397888 0.516052 0.761749
0.603088 0.545288 0.775055
0.860443 0.590759 0.791290
0.119202 0.557495 0.696228
0.233368 0.595306 0.737732
0.418945 0.643707 0.780792
0.682129 0.731934 0.833069
0.890808 0.755005 0.839996
0.148621 0.706757 0.738098
0.272858 0.743011 0.770874
0.444061 0.785706 0.807617
0.681244 0.863495 0.854919
0.906586 0.897797 0.863617
