滤镜资源/Professional Luts Collection/Triune-Digital-Cinematic-LUTs/3D LUTs (CUBE)/STANDARD/Inglourious Basterds - Rec709.cube
#Created by Benjamin (IWLTBAP) : http://luts.iwltbap.com
#Copyright: (C) Copyright 2016 Triune Films and IWLTBAP
TITLE "Blockbuster LUTs Pack (Rec.709)"
#LUT size
LUT_3D_SIZE 32
#LUT data points
0.011993 0.011414 0.011932
0.028809 0.011780 0.013916
0.045776 0.012543 0.016052
0.063873 0.013580 0.018341
0.086060 0.015747 0.021881
0.113770 0.020477 0.027527
0.144470 0.026886 0.034668
0.177521 0.033966 0.041748
0.213165 0.039520 0.047119
0.248718 0.043427 0.051361
0.285217 0.047485 0.056885
0.320068 0.053040 0.063538
0.354584 0.058228 0.070099
0.389404 0.063019 0.077118
0.422363 0.068878 0.083496
0.454742 0.074768 0.089355
0.486298 0.080505 0.095886
0.517151 0.086121 0.102264
0.548737 0.091980 0.109253
0.581116 0.097778 0.116730
0.614136 0.104675 0.124908
0.649414 0.112183 0.133911
0.682892 0.119110 0.142303
0.713104 0.126648 0.149963
0.742157 0.133484 0.157318
0.766479 0.139801 0.163696
0.790863 0.146057 0.169861
0.814819 0.152283 0.175415
0.838470 0.158020 0.181091
0.861145 0.163666 0.186462
0.883026 0.169128 0.191345
0.904755 0.174927 0.196899
0.013458 0.029388 0.013611
0.026703 0.028992 0.013153
0.042419 0.030121 0.014343
0.060272 0.032410 0.016418
0.083344 0.035004 0.020203
0.111877 0.040253 0.026459
0.142670 0.045990 0.033691
0.175690 0.052032 0.041107
0.211792 0.057404 0.046661
0.246307 0.061188 0.050476
0.282288 0.065186 0.055969
0.316528 0.070251 0.062988
0.350159 0.075256 0.069550
0.384186 0.079224 0.076080
0.418274 0.084137 0.082703
0.451569 0.089783 0.088623
0.484467 0.095917 0.095398
0.516052 0.102020 0.101898
0.546906 0.108154 0.108704
0.579468 0.114380 0.116272
0.613373 0.121552 0.124817
0.649811 0.128876 0.134094
0.683899 0.136200 0.142944
0.714417 0.143921 0.150818
0.744110 0.151550 0.158081
0.769226 0.158234 0.164490
0.794403 0.165131 0.170746
0.818909 0.172760 0.176544
0.842926 0.178070 0.182312
0.865662 0.183594 0.187714
0.888458 0.189148 0.193420
0.910217 0.195007 0.199249
0.015717 0.050598 0.016937
0.028870 0.050690 0.016571
0.042114 0.050537 0.015656
0.056824 0.051880 0.015442
0.079834 0.054169 0.018738
0.110168 0.058716 0.025299
0.141876 0.064148 0.032745
0.174774 0.069702 0.040100
0.210510 0.075012 0.045563
0.245422 0.078766 0.049286
0.281189 0.082733 0.054382
0.315826 0.087646 0.061584
0.349091 0.092224 0.068420
0.382019 0.096497 0.074768
0.415833 0.101746 0.081482
0.450012 0.108154 0.087738
0.484009 0.114624 0.094757
0.516571 0.120789 0.101501
0.548523 0.127136 0.108795
0.580383 0.133423 0.116394
0.615326 0.141113 0.125427
0.651337 0.148315 0.134827
0.684448 0.155670 0.143677
0.715820 0.163177 0.151611
0.744843 0.171936 0.158630
0.770996 0.179657 0.165100
0.796661 0.187256 0.171295
0.821960 0.193848 0.177307
0.846863 0.198273 0.183777
0.870178 0.203857 0.190002
0.893311 0.209442 0.196014
0.915314 0.215576 0.201843
0.018829 0.074005 0.021545
0.032196 0.074127 0.020782
0.045593 0.074188 0.019714
0.059357 0.074249 0.018768
0.078003 0.074310 0.017639
0.108154 0.077972 0.023376
0.141357 0.082733 0.031403
0.175293 0.088531 0.039093
0.211487 0.093750 0.044647
0.246490 0.097565 0.048370
0.282135 0.101776 0.053772
0.316559 0.106659 0.060913
0.349792 0.111572 0.067139
0.382263 0.116119 0.073334
0.415039 0.120911 0.079773
0.449127 0.127014 0.086243
0.483856 0.133331 0.093506
0.516113 0.139282 0.099823
0.548584 0.145966 0.107574
0.581543 0.152466 0.115417
0.618225 0.160370 0.125610
0.653656 0.167999 0.134949
0.685608 0.176300 0.143158
0.716736 0.185120 0.150452
0.745056 0.193695 0.157196
0.771790 0.200806 0.163940
0.798309 0.208038 0.170593
0.824066 0.214050 0.177185
0.850037 0.218506 0.183990
0.873413 0.223419 0.190460
0.896484 0.230377 0.196289
0.918671 0.237823 0.201996
0.022400 0.097504 0.026093
0.036102 0.097717 0.025452
0.049164 0.097900 0.024567
0.062653 0.098053 0.023376
0.080750 0.096985 0.020630
0.107544 0.098572 0.021484
0.141235 0.102661 0.029419
0.177032 0.107727 0.038055
0.214478 0.112762 0.043701
0.248993 0.116516 0.047577
0.284424 0.121063 0.053284
0.318512 0.125977 0.060333
0.351807 0.130859 0.066315
0.384064 0.135803 0.072235
0.416321 0.140442 0.078583
0.449768 0.146423 0.085266
0.483795 0.152557 0.092224
0.516449 0.158386 0.098694
0.548676 0.165192 0.106476
0.582916 0.172516 0.114807
0.619598 0.181152 0.124908
0.654846 0.190125 0.134216
0.686584 0.199249 0.141754
0.718018 0.207825 0.148987
0.745575 0.216217 0.155670
0.772400 0.223206 0.162415
0.798981 0.229706 0.169495
0.825287 0.236023 0.176483
0.851410 0.241760 0.183533
0.875092 0.247742 0.190033
0.898193 0.254364 0.195801
0.920959 0.262024 0.201660
0.025482 0.119904 0.030243
0.039276 0.120331 0.029877
0.052124 0.121033 0.029419
0.065369 0.121765 0.028809
0.082825 0.121368 0.026459
0.109009 0.121063 0.024414
0.140991 0.122772 0.027161
0.178375 0.127319 0.036285
0.217468 0.132172 0.042877
0.253601 0.136444 0.047302
0.288940 0.140961 0.053406
0.322449 0.145660 0.059967
0.355530 0.150604 0.065735
0.386719 0.155548 0.071533
0.418335 0.160522 0.077423
0.451111 0.166412 0.084076
0.484558 0.172455 0.091248
0.517090 0.178223 0.097809
0.549194 0.184723 0.105530
0.582977 0.192535 0.114044
0.618958 0.200989 0.123505
0.653900 0.210022 0.132538
0.686066 0.219238 0.140137
0.716980 0.227783 0.147156
0.744598 0.235962 0.153961
0.772278 0.242981 0.161255
0.798981 0.249390 0.168457
0.825378 0.256531 0.175415
0.852020 0.263519 0.182678
0.876251 0.270721 0.189087
0.900146 0.278595 0.195251
0.922729 0.285858 0.201263
0.029327 0.142273 0.034210
0.042694 0.143127 0.034058
0.054932 0.143951 0.033752
0.067902 0.145020 0.033386
0.084412 0.145996 0.031830
0.110260 0.145752 0.029388
0.140533 0.143799 0.026886
0.179199 0.147675 0.034851
0.220367 0.151611 0.042236
0.257141 0.155762 0.046753
0.293030 0.160553 0.053314
0.326630 0.165588 0.059540
0.359314 0.170898 0.065460
0.390503 0.175995 0.071136
0.421814 0.181305 0.076996
0.454254 0.186462 0.083801
0.486603 0.192200 0.090485
0.518585 0.198151 0.097229
0.550201 0.204468 0.105011
0.583496 0.212250 0.113342
0.619263 0.220581 0.122803
0.653595 0.229492 0.131378
0.685791 0.238861 0.138702
0.717041 0.247192 0.145874
0.744751 0.255188 0.152893
0.772583 0.262390 0.160217
0.799500 0.269073 0.167603
0.825958 0.276001 0.174866
0.852509 0.283936 0.181946
0.877075 0.292358 0.188293
0.901489 0.300476 0.194672
0.924957 0.308014 0.201172
0.032074 0.164703 0.037933
0.045197 0.165710 0.038086
0.057281 0.167389 0.038391
0.069702 0.168976 0.038391
0.084747 0.170868 0.037292
0.109589 0.172272 0.035645
0.140961 0.168915 0.031036
0.177887 0.168579 0.032928
0.221069 0.172607 0.040955
0.259918 0.175598 0.046112
0.296326 0.180084 0.052795
0.329865 0.185150 0.059082
0.362335 0.190521 0.065125
0.393524 0.196198 0.070984
0.425903 0.201965 0.076843
0.457794 0.206848 0.083679
0.489349 0.212433 0.090149
0.520294 0.218201 0.096863
0.551483 0.224304 0.104492
0.584045 0.231354 0.112701
0.618988 0.239899 0.121704
0.652954 0.248718 0.130035
0.685242 0.257721 0.137390
0.717316 0.266083 0.144867
0.745239 0.273956 0.152130
0.773376 0.281464 0.159607
0.801147 0.288483 0.167389
0.827698 0.296051 0.174561
0.853790 0.304260 0.181549
0.878296 0.312531 0.187927
0.903046 0.320862 0.194427
0.926575 0.329041 0.200897
0.033691 0.187988 0.041809
0.047089 0.188782 0.042053
0.059082 0.190674 0.042389
0.071289 0.192780 0.042511
0.085541 0.195007 0.041382
0.106812 0.197723 0.039337
0.138092 0.196594 0.036072
0.177277 0.193726 0.034210
0.220886 0.193909 0.039612
0.262451 0.196411 0.045319
0.299011 0.199646 0.051910
0.333679 0.205139 0.058441
0.366241 0.211029 0.064636
0.397522 0.216705 0.070709
0.429688 0.222198 0.076965
0.461700 0.227203 0.083862
0.493011 0.232849 0.090271
0.523224 0.238678 0.097107
0.553955 0.244415 0.104645
0.585510 0.250885 0.112274
0.619751 0.259094 0.121033
0.654114 0.268250 0.129578
0.687042 0.277313 0.137207
0.718811 0.285614 0.144714
0.746979 0.293274 0.151855
0.775269 0.300598 0.159607
0.803253 0.308105 0.167542
0.830139 0.316101 0.174774
0.856293 0.324432 0.181610
0.880646 0.332977 0.188080
0.904999 0.341614 0.194519
0.927795 0.349915 0.200714
0.034241 0.210907 0.044861
0.047943 0.211670 0.044861
0.060059 0.213623 0.045319
0.072144 0.215942 0.045349
0.086151 0.218475 0.043762
0.106354 0.221741 0.041718
0.134277 0.222870 0.040436
0.176941 0.218628 0.036926
0.219757 0.217010 0.038269
0.262695 0.218506 0.044434
0.302460 0.220367 0.051697
0.337158 0.225555 0.057953
0.371246 0.231781 0.064545
0.403107 0.237335 0.070679
0.434998 0.242523 0.077545
0.466034 0.247467 0.084290
0.497192 0.253326 0.090881
0.526886 0.259003 0.097961
0.557495 0.264465 0.105316
0.589386 0.270935 0.112976
0.622894 0.279083 0.121216
0.656036 0.287872 0.129364
0.688812 0.296783 0.136993
0.720795 0.305115 0.144714
0.749695 0.312469 0.152222
0.778015 0.319702 0.160004
0.805664 0.327515 0.167725
0.832214 0.335571 0.174805
0.858612 0.344421 0.181793
0.882782 0.352753 0.188110
0.906525 0.361267 0.194275
0.928711 0.369720 0.200195
0.034363 0.233398 0.046844
0.048615 0.234131 0.046814
0.061127 0.235962 0.047058
0.073517 0.238403 0.046570
0.087769 0.241211 0.044891
0.106750 0.244781 0.043396
0.132294 0.247498 0.043152
0.176544 0.244446 0.039703
0.220215 0.243408 0.038940
0.265778 0.241211 0.043884
0.304810 0.242889 0.051147
0.341705 0.246429 0.057892
0.376129 0.252289 0.064758
0.409821 0.257812 0.071625
0.441406 0.263062 0.078796
0.471741 0.268433 0.085388
0.501831 0.273987 0.092010
0.531555 0.279266 0.099060
0.561615 0.284302 0.106140
0.593384 0.291016 0.113647
0.626617 0.299103 0.121582
0.660156 0.307983 0.129883
0.693634 0.316742 0.137817
0.724304 0.324341 0.145233
0.752502 0.331512 0.152588
0.780396 0.338989 0.160217
0.807892 0.347046 0.167786
0.834442 0.355286 0.174805
0.860413 0.364014 0.181702
0.884460 0.372742 0.188049
0.908112 0.380981 0.194092
0.929535 0.389069 0.199677
0.035675 0.255524 0.048035
0.049805 0.255890 0.047791
0.062347 0.257599 0.047974
0.074524 0.260040 0.047607
0.088318 0.263611 0.045868
0.106140 0.267517 0.045471
0.130341 0.270905 0.045593
0.172760 0.270477 0.043213
0.223206 0.268707 0.040833
0.267426 0.266876 0.043427
0.309448 0.265717 0.051453
0.345398 0.268005 0.058228
0.382019 0.273254 0.065887
0.417389 0.278931 0.073547
0.449341 0.284210 0.080902
0.478943 0.289459 0.086975
0.507904 0.294678 0.093658
0.536346 0.298981 0.100281
0.566376 0.304016 0.107239
0.598785 0.310852 0.114655
0.631927 0.319122 0.122681
0.665405 0.327759 0.130798
0.698730 0.336426 0.138733
0.728119 0.343964 0.145996
0.755920 0.351410 0.153442
0.783386 0.358704 0.160858
0.810486 0.366974 0.168091
0.836792 0.375336 0.175018
0.862274 0.383942 0.181854
0.885986 0.392456 0.188049
0.909210 0.400543 0.193878
0.930298 0.408600 0.199280
0.036072 0.277527 0.049377
0.050140 0.277985 0.049286
0.062744 0.279510 0.049622
0.075104 0.281921 0.049377
0.089142 0.285400 0.048035
0.106781 0.289764 0.048126
0.131134 0.293610 0.048309
0.169708 0.295532 0.047668
0.224731 0.293365 0.044006
0.270447 0.291992 0.043671
0.314453 0.289368 0.051910
0.351227 0.290375 0.059326
0.387512 0.294006 0.066803
0.424316 0.300140 0.075165
0.456726 0.305237 0.082581
0.485870 0.310028 0.088745
0.514008 0.314636 0.095215
0.542419 0.318695 0.101776
0.572449 0.323792 0.108582
0.604340 0.330719 0.115814
0.636505 0.338776 0.123535
0.670105 0.347534 0.131653
0.702484 0.356018 0.139496
0.731476 0.363586 0.146759
0.758759 0.371063 0.153992
0.786163 0.378387 0.161133
0.812744 0.386597 0.168182
0.838470 0.394958 0.174988
0.863403 0.403656 0.181702
0.887085 0.412018 0.187775
0.910492 0.420288 0.193787
0.931122 0.428284 0.199280
0.036743 0.299011 0.050964
0.051025 0.299622 0.051331
0.063873 0.301270 0.052216
0.076630 0.303558 0.052734
0.091187 0.307068 0.051575
0.109039 0.311371 0.051758
0.133820 0.315887 0.051971
0.168518 0.318939 0.052216
0.225769 0.318909 0.048889
0.275604 0.317719 0.047791
0.318237 0.315063 0.052612
0.357239 0.313141 0.060699
0.394012 0.316040 0.068268
0.429688 0.320526 0.076385
0.463715 0.326111 0.084167
0.493073 0.330231 0.090668
0.520752 0.334106 0.096680
0.548706 0.338318 0.103058
0.578888 0.343994 0.110107
0.609802 0.350739 0.117126
0.641602 0.358643 0.124603
0.674774 0.367157 0.132568
0.704956 0.375641 0.140045
0.733765 0.383301 0.147400
0.761078 0.390778 0.154388
0.788483 0.398071 0.161469
0.814575 0.406586 0.168457
0.839813 0.414795 0.175110
0.864563 0.423462 0.181641
0.888306 0.432037 0.187714
0.911774 0.440277 0.193909
0.932159 0.448151 0.199677
0.038940 0.320007 0.054718
0.053192 0.320892 0.055481
0.066132 0.322510 0.056458
0.079071 0.324707 0.056732
0.093811 0.328156 0.055298
0.112091 0.332581 0.055359
0.136139 0.337524 0.055084
0.170776 0.341522 0.055450
0.224548 0.342529 0.053406
0.279205 0.342163 0.052399
0.321136 0.339600 0.053467
0.362213 0.337891 0.062347
0.399628 0.337891 0.069733
0.434906 0.341156 0.077759
0.467651 0.345673 0.084961
0.499451 0.350159 0.092072
0.527649 0.354126 0.098145
0.555908 0.358734 0.104736
0.585205 0.364258 0.111420
0.615662 0.370880 0.118469
0.646698 0.378448 0.125702
0.679321 0.387207 0.133667
0.708069 0.395294 0.140930
0.736053 0.402924 0.148041
0.763397 0.410645 0.154999
0.790741 0.418243 0.161957
0.816650 0.426910 0.168945
0.841614 0.435181 0.175476
0.866058 0.444000 0.181885
0.889923 0.452515 0.188080
0.913239 0.460144 0.194397
0.932922 0.467529 0.200470
0.041443 0.340881 0.058472
0.055511 0.341675 0.059143
0.068573 0.343140 0.060089
0.081482 0.345123 0.060486
0.096741 0.348816 0.058990
0.115021 0.353485 0.058685
0.138458 0.358948 0.058533
0.173370 0.363312 0.058807
0.224213 0.365784 0.058105
0.280121 0.366882 0.057434
0.323242 0.364868 0.057129
0.365082 0.362823 0.063568
0.403748 0.359955 0.071014
0.437836 0.361481 0.078186
0.470947 0.364838 0.085388
0.502716 0.369141 0.092499
0.533630 0.374054 0.099304
0.562317 0.378876 0.106049
0.591278 0.384613 0.112671
0.621643 0.391174 0.119659
0.652313 0.398651 0.126984
0.683441 0.406952 0.134827
0.710724 0.414948 0.141846
0.738495 0.422424 0.148651
0.765808 0.430450 0.155518
0.792999 0.438751 0.162537
0.818817 0.447906 0.169647
0.843567 0.456085 0.176178
0.868134 0.464844 0.182770
0.891907 0.473053 0.189240
0.914337 0.480194 0.195251
0.933563 0.487030 0.201904
0.044189 0.361572 0.062714
0.057953 0.362244 0.063293
0.071228 0.363739 0.063995
0.084473 0.365906 0.064117
0.100037 0.369781 0.062927
0.118256 0.374542 0.062775
0.140594 0.380035 0.062195
0.176300 0.384888 0.062378
0.225647 0.388245 0.062317
0.281525 0.390747 0.061951
0.326294 0.390503 0.062714
0.366547 0.387512 0.064697
0.407654 0.383881 0.072327
0.441559 0.382050 0.078644
0.474487 0.384796 0.085754
0.506195 0.388275 0.092865
0.537231 0.393402 0.099823
0.568237 0.399017 0.107239
0.596954 0.404663 0.113831
0.626648 0.411591 0.120789
0.657074 0.419128 0.128265
0.686951 0.427246 0.136169
0.713654 0.434692 0.142731
0.741211 0.442383 0.149353
0.768188 0.451111 0.156097
0.795166 0.459686 0.163147
0.821045 0.468903 0.170410
0.845642 0.477386 0.177063
0.870178 0.485779 0.183777
0.893799 0.493439 0.190430
0.915192 0.500214 0.197113
0.934265 0.506897 0.204254
0.046997 0.382172 0.066833
0.060608 0.383026 0.067444
0.074005 0.384735 0.068176
0.087433 0.386719 0.068359
0.103302 0.390625 0.067322
0.121185 0.395264 0.066833
0.143677 0.401245 0.066345
0.176422 0.406067 0.066193
0.226074 0.409729 0.066132
0.283447 0.414093 0.066681
0.329346 0.415161 0.067749
0.368805 0.413147 0.067474
0.410950 0.408722 0.073944
0.445526 0.405060 0.079681
0.478027 0.405243 0.086090
0.509491 0.407990 0.093079
0.540802 0.412750 0.100220
0.572479 0.418945 0.107849
0.602722 0.425232 0.115082
0.631622 0.431885 0.122009
0.661469 0.439606 0.129639
0.689697 0.447296 0.137177
0.716858 0.454956 0.143799
0.743805 0.462769 0.149902
0.770721 0.471710 0.156799
0.797516 0.480957 0.163940
0.823212 0.490112 0.171204
0.847717 0.498291 0.178101
0.871948 0.505859 0.184875
0.895447 0.513062 0.191498
0.916168 0.519775 0.198669
0.935181 0.526123 0.206329
0.049927 0.402863 0.071259
0.063446 0.404053 0.071991
0.077179 0.405823 0.072693
0.090759 0.408081 0.072968
0.107056 0.412140 0.072479
0.124115 0.416290 0.071167
0.146515 0.422485 0.070740
0.179443 0.427826 0.070282
0.227112 0.431274 0.069977
0.285858 0.437042 0.071106
0.333801 0.439819 0.073120
0.375061 0.439240 0.073334
0.413391 0.434998 0.076263
0.450958 0.430603 0.081482
0.483002 0.428040 0.087219
0.514069 0.429016 0.093689
0.545013 0.432953 0.100891
0.576385 0.438965 0.108398
0.606720 0.445709 0.116028
0.636749 0.453033 0.123840
0.665863 0.460358 0.131378
0.693146 0.467926 0.138214
0.719788 0.475739 0.144470
0.746643 0.483917 0.150574
0.773132 0.492828 0.157532
0.800293 0.502319 0.165131
0.825989 0.511261 0.172699
0.850098 0.519043 0.179443
0.873749 0.525665 0.185974
0.896820 0.532318 0.192810
0.917145 0.539215 0.200592
0.936340 0.545471 0.208710
0.053040 0.423737 0.075806
0.066345 0.424927 0.076447
0.080444 0.426819 0.077301
0.094513 0.429504 0.077820
0.110657 0.433533 0.077332
0.127167 0.437317 0.075592
0.150757 0.444061 0.075012
0.185181 0.449951 0.075012
0.232513 0.453217 0.074280
0.291321 0.460052 0.076019
0.339966 0.464539 0.078918
0.382233 0.465149 0.078888
0.416565 0.463318 0.079620
0.455231 0.458740 0.084595
0.488708 0.453552 0.089142
0.519775 0.452545 0.095184
0.550171 0.455566 0.102448
0.580200 0.460266 0.109528
0.610260 0.466797 0.117279
0.640167 0.473816 0.125061
0.669403 0.481567 0.132538
0.696167 0.489075 0.138641
0.722717 0.496643 0.144958
0.749329 0.505280 0.151428
0.775970 0.514587 0.158783
0.802917 0.523834 0.166443
0.828918 0.532288 0.174347
0.853058 0.539551 0.181122
0.876343 0.545746 0.187592
0.898438 0.551636 0.194702
0.918243 0.558563 0.203278
0.937653 0.565002 0.211456
0.056305 0.444641 0.080322
0.069397 0.445770 0.080872
0.083710 0.447845 0.081726
0.098297 0.451050 0.082581
0.114258 0.454926 0.082581
0.130829 0.458832 0.080780
0.155731 0.466522 0.079956
0.191742 0.473419 0.080048
0.241058 0.475342 0.078796
0.297241 0.482513 0.080719
0.347870 0.488861 0.084045
0.388428 0.491669 0.084961
0.422668 0.491272 0.086151
0.458282 0.487518 0.088806
0.494507 0.481842 0.092133
0.524933 0.479340 0.097839
0.554474 0.479126 0.104065
0.583954 0.483215 0.111298
0.613190 0.488495 0.118591
0.643127 0.495392 0.126282
0.671204 0.502075 0.133148
0.698669 0.510162 0.139343
0.725494 0.518280 0.145691
0.752014 0.526611 0.152435
0.779358 0.535919 0.160522
0.806091 0.544647 0.168488
0.831635 0.552734 0.176117
0.855682 0.559723 0.182709
0.878204 0.565552 0.189453
0.900146 0.571655 0.197083
0.919586 0.578430 0.205841
0.938812 0.584717 0.213531
0.059479 0.465240 0.084625
0.072601 0.466583 0.085205
0.087036 0.469147 0.086365
0.102203 0.472809 0.087463
0.118469 0.476929 0.087738
0.135925 0.481232 0.085968
0.161133 0.489410 0.084869
0.198914 0.497253 0.085175
0.250824 0.498230 0.083557
0.302734 0.504486 0.085266
0.355804 0.512573 0.089172
0.395599 0.516541 0.090759
0.429749 0.518219 0.093201
0.460999 0.517120 0.094452
0.497192 0.511597 0.097351
0.529755 0.507538 0.102234
0.558319 0.507111 0.107849
0.586426 0.507568 0.113464
0.615723 0.512512 0.120422
0.645081 0.518066 0.127411
0.672729 0.524597 0.133972
0.700043 0.531372 0.139801
0.728271 0.539673 0.146912
0.755676 0.548309 0.154633
0.783051 0.557251 0.162903
0.809326 0.565674 0.170502
0.833923 0.573059 0.177490
0.857269 0.579926 0.184082
0.879608 0.586060 0.191559
0.901154 0.592194 0.199768
0.920654 0.598511 0.208466
0.939728 0.604828 0.215424
0.062683 0.486481 0.089325
0.076019 0.487854 0.089813
0.090454 0.490479 0.091003
0.105988 0.494415 0.092529
0.122955 0.499207 0.093567
0.140961 0.503998 0.092712
0.165894 0.511230 0.089600
0.207611 0.521362 0.090912
0.258545 0.522125 0.089233
0.309204 0.526642 0.089996
0.360260 0.534790 0.093658
0.403625 0.540070 0.096375
0.436584 0.543488 0.099548
0.466522 0.544281 0.101288
0.497681 0.542480 0.102600
0.532288 0.538666 0.107483
0.562836 0.536896 0.112579
0.590271 0.536682 0.117493
0.618835 0.538208 0.122833
0.648102 0.543213 0.129517
0.675507 0.547791 0.135193
0.703644 0.554352 0.141479
0.730988 0.561310 0.148468
0.759369 0.570343 0.156860
0.786499 0.579315 0.165070
0.811890 0.587219 0.172241
0.835541 0.593872 0.178680
0.858398 0.600586 0.185242
0.880554 0.607056 0.193573
0.901978 0.613312 0.202209
0.921295 0.619080 0.210358
0.940186 0.625275 0.216949
0.066467 0.507935 0.094757
0.079926 0.509491 0.095154
0.094482 0.512482 0.096588
0.109924 0.516571 0.098175
0.127625 0.521515 0.099426
0.145966 0.526123 0.098877
0.171265 0.533661 0.095428
0.217804 0.545532 0.097198
0.266632 0.546997 0.095520
0.316956 0.549713 0.095367
0.365936 0.557556 0.098480
0.409332 0.563416 0.101990
0.443787 0.568054 0.105377
0.472504 0.572021 0.108185
0.500488 0.572693 0.110046
0.531403 0.571136 0.112610
0.564758 0.568542 0.117462
0.594360 0.568542 0.122833
0.623291 0.568848 0.127625
0.651672 0.570343 0.132812
0.679688 0.574799 0.138214
0.707764 0.579590 0.144104
0.735565 0.586273 0.151306
0.761963 0.593079 0.158722
0.788544 0.601440 0.166382
0.813812 0.609558 0.173370
0.836853 0.615753 0.180115
0.859192 0.622192 0.187439
0.880951 0.628876 0.196259
0.902313 0.634979 0.204742
0.921967 0.640381 0.212158
0.940796 0.645874 0.218384
0.070374 0.529602 0.100433
0.083954 0.531219 0.100800
0.098602 0.534485 0.102325
0.114105 0.538452 0.104095
0.132355 0.543549 0.105560
0.151123 0.548431 0.105438
0.178467 0.555908 0.102448
0.224518 0.569794 0.103333
0.277130 0.573120 0.102112
0.324402 0.574249 0.101288
0.373291 0.581787 0.104156
0.416229 0.588409 0.108154
0.450745 0.594452 0.111847
0.478546 0.600433 0.115417
0.504761 0.603851 0.118591
0.531647 0.606415 0.121246
0.561554 0.604370 0.122742
0.594879 0.602325 0.128265
0.624786 0.602661 0.132996
0.654022 0.602295 0.137207
0.682678 0.603363 0.141541
0.710632 0.607391 0.147095
0.737823 0.611572 0.153290
0.763977 0.617737 0.160339
0.789001 0.624115 0.166992
0.814575 0.632385 0.174072
0.837891 0.638702 0.182068
0.860046 0.644562 0.190155
0.881683 0.650909 0.199066
0.902588 0.656647 0.206848
0.922729 0.661591 0.213959
0.941284 0.666840 0.219879
0.074402 0.551788 0.106506
0.088257 0.553436 0.106812
0.103394 0.556885 0.108582
0.119415 0.561096 0.110413
0.138428 0.566193 0.112366
0.158173 0.571472 0.112335
0.186554 0.579590 0.109192
0.230103 0.594849 0.109955
0.287720 0.600922 0.109711
0.333923 0.600647 0.108124
0.381409 0.607635 0.111115
0.422974 0.615417 0.115173
0.456482 0.621765 0.118774
0.484283 0.628174 0.122742
0.510040 0.633484 0.126831
0.536774 0.638062 0.130798
0.563690 0.640656 0.133453
0.592133 0.638763 0.133453
0.624298 0.636047 0.137878
0.654602 0.635651 0.141937
0.683838 0.634949 0.145203
0.711884 0.636078 0.149384
0.738922 0.640076 0.155334
0.765259 0.644287 0.161743
0.790466 0.649506 0.168640
0.814819 0.655182 0.175232
0.838074 0.661133 0.184631
0.860901 0.667664 0.193695
0.882385 0.673340 0.201996
0.903351 0.678711 0.209167
0.923492 0.683533 0.216003
0.941956 0.688324 0.221649
0.079590 0.574524 0.113220
0.093597 0.575989 0.113525
0.108948 0.579590 0.115295
0.125519 0.584381 0.117065
0.145355 0.590332 0.119476
0.167755 0.596863 0.119781
0.196472 0.606354 0.115112
0.240356 0.621490 0.117218
0.295288 0.628235 0.117493
0.342682 0.628021 0.115753
0.389954 0.634369 0.118408
0.429871 0.642914 0.122650
0.462158 0.649323 0.125854
0.489899 0.655182 0.129974
0.515930 0.661774 0.134949
0.542511 0.667664 0.139221
0.568939 0.672119 0.142761
0.594971 0.674255 0.144287
0.621735 0.671661 0.142456
0.653778 0.668365 0.146118
0.683685 0.667725 0.149353
0.712372 0.667389 0.152740
0.739532 0.668610 0.157745
0.765656 0.672089 0.163422
0.790680 0.675446 0.170868
0.814697 0.679657 0.177917
0.837433 0.684265 0.187073
0.860840 0.690338 0.196442
0.883148 0.695953 0.204773
0.904175 0.701447 0.211731
0.924469 0.706421 0.218201
0.942993 0.711212 0.223694
0.085266 0.597839 0.120392
0.099518 0.599701 0.120667
0.114990 0.603455 0.122467
0.132233 0.609100 0.124664
0.153961 0.616547 0.127075
0.178070 0.624115 0.126343
0.208405 0.636719 0.119324
0.255157 0.648621 0.124207
0.304413 0.654572 0.125244
0.351501 0.655975 0.123718
0.396606 0.661713 0.125397
0.436066 0.669647 0.129333
0.467957 0.676056 0.132935
0.495331 0.682404 0.137390
0.521576 0.689178 0.142395
0.547729 0.695740 0.146912
0.573547 0.701233 0.150452
