滤镜资源/Professional Luts Collection/Triune-Digital-Cinematic-LUTs/3D LUTs (CUBE)/STANDARD/Interstellar - Rec709.cube
#Created by Benjamin (IWLTBAP) : http://luts.iwltbap.com
#Copyright: (C) Copyright 2016 Triune Films and IWLTBAP
TITLE "Blockbuster LUTs Pack (Rec.709)"
#LUT size
LUT_3D_SIZE 8
#LUT data points
DOMAIN_MIN 0.000000 0.000000 0.000000
DOMAIN_MAX 0.903226 0.903226 0.903226
0.000000 0.000000 0.018158
0.042694 0.032074 0.029968
0.147095 0.084229 0.056915
0.257294 0.130157 0.081390
0.368805 0.183533 0.127228
0.497833 0.230713 0.189575
0.613129 0.278534 0.247314
0.718964 0.331055 0.291321
0.000000 0.087433 0.020264
0.040649 0.095154 0.028748
0.166870 0.112610 0.052277
0.273743 0.163116 0.079163
0.389557 0.209595 0.127594
0.514130 0.255493 0.185150
0.625763 0.304413 0.235535
0.728394 0.355896 0.278290
0.000000 0.186523 0.008820
0.037445 0.210327 0.000000
0.188385 0.190796 0.057709
0.314209 0.209381 0.078583
0.450714 0.264374 0.139008
0.563416 0.320465 0.181580
0.664124 0.379669 0.217316
0.755615 0.443695 0.243835
0.000000 0.271851 0.004333
0.033569 0.299896 0.000000
0.196655 0.294159 0.016144
0.341400 0.298523 0.102142
0.495026 0.322510 0.134644
0.619080 0.380188 0.184448
0.711395 0.439301 0.214264
0.791199 0.507080 0.228882
0.000000 0.346863 0.021271
0.066223 0.379120 0.000000
0.217651 0.399384 0.000000
0.381897 0.438232 0.062561
0.525269 0.445160 0.134460
0.636780 0.455139 0.154877
0.732117 0.500153 0.185089
0.814484 0.569031 0.202881
0.000000 0.437347 0.000000
0.103363 0.464539 0.000000
0.238495 0.482849 0.000000
0.358734 0.525635 0.000000
0.524902 0.589874 0.091858
0.652191 0.609406 0.177246
0.745056 0.597443 0.189056
0.823151 0.627625 0.208374
0.021637 0.506683 0.036896
0.134827 0.531677 0.012115
0.267548 0.554382 0.019104
0.379211 0.600464 0.000000
0.492035 0.675659 0.000000
0.605103 0.736694 0.000000
0.744293 0.766998 0.208221
0.818787 0.725281 0.221832
0.000000 0.654907 0.000000
0.139648 0.659576 0.000000
0.246368 0.701752 0.000000
0.379364 0.772766 0.000000
0.489929 0.815704 0.000000
0.575226 0.847137 0.000000
0.649048 0.875580 0.000000
0.822937 0.891602 0.215149
0.000000 0.043060 0.077637
0.080902 0.055298 0.090637
0.181610 0.092712 0.101440
0.293243 0.123932 0.115509
0.390411 0.171234 0.151093
0.507965 0.224152 0.207397
0.616608 0.275330 0.256775
0.717987 0.324402 0.299835
0.000000 0.084534 0.098511
0.043518 0.092560 0.109528
0.172363 0.137268 0.118011
0.289368 0.176910 0.114746
0.401337 0.210541 0.134552
0.520935 0.248688 0.194366
0.628052 0.296021 0.243622
0.729034 0.347321 0.285156
0.000000 0.200165 0.091797
0.000000 0.221313 0.079590
0.197021 0.205444 0.099792
0.319824 0.222839 0.103668
0.435364 0.272949 0.124359
0.545410 0.321777 0.168701
0.648346 0.374115 0.209625
0.743561 0.426758 0.245544
0.000000 0.275238 0.047272
0.000000 0.310760 0.032623
0.196136 0.314362 0.048401
0.355652 0.317291 0.130981
0.504944 0.335876 0.132812
0.613525 0.390289 0.173431
0.699799 0.446442 0.200867
0.777252 0.513275 0.213196
0.000000 0.342346 0.057892
0.000000 0.404572 0.000000
0.213379 0.415710 0.021637
0.375946 0.450745 0.038483
0.529907 0.463531 0.137665
0.641663 0.469482 0.156830
0.734650 0.513062 0.180756
0.808075 0.578552 0.202057
0.000000 0.399567 0.094360
0.059174 0.475067 0.000000
0.232941 0.491394 0.021179
0.369019 0.531830 0.002930
0.525330 0.600922 0.073761
0.652252 0.620361 0.177246
0.745728 0.606598 0.189880
0.823395 0.637054 0.209198
0.000000 0.503357 0.104279
0.114044 0.528809 0.048676
0.255280 0.554535 0.043182
0.389160 0.600525 0.024536
0.491211 0.683777 0.000000
0.602783 0.742126 0.000000
0.742554 0.766846 0.207916
0.818848 0.731415 0.222656
0.000000 0.622772 0.098969
0.098969 0.693298 0.000000
0.233917 0.696075 0.000000
0.367065 0.753906 0.000000
0.486328 0.821777 0.000000
0.574310 0.850616 0.000000
0.647522 0.873352 0.000000
0.823059 0.889954 0.216675
0.000000 0.099060 0.153198
0.042694 0.100342 0.160126
0.227478 0.137909 0.165405
0.341400 0.173248 0.180237
0.468750 0.217926 0.209534
0.564880 0.254608 0.227325
0.645203 0.295349 0.259583
0.734650 0.339569 0.296936
0.000000 0.109436 0.156097
0.021271 0.137268 0.187531
0.228424 0.161102 0.188385
0.347748 0.191956 0.196411
0.472870 0.227356 0.214783
0.583557 0.264893 0.236145
0.650055 0.302246 0.256927
0.736664 0.343231 0.294922
0.000000 0.194214 0.194397
0.000000 0.218140 0.216064
0.170319 0.228546 0.247375
0.335938 0.263641 0.241913
0.466888 0.279053 0.239258
0.578857 0.299408 0.246185
0.675751 0.336548 0.259247
0.752167 0.393768 0.271454
0.000000 0.343750 0.260773
0.000000 0.331299 0.205322
0.097290 0.365479 0.167999
0.362885 0.351776 0.227631
0.505127 0.363312 0.222168
0.609528 0.413971 0.235901
0.692169 0.463562 0.244385
0.772675 0.516876 0.240814
0.000000 0.400391 0.222687
0.000000 0.379028 0.177765
0.143799 0.448914 0.103302
0.367706 0.468048 0.125000
0.534851 0.489014 0.220581
0.639069 0.488037 0.177856
0.715790 0.531738 0.177673
0.789185 0.592560 0.198517
0.000000 0.433319 0.225647
0.000000 0.406677 0.170044
0.191528 0.517700 0.088440
0.375671 0.539825 0.120575
0.528687 0.619751 0.062073
0.648865 0.637115 0.175812
0.738281 0.614685 0.189362
0.819183 0.649933 0.209229
0.000000 0.447510 0.239685
0.000000 0.477020 0.198547
0.228027 0.571960 0.106964
0.390106 0.602081 0.108795
0.514648 0.685303 0.049011
0.599823 0.754272 0.000000
0.743073 0.767700 0.208099
0.818817 0.731262 0.222656
0.000000 0.592834 0.206390
0.000000 0.635986 0.172180
0.176758 0.786407 0.000000
0.358093 0.784241 0.000000
0.483917 0.817444 0.000000
0.579163 0.856903 0.000000
0.648254 0.878235 0.000000
0.823456 0.887238 0.218964
0.000000 0.156128 0.231201
0.028870 0.153625 0.229584
0.200867 0.163452 0.258514
0.388824 0.228760 0.244354
0.512878 0.258423 0.259064
0.620270 0.298248 0.286163
0.706543 0.339264 0.315247
0.784302 0.373260 0.333801
0.000000 0.163361 0.235809
0.000000 0.183014 0.263062
0.149719 0.177979 0.294434
0.391571 0.244629 0.261322
0.516815 0.271820 0.273956
0.624054 0.308624 0.298248
0.709808 0.347778 0.325470
0.787598 0.380127 0.341339
0.000000 0.204620 0.259430
0.000000 0.234131 0.291565
0.097046 0.254944 0.333313
0.386719 0.290100 0.307831
0.517731 0.314423 0.317444
0.622864 0.337616 0.328552
0.709229 0.366516 0.343567
0.793091 0.399414 0.358093
0.000000 0.305573 0.309204
0.000000 0.338623 0.332764
0.002777 0.373230 0.370300
0.337067 0.383911 0.396942
0.510132 0.411652 0.396576
0.626923 0.436829 0.403198
0.717407 0.455933 0.403961
0.802765 0.492767 0.406097
0.000000 0.455811 0.387543
0.000000 0.492920 0.403229
0.000000 0.478973 0.361938
0.300293 0.502014 0.303558
0.543518 0.523499 0.371826
0.660522 0.529968 0.388245
0.745667 0.579224 0.402344
0.820068 0.627808 0.408600
0.000000 0.565735 0.426666
0.000000 0.526978 0.368408
0.000000 0.511963 0.326477
0.332703 0.576843 0.246613
0.533997 0.628204 0.248077
0.672119 0.654297 0.351410
0.764130 0.633942 0.359802
0.836884 0.678528 0.373169
0.000000 0.564270 0.394379
0.000000 0.534119 0.359650
0.054779 0.532898 0.316772
0.364258 0.625824 0.227264
0.529053 0.681244 0.232880
0.647095 0.764679 0.178314
0.755463 0.775879 0.287201
0.837158 0.740021 0.303436
0.000000 0.683167 0.382050
0.000000 0.672089 0.334198
0.000000 0.679321 0.254944
0.308105 0.834930 0.110687
0.501831 0.836884 0.129181
0.623077 0.862640 0.166199
0.707764 0.888245 0.102509
0.823090 0.887024 0.218994
0.000000 0.212830 0.307770
0.001221 0.208435 0.300568
0.143738 0.208771 0.330017
0.363892 0.272614 0.296448
0.560333 0.307098 0.298218
0.651672 0.334808 0.315704
0.726410 0.371002 0.339691
0.798859 0.413605 0.367096
0.000000 0.218384 0.316315
0.000000 0.231659 0.334961
0.119843 0.228302 0.341583
0.366089 0.281311 0.314240
0.560242 0.317047 0.312927
0.651184 0.343231 0.329132
0.728851 0.381378 0.354431
0.803619 0.424103 0.382782
0.000000 0.241913 0.325043
0.000000 0.265472 0.354919
0.066376 0.289124 0.405457
0.327423 0.279327 0.406464
0.558319 0.354919 0.360046
0.648743 0.372070 0.367889
0.731506 0.408173 0.391815
0.809418 0.446533 0.418060
0.000000 0.299927 0.370209
0.000000 0.336243 0.406860
0.000000 0.366364 0.451447
0.248444 0.383728 0.498932
0.547363 0.430603 0.442169
0.655060 0.454651 0.455811
0.739410 0.472992 0.464478
0.817413 0.490570 0.466827
0.000000 0.417206 0.435089
0.000000 0.452881 0.454285
0.000000 0.491455 0.492340
0.190643 0.528870 0.541565
0.542053 0.539276 0.545715
0.666840 0.573944 0.561188
0.764801 0.603821 0.571533
0.842773 0.620056 0.563599
0.000000 0.567719 0.516022
0.000000 0.602325 0.529114
0.000000 0.642242 0.561554
0.110107 0.622772 0.525635
0.514191 0.640533 0.477417
0.690430 0.679199 0.517029
0.788513 0.687531 0.556244
0.862762 0.730377 0.571320
0.000000 0.711121 0.616486
0.000000 0.690521 0.576477
0.000000 0.648071 0.517273
0.185394 0.629852 0.478363
0.522095 0.697174 0.415436
0.671478 0.762024 0.427734
0.787018 0.791382 0.473175
0.874054 0.768280 0.516266
0.000000 0.780670 0.580841
0.000000 0.761475 0.511475
0.000000 0.756592 0.465607
0.027710 0.830933 0.380127
0.471039 0.875946 0.301147
0.641724 0.873047 0.358856
0.751007 0.893311 0.363922
0.866852 0.894379 0.438843
0.000000 0.261658 0.376801
0.000000 0.258087 0.367096
0.124329 0.252960 0.366852
0.371643 0.300110 0.353851
0.528320 0.343903 0.342285
0.676971 0.381256 0.331116
0.747192 0.411072 0.359924
0.809265 0.441528 0.406372
0.000000 0.266083 0.389618
0.000000 0.275177 0.402161
0.099640 0.272522 0.393524
0.329407 0.281158 0.405609
0.523468 0.358337 0.364532
0.678009 0.389557 0.348450
0.747894 0.418152 0.384247
0.813171 0.450592 0.429749
0.000000 0.279327 0.388336
0.000000 0.294861 0.412323
0.002655 0.317200 0.463196
0.233582 0.304199 0.472687
0.512268 0.388885 0.410034
0.676941 0.412720 0.405975
0.747406 0.439301 0.434906
0.818970 0.480957 0.484406
0.000000 0.330353 0.436096
0.000000 0.363098 0.472839
0.000000 0.383911 0.511688
0.198883 0.399078 0.575134
0.535065 0.426025 0.504974
0.676727 0.481354 0.505157
0.752777 0.511444 0.531158
0.827972 0.544800 0.566040
0.000000 0.400665 0.493500
0.000000 0.438812 0.533417
0.000000 0.472015 0.580414
0.167236 0.496246 0.627289
0.438812 0.517181 0.674347
0.690002 0.577362 0.608521
0.773926 0.612274 0.632935
0.848694 0.625977 0.637360
0.000000 0.527069 0.574554
0.000000 0.556885 0.586182
0.000000 0.592560 0.621155
0.010101 0.628510 0.669373
0.396423 0.660797 0.707764
0.704895 0.692963 0.688446
0.801453 0.717072 0.703217
0.878296 0.734528 0.706482
0.000000 0.672577 0.657562
0.000000 0.702240 0.669708
0.000000 0.741333 0.692993
0.000000 0.771515 0.721436
0.337036 0.746124 0.673676
0.693542 0.765350 0.631287
0.815735 0.812347 0.642151
0.899231 0.816315 0.692200
0.000000 0.817474 0.757629
0.000000 0.845154 0.770020
0.000000 0.846527 0.725220
0.000000 0.836121 0.647614
0.280914 0.879120 0.576874
0.641144 0.898041 0.513794
0.779755 0.898132 0.552155
0.891449 0.905090 0.575256
0.000000 0.307556 0.444550
0.000000 0.306427 0.432465
0.107117 0.303467 0.418671
0.280396 0.312347 0.440674
0.512939 0.391083 0.392853
0.658508 0.417938 0.401672
0.768341 0.450531 0.441376
0.827332 0.488251 0.496887
0.000000 0.311554 0.463684
0.000000 0.319794 0.471313
0.071808 0.317444 0.450745
0.239319 0.317078 0.463043
0.504791 0.400574 0.413544
0.655884 0.429321 0.432526
0.770233 0.467316 0.475800
0.825958 0.499420 0.520935
0.000000 0.323669 0.461945
0.000000 0.334839 0.482697
0.000000 0.349091 0.527435
0.191833 0.350311 0.523346
0.515778 0.404663 0.467682
0.644104 0.455078 0.487701
0.766235 0.492096 0.529236
0.826202 0.521088 0.562500
0.000000 0.368866 0.507904
0.000000 0.395844 0.546112
0.000000 0.403625 0.571075
0.128967 0.413483 0.641113
0.391998 0.381317 0.640839
0.684357 0.478729 0.578094
0.776978 0.537842 0.605255
0.837006 0.570129 0.627991
0.000000 0.426117 0.572083
0.000000 0.459564 0.613312
0.000000 0.485199 0.652679
0.101044 0.501129 0.693176
0.360382 0.517487 0.767090
0.678589 0.540497 0.718903
0.824005 0.596771 0.690857
0.859009 0.648590 0.704437
0.000000 0.509094 0.650116
0.000000 0.544556 0.684967
0.000000 0.571167 0.718475
0.000000 0.590179 0.752533
0.345123 0.610596 0.782745
0.633484 0.651245 0.799744
0.831787 0.704407 0.759613
0.882874 0.738678 0.770233
0.000000 0.628082 0.724976
0.000000 0.652405 0.731781
0.000000 0.678711 0.753845
0.000000 0.707977 0.784973
0.277893 0.741638 0.813812
0.609802 0.783752 0.822968
0.835083 0.822174 0.812195
0.909729 0.835297 0.820496
0.000000 0.757965 0.807220
0.000000 0.789734 0.811951
0.000000 0.827728 0.823608
0.000000 0.866425 0.839478
0.031616 0.898712 0.849091
0.505829 0.905579 0.780212
0.806946 0.916351 0.733337
0.919922 0.921539 0.750946
0.000000 0.363098 0.524078
0.000000 0.364319 0.508575
0.076050 0.363464 0.487488
0.239746 0.371521 0.477325
0.506287 0.439545 0.459076
0.639557 0.475983 0.501343
0.753387 0.509460 0.550934
0.844757 0.544739 0.616302
0.000000 0.367584 0.550293
0.000000 0.372223 0.555634
0.019775 0.372406 0.527954
0.203461 0.370483 0.507263
0.518433 0.421112 0.496094
0.642639 0.476776 0.524048
0.754944 0.514404 0.574310
0.852386 0.547852 0.638245
0.000000 0.375671 0.553497
0.000000 0.382690 0.574036
0.000000 0.392792 0.615967
0.150421 0.395569 0.595184
0.375214 0.360413 0.622864
0.688507 0.451385 0.592682
0.786957 0.504883 0.618713
0.886566 0.542847 0.678802
0.000000 0.410187 0.594727
0.000000 0.430847 0.630585
0.000000 0.429321 0.644287
0.036987 0.438324 0.714294
0.285950 0.417664 0.745056
0.632080 0.455170 0.730560
0.841675 0.501129 0.710114
0.958374 0.533691 0.746246
0.000000 0.463379 0.664307
0.000000 0.495239 0.705566
0.000000 0.511902 0.735474
0.000000 0.512939 0.755615
0.252777 0.521820 0.825714
0.517151 0.489258 0.827484
0.836945 0.574585 0.808197
0.975098 0.593750 0.814392
0.000000 0.528320 0.735016
0.000000 0.560425 0.767944
0.000000 0.581665 0.790619
0.000000 0.593170 0.811249
0.250336 0.603088 0.835876
0.540039 0.631042 0.879456
0.804504 0.669769 0.851959
0.967804 0.690918 0.854065
0.000000 0.609650 0.799866
0.000000 0.640411 0.821655
0.000000 0.658112 0.837738
0.000000 0.670288 0.851868
0.221893 0.682953 0.866516
0.528931 0.719666 0.883850
0.796295 0.788300 0.880768
0.936646 0.815033 0.878235
0.000000 0.717804 0.858887
0.000000 0.737244 0.863708
0.000000 0.759552 0.874268
0.000000 0.783661 0.887695
0.056366 0.811615 0.901093
0.476227 0.848175 0.910889
0.774231 0.893951 0.909637
0.934509 0.929993 0.907928
