滤镜资源/Professional Luts Collection/Triune-Digital-Cinematic-LUTs/3D LUTs (CUBE)/STANDARD/Interstellar - Rec709.cube
#Created by Benjamin (IWLTBAP) : http://luts.iwltbap.com
#Copyright: (C) Copyright 2016 Triune Films and IWLTBAP
TITLE "Blockbuster LUTs Pack (Rec.709)"
#LUT size
LUT_3D_SIZE 32
#LUT data points
0.000000 0.000000 0.018158
0.000000 0.003693 0.020081
0.000000 0.012329 0.022400
0.015747 0.021606 0.025208
0.042694 0.032074 0.029968
0.068298 0.045105 0.036499
0.094452 0.058411 0.043976
0.120483 0.072235 0.051147
0.147095 0.084229 0.056915
0.174194 0.096130 0.062531
0.201416 0.107239 0.068207
0.229614 0.118591 0.074158
0.257294 0.130157 0.081390
0.281830 0.144226 0.089539
0.306976 0.158783 0.099396
0.337555 0.172028 0.112885
0.368805 0.183533 0.127228
0.400726 0.195007 0.142303
0.433350 0.207123 0.158020
0.465759 0.219116 0.173645
0.497833 0.230713 0.189575
0.528137 0.242950 0.205017
0.557495 0.254822 0.219543
0.585968 0.266479 0.233978
0.613129 0.278534 0.247314
0.640717 0.291931 0.259155
0.667755 0.305084 0.270599
0.693451 0.317963 0.281097
0.718964 0.331055 0.291321
0.743561 0.344055 0.300537
0.767487 0.357391 0.308990
0.790131 0.370148 0.317017
0.000000 0.017090 0.015503
0.000000 0.017639 0.019470
0.000000 0.019928 0.019775
0.016235 0.029785 0.025574
0.043732 0.038483 0.031403
0.069031 0.048737 0.037323
0.094727 0.058197 0.043976
0.121307 0.070068 0.050903
0.148010 0.082062 0.056885
0.175568 0.094971 0.062714
0.203033 0.107452 0.068420
0.231201 0.119263 0.074677
0.259033 0.131073 0.081879
0.283234 0.143921 0.090332
0.309235 0.156647 0.101746
0.339569 0.169556 0.115326
0.370575 0.181671 0.129364
0.402283 0.193970 0.143982
0.434601 0.206665 0.159088
0.466827 0.219147 0.174500
0.498413 0.231110 0.189789
0.529022 0.243622 0.204956
0.558258 0.255737 0.219208
0.586578 0.268066 0.232941
0.614166 0.281189 0.245178
0.641937 0.294434 0.257141
0.668396 0.307495 0.268311
0.694458 0.320435 0.279114
0.720062 0.333740 0.289398
0.744629 0.347046 0.298553
0.768311 0.360077 0.307098
0.790771 0.372986 0.314880
0.000000 0.037384 0.018646
0.000000 0.037598 0.022675
0.000000 0.038239 0.026031
0.021301 0.038452 0.020081
0.049469 0.046265 0.028168
0.073212 0.059082 0.036346
0.097748 0.071106 0.043976
0.124115 0.081573 0.052002
0.151306 0.091187 0.057861
0.179108 0.100281 0.063385
0.207092 0.109711 0.069031
0.235504 0.120361 0.075958
0.263489 0.131866 0.083588
0.286896 0.144836 0.092346
0.313812 0.158142 0.104187
0.344482 0.171051 0.117645
0.375031 0.183624 0.131348
0.406433 0.196350 0.145325
0.438385 0.209259 0.160217
0.470245 0.221832 0.175110
0.501434 0.234131 0.189819
0.531494 0.246490 0.204651
0.560455 0.259247 0.217865
0.588440 0.272400 0.230499
0.616028 0.285431 0.242767
0.643280 0.298523 0.254517
0.670166 0.311493 0.265869
0.696228 0.324493 0.276733
0.721405 0.337738 0.286743
0.745941 0.351227 0.295959
0.769958 0.364380 0.304596
0.792084 0.377411 0.312103
0.000000 0.061340 0.020172
0.000000 0.062195 0.023987
0.000000 0.067810 0.028198
0.011383 0.067993 0.030243
0.054840 0.060059 0.026428
0.081238 0.066254 0.032990
0.105530 0.078461 0.042023
0.131073 0.091339 0.049347
0.156738 0.104309 0.056213
0.183411 0.115448 0.062714
0.211487 0.123840 0.068756
0.240509 0.132996 0.075348
0.269379 0.143158 0.082825
0.293823 0.155548 0.092255
0.320679 0.167847 0.104218
0.351471 0.180206 0.117676
0.382233 0.192230 0.131592
0.413361 0.204742 0.145691
0.444794 0.217133 0.159821
0.476044 0.229584 0.174500
0.506866 0.241821 0.188660
0.536316 0.254822 0.202179
0.564972 0.267670 0.214813
0.592590 0.280457 0.227264
0.619843 0.292755 0.239380
0.646606 0.305511 0.251068
0.673187 0.318390 0.262238
0.698914 0.331604 0.272949
0.723846 0.344818 0.283051
0.748291 0.357941 0.292084
0.771881 0.371185 0.300659
0.794312 0.384491 0.308502
0.000000 0.087433 0.020264
0.000000 0.091248 0.021606
0.000000 0.100128 0.019104
0.010956 0.097015 0.024689
0.040649 0.095154 0.028748
0.085876 0.084473 0.032501
0.112732 0.087555 0.040527
0.140900 0.099976 0.046509
0.166870 0.112610 0.052277
0.193268 0.125946 0.058167
0.218994 0.139313 0.064880
0.245514 0.151489 0.071014
0.273743 0.163116 0.079163
0.301971 0.175293 0.088684
0.326935 0.187714 0.098755
0.358215 0.198975 0.112976
0.389557 0.209595 0.127594
0.421112 0.220886 0.142212
0.452667 0.232452 0.156769
0.483887 0.243927 0.171265
0.514130 0.255493 0.185150
0.543488 0.267914 0.198669
0.571381 0.279816 0.211426
0.598755 0.291962 0.223755
0.625763 0.304413 0.235535
0.652618 0.317444 0.247284
0.678528 0.330322 0.257751
0.703979 0.343048 0.268402
0.728394 0.355896 0.278290
0.751831 0.368713 0.287048
0.775085 0.381714 0.295685
0.796997 0.395081 0.303314
0.000000 0.113037 0.015961
0.000000 0.119598 0.013611
0.000000 0.129333 0.007355
0.004333 0.126495 0.011444
0.045776 0.124084 0.021545
0.076263 0.117310 0.036560
0.116852 0.109406 0.036377
0.145844 0.110321 0.047607
0.175812 0.122772 0.051147
0.203552 0.135803 0.055389
0.230621 0.148987 0.060303
0.257324 0.162354 0.067657
0.283600 0.175720 0.076721
0.308960 0.189209 0.086487
0.335083 0.202484 0.096802
0.366089 0.214661 0.110199
0.397614 0.226562 0.124451
0.429138 0.238922 0.138428
0.460968 0.250458 0.152985
0.492035 0.260956 0.167542
0.522247 0.272614 0.180969
0.551300 0.284424 0.194061
0.579407 0.296906 0.206635
0.607086 0.309357 0.218750
0.633881 0.322083 0.230286
0.660217 0.334595 0.241669
0.685699 0.346924 0.252472
0.710663 0.359772 0.262360
0.734375 0.371948 0.272095
0.757172 0.384430 0.280731
0.779694 0.396759 0.289337
0.800873 0.409607 0.296722
0.000000 0.137146 0.012848
0.000000 0.146271 0.006409
0.000000 0.156494 0.000000
0.000000 0.154388 0.000000
0.043365 0.153351 0.008423
0.083130 0.145844 0.031219
0.113800 0.140900 0.042572
0.149628 0.133972 0.049896
0.179779 0.134735 0.054443
0.210571 0.146484 0.056549
0.240936 0.159821 0.057678
0.268402 0.173370 0.065979
0.293823 0.187286 0.076813
0.322296 0.201202 0.088959
0.351929 0.214417 0.101471
0.382446 0.227386 0.114410
0.410950 0.239685 0.126465
0.440735 0.252319 0.138977
0.470856 0.264099 0.151947
0.501068 0.276611 0.165009
0.530487 0.290466 0.176727
0.559296 0.304657 0.187805
0.587128 0.318542 0.199280
0.615143 0.331848 0.211365
0.641846 0.344482 0.222839
0.668243 0.356903 0.234039
0.693878 0.369324 0.244385
0.718048 0.381531 0.254639
0.741425 0.393646 0.263672
0.763519 0.405487 0.272400
0.784973 0.417358 0.280426
0.805817 0.429626 0.287842
0.000000 0.162628 0.009766
0.000000 0.170898 0.001892
0.000000 0.181671 0.000000
0.000000 0.182556 0.000000
0.040405 0.182159 0.000000
0.084198 0.175323 0.019775
0.116150 0.167877 0.048065
0.152008 0.166687 0.043610
0.184021 0.158966 0.063477
0.214783 0.160339 0.060608
0.245850 0.170319 0.059967
0.275269 0.184448 0.065033
0.306824 0.198944 0.079529
0.338776 0.212616 0.093811
0.369690 0.226379 0.106689
0.400360 0.239380 0.119629
0.430664 0.251892 0.132660
0.460632 0.264069 0.145691
0.490234 0.277222 0.157471
0.517731 0.291412 0.167877
0.545105 0.305756 0.177582
0.572235 0.320374 0.187561
0.598022 0.334900 0.197449
0.624512 0.349701 0.207458
0.650940 0.364563 0.217194
0.676788 0.378876 0.226776
0.701080 0.393829 0.235138
0.724976 0.407837 0.243744
0.748108 0.420807 0.252441
0.769257 0.432678 0.260498
0.790466 0.444397 0.268433
0.808289 0.454834 0.274811
0.000000 0.186523 0.008820
0.000000 0.193909 0.000732
0.000000 0.204346 0.000000
0.000000 0.210266 0.000000
0.037445 0.210327 0.000000
0.081635 0.205139 0.006866
0.121887 0.195526 0.032593
0.152985 0.195343 0.051971
0.188385 0.190796 0.057709
0.219269 0.184845 0.071075
0.250153 0.185883 0.065308
0.280182 0.195282 0.067352
0.314209 0.209381 0.078583
0.351837 0.223938 0.096191
0.387024 0.237732 0.111847
0.418945 0.251007 0.125488
0.450714 0.264374 0.139008
0.480347 0.278625 0.150665
0.509613 0.292114 0.161957
0.536774 0.306488 0.171936
0.563416 0.320465 0.181580
0.589264 0.334686 0.191376
0.615448 0.349548 0.200989
0.640289 0.364502 0.209656
0.664124 0.379669 0.217316
0.688538 0.395874 0.225037
0.711426 0.412292 0.231659
0.734009 0.428223 0.237793
0.755615 0.443695 0.243835
0.775848 0.458923 0.249207
0.795654 0.473694 0.254211
0.807556 0.480621 0.258728
0.000000 0.208496 0.008636
0.000000 0.215454 0.000000
0.000000 0.225555 0.000000
0.000000 0.236694 0.000000
0.033386 0.237518 0.000000
0.079559 0.233734 0.000000
0.121857 0.224152 0.020081
0.159912 0.216583 0.045624
0.194794 0.225800 0.054504
0.225525 0.213989 0.080200
0.254791 0.210236 0.077332
0.286041 0.212433 0.072418
0.319489 0.221100 0.078430
0.357849 0.233948 0.094513
0.397064 0.248199 0.112640
0.434845 0.263428 0.129364
0.469788 0.278992 0.143646
0.500061 0.292999 0.155457
0.528900 0.307861 0.165894
0.555634 0.322144 0.175171
0.580811 0.336304 0.184418
0.606018 0.350067 0.193970
0.630798 0.364502 0.203003
0.654602 0.379303 0.210846
0.678497 0.394623 0.218536
0.701294 0.410492 0.225311
0.724396 0.427185 0.231415
0.745087 0.443665 0.236298
0.765869 0.461121 0.240570
0.784912 0.477722 0.243866
0.803192 0.495087 0.246033
0.808929 0.499268 0.247650
0.000000 0.229462 0.008545
0.000000 0.235443 0.000000
0.000000 0.245514 0.000000
0.000000 0.256500 0.000000
0.029510 0.263123 0.000000
0.077393 0.260925 0.000000
0.121674 0.251587 0.007294
0.160461 0.240936 0.032196
0.200134 0.245087 0.040955
0.232422 0.252106 0.069092
0.260620 0.236298 0.093781
0.291412 0.235901 0.086243
0.325195 0.238403 0.081543
0.362488 0.246674 0.089813
0.402588 0.259338 0.110138
0.442749 0.275879 0.127563
0.480469 0.291870 0.143372
0.514923 0.307556 0.156769
0.545441 0.322998 0.168152
0.572693 0.337341 0.177673
0.597351 0.351440 0.187073
0.621094 0.365540 0.195312
0.644562 0.379730 0.203339
0.667236 0.393982 0.210632
0.690399 0.409515 0.218140
0.712799 0.425385 0.224304
0.734619 0.441895 0.229828
0.755829 0.459045 0.234497
0.775726 0.476990 0.237579
0.794891 0.494202 0.240692
0.811859 0.511841 0.241577
0.813416 0.513245 0.241669
0.000000 0.250153 0.007355
0.000000 0.254669 0.000153
0.000000 0.264557 0.000000
0.000000 0.274780 0.000000
0.032288 0.281250 0.000000
0.074585 0.287903 0.000000
0.121948 0.280121 0.000000
0.161926 0.270386 0.016785
0.197784 0.269958 0.027161
0.231049 0.275879 0.037109
0.270203 0.284302 0.089966
0.298859 0.265167 0.100677
0.333862 0.266174 0.091431
0.369629 0.268646 0.092957
0.408600 0.277344 0.102570
0.449493 0.291260 0.123047
0.487610 0.304749 0.140869
0.522705 0.320526 0.154480
0.554596 0.336578 0.166077
0.584442 0.351807 0.177338
0.611267 0.366730 0.187408
0.635742 0.380920 0.196411
0.657928 0.394684 0.203613
0.679749 0.409302 0.210358
0.700928 0.424835 0.216248
0.722656 0.440613 0.221802
0.743713 0.456940 0.226837
0.764404 0.473877 0.231079
0.783813 0.492065 0.233795
0.803375 0.510040 0.236237
0.819641 0.526855 0.237000
0.820068 0.527008 0.237000
0.000000 0.271851 0.004333
0.000000 0.273346 0.000824
0.000000 0.282928 0.000000
0.000000 0.292999 0.000000
0.033569 0.299896 0.000000
0.076416 0.307648 0.000000
0.122375 0.309418 0.000000
0.163452 0.301178 0.000000
0.196655 0.294159 0.016144
0.231323 0.304779 0.010834
0.265076 0.309692 0.046661
0.309875 0.318542 0.098602
0.341400 0.298523 0.102142
0.378571 0.300476 0.097900
0.417175 0.303558 0.105225
0.455841 0.310211 0.114777
0.495026 0.322510 0.134644
0.529968 0.336151 0.150146
0.561432 0.349884 0.162720
0.591187 0.365051 0.173615
0.619080 0.380188 0.184448
0.645050 0.395416 0.193909
0.669952 0.410309 0.202637
0.690948 0.424835 0.208679
0.711395 0.439301 0.214264
0.732208 0.455444 0.219208
0.752167 0.472748 0.223022
0.772186 0.489594 0.226318
0.791199 0.507080 0.228882
0.809784 0.525238 0.230530
0.825134 0.541565 0.230438
0.825348 0.541748 0.230408
0.000000 0.292114 0.003632
0.000000 0.293060 0.000153
0.000000 0.300751 0.000000
0.000000 0.311401 0.000000
0.036163 0.318085 0.000000
0.083435 0.326111 0.000000
0.125854 0.334778 0.000000
0.166595 0.329529 0.000000
0.200317 0.322388 0.003510
0.230560 0.330383 0.000000
0.274384 0.339203 0.025879
0.317780 0.350037 0.073334
0.352295 0.351471 0.108246
0.387268 0.333801 0.104614
0.426880 0.336151 0.109802
0.464630 0.339172 0.116821
0.500275 0.343964 0.124573
0.535553 0.354675 0.141876
0.567200 0.367889 0.155151
0.597076 0.380768 0.167572
0.625122 0.394073 0.179749
0.651123 0.408813 0.189453
0.676025 0.424164 0.198151
0.699677 0.440002 0.205139
0.721985 0.455444 0.211517
0.740784 0.470886 0.215393
0.760406 0.487335 0.218872
0.779572 0.505249 0.221191
0.797913 0.523041 0.222717
0.815643 0.541260 0.223083
0.828278 0.556152 0.221680
0.828461 0.556396 0.221680
0.000000 0.311646 0.005188
0.000000 0.312622 0.001343
0.000000 0.318542 0.000000
0.000000 0.330536 0.000000
0.043091 0.337494 0.000000
0.091675 0.346222 0.000000
0.132568 0.356018 0.000000
0.172363 0.355957 0.000000
0.205597 0.349884 0.000000
0.232819 0.353180 0.000000
0.270691 0.366699 0.000000
0.322571 0.374176 0.054901
0.366058 0.392395 0.084717
0.394745 0.383087 0.111237
0.436401 0.370605 0.115326
0.474091 0.372223 0.120667
0.508850 0.375183 0.127197
0.540100 0.379669 0.133209
0.571320 0.386810 0.144806
0.601990 0.399384 0.158264
0.629974 0.412048 0.170868
0.655792 0.424530 0.182068
0.680695 0.437805 0.191895
0.703857 0.453613 0.198822
0.726807 0.469757 0.205139
0.748657 0.486725 0.210144
0.768219 0.503357 0.213654
0.786072 0.520447 0.214905
0.803040 0.537933 0.214966
0.820709 0.557007 0.214661
0.826385 0.569977 0.208679
0.826416 0.569702 0.209045
0.000000 0.330017 0.011383
0.000000 0.330841 0.008606
0.000000 0.337708 0.000000
0.000000 0.351135 0.000000
0.054871 0.358398 0.000000
0.100464 0.367645 0.000000
0.141022 0.378418 0.000000
0.178986 0.380463 0.000000
0.211731 0.375427 0.000000
0.238525 0.376709 0.000000
0.272583 0.390991 0.000000
0.327271 0.402435 0.026123
0.367920 0.410889 0.071655
0.414886 0.432739 0.112793
0.441589 0.418823 0.121674
0.483337 0.407471 0.125427
0.517212 0.409119 0.130432
0.548248 0.412048 0.136230
0.577301 0.415619 0.141663
0.605316 0.420441 0.147461
0.632629 0.430908 0.157745
0.658966 0.443146 0.170563
0.683716 0.455719 0.181305
0.707458 0.468719 0.190735
0.730316 0.483429 0.197693
0.751587 0.500702 0.202026
0.772095 0.518097 0.205078
0.791718 0.536255 0.207031
0.809204 0.553711 0.207153
0.825409 0.571411 0.207428
0.825531 0.581421 0.206024
0.825531 0.581482 0.205994
0.000000 0.346863 0.021271
0.000000 0.348206 0.015747
0.000000 0.360382 0.000000
0.011932 0.371460 0.000000
0.066223 0.379120 0.000000
0.110138 0.388580 0.000000
0.149384 0.399353 0.000000
0.185730 0.402191 0.000000
0.217651 0.399384 0.000000
0.243256 0.399750 0.000000
0.276520 0.412323 0.000000
0.321136 0.427856 0.000000
0.381897 0.438232 0.062561
0.417236 0.453583 0.095215
0.459412 0.471710 0.126221
0.484924 0.455139 0.131073
0.525269 0.445160 0.134460
0.555847 0.446625 0.138824
0.584137 0.448547 0.143799
0.611084 0.451599 0.148834
0.636780 0.455139 0.154877
0.661926 0.461884 0.161072
0.686462 0.474854 0.168884
0.709564 0.487274 0.177063
0.732117 0.500153 0.185089
0.753693 0.514008 0.192810
0.774170 0.531677 0.195282
0.794617 0.549957 0.198425
0.814484 0.569031 0.202881
0.825043 0.585724 0.206268
0.824951 0.593781 0.206818
0.824921 0.593811 0.206818
0.000000 0.364105 0.022522
0.000000 0.370728 0.008759
0.000000 0.385162 0.000000
0.029205 0.391693 0.000000
0.077881 0.399292 0.000000
0.119324 0.408661 0.000000
0.157471 0.419586 0.000000
0.193176 0.422760 0.000000
0.223206 0.421051 0.000000
0.250153 0.421051 0.000000
0.282257 0.432098 0.000000
0.319672 0.449554 0.000000
0.378052 0.463409 0.025787
0.423126 0.474335 0.079712
0.465820 0.497253 0.121552
0.499542 0.511108 0.133850
0.521393 0.492828 0.138519
0.561127 0.483337 0.142761
0.590332 0.483734 0.146729
0.616913 0.485657 0.152466
0.642181 0.487640 0.158264
0.666565 0.490570 0.163818
0.689697 0.494324 0.169556
0.712891 0.506073 0.175354
0.735046 0.519196 0.181396
0.756622 0.532288 0.187103
0.777313 0.546021 0.192902
0.797852 0.563324 0.198669
0.818146 0.582489 0.204559
0.824768 0.598602 0.207062
0.824646 0.603729 0.207306
0.824646 0.603729 0.207306
0.000000 0.387848 0.012787
0.000000 0.395538 0.000000
0.000000 0.406128 0.000000
0.044830 0.411774 0.000000
0.089203 0.419128 0.000000
0.129089 0.428650 0.000000
0.165833 0.438965 0.000000
0.200134 0.441650 0.000000
0.228424 0.441437 0.000000
0.257080 0.442169 0.000000
0.288422 0.452240 0.000000
0.320312 0.469177 0.000000
0.367950 0.486206 0.000000
0.430237 0.500580 0.055511
0.461060 0.511139 0.094543
0.507141 0.541260 0.137604
0.534149 0.551331 0.144104
0.554443 0.532684 0.148102
0.594360 0.524506 0.155853
0.621918 0.522644 0.157593
0.647125 0.523560 0.161957
0.670532 0.524628 0.167328
0.694275 0.526093 0.172607
0.716248 0.528015 0.177551
0.738525 0.538300 0.183350
0.759918 0.551422 0.189056
0.780853 0.564728 0.194641
0.801331 0.578339 0.200378
0.821228 0.595367 0.205872
0.824463 0.610535 0.207611
0.824341 0.613922 0.207764
0.824371 0.613586 0.207733
0.000000 0.412811 0.000000
0.000000 0.420959 0.000000
0.013611 0.425934 0.000000
0.059418 0.431549 0.000000
0.100037 0.439575 0.000000
0.137512 0.449432 0.000000
0.173157 0.458710 0.000000
0.206482 0.460785 0.000000
0.233673 0.461609 0.000000
0.263428 0.463318 0.000000
0.293945 0.472992 0.000000
0.322388 0.487274 0.000000
0.360443 0.507202 0.000000
0.413879 0.523804 0.000000
0.467896 0.539307 0.061646
0.495026 0.551086 0.097382
0.538483 0.581360 0.137146
0.565247 0.591888 0.147247
0.584747 0.573425 0.156738
0.625000 0.567139 0.168274
0.649933 0.561096 0.169647
0.674500 0.561462 0.172058
0.698151 0.562439 0.176117
0.720093 0.561768 0.180786
0.741486 0.562378 0.185455
0.762878 0.570831 0.191101
0.783630 0.583893 0.196594
0.803986 0.596893 0.202240
0.823181 0.610657 0.207397
0.824097 0.622253 0.208221
0.824036 0.624237 0.208313
0.824036 0.624115 0.208313
0.000000 0.437347 0.000000
0.000000 0.445221 0.000000
0.019073 0.449432 0.000000
0.062988 0.455994 0.000000
0.103363 0.464539 0.000000
0.141693 0.473938 0.000000
0.179352 0.478210 0.000000
0.212036 0.480194 0.000000
0.238495 0.482849 0.000000
0.269867 0.485046 0.000000
0.299194 0.493042 0.000000
0.328064 0.506897 0.000000
0.358734 0.525635 0.000000
0.397797 0.545074 0.000000
0.454102 0.561340 0.007111
0.499268 0.576843 0.063629
0.524902 0.589874 0.091858
0.564911 0.621277 0.119690
0.592377 0.631470 0.143768
0.613190 0.615631 0.166382
0.652191 0.609406 0.177246
0.676422 0.599609 0.180084
0.700348 0.598846 0.182068
0.723602 0.598206 0.184570
0.745056 0.597443 0.189056
0.765717 0.596466 0.193604
0.786377 0.602966 0.198578
0.806854 0.615631 0.203888
0.823151 0.627625 0.208374
0.823730 0.637177 0.209259
0.823761 0.636444 0.209229
0.823761 0.635956 0.209229
0.000000 0.461548 0.000000
0.000000 0.469727 0.000000
0.017395 0.474640 0.000000
0.062775 0.481445 0.000000
0.105621 0.489655 0.000000
0.147614 0.494080 0.000000
0.185455 0.495972 0.000000
0.217346 0.499115 0.000000
0.243927 0.501892 0.000000
0.276245 0.505768 0.000000
0.304932 0.511963 0.000000
0.332825 0.527069 0.000000
0.359985 0.542969 0.000000
0.395752 0.563660 0.000000
0.438263 0.583038 0.000000
0.491028 0.599579 0.013916
0.525787 0.614075 0.051453
0.549103 0.628143 0.071472
0.587708 0.659668 0.093536
0.616302 0.670410 0.134277
0.640808 0.659637 0.176941
0.676819 0.650604 0.184021
0.701447 0.637970 0.191132
0.723938 0.635986 0.192261
0.745941 0.633820 0.194611
0.768341 0.631897 0.196777
0.788269 0.629425 0.200897
0.807800 0.634674 0.205505
0.822876 0.645996 0.209656
0.823181 0.654297 0.210266
0.823212 0.652710 0.210205
0.823212 0.652710 0.210205
0.000000 0.483521 0.000000
0.000000 0.485260 0.000000
0.028687 0.489899 0.000000
0.072571 0.497253 0.000000
0.113373 0.506317 0.000000
0.155334 0.509705 0.000000
0.192749 0.512146 0.000000
0.223389 0.516327 0.000000
0.251099 0.520752 0.000000
0.283142 0.525696 0.000000
0.311737 0.531555 0.000000
0.338898 0.546326 0.000000
0.364929 0.562439 0.000000
0.395691 0.581116 0.000000
0.429962 0.602509 0.000000
0.475098 0.620422 0.000000
0.518280 0.637085 0.000000
0.549164 0.650360 0.034271
0.571228 0.665436 0.051971
0.605896 0.696381 0.066193
0.637848 0.709412 0.110870
0.666962 0.703339 0.186432
0.700531 0.691803 0.191650
0.726227 0.676208 0.200134
0.746094 0.671112 0.203033
0.768219 0.667694 0.204193
0.789917 0.665344 0.205475
0.810425 0.661682 0.208130
0.822845 0.664398 0.211243
0.822968 0.673187 0.211884
0.823029 0.670471 0.211700
0.822998 0.670837 0.211700
0.000000 0.495941 0.018890
0.008545 0.497192 0.008850
0.045258 0.502075 0.004700
0.085083 0.509674 0.000000
0.123535 0.519409 0.000000
0.163544 0.523865 0.000000
0.200043 0.527405 0.001617
0.229797 0.532715 0.005829
0.258698 0.538239 0.007751
0.290802 0.544800 0.005371
0.319763 0.551086 0.000000
0.345642 0.564728 0.000000
0.370972 0.581604 0.000000
0.397797 0.598450 0.000000
0.430542 0.619659 0.000000
0.461884 0.639709 0.000000
0.503876 0.657562 0.000000
0.543457 0.673553 0.000000
0.570892 0.687164 0.014557
0.591003 0.702454 0.027252
0.620087 0.732086 0.029205
0.651855 0.746490 0.062256
0.683289 0.742645 0.154388
0.722626 0.730194 0.199799
0.750519 0.713409 0.206268
0.768524 0.705597 0.211670
0.789215 0.700104 0.213196
0.810577 0.696472 0.214386
0.822174 0.692047 0.214478
0.822205 0.692078 0.214539
0.822205 0.688904 0.214294
0.822205 0.688904 0.214294
0.021637 0.506683 0.036896
0.030853 0.508087 0.028931
0.062378 0.513458 0.025513
0.098602 0.521423 0.019836
0.134827 0.531677 0.012115
0.172638 0.537537 0.012787
0.207581 0.541595 0.017090
0.237122 0.547455 0.019165
0.267548 0.554382 0.019104
0.299561 0.561920 0.015717
0.328339 0.569305 0.009125
0.354553 0.582397 0.000000
0.379211 0.600464 0.000000
0.403259 0.617889 0.000000
0.432343 0.635864 0.000000
0.462677 0.656494 0.000000
0.492035 0.675659 0.000000
0.530121 0.693085 0.000000
0.564575 0.710388 0.000000
0.588562 0.724213 0.000000
0.605103 0.736694 0.000000
0.630402 0.766907 0.000000
0.662262 0.783478 0.018341
0.697296 0.779846 0.109039
0.744293 0.766998 0.208221
0.773529 0.748505 0.213104
0.792023 0.739868 0.218872
0.809845 0.732391 0.222809
0.818787 0.725281 0.221832
0.819885 0.719482 0.219788
0.819885 0.712158 0.219116
0.819885 0.712158 0.219116
0.044373 0.516907 0.053650
0.053436 0.518555 0.048615
0.080780 0.523895 0.044739
0.114227 0.532166 0.038757
0.147888 0.543121 0.030762
0.183472 0.549713 0.029327
0.216888 0.554321 0.031830
0.245392 0.560944 0.032623
0.277039 0.569183 0.030914
0.309204 0.578186 0.026886
0.336517 0.591034 0.013458
0.360504 0.605835 0.000000
0.382721 0.625885 0.000000
0.408020 0.645111 0.000000
0.435455 0.662842 0.000000
0.461731 0.679535 0.000000
0.488251 0.698242 0.000000
0.514252 0.716919 0.000000
0.544922 0.734314 0.000000
0.576843 0.750549 0.000000
0.599609 0.763245 0.000000
0.613617 0.772400 0.000000
0.640076 0.799927 0.000000
0.671722 0.818542 0.000000
0.710785 0.813171 0.057281
0.766571 0.801270 0.216492
0.796021 0.782074 0.219666
0.814301 0.771912 0.226349
0.818085 0.761353 0.227722
0.818054 0.752838 0.226562
0.818085 0.743469 0.225372
0.818115 0.743988 0.225494
0.067841 0.525970 0.071747
0.077271 0.527985 0.068451
0.101196 0.533844 0.064209
0.127838 0.547058 0.052734
0.155548 0.563782 0.038116
0.186371 0.577423 0.028229
0.215057 0.589905 0.020752
0.239502 0.604309 0.009674
0.267822 0.619873 0.000000
0.296692 0.634705 0.000000
0.322601 0.648132 0.000000
0.348969 0.654419 0.000000
0.378937 0.671783 0.000000
0.408905 0.689392 0.000000
0.436859 0.704895 0.000000
0.463318 0.719116 0.000000
0.487305 0.732361 0.000000
0.510254 0.745087 0.000000
0.533569 0.759399 0.000000
0.557861 0.776031 0.000000
0.586029 0.790833 0.000000
0.610535 0.802185 0.000000
0.624847 0.807556 0.000000
0.650177 0.833435 0.000000
0.679962 0.849091 0.000000
0.722778 0.843964 0.022491
0.788849 0.833557 0.223602
0.817413 0.813599 0.226959
0.821930 0.802032 0.228210
0.820526 0.788269 0.227997
0.820160 0.777863 0.227173
0.820190 0.778625 0.227234
0.035645 0.591003 0.031311
0.047089 0.594543 0.027344
0.070953 0.604736 0.015991
0.100159 0.619812 0.000000
0.130035 0.637512 0.000000
0.163391 0.650208 0.000000
0.196106 0.656525 0.000000
0.223236 0.660095 0.000000
0.251251 0.661346 0.000000
0.282776 0.667297 0.000000
0.314514 0.685028 0.000000
0.347168 0.704651 0.000000
0.379333 0.722260 0.000000
0.409668 0.737396 0.000000
0.438354 0.750366 0.000000
0.464813 0.762665 0.000000
0.488800 0.773224 0.000000
