滤镜资源/Professional Luts Collection/Triune-Digital-Cinematic-LUTs/3D LUTs (CUBE)/STANDARD/Interstellar - Rec709.cube
#Created by Benjamin (IWLTBAP) : http://luts.iwltbap.com
#Copyright: (C) Copyright 2016 Triune Films and IWLTBAP
TITLE "Blockbuster LUTs Pack (Rec.709)"
#LUT size
LUT_3D_SIZE 5
#LUT data points
DOMAIN_MIN 0.000000 0.000000 0.000000
DOMAIN_MAX 0.903226 0.903226 0.903226
0.000000 0.000000 0.018158
0.120483 0.072235 0.051147
0.306976 0.158783 0.099396
0.528137 0.242950 0.205017
0.718964 0.331055 0.291321
0.000000 0.162628 0.009766
0.152008 0.166687 0.043610
0.369690 0.226379 0.106689
0.572235 0.320374 0.187561
0.748108 0.420807 0.252441
0.000000 0.311646 0.005188
0.172363 0.355957 0.000000
0.436401 0.370605 0.115326
0.655792 0.424530 0.182068
0.803040 0.537933 0.214966
0.000000 0.461548 0.000000
0.217346 0.499115 0.000000
0.438263 0.583038 0.000000
0.676819 0.650604 0.184021
0.822876 0.645996 0.209656
0.000000 0.654907 0.000000
0.221252 0.684113 0.000000
0.439117 0.797729 0.000000
0.594238 0.854156 0.000000
0.822937 0.891602 0.215149
0.000000 0.085022 0.133881
0.192963 0.115540 0.145782
0.392914 0.182983 0.177734
0.566406 0.255615 0.227264
0.729797 0.334503 0.298157
0.000000 0.166046 0.169281
0.138519 0.191742 0.210022
0.390930 0.247803 0.204193
0.581543 0.285492 0.216400
0.742218 0.378265 0.274017
0.000000 0.353912 0.182098
0.071472 0.397369 0.085602
0.451843 0.409698 0.198395
0.640289 0.451141 0.155518
0.776154 0.555298 0.193176
0.000000 0.414215 0.183075
0.167908 0.519806 0.064575
0.446838 0.597504 0.040222
0.675232 0.668243 0.184021
0.822815 0.659943 0.210632
0.000000 0.596222 0.179077
0.153931 0.764374 0.000000
0.418976 0.786957 0.000000
0.590912 0.859650 0.000000
0.823395 0.887695 0.218567
0.000000 0.185181 0.270508
0.118042 0.182648 0.290680
0.478821 0.271576 0.277222
0.656677 0.324646 0.308685
0.792053 0.396484 0.356964
0.000000 0.209656 0.282593
0.044983 0.253998 0.351929
0.477264 0.311066 0.322662
0.659760 0.354187 0.345581
0.800232 0.415680 0.383484
0.000000 0.360840 0.370026
0.000000 0.424164 0.420410
0.442383 0.463379 0.471375
0.674042 0.516815 0.489502
0.822144 0.555023 0.483002
0.000000 0.627258 0.519745
0.000000 0.582581 0.441040
0.425232 0.623657 0.342804
0.707642 0.696655 0.425201
0.853149 0.711914 0.465332
0.000000 0.725586 0.453735
0.000000 0.715393 0.385864
0.389587 0.856842 0.195862
0.661713 0.872040 0.276428
0.842804 0.889496 0.316071
0.000000 0.272491 0.393402
0.086060 0.267303 0.377197
0.437500 0.343597 0.358337
0.701233 0.399841 0.344147
0.811737 0.447327 0.419342
0.000000 0.285919 0.405853
0.000000 0.311859 0.459320
0.447510 0.346588 0.424194
0.701233 0.420349 0.413300
0.819153 0.479919 0.485016
0.000000 0.369507 0.479889
0.000000 0.424896 0.552673
0.292755 0.453674 0.654541
0.711395 0.537018 0.577423
0.838837 0.592957 0.625366
0.000000 0.554230 0.610382
0.000000 0.606140 0.644409
0.208038 0.666687 0.721252
0.740723 0.727386 0.721893
0.886322 0.760681 0.737335
0.000000 0.809601 0.765930
0.000000 0.858917 0.790161
0.000000 0.852478 0.681244
0.683441 0.902588 0.568481
0.899689 0.908844 0.623138
0.000000 0.363098 0.524078
0.024963 0.363525 0.492798
0.380188 0.387329 0.477386
0.669312 0.483612 0.511841
0.844757 0.544739 0.616302
0.000000 0.373260 0.553345
0.000000 0.386444 0.598785
0.263184 0.375671 0.566437
0.698212 0.473572 0.572540
0.871216 0.547272 0.666443
0.000000 0.434998 0.629547
0.000000 0.472778 0.690948
0.150848 0.477264 0.778290
0.657410 0.490997 0.779602
0.971191 0.557190 0.783630
0.000000 0.546265 0.753479
0.000000 0.594177 0.797150
0.087463 0.615417 0.830444
0.610077 0.665436 0.884491
0.957916 0.721619 0.859894
0.000000 0.717804 0.858887
0.000000 0.753906 0.871002
0.000000 0.797485 0.894592
0.558838 0.858673 0.911682
0.934509 0.929993 0.907928
