滤镜资源/Professional Luts Collection/Triune-Digital-Cinematic-LUTs/3D LUTs (CUBE)/STANDARD/Minority Report - Rec709.cube
#Created by Benjamin (IWLTBAP) : http://luts.iwltbap.com
#Copyright: (C) Copyright 2016 Triune Films and IWLTBAP
TITLE "Blockbuster LUTs Pack (Rec.709)"
#LUT size
LUT_3D_SIZE 5
#LUT data points
DOMAIN_MIN 0.000000 0.000000 0.000000
DOMAIN_MAX 0.903226 0.903226 0.903226
0.009460 0.013763 0.026184
0.120972 0.030762 0.040558
0.291107 0.078613 0.069763
0.477966 0.125366 0.136780
0.711792 0.176147 0.195709
0.018890 0.151215 0.047333
0.122681 0.152588 0.051208
0.316559 0.189697 0.078339
0.503632 0.242767 0.132812
0.734375 0.302002 0.175537
0.037506 0.308105 0.087158
0.118713 0.325623 0.085297
0.343597 0.333527 0.093903
0.556854 0.369019 0.136017
0.779633 0.431305 0.156616
0.057190 0.464508 0.126648
0.140045 0.483154 0.136322
0.355530 0.528412 0.134735
0.561859 0.567078 0.155731
0.798309 0.574188 0.171204
0.083984 0.668335 0.172211
0.164612 0.687469 0.176208
0.345001 0.765930 0.195953
0.548248 0.808472 0.198883
0.787048 0.841278 0.210480
0.011810 0.039368 0.145111
0.160828 0.054047 0.172485
0.339752 0.093018 0.201324
0.513000 0.132172 0.236603
0.730164 0.179810 0.291077
0.025604 0.153015 0.177734
0.139862 0.182892 0.219482
0.343903 0.216553 0.230957
0.529114 0.234039 0.242218
0.751495 0.288483 0.285736
0.048615 0.328796 0.226013
0.103973 0.361450 0.214386
0.362854 0.370728 0.237457
0.562073 0.390625 0.215088
0.782104 0.450195 0.244141
0.062866 0.446198 0.256256
0.135010 0.508453 0.246124
0.373566 0.553528 0.273956
0.578766 0.589142 0.246216
0.826233 0.594330 0.266541
0.085571 0.636444 0.302917
0.160217 0.757721 0.277130
0.349457 0.770660 0.279633
0.565552 0.826538 0.285858
0.812561 0.850922 0.298523
0.021820 0.093018 0.293671
0.152435 0.103729 0.319519
0.385223 0.137939 0.342163
0.574493 0.168579 0.369019
0.797394 0.213074 0.414795
0.033691 0.188599 0.315704
0.123383 0.226105 0.363678
0.387726 0.253845 0.387115
0.587524 0.280121 0.410492
0.816803 0.318512 0.446564
0.056946 0.333435 0.384094
0.106995 0.370117 0.425385
0.364624 0.426666 0.502258
0.600861 0.463287 0.531189
0.845123 0.486389 0.537476
0.093750 0.564453 0.516785
0.130707 0.546356 0.479523
0.350372 0.602844 0.486725
0.608887 0.651031 0.493622
0.862305 0.673676 0.531464
0.109619 0.733704 0.521088
0.149200 0.735046 0.496033
0.296692 0.860718 0.483032
0.602997 0.873016 0.558350
0.841400 0.869202 0.446899
0.047668 0.145264 0.445343
0.163452 0.155731 0.459869
0.368896 0.178955 0.474152
0.627106 0.211578 0.480347
0.828979 0.243652 0.545868
0.043640 0.238525 0.465881
0.126740 0.263885 0.504120
0.375671 0.284241 0.537201
0.630371 0.317474 0.544495
0.842224 0.356750 0.607452
0.064484 0.358734 0.521942
0.116119 0.396667 0.580933
0.343079 0.451050 0.681580
0.639465 0.481262 0.698303
0.868011 0.522949 0.742035
0.093323 0.531342 0.640656
0.141754 0.568085 0.684082
0.261993 0.631989 0.756561
0.666290 0.718872 0.793427
0.896729 0.759216 0.796509
0.148529 0.798798 0.770294
0.205688 0.842712 0.788055
0.235962 0.846008 0.753296
0.659882 0.904572 0.754272
0.893829 0.899658 0.737671
0.067413 0.204437 0.614502
0.161194 0.211670 0.614227
0.366669 0.231720 0.644501
0.606689 0.263977 0.694336
0.867523 0.303711 0.792419
0.068390 0.296265 0.649048
0.149719 0.314911 0.683899
0.340942 0.331268 0.706268
0.609650 0.358521 0.760651
0.894897 0.399841 0.828644
0.077026 0.412323 0.715271
0.127289 0.443054 0.766113
0.303955 0.476410 0.832458
0.625916 0.490997 0.860168
0.911896 0.532074 0.876587
0.102295 0.560425 0.814941
0.162109 0.600128 0.841064
0.269775 0.633331 0.861816
0.657349 0.723633 0.907471
0.915283 0.748474 0.911621
0.164673 0.762390 0.864349
0.217010 0.794403 0.877136
0.269836 0.827026 0.893280
0.609100 0.883087 0.924805
0.908905 0.926575 0.936249
