滤镜资源/Professional Luts Collection/Triune-Digital-Cinematic-LUTs/3D LUTs (CUBE)/STANDARD/Minority Report - Rec709.cube
#Created by Benjamin (IWLTBAP) : http://luts.iwltbap.com
#Copyright: (C) Copyright 2016 Triune Films and IWLTBAP
TITLE "Blockbuster LUTs Pack (Rec.709)"
#LUT size
LUT_3D_SIZE 8
#LUT data points
DOMAIN_MIN 0.000000 0.000000 0.000000
DOMAIN_MAX 0.903226 0.903226 0.903226
0.009460 0.013763 0.026184
0.055176 0.018677 0.027863
0.144714 0.037628 0.044403
0.244354 0.063141 0.059143
0.342926 0.092438 0.091736
0.449585 0.118195 0.126923
0.570801 0.147064 0.164307
0.711792 0.176147 0.195709
0.013458 0.086487 0.037048
0.045868 0.083984 0.034576
0.152222 0.096252 0.046112
0.249054 0.123260 0.060486
0.350128 0.150696 0.090393
0.457245 0.176056 0.128601
0.579163 0.205963 0.160583
0.717743 0.234650 0.188446
0.021271 0.173706 0.052063
0.054962 0.184357 0.048218
0.152039 0.175385 0.055908
0.267090 0.188904 0.061554
0.376373 0.221405 0.098083
0.485718 0.252441 0.129272
0.604156 0.285095 0.153381
0.739838 0.323456 0.170807
0.031738 0.264282 0.075653
0.064850 0.279144 0.073273
0.154053 0.275024 0.083160
0.273590 0.275787 0.080383
0.398529 0.292236 0.102295
0.518494 0.325470 0.134857
0.638855 0.358917 0.155365
0.769714 0.395996 0.163635
0.042786 0.348846 0.099884
0.078644 0.361176 0.092316
0.163269 0.370026 0.102753
0.293182 0.386597 0.099945
0.412994 0.393768 0.113312
0.534729 0.403381 0.123535
0.657227 0.427582 0.143555
0.790344 0.469055 0.155487
0.053894 0.440430 0.118713
0.095337 0.452240 0.116791
0.162231 0.461975 0.130737
0.292328 0.485779 0.125519
0.406067 0.513916 0.135162
0.533936 0.531219 0.149414
0.662109 0.527557 0.154266
0.799316 0.550690 0.169373
0.070862 0.528687 0.154572
0.110626 0.541016 0.153595
0.163879 0.551453 0.166046
0.293610 0.577240 0.157806
0.414917 0.621643 0.157898
0.519928 0.661224 0.169708
0.656708 0.686432 0.179871
0.791260 0.663757 0.185181
0.083984 0.668335 0.172211
0.127289 0.672058 0.173828
0.177856 0.699280 0.178284
0.258331 0.747437 0.189758
0.408142 0.780060 0.196259
0.520844 0.804260 0.198853
0.628876 0.823975 0.203308
0.787048 0.841278 0.210480
0.010590 0.021362 0.083466
0.071167 0.024292 0.097870
0.166077 0.041931 0.115265
0.266754 0.062012 0.126160
0.357971 0.087921 0.155823
0.460236 0.116058 0.186005
0.582123 0.146667 0.221710
0.718811 0.175110 0.254425
0.015656 0.081970 0.103058
0.059723 0.090851 0.116516
0.160370 0.114807 0.132996
0.265442 0.137421 0.134674
0.364136 0.155823 0.148865
0.471802 0.177185 0.186554
0.593170 0.207001 0.219788
0.733459 0.234802 0.249573
0.026245 0.182129 0.124756
0.056000 0.196228 0.130005
0.165619 0.193085 0.133636
0.278015 0.202881 0.131195
0.377380 0.230835 0.142761
0.484070 0.258942 0.176697
0.607819 0.287750 0.203125
0.746643 0.320251 0.226868
0.035065 0.267303 0.130859
0.062775 0.288300 0.138275
0.161346 0.292633 0.148529
0.287476 0.292419 0.150909
0.411835 0.305267 0.152710
0.525452 0.335419 0.182129
0.643311 0.367615 0.201843
0.772522 0.404175 0.211609
0.045227 0.348877 0.153015
0.073669 0.380798 0.147339
0.161896 0.387177 0.167847
0.300049 0.399323 0.153015
0.421692 0.409180 0.166931
0.543823 0.415649 0.177399
0.671356 0.439545 0.194702
0.800629 0.480621 0.209534
0.055573 0.424652 0.182373
0.092651 0.464020 0.171875
0.158264 0.474426 0.191956
0.302032 0.496368 0.201447
0.414124 0.524475 0.184174
0.542572 0.542114 0.200684
0.676361 0.538971 0.207458
0.817139 0.562042 0.224304
0.069946 0.527313 0.215240
0.111176 0.548737 0.211823
0.164703 0.562103 0.223907
0.304932 0.589539 0.232758
0.422638 0.636414 0.208191
0.527985 0.674683 0.220917
0.666412 0.694702 0.230408
0.804871 0.676361 0.238312
0.083527 0.650085 0.244110
0.125977 0.702362 0.226562
0.177612 0.703094 0.225189
0.263184 0.740570 0.233063
0.413666 0.790375 0.245575
0.530426 0.814087 0.247498
0.640961 0.828979 0.251434
0.802948 0.848206 0.260864
0.012115 0.046143 0.165283
0.071106 0.051025 0.177032
0.190857 0.064484 0.196747
0.294373 0.086884 0.208252
0.401672 0.111755 0.235138
0.500732 0.130402 0.247223
0.605560 0.156525 0.273682
0.735504 0.182434 0.303131
0.018280 0.099731 0.173859
0.065063 0.117584 0.197540
0.191620 0.130341 0.219269
0.300232 0.148743 0.227325
0.409332 0.168488 0.246521
0.517120 0.187134 0.260132
0.613434 0.212463 0.279083
0.744904 0.237518 0.310638
0.029724 0.178467 0.204712
0.058716 0.194763 0.222534
0.167175 0.215485 0.256805
0.295563 0.237701 0.266357
0.406158 0.246429 0.268372
0.516907 0.257324 0.277435
0.634613 0.276215 0.286163
0.762878 0.308716 0.298706
0.047394 0.298462 0.263245
0.070801 0.297455 0.244781
0.116547 0.324524 0.245972
0.300446 0.323059 0.265015
0.422333 0.331421 0.261597
0.532196 0.359070 0.274200
0.649994 0.385559 0.286316
0.781403 0.413940 0.286530
0.056335 0.377136 0.264679
0.078522 0.370819 0.251434
0.127960 0.413788 0.250488
0.305298 0.425354 0.275024
0.430176 0.435883 0.268341
0.550171 0.433472 0.243713
0.670013 0.456909 0.248993
0.797913 0.494049 0.264069
0.064728 0.443604 0.284088
0.085663 0.435089 0.262024
0.145477 0.497833 0.267578
0.306671 0.513367 0.302063
0.429443 0.546906 0.257019
0.550964 0.557037 0.252228
0.686493 0.550415 0.260803
0.826721 0.577271 0.277802
0.071991 0.502319 0.303833
0.097626 0.521149 0.295593
0.161774 0.583466 0.296356
0.306671 0.604034 0.320282
0.432190 0.657837 0.324341
0.539490 0.691956 0.273102
0.677704 0.702728 0.282257
0.815979 0.685913 0.292145
0.086945 0.635773 0.324402
0.113770 0.668762 0.323120
0.173157 0.776459 0.298645
0.260040 0.773010 0.304016
0.417328 0.800629 0.316864
0.539581 0.831543 0.317566
0.657959 0.842224 0.302887
0.815765 0.852570 0.311523
0.017090 0.076904 0.250000
0.081268 0.082001 0.259613
0.187439 0.087036 0.284241
0.321136 0.115387 0.295105
0.425110 0.130951 0.310883
0.532562 0.153229 0.329407
0.652222 0.178619 0.355408
0.785461 0.199066 0.374359
0.023407 0.128998 0.259613
0.069153 0.144958 0.281067
0.172913 0.155579 0.306976
0.322479 0.177521 0.314453
0.428131 0.194580 0.328827
0.537598 0.213043 0.346008
0.661652 0.237823 0.369263
0.796722 0.256744 0.388428
0.033569 0.194183 0.281708
0.063263 0.212982 0.304749
0.148621 0.237854 0.338196
0.314789 0.253571 0.354919
0.429993 0.269989 0.363342
0.548248 0.283875 0.380463
0.670868 0.299744 0.389862
0.807983 0.320984 0.406097
0.047211 0.280457 0.321808
0.075928 0.300751 0.342834
0.108032 0.323761 0.371338
0.290863 0.354492 0.415009
0.426025 0.372925 0.426971
0.554260 0.389954 0.435425
0.684235 0.401245 0.446289
0.820709 0.420807 0.449554
0.067261 0.405792 0.389191
0.095825 0.428955 0.407288
0.118347 0.425262 0.392151
0.257660 0.459045 0.397766
0.436371 0.471619 0.419647
0.567871 0.480927 0.431305
0.697571 0.511932 0.445282
0.832886 0.543335 0.459076
0.083527 0.514221 0.433990
0.102844 0.496918 0.405762
0.125977 0.493927 0.391541
0.270416 0.550415 0.403320
0.437622 0.581940 0.428040
0.565765 0.597412 0.413910
0.709900 0.590210 0.424347
0.845978 0.621643 0.436707
0.087616 0.567535 0.430817
0.108856 0.554840 0.415955
0.140747 0.563293 0.406494
0.281952 0.635864 0.418182
0.440216 0.673767 0.446777
0.567383 0.726990 0.437927
0.687347 0.724854 0.383606
0.841125 0.709015 0.394867
0.102386 0.702087 0.454651
0.124847 0.699554 0.437347
0.146851 0.706909 0.413605
0.230621 0.834045 0.411285
0.415649 0.841339 0.442230
0.555969 0.863953 0.477295
0.693420 0.874390 0.469299
0.825562 0.860443 0.363983
0.024384 0.107483 0.337006
0.081177 0.109589 0.342834
0.178162 0.120850 0.366272
0.304688 0.138458 0.373352
0.453400 0.156769 0.382690
0.562225 0.172913 0.396698
0.680084 0.196594 0.419403
0.808563 0.223816 0.446625
0.028748 0.159912 0.349640
0.071045 0.171600 0.363403
0.171997 0.185760 0.385223
0.306122 0.197662 0.394470
0.457123 0.218445 0.400757
0.567383 0.232239 0.415009
0.686157 0.257446 0.436768
0.818878 0.283875 0.465790
0.038696 0.218353 0.364441
0.070618 0.235199 0.385803
0.153076 0.261414 0.420563
0.300659 0.265991 0.442932
0.458160 0.292511 0.437897
0.571472 0.304504 0.452148
0.693878 0.324371 0.473206
0.828522 0.349487 0.496368
0.051056 0.292084 0.397156
0.080048 0.313538 0.423737
0.116119 0.335602 0.454041
0.277527 0.370422 0.507538
0.451813 0.383881 0.507324
0.576202 0.403503 0.522064
0.709290 0.415344 0.541931
0.842743 0.425537 0.544800
0.066498 0.386719 0.447571
0.094727 0.405762 0.467224
0.123718 0.430389 0.497772
0.233978 0.467468 0.551025
0.441376 0.499603 0.596497
0.579498 0.524902 0.619843
0.731171 0.549164 0.634186
0.874268 0.561218 0.638550
0.088165 0.516876 0.525848
0.116211 0.542175 0.545105
0.144470 0.570282 0.574524
0.182465 0.570526 0.567139
0.423553 0.612366 0.588623
0.587921 0.637756 0.595734
0.739960 0.653015 0.628967
0.882019 0.689331 0.648346
0.108734 0.663452 0.617706
0.130859 0.656097 0.600433
0.150391 0.632904 0.566895
0.197174 0.637665 0.561218
0.430115 0.709320 0.583405
0.582916 0.756226 0.615540
0.726410 0.771149 0.576630
0.886200 0.766541 0.608276
0.119629 0.778412 0.627869
0.140778 0.770660 0.591003
0.163300 0.770294 0.571808
0.195221 0.828125 0.551025
0.390442 0.878052 0.569855
0.578674 0.877289 0.620972
0.748688 0.885406 0.635712
0.874878 0.879395 0.557434
0.042847 0.138733 0.424835
0.089600 0.142059 0.426056
0.185577 0.148834 0.442902
0.316772 0.161163 0.458923
0.440796 0.180450 0.456177
0.592133 0.199738 0.458069
0.705811 0.220123 0.482056
0.825714 0.240997 0.524445
0.043610 0.191284 0.437134
0.088806 0.202209 0.449982
0.178192 0.210907 0.461670
0.309357 0.217346 0.484924
0.440125 0.243988 0.479767
0.598083 0.259552 0.479462
0.709442 0.277771 0.507874
0.831696 0.299530 0.546814
0.043915 0.244629 0.446991
0.083588 0.258728 0.465210
0.145813 0.279419 0.497986
0.282410 0.293365 0.526398
0.436218 0.310822 0.523224
0.596344 0.326263 0.527802
0.711182 0.342316 0.553772
0.839996 0.370331 0.596069
0.056641 0.315430 0.480194
0.085388 0.336517 0.508850
0.122437 0.354370 0.537262
0.270630 0.385529 0.598358
0.438110 0.391144 0.602203
0.597015 0.419067 0.614502
0.724945 0.441162 0.645142
0.857605 0.462463 0.677826
0.070557 0.394196 0.523315
0.099304 0.417755 0.556152
0.128632 0.441620 0.594299
0.249054 0.474304 0.648743
0.420532 0.514038 0.713165
0.600769 0.531128 0.714539
0.739014 0.560760 0.735413
0.876678 0.574127 0.738220
0.088226 0.501770 0.598663
0.115417 0.520264 0.619385
0.143951 0.545288 0.653168
0.176758 0.575287 0.693542
0.382324 0.629944 0.752106
0.609222 0.673889 0.765411
0.769501 0.696442 0.771301
0.895020 0.721985 0.771912
0.108032 0.638123 0.686584
0.135590 0.664856 0.707977
0.165161 0.698242 0.731476
0.198486 0.727020 0.749176
0.340820 0.736115 0.748260
0.606049 0.782257 0.751526
0.780060 0.808319 0.739624
0.900482 0.815338 0.758728
0.146698 0.805511 0.757935
0.179474 0.833038 0.768280
0.199799 0.838470 0.754822
0.213165 0.835724 0.727844
0.281738 0.875427 0.718994
0.608032 0.899750 0.722260
0.770752 0.898163 0.745575
0.894470 0.894379 0.703735
0.055634 0.167084 0.509094
0.100250 0.171783 0.510956
0.192017 0.181091 0.526123
0.303680 0.190643 0.548340
0.432648 0.206909 0.536133
0.578796 0.222992 0.554749
0.729156 0.242523 0.589233
0.850433 0.267059 0.643311
0.055969 0.220337 0.526581
0.102478 0.229919 0.536224
0.178772 0.238037 0.542480
0.290131 0.249298 0.571381
0.431763 0.266022 0.562927
0.579285 0.282654 0.587097
0.737427 0.306396 0.628418
0.857422 0.328278 0.672272
0.050232 0.273651 0.538574
0.096771 0.284698 0.555084
0.149109 0.300751 0.585419
0.276642 0.318390 0.613953
0.437836 0.329437 0.620117
0.575867 0.352753 0.642517
0.740906 0.374481 0.686401
0.859924 0.394409 0.720306
0.062866 0.343842 0.576141
0.094666 0.362579 0.610138
0.140472 0.373077 0.631744
0.257172 0.400360 0.685760
0.413574 0.403717 0.710693
0.585419 0.427399 0.724091
0.750793 0.454254 0.757935
0.871338 0.477936 0.772552
0.076721 0.420837 0.627075
0.105469 0.442993 0.663055
0.133575 0.462494 0.696198
0.233337 0.487427 0.741119
0.403412 0.528168 0.801605
0.589844 0.528564 0.806671
0.778320 0.559631 0.803833
0.888000 0.590851 0.812897
0.092041 0.511292 0.696686
0.120422 0.535492 0.727295
0.148315 0.557220 0.756500
0.177246 0.578247 0.782379
0.395874 0.624695 0.818176
0.609955 0.676483 0.839172
0.798218 0.696136 0.837921
0.893646 0.731720 0.841553
0.109161 0.625977 0.765991
0.137939 0.645538 0.777710
0.171722 0.669617 0.791382
0.207306 0.696777 0.807404
0.353180 0.745880 0.833405
0.594696 0.799683 0.852112
0.796844 0.827057 0.860504
0.901703 0.834961 0.863098
0.151703 0.768463 0.809631
0.184021 0.794525 0.817505
0.216949 0.822510 0.827698
0.250671 0.848389 0.838074
0.292053 0.870056 0.847015
0.549835 0.898193 0.843506
0.778381 0.915436 0.843048
0.902527 0.913544 0.831512
0.067413 0.204437 0.614502
0.112000 0.207520 0.612457
0.190063 0.214844 0.619415
0.296234 0.225586 0.634521
0.439545 0.244965 0.648743
0.569611 0.258362 0.682159
0.720764 0.282166 0.735168
0.867523 0.303711 0.792419
0.070587 0.258606 0.639313
0.113922 0.264526 0.646240
0.173004 0.268250 0.642029
0.289825 0.281281 0.662231
0.446014 0.294220 0.685577
0.572205 0.313019 0.711334
0.723145 0.336761 0.765259
0.882446 0.358521 0.810822
0.065247 0.309387 0.652069
0.113434 0.319122 0.668457
0.161163 0.332672 0.698547
0.271179 0.345978 0.710510
0.409180 0.346619 0.741028
0.577057 0.367462 0.768921
0.733978 0.391388 0.802185
0.898102 0.414764 0.834747
0.069580 0.375153 0.686951
0.102722 0.391846 0.716736
0.154388 0.398773 0.733734
0.228149 0.418091 0.781464
0.389557 0.437866 0.822449
0.579102 0.439728 0.840057
0.759674 0.457703 0.842407
0.907990 0.486176 0.862061
0.083832 0.450409 0.741974
0.112762 0.473938 0.776581
0.140259 0.490540 0.801697
0.190247 0.499603 0.818848
0.388458 0.540131 0.862762
0.565552 0.539246 0.870239
0.785919 0.557831 0.880768
0.914673 0.591370 0.889648
0.098450 0.536652 0.801727
0.130096 0.561646 0.824554
0.162689 0.581146 0.837616
0.195068 0.595276 0.848999
0.385284 0.632324 0.874420
0.597565 0.684418 0.901611
0.785278 0.691284 0.902527
0.915375 0.724152 0.907318
0.127319 0.638458 0.837677
0.162598 0.664124 0.851013
0.194489 0.681702 0.861694
0.223694 0.696930 0.869354
0.359406 0.730957 0.886047
0.581635 0.786133 0.907349
0.786682 0.825073 0.919495
0.911102 0.825775 0.923523
0.164673 0.762390 0.864349
0.194275 0.779785 0.871094
0.224518 0.798584 0.879730
0.254669 0.816925 0.888794
0.295807 0.839844 0.899475
0.554047 0.874176 0.919342
0.763397 0.906036 0.931732
0.908905 0.926575 0.936249
