滤镜资源/Professional Luts Collection/Triune-Digital-Cinematic-LUTs/3D LUTs (CUBE)/STANDARD/Minority Report - Rec709.cube
#Created by Benjamin (IWLTBAP) : http://luts.iwltbap.com
#Copyright: (C) Copyright 2016 Triune Films and IWLTBAP
TITLE "Blockbuster LUTs Pack (Rec.709)"
#LUT size
LUT_3D_SIZE 32
#LUT data points
0.009460 0.013763 0.026184
0.016113 0.014374 0.027283
0.024292 0.015289 0.025452
0.038086 0.016876 0.025757
0.055176 0.018677 0.027863
0.076843 0.021759 0.033386
0.098877 0.025696 0.037567
0.120972 0.030762 0.040558
0.144714 0.037628 0.044403
0.168793 0.045197 0.048187
0.193512 0.052155 0.051636
0.218933 0.057129 0.054871
0.244354 0.063141 0.059143
0.267334 0.070557 0.063568
0.291107 0.078613 0.069763
0.317139 0.085876 0.080872
0.342926 0.092438 0.091736
0.369019 0.098999 0.102264
0.394714 0.104614 0.110504
0.421326 0.110748 0.118073
0.449585 0.118195 0.126923
0.477966 0.125366 0.136780
0.508545 0.132660 0.146118
0.539520 0.140106 0.155365
0.570801 0.147064 0.164307
0.604767 0.154816 0.173340
0.639862 0.161835 0.181793
0.676666 0.169342 0.189453
0.711792 0.176147 0.195709
0.748718 0.182892 0.202484
0.787140 0.190735 0.209442
0.822723 0.197571 0.214294
0.010040 0.027100 0.028961
0.016663 0.026642 0.029907
0.024719 0.023285 0.026031
0.038239 0.024841 0.026733
0.054260 0.026520 0.029175
0.075806 0.030151 0.034210
0.098083 0.034760 0.038330
0.121277 0.040924 0.041534
0.145081 0.048523 0.045685
0.169617 0.056335 0.049774
0.194305 0.063599 0.053040
0.219635 0.069244 0.056030
0.244934 0.075378 0.060333
0.267273 0.081818 0.064697
0.291626 0.089325 0.071991
0.317535 0.096436 0.082306
0.343079 0.103149 0.093018
0.369324 0.110352 0.103760
0.395233 0.116974 0.112579
0.421661 0.123322 0.119690
0.449951 0.130096 0.127960
0.478119 0.137299 0.137238
0.508545 0.144806 0.146820
0.539581 0.152405 0.155579
0.571228 0.159912 0.163666
0.604950 0.167603 0.171936
0.640228 0.174500 0.180664
0.676849 0.181885 0.188324
0.712219 0.188904 0.194733
0.748871 0.196014 0.201447
0.786896 0.203979 0.208710
0.822723 0.211151 0.213257
0.010651 0.044617 0.031647
0.017303 0.044464 0.033508
0.025085 0.041626 0.031616
0.037689 0.037354 0.025269
0.053986 0.040222 0.028381
0.074982 0.046082 0.034454
0.097107 0.052185 0.039215
0.121521 0.057922 0.043457
0.146088 0.063843 0.047150
0.170990 0.070221 0.051239
0.196320 0.075867 0.054596
0.221527 0.081543 0.057373
0.246826 0.087433 0.062042
0.268433 0.093842 0.066742
0.293121 0.101410 0.074463
0.319153 0.108795 0.083771
0.344543 0.115387 0.093903
0.370697 0.122955 0.104370
0.396881 0.130402 0.113922
0.423615 0.137146 0.121124
0.451263 0.143433 0.129059
0.479797 0.150665 0.138275
0.509216 0.158356 0.147003
0.540100 0.166199 0.155243
0.572174 0.173523 0.162811
0.605347 0.181274 0.170319
0.641174 0.188202 0.179230
0.677429 0.195160 0.186829
0.712555 0.202332 0.193115
0.749268 0.210022 0.200226
0.787079 0.218018 0.207367
0.822723 0.225189 0.211884
0.011749 0.064209 0.033539
0.018219 0.064331 0.035126
0.025726 0.063995 0.033966
0.035828 0.060822 0.030640
0.052979 0.057190 0.028107
0.076111 0.060944 0.033386
0.098969 0.067322 0.038361
0.123352 0.074066 0.043030
0.147888 0.080933 0.047119
0.172119 0.087830 0.051270
0.197540 0.092773 0.054565
0.223297 0.098419 0.057709
0.248688 0.103638 0.062317
0.270996 0.109833 0.067383
0.295471 0.116852 0.075104
0.321594 0.124390 0.083740
0.347076 0.130585 0.093262
0.373291 0.138489 0.103821
0.399048 0.145447 0.112976
0.426056 0.151947 0.121307
0.453583 0.158356 0.129364
0.482483 0.166138 0.138062
0.511627 0.173950 0.145813
0.542023 0.181305 0.153412
0.574402 0.188721 0.161499
0.607666 0.196167 0.168976
0.643005 0.203003 0.176971
0.678772 0.209930 0.184296
0.714172 0.217346 0.190918
0.751099 0.225311 0.198578
0.788116 0.233337 0.205597
0.823822 0.240082 0.210022
0.013458 0.086487 0.037048
0.020142 0.088104 0.038513
0.027313 0.089508 0.036255
0.036011 0.084839 0.033112
0.045868 0.083984 0.034576
0.074951 0.080322 0.033752
0.100494 0.083038 0.038177
0.126862 0.089508 0.042236
0.152222 0.096252 0.046112
0.176392 0.103363 0.049774
0.200409 0.110626 0.052826
0.224182 0.117065 0.055481
0.249054 0.123260 0.060486
0.274200 0.129608 0.065826
0.297821 0.137024 0.072296
0.324524 0.144440 0.081421
0.350128 0.150696 0.090393
0.376160 0.157654 0.100983
0.402161 0.163879 0.110565
0.429840 0.169739 0.120300
0.457245 0.176056 0.128601
0.486511 0.183899 0.137665
0.515289 0.191101 0.144287
0.546661 0.198792 0.152435
0.579163 0.205963 0.160583
0.612335 0.212708 0.167084
0.646881 0.219757 0.174072
0.681702 0.226837 0.180908
0.717743 0.234650 0.188446
0.753906 0.242401 0.196045
0.789612 0.249237 0.202209
0.825256 0.256348 0.207031
0.015289 0.108582 0.040802
0.022125 0.111725 0.041748
0.029205 0.113831 0.038269
0.038116 0.109894 0.035522
0.050079 0.109283 0.039398
0.068451 0.106110 0.043304
0.099213 0.104065 0.039307
0.127686 0.106140 0.043518
0.155945 0.112396 0.046417
0.181061 0.118988 0.049042
0.205322 0.125763 0.050720
0.229370 0.132721 0.054291
0.253387 0.139801 0.059143
0.277252 0.147095 0.064819
0.301270 0.154907 0.071442
0.327637 0.162842 0.079895
0.353210 0.169983 0.088470
0.379059 0.176819 0.098541
0.406189 0.183289 0.108765
0.433685 0.189056 0.118591
0.461365 0.195404 0.126678
0.490417 0.202515 0.134735
0.520874 0.210541 0.142456
0.552582 0.218628 0.151123
0.584503 0.225403 0.158112
0.618073 0.231812 0.165192
0.652924 0.239716 0.172760
0.687775 0.247803 0.178864
0.723663 0.255341 0.186432
0.758911 0.262268 0.192841
0.793152 0.267700 0.198151
0.829529 0.275146 0.204193
0.016724 0.128906 0.044037
0.023682 0.133850 0.045044
0.030304 0.136414 0.040558
0.039185 0.134155 0.037750
0.051422 0.134003 0.041687
0.070068 0.131287 0.048737
0.094116 0.128418 0.047913
0.125702 0.127533 0.046387
0.155792 0.128998 0.048737
0.184143 0.135101 0.050751
0.209961 0.141968 0.050232
0.234619 0.148956 0.054657
0.258423 0.156219 0.059570
0.283264 0.164001 0.066315
0.308899 0.172211 0.074615
0.334106 0.180206 0.082397
0.358643 0.187225 0.089783
0.383850 0.194366 0.098877
0.410736 0.200653 0.108643
0.437714 0.207489 0.117188
0.466034 0.215027 0.124969
0.495300 0.223419 0.131866
0.526093 0.232361 0.139648
0.556732 0.239197 0.147278
0.589355 0.246185 0.154663
0.623932 0.253510 0.162292
0.659088 0.262634 0.169891
0.694000 0.270844 0.175934
0.729065 0.277313 0.181641
0.763824 0.283905 0.187836
0.797913 0.289764 0.193390
0.834564 0.296753 0.200104
0.018890 0.151215 0.047333
0.025696 0.155273 0.047058
0.032227 0.158936 0.043518
0.040985 0.159027 0.042114
0.052765 0.159424 0.044525
0.069336 0.156891 0.051208
0.095184 0.154602 0.058929
0.122681 0.152588 0.051208
0.153595 0.150848 0.053375
0.184357 0.152435 0.053345
0.212219 0.158234 0.053040
0.238037 0.165405 0.055206
0.264404 0.172974 0.061584
0.290497 0.181122 0.069946
0.316559 0.189697 0.078339
0.341461 0.197327 0.085876
0.367279 0.204315 0.094086
0.393188 0.211121 0.103210
0.420288 0.217926 0.112091
0.446442 0.225647 0.119293
0.474701 0.233704 0.126373
0.503632 0.242767 0.132812
0.532806 0.251190 0.139374
0.562439 0.257904 0.145844
0.594971 0.265900 0.152466
0.629211 0.275696 0.159424
0.663696 0.286194 0.165466
0.699371 0.295288 0.171387
0.734375 0.302002 0.175537
0.767181 0.307800 0.179962
0.802246 0.314362 0.186096
0.835938 0.320282 0.192047
0.021271 0.173706 0.052063
0.028076 0.177582 0.051941
0.034607 0.181458 0.048706
0.042908 0.183746 0.046295
0.054962 0.184357 0.048218
0.068542 0.182709 0.053558
0.096649 0.178986 0.061523
0.122894 0.179535 0.065796
0.152039 0.175385 0.055908
0.182648 0.174988 0.058838
0.213745 0.176819 0.057251
0.239838 0.181915 0.057587
0.267090 0.188904 0.061554
0.295959 0.197601 0.071808
0.323761 0.206360 0.081421
0.349884 0.214020 0.089905
0.376373 0.221405 0.098083
0.403076 0.229218 0.106995
0.430084 0.236237 0.114960
0.457214 0.244293 0.122253
0.485718 0.252441 0.129272
0.514465 0.261200 0.135925
0.544373 0.269318 0.142395
0.573517 0.276489 0.147980
0.604156 0.285095 0.153381
0.637238 0.295197 0.158813
0.670654 0.305664 0.163300
0.705872 0.315399 0.168182
0.739838 0.323456 0.170807
0.773102 0.331665 0.172821
0.807587 0.339386 0.176910
0.835510 0.343750 0.181763
0.023590 0.195282 0.056702
0.030426 0.199219 0.057007
0.037079 0.203827 0.054871
0.044769 0.208679 0.052032
0.056854 0.209869 0.053589
0.070099 0.208984 0.057251
0.095062 0.204041 0.063568
0.125885 0.201904 0.070282
0.154633 0.205170 0.068634
0.182068 0.199860 0.064301
0.212646 0.199768 0.064178
0.242126 0.201385 0.061249
0.268402 0.205505 0.062256
0.298126 0.213196 0.071564
0.327667 0.222168 0.081879
0.357208 0.230652 0.092560
0.385773 0.239227 0.101685
0.413208 0.247101 0.110443
0.440155 0.255005 0.117981
0.467957 0.263031 0.125275
0.495972 0.271484 0.131958
0.524567 0.280060 0.138580
0.553986 0.287598 0.144379
0.582977 0.295227 0.149506
0.614105 0.303955 0.154816
0.646576 0.313049 0.159424
0.681122 0.323486 0.164093
0.714752 0.332977 0.167725
0.747681 0.342346 0.168579
0.780273 0.350891 0.169464
0.815216 0.360565 0.172058
0.837891 0.363831 0.175598
0.026031 0.217926 0.063080
0.032623 0.221588 0.063293
0.039032 0.225861 0.061066
0.046753 0.230682 0.058380
0.057861 0.234009 0.058838
0.071106 0.233948 0.061951
0.093292 0.229950 0.065796
0.125336 0.225861 0.075012
0.156250 0.226685 0.070099
0.183502 0.228455 0.070160
0.211578 0.223816 0.073792
0.242798 0.224091 0.070465
0.269897 0.224457 0.065277
0.299042 0.229248 0.069733
0.330841 0.238403 0.082397
0.361603 0.247314 0.093353
0.391632 0.256378 0.103394
0.420563 0.264801 0.112274
0.449432 0.273315 0.120880
0.477600 0.281464 0.127960
0.505585 0.290192 0.134552
0.533569 0.298584 0.140289
0.562439 0.306061 0.145416
0.590424 0.313171 0.149750
0.622437 0.322296 0.155365
0.655884 0.332031 0.160156
0.689148 0.341339 0.164246
0.722992 0.351318 0.166870
0.755920 0.360748 0.167084
0.789093 0.369202 0.167694
0.823273 0.378754 0.169922
0.841827 0.380585 0.171936
0.029205 0.241364 0.069916
0.035736 0.244232 0.070312
0.041779 0.248230 0.067444
0.050049 0.253082 0.065338
0.061493 0.256744 0.066376
0.073639 0.259552 0.066772
0.089294 0.255524 0.069489
0.124115 0.251678 0.075439
0.154510 0.251068 0.076904
0.183228 0.251831 0.068939
0.213074 0.256683 0.076660
0.242462 0.248993 0.079163
0.272705 0.249298 0.072937
0.301331 0.250824 0.073578
0.333832 0.257385 0.080322
0.365173 0.265411 0.092896
0.394867 0.273438 0.103882
0.423859 0.281891 0.112671
0.453400 0.290466 0.121063
0.484497 0.299530 0.129028
0.513947 0.308563 0.135681
0.542664 0.317108 0.141632
0.570221 0.324188 0.146027
0.598755 0.331879 0.150024
0.630371 0.341003 0.155121
0.663361 0.350372 0.159882
0.696472 0.359619 0.163544
0.730042 0.369171 0.164917
0.763153 0.378448 0.165283
0.797699 0.387512 0.166321
0.831146 0.396698 0.168213
0.848267 0.397980 0.169861
0.031738 0.264282 0.075653
0.038116 0.265961 0.076538
0.044830 0.270264 0.074005
0.053223 0.275208 0.071869
0.064850 0.279144 0.073273
0.077209 0.281891 0.073090
0.091339 0.281250 0.072601
0.119537 0.277588 0.076477
0.154053 0.275024 0.083160
0.185760 0.277466 0.073242
0.212067 0.277649 0.069641
0.243347 0.283875 0.083008
0.273590 0.275787 0.080383
0.304352 0.277832 0.079071
0.337494 0.281403 0.084045
0.368896 0.284882 0.090149
0.398529 0.292236 0.102295
0.427155 0.299896 0.111755
0.456818 0.307556 0.120117
0.488312 0.316772 0.128052
0.518494 0.325470 0.134857
0.547974 0.334442 0.140747
0.577728 0.342804 0.146423
0.606995 0.350983 0.150757
0.638855 0.358917 0.155365
0.671600 0.367737 0.159302
0.704102 0.377258 0.161285
0.736816 0.386902 0.162689
0.769714 0.395996 0.163635
0.804291 0.405579 0.164825
0.836060 0.414459 0.165497
0.853058 0.415619 0.166656
0.034698 0.286987 0.081696
0.041107 0.288422 0.082916
0.047516 0.291534 0.080048
0.055542 0.295532 0.076660
0.067230 0.298828 0.077484
0.080170 0.301483 0.077148
0.093658 0.304443 0.076752
0.117218 0.301727 0.079865
0.155731 0.300262 0.085266
0.187134 0.301880 0.082214
0.219910 0.303162 0.074951
0.248169 0.307983 0.077301
0.276306 0.311401 0.087433
0.307495 0.304962 0.084808
0.340759 0.307800 0.089142
0.373566 0.309906 0.094177
0.402313 0.312408 0.098358
0.430573 0.319031 0.109161
0.460297 0.326599 0.117584
0.491486 0.334503 0.125946
0.522003 0.342773 0.132935
0.551636 0.351257 0.138550
0.581818 0.359528 0.144501
0.614532 0.368011 0.150146
0.647980 0.375977 0.154694
0.679199 0.384552 0.157043
0.710876 0.394165 0.158752
0.743286 0.404480 0.160400
0.775604 0.413879 0.160583
0.809387 0.423828 0.161835
0.837952 0.431976 0.161835
0.855011 0.433044 0.162872
0.037506 0.308105 0.087158
0.043915 0.309662 0.088593
0.050110 0.311646 0.085571
0.057648 0.315460 0.080933
0.069763 0.318573 0.081329
0.083160 0.321899 0.081360
0.096832 0.325836 0.082397
0.118713 0.325623 0.085297
0.156860 0.324097 0.090820
0.190369 0.325500 0.093567
0.223480 0.329041 0.082031
0.253479 0.331299 0.082947
0.284760 0.340271 0.087769
0.309418 0.338043 0.091309
0.343597 0.333527 0.093903
0.376984 0.335907 0.098450
0.407196 0.338776 0.103424
0.434509 0.341431 0.106903
0.464111 0.346069 0.113617
0.497009 0.354126 0.121613
0.527679 0.361938 0.128998
0.556854 0.369019 0.136017
0.586975 0.375977 0.142731
0.617828 0.383606 0.147247
0.651337 0.391968 0.151245
0.685303 0.401611 0.153381
0.717590 0.411713 0.156189
0.749084 0.421906 0.157043
0.779633 0.431305 0.156616
0.812408 0.441589 0.158142
0.834473 0.449036 0.155914
0.851349 0.449982 0.156952
0.040131 0.328491 0.092926
0.046478 0.330170 0.094543
0.052643 0.332611 0.091278
0.060791 0.336945 0.085724
0.073792 0.339691 0.086304
0.087128 0.343109 0.086700
0.100952 0.347687 0.088135
0.122528 0.348511 0.091644
0.159760 0.347382 0.096832
0.194061 0.348206 0.101196
0.226654 0.353119 0.091431
0.260376 0.357544 0.090179
0.286011 0.359406 0.091553
0.318420 0.371918 0.098816
0.344025 0.366119 0.100708
0.379761 0.363220 0.103638
0.410400 0.365662 0.108337
0.439911 0.368683 0.112640
0.469330 0.371155 0.114349
0.501160 0.374756 0.116913
0.532043 0.380829 0.123108
0.561249 0.387268 0.131012
0.590607 0.393829 0.137421
0.621552 0.400208 0.143433
0.655212 0.408600 0.148651
0.687836 0.418152 0.149994
0.721100 0.429535 0.153076
0.753998 0.440491 0.154907
0.784851 0.449493 0.155029
0.815704 0.459381 0.155273
0.832581 0.465973 0.156036
0.849182 0.467133 0.156830
0.042786 0.348846 0.099884
0.049011 0.350708 0.100739
0.055328 0.354980 0.095032
0.065491 0.358459 0.091217
0.078644 0.361176 0.092316
0.092102 0.365143 0.093353
0.105957 0.369781 0.094666
0.125122 0.370514 0.097748
0.163269 0.370026 0.102753
0.196533 0.371643 0.107819
0.229706 0.376129 0.101715
0.262299 0.383606 0.098236
0.293182 0.386597 0.099945
0.319305 0.392487 0.102448
0.350006 0.401764 0.107147
0.377899 0.395996 0.110565
0.412994 0.393768 0.113312
0.443848 0.396576 0.117920
0.472931 0.398376 0.118866
0.504181 0.401306 0.121063
0.534729 0.403381 0.123535
0.563171 0.405670 0.126282
0.592773 0.412476 0.131287
0.624390 0.419830 0.137329
0.657227 0.427582 0.143555
0.689545 0.435852 0.148254
0.723267 0.447754 0.151306
0.757538 0.458954 0.153931
0.790344 0.469055 0.155487
0.815948 0.478973 0.158234
0.832245 0.484314 0.159576
0.848267 0.485107 0.159760
0.045349 0.368927 0.104584
0.051849 0.372894 0.104034
0.058258 0.377319 0.096283
0.070129 0.379364 0.096100
0.083130 0.382294 0.097717
0.096771 0.387329 0.099945
0.110352 0.391663 0.101196
0.130646 0.392639 0.104065
0.164734 0.392548 0.108734
0.198578 0.394562 0.114136
0.230927 0.399750 0.113464
0.263184 0.407623 0.105408
0.295319 0.413147 0.107178
0.322205 0.415100 0.107544
0.351349 0.425537 0.111969
0.381683 0.434692 0.117493
0.407654 0.427002 0.118347
0.444305 0.425110 0.122528
0.474365 0.426086 0.122986
0.505219 0.428589 0.124878
0.535583 0.430481 0.127228
0.564880 0.432037 0.129822
0.594788 0.433777 0.133514
0.626465 0.440918 0.138245
0.659454 0.449066 0.143311
0.692474 0.457397 0.148834
0.726044 0.466492 0.153625
0.760101 0.477509 0.157196
0.794373 0.488678 0.159882
0.816132 0.498016 0.161896
0.832092 0.501404 0.162506
0.848267 0.502258 0.162750
0.047852 0.391663 0.108124
0.054413 0.395813 0.106232
0.062683 0.398499 0.100800
0.074707 0.400696 0.101929
0.087341 0.403748 0.103729
0.100830 0.409271 0.106049
0.114197 0.413391 0.107208
0.131317 0.414917 0.110962
0.166229 0.414886 0.114716
0.199371 0.416382 0.118896
0.231293 0.421875 0.119476
0.263306 0.430939 0.111298
0.295441 0.438354 0.113373
0.326324 0.441742 0.114197
0.349548 0.444183 0.115387
0.382233 0.461029 0.121796
0.410339 0.468933 0.126251
0.436615 0.459961 0.126556
0.474701 0.458221 0.130157
0.505646 0.458069 0.130432
0.536377 0.460358 0.132416
0.565430 0.461700 0.134827
0.596832 0.463104 0.137970
0.627930 0.464050 0.141876
0.661591 0.471283 0.147034
0.694580 0.479614 0.152649
0.728699 0.488312 0.158081
0.762848 0.497192 0.161377
0.797058 0.507172 0.163574
0.816132 0.516968 0.165192
0.832916 0.520172 0.165955
0.849121 0.520996 0.166229
0.050690 0.415924 0.111938
0.057159 0.419373 0.108490
0.067108 0.419891 0.106720
0.078949 0.422577 0.107727
0.091431 0.426575 0.109650
0.104523 0.431915 0.111755
0.117859 0.435760 0.113647
0.133240 0.437103 0.117920
0.164368 0.438324 0.122589
0.200134 0.439301 0.125824
0.231232 0.444244 0.125916
0.261200 0.452759 0.121582
0.294189 0.463379 0.119720
0.325562 0.468506 0.120850
0.355988 0.473358 0.122437
0.378052 0.478088 0.124908
0.410950 0.496826 0.132141
0.439362 0.503937 0.136017
0.464996 0.494568 0.135040
0.504974 0.493591 0.140076
0.536041 0.492035 0.140594
0.566345 0.493439 0.141052
0.597961 0.494873 0.143616
0.629486 0.495209 0.146515
0.662079 0.496033 0.150360
0.695526 0.502075 0.155487
0.730225 0.510742 0.160645
0.765442 0.519440 0.164642
0.799408 0.528381 0.167358
0.816895 0.536743 0.168762
0.833649 0.539276 0.169312
0.850128 0.540558 0.169708
0.053894 0.440430 0.118713
0.060455 0.443787 0.115051
0.070801 0.444519 0.114532
0.082428 0.447693 0.114868
0.095337 0.452240 0.116791
0.108917 0.457520 0.119171
0.122559 0.459473 0.123047
0.135773 0.460358 0.126953
0.162231 0.461975 0.130737
0.200775 0.463104 0.133759
0.231018 0.467438 0.133759
0.260956 0.475616 0.131653
0.292328 0.485779 0.125519
0.325470 0.494751 0.126923
0.355011 0.501038 0.128754
0.383301 0.507874 0.132233
0.406067 0.513916 0.135162
0.439148 0.533295 0.142548
0.467102 0.540161 0.145477
0.492889 0.531616 0.144562
0.533936 0.531219 0.149414
0.565582 0.525757 0.148621
0.597626 0.526093 0.149750
0.630066 0.526642 0.151581
0.662109 0.527557 0.154266
0.697571 0.528534 0.158081
0.732025 0.533875 0.162689
0.767120 0.541992 0.166107
0.799316 0.550690 0.169373
0.817200 0.558655 0.171661
0.834351 0.559753 0.172668
0.850830 0.560944 0.172974
0.057190 0.464508 0.126648
0.063538 0.468170 0.122620
0.073944 0.470032 0.122253
0.085754 0.473297 0.122742
0.098938 0.477661 0.123932
0.112854 0.480408 0.127319
0.126831 0.481873 0.131989
0.140045 0.483154 0.136322
0.157257 0.483948 0.139069
0.194214 0.486389 0.141632
0.231049 0.489807 0.141785
0.260376 0.498047 0.138763
0.290009 0.506653 0.133667
0.324829 0.519104 0.132446
0.355530 0.528412 0.134735
0.385010 0.536102 0.138123
0.411499 0.542542 0.141327
0.434631 0.550110 0.144745
0.467590 0.569611 0.151550
0.495331 0.577087 0.153931
0.522614 0.571350 0.154114
0.561859 0.567078 0.155731
0.595825 0.561340 0.158539
0.629181 0.561584 0.159149
0.662415 0.561188 0.160126
0.698334 0.561493 0.162170
0.731873 0.561707 0.165009
0.766602 0.565582 0.167725
0.798309 0.574188 0.171204
0.815857 0.581451 0.173401
0.833221 0.582306 0.174622
0.850281 0.583923 0.175751
0.060730 0.487823 0.134338
0.067688 0.489258 0.132324
0.077942 0.491455 0.132202
0.089783 0.495209 0.132782
0.102722 0.499847 0.133392
0.116302 0.501251 0.135895
0.130280 0.502930 0.140350
0.143738 0.505066 0.144989
0.156860 0.506866 0.148102
0.185944 0.509125 0.149536
0.227203 0.513031 0.149963
0.260468 0.520782 0.146606
0.289917 0.529358 0.140869
0.322357 0.540710 0.138000
0.356476 0.554108 0.140350
0.385468 0.562164 0.143555
0.414185 0.570282 0.147369
0.439362 0.577271 0.150604
0.463196 0.586334 0.154175
0.495758 0.606018 0.159515
0.525299 0.615295 0.162689
0.554047 0.611633 0.162750
0.594727 0.605255 0.163239
0.629547 0.597900 0.166809
0.661407 0.595245 0.167511
0.696106 0.594971 0.168427
0.731720 0.595581 0.169403
0.767822 0.595856 0.171143
0.797058 0.599152 0.173950
0.814240 0.605804 0.175781
0.831726 0.605957 0.176758
0.849030 0.607971 0.178040
0.065735 0.508392 0.144287
0.072540 0.509399 0.142365
0.082520 0.511963 0.142639
0.094116 0.515778 0.143097
0.106720 0.520538 0.143677
0.120026 0.522278 0.145142
0.133698 0.523834 0.148743
0.147125 0.526550 0.153351
0.160736 0.529297 0.156982
0.181915 0.533142 0.158722
0.222412 0.537170 0.158875
0.261597 0.544220 0.155365
0.291138 0.553162 0.148560
0.321869 0.563202 0.143921
0.355286 0.576599 0.146576
0.386017 0.587006 0.148834
0.414093 0.596191 0.152771
0.442719 0.605988 0.156555
0.468384 0.614868 0.159851
0.492188 0.623566 0.162231
0.524292 0.643127 0.167328
0.554504 0.654419 0.170563
0.582001 0.652466 0.170654
0.625488 0.645721 0.171631
0.664734 0.634918 0.172913
0.696594 0.631134 0.175018
0.730804 0.629822 0.176147
0.767029 0.630157 0.177307
0.794678 0.628784 0.178162
0.812256 0.630676 0.179626
0.829834 0.630493 0.180634
0.847382 0.632721 0.181915
0.070862 0.528687 0.154572
0.077667 0.529633 0.152832
0.087524 0.532318 0.153076
0.098633 0.536255 0.153564
0.110626 0.541016 0.153595
0.123688 0.543640 0.154785
0.137115 0.545288 0.157990
0.150665 0.548157 0.162384
0.163879 0.551453 0.166046
0.184662 0.556580 0.168304
0.222626 0.561554 0.168976
0.260529 0.568329 0.165741
0.293610 0.577240 0.157806
0.324036 0.587677 0.151276
0.354889 0.599091 0.153076
0.385284 0.610413 0.154968
0.414917 0.621643 0.157898
0.443207 0.632721 0.161560
0.472137 0.644379 0.164917
0.497742 0.653137 0.167145
0.519928 0.661224 0.169708
0.550934 0.681885 0.174744
0.581085 0.695740 0.178253
0.609680 0.694336 0.179047
0.656708 0.686432 0.179871
0.700134 0.673553 0.180084
0.733978 0.668976 0.182404
0.766693 0.666718 0.184967
0.791260 0.663757 0.185181
0.809204 0.661774 0.184967
0.826630 0.659424 0.185974
0.843994 0.661743 0.187653
0.076050 0.548889 0.165039
0.083069 0.550018 0.164001
0.092621 0.552551 0.163849
0.103699 0.557098 0.164215
0.115417 0.562134 0.164124
0.127777 0.565247 0.164978
0.140930 0.566803 0.168030
0.154388 0.570221 0.172333
0.167816 0.574463 0.175781
0.187988 0.579987 0.178497
0.224640 0.588959 0.178497
0.259644 0.594818 0.172852
0.293732 0.605713 0.164215
0.325714 0.617432 0.160400
0.355438 0.628967 0.162079
0.383514 0.639008 0.163177
0.412720 0.651184 0.165100
0.442200 0.664093 0.167328
0.471252 0.676300 0.170441
0.499878 0.686829 0.173157
0.524780 0.695099 0.175690
0.545471 0.701355 0.177399
0.576843 0.721405 0.182007
0.609711 0.735992 0.185974
0.639038 0.734467 0.187500
0.688812 0.725922 0.188202
0.733948 0.712769 0.187012
0.769775 0.707947 0.190460
0.790924 0.702576 0.191864
0.807709 0.697998 0.191864
0.824554 0.693756 0.192108
0.841217 0.696320 0.193512
0.081146 0.568726 0.176025
0.088379 0.569855 0.175323
0.097809 0.573059 0.175201
0.108643 0.580383 0.174591
0.120300 0.589294 0.173615
0.132721 0.596588 0.173401
0.145508 0.601959 0.174469
0.158630 0.609283 0.174286
0.171783 0.617798 0.173767
0.189026 0.626068 0.172638
0.218994 0.631866 0.169250
0.253357 0.634827 0.167480
0.288727 0.647034 0.168762
0.322784 0.660095 0.171570
0.353607 0.671082 0.173340
0.382294 0.679962 0.173340
0.410400 0.690216 0.174622
0.437775 0.698456 0.174713
0.467499 0.709351 0.176636
0.497192 0.721283 0.179718
0.525635 0.730316 0.182281
0.551514 0.738586 0.184448
0.572418 0.742798 0.185699
0.605103 0.761444 0.190277
0.638489 0.774017 0.194336
0.669312 0.773193 0.195343
0.723694 0.766418 0.196228
0.769409 0.754120 0.195618
0.791748 0.748077 0.196960
0.807800 0.738861 0.196716
0.824951 0.732788 0.196869
0.841797 0.735565 0.198334
0.082886 0.617889 0.175751
0.090363 0.619751 0.175385
0.099915 0.625214 0.174316
0.110565 0.633606 0.172424
0.122131 0.643463 0.170380
0.135040 0.650848 0.169922
0.148468 0.653961 0.170258
0.161835 0.656006 0.169098
0.174072 0.656555 0.167419
0.186859 0.659454 0.167999
0.206116 0.670135 0.171936
0.239655 0.682251 0.175415
0.282471 0.695770 0.180115
0.316406 0.706787 0.182861
0.348999 0.717041 0.184326
0.380249 0.725983 0.184265
0.410065 0.734131 0.184570
