滤镜资源/Professional Luts Collection/Triune-Digital-Cinematic-LUTs/3D LUTs (CUBE)/STANDARD/Mission Impossible - Rec709.cube
#Created by Benjamin (IWLTBAP) : http://luts.iwltbap.com
#Copyright: (C) Copyright 2016 Triune Films and IWLTBAP
TITLE "Blockbuster LUTs Pack (Rec.709)"
#LUT size
LUT_3D_SIZE 8
#LUT data points
DOMAIN_MIN 0.000000 0.000000 0.000000
DOMAIN_MAX 0.903226 0.903226 0.903226
0.007507 0.006042 0.013550
0.101501 0.018677 0.018829
0.221405 0.039978 0.036804
0.336792 0.054413 0.051514
0.454224 0.073303 0.074341
0.572662 0.097473 0.095398
0.692963 0.123566 0.114532
0.801392 0.145935 0.128357
0.012146 0.104980 0.018402
0.096588 0.108002 0.021210
0.226196 0.120575 0.030365
0.340881 0.138702 0.044037
0.460144 0.160034 0.065430
0.584778 0.183899 0.092163
0.704376 0.209808 0.113831
0.813965 0.231293 0.131317
0.019653 0.204956 0.029846
0.086823 0.213287 0.027985
0.221252 0.216370 0.034393
0.351349 0.228027 0.044342
0.469147 0.249207 0.063477
0.591583 0.274109 0.086792
0.719086 0.302948 0.108185
0.833771 0.325623 0.126099
0.025024 0.304138 0.042206
0.091888 0.311829 0.039948
0.202484 0.321899 0.040710
0.353516 0.333282 0.052765
0.484589 0.345306 0.068787
0.608429 0.366730 0.088013
0.733154 0.394348 0.108490
0.847504 0.419495 0.126801
0.033264 0.402740 0.058685
0.100616 0.408356 0.055939
0.187500 0.427124 0.051025
0.353455 0.438995 0.063507
0.493408 0.458832 0.079590
0.626251 0.471649 0.096161
0.751312 0.493835 0.112091
0.864960 0.518250 0.131348
0.045166 0.503845 0.082123
0.112000 0.508209 0.079559
0.189514 0.527222 0.074463
0.347931 0.539001 0.077820
0.507812 0.570007 0.087463
0.641083 0.597382 0.105652
0.765686 0.607788 0.120209
0.877167 0.619080 0.144409
0.057190 0.604919 0.108124
0.124969 0.610809 0.105255
0.203369 0.627747 0.100464
0.322693 0.648560 0.090240
0.511017 0.676147 0.109955
0.656525 0.714996 0.114319
0.771912 0.737030 0.138367
0.884949 0.731293 0.162262
0.075104 0.705170 0.129150
0.144073 0.714081 0.125397
0.220184 0.730255 0.121674
0.329773 0.764984 0.116486
0.503937 0.788391 0.126404
0.658112 0.820984 0.141663
0.775452 0.838806 0.159760
0.884064 0.850220 0.174622
0.012360 0.024841 0.119385
0.115234 0.026855 0.126495
0.245178 0.043091 0.128601
0.356537 0.058868 0.138062
0.473053 0.080414 0.156677
0.586151 0.102264 0.175018
0.699677 0.126007 0.191803
0.808594 0.150024 0.205658
0.014923 0.117737 0.126007
0.088898 0.119965 0.130951
0.228302 0.131775 0.133392
0.349884 0.147003 0.143738
0.473602 0.166412 0.163330
0.597992 0.193207 0.185120
0.714935 0.217682 0.200897
0.820007 0.237946 0.216888
0.022614 0.223053 0.142578
0.087769 0.223389 0.138184
0.196930 0.231049 0.135376
0.363281 0.240082 0.141602
0.486877 0.265167 0.160278
0.618134 0.290009 0.179565
0.737427 0.313507 0.199738
0.840515 0.335388 0.226135
0.028290 0.321381 0.152039
0.093231 0.321014 0.143463
0.172852 0.333679 0.135376
0.351868 0.342255 0.134521
0.496643 0.357513 0.156677
0.629913 0.386658 0.178009
0.754333 0.413147 0.196442
0.857330 0.436615 0.226288
0.037933 0.419861 0.166199
0.103851 0.421448 0.159851
0.172638 0.423126 0.152344
0.332123 0.451996 0.151245
0.496368 0.471222 0.158661
0.638000 0.486359 0.180237
0.768951 0.512634 0.197174
0.868164 0.529968 0.228882
0.050720 0.523010 0.185883
0.115906 0.524170 0.180328
0.183868 0.525482 0.173676
0.315643 0.557831 0.158356
0.494598 0.583893 0.172882
0.646118 0.613037 0.184204
0.771454 0.618927 0.205566
0.877777 0.625854 0.237000
0.063629 0.620911 0.202820
0.129974 0.622192 0.198883
0.199432 0.626404 0.196259
0.277344 0.634277 0.196503
0.494385 0.682709 0.189301
0.658875 0.725861 0.199921
0.770966 0.740570 0.229156
0.885101 0.735870 0.245483
0.080566 0.719330 0.218536
0.146576 0.721008 0.214447
0.218445 0.731812 0.212799
0.299988 0.751312 0.211884
0.496124 0.804718 0.211212
0.656494 0.827454 0.229767
0.775177 0.843384 0.246063
0.885223 0.855530 0.254791
0.015167 0.044189 0.220825
0.092590 0.045349 0.227509
0.241150 0.053253 0.232330
0.366791 0.066925 0.236084
0.480408 0.084167 0.243256
0.607300 0.112183 0.260956
0.713867 0.133484 0.273529
0.816040 0.156158 0.285919
0.015259 0.141022 0.229706
0.079987 0.143768 0.234375
0.206818 0.135254 0.248291
0.366760 0.159760 0.245178
0.493286 0.173248 0.252197
0.611084 0.198395 0.269196
0.719177 0.224365 0.288239
0.822723 0.243896 0.303955
0.019897 0.235504 0.244690
0.085388 0.237976 0.245850
0.168579 0.244202 0.254822
0.348114 0.255341 0.260651
0.482086 0.278809 0.274750
0.610443 0.301422 0.295929
0.727264 0.325531 0.315186
0.833771 0.344299 0.331757
0.029877 0.338501 0.264740
0.097260 0.342560 0.265564
0.167755 0.346710 0.267334
0.285828 0.355560 0.268860
0.493835 0.378021 0.276367
0.632629 0.411743 0.300903
0.758698 0.429901 0.309937
0.856445 0.445831 0.338196
0.047455 0.446442 0.287842
0.112640 0.447601 0.283295
0.178101 0.445618 0.273560
0.278687 0.458954 0.269440
0.484528 0.480225 0.264465
0.638458 0.505463 0.294464
0.766846 0.530273 0.321350
0.871887 0.547638 0.338318
0.060150 0.547791 0.299500
0.124420 0.549011 0.292084
0.190399 0.546448 0.281891
0.271118 0.558258 0.284821
0.457886 0.586334 0.288666
0.642395 0.631439 0.286591
0.768585 0.630310 0.324951
0.882874 0.642334 0.338623
0.072571 0.642334 0.306427
0.139221 0.642731 0.301331
0.206024 0.642029 0.296082
0.280548 0.649414 0.300293
0.450165 0.687653 0.297302
0.644501 0.732239 0.313690
0.772156 0.752869 0.328674
0.887238 0.746552 0.343201
0.090149 0.744781 0.315918
0.155487 0.745209 0.311066
0.222931 0.747009 0.307648
0.300385 0.759430 0.315491
0.438965 0.794678 0.309937
0.647675 0.832916 0.331207
0.776337 0.855377 0.343536
0.888336 0.864166 0.346649
0.018402 0.066193 0.316467
0.086517 0.064514 0.328766
0.207306 0.064423 0.337067
0.359528 0.081604 0.336700
0.481995 0.094269 0.336090
0.602356 0.118469 0.348724
0.721039 0.143585 0.366089
0.824524 0.165497 0.379669
0.017059 0.162567 0.327881
0.082916 0.165100 0.332062
0.181915 0.152405 0.346893
0.338684 0.161835 0.354370
0.480072 0.181763 0.347931
0.614105 0.209259 0.360992
0.730133 0.232788 0.377777
0.830261 0.251282 0.390411
0.023895 0.253815 0.341644
0.089874 0.256622 0.344391
0.161621 0.260925 0.350861
0.306335 0.253632 0.377045
0.487427 0.288452 0.371704
0.617401 0.304749 0.380493
0.731354 0.328400 0.398346
0.837830 0.350830 0.416687
0.034821 0.350098 0.359436
0.103088 0.355377 0.362457
0.170685 0.356812 0.365387
0.267181 0.366119 0.381470
0.470795 0.383270 0.388977
0.613037 0.417542 0.411377
0.741577 0.440338 0.432800
0.851929 0.455719 0.446259
0.052338 0.457672 0.383240
0.119446 0.464630 0.385498
0.187408 0.469360 0.386902
0.268555 0.480621 0.396362
0.417236 0.488647 0.401154
0.625580 0.521942 0.419128
0.763397 0.552765 0.443817
0.876556 0.565155 0.452667
0.070801 0.575409 0.410095
0.137878 0.580963 0.412415
0.205200 0.583771 0.410553
0.274200 0.581207 0.401276
0.404510 0.592407 0.407013
0.624756 0.630249 0.407898
0.766937 0.647003 0.436890
0.886841 0.666412 0.451904
0.087708 0.679749 0.430115
0.152924 0.677887 0.423218
0.218964 0.674957 0.412964
0.285675 0.672882 0.404907
0.404846 0.689819 0.419769
0.617889 0.732086 0.429382
0.767792 0.766205 0.432831
0.890289 0.764069 0.452057
0.102905 0.779114 0.433868
0.167358 0.776642 0.421631
0.234131 0.776855 0.414978
0.304108 0.780121 0.413116
0.415619 0.811493 0.420929
0.626892 0.845917 0.429138
0.770691 0.868561 0.449127
0.892334 0.878113 0.454010
0.025421 0.084320 0.413971
0.094269 0.081421 0.434021
0.185120 0.085236 0.439240
0.336853 0.094025 0.443207
0.476471 0.107178 0.441132
0.608978 0.125916 0.439056
0.728455 0.155273 0.455872
0.830109 0.175018 0.469971
0.023499 0.183350 0.426727
0.092010 0.182953 0.433350
0.168793 0.179260 0.447998
0.310852 0.168610 0.463013
0.473328 0.191162 0.459015
0.613312 0.214630 0.455505
0.732788 0.244568 0.470856
0.842743 0.264008 0.483734
0.033783 0.274963 0.441895
0.099243 0.277863 0.444702
0.165161 0.278412 0.449799
0.279633 0.277802 0.476685
0.462067 0.286102 0.483551
0.617279 0.312866 0.478271
0.736877 0.337280 0.489166
0.846649 0.356812 0.502502
0.046600 0.370453 0.459045
0.114014 0.376556 0.463501
0.181671 0.379059 0.466919
0.265686 0.385406 0.481201
0.427124 0.386658 0.502686
0.619202 0.423676 0.505615
0.744263 0.438599 0.514954
0.850800 0.454987 0.525818
0.058044 0.471924 0.478638
0.124939 0.477814 0.482727
0.193024 0.482697 0.485962
0.265259 0.489258 0.493683
0.400360 0.508484 0.520264
0.614655 0.530579 0.531311
0.756378 0.562378 0.555573
0.874390 0.579407 0.572876
0.074493 0.581146 0.506989
0.142365 0.587769 0.510376
0.211487 0.594299 0.514618
0.279968 0.597870 0.516388
0.386871 0.625366 0.535126
0.577667 0.636627 0.539581
0.767883 0.669037 0.564972
0.895233 0.694275 0.586853
0.095154 0.695435 0.536896
0.163055 0.702698 0.538177
0.230927 0.706879 0.540070
0.299927 0.712311 0.542389
0.378387 0.719757 0.539581
0.565125 0.742676 0.542755
0.762512 0.776184 0.553345
0.895721 0.785828 0.578766
0.114288 0.808716 0.567108
0.181549 0.813110 0.565002
0.249695 0.816071 0.559753
0.317596 0.816620 0.550507
0.395477 0.822845 0.547394
0.583496 0.856140 0.524170
0.761353 0.879242 0.568420
0.891724 0.893921 0.578217
0.033569 0.102173 0.514496
0.102356 0.099640 0.538666
0.176666 0.104034 0.545746
0.299530 0.108643 0.548401
0.462463 0.122498 0.546326
0.621643 0.142120 0.535980
0.740265 0.167633 0.555481
0.842407 0.184326 0.571472
0.035767 0.202087 0.529846
0.102722 0.199066 0.537476
0.171967 0.194061 0.548218
0.280029 0.192596 0.566315
0.458740 0.206360 0.561890
0.617279 0.226471 0.555298
0.738525 0.252411 0.569550
0.844116 0.271057 0.585022
0.044556 0.296265 0.544250
0.109924 0.298920 0.549713
0.178711 0.297028 0.554443
0.260742 0.298065 0.567566
0.446594 0.296844 0.590729
0.618866 0.324921 0.585846
0.740265 0.345795 0.591980
0.845947 0.361237 0.602325
0.055176 0.390503 0.560547
0.121796 0.394989 0.564758
0.189423 0.397583 0.569733
0.261963 0.403870 0.582123
0.408875 0.411438 0.610840
0.602722 0.421478 0.619171
0.743591 0.445892 0.621124
0.850128 0.458252 0.623169
0.066101 0.487366 0.581696
0.133392 0.493103 0.586121
0.201447 0.497101 0.589691
0.272522 0.503387 0.598969
0.389404 0.522003 0.620117
0.572296 0.531891 0.645264
0.759155 0.562592 0.658112
0.871216 0.567902 0.655884
0.080017 0.587494 0.604980
0.147888 0.593719 0.609955
0.216919 0.599548 0.614960
0.286652 0.605591 0.620270
0.383972 0.626495 0.637299
0.551239 0.654388 0.668427
0.776581 0.682587 0.690979
0.900269 0.706360 0.710693
0.098541 0.699615 0.638062
0.167053 0.706970 0.641815
0.236511 0.713135 0.644836
0.306274 0.718475 0.648315
0.383453 0.735077 0.658539
0.538879 0.768188 0.684875
0.752838 0.788727 0.699432
0.907776 0.809448 0.720367
0.120392 0.815033 0.669556
0.188385 0.820557 0.670593
0.257629 0.826172 0.671692
0.327148 0.831543 0.673950
0.398560 0.839722 0.677307
0.534363 0.871460 0.685211
0.734406 0.893768 0.676544
0.899536 0.909058 0.711975
0.040985 0.121582 0.615143
0.113586 0.119751 0.642914
0.186798 0.122070 0.649628
0.296295 0.129395 0.649841
0.455902 0.141632 0.648895
0.616180 0.165405 0.658752
0.745148 0.181976 0.660339
0.848053 0.198456 0.675385
0.045746 0.217987 0.635712
0.111481 0.215698 0.640961
0.183990 0.210907 0.650116
0.277069 0.214508 0.669861
0.442902 0.220978 0.671783
0.605011 0.248474 0.674988
0.744141 0.266815 0.677612
0.848053 0.282898 0.691437
0.054047 0.314911 0.646606
0.121094 0.316040 0.651825
0.187622 0.314056 0.657593
0.260651 0.314636 0.664185
0.419006 0.317017 0.694855
0.602875 0.335907 0.699127
0.742432 0.353882 0.698700
0.849396 0.370392 0.711243
0.063843 0.409149 0.662964
0.130371 0.412750 0.667725
0.197937 0.414825 0.672607
0.270264 0.419006 0.682159
0.398438 0.428986 0.706879
0.584381 0.423126 0.735779
0.744934 0.447205 0.726044
0.856476 0.465546 0.737457
0.074738 0.502838 0.684753
0.142212 0.508118 0.689331
0.211121 0.512238 0.693451
0.281708 0.516602 0.698547
0.389404 0.533142 0.718109
0.552490 0.549164 0.755524
0.753693 0.554199 0.766602
0.875854 0.576447 0.773773
0.089722 0.602509 0.709015
0.158081 0.609161 0.714020
0.227386 0.613739 0.718536
0.297485 0.617981 0.723114
0.387939 0.633728 0.737915
0.539886 0.660614 0.765533
0.750000 0.684448 0.798401
0.897522 0.701691 0.811890
0.107178 0.707245 0.735840
0.175964 0.712952 0.739471
0.246246 0.718750 0.743958
0.316406 0.724213 0.747681
0.391632 0.737091 0.758453
0.531311 0.766205 0.784760
0.718933 0.798828 0.816132
0.917114 0.822357 0.838531
0.127533 0.817535 0.767944
0.195953 0.823456 0.770386
0.264984 0.828430 0.773193
0.334381 0.834381 0.777496
0.405090 0.842926 0.784027
0.523376 0.873993 0.806091
0.690521 0.903748 0.826050
0.907410 0.923828 0.842987
0.048157 0.140472 0.715240
0.126556 0.140625 0.742737
0.204498 0.149353 0.753510
0.296814 0.157623 0.757172
0.434814 0.163391 0.765594
0.612183 0.187286 0.769836
0.741333 0.201599 0.778076
0.851776 0.211731 0.788177
0.058380 0.239380 0.738861
0.125244 0.238556 0.740295
0.201935 0.234100 0.751862
0.283661 0.237122 0.771637
0.427704 0.247833 0.778442
0.612335 0.263550 0.786499
0.739502 0.279083 0.789825
0.853394 0.290131 0.799469
0.064148 0.334106 0.749176
0.131805 0.335266 0.754852
0.202057 0.333313 0.759766
0.275970 0.330658 0.764771
0.413818 0.338867 0.796967
0.593933 0.342102 0.810913
0.739471 0.359650 0.807465
0.855957 0.372162 0.817535
0.073303 0.426086 0.764404
0.140503 0.429016 0.768036
0.210052 0.431274 0.772552
0.282715 0.431671 0.778809
0.398285 0.442535 0.800293
0.560608 0.433044 0.836578
0.742889 0.445618 0.839508
0.859009 0.462158 0.840424
0.084412 0.517914 0.781830
0.152557 0.522369 0.786530
0.222015 0.525940 0.790527
0.292908 0.528748 0.795624
0.390839 0.542664 0.811707
0.544067 0.556213 0.850403
0.736450 0.552002 0.876465
0.875000 0.571777 0.873810
0.098663 0.613586 0.804749
0.167023 0.618896 0.808929
0.237274 0.623749 0.813690
0.307556 0.627380 0.817780
0.385315 0.638641 0.829803
0.534302 0.664612 0.858307
0.735199 0.686371 0.894073
0.895630 0.696136 0.909424
0.115021 0.714447 0.829437
0.183228 0.719238 0.833008
0.253784 0.725616 0.838898
0.324615 0.732635 0.846283
0.396301 0.740662 0.853699
0.529755 0.768280 0.877106
0.719482 0.805084 0.910278
0.915558 0.823853 0.935486
0.131592 0.816101 0.854309
0.199738 0.821198 0.857635
0.268738 0.826721 0.861572
0.337952 0.833160 0.867126
0.409607 0.843353 0.875305
0.529358 0.869415 0.894135
0.724823 0.903107 0.918823
0.925415 0.929230 0.943542
