滤镜资源/Professional Luts Collection/Triune-Digital-Cinematic-LUTs/3D LUTs (CUBE)/STANDARD/Mission Impossible - Rec709.cube
#Created by Benjamin (IWLTBAP) : http://luts.iwltbap.com
#Copyright: (C) Copyright 2016 Triune Films and IWLTBAP
TITLE "Blockbuster LUTs Pack (Rec.709)"
#LUT size
LUT_3D_SIZE 5
#LUT data points
DOMAIN_MIN 0.000000 0.000000 0.000000
DOMAIN_MAX 0.903226 0.903226 0.903226
0.007507 0.006042 0.013550
0.192810 0.036285 0.033722
0.393494 0.063080 0.062469
0.603271 0.104462 0.100952
0.801392 0.145935 0.128357
0.018066 0.180908 0.026825
0.187866 0.188202 0.031006
0.406311 0.214447 0.052765
0.621185 0.259064 0.092377
0.830231 0.301880 0.126862
0.028503 0.353607 0.049927
0.158356 0.372528 0.043488
0.423492 0.395294 0.066101
0.649475 0.422821 0.095703
0.856171 0.467651 0.127869
0.048004 0.529572 0.088806
0.170898 0.549194 0.082153
0.431488 0.579315 0.089844
0.675049 0.634277 0.111267
0.879120 0.646240 0.149384
0.075104 0.705170 0.129150
0.199554 0.725922 0.122162
0.402069 0.774628 0.114380
0.688812 0.827301 0.147614
0.884064 0.850220 0.174622
0.014465 0.038300 0.195068
0.210754 0.047028 0.206451
0.420349 0.071808 0.213562
0.628082 0.113983 0.241302
0.814423 0.155273 0.265625
0.018890 0.206696 0.214325
0.147827 0.213104 0.224030
0.418213 0.239807 0.236450
0.638123 0.279510 0.273071
0.829834 0.316650 0.302948
0.037781 0.390472 0.251587
0.152679 0.388336 0.239990
0.406738 0.408783 0.232391
0.673981 0.460449 0.267395
0.864044 0.495911 0.311829
0.059296 0.563904 0.271301
0.175049 0.566040 0.261658
0.376251 0.599518 0.254700
0.678680 0.661316 0.270569
0.884552 0.662262 0.313538
0.087402 0.737518 0.291016
0.203186 0.739136 0.282715
0.343903 0.769867 0.293640
0.684326 0.838287 0.309937
0.886566 0.861359 0.321320
0.021484 0.076141 0.365326
0.162048 0.075104 0.384064
0.415619 0.094299 0.389893
0.636444 0.131287 0.397980
0.827332 0.169617 0.423889
0.026001 0.241119 0.387024
0.140991 0.244629 0.393616
0.394470 0.243195 0.423553
0.642853 0.288452 0.420959
0.839294 0.327698 0.450043
0.047943 0.410461 0.418427
0.165283 0.419128 0.423645
0.332550 0.433960 0.449829
0.650024 0.481995 0.474915
0.860138 0.514557 0.506683
0.078125 0.608063 0.465118
0.197144 0.618347 0.469788
0.322540 0.625275 0.467010
0.651184 0.665222 0.477234
0.890778 0.704071 0.515350
0.110168 0.798950 0.503418
0.225403 0.797638 0.487549
0.347595 0.801971 0.480499
0.660645 0.859131 0.489685
0.890747 0.886139 0.513489
0.035461 0.106750 0.539612
0.159454 0.107391 0.570099
0.388275 0.115692 0.573242
0.652863 0.151733 0.566864
0.844391 0.187347 0.596313
0.043884 0.277405 0.566345
0.160217 0.274719 0.575104
0.350525 0.274994 0.609711
0.651703 0.308014 0.603973
0.846191 0.340302 0.623199
0.062378 0.442902 0.595612
0.179901 0.450134 0.603851
0.322876 0.464996 0.626251
0.640991 0.479858 0.659302
0.857819 0.514313 0.666626
0.086151 0.616760 0.637299
0.206299 0.629211 0.645660
0.331512 0.641937 0.657623
0.591797 0.691010 0.704376
0.905762 0.737396 0.744659
0.121857 0.815674 0.694855
0.241791 0.824402 0.696655
0.364227 0.836182 0.701447
0.567291 0.881439 0.722473
0.900665 0.910217 0.746155
0.048157 0.140472 0.715240
0.185120 0.147522 0.751495
0.370819 0.161469 0.758423
0.646454 0.192261 0.770966
0.851776 0.211731 0.788177
0.062531 0.310638 0.747253
0.181793 0.308838 0.754883
0.348541 0.314240 0.787506
0.644287 0.326630 0.804230
0.855377 0.351562 0.813446
0.078278 0.470703 0.771790
0.198090 0.477722 0.780121
0.327026 0.485626 0.794647
0.593384 0.483887 0.855682
0.865509 0.514740 0.857208
0.102631 0.638489 0.810730
0.223480 0.647095 0.818329
0.346924 0.654999 0.826721
0.575073 0.699646 0.871674
0.900055 0.728088 0.917877
0.131592 0.816101 0.854309
0.251556 0.825684 0.860748
0.372833 0.836945 0.870087
0.579468 0.879486 0.900787
0.925415 0.929230 0.943542
