滤镜资源/Professional Luts Collection/Triune-Digital-Cinematic-LUTs/3D LUTs (CUBE)/STANDARD/Saving Private Ryan - Rec709.cube
#Created by Benjamin (IWLTBAP) : http://luts.iwltbap.com
#Copyright: (C) Copyright 2016 Triune Films and IWLTBAP
TITLE "Blockbuster LUTs Pack (Rec.709)"
#LUT size
LUT_3D_SIZE 5
#LUT data points
DOMAIN_MIN 0.000000 0.000000 0.000000
DOMAIN_MAX 0.903226 0.903226 0.903226
0.001221 0.004364 0.004120
0.104401 0.012421 0.010223
0.278046 0.041718 0.038025
0.461182 0.077942 0.075073
0.642303 0.114746 0.112427
0.034515 0.162170 0.041260
0.126740 0.167725 0.042358
0.337433 0.199707 0.071899
0.525665 0.222656 0.105774
0.693787 0.256683 0.141327
0.081665 0.332397 0.085815
0.182037 0.347809 0.092682
0.365021 0.373016 0.115173
0.572754 0.399567 0.148865
0.741608 0.426666 0.179382
0.142395 0.519897 0.147034
0.254211 0.544830 0.164246
0.438873 0.571655 0.184113
0.609009 0.581604 0.198975
0.796265 0.599243 0.223694
0.206299 0.713348 0.216705
0.329132 0.735962 0.231689
0.505341 0.759247 0.250610
0.663727 0.770721 0.263733
0.823212 0.774048 0.272644
0.008118 0.008881 0.120636
0.112427 0.017548 0.132477
0.274963 0.041718 0.154663
0.465332 0.076965 0.176575
0.655060 0.115662 0.203094
0.033752 0.157928 0.165588
0.139679 0.179169 0.182709
0.339264 0.208527 0.202698
0.546051 0.241241 0.232269
0.726318 0.264465 0.257172
0.075348 0.330170 0.207336
0.186951 0.364807 0.228394
0.382751 0.390625 0.246979
0.580536 0.425079 0.282471
0.753998 0.457581 0.316528
0.125549 0.505371 0.250702
0.261444 0.550232 0.281799
0.444183 0.580750 0.305908
0.613770 0.601196 0.324280
0.791687 0.628418 0.359772
0.183960 0.684814 0.300293
0.305084 0.738831 0.344788
0.498993 0.765015 0.369385
0.667664 0.787750 0.389771
0.824554 0.796997 0.401520
0.016113 0.018707 0.261169
0.123291 0.026245 0.267883
0.268005 0.042542 0.280823
0.450104 0.075684 0.302856
0.639954 0.113525 0.321960
0.039276 0.166199 0.302643
0.135040 0.187866 0.320831
0.310486 0.204742 0.327515
0.514313 0.234741 0.352631
0.729889 0.256958 0.367462
0.080505 0.339081 0.351074
0.166931 0.364136 0.369965
0.363556 0.403564 0.397705
0.577698 0.442535 0.426392
0.772522 0.463379 0.446167
0.126770 0.515076 0.397644
0.217255 0.544373 0.413727
0.439758 0.598083 0.449738
0.613007 0.617340 0.471680
0.791351 0.652740 0.506989
0.175812 0.686951 0.437408
0.274841 0.719391 0.449951
0.494537 0.773193 0.500793
0.664490 0.793396 0.521423
0.828888 0.811646 0.539276
0.032562 0.033081 0.407043
0.133484 0.037109 0.403931
0.286652 0.056091 0.423828
0.439758 0.075043 0.432312
0.617737 0.109955 0.453613
0.053314 0.178375 0.447662
0.153595 0.202026 0.464447
0.310211 0.219574 0.471252
0.494049 0.236938 0.482788
0.691193 0.266754 0.507690
0.089813 0.347992 0.489594
0.174561 0.372223 0.506866
0.363312 0.416321 0.534943
0.548950 0.436340 0.542999
0.742004 0.462463 0.567352
0.130524 0.520538 0.531982
0.218567 0.549316 0.549927
0.402832 0.594635 0.580231
0.610443 0.638062 0.609833
0.794250 0.667236 0.637146
0.178955 0.693787 0.573730
0.268799 0.725464 0.591858
0.434906 0.763519 0.611633
0.665253 0.818512 0.658264
0.834198 0.835876 0.675201
0.053375 0.052002 0.548889
0.149048 0.052673 0.542419
0.293793 0.068726 0.558624
0.456238 0.089630 0.576965
0.608551 0.109528 0.583160
0.069977 0.194061 0.590851
0.173920 0.215759 0.602814
0.311371 0.229889 0.609192
0.484406 0.250122 0.620575
0.665436 0.264465 0.633911
0.102295 0.362427 0.626099
0.191406 0.385986 0.641907
0.363037 0.428375 0.666565
0.526184 0.445496 0.682495
0.710541 0.463593 0.691864
0.140289 0.528809 0.662018
0.226471 0.555939 0.676666
0.393555 0.598785 0.707520
0.581848 0.640533 0.743225
0.763580 0.661804 0.753601
0.181366 0.696960 0.696655
0.270752 0.728943 0.720673
0.421600 0.768219 0.750854
0.639435 0.814941 0.786285
0.838013 0.854370 0.816284
