滤镜资源/Professional Luts Collection/Triune-Digital-Cinematic-LUTs/3D LUTs (CUBE)/STANDARD/Saving Private Ryan - Rec709.cube
#Created by Benjamin (IWLTBAP) : http://luts.iwltbap.com
#Copyright: (C) Copyright 2016 Triune Films and IWLTBAP
TITLE "Blockbuster LUTs Pack (Rec.709)"
#LUT size
LUT_3D_SIZE 8
#LUT data points
DOMAIN_MIN 0.000000 0.000000 0.000000
DOMAIN_MAX 0.903226 0.903226 0.903226
0.001221 0.004364 0.004120
0.048798 0.005157 0.003998
0.126953 0.016266 0.013550
0.223145 0.034119 0.030273
0.328491 0.050262 0.046814
0.434631 0.072449 0.069427
0.538635 0.093689 0.091034
0.642303 0.114746 0.112427
0.016937 0.093689 0.022827
0.064148 0.087280 0.016998
0.148071 0.098969 0.028656
0.259003 0.118011 0.047913
0.370483 0.136261 0.067413
0.475494 0.150818 0.087555
0.578979 0.166595 0.107117
0.677979 0.183807 0.127350
0.040405 0.184998 0.046844
0.087524 0.186340 0.044861
0.154175 0.195892 0.051605
0.279572 0.215302 0.068024
0.399170 0.230042 0.087219
0.508057 0.242645 0.105957
0.607971 0.264435 0.126068
0.700378 0.281494 0.146667
0.065918 0.280518 0.070526
0.115784 0.288940 0.073456
0.183411 0.297485 0.076996
0.289581 0.314514 0.092743
0.423645 0.331268 0.111542
0.534027 0.345398 0.129974
0.635101 0.362000 0.150879
0.727600 0.377655 0.167450
0.098969 0.385101 0.102600
0.151215 0.395111 0.107635
0.225128 0.407349 0.115417
0.329468 0.421387 0.127808
0.438293 0.434021 0.139130
0.554504 0.448364 0.157776
0.662598 0.461670 0.176758
0.755920 0.475311 0.191681
0.133484 0.491486 0.137054
0.187256 0.507050 0.147491
0.270477 0.519806 0.157104
0.376129 0.533020 0.165375
0.476654 0.548401 0.179626
0.573914 0.552582 0.187286
0.684784 0.563721 0.202057
0.787231 0.575073 0.217560
0.168243 0.600922 0.176300
0.224518 0.618225 0.187012
0.316925 0.629364 0.195068
0.418610 0.645142 0.206909
0.516602 0.659027 0.218994
0.610199 0.664398 0.226807
0.695282 0.665497 0.232635
0.822083 0.672272 0.242432
0.206299 0.713348 0.216705
0.260162 0.725586 0.225739
0.355774 0.739105 0.234100
0.456177 0.752808 0.245422
0.553467 0.763916 0.254974
0.642487 0.770081 0.262360
0.728943 0.771484 0.266174
0.823212 0.774048 0.272644
0.003418 0.003906 0.058624
0.052521 0.007660 0.067230
0.134430 0.018127 0.079895
0.227570 0.034698 0.094269
0.328003 0.049347 0.105377
0.433289 0.070709 0.122406
0.537354 0.091949 0.141785
0.641602 0.113312 0.159363
0.014740 0.083527 0.087311
0.065155 0.088470 0.092255
0.148956 0.101288 0.102386
0.258514 0.119446 0.116608
0.374969 0.137115 0.135132
0.480988 0.154358 0.150940
0.587280 0.170746 0.169189
0.690063 0.182281 0.184937
0.037811 0.179413 0.109955
0.089478 0.191101 0.119080
0.170929 0.205536 0.125153
0.291046 0.225128 0.143555
0.404633 0.242798 0.161865
0.512207 0.259460 0.179077
0.618378 0.275269 0.196289
0.717316 0.291351 0.214386
0.061890 0.278717 0.134796
0.118866 0.297272 0.147247
0.199677 0.309113 0.152283
0.308258 0.324951 0.165405
0.432068 0.344147 0.184937
0.540375 0.357025 0.200745
0.644653 0.376404 0.221619
0.738434 0.392883 0.239502
0.090363 0.379303 0.161224
0.153900 0.403168 0.176971
0.242615 0.416504 0.185974
0.347931 0.431335 0.198273
0.451416 0.443634 0.209045
0.562073 0.459229 0.226501
0.668182 0.476746 0.247131
0.762360 0.492554 0.265198
0.121552 0.480652 0.190125
0.188232 0.508972 0.208954
0.278381 0.526917 0.225494
0.387238 0.544708 0.235901
0.488281 0.559204 0.248840
0.583038 0.566132 0.256744
0.687225 0.579010 0.273560
0.790680 0.590820 0.290863
0.156158 0.585266 0.223969
0.221497 0.617310 0.247375
0.313843 0.636536 0.263123
0.423737 0.652771 0.274353
0.525146 0.669678 0.286926
0.615723 0.676270 0.295563
0.702209 0.679535 0.300934
0.817474 0.688263 0.314545
0.193481 0.695465 0.260742
0.256866 0.726410 0.286560
0.347809 0.742249 0.301086
0.455292 0.756836 0.311646
0.554993 0.772522 0.323364
0.646851 0.780060 0.329803
0.734070 0.783813 0.335297
0.823914 0.786530 0.340637
0.009857 0.010712 0.141357
0.060486 0.014435 0.146637
0.134521 0.021240 0.153320
0.224182 0.034882 0.167084
0.326080 0.049866 0.178528
0.435059 0.071228 0.190887
0.548004 0.093323 0.203217
0.659943 0.116272 0.217743
0.020599 0.086029 0.165283
0.069977 0.092316 0.172852
0.149170 0.099915 0.176422
0.249756 0.117004 0.187439
0.366364 0.131958 0.200867
0.483765 0.146118 0.212555
0.600525 0.161133 0.226196
0.703033 0.176514 0.239807
0.040039 0.183685 0.191132
0.087708 0.192657 0.197968
0.167847 0.209625 0.212311
0.282715 0.227356 0.222198
0.411530 0.246826 0.239258
0.528809 0.265442 0.255646
0.638580 0.281494 0.270111
0.737091 0.292450 0.283417
0.062805 0.281433 0.215485
0.109863 0.292725 0.222473
0.190735 0.316040 0.238068
0.314667 0.334442 0.250092
0.433807 0.357269 0.270020
0.537537 0.374664 0.287872
0.643829 0.391052 0.306091
0.744690 0.404755 0.319580
0.089264 0.380920 0.240265
0.140228 0.396698 0.248718
0.234467 0.424316 0.267120
0.352631 0.447968 0.283905
0.447601 0.452423 0.288391
0.561279 0.475647 0.310974
0.666168 0.493103 0.331146
0.763824 0.511200 0.351654
0.117615 0.480927 0.263855
0.172699 0.499084 0.271667
0.278046 0.531311 0.297791
0.382812 0.552704 0.315063
0.482330 0.559296 0.321350
0.580811 0.573059 0.331879
0.686462 0.592316 0.355255
0.787170 0.608826 0.375885
0.148590 0.582886 0.290253
0.206085 0.600891 0.300659
0.307281 0.637451 0.330872
0.414551 0.656738 0.349792
0.520935 0.670685 0.359467
0.616089 0.680267 0.368622
0.704163 0.689117 0.378601
0.806244 0.704590 0.400116
0.181824 0.684204 0.317017
0.243347 0.706116 0.332275
0.335388 0.744263 0.366943
0.443939 0.760834 0.384705
0.551117 0.773041 0.393890
0.645538 0.786865 0.406006
0.732208 0.794006 0.414886
0.824402 0.799805 0.421509
0.015045 0.016998 0.220062
0.066376 0.019928 0.223175
0.143219 0.027435 0.233368
0.222473 0.036133 0.237915
0.322296 0.050049 0.251343
0.427551 0.071075 0.263214
0.534393 0.092194 0.276306
0.655640 0.116089 0.283539
0.024017 0.088623 0.243500
0.074310 0.098267 0.252228
0.150452 0.105225 0.254700
0.245361 0.113647 0.260040
0.356384 0.131592 0.273468
0.465302 0.148041 0.288788
0.585938 0.161896 0.298798
0.711792 0.178070 0.305176
0.042236 0.186493 0.267548
0.090454 0.198212 0.278168
0.157013 0.213959 0.290680
0.263184 0.223694 0.293091
0.383240 0.242889 0.306122
0.512787 0.258179 0.318604
0.638519 0.271729 0.330109
0.751740 0.278809 0.337738
0.065613 0.286407 0.296997
0.112152 0.297424 0.304810
0.172913 0.316864 0.318665
0.293945 0.337921 0.335693
0.420349 0.359772 0.348602
0.542816 0.381470 0.365906
0.659760 0.396881 0.381531
0.763580 0.405060 0.389221
0.091675 0.385864 0.323547
0.138794 0.399933 0.332001
0.196747 0.418793 0.344879
0.343597 0.451538 0.364807
0.451599 0.467743 0.379578
0.563660 0.489502 0.398621
0.668060 0.509308 0.417267
0.765228 0.520111 0.432220
0.118439 0.486542 0.349243
0.167236 0.501678 0.356934
0.229034 0.525024 0.369263
0.380676 0.559662 0.394684
0.486237 0.580017 0.415283
0.579285 0.581848 0.417297
0.685181 0.606018 0.441498
0.784607 0.623993 0.460968
0.146576 0.587006 0.372742
0.199005 0.602875 0.379669
0.267303 0.627899 0.392700
0.416992 0.663147 0.426239
0.516083 0.678497 0.441864
0.614380 0.685028 0.447876
0.700592 0.696472 0.457428
0.807098 0.717651 0.484192
0.177643 0.686523 0.395874
0.232452 0.703827 0.403503
0.307190 0.726440 0.418121
0.444977 0.763763 0.456543
0.545349 0.777222 0.472595
0.643219 0.789429 0.481628
0.728973 0.797913 0.490509
0.826477 0.808380 0.500977
0.016754 0.019897 0.302704
0.069702 0.022125 0.300995
0.143951 0.029419 0.307861
0.228729 0.039948 0.317780
0.313446 0.049988 0.324066
0.417969 0.069244 0.336426
0.519165 0.089569 0.349426
0.624390 0.110809 0.361755
0.028107 0.096893 0.324493
0.078766 0.104034 0.333832
0.150146 0.110199 0.333130
0.246979 0.122223 0.341705
0.346436 0.129578 0.347809
0.455872 0.146637 0.361450
0.561035 0.163605 0.375977
0.678619 0.181885 0.388702
0.049225 0.195892 0.353027
0.096100 0.204376 0.358521
0.163391 0.221863 0.370667
0.261993 0.231506 0.376526
0.372406 0.242279 0.380615
0.488098 0.260864 0.395172
0.604156 0.277802 0.410553
0.724884 0.289612 0.418915
0.070801 0.291199 0.375580
0.117523 0.303406 0.385040
0.176514 0.321930 0.398773
0.285553 0.344086 0.414276
0.398621 0.353912 0.417908
0.522919 0.377014 0.431061
0.652405 0.390869 0.445435
0.764099 0.398865 0.451904
0.095184 0.391998 0.404602
0.141388 0.404144 0.412354
0.197723 0.423737 0.427124
0.314545 0.447021 0.443451
0.433319 0.468689 0.458710
0.559937 0.492950 0.474243
0.669464 0.512299 0.492920
0.778778 0.523529 0.504059
0.120819 0.491486 0.430298
0.168823 0.506592 0.439331
0.224945 0.526672 0.452362
0.347229 0.554626 0.469269
0.480133 0.581451 0.489716
0.584656 0.593384 0.503021
0.686523 0.611877 0.519409
0.788818 0.632202 0.538757
0.148560 0.591919 0.455902
0.197174 0.605927 0.463165
0.254700 0.627747 0.475189
0.379883 0.655823 0.492188
0.514404 0.686127 0.518036
0.615479 0.699402 0.533661
0.703217 0.705353 0.538879
0.810120 0.728241 0.561096
0.176483 0.689423 0.478668
0.227600 0.706116 0.485657
0.287201 0.726593 0.494385
0.416321 0.754089 0.514160
0.547241 0.786163 0.546783
0.643829 0.799072 0.559906
0.734528 0.809021 0.568115
0.830505 0.818207 0.577240
0.030762 0.030548 0.387360
0.078796 0.029968 0.379639
0.150757 0.037018 0.386597
0.238037 0.048126 0.398254
0.328857 0.059692 0.407928
0.414886 0.070007 0.411072
0.514679 0.089020 0.421539
0.618652 0.110138 0.435730
0.036987 0.103180 0.407959
0.092224 0.112946 0.417175
0.157562 0.117065 0.415344
0.246521 0.128632 0.421204
0.350616 0.143188 0.434662
0.449707 0.146973 0.436737
0.553955 0.163391 0.448944
0.662842 0.182312 0.464722
0.056030 0.200256 0.432434
0.103699 0.211945 0.442474
0.173676 0.229340 0.453308
0.262573 0.238464 0.457123
0.369507 0.251160 0.462341
0.476288 0.261292 0.468384
0.592285 0.277954 0.484558
0.701019 0.295624 0.498688
0.077393 0.298004 0.458435
0.123596 0.309113 0.467529
0.182678 0.326813 0.478241
0.290253 0.352448 0.492981
0.393311 0.362305 0.502502
0.505524 0.374023 0.503601
0.624756 0.393768 0.520355
0.729187 0.405029 0.531250
0.099945 0.396423 0.482208
0.146301 0.408966 0.490540
0.201202 0.427460 0.503510
0.312134 0.454620 0.521088
0.422302 0.474670 0.539246
0.539764 0.488129 0.540131
0.659271 0.508850 0.556244
0.773743 0.520020 0.568054
0.123138 0.494324 0.506439
0.171143 0.509796 0.515411
0.226532 0.529449 0.529663
0.332153 0.554443 0.546234
0.452942 0.579590 0.563538
0.577789 0.605225 0.580780
0.686096 0.622131 0.593658
0.790161 0.639709 0.612396
0.150024 0.593628 0.530701
0.198639 0.608643 0.539612
0.254883 0.631378 0.553772
0.350525 0.653564 0.567993
0.490723 0.683167 0.586670
0.610596 0.709869 0.607880
0.707886 0.721954 0.620453
0.811188 0.740082 0.636932
0.178589 0.693329 0.555786
0.227325 0.708191 0.563110
0.283783 0.730988 0.577087
0.375977 0.750671 0.585876
0.517181 0.779816 0.608429
0.640320 0.812714 0.635925
0.736725 0.826385 0.650238
0.831909 0.832062 0.654388
0.040924 0.041138 0.467346
0.092529 0.040192 0.461212
0.158630 0.045349 0.465027
0.244141 0.055573 0.475616
0.338593 0.067993 0.488281
0.427399 0.078918 0.493988
0.512115 0.090057 0.497101
0.613861 0.109436 0.507721
0.047577 0.109894 0.489746
0.104584 0.120728 0.498871
0.166168 0.122894 0.497925
0.248413 0.133331 0.504395
0.350800 0.147217 0.512268
0.453583 0.159058 0.523834
0.546448 0.162109 0.524292
0.655823 0.178070 0.536713
0.064545 0.209290 0.515503
0.114532 0.220428 0.525604
0.183044 0.237976 0.533844
0.265686 0.246185 0.536774
0.367615 0.259521 0.543579
0.471863 0.271851 0.553650
0.579803 0.280823 0.558472
0.694794 0.295197 0.570038
0.084290 0.305542 0.537872
0.130707 0.317719 0.547150
0.194794 0.333832 0.555573
0.300323 0.360992 0.572693
0.394592 0.370331 0.578156
0.493500 0.380829 0.584229
0.609283 0.394135 0.589996
0.720886 0.407471 0.603485
0.105499 0.401978 0.560181
0.152222 0.414124 0.567566
0.207184 0.431763 0.579895
0.314819 0.459991 0.596283
0.428619 0.484436 0.612640
0.511047 0.491241 0.615692
0.633881 0.505249 0.622192
0.745361 0.521881 0.637268
0.128723 0.499634 0.583557
0.176483 0.514618 0.589661
0.229828 0.532227 0.602051
0.325287 0.558838 0.618195
0.448334 0.583618 0.637085
0.549591 0.602661 0.649017
0.666870 0.620270 0.659210
0.779053 0.640839 0.675323
0.152039 0.595551 0.603180
0.200317 0.610687 0.612823
0.256439 0.634430 0.627075
0.343262 0.657654 0.642120
0.472504 0.681793 0.660980
0.594910 0.709320 0.678955
0.704895 0.733337 0.699005
0.812286 0.749207 0.714386
0.179657 0.694336 0.626251
0.228851 0.710785 0.635529
0.284332 0.733856 0.650299
0.354401 0.755005 0.663300
0.486725 0.775299 0.678680
0.623627 0.808228 0.704102
0.739349 0.834595 0.728241
0.838257 0.845703 0.739166
0.053375 0.052002 0.548889
0.104767 0.050446 0.542145
0.165771 0.054047 0.544006
0.246948 0.062836 0.552765
0.342041 0.075104 0.565613
0.433533 0.086823 0.574982
0.524414 0.097931 0.581238
0.608551 0.109528 0.583160
0.060242 0.118195 0.571777
0.118042 0.128174 0.579407
0.177429 0.128906 0.577667
0.252258 0.137878 0.582001
0.348755 0.150299 0.588074
0.450348 0.164764 0.601044
0.549591 0.173401 0.609375
0.646790 0.175476 0.611603
0.073639 0.218750 0.596313
0.128052 0.228607 0.603088
0.194824 0.245819 0.611267
0.271545 0.252808 0.614197
0.361786 0.264069 0.618896
0.463074 0.275391 0.625946
0.565491 0.288361 0.638275
0.673981 0.295532 0.643616
0.092560 0.315643 0.615936
0.138855 0.325958 0.624786
0.204407 0.342346 0.633698
0.301422 0.367737 0.646912
0.390411 0.375458 0.652435
0.485168 0.388184 0.662567
0.587280 0.397064 0.667847
0.699341 0.408600 0.675964
0.112701 0.408813 0.638245
0.159576 0.421265 0.644104
0.216705 0.438599 0.654572
0.318817 0.463409 0.669464
0.430847 0.491180 0.687469
0.519379 0.498901 0.696686
0.608856 0.505432 0.699249
0.722412 0.518555 0.706940
0.134491 0.504364 0.657288
0.182007 0.518524 0.664093
0.234802 0.536560 0.673828
0.333862 0.561920 0.693268
0.450500 0.588837 0.712189
0.552673 0.610077 0.732117
0.638794 0.619934 0.734589
0.754181 0.633636 0.743805
0.157471 0.600586 0.676300
0.205353 0.614868 0.686340
0.258728 0.635223 0.697693
0.344696 0.659485 0.714142
0.466309 0.683136 0.736481
0.577820 0.707306 0.756104
0.694946 0.735168 0.773560
0.795715 0.749481 0.783783
0.181366 0.696960 0.696655
0.230225 0.712677 0.708527
0.285431 0.735504 0.725677
0.362396 0.758270 0.743439
0.484528 0.778412 0.760590
0.607483 0.807007 0.781311
0.724640 0.835419 0.801514
0.838013 0.854370 0.816284
