滤镜资源/Professional Luts Collection/Triune-Digital-Cinematic-LUTs/3D LUTs (CUBE)/STANDARD/Saving Private Ryan - Rec709.cube
#Created by Benjamin (IWLTBAP) : http://luts.iwltbap.com
#Copyright: (C) Copyright 2016 Triune Films and IWLTBAP
TITLE "Blockbuster LUTs Pack (Rec.709)"
#LUT size
LUT_3D_SIZE 32
#LUT data points
0.001221 0.004364 0.004120
0.011444 0.003815 0.003418
0.021942 0.003235 0.002686
0.034607 0.003693 0.002869
0.048798 0.005157 0.003998
0.063873 0.006927 0.005402
0.081482 0.009155 0.007233
0.104401 0.012421 0.010223
0.126953 0.016266 0.013550
0.148804 0.020142 0.016998
0.172150 0.024719 0.020996
0.197205 0.029633 0.025879
0.223145 0.034119 0.030273
0.250519 0.038025 0.034241
0.278046 0.041718 0.038025
0.303253 0.045532 0.042114
0.328491 0.050262 0.046814
0.354248 0.055695 0.052368
0.380615 0.061188 0.057739
0.407898 0.066925 0.063721
0.434631 0.072449 0.069427
0.461182 0.077942 0.075073
0.487061 0.083221 0.080444
0.512848 0.088440 0.085724
0.538635 0.093689 0.091034
0.565094 0.099213 0.096619
0.591339 0.104523 0.102051
0.617279 0.109741 0.107330
0.642303 0.114746 0.112427
0.667480 0.119812 0.117554
0.692047 0.124664 0.122528
0.716339 0.129578 0.127411
0.004425 0.025299 0.008179
0.014191 0.022430 0.006256
0.024384 0.020996 0.005066
0.037170 0.019348 0.004578
0.051819 0.020233 0.005707
0.066589 0.021912 0.007080
0.086304 0.024567 0.009247
0.107971 0.028229 0.012115
0.131042 0.032867 0.015717
0.155762 0.038208 0.020203
0.179962 0.042786 0.024841
0.206024 0.046967 0.029449
0.231873 0.050232 0.033264
0.259796 0.053223 0.037292
0.287811 0.056946 0.041809
0.314240 0.061432 0.046783
0.339783 0.067017 0.051819
0.366028 0.072388 0.056946
0.392273 0.077393 0.062439
0.419159 0.082794 0.068115
0.445404 0.087524 0.073578
0.470734 0.092529 0.078766
0.496582 0.097687 0.084045
0.522736 0.102783 0.089294
0.548553 0.108002 0.094757
0.575348 0.113373 0.100189
0.600952 0.118408 0.105408
0.627014 0.123566 0.110748
0.652252 0.128693 0.115906
0.676849 0.133698 0.120941
0.700653 0.138397 0.125671
0.723816 0.142914 0.130280
0.007812 0.047058 0.012329
0.017639 0.044159 0.010345
0.027710 0.040894 0.008087
0.040985 0.038971 0.007507
0.054779 0.039337 0.008026
0.070526 0.041565 0.009430
0.092224 0.044556 0.011963
0.113861 0.048096 0.014984
0.136566 0.052094 0.018921
0.163025 0.057312 0.024261
0.190094 0.061829 0.029175
0.216339 0.065674 0.033295
0.243164 0.069550 0.037567
0.270447 0.073364 0.041901
0.297974 0.078094 0.046936
0.325867 0.083740 0.052521
0.352509 0.088287 0.057495
0.378906 0.091919 0.062347
0.404938 0.095917 0.067596
0.430023 0.100220 0.072571
0.455231 0.104767 0.077637
0.481049 0.110352 0.082886
0.506989 0.115448 0.088196
0.532837 0.119720 0.093384
0.559235 0.124603 0.098663
0.585663 0.129211 0.104004
0.611969 0.133392 0.109283
0.637360 0.138092 0.114380
0.662048 0.143097 0.119446
0.685974 0.147949 0.124359
0.709198 0.152527 0.129059
0.731384 0.156799 0.133392
0.011719 0.069489 0.017029
0.021454 0.066681 0.014984
0.032074 0.063446 0.011749
0.044373 0.060181 0.010803
0.059113 0.062012 0.011688
0.074188 0.063385 0.012482
0.094879 0.066223 0.014618
0.118835 0.070251 0.018707
0.142029 0.074493 0.023102
0.168243 0.079376 0.028290
0.195923 0.084259 0.033417
0.222992 0.088257 0.037811
0.251160 0.092834 0.042480
0.279663 0.097351 0.047150
0.307190 0.102112 0.052063
0.334717 0.107422 0.057587
0.361389 0.111847 0.062286
0.387695 0.115692 0.067169
0.413361 0.119446 0.072021
0.438965 0.123596 0.077026
0.465027 0.127869 0.082306
0.490845 0.131897 0.087433
0.516510 0.135773 0.092407
0.542725 0.139740 0.097626
0.569092 0.143738 0.102661
0.595642 0.147919 0.107971
0.621094 0.152069 0.113129
0.646118 0.156403 0.118256
0.670105 0.161133 0.123169
0.693665 0.164581 0.127899
0.716431 0.168213 0.132385
0.738739 0.171234 0.136688
0.016937 0.093689 0.022827
0.026703 0.091125 0.020416
0.037872 0.087921 0.017059
0.050568 0.085754 0.016052
0.064148 0.087280 0.016998
0.080170 0.089417 0.018311
0.097626 0.091217 0.019623
0.121338 0.094238 0.022644
0.148071 0.098969 0.028656
0.174164 0.103363 0.033752
0.201935 0.108032 0.038422
0.229370 0.113068 0.043213
0.259003 0.118011 0.047913
0.288208 0.122894 0.052460
0.317047 0.127991 0.057678
0.343903 0.132355 0.062714
0.370483 0.136261 0.067413
0.396515 0.139709 0.071960
0.423065 0.143341 0.076904
0.449280 0.147186 0.082397
0.475494 0.150818 0.087555
0.501740 0.154633 0.092499
0.526947 0.158844 0.097137
0.553040 0.162872 0.102051
0.578979 0.166595 0.107117
0.604950 0.170776 0.112366
0.629639 0.175171 0.117432
0.654114 0.179840 0.122528
0.677979 0.183807 0.127350
0.701691 0.187408 0.132141
0.724213 0.191528 0.136627
0.746002 0.195404 0.140930
0.022400 0.116302 0.028931
0.032257 0.113953 0.026550
0.043823 0.110779 0.023010
0.056763 0.110352 0.022430
0.069702 0.111969 0.023499
0.082672 0.113403 0.024536
0.100128 0.116241 0.026215
0.123535 0.119202 0.028778
0.149078 0.122162 0.033417
0.177521 0.126923 0.039124
0.205505 0.131409 0.043365
0.234741 0.136841 0.048126
0.264221 0.141602 0.052490
0.294464 0.146454 0.057037
0.323700 0.151367 0.062073
0.350983 0.155396 0.066895
0.378113 0.159241 0.071716
0.404633 0.162994 0.076813
0.431030 0.166168 0.082184
0.457397 0.169525 0.087280
0.483429 0.172760 0.092010
0.509430 0.176819 0.096710
0.534698 0.180786 0.101379
0.560547 0.184631 0.105865
0.586365 0.189209 0.111115
0.611481 0.194763 0.116547
0.635223 0.199188 0.121338
0.659271 0.203888 0.126312
0.683044 0.207794 0.131134
0.706573 0.212006 0.136139
0.728851 0.215637 0.140808
0.750824 0.219147 0.144775
0.028412 0.139038 0.034943
0.038635 0.136475 0.032379
0.049744 0.133575 0.029205
0.062561 0.134583 0.029327
0.075714 0.136932 0.030731
0.088562 0.138458 0.032013
0.102600 0.140106 0.033417
0.125519 0.143951 0.035797
0.151428 0.146820 0.039734
0.180237 0.151062 0.044525
0.209930 0.156677 0.049133
0.239014 0.161438 0.053406
0.269806 0.165985 0.057526
0.300537 0.170685 0.061829
0.330750 0.175568 0.066895
0.357788 0.179230 0.071350
0.385071 0.182434 0.076691
0.412750 0.186371 0.082245
0.440735 0.189941 0.087524
0.466766 0.192688 0.092316
0.493011 0.195770 0.096802
0.518005 0.199493 0.100922
0.543427 0.203674 0.105560
0.568512 0.208344 0.110413
0.593872 0.213715 0.115753
0.618256 0.218994 0.120972
0.641754 0.223724 0.125824
0.665009 0.228119 0.130798
0.688507 0.232025 0.136047
0.711273 0.235809 0.140747
0.733276 0.238983 0.145020
0.755280 0.242126 0.148682
0.034515 0.162170 0.041260
0.045166 0.159332 0.038086
0.056183 0.157104 0.035492
0.068665 0.159180 0.036591
0.081604 0.161530 0.038025
0.094879 0.164001 0.039398
0.110565 0.165924 0.041107
0.126740 0.167725 0.042358
0.153748 0.172058 0.046051
0.182800 0.176239 0.050140
0.212616 0.181854 0.054749
0.243805 0.186157 0.059052
0.275085 0.190460 0.062714
0.307709 0.195526 0.067169
0.337433 0.199707 0.071899
0.364594 0.202911 0.076477
0.392426 0.206177 0.082031
0.421478 0.209625 0.087433
0.449280 0.212646 0.092407
0.475708 0.215393 0.096924
0.500824 0.218842 0.101410
0.525665 0.222656 0.105774
0.550537 0.227509 0.110168
0.575653 0.232239 0.115143
0.600281 0.238129 0.120331
0.624634 0.243927 0.125671
0.647949 0.248810 0.131409
0.671021 0.253052 0.136505
0.693787 0.256683 0.141327
0.715851 0.260376 0.145599
0.737823 0.263367 0.149414
0.759979 0.266144 0.152954
0.040405 0.184998 0.046844
0.051239 0.182098 0.043823
0.062744 0.181885 0.042664
0.075073 0.184143 0.043945
0.087524 0.186340 0.044861
0.100861 0.188782 0.046173
0.114624 0.191162 0.047791
0.132782 0.192993 0.049438
0.154175 0.195892 0.051605
0.185028 0.201447 0.055725
0.214294 0.207275 0.060181
0.246124 0.211456 0.064423
0.279572 0.215302 0.068024
0.313568 0.220276 0.073273
0.343811 0.224213 0.078033
0.370972 0.226868 0.082306
0.399170 0.230042 0.087219
0.427979 0.233063 0.092316
0.456055 0.235352 0.097046
0.482544 0.239136 0.101898
0.508057 0.242645 0.105957
0.533447 0.247101 0.110840
0.558502 0.252472 0.115540
0.583496 0.258545 0.120728
0.607971 0.264435 0.126068
0.631897 0.269440 0.132050
0.655273 0.273865 0.137238
0.678314 0.277863 0.142395
0.700378 0.281494 0.146667
0.722260 0.284882 0.150940
0.743286 0.287598 0.154175
0.765228 0.290100 0.157623
0.046539 0.207947 0.052002
0.057526 0.205994 0.049408
0.069458 0.207672 0.050049
0.081573 0.209839 0.051117
0.094330 0.211945 0.052155
0.106659 0.213257 0.052704
0.120239 0.215576 0.053833
0.137634 0.218231 0.055511
0.159912 0.221222 0.057556
0.184937 0.224487 0.060150
0.216553 0.231689 0.065216
0.247437 0.235992 0.069458
0.279938 0.239441 0.073273
0.316589 0.244110 0.078827
0.349121 0.248810 0.084076
0.377686 0.251495 0.088318
0.405365 0.254639 0.092804
0.434326 0.257538 0.097595
0.461914 0.260529 0.102295
0.488647 0.264374 0.107300
0.514221 0.267700 0.111328
0.540283 0.272522 0.116089
0.565063 0.278381 0.121033
0.589874 0.283783 0.126404
0.614227 0.288788 0.132080
0.638458 0.293640 0.138031
0.662109 0.297913 0.142731
0.685333 0.301849 0.147766
0.707001 0.305389 0.151642
0.728699 0.309052 0.155762
0.749542 0.311676 0.158997
0.771454 0.314056 0.162018
0.052673 0.231232 0.057495
0.064056 0.231049 0.056702
0.075928 0.232788 0.057617
0.088257 0.235107 0.058350
0.100922 0.237000 0.059113
0.113312 0.238464 0.059052
0.126434 0.240295 0.059937
0.143188 0.243317 0.061646
0.166077 0.246521 0.063568
0.192261 0.250031 0.066193
0.217682 0.253571 0.069031
0.250336 0.261047 0.075012
0.280975 0.264069 0.078918
0.317017 0.267883 0.083801
0.353577 0.273560 0.090118
0.383453 0.276794 0.094360
0.412415 0.279694 0.098907
0.440552 0.282257 0.102966
0.468170 0.285828 0.107849
0.494598 0.290100 0.112701
0.520599 0.293793 0.117126
0.546448 0.298370 0.121521
0.571503 0.303772 0.127136
0.596161 0.308411 0.132721
0.620880 0.313232 0.138306
0.645233 0.317871 0.143707
0.669403 0.322052 0.148468
0.692017 0.326111 0.152924
0.714386 0.329834 0.156921
0.735901 0.333344 0.160706
0.757019 0.336121 0.164429
0.779358 0.338654 0.167816
0.058868 0.254883 0.063080
0.070618 0.256409 0.063934
0.082336 0.258148 0.064850
0.095032 0.260376 0.065460
0.107880 0.262482 0.065918
0.120209 0.264008 0.066345
0.133209 0.266083 0.066589
0.149719 0.268555 0.067444
0.173889 0.271851 0.069763
0.200531 0.275452 0.072540
0.227570 0.279541 0.076172
0.253418 0.284332 0.080353
0.285431 0.289459 0.085724
0.318207 0.291382 0.088898
0.356720 0.297760 0.095856
0.388733 0.302338 0.100677
0.418640 0.305115 0.104828
0.447815 0.307648 0.109100
0.474945 0.311584 0.113770
0.501404 0.315674 0.118408
0.527191 0.319794 0.123077
0.552948 0.324036 0.128204
0.578308 0.328522 0.133759
0.603363 0.333282 0.139221
0.628113 0.337738 0.144745
0.652771 0.342255 0.149597
0.676636 0.346069 0.154114
0.698914 0.350128 0.158051
0.720917 0.353546 0.161865
0.742584 0.357117 0.165833
0.764771 0.359619 0.169739
0.787506 0.362213 0.173462
0.065918 0.280518 0.070526
0.077484 0.281891 0.071198
0.089508 0.283661 0.071991
0.102539 0.286316 0.072937
0.115784 0.288940 0.073456
0.128174 0.290436 0.073914
0.140778 0.292084 0.074066
0.159668 0.294312 0.074738
0.183411 0.297485 0.076996
0.210724 0.301239 0.080200
0.238617 0.306274 0.084930
0.264771 0.311218 0.089478
0.289581 0.314514 0.092743
0.321381 0.317139 0.096039
0.358734 0.321930 0.101410
0.392731 0.327698 0.107178
0.423645 0.331268 0.111542
0.453094 0.334045 0.115631
0.481415 0.337860 0.119904
0.507599 0.341614 0.124725
0.534027 0.345398 0.129974
0.559723 0.349243 0.135254
0.585052 0.353241 0.140503
0.610199 0.357727 0.145630
0.635101 0.362000 0.150879
0.660065 0.366364 0.155426
0.683258 0.370178 0.159546
0.705688 0.374023 0.163605
0.727600 0.377655 0.167450
0.749542 0.381012 0.171387
0.772400 0.383606 0.175262
0.795471 0.386017 0.179016
0.073578 0.306366 0.078003
0.085449 0.307983 0.078613
0.097992 0.310089 0.079559
0.110809 0.312378 0.080688
0.124237 0.315094 0.082031
0.137207 0.317291 0.082458
0.150879 0.319000 0.083008
0.168976 0.320801 0.083618
0.195465 0.323914 0.085663
0.222198 0.328247 0.089111
0.248444 0.333435 0.093903
0.274261 0.337280 0.097992
0.299896 0.340668 0.101257
0.325989 0.343628 0.104218
0.361664 0.347168 0.107849
0.396088 0.352875 0.113586
0.428131 0.357147 0.118530
0.457458 0.359650 0.122162
0.485992 0.363312 0.126648
0.513214 0.367004 0.131226
0.540009 0.370575 0.136475
0.566681 0.374329 0.142151
0.592041 0.378235 0.147339
0.617523 0.382263 0.152313
0.642365 0.386353 0.157074
0.667145 0.390442 0.161438
0.689972 0.394623 0.165588
0.712585 0.398438 0.169556
0.734497 0.402008 0.173248
0.757202 0.405334 0.177368
0.780182 0.407898 0.181183
0.803497 0.410126 0.184753
0.081665 0.332397 0.085815
0.094147 0.334381 0.086853
0.106720 0.336456 0.087830
0.119812 0.338989 0.089233
0.133026 0.341614 0.090668
0.145996 0.343658 0.091461
0.159149 0.345367 0.091583
0.182037 0.347809 0.092682
0.206848 0.351105 0.094666
0.232147 0.355865 0.098480
0.257477 0.360413 0.102814
0.283569 0.364105 0.106598
0.309814 0.367371 0.110168
0.337311 0.370514 0.112946
0.365021 0.373016 0.115173
0.399414 0.378448 0.120453
0.431854 0.382629 0.125366
0.462189 0.386353 0.129974
0.490448 0.389526 0.134003
0.518341 0.393005 0.138458
0.546021 0.396149 0.143219
0.572754 0.399567 0.148865
0.598877 0.403473 0.154236
0.624512 0.407196 0.159149
0.649536 0.411285 0.163696
0.673645 0.415375 0.167908
0.696747 0.419220 0.171814
0.719147 0.423279 0.175659
0.741608 0.426666 0.179382
0.764862 0.429810 0.183441
0.788086 0.432190 0.186859
0.811279 0.434418 0.190491
0.090149 0.358765 0.094086
0.102783 0.360626 0.095123
0.115570 0.362701 0.096222
0.128693 0.365204 0.097534
0.142090 0.367920 0.098969
0.155334 0.370575 0.099945
0.173492 0.373230 0.101013
0.192322 0.376007 0.102509
0.215607 0.379303 0.104706
0.240570 0.383209 0.108063
0.266083 0.387573 0.112061
0.292450 0.391785 0.115967
0.319550 0.394714 0.119293
0.347504 0.396362 0.121002
0.375763 0.400299 0.124329
0.402740 0.403564 0.127075
0.435242 0.408569 0.132446
0.465759 0.412567 0.137238
0.494537 0.416473 0.141846
0.522491 0.419525 0.145966
0.550659 0.422394 0.150574
0.578583 0.425201 0.155334
0.604523 0.428833 0.160614
0.631073 0.432495 0.165619
0.656128 0.436249 0.170380
0.679688 0.440063 0.174286
0.702606 0.443726 0.177887
0.725037 0.447723 0.181610
0.748657 0.451111 0.185516
0.772675 0.454285 0.189484
0.795746 0.456573 0.192413
0.819977 0.458923 0.196075
0.098969 0.385101 0.102600
0.111542 0.386536 0.103394
0.124542 0.388885 0.104492
0.138062 0.392090 0.106049
0.151215 0.395111 0.107635
0.165039 0.398407 0.109131
0.180237 0.401337 0.110626
0.201691 0.404358 0.112946
0.225128 0.407349 0.115417
0.250366 0.411255 0.118530
0.275299 0.414978 0.121429
0.301697 0.419159 0.125366
0.329468 0.421387 0.127808
0.358093 0.423096 0.129913
0.385925 0.426849 0.133026
0.412384 0.430115 0.135681
0.438293 0.434021 0.139130
0.468689 0.438690 0.144409
0.497833 0.442688 0.149323
0.526398 0.445862 0.153595
0.554504 0.448364 0.157776
0.583221 0.451111 0.162170
0.610504 0.454529 0.166809
0.636871 0.458038 0.171936
0.662598 0.461670 0.176758
0.686279 0.465027 0.180939
0.708923 0.468597 0.184326
0.732056 0.472229 0.187805
0.755920 0.475311 0.191681
0.780304 0.478790 0.195374
0.803772 0.481232 0.198517
0.829559 0.483917 0.202240
0.107513 0.410645 0.110565
0.120392 0.412811 0.111664
0.133575 0.416046 0.113251
0.147003 0.419739 0.115204
0.160217 0.422882 0.116791
0.173676 0.425751 0.118591
0.190796 0.428925 0.121094
0.212708 0.432037 0.123688
0.236786 0.435425 0.126221
0.262054 0.439484 0.129272
0.287506 0.443329 0.131989
0.311920 0.446289 0.134491
0.339447 0.448456 0.136597
0.367920 0.450562 0.139069
0.395721 0.454224 0.142303
0.421783 0.457916 0.145203
0.446960 0.461456 0.148346
0.471832 0.464905 0.151825
0.500885 0.469238 0.156921
0.530365 0.472137 0.161072
0.559479 0.474396 0.164734
0.588104 0.476654 0.168732
0.615814 0.480133 0.173218
0.642761 0.483643 0.178162
0.667999 0.487335 0.183136
0.692566 0.491058 0.187531
0.715363 0.494232 0.191162
0.739410 0.497345 0.194550
0.763306 0.500275 0.198090
0.787811 0.503265 0.201416
0.813721 0.505981 0.204834
0.839600 0.508850 0.208618
0.116180 0.436981 0.118896
0.129303 0.440125 0.120483
0.142517 0.443726 0.122284
0.155731 0.447174 0.124176
0.169159 0.450928 0.126831
0.182251 0.453735 0.128784
0.199585 0.456390 0.131073
0.222809 0.459656 0.133911
0.248413 0.463593 0.136871
0.273743 0.467682 0.139801
0.299561 0.471191 0.142120
0.325592 0.474609 0.144043
0.350769 0.476746 0.146118
0.378601 0.479218 0.148773
0.406830 0.483643 0.152863
0.432220 0.487579 0.156067
0.456268 0.490204 0.158539
0.480225 0.492828 0.161255
0.503937 0.495209 0.164185
0.534332 0.498230 0.168365
0.564789 0.500458 0.172028
0.593536 0.502838 0.175903
0.621216 0.506012 0.180206
0.648468 0.510040 0.184723
0.673676 0.513245 0.189301
0.698578 0.516663 0.193695
0.722687 0.519714 0.197601
0.747284 0.522766 0.201477
0.771576 0.525513 0.204803
0.796356 0.528137 0.207764
0.823059 0.530975 0.211365
0.849976 0.533783 0.215179
0.124817 0.464020 0.127747
0.138031 0.467590 0.129639
0.151276 0.471405 0.131836
0.164642 0.475250 0.134583
0.178101 0.478882 0.137115
0.191681 0.481628 0.139130
0.206665 0.484528 0.141235
0.231750 0.487946 0.144012
0.259521 0.492004 0.147583
0.285889 0.495453 0.149750
0.312500 0.499023 0.151855
0.338013 0.502686 0.153961
0.363953 0.505585 0.156250
0.390320 0.508301 0.158783
0.417603 0.513916 0.163605
0.442810 0.517487 0.166992
0.466522 0.519806 0.169281
0.489288 0.521332 0.171234
0.513092 0.522614 0.173279
0.538422 0.524261 0.175842
0.570160 0.526184 0.179321
0.599518 0.528900 0.183197
0.627167 0.532196 0.187378
0.653748 0.535797 0.191589
0.679382 0.539124 0.195740
0.704132 0.542023 0.199951
0.729095 0.544952 0.204132
0.754150 0.548004 0.208282
0.779694 0.550446 0.211243
0.805756 0.553009 0.214386
0.832367 0.555756 0.217865
0.859528 0.558167 0.221008
0.133484 0.491486 0.137054
0.146851 0.495422 0.139404
0.160187 0.499481 0.142395
0.173492 0.503235 0.144958
0.187256 0.507050 0.147491
0.200775 0.510284 0.149384
0.219452 0.513519 0.151825
0.241608 0.516876 0.154541
0.270477 0.519806 0.157104
0.298126 0.523132 0.159515
0.324585 0.527222 0.161957
0.350342 0.530426 0.163727
0.376129 0.533020 0.165375
0.401855 0.537933 0.169373
0.427521 0.542877 0.173645
0.453064 0.546387 0.177216
0.476654 0.548401 0.179626
0.499786 0.549652 0.181427
0.522797 0.550293 0.182983
0.546936 0.551361 0.185028
0.573914 0.552582 0.187286
0.605621 0.554993 0.190765
0.633209 0.557587 0.194336
0.659210 0.560608 0.198059
0.684784 0.563721 0.202057
0.709961 0.566956 0.206146
0.735291 0.569763 0.210419
0.761078 0.572540 0.214508
0.787231 0.575073 0.217560
0.814941 0.577362 0.220581
0.841736 0.580048 0.223999
0.869080 0.582275 0.226410
0.142395 0.519897 0.147034
0.155701 0.524017 0.150177
0.168945 0.527222 0.152588
0.182434 0.530792 0.154968
0.196533 0.535248 0.157684
0.210266 0.539032 0.159973
0.227783 0.542084 0.162109
0.254211 0.544830 0.164246
0.282043 0.547577 0.166534
0.310516 0.551208 0.169525
0.336700 0.554718 0.171234
0.362701 0.558136 0.173309
0.388092 0.562256 0.176178
0.413177 0.566925 0.179840
0.438873 0.571655 0.184113
0.463318 0.574860 0.187500
0.487610 0.577026 0.190277
0.510712 0.577820 0.191864
0.533997 0.578613 0.193390
0.557434 0.579376 0.195068
0.581787 0.580658 0.197174
0.609009 0.581604 0.198975
0.636932 0.584015 0.202271
0.663971 0.585815 0.205200
0.690369 0.588501 0.208710
0.716736 0.591339 0.212524
0.741943 0.594238 0.216583
0.768585 0.596588 0.220276
0.796265 0.599243 0.223694
0.824127 0.601685 0.226837
0.851227 0.604370 0.230103
0.877777 0.606354 0.232452
0.150879 0.547272 0.157074
0.164185 0.550995 0.159851
0.177704 0.554382 0.162262
0.191711 0.558594 0.164978
0.205841 0.563080 0.167725
0.219452 0.566315 0.169617
0.240723 0.569336 0.171753
0.267395 0.572113 0.173828
0.295013 0.574982 0.176117
0.321228 0.578369 0.178406
0.347443 0.582031 0.180664
0.373108 0.585815 0.183167
0.398254 0.589966 0.186401
0.423676 0.594666 0.189941
0.448761 0.599152 0.193848
0.473145 0.602356 0.197235
0.497620 0.604767 0.200073
0.521790 0.605988 0.202240
0.545197 0.606995 0.203949
0.568115 0.607635 0.205414
0.590912 0.608368 0.206726
0.615082 0.610016 0.209076
0.639465 0.610626 0.210693
0.666199 0.611725 0.213257
0.694794 0.613190 0.215851
0.723083 0.615662 0.219177
0.749603 0.618622 0.223083
0.776581 0.620667 0.226105
0.805511 0.623199 0.229553
0.832855 0.626038 0.233124
0.859680 0.628754 0.236206
0.885101 0.630859 0.239471
0.159576 0.574402 0.167053
0.172974 0.577789 0.169250
0.186798 0.581604 0.171814
0.200928 0.586212 0.174805
0.215149 0.590637 0.177368
0.230286 0.594177 0.179413
0.252258 0.596436 0.181061
0.279785 0.599091 0.183289
0.306213 0.602142 0.185547
0.332245 0.605560 0.187744
0.358124 0.609314 0.190399
0.383301 0.613373 0.193390
0.408478 0.617676 0.196686
0.433472 0.622009 0.200043
0.458435 0.626526 0.203552
0.482880 0.629883 0.206970
0.507172 0.632080 0.209625
0.531891 0.633972 0.212250
0.555725 0.635437 0.214355
0.578522 0.636230 0.215729
0.601044 0.636780 0.216888
0.623657 0.637604 0.218262
0.646057 0.638214 0.220062
0.667480 0.638489 0.221863
0.694733 0.639099 0.224152
0.729919 0.640411 0.226257
0.757416 0.643005 0.229675
0.785522 0.644989 0.232452
0.814453 0.647766 0.235901
0.841888 0.650818 0.239685
0.867676 0.653137 0.242767
0.892029 0.655151 0.246338
0.168243 0.600922 0.176300
0.181793 0.604706 0.178650
0.195862 0.608948 0.181549
0.210114 0.613770 0.184509
0.224518 0.618225 0.187012
0.240479 0.621307 0.188751
0.262604 0.623688 0.190491
0.290222 0.626465 0.192780
0.316925 0.629364 0.195068
0.343262 0.632996 0.197601
0.368683 0.636963 0.200531
0.393646 0.640717 0.203552
0.418610 0.645142 0.206909
0.443329 0.649384 0.210175
0.467834 0.653351 0.213440
0.492462 0.656677 0.216370
0.516602 0.659027 0.218994
0.541260 0.661072 0.221619
0.565155 0.663055 0.224243
0.588074 0.664032 0.225922
0.610199 0.664398 0.226807
0.631897 0.664917 0.227844
0.653168 0.665314 0.229309
0.674164 0.665466 0.230957
0.695282 0.665497 0.232635
0.729126 0.666260 0.234467
0.764221 0.667938 0.236664
0.792725 0.670044 0.239349
0.822083 0.672272 0.242432
0.849701 0.675385 0.246307
0.874451 0.677521 0.249542
0.897919 0.679260 0.252686
0.177368 0.628326 0.186127
0.191132 0.632538 0.188690
0.205048 0.636841 0.191589
0.219391 0.641510 0.194580
0.233459 0.645294 0.196472
0.249603 0.648499 0.198242
0.272858 0.651215 0.200073
0.299500 0.653809 0.202179
0.327698 0.656769 0.204712
0.354218 0.661133 0.207886
0.379272 0.664703 0.210632
0.403687 0.668427 0.213623
0.428436 0.672394 0.216888
0.452820 0.676636 0.220123
0.477539 0.680359 0.223297
0.501984 0.683472 0.226013
0.526489 0.685791 0.228546
0.550568 0.688141 0.231232
0.574219 0.690094 0.233765
0.597198 0.691498 0.235840
0.619080 0.691803 0.236755
0.639923 0.691925 0.237610
0.661102 0.691956 0.238403
0.682220 0.691895 0.239532
0.703735 0.691925 0.241150
0.727692 0.692902 0.243134
0.763367 0.693909 0.244629
0.797516 0.695892 0.246948
0.828033 0.697754 0.249603
0.857086 0.699677 0.252533
0.880707 0.701599 0.255829
0.903687 0.703308 0.258881
0.186951 0.656525 0.196320
0.200439 0.660461 0.198792
0.214325 0.664703 0.201752
0.228516 0.668793 0.204407
0.242584 0.672668 0.206604
0.258820 0.675842 0.208069
0.282135 0.678284 0.209625
0.310181 0.681549 0.212128
0.337219 0.685028 0.214813
0.364441 0.688660 0.217621
0.389282 0.692352 0.220520
0.413361 0.695831 0.223572
0.437744 0.699738 0.226807
0.461823 0.703491 0.229889
0.486816 0.706970 0.232849
0.511688 0.709808 0.235443
0.536438 0.712036 0.237732
0.560120 0.714264 0.240204
0.583038 0.716187 0.242493
0.605591 0.717621 0.244537
0.627380 0.718536 0.246216
0.648285 0.718658 0.246948
0.669098 0.718658 0.247681
0.689728 0.718262 0.248352
0.713013 0.718872 0.249969
0.736023 0.719604 0.251709
0.761169 0.720093 0.253082
0.796570 0.721802 0.255035
0.829315 0.723633 0.257385
0.860626 0.724731 0.259521
0.886536 0.725708 0.262085
0.909363 0.727386 0.265015
0.196777 0.685303 0.206696
0.210083 0.688965 0.209290
0.223602 0.692535 0.211975
0.237610 0.696167 0.214447
0.251587 0.699615 0.216614
0.267181 0.702423 0.217621
0.293671 0.705872 0.219666
0.320953 0.709473 0.222443
0.348083 0.712769 0.224915
0.373810 0.716339 0.227539
0.398804 0.719818 0.230499
0.423065 0.723175 0.233398
0.447205 0.726654 0.236389
0.471619 0.730072 0.239288
0.496277 0.733490 0.241943
0.521057 0.735870 0.244232
0.545258 0.737946 0.246399
