滤镜资源/Professional Luts Collection/Triune-Digital-Cinematic-LUTs/3D LUTs (CUBE)/STANDARD/The Revenant - Rec709.cube
#Created by Benjamin (IWLTBAP) : http://luts.iwltbap.com
#Copyright: (C) Copyright 2016 Triune Films and IWLTBAP
TITLE "Blockbuster LUTs Pack (Rec.709)"
#LUT size
LUT_3D_SIZE 5
#LUT data points
DOMAIN_MIN 0.000000 0.000000 0.000000
DOMAIN_MAX 0.903226 0.903226 0.903226
0.000000 0.000000 0.000000
0.059784 0.006287 0.006287
0.193604 0.035553 0.041382
0.352020 0.082581 0.093323
0.493256 0.116516 0.130920
0.021637 0.158020 0.106476
0.122070 0.166656 0.105133
0.289795 0.163116 0.113434
0.445557 0.153992 0.135773
0.582733 0.156830 0.161255
0.087128 0.364410 0.248657
0.120728 0.372742 0.256104
0.349915 0.431000 0.291260
0.539337 0.419769 0.285675
0.691895 0.357880 0.269867
0.166870 0.599976 0.416626
0.165802 0.596832 0.416748
0.379028 0.643616 0.458771
0.582916 0.689087 0.481476
0.764771 0.678406 0.481720
0.237183 0.807465 0.575836
0.237946 0.809692 0.578674
0.396423 0.845551 0.611969
0.606750 0.894012 0.659271
0.751984 0.911163 0.680176
0.001068 0.015106 0.047089
0.092316 0.018951 0.090088
0.244629 0.053284 0.118652
0.402924 0.096436 0.152252
0.542084 0.129730 0.177856
0.026123 0.169922 0.181274
0.118225 0.176788 0.199310
0.311890 0.168610 0.204590
0.477264 0.161102 0.201080
0.618805 0.167938 0.210144
0.091858 0.377197 0.331482
0.100708 0.379456 0.336334
0.351532 0.431793 0.375397
0.552063 0.414032 0.359192
0.717926 0.339844 0.321472
0.172211 0.614746 0.497223
0.173065 0.617249 0.499847
0.360992 0.652405 0.529816
0.582916 0.703461 0.579651
0.780975 0.687714 0.566223
0.243103 0.823883 0.650604
0.242432 0.821899 0.651794
0.379333 0.854431 0.679535
0.605133 0.908905 0.726898
0.769379 0.940094 0.767090
0.006592 0.077087 0.151459
0.029297 0.079712 0.189362
0.266663 0.093719 0.249542
0.442169 0.121002 0.270081
0.594788 0.154633 0.295044
0.036438 0.199829 0.299500
0.056458 0.196045 0.301239
0.309692 0.214020 0.351074
0.499664 0.199219 0.348419
0.658691 0.201874 0.342010
0.098816 0.396576 0.457764
0.098022 0.394318 0.458069
0.329559 0.443695 0.501984
0.555817 0.458649 0.531342
0.747955 0.386993 0.485931
0.179047 0.633179 0.618774
0.178253 0.630707 0.621338
0.323975 0.658966 0.646698
0.577789 0.712006 0.696625
0.784302 0.720337 0.710724
0.248047 0.836945 0.765137
0.247681 0.835846 0.763153
0.326202 0.852112 0.783234
0.582123 0.911194 0.830505
0.793976 0.954315 0.882996
0.019562 0.146271 0.267090
0.021027 0.152069 0.299347
0.236572 0.164490 0.376709
0.458160 0.182129 0.431580
0.625732 0.196838 0.446411
0.047363 0.229828 0.403717
0.046844 0.228546 0.417633
0.267883 0.253265 0.466217
0.491791 0.253265 0.505219
0.666901 0.247925 0.506622
0.109497 0.427948 0.584167
0.108398 0.424805 0.587341
0.283569 0.459259 0.625031
0.546936 0.496460 0.673828
0.746216 0.451202 0.666199
0.186676 0.654572 0.751801
0.187317 0.656403 0.757568
0.247040 0.665070 0.765930
0.556152 0.733643 0.824524
0.784058 0.768799 0.866516
0.239441 0.809509 0.869659
0.239441 0.809448 0.869843
0.257446 0.813782 0.873016
0.564941 0.890320 0.920563
0.810669 0.951752 0.964539
0.038269 0.204926 0.381592
0.040375 0.210754 0.411957
0.168365 0.225189 0.479492
0.433289 0.245605 0.554626
0.622925 0.261353 0.598022
0.060577 0.268799 0.501099
0.059875 0.266327 0.515564
0.136719 0.272339 0.554138
0.459595 0.305786 0.621735
0.652344 0.310760 0.658783
0.116577 0.448700 0.686615
0.114105 0.441528 0.689453
0.192352 0.452423 0.715607
0.518860 0.507660 0.779510
0.726227 0.485107 0.797363
0.196442 0.683289 0.868103
0.196045 0.682159 0.869476
0.192749 0.672455 0.874207
0.524231 0.745239 0.928711
0.775055 0.794556 0.977936
0.239655 0.810211 0.867432
0.239777 0.810547 0.866364
0.412933 0.853271 0.893097
0.665009 0.915619 0.936646
0.919128 0.979401 0.984192
