滤镜资源/Professional Luts Collection/Triune-Digital-Cinematic-LUTs/3D LUTs (CUBE)/STANDARD/The Ring - Rec709.cube
#Created by Benjamin (IWLTBAP) : http://luts.iwltbap.com
#Copyright: (C) Copyright 2016 Triune Films and IWLTBAP
TITLE "Blockbuster LUTs Pack (Rec.709)"
#LUT size
LUT_3D_SIZE 32
#LUT data points
0.000000 0.000000 0.000000
0.003174 0.000000 0.000000
0.006317 0.000000 0.000000
0.010620 0.000000 0.000000
0.016876 0.000000 0.000000
0.025513 0.000000 0.000000
0.036438 0.000000 0.000000
0.047821 0.000000 0.000000
0.060577 0.000702 0.000702
0.077393 0.003418 0.003418
0.094269 0.003540 0.003540
0.111115 0.005371 0.003540
0.128998 0.008087 0.004578
0.148590 0.010834 0.007080
0.168182 0.013580 0.007080
0.187775 0.016327 0.009247
0.207397 0.019043 0.011963
0.227539 0.022369 0.014740
0.249878 0.027863 0.017456
0.269714 0.033295 0.020203
0.291016 0.038788 0.022919
0.312408 0.044250 0.025696
0.332123 0.049744 0.028503
0.354462 0.055206 0.033997
0.378845 0.062744 0.039459
0.402649 0.069733 0.044952
0.425446 0.075195 0.050415
0.450531 0.080688 0.055908
0.475586 0.088562 0.061371
0.499054 0.095154 0.066864
0.522186 0.101440 0.072327
0.547272 0.109650 0.077820
0.000000 0.003174 0.000000
0.003174 0.005890 0.000000
0.008240 0.005890 0.000000
0.013367 0.005890 0.000000
0.019257 0.005890 0.000000
0.025513 0.005890 0.000000
0.038727 0.005890 0.000000
0.052032 0.007385 0.000000
0.065338 0.008636 0.000702
0.080170 0.009338 0.003418
0.097015 0.012054 0.003540
0.115692 0.014008 0.003540
0.133453 0.015717 0.004578
0.151337 0.016724 0.007080
0.170929 0.019470 0.007080
0.188354 0.022217 0.009247
0.207397 0.026337 0.011963
0.227539 0.031006 0.014740
0.249878 0.036469 0.017456
0.272217 0.041931 0.020203
0.292023 0.047424 0.022919
0.313324 0.052887 0.026581
0.334869 0.058502 0.031281
0.357208 0.066620 0.036743
0.379547 0.072083 0.042236
0.402649 0.078369 0.046448
0.425446 0.083832 0.050415
0.450531 0.089325 0.055908
0.475586 0.094788 0.061371
0.500671 0.102661 0.066864
0.524109 0.109283 0.072327
0.547272 0.115540 0.077820
0.000000 0.010193 0.000000
0.003174 0.011017 0.000000
0.006317 0.011810 0.000000
0.013367 0.011810 0.000000
0.020416 0.011810 0.000000
0.027893 0.011810 0.000000
0.038727 0.013733 0.001923
0.052826 0.015228 0.001923
0.067627 0.017273 0.001923
0.083008 0.017273 0.003418
0.099762 0.019897 0.003540
0.116608 0.022644 0.005371
0.135040 0.025360 0.005463
0.152130 0.026520 0.007294
0.171722 0.029266 0.009003
0.191101 0.032013 0.011169
0.209320 0.036102 0.012543
0.228912 0.041595 0.014740
0.249878 0.047058 0.017456
0.272217 0.052551 0.022125
0.294556 0.058014 0.024872
0.315277 0.063507 0.028503
0.337494 0.068970 0.033875
0.358002 0.075348 0.037537
0.382263 0.081512 0.043030
0.404602 0.087006 0.048492
0.426941 0.092468 0.052368
0.450531 0.097961 0.057861
0.475586 0.105347 0.063324
0.502258 0.110840 0.068817
0.526886 0.117920 0.074280
0.549194 0.123383 0.079773
0.000000 0.018860 0.000000
0.003174 0.018860 0.000000
0.006317 0.019989 0.001129
0.011780 0.019989 0.001129
0.020416 0.019989 0.001129
0.029053 0.019989 0.001129
0.039978 0.022247 0.002289
0.053955 0.025024 0.003540
0.068756 0.027039 0.004211
0.085632 0.027039 0.004669
0.102478 0.029694 0.004669
0.119324 0.032410 0.005371
0.136200 0.036194 0.008087
0.153290 0.039062 0.008453
0.172852 0.041779 0.011169
0.192444 0.044525 0.012787
0.213196 0.048615 0.015289
0.232788 0.054108 0.015869
0.252380 0.059570 0.018616
0.273376 0.063904 0.023834
0.295685 0.069397 0.027618
0.317108 0.074860 0.030365
0.339325 0.080353 0.035583
0.360962 0.085815 0.039368
0.383545 0.091309 0.044159
0.407349 0.096771 0.049622
0.429657 0.102234 0.055115
0.451996 0.107727 0.060577
0.476715 0.115601 0.066071
0.502258 0.122192 0.071533
0.529266 0.127686 0.076202
0.551941 0.133148 0.081360
0.000000 0.028503 0.000336
0.003174 0.028870 0.000336
0.006317 0.030090 0.001923
0.011078 0.032043 0.003540
0.020050 0.032043 0.003540
0.028687 0.032043 0.003540
0.039978 0.034332 0.003876
0.054321 0.037079 0.003876
0.071167 0.039124 0.004211
0.088043 0.039124 0.006958
0.105225 0.041748 0.007416
0.122070 0.044830 0.007416
0.138916 0.048248 0.008453
0.156006 0.053497 0.010956
0.175598 0.056213 0.013580
0.195190 0.058990 0.014465
0.215851 0.063080 0.015869
0.237579 0.068237 0.018616
0.257172 0.073700 0.021332
0.277100 0.076996 0.026581
0.298431 0.081116 0.030365
0.320190 0.086945 0.033447
0.339783 0.092285 0.036163
0.364380 0.097534 0.041412
0.387756 0.103027 0.046906
0.409729 0.108490 0.052368
0.432404 0.113983 0.057861
0.454742 0.119446 0.063324
0.479126 0.126984 0.068451
0.504181 0.133606 0.073944
0.529602 0.139404 0.078949
0.554657 0.144897 0.081696
0.000000 0.045380 0.003082
0.003174 0.048096 0.003082
0.006317 0.046509 0.003082
0.009491 0.046967 0.003540
0.014587 0.048889 0.003540
0.025970 0.048889 0.003540
0.039185 0.051178 0.005798
0.054321 0.053925 0.006592
0.071167 0.055969 0.006592
0.088043 0.055969 0.006958
0.107483 0.058594 0.009674
0.124786 0.063171 0.010162
0.141663 0.067139 0.011169
0.158722 0.070343 0.013672
0.178314 0.073090 0.013672
0.197937 0.075806 0.016327
0.217560 0.079956 0.018616
0.237579 0.084839 0.021332
0.257172 0.087830 0.024078
0.279297 0.093292 0.029327
0.301147 0.096588 0.033081
0.323486 0.101624 0.036743
0.345245 0.109161 0.041656
0.364838 0.111877 0.044373
0.389465 0.117126 0.049622
0.411560 0.122620 0.055115
0.432526 0.128082 0.060577
0.457489 0.133575 0.066071
0.479797 0.139038 0.069153
0.504181 0.144958 0.073944
0.530060 0.151245 0.079407
0.557434 0.158997 0.084412
0.000000 0.066803 0.005798
0.003174 0.067230 0.005798
0.006317 0.068024 0.005798
0.009491 0.066803 0.005798
0.012970 0.068390 0.005798
0.020508 0.070312 0.005798
0.034149 0.070312 0.008087
0.051239 0.073059 0.009369
0.069550 0.075775 0.009369
0.088043 0.077393 0.009369
0.107483 0.080017 0.011963
0.127075 0.082764 0.012878
0.145447 0.086731 0.013916
0.163544 0.089508 0.016663
0.181091 0.092224 0.018707
0.200684 0.094971 0.020874
0.220276 0.097687 0.023621
0.240448 0.102264 0.026367
0.261749 0.106720 0.029083
0.283844 0.109680 0.032074
0.304474 0.115143 0.037537
0.325317 0.118469 0.040833
0.346283 0.123810 0.044952
0.368042 0.128754 0.049835
0.391724 0.133545 0.054657
0.415558 0.139008 0.058868
0.436615 0.144501 0.063324
0.459869 0.149963 0.068817
0.484833 0.155457 0.074158
0.508759 0.160919 0.078491
0.533844 0.166412 0.083984
0.560150 0.173126 0.089447
0.000000 0.089111 0.008575
0.003174 0.089111 0.008575
0.006317 0.087616 0.008575
0.009491 0.088776 0.009674
0.012665 0.089478 0.010040
0.017426 0.092194 0.010040
0.027191 0.092651 0.010834
0.045746 0.094116 0.012085
0.066040 0.096191 0.012787
0.086426 0.098145 0.013580
0.106018 0.100861 0.014740
0.127075 0.103607 0.017120
0.145660 0.106354 0.018127
0.165009 0.109070 0.020874
0.184387 0.111816 0.023621
0.203400 0.114532 0.024872
0.223022 0.118683 0.028992
0.242615 0.120941 0.031860
0.264038 0.124603 0.034576
0.286346 0.129059 0.037292
0.308441 0.133514 0.041748
0.328949 0.138977 0.047241
0.349243 0.142273 0.050537
0.371552 0.146393 0.054657
0.394501 0.151855 0.060150
0.418304 0.156067 0.064362
0.441071 0.161804 0.067535
0.464417 0.168304 0.073029
0.487671 0.173767 0.078491
0.512756 0.179260 0.083984
0.537811 0.184723 0.088654
0.562897 0.190216 0.093445
0.000000 0.112122 0.011963
0.003174 0.112122 0.011963
0.006317 0.110199 0.011963
0.009491 0.109039 0.012451
0.012665 0.111786 0.014832
0.015808 0.114502 0.014832
0.022156 0.115662 0.015533
0.036865 0.116455 0.016205
0.060577 0.119202 0.016205
0.082886 0.119202 0.018951
0.103271 0.121155 0.019043
0.124695 0.123871 0.020874
0.145660 0.126617 0.023621
0.162964 0.129333 0.026337
0.185303 0.132111 0.029083
0.205475 0.134827 0.030365
0.225739 0.138275 0.032410
0.245941 0.143158 0.037292
0.265625 0.143280 0.040039
0.287048 0.148285 0.043457
0.309357 0.153778 0.047241
0.331726 0.158569 0.052704
0.354034 0.163910 0.058075
0.376373 0.166687 0.060791
0.398712 0.171448 0.065582
0.421021 0.175659 0.069824
0.443817 0.179321 0.073029
0.468872 0.187531 0.078491
0.492249 0.192688 0.083282
0.516174 0.198853 0.088776
0.540558 0.204315 0.094147
0.565613 0.209808 0.096863
0.000000 0.137177 0.017456
0.003174 0.137177 0.017456
0.006317 0.135254 0.017456
0.009491 0.133667 0.017456
0.012665 0.134094 0.017548
0.015808 0.136871 0.017548
0.018982 0.139587 0.019836
0.029785 0.140747 0.022491
0.049622 0.141541 0.024414
0.077393 0.144257 0.024414
0.099762 0.144257 0.024536
0.121979 0.146210 0.026337
0.143280 0.148956 0.029083
0.162964 0.151703 0.031830
0.185303 0.154419 0.034576
0.205475 0.157166 0.037292
0.226440 0.159912 0.039948
0.248657 0.162750 0.042786
0.270996 0.165497 0.045532
0.290710 0.170624 0.050781
0.312103 0.176117 0.054413
0.334442 0.180695 0.058197
0.356781 0.183502 0.063568
0.379120 0.186279 0.066284
0.401428 0.191071 0.071075
0.423767 0.195282 0.075317
0.446564 0.198944 0.078491
0.471649 0.207123 0.083984
0.496704 0.210571 0.087067
0.521637 0.216614 0.091492
0.545929 0.223938 0.096985
0.568390 0.229401 0.102325
0.000000 0.159637 0.022919
0.003174 0.159637 0.022919
0.006317 0.159637 0.022919
0.009491 0.158752 0.024078
0.012665 0.159058 0.025543
0.015808 0.161804 0.025543
0.018982 0.162262 0.025543
0.022125 0.164673 0.027924
0.036041 0.165802 0.029999
0.063843 0.166626 0.029999
0.091644 0.169342 0.032623
0.115784 0.171143 0.034454
0.138916 0.173920 0.037201
0.160583 0.176636 0.039948
0.185303 0.179382 0.042664
0.207642 0.182098 0.045410
0.227692 0.184875 0.048157
0.248749 0.187592 0.050903
0.271118 0.190338 0.053619
0.293427 0.193054 0.056366
0.314850 0.196716 0.061737
0.336273 0.201294 0.065369
0.356995 0.205719 0.069031
0.381866 0.208466 0.071747
0.404175 0.213257 0.076538
0.427765 0.218750 0.080780
0.451477 0.222839 0.083984
0.474365 0.226715 0.089447
0.499420 0.232574 0.094940
0.522919 0.237091 0.097900
0.546936 0.243530 0.102325
0.571106 0.248962 0.107819
0.000000 0.185638 0.030212
0.003174 0.183777 0.030212
0.006317 0.185638 0.032074
0.009491 0.184479 0.032074
0.012665 0.183777 0.033783
0.015808 0.185059 0.033783
0.018982 0.189148 0.035583
0.022125 0.189148 0.035583
0.025299 0.191559 0.037994
0.042847 0.192719 0.039154
0.077942 0.193512 0.039948
0.109406 0.196228 0.042664
0.134491 0.198975 0.045410
0.157837 0.201477 0.048157
0.182892 0.202606 0.050903
0.205811 0.205353 0.051788
0.228149 0.209473 0.055908
0.248749 0.212646 0.059082
0.271118 0.215424 0.061859
0.293427 0.218140 0.064575
0.317474 0.220886 0.067322
0.339020 0.223602 0.071747
0.358826 0.228088 0.074615
0.383881 0.230804 0.079071
0.406891 0.235596 0.082031
0.429260 0.239838 0.087494
0.453735 0.244720 0.090820
0.477448 0.248840 0.094940
0.500336 0.252136 0.100403
0.527008 0.257599 0.104279
0.550598 0.263092 0.107819
0.575684 0.268555 0.113281
0.000000 0.212402 0.039459
0.003174 0.210693 0.039459
0.006317 0.211823 0.040375
0.009491 0.212311 0.041962
0.012665 0.209900 0.041962
0.015808 0.209900 0.041962
0.018982 0.213440 0.044250
0.022125 0.216980 0.046539
0.025299 0.216980 0.046539
0.028473 0.219360 0.048950
0.056519 0.219482 0.049042
0.094696 0.221313 0.050903
0.127960 0.224060 0.053619
0.153290 0.226562 0.056366
0.179138 0.226562 0.059082
0.203064 0.228699 0.060699
0.225433 0.231812 0.062408
0.248322 0.236725 0.067322
0.271118 0.239441 0.070038
0.293427 0.242188 0.072815
0.317474 0.245941 0.075531
0.341614 0.248688 0.078278
0.361572 0.251556 0.081116
0.386658 0.255188 0.086609
0.409668 0.258942 0.089996
0.431976 0.263153 0.092987
0.454773 0.266357 0.098450
0.479828 0.271851 0.101746
0.504547 0.275970 0.106903
0.528015 0.279266 0.110779
0.555054 0.284760 0.114319
0.580139 0.290222 0.119781
0.000000 0.237488 0.050201
0.003174 0.237701 0.050415
0.006317 0.239410 0.050415
0.009491 0.240112 0.050415
0.012665 0.237915 0.050415
0.015808 0.237915 0.050415
0.018982 0.239990 0.052704
0.022125 0.242493 0.055206
0.025299 0.244781 0.057281
0.028473 0.244781 0.057281
0.041199 0.244781 0.057495
0.072449 0.246582 0.059326
0.111572 0.249359 0.061859
0.144836 0.251862 0.064575
0.172638 0.251862 0.067322
0.198517 0.254028 0.070038
0.222656 0.256744 0.072815
0.245605 0.259247 0.075531
0.270630 0.261993 0.078278
0.293427 0.264740 0.080994
0.317474 0.269196 0.083771
0.341858 0.273987 0.086487
0.364197 0.276733 0.089355
0.389160 0.282074 0.094818
0.412384 0.285522 0.098236
0.434937 0.288483 0.101196
0.457520 0.291443 0.104187
0.482605 0.296906 0.109619
0.510071 0.302399 0.114899
0.534668 0.306061 0.118988
0.557770 0.309570 0.122314
0.582855 0.315063 0.127808
0.000000 0.262543 0.058411
0.003174 0.265289 0.061157
0.006317 0.265503 0.061371
0.009491 0.266083 0.061371
0.012665 0.265869 0.061371
0.015808 0.268463 0.061371
0.018982 0.268463 0.063660
0.022125 0.269043 0.064911
0.025299 0.270294 0.065491
0.028473 0.272583 0.065491
0.031616 0.272583 0.068115
0.053497 0.274414 0.070282
0.089294 0.277130 0.071991
0.128387 0.279663 0.072784
0.161682 0.279663 0.075531
0.189514 0.281830 0.078247
0.216766 0.284576 0.080994
0.242828 0.286713 0.083771
0.267914 0.287079 0.086487
0.292999 0.289795 0.089203
0.317474 0.294250 0.091949
0.342560 0.299744 0.094696
0.366943 0.304535 0.097565
0.389252 0.307251 0.103027
0.414215 0.310577 0.106445
0.438721 0.314575 0.110443
0.462738 0.319000 0.114899
0.485321 0.321991 0.117859
0.512787 0.327454 0.120941
0.537384 0.329742 0.125854
0.560547 0.331909 0.129944
0.585602 0.337402 0.133270
0.000000 0.291962 0.068787
0.003174 0.292542 0.069366
0.006317 0.293335 0.070160
0.009491 0.294464 0.071320
0.012665 0.295471 0.072327
0.015808 0.296387 0.072327
0.018982 0.294678 0.072449
0.022125 0.296173 0.073700
0.025299 0.297546 0.074402
0.028473 0.300262 0.075867
0.031616 0.302551 0.078491
0.034790 0.302551 0.079407
0.063629 0.304932 0.081818
0.104218 0.307465 0.082947
0.145233 0.307465 0.083740
0.180695 0.309631 0.086487
0.209900 0.312378 0.090576
0.237946 0.314545 0.093567
0.263031 0.314545 0.094696
0.290222 0.317047 0.097443
0.315308 0.321472 0.100159
0.340393 0.326965 0.103821
0.365448 0.332336 0.107819
0.389832 0.335083 0.111267
0.414215 0.337799 0.114685
0.439301 0.340546 0.117401
0.464355 0.345123 0.121979
0.488403 0.349548 0.126434
0.513367 0.352539 0.131317
0.541168 0.358002 0.134033
0.564636 0.359924 0.138184
0.588318 0.364075 0.140900
0.000000 0.322540 0.079773
0.003174 0.322540 0.079773
0.006317 0.323883 0.081116
0.009491 0.322754 0.079987
0.012665 0.324677 0.082275
0.015808 0.324677 0.083282
0.018982 0.323761 0.083282
0.022125 0.324005 0.083282
0.025299 0.326050 0.083984
0.028473 0.328125 0.086731
0.031616 0.330841 0.088074
0.034790 0.331757 0.090363
0.037964 0.332794 0.091370
0.074066 0.335297 0.093903
0.125153 0.335297 0.093903
0.164246 0.337463 0.096069
0.200317 0.340210 0.098816
0.230286 0.342957 0.103729
0.256165 0.343750 0.104523
0.285126 0.346252 0.107025
0.312592 0.349335 0.109772
0.338562 0.353882 0.112488
0.364075 0.358795 0.117432
0.389160 0.361542 0.120148
0.414215 0.364288 0.122894
0.440552 0.368286 0.126892
0.465271 0.371124 0.129730
0.489410 0.375671 0.134308
0.514496 0.378754 0.138397
0.541168 0.383118 0.143646
0.568146 0.388580 0.146393
0.591095 0.391907 0.149139
0.000000 0.353058 0.090729
0.003174 0.352509 0.090729
0.006317 0.353851 0.092072
0.009491 0.355438 0.093658
0.012665 0.353058 0.091278
0.015808 0.353058 0.093811
0.018982 0.353058 0.094238
0.022125 0.353973 0.094238
0.025299 0.356598 0.094940
0.028473 0.356598 0.097656
0.031616 0.358643 0.097809
0.034790 0.360138 0.099609
0.037964 0.361176 0.101776
0.041595 0.363678 0.104523
0.095703 0.363678 0.104858
0.145325 0.365265 0.107025
0.183899 0.368591 0.109772
0.219910 0.370758 0.111938
0.247711 0.373474 0.114685
0.278046 0.376221 0.117432
0.307434 0.379547 0.120728
0.335236 0.381714 0.122894
0.363068 0.384552 0.125732
0.388580 0.387756 0.128937
0.414215 0.390503 0.131683
0.439972 0.393341 0.135101
0.467316 0.399261 0.140564
0.489777 0.402252 0.143433
0.514496 0.404419 0.145569
0.541168 0.408752 0.149933
0.568726 0.414215 0.155182
0.593811 0.419678 0.157898
0.000000 0.383606 0.101685
0.003174 0.380890 0.101685
0.006317 0.380310 0.101685
0.009491 0.381683 0.103027
0.012665 0.383606 0.104980
0.015808 0.383606 0.104980
0.018982 0.383606 0.105194
0.022125 0.383606 0.105194
0.025299 0.384521 0.105896
0.028473 0.387146 0.108612
0.031616 0.387146 0.108765
0.034790 0.389191 0.110565
0.037964 0.391693 0.112274
0.041595 0.394226 0.112732
0.050201 0.394226 0.115479
0.110840 0.394226 0.117981
0.163574 0.397217 0.120728
0.203491 0.401306 0.122894
0.239502 0.401306 0.122894
0.269806 0.404022 0.125610
0.300354 0.408478 0.130096
0.329773 0.411896 0.133484
0.357574 0.412354 0.133972
0.385376 0.417847 0.139435
0.412964 0.421051 0.142639
0.439301 0.422516 0.145355
0.464600 0.424347 0.148804
0.489655 0.432556 0.154266
0.514496 0.433136 0.154724
0.541168 0.436554 0.158142
0.568970 0.442017 0.163605
0.596558 0.447479 0.168854
0.000000 0.411652 0.112610
0.003174 0.411438 0.112610
0.006317 0.410614 0.112610
0.009491 0.411774 0.112610
0.012665 0.414154 0.113983
0.015808 0.414154 0.116150
0.018982 0.414154 0.116150
0.022125 0.414154 0.116150
0.025299 0.414856 0.116852
0.028473 0.417572 0.119568
0.031616 0.417664 0.119690
0.034790 0.421326 0.121521
0.037964 0.422729 0.123230
0.041107 0.422485 0.123444
0.045197 0.424774 0.126190
0.071167 0.426941 0.128937
0.133911 0.427277 0.130310
0.185669 0.429901 0.131897
0.225586 0.431854 0.133820
0.259064 0.434357 0.136353
0.291351 0.438782 0.139099
0.321777 0.442444 0.142853
0.349701 0.442566 0.144562
0.379913 0.445648 0.147644
0.409760 0.449066 0.151062
0.436768 0.451813 0.155090
0.462311 0.453979 0.159058
0.489410 0.460144 0.162476
0.514496 0.463562 0.165558
0.542755 0.466858 0.168854
0.570679 0.472351 0.173553
0.596771 0.477814 0.177307
0.000000 0.442902 0.123566
0.003174 0.442902 0.125305
0.006317 0.442902 0.125305
0.009491 0.442902 0.125305
0.012665 0.445038 0.125305
0.015808 0.446411 0.126648
0.018982 0.446411 0.127106
0.022125 0.446411 0.128601
0.025299 0.446411 0.128815
0.028473 0.448120 0.130524
0.031616 0.449951 0.130646
0.034790 0.450195 0.132477
0.037964 0.454620 0.134186
0.041107 0.453491 0.134399
0.044281 0.454742 0.137146
0.051971 0.457489 0.139893
0.092133 0.460236 0.141266
0.155670 0.461151 0.141846
0.206299 0.463867 0.144562
0.243683 0.464905 0.147308
0.280396 0.467621 0.150055
0.313690 0.472198 0.152802
0.343201 0.473114 0.155518
0.373749 0.475830 0.158264
0.404297 0.478577 0.160980
0.434845 0.482574 0.164978
0.460815 0.485779 0.170013
0.487366 0.489990 0.172760
0.514496 0.493073 0.175476
0.542755 0.497406 0.178223
0.571716 0.502106 0.183594
0.596771 0.506653 0.187225
0.000000 0.476166 0.135437
0.003174 0.475250 0.137268
0.006317 0.476166 0.138062
0.009491 0.476166 0.138062
0.012665 0.476166 0.138062
0.015808 0.478333 0.138062
0.018982 0.479675 0.138977
0.022125 0.479675 0.139557
0.025299 0.479675 0.141602
0.028473 0.479675 0.141602
0.031616 0.482330 0.142517
0.034790 0.483246 0.143433
0.037964 0.483337 0.145142
0.041107 0.486084 0.145355
0.044281 0.486755 0.148102
0.047455 0.488922 0.150848
0.058380 0.490753 0.152222
0.112640 0.493500 0.153351
0.177094 0.496216 0.156433
0.224274 0.496490 0.158264
0.263977 0.499084 0.160980
0.302734 0.501831 0.163757
0.335907 0.504578 0.166473
0.366455 0.507324 0.169220
0.397888 0.510040 0.171936
0.428467 0.512238 0.175018
0.459015 0.517700 0.180511
0.484985 0.520905 0.183716
0.513367 0.524536 0.186432
0.540924 0.527069 0.189178
0.571503 0.532532 0.192719
0.596771 0.535370 0.198181
0.000000 0.509552 0.149139
0.003174 0.506836 0.149017
0.006317 0.507843 0.149017
0.009491 0.509430 0.149017
0.012665 0.509552 0.149139
0.015808 0.509552 0.149139
0.018982 0.511627 0.151306
0.022125 0.512848 0.152557
0.025299 0.513000 0.152557
0.028473 0.513000 0.152557
0.031616 0.515503 0.155182
0.034790 0.516510 0.156097
0.037964 0.516632 0.156219
0.041107 0.516724 0.156311
0.044281 0.519501 0.159058
0.047455 0.522095 0.161804
0.050598 0.523590 0.163269
0.065186 0.524048 0.164185
0.136810 0.526794 0.169678
0.197266 0.527130 0.170258
0.245575 0.530457 0.171936
0.286285 0.535126 0.174805
0.324951 0.537750 0.177429
0.355499 0.540497 0.180145
0.388214 0.543335 0.183014
0.420319 0.544800 0.185638
0.450897 0.545593 0.188721
0.481445 0.551086 0.194183
0.511993 0.556671 0.197388
0.539459 0.558960 0.200134
0.566132 0.560455 0.203552
0.596680 0.565918 0.209015
0.000000 0.545593 0.162811
0.003174 0.542847 0.160095
0.006317 0.542053 0.159973
0.009491 0.542725 0.159973
0.012665 0.543060 0.160309
0.015808 0.545593 0.162811
0.018982 0.543304 0.162811
0.022125 0.543396 0.163513
0.025299 0.544098 0.163513
0.028473 0.546265 0.163513
0.031616 0.546265 0.166138
0.034790 0.548767 0.167053
0.037964 0.550842 0.168060
0.041107 0.552643 0.169891
0.044281 0.552765 0.169983
0.047455 0.553345 0.172760
0.050598 0.555420 0.175476
0.053772 0.556854 0.176971
0.068359 0.557343 0.177887
0.157562 0.560089 0.180847
0.219574 0.562134 0.182892
0.267944 0.566467 0.186554
0.308502 0.571014 0.191101
0.344543 0.571014 0.191101
0.379181 0.575836 0.195892
0.413269 0.578094 0.198181
0.445404 0.578552 0.199341
0.475952 0.581635 0.202423
0.506500 0.589508 0.207886
0.535461 0.592224 0.211090
0.563354 0.593018 0.213806
0.593933 0.596466 0.217255
0.000000 0.575439 0.172394
0.003174 0.576813 0.173767
0.006317 0.576019 0.172974
0.009491 0.576019 0.172974
0.012665 0.576355 0.172974
0.015808 0.579102 0.174011
0.018982 0.579315 0.176514
0.022125 0.578064 0.176514
0.025299 0.578064 0.176514
0.028473 0.579437 0.176514
0.031616 0.579529 0.177063
0.034790 0.581390 0.179810
0.037964 0.583099 0.180054
0.041107 0.584808 0.181763
0.044281 0.586609 0.183594
0.047455 0.588684 0.185730
0.050598 0.587311 0.187103
0.053772 0.589264 0.189178
0.056946 0.592194 0.190674
0.076782 0.594727 0.193176
0.177826 0.597473 0.195892
0.240997 0.599274 0.198639
0.288177 0.602356 0.202759
0.328094 0.604309 0.202759
0.366180 0.606354 0.206848
0.403473 0.610596 0.211090
0.437897 0.611816 0.212341
0.468445 0.614594 0.215088
0.501038 0.620056 0.218170
0.531586 0.625061 0.222046
0.560638 0.626343 0.224762
0.591187 0.629059 0.227509
0.000000 0.606995 0.183136
0.003174 0.609772 0.185883
0.006317 0.609283 0.185425
0.009491 0.609283 0.186554
0.012665 0.609619 0.186676
0.015808 0.612366 0.186676
0.018982 0.611572 0.187683
0.022125 0.612854 0.188965
0.025299 0.613495 0.189636
0.028473 0.614075 0.190186
0.031616 0.612854 0.190186
0.034790 0.615906 0.192017
0.037964 0.617645 0.193756
0.041107 0.617859 0.193970
0.044281 0.620575 0.196686
0.047455 0.620819 0.198181
0.050598 0.624603 0.200836
0.053772 0.621857 0.200836
0.056946 0.625244 0.202850
0.061371 0.628235 0.205627
0.106750 0.630981 0.208344
0.203918 0.633698 0.211090
0.261841 0.634277 0.213806
0.309052 0.638153 0.214966
0.349762 0.640900 0.217804
0.389771 0.643646 0.222046
0.428070 0.645935 0.224762
0.460205 0.647858 0.227509
0.493164 0.651733 0.230255
0.524841 0.655609 0.233002
0.556183 0.658356 0.235718
0.587219 0.661102 0.238464
0.000000 0.643494 0.197266
0.003174 0.645325 0.199097
0.006317 0.644623 0.198425
0.009491 0.643494 0.197968
0.012665 0.643158 0.200348
0.015808 0.645660 0.200348
0.018982 0.644745 0.200348
0.022125 0.644531 0.200348
0.025299 0.647247 0.201050
0.028473 0.649994 0.203766
0.031616 0.647491 0.203918
0.034790 0.650208 0.205261
0.037964 0.653198 0.207428
0.041107 0.653625 0.207428
0.044281 0.656616 0.209930
0.047455 0.654999 0.210968
0.050598 0.655914 0.211884
0.053772 0.660156 0.214508
0.056946 0.657410 0.214508
0.060089 0.660156 0.217010
0.087128 0.662445 0.219299
0.148682 0.665161 0.222046
0.225891 0.667908 0.224762
0.284180 0.673035 0.227509
0.331360 0.676483 0.230255
0.372894 0.678741 0.233002
0.414398 0.682404 0.236206
0.450409 0.682404 0.238922
0.484009 0.684357 0.241211
0.516632 0.687073 0.243958
0.548431 0.689819 0.247162
0.581726 0.692566 0.249878
0.000000 0.682251 0.213715
0.003174 0.679504 0.210968
0.006317 0.679382 0.210846
0.009491 0.680206 0.211639
0.012665 0.681915 0.214050
0.015808 0.679169 0.214050
0.018982 0.681671 0.214050
0.022125 0.682251 0.214050
0.025299 0.683289 0.214722
0.028473 0.686035 0.217468
0.031616 0.683502 0.217590
0.034790 0.686249 0.217590
0.037964 0.688660 0.218964
0.041107 0.686951 0.221130
0.044281 0.692413 0.221130
0.047455 0.691040 0.223633
0.050598 0.691040 0.224670
