滤镜资源/Professional Luts Collection/Triune-Digital-Cinematic-LUTs/3D LUTs (CUBE)/STANDARD/The Revenant - Rec709.cube
#Created by Benjamin (IWLTBAP) : http://luts.iwltbap.com
#Copyright: (C) Copyright 2016 Triune Films and IWLTBAP
TITLE "Blockbuster LUTs Pack (Rec.709)"
#LUT size
LUT_3D_SIZE 32
#LUT data points
0.000000 0.000000 0.000000
0.004150 0.000122 0.000122
0.008820 0.000244 0.000244
0.014038 0.001038 0.001038
0.019867 0.003143 0.003204
0.029510 0.005981 0.006714
0.042480 0.005432 0.005768
0.059784 0.006287 0.006287
0.079010 0.009369 0.009369
0.092133 0.011688 0.012970
0.112793 0.015045 0.018311
0.132172 0.018402 0.022797
0.153870 0.024750 0.030487
0.178925 0.033508 0.039734
0.193604 0.035553 0.041382
0.214355 0.041290 0.050476
0.235901 0.046661 0.058014
0.257111 0.053253 0.063843
0.280670 0.060913 0.071350
0.306427 0.068939 0.083527
0.328522 0.075653 0.088928
0.352020 0.082581 0.093323
0.378662 0.089752 0.103546
0.397308 0.094757 0.108246
0.416107 0.099701 0.112091
0.435089 0.104187 0.116669
0.451935 0.108093 0.120178
0.475555 0.113831 0.127747
0.493256 0.116516 0.130920
0.515411 0.120880 0.134827
0.538788 0.125916 0.139221
0.554291 0.129852 0.143219
0.002014 0.012360 0.005219
0.006012 0.008514 0.004272
0.013092 0.010742 0.005188
0.023315 0.013550 0.007507
0.033630 0.014435 0.011688
0.047241 0.014282 0.013977
0.061401 0.014832 0.012451
0.076996 0.017395 0.012878
0.098267 0.020172 0.017181
0.118286 0.023407 0.022766
0.134216 0.025848 0.026489
0.163361 0.034912 0.042053
0.188507 0.042114 0.053192
0.211182 0.047791 0.057404
0.226379 0.050659 0.055054
0.244507 0.053436 0.059052
0.264740 0.060028 0.068756
0.287598 0.066101 0.076965
0.315582 0.075012 0.090607
0.330048 0.078674 0.088318
0.351440 0.084625 0.094360
0.374695 0.090302 0.099426
0.397552 0.096527 0.107483
0.415527 0.101135 0.111298
0.433960 0.105682 0.116974
0.451447 0.109192 0.121582
0.468414 0.113342 0.125977
0.489349 0.117401 0.129730
0.506500 0.120331 0.133667
0.528015 0.124817 0.138123
0.550934 0.130035 0.143188
0.571472 0.135803 0.149231
0.003204 0.026794 0.011810
0.006958 0.022430 0.012268
0.015442 0.022308 0.010315
0.026093 0.028137 0.011505
0.041504 0.028625 0.015167
0.056427 0.027649 0.018524
0.073608 0.028503 0.019928
0.089417 0.031189 0.022064
0.109863 0.033203 0.026947
0.130920 0.037079 0.033203
0.153961 0.041412 0.037537
0.172943 0.044342 0.044952
0.199677 0.050934 0.056976
0.220551 0.055328 0.060333
0.240509 0.061401 0.064514
0.258789 0.064850 0.067902
0.284363 0.069489 0.075653
0.307251 0.075684 0.083160
0.334106 0.082703 0.093445
0.352783 0.088440 0.097412
0.370514 0.092743 0.100159
0.391327 0.097412 0.106171
0.411957 0.102386 0.111664
0.436432 0.109222 0.120422
0.450806 0.110748 0.120880
0.468292 0.114716 0.125702
0.486755 0.119049 0.130829
0.506439 0.122162 0.133911
0.523499 0.125671 0.138367
0.543976 0.129883 0.142334
0.562622 0.134247 0.146973
0.581848 0.139343 0.152954
0.005615 0.046661 0.020844
0.007263 0.043793 0.022461
0.018005 0.044830 0.024689
0.028259 0.045837 0.017975
0.041870 0.051605 0.020630
0.056915 0.052368 0.025269
0.079163 0.052124 0.028809
0.101501 0.052826 0.032990
0.120605 0.055786 0.036743
0.135620 0.057373 0.041779
0.162048 0.059448 0.048798
0.183472 0.061829 0.053314
0.206451 0.064728 0.059998
0.223877 0.065277 0.062012
0.247498 0.071014 0.070343
0.266327 0.075439 0.072998
0.289581 0.078339 0.079346
0.318604 0.082825 0.087433
0.343475 0.088531 0.093445
0.364807 0.094910 0.099915
0.386017 0.100311 0.106445
0.406525 0.105225 0.112915
0.426300 0.108490 0.116211
0.449097 0.114563 0.123688
0.467224 0.116913 0.127625
0.484100 0.119568 0.129303
0.505402 0.124451 0.134613
0.525177 0.128326 0.139191
0.542603 0.131897 0.144379
0.557892 0.135010 0.147003
0.576477 0.139038 0.150787
0.590057 0.141418 0.154755
0.007416 0.073364 0.038147
0.010986 0.069672 0.038239
0.015991 0.070770 0.041779
0.026703 0.071320 0.042053
0.044739 0.072266 0.035980
0.058472 0.075989 0.039856
0.082703 0.081818 0.043945
0.107574 0.081390 0.048218
0.132568 0.082886 0.051544
0.143524 0.084473 0.049072
0.167358 0.083435 0.057953
0.190918 0.083557 0.063873
0.212097 0.083923 0.066589
0.233429 0.084045 0.070404
0.257385 0.084290 0.079895
0.278015 0.087921 0.080841
0.302094 0.093811 0.084839
0.321014 0.091949 0.090668
0.346863 0.096985 0.097870
0.371613 0.101807 0.104553
0.395081 0.107330 0.111237
0.416779 0.111298 0.116882
0.439026 0.115906 0.121307
0.457489 0.119598 0.124969
0.475983 0.121887 0.129181
0.497009 0.125153 0.133453
0.517303 0.129608 0.137695
0.537567 0.134155 0.143127
0.556946 0.138092 0.148987
0.572784 0.141327 0.152527
0.587402 0.143524 0.154419
0.600555 0.143738 0.155792
0.009644 0.099579 0.064270
0.013336 0.096680 0.056641
0.017975 0.095581 0.057190
0.031433 0.095947 0.059967
0.048157 0.096954 0.061829
0.072876 0.104095 0.064484
0.095612 0.113342 0.071136
0.115997 0.115387 0.071167
0.134857 0.110962 0.067688
0.152679 0.106903 0.065338
0.172638 0.106110 0.066071
0.197693 0.107361 0.072784
0.220703 0.108093 0.078522
0.242523 0.106934 0.083282
0.261627 0.106903 0.085175
0.285645 0.107849 0.089142
0.311615 0.112701 0.094208
0.333099 0.111084 0.100189
0.356964 0.110535 0.106995
0.378174 0.110931 0.108948
0.401550 0.116211 0.114838
0.424103 0.119171 0.120544
0.444550 0.122040 0.125549
0.462891 0.125214 0.128204
0.482788 0.128632 0.132477
0.503632 0.131042 0.136993
0.523224 0.134827 0.141632
0.544891 0.138977 0.146027
0.563721 0.143005 0.151215
0.582367 0.146301 0.155914
0.601105 0.149078 0.158966
0.616821 0.150391 0.160645
0.015411 0.130737 0.089172
0.014374 0.125854 0.082397
0.025879 0.123291 0.081787
0.037445 0.122864 0.082764
0.051514 0.125458 0.084045
0.071564 0.125092 0.079926
0.090912 0.129578 0.079865
0.120300 0.143768 0.088715
0.143463 0.150604 0.089935
0.163025 0.143524 0.088440
0.185181 0.139404 0.086243
0.209808 0.137299 0.086823
0.232422 0.139038 0.091766
0.254059 0.136841 0.095673
0.274841 0.133606 0.095612
0.298645 0.135620 0.100037
0.322662 0.134369 0.107025
0.345642 0.132172 0.113098
0.367859 0.130310 0.117615
0.389099 0.129639 0.118195
0.408997 0.130432 0.120392
0.432800 0.135071 0.126251
0.456085 0.135590 0.131470
0.477478 0.136749 0.135864
0.494629 0.136963 0.137909
0.516541 0.140625 0.142914
0.536407 0.144135 0.147858
0.553864 0.146240 0.151825
0.571777 0.148346 0.154175
0.590424 0.151581 0.157837
0.610992 0.154602 0.161438
0.630615 0.156738 0.164490
0.021637 0.158020 0.106476
0.024017 0.156006 0.103699
0.028595 0.153870 0.103882
0.036255 0.152222 0.103302
0.053741 0.155365 0.105743
0.077332 0.155365 0.104614
0.098724 0.157623 0.105164
0.122070 0.166656 0.105133
0.150085 0.178253 0.110596
0.171051 0.184357 0.108093
0.195282 0.175415 0.107300
0.218689 0.171265 0.106812
0.243225 0.171082 0.108215
0.267609 0.169464 0.112671
0.289795 0.163116 0.113434
0.312012 0.163544 0.114105
0.333893 0.161163 0.118408
0.358307 0.158691 0.125671
0.378754 0.156769 0.129333
0.399109 0.152252 0.129486
0.424255 0.153290 0.133698
0.445557 0.153992 0.135773
0.468811 0.154907 0.139740
0.490112 0.154236 0.143860
0.509369 0.152161 0.146576
0.529175 0.151459 0.149475
0.552002 0.154877 0.155182
0.568665 0.155945 0.159180
0.582733 0.156830 0.161255
0.600311 0.159332 0.162933
0.618774 0.161285 0.165649
0.638824 0.163239 0.169189
0.028625 0.183167 0.122345
0.028564 0.183014 0.121704
0.027740 0.180450 0.119507
0.037079 0.180603 0.121521
0.047455 0.181763 0.121155
0.070740 0.185364 0.127167
0.101257 0.188751 0.131653
0.128967 0.194031 0.135040
0.156250 0.203125 0.136627
0.175751 0.209930 0.131256
0.202850 0.214722 0.129272
0.227325 0.208160 0.131104
0.247650 0.204651 0.131287
0.277710 0.201752 0.132080
0.303986 0.202118 0.136047
0.323334 0.195984 0.134827
0.344391 0.192444 0.135071
0.367218 0.189453 0.138184
0.392975 0.187805 0.141235
0.415100 0.182373 0.142181
0.437012 0.179810 0.146271
0.462219 0.178802 0.151093
0.480835 0.175903 0.150452
0.501404 0.175293 0.153900
0.523926 0.172913 0.156372
0.544128 0.171173 0.157776
0.562469 0.168396 0.160858
0.580933 0.167450 0.164978
0.596130 0.167023 0.166931
0.611176 0.168457 0.168854
0.631165 0.170502 0.171814
0.647095 0.170807 0.174042
0.037842 0.210846 0.141174
0.037781 0.210449 0.143005
0.037262 0.208893 0.141907
0.036743 0.207489 0.140015
0.043915 0.208649 0.141113
0.071655 0.211334 0.144073
0.097565 0.214874 0.147583
0.126923 0.221375 0.152588
0.154358 0.225616 0.156189
0.181335 0.235565 0.158386
0.207855 0.244110 0.153992
0.238647 0.253815 0.156403
0.263123 0.247894 0.158936
0.282104 0.241119 0.155304
0.311005 0.238037 0.154602
0.332855 0.231842 0.154419
0.355560 0.225220 0.153503
0.380920 0.222382 0.156647
0.403595 0.219025 0.158112
0.426819 0.214172 0.158691
0.448914 0.210175 0.160095
0.470154 0.205475 0.161835
0.487976 0.201508 0.162384
0.508026 0.199982 0.163055
0.530243 0.199158 0.166351
0.553802 0.197632 0.170502
0.577515 0.194092 0.174713
0.592255 0.189423 0.174591
0.610260 0.186279 0.174805
0.626129 0.183441 0.174652
0.643005 0.182190 0.177429
0.660217 0.181335 0.180084
0.048370 0.241028 0.163696
0.047363 0.238373 0.160156
0.047729 0.239166 0.162903
0.047577 0.238647 0.164185
0.049652 0.238647 0.164276
0.068695 0.242523 0.164001
0.095703 0.248047 0.166321
0.126862 0.253448 0.172577
0.157654 0.258148 0.178925
0.186340 0.263824 0.187439
0.214600 0.276703 0.189270
0.245026 0.288574 0.184601
0.272797 0.297546 0.184113
0.292725 0.288971 0.182281
0.324982 0.283569 0.184296
0.350433 0.277924 0.183868
0.372253 0.268738 0.182617
0.395538 0.262146 0.182861
0.416412 0.260406 0.182098
0.439911 0.253784 0.180115
0.462250 0.247650 0.179535
0.486420 0.242493 0.181213
0.509338 0.238129 0.182312
0.528412 0.234070 0.182892
0.548615 0.228424 0.183258
0.570587 0.226410 0.186462
0.591919 0.223450 0.189545
0.603363 0.217529 0.185730
0.626770 0.215454 0.188324
0.645874 0.211548 0.189301
0.662750 0.206726 0.190338
0.680542 0.202789 0.192474
0.058929 0.271271 0.184174
0.058746 0.270844 0.182373
0.058197 0.269348 0.181305
0.058350 0.269562 0.183105
0.057892 0.268066 0.183716
0.069122 0.272461 0.184448
0.092560 0.276733 0.187897
0.123901 0.284180 0.193237
0.154663 0.290314 0.198975
0.186035 0.297058 0.208191
0.215607 0.300537 0.211945
0.243988 0.312317 0.209869
0.277527 0.324432 0.210052
0.304443 0.334869 0.211578
0.334564 0.330048 0.212006
0.359985 0.322113 0.209656
0.383057 0.317169 0.210083
0.407623 0.308044 0.208984
0.430481 0.304108 0.206451
0.455231 0.294861 0.205719
0.478699 0.289886 0.204346
0.500275 0.282104 0.203491
0.522797 0.275330 0.205292
0.544617 0.269592 0.204071
0.563690 0.263306 0.202454
0.582458 0.256470 0.201538
0.603516 0.252289 0.204590
0.619965 0.245697 0.202972
0.638184 0.241211 0.203735
0.661987 0.239044 0.204041
0.679901 0.233582 0.204529
0.696838 0.228149 0.204987
0.069153 0.303314 0.205017
0.068970 0.302643 0.205597
0.069183 0.303406 0.204712
0.069244 0.303558 0.205322
0.068726 0.301910 0.204803
0.069763 0.300476 0.204926
0.090027 0.304596 0.209381
0.121460 0.311768 0.214111
0.152252 0.320343 0.219208
0.184113 0.327118 0.227997
0.216400 0.331268 0.232178
0.247162 0.338654 0.234680
0.274933 0.349121 0.234680
0.312561 0.364746 0.238922
0.344147 0.376923 0.240753
0.369324 0.373108 0.240021
0.391815 0.362885 0.235931
0.418640 0.356598 0.235779
0.444763 0.348907 0.232147
0.470673 0.338928 0.232666
0.491608 0.331421 0.229492
0.513550 0.326019 0.228271
0.536469 0.320221 0.227966
0.557251 0.311981 0.227020
0.577881 0.304535 0.225372
0.598572 0.295166 0.222870
0.620026 0.287445 0.222382
0.638702 0.281250 0.222015
0.657013 0.276306 0.223419
0.674072 0.269196 0.222565
0.695953 0.262543 0.220978
0.712036 0.255737 0.219635
0.078522 0.334534 0.227386
0.078308 0.333893 0.229919
0.078735 0.335358 0.229095
0.078766 0.335510 0.227844
0.079254 0.337006 0.230927
0.081329 0.336304 0.230194
0.087128 0.334686 0.229584
0.114441 0.340027 0.233215
0.150635 0.348907 0.239868
0.188690 0.356995 0.246460
0.218201 0.361206 0.252319
0.252441 0.371063 0.261139
0.286163 0.382599 0.264526
0.316772 0.390991 0.261322
0.347168 0.404175 0.264069
0.375000 0.414734 0.264038
0.401062 0.413483 0.264221
0.428223 0.403595 0.262787
0.453125 0.394745 0.258057
0.480713 0.388641 0.259033
0.503113 0.380035 0.258118
0.525909 0.369781 0.255066
0.549713 0.361908 0.254700
0.576508 0.353882 0.253754
0.596130 0.348663 0.251404
0.616943 0.340790 0.250488
0.638458 0.330444 0.249298
0.658173 0.323700 0.245514
0.676697 0.319336 0.247528
0.694275 0.309631 0.245636
0.709412 0.297302 0.242249
0.729858 0.290375 0.239655
0.087128 0.364410 0.248657
0.087677 0.366241 0.249146
0.087463 0.365570 0.251923
0.087128 0.364563 0.251465
0.088104 0.367432 0.251251
0.087677 0.366272 0.249146
0.100311 0.368347 0.253113
0.120728 0.372742 0.256104
0.153015 0.377228 0.261292
0.188599 0.385803 0.269623
0.224335 0.398010 0.277252
0.257935 0.403625 0.284912
0.287933 0.410004 0.289368
0.317017 0.418121 0.286499
0.349915 0.431000 0.291260
0.380768 0.441406 0.287903
0.409302 0.453308 0.289398
0.437256 0.453552 0.292511
0.461334 0.443054 0.288879
0.487610 0.434784 0.284637
0.512939 0.426575 0.285736
0.539337 0.419769 0.285675
0.561584 0.410339 0.281433
0.584076 0.399109 0.278564
0.609802 0.389099 0.274872
0.629700 0.385712 0.274536
0.649200 0.378204 0.274933
0.667755 0.366150 0.269989
0.691895 0.357880 0.269867
0.713989 0.351959 0.269287
0.732697 0.344940 0.266968
0.747009 0.334290 0.264160
0.099274 0.400635 0.273010
0.099548 0.401245 0.275055
0.097931 0.396393 0.271210
0.098450 0.398102 0.273651
0.099487 0.401184 0.273071
0.099365 0.400848 0.273163
0.098755 0.399017 0.272491
0.116638 0.403900 0.276367
0.152374 0.408264 0.279602
0.188049 0.418884 0.289276
0.227661 0.428619 0.298004
0.258453 0.433258 0.304779
0.291229 0.441254 0.312622
0.320770 0.446991 0.314789
0.352722 0.457275 0.316711
0.385315 0.468475 0.314545
0.415710 0.479889 0.315399
0.444092 0.490509 0.317810
0.469604 0.493225 0.319855
0.496307 0.480682 0.313446
0.521149 0.472076 0.310455
0.546844 0.464478 0.311737
0.574158 0.456879 0.308411
0.595276 0.447632 0.307343
0.618195 0.435059 0.302826
0.641235 0.427307 0.298340
0.663300 0.422577 0.299530
0.683044 0.411713 0.296387
0.705170 0.401672 0.295166
0.726685 0.392212 0.293427
0.747650 0.385254 0.290955
0.764587 0.372925 0.286102
0.110657 0.434113 0.296112
0.110870 0.434631 0.299194
0.110229 0.432770 0.298187
0.109711 0.431274 0.294647
0.111206 0.435638 0.296173
0.110931 0.434814 0.297302
0.110840 0.432220 0.295898
0.117615 0.433746 0.296356
0.145081 0.439056 0.300995
0.187347 0.448547 0.309326
0.227722 0.458435 0.318756
0.261383 0.465454 0.326263
0.291901 0.470764 0.332214
0.325012 0.479034 0.338989
0.356750 0.486420 0.342133
0.387207 0.499023 0.343842
0.418518 0.508453 0.345062
0.447662 0.516968 0.344482
0.473938 0.525513 0.345459
0.500671 0.533905 0.347107
0.529236 0.524597 0.341522
0.554047 0.514221 0.338409
0.582214 0.504150 0.338531
0.605072 0.494720 0.336060
0.628693 0.484558 0.333221
0.654907 0.474518 0.328522
0.674133 0.465057 0.325348
0.694153 0.455505 0.323120
0.717346 0.445892 0.322937
0.740143 0.437653 0.321136
0.762024 0.430511 0.317627
0.779144 0.417572 0.312439
0.122406 0.468872 0.320679
0.122131 0.467987 0.322388
0.122375 0.468719 0.323364
0.122437 0.468933 0.320923
0.122528 0.469238 0.319611
0.121979 0.467621 0.320831
0.120850 0.464111 0.320129
0.127106 0.463898 0.319672
0.149536 0.472382 0.325958
0.190552 0.480316 0.332855
0.228577 0.490265 0.341248
0.263550 0.496979 0.347382
0.299561 0.507294 0.358032
0.330902 0.509827 0.359222
0.361755 0.516541 0.365509
0.390533 0.527832 0.368805
0.421753 0.537079 0.370850
0.453522 0.545959 0.373749
0.479767 0.551941 0.370483
0.507202 0.560028 0.371063
0.535248 0.568573 0.370697
0.563019 0.561157 0.368439
0.589905 0.551422 0.367645
0.614441 0.540985 0.364014
0.635864 0.528656 0.360443
0.661987 0.520233 0.357971
0.686066 0.510376 0.353271
0.705078 0.499786 0.350311
0.729279 0.490936 0.349854
0.753052 0.481476 0.347260
0.772766 0.470825 0.342957
0.789062 0.460602 0.337372
0.134064 0.503235 0.345856
0.134155 0.503632 0.346008
0.134674 0.505066 0.348572
0.134155 0.503510 0.347229
0.133209 0.500732 0.342926
0.132843 0.499695 0.342529
0.132843 0.499573 0.345398
0.134277 0.499054 0.346893
0.154572 0.504150 0.349396
0.187927 0.510986 0.355164
0.230194 0.521423 0.363342
0.266998 0.526733 0.367493
0.304138 0.537567 0.378204
0.336273 0.544006 0.385651
0.368591 0.548981 0.390656
0.397278 0.559479 0.398499
0.428955 0.567841 0.400452
0.460175 0.574860 0.401337
0.487305 0.580261 0.399689
0.513306 0.589935 0.400055
0.543060 0.598877 0.401459
0.574860 0.606140 0.401093
0.595734 0.597290 0.396667
0.621155 0.587189 0.391998
0.644714 0.575043 0.386658
0.669586 0.566284 0.386047
0.695190 0.555084 0.383423
0.714844 0.541290 0.376190
0.737488 0.532471 0.374878
0.762604 0.521301 0.372681
0.784149 0.509186 0.369232
0.802673 0.497772 0.365509
0.145599 0.537354 0.369659
0.145386 0.536713 0.368866
0.144043 0.532593 0.367188
0.143799 0.531860 0.368317
0.144104 0.532806 0.367584
0.144440 0.533844 0.367523
0.144379 0.533661 0.369354
0.144348 0.533569 0.369476
0.154999 0.531860 0.369324
0.190002 0.537323 0.375336
0.230835 0.550690 0.386627
0.270386 0.561951 0.395386
0.305817 0.569061 0.402130
0.336304 0.574066 0.407745
0.365967 0.580139 0.412231
0.401001 0.589600 0.419800
0.428101 0.592743 0.424255
0.458801 0.599854 0.424866
0.488464 0.609833 0.427765
0.517120 0.616669 0.426575
0.544373 0.623413 0.424805
0.576874 0.631653 0.426422
0.603241 0.639618 0.429138
0.633331 0.638885 0.428741
0.656647 0.622955 0.421021
0.679840 0.613129 0.418793
0.704285 0.602478 0.416229
0.722870 0.589539 0.409302
0.745972 0.578766 0.407562
0.768616 0.569336 0.407593
0.788696 0.557404 0.404724
0.804321 0.546387 0.401276
0.155823 0.567566 0.391052
0.154846 0.564758 0.389923
0.155334 0.566040 0.390839
0.154419 0.563354 0.390015
0.155579 0.566711 0.393005
0.156067 0.568115 0.394073
0.155273 0.565887 0.391541
0.158203 0.566650 0.394867
0.166138 0.566254 0.394257
0.191376 0.570953 0.398010
0.235657 0.583282 0.408142
0.270905 0.590698 0.414734
0.305817 0.597046 0.423096
0.340485 0.602234 0.430145
0.372498 0.612701 0.435547
0.404083 0.621216 0.443604
0.435638 0.628204 0.451965
0.461914 0.632172 0.453613
0.491760 0.641754 0.456512
0.517609 0.646057 0.454620
0.550842 0.653168 0.453796
0.578949 0.659149 0.451935
0.607086 0.668365 0.455750
0.637238 0.675659 0.458069
0.665161 0.678558 0.460144
0.688019 0.660400 0.453156
0.712677 0.648743 0.449249
0.736237 0.637756 0.447083
0.758392 0.627747 0.444275
0.777039 0.615479 0.440399
0.794861 0.604248 0.437622
0.806458 0.595367 0.435638
0.166870 0.599976 0.416626
0.166138 0.597961 0.416229
0.165649 0.596405 0.415466
0.165436 0.595825 0.412628
0.165710 0.596558 0.414062
0.165619 0.596313 0.415833
0.165009 0.594543 0.413971
0.165802 0.596832 0.416748
0.175598 0.600739 0.422852
0.199677 0.604431 0.420563
0.236237 0.613281 0.430054
0.274872 0.621429 0.438019
0.309174 0.629791 0.443878
0.344055 0.633972 0.452057
0.379028 0.643616 0.458771
0.405670 0.649506 0.463989
0.437073 0.658386 0.473114
0.466583 0.668335 0.481689
0.496582 0.675110 0.484924
0.522369 0.677460 0.482697
0.553009 0.681458 0.481232
0.582916 0.689087 0.481476
0.612396 0.696411 0.482483
0.639771 0.701904 0.484131
0.666595 0.708374 0.487762
0.694946 0.713470 0.488892
0.719879 0.699066 0.482758
0.741455 0.688568 0.483124
0.764771 0.678406 0.481720
0.781982 0.668549 0.476990
0.797150 0.656891 0.472534
0.807953 0.649384 0.470032
0.176788 0.629364 0.439087
0.177734 0.632141 0.440369
0.177643 0.631897 0.440399
0.176697 0.629120 0.438660
0.175232 0.624786 0.434937
0.175568 0.625854 0.436005
0.175995 0.627014 0.437622
0.177124 0.630432 0.442200
0.178589 0.628632 0.445129
0.198822 0.632324 0.444153
0.242798 0.644104 0.453308
0.282745 0.653748 0.462311
0.314056 0.661255 0.467926
0.348053 0.668976 0.476501
0.383087 0.672699 0.482086
0.406708 0.677826 0.485596
0.434448 0.685638 0.491577
0.466339 0.695099 0.499451
0.498474 0.704468 0.507477
0.528290 0.708069 0.509918
0.557953 0.711029 0.509766
0.585541 0.717712 0.509644
0.610352 0.720703 0.508514
0.643097 0.726410 0.510498
0.672119 0.734985 0.515991
0.699158 0.740509 0.516541
0.725372 0.744171 0.514282
0.745941 0.733612 0.510681
0.767029 0.725220 0.510162
0.783844 0.716888 0.508545
0.796112 0.708191 0.506470
0.808960 0.701324 0.507416
0.186615 0.658325 0.461151
0.186432 0.657837 0.457703
0.186096 0.656860 0.458130
0.186157 0.657043 0.459595
0.186462 0.657806 0.459351
0.187653 0.661316 0.462555
0.187958 0.662292 0.465210
0.186890 0.659058 0.464447
0.185730 0.655609 0.463959
0.202698 0.659821 0.466003
0.241455 0.671112 0.473114
0.279785 0.681793 0.482574
0.316315 0.688995 0.489563
0.347900 0.695343 0.494476
0.377380 0.699646 0.498291
0.411285 0.707214 0.507202
0.440186 0.715118 0.513824
0.469910 0.719635 0.518341
0.498108 0.730560 0.527618
0.529510 0.734009 0.532898
0.558960 0.738251 0.535217
0.587982 0.746490 0.538055
0.619415 0.752686 0.538483
0.649536 0.756470 0.539154
0.676666 0.761963 0.540436
0.703583 0.766907 0.542328
0.729340 0.770416 0.541504
0.754456 0.774750 0.543030
0.769501 0.774536 0.544525
0.784149 0.770325 0.545166
0.796082 0.762878 0.543579
0.808533 0.752838 0.541168
0.197662 0.690857 0.486603
0.195618 0.684814 0.482117
0.195343 0.683929 0.479980
0.194916 0.682739 0.480896
0.196472 0.687347 0.482971
0.197235 0.689636 0.485138
0.197357 0.689941 0.484924
0.197388 0.690094 0.488525
0.202118 0.688049 0.487976
0.215088 0.687897 0.488586
0.248566 0.700500 0.498505
0.285187 0.708099 0.503815
0.318573 0.715729 0.509369
0.351257 0.722595 0.513916
0.388062 0.733185 0.523956
0.417328 0.739136 0.530243
0.446167 0.745087 0.536835
0.474640 0.749481 0.541382
0.503906 0.759338 0.549622
0.532471 0.765533 0.554901
0.562195 0.769012 0.561401
0.592529 0.776062 0.564697
0.624695 0.783020 0.565643
0.653778 0.787140 0.565979
0.681152 0.791107 0.568695
0.708618 0.793976 0.569305
0.732849 0.797150 0.569336
0.755035 0.799957 0.569122
0.769714 0.802124 0.573608
0.784393 0.804443 0.575989
0.797058 0.807861 0.579620
0.809387 0.808105 0.581268
0.207214 0.719055 0.509216
0.205994 0.715454 0.507080
0.205505 0.713989 0.505554
0.206696 0.717651 0.505981
0.207550 0.720123 0.508118
0.206970 0.718353 0.508179
0.206635 0.717407 0.507324
0.206543 0.717133 0.507629
0.207825 0.718445 0.511292
0.222076 0.717987 0.510773
0.254791 0.726593 0.518402
0.289429 0.737793 0.527527
0.323273 0.742584 0.529816
0.354126 0.748749 0.534546
0.389709 0.759186 0.544952
0.421722 0.766388 0.552246
0.451813 0.774017 0.558838
0.479218 0.780151 0.564270
0.508942 0.786621 0.572113
0.537872 0.793945 0.577179
0.566559 0.800323 0.584534
0.595032 0.804779 0.590363
0.627380 0.811707 0.592010
0.655640 0.815796 0.592468
0.683319 0.820831 0.595093
0.711212 0.822845 0.597290
0.735657 0.824646 0.597961
0.752655 0.826111 0.596405
0.765106 0.827576 0.597839
0.778198 0.828827 0.600891
0.792358 0.830627 0.603333
0.805511 0.833466 0.607697
0.216583 0.746796 0.530365
0.216949 0.747833 0.530487
0.217468 0.749359 0.531036
0.217529 0.749542 0.530914
0.217926 0.750641 0.532501
0.217651 0.749908 0.532684
0.217194 0.748627 0.532196
0.216888 0.747711 0.532471
0.216919 0.746765 0.533691
0.225830 0.748474 0.534576
0.253845 0.752258 0.538239
0.290436 0.762817 0.546509
0.328705 0.773804 0.554596
0.359344 0.776947 0.556152
0.390533 0.783661 0.564850
0.420837 0.790436 0.572205
0.451538 0.799713 0.578613
0.483612 0.808777 0.586212
0.511963 0.814270 0.593811
0.541412 0.819733 0.599854
0.571442 0.828247 0.607117
0.601379 0.836243 0.615662
0.627655 0.839722 0.619415
0.656647 0.843170 0.619476
0.683838 0.848541 0.621948
0.710327 0.853699 0.624695
0.735413 0.853973 0.624420
0.751343 0.854065 0.626678
0.763245 0.855316 0.627075
0.775513 0.856812 0.628754
0.787720 0.857758 0.631165
0.800934 0.860046 0.635590
0.227112 0.777710 0.551910
0.226288 0.775299 0.549194
0.226349 0.775482 0.549347
0.227203 0.778076 0.552032
0.228485 0.781830 0.555328
0.228912 0.783081 0.557770
0.227783 0.779785 0.555847
0.226959 0.777313 0.554199
0.228882 0.777496 0.555176
0.231079 0.777802 0.557892
0.244873 0.780029 0.560242
0.287506 0.791199 0.568481
0.325104 0.800842 0.575165
0.361084 0.808685 0.579590
0.393555 0.814270 0.588593
0.426758 0.821350 0.596741
0.457367 0.829590 0.602081
