滤镜资源/Professional Luts Collection/Triune-Digital-Cinematic-LUTs/3D LUTs (CUBE)/STANDARD/The Book of Eli - Rec709.cube
#Created by Benjamin (IWLTBAP) : http://luts.iwltbap.com
#Copyright: (C) Copyright 2016 Triune Films and IWLTBAP
TITLE "Blockbuster LUTs Pack (Rec.709)"
#LUT size
LUT_3D_SIZE 8
#LUT data points
DOMAIN_MIN 0.000000 0.000000 0.000000
DOMAIN_MAX 0.903226 0.903226 0.903226
0.031799 0.029999 0.027466
0.069580 0.037048 0.032074
0.109833 0.042053 0.037659
0.152863 0.048431 0.041687
0.195068 0.055695 0.048492
0.242920 0.066528 0.059998
0.306488 0.081909 0.072449
0.378967 0.092560 0.083344
0.062561 0.088684 0.050537
0.100098 0.092682 0.056458
0.138947 0.099792 0.063599
0.179810 0.103912 0.068787
0.224792 0.114380 0.075012
0.281586 0.124908 0.084106
0.352570 0.139679 0.096649
0.431458 0.159698 0.120392
0.077271 0.132721 0.061279
0.118896 0.142548 0.070892
0.159119 0.153076 0.079346
0.204712 0.164154 0.091553
0.257172 0.173920 0.098114
0.324829 0.191589 0.121368
0.397980 0.212952 0.136688
0.488281 0.233154 0.150940
0.102997 0.192230 0.084778
0.148010 0.206909 0.097168
0.189240 0.218781 0.108002
0.235626 0.231049 0.118500
0.302185 0.254944 0.138489
0.382233 0.282043 0.162170
0.473663 0.310211 0.179535
0.576080 0.354340 0.226715
0.126556 0.266663 0.117279
0.162292 0.281036 0.131104
0.215790 0.305542 0.147583
0.277130 0.327545 0.170013
0.351013 0.348755 0.181091
0.448853 0.386932 0.214752
0.553314 0.433960 0.262451
0.657471 0.482849 0.309998
0.122559 0.351074 0.150085
0.180939 0.367340 0.162811
0.262939 0.404541 0.186890
0.348389 0.436066 0.219757
0.431396 0.465881 0.246307
0.531036 0.504303 0.284332
0.630310 0.548492 0.335938
0.721039 0.593811 0.392639
0.147827 0.442657 0.185242
0.216583 0.455322 0.200806
0.310364 0.488647 0.229309
0.432190 0.550110 0.289734
0.531219 0.587952 0.339996
0.612183 0.616943 0.374695
0.694000 0.649994 0.415436
0.769928 0.683838 0.461029
0.226837 0.532135 0.238586
0.299011 0.553558 0.261475
0.375458 0.577911 0.290344
0.509491 0.647278 0.373016
0.616974 0.700684 0.436584
0.683868 0.723450 0.465149
0.747070 0.743134 0.494843
0.813293 0.771973 0.534546
0.032288 0.030975 0.054932
0.075623 0.041168 0.066467
0.121735 0.051880 0.076996
0.161926 0.059753 0.086761
0.205688 0.067993 0.095856
0.260132 0.073792 0.097809
0.320160 0.090210 0.114410
0.399658 0.109619 0.130463
0.060608 0.085999 0.083252
0.103943 0.098816 0.098724
0.143005 0.104523 0.103882
0.188843 0.113007 0.112152
0.236084 0.121246 0.121674
0.298645 0.135376 0.133270
0.369537 0.150146 0.149353
0.459167 0.176270 0.169281
0.079254 0.137360 0.106079
0.125488 0.154114 0.121033
0.172119 0.166290 0.134460
0.214142 0.170776 0.134491
0.272583 0.184845 0.148529
0.338287 0.199249 0.165222
0.417786 0.219543 0.181702
0.523926 0.260284 0.223541
0.108490 0.198212 0.128296
0.153229 0.212463 0.140717
0.202789 0.233612 0.160736
0.254059 0.249725 0.178406
0.325897 0.275696 0.197235
0.402618 0.296570 0.214417
0.497772 0.330566 0.244232
0.590607 0.365112 0.278595
0.129211 0.272552 0.161957
0.166504 0.284088 0.168671
0.224030 0.315216 0.191925
0.295837 0.341309 0.211975
0.381500 0.375519 0.245026
0.477417 0.412415 0.284882
0.575989 0.452637 0.319672
0.669220 0.495789 0.369965
0.119598 0.352875 0.190155
0.177551 0.368958 0.199585
0.254608 0.395386 0.223572
0.361206 0.453613 0.279236
0.455750 0.490601 0.312683
0.551056 0.526947 0.353302
0.639618 0.560944 0.392517
0.728882 0.603546 0.445770
0.146545 0.449463 0.235474
0.211884 0.462311 0.248505
0.303314 0.490112 0.276459
0.427643 0.552002 0.339691
0.545410 0.607819 0.403442
0.623260 0.629669 0.431244
0.695068 0.654388 0.463470
0.771179 0.689240 0.505859
0.220276 0.542816 0.294800
0.296600 0.557159 0.312347
0.379181 0.587402 0.342651
0.497253 0.641663 0.405975
0.618195 0.706848 0.483307
0.688019 0.730713 0.516113
0.749207 0.750275 0.541290
0.812714 0.773132 0.573303
0.039642 0.036896 0.097321
0.089661 0.055420 0.119110
0.141754 0.071075 0.139343
0.182739 0.078094 0.146332
0.233948 0.090454 0.152893
0.292847 0.101929 0.166504
0.354248 0.112030 0.171844
0.431213 0.126282 0.190430
0.064240 0.090546 0.127014
0.108673 0.101074 0.139587
0.155823 0.115692 0.158783
0.203186 0.128601 0.173615
0.260651 0.140472 0.180115
0.325897 0.157135 0.195648
0.400055 0.171844 0.211273
0.489838 0.192230 0.228210
0.085052 0.141510 0.147980
0.136261 0.163269 0.171326
0.182129 0.179749 0.189575
0.228943 0.186340 0.195923
0.288025 0.197510 0.203857
0.359924 0.215912 0.222534
0.448334 0.242310 0.250793
0.558044 0.284607 0.292664
0.116028 0.204620 0.175110
0.160706 0.224609 0.194397
0.219177 0.253693 0.222412
0.281281 0.279327 0.247437
0.352417 0.295990 0.260498
0.434540 0.324280 0.278931
0.522644 0.352631 0.313599
0.618713 0.388245 0.352417
0.137085 0.283783 0.211090
0.177887 0.300323 0.222351
0.235291 0.330811 0.247772
0.331726 0.377319 0.296265
0.419250 0.413483 0.329498
0.507904 0.442780 0.359894
0.600586 0.477692 0.392548
0.685852 0.512390 0.430267
0.144440 0.377411 0.254181
0.184204 0.380554 0.258423
0.257111 0.407104 0.282318
0.380859 0.473083 0.342255
0.486694 0.519012 0.388062
0.570435 0.545990 0.419067
0.656281 0.578308 0.455475
0.741516 0.618652 0.502441
0.161530 0.470703 0.302521
0.218384 0.476776 0.308472
0.305603 0.500977 0.334045
0.424194 0.556122 0.391296
0.564117 0.624786 0.467651
0.633392 0.644165 0.489136
0.704102 0.667358 0.520325
0.777618 0.702026 0.561707
0.226013 0.556091 0.354797
0.301422 0.573578 0.373322
0.389313 0.602997 0.403442
0.495178 0.647247 0.453888
0.610626 0.705170 0.520935
0.695648 0.743530 0.570343
0.754944 0.757843 0.586090
0.819672 0.785034 0.620392
0.047974 0.045929 0.149536
0.099579 0.067108 0.173645
0.166840 0.097595 0.207916
0.221191 0.111755 0.225647
0.268280 0.117920 0.231628
0.335358 0.131378 0.245544
0.405579 0.145172 0.255188
0.481598 0.161377 0.273285
0.079010 0.105621 0.186554
0.122467 0.119080 0.201385
0.174561 0.134613 0.224457
0.233093 0.156281 0.243042
0.292633 0.166260 0.254913
0.370575 0.189850 0.274384
0.453003 0.208008 0.297516
0.540009 0.230988 0.317291
0.093872 0.151184 0.201233
0.153564 0.178711 0.230560
0.201263 0.196960 0.247223
0.250549 0.207397 0.262726
0.317871 0.224457 0.278564
0.397400 0.243378 0.299286
0.489044 0.278137 0.332703
0.585480 0.309570 0.359711
0.124817 0.215607 0.230743
0.177795 0.241730 0.256042
0.233551 0.271545 0.288940
0.304871 0.303497 0.320953
0.374878 0.321991 0.336853
0.454559 0.342834 0.346069
0.550873 0.375305 0.380951
0.650940 0.416687 0.426422
0.144470 0.292206 0.263519
0.188141 0.317108 0.285675
0.252502 0.356567 0.321655
0.368530 0.416138 0.377106
0.457245 0.446899 0.407440
0.538605 0.470245 0.431061
0.621399 0.495117 0.456116
0.703247 0.525909 0.491364
0.149597 0.389282 0.312836
0.214874 0.414246 0.330231
0.282532 0.438904 0.360596
0.406006 0.501343 0.418884
0.526825 0.557251 0.475311
0.604218 0.577881 0.495789
0.671753 0.596130 0.520538
0.753357 0.631805 0.560242
0.190216 0.496063 0.372894
0.255402 0.508118 0.386292
0.332123 0.528992 0.407501
0.444794 0.575287 0.452759
0.571411 0.637939 0.523682
0.658600 0.673798 0.564758
0.719421 0.685059 0.578552
0.790497 0.717072 0.616913
0.269531 0.593567 0.440765
0.334991 0.607147 0.453522
0.408539 0.623901 0.471832
0.511719 0.666962 0.517242
0.616241 0.716766 0.572693
0.708801 0.760468 0.623077
0.768372 0.776947 0.644348
0.827881 0.795929 0.666992
0.056885 0.056274 0.197754
0.106232 0.074341 0.221741
0.185364 0.118225 0.275452
0.266632 0.150208 0.311310
0.329956 0.161987 0.322998
0.374054 0.159576 0.319366
0.448578 0.172150 0.328491
0.534637 0.199432 0.359467
0.092651 0.120911 0.241669
0.140381 0.137268 0.267456
0.199188 0.161652 0.292603
0.281738 0.192627 0.327881
0.361176 0.219574 0.357086
0.418152 0.222076 0.356140
0.504700 0.246643 0.382629
0.592560 0.275818 0.414246
0.115875 0.174469 0.268982
0.172058 0.201660 0.302002
0.221924 0.219360 0.323181
0.292877 0.242310 0.342438
0.380707 0.272858 0.373871
0.464233 0.298920 0.395721
0.550568 0.326782 0.427795
0.635010 0.353546 0.452942
0.137268 0.235535 0.296082
0.201447 0.273407 0.334167
0.264374 0.312805 0.369263
0.327515 0.324005 0.381134
0.407623 0.350616 0.404663
0.500122 0.381500 0.432617
0.588287 0.411224 0.463257
0.672668 0.442841 0.497772
0.161774 0.316132 0.329498
0.200378 0.345062 0.362976
0.288818 0.392181 0.405121
0.390350 0.437897 0.444550
0.475525 0.466461 0.471802
0.561218 0.491150 0.496979
0.638245 0.514313 0.520203
0.717621 0.545319 0.552765
0.152557 0.401306 0.367889
0.221985 0.430847 0.398712
0.322540 0.477448 0.442383
0.445557 0.539673 0.502777
0.555511 0.585480 0.546417
0.634613 0.608246 0.571136
0.695343 0.620239 0.585846
0.761597 0.644287 0.613007
0.194092 0.507141 0.431122
0.271912 0.527771 0.453522
0.372803 0.561951 0.486267
0.481354 0.610718 0.538086
0.593048 0.659363 0.589294
0.683380 0.702423 0.634064
0.740509 0.711884 0.644318
0.801788 0.732086 0.669220
0.287598 0.609680 0.503021
0.368561 0.634644 0.529053
0.449646 0.661316 0.553375
0.533417 0.689362 0.581299
0.624451 0.726868 0.621246
0.716492 0.772064 0.672455
0.786804 0.798370 0.701965
0.841858 0.813232 0.716736
0.069000 0.069214 0.252014
0.115723 0.085968 0.276917
0.194763 0.128204 0.327545
0.303131 0.179321 0.389435
0.394653 0.211792 0.422577
0.465668 0.221161 0.435181
0.501892 0.211243 0.416992
0.565338 0.221375 0.424866
0.110382 0.139618 0.307037
0.157043 0.158844 0.331512
0.219086 0.180634 0.356567
0.326416 0.231781 0.413269
0.432587 0.272766 0.457031
0.512115 0.294006 0.477020
0.558136 0.288727 0.470001
0.635712 0.313629 0.497192
0.140564 0.202332 0.345428
0.200623 0.235535 0.382904
0.268616 0.262299 0.405640
0.346405 0.291473 0.432983
0.444458 0.332947 0.478058
0.543030 0.368378 0.511597
0.604797 0.373688 0.512451
0.675446 0.401459 0.545258
0.168671 0.269348 0.376160
0.229767 0.315948 0.418762
0.305389 0.354492 0.453583
0.386627 0.380615 0.479401
0.466766 0.404266 0.501282
0.562103 0.440186 0.536499
0.635498 0.461884 0.558411
0.708984 0.484161 0.581665
0.178619 0.350922 0.409882
0.242645 0.396545 0.450928
0.346497 0.448273 0.500641
0.432007 0.479004 0.526031
0.500458 0.487488 0.534241
0.583466 0.513062 0.556366
0.666718 0.542633 0.588684
0.738037 0.569458 0.618042
0.182251 0.432831 0.444885
0.260956 0.474426 0.484436
0.370056 0.522461 0.526123
0.477356 0.566528 0.568634
0.568085 0.599213 0.604431
0.640991 0.617462 0.621094
0.711151 0.639343 0.645691
0.773346 0.659088 0.667053
0.214142 0.528717 0.497437
0.299377 0.554688 0.521301
0.410004 0.596649 0.563080
0.515747 0.639313 0.603760
0.615143 0.683502 0.652130
0.700012 0.718872 0.687225
0.763000 0.738403 0.710876
0.816711 0.750092 0.722351
0.302643 0.624969 0.556946
0.390930 0.652924 0.584106
0.479065 0.685883 0.617188
0.564362 0.717468 0.647461
0.643188 0.748535 0.683044
0.729492 0.788879 0.727936
0.808044 0.820679 0.758575
0.860077 0.833313 0.769928
0.086365 0.083374 0.309967
0.125244 0.100525 0.336395
0.197510 0.133759 0.377167
0.329681 0.201202 0.453949
0.429871 0.236328 0.492401
0.520630 0.263428 0.522675
0.584198 0.276672 0.539917
0.607300 0.261353 0.516815
0.130219 0.160828 0.375244
0.175415 0.178284 0.398499
0.241119 0.204620 0.427307
0.350677 0.251801 0.480072
0.479248 0.313416 0.542175
0.569733 0.345215 0.571716
0.642395 0.362762 0.590179
0.672577 0.352173 0.581604
0.175110 0.239258 0.424683
0.240051 0.273132 0.466278
0.309235 0.302368 0.496033
0.388550 0.330963 0.516479
0.494415 0.376953 0.559052
0.596222 0.418121 0.599976
0.669189 0.440918 0.622925
0.712738 0.440979 0.627075
0.200348 0.318085 0.462952
0.270935 0.365784 0.508209
0.363190 0.408142 0.551086
0.444824 0.433289 0.570770
0.522491 0.452942 0.589233
0.611847 0.486511 0.616333
0.690308 0.518677 0.650787
0.743561 0.529114 0.665649
0.196503 0.390076 0.490967
0.287537 0.446045 0.541260
0.395599 0.494324 0.589478
0.478790 0.519867 0.607178
0.555817 0.537262 0.624420
0.626312 0.556244 0.640411
0.702484 0.582611 0.665771
0.766113 0.607147 0.694550
0.219879 0.478333 0.529968
0.314148 0.525726 0.574188
0.431213 0.576874 0.621368
0.523651 0.606659 0.650879
0.592407 0.622437 0.663849
0.652161 0.630646 0.671539
0.720428 0.650940 0.693268
0.788269 0.677795 0.722260
0.247131 0.558319 0.564697
0.344849 0.586609 0.593353
0.459381 0.636414 0.645416
0.553680 0.672852 0.675354
0.633789 0.703461 0.708984
0.705444 0.725800 0.733765
0.768097 0.744873 0.751617
0.828003 0.762054 0.768494
0.335846 0.650604 0.618683
0.423248 0.678375 0.646576
0.504974 0.706909 0.674957
0.586548 0.739166 0.704773
0.659119 0.766693 0.737854
0.746460 0.804474 0.775879
0.821381 0.834564 0.804779
0.877441 0.850586 0.820190
0.099701 0.099945 0.370392
0.142731 0.118073 0.396210
0.203156 0.141876 0.427948
0.331360 0.204865 0.500336
0.457153 0.260315 0.559235
0.548798 0.288635 0.591705
0.622650 0.310181 0.613770
0.673004 0.315277 0.620209
0.149719 0.182098 0.432495
0.204620 0.206848 0.469055
0.273438 0.227478 0.495972
0.368774 0.266937 0.540192
0.497070 0.324860 0.592834
0.600311 0.370453 0.643768
0.672821 0.391632 0.667480
0.718353 0.398956 0.667114
0.212830 0.283600 0.514648
0.283051 0.316528 0.550415
0.353668 0.343933 0.577850
0.426422 0.359955 0.591309
0.519684 0.391296 0.618713
0.628601 0.446289 0.667145
0.703339 0.477020 0.697449
0.764984 0.500244 0.717621
0.242157 0.368286 0.551361
0.319275 0.415924 0.595337
0.413696 0.457367 0.635712
0.489746 0.470367 0.652252
0.555664 0.483429 0.662201
0.635956 0.512634 0.686768
0.716248 0.547516 0.717987
0.777618 0.565369 0.734680
0.234619 0.438141 0.568848
0.346191 0.499603 0.630829
0.445618 0.540436 0.669342
0.532684 0.568451 0.693634
0.599030 0.579559 0.700897
0.662476 0.593079 0.714722
0.729462 0.614319 0.735229
0.797302 0.639343 0.760742
0.239532 0.513306 0.600555
0.369049 0.567993 0.650574
0.479523 0.617340 0.695404
0.561249 0.641907 0.720703
0.626984 0.656799 0.735596
0.687469 0.665100 0.743713
0.746979 0.680786 0.758240
0.808807 0.700104 0.777283
0.295898 0.599548 0.639984
0.409973 0.638855 0.679901
0.507751 0.678192 0.720856
0.593536 0.712463 0.752350
0.661682 0.731293 0.771149
0.724731 0.747101 0.787750
0.777191 0.754425 0.795380
0.835693 0.769989 0.810730
0.369507 0.674377 0.680573
0.456116 0.705811 0.710999
0.533783 0.733704 0.735748
0.609924 0.765442 0.767456
0.686432 0.793488 0.799438
0.759521 0.818604 0.825195
0.828003 0.842957 0.844391
0.880096 0.854065 0.855316
