滤镜资源/Professional Luts Collection/Triune-Digital-Cinematic-LUTs/3D LUTs (CUBE)/STANDARD/The Ring - Rec709.cube
#Created by Benjamin (IWLTBAP) : http://luts.iwltbap.com
#Copyright: (C) Copyright 2016 Triune Films and IWLTBAP
TITLE "Blockbuster LUTs Pack (Rec.709)"
#LUT size
LUT_3D_SIZE 5
#LUT data points
DOMAIN_MIN 0.000000 0.000000 0.000000
DOMAIN_MAX 0.903226 0.903226 0.903226
0.000000 0.000000 0.000000
0.047821 0.000000 0.000000
0.168182 0.013580 0.007080
0.312408 0.044250 0.025696
0.475586 0.088562 0.061371
0.000000 0.089111 0.008575
0.045746 0.094116 0.012085
0.184387 0.111816 0.023621
0.328949 0.138977 0.047241
0.487671 0.173767 0.078491
0.000000 0.262543 0.058411
0.022125 0.269043 0.064911
0.161682 0.279663 0.075531
0.342560 0.299744 0.094696
0.512787 0.327454 0.120941
0.000000 0.476166 0.135437
0.022125 0.479675 0.139557
0.044281 0.486755 0.148102
0.302734 0.501831 0.163757
0.513367 0.524536 0.186432
0.000000 0.716217 0.225342
0.022125 0.717712 0.226837
0.044281 0.723297 0.232422
0.066437 0.735748 0.246338
0.459045 0.757538 0.266632
0.000000 0.005005 0.049286
0.084106 0.010040 0.085571
0.224213 0.025696 0.121857
0.377930 0.063446 0.153687
0.540710 0.106812 0.185852
0.000000 0.120392 0.111816
0.057831 0.125397 0.120392
0.222137 0.139526 0.141022
0.378845 0.165222 0.166718
0.545166 0.196472 0.197968
0.000000 0.296783 0.168732
0.022125 0.300873 0.172302
0.180298 0.310333 0.185852
0.372894 0.330078 0.205597
0.551361 0.352234 0.231262
0.000000 0.504456 0.233337
0.022125 0.507446 0.236877
0.044281 0.515045 0.246338
0.318359 0.528656 0.261047
0.539276 0.549286 0.282867
0.000000 0.736877 0.309448
0.022125 0.740417 0.311493
0.044281 0.749298 0.319458
0.066437 0.761383 0.332489
0.473541 0.777039 0.350739
0.000000 0.047241 0.175232
0.068451 0.049286 0.208588
0.255463 0.065491 0.259003
0.429260 0.094696 0.307404
0.611237 0.134521 0.351654
0.000000 0.157227 0.241882
0.028046 0.163727 0.256927
0.249878 0.175812 0.288208
0.428680 0.197968 0.324493
0.610321 0.228882 0.363403
0.000000 0.341614 0.320374
0.022125 0.343658 0.325989
0.192352 0.352203 0.341614
0.411591 0.370819 0.365814
0.605316 0.391113 0.394104
0.000000 0.551910 0.390564
0.022125 0.554901 0.395599
0.044281 0.562866 0.407104
0.343689 0.576111 0.423309
0.581451 0.593781 0.446014
0.000000 0.791748 0.469635
0.022125 0.790253 0.470215
0.044281 0.799408 0.480804
0.066437 0.809784 0.492340
0.500916 0.823029 0.506165
0.000000 0.115936 0.323944
0.022125 0.117432 0.355225
0.253418 0.126892 0.410065
0.457550 0.145142 0.467255
0.657562 0.177307 0.523041
0.000000 0.208557 0.387939
0.022125 0.213013 0.403595
0.243378 0.224213 0.442841
0.456085 0.242462 0.487915
0.657227 0.267548 0.536865
0.000000 0.387024 0.480255
0.022125 0.390533 0.487335
0.164642 0.398560 0.508881
0.433929 0.414185 0.539825
0.651978 0.436859 0.578491
0.000000 0.604401 0.569031
0.022125 0.605316 0.572571
0.044281 0.612396 0.586151
0.353149 0.628387 0.606232
0.616272 0.646637 0.634888
0.000000 0.845734 0.655182
0.022125 0.848694 0.658142
0.044281 0.855774 0.665771
0.066437 0.865234 0.681793
0.526031 0.879944 0.702057
0.000000 0.193512 0.489746
0.022125 0.194977 0.516541
0.206512 0.202972 0.572906
0.464630 0.215668 0.636597
0.689056 0.238342 0.700806
0.000000 0.273499 0.547241
0.022125 0.277588 0.565826
0.182648 0.286163 0.608612
0.460541 0.300903 0.661926
0.687012 0.322449 0.719208
0.000000 0.441925 0.649597
0.022125 0.443939 0.658142
0.044281 0.451965 0.683258
0.433350 0.465759 0.719757
0.674347 0.487885 0.764038
0.000000 0.656677 0.750458
0.022125 0.660187 0.758453
0.044281 0.667633 0.772003
0.333405 0.679718 0.798279
0.638397 0.697968 0.831909
0.000000 0.905060 0.853119
0.022125 0.903809 0.853394
0.044281 0.912109 0.866730
0.066437 0.922729 0.883484
0.534576 0.939301 0.908600
