滤镜资源/Professional Luts Collection/Triune-Digital-Cinematic-LUTs/3D LUTs (CUBE)/STANDARD/The Book of Eli - Rec709.cube
#Created by Benjamin (IWLTBAP) : http://luts.iwltbap.com
#Copyright: (C) Copyright 2016 Triune Films and IWLTBAP
TITLE "Blockbuster LUTs Pack (Rec.709)"
#LUT size
LUT_3D_SIZE 32
#LUT data points
0.031799 0.029999 0.027466
0.041168 0.031708 0.028900
0.051056 0.033630 0.029724
0.060760 0.035339 0.030853
0.069580 0.037048 0.032074
0.079773 0.037445 0.033142
0.089966 0.038086 0.034210
0.099976 0.039642 0.035645
0.109833 0.042053 0.037659
0.119720 0.044067 0.039459
0.129089 0.045258 0.040863
0.140381 0.046417 0.041168
0.152863 0.048431 0.041687
0.163666 0.051575 0.044067
0.173859 0.052399 0.045349
0.184540 0.054016 0.046539
0.195068 0.055695 0.048492
0.206604 0.058472 0.052490
0.217010 0.060883 0.054657
0.228333 0.063232 0.056946
0.242920 0.066528 0.059998
0.258423 0.069794 0.062775
0.274017 0.073425 0.066559
0.290283 0.077515 0.069672
0.306488 0.081909 0.072449
0.321259 0.083771 0.072754
0.336761 0.085052 0.074707
0.356445 0.088135 0.078674
0.378967 0.092560 0.083344
0.398193 0.097961 0.087219
0.416534 0.103943 0.091705
0.434875 0.108948 0.097900
0.041168 0.045258 0.034302
0.051086 0.047241 0.035614
0.060883 0.049103 0.036011
0.070526 0.050354 0.037140
0.079987 0.051270 0.038116
0.090057 0.051971 0.039307
0.100250 0.053436 0.040710
0.109314 0.054230 0.041870
0.119019 0.056427 0.043854
0.128662 0.057953 0.045593
0.139404 0.059753 0.047455
0.150757 0.062073 0.049652
0.161896 0.064423 0.051453
0.171936 0.066071 0.051758
0.182526 0.067413 0.051575
0.192749 0.069061 0.052948
0.204712 0.071442 0.055969
0.215576 0.072693 0.059357
0.226929 0.074982 0.062592
0.238770 0.076935 0.063904
0.253601 0.080414 0.067047
0.268768 0.084412 0.069794
0.285309 0.087982 0.073364
0.303467 0.092621 0.076080
0.318451 0.096252 0.080383
0.334198 0.099213 0.083008
0.352600 0.102783 0.086334
0.372681 0.105957 0.087219
0.393707 0.110229 0.092194
0.412323 0.115631 0.095917
0.431854 0.122101 0.102081
0.451355 0.126556 0.108276
0.049469 0.061798 0.040833
0.058990 0.062469 0.041565
0.067627 0.062714 0.041626
0.077271 0.063629 0.042542
0.088409 0.065979 0.044647
0.097748 0.066650 0.045532
0.107666 0.068298 0.046936
0.117310 0.069641 0.048828
0.127136 0.071014 0.050903
0.136505 0.072113 0.052734
0.147430 0.074188 0.054871
0.157776 0.075562 0.056458
0.168823 0.077881 0.058746
0.179810 0.079956 0.060028
0.189484 0.081085 0.059540
0.200623 0.083466 0.059662
0.212189 0.085815 0.061615
0.224121 0.087982 0.066040
0.235626 0.089600 0.068726
0.250854 0.092834 0.071655
0.266144 0.097290 0.075165
0.280975 0.099548 0.076447
0.296356 0.100677 0.076843
0.313171 0.104248 0.079285
0.330109 0.109497 0.086914
0.348663 0.115631 0.095093
0.368744 0.119629 0.096558
0.389343 0.123535 0.097382
0.406403 0.126556 0.101532
0.426941 0.133270 0.107422
0.450775 0.139435 0.111389
0.471222 0.143860 0.117401
0.056854 0.076080 0.045868
0.066254 0.076599 0.046478
0.075195 0.076721 0.047394
0.085083 0.078003 0.049500
0.095093 0.079498 0.050598
0.105347 0.081299 0.052277
0.114838 0.082062 0.053070
0.124176 0.083618 0.055267
0.132996 0.084381 0.056580
0.143127 0.086273 0.058868
0.153290 0.087494 0.060272
0.163544 0.089111 0.061981
0.174591 0.091370 0.064362
0.186188 0.094086 0.067047
0.196320 0.095734 0.066589
0.207367 0.097748 0.066986
0.218933 0.100006 0.067749
0.231293 0.102692 0.071167
0.245911 0.106049 0.074829
0.260834 0.108521 0.077332
0.274750 0.111816 0.079987
0.289917 0.112976 0.080780
0.305237 0.113831 0.081329
0.323639 0.118073 0.085144
0.341675 0.124451 0.092468
0.362213 0.131866 0.101257
0.382294 0.135468 0.104462
0.401825 0.139404 0.106598
0.420410 0.143768 0.112427
0.442902 0.149841 0.117981
0.467804 0.156433 0.122040
0.488312 0.161438 0.125244
0.062561 0.088684 0.050537
0.072815 0.090576 0.052551
0.081543 0.091431 0.053925
0.089966 0.091339 0.054779
0.100098 0.092682 0.056458
0.109863 0.094025 0.057617
0.119568 0.096069 0.059509
0.130249 0.099304 0.062439
0.138947 0.099792 0.063599
0.149475 0.101044 0.064911
0.158661 0.100830 0.064911
0.168671 0.102081 0.066284
0.179810 0.103912 0.068787
0.190155 0.106171 0.070923
0.201721 0.109650 0.073425
0.212708 0.111877 0.073975
0.224792 0.114380 0.075012
0.238159 0.117035 0.076447
0.252472 0.118958 0.078705
0.267639 0.121704 0.081329
0.281586 0.124908 0.084106
0.298157 0.128632 0.086945
0.315155 0.131104 0.089203
0.332764 0.134277 0.091339
0.352570 0.139679 0.096649
0.373047 0.145905 0.103607
0.392303 0.149628 0.108307
0.411713 0.154022 0.114655
0.431458 0.159698 0.120392
0.455536 0.165131 0.127808
0.481873 0.172546 0.132141
0.501373 0.178345 0.133759
0.067261 0.100159 0.053833
0.076996 0.102936 0.057159
0.087097 0.105255 0.059723
0.095642 0.105164 0.060516
0.104736 0.105103 0.061096
0.114655 0.106293 0.062775
0.125061 0.109467 0.065796
0.134979 0.112152 0.067841
0.145264 0.115234 0.070648
0.155273 0.115875 0.070465
0.164307 0.115417 0.070374
0.174225 0.116150 0.071411
0.184906 0.117035 0.073334
0.196472 0.120300 0.076569
0.207947 0.123749 0.079346
0.219574 0.125916 0.080872
0.232269 0.129028 0.082092
0.244446 0.130463 0.082306
0.258392 0.131805 0.083130
0.274414 0.135040 0.086273
0.289398 0.138458 0.089050
0.306122 0.142609 0.092316
0.324463 0.147675 0.097015
0.342407 0.150726 0.098816
0.362579 0.155518 0.102325
0.383392 0.161255 0.110504
0.402405 0.166351 0.117920
0.423523 0.171509 0.121185
0.444641 0.176849 0.128265
0.468811 0.181061 0.136139
0.493744 0.188171 0.141357
0.513245 0.194214 0.142029
0.070709 0.110748 0.055420
0.079987 0.113434 0.058960
0.090698 0.117371 0.063751
0.101074 0.118622 0.065735
0.110138 0.118530 0.066040
0.119873 0.119568 0.067566
0.129669 0.122101 0.069427
0.140350 0.125854 0.072327
0.150452 0.128540 0.074493
0.160614 0.129486 0.076263
0.170288 0.129730 0.076813
0.179749 0.129883 0.076935
0.191620 0.132324 0.079742
0.203674 0.135620 0.082489
0.214874 0.138306 0.084412
0.227356 0.140747 0.086853
0.238464 0.142334 0.088043
0.252136 0.144623 0.089111
0.267731 0.147430 0.091187
0.283844 0.150543 0.092651
0.299316 0.154419 0.097626
0.315186 0.158020 0.102081
0.333008 0.162964 0.104675
0.352997 0.168152 0.106873
0.373444 0.173462 0.112000
0.394409 0.179443 0.122009
0.414520 0.184174 0.128113
0.434509 0.188599 0.129852
0.457397 0.193939 0.134705
0.481567 0.198730 0.141693
0.502838 0.202301 0.145569
0.525543 0.209259 0.147858
0.072998 0.120453 0.056000
0.082977 0.123688 0.060120
0.094055 0.127472 0.064819
0.104523 0.129822 0.067200
0.114624 0.130463 0.068909
0.124084 0.131653 0.069519
0.134216 0.135162 0.071686
0.144531 0.138580 0.074402
0.154724 0.140808 0.076447
0.165985 0.143097 0.079620
0.176117 0.144653 0.082092
0.187347 0.146332 0.083862
0.199249 0.148956 0.086731
0.211365 0.151093 0.088135
0.221832 0.151825 0.087769
0.234314 0.154785 0.090424
0.247589 0.158722 0.094025
0.265259 0.162567 0.096649
0.280365 0.164917 0.097809
0.295410 0.167542 0.101715
0.311493 0.172729 0.110962
0.327515 0.177216 0.116486
0.347015 0.182129 0.115021
0.364899 0.186523 0.116608
0.384125 0.191742 0.123718
0.406860 0.198669 0.134369
0.427551 0.203247 0.137024
0.449615 0.208160 0.138458
0.470673 0.212250 0.140594
0.496246 0.218506 0.147614
0.517883 0.221954 0.151947
0.541931 0.229797 0.158203
0.077271 0.132721 0.061279
0.086578 0.133972 0.061340
0.097717 0.137695 0.065826
0.108459 0.140381 0.068420
0.118896 0.142548 0.070892
0.129120 0.144989 0.072083
0.138824 0.147980 0.074280
0.148682 0.151154 0.076965
0.159119 0.153076 0.079346
0.169586 0.155060 0.082214
0.181122 0.158508 0.086395
0.193024 0.161713 0.088928
0.204712 0.164154 0.091553
0.216156 0.165833 0.092590
0.228882 0.167084 0.093140
0.241669 0.169495 0.094910
0.257172 0.173920 0.098114
0.274811 0.177948 0.101166
0.292114 0.181458 0.103760
0.307831 0.185364 0.112732
0.324829 0.191589 0.121368
0.340973 0.196899 0.126312
0.362701 0.204803 0.127228
0.378998 0.207916 0.129608
0.397980 0.212952 0.136688
0.418518 0.217468 0.142853
0.441925 0.221985 0.144287
0.463287 0.226868 0.146210
0.488281 0.233154 0.150940
0.514435 0.242584 0.160187
0.535858 0.247833 0.166565
0.557861 0.254669 0.172455
0.081696 0.145325 0.067474
0.092316 0.147461 0.068024
0.102570 0.149170 0.068115
0.114624 0.153687 0.072266
0.125397 0.156647 0.075562
0.135468 0.159668 0.077820
0.144836 0.161896 0.079590
0.154907 0.165466 0.082855
0.164856 0.167603 0.085266
0.174744 0.169617 0.087250
0.186279 0.172638 0.091553
0.198090 0.175415 0.093994
0.208496 0.177216 0.094910
0.222168 0.181000 0.098083
0.235687 0.183380 0.099609
0.249023 0.185455 0.100464
0.266602 0.190033 0.104340
0.284790 0.194977 0.108856
0.304108 0.201141 0.114624
0.322876 0.206299 0.122864
0.340393 0.212524 0.132294
0.359589 0.220367 0.136719
0.378815 0.227814 0.140503
0.395325 0.231354 0.144989
0.413666 0.234741 0.149994
0.437897 0.240875 0.152985
0.460876 0.246460 0.155121
0.484924 0.252502 0.161072
0.509674 0.260162 0.167755
0.533844 0.269226 0.176727
0.557373 0.277863 0.185364
0.578644 0.284851 0.192596
0.087952 0.160614 0.074554
0.099091 0.163269 0.074463
0.109863 0.165344 0.075409
0.121582 0.169342 0.078766
0.132355 0.172729 0.081543
0.142303 0.175690 0.083832
0.151367 0.178345 0.089844
0.160767 0.180725 0.092133
0.171509 0.183929 0.095398
0.180573 0.184845 0.095856
0.190796 0.186768 0.096649
0.202423 0.189240 0.098785
0.216125 0.194214 0.102325
0.229889 0.198547 0.105560
0.245636 0.203461 0.109680
0.259247 0.205231 0.110779
0.276978 0.210236 0.114929
0.296692 0.217072 0.121582
0.316528 0.223236 0.129059
0.336517 0.229767 0.137726
0.354858 0.233551 0.139923
0.373779 0.240631 0.144165
0.393585 0.247681 0.149170
0.412109 0.251892 0.154205
0.432190 0.256897 0.158844
0.458038 0.266296 0.165344
0.482147 0.272064 0.170197
0.505524 0.278534 0.175171
0.530518 0.289215 0.184235
0.553314 0.297668 0.193634
0.575867 0.305145 0.201813
0.597870 0.314209 0.211487
0.094879 0.176056 0.079803
0.105988 0.179138 0.081146
0.116821 0.181458 0.083069
0.128998 0.186096 0.085968
0.139954 0.189636 0.088409
0.149719 0.191986 0.091156
0.159302 0.195526 0.098389
0.168701 0.197845 0.099945
0.179077 0.200439 0.101227
0.188354 0.201233 0.101562
0.199066 0.203430 0.102844
0.211853 0.207367 0.106201
0.225983 0.212769 0.110199
0.239532 0.216827 0.113800
0.255493 0.222534 0.119171
0.270325 0.226044 0.121765
0.288879 0.231812 0.126465
0.308716 0.239441 0.133240
0.327332 0.245758 0.140594
0.348724 0.253479 0.149750
0.368408 0.257019 0.150543
0.388947 0.263885 0.154205
0.410400 0.269287 0.158752
0.429596 0.273254 0.163879
0.451965 0.281250 0.167328
0.477509 0.292450 0.176239
0.504425 0.302887 0.185638
0.528717 0.311615 0.193878
0.551483 0.319977 0.201141
0.576447 0.330139 0.214691
0.599121 0.338959 0.225067
0.621979 0.350464 0.237091
0.102997 0.192230 0.084778
0.113373 0.195099 0.087402
0.125488 0.199188 0.091431
0.136261 0.202026 0.092804
0.148010 0.206909 0.097168
0.160156 0.212006 0.103302
0.168793 0.214172 0.109375
0.178314 0.215759 0.108154
0.189240 0.218781 0.108002
0.199402 0.220978 0.108795
0.210175 0.223206 0.110718
0.222778 0.226990 0.114258
0.235626 0.231049 0.118500
0.250214 0.236328 0.122925
0.264496 0.241730 0.127136
0.282928 0.248749 0.132996
0.302185 0.254944 0.138489
0.320648 0.261261 0.144745
0.340424 0.269623 0.153381
0.359161 0.276001 0.159851
0.382233 0.282043 0.162170
0.404449 0.287323 0.163910
0.427673 0.293457 0.169739
0.449829 0.300690 0.174988
0.473663 0.310211 0.179535
0.500977 0.323151 0.192627
0.527863 0.336029 0.207336
0.550323 0.343628 0.214966
0.576080 0.354340 0.226715
0.599854 0.364014 0.238007
0.626648 0.378601 0.253632
0.646332 0.385620 0.261078
0.111176 0.208221 0.090393
0.121979 0.211639 0.094086
0.134247 0.216675 0.100281
0.145294 0.220398 0.103760
0.156525 0.224335 0.108734
0.168365 0.229584 0.114594
0.178070 0.232788 0.116455
0.188110 0.236725 0.117188
0.196777 0.238159 0.116302
0.207855 0.241486 0.118530
0.218536 0.242798 0.120422
0.230316 0.247040 0.123810
0.244720 0.251892 0.129395
0.259094 0.256378 0.131653
0.274841 0.263153 0.136993
0.294739 0.269958 0.143188
0.314301 0.275879 0.148651
0.332336 0.283051 0.157074
0.352783 0.293579 0.167419
0.372864 0.300446 0.170593
0.396210 0.306702 0.171356
0.420837 0.312469 0.175446
0.445953 0.320251 0.183380
0.468597 0.328278 0.187958
0.493774 0.339600 0.197632
0.522949 0.353912 0.213745
0.547028 0.365173 0.226013
0.571472 0.375793 0.238098
0.597839 0.386322 0.249146
0.623688 0.398895 0.261719
0.646881 0.409821 0.272858
0.665253 0.416412 0.280487
0.119995 0.225128 0.097351
0.129974 0.229156 0.102356
0.140686 0.235077 0.109100
0.150116 0.238647 0.113251
0.159973 0.241882 0.116425
0.170715 0.247772 0.121857
0.181213 0.252197 0.124146
0.193359 0.258301 0.127533
0.202362 0.260742 0.126984
0.213684 0.263275 0.128510
0.225739 0.264648 0.131348
0.238525 0.268066 0.135193
0.254486 0.273651 0.142029
0.270203 0.280640 0.146057
0.285339 0.284790 0.146423
0.304443 0.290527 0.150818
0.323853 0.297791 0.157837
0.343353 0.306488 0.170013
0.364716 0.317078 0.180725
0.385468 0.323212 0.181091
0.410797 0.332550 0.182587
0.437378 0.339813 0.191498
0.464081 0.349365 0.199829
0.492096 0.362274 0.208405
0.517090 0.372559 0.221375
0.541626 0.382477 0.232941
0.567810 0.396362 0.246948
0.593048 0.406616 0.256805
0.620636 0.418793 0.269348
0.644775 0.430939 0.281158
0.667480 0.442261 0.293060
0.687195 0.450623 0.302368
0.122711 0.245941 0.107635
0.132172 0.251007 0.113007
0.142242 0.255371 0.118561
0.151825 0.258179 0.121582
0.161438 0.260986 0.123627
0.172028 0.266418 0.128143
0.184265 0.272400 0.131348
0.196198 0.277985 0.134766
0.209412 0.282867 0.138550
0.220917 0.284668 0.139862
0.234558 0.288330 0.144623
0.249329 0.293579 0.150146
0.264343 0.299500 0.156158
0.279510 0.305176 0.159515
0.297058 0.308868 0.159546
0.314178 0.311737 0.159119
0.335358 0.321960 0.168793
0.356171 0.331573 0.181366
0.378387 0.340088 0.189117
0.403503 0.348511 0.189606
0.430237 0.359589 0.199432
0.456421 0.369293 0.210632
0.484863 0.381561 0.218628
0.512268 0.394379 0.230042
0.535431 0.403656 0.243256
0.561493 0.415100 0.254272
0.589386 0.428223 0.267151
0.616699 0.439636 0.278412
0.639252 0.449921 0.288025
0.664215 0.464233 0.303101
0.686371 0.473877 0.312500
0.705780 0.483643 0.325378
0.126556 0.266663 0.117279
0.135864 0.271454 0.122345
0.144348 0.275330 0.125854
0.153564 0.278778 0.129120
0.162292 0.281036 0.131104
0.173859 0.286316 0.135071
0.188202 0.294617 0.139404
0.200439 0.301544 0.143463
0.215790 0.305542 0.147583
0.231140 0.310120 0.152771
0.245361 0.315094 0.158051
0.261078 0.321747 0.164337
0.277130 0.327545 0.170013
0.294800 0.332458 0.173950
0.311493 0.334900 0.172394
0.330048 0.339508 0.173370
0.351013 0.348755 0.181091
0.373962 0.359558 0.193176
0.399567 0.367859 0.196991
0.421570 0.375214 0.202057
0.448853 0.386932 0.214752
0.475769 0.398010 0.224854
0.505280 0.410126 0.234589
0.530121 0.423615 0.250916
0.553314 0.433960 0.262451
0.583008 0.446716 0.273041
0.610321 0.459442 0.287231
0.635315 0.471191 0.298767
0.657471 0.482849 0.309998
0.683990 0.496826 0.325043
0.703888 0.504822 0.334015
0.723175 0.515350 0.346649
0.127289 0.285889 0.122131
0.136230 0.291626 0.127380
0.145020 0.295227 0.131531
0.154419 0.298950 0.135712
0.163666 0.301605 0.137573
0.175049 0.306824 0.141907
0.191864 0.317322 0.147247
0.209229 0.326233 0.151978
0.226410 0.330750 0.156616
0.244324 0.336060 0.163574
0.260498 0.341766 0.168365
0.276215 0.347565 0.172943
0.291962 0.353424 0.177948
0.310211 0.357117 0.181244
0.329651 0.362793 0.185577
0.348206 0.369049 0.189941
0.369446 0.377563 0.196899
0.394348 0.389038 0.205261
0.417938 0.397064 0.211578
0.441986 0.405304 0.219452
0.468628 0.416382 0.231140
0.496918 0.427002 0.239197
0.524414 0.439606 0.251892
0.546783 0.451538 0.265930
0.572571 0.462067 0.275909
0.601532 0.474640 0.287445
0.627472 0.486786 0.302856
0.652832 0.500763 0.317780
0.677399 0.513672 0.331329
0.699982 0.524078 0.343018
0.720276 0.534485 0.354797
0.740570 0.546082 0.369263
0.127655 0.309357 0.131042
0.136383 0.311157 0.131775
0.145905 0.313812 0.134216
0.155579 0.317780 0.138794
0.165253 0.321625 0.144012
0.180725 0.328003 0.149902
0.200317 0.339020 0.155365
0.219818 0.347382 0.160706
0.239716 0.355164 0.166565
0.258759 0.362823 0.173004
0.275909 0.370087 0.178589
0.292511 0.377228 0.185852
0.310974 0.381378 0.189392
0.329498 0.385895 0.194183
0.347198 0.390656 0.198944
0.366028 0.396790 0.205566
0.387909 0.405884 0.212708
0.413055 0.416901 0.220398
0.439453 0.427795 0.229675
0.463684 0.434998 0.237671
0.489227 0.444183 0.246246
0.517456 0.456085 0.256348
0.539612 0.466553 0.266815
0.566254 0.480988 0.282532
0.592316 0.490326 0.292084
0.618744 0.502563 0.305542
0.644226 0.514923 0.320984
0.671112 0.531342 0.337311
0.692047 0.540649 0.349457
0.717010 0.553802 0.367126
0.738800 0.566681 0.381470
0.756714 0.575653 0.393066
0.125336 0.330109 0.139801
0.134735 0.330872 0.140167
0.148895 0.334229 0.142822
0.159393 0.339203 0.148376
0.172028 0.344116 0.153381
0.190155 0.350555 0.159027
0.208923 0.358978 0.162933
0.229706 0.367645 0.168671
0.251953 0.379700 0.176788
0.272644 0.389771 0.187744
0.290619 0.397217 0.196259
0.309326 0.404510 0.202179
0.330536 0.410248 0.205170
0.349121 0.415619 0.210754
0.366028 0.419739 0.214966
0.385284 0.426025 0.221222
0.407501 0.434174 0.228516
0.432648 0.444794 0.236633
0.458191 0.452545 0.243744
0.484558 0.462128 0.253418
0.509247 0.471954 0.261322
0.533203 0.481720 0.271179
0.560181 0.497314 0.288055
0.585999 0.509338 0.302643
0.609467 0.518097 0.311768
0.635498 0.529938 0.325256
0.659424 0.542023 0.338715
0.683838 0.555969 0.355011
0.706665 0.568420 0.373108
0.731354 0.582825 0.390381
0.754089 0.595215 0.404053
0.769379 0.601135 0.412018
0.122559 0.351074 0.150085
0.134155 0.352692 0.150787
0.148560 0.356232 0.153564
0.164459 0.362000 0.159088
0.180939 0.367340 0.162811
0.198822 0.373718 0.167542
0.218567 0.381012 0.171600
0.240173 0.391663 0.177094
0.262939 0.404541 0.186890
0.284241 0.413971 0.198883
0.307617 0.423889 0.210510
0.327118 0.429810 0.215485
0.348389 0.436066 0.219757
0.368225 0.443512 0.225677
0.390106 0.452301 0.233582
0.409332 0.458252 0.239532
0.431396 0.465881 0.246307
0.454163 0.473389 0.253754
0.478241 0.480316 0.260864
0.504822 0.491119 0.271729
0.531036 0.504303 0.284332
0.555328 0.514343 0.295410
0.582153 0.527618 0.310669
0.606506 0.538147 0.323517
0.630310 0.548492 0.335938
0.654266 0.559662 0.348419
0.675171 0.570618 0.359222
0.698120 0.582214 0.375031
0.721039 0.593811 0.392639
0.744080 0.607269 0.407684
0.764771 0.618347 0.420197
0.781769 0.625824 0.429718
0.131073 0.372650 0.159576
0.143188 0.375305 0.161102
0.158630 0.378967 0.163300
0.174988 0.384430 0.167847
0.191315 0.389618 0.172211
0.208405 0.395386 0.176605
0.227844 0.403168 0.180450
0.249390 0.414642 0.186523
0.274536 0.425903 0.195679
0.300629 0.437592 0.209351
0.323700 0.447083 0.219635
0.345764 0.455719 0.229095
0.367615 0.464386 0.236694
0.390656 0.474762 0.245026
0.411285 0.482178 0.251617
0.432251 0.489288 0.259705
0.451965 0.495239 0.265533
0.476288 0.504852 0.275482
0.501434 0.514679 0.285980
0.525055 0.522552 0.294434
0.551575 0.534393 0.307312
0.580048 0.547913 0.323364
0.602722 0.558136 0.334076
0.628052 0.569489 0.347717
0.648987 0.577454 0.357544
0.668335 0.585297 0.367310
0.690063 0.595886 0.378937
0.712585 0.606049 0.392548
0.734375 0.617676 0.408142
0.756042 0.629913 0.424011
0.775177 0.641022 0.437042
0.792786 0.649261 0.448059
0.148407 0.397888 0.170654
0.159760 0.400421 0.171936
0.172638 0.403625 0.173553
0.187378 0.407959 0.176880
0.201660 0.411987 0.181000
0.216766 0.417114 0.185425
0.237183 0.423828 0.189636
0.260345 0.434540 0.196014
0.287476 0.446350 0.207062
0.314789 0.460114 0.220581
0.342194 0.473480 0.232422
0.366089 0.484253 0.244354
0.392426 0.497742 0.256195
0.415161 0.508118 0.265808
0.433716 0.513092 0.271393
0.454071 0.519165 0.280426
0.479706 0.529266 0.291382
0.504059 0.538361 0.302002
0.527863 0.546844 0.312714
0.550842 0.554382 0.321075
0.576874 0.567810 0.335266
0.599823 0.577301 0.346069
0.623444 0.586517 0.357178
0.643341 0.593109 0.365295
0.663574 0.601074 0.375183
0.681824 0.609802 0.385712
0.703491 0.619446 0.397888
0.724548 0.627563 0.409546
0.745483 0.638977 0.424713
0.766846 0.651459 0.441101
0.785645 0.662872 0.454376
0.802948 0.671570 0.465424
0.152008 0.421875 0.177094
0.161957 0.424316 0.178162
0.173828 0.426605 0.179810
0.192841 0.428741 0.185730
0.208862 0.434235 0.191711
0.226105 0.439758 0.195953
0.246582 0.445526 0.199829
0.270203 0.454315 0.206451
0.297913 0.466888 0.217926
0.327576 0.482025 0.231079
0.359406 0.499786 0.247314
0.389404 0.515717 0.262115
0.412140 0.524567 0.271393
0.433624 0.533325 0.283875
0.455261 0.541687 0.295715
0.477600 0.548828 0.304749
0.506012 0.560577 0.317017
0.529175 0.568756 0.326660
0.550781 0.575073 0.335052
0.571991 0.583252 0.344727
0.595673 0.593048 0.356171
0.615845 0.600189 0.363098
0.639130 0.609833 0.374023
0.658386 0.617065 0.383789
0.678192 0.625183 0.394562
0.696747 0.633118 0.404938
0.716278 0.641174 0.416443
0.737152 0.650116 0.429230
0.757843 0.661255 0.443787
0.778778 0.675110 0.460815
0.795990 0.684814 0.472717
0.813599 0.692963 0.483856
0.147827 0.442657 0.185242
0.157867 0.446167 0.183807
0.175323 0.450623 0.187897
0.195465 0.452637 0.193878
0.216583 0.455322 0.200806
0.240112 0.463562 0.208038
0.261536 0.468750 0.211761
0.285431 0.477722 0.219330
0.310364 0.488647 0.229309
0.340820 0.504730 0.244751
0.373993 0.522827 0.263062
0.403442 0.536438 0.275360
0.432190 0.550110 0.289734
0.456665 0.561035 0.305359
0.481537 0.571075 0.319733
0.505920 0.578125 0.328796
0.531219 0.587952 0.339996
0.551910 0.595459 0.348846
0.572937 0.602325 0.358002
0.591797 0.609100 0.366089
0.612183 0.616943 0.374695
0.633667 0.625397 0.382996
0.654236 0.635132 0.395416
0.673462 0.641998 0.404907
0.694000 0.649994 0.415436
0.712891 0.656921 0.425812
0.731934 0.664642 0.437317
0.750366 0.673706 0.447662
0.769928 0.683838 0.461029
0.787689 0.694641 0.475830
0.806030 0.705475 0.489655
0.822174 0.711945 0.498596
0.167297 0.468231 0.198395
0.182098 0.470856 0.198242
0.198303 0.472961 0.200928
0.218597 0.476532 0.207794
0.239410 0.481171 0.214386
0.259430 0.487915 0.220520
0.283112 0.495941 0.225647
0.303436 0.503082 0.232941
0.325562 0.511566 0.243317
0.356628 0.527954 0.262482
0.390167 0.546204 0.281403
0.422729 0.561584 0.295074
0.456665 0.577423 0.312531
0.484436 0.590698 0.330048
0.510925 0.600433 0.342987
0.534943 0.609100 0.355499
0.554535 0.616302 0.363983
0.574402 0.623718 0.372162
0.592529 0.628510 0.376862
0.613129 0.636871 0.386536
0.630707 0.642426 0.394470
0.650299 0.650909 0.404877
0.670227 0.660400 0.416779
0.688568 0.666229 0.425018
0.708374 0.673981 0.435150
0.727875 0.682892 0.449127
0.746063 0.689697 0.458893
0.762482 0.696198 0.466370
0.780823 0.705566 0.477997
0.799225 0.716644 0.493042
0.816010 0.724609 0.504547
0.831726 0.731171 0.514221
0.191406 0.490326 0.211243
0.208893 0.493530 0.214722
0.224213 0.495728 0.217224
0.239380 0.499146 0.221710
0.261261 0.507233 0.230316
0.281311 0.514313 0.237488
0.301117 0.521088 0.244354
0.321198 0.527435 0.251465
0.344147 0.536530 0.261993
0.372162 0.550446 0.278198
0.406250 0.568237 0.297119
0.441437 0.585388 0.313660
0.478943 0.605194 0.337372
0.507385 0.618408 0.354340
0.532623 0.627960 0.368622
0.557800 0.639221 0.381683
0.577484 0.647034 0.389648
0.595459 0.652802 0.395233
0.614288 0.658478 0.401886
0.632416 0.664856 0.410156
0.650482 0.671143 0.419220
0.669281 0.678528 0.427979
0.686951 0.684814 0.435974
0.705139 0.691132 0.444977
0.723328 0.698761 0.456879
0.740631 0.705536 0.468018
0.757629 0.713501 0.477631
0.775085 0.720795 0.486633
0.792572 0.728333 0.496948
0.811188 0.738495 0.510376
0.826355 0.745331 0.520844
0.841217 0.752380 0.531189
0.209991 0.511414 0.225372
0.225891 0.513977 0.228119
0.241241 0.516571 0.231110
0.260406 0.523926 0.238892
0.278473 0.530609 0.246094
0.298645 0.538361 0.255371
0.316742 0.543152 0.260040
0.336090 0.548340 0.266022
0.359100 0.557068 0.276154
0.386719 0.569305 0.290894
0.420441 0.587067 0.309082
0.459106 0.608276 0.332245
0.493652 0.626190 0.355957
0.522919 0.640503 0.374817
0.552094 0.654846 0.391083
0.578766 0.667267 0.405121
0.596619 0.674042 0.412964
