滤镜资源/Professional Luts Collection/Triune-Digital-Cinematic-LUTs/3D LUTs (CUBE)/STANDARD/The Ring - Rec709.cube
#Created by Benjamin (IWLTBAP) : http://luts.iwltbap.com
#Copyright: (C) Copyright 2016 Triune Films and IWLTBAP
TITLE "Blockbuster LUTs Pack (Rec.709)"
#LUT size
LUT_3D_SIZE 8
#LUT data points
DOMAIN_MIN 0.000000 0.000000 0.000000
DOMAIN_MAX 0.903226 0.903226 0.903226
0.000000 0.000000 0.000000
0.016876 0.000000 0.000000
0.060577 0.000702 0.000702
0.128998 0.008087 0.004578
0.207397 0.019043 0.011963
0.291016 0.038788 0.022919
0.378845 0.062744 0.039459
0.475586 0.088562 0.061371
0.000000 0.028503 0.000336
0.020050 0.032043 0.003540
0.071167 0.039124 0.004211
0.138916 0.048248 0.008453
0.215851 0.063080 0.015869
0.298431 0.081116 0.030365
0.387756 0.103027 0.046906
0.479126 0.126984 0.068451
0.000000 0.112122 0.011963
0.012665 0.111786 0.014832
0.060577 0.119202 0.016205
0.145660 0.126617 0.023621
0.225739 0.138275 0.032410
0.309357 0.153778 0.047241
0.398712 0.171448 0.065582
0.492249 0.192688 0.083282
0.000000 0.212402 0.039459
0.012665 0.209900 0.041962
0.025299 0.216980 0.046539
0.127960 0.224060 0.053619
0.225433 0.231812 0.062408
0.317474 0.245941 0.075531
0.409668 0.258942 0.089996
0.504547 0.275970 0.106903
0.000000 0.322540 0.079773
0.012665 0.324677 0.082275
0.025299 0.326050 0.083984
0.037964 0.332794 0.091370
0.200317 0.340210 0.098816
0.312592 0.349335 0.109772
0.414215 0.364288 0.122894
0.514496 0.378754 0.138397
0.000000 0.442902 0.123566
0.012665 0.445038 0.125305
0.025299 0.446411 0.128815
0.037964 0.454620 0.134186
0.092133 0.460236 0.141266
0.280396 0.467621 0.150055
0.404297 0.478577 0.160980
0.514496 0.493073 0.175476
0.000000 0.575439 0.172394
0.012665 0.576355 0.172974
0.025299 0.578064 0.176514
0.037964 0.583099 0.180054
0.050598 0.587311 0.187103
0.177826 0.597473 0.195892
0.366180 0.606354 0.206848
0.501038 0.620056 0.218170
0.000000 0.716217 0.225342
0.012665 0.718628 0.225677
0.025299 0.717926 0.227753
0.037964 0.720917 0.231262
0.050598 0.728088 0.237335
0.063263 0.733246 0.244751
0.273651 0.745422 0.254547
0.459045 0.757538 0.266632
0.000000 0.000336 0.020050
0.028168 0.000336 0.028503
0.093079 0.004211 0.042999
0.165070 0.011963 0.055664
0.244812 0.027496 0.072662
0.327393 0.047913 0.088531
0.415009 0.071655 0.105194
0.508789 0.097443 0.122437
0.000000 0.043335 0.039459
0.020416 0.043671 0.043335
0.089874 0.054626 0.054626
0.165070 0.062744 0.065582
0.247650 0.077911 0.080078
0.329559 0.094238 0.093201
0.418549 0.113983 0.110779
0.512329 0.135895 0.127106
0.000000 0.129120 0.065582
0.012665 0.129822 0.065948
0.070831 0.136902 0.073029
0.161835 0.144989 0.084290
0.246979 0.155243 0.094910
0.334473 0.167572 0.107574
0.423798 0.184235 0.122070
0.519379 0.203979 0.140442
0.000000 0.227234 0.095245
0.012665 0.227570 0.095947
0.025299 0.228943 0.099823
0.135406 0.237854 0.109741
0.240265 0.248474 0.117859
0.334137 0.258636 0.129486
0.430878 0.273438 0.143280
0.526825 0.288269 0.159485
0.000000 0.335999 0.131683
0.012665 0.335999 0.131683
0.025299 0.339874 0.135193
0.037964 0.346588 0.140106
0.207733 0.351501 0.147522
0.323883 0.364624 0.158478
0.428711 0.376587 0.172272
0.530701 0.390045 0.186096
0.000000 0.457794 0.169769
0.012665 0.457703 0.169769
0.025299 0.459869 0.173309
0.037964 0.464081 0.177521
0.094910 0.471527 0.184235
0.287811 0.478912 0.194550
0.413177 0.489868 0.206848
0.526459 0.504395 0.218811
0.000000 0.585815 0.213593
0.012665 0.587097 0.215057
0.025299 0.589355 0.217468
0.037964 0.592560 0.221344
0.050598 0.599274 0.228760
0.188782 0.606354 0.236176
0.373596 0.617310 0.247101
0.509583 0.629761 0.258423
0.000000 0.724792 0.261719
0.012665 0.724304 0.263336
0.025299 0.728455 0.266510
0.037964 0.728882 0.268341
0.050598 0.737671 0.274597
0.063263 0.745422 0.283539
0.277527 0.753174 0.291290
0.464966 0.763458 0.301880
0.000000 0.008453 0.064789
0.027496 0.011292 0.085663
0.104370 0.014832 0.107910
0.190491 0.023621 0.130493
0.273773 0.038788 0.149567
0.363800 0.060699 0.170776
0.455170 0.084656 0.188324
0.552612 0.110474 0.208221
0.000000 0.061371 0.100830
0.013336 0.065247 0.111420
0.100830 0.069458 0.122742
0.187317 0.080078 0.140778
0.274475 0.092743 0.156952
0.363800 0.110413 0.177155
0.457367 0.128815 0.195190
0.550537 0.150726 0.210358
0.000000 0.148163 0.137573
0.012665 0.152069 0.141113
0.074707 0.155243 0.148163
0.179535 0.162689 0.160156
0.273102 0.173645 0.173645
0.365631 0.185944 0.189484
0.458710 0.203278 0.206818
0.555450 0.219482 0.223022
0.000000 0.249481 0.170776
0.012665 0.249481 0.173645
0.025299 0.253357 0.177856
0.146362 0.260773 0.188110
0.258972 0.268188 0.196899
0.359558 0.280182 0.210724
0.458710 0.293640 0.225189
0.557617 0.307343 0.238892
0.000000 0.361420 0.206818
0.012665 0.359619 0.205688
0.025299 0.364960 0.211029
0.037964 0.367004 0.217773
0.222229 0.377625 0.225891
0.344391 0.386536 0.236847
0.451630 0.397369 0.249847
0.558990 0.410828 0.264008
0.000000 0.479614 0.244965
0.012665 0.481445 0.247101
0.025299 0.482117 0.247345
0.037964 0.487823 0.254181
0.098785 0.493439 0.259766
0.303101 0.503326 0.270386
0.430420 0.513611 0.281342
0.549072 0.526276 0.295807
0.000000 0.609222 0.285919
0.012665 0.609894 0.285919
0.025299 0.609222 0.287384
0.037964 0.615601 0.292633
0.050598 0.621185 0.297882
0.191528 0.628265 0.307831
0.388062 0.638092 0.317719
0.524078 0.650177 0.329712
0.000000 0.743713 0.329712
0.012665 0.746796 0.331085
0.025299 0.748413 0.331543
0.037964 0.750793 0.335083
0.050598 0.756744 0.342041
0.063263 0.763458 0.349121
0.287476 0.770203 0.356873
0.477417 0.781830 0.369629
0.000000 0.030365 0.136078
0.012970 0.031372 0.153412
0.107574 0.035583 0.179871
0.202820 0.046539 0.206360
0.295685 0.059998 0.231812
0.392090 0.078735 0.257263
0.491577 0.101654 0.279144
0.590485 0.124939 0.302094
0.000000 0.084290 0.172150
0.012665 0.087494 0.182404
0.097626 0.091370 0.195404
0.201447 0.099121 0.219116
0.295685 0.113281 0.241394
0.392792 0.127777 0.263641
0.491577 0.146851 0.286560
0.593903 0.168396 0.309174
0.000000 0.170074 0.213104
0.012665 0.173645 0.219818
0.063080 0.177155 0.227234
0.187988 0.181732 0.239563
0.291809 0.192688 0.260437
0.390259 0.207153 0.278809
0.491577 0.221680 0.297180
0.594269 0.239685 0.319427
0.000000 0.272095 0.255859
0.012665 0.274933 0.257263
0.025299 0.278809 0.264648
0.150238 0.282684 0.274597
0.276306 0.292267 0.286560
0.384674 0.303558 0.301727
0.487000 0.313049 0.316559
0.594269 0.331390 0.336090
0.000000 0.385742 0.293518
0.012665 0.385742 0.295380
0.025299 0.389252 0.299225
0.037964 0.392792 0.309479
0.233185 0.399872 0.316925
0.361267 0.408325 0.328217
0.477081 0.422485 0.343414
0.588318 0.435242 0.359375
0.000000 0.507904 0.334961
0.012665 0.509735 0.336761
0.025299 0.511108 0.338470
0.037964 0.514984 0.344849
0.098419 0.521729 0.352966
0.316803 0.529816 0.364258
0.451294 0.538269 0.373169
0.574493 0.550598 0.387543
0.000000 0.636719 0.373749
0.012665 0.636383 0.375916
0.025299 0.638885 0.378418
0.037964 0.644226 0.383789
0.050598 0.649475 0.390045
0.198395 0.657715 0.398956
0.402588 0.665009 0.409119
0.545868 0.676300 0.421448
0.000000 0.773407 0.417664
0.012665 0.774506 0.419830
0.025299 0.778290 0.421448
0.037964 0.781830 0.427124
0.050598 0.785706 0.431030
0.063263 0.791077 0.438782
0.296265 0.797119 0.446869
0.493256 0.810455 0.460327
0.000000 0.065613 0.214478
0.012665 0.065613 0.229309
0.088165 0.069153 0.255432
0.206360 0.076202 0.286102
0.308380 0.086853 0.315460
0.414001 0.101685 0.346252
0.519531 0.123566 0.374084
0.628265 0.145477 0.402374
0.000000 0.113647 0.247650
0.012665 0.114288 0.256439
0.076843 0.117859 0.276642
0.201782 0.125244 0.299896
0.308014 0.136566 0.326385
0.412170 0.147858 0.351837
0.518036 0.166229 0.379456
0.627136 0.187805 0.403748
0.000000 0.195557 0.295013
0.012665 0.196564 0.299561
0.027374 0.200439 0.310516
0.187317 0.207855 0.326050
0.300629 0.214600 0.347290
0.409668 0.226929 0.369873
0.517365 0.242188 0.394623
0.627136 0.259766 0.416077
0.000000 0.297180 0.342346
0.012665 0.297882 0.345886
0.025299 0.301056 0.353668
0.140289 0.305969 0.362457
0.281891 0.313385 0.377289
0.400879 0.326172 0.395294
0.513489 0.336334 0.414368
0.624268 0.354004 0.436279
0.000000 0.412323 0.387543
0.012665 0.411530 0.387909
0.025299 0.414368 0.392487
0.037964 0.420776 0.402740
0.237061 0.427856 0.413696
0.376465 0.434448 0.425995
0.498993 0.446106 0.441193
0.613770 0.458527 0.459564
0.000000 0.534058 0.429199
0.012665 0.535400 0.430573
0.025299 0.538269 0.434113
0.037964 0.543976 0.442657
0.075287 0.551392 0.452271
0.326385 0.556610 0.462402
0.472534 0.569427 0.475861
0.598572 0.579224 0.491272
0.000000 0.667175 0.474487
0.012665 0.668549 0.476562
0.025299 0.670715 0.479401
0.037964 0.673798 0.483154
0.050598 0.679169 0.492065
0.197235 0.684418 0.499146
0.417053 0.695374 0.511810
0.568115 0.706329 0.525269
0.000000 0.804871 0.520355
0.012665 0.806580 0.519562
0.025299 0.809326 0.522736
0.037964 0.810150 0.526306
0.050598 0.817108 0.533386
0.063263 0.823486 0.542145
0.303650 0.830902 0.552094
0.511292 0.842987 0.565186
0.000000 0.105896 0.301636
0.012665 0.105896 0.314728
0.033508 0.109406 0.339050
0.194366 0.112976 0.368347
0.315582 0.123230 0.404449
0.428864 0.134186 0.437622
0.539948 0.150726 0.466949
0.651184 0.169769 0.497986
0.000000 0.146851 0.331268
0.012665 0.150024 0.340515
0.028015 0.151733 0.360260
0.189819 0.156311 0.383881
0.311920 0.165894 0.412872
0.427002 0.176849 0.443207
0.539734 0.193176 0.474365
0.651855 0.210022 0.502991
0.000000 0.223389 0.379303
0.012665 0.225891 0.382843
0.025299 0.228729 0.397705
0.170746 0.232941 0.417206
0.307007 0.243591 0.440826
0.423492 0.252686 0.463745
0.536774 0.265015 0.490234
0.652893 0.282349 0.516357
0.000000 0.321136 0.430573
0.012665 0.325134 0.435883
0.025299 0.330383 0.444336
0.102600 0.333588 0.455292
0.283722 0.341003 0.471832
0.410706 0.351929 0.493744
0.532990 0.362885 0.517487
0.649048 0.375580 0.538269
0.000000 0.439117 0.481781
0.012665 0.439453 0.483490
0.025299 0.440826 0.489532
0.037964 0.449402 0.499481
0.229187 0.454529 0.513153
0.383881 0.462402 0.526611
0.516357 0.473358 0.545349
0.640472 0.487854 0.566895
0.000000 0.564758 0.531189
0.012665 0.564758 0.531189
0.025299 0.567261 0.535400
0.037964 0.572937 0.544647
0.050598 0.580383 0.555603
0.328094 0.584106 0.564758
0.484497 0.593384 0.579590
0.618317 0.606018 0.597931
0.000000 0.696381 0.578522
0.012665 0.698212 0.579224
0.025299 0.699249 0.582092
0.037964 0.704956 0.589478
0.050598 0.711334 0.599060
0.187531 0.715546 0.605011
0.424835 0.723297 0.619843
0.586487 0.735626 0.634338
0.000000 0.839355 0.627625
0.012665 0.838989 0.628265
0.025299 0.839111 0.630554
0.037964 0.843323 0.635803
0.050598 0.848602 0.642548
0.063263 0.856323 0.652344
0.303101 0.863403 0.661499
0.523285 0.873322 0.673584
0.000000 0.147644 0.394501
0.012665 0.148224 0.404297
0.025299 0.149719 0.428375
0.164337 0.154266 0.459747
0.309174 0.161682 0.495453
0.434448 0.170929 0.528992
0.554810 0.183594 0.565399
0.673462 0.201965 0.596191
0.000000 0.184937 0.418793
0.012665 0.186768 0.428009
0.025299 0.188812 0.448425
0.158081 0.194519 0.476044
0.308838 0.201935 0.507111
0.433746 0.212891 0.541077
0.554810 0.224182 0.572815
0.675476 0.240723 0.604523
0.000000 0.257721 0.467255
0.012665 0.258759 0.473907
0.025299 0.261139 0.485504
0.124512 0.267181 0.508911
0.297882 0.273926 0.532196
0.428040 0.283386 0.560486
0.549866 0.294434 0.587311
0.671967 0.309845 0.619385
0.000000 0.354462 0.524445
0.012665 0.356873 0.527283
0.025299 0.357880 0.536407
0.037964 0.363586 0.550232
0.272430 0.370331 0.569641
0.415710 0.376923 0.590485
0.542145 0.388916 0.616974
0.668762 0.404785 0.643433
0.000000 0.468811 0.581726
0.012665 0.467651 0.581268
0.025299 0.472321 0.589478
0.037964 0.474396 0.597565
0.201813 0.483643 0.613464
0.386047 0.491730 0.631927
0.525818 0.501190 0.650848
0.658600 0.512848 0.673096
0.000000 0.595184 0.634674
0.012665 0.595886 0.635345
0.025299 0.597595 0.638519
0.037964 0.600800 0.646973
0.050598 0.606018 0.657593
0.320679 0.613464 0.672089
0.491943 0.624756 0.689301
0.637024 0.635376 0.708466
0.000000 0.729248 0.684753
0.012665 0.729248 0.688293
0.025299 0.734253 0.693298
0.037964 0.734741 0.698303
0.050598 0.739990 0.707458
0.149200 0.746918 0.718292
0.428375 0.756073 0.732788
0.596069 0.765320 0.747955
0.000000 0.872223 0.739166
0.012665 0.873322 0.740662
0.025299 0.871277 0.740662
0.037964 0.875854 0.746582
0.050598 0.882599 0.756165
0.063263 0.887146 0.763947
0.295227 0.894562 0.776581
0.532196 0.901978 0.787872
0.000000 0.193512 0.489746
0.012665 0.193512 0.501038
0.025299 0.195892 0.523621
0.079224 0.199463 0.555450
0.288971 0.205505 0.590698
0.431580 0.212921 0.627441
0.559814 0.223877 0.662506
0.689056 0.238342 0.700806
0.000000 0.228760 0.515869
0.012665 0.228760 0.524078
0.025299 0.232300 0.543152
0.066101 0.235840 0.571289
0.285431 0.240387 0.601654
0.430573 0.251343 0.636688
0.561523 0.262299 0.672760
0.688263 0.273956 0.706299
0.000000 0.291931 0.559784
0.012665 0.295135 0.567780
0.025299 0.297211 0.582245
0.040344 0.302887 0.604156
0.273560 0.309174 0.630310
0.424500 0.317719 0.659637
0.558319 0.329010 0.692139
0.686798 0.342712 0.725372
0.000000 0.388245 0.618683
0.012665 0.386871 0.621185
0.025299 0.391449 0.633148
0.037964 0.396332 0.649017
0.238098 0.401337 0.668732
0.408752 0.410583 0.694305
0.549896 0.420074 0.719635
0.683350 0.435242 0.752289
0.000000 0.499603 0.679474
0.012665 0.499481 0.680847
0.025299 0.501892 0.689301
0.037964 0.506561 0.699249
0.125946 0.511475 0.713715
0.372925 0.519226 0.734131
0.530029 0.529816 0.757080
0.669891 0.542938 0.781494
0.000000 0.623383 0.737671
0.012665 0.627350 0.741669
0.025299 0.628265 0.745422
0.037964 0.631500 0.752167
0.050598 0.638214 0.766998
0.299469 0.643921 0.781158
0.492249 0.653748 0.799866
0.647522 0.665802 0.822113
0.000000 0.761536 0.795044
0.012665 0.760376 0.794250
0.025299 0.764252 0.803070
0.037964 0.766663 0.807617
0.050598 0.772705 0.818573
0.063263 0.780243 0.830658
0.424500 0.788361 0.848694
0.605225 0.797485 0.864075
0.000000 0.905060 0.853119
0.012665 0.903015 0.851105
0.025299 0.906311 0.856110
0.037964 0.907318 0.859985
0.050598 0.913605 0.868774
0.063263 0.922058 0.880737
0.263977 0.929474 0.894104
0.534576 0.939301 0.908600
