滤镜资源/Professional Luts Collection/Triune-Digital-Cinematic-LUTs/3D LUTs (CUBE)/STANDARD/The Matrix - Rec709.cube
#Created by Benjamin (IWLTBAP) : http://luts.iwltbap.com
#Copyright: (C) Copyright 2016 Triune Films and IWLTBAP
TITLE "Blockbuster LUTs Pack (Rec.709)"
#LUT size
LUT_3D_SIZE 8
#LUT data points
DOMAIN_MIN 0.000000 0.000000 0.000000
DOMAIN_MAX 0.903226 0.903226 0.903226
0.003937 0.000000 0.007843
0.067688 0.000519 0.012268
0.156982 0.011780 0.028473
0.282074 0.027466 0.048584
0.435699 0.056915 0.068695
0.596985 0.095276 0.086273
0.737640 0.136383 0.108917
0.857300 0.172180 0.136871
0.012268 0.060333 0.027954
0.068176 0.064758 0.027954
0.148132 0.080444 0.051483
0.269318 0.103973 0.063751
0.442017 0.126129 0.071594
0.604828 0.164825 0.090698
0.745483 0.200623 0.112854
0.861603 0.236420 0.140808
0.056915 0.198212 0.067688
0.096130 0.206055 0.055908
0.172668 0.217834 0.055908
0.265900 0.240845 0.092712
0.393433 0.268799 0.124603
0.552826 0.300690 0.143188
0.715118 0.324738 0.157990
0.855286 0.342316 0.167725
0.112823 0.364441 0.108917
0.144714 0.372284 0.096649
0.211365 0.380127 0.087799
0.313446 0.391876 0.087799
0.426819 0.412018 0.139282
0.552826 0.439972 0.180511
0.689056 0.460968 0.208466
0.810242 0.480560 0.230469
0.172668 0.523865 0.154968
0.203033 0.527771 0.140808
0.260986 0.534607 0.127533
0.357117 0.543457 0.111816
0.480713 0.553223 0.131561
0.595978 0.564972 0.193298
0.701324 0.577759 0.238342
0.810242 0.593933 0.270721
0.232513 0.653259 0.205078
0.264404 0.657196 0.192810
0.312958 0.661102 0.175079
0.403168 0.668945 0.163330
0.520966 0.674255 0.151550
0.637573 0.680725 0.193298
0.737122 0.692474 0.250092
0.828857 0.701721 0.296265
0.296265 0.769897 0.257935
0.328156 0.773834 0.245300
0.376709 0.777740 0.229614
0.453766 0.783173 0.214813
0.556244 0.788635 0.202148
0.665527 0.793427 0.202148
0.769012 0.800385 0.253143
0.856812 0.808746 0.309052
0.360016 0.877289 0.316895
0.388855 0.877289 0.301575
0.440491 0.881226 0.288422
0.502197 0.885132 0.269836
0.595581 0.889069 0.261993
0.704895 0.892975 0.271606
0.811890 0.893372 0.294891
0.904358 0.896912 0.359283
0.000000 0.003937 0.044159
0.048065 0.007843 0.071594
0.124084 0.020630 0.087280
0.253632 0.037323 0.103485
0.430267 0.065277 0.119171
0.594452 0.100586 0.140289
0.733734 0.143341 0.164825
0.849854 0.180023 0.196198
0.000000 0.072113 0.087799
0.056915 0.068695 0.091705
0.183929 0.068695 0.095123
0.308533 0.089294 0.106903
0.461609 0.121185 0.122589
0.614563 0.160919 0.140808
0.749420 0.200623 0.162292
0.862122 0.236420 0.192780
0.056915 0.201141 0.111816
0.101074 0.205048 0.123596
0.179993 0.217834 0.115753
0.293335 0.233521 0.131927
0.446960 0.257050 0.148651
0.619995 0.277161 0.160919
0.753845 0.301697 0.181030
0.869446 0.332581 0.205566
0.115234 0.364441 0.151031
0.152557 0.368347 0.156982
0.208466 0.381134 0.139771
0.313446 0.391876 0.145203
0.445435 0.409607 0.177612
0.579773 0.433136 0.212402
0.714630 0.453125 0.234406
0.840607 0.468811 0.252625
0.172668 0.523865 0.194702
0.208984 0.526276 0.199127
0.255524 0.537537 0.175598
0.357117 0.545380 0.169769
0.484650 0.553223 0.183929
0.604828 0.561554 0.229095
0.713593 0.576752 0.268311
0.826447 0.588501 0.298676
0.233032 0.653259 0.244781
0.272736 0.654663 0.249207
0.312958 0.661102 0.227081
0.401764 0.668945 0.213409
0.520966 0.676300 0.211395
0.640106 0.680725 0.234924
0.744965 0.691986 0.285004
0.836700 0.701324 0.328156
0.296265 0.769897 0.297272
0.336487 0.772949 0.302094
0.376709 0.777740 0.280579
0.449341 0.784698 0.262878
0.556244 0.788635 0.256042
0.665527 0.793427 0.261475
0.772949 0.800385 0.288940
0.861603 0.808228 0.344330
0.360016 0.877289 0.353577
0.400238 0.877289 0.360535
0.436554 0.881226 0.337891
0.498291 0.886658 0.317902
0.597473 0.889069 0.317535
0.707397 0.892975 0.328522
0.811890 0.893372 0.355225
0.907898 0.896912 0.414429
0.000000 0.012787 0.084381
0.023529 0.016693 0.128021
0.124603 0.028473 0.147125
0.213898 0.057922 0.166718
0.355255 0.093231 0.186340
0.534760 0.129028 0.208466
0.707275 0.164825 0.234406
0.844543 0.189880 0.257568
0.003418 0.084869 0.131439
0.036804 0.081451 0.146606
0.168243 0.077026 0.171143
0.285004 0.101562 0.180511
0.439117 0.133972 0.192291
0.609619 0.167877 0.210876
0.742950 0.208984 0.234406
0.858185 0.247314 0.260468
0.044159 0.208984 0.187347
0.084869 0.213898 0.192261
0.171661 0.224670 0.195190
0.336975 0.224670 0.188873
0.505280 0.237427 0.197205
0.646423 0.265411 0.213409
0.770020 0.296265 0.236420
0.878296 0.328156 0.261475
0.113342 0.368347 0.211365
0.152557 0.372284 0.219727
0.216827 0.377228 0.239838
0.329132 0.391876 0.216827
0.490082 0.399719 0.236938
0.641998 0.415405 0.250580
0.770020 0.431091 0.269318
0.881226 0.449188 0.289429
0.175598 0.525757 0.251099
0.212402 0.529694 0.256042
0.272736 0.533600 0.275635
0.349762 0.545380 0.243256
0.495392 0.553223 0.257050
0.630737 0.558655 0.285004
0.742584 0.568909 0.319794
0.857666 0.579651 0.338409
0.236450 0.653259 0.297272
0.274780 0.657196 0.301208
0.333588 0.657196 0.316895
0.390015 0.668945 0.282990
0.517029 0.676788 0.281586
0.641510 0.680725 0.303589
0.755219 0.688568 0.338379
0.852386 0.697418 0.374176
0.300201 0.772949 0.346222
0.339905 0.772949 0.353180
0.397339 0.773834 0.368866
0.444397 0.784698 0.333069
0.552338 0.789520 0.321808
0.665039 0.793427 0.329163
0.772949 0.800385 0.353180
0.872498 0.805206 0.396454
0.360016 0.877289 0.401276
0.401123 0.877289 0.405548
0.460083 0.880829 0.420868
0.502838 0.885132 0.390503
0.601013 0.889069 0.385834
0.708038 0.891968 0.398743
0.815826 0.893372 0.429718
0.908295 0.896912 0.482086
0.000000 0.032898 0.128510
0.000000 0.036804 0.175079
0.104492 0.044647 0.215790
0.224152 0.068176 0.235931
0.329681 0.115387 0.255524
0.477814 0.156982 0.282990
0.647461 0.188873 0.308014
0.791534 0.224670 0.337494
0.004425 0.101074 0.175079
0.020630 0.101562 0.194672
0.104980 0.102081 0.243774
0.261475 0.124603 0.256042
0.382172 0.169250 0.273254
0.528809 0.208984 0.293365
0.687683 0.244781 0.316376
0.820007 0.280579 0.343842
0.001007 0.228577 0.252106
0.049591 0.236420 0.259460
0.148132 0.244781 0.259949
0.317383 0.234009 0.287903
0.504761 0.240845 0.296265
0.641998 0.272217 0.307526
0.766113 0.301697 0.324738
0.874390 0.335999 0.345337
0.095642 0.377716 0.304108
0.128021 0.380615 0.308014
0.192780 0.387970 0.315857
0.305603 0.399719 0.315857
0.514130 0.397827 0.308014
0.672882 0.403656 0.314362
0.797974 0.419342 0.329163
0.898804 0.441345 0.349274
0.167236 0.529694 0.328156
0.203552 0.531708 0.332062
0.264404 0.537537 0.347748
0.360016 0.541443 0.367859
0.500854 0.553223 0.339905
0.657196 0.553223 0.356598
0.784180 0.561066 0.372803
0.894501 0.566986 0.391388
0.240356 0.657196 0.368866
0.276672 0.657196 0.375702
0.333588 0.661102 0.388489
0.421387 0.665039 0.411011
0.509186 0.676788 0.371796
0.653259 0.680725 0.386078
0.782288 0.683136 0.411499
0.881348 0.690979 0.443390
0.304108 0.772949 0.417847
0.343842 0.773834 0.424805
0.396332 0.776855 0.436554
0.478180 0.777740 0.450714
0.542450 0.789520 0.407593
0.661621 0.795959 0.407593
0.779266 0.798859 0.432648
0.882721 0.802795 0.469940
0.363953 0.877289 0.468933
0.404175 0.877289 0.473358
0.460083 0.880829 0.485626
0.537109 0.881226 0.501831
0.602661 0.889069 0.473999
0.713867 0.889435 0.482086
0.819733 0.892975 0.511963
0.908295 0.896912 0.559509
0.000000 0.056915 0.180511
0.000000 0.060852 0.212921
0.043121 0.071594 0.276672
0.212891 0.085907 0.315369
0.349274 0.125610 0.335480
0.461121 0.175079 0.355103
0.605316 0.216827 0.383575
0.746979 0.256561 0.413544
0.000519 0.125610 0.222656
0.013794 0.129547 0.238831
0.027954 0.130035 0.300201
0.216797 0.150146 0.339417
0.385101 0.182037 0.355621
0.511719 0.227081 0.375214
0.647949 0.269836 0.397369
0.777344 0.310944 0.423798
0.000000 0.249207 0.304108
0.025543 0.257568 0.314850
0.111816 0.272736 0.327637
0.225159 0.269836 0.367371
0.467926 0.265900 0.391418
0.600372 0.300690 0.403168
0.713074 0.340424 0.417969
0.833130 0.376221 0.439972
0.046509 0.391876 0.381653
0.095612 0.396332 0.387482
0.167328 0.404175 0.388000
0.297272 0.409607 0.389008
0.503754 0.405670 0.419373
0.665039 0.411499 0.427216
0.786224 0.431091 0.435547
0.894501 0.448822 0.450745
0.135376 0.539551 0.433655
0.163330 0.541443 0.437592
0.219727 0.545380 0.443390
0.317902 0.553223 0.447327
0.467072 0.559143 0.449341
0.668945 0.553223 0.439484
0.806213 0.556244 0.447327
0.924347 0.557129 0.455170
0.232513 0.660614 0.459595
0.264893 0.661102 0.467438
0.317383 0.664520 0.479218
0.400238 0.668945 0.492493
0.513123 0.676300 0.503235
0.641998 0.684631 0.477295
0.795959 0.680725 0.487061
0.904755 0.684631 0.503235
0.310059 0.773834 0.499329
0.341949 0.773834 0.505280
0.391388 0.777740 0.516022
0.465515 0.780792 0.526764
0.562073 0.784698 0.550293
0.649353 0.796478 0.513123
0.788635 0.797363 0.521973
0.900330 0.798370 0.549530
0.360016 0.877289 0.540558
0.400238 0.879333 0.546875
0.456177 0.881226 0.558655
0.532318 0.881226 0.577362
0.628082 0.883636 0.591522
0.710968 0.889435 0.569641
0.823669 0.892975 0.596222
0.916138 0.896912 0.641754
0.000000 0.088806 0.232513
0.000000 0.088806 0.260986
0.000000 0.104492 0.326111
0.153046 0.120178 0.392395
0.350800 0.145752 0.422791
0.492493 0.185455 0.445435
0.600372 0.233521 0.461609
0.723969 0.280579 0.487030
0.000000 0.161407 0.276672
0.009857 0.167877 0.292358
0.028595 0.175720 0.338379
0.145203 0.182037 0.417847
0.358643 0.209503 0.441498
0.524872 0.237946 0.463013
0.640625 0.285522 0.479187
0.757233 0.329651 0.503235
0.000000 0.281097 0.353180
0.009369 0.288422 0.364441
0.100067 0.300690 0.385956
0.204529 0.310547 0.428711
0.373840 0.305634 0.479187
0.571411 0.325745 0.487030
0.700836 0.358124 0.510559
0.796967 0.402649 0.524872
0.006958 0.411499 0.439453
0.070709 0.416931 0.446289
0.136871 0.428192 0.459076
0.257538 0.439972 0.463013
0.404175 0.448303 0.501862
0.644409 0.428192 0.529297
0.790009 0.434143 0.546356
0.875397 0.471863 0.557739
0.132843 0.543976 0.507660
0.163818 0.545868 0.511597
0.219727 0.551819 0.516510
0.310059 0.561066 0.522858
0.460602 0.568909 0.526764
0.656677 0.559662 0.554718
0.796478 0.561066 0.563080
0.912201 0.565338 0.570923
0.189392 0.668945 0.565613
0.213409 0.668945 0.566986
0.259460 0.672882 0.570923
0.344330 0.680725 0.574829
0.466949 0.688049 0.582672
0.614044 0.688568 0.586609
0.796967 0.684631 0.578766
0.929291 0.676788 0.582672
0.286407 0.777740 0.594940
0.317383 0.780273 0.602783
0.361908 0.781677 0.612152
0.432129 0.785583 0.622406
0.527771 0.792053 0.633667
0.641998 0.796478 0.638580
0.769135 0.801270 0.628845
0.908661 0.797363 0.634277
0.372803 0.880829 0.638214
0.405548 0.881226 0.643005
0.453644 0.881226 0.654266
0.526367 0.885132 0.668579
0.609863 0.888062 0.669586
0.717285 0.889069 0.679199
0.823151 0.893372 0.667053
0.920044 0.896912 0.705902
0.000000 0.131561 0.292358
0.000000 0.132446 0.316376
0.000000 0.141296 0.366852
0.074493 0.159912 0.452240
0.306152 0.178619 0.505249
0.506775 0.199127 0.538025
0.631744 0.242249 0.554199
0.723480 0.293732 0.565979
0.000000 0.204559 0.336487
0.014282 0.211517 0.348755
0.045776 0.221252 0.385071
0.075134 0.221252 0.463989
0.305145 0.237457 0.529297
0.514618 0.265411 0.550293
0.656677 0.297272 0.572937
0.752319 0.348755 0.585205
0.000000 0.312958 0.404175
0.015167 0.319427 0.416443
0.103973 0.332581 0.438446
0.197205 0.348267 0.482605
0.311096 0.329651 0.564087
0.531708 0.357635 0.576355
0.684631 0.381653 0.590515
0.793030 0.416443 0.610626
0.000000 0.436554 0.492981
0.059448 0.440979 0.500824
0.130554 0.454132 0.516510
0.229584 0.470306 0.534607
0.361542 0.483612 0.576355
0.547882 0.471344 0.616577
0.740906 0.473358 0.627838
0.853241 0.491974 0.653381
0.077545 0.565979 0.574829
0.126129 0.570404 0.579254
0.183441 0.577759 0.588623
0.269318 0.587616 0.596985
0.428741 0.592438 0.597473
0.564972 0.594971 0.639099
0.772949 0.579773 0.662109
0.919037 0.570801 0.689178
0.181396 0.677307 0.635162
0.209869 0.677795 0.639099
0.257446 0.682739 0.646942
0.336487 0.689056 0.650360
0.454651 0.696411 0.656311
0.593567 0.704254 0.660736
0.780792 0.692474 0.686676
0.923981 0.685150 0.706268
0.231384 0.788635 0.694519
0.257568 0.789520 0.695892
0.302094 0.792542 0.698425
0.376221 0.796478 0.702362
0.481750 0.801270 0.710205
0.602295 0.808228 0.718048
0.744598 0.809113 0.728912
0.927887 0.796478 0.714111
0.322205 0.885132 0.730316
0.350647 0.888184 0.737762
0.394806 0.889069 0.745605
0.463989 0.892975 0.750427
0.562805 0.896393 0.758270
0.670715 0.899811 0.765594
0.804565 0.900330 0.765991
0.923981 0.900818 0.773560
0.000000 0.179626 0.356110
0.000000 0.183563 0.372681
0.000000 0.187866 0.416962
0.008331 0.201141 0.494354
0.238495 0.215302 0.581665
0.473389 0.233521 0.617096
0.643524 0.257568 0.652893
0.751801 0.301575 0.669067
0.000000 0.252106 0.396332
0.025665 0.256042 0.408081
0.064880 0.267426 0.437439
0.081970 0.270325 0.504730
0.220886 0.271729 0.614044
0.477295 0.293365 0.634674
0.650848 0.321808 0.662109
0.775452 0.353577 0.685272
0.000000 0.347748 0.460083
0.023529 0.352692 0.469330
0.112823 0.364441 0.492462
0.193787 0.384552 0.534088
0.249359 0.365967 0.619507
0.481232 0.381653 0.674377
0.660217 0.409607 0.682220
0.792023 0.433655 0.701843
0.000000 0.464508 0.543457
0.053131 0.472351 0.552795
0.131561 0.484100 0.568481
0.215790 0.499786 0.595947
0.339050 0.515472 0.638092
0.474792 0.488037 0.719543
0.677795 0.509552 0.716125
0.819977 0.521820 0.725494
0.066803 0.586090 0.629242
0.126648 0.590515 0.635162
0.184448 0.598877 0.646423
0.259583 0.611145 0.662109
0.387360 0.621399 0.677429
0.507660 0.628723 0.731445
0.685516 0.609131 0.767761
0.869446 0.605713 0.769135
0.130554 0.700317 0.705261
0.175598 0.704254 0.710205
0.225555 0.710205 0.718048
0.294373 0.718536 0.729797
0.397614 0.726898 0.737274
0.546753 0.731323 0.756104
0.689575 0.717407 0.793671
0.889069 0.708160 0.797485
0.167358 0.808746 0.773560
0.195831 0.812653 0.777496
0.240112 0.816589 0.785339
0.325623 0.820496 0.789642
0.430237 0.824036 0.797089
0.540558 0.831879 0.811523
0.724365 0.824921 0.813293
0.904358 0.809113 0.821503
0.258820 0.896515 0.818085
0.283356 0.896912 0.822021
0.331421 0.896912 0.822021
0.404175 0.900818 0.827454
0.513245 0.904755 0.833771
0.622528 0.908661 0.845551
0.756104 0.909058 0.853394
0.907898 0.908661 0.857300
