滤镜资源/Professional Luts Collection/Triune-Digital-Cinematic-LUTs/3D LUTs (CUBE)/STANDARD/The Revenant - Rec709.cube
#Created by Benjamin (IWLTBAP) : http://luts.iwltbap.com
#Copyright: (C) Copyright 2016 Triune Films and IWLTBAP
TITLE "Blockbuster LUTs Pack (Rec.709)"
#LUT size
LUT_3D_SIZE 8
#LUT data points
DOMAIN_MIN 0.000000 0.000000 0.000000
DOMAIN_MAX 0.903226 0.903226 0.903226
0.000000 0.000000 0.000000
0.019867 0.003143 0.003204
0.079010 0.009369 0.009369
0.153870 0.024750 0.030487
0.235901 0.046661 0.058014
0.328522 0.075653 0.088928
0.416107 0.099701 0.112091
0.493256 0.116516 0.130920
0.007416 0.073364 0.038147
0.044739 0.072266 0.035980
0.132568 0.082886 0.051544
0.212097 0.083923 0.066589
0.302094 0.093811 0.084839
0.395081 0.107330 0.111237
0.475983 0.121887 0.129181
0.556946 0.138092 0.148987
0.028625 0.183167 0.122345
0.047455 0.181763 0.121155
0.156250 0.203125 0.136627
0.247650 0.204651 0.131287
0.344391 0.192444 0.135071
0.437012 0.179810 0.146271
0.523926 0.172913 0.156372
0.596130 0.167023 0.166931
0.069153 0.303314 0.205017
0.068726 0.301910 0.204803
0.152252 0.320343 0.219208
0.274933 0.349121 0.234680
0.391815 0.362885 0.235931
0.491608 0.331421 0.229492
0.577881 0.304535 0.225372
0.657013 0.276306 0.223419
0.110657 0.434113 0.296112
0.111206 0.435638 0.296173
0.145081 0.439056 0.300995
0.291901 0.470764 0.332214
0.418518 0.508453 0.345062
0.529236 0.524597 0.341522
0.628693 0.484558 0.333221
0.717346 0.445892 0.322937
0.155823 0.567566 0.391052
0.155579 0.566711 0.393005
0.166138 0.566254 0.394257
0.305817 0.597046 0.423096
0.435638 0.628204 0.451965
0.550842 0.653168 0.453796
0.665161 0.678558 0.460144
0.758392 0.627747 0.444275
0.197662 0.690857 0.486603
0.196472 0.687347 0.482971
0.202118 0.688049 0.487976
0.318573 0.715729 0.509369
0.446167 0.745087 0.536835
0.562195 0.769012 0.561401
0.681152 0.791107 0.568695
0.769714 0.802124 0.573608
0.237183 0.807465 0.575836
0.238251 0.810638 0.577301
0.237915 0.809540 0.580170
0.330475 0.829102 0.599335
0.460052 0.859192 0.625854
0.578033 0.885956 0.650024
0.684692 0.910919 0.679901
0.751984 0.911163 0.680176
0.000427 0.005737 0.018250
0.035156 0.006622 0.034485
0.106934 0.014984 0.050232
0.188721 0.034027 0.073639
0.277283 0.061371 0.095886
0.359894 0.084106 0.116760
0.442169 0.105927 0.134155
0.523834 0.125580 0.154022
0.007751 0.085876 0.093384
0.050140 0.082336 0.089081
0.143036 0.080627 0.101196
0.223328 0.086731 0.108459
0.321564 0.099884 0.124512
0.407196 0.113281 0.136505
0.489288 0.126556 0.148895
0.569214 0.142120 0.166931
0.031158 0.188110 0.158508
0.053436 0.188538 0.163574
0.156494 0.201691 0.178345
0.257996 0.200836 0.179321
0.363678 0.183289 0.177155
0.454987 0.173981 0.175812
0.535248 0.170685 0.179657
0.612701 0.173767 0.188751
0.070526 0.306671 0.242126
0.070435 0.306213 0.244812
0.148285 0.322083 0.259277
0.282806 0.352722 0.283905
0.400696 0.361511 0.277191
0.501770 0.329376 0.262817
0.591797 0.296295 0.251740
0.671539 0.264465 0.245392
0.114471 0.444794 0.336273
0.112762 0.439728 0.334930
0.139343 0.443268 0.339600
0.294220 0.479706 0.368774
0.418976 0.509552 0.388977
0.537323 0.526459 0.383514
0.637939 0.484741 0.362000
0.728271 0.442749 0.350494
0.158997 0.576385 0.430450
0.158722 0.575500 0.432251
0.170868 0.576508 0.433411
0.301910 0.603149 0.455353
0.430389 0.630463 0.480865
0.553345 0.658264 0.496338
0.666595 0.679474 0.497742
0.767365 0.630371 0.485260
0.199982 0.697327 0.519379
0.199860 0.696808 0.523987
0.199738 0.693970 0.521698
0.312164 0.720764 0.543488
0.444427 0.750427 0.573059
0.566101 0.778259 0.599304
0.680359 0.797546 0.608276
0.780914 0.812805 0.617188
0.240845 0.817810 0.612000
0.240723 0.817444 0.614929
0.240204 0.815887 0.615692
0.319763 0.833344 0.629211
0.456696 0.867584 0.657471
0.577393 0.891754 0.683929
0.687927 0.918610 0.712219
0.760315 0.923828 0.721924
0.001556 0.021484 0.061737
0.018890 0.022980 0.085175
0.118225 0.027740 0.114502
0.202362 0.041412 0.121948
0.293884 0.068176 0.145294
0.386902 0.093964 0.161438
0.468018 0.113953 0.178040
0.548157 0.132080 0.187927
0.009888 0.099701 0.143158
0.022583 0.096863 0.148407
0.140717 0.098450 0.162354
0.239838 0.100128 0.176025
0.340363 0.110413 0.184143
0.430786 0.123688 0.189819
0.512177 0.135284 0.195038
0.594452 0.152222 0.208893
0.034851 0.195343 0.214783
0.042206 0.195618 0.214569
0.145294 0.209290 0.235077
0.268372 0.216888 0.256378
0.374847 0.201538 0.244537
0.469543 0.190308 0.236359
0.558533 0.183777 0.227203
0.641205 0.185059 0.235291
0.072449 0.313171 0.303192
0.072021 0.311584 0.303162
0.132385 0.324615 0.313568
0.284180 0.355255 0.340454
0.401764 0.363220 0.344696
0.510437 0.317535 0.321411
0.606079 0.290070 0.302551
0.697296 0.268463 0.291962
0.116577 0.450165 0.394745
0.117859 0.453949 0.399200
0.125305 0.446655 0.395416
0.288727 0.483215 0.426819
0.417358 0.512421 0.452118
0.538879 0.533661 0.455750
0.647614 0.483429 0.427765
0.746582 0.433685 0.404266
0.162811 0.586823 0.489258
0.162292 0.585175 0.490387
0.161743 0.583618 0.489624
0.284515 0.608429 0.513519
0.426025 0.640320 0.539520
0.548889 0.664368 0.562775
0.670044 0.687897 0.567749
0.777496 0.642975 0.550079
0.204773 0.710663 0.575317
0.203979 0.708282 0.579529
0.203796 0.707611 0.581909
0.291473 0.723328 0.592896
0.432831 0.757843 0.624908
0.562164 0.786804 0.650085
0.677948 0.812195 0.678192
0.790558 0.825928 0.680634
0.244110 0.826721 0.666016
0.244476 0.827728 0.668823
0.242889 0.823120 0.666504
0.299744 0.838043 0.680481
0.441071 0.870819 0.705322
0.569794 0.898560 0.730530
0.689972 0.924652 0.760345
0.772125 0.943970 0.783142
0.004456 0.058136 0.122406
0.005249 0.059357 0.142090
0.096405 0.063416 0.172852
0.209747 0.068970 0.199310
0.318787 0.088165 0.217468
0.409851 0.108307 0.233154
0.498230 0.127991 0.244781
0.584045 0.147583 0.256561
0.014435 0.123810 0.199219
0.013977 0.121674 0.202087
0.116028 0.124176 0.228302
0.238403 0.127869 0.257202
0.349152 0.128662 0.257874
0.451111 0.141296 0.269318
0.537994 0.152496 0.272949
0.622040 0.166321 0.279236
0.040192 0.210175 0.282776
0.040039 0.209778 0.286041
0.117889 0.217682 0.299988
0.261475 0.240509 0.331696
0.375641 0.224487 0.325531
0.484772 0.216034 0.321472
0.575195 0.207916 0.315796
0.662598 0.203979 0.311249
0.075562 0.326965 0.378052
0.074982 0.324493 0.378021
0.092133 0.322815 0.381256
0.269897 0.362976 0.413147
0.404480 0.384766 0.436615
0.520020 0.354401 0.416718
0.627655 0.320465 0.393280
0.721161 0.294189 0.379364
0.120117 0.459564 0.468781
0.119171 0.456818 0.468933
0.118134 0.453583 0.468536
0.263977 0.484100 0.493073
0.408752 0.515167 0.519348
0.536957 0.539948 0.547882
0.655609 0.493866 0.519623
0.761261 0.444275 0.490448
0.165924 0.595032 0.561981
0.165009 0.592224 0.559326
0.165955 0.595001 0.562256
0.255066 0.609100 0.578949
0.409088 0.642731 0.606110
0.546600 0.671234 0.633240
0.668579 0.693176 0.653259
0.785706 0.646393 0.627167
0.209290 0.723022 0.650360
0.209229 0.722748 0.650879
0.207428 0.717468 0.650360
0.250519 0.725403 0.660400
0.412018 0.763214 0.689178
0.553650 0.794312 0.715332
0.674072 0.818024 0.739716
0.792389 0.837646 0.757904
0.248291 0.838165 0.731873
0.248016 0.837280 0.733398
0.247009 0.834320 0.732361
0.267120 0.839447 0.737762
0.421814 0.875793 0.768250
0.562103 0.909149 0.792206
0.685333 0.936615 0.821686
0.786377 0.954102 0.844055
0.009399 0.096954 0.183563
0.010925 0.105591 0.209229
0.031128 0.100769 0.227783
0.198364 0.109558 0.274323
0.315643 0.117889 0.301178
0.423828 0.133362 0.313873
0.516388 0.149048 0.322937
0.606537 0.164307 0.331909
0.021393 0.153534 0.265106
0.021484 0.153717 0.272430
0.037537 0.147125 0.283478
0.218384 0.158600 0.325684
0.342010 0.161713 0.349731
0.453491 0.167908 0.357880
0.548706 0.175476 0.356262
0.636688 0.184845 0.357666
0.046539 0.227753 0.350342
0.045776 0.225555 0.352905
0.063324 0.226318 0.361786
0.239685 0.252747 0.395172
0.368835 0.250244 0.412231
0.482941 0.243866 0.415680
0.583801 0.230896 0.406494
0.672394 0.225403 0.401947
0.080627 0.343170 0.450562
0.079742 0.340576 0.450623
0.078461 0.336914 0.450043
0.241180 0.371460 0.483154
0.392517 0.398712 0.512482
0.512970 0.395691 0.526093
0.627991 0.354340 0.499329
0.727814 0.323822 0.480988
0.125275 0.474365 0.547394
0.123138 0.467987 0.540863
0.122681 0.466736 0.544647
0.225128 0.491211 0.566315
0.393860 0.524963 0.594910
0.535248 0.554382 0.626770
0.651825 0.537750 0.617828
0.766937 0.491974 0.602661
0.167847 0.599426 0.634430
0.167999 0.600006 0.630798
0.167816 0.599335 0.634125
0.197449 0.601227 0.640747
0.387634 0.644989 0.674072
0.535767 0.677338 0.703674
0.666046 0.702515 0.727966
0.785248 0.686676 0.728790
0.212646 0.731781 0.721252
0.212555 0.731537 0.722107
0.211151 0.727386 0.721405
0.223145 0.730591 0.725677
0.381104 0.765045 0.752533
0.535828 0.796234 0.778137
0.671143 0.826080 0.811676
0.789856 0.848206 0.835114
0.245422 0.828430 0.802124
0.245941 0.830017 0.799835
0.245422 0.828430 0.800385
0.245514 0.826996 0.804047
0.388550 0.859070 0.828064
0.533356 0.892609 0.855682
0.673798 0.924774 0.885864
0.792267 0.950256 0.914276
0.016937 0.135468 0.248444
0.018433 0.141815 0.272339
0.018463 0.141846 0.288605
0.174164 0.147461 0.335876
0.304108 0.157867 0.374908
0.427185 0.166870 0.398987
0.528564 0.175446 0.407318
0.624054 0.189178 0.420135
0.031158 0.185059 0.331696
0.030426 0.183044 0.333160
0.028564 0.177521 0.344574
0.174133 0.191742 0.385529
0.327484 0.197021 0.422638
0.445526 0.204193 0.449097
0.551025 0.204102 0.448700
0.644714 0.210266 0.450653
0.051849 0.242126 0.410583
0.050690 0.238892 0.406952
0.049957 0.236938 0.418335
0.195374 0.261322 0.453583
0.352448 0.271881 0.482056
0.470093 0.271698 0.505280
0.579376 0.261139 0.502747
0.676727 0.254425 0.495300
0.086121 0.359253 0.518677
0.084747 0.355225 0.514954
0.082581 0.348999 0.516205
0.200409 0.371674 0.541260
0.374512 0.405945 0.576355
0.504974 0.407074 0.594360
0.616058 0.397491 0.600372
0.722260 0.358215 0.579834
0.130341 0.489227 0.618011
0.130432 0.489471 0.612762
0.129822 0.487640 0.619659
0.171265 0.493011 0.629944
0.371918 0.534973 0.666473
0.523804 0.565582 0.697296
0.648987 0.566620 0.708496
0.762848 0.537567 0.705994
0.174438 0.618683 0.709045
0.173584 0.616058 0.707153
0.173889 0.617065 0.714142
0.173004 0.614349 0.713898
0.359894 0.655579 0.749481
0.522583 0.691162 0.776062
0.660522 0.715698 0.805389
0.780243 0.719055 0.817993
0.214874 0.737335 0.791779
0.215240 0.738434 0.799011
0.215210 0.738373 0.796112
0.214478 0.736206 0.795502
0.347717 0.764923 0.822449
0.515869 0.799957 0.851013
0.655731 0.830780 0.877899
0.786133 0.861053 0.908997
0.240082 0.811523 0.862030
0.240051 0.811432 0.863495
0.239929 0.811035 0.864410
0.240021 0.811401 0.862701
0.351685 0.838318 0.882751
0.517517 0.878021 0.914337
0.664917 0.915131 0.935577
0.798706 0.949402 0.959961
0.026520 0.171265 0.316254
0.029144 0.179291 0.338623
0.027557 0.174469 0.347351
0.076355 0.181793 0.393158
0.293945 0.199951 0.445709
0.415192 0.204468 0.476501
0.521240 0.214966 0.501160
0.629639 0.221893 0.512878
0.041046 0.212494 0.391876
0.040039 0.209778 0.394287
0.039459 0.208069 0.406158
0.083710 0.212769 0.438538
0.296661 0.233856 0.484589
0.427246 0.231354 0.507324
0.542145 0.242371 0.538940
0.641602 0.244202 0.541534
0.059174 0.263672 0.476105
0.056793 0.255585 0.464661
0.056183 0.253845 0.475677
0.101013 0.259857 0.499329
0.320526 0.293671 0.541992
0.452393 0.291901 0.560883
0.566406 0.292847 0.585968
0.669769 0.288025 0.589691
0.090576 0.372375 0.577728
0.088898 0.367462 0.575531
0.087433 0.363251 0.579834
0.116730 0.362488 0.591431
0.340698 0.409271 0.637909
0.487549 0.420197 0.661530
0.608459 0.413269 0.673706
0.711884 0.392883 0.672485
0.137878 0.511200 0.689056
0.135406 0.504059 0.684326
0.135193 0.503448 0.689636
0.137054 0.496002 0.692139
0.343079 0.539612 0.732056
0.501740 0.570618 0.766693
0.641754 0.584045 0.788696
0.756165 0.570496 0.795837
0.181824 0.640350 0.787994
0.181152 0.638275 0.788544
0.179718 0.634125 0.783752
0.178619 0.630829 0.789215
0.325256 0.660614 0.816376
0.500854 0.698578 0.848297
0.653809 0.729340 0.878296
0.776947 0.741608 0.898865
0.221649 0.757233 0.863708
0.220734 0.754547 0.861938
0.220917 0.755035 0.863647
0.220825 0.754730 0.867065
0.318542 0.776733 0.887451
0.498596 0.818909 0.914734
0.653992 0.850311 0.937408
0.785278 0.876282 0.965424
0.239410 0.809387 0.870117
0.239441 0.809509 0.869720
0.239410 0.809418 0.869995
0.249664 0.812683 0.868866
0.410614 0.851807 0.895844
0.563324 0.889679 0.921112
0.713318 0.927246 0.946930
0.852570 0.962494 0.971863
0.038269 0.204926 0.381592
0.040466 0.210907 0.403259
0.039673 0.208740 0.417755
0.041168 0.205292 0.444061
0.267059 0.243225 0.514130
0.403168 0.241577 0.542816
0.518768 0.250732 0.574463
0.622925 0.261353 0.598022
0.051178 0.240295 0.456757
0.050140 0.237396 0.455048
0.050018 0.237091 0.469482
0.047516 0.230316 0.490234
0.263733 0.270447 0.546906
0.412201 0.271667 0.577820
0.525604 0.274994 0.604187
0.633881 0.282928 0.628571
0.064484 0.283264 0.522095
0.063019 0.277771 0.518311
0.063293 0.278839 0.533569
0.061768 0.268738 0.543732
0.273346 0.313171 0.595886
0.432831 0.321381 0.630249
0.555725 0.317688 0.650604
0.659698 0.320190 0.667969
0.092865 0.379272 0.626831
0.091644 0.375671 0.624268
0.091675 0.375702 0.633270
0.090363 0.371887 0.647186
0.301758 0.410553 0.686584
0.466858 0.430817 0.719604
0.591339 0.419586 0.729034
0.692932 0.405640 0.734741
0.139740 0.516785 0.745972
0.138458 0.512970 0.744385
0.137451 0.510040 0.748291
0.136841 0.508362 0.758301
0.304230 0.541199 0.787872
0.484436 0.576385 0.823608
0.629181 0.592590 0.851501
0.745453 0.576294 0.856323
0.185760 0.651764 0.850983
0.185089 0.649872 0.849152
0.184326 0.647736 0.851654
0.182922 0.643433 0.855896
0.285400 0.659546 0.875244
0.483612 0.704102 0.906921
0.637848 0.734711 0.944641
0.771332 0.758362 0.970215
0.227722 0.775055 0.871796
0.228241 0.776489 0.871735
0.227356 0.774017 0.871857
0.233734 0.773071 0.873169
0.371582 0.801300 0.896271
0.531555 0.837097 0.923309
0.680328 0.869995 0.949097
0.812164 0.894684 0.973022
0.239655 0.810211 0.867432
0.239777 0.810547 0.866333
0.239746 0.810486 0.866516
0.339722 0.834747 0.883057
0.481049 0.869904 0.904968
0.624725 0.905670 0.929260
0.776886 0.943268 0.958282
0.919128 0.979401 0.984192
