滤镜资源/Professional Luts Collection/Triune-Digital-Cinematic-LUTs/3D LUTs (CUBE)/STANDARD/The Matrix - Rec709.cube
#Created by Benjamin (IWLTBAP) : http://luts.iwltbap.com
#Copyright: (C) Copyright 2016 Triune Films and IWLTBAP
TITLE "Blockbuster LUTs Pack (Rec.709)"
#LUT size
LUT_3D_SIZE 32
#LUT data points
0.003937 0.000000 0.007843
0.023773 0.000000 0.007843
0.039459 0.000000 0.007843
0.051727 0.000000 0.008209
0.067688 0.000519 0.012268
0.084259 0.003937 0.016327
0.104248 0.004669 0.020355
0.129028 0.007843 0.024414
0.156982 0.011780 0.028473
0.184937 0.012909 0.032501
0.216827 0.016937 0.036560
0.248688 0.020996 0.043152
0.282074 0.027466 0.048584
0.318024 0.033020 0.052612
0.356079 0.040985 0.056671
0.393768 0.048950 0.062744
0.435699 0.056915 0.068695
0.477448 0.068817 0.072754
0.517273 0.076782 0.076782
0.557129 0.084747 0.080841
0.596985 0.095276 0.086273
0.634155 0.104614 0.090210
0.672760 0.116516 0.096893
0.705750 0.124481 0.100952
0.737640 0.136383 0.108917
0.769531 0.144348 0.112976
0.798096 0.155609 0.120941
0.829346 0.164215 0.128906
0.857300 0.172180 0.136871
0.881592 0.180145 0.144836
0.909424 0.191895 0.152802
0.933319 0.200012 0.160797
0.003937 0.011902 0.007843
0.015930 0.012024 0.011780
0.031738 0.012024 0.012024
0.043884 0.012024 0.016205
0.060211 0.015808 0.019745
0.080200 0.015930 0.023651
0.104095 0.016571 0.027588
0.129028 0.019867 0.028320
0.159882 0.020874 0.032379
0.188873 0.024933 0.036438
0.216827 0.028961 0.040466
0.250092 0.035553 0.047058
0.284607 0.040863 0.050995
0.321930 0.047302 0.054901
0.360138 0.053009 0.058838
0.397827 0.060974 0.062744
0.441498 0.068939 0.068573
0.481476 0.078949 0.070587
0.521332 0.088684 0.076660
0.561188 0.096771 0.080841
0.600891 0.108673 0.084900
0.638214 0.116638 0.088928
0.674011 0.128540 0.094238
0.709686 0.139404 0.100952
0.741577 0.148376 0.108917
0.769531 0.160278 0.112976
0.801392 0.168243 0.120941
0.829346 0.176208 0.128906
0.857697 0.187592 0.136871
0.885254 0.196075 0.144836
0.909424 0.204041 0.152802
0.933319 0.212006 0.160797
0.004181 0.024048 0.012024
0.015930 0.024048 0.012024
0.031891 0.024048 0.015686
0.043762 0.027954 0.019989
0.059845 0.027954 0.027466
0.076416 0.031891 0.028076
0.100311 0.031891 0.031616
0.124847 0.035797 0.035553
0.152802 0.036804 0.036560
0.184692 0.040863 0.040344
0.216553 0.044891 0.044403
0.252625 0.048950 0.047302
0.286011 0.053009 0.051239
0.324463 0.060974 0.055145
0.362030 0.068939 0.058838
0.401886 0.076904 0.062744
0.445435 0.084900 0.066681
0.485291 0.092865 0.070587
0.525391 0.100830 0.076782
0.564972 0.112701 0.080841
0.604828 0.120941 0.084900
0.640747 0.132568 0.090210
0.676666 0.144470 0.096893
0.709686 0.155334 0.100952
0.741577 0.164337 0.108917
0.773438 0.172302 0.116882
0.801392 0.184174 0.120941
0.830109 0.192169 0.128906
0.857697 0.200134 0.136871
0.885529 0.211761 0.144836
0.909424 0.220001 0.152802
0.933319 0.227966 0.160797
0.008209 0.039978 0.019989
0.019867 0.040100 0.016052
0.032013 0.040344 0.016052
0.047821 0.043884 0.019989
0.060333 0.044281 0.027832
0.080078 0.047821 0.031738
0.100311 0.048584 0.035675
0.124207 0.052612 0.039581
0.148132 0.057037 0.043518
0.176727 0.061096 0.047424
0.208588 0.065155 0.051361
0.245392 0.069183 0.051727
0.281342 0.073608 0.055664
0.321167 0.081207 0.059204
0.361389 0.085632 0.060974
0.405182 0.093231 0.064636
0.445435 0.101196 0.068695
0.487427 0.110962 0.072754
0.529053 0.121063 0.076782
0.568909 0.129028 0.082367
0.604828 0.140930 0.086273
0.644653 0.151184 0.090576
0.677795 0.160797 0.096893
0.713593 0.172302 0.102325
0.742828 0.180634 0.108917
0.773438 0.192169 0.116882
0.805328 0.200134 0.124847
0.833282 0.208099 0.129272
0.861237 0.216431 0.136871
0.885895 0.227966 0.144836
0.909790 0.235931 0.152802
0.933319 0.244263 0.160797
0.012268 0.060333 0.027954
0.024170 0.060333 0.023895
0.036041 0.060852 0.020355
0.052124 0.064270 0.024048
0.068176 0.064758 0.027954
0.084106 0.068176 0.032501
0.103973 0.072113 0.040466
0.124207 0.076538 0.047577
0.148132 0.080444 0.051483
0.172668 0.085510 0.055420
0.200623 0.092224 0.059326
0.232513 0.097534 0.063263
0.269318 0.103973 0.063751
0.306885 0.109558 0.067169
0.350769 0.113586 0.067169
0.396698 0.121552 0.071106
0.442017 0.126129 0.071594
0.486420 0.134094 0.075531
0.528046 0.143829 0.081207
0.568390 0.153442 0.085266
0.604828 0.164825 0.090698
0.644653 0.172791 0.094635
0.680603 0.183563 0.100830
0.713593 0.192657 0.104858
0.745483 0.200623 0.112854
0.774689 0.208588 0.117401
0.805328 0.216583 0.124847
0.833771 0.227966 0.132843
0.861603 0.236420 0.140808
0.889191 0.244385 0.148773
0.913361 0.252380 0.153320
0.937256 0.263763 0.161285
0.020233 0.084869 0.035919
0.028320 0.084991 0.032013
0.040344 0.088806 0.028076
0.056305 0.088806 0.028076
0.072235 0.092712 0.028076
0.092102 0.093353 0.032623
0.108032 0.097412 0.043884
0.128784 0.101440 0.051605
0.151672 0.108795 0.056549
0.172028 0.116241 0.060577
0.199860 0.121429 0.064636
0.228455 0.129395 0.068695
0.260345 0.137360 0.072723
0.293213 0.145355 0.079681
0.333069 0.150024 0.081451
0.376831 0.157990 0.083618
0.420654 0.165344 0.087524
0.465942 0.171783 0.091461
0.512085 0.177979 0.094757
0.558289 0.185333 0.095367
0.602173 0.193298 0.098663
0.644043 0.200623 0.101318
0.679962 0.208588 0.102600
0.713593 0.216583 0.109436
0.745483 0.224548 0.114349
0.777374 0.232513 0.121429
0.805939 0.240479 0.129425
0.833771 0.248444 0.136749
0.861603 0.256409 0.141418
0.889435 0.264374 0.149384
0.913361 0.276276 0.157379
0.937256 0.284241 0.164703
0.028961 0.117523 0.044647
0.040100 0.120789 0.040619
0.048828 0.121429 0.036804
0.064270 0.124969 0.036041
0.080200 0.125366 0.036041
0.096130 0.129150 0.039215
0.115997 0.130035 0.043884
0.135864 0.137115 0.051849
0.155975 0.141296 0.059845
0.176727 0.149261 0.067413
0.200623 0.154083 0.072601
0.227692 0.162048 0.079193
0.257050 0.170013 0.084625
0.288910 0.177979 0.088684
0.321808 0.185944 0.094879
0.358856 0.193909 0.099548
0.402802 0.201904 0.103485
0.446716 0.209869 0.105621
0.493774 0.215546 0.107391
0.539917 0.221893 0.111328
0.586243 0.227325 0.111328
0.629364 0.233154 0.115234
0.671234 0.239075 0.118011
0.707153 0.245148 0.122070
0.741577 0.250092 0.125366
0.773438 0.257172 0.130920
0.805328 0.265137 0.137390
0.833771 0.273102 0.141418
0.861603 0.281097 0.149384
0.889435 0.292206 0.156616
0.913361 0.300171 0.161530
0.937256 0.308167 0.168640
0.044891 0.157349 0.055786
0.052002 0.157501 0.051849
0.060211 0.161285 0.048584
0.072235 0.162170 0.047943
0.085144 0.165192 0.044006
0.104095 0.166077 0.044006
0.123962 0.169891 0.044006
0.144714 0.173920 0.047943
0.164703 0.177979 0.059845
0.184692 0.185059 0.067810
0.208588 0.190002 0.075775
0.232513 0.197968 0.083740
0.257935 0.205933 0.091705
0.288910 0.213013 0.096649
0.320801 0.220978 0.104614
0.356598 0.228973 0.108673
0.391663 0.236938 0.115479
0.433411 0.244904 0.119415
0.477173 0.252869 0.123322
0.522461 0.257812 0.127258
0.567749 0.264893 0.129791
0.611542 0.269836 0.131165
0.655304 0.274994 0.135101
0.693115 0.281830 0.138000
0.731079 0.286774 0.142059
0.766998 0.290680 0.142944
0.799622 0.297913 0.146851
0.828979 0.304993 0.153320
0.860352 0.309052 0.157379
0.889191 0.317017 0.161682
0.913361 0.324097 0.168488
0.937256 0.332062 0.172546
0.056915 0.198212 0.067688
0.064880 0.201141 0.063751
0.072876 0.202148 0.059845
0.084106 0.205048 0.056549
0.096130 0.206055 0.055908
0.112091 0.209595 0.052002
0.131927 0.212891 0.052002
0.151794 0.213898 0.052002
0.172668 0.217834 0.055908
0.196442 0.224670 0.063873
0.216553 0.228821 0.072113
0.240479 0.236420 0.083740
0.265900 0.240845 0.092712
0.293213 0.248810 0.101318
0.324707 0.256775 0.110809
0.357605 0.263885 0.116638
0.393433 0.268799 0.124603
0.430389 0.276794 0.128662
0.467316 0.284760 0.136627
0.510071 0.292725 0.140686
0.552826 0.300690 0.143188
0.596588 0.305756 0.147125
0.639343 0.312714 0.151031
0.679199 0.317780 0.153961
0.715118 0.324738 0.157990
0.751068 0.329773 0.159882
0.786987 0.334473 0.162811
0.820496 0.338379 0.166718
0.855286 0.342316 0.167725
0.884521 0.346222 0.170654
0.912323 0.352936 0.174561
0.936249 0.358002 0.178497
0.072876 0.240967 0.076782
0.076904 0.244904 0.075653
0.084869 0.245148 0.071716
0.096008 0.248810 0.067810
0.108032 0.248810 0.067810
0.123962 0.252747 0.063873
0.139893 0.253510 0.060333
0.159760 0.256653 0.059967
0.180634 0.260590 0.059967
0.204559 0.261719 0.061096
0.228455 0.268433 0.069183
0.249573 0.272339 0.083740
0.276276 0.276642 0.092102
0.304108 0.284119 0.103607
0.329773 0.288666 0.113342
0.361664 0.296631 0.123474
0.394440 0.304626 0.131439
0.433289 0.312592 0.136627
0.470215 0.317780 0.144592
0.508789 0.326996 0.151306
0.545990 0.336487 0.156616
0.584717 0.342926 0.160645
0.626190 0.349640 0.165833
0.667175 0.354706 0.169891
0.703125 0.360535 0.173950
0.739044 0.365723 0.176849
0.774963 0.372528 0.178741
0.808594 0.376587 0.182678
0.840485 0.380646 0.186584
0.872375 0.385834 0.190247
0.900452 0.388733 0.191650
0.928284 0.393921 0.194427
0.084869 0.280823 0.087524
0.092712 0.284760 0.084747
0.099548 0.284760 0.083374
0.108795 0.288666 0.079681
0.119934 0.288666 0.075775
0.135864 0.292603 0.075775
0.149139 0.292603 0.071838
0.168610 0.296509 0.067932
0.188599 0.297516 0.063995
0.212524 0.301575 0.067810
0.236420 0.304352 0.071838
0.261597 0.309662 0.079834
0.288147 0.313721 0.091705
0.313721 0.320038 0.103607
0.341675 0.324463 0.115479
0.373535 0.332428 0.125366
0.401520 0.340424 0.136627
0.435547 0.347504 0.144592
0.473114 0.353699 0.152557
0.511322 0.360413 0.160522
0.548645 0.368378 0.164581
0.584442 0.376343 0.172546
0.621765 0.384308 0.176605
0.656433 0.392273 0.182922
0.692352 0.397583 0.186829
0.727020 0.402405 0.190765
0.762939 0.408356 0.194672
0.796722 0.412384 0.198608
0.828583 0.416443 0.202515
0.860474 0.420471 0.206207
0.891083 0.424530 0.210236
0.919037 0.428589 0.210358
0.099426 0.322052 0.099426
0.104858 0.324585 0.095520
0.112823 0.324829 0.091583
0.120789 0.328522 0.088684
0.131805 0.329010 0.087677
0.145203 0.332428 0.083740
0.161163 0.332428 0.083740
0.180511 0.336365 0.079834
0.200500 0.337738 0.074890
0.220490 0.341400 0.071991
0.248322 0.345459 0.071991
0.273621 0.348114 0.078430
0.301453 0.352173 0.089172
0.325592 0.357605 0.099945
0.353546 0.361664 0.113342
0.384918 0.368225 0.127380
0.414795 0.375580 0.139282
0.445312 0.381653 0.148651
0.478577 0.389618 0.157501
0.514008 0.396210 0.168488
0.549927 0.404175 0.175079
0.587097 0.410858 0.180511
0.622894 0.416199 0.188477
0.654785 0.424164 0.192535
0.686676 0.432129 0.200500
0.721069 0.436157 0.204559
0.752960 0.440857 0.208588
0.784821 0.446167 0.214050
0.819244 0.450073 0.218079
0.848846 0.452606 0.220734
0.880463 0.456543 0.222382
0.908417 0.460449 0.226318
0.112823 0.364441 0.108917
0.120789 0.364441 0.107391
0.127258 0.365967 0.103485
0.135620 0.368347 0.099548
0.144714 0.372284 0.096649
0.157227 0.372284 0.095642
0.173187 0.373810 0.091705
0.192413 0.376190 0.091705
0.211365 0.380127 0.087799
0.232361 0.381653 0.083862
0.256287 0.385315 0.079956
0.284119 0.389343 0.079956
0.313446 0.391876 0.087799
0.341278 0.395935 0.099670
0.369110 0.401489 0.111816
0.396942 0.407562 0.125366
0.426819 0.412018 0.139282
0.458710 0.417572 0.151184
0.489075 0.424042 0.163055
0.520935 0.432007 0.172546
0.552826 0.439972 0.180511
0.589752 0.444000 0.188477
0.625702 0.450714 0.196472
0.658691 0.456024 0.203033
0.689056 0.460968 0.208466
0.718536 0.468048 0.216431
0.747131 0.472717 0.220490
0.778381 0.478546 0.225037
0.810242 0.480560 0.230469
0.840607 0.484497 0.234406
0.872498 0.488403 0.238312
0.900452 0.492340 0.242249
0.128784 0.404297 0.120941
0.135101 0.408203 0.119293
0.140778 0.408203 0.115356
0.148773 0.409851 0.111450
0.159515 0.412140 0.107513
0.171539 0.413757 0.104614
0.187469 0.416046 0.103607
0.204285 0.416931 0.100433
0.220978 0.419983 0.096405
0.244263 0.423889 0.094635
0.268188 0.425537 0.087921
0.293732 0.429199 0.087921
0.321564 0.431732 0.087921
0.353302 0.435669 0.095764
0.381256 0.439697 0.109406
0.410858 0.443756 0.125366
0.440735 0.447815 0.137390
0.470734 0.455261 0.151184
0.502594 0.459839 0.165344
0.532837 0.465393 0.176605
0.562439 0.471832 0.184570
0.592682 0.477142 0.194824
0.625702 0.483856 0.204437
0.658691 0.487915 0.212402
0.690582 0.491943 0.217316
0.720947 0.496765 0.224426
0.748779 0.502319 0.230743
0.778381 0.506378 0.236420
0.806335 0.510437 0.242493
0.834534 0.514465 0.246429
0.864532 0.518524 0.250336
0.892487 0.522583 0.254272
0.142944 0.448059 0.131165
0.148773 0.448059 0.128906
0.156738 0.448303 0.127014
0.164703 0.451965 0.123322
0.172668 0.452484 0.119415
0.185181 0.455902 0.115479
0.199371 0.455902 0.112579
0.217072 0.459808 0.111572
0.236176 0.459808 0.108398
0.256165 0.463745 0.104370
0.277924 0.467651 0.098541
0.305359 0.469055 0.095886
0.333557 0.471588 0.095886
0.365204 0.475494 0.095886
0.394928 0.479431 0.107635
0.425018 0.481323 0.125244
0.454773 0.485382 0.137390
0.484497 0.491180 0.151184
0.514618 0.495117 0.165344
0.544739 0.499664 0.178864
0.575836 0.503723 0.189392
0.603668 0.509033 0.200500
0.632507 0.512939 0.208466
0.660461 0.516876 0.216431
0.690582 0.520782 0.225311
0.722473 0.524719 0.232391
0.751038 0.530151 0.240356
0.778870 0.534210 0.244385
0.806335 0.538269 0.252380
0.834290 0.542297 0.256409
0.860474 0.548126 0.262360
0.886261 0.550415 0.268433
0.156738 0.487915 0.143066
0.164703 0.487915 0.140930
0.170776 0.487915 0.136871
0.178741 0.491821 0.132812
0.188599 0.491821 0.130798
0.199249 0.494476 0.127380
0.213135 0.495758 0.123474
0.229095 0.495758 0.120544
0.248932 0.499664 0.119537
0.268799 0.499664 0.115631
0.291962 0.503601 0.110443
0.317261 0.506989 0.104370
0.345215 0.509521 0.103851
0.377075 0.511444 0.103607
0.406952 0.515228 0.107635
0.438812 0.517365 0.117523
0.468842 0.519409 0.135498
0.498688 0.523468 0.149414
0.528290 0.527496 0.165344
0.556610 0.529663 0.178864
0.584564 0.533691 0.193298
0.612518 0.537750 0.204559
0.641632 0.541809 0.214539
0.668457 0.545837 0.224426
0.693359 0.549896 0.232391
0.722473 0.553955 0.240356
0.751038 0.557983 0.248322
0.782288 0.562042 0.256287
0.808594 0.566101 0.260345
0.834534 0.570129 0.268311
0.860352 0.574188 0.272369
0.886261 0.578217 0.278290
0.172668 0.523865 0.154968
0.178619 0.525757 0.151062
0.184692 0.525757 0.147125
0.192657 0.527771 0.144867
0.203033 0.527771 0.140808
0.212524 0.529694 0.136749
0.225189 0.531708 0.134613
0.241119 0.533600 0.131439
0.260986 0.534607 0.127533
0.281982 0.537537 0.127533
0.303864 0.538788 0.122345
0.329163 0.541443 0.116394
0.357117 0.543457 0.111816
0.387085 0.545380 0.111816
0.417206 0.549286 0.111816
0.448822 0.549286 0.115753
0.480713 0.553223 0.131561
0.512482 0.553345 0.149414
0.540314 0.557129 0.165344
0.568146 0.561066 0.181274
0.595978 0.564972 0.193298
0.621765 0.568909 0.205322
0.649597 0.569641 0.218475
0.677429 0.573700 0.229340
0.701324 0.577759 0.238342
0.728424 0.581787 0.246307
0.753082 0.585846 0.256287
0.782288 0.589905 0.264282
0.810242 0.593933 0.270721
0.834534 0.597992 0.276276
0.862366 0.602020 0.282501
0.886261 0.606079 0.288300
0.186462 0.557648 0.166870
0.192657 0.557648 0.164978
0.200653 0.561554 0.160919
0.208618 0.561554 0.156860
0.216583 0.561554 0.152832
0.228455 0.563721 0.148773
0.240356 0.565491 0.144714
0.255798 0.565491 0.140686
0.274017 0.569397 0.139404
0.294006 0.569397 0.137634
0.316650 0.570648 0.132446
0.341034 0.573334 0.128418
0.368988 0.577240 0.123718
0.396942 0.577240 0.119812
0.428833 0.580780 0.119812
0.460724 0.581177 0.123718
0.492615 0.584961 0.129669
0.524506 0.585083 0.149414
0.552460 0.589020 0.165344
0.580170 0.589264 0.181274
0.607971 0.592926 0.193298
0.632385 0.596863 0.208740
0.657562 0.600769 0.221252
0.685394 0.604706 0.233276
0.711456 0.605591 0.244415
0.737122 0.609619 0.252380
0.761047 0.613678 0.260345
0.784943 0.618225 0.270081
0.810242 0.621765 0.278046
0.834534 0.625824 0.284241
0.862366 0.629852 0.292236
0.886261 0.632141 0.298431
0.200653 0.589508 0.178741
0.208618 0.589508 0.176971
0.216583 0.593445 0.172943
0.224548 0.593445 0.168884
0.232513 0.593445 0.165344
0.244415 0.594055 0.161438
0.254761 0.597351 0.156738
0.269073 0.597351 0.153595
0.287659 0.601288 0.151306
0.307648 0.601288 0.148529
0.329926 0.602539 0.147369
0.353821 0.605194 0.140411
0.377747 0.608368 0.135620
0.408844 0.609131 0.132324
0.440735 0.610901 0.131683
0.470947 0.613037 0.131683
0.500854 0.613037 0.137634
0.532471 0.616974 0.145599
0.564331 0.616974 0.161438
0.592163 0.620880 0.181274
0.617706 0.621124 0.194702
0.643921 0.625183 0.209229
0.669464 0.628723 0.221252
0.693359 0.632660 0.234283
0.718048 0.636566 0.248444
0.745117 0.637451 0.258057
0.769012 0.641510 0.268311
0.789520 0.645538 0.276276
0.812897 0.649597 0.284241
0.838470 0.653656 0.292236
0.862366 0.656189 0.300201
0.886261 0.660095 0.308167
0.216583 0.621399 0.190643
0.224548 0.621399 0.189117
0.232269 0.623169 0.186707
0.236572 0.625305 0.182800
0.248444 0.625305 0.178864
0.258575 0.625305 0.174957
0.269073 0.629242 0.171021
0.284119 0.629242 0.167114
0.300964 0.631744 0.163177
0.320801 0.633148 0.160553
0.341919 0.633148 0.159271
0.365845 0.637085 0.156372
0.389740 0.637085 0.148407
0.420746 0.640991 0.143585
0.449341 0.640991 0.142059
0.480560 0.644409 0.142059
0.512482 0.644928 0.143585
0.542206 0.644928 0.151184
0.572327 0.648834 0.161438
0.600281 0.648834 0.177368
0.628235 0.652771 0.194702
0.653534 0.653015 0.209229
0.679840 0.657074 0.222382
0.703735 0.660614 0.237183
0.725250 0.664520 0.249207
0.750671 0.666046 0.261230
0.774567 0.669342 0.273254
0.797485 0.673370 0.284241
0.820892 0.677429 0.292236
0.841125 0.681488 0.300201
0.864777 0.684143 0.308167
0.886261 0.688049 0.316132
0.232513 0.653259 0.205078
0.240479 0.653259 0.202545
0.248199 0.653259 0.200897
0.252502 0.655029 0.196838
0.264404 0.657196 0.192810
0.272980 0.657196 0.188751
0.285004 0.659332 0.184692
0.297028 0.661102 0.179016
0.312958 0.661102 0.175079
0.333954 0.663635 0.172546
0.355347 0.665039 0.171173
0.379242 0.665039 0.167236
0.403168 0.668945 0.163330
0.429596 0.668945 0.156372
0.460571 0.672882 0.154083
0.492462 0.672882 0.152191
0.520966 0.674255 0.151550
0.552338 0.676788 0.155487
0.580292 0.676788 0.161682
0.608246 0.680603 0.177368
0.637573 0.680725 0.193298
0.664154 0.684631 0.209229
0.689331 0.684906 0.225189
0.713226 0.688568 0.237183
0.737122 0.692474 0.250092
0.760406 0.693878 0.265137
0.781036 0.697174 0.276398
0.804932 0.700317 0.288300
0.828857 0.701721 0.296265
0.848846 0.705627 0.305634
0.868958 0.709564 0.316132
0.890198 0.713470 0.324097
0.248444 0.682495 0.217072
0.256439 0.685150 0.216949
0.264130 0.685150 0.212921
0.268433 0.685150 0.208862
0.280334 0.686401 0.204803
0.288940 0.689056 0.201385
0.300964 0.689056 0.197479
0.312958 0.689056 0.192657
0.328918 0.692993 0.188629
0.347260 0.692993 0.184570
0.369904 0.694244 0.183044
0.391144 0.696899 0.180389
0.415039 0.696899 0.176361
0.441620 0.700836 0.170013
0.471222 0.700836 0.166107
0.500427 0.703979 0.166107
0.532349 0.704742 0.163452
0.560303 0.704742 0.163452
0.589905 0.708282 0.169647
0.617706 0.708679 0.177612
0.645416 0.709930 0.193298
0.672119 0.712585 0.209229
0.697296 0.712738 0.225189
0.721191 0.716522 0.237183
0.745117 0.720428 0.253143
0.769012 0.721710 0.265137
0.789001 0.725006 0.277802
0.812897 0.728271 0.289703
0.834167 0.729553 0.301208
0.856812 0.733215 0.312225
0.876801 0.737274 0.320190
0.896790 0.740051 0.328156
0.264404 0.713104 0.233032
0.272369 0.713104 0.229095
0.276398 0.714233 0.226318
0.284393 0.717010 0.222382
0.296265 0.717010 0.218475
0.304871 0.717010 0.214539
0.316895 0.718170 0.212646
0.328918 0.720947 0.206696
0.344849 0.720947 0.201660
0.360779 0.723206 0.197723
0.381897 0.724854 0.194946
0.405823 0.724854 0.193817
0.429718 0.727509 0.188354
0.453644 0.728790 0.184326
0.481476 0.729919 0.180267
0.510437 0.732697 0.178131
0.540314 0.732697 0.175323
0.568268 0.733856 0.175323
0.596222 0.736633 0.175323
0.625702 0.736633 0.185211
0.652130 0.737762 0.191010
0.677429 0.740540 0.205322
0.705261 0.741699 0.222382
0.729156 0.744476 0.237183
0.753082 0.745605 0.253143
0.776978 0.748779 0.265137
0.797607 0.752319 0.280579
0.820892 0.753448 0.293121
0.840851 0.756989 0.305115
0.862000 0.757385 0.317139
0.881989 0.761169 0.328156
0.900818 0.765228 0.336121
0.280334 0.741058 0.245026
0.288300 0.742065 0.244904
0.295013 0.744965 0.240875
0.300323 0.744965 0.236816
0.312225 0.744965 0.232758
0.320801 0.746002 0.228729
0.332825 0.748901 0.224670
0.346863 0.748901 0.220612
0.360779 0.749908 0.216583
0.374939 0.752808 0.210754
0.394928 0.752808 0.208496
0.417847 0.753845 0.205811
0.441742 0.756744 0.202911
0.465637 0.756744 0.196350
0.492340 0.759521 0.192291
0.520294 0.760651 0.190125
0.548279 0.760651 0.188110
0.576233 0.761688 0.187225
0.604187 0.764587 0.187225
0.632141 0.764587 0.189636
0.660095 0.765594 0.194702
0.685394 0.768494 0.205566
0.713104 0.769531 0.221252
0.737122 0.772430 0.237183
0.761047 0.772552 0.253143
0.784943 0.776337 0.265900
0.808472 0.777374 0.281097
0.828857 0.780792 0.293121
0.848846 0.781281 0.308411
0.868835 0.784943 0.320312
0.888947 0.788116 0.332184
0.908783 0.789124 0.344086
0.296265 0.769897 0.257935
0.304230 0.769897 0.257050
0.311951 0.772949 0.253143
0.316254 0.772949 0.249207
0.328156 0.773834 0.245300
0.336761 0.773834 0.242249
0.348755 0.776855 0.240601
0.363831 0.776855 0.234406
0.376709 0.777740 0.229614
0.388733 0.780792 0.224548
0.408600 0.780792 0.220490
0.430725 0.781677 0.218719
0.453766 0.783173 0.214813
0.477661 0.784698 0.212280
0.501587 0.785583 0.207336
0.528259 0.788635 0.203033
0.556244 0.788635 0.202148
0.584198 0.789520 0.200012
0.612152 0.789520 0.199127
0.640106 0.792542 0.201508
0.665527 0.793427 0.202148
0.693359 0.796082 0.212280
0.717285 0.796478 0.221497
0.745117 0.797363 0.237183
0.769012 0.800385 0.253143
0.792908 0.801270 0.269073
0.816833 0.804321 0.281097
0.836823 0.805206 0.296661
0.856812 0.808746 0.309052
0.876801 0.809113 0.324341
0.896790 0.812897 0.340027
0.916748 0.813049 0.355103
0.312225 0.797729 0.272980
0.320190 0.797729 0.272858
0.327911 0.800903 0.268829
0.332184 0.800903 0.264771
0.344086 0.801636 0.260712
0.355225 0.801636 0.256683
0.367859 0.802399 0.253387
0.379761 0.804810 0.248596
0.392670 0.805573 0.244537
0.404694 0.806702 0.238464
0.422638 0.808746 0.234528
0.442627 0.809479 0.230621
0.466522 0.809479 0.228333
0.489685 0.812653 0.226685
0.513580 0.813416 0.224182
0.537506 0.813416 0.216187
0.564209 0.815430 0.214172
0.592163 0.816589 0.214172
0.620117 0.817322 0.214172
0.645691 0.817322 0.214172
0.673492 0.820496 0.214172
0.700073 0.821259 0.217590
0.725250 0.821259 0.225555
0.749146 0.824432 0.237457
0.776855 0.825165 0.253143
0.800903 0.825165 0.269073
0.824799 0.829102 0.284241
0.844788 0.829102 0.297028
0.867950 0.833008 0.315765
0.887909 0.833008 0.331818
0.908051 0.836945 0.351166
0.924744 0.836945 0.367126
0.328156 0.825562 0.285645
0.336121 0.825562 0.285004
0.343842 0.825562 0.281097
0.348145 0.825928 0.277161
0.360016 0.828857 0.273254
0.371918 0.829468 0.269958
0.383820 0.829468 0.268555
0.395691 0.829468 0.264526
0.408600 0.832764 0.258179
0.420624 0.833405 0.252502
0.436554 0.833405 0.248444
0.456421 0.836700 0.245789
0.478424 0.837311 0.241882
0.501709 0.837311 0.240234
0.522308 0.837311 0.236176
0.546234 0.840607 0.230743
0.572174 0.841248 0.228088
0.600128 0.841248 0.226196
0.625824 0.843536 0.226196
0.653656 0.844543 0.226196
0.680084 0.845154 0.226196
0.705383 0.845154 0.226196
0.732697 0.848450 0.229614
0.757111 0.849091 0.238220
0.781036 0.849091 0.253143
0.808105 0.852997 0.269073
0.832123 0.852997 0.288300
0.856049 0.852997 0.304230
0.876678 0.856537 0.327026
0.900208 0.856934 0.346985
0.920044 0.857422 0.363708
0.936615 0.860840 0.379761
0.344086 0.849457 0.300964
0.352051 0.852875 0.300812
0.359772 0.852875 0.296783
0.364075 0.853394 0.292725
0.375977 0.853394 0.288666
0.387848 0.853394 0.285278
0.399750 0.856812 0.281342
0.411652 0.857300 0.277435
0.424530 0.857300 0.273499
0.436554 0.857300 0.268433
0.452484 0.860718 0.262238
0.469818 0.861237 0.258331
0.490326 0.861237 0.256287
0.512085 0.862885 0.253906
0.534210 0.865143 0.250488
0.557617 0.865143 0.246063
0.582062 0.865143 0.242645
