滤镜资源/Professional Luts Collection/Triune-Digital-Cinematic-LUTs/3D LUTs (CUBE)/STANDARD/The Book of Eli - Rec709.cube
#Created by Benjamin (IWLTBAP) : http://luts.iwltbap.com
#Copyright: (C) Copyright 2016 Triune Films and IWLTBAP
TITLE "Blockbuster LUTs Pack (Rec.709)"
#LUT size
LUT_3D_SIZE 5
#LUT data points
DOMAIN_MIN 0.000000 0.000000 0.000000
DOMAIN_MAX 0.903226 0.903226 0.903226
0.031799 0.029999 0.027466
0.099976 0.039642 0.035645
0.173859 0.052399 0.045349
0.258423 0.069794 0.062775
0.378967 0.092560 0.083344
0.072998 0.120453 0.056000
0.144531 0.138580 0.074402
0.221832 0.151825 0.087769
0.327515 0.177216 0.116486
0.470673 0.212250 0.140594
0.119995 0.225128 0.097351
0.193359 0.258301 0.127533
0.285339 0.284790 0.146423
0.437378 0.339813 0.191498
0.620636 0.418793 0.269348
0.131073 0.372650 0.159576
0.249390 0.414642 0.186523
0.411285 0.482178 0.251617
0.580048 0.547913 0.323364
0.734375 0.617676 0.408142
0.226837 0.532135 0.238586
0.354706 0.570892 0.281982
0.574768 0.682800 0.413940
0.697144 0.725372 0.468781
0.813293 0.771973 0.534546
0.037109 0.034698 0.085236
0.123871 0.063232 0.119293
0.202301 0.079071 0.133820
0.297668 0.098267 0.151520
0.419708 0.120300 0.173706
0.077484 0.127197 0.130280
0.160156 0.155579 0.162476
0.243256 0.168396 0.169769
0.363708 0.199860 0.204590
0.533569 0.255066 0.258759
0.128052 0.237976 0.175110
0.211884 0.277679 0.214752
0.339386 0.338837 0.262238
0.487427 0.385284 0.312805
0.649658 0.447632 0.375763
0.145966 0.391205 0.248352
0.242981 0.414490 0.267822
0.451019 0.523926 0.372467
0.602844 0.573456 0.427185
0.749237 0.636902 0.503082
0.219849 0.550201 0.338623
0.360657 0.588287 0.378418
0.555908 0.675201 0.474274
0.709930 0.745239 0.561859
0.816254 0.781219 0.607605
0.052307 0.050537 0.171570
0.161316 0.100464 0.232208
0.275391 0.138672 0.274628
0.368530 0.146149 0.281464
0.504608 0.175964 0.312866
0.097412 0.147552 0.227478
0.193787 0.190613 0.271545
0.303802 0.221893 0.307800
0.439697 0.257477 0.342712
0.596130 0.310516 0.395233
0.141815 0.258270 0.275269
0.238037 0.320251 0.332245
0.383575 0.378510 0.388092
0.533112 0.424591 0.428284
0.685852 0.482544 0.486633
0.153656 0.417053 0.352295
0.288818 0.471375 0.401764
0.495728 0.568878 0.500916
0.648529 0.620667 0.554382
0.766541 0.658844 0.599548
0.278687 0.601288 0.471588
0.407928 0.636658 0.507965
0.570648 0.699310 0.572296
0.732086 0.773804 0.657715
0.833984 0.803162 0.690765
0.072632 0.073578 0.266693
0.170959 0.119202 0.326721
0.359070 0.204620 0.426117
0.498657 0.233673 0.456573
0.572662 0.227844 0.442017
0.139374 0.193298 0.356262
0.246796 0.243744 0.408783
0.394958 0.303314 0.469238
0.573364 0.371338 0.533081
0.677094 0.389069 0.559937
0.187958 0.321503 0.415619
0.317993 0.408875 0.500183
0.458832 0.446991 0.529358
0.603882 0.493317 0.571869
0.731445 0.535828 0.616669
0.199707 0.464600 0.473969
0.367493 0.543365 0.548157
0.545044 0.613098 0.613373
0.675751 0.650787 0.654999
0.785522 0.684814 0.693359
0.310638 0.631256 0.573456
0.462524 0.682281 0.621582
0.610535 0.739197 0.679230
0.755127 0.802551 0.748322
0.865631 0.839478 0.783966
0.099701 0.099945 0.370392
0.184845 0.134338 0.419708
0.398438 0.235199 0.533630
0.568451 0.296417 0.601135
0.673004 0.315277 0.620209
0.197815 0.258087 0.498657
0.312958 0.306732 0.554047
0.457245 0.350250 0.590881
0.646057 0.436371 0.670715
0.756073 0.477753 0.708038
0.232788 0.404877 0.560394
0.407806 0.493835 0.648865
0.549988 0.532135 0.678772
0.666656 0.557892 0.707306
0.787140 0.603760 0.749298
0.264984 0.541290 0.615906
0.461823 0.623779 0.693146
0.602417 0.666534 0.736023
0.710571 0.688934 0.756805
0.814117 0.716675 0.784637
0.369507 0.674377 0.680573
0.515839 0.728546 0.728882
0.648651 0.780334 0.785126
0.776672 0.823944 0.829041
0.880096 0.854065 0.855316
