滤镜资源/Professional Luts Collection/Triune-Digital-Cinematic-LUTs/3D LUTs (CUBE)/STANDARD/The Matrix - Rec709.cube
#Created by Benjamin (IWLTBAP) : http://luts.iwltbap.com
#Copyright: (C) Copyright 2016 Triune Films and IWLTBAP
TITLE "Blockbuster LUTs Pack (Rec.709)"
#LUT size
LUT_3D_SIZE 5
#LUT data points
DOMAIN_MIN 0.000000 0.000000 0.000000
DOMAIN_MAX 0.903226 0.903226 0.903226
0.003937 0.000000 0.007843
0.129028 0.007843 0.024414
0.356079 0.040985 0.056671
0.634155 0.104614 0.090210
0.857300 0.172180 0.136871
0.044891 0.157349 0.055786
0.144714 0.173920 0.047943
0.320801 0.220978 0.104614
0.611542 0.269836 0.131165
0.860352 0.309052 0.157379
0.142944 0.448059 0.131165
0.217072 0.459808 0.111572
0.394928 0.479431 0.107635
0.603668 0.509033 0.200500
0.806335 0.538269 0.252380
0.248444 0.682495 0.217072
0.312958 0.689056 0.192657
0.471222 0.700836 0.166107
0.672119 0.712585 0.209229
0.834167 0.729553 0.301208
0.360016 0.877289 0.316895
0.427582 0.881226 0.292480
0.546112 0.889069 0.265900
0.732330 0.892975 0.275269
0.904358 0.896912 0.359283
0.000000 0.011780 0.075378
0.100677 0.020477 0.127258
0.288544 0.069305 0.160400
0.601532 0.132965 0.197479
0.849854 0.183929 0.240601
0.020111 0.168243 0.159515
0.140778 0.177856 0.167358
0.417572 0.189606 0.171265
0.670349 0.244537 0.198730
0.874268 0.303864 0.241486
0.144714 0.449829 0.213135
0.224915 0.455902 0.232758
0.405792 0.477264 0.219208
0.645935 0.499939 0.268036
0.857697 0.520782 0.304230
0.252380 0.685150 0.293365
0.332581 0.689056 0.309052
0.468567 0.700836 0.271088
0.676025 0.712585 0.297272
0.852509 0.725616 0.365204
0.360016 0.877289 0.389252
0.440613 0.877289 0.401001
0.545349 0.889069 0.365326
0.734985 0.892975 0.383820
0.908295 0.896912 0.463501
0.000000 0.044891 0.154694
0.036163 0.055786 0.236664
0.285492 0.093719 0.283722
0.503479 0.176971 0.325623
0.769257 0.240601 0.375702
0.000000 0.205292 0.257172
0.095001 0.221863 0.276764
0.380493 0.217957 0.330780
0.618469 0.280701 0.355194
0.842010 0.337372 0.389618
0.117249 0.463745 0.367859
0.187836 0.469421 0.375702
0.385315 0.485107 0.383545
0.707397 0.483337 0.375702
0.910431 0.501190 0.401001
0.256287 0.686401 0.419739
0.328644 0.689056 0.435425
0.479431 0.696899 0.470703
0.690826 0.712585 0.440216
0.894745 0.716522 0.484253
0.363953 0.877289 0.504730
0.444153 0.878174 0.518646
0.586334 0.881226 0.549255
0.742828 0.889435 0.531952
0.912201 0.896912 0.606964
0.000000 0.099426 0.248444
0.000000 0.108551 0.315125
0.240570 0.141693 0.426697
0.528290 0.197479 0.473389
0.720062 0.285522 0.506012
0.000000 0.257172 0.345215
0.084106 0.272858 0.373932
0.241455 0.273743 0.477295
0.588867 0.316895 0.506897
0.784058 0.386597 0.540924
0.048431 0.488159 0.495117
0.142548 0.499939 0.506897
0.353058 0.515625 0.514740
0.681213 0.502960 0.567505
0.905640 0.514740 0.594055
0.201385 0.700836 0.598877
0.258057 0.704742 0.602783
0.407074 0.712585 0.610626
0.645935 0.720428 0.622406
0.927887 0.708679 0.614563
0.364838 0.881226 0.658569
0.432373 0.883881 0.674255
0.563171 0.885132 0.693481
0.740173 0.892090 0.701721
0.920441 0.896912 0.721832
0.000000 0.179626 0.356110
0.000000 0.187469 0.404053
0.107605 0.207458 0.551788
0.522583 0.238464 0.625427
0.751801 0.301575 0.669067
0.000000 0.319916 0.440216
0.095520 0.336487 0.468567
0.189606 0.351288 0.565338
0.531311 0.362183 0.666412
0.787994 0.412781 0.696533
0.014923 0.528259 0.587097
0.142548 0.540039 0.604919
0.301178 0.563568 0.635925
0.525635 0.548248 0.734863
0.849823 0.561798 0.745728
0.139923 0.729156 0.722198
0.217468 0.736115 0.733978
0.353424 0.747894 0.748383
0.589264 0.756622 0.772430
0.891724 0.733459 0.801514
0.258820 0.896515 0.818085
0.318146 0.896912 0.822021
0.457672 0.900818 0.829865
0.655670 0.908661 0.848572
0.907898 0.908661 0.857300
