滤镜资源/Professional Luts Collection/Lutify.me Professional/Alternative Process/Alexandrite.cube
# Created by: Lutify.me
# Copyright: (c) Copyright Lutify.me 2015
# Website: https://lutify.me
#LUT size
LUT_3D_SIZE 5
#LUT data points
0.000000 0.000000 0.000000
0.215424 0.000000 0.000000
0.468475 0.000000 0.000000
0.741455 0.000000 0.000000
1.000000 0.000000 0.000000
0.000000 0.233551 0.000000
0.201447 0.235779 0.000000
0.467163 0.236725 0.000000
0.738342 0.235321 0.000000
1.000000 0.230194 0.000000
0.000000 0.519592 0.000000
0.041687 0.520233 0.000000
0.442871 0.521179 0.000000
0.724518 0.521576 0.000000
1.000000 0.516693 0.000000
0.000000 0.791534 0.000000
0.000000 0.791290 0.000000
0.395782 0.790802 0.000000
0.708130 0.789124 0.000000
1.000000 0.782593 0.000000
0.000000 1.000000 0.034698
0.000000 1.000000 0.034729
0.406189 1.000000 0.041229
0.732452 1.000000 0.066498
1.000000 1.000000 0.130310
0.000000 0.000000 0.261017
0.198578 0.000000 0.258942
0.465210 0.000000 0.256104
0.739410 0.000000 0.253082
1.000000 0.000000 0.247864
0.000000 0.231567 0.261414
0.183655 0.233246 0.260437
0.463257 0.233032 0.257629
0.735565 0.231476 0.253357
1.000000 0.225159 0.247253
0.000000 0.518890 0.259033
0.006805 0.519318 0.258179
0.437347 0.518799 0.256714
0.721039 0.519440 0.252716
1.000000 0.514221 0.247101
0.000000 0.791077 0.260712
0.000000 0.790771 0.260071
0.387695 0.789490 0.259552
0.704956 0.787323 0.256378
1.000000 0.781006 0.251617
0.000000 1.000000 0.284790
0.000000 1.000000 0.284546
0.401398 1.000000 0.286011
0.730164 1.000000 0.287720
1.000000 1.000000 0.308044
0.000000 0.000000 0.563904
0.058197 0.000000 0.562073
0.440521 0.000000 0.557556
0.726746 0.000000 0.552551
1.000000 0.000000 0.546265
0.000000 0.224487 0.561584
0.043060 0.225311 0.560303
0.439545 0.222504 0.556915
0.723541 0.220428 0.551422
1.000000 0.211426 0.545074
0.000000 0.514862 0.555145
0.000000 0.515015 0.554169
0.413330 0.514862 0.551636
0.710297 0.514343 0.547882
1.000000 0.508667 0.542816
0.000000 0.788544 0.549957
0.000000 0.788300 0.549316
0.360291 0.787415 0.547607
0.697449 0.783295 0.545624
0.994446 0.777222 0.541565
0.000000 1.000000 0.555267
0.000000 1.000000 0.554871
0.384888 1.000000 0.554047
0.724121 1.000000 0.553497
0.998749 1.000000 0.559204
0.000000 0.000000 0.831604
0.000000 0.000000 0.829895
0.410522 0.000000 0.825104
0.712036 0.000000 0.818542
1.000000 0.000000 0.810455
0.000000 0.216370 0.827698
0.000000 0.215668 0.826233
0.409882 0.211334 0.822571
0.709564 0.209534 0.816010
1.000000 0.194092 0.807983
0.000000 0.509766 0.816650
0.000000 0.509705 0.815582
0.385559 0.509399 0.812988
0.700317 0.507690 0.808746
0.998840 0.501343 0.801239
0.000000 0.784515 0.803009
0.000000 0.784302 0.802277
0.339844 0.783325 0.800018
0.694153 0.779419 0.795959
0.991058 0.772919 0.790588
0.000000 1.000000 0.792145
0.000000 1.000000 0.791534
0.389282 1.000000 0.789703
0.725647 1.000000 0.786865
0.998352 1.000000 0.786224
0.000000 0.000000 1.000000
0.000000 0.000000 1.000000
0.432892 0.000000 1.000000
0.725464 0.000000 1.000000
1.000000 0.000000 1.000000
0.000000 0.215149 1.000000
0.000000 0.213135 1.000000
0.428741 0.207214 1.000000
0.724091 0.201965 1.000000
1.000000 0.183105 1.000000
0.000000 0.506866 1.000000
0.000000 0.506836 1.000000
0.407104 0.506317 1.000000
0.720032 0.503052 1.000000
1.000000 0.497253 1.000000
0.000000 0.781860 1.000000
0.000000 0.781555 1.000000
0.382019 0.780060 0.999969
0.718567 0.775146 0.998138
1.000000 0.769196 0.992645
0.000000 1.000000 0.990845
0.000000 1.000000 0.990234
0.444763 1.000000 0.988373
0.746735 1.000000 0.985321
1.000000 1.000000 0.986633
