滤镜资源/Professional Luts Collection/Lutify.me Professional/Alternative Process/Alexandrite.cube
# Created by: Lutify.me
# Copyright: (c) Copyright Lutify.me 2015
# Website: https://lutify.me
#LUT size
LUT_3D_SIZE 9
#LUT data points
0.000000 0.000000 0.000000
0.102234 0.000397 0.000000
0.215424 0.000000 0.000000
0.336212 0.000000 0.000000
0.468475 0.000000 0.000000
0.606415 0.000000 0.000000
0.741455 0.000000 0.000000
0.875793 0.000000 0.000000
1.000000 0.000000 0.000000
0.000000 0.109283 0.000366
0.095490 0.109528 0.000000
0.212891 0.110046 0.000000
0.335846 0.107971 0.000000
0.468903 0.098358 0.000000
0.606506 0.079468 0.000000
0.740967 0.061462 0.000000
0.875183 0.050385 0.000000
1.000000 0.024139 0.000000
0.000000 0.233551 0.000000
0.060577 0.234222 0.000000
0.201447 0.235779 0.000000
0.331421 0.237122 0.000000
0.467163 0.236725 0.000000
0.604523 0.235229 0.000000
0.738342 0.235321 0.000000
0.873108 0.235626 0.000000
1.000000 0.230194 0.000000
0.000000 0.375305 0.000000
0.000000 0.375946 0.000000
0.157013 0.377319 0.000000
0.313904 0.379211 0.000000
0.458008 0.380524 0.000000
0.597382 0.381500 0.000000
0.732269 0.382843 0.000000
0.869537 0.382568 0.000000
1.000000 0.378235 0.000000
0.000000 0.519592 0.000000
0.000000 0.519806 0.000000
0.041687 0.520233 0.000000
0.284149 0.520660 0.000000
0.442871 0.521179 0.000000
0.586548 0.521423 0.000000
0.724518 0.521576 0.000000
0.865723 0.520233 0.000000
1.000000 0.516693 0.000000
0.000000 0.656982 0.000000
0.000000 0.657013 0.000000
0.000000 0.657013 0.000000
0.246185 0.656982 0.000000
0.422699 0.657288 0.000000
0.572021 0.657623 0.000000
0.715363 0.657440 0.000000
0.861450 0.655731 0.000000
1.000000 0.652954 0.000000
0.000000 0.791534 0.000000
0.000000 0.791473 0.000000
0.000000 0.791290 0.000000
0.187775 0.791016 0.000000
0.395782 0.790802 0.000000
0.555847 0.790527 0.000000
0.708130 0.789124 0.000000
0.859039 0.786102 0.000000
1.000000 0.782593 0.000000
0.000000 0.915466 0.000000
0.000000 0.915283 0.000000
0.000000 0.914917 0.000000
0.134552 0.914185 0.000000
0.383392 0.912811 0.000000
0.554291 0.911163 0.000000
0.713165 0.908356 0.000000
0.864166 0.904388 0.000000
1.000000 0.900238 0.000000
0.000000 1.000000 0.034698
0.000000 1.000000 0.034698
0.000000 1.000000 0.034729
0.175781 1.000000 0.034576
0.406189 1.000000 0.041229
0.577148 1.000000 0.047516
0.732452 1.000000 0.066498
0.874542 1.000000 0.093750
1.000000 1.000000 0.130310
0.000000 0.000000 0.121063
0.095001 0.000000 0.119751
0.212463 0.000000 0.118317
0.335114 0.000000 0.116913
0.468170 0.000000 0.114838
0.606201 0.000000 0.111450
0.741180 0.000000 0.106781
0.875549 0.000000 0.099304
1.000000 0.000000 0.087219
0.000000 0.108093 0.120087
0.088226 0.108276 0.119598
0.210175 0.108429 0.118652
0.334595 0.106140 0.117188
0.468445 0.095917 0.114746
0.606171 0.076477 0.110840
0.740570 0.058044 0.105225
0.874878 0.046265 0.096924
1.000000 0.018463 0.084229
0.000000 0.233276 0.119202
0.048431 0.233917 0.118622
0.198517 0.234863 0.118103
0.330261 0.236206 0.115662
0.466675 0.235687 0.111908
0.604156 0.234131 0.106384
0.737946 0.234161 0.099274
0.872833 0.234283 0.089630
1.000000 0.228607 0.076050
0.000000 0.375153 0.111084
0.000000 0.375793 0.110474
0.152679 0.377075 0.108978
0.312592 0.378479 0.106476
0.457214 0.379852 0.101318
0.596710 0.380798 0.094849
0.731720 0.382111 0.087067
0.869141 0.381683 0.077271
1.000000 0.377197 0.065155
0.000000 0.519287 0.096527
0.000000 0.519501 0.095947
0.033203 0.519897 0.094604
0.282379 0.520050 0.092590
0.441803 0.520477 0.087646
0.585510 0.520813 0.081543
0.723724 0.520935 0.075378
0.865204 0.519531 0.066864
1.000000 0.515961 0.057343
0.000000 0.656738 0.087524
0.000000 0.656738 0.087067
0.000000 0.656738 0.085754
0.242615 0.656677 0.083557
0.421112 0.656586 0.080902
0.570801 0.657013 0.075165
0.714417 0.656891 0.069092
0.860779 0.655151 0.062958
1.000000 0.652374 0.054810
0.000000 0.791382 0.088501
0.000000 0.791351 0.088196
0.000000 0.791168 0.087311
0.181061 0.790894 0.085938
0.393890 0.790192 0.085968
0.554565 0.789886 0.081879
0.707214 0.788574 0.076324
0.858337 0.785614 0.071106
1.000000 0.782104 0.067719
0.000000 0.915344 0.113739
0.000000 0.915192 0.113617
0.000000 0.914764 0.113434
0.123077 0.914062 0.113098
0.381226 0.912445 0.114990
0.553223 0.910645 0.113525
0.712433 0.907867 0.109955
0.863525 0.903931 0.107025
1.000000 0.899841 0.106659
0.000000 1.000000 0.154053
0.000000 1.000000 0.154022
0.000000 1.000000 0.153931
0.169983 1.000000 0.153717
0.404846 1.000000 0.156708
0.576080 1.000000 0.157043
0.731873 1.000000 0.164337
0.874054 1.000000 0.177612
1.000000 1.000000 0.199402
0.000000 0.000000 0.261017
0.055481 0.000000 0.260132
0.198578 0.000000 0.258942
0.328705 0.000000 0.257538
0.465210 0.000000 0.256104
0.604218 0.000000 0.254639
0.739410 0.000000 0.253082
0.874176 0.000000 0.251038
1.000000 0.000000 0.247864
0.000000 0.104645 0.260712
0.046265 0.104736 0.260315
0.196411 0.104218 0.259735
0.328491 0.100830 0.258392
0.465515 0.089081 0.256836
0.604126 0.067749 0.255188
0.738708 0.049011 0.253387
0.873413 0.034760 0.251068
1.000000 0.005554 0.247681
0.000000 0.231567 0.261414
0.004181 0.232086 0.261169
0.183655 0.233246 0.260437
0.323914 0.233795 0.259491
0.463257 0.233032 0.257629
0.601471 0.231445 0.255585
0.735565 0.231476 0.253357
0.870972 0.231262 0.250702
1.000000 0.225159 0.247253
0.000000 0.374542 0.260681
0.000000 0.375122 0.260376
0.131226 0.376251 0.259613
0.305450 0.377258 0.258545
0.453217 0.378143 0.256927
0.593689 0.379059 0.254700
0.729279 0.380188 0.252411
0.867401 0.379547 0.249847
1.000000 0.374847 0.246765
0.000000 0.518890 0.259033
0.000000 0.519012 0.258789
0.006805 0.519318 0.258179
0.273041 0.519409 0.257172
0.437347 0.518799 0.256714
0.582001 0.519287 0.254639
0.721039 0.519440 0.252716
0.863403 0.517883 0.250183
1.000000 0.514221 0.247101
0.000000 0.656342 0.259399
0.000000 0.656342 0.259125
0.000000 0.656311 0.258575
0.230377 0.656189 0.257660
0.416016 0.655273 0.257751
0.567108 0.655609 0.256073
0.711761 0.655579 0.253693
0.858917 0.653809 0.251038
1.000000 0.651031 0.247894
0.000000 0.791077 0.260712
0.000000 0.790985 0.260498
0.000000 0.790771 0.260071
0.162231 0.790497 0.259369
0.387695 0.789490 0.259552
0.551270 0.788605 0.258850
0.704956 0.787323 0.256378
0.856628 0.784424 0.253784
1.000000 0.781006 0.251617
0.000000 0.914978 0.268219
0.000000 0.914825 0.268097
0.000000 0.914398 0.267822
0.105743 0.913666 0.267426
0.375427 0.911926 0.267944
0.550842 0.909515 0.268188
0.710785 0.906708 0.266174
0.862000 0.902893 0.264099
1.000000 0.898865 0.263367
0.000000 1.000000 0.284790
0.000000 1.000000 0.284698
0.000000 1.000000 0.284546
0.154999 1.000000 0.284302
0.401398 1.000000 0.286011
0.574005 1.000000 0.285614
0.730164 1.000000 0.287720
0.872803 1.000000 0.294830
1.000000 1.000000 0.308044
0.000000 0.000000 0.416229
0.000000 0.000000 0.415588
0.155792 0.000000 0.414398
0.309692 0.000000 0.412598
0.454956 0.000000 0.410553
0.597504 0.000000 0.408569
0.734222 0.000000 0.406616
0.870483 0.000000 0.404388
1.000000 0.000000 0.401367
0.000000 0.098907 0.415710
0.000000 0.098785 0.415283
0.154480 0.097626 0.414368
0.309967 0.091949 0.412994
0.455505 0.077087 0.410889
0.597473 0.051575 0.408813
0.733582 0.031250 0.406647
0.869812 0.014221 0.404236
1.000000 0.002197 0.401154
0.000000 0.228119 0.415283
0.000000 0.228638 0.414948
0.140656 0.229523 0.414154
0.305847 0.229401 0.413269
0.453644 0.228058 0.411011
0.595062 0.226227 0.408569
0.730560 0.226471 0.406250
0.867462 0.225891 0.403687
1.000000 0.219177 0.400665
0.000000 0.372314 0.413483
0.000000 0.372864 0.413239
0.067657 0.373871 0.412445
0.287384 0.374939 0.411133
0.443329 0.375427 0.409637
0.587067 0.376190 0.407227
0.724121 0.377350 0.405121
0.863861 0.376404 0.402771
1.000000 0.371460 0.399994
0.000000 0.517273 0.411133
0.000000 0.517426 0.410889
0.000000 0.517639 0.410217
0.253876 0.517670 0.409088
0.427307 0.517365 0.407623
0.575409 0.517151 0.406281
0.716278 0.517273 0.404297
0.860321 0.515442 0.401917
1.000000 0.511719 0.399200
0.000000 0.655182 0.409241
0.000000 0.655151 0.408997
0.000000 0.655090 0.408417
0.208160 0.654907 0.407440
0.405304 0.654358 0.406464
0.561066 0.653778 0.405701
0.707550 0.653717 0.403656
0.856140 0.651886 0.401123
1.000000 0.649139 0.398346
0.000000 0.790161 0.407654
0.000000 0.790070 0.407471
0.000000 0.789886 0.407013
0.125580 0.789581 0.406281
0.376434 0.788788 0.405548
0.545898 0.787079 0.405487
0.701752 0.785492 0.403839
0.854126 0.782684 0.401459
0.998016 0.779327 0.399445
0.000000 0.914124 0.410431
0.000000 0.913971 0.410309
0.000000 0.913544 0.410065
0.074005 0.912750 0.409607
0.365356 0.911163 0.409302
0.546814 0.908020 0.409882
0.708221 0.904968 0.408691
0.859558 0.901276 0.406860
0.999207 0.897339 0.405884
0.000000 1.000000 0.419861
0.000000 1.000000 0.419800
0.000000 1.000000 0.419556
0.123810 1.000000 0.419220
0.394440 1.000000 0.419861
0.571075 1.000000 0.420319
0.727234 1.000000 0.419342
0.870544 1.000000 0.423248
1.000000 1.000000 0.432098
0.000000 0.000000 0.563904
0.000000 0.000000 0.563324
0.058197 0.000000 0.562073
0.281403 0.000000 0.560211
0.440521 0.000000 0.557556
0.587677 0.000000 0.554962
0.726746 0.000000 0.552551
0.865540 0.000000 0.549713
1.000000 0.000000 0.546265
0.000000 0.091736 0.563080
0.000000 0.091187 0.562653
0.059875 0.088562 0.561615
0.282410 0.079834 0.560059
0.441315 0.061066 0.557465
0.587646 0.033905 0.554840
0.726166 0.011383 0.552338
0.864990 0.003052 0.549377
1.000000 0.000000 0.545898
0.000000 0.224487 0.561584
0.000000 0.224823 0.561218
0.043060 0.225311 0.560303
0.279755 0.224640 0.559021
0.439545 0.222504 0.556915
0.585297 0.220825 0.554108
0.723541 0.220428 0.551422
0.863098 0.218933 0.548370
1.000000 0.211426 0.545074
0.000000 0.369904 0.558563
0.000000 0.370331 0.558228
0.001312 0.371063 0.557373
0.261871 0.371826 0.556000
0.429413 0.371918 0.554779
0.577454 0.372437 0.552368
0.717682 0.373291 0.549713
0.859955 0.371948 0.546875
1.000000 0.366943 0.543976
0.000000 0.514862 0.555145
0.000000 0.514893 0.554840
0.000000 0.515015 0.554169
0.227325 0.514984 0.553040
0.413330 0.514862 0.551636
0.565643 0.514771 0.550079
0.710297 0.514343 0.547882
0.856476 0.512360 0.545410
1.000000 0.508667 0.542816
0.000000 0.653137 0.552429
0.000000 0.653137 0.552185
0.000000 0.653015 0.551605
0.173492 0.652893 0.550659
0.389832 0.652771 0.549377
0.551178 0.652496 0.547821
0.702179 0.651489 0.546295
0.852570 0.649506 0.543915
0.998260 0.646729 0.541504
0.000000 0.788544 0.549957
0.000000 0.788483 0.549774
0.000000 0.788300 0.549316
0.072571 0.787964 0.548615
0.360291 0.787415 0.547607
0.536896 0.785919 0.546570
0.697449 0.783295 0.545624
0.850677 0.780487 0.543518
0.994446 0.777222 0.541565
0.000000 0.912659 0.550598
0.000000 0.912476 0.550507
0.000000 0.912048 0.550201
0.028931 0.911224 0.549652
0.351105 0.909790 0.548950
0.539917 0.906708 0.548523
0.704773 0.902771 0.548035
0.856110 0.899139 0.546387
0.995514 0.895386 0.545074
0.000000 1.000000 0.555267
0.000000 1.000000 0.555145
0.000000 1.000000 0.554871
0.095886 1.000000 0.554413
0.384888 1.000000 0.554047
0.566437 1.000000 0.553986
0.724121 1.000000 0.553497
0.867249 1.000000 0.553253
0.998749 1.000000 0.559204
0.000000 0.000000 0.705750
0.000000 0.000000 0.705231
0.000000 0.000000 0.704010
0.243347 0.000000 0.702148
0.422516 0.000000 0.699341
0.575409 0.000000 0.696411
0.717529 0.000000 0.693542
0.859650 0.000000 0.690338
1.000000 0.000000 0.686523
0.000000 0.081848 0.704834
0.000000 0.080414 0.704376
0.000000 0.075592 0.703308
0.245758 0.063019 0.701569
0.423462 0.039307 0.699005
0.575378 0.012665 0.696045
0.716980 0.002930 0.693085
0.859222 0.000214 0.689850
1.000000 0.000000 0.686005
0.000000 0.220337 0.702728
0.000000 0.220490 0.702332
0.000000 0.220367 0.701355
0.244751 0.219330 0.699707
0.421783 0.216553 0.697876
0.572937 0.214966 0.694916
0.714569 0.214691 0.691803
0.857758 0.211212 0.688507
1.000000 0.202240 0.684753
0.000000 0.367188 0.698822
0.000000 0.367462 0.698456
0.000000 0.367950 0.697571
0.226654 0.368439 0.696106
0.411926 0.368286 0.694885
0.565155 0.368683 0.692596
0.709351 0.369263 0.689575
0.855347 0.366730 0.686371
1.000000 0.361420 0.682861
0.000000 0.512085 0.694183
0.000000 0.512115 0.693909
0.000000 0.512146 0.693176
0.189484 0.512054 0.691986
0.395905 0.511871 0.690674
0.553955 0.511566 0.689240
0.702911 0.510712 0.686829
0.852753 0.508209 0.683624
0.999207 0.504822 0.680328
0.000000 0.650604 0.689697
0.000000 0.650574 0.689453
0.000000 0.650482 0.688843
0.119110 0.650360 0.687866
0.372955 0.650299 0.686493
0.540619 0.650177 0.684814
0.695923 0.649078 0.682831
0.849426 0.646515 0.679932
0.994781 0.644073 0.677063
0.000000 0.786438 0.684967
0.000000 0.786377 0.684753
0.000000 0.786194 0.684296
0.028320 0.785858 0.683441
0.343933 0.785309 0.682251
0.528046 0.784119 0.680664
0.692810 0.781647 0.678650
0.847900 0.778107 0.676605
0.991180 0.774994 0.674286
0.000000 0.910736 0.681732
0.000000 0.910583 0.681580
0.000000 0.910095 0.681183
0.013092 0.909241 0.680511
0.339600 0.907745 0.679504
0.534607 0.904999 0.678192
0.702118 0.901062 0.676819
0.853821 0.896851 0.675415
0.992584 0.893372 0.673492
0.000000 1.000000 0.680756
0.000000 1.000000 0.680603
0.000000 1.000000 0.680237
0.080658 1.000000 0.679596
0.380402 1.000000 0.678741
0.563995 1.000000 0.677734
0.722778 1.000000 0.676941
0.865173 1.000000 0.675629
0.997284 1.000000 0.678375
0.000000 0.000000 0.831604
0.000000 0.000000 0.831085
0.000000 0.000000 0.829895
0.213348 0.000000 0.827942
0.410522 0.000000 0.825104
0.567261 0.000000 0.821930
0.712036 0.000000 0.818542
0.857208 0.000000 0.814728
1.000000 0.000000 0.810455
0.000000 0.068481 0.830505
0.000000 0.066040 0.830048
0.000000 0.058319 0.828918
0.216980 0.041534 0.827087
0.411530 0.016449 0.824432
0.567200 0.002838 0.821228
0.711609 0.000702 0.817841
0.856934 0.000000 0.813995
1.000000 0.000000 0.809753
0.000000 0.216370 0.827698
0.000000 0.216248 0.827301
0.000000 0.215668 0.826233
0.217682 0.214172 0.824524
0.409882 0.211334 0.822571
0.564789 0.210114 0.819489
0.709564 0.209534 0.816010
0.855896 0.204712 0.812134
1.000000 0.194092 0.807983
0.000000 0.364960 0.822723
0.000000 0.365112 0.822357
0.000000 0.365387 0.821411
0.200653 0.365662 0.819916
0.400574 0.365417 0.818542
0.557617 0.365723 0.816193
0.705261 0.365692 0.812866
0.854187 0.362549 0.809082
1.000000 0.356659 0.805176
0.000000 0.509766 0.816650
0.000000 0.509766 0.816345
0.000000 0.509705 0.815582
0.162354 0.509613 0.814331
0.385559 0.509399 0.812988
0.547821 0.508911 0.811432
0.700317 0.507690 0.808746
0.852448 0.504852 0.804962
0.998840 0.501343 0.801239
0.000000 0.648529 0.810120
0.000000 0.648499 0.809875
0.000000 0.648438 0.809235
0.091431 0.648376 0.808167
0.364471 0.648346 0.806732
0.536560 0.648010 0.805023
0.695221 0.646423 0.802887
0.849945 0.643646 0.799530
0.994598 0.641388 0.795990
0.000000 0.784515 0.803009
0.000000 0.784454 0.802795
0.000000 0.784302 0.802277
0.019287 0.783966 0.801331
0.339844 0.783325 0.800018
0.527954 0.781982 0.798218
0.694153 0.779419 0.795959
0.848999 0.775909 0.793427
0.991058 0.772919 0.790588
0.000000 0.908844 0.796844
0.000000 0.908630 0.796661
0.000000 0.908173 0.796234
0.016113 0.907257 0.795441
0.342957 0.905609 0.794250
0.537994 0.902954 0.792633
0.704620 0.899261 0.790680
0.855347 0.894989 0.788788
0.992798 0.891571 0.786652
0.000000 1.000000 0.792145
0.000000 1.000000 0.791962
0.000000 1.000000 0.791534
0.103912 1.000000 0.790802
0.389282 1.000000 0.789703
0.569336 1.000000 0.788300
0.725647 1.000000 0.786865
0.866882 1.000000 0.785583
0.998352 1.000000 0.786224
0.000000 0.000000 0.938690
0.000000 0.000000 0.938202
0.000000 0.000000 0.937073
0.217407 0.000000 0.935242
0.413605 0.000000 0.932465
0.569183 0.000000 0.929291
0.714752 0.000000 0.925751
0.861816 0.000000 0.921661
1.000000 0.000000 0.917267
0.000000 0.050262 0.937561
0.000000 0.046753 0.937103
0.000000 0.037018 0.936035
0.221008 0.018921 0.934265
0.414337 0.003143 0.931641
0.568970 0.000885 0.928467
0.714386 0.000000 0.924896
0.861542 0.000000 0.920837
1.000000 0.000000 0.916473
0.000000 0.212921 0.934448
0.000000 0.212524 0.934052
0.000000 0.211700 0.933044
0.221863 0.209991 0.931396
0.412323 0.207611 0.929443
0.566650 0.206818 0.926392
0.712799 0.205566 0.922821
0.860809 0.199158 0.918701
1.000000 0.188080 0.914490
0.000000 0.363464 0.929108
0.000000 0.363556 0.928741
0.000000 0.363678 0.927856
0.206787 0.363831 0.926392
0.403198 0.363617 0.925140
0.560272 0.363770 0.922699
0.709595 0.363037 0.919281
0.859650 0.359039 0.915283
1.000000 0.353210 0.911316
0.000000 0.508087 0.922516
0.000000 0.508057 0.922241
0.000000 0.507996 0.921509
0.173615 0.507965 0.920288
0.389740 0.507660 0.919067
0.552032 0.506958 0.917419
0.706299 0.505249 0.914520
0.858429 0.502136 0.910614
1.000000 0.498932 0.906860
0.000000 0.647125 0.915253
0.000000 0.647095 0.915009
0.000000 0.647064 0.914368
0.107605 0.647034 0.913300
0.371490 0.646912 0.911926
0.543304 0.646271 0.910217
0.702759 0.644196 0.908081
0.856232 0.641418 0.904541
0.998352 0.639435 0.900909
0.000000 0.783081 0.907227
0.000000 0.783020 0.907013
0.000000 0.782837 0.906464
0.044434 0.782471 0.905518
0.353333 0.781677 0.904175
0.538879 0.780060 0.902374
0.703094 0.777313 0.900177
0.855347 0.773682 0.897705
0.995026 0.770935 0.894531
0.000000 0.907043 0.899933
0.000000 0.906830 0.899750
0.000000 0.906311 0.899261
0.051331 0.905273 0.898468
0.364319 0.903503 0.897217
0.552002 0.900787 0.895569
0.714142 0.897217 0.893524
0.860962 0.893433 0.891327
0.996735 0.889893 0.889099
0.000000 1.000000 0.893707
0.000000 1.000000 0.893524
0.000000 1.000000 0.893066
0.171295 1.000000 0.892303
0.412079 1.000000 0.891144
0.583160 1.000000 0.889679
0.733948 1.000000 0.888000
0.872437 1.000000 0.886475
1.000000 1.000000 0.886536
0.000000 0.000000 1.000000
0.000000 0.000000 1.000000
0.000000 0.000000 1.000000
0.263458 0.000000 1.000000
0.432892 0.000000 1.000000
0.580566 0.000000 1.000000
0.725464 0.000000 1.000000
0.872559 0.000000 1.000000
1.000000 0.000000 1.000000
0.000000 0.050018 1.000000
0.000000 0.045746 1.000000
0.000000 0.035400 1.000000
0.264038 0.016632 1.000000
0.432556 0.002716 1.000000
0.580109 0.000000 1.000000
0.725220 0.000000 1.000000
0.872345 0.000000 1.000000
1.000000 0.000000 1.000000
0.000000 0.215149 1.000000
0.000000 0.214600 1.000000
0.000000 0.213135 1.000000
0.259186 0.210663 1.000000
0.428741 0.207214 1.000000
0.577820 0.204498 1.000000
0.724091 0.201965 1.000000
0.871735 0.193878 1.000000
1.000000 0.183105 1.000000
0.000000 0.363678 1.000000
0.000000 0.363556 1.000000
0.000000 0.363220 1.000000
0.238861 0.362823 1.000000
0.418762 0.362335 1.000000
0.572479 0.362305 1.000000
0.721985 0.360535 1.000000
0.870880 0.355804 1.000000
1.000000 0.350708 1.000000
0.000000 0.506866 1.000000
0.000000 0.506866 1.000000
0.000000 0.506836 1.000000
0.213501 0.506775 1.000000
0.407104 0.506317 1.000000
0.566223 0.505249 1.000000
0.720032 0.503052 1.000000
0.869720 0.499817 1.000000
1.000000 0.497253 1.000000
0.000000 0.646088 1.000000
0.000000 0.646088 1.000000
0.000000 0.646057 1.000000
0.171906 0.646027 1.000000
0.392639 0.645691 1.000000
0.560272 0.644592 1.000000
0.717651 0.642120 1.000000
0.867401 0.639557 1.000000
1.000000 0.638000 0.998962
0.000000 0.781860 1.000000
0.000000 0.781769 1.000000
0.000000 0.781555 1.000000
0.112274 0.781067 1.000000
0.382019 0.780060 0.999969
0.559326 0.778137 0.999603
0.718567 0.775146 0.998138
0.865967 0.771698 0.995667
1.000000 0.769196 0.992645
0.000000 0.905212 0.997345
0.000000 0.904968 0.997192
0.000000 0.904358 0.996704
0.137451 0.903198 0.995880
0.399353 0.901276 0.994690
0.574402 0.898499 0.993073
0.729248 0.895081 0.991180
0.870667 0.891479 0.989197
1.000000 0.888062 0.986847
0.000000 1.000000 0.990845
0.000000 1.000000 0.990662
0.000000 1.000000 0.990234
0.250305 1.000000 0.989502
0.444763 1.000000 0.988373
0.603363 1.000000 0.986969
0.746735 1.000000 0.985321
0.881195 1.000000 0.983551
1.000000 1.000000 0.986633
