滤镜资源/Professional Luts Collection/Lutify.me Professional/Alternative Process/Alexandrite.cube
# Created by: Lutify.me
# Copyright: (c) Copyright Lutify.me 2015
# Website: https://lutify.me
#LUT size
LUT_3D_SIZE 33
#LUT data points
0.000000 0.000000 0.000000
0.022552 0.000000 0.000000
0.047882 0.000031 0.000000
0.074646 0.000366 0.000000
0.102234 0.000397 0.000000
0.130096 0.000336 0.000000
0.158173 0.000336 0.000000
0.186584 0.000061 0.000000
0.215424 0.000000 0.000000
0.244629 0.000000 0.000000
0.274475 0.000000 0.000000
0.304993 0.000000 0.000000
0.336212 0.000000 0.000000
0.368225 0.000000 0.000000
0.401062 0.000000 0.000000
0.434509 0.000000 0.000000
0.468475 0.000000 0.000000
0.502808 0.000000 0.000000
0.537323 0.000000 0.000000
0.571899 0.000000 0.000000
0.606415 0.000000 0.000000
0.640625 0.000000 0.000000
0.674500 0.000000 0.000000
0.708069 0.000000 0.000000
0.741455 0.000000 0.000000
0.774750 0.000000 0.000000
0.808136 0.000000 0.000000
0.841766 0.000000 0.000000
0.875793 0.000000 0.000000
0.910370 0.000000 0.000000
0.945496 0.000000 0.000000
0.980560 0.000000 0.000000
1.000000 0.000000 0.000000
0.000000 0.024841 0.000366
0.020599 0.024841 0.000366
0.045227 0.024872 0.000000
0.073151 0.024841 0.000000
0.101105 0.024902 0.000000
0.129211 0.025116 0.000000
0.157410 0.024933 0.000000
0.185974 0.024628 0.000000
0.214874 0.024323 0.000000
0.244385 0.023621 0.000000
0.274323 0.022400 0.000000
0.304932 0.020233 0.000000
0.336212 0.017303 0.000000
0.368256 0.013245 0.000000
0.401154 0.007660 0.000000
0.434662 0.002380 0.000000
0.468597 0.000122 0.000000
0.502899 0.000000 0.000000
0.537415 0.000000 0.000000
0.571991 0.000000 0.000000
0.606476 0.000000 0.000000
0.640656 0.000000 0.000000
0.674469 0.000000 0.000000
0.708038 0.000000 0.000000
0.741425 0.000000 0.000000
0.774719 0.000000 0.000000
0.808044 0.000000 0.000000
0.841705 0.000000 0.000000
0.875671 0.000000 0.000000
0.910278 0.000000 0.000000
0.945465 0.000000 0.000000
0.980499 0.000000 0.000000
1.000000 0.000000 0.000000
0.000000 0.051208 0.000061
0.018677 0.051208 0.000061
0.043701 0.051514 0.000031
0.071838 0.051544 0.000336
0.100098 0.051819 0.000031
0.128418 0.051819 0.000000
0.156921 0.051880 0.000000
0.185547 0.051819 0.000000
0.214539 0.051331 0.000000
0.244019 0.051086 0.000000
0.274078 0.050018 0.000000
0.304718 0.048401 0.000000
0.336151 0.045624 0.000000
0.368256 0.042053 0.000000
0.401184 0.037170 0.000000
0.434753 0.030579 0.000000
0.468719 0.022919 0.000000
0.503052 0.014618 0.000000
0.537567 0.006104 0.000000
0.572113 0.001099 0.000000
0.606506 0.000275 0.000000
0.640686 0.000000 0.000000
0.674469 0.000000 0.000000
0.708008 0.000000 0.000000
0.741364 0.000000 0.000000
0.774628 0.000000 0.000000
0.807953 0.000000 0.000000
0.841583 0.000000 0.000000
0.875610 0.000000 0.000000
0.910187 0.000000 0.000000
0.945343 0.000000 0.000000
0.980408 0.000000 0.000000
1.000000 0.000000 0.000000
0.000000 0.080078 0.000366
0.015289 0.079895 0.000366
0.039856 0.079895 0.000366
0.069336 0.080139 0.000000
0.098206 0.080505 0.000061
0.126862 0.080414 0.000000
0.155670 0.080566 0.000000
0.184631 0.080597 0.000000
0.213806 0.080536 0.000000
0.243591 0.080139 0.000000
0.273773 0.079590 0.000000
0.304596 0.078552 0.000000
0.336090 0.076843 0.000000
0.368286 0.074524 0.000000
0.401276 0.071533 0.000000
0.434845 0.067322 0.000000
0.468842 0.061890 0.000000
0.503174 0.055359 0.000000
0.537659 0.047852 0.000000
0.572144 0.039276 0.000000
0.606537 0.030670 0.000000
0.640656 0.022369 0.000000
0.674438 0.014648 0.000000
0.707947 0.007904 0.000000
0.741211 0.003296 0.000000
0.774475 0.002350 0.000000
0.807800 0.001953 0.000000
0.841400 0.001587 0.000000
0.875427 0.001129 0.000000
0.910065 0.000519 0.000000
0.945251 0.000000 0.000000
0.980286 0.000000 0.000000
1.000000 0.000000 0.000000
0.000000 0.109283 0.000366
0.009247 0.109314 0.000092
0.034790 0.109161 0.000366
0.065796 0.109314 0.000061
0.095490 0.109528 0.000000
0.124664 0.109833 0.000000
0.154114 0.109833 0.000000
0.183228 0.110016 0.000000
0.212891 0.110046 0.000000
0.242767 0.109985 0.000000
0.273254 0.109589 0.000000
0.304199 0.109009 0.000000
0.335846 0.107971 0.000000
0.368225 0.106415 0.000000
0.401276 0.104340 0.000000
0.434875 0.101746 0.000000
0.468903 0.098358 0.000000
0.503235 0.094421 0.000000
0.537720 0.089935 0.000000
0.572235 0.084869 0.000000
0.606506 0.079468 0.000000
0.640564 0.074310 0.000000
0.674286 0.069397 0.000000
0.707703 0.065247 0.000000
0.740967 0.061462 0.000000
0.774200 0.058685 0.000000
0.807526 0.056183 0.000000
0.841187 0.053528 0.000000
0.875183 0.050385 0.000000
0.909851 0.045563 0.000000
0.945038 0.039642 0.000000
0.980103 0.032196 0.000000
1.000000 0.024139 0.000000
0.000000 0.139008 0.000336
0.001862 0.139008 0.000031
0.026489 0.139099 0.000031
0.060181 0.139130 0.000031
0.091583 0.139404 0.000000
0.121674 0.139526 0.000000
0.151733 0.139923 0.000000
0.181427 0.140045 0.000000
0.211334 0.140137 0.000000
0.241608 0.140167 0.000000
0.272308 0.140045 0.000000
0.303528 0.139740 0.000000
0.335327 0.139099 0.000000
0.367889 0.138214 0.000000
0.401123 0.136963 0.000000
0.434845 0.135162 0.000000
0.468872 0.133026 0.000000
0.503204 0.130493 0.000000
0.537689 0.127655 0.000000
0.572144 0.124695 0.000000
0.606354 0.121796 0.000000
0.640320 0.119019 0.000000
0.673981 0.116486 0.000000
0.707367 0.114441 0.000000
0.740570 0.112701 0.000000
0.773773 0.111206 0.000000
0.807129 0.109894 0.000000
0.840790 0.108429 0.000000
0.874847 0.106598 0.000000
0.909546 0.103851 0.000000
0.944794 0.100281 0.000000
0.979889 0.095428 0.000000
1.000000 0.090302 0.000000
0.000000 0.169525 0.000061
0.000122 0.169647 0.000000
0.015656 0.169739 0.000000
0.050842 0.169922 0.000000
0.085632 0.169952 0.000000
0.117310 0.170227 0.000000
0.148315 0.170502 0.000000
0.178741 0.170837 0.000000
0.209229 0.171082 0.000000
0.239929 0.171204 0.000000
0.270935 0.171356 0.000000
0.302460 0.171265 0.000000
0.334595 0.171021 0.000000
0.367310 0.170532 0.000000
0.400665 0.169769 0.000000
0.434509 0.168671 0.000000
0.468658 0.167328 0.000000
0.502991 0.165833 0.000000
0.537445 0.164093 0.000000
0.571838 0.162323 0.000000
0.606018 0.160675 0.000000
0.639923 0.159210 0.000000
0.673492 0.157990 0.000000
0.706848 0.157043 0.000000
0.740051 0.156342 0.000000
0.773254 0.155792 0.000000
0.806580 0.155334 0.000000
0.840271 0.154846 0.000000
0.874390 0.153900 0.000000
0.909119 0.152435 0.000000
0.944397 0.150208 0.000000
0.979553 0.147461 0.000000
1.000000 0.144318 0.000000
0.000000 0.200989 0.000000
0.000000 0.201080 0.000000
0.002625 0.201172 0.000000
0.036255 0.201324 0.000000
0.075867 0.201569 0.000000
0.110626 0.201813 0.000000
0.143036 0.202148 0.000000
0.174866 0.202576 0.000000
0.206085 0.202820 0.000000
0.237335 0.203156 0.000000
0.268890 0.203430 0.000000
0.300934 0.203583 0.000000
0.333405 0.203522 0.000000
0.366394 0.203369 0.000000
0.399963 0.203064 0.000000
0.433899 0.202454 0.000000
0.468109 0.201752 0.000000
0.502502 0.200928 0.000000
0.536926 0.199982 0.000000
0.571289 0.199036 0.000000
0.605438 0.198212 0.000000
0.639282 0.197479 0.000000
0.672791 0.196991 0.000000
0.706085 0.196747 0.000000
0.739288 0.196655 0.000000
0.772491 0.196564 0.000000
0.805878 0.196594 0.000000
0.839600 0.196503 0.000000
0.873779 0.195953 0.000000
0.908600 0.194977 0.000000
0.943970 0.193420 0.000000
0.979156 0.191406 0.000000
1.000000 0.189117 0.000000
0.000000 0.233551 0.000000
0.000000 0.233704 0.000000
0.000061 0.233795 0.000000
0.014160 0.234009 0.000000
0.060577 0.234222 0.000000
0.100494 0.234558 0.000000
0.135529 0.234924 0.000000
0.168884 0.235321 0.000000
0.201447 0.235779 0.000000
0.233612 0.236206 0.000000
0.265900 0.236603 0.000000
0.298492 0.236877 0.000000
0.331421 0.237122 0.000000
0.364838 0.237213 0.000000
0.398651 0.237152 0.000000
0.432831 0.237061 0.000000
0.467163 0.236725 0.000000
0.501556 0.236359 0.000000
0.536072 0.235962 0.000000
0.570435 0.235565 0.000000
0.604523 0.235229 0.000000
0.638336 0.235016 0.000000
0.671814 0.234955 0.000000
0.705109 0.235077 0.000000
0.738342 0.235321 0.000000
0.771576 0.235565 0.000000
0.805023 0.235779 0.000000
0.838837 0.235901 0.000000
0.873108 0.235626 0.000000
0.908020 0.234894 0.000000
0.943451 0.233643 0.000000
0.978699 0.232056 0.000000
1.000000 0.230194 0.000000
0.000000 0.267517 0.000000
0.000000 0.267639 0.000000
0.000000 0.267792 0.000000
0.002106 0.268036 0.000000
0.033966 0.268250 0.000000
0.084076 0.268555 0.000000
0.124329 0.268921 0.000000
0.160309 0.269348 0.000000
0.194672 0.269928 0.000000
0.228210 0.270447 0.000000
0.261566 0.270966 0.000000
0.295013 0.271362 0.000000
0.328583 0.271729 0.000000
0.362457 0.272003 0.000000
0.396698 0.272156 0.000000
0.431152 0.272247 0.000000
0.465698 0.272278 0.000000
0.500244 0.272217 0.000000
0.534729 0.272156 0.000000
0.569153 0.272064 0.000000
0.603271 0.272064 0.000000
0.637054 0.272156 0.000000
0.670532 0.272430 0.000000
0.703888 0.272736 0.000000
0.737152 0.273102 0.000000
0.770416 0.273529 0.000000
0.803955 0.273834 0.000000
0.837891 0.273956 0.000000
0.872284 0.273773 0.000000
0.907379 0.273132 0.000000
0.942871 0.272095 0.000000
0.978210 0.270660 0.000000
1.000000 0.269073 0.000000
0.000000 0.302734 0.000000
0.000000 0.302856 0.000000
0.000000 0.302948 0.000000
0.000000 0.303162 0.000000
0.005981 0.303436 0.000000
0.057159 0.303772 0.000000
0.107452 0.304108 0.000000
0.148132 0.304535 0.000000
0.185364 0.305054 0.000000
0.220825 0.305664 0.000000
0.255676 0.306213 0.000000
0.290192 0.306732 0.000000
0.324738 0.307159 0.000000
0.359344 0.307556 0.000000
0.394073 0.307800 0.000000
0.428833 0.308044 0.000000
0.463623 0.308258 0.000000
0.498413 0.308350 0.000000
0.533051 0.308472 0.000000
0.567474 0.308624 0.000000
0.601624 0.308807 0.000000
0.635437 0.309082 0.000000
0.668976 0.309448 0.000000
0.702362 0.309906 0.000000
0.735687 0.310333 0.000000
0.769104 0.310730 0.000000
0.802734 0.311035 0.000000
0.836823 0.311127 0.000000
0.871399 0.310883 0.000000
0.906616 0.310242 0.000000
0.942230 0.309265 0.000000
0.977661 0.307922 0.000000
1.000000 0.306396 0.000000
0.000000 0.338745 0.000000
0.000000 0.338898 0.000000
0.000000 0.338989 0.000000
0.000000 0.339172 0.000000
0.000000 0.339478 0.000000
0.016937 0.339752 0.000000
0.081879 0.340118 0.000000
0.131439 0.340515 0.000000
0.172913 0.340973 0.000000
0.211334 0.341522 0.000000
0.248138 0.342072 0.000000
0.284180 0.342590 0.000000
0.319824 0.343079 0.000000
0.355286 0.343475 0.000000
0.390625 0.343872 0.000000
0.425964 0.344086 0.000000
0.461060 0.344391 0.000000
0.496063 0.344604 0.000000
0.530914 0.344788 0.000000
0.565460 0.345032 0.000000
0.599670 0.345306 0.000000
0.633514 0.345642 0.000000
0.667114 0.346039 0.000000
0.700592 0.346497 0.000000
0.734039 0.346893 0.000000
0.767578 0.347229 0.000000
0.801392 0.347443 0.000000
0.835663 0.347443 0.000000
0.870453 0.347076 0.000000
0.905853 0.346375 0.000000
0.941589 0.345398 0.000000
0.977142 0.344086 0.000000
1.000000 0.342651 0.000000
0.000000 0.375305 0.000000
0.000000 0.375427 0.000000
0.000000 0.375549 0.000000
0.000000 0.375732 0.000000
0.000000 0.375946 0.000000
0.002106 0.376221 0.000000
0.040588 0.376526 0.000000
0.108124 0.376923 0.000000
0.157013 0.377319 0.000000
0.199463 0.377777 0.000000
0.238983 0.378265 0.000000
0.276886 0.378754 0.000000
0.313904 0.379211 0.000000
0.350372 0.379639 0.000000
0.386566 0.379944 0.000000
0.422424 0.380280 0.000000
0.458008 0.380524 0.000000
0.493317 0.380768 0.000000
0.528351 0.380981 0.000000
0.563049 0.381226 0.000000
0.597382 0.381500 0.000000
0.631348 0.381805 0.000000
0.665070 0.382172 0.000000
0.698669 0.382538 0.000000
0.732269 0.382843 0.000000
0.766022 0.383057 0.000000
0.800018 0.383148 0.000000
0.834503 0.383026 0.000000
0.869537 0.382568 0.000000
0.905090 0.381775 0.000000
0.940948 0.380798 0.000000
0.976562 0.379547 0.000000
1.000000 0.378235 0.000000
0.000000 0.411987 0.000000
0.000000 0.412109 0.000000
0.000000 0.412201 0.000000
0.000000 0.412384 0.000000
0.000000 0.412537 0.000000
0.000000 0.412781 0.000000
0.008148 0.413086 0.000000
0.073944 0.413391 0.000000
0.136841 0.413727 0.000000
0.185303 0.414062 0.000000
0.228302 0.414429 0.000000
0.268433 0.414886 0.000000
0.307068 0.415283 0.000000
0.344818 0.415649 0.000000
0.381836 0.415955 0.000000
0.418427 0.416229 0.000000
0.454559 0.416443 0.000000
0.490234 0.416626 0.000000
0.525543 0.416779 0.000000
0.560394 0.417023 0.000000
0.594849 0.417206 0.000000
0.628998 0.417450 0.000000
0.662872 0.417725 0.000000
0.696655 0.417999 0.000000
0.730438 0.418182 0.000000
0.764374 0.418274 0.000000
0.798615 0.418243 0.000000
0.833313 0.417999 0.000000
0.868591 0.417480 0.000000
0.904327 0.416656 0.000000
0.940308 0.415649 0.000000
0.976044 0.414459 0.000000
1.000000 0.413269 0.000000
0.000000 0.448486 0.000000
0.000000 0.448578 0.000000
0.000000 0.448639 0.000000
0.000000 0.448792 0.000000
0.000000 0.448914 0.000000
0.000000 0.449127 0.000000
0.000000 0.449341 0.000000
0.030060 0.449554 0.000000
0.111237 0.449799 0.000000
0.168762 0.450073 0.000000
0.216309 0.450348 0.000000
0.259247 0.450623 0.000000
0.299744 0.450989 0.000000
0.338776 0.451263 0.000000
0.376862 0.451508 0.000000
0.414154 0.451721 0.000000
0.450836 0.451874 0.000000
0.486938 0.452026 0.000000
0.522552 0.452118 0.000000
0.557617 0.452240 0.000000
0.592224 0.452393 0.000000
0.626526 0.452545 0.000000
0.660614 0.452728 0.000000
0.694550 0.452881 0.000000
0.728546 0.453003 0.000000
0.762665 0.453003 0.000000
0.797180 0.452881 0.000000
0.832153 0.452545 0.000000
0.867645 0.451996 0.000000
0.903534 0.451172 0.000000
0.939667 0.450195 0.000000
0.975464 0.449066 0.000000
1.000000 0.447968 0.000000
0.000000 0.484375 0.000000
0.000000 0.484436 0.000000
0.000000 0.484497 0.000000
0.000000 0.484589 0.000000
0.000000 0.484680 0.000000
0.000000 0.484863 0.000000
0.000000 0.484985 0.000000
0.005981 0.485168 0.000000
0.076996 0.485321 0.000000
0.149963 0.485504 0.000000
0.203247 0.485687 0.000000
0.249451 0.485870 0.000000
0.292053 0.486084 0.000000
0.332581 0.486328 0.000000
0.371674 0.486511 0.000000
0.409698 0.486664 0.000000
0.446960 0.486755 0.000000
0.483459 0.486847 0.000000
0.519348 0.486938 0.000000
0.554688 0.487000 0.000000
0.589478 0.487091 0.000000
0.623932 0.487213 0.000000
0.658203 0.487305 0.000000
0.692383 0.487396 0.000000
0.726562 0.487427 0.000000
0.760956 0.487366 0.000000
0.795715 0.487183 0.000000
0.830994 0.486816 0.000000
0.866699 0.486206 0.000000
0.902771 0.485413 0.000000
0.938965 0.484497 0.000000
0.974823 0.483459 0.000000
1.000000 0.482452 0.000000
0.000000 0.519592 0.000000
0.000000 0.519592 0.000000
0.000000 0.519684 0.000000
0.000000 0.519745 0.000000
0.000000 0.519806 0.000000
0.000000 0.519897 0.000000
0.000000 0.519989 0.000000
0.000000 0.520081 0.000000
0.041687 0.520233 0.000000
0.127930 0.520325 0.000000
0.189270 0.520447 0.000000
0.239288 0.520508 0.000000
0.284149 0.520660 0.000000
0.326111 0.520844 0.000000
0.366364 0.520966 0.000000
0.405151 0.521057 0.000000
0.442871 0.521179 0.000000
0.479767 0.521240 0.000000
0.515961 0.521301 0.000000
0.551514 0.521362 0.000000
0.586548 0.521423 0.000000
0.621216 0.521484 0.000000
0.655670 0.521576 0.000000
0.690094 0.521606 0.000000
0.724518 0.521576 0.000000
0.759186 0.521484 0.000000
0.794220 0.521240 0.000000
0.829773 0.520844 0.000000
0.865723 0.520233 0.000000
0.901947 0.519470 0.000000
0.938263 0.518585 0.000000
0.974152 0.517670 0.000000
1.000000 0.516693 0.000000
0.000000 0.554291 0.000000
0.000000 0.554291 0.000000
0.000000 0.554321 0.000000
0.000000 0.554382 0.000000
0.000000 0.554443 0.000000
0.000000 0.554474 0.000000
0.000000 0.554565 0.000000
0.000000 0.554596 0.000000
0.015320 0.554657 0.000000
0.100006 0.554749 0.000000
0.173920 0.554779 0.000000
0.228516 0.554810 0.000000
0.275940 0.554871 0.000000
0.319458 0.555023 0.000000
0.360657 0.555145 0.000000
0.400299 0.555206 0.000000
0.438599 0.555298 0.000000
0.475830 0.555359 0.000000
0.512268 0.555450 0.000000
0.548065 0.555511 0.000000
0.583344 0.555573 0.000000
0.618256 0.555634 0.000000
0.652985 0.555664 0.000000
0.687653 0.555634 0.000000
0.722412 0.555603 0.000000
0.757355 0.555481 0.000000
0.792694 0.555176 0.000000
0.828552 0.554779 0.000000
0.864716 0.554169 0.000000
0.901062 0.553467 0.000000
0.937439 0.552643 0.000000
0.973389 0.551758 0.000000
1.000000 0.550903 0.000000
0.000000 0.588684 0.000000
0.000000 0.588684 0.000000
0.000000 0.588684 0.000000
0.000000 0.588715 0.000000
0.000000 0.588745 0.000000
0.000000 0.588806 0.000000
0.000000 0.588837 0.000000
0.000000 0.588867 0.000000
0.002594 0.588898 0.000000
0.072052 0.588928 0.000000
0.156555 0.588959 0.000000
0.216644 0.588959 0.000000
0.267059 0.588928 0.000000
0.312286 0.589050 0.000000
0.354614 0.589203 0.000000
0.394958 0.589264 0.000000
0.433838 0.589325 0.000000
0.471558 0.589417 0.000000
0.508270 0.589508 0.000000
0.544342 0.589569 0.000000
0.579895 0.589630 0.000000
0.615112 0.589691 0.000000
0.650116 0.589691 0.000000
0.685089 0.589661 0.000000
0.720154 0.589600 0.000000
0.755432 0.589447 0.000000
0.791168 0.589111 0.000000
0.827301 0.588654 0.000000
0.863647 0.588104 0.000000
0.900146 0.587433 0.000000
0.936584 0.586639 0.000000
0.972534 0.585876 0.000000
1.000000 0.585144 0.000000
0.000000 0.622864 0.000000
0.000000 0.622894 0.000000
0.000000 0.622894 0.000000
0.000000 0.622894 0.000000
0.000000 0.622925 0.000000
0.000000 0.622955 0.000000
0.000000 0.622955 0.000000
0.000000 0.622986 0.000000
0.000000 0.622986 0.000000
0.042786 0.622986 0.000000
0.135651 0.622986 0.000000
0.203522 0.622986 0.000000
0.257141 0.622986 0.000000
0.304443 0.623016 0.000000
0.347992 0.623138 0.000000
0.389160 0.623230 0.000000
0.428619 0.623322 0.000000
0.466705 0.623383 0.000000
0.503845 0.623474 0.000000
0.540222 0.623596 0.000000
0.576141 0.623657 0.000000
0.611694 0.623688 0.000000
0.647034 0.623718 0.000000
0.682373 0.623657 0.000000
0.717773 0.623566 0.000000
0.753479 0.623383 0.000000
0.789520 0.623016 0.000000
0.825989 0.622559 0.000000
0.862549 0.622009 0.000000
0.899200 0.621338 0.000000
0.935669 0.620575 0.000000
0.971619 0.619873 0.000000
1.000000 0.619202 0.000000
0.000000 0.656982 0.000000
0.000000 0.656982 0.000000
0.000000 0.656982 0.000000
0.000000 0.657013 0.000000
0.000000 0.657013 0.000000
0.000000 0.657013 0.000000
0.000000 0.657043 0.000000
0.000000 0.657043 0.000000
0.000000 0.657013 0.000000
0.018005 0.656982 0.000000
0.107391 0.656982 0.000000
0.188477 0.656982 0.000000
0.246185 0.656982 0.000000
0.295685 0.656982 0.000000
0.340546 0.657043 0.000000
0.382629 0.657166 0.000000
0.422699 0.657288 0.000000
0.461365 0.657379 0.000000
0.498932 0.657471 0.000000
0.535767 0.657562 0.000000
0.572021 0.657623 0.000000
0.608002 0.657684 0.000000
0.643768 0.657654 0.000000
0.679474 0.657623 0.000000
0.715363 0.657440 0.000000
0.751495 0.657196 0.000000
0.787964 0.656830 0.000000
0.824646 0.656342 0.000000
0.861450 0.655731 0.000000
0.898224 0.655060 0.000000
0.934723 0.654327 0.000000
0.970673 0.653656 0.000000
1.000000 0.652954 0.000000
0.000000 0.691040 0.000000
0.000000 0.691040 0.000000
0.000000 0.691040 0.000000
0.000000 0.691040 0.000000
0.000000 0.691040 0.000000
0.000000 0.691040 0.000000
0.000000 0.691040 0.000000
0.000000 0.691040 0.000000
0.000000 0.691010 0.000000
0.004333 0.691010 0.000000
0.081085 0.690979 0.000000
0.170624 0.690948 0.000000
0.233673 0.690948 0.000000
0.285828 0.690918 0.000000
0.332306 0.690979 0.000000
0.375366 0.691071 0.000000
0.416199 0.691193 0.000000
0.455444 0.691284 0.000000
0.493622 0.691376 0.000000
0.530945 0.691437 0.000000
0.567719 0.691528 0.000000
0.604156 0.691498 0.000000
0.640442 0.691467 0.000000
0.676636 0.691345 0.000000
0.713013 0.691162 0.000000
0.749603 0.690826 0.000000
0.786469 0.690369 0.000000
0.823486 0.689819 0.000000
0.860443 0.689178 0.000000
0.897308 0.688477 0.000000
0.933777 0.687744 0.000000
0.969757 0.687012 0.000000
1.000000 0.686340 0.000000
0.000000 0.724976 0.000000
0.000000 0.724945 0.000000
0.000000 0.724945 0.000000
0.000000 0.724945 0.000000
0.000000 0.724945 0.000000
0.000000 0.724945 0.000000
0.000000 0.724915 0.000000
0.000000 0.724884 0.000000
0.000000 0.724854 0.000000
0.000000 0.724823 0.000000
0.053192 0.724792 0.000000
0.149109 0.724762 0.000000
0.219574 0.724731 0.000000
0.274841 0.724701 0.000000
0.323242 0.724731 0.000000
0.367584 0.724792 0.000000
0.409302 0.724915 0.000000
0.449341 0.724976 0.000000
0.488129 0.725037 0.000000
0.526062 0.725067 0.000000
0.563354 0.725067 0.000000
0.600372 0.725006 0.000000
0.637177 0.724915 0.000000
0.673981 0.724701 0.000000
0.710876 0.724426 0.000000
0.747986 0.724030 0.000000
0.785217 0.723511 0.000000
0.822479 0.722870 0.000000
0.859650 0.722168 0.000000
0.896576 0.721405 0.000000
0.933044 0.720642 0.000000
0.968933 0.719849 0.000000
1.000000 0.719147 0.000000
0.000000 0.758545 0.000000
0.000000 0.758514 0.000000
0.000000 0.758514 0.000000
0.000000 0.758514 0.000000
0.000000 0.758514 0.000000
0.000000 0.758484 0.000000
0.000000 0.758453 0.000000
0.000000 0.758392 0.000000
0.000000 0.758362 0.000000
0.000000 0.758301 0.000000
0.027222 0.758270 0.000000
0.121124 0.758240 0.000000
0.204163 0.758148 0.000000
0.263214 0.758118 0.000000
0.313782 0.758087 0.000000
0.359528 0.758118 0.000000
0.402344 0.758179 0.000000
0.443237 0.758240 0.000000
0.482819 0.758209 0.000000
0.521393 0.758209 0.000000
0.559326 0.758179 0.000000
0.596863 0.758026 0.000000
0.634308 0.757843 0.000000
0.671692 0.757538 0.000000
0.709167 0.757172 0.000000
0.746735 0.756653 0.000000
0.784332 0.756042 0.000000
0.821838 0.755310 0.000000
0.859131 0.754547 0.000000
0.896088 0.753723 0.000000
0.932556 0.752838 0.000000
0.968353 0.752045 0.000000
1.000000 0.751282 0.000000
0.000000 0.791534 0.000000
0.000000 0.791504 0.000000
0.000000 0.791534 0.000000
0.000000 0.791504 0.000000
0.000000 0.791473 0.000000
0.000000 0.791443 0.000000
0.000000 0.791412 0.000000
0.000000 0.791351 0.000000
0.000000 0.791290 0.000000
0.000000 0.791229 0.000000
0.009644 0.791168 0.000000
0.096039 0.791107 0.000000
0.187775 0.791016 0.000000
0.251404 0.790955 0.000000
0.304443 0.790863 0.000000
0.351868 0.790802 0.000000
0.395782 0.790802 0.000000
0.437592 0.790802 0.000000
0.477966 0.790741 0.000000
0.517212 0.790680 0.000000
0.555847 0.790527 0.000000
0.594055 0.790314 0.000000
0.632080 0.790009 0.000000
0.670074 0.789642 0.000000
0.708130 0.789124 0.000000
0.746094 0.788513 0.000000
0.783936 0.787811 0.000000
0.821686 0.786987 0.000000
0.859039 0.786102 0.000000
0.895996 0.785217 0.000000
0.932343 0.784302 0.000000
0.967987 0.783417 0.000000
1.000000 0.782593 0.000000
0.000000 0.823853 0.000000
0.000000 0.823822 0.000000
0.000000 0.823792 0.000000
0.000000 0.823792 0.000000
0.000000 0.823730 0.000000
0.000000 0.823700 0.000000
0.000000 0.823639 0.000000
0.000000 0.823578 0.000000
0.000000 0.823517 0.000000
0.000000 0.823425 0.000000
0.001495 0.823334 0.000000
0.075348 0.823242 0.000000
0.171173 0.823120 0.000000
0.240295 0.823029 0.000000
0.295837 0.822906 0.000000
0.345001 0.822754 0.000000
0.390167 0.822632 0.000000
0.432831 0.822571 0.000000
0.473969 0.822449 0.000000
0.514008 0.822266 0.000000
0.553284 0.822052 0.000000
0.592194 0.821747 0.000000
0.630829 0.821320 0.000000
0.669403 0.820831 0.000000
0.707855 0.820251 0.000000
0.746185 0.819519 0.000000
0.784271 0.818726 0.000000
0.822113 0.817841 0.000000
0.859497 0.816895 0.000000
0.896332 0.815887 0.000000
0.932556 0.814911 0.000000
0.967957 0.813965 0.000000
1.000000 0.813049 0.000000
0.000000 0.855316 0.000000
0.000000 0.855255 0.000000
0.000000 0.855225 0.000000
0.000000 0.855194 0.000000
0.000000 0.855164 0.000000
0.000000 0.855133 0.000000
0.000000 0.855072 0.000000
0.000000 0.854980 0.000000
0.000000 0.854889 0.000000
0.000000 0.854767 0.000000
0.000000 0.854675 0.000000
0.059540 0.854553 0.000000
0.155273 0.854401 0.000000
0.230835 0.854248 0.000000
0.288757 0.854065 0.000000
0.339508 0.853821 0.000000
0.385864 0.853607 0.000000
0.429504 0.853424 0.000000
0.471344 0.853210 0.000000
0.512085 0.852966 0.000000
0.552094 0.852631 0.000000
0.591522 0.852234 0.000000
0.630798 0.851715 0.000000
0.669830 0.851105 0.000000
0.708618 0.850433 0.000000
