滤镜资源/Professional Luts Collection/Lutify.me Professional/Alternative Process/Ametrine.cube
# Created by: Lutify.me
# Copyright: (c) Copyright Lutify.me 2015
# Website: https://lutify.me
#LUT size
LUT_3D_SIZE 5
#LUT data points
0.231384 0.122833 0.262146
0.364990 0.139709 0.250610
0.552795 0.198364 0.258087
0.720367 0.240112 0.277679
0.856079 0.266724 0.291626
0.231384 0.277893 0.262146
0.362213 0.301727 0.281769
0.568268 0.361542 0.322235
0.743225 0.412262 0.356567
0.878937 0.451630 0.383179
0.231384 0.503082 0.262146
0.401978 0.483185 0.282043
0.568268 0.449768 0.322235
0.743225 0.522614 0.356567
0.878937 0.579071 0.383179
0.231384 0.750397 0.262177
0.383362 0.749451 0.263092
0.654022 0.670746 0.341766
0.743225 0.607300 0.356567
0.878937 0.640869 0.383179
0.231384 1.000000 0.262146
0.381744 1.000000 0.262146
0.690369 0.938751 0.323395
0.868927 0.878937 0.383179
0.878937 0.779816 0.383179
0.231415 0.122833 0.418976
0.381866 0.122833 0.418976
0.603394 0.147766 0.398865
0.762604 0.197876 0.389679
0.886078 0.236755 0.395874
0.231384 0.277863 0.418976
0.381836 0.277893 0.418976
0.590179 0.316071 0.405182
0.748810 0.366730 0.420013
0.881531 0.396362 0.434540
0.231384 0.503082 0.419006
0.381836 0.503082 0.418976
0.593994 0.512848 0.453308
0.768951 0.576996 0.487640
0.904663 0.616364 0.514282
0.231384 0.750397 0.419006
0.381836 0.750397 0.419006
0.655304 0.708313 0.461029
0.768951 0.654083 0.487640
0.904663 0.703949 0.514282
0.231384 1.000000 0.418945
0.381836 1.000000 0.419006
0.658875 0.978424 0.440521
0.873627 0.909485 0.509460
0.904663 0.826630 0.514282
0.231384 0.122833 0.559357
0.381836 0.122833 0.559357
0.628357 0.122833 0.559326
0.809021 0.151459 0.533966
0.931458 0.191345 0.518768
0.231384 0.277924 0.559357
0.381836 0.277893 0.559357
0.628357 0.277893 0.559357
0.795563 0.319977 0.533417
0.918549 0.359344 0.532288
0.231384 0.503082 0.559357
0.381836 0.503082 0.559357
0.616608 0.514801 0.553833
0.782776 0.557953 0.569550
0.918457 0.586060 0.584900
0.231384 0.750397 0.559387
0.381836 0.750397 0.559357
0.638428 0.743225 0.566498
0.791992 0.703918 0.605011
0.927673 0.760406 0.631622
0.231384 1.000000 0.559296
0.381836 1.000000 0.559387
0.628326 1.000000 0.559357
0.873596 0.944275 0.615051
0.927673 0.868500 0.631622
0.231354 0.122833 0.686066
0.381866 0.122833 0.686066
0.628357 0.122833 0.686066
0.837646 0.122833 0.685974
0.973450 0.149384 0.660675
0.231384 0.277863 0.686066
0.381836 0.277893 0.686066
0.628357 0.277893 0.686066
0.836823 0.278717 0.685028
0.959778 0.318085 0.655457
0.231384 0.503082 0.686066
0.381836 0.503082 0.686066
0.628357 0.503082 0.686066
0.817078 0.523651 0.671295
0.940552 0.562500 0.669434
0.231384 0.750397 0.686096
0.381836 0.750397 0.686066
0.628357 0.750397 0.686066
0.812775 0.754852 0.710907
0.948486 0.805389 0.737549
0.231384 1.000000 0.686096
0.381836 1.000000 0.686035
0.628357 1.000000 0.686066
0.863525 0.975464 0.710571
0.948486 0.906311 0.737549
0.231384 0.122833 0.802734
0.381805 0.122833 0.802734
0.628357 0.122833 0.802734
0.837646 0.122833 0.802704
1.000000 0.122833 0.802765
0.231384 0.277863 0.802734
0.381805 0.277893 0.802734
0.628387 0.277893 0.802734
0.837646 0.277893 0.802734
0.998596 0.279297 0.800873
0.231384 0.503113 0.802734
0.381836 0.503052 0.802734
0.628357 0.503082 0.802734
0.837646 0.503082 0.802734
0.978668 0.524414 0.784363
0.231384 0.750336 0.802734
0.381836 0.750366 0.802734
0.628357 0.750366 0.802734
0.833801 0.754211 0.799805
0.959045 0.791321 0.806946
0.231384 1.000000 0.802765
0.381836 1.000000 0.802795
0.628357 1.000000 0.802704
0.837646 1.000000 0.802734
0.967621 0.941132 0.835083
