滤镜资源/Professional Luts Collection/Lutify.me Professional/Alternative Process/Amethyst Green.cube
# Created by: Lutify.me
# Copyright: (c) Copyright Lutify.me 2015
# Website: https://lutify.me
#LUT size
LUT_3D_SIZE 33
#LUT data points
0.000000 0.000000 0.000000
0.029419 0.000000 0.000793
0.059265 0.000000 0.003448
0.089081 0.000000 0.005554
0.119293 0.000000 0.008820
0.149506 0.000000 0.013428
0.179626 0.000000 0.018707
0.209564 0.000000 0.024323
0.239410 0.000000 0.031555
0.269104 0.000000 0.040039
0.299103 0.000000 0.048248
0.330017 0.000000 0.056793
0.362152 0.000000 0.065491
0.395782 0.000000 0.074036
0.431091 0.000000 0.082489
0.468109 0.000000 0.090881
0.506897 0.000000 0.098969
0.547333 0.000000 0.107117
0.589111 0.000000 0.115082
0.631805 0.000000 0.122772
0.674866 0.000000 0.130615
0.717834 0.000000 0.138123
0.760132 0.000000 0.145294
0.801300 0.000000 0.152588
0.840881 0.000000 0.159851
0.878418 0.000000 0.166656
0.913666 0.000000 0.173615
0.946655 0.000000 0.180298
0.976929 0.000000 0.186768
0.999207 0.000000 0.193298
1.000000 0.000000 0.199341
1.000000 0.000000 0.205627
1.000000 0.000000 0.211426
0.001526 0.022156 0.011261
0.030975 0.021362 0.012085
0.059875 0.020966 0.013672
0.089539 0.019531 0.016693
0.119476 0.018036 0.020020
0.149658 0.016449 0.024597
0.179749 0.014008 0.028809
0.209656 0.011292 0.035065
0.239319 0.008575 0.042480
0.269196 0.005585 0.049347
0.299255 0.002350 0.057037
0.330200 0.000580 0.064941
0.362396 0.000061 0.072937
0.396057 0.000000 0.080688
0.431488 0.000000 0.088287
0.468597 0.000000 0.096161
0.507416 0.000000 0.103973
0.547882 0.000000 0.111511
0.589691 0.000000 0.119141
0.632355 0.000000 0.126678
0.675415 0.000000 0.133911
0.718292 0.000000 0.141174
0.760468 0.000000 0.148468
0.801575 0.000000 0.155487
0.841095 0.000000 0.162323
0.878510 0.000000 0.169098
0.913635 0.000000 0.175598
0.946564 0.000000 0.182190
0.976776 0.000000 0.188660
0.999176 0.000000 0.194855
1.000000 0.000000 0.200867
1.000000 0.000000 0.206787
1.000000 0.000000 0.212769
0.003052 0.047272 0.022736
0.031433 0.046936 0.024902
0.061523 0.046234 0.025726
0.090546 0.044891 0.029358
0.120239 0.043701 0.032227
0.150146 0.041962 0.035675
0.179993 0.040192 0.041046
0.209808 0.037628 0.046631
0.239502 0.035126 0.052551
0.269226 0.032227 0.058990
0.299316 0.028992 0.066132
0.330322 0.024719 0.073242
0.362610 0.019135 0.080231
0.396423 0.011902 0.087311
0.431915 0.004028 0.094391
0.469116 0.000336 0.101776
0.507996 0.000000 0.109161
0.548523 0.000000 0.116302
0.590363 0.000000 0.123505
0.633026 0.000000 0.130768
0.675995 0.000000 0.137787
0.718811 0.000000 0.144775
0.760956 0.000000 0.151764
0.801910 0.000000 0.158508
0.841278 0.000000 0.165161
0.878601 0.000000 0.171753
0.913605 0.000000 0.178040
0.946411 0.000000 0.184387
0.976624 0.000000 0.190582
0.999146 0.000000 0.196716
1.000000 0.000000 0.202667
1.000000 0.000000 0.208313
1.000000 0.000000 0.213898
0.004181 0.074860 0.040283
0.033630 0.074402 0.041107
0.061615 0.074127 0.043549
0.091187 0.073456 0.045227
0.120453 0.072815 0.048187
0.150421 0.071655 0.051636
0.180084 0.070526 0.055786
0.209961 0.069000 0.060028
0.239471 0.067535 0.065613
0.269165 0.065735 0.071228
0.299469 0.063354 0.076660
0.330536 0.060730 0.082886
0.362976 0.056610 0.089294
0.396912 0.050720 0.095795
0.432526 0.042358 0.102539
0.469818 0.030426 0.109192
0.508789 0.015625 0.115997
0.549347 0.004242 0.122894
0.591217 0.000336 0.129578
0.633850 0.000000 0.136261
0.676758 0.000000 0.142975
0.719513 0.000000 0.149506
0.761505 0.000000 0.156067
0.802338 0.000000 0.162476
0.841492 0.000000 0.168762
0.878632 0.000000 0.175049
0.913483 0.000000 0.181335
0.946167 0.000000 0.187408
0.976257 0.000000 0.193176
0.999115 0.000000 0.199219
1.000000 0.000000 0.204803
1.000000 0.000153 0.210510
1.000000 0.004059 0.215973
0.004730 0.103485 0.059448
0.033569 0.103271 0.060211
0.062653 0.102905 0.062012
0.091492 0.102539 0.063568
0.120697 0.101990 0.065674
0.150238 0.101440 0.068634
0.180023 0.100647 0.072144
0.209686 0.099762 0.075531
0.239319 0.098907 0.079895
0.268921 0.098022 0.084808
0.299347 0.096710 0.089630
0.330627 0.094910 0.094879
0.363281 0.092499 0.100525
0.397491 0.088806 0.106232
0.433228 0.083679 0.112366
0.470673 0.076508 0.118378
0.509827 0.066162 0.124420
0.550476 0.051758 0.130798
0.592316 0.033661 0.137085
0.634918 0.014557 0.143250
0.677734 0.002808 0.149445
0.720306 0.000336 0.155487
0.762146 0.000000 0.161621
0.802765 0.000000 0.167633
0.841736 0.000000 0.173492
0.878632 0.000000 0.179413
0.913269 0.000000 0.185394
0.945831 0.000000 0.191101
0.975800 0.000000 0.196655
0.999054 0.000519 0.202301
1.000000 0.007172 0.207733
1.000000 0.038025 0.213165
1.000000 0.080688 0.218414
0.004272 0.132843 0.078857
0.033203 0.132812 0.079468
0.062042 0.132568 0.080078
0.091034 0.132355 0.082001
0.120239 0.132202 0.083710
0.149719 0.131744 0.086151
0.179596 0.131348 0.088409
0.209015 0.130951 0.091766
0.238556 0.130493 0.095428
0.268524 0.129913 0.099152
0.299011 0.129303 0.103668
0.330627 0.128326 0.108246
0.363556 0.126678 0.113190
0.398010 0.124420 0.118164
0.434052 0.121155 0.123352
0.471680 0.116608 0.128876
0.510956 0.110565 0.134277
0.551727 0.102356 0.139832
0.593597 0.091583 0.145599
0.636139 0.078033 0.151337
0.678802 0.062897 0.156921
0.721191 0.048065 0.162506
0.762817 0.032471 0.168182
0.803223 0.018219 0.173676
0.841919 0.009521 0.179199
0.878571 0.008270 0.184662
0.912933 0.010101 0.189972
0.945251 0.018646 0.195374
0.975159 0.037598 0.200806
0.998993 0.061676 0.206024
1.000000 0.085449 0.211243
1.000000 0.113403 0.216278
1.000000 0.143311 0.221344
0.001312 0.163452 0.097595
0.029633 0.163422 0.098114
0.059235 0.163391 0.098938
0.088776 0.163300 0.100037
0.118469 0.163086 0.101654
0.148285 0.162994 0.103699
0.178009 0.162842 0.105560
0.207642 0.162720 0.108246
0.237335 0.162720 0.111237
0.267517 0.162506 0.114502
0.298340 0.162262 0.118195
0.330322 0.161835 0.122223
0.363617 0.161011 0.126465
0.398376 0.159668 0.130951
0.434692 0.157745 0.135590
0.472626 0.154877 0.140289
0.512115 0.151093 0.145142
0.552979 0.146240 0.149963
0.594879 0.140228 0.155060
0.637329 0.133087 0.160217
0.679871 0.125092 0.165192
0.722076 0.116455 0.170288
0.763428 0.107635 0.175476
0.803528 0.099701 0.180481
0.841949 0.094543 0.185486
0.878296 0.094208 0.190613
0.912384 0.097534 0.195618
0.944397 0.105652 0.200562
0.974274 0.119202 0.205475
0.998901 0.136261 0.210388
1.000000 0.154816 0.215302
1.000000 0.174774 0.220093
1.000000 0.195343 0.224823
0.000153 0.195312 0.115814
0.021240 0.195312 0.116150
0.051910 0.195343 0.116974
0.083649 0.195343 0.117767
0.114410 0.195404 0.119019
0.144836 0.195465 0.120575
0.174896 0.195648 0.122711
0.204895 0.195801 0.124573
0.234985 0.196014 0.127228
0.265533 0.196259 0.130005
0.296967 0.196442 0.133270
0.329468 0.196442 0.136536
0.363220 0.196228 0.140106
0.398407 0.195679 0.144012
0.435059 0.194794 0.147919
0.473328 0.193298 0.152161
0.513062 0.191193 0.156403
0.554016 0.188416 0.160797
0.595978 0.184937 0.165070
0.638367 0.180969 0.169586
0.680786 0.176727 0.174133
0.722748 0.172455 0.178650
0.763824 0.168640 0.183167
0.803650 0.165771 0.187744
0.841736 0.164642 0.192322
0.877747 0.165741 0.196930
0.911530 0.169617 0.201477
0.943237 0.176422 0.206116
0.972961 0.185852 0.210693
0.998322 0.197571 0.215210
1.000000 0.211151 0.219788
1.000000 0.226471 0.224121
1.000000 0.242889 0.228485
0.000000 0.229218 0.133179
0.005768 0.229370 0.133789
0.035278 0.229431 0.134186
0.071960 0.229584 0.135162
0.105560 0.229858 0.136230
0.137726 0.230072 0.137146
0.168945 0.230499 0.138977
0.199738 0.230927 0.140900
0.230652 0.231476 0.142792
0.262085 0.232025 0.145203
0.294281 0.232635 0.147888
0.327484 0.233154 0.150879
0.361847 0.233551 0.153900
0.397583 0.233673 0.157013
0.434814 0.233582 0.160461
0.473511 0.233093 0.164062
0.513580 0.232117 0.167786
0.554718 0.230743 0.171509
0.596741 0.228943 0.175385
0.639130 0.226837 0.179260
0.681396 0.224640 0.183228
0.723175 0.222534 0.187286
0.764008 0.220917 0.191284
0.803528 0.220062 0.195374
0.841217 0.220581 0.199493
0.876831 0.222687 0.203644
0.910309 0.226746 0.207733
0.941681 0.232849 0.211945
0.971130 0.240814 0.216156
0.996674 0.250549 0.220306
1.000000 0.261841 0.224457
1.000000 0.274567 0.228516
1.000000 0.288361 0.232544
0.000000 0.266113 0.149872
0.000458 0.266357 0.150208
0.007385 0.266510 0.150635
0.046021 0.266754 0.151459
0.088135 0.267120 0.152252
0.124176 0.267578 0.153320
0.157928 0.268188 0.154541
0.190826 0.268890 0.156158
0.223297 0.269684 0.157867
0.255981 0.270630 0.159851
0.289429 0.271484 0.161987
0.323792 0.272369 0.164429
0.359070 0.273163 0.167084
0.395599 0.273834 0.169922
0.433594 0.274261 0.172760
0.472900 0.274445 0.175873
0.513428 0.274292 0.178986
0.554901 0.273865 0.182251
0.597046 0.273132 0.185547
0.639465 0.272186 0.188965
0.681671 0.271240 0.192413
0.723236 0.270447 0.195923
0.763763 0.270142 0.199493
0.802948 0.270447 0.203125
0.840302 0.271759 0.206787
0.875488 0.274475 0.210419
0.908600 0.278625 0.214172
0.939667 0.284302 0.217926
0.968872 0.291412 0.221710
0.994446 0.299927 0.225586
1.000000 0.309753 0.229340
1.000000 0.320740 0.233154
1.000000 0.332672 0.236908
0.000000 0.306183 0.165314
0.000000 0.306366 0.165527
0.000061 0.306641 0.165985
0.009033 0.306946 0.166595
0.049744 0.307404 0.167267
0.099152 0.308014 0.168152
0.139282 0.308746 0.169281
0.176086 0.309601 0.170441
0.211578 0.310547 0.171967
0.246643 0.311615 0.173645
0.282043 0.312744 0.175629
0.317871 0.313812 0.177429
0.354584 0.314850 0.179626
0.392273 0.315857 0.182098
0.431244 0.316650 0.184540
0.471375 0.317230 0.187195
0.512482 0.317596 0.189880
0.554413 0.317749 0.192596
0.596802 0.317688 0.195465
0.639252 0.317535 0.198425
0.681396 0.317444 0.201477
0.722778 0.317474 0.204498
0.763062 0.317932 0.207642
0.801910 0.319000 0.210846
0.838837 0.320801 0.214081
0.873657 0.323761 0.217346
0.906342 0.327911 0.220673
0.937134 0.333221 0.224060
0.966034 0.339661 0.227539
0.991730 0.347260 0.230988
1.000000 0.355927 0.234436
1.000000 0.365570 0.237885
1.000000 0.376068 0.241302
0.000000 0.348694 0.179565
0.000000 0.348938 0.179779
0.000000 0.349213 0.180054
0.000000 0.349640 0.180542
0.009003 0.350128 0.181152
0.048340 0.350769 0.181915
0.107788 0.351562 0.182678
0.153320 0.352478 0.183868
0.194244 0.353485 0.185120
0.233154 0.354584 0.186401
0.271393 0.355774 0.187958
0.309631 0.356964 0.189789
0.348083 0.358185 0.191528
0.387390 0.359253 0.193512
0.427643 0.360291 0.195740
0.468842 0.361084 0.197906
0.510712 0.361786 0.200165
0.553101 0.362305 0.202545
0.595856 0.362640 0.205017
0.638458 0.362976 0.207550
0.680573 0.363373 0.210175
0.721832 0.363922 0.212860
0.761841 0.364838 0.215546
0.800323 0.366272 0.218384
0.836853 0.368439 0.221252
0.871246 0.371429 0.224213
0.903595 0.375458 0.227203
0.934052 0.380402 0.230194
0.962677 0.386261 0.233307
0.988525 0.393127 0.236359
1.000000 0.400818 0.239502
1.000000 0.409363 0.242676
1.000000 0.418671 0.245819
0.000000 0.393158 0.192474
0.000000 0.393372 0.192719
0.000000 0.393677 0.192902
0.000000 0.394073 0.193359
0.000000 0.394562 0.193909
0.007965 0.395233 0.194458
0.047852 0.395996 0.195160
0.118011 0.396942 0.196136
0.169495 0.397949 0.197113
0.214539 0.399017 0.198303
0.257080 0.400238 0.199585
0.298492 0.401398 0.201111
0.339600 0.402588 0.202667
0.380890 0.403748 0.204315
0.422821 0.404755 0.206024
0.465271 0.405731 0.207947
0.508087 0.406525 0.209961
0.551147 0.407257 0.211945
0.594238 0.407867 0.214111
0.637054 0.408447 0.216309
0.679138 0.409119 0.218567
0.720276 0.409943 0.220886
0.760040 0.411072 0.223267
0.798157 0.412750 0.225708
0.834290 0.414978 0.228271
0.868286 0.417969 0.230804
0.900299 0.421753 0.233459
0.930420 0.426331 0.236176
0.958832 0.431641 0.238922
0.984863 0.437775 0.241760
0.999878 0.444672 0.244598
1.000000 0.452240 0.247437
1.000000 0.460510 0.250336
0.000000 0.438721 0.204254
0.000000 0.438934 0.204468
0.000000 0.439209 0.204651
0.000000 0.439606 0.205078
0.000000 0.440094 0.205475
0.000000 0.440704 0.205933
0.007568 0.441467 0.206573
0.053528 0.442322 0.207397
0.133514 0.443268 0.208252
0.189819 0.444336 0.209167
0.238708 0.445404 0.210327
0.284546 0.446533 0.211578
0.328979 0.447662 0.212860
0.372955 0.448761 0.214294
0.416809 0.449768 0.215759
0.460724 0.450653 0.217316
0.504639 0.451538 0.219055
0.548462 0.452271 0.220795
0.592041 0.452942 0.222595
0.635040 0.453674 0.224518
0.677216 0.454468 0.226471
0.718170 0.455444 0.228485
0.757721 0.456665 0.230560
0.795471 0.458344 0.232727
0.831177 0.460541 0.235016
0.864807 0.463348 0.237274
0.896454 0.466888 0.239502
0.926331 0.471039 0.242004
0.954468 0.475830 0.244537
0.980743 0.481262 0.247101
0.999634 0.487366 0.249695
1.000000 0.494019 0.252289
1.000000 0.501282 0.254944
0.000000 0.484772 0.214996
0.000000 0.484985 0.215088
0.000000 0.485229 0.215393
0.000000 0.485596 0.215637
0.000000 0.486023 0.216003
0.000000 0.486603 0.216431
0.000000 0.487244 0.217010
0.009033 0.488037 0.217651
0.072388 0.488892 0.218445
0.156311 0.489807 0.219238
0.215881 0.490814 0.220123
0.267883 0.491791 0.221191
0.316620 0.492798 0.222198
0.363678 0.493774 0.223541
0.409912 0.494659 0.224792
0.455505 0.495483 0.226105
0.500610 0.496246 0.227509
0.545227 0.497009 0.229065
0.589325 0.497681 0.230591
0.632568 0.498352 0.232239
0.674744 0.499176 0.233948
0.715637 0.500122 0.235687
0.754913 0.501343 0.237488
0.792297 0.502899 0.239441
0.827576 0.505005 0.241455
0.860809 0.507599 0.243469
0.892181 0.510742 0.245514
0.921753 0.514435 0.247742
0.949677 0.518677 0.250092
0.976044 0.523468 0.252380
0.998322 0.528839 0.254700
1.000000 0.534637 0.257172
1.000000 0.540955 0.259644
0.000000 0.530609 0.224792
0.000000 0.530792 0.224945
0.000000 0.531006 0.225098
0.000000 0.531281 0.225342
0.000000 0.531677 0.225647
0.000000 0.532166 0.226044
0.000000 0.532745 0.226501
0.000000 0.533417 0.227081
0.014526 0.534149 0.227692
0.107758 0.534943 0.228424
0.188080 0.535797 0.229248
0.248932 0.536621 0.230042
0.303040 0.537415 0.231079
0.353699 0.538269 0.232025
0.402466 0.539001 0.233185
0.449921 0.539703 0.234253
0.496307 0.540314 0.235504
0.541809 0.540924 0.236755
0.586365 0.541504 0.238129
0.629883 0.542114 0.239532
0.672058 0.542816 0.240997
0.712769 0.543671 0.242584
0.751770 0.544769 0.244171
0.788757 0.546204 0.245880
0.823608 0.548065 0.247711
0.856476 0.550385 0.249512
0.887573 0.553131 0.251404
0.916901 0.556366 0.253418
0.944580 0.560028 0.255524
0.970764 0.564178 0.257690
0.994598 0.568787 0.259796
1.000000 0.573792 0.262085
1.000000 0.579193 0.264435
0.000000 0.575500 0.233795
0.000000 0.575653 0.233948
0.000000 0.575836 0.234039
0.000000 0.576080 0.234253
0.000000 0.576416 0.234497
0.000000 0.576843 0.234863
0.000000 0.577332 0.235260
0.000000 0.577850 0.235718
0.000000 0.578461 0.236267
0.044922 0.579102 0.236877
0.154816 0.579742 0.237579
0.228699 0.580414 0.238281
0.289154 0.581024 0.239105
0.343781 0.581635 0.240051
0.395233 0.582214 0.240936
0.444550 0.582703 0.241943
0.492157 0.583191 0.242950
0.538452 0.583588 0.244110
0.583527 0.584015 0.245270
0.627197 0.584473 0.246490
0.669373 0.585022 0.247833
0.709839 0.585724 0.249146
0.748444 0.586670 0.250610
0.785034 0.587860 0.252197
0.819519 0.589417 0.253815
0.852020 0.591400 0.255524
0.882782 0.593719 0.257233
0.911896 0.596466 0.259094
0.939362 0.599548 0.261047
0.965424 0.603058 0.263031
0.989441 0.606964 0.265106
1.000000 0.611145 0.267212
1.000000 0.615692 0.269440
0.000000 0.619049 0.242126
0.000000 0.619171 0.242218
0.000000 0.619324 0.242371
0.000000 0.619537 0.242554
0.000000 0.619781 0.242767
0.000000 0.620087 0.243011
0.000000 0.620453 0.243378
0.000000 0.620880 0.243805
0.000000 0.621307 0.244232
0.011902 0.621796 0.244812
0.113068 0.622253 0.245392
0.208466 0.622681 0.246033
0.276337 0.623138 0.246704
0.335022 0.623535 0.247498
0.388977 0.623901 0.248291
0.440033 0.624176 0.249176
0.488831 0.624390 0.250153
0.535767 0.624634 0.251160
0.581116 0.624878 0.252167
0.624908 0.625122 0.253296
0.666931 0.625488 0.254486
0.707092 0.625977 0.255737
0.745239 0.626678 0.256989
0.781372 0.627625 0.258423
0.815460 0.628845 0.259918
0.847656 0.630402 0.261505
0.878082 0.632294 0.263153
0.906952 0.634521 0.264862
0.934265 0.637024 0.266754
0.960144 0.639862 0.268646
0.984406 0.643036 0.270569
0.999908 0.646484 0.272644
1.000000 0.650208 0.274811
0.000000 0.660736 0.250031
0.000000 0.660797 0.250183
0.000000 0.660919 0.250275
0.000000 0.661041 0.250397
0.000000 0.661255 0.250610
0.000000 0.661438 0.250824
0.000000 0.661682 0.251160
0.000000 0.661987 0.251495
0.000000 0.662262 0.251892
0.001007 0.662537 0.252380
0.083710 0.662842 0.252899
0.190338 0.663086 0.253479
0.266205 0.663269 0.254120
0.328644 0.663452 0.254730
0.384857 0.663574 0.255493
0.437225 0.663635 0.256287
0.486847 0.663666 0.257080
0.534241 0.663635 0.258057
0.579742 0.663666 0.258972
0.623383 0.663666 0.259979
0.665161 0.663788 0.261169
0.704865 0.664062 0.262268
0.742523 0.664459 0.263519
0.778137 0.665100 0.264832
0.811798 0.665985 0.266235
0.843628 0.667114 0.267670
0.873779 0.668518 0.269287
0.902374 0.670227 0.270966
0.929443 0.672180 0.272705
0.955200 0.674377 0.274597
0.979614 0.676849 0.276459
0.999481 0.679565 0.278473
1.000000 0.682556 0.280548
0.000000 0.699951 0.257782
0.000000 0.700012 0.257904
0.000000 0.700073 0.257996
0.000000 0.700134 0.258087
0.000000 0.700256 0.258240
0.000000 0.700348 0.258484
0.000000 0.700500 0.258789
0.000000 0.700653 0.259094
0.000000 0.700745 0.259430
0.000000 0.700836 0.259888
0.071960 0.700928 0.260345
0.178406 0.700989 0.260864
0.261108 0.700958 0.261414
0.326263 0.700897 0.262054
0.383881 0.700806 0.262726
0.437103 0.700623 0.263458
0.487061 0.700378 0.264252
0.534515 0.700165 0.265045
0.579834 0.699890 0.265961
0.623138 0.699707 0.266876
0.664429 0.699524 0.267944
0.703552 0.699524 0.269104
0.740601 0.699677 0.270172
0.775665 0.699951 0.271515
0.808807 0.700470 0.272858
0.840210 0.701233 0.274323
0.870026 0.702179 0.275848
0.898315 0.703369 0.277466
0.925201 0.704803 0.279144
0.950745 0.706421 0.280945
0.975067 0.708313 0.282806
0.997467 0.710388 0.284729
1.000000 0.712708 0.286774
0.000000 0.736267 0.265625
0.000000 0.736298 0.265686
0.000000 0.736298 0.265839
0.000000 0.736328 0.265900
0.000000 0.736328 0.266052
0.000000 0.736359 0.266266
0.000000 0.736359 0.266541
0.000000 0.736389 0.266785
0.000000 0.736328 0.267151
0.000000 0.736267 0.267578
0.074585 0.736145 0.268005
0.177826 0.735992 0.268463
0.263397 0.735809 0.268951
0.329346 0.735504 0.269501
0.387238 0.735168 0.270203
0.440399 0.734772 0.270874
0.490173 0.734314 0.271606
0.537231 0.733826 0.272430
0.581970 0.733368 0.273285
0.624542 0.732941 0.274139
0.665070 0.732513 0.275177
0.703430 0.732239 0.276276
0.739746 0.732117 0.277374
0.774139 0.732147 0.278534
0.806763 0.732300 0.279938
0.837677 0.732697 0.281281
0.867065 0.733276 0.282776
0.895020 0.734009 0.284363
0.921600 0.735016 0.285950
0.946930 0.736176 0.287689
0.971069 0.737518 0.289490
0.993683 0.739075 0.291382
1.000000 0.740845 0.293335
0.000000 0.769409 0.273712
0.000000 0.769409 0.273834
0.000000 0.769379 0.273956
0.000000 0.769348 0.274017
0.000000 0.769287 0.274200
0.000000 0.769226 0.274353
0.000000 0.769135 0.274597
0.000000 0.769012 0.274841
0.000000 0.768829 0.275146
0.006195 0.768616 0.275574
0.091248 0.768341 0.275970
0.192566 0.768005 0.276398
0.274323 0.767609 0.276886
0.338715 0.767120 0.277405
0.395477 0.766602 0.277954
0.447601 0.766022 0.278687
0.496429 0.765381 0.279327
0.542542 0.764679 0.280121
0.586334 0.764038 0.280945
0.627930 0.763397 0.281830
0.667297 0.762817 0.282776
0.704681 0.762299 0.283844
0.740143 0.761932 0.284943
0.773773 0.761719 0.286072
0.805725 0.761627 0.287292
0.836121 0.761719 0.288666
0.864990 0.761932 0.290100
0.892548 0.762360 0.291595
0.918793 0.762970 0.293182
0.943787 0.763702 0.294769
0.967712 0.764618 0.296570
0.990295 0.765747 0.298370
1.000000 0.767029 0.300232
0.000000 0.799500 0.282166
0.000000 0.799469 0.282318
0.000000 0.799377 0.282318
0.000000 0.799316 0.282501
0.000000 0.799194 0.282654
0.000000 0.799072 0.282745
0.000000 0.798889 0.282959
0.000000 0.798645 0.283234
0.000000 0.798370 0.283539
0.028076 0.798004 0.283844
0.122467 0.797607 0.284271
0.219788 0.797119 0.284668
0.293243 0.796570 0.285156
0.354004 0.795929 0.285645
0.408447 0.795258 0.286163
0.458710 0.794495 0.286774
0.505829 0.793732 0.287506
0.550507 0.792908 0.288147
0.592865 0.792084 0.288971
0.633026 0.791321 0.289825
0.671173 0.790558 0.290741
0.707397 0.789917 0.291718
0.741760 0.789368 0.292816
0.774567 0.788940 0.293915
0.805786 0.788605 0.295105
0.835510 0.788422 0.296387
0.863861 0.788422 0.297729
0.890930 0.788513 0.299164
0.916748 0.788788 0.300690
0.941437 0.789215 0.302277
0.965057 0.789764 0.303925
0.987457 0.790527 0.305634
1.000000 0.791382 0.307465
0.000000 0.826752 0.290955
0.000000 0.826660 0.291046
0.000000 0.826569 0.291107
0.000000 0.826477 0.291199
0.000000 0.826324 0.291351
0.000000 0.826111 0.291443
0.000000 0.825867 0.291626
0.000000 0.825562 0.291870
0.007141 0.825165 0.292175
0.073425 0.824707 0.292450
0.167084 0.824188 0.292847
0.254059 0.823608 0.293243
0.318390 0.822937 0.293671
0.374329 0.822205 0.294128
0.425476 0.821411 0.294647
0.473145 0.820526 0.295258
0.518097 0.819641 0.295837
0.560791 0.818726 0.296509
0.601379 0.817780 0.297302
0.639923 0.816895 0.298126
0.676544 0.816040 0.298950
0.711487 0.815277 0.299896
0.744781 0.814575 0.300934
0.776550 0.813965 0.302032
0.806976 0.813446 0.303162
0.835968 0.813049 0.304382
0.863678 0.812836 0.305695
0.890198 0.812683 0.307037
0.915588 0.812683 0.308533
0.939850 0.812836 0.310089
0.963165 0.813110 0.311646
0.985352 0.813507 0.313324
1.000000 0.814056 0.315033
0.000000 0.851410 0.299896
0.000000 0.851318 0.299957
0.000000 0.851196 0.300079
0.000000 0.851074 0.300110
0.000000 0.850861 0.300262
0.000000 0.850586 0.300415
0.000000 0.850311 0.300537
0.006683 0.849945 0.300781
0.049347 0.849487 0.301025
0.137421 0.848938 0.301270
0.226318 0.848328 0.301636
0.291870 0.847656 0.302032
0.347748 0.846924 0.302460
0.398468 0.846100 0.302887
0.445801 0.845215 0.303345
0.490448 0.844269 0.303894
0.532745 0.843292 0.304474
0.573120 0.842316 0.305115
0.611603 0.841309 0.305847
0.648346 0.840332 0.306671
0.683411 0.839417 0.307495
0.716919 0.838531 0.308350
0.749023 0.837708 0.309357
0.779755 0.837006 0.310394
0.809204 0.836334 0.311462
0.837463 0.835754 0.312653
0.864441 0.835297 0.313904
0.890381 0.834991 0.315308
0.915222 0.834747 0.316650
0.939087 0.834686 0.318115
0.961975 0.834717 0.319702
0.983948 0.834839 0.321228
1.000000 0.835052 0.322968
0.000000 0.873749 0.309052
0.000000 0.873657 0.309052
0.000000 0.873535 0.309113
0.000000 0.873383 0.309204
0.000000 0.873138 0.309296
0.000824 0.872833 0.309479
0.018097 0.872467 0.309631
0.051453 0.872070 0.309814
0.134888 0.871552 0.310059
0.216064 0.870972 0.310303
0.277954 0.870331 0.310638
0.331055 0.869568 0.311005
0.379608 0.868774 0.311401
0.425171 0.867889 0.311829
0.468475 0.866943 0.312286
0.509796 0.865967 0.312805
0.549255 0.864929 0.313385
0.587036 0.863892 0.313965
0.623352 0.862885 0.314667
0.658142 0.861847 0.315399
0.691559 0.860840 0.316193
0.723602 0.859894 0.317078
0.754456 0.858978 0.318024
0.784088 0.858154 0.319000
0.812531 0.857391 0.320099
0.839905 0.856689 0.321228
0.866150 0.856110 0.322418
0.891449 0.855591 0.323669
0.915710 0.855225 0.325043
0.939087 0.854919 0.326447
0.961578 0.854736 0.327972
0.983215 0.854675 0.329498
1.000000 0.854675 0.331177
0.000000 0.894012 0.318329
0.000000 0.893890 0.318359
0.000122 0.893738 0.318359
0.008850 0.893585 0.318512
0.018738 0.893341 0.318573
0.031982 0.893036 0.318726
0.091248 0.892639 0.318878
0.164246 0.892181 0.319061
0.226288 0.891663 0.319305
0.278656 0.891052 0.319519
0.325989 0.890350 0.319824
0.370331 0.889557 0.320190
0.412659 0.888702 0.320557
0.453369 0.887787 0.320953
0.492645 0.886841 0.321411
0.530518 0.885803 0.321899
0.567017 0.884796 0.322449
0.602264 0.883728 0.323059
0.636322 0.882660 0.323700
0.669189 0.881592 0.324432
0.700867 0.880554 0.325195
0.731476 0.879578 0.326019
0.760956 0.878601 0.326935
0.789459 0.877686 0.327881
0.816864 0.876831 0.328857
