滤镜资源/Professional Luts Collection/Lutify.me Professional/Alternative Process/Amethyst.cube
# Created by: Lutify.me
# Copyright: (c) Copyright Lutify.me 2015
# Website: https://lutify.me
#LUT size
LUT_3D_SIZE 9
#LUT data points
0.000000 0.000000 0.076630
0.120728 0.000854 0.089661
0.222290 0.000122 0.101501
0.331024 0.000000 0.113525
0.448517 0.000000 0.125397
0.573700 0.000000 0.136658
0.707092 0.000000 0.146790
0.846619 0.000000 0.155487
0.981934 0.000000 0.163330
0.023865 0.102142 0.111389
0.118042 0.101044 0.113525
0.221313 0.099854 0.118561
0.331299 0.097015 0.125854
0.449371 0.089661 0.134399
0.574738 0.073608 0.143280
0.708191 0.039917 0.151581
0.847504 0.001495 0.159058
0.982330 0.000000 0.165894
0.018951 0.211761 0.137451
0.112305 0.211975 0.138519
0.218567 0.212341 0.140808
0.331024 0.212799 0.144745
0.450348 0.212250 0.149719
0.576385 0.209625 0.155243
0.710480 0.202637 0.160950
0.849365 0.190247 0.166290
0.983032 0.178680 0.171387
0.000000 0.335785 0.158722
0.074371 0.336212 0.159180
0.203705 0.337250 0.160400
0.325012 0.338593 0.162415
0.448608 0.339844 0.165100
0.577301 0.340118 0.168243
0.713135 0.338043 0.171600
0.851562 0.333771 0.174774
0.983551 0.330811 0.177795
0.000000 0.467957 0.173798
0.000000 0.468323 0.174072
0.168579 0.469147 0.174683
0.310455 0.470337 0.175690
0.442932 0.471588 0.177032
0.577087 0.472107 0.178467
0.715851 0.471161 0.179932
0.853516 0.469238 0.181244
0.983337 0.468262 0.182465
0.000000 0.600433 0.182434
0.000000 0.600616 0.182465
0.107758 0.601044 0.182770
0.291931 0.601562 0.183136
0.437531 0.601898 0.183746
0.579102 0.601471 0.184296
0.720337 0.599884 0.184814
0.856415 0.597809 0.185364
0.983032 0.596527 0.186249
0.000000 0.724457 0.188324
0.000000 0.724487 0.188354
0.077179 0.724426 0.188538
0.291077 0.724182 0.188812
0.445282 0.723419 0.189117
0.590546 0.721863 0.189453
0.730286 0.719543 0.189880
0.862518 0.717072 0.190460
0.984009 0.715424 0.191467
0.000000 0.838226 0.195984
0.000000 0.838104 0.195984
0.152618 0.837738 0.196045
0.327728 0.836945 0.196228
0.474731 0.835602 0.196533
0.613831 0.833618 0.196777
0.746490 0.831268 0.197266
0.871521 0.829010 0.197876
0.986237 0.827667 0.198822
0.027557 0.946472 0.204315
0.139862 0.946320 0.204224
0.263153 0.945831 0.204315
0.390015 0.944977 0.204315
0.517426 0.943695 0.204346
0.643158 0.942078 0.204529
0.765198 0.940338 0.204590
0.879944 0.939056 0.204956
0.987671 0.938568 0.205627
0.000000 0.000000 0.197479
0.100739 0.000427 0.197876
0.213135 0.000031 0.199280
0.326263 0.000000 0.201630
0.445892 0.000000 0.204956
0.572296 0.000000 0.208923
0.706390 0.000000 0.213135
0.846252 0.000000 0.217102
0.981628 0.000000 0.220734
0.000000 0.101624 0.201050
0.101532 0.100830 0.201599
0.213470 0.099579 0.202881
0.327148 0.096741 0.205139
0.447052 0.089142 0.208069
0.573456 0.072906 0.211639
0.707611 0.038727 0.215363
0.847198 0.001343 0.218811
0.982056 0.000000 0.222015
0.000366 0.211731 0.209381
0.098602 0.211914 0.209747
0.212036 0.212402 0.210785
0.327576 0.212769 0.212341
0.448425 0.212158 0.214569
0.575348 0.209442 0.217194
0.709991 0.202393 0.219818
0.849121 0.189972 0.222321
0.982819 0.178650 0.224548
0.000000 0.335907 0.218781
0.058044 0.336334 0.219055
0.198486 0.337311 0.219604
0.322327 0.338715 0.220551
0.447144 0.339905 0.221832
0.576569 0.340088 0.223328
0.712860 0.337952 0.224762
0.851440 0.333710 0.225983
0.983398 0.330750 0.227020
0.000000 0.468048 0.225555
0.000000 0.468384 0.225647
0.164124 0.469238 0.225952
0.308624 0.470398 0.226379
0.442078 0.471588 0.226898
0.576782 0.472107 0.227417
0.715790 0.471161 0.227814
0.853516 0.469238 0.228058
0.983215 0.468292 0.228271
0.000000 0.600494 0.228333
0.000000 0.600677 0.228424
0.103912 0.601074 0.228516
0.291077 0.601593 0.228638
0.437256 0.601898 0.228851
0.579224 0.601410 0.228973
0.720520 0.599854 0.228973
0.856476 0.597809 0.229034
0.983002 0.596558 0.229218
0.000000 0.724487 0.230591
0.000000 0.724487 0.230591
0.076599 0.724426 0.230682
0.291168 0.724152 0.230804
0.445679 0.723389 0.230927
0.590912 0.721802 0.231049
0.730530 0.719513 0.231079
0.862640 0.717010 0.231354
0.983948 0.715424 0.231812
0.000000 0.838196 0.234924
0.000000 0.838043 0.234894
0.154510 0.837677 0.234985
0.328674 0.836884 0.235046
0.475403 0.835541 0.235199
0.614319 0.833588 0.235260
0.746857 0.831238 0.235474
0.871643 0.828979 0.235748
0.986206 0.827667 0.236389
0.036652 0.946472 0.240295
0.143219 0.946289 0.240295
0.264893 0.945801 0.240265
0.391144 0.944946 0.240295
0.518097 0.943665 0.240295
0.643616 0.942017 0.240265
0.765472 0.940308 0.240295
0.880005 0.939056 0.240509
0.987610 0.938568 0.240753
0.000000 0.000031 0.302307
0.072510 0.000153 0.302460
0.201233 0.000000 0.302887
0.320160 0.000000 0.303741
0.442749 0.000000 0.304840
0.570770 0.000000 0.306183
0.706024 0.000000 0.307465
0.846283 0.000000 0.308472
0.981537 0.000000 0.309326
0.000000 0.100708 0.303558
0.074188 0.100403 0.303711
0.202240 0.099060 0.304199
0.321381 0.095917 0.304962
0.444061 0.088043 0.305969
0.572083 0.071198 0.307098
0.707306 0.036285 0.308167
0.847290 0.001007 0.308960
0.981964 0.000000 0.309570
0.000000 0.211853 0.306366
0.072784 0.211945 0.306549
0.201843 0.212433 0.306854
0.322601 0.212708 0.307373
0.445892 0.211945 0.308075
0.574280 0.209106 0.308807
0.709900 0.201843 0.309387
0.849274 0.189545 0.309753
0.982819 0.178345 0.309967
0.000000 0.336151 0.309143
0.024353 0.336578 0.309204
0.189850 0.337524 0.309326
0.318359 0.338806 0.309601
0.445312 0.339905 0.309875
0.576019 0.340027 0.310150
0.713074 0.337769 0.310242
0.851685 0.333527 0.310089
0.983429 0.330750 0.309814
0.000000 0.468292 0.310089
0.000000 0.468628 0.310089
0.156982 0.469421 0.310120
0.306030 0.470520 0.310120
0.441162 0.471649 0.310120
0.576874 0.472107 0.309967
0.716309 0.471069 0.309662
0.853912 0.469147 0.309143
0.983276 0.468323 0.308594
0.000000 0.600616 0.308838
0.000000 0.600800 0.308807
0.098022 0.601166 0.308807
0.290100 0.601654 0.308716
0.437439 0.601898 0.308563
0.579987 0.601349 0.308319
0.721283 0.599731 0.307922
0.856964 0.597717 0.307434
0.983032 0.596527 0.307068
0.000000 0.724518 0.307587
0.000000 0.724457 0.307587
0.078064 0.724396 0.307587
0.292358 0.724091 0.307556
0.447052 0.723297 0.307434
0.592194 0.721680 0.307251
0.731445 0.719391 0.307037
0.863129 0.716949 0.306793
0.983978 0.715393 0.306732
0.000000 0.838104 0.308319
0.000000 0.837982 0.308289
0.159851 0.837585 0.308258
0.331512 0.836761 0.308258
0.477478 0.835388 0.308167
0.615784 0.833435 0.308075
0.747803 0.831116 0.308014
0.872040 0.828888 0.307953
0.986176 0.827637 0.308136
0.059052 0.946350 0.310150
0.152252 0.946167 0.310150
0.269592 0.945679 0.310089
0.394196 0.944824 0.310059
0.520172 0.943512 0.309906
0.644989 0.941925 0.309814
0.766205 0.940216 0.309692
0.880219 0.938995 0.309631
0.987518 0.938568 0.309692
0.000000 0.000000 0.405548
0.035736 0.000000 0.405609
0.189819 0.000000 0.405792
0.315277 0.000000 0.406158
0.440948 0.000000 0.406586
0.570740 0.000000 0.407074
0.707184 0.000000 0.407410
0.847595 0.000000 0.407532
0.982269 0.000000 0.407318
0.000000 0.099792 0.406128
0.039398 0.099396 0.406189
0.191223 0.098114 0.406372
0.316833 0.094513 0.406647
0.442413 0.085999 0.407074
0.572174 0.068207 0.407410
0.708527 0.031708 0.407623
0.848572 0.000610 0.407562
0.982697 0.000000 0.407288
0.000000 0.211945 0.407227
0.037659 0.212097 0.407288
0.192108 0.212463 0.407410
0.318604 0.212585 0.407532
0.444580 0.211700 0.407715
0.574615 0.208588 0.407806
0.711243 0.200928 0.407745
0.850586 0.188477 0.407440
0.983490 0.177979 0.406891
0.000000 0.336639 0.407745
0.003479 0.337036 0.407776
0.181610 0.337891 0.407806
0.315430 0.339111 0.407776
0.444672 0.340027 0.407715
0.576813 0.339935 0.407532
0.714630 0.337494 0.407135
0.853027 0.333282 0.406555
0.984070 0.330688 0.405762
0.000000 0.468689 0.406677
0.000000 0.469025 0.406677
0.150909 0.469757 0.406586
0.304596 0.470795 0.406464
0.441559 0.471802 0.406219
0.578430 0.472076 0.405853
0.718170 0.470917 0.405212
0.855255 0.469055 0.404419
0.983826 0.468384 0.403564
0.000000 0.600830 0.403870
0.000000 0.600983 0.403809
0.096161 0.601349 0.403717
0.291168 0.601746 0.403564
0.439362 0.601898 0.403259
0.582336 0.601257 0.402832
0.723389 0.599609 0.402252
0.858368 0.597595 0.401611
0.983459 0.596558 0.400909
0.000000 0.724457 0.400970
0.000000 0.724457 0.400940
0.085815 0.724335 0.400879
0.296570 0.723999 0.400757
0.450653 0.723114 0.400543
0.595215 0.721466 0.400238
0.733673 0.719147 0.399841
0.864410 0.716797 0.399414
0.984314 0.715363 0.399017
0.000000 0.837952 0.399536
0.000000 0.837769 0.399536
0.172424 0.837372 0.399475
0.337769 0.836517 0.399384
0.481903 0.835144 0.399231
0.618866 0.833191 0.399017
0.749847 0.830902 0.398773
0.873016 0.828766 0.398529
0.986359 0.827606 0.398346
0.092438 0.946136 0.399078
0.168976 0.945923 0.399078
0.279114 0.945465 0.398926
0.400208 0.944580 0.398865
0.524231 0.943329 0.398682
0.647736 0.941742 0.398468
0.767761 0.940094 0.398254
0.880829 0.938965 0.398010
0.987518 0.938599 0.397827
0.000000 0.000000 0.507782
0.004639 0.000000 0.507812
0.181274 0.000000 0.507904
0.313171 0.000000 0.508026
0.441620 0.000000 0.508240
0.573029 0.000000 0.508331
0.710571 0.000000 0.508301
0.850647 0.000000 0.508057
0.984161 0.000000 0.507568
0.000000 0.098694 0.508026
0.008148 0.098236 0.508057
0.183563 0.096680 0.508148
0.315002 0.092468 0.508240
0.443268 0.082977 0.508362
0.574554 0.063690 0.508423
0.711945 0.024994 0.508301
0.851593 0.000031 0.507965
0.984558 0.000000 0.507385
0.000000 0.212189 0.508453
0.010071 0.212341 0.508453
0.185730 0.212585 0.508484
0.317413 0.212433 0.508484
0.445709 0.211243 0.508453
0.577240 0.207703 0.508331
0.714752 0.199524 0.508057
0.853546 0.187195 0.507507
0.985229 0.177551 0.506744
0.000000 0.337372 0.508209
0.000244 0.337708 0.508179
0.177490 0.338440 0.508118
0.315430 0.339447 0.508026
0.446533 0.340210 0.507812
0.579987 0.339752 0.507507
0.718323 0.337036 0.506958
0.855927 0.332886 0.506226
0.985657 0.330811 0.505341
0.000000 0.469330 0.506409
0.000000 0.469604 0.506378
0.150879 0.470245 0.506287
0.306580 0.471191 0.506104
0.444763 0.471985 0.505829
0.582458 0.472015 0.505341
0.722076 0.470703 0.504669
0.858093 0.468903 0.503815
0.985229 0.468506 0.502869
0.000000 0.601135 0.503174
0.000000 0.601288 0.503113
0.106293 0.601562 0.503021
0.296448 0.601868 0.502808
0.444489 0.601898 0.502502
0.587341 0.601074 0.502014
0.727417 0.599335 0.501404
0.861053 0.597443 0.500671
0.984650 0.596588 0.499908
0.000000 0.724457 0.499725
0.000000 0.724396 0.499725
0.105194 0.724243 0.499603
0.305908 0.723816 0.499451
0.457764 0.722839 0.499207
0.600800 0.721100 0.498810
0.737579 0.718872 0.498352
0.866852 0.716553 0.497864
0.985260 0.715332 0.497314
0.000000 0.837677 0.497284
0.004333 0.837494 0.497253
0.193817 0.837036 0.497162
0.349091 0.836182 0.497040
0.489655 0.834747 0.496796
0.624268 0.832825 0.496582
0.753418 0.830597 0.496216
0.874878 0.828583 0.495850
0.987000 0.827545 0.495544
0.133972 0.945770 0.495392
0.194672 0.945618 0.495331
0.294678 0.945099 0.495270
0.410400 0.944244 0.495148
0.531097 0.942993 0.494904
0.652405 0.941437 0.494690
0.770447 0.939911 0.494324
0.882111 0.938873 0.494019
0.987915 0.938599 0.493713
0.000000 0.000000 0.608795
0.001892 0.000000 0.608856
0.180298 0.000000 0.608887
0.315765 0.000000 0.608917
0.445953 0.000000 0.608948
0.578644 0.000000 0.608917
0.716827 0.000000 0.608704
0.855774 0.000000 0.608307
0.987427 0.000000 0.607666
0.000000 0.097260 0.608948
0.003082 0.096527 0.608948
0.183258 0.094452 0.608978
0.317871 0.089233 0.609009
0.447693 0.078583 0.608978
0.580231 0.056915 0.608887
0.718201 0.016357 0.608612
0.856689 0.000000 0.608093
0.987762 0.000000 0.607391
0.000000 0.212524 0.609009
0.004913 0.212555 0.609039
0.187012 0.212585 0.608978
0.320862 0.212189 0.608917
0.450531 0.210602 0.608795
0.583160 0.206451 0.608551
0.721039 0.197601 0.608124
0.858521 0.185638 0.607483
0.988312 0.177216 0.606689
0.000000 0.338257 0.608337
0.000397 0.338531 0.608307
0.181732 0.339111 0.608246
0.320282 0.339905 0.608093
0.452209 0.340332 0.607819
0.586548 0.339447 0.607452
0.724731 0.336395 0.606873
0.860718 0.332520 0.606079
0.988495 0.331055 0.605164
0.000000 0.470093 0.606323
0.000000 0.470306 0.606293
0.161438 0.470856 0.606140
0.314117 0.471649 0.605957
0.452057 0.472229 0.605621
0.589905 0.471924 0.605133
0.728607 0.470459 0.604431
0.862701 0.468842 0.603607
0.987701 0.468781 0.602661
0.000000 0.601532 0.602936
0.000000 0.601624 0.602905
0.132507 0.601837 0.602783
0.308258 0.602020 0.602570
0.454285 0.601807 0.602203
0.595764 0.600769 0.601746
0.733948 0.599060 0.601105
0.865448 0.597229 0.600342
0.986816 0.596741 0.599548
0.000000 0.724335 0.599274
0.000000 0.724274 0.599243
0.146088 0.724060 0.599121
0.322327 0.723541 0.598938
0.469543 0.722443 0.598663
0.609650 0.720673 0.598297
0.743805 0.718445 0.597778
0.870728 0.716309 0.597198
0.987030 0.715332 0.596619
0.000000 0.837250 0.596161
0.045837 0.837097 0.596130
0.225128 0.836609 0.596039
0.366638 0.835693 0.595886
0.501587 0.834259 0.595642
0.632568 0.832367 0.595337
0.759033 0.830231 0.594971
0.877960 0.828400 0.594543
0.988403 0.827515 0.594086
0.180786 0.945343 0.593353
0.229218 0.945099 0.593323
0.317139 0.944641 0.593231
0.425446 0.943787 0.593048
0.541534 0.942566 0.592865
0.659546 0.941101 0.592529
0.774811 0.939697 0.592163
0.884399 0.938812 0.591766
0.988983 0.938629 0.591339
0.000000 0.000000 0.707642
0.015625 0.000000 0.707672
0.192352 0.000000 0.707672
0.325836 0.000000 0.707642
0.455750 0.000000 0.707581
0.588776 0.000000 0.707428
0.726654 0.000000 0.707123
0.863403 0.000000 0.706573
0.992401 0.000000 0.705841
0.000000 0.094604 0.707672
0.026611 0.093781 0.707672
0.195892 0.090942 0.707672
0.328156 0.084778 0.707611
0.457611 0.072388 0.707520
0.590454 0.047516 0.707306
0.728058 0.007324 0.706909
0.864258 0.000000 0.706329
0.992615 0.000000 0.705597
0.000000 0.212677 0.707520
0.039001 0.212616 0.707489
0.200714 0.212463 0.707428
0.331665 0.211731 0.707336
0.460815 0.209595 0.707123
0.593689 0.204651 0.706818
0.730896 0.195221 0.706299
0.865967 0.183807 0.705658
0.992981 0.177277 0.704803
0.000000 0.339203 0.706573
0.025055 0.339417 0.706543
0.198883 0.339844 0.706451
0.332703 0.340393 0.706268
0.463593 0.340393 0.705994
0.597687 0.338959 0.705536
0.734558 0.335632 0.704956
0.867920 0.332184 0.704163
0.992767 0.331543 0.703217
0.000000 0.470947 0.704407
0.000336 0.471130 0.704376
0.186554 0.471588 0.704254
0.329773 0.472137 0.704041
0.465332 0.472382 0.703674
0.601929 0.471741 0.703156
0.738312 0.470184 0.702484
0.869629 0.468750 0.701630
0.991638 0.469238 0.700684
0.000000 0.601898 0.701019
0.000000 0.601959 0.700958
0.172699 0.602081 0.700836
0.328857 0.602081 0.700592
0.470215 0.601593 0.700256
0.608612 0.600403 0.699768
0.743439 0.598694 0.699127
0.871948 0.597076 0.698425
0.990295 0.596924 0.697601
0.000000 0.724152 0.697235
0.007751 0.724060 0.697174
0.195526 0.723755 0.697083
0.347382 0.723083 0.696899
0.487183 0.721893 0.696594
0.622498 0.720093 0.696198
0.752930 0.717957 0.695679
0.876404 0.716064 0.695099
0.990021 0.715332 0.694458
0.041626 0.836700 0.693756
0.144409 0.836487 0.693726
0.265350 0.835999 0.693634
0.391357 0.835052 0.693481
0.518524 0.833618 0.693237
0.644470 0.831787 0.692871
0.767059 0.829742 0.692505
0.882629 0.828186 0.692017
0.990875 0.827545 0.691498
0.232208 0.944733 0.690369
0.270630 0.944519 0.690369
0.346588 0.944061 0.690247
0.446014 0.943237 0.690094
0.556091 0.942078 0.689880
0.669617 0.940674 0.689545
0.781036 0.939453 0.689178
0.888000 0.938751 0.688721
0.991119 0.938690 0.688232
0.000000 0.000000 0.803680
0.087891 0.000000 0.803680
0.220276 0.000000 0.803650
0.345551 0.000000 0.803589
0.472717 0.000000 0.803467
0.604767 0.000000 0.803253
0.740723 0.000000 0.802826
0.874023 0.000000 0.802277
0.998993 0.000000 0.801544
0.000092 0.090515 0.803619
0.096222 0.089325 0.803619
0.223969 0.085754 0.803589
0.347992 0.078369 0.803497
0.474670 0.063751 0.803345
0.606476 0.035370 0.803070
0.742035 0.002228 0.802643
0.874695 0.000000 0.802032
0.999146 0.000000 0.801270
0.002563 0.212616 0.803314
0.106842 0.212463 0.803314
0.229401 0.212097 0.803223
0.352051 0.210907 0.803101
0.478302 0.208099 0.802856
0.609955 0.202118 0.802490
0.744751 0.192291 0.802002
0.876190 0.182068 0.801300
0.999207 0.178162 0.800476
0.002045 0.340149 0.802246
0.105988 0.340302 0.802216
0.230774 0.340546 0.802124
0.354736 0.340729 0.801910
0.482147 0.340210 0.801636
0.614380 0.338226 0.801178
0.748169 0.334778 0.800598
0.877808 0.331879 0.799805
0.998688 0.332520 0.798889
0.000000 0.471832 0.800049
0.086151 0.471985 0.800018
0.225800 0.472290 0.799896
0.355194 0.472565 0.799652
0.485962 0.472412 0.799316
0.619202 0.471436 0.798828
0.751648 0.469879 0.798157
0.878998 0.468781 0.797363
0.997040 0.469971 0.796478
0.000000 0.602234 0.796753
0.065094 0.602264 0.796722
0.223816 0.602234 0.796600
0.359375 0.602020 0.796356
0.493073 0.601288 0.796021
0.626221 0.599945 0.795563
0.756317 0.598328 0.794952
0.880615 0.596954 0.794250
0.995209 0.597260 0.793488
0.014343 0.723785 0.793091
0.120819 0.723633 0.793060
0.251495 0.723267 0.792938
0.380890 0.722504 0.792725
0.510773 0.721222 0.792450
0.639557 0.719421 0.792053
0.765015 0.717407 0.791565
0.883972 0.715820 0.790985
0.994354 0.715485 0.790405
0.171082 0.835968 0.789612
0.221954 0.835724 0.789581
0.312286 0.835205 0.789490
0.422516 0.834259 0.789307
0.540314 0.832855 0.789062
0.659973 0.831116 0.788757
0.777466 0.829285 0.788361
0.888916 0.827972 0.787903
0.994598 0.827576 0.787384
0.285706 0.944031 0.786133
0.316803 0.943817 0.786102
0.381744 0.943390 0.786011
0.471649 0.942596 0.785889
0.574677 0.941467 0.785614
0.682404 0.940247 0.785339
0.789215 0.939240 0.784943
0.893036 0.938721 0.784515
0.994385 0.938782 0.784027
0.098358 0.000000 0.898346
0.162415 0.000000 0.898346
0.261169 0.000000 0.898285
0.374969 0.000000 0.898224
0.497253 0.000000 0.898071
0.626587 0.000000 0.897827
0.758667 0.000000 0.897430
0.887115 0.000000 0.896881
1.000000 0.000000 0.896179
0.106445 0.084351 0.898285
0.167542 0.082794 0.898254
0.264526 0.078552 0.898193
0.377411 0.069336 0.898102
0.499329 0.051300 0.897919
0.628265 0.019409 0.897644
0.759766 0.000580 0.897217
0.887726 0.000000 0.896637
1.000000 0.000000 0.895905
0.118347 0.212128 0.897888
0.175629 0.211945 0.897858
0.270142 0.211182 0.897797
0.381866 0.209534 0.897644
0.503326 0.205780 0.897430
0.631775 0.198822 0.897064
0.762207 0.189178 0.896576
0.888855 0.180511 0.895935
1.000000 0.180023 0.895172
0.122864 0.340942 0.896820
0.179596 0.341003 0.896790
0.273987 0.341064 0.896698
0.386230 0.340820 0.896515
0.508270 0.339661 0.896240
0.636292 0.337219 0.895813
0.765167 0.333984 0.895264
0.889954 0.331848 0.894562
1.000000 0.334045 0.893738
0.116516 0.472626 0.894775
0.177002 0.472717 0.894745
0.275024 0.472809 0.894623
0.390015 0.472778 0.894440
0.513519 0.472260 0.894073
0.641113 0.471069 0.893646
0.768066 0.469635 0.893036
0.890411 0.469025 0.892334
1.000000 0.470978 0.891541
0.118378 0.602386 0.891785
0.180939 0.602325 0.891754
0.281433 0.602142 0.891632
0.398102 0.601715 0.891418
0.521881 0.600800 0.891113
0.647797 0.599426 0.890686
0.772064 0.597900 0.890167
0.890961 0.596985 0.889557
1.000000 0.597809 0.888885
0.170837 0.723175 0.888519
0.220642 0.723022 0.888458
0.310242 0.722595 0.888367
0.420532 0.721710 0.888184
0.539093 0.720398 0.887909
0.660034 0.718689 0.887573
0.779449 0.716858 0.887115
0.893005 0.715668 0.886627
0.999756 0.715668 0.886108
0.256195 0.835022 0.885345
0.290985 0.834778 0.885315
0.362305 0.834259 0.885223
0.458008 0.833313 0.885071
0.565796 0.832001 0.884888
0.678253 0.830353 0.884583
0.789551 0.828827 0.884247
0.896484 0.827820 0.883820
0.999298 0.827667 0.883423
0.338959 0.943176 0.882233
0.364136 0.943024 0.882233
0.420074 0.942596 0.882111
0.500702 0.941833 0.881989
0.595886 0.940857 0.881775
0.696991 0.939819 0.881531
0.798737 0.939056 0.881226
0.899139 0.938721 0.880829
0.998718 0.938965 0.880310
