滤镜资源/Professional Luts Collection/Lutify.me Professional/Alternative Process/Amethyst.cube
# Created by: Lutify.me
# Copyright: (c) Copyright Lutify.me 2015
# Website: https://lutify.me
#LUT size
LUT_3D_SIZE 5
#LUT data points
0.000000 0.000000 0.076630
0.222290 0.000122 0.101501
0.448517 0.000000 0.125397
0.707092 0.000000 0.146790
0.981934 0.000000 0.163330
0.018951 0.211761 0.137451
0.218567 0.212341 0.140808
0.450348 0.212250 0.149719
0.710480 0.202637 0.160950
0.983032 0.178680 0.171387
0.000000 0.467957 0.173798
0.168579 0.469147 0.174683
0.442932 0.471588 0.177032
0.715851 0.471161 0.179932
0.983337 0.468262 0.182465
0.000000 0.724457 0.188324
0.077179 0.724426 0.188538
0.445282 0.723419 0.189117
0.730286 0.719543 0.189880
0.984009 0.715424 0.191467
0.027557 0.946472 0.204315
0.263153 0.945831 0.204315
0.517426 0.943695 0.204346
0.765198 0.940338 0.204590
0.987671 0.938568 0.205627
0.000000 0.000031 0.302307
0.201233 0.000000 0.302887
0.442749 0.000000 0.304840
0.706024 0.000000 0.307465
0.981537 0.000000 0.309326
0.000000 0.211853 0.306366
0.201843 0.212433 0.306854
0.445892 0.211945 0.308075
0.709900 0.201843 0.309387
0.982819 0.178345 0.309967
0.000000 0.468292 0.310089
0.156982 0.469421 0.310120
0.441162 0.471649 0.310120
0.716309 0.471069 0.309662
0.983276 0.468323 0.308594
0.000000 0.724518 0.307587
0.078064 0.724396 0.307587
0.447052 0.723297 0.307434
0.731445 0.719391 0.307037
0.983978 0.715393 0.306732
0.059052 0.946350 0.310150
0.269592 0.945679 0.310089
0.520172 0.943512 0.309906
0.766205 0.940216 0.309692
0.987518 0.938568 0.309692
0.000000 0.000000 0.507782
0.181274 0.000000 0.507904
0.441620 0.000000 0.508240
0.710571 0.000000 0.508301
0.984161 0.000000 0.507568
0.000000 0.212189 0.508453
0.185730 0.212585 0.508484
0.445709 0.211243 0.508453
0.714752 0.199524 0.508057
0.985229 0.177551 0.506744
0.000000 0.469330 0.506409
0.150879 0.470245 0.506287
0.444763 0.471985 0.505829
0.722076 0.470703 0.504669
0.985229 0.468506 0.502869
0.000000 0.724457 0.499725
0.105194 0.724243 0.499603
0.457764 0.722839 0.499207
0.737579 0.718872 0.498352
0.985260 0.715332 0.497314
0.133972 0.945770 0.495392
0.294678 0.945099 0.495270
0.531097 0.942993 0.494904
0.770447 0.939911 0.494324
0.987915 0.938599 0.493713
0.000000 0.000000 0.707642
0.192352 0.000000 0.707672
0.455750 0.000000 0.707581
0.726654 0.000000 0.707123
0.992401 0.000000 0.705841
0.000000 0.212677 0.707520
0.200714 0.212463 0.707428
0.460815 0.209595 0.707123
0.730896 0.195221 0.706299
0.992981 0.177277 0.704803
0.000000 0.470947 0.704407
0.186554 0.471588 0.704254
0.465332 0.472382 0.703674
0.738312 0.470184 0.702484
0.991638 0.469238 0.700684
0.000000 0.724152 0.697235
0.195526 0.723755 0.697083
0.487183 0.721893 0.696594
0.752930 0.717957 0.695679
0.990021 0.715332 0.694458
0.232208 0.944733 0.690369
0.346588 0.944061 0.690247
0.556091 0.942078 0.689880
0.781036 0.939453 0.689178
0.991119 0.938690 0.688232
0.098358 0.000000 0.898346
0.261169 0.000000 0.898285
0.497253 0.000000 0.898071
0.758667 0.000000 0.897430
1.000000 0.000000 0.896179
0.118347 0.212128 0.897888
0.270142 0.211182 0.897797
0.503326 0.205780 0.897430
0.762207 0.189178 0.896576
1.000000 0.180023 0.895172
0.116516 0.472626 0.894775
0.275024 0.472809 0.894623
0.513519 0.472260 0.894073
0.768066 0.469635 0.893036
1.000000 0.470978 0.891541
0.170837 0.723175 0.888519
0.310242 0.722595 0.888367
0.539093 0.720398 0.887909
0.779449 0.716858 0.887115
0.999756 0.715668 0.886108
0.338959 0.943176 0.882233
0.420074 0.942596 0.882111
0.595886 0.940857 0.881775
0.798737 0.939056 0.881226
0.998718 0.938965 0.880310
