滤镜资源/Professional Luts Collection/Lutify.me Professional/Alternative Process/Amethyst Chevron.cube
# Created by: Lutify.me
# Copyright: (c) Copyright Lutify.me 2015
# Website: https://lutify.me
#LUT size
LUT_3D_SIZE 9
#LUT data points
0.001190 0.000000 0.166443
0.101410 0.001221 0.177032
0.183838 0.000275 0.187469
0.278992 0.000000 0.198700
0.391083 0.000000 0.210327
0.518158 0.000000 0.221741
0.661316 0.000000 0.232330
0.816406 0.000000 0.241669
0.962524 0.000000 0.250214
0.019897 0.076385 0.196564
0.094757 0.074890 0.198608
0.181824 0.072449 0.203583
0.279572 0.066254 0.210785
0.392853 0.047119 0.219421
0.520294 0.006470 0.228638
0.663635 0.000000 0.237518
0.818237 0.000000 0.245636
0.963318 0.000000 0.253113
0.002502 0.171204 0.222595
0.079773 0.171631 0.223694
0.175232 0.172638 0.226135
0.278931 0.173523 0.230286
0.394958 0.172119 0.235565
0.523865 0.165710 0.241547
0.668365 0.147736 0.247681
0.822052 0.108765 0.253601
0.964874 0.066498 0.259216
0.000000 0.295166 0.245331
0.001343 0.296051 0.245911
0.139709 0.298157 0.247192
0.265900 0.300995 0.249390
0.391418 0.303619 0.252380
0.525970 0.304108 0.255890
0.674072 0.299408 0.259583
0.826721 0.289490 0.263092
0.966064 0.282013 0.266266
0.000000 0.435150 0.262085
0.000000 0.435883 0.262329
0.012146 0.437561 0.263062
0.230011 0.439972 0.264191
0.378906 0.442505 0.265564
0.525635 0.443695 0.267181
0.679840 0.441742 0.268555
0.830933 0.437622 0.269745
0.965820 0.435364 0.270782
0.000000 0.575439 0.270782
0.000000 0.575806 0.270874
0.000000 0.576660 0.271149
0.173645 0.577728 0.271515
0.365875 0.578430 0.272003
0.529846 0.577606 0.272430
0.689270 0.574432 0.272766
0.836975 0.570221 0.273010
0.965424 0.567535 0.273590
0.000000 0.698547 0.275848
0.000000 0.698578 0.275879
0.000000 0.698456 0.276031
0.166840 0.697998 0.276306
0.383667 0.696503 0.276520
0.553986 0.693390 0.276733
0.709534 0.688690 0.276978
0.849304 0.683533 0.277344
0.967377 0.680237 0.278198
0.000000 0.800964 0.283142
0.000000 0.800690 0.283142
0.010040 0.799927 0.283234
0.272003 0.798370 0.283356
0.447510 0.795624 0.283508
0.601471 0.791595 0.283691
0.741882 0.786713 0.283966
0.867035 0.782043 0.284424
0.971680 0.779327 0.285339
0.039093 0.892059 0.291351
0.147125 0.891693 0.291290
0.271454 0.890717 0.291321
0.401001 0.888916 0.291290
0.531097 0.886230 0.291199
0.657928 0.882843 0.291168
0.777649 0.879242 0.291138
0.883057 0.876526 0.291382
0.974182 0.875641 0.291870
0.000000 0.000336 0.263489
0.053284 0.001099 0.264099
0.163452 0.000092 0.265808
0.268616 0.000000 0.268829
0.385620 0.000000 0.273071
0.515320 0.000000 0.278107
0.660065 0.000000 0.283539
0.815765 0.000000 0.288666
0.961975 0.000000 0.293213
0.000000 0.075409 0.268219
0.054260 0.074371 0.268829
0.164307 0.071930 0.270508
0.270508 0.065399 0.273254
0.387939 0.045685 0.277100
0.517761 0.005310 0.281677
0.662537 0.000000 0.286407
0.817749 0.000000 0.290894
0.962891 0.000000 0.294891
0.000000 0.171143 0.278687
0.041443 0.171661 0.279236
0.160553 0.172577 0.280487
0.271545 0.173340 0.282593
0.390961 0.171875 0.285461
0.521790 0.165344 0.288818
0.667511 0.147095 0.292206
0.821686 0.107819 0.295227
0.964508 0.066162 0.297882
0.000000 0.295349 0.290894
0.000000 0.296234 0.291168
0.125092 0.298340 0.291931
0.259796 0.301117 0.293152
0.388367 0.303650 0.294800
0.524536 0.304016 0.296631
0.673645 0.299255 0.298309
0.826599 0.289337 0.299591
0.965851 0.281952 0.300629
0.000000 0.435364 0.299194
0.000000 0.436066 0.299286
0.006134 0.437714 0.299591
0.225372 0.440125 0.300110
0.377106 0.442535 0.300690
0.525146 0.443695 0.301178
0.679932 0.441681 0.301422
0.831055 0.437531 0.301422
0.965729 0.435394 0.301270
0.000000 0.575531 0.301544
0.000000 0.575897 0.301605
0.000000 0.576721 0.301666
0.170959 0.577789 0.301788
0.365540 0.578461 0.301880
0.530243 0.577545 0.301819
0.689728 0.574371 0.301605
0.837219 0.570160 0.301331
0.965393 0.567535 0.301208
0.000000 0.698547 0.302765
0.000000 0.698578 0.302795
0.000000 0.698456 0.302826
0.167694 0.697937 0.302948
0.384583 0.696442 0.302948
0.554901 0.693268 0.302917
0.710175 0.688599 0.302826
0.849579 0.683472 0.302826
0.967377 0.680206 0.303162
0.000000 0.800873 0.306885
0.000000 0.800598 0.306915
0.012848 0.799835 0.307007
0.274445 0.798248 0.307007
0.449097 0.795502 0.307068
0.602539 0.791473 0.307037
0.742615 0.786621 0.307068
0.867310 0.781982 0.307251
0.971649 0.779327 0.307831
0.055023 0.891998 0.312592
0.153595 0.891571 0.312531
0.274841 0.890594 0.312469
0.403259 0.888794 0.312408
0.532501 0.886139 0.312286
0.658966 0.882751 0.312134
0.778229 0.879150 0.312042
0.883179 0.876526 0.312073
0.974060 0.875671 0.312286
0.000000 0.000092 0.352142
0.000000 0.000092 0.352356
0.133545 0.000000 0.353027
0.254822 0.000000 0.354156
0.378906 0.000000 0.355774
0.512390 0.000000 0.357635
0.659546 0.000000 0.359406
0.816132 0.000000 0.360748
0.962036 0.000000 0.361664
0.000000 0.074005 0.353943
0.000031 0.073151 0.354218
0.136108 0.070496 0.354828
0.257629 0.063385 0.355896
0.381775 0.042206 0.357330
0.515137 0.003174 0.358917
0.662201 0.000000 0.360382
0.818146 0.000000 0.361389
0.962952 0.000000 0.362000
0.000000 0.171265 0.357941
0.000000 0.171661 0.358154
0.134979 0.172699 0.358612
0.260376 0.173218 0.359314
0.385803 0.171478 0.360291
0.519867 0.164581 0.361237
0.667603 0.145569 0.361969
0.822266 0.105652 0.362335
0.964661 0.065216 0.362274
0.000000 0.295929 0.361725
0.000000 0.296844 0.361786
0.099030 0.298737 0.361969
0.250946 0.301392 0.362305
0.384766 0.303711 0.362640
0.523712 0.303894 0.362885
0.674347 0.298798 0.362854
0.827362 0.288910 0.362396
0.966095 0.281860 0.361664
0.000000 0.435852 0.362457
0.000000 0.436523 0.362457
0.000244 0.438110 0.362457
0.219238 0.440369 0.362427
0.375488 0.442719 0.362305
0.525665 0.443665 0.361908
0.681244 0.441498 0.361237
0.832031 0.437408 0.360168
0.965973 0.435455 0.358978
0.000000 0.575806 0.359497
0.000000 0.576141 0.359467
0.000000 0.576904 0.359344
0.168671 0.577911 0.359192
0.366364 0.578461 0.358856
0.532166 0.577423 0.358307
0.691528 0.574158 0.357483
0.838409 0.569977 0.356506
0.965607 0.567535 0.355621
0.000000 0.698578 0.356293
0.000000 0.698547 0.356262
0.000000 0.698395 0.356201
0.172913 0.697845 0.356079
0.388123 0.696259 0.355865
0.557831 0.693024 0.355438
0.712250 0.688324 0.354919
0.850769 0.683289 0.354370
0.967499 0.680176 0.354065
0.000000 0.800690 0.356110
0.000000 0.800415 0.356110
0.022614 0.799622 0.356049
0.281647 0.798004 0.355957
0.453644 0.795227 0.355774
0.605652 0.791199 0.355530
0.744598 0.786377 0.355225
0.868195 0.781799 0.355011
0.971710 0.779266 0.355072
0.089081 0.891724 0.357788
0.169952 0.891327 0.357788
0.283905 0.890350 0.357666
0.409180 0.888519 0.357513
0.536530 0.885864 0.357269
0.661652 0.882538 0.356964
0.779724 0.878967 0.356659
0.883698 0.876434 0.356384
0.973969 0.875671 0.356384
0.000000 0.000000 0.435425
0.000000 0.000000 0.435547
0.100464 0.000000 0.435822
0.244202 0.000000 0.436310
0.375610 0.000000 0.436981
0.512817 0.000000 0.437683
0.662323 0.000000 0.438141
0.819061 0.000000 0.438141
0.963715 0.000000 0.437653
0.000000 0.072357 0.436279
0.000000 0.071320 0.436371
0.105103 0.068573 0.436676
0.247772 0.060028 0.437103
0.378815 0.036346 0.437653
0.515778 0.001129 0.438171
0.665100 0.000000 0.438385
0.821045 0.000000 0.438141
0.964600 0.000000 0.437469
0.000000 0.171570 0.437958
0.000000 0.171997 0.437988
0.107819 0.172821 0.438171
0.252136 0.172974 0.438385
0.383606 0.170807 0.438629
0.521027 0.163208 0.438690
0.670776 0.142975 0.438477
0.825226 0.101898 0.437775
0.966278 0.063904 0.436707
0.000000 0.296967 0.438568
0.000000 0.297760 0.438599
0.069061 0.299591 0.438568
0.244873 0.301971 0.438507
0.384003 0.303955 0.438354
0.525848 0.303680 0.437927
0.677917 0.298126 0.437195
0.830292 0.288300 0.436005
0.967590 0.281799 0.434479
0.000000 0.436707 0.436310
0.000000 0.437347 0.436249
0.000000 0.438812 0.436127
0.216705 0.440948 0.435852
0.377136 0.443024 0.435364
0.529388 0.443604 0.434601
0.685394 0.441193 0.433441
0.834991 0.437195 0.431915
0.967285 0.435577 0.430206
0.000000 0.576233 0.430817
0.000000 0.576538 0.430725
0.000000 0.577271 0.430542
0.173584 0.578094 0.430206
0.371521 0.578461 0.429657
0.537628 0.577209 0.428833
0.696106 0.573853 0.427704
0.841370 0.569733 0.426361
0.966675 0.567566 0.424988
0.000000 0.698547 0.425049
0.000000 0.698486 0.424988
0.000000 0.698303 0.424835
0.188141 0.697632 0.424591
0.396759 0.695892 0.424164
0.564453 0.692566 0.423553
0.716858 0.687866 0.422729
0.853485 0.682953 0.421844
0.968323 0.680084 0.421082
0.000000 0.800354 0.421753
0.000000 0.800049 0.421722
0.051056 0.799194 0.421631
0.296631 0.797546 0.421417
0.463013 0.794708 0.421112
0.612000 0.790680 0.420654
0.748779 0.785919 0.420135
0.870209 0.781555 0.419617
0.972168 0.779205 0.419220
0.135834 0.891266 0.420197
0.198639 0.890869 0.420105
0.301392 0.889862 0.419983
0.420532 0.888062 0.419739
0.544312 0.885437 0.419434
0.666962 0.882111 0.418945
0.782806 0.878723 0.418457
0.884979 0.876343 0.417999
0.974091 0.875671 0.417572
0.000000 0.000000 0.515472
0.000000 0.000000 0.515503
0.070587 0.000000 0.515656
0.240448 0.000000 0.515869
0.377899 0.000000 0.516144
0.518280 0.000000 0.516296
0.669678 0.000000 0.516205
0.825500 0.000000 0.515625
0.967712 0.000000 0.514648
0.000000 0.069977 0.515869
0.000000 0.068939 0.515930
0.079376 0.065216 0.516052
0.244812 0.054443 0.516235
0.381409 0.027649 0.516388
0.521393 0.000336 0.516418
0.672485 0.000000 0.516144
0.827423 0.000000 0.515381
0.968506 0.000000 0.514252
0.000000 0.172241 0.516541
0.000000 0.172516 0.516541
0.088165 0.173004 0.516571
0.250519 0.172607 0.516571
0.386871 0.169739 0.516510
0.527100 0.161072 0.516205
0.678314 0.139008 0.515564
0.831421 0.096527 0.514496
0.970001 0.062317 0.513062
0.000000 0.298431 0.515869
0.000000 0.299164 0.515839
0.055969 0.300690 0.515717
0.246124 0.302734 0.515533
0.388885 0.304291 0.515137
0.533051 0.303284 0.514496
0.685791 0.297089 0.513489
0.836334 0.287354 0.512054
0.970978 0.281952 0.510284
0.000000 0.437927 0.512451
0.000000 0.438477 0.512390
0.000000 0.439819 0.512177
0.223389 0.441742 0.511841
0.384857 0.443420 0.511230
0.538269 0.443542 0.510284
0.693604 0.440765 0.508972
0.840820 0.436920 0.507324
0.970215 0.435883 0.505463
0.000000 0.576874 0.506073
0.000000 0.577148 0.505981
0.000000 0.577728 0.505768
0.192047 0.578369 0.505371
0.383789 0.578430 0.504730
0.548462 0.576813 0.503784
0.704529 0.573334 0.502563
0.846893 0.569397 0.501099
0.969116 0.567688 0.499542
0.000000 0.698486 0.499237
0.000000 0.698425 0.499176
0.000000 0.698120 0.498993
0.217743 0.697296 0.498657
0.412811 0.695343 0.498138
0.576111 0.691895 0.497406
0.724915 0.687225 0.496490
0.858368 0.682526 0.495422
0.970215 0.679993 0.494415
0.000000 0.799805 0.494232
0.000000 0.799469 0.494141
0.111084 0.798584 0.494019
0.321777 0.796814 0.493744
0.478729 0.793915 0.493317
0.622711 0.789948 0.492767
0.755859 0.785309 0.492096
0.873901 0.781189 0.491364
0.973480 0.779114 0.490723
0.191345 0.890564 0.490265
0.239380 0.890167 0.490204
0.328491 0.889160 0.490082
0.438965 0.887360 0.489777
0.557068 0.884766 0.489349
0.675751 0.881561 0.488831
0.787994 0.878326 0.488159
0.887451 0.876190 0.487488
0.974915 0.875702 0.486847
0.000000 0.000000 0.592529
0.000000 0.000000 0.592529
0.070831 0.000000 0.592590
0.248230 0.000000 0.592651
0.388214 0.000000 0.592682
0.530365 0.000000 0.592560
0.682709 0.000000 0.592163
0.835938 0.000000 0.591278
0.974335 0.000000 0.589996
0.000000 0.066559 0.592682
0.000000 0.065033 0.592712
0.082062 0.059692 0.592743
0.253082 0.046082 0.592773
0.391907 0.016266 0.592712
0.533661 0.000000 0.592468
0.685486 0.000000 0.591919
0.837738 0.000000 0.590912
0.975006 0.000000 0.589539
0.000000 0.172852 0.592773
0.000000 0.172974 0.592773
0.096130 0.173004 0.592682
0.260071 0.171997 0.592560
0.398010 0.168213 0.592316
0.539886 0.157837 0.591827
0.691345 0.133362 0.590973
0.841492 0.089691 0.589722
0.976166 0.061066 0.588104
0.000000 0.300232 0.591400
0.000000 0.300842 0.591339
0.077240 0.302094 0.591187
0.259033 0.303680 0.590912
0.401886 0.304535 0.590393
0.546967 0.302612 0.589630
0.698975 0.295654 0.588470
0.846039 0.286377 0.586945
0.976624 0.282501 0.585052
0.000000 0.439453 0.587402
0.000000 0.439972 0.587311
0.008209 0.441101 0.587097
0.243774 0.442688 0.586670
0.401489 0.443878 0.585999
0.554016 0.443329 0.584991
0.706879 0.440247 0.583649
0.850128 0.436646 0.581940
0.975189 0.436432 0.580017
0.000000 0.577637 0.580627
0.000000 0.577850 0.580536
0.000000 0.578278 0.580322
0.226959 0.578644 0.579865
0.405853 0.578278 0.579163
0.566010 0.576263 0.578217
0.717651 0.572693 0.576904
0.855652 0.569000 0.575378
0.973389 0.567902 0.573730
0.000000 0.698334 0.573181
0.000000 0.698181 0.573120
0.010223 0.697784 0.572906
0.261505 0.696747 0.572540
0.438110 0.694550 0.571960
0.594025 0.690948 0.571136
0.737244 0.686401 0.570160
0.865997 0.682007 0.568970
0.973724 0.679993 0.567780
0.000000 0.799011 0.566895
0.014679 0.798645 0.566833
0.197113 0.797668 0.566650
0.357788 0.795807 0.566345
0.502136 0.792877 0.565857
0.638733 0.788940 0.565216
0.766632 0.784515 0.564392
0.879852 0.780762 0.563538
0.976166 0.779053 0.562653
0.253326 0.889618 0.561127
0.290527 0.889191 0.561066
0.365601 0.888184 0.560883
0.465271 0.886414 0.560577
0.575806 0.883881 0.560089
0.688843 0.880829 0.559448
0.795990 0.877869 0.558716
0.891724 0.876038 0.557892
0.976929 0.875793 0.557037
0.000000 0.000000 0.664520
0.000000 0.000000 0.664551
0.117737 0.000000 0.664520
0.272552 0.000000 0.664459
0.409637 0.000000 0.664307
0.551514 0.000000 0.663971
0.702515 0.000000 0.663300
0.851013 0.000000 0.662231
0.983948 0.000000 0.660797
0.000000 0.060364 0.664551
0.000000 0.057922 0.664551
0.127899 0.050629 0.664490
0.277649 0.032867 0.664398
0.413452 0.004456 0.664185
0.554871 0.000000 0.663757
0.705261 0.000000 0.662933
0.852722 0.000000 0.661774
0.984436 0.000000 0.660248
0.000000 0.173187 0.664154
0.000000 0.173126 0.664124
0.141266 0.172699 0.664001
0.285492 0.170837 0.663788
0.420227 0.165771 0.663422
0.561554 0.153076 0.662750
0.710968 0.125793 0.661774
0.856110 0.082306 0.660400
0.985168 0.061462 0.658661
0.000000 0.302246 0.662262
0.000000 0.302673 0.662201
0.137085 0.303619 0.662018
0.287994 0.304657 0.661682
0.426117 0.304657 0.661102
0.569794 0.301483 0.660217
0.718445 0.293854 0.658997
0.860138 0.285431 0.657379
0.984894 0.283630 0.655426
0.000000 0.441254 0.657898
0.000000 0.441650 0.657806
0.095917 0.442566 0.657562
0.281189 0.443695 0.657074
0.429749 0.444244 0.656372
0.578400 0.442932 0.655304
0.726044 0.439606 0.653900
0.863586 0.436462 0.652191
0.982666 0.437378 0.650238
0.000000 0.578400 0.650879
0.000000 0.578552 0.650787
0.049530 0.578766 0.650513
0.278046 0.578796 0.650024
0.439484 0.577911 0.649323
0.591736 0.575531 0.648315
0.736267 0.571960 0.647003
0.868195 0.568604 0.645447
0.980011 0.568298 0.643799
0.000000 0.697937 0.643066
0.000000 0.697754 0.642975
0.117035 0.697174 0.642731
0.318024 0.695892 0.642365
0.473663 0.693451 0.641693
0.619019 0.689789 0.640869
0.754608 0.685425 0.639801
0.876770 0.681488 0.638611
0.979340 0.680054 0.637299
0.065491 0.797852 0.635956
0.156769 0.797455 0.635864
0.276917 0.796417 0.635681
0.404297 0.794495 0.635315
0.533722 0.791534 0.634796
0.660828 0.787750 0.634094
0.781525 0.783539 0.633240
0.888489 0.780334 0.632263
0.980743 0.779083 0.631256
0.320343 0.888367 0.628967
0.349365 0.887970 0.628906
0.411774 0.886963 0.628693
0.499603 0.885254 0.628387
0.601074 0.882812 0.627869
0.706726 0.879944 0.627197
0.807159 0.877380 0.626404
0.898224 0.875916 0.625488
0.980804 0.875916 0.624481
0.000000 0.000000 0.730377
0.040985 0.000000 0.730377
0.188934 0.000000 0.730316
0.314972 0.000000 0.730164
0.444275 0.000000 0.729919
0.583252 0.000000 0.729431
0.729858 0.000000 0.728607
0.871216 0.000000 0.727448
0.996552 0.000000 0.725922
0.000061 0.049438 0.730286
0.060974 0.046387 0.730225
0.196472 0.035980 0.730164
0.319885 0.016113 0.729980
0.448181 0.000275 0.729645
0.586609 0.000000 0.729065
0.732391 0.000000 0.728180
0.872620 0.000000 0.726929
0.996826 0.000000 0.725342
0.004456 0.173035 0.729614
0.086304 0.172668 0.729553
0.207733 0.171692 0.729401
0.328064 0.168884 0.729126
0.455383 0.162048 0.728668
0.593475 0.146210 0.727936
0.737762 0.115906 0.726837
0.875549 0.076691 0.725433
0.996979 0.064087 0.723663
0.003601 0.304199 0.727417
0.085236 0.304504 0.727325
0.210815 0.305023 0.727142
0.333679 0.305359 0.726746
0.463287 0.304230 0.726135
0.602325 0.299744 0.725220
0.744598 0.291809 0.723938
0.878815 0.284607 0.722321
0.995941 0.285767 0.720398
0.000000 0.443054 0.722870
0.034149 0.443359 0.722748
0.200104 0.444000 0.722504
0.334473 0.444580 0.722015
0.470764 0.444305 0.721283
0.611816 0.442291 0.720245
0.751434 0.438934 0.718842
0.881256 0.436462 0.717163
0.992737 0.438873 0.715240
0.000000 0.579102 0.715881
0.009430 0.579132 0.715790
0.194061 0.579102 0.715515
0.342224 0.578674 0.715057
0.484436 0.577271 0.714325
0.625458 0.574554 0.713318
0.760559 0.571136 0.712036
0.884369 0.568390 0.710510
0.989044 0.569031 0.708893
0.020538 0.697235 0.708099
0.108185 0.696960 0.708008
0.249298 0.696198 0.707794
0.383606 0.694672 0.707367
0.518311 0.692078 0.706757
0.650848 0.688416 0.705902
0.777069 0.684296 0.704865
0.890686 0.681000 0.703674
0.987213 0.680298 0.702393
0.237946 0.796356 0.700806
0.277405 0.795929 0.700714
0.355774 0.794830 0.700500
0.458679 0.792847 0.700165
0.572418 0.789978 0.699646
0.688690 0.786346 0.698944
0.800293 0.782562 0.698120
0.899811 0.779938 0.697144
0.987396 0.779144 0.696075
0.389465 0.886871 0.693542
0.412537 0.886475 0.693451
0.464172 0.885559 0.693268
0.540588 0.883881 0.692932
0.632080 0.881592 0.692444
0.728638 0.878998 0.691772
0.821411 0.876892 0.691010
0.907074 0.875885 0.690125
0.986603 0.876160 0.689026
0.139587 0.000000 0.792969
0.184784 0.000000 0.792938
0.266815 0.000000 0.792877
0.371246 0.000000 0.792694
0.491119 0.000000 0.792389
0.624481 0.000000 0.791840
0.763336 0.000000 0.790985
0.895477 0.000000 0.789825
1.000000 0.000000 0.788361
0.150055 0.032227 0.792786
0.192902 0.027679 0.792755
0.272736 0.016602 0.792664
0.375824 0.001465 0.792450
0.494965 0.000000 0.792053
0.627655 0.000000 0.791443
0.765533 0.000000 0.790527
0.896667 0.000000 0.789307
1.000000 0.000000 0.787781
0.165863 0.171753 0.791992
0.205597 0.171265 0.791962
0.282684 0.169464 0.791809
0.384064 0.165375 0.791473
0.502594 0.155975 0.791016
0.634399 0.136658 0.790253
0.770203 0.103790 0.789215
0.898895 0.071838 0.787842
1.000000 0.069916 0.786194
0.171783 0.305817 0.789795
0.211884 0.305908 0.789703
0.289581 0.306000 0.789490
0.392242 0.305420 0.789093
0.512024 0.302948 0.788483
0.643127 0.297333 0.787598
0.776031 0.289764 0.786377
0.901154 0.284363 0.784882
1.000000 0.289185 0.783112
0.162811 0.444672 0.785400
0.207428 0.444855 0.785309
0.291168 0.445068 0.785065
0.399170 0.445007 0.784607
0.521942 0.443939 0.783905
0.652374 0.441437 0.782898
0.781616 0.438324 0.781616
0.902039 0.436890 0.780060
1.000000 0.441040 0.778351
0.163605 0.579376 0.778900
0.212311 0.579315 0.778809
0.301544 0.578979 0.778564
0.413544 0.578125 0.778107
0.537323 0.576263 0.777435
0.664917 0.573456 0.776520
0.789215 0.570312 0.775330
0.903046 0.568420 0.773987
0.999695 0.570160 0.772522
0.233368 0.696014 0.771759
0.272095 0.695679 0.771667
0.349762 0.694794 0.771454
0.453125 0.693054 0.771088
0.568634 0.690369 0.770508
0.687439 0.686859 0.769745
0.802917 0.683105 0.768799
0.906769 0.680664 0.767731
0.996674 0.680725 0.766602
0.347412 0.794403 0.765045
0.373962 0.793976 0.764984
0.432434 0.792877 0.764801
0.516602 0.790924 0.764465
0.615601 0.788177 0.764008
0.720337 0.784790 0.763367
0.821350 0.781616 0.762604
0.912994 0.779602 0.761810
0.995544 0.779358 0.760864
0.457336 0.885162 0.758423
0.475952 0.884766 0.758362
0.519165 0.883850 0.758179
0.585205 0.882324 0.757874
0.666321 0.880249 0.757446
0.752747 0.878113 0.756866
0.837463 0.876465 0.756195
0.917358 0.875885 0.755402
0.994019 0.876495 0.754395
