滤镜资源/Professional Luts Collection/Lutify.me Professional/Alternative Process/Amethyst Chevron.cube
# Created by: Lutify.me
# Copyright: (c) Copyright Lutify.me 2015
# Website: https://lutify.me
#LUT size
LUT_3D_SIZE 33
#LUT data points
0.001190 0.000000 0.166443
0.041534 0.000397 0.169800
0.062164 0.000763 0.172607
0.081909 0.001190 0.174652
0.101410 0.001221 0.177032
0.120911 0.001801 0.179504
0.141235 0.001617 0.182098
0.162109 0.001190 0.184753
0.183838 0.000275 0.187469
0.206177 0.000000 0.190338
0.229401 0.000000 0.193024
0.253632 0.000000 0.195831
0.278992 0.000000 0.198700
0.305450 0.000000 0.201538
0.333008 0.000000 0.204529
0.361603 0.000000 0.207458
0.391083 0.000000 0.210327
0.421448 0.000000 0.213226
0.452698 0.000000 0.216125
0.484924 0.000000 0.218903
0.518158 0.000000 0.221741
0.552307 0.000000 0.224487
0.587524 0.000000 0.227112
0.623871 0.000000 0.229767
0.661316 0.000000 0.232330
0.699615 0.000000 0.234772
0.738495 0.000000 0.237183
0.777588 0.000000 0.239532
0.816406 0.000000 0.241669
0.854553 0.000000 0.243958
0.891663 0.000000 0.246033
0.927673 0.000000 0.248199
0.962524 0.000000 0.250214
0.010010 0.020508 0.178192
0.037476 0.019379 0.178864
0.058441 0.018982 0.179504
0.078522 0.018280 0.181213
0.098877 0.017273 0.182800
0.119202 0.017059 0.184662
0.139954 0.016174 0.186432
0.161346 0.015320 0.188660
0.183289 0.014160 0.191040
0.205963 0.012390 0.193298
0.229248 0.010193 0.195831
0.253571 0.007294 0.198425
0.279053 0.003418 0.201111
0.305603 0.000732 0.203857
0.333282 0.000000 0.206543
0.361877 0.000000 0.209259
0.391357 0.000000 0.212006
0.421753 0.000000 0.214752
0.453064 0.000000 0.217560
0.485291 0.000000 0.220276
0.518494 0.000000 0.222961
0.552673 0.000000 0.225616
0.587921 0.000000 0.228271
0.624268 0.000000 0.230804
0.661743 0.000000 0.233276
0.700073 0.000000 0.235657
0.738922 0.000000 0.237976
0.777954 0.000000 0.240265
0.816681 0.000000 0.242462
0.854767 0.000000 0.244507
0.891876 0.000000 0.246674
0.927856 0.000000 0.248657
0.962677 0.000000 0.250824
0.014862 0.037109 0.183899
0.037384 0.035919 0.184845
0.057129 0.035156 0.185181
0.077209 0.034393 0.186432
0.097351 0.033600 0.187653
0.118164 0.032745 0.188843
0.139008 0.032227 0.190521
0.160553 0.031128 0.192383
0.182953 0.029663 0.194336
0.205719 0.027649 0.196472
0.229156 0.025543 0.198822
0.253571 0.022644 0.201233
0.279144 0.018646 0.203735
0.305817 0.013519 0.206177
0.333557 0.007294 0.208679
0.362213 0.002136 0.211273
0.391724 0.000122 0.213898
0.422150 0.000000 0.216492
0.453522 0.000000 0.219177
0.485779 0.000000 0.221802
0.518921 0.000000 0.224396
0.553131 0.000000 0.226959
0.588409 0.000000 0.229523
0.624756 0.000000 0.231934
0.662201 0.000000 0.234314
0.700531 0.000000 0.236664
0.739380 0.000000 0.238892
0.778381 0.000000 0.241119
0.817108 0.000000 0.243286
0.855072 0.000000 0.245331
0.892120 0.000000 0.247375
0.928070 0.000000 0.249329
0.962799 0.000000 0.251282
0.017670 0.056213 0.190277
0.037598 0.055847 0.190521
0.056458 0.054962 0.191284
0.075775 0.054382 0.191803
0.096100 0.053955 0.192871
0.116882 0.053314 0.194031
0.138123 0.052429 0.195374
0.160034 0.051483 0.196808
0.182373 0.050323 0.198608
0.205292 0.048889 0.200531
0.229095 0.046814 0.202484
0.253662 0.044464 0.204620
0.279388 0.041016 0.206818
0.306152 0.036285 0.209106
0.333984 0.030365 0.211548
0.362671 0.023254 0.213928
0.392212 0.014893 0.216400
0.422668 0.006317 0.218933
0.454071 0.001099 0.221375
0.486359 0.000000 0.223816
0.519531 0.000000 0.226288
0.553741 0.000000 0.228699
0.588989 0.000000 0.231049
0.625427 0.000000 0.233398
0.662842 0.000000 0.235687
0.701141 0.000000 0.237946
0.739960 0.000000 0.240173
0.778931 0.000000 0.242279
0.817596 0.000000 0.244232
0.855530 0.000000 0.246307
0.892517 0.000000 0.248230
0.928345 0.000000 0.250275
0.963043 0.000000 0.252106
0.019897 0.076385 0.196564
0.037628 0.076141 0.196869
0.055389 0.075867 0.197327
0.074982 0.075165 0.197937
0.094757 0.074890 0.198608
0.115601 0.074615 0.199677
0.137085 0.073944 0.200897
0.159302 0.073364 0.202087
0.181824 0.072449 0.203583
0.204865 0.071594 0.205292
0.228912 0.070190 0.206940
0.253693 0.068573 0.208801
0.279572 0.066254 0.210785
0.306519 0.063141 0.212860
0.334442 0.059021 0.215027
0.363251 0.053802 0.217224
0.392853 0.047119 0.219421
0.423340 0.038483 0.221741
0.454773 0.028046 0.224091
0.487091 0.016754 0.226379
0.520294 0.006470 0.228638
0.554504 0.000977 0.230896
0.589783 0.000000 0.233154
0.626190 0.000000 0.235382
0.663635 0.000000 0.237518
0.701935 0.000000 0.239655
0.740723 0.000000 0.241699
0.779694 0.000000 0.243683
0.818237 0.000000 0.245636
0.856110 0.000000 0.247620
0.893005 0.000000 0.249420
0.928772 0.000000 0.251343
0.963318 0.000000 0.253113
0.019775 0.097870 0.203156
0.036865 0.097504 0.203400
0.054077 0.097351 0.203613
0.073303 0.097168 0.204285
0.093384 0.097046 0.204865
0.114105 0.096832 0.205719
0.135925 0.096466 0.206604
0.158234 0.096069 0.207703
0.181061 0.095551 0.209015
0.204529 0.095001 0.210327
0.228668 0.094269 0.211914
0.253754 0.093201 0.213501
0.279816 0.091644 0.215302
0.306915 0.089600 0.217133
0.334991 0.087006 0.218994
0.363861 0.083771 0.221008
0.393524 0.079590 0.222992
0.424103 0.074249 0.225067
0.455566 0.067566 0.227234
0.487915 0.059326 0.229340
0.521149 0.048828 0.231445
0.555389 0.036224 0.233551
0.590698 0.021851 0.235626
0.627167 0.008453 0.237671
0.664612 0.001678 0.239716
0.702911 0.000000 0.241669
0.741669 0.000000 0.243530
0.780548 0.000000 0.245422
0.819031 0.000000 0.247345
0.856812 0.000000 0.249115
0.893555 0.000000 0.250916
0.929199 0.000000 0.252655
0.963684 0.000000 0.254425
0.017731 0.120605 0.209778
0.033722 0.120544 0.209961
0.051056 0.120392 0.210205
0.070221 0.120392 0.210663
0.090942 0.120239 0.211151
0.112335 0.120239 0.211884
0.134430 0.120056 0.212555
0.156891 0.119934 0.213562
0.179932 0.119873 0.214630
0.203674 0.119537 0.215820
0.228149 0.119171 0.217133
0.253571 0.118683 0.218567
0.279907 0.117767 0.220154
0.307159 0.116638 0.221771
0.335327 0.115051 0.223511
0.364380 0.112946 0.225250
0.394196 0.110413 0.227020
0.424866 0.107239 0.228821
0.456390 0.103271 0.230774
0.488770 0.098389 0.232727
0.522095 0.092316 0.234619
0.556396 0.084595 0.236542
0.591736 0.074493 0.238464
0.628265 0.061432 0.240295
0.665771 0.046661 0.242126
0.704041 0.028748 0.243988
0.742767 0.011017 0.245758
0.781555 0.002960 0.247498
0.819946 0.000000 0.249207
0.857605 0.000000 0.250916
0.894196 0.000000 0.252563
0.929749 0.000000 0.254181
0.964050 0.000000 0.255890
0.011566 0.145020 0.216248
0.027252 0.145020 0.216431
0.044800 0.144928 0.216675
0.065430 0.144958 0.217041
0.086884 0.145111 0.217407
0.108948 0.145050 0.218018
0.131775 0.145172 0.218719
0.154785 0.145264 0.219421
0.178131 0.145355 0.220490
0.202209 0.145477 0.221497
0.227203 0.145477 0.222626
0.253052 0.145294 0.223816
0.279694 0.144928 0.225128
0.307220 0.144318 0.226593
0.335571 0.143585 0.228027
0.364716 0.142487 0.229645
0.394684 0.141022 0.231232
0.425476 0.139130 0.232910
0.457123 0.136749 0.234558
0.489624 0.133789 0.236298
0.523010 0.130127 0.238007
0.557404 0.125488 0.239746
0.592834 0.119568 0.241455
0.629456 0.111969 0.243164
0.666992 0.102264 0.244812
0.705292 0.089447 0.246521
0.743988 0.073730 0.248138
0.782684 0.058777 0.249756
0.820953 0.042694 0.251373
0.858459 0.024780 0.252930
0.894928 0.009918 0.254456
0.930298 0.006287 0.255981
0.964447 0.003265 0.257538
0.002502 0.171204 0.222595
0.015778 0.171265 0.222870
0.033508 0.171326 0.222992
0.056366 0.171417 0.223328
0.079773 0.171631 0.223694
0.103455 0.171783 0.224091
0.127106 0.172119 0.224731
0.150970 0.172333 0.225464
0.175232 0.172638 0.226135
0.199951 0.172943 0.227081
0.225494 0.173187 0.228058
0.251892 0.173431 0.229126
0.278931 0.173523 0.230286
0.306793 0.173401 0.231506
0.335419 0.173187 0.232788
0.364838 0.172791 0.234131
0.394958 0.172119 0.235565
0.425903 0.171143 0.237000
0.457703 0.169769 0.238525
0.490326 0.167999 0.240021
0.523865 0.165710 0.241547
0.558411 0.162720 0.243103
0.593964 0.158844 0.244659
0.630707 0.153839 0.246216
0.668365 0.147736 0.247681
0.706665 0.140137 0.249207
0.745331 0.131104 0.250671
0.783936 0.120667 0.252136
0.822052 0.108765 0.253601
0.859406 0.095367 0.255035
0.895691 0.082550 0.256439
0.930908 0.074036 0.257812
0.964874 0.066498 0.259216
0.000000 0.199554 0.228790
0.003235 0.199677 0.228973
0.015167 0.199768 0.229156
0.040222 0.199982 0.229401
0.068146 0.200195 0.229675
0.094269 0.200500 0.230133
0.119812 0.200836 0.230621
0.145020 0.201355 0.231171
0.170380 0.201813 0.231873
0.196259 0.202301 0.232574
0.222595 0.202820 0.233398
0.249695 0.203217 0.234314
0.277374 0.203552 0.235352
0.305634 0.203918 0.236420
0.334686 0.204071 0.237518
0.364380 0.204132 0.238708
0.394806 0.203949 0.239899
0.426025 0.203613 0.241180
0.458038 0.202942 0.242523
0.490875 0.201904 0.243866
0.524597 0.200470 0.245209
0.559357 0.198486 0.246582
0.595123 0.195831 0.247986
0.631989 0.192383 0.249329
0.669769 0.188049 0.250641
0.708099 0.182892 0.251984
0.746735 0.176819 0.253326
0.785217 0.170166 0.254639
0.823242 0.163025 0.255951
0.860382 0.155823 0.257263
0.896454 0.148773 0.258545
0.931488 0.142120 0.259796
0.965240 0.136627 0.261078
0.000000 0.229919 0.234680
0.000000 0.230103 0.234741
0.002594 0.230225 0.234955
0.014893 0.230438 0.235199
0.046509 0.230713 0.235443
0.078979 0.231140 0.235779
0.108215 0.231537 0.236237
0.135895 0.232117 0.236664
0.163330 0.232697 0.237213
0.190735 0.233307 0.237885
0.218323 0.233917 0.238617
0.246246 0.234528 0.239349
0.274750 0.235107 0.240173
0.303680 0.235565 0.241150
0.333282 0.236023 0.242096
0.363434 0.236359 0.243134
0.394196 0.236572 0.244232
0.425751 0.236572 0.245300
0.458099 0.236359 0.246460
0.491241 0.235870 0.247650
0.525238 0.234985 0.248840
0.560242 0.233673 0.250061
0.596252 0.231812 0.251282
0.633301 0.229370 0.252502
0.671173 0.226196 0.253693
0.709595 0.222382 0.254852
0.748138 0.218048 0.256042
0.786560 0.213348 0.257202
0.824402 0.208374 0.258392
0.861328 0.203644 0.259552
0.897247 0.199158 0.260712
0.932068 0.195129 0.261810
0.965607 0.192108 0.262909
0.000000 0.261902 0.240204
0.000000 0.262054 0.240295
0.000000 0.262268 0.240417
0.002106 0.262482 0.240570
0.013824 0.262787 0.240845
0.053314 0.263214 0.241119
0.090515 0.263733 0.241455
0.123016 0.264252 0.241852
0.153290 0.264862 0.242401
0.182892 0.265533 0.242859
0.212250 0.266205 0.243500
0.241516 0.266876 0.244232
0.270935 0.267639 0.244873
0.300781 0.268280 0.245667
0.331024 0.268860 0.246582
0.361816 0.269379 0.247437
0.393127 0.269775 0.248383
0.425110 0.270050 0.249359
0.457825 0.270111 0.250336
0.491333 0.269928 0.251343
0.525696 0.269501 0.252411
0.561005 0.268616 0.253479
0.597321 0.267303 0.254517
0.634613 0.265503 0.255615
0.672638 0.263123 0.256653
0.711090 0.260284 0.257721
0.749603 0.257019 0.258759
0.787903 0.253571 0.259796
0.825562 0.249939 0.260834
0.862274 0.246613 0.261780
0.898010 0.243500 0.262756
0.932587 0.240906 0.263733
0.965881 0.239044 0.264679
0.000000 0.295166 0.245331
0.000000 0.295319 0.245392
0.000000 0.295532 0.245514
0.000000 0.295776 0.245636
0.001343 0.296051 0.245911
0.014557 0.296448 0.246124
0.062805 0.296967 0.246399
0.104401 0.297516 0.246796
0.139709 0.298157 0.247192
0.172455 0.298798 0.247681
0.204041 0.299591 0.248169
0.235077 0.300232 0.248779
0.265900 0.300995 0.249390
0.296753 0.301758 0.250061
0.327911 0.302429 0.250763
0.359436 0.303070 0.251556
0.391418 0.303619 0.252380
0.424011 0.303986 0.253235
0.457214 0.304260 0.254089
0.491150 0.304321 0.254974
0.525970 0.304108 0.255890
0.561676 0.303558 0.256836
0.598328 0.302582 0.257751
0.635895 0.301239 0.258667
0.674072 0.299408 0.259583
0.712555 0.297241 0.260437
0.751068 0.294769 0.261353
0.789246 0.292145 0.262238
0.826721 0.289490 0.263092
0.863220 0.287018 0.263916
0.898682 0.284882 0.264740
0.933044 0.283142 0.265533
0.966064 0.282013 0.266266
0.000000 0.329315 0.250092
0.000000 0.329498 0.250183
0.000000 0.329651 0.250275
0.000000 0.329926 0.250427
0.000000 0.330231 0.250610
0.001221 0.330597 0.250824
0.019897 0.331116 0.251007
0.076447 0.331665 0.251343
0.121094 0.332245 0.251709
0.158722 0.332947 0.252106
0.193481 0.333618 0.252563
0.226776 0.334381 0.253082
0.259308 0.335083 0.253601
0.291565 0.335907 0.254181
0.323914 0.336578 0.254822
0.356354 0.337280 0.255463
0.389130 0.337860 0.256165
0.422363 0.338379 0.256897
0.456238 0.338715 0.257660
0.490723 0.338928 0.258423
0.526031 0.338867 0.259186
0.562195 0.338501 0.259979
0.599243 0.337830 0.260742
0.637115 0.336792 0.261566
0.675476 0.335388 0.262360
0.714020 0.333679 0.263031
0.752502 0.331757 0.263733
0.790558 0.329742 0.264465
0.827850 0.327759 0.265167
0.864105 0.325928 0.265839
0.899292 0.324371 0.266510
0.933441 0.323181 0.267151
0.966156 0.322571 0.267700
0.000000 0.364227 0.254456
0.000000 0.364380 0.254578
0.000000 0.364502 0.254669
0.000000 0.364777 0.254761
0.000000 0.365082 0.254883
0.000000 0.365448 0.255096
0.002563 0.365875 0.255341
0.031464 0.366425 0.255554
0.094513 0.366974 0.255890
0.140686 0.367615 0.256256
0.180084 0.368347 0.256622
0.216400 0.369049 0.257050
0.251190 0.369781 0.257507
0.285248 0.370514 0.257996
0.318848 0.371246 0.258545
0.352539 0.371918 0.259094
0.386261 0.372559 0.259674
0.420288 0.373077 0.260315
0.454865 0.373505 0.260956
0.490051 0.373749 0.261597
0.525940 0.373810 0.262238
0.562683 0.373566 0.262878
0.600189 0.373047 0.263489
0.638336 0.372223 0.264130
0.676880 0.371124 0.264801
0.715515 0.369751 0.265350
0.753937 0.368225 0.265900
0.791870 0.366669 0.266449
0.828888 0.365143 0.267059
0.864929 0.363770 0.267487
0.899872 0.362640 0.268005
0.933746 0.361816 0.268494
0.966125 0.361542 0.268951
0.000000 0.399567 0.258514
0.000000 0.399719 0.258606
0.000000 0.399841 0.258636
0.000000 0.400085 0.258759
0.000000 0.400360 0.258820
0.000000 0.400726 0.259033
0.000000 0.401123 0.259216
0.005798 0.401611 0.259430
0.052246 0.402161 0.259674
0.116394 0.402740 0.260010
0.163177 0.403412 0.260284
0.203766 0.404114 0.260681
0.241394 0.404816 0.261078
0.277588 0.405548 0.261475
0.312988 0.406189 0.261932
0.347900 0.406891 0.262360
0.382812 0.407471 0.262878
0.417847 0.408020 0.263336
0.453247 0.408447 0.263885
0.489197 0.408722 0.264435
0.525757 0.408783 0.264923
0.563110 0.408630 0.265442
0.601105 0.408203 0.265900
0.639618 0.407501 0.266388
0.678314 0.406616 0.266876
0.717010 0.405487 0.267334
0.755371 0.404266 0.267731
0.793121 0.402954 0.268127
0.829895 0.401794 0.268555
0.865692 0.400726 0.268890
0.900421 0.399872 0.269257
0.933960 0.399261 0.269592
0.966003 0.399139 0.269958
0.000000 0.435150 0.262085
0.000000 0.435272 0.262146
0.000000 0.435425 0.262177
0.000000 0.435638 0.262268
0.000000 0.435883 0.262329
0.000000 0.436218 0.262482
0.000000 0.436615 0.262634
0.000000 0.437042 0.262848
0.012146 0.437561 0.263062
0.081024 0.438110 0.263306
0.141815 0.438721 0.263519
0.188599 0.439331 0.263824
0.230011 0.439972 0.264191
0.268738 0.440674 0.264496
0.306122 0.441345 0.264832
0.342743 0.441895 0.265198
0.378906 0.442505 0.265564
0.415070 0.442993 0.266022
0.451477 0.443390 0.266357
0.488281 0.443634 0.266785
0.525635 0.443695 0.267181
0.563599 0.443542 0.267517
0.602081 0.443146 0.267883
0.640900 0.442566 0.268250
0.679840 0.441742 0.268555
0.718536 0.440796 0.268921
0.756805 0.439728 0.269165
0.794403 0.438629 0.269470
0.830933 0.437622 0.269745
0.866455 0.436707 0.269989
0.900940 0.435974 0.270264
0.934174 0.435486 0.270508
0.965820 0.435364 0.270782
0.000000 0.470886 0.265045
0.000000 0.470947 0.265137
0.000000 0.471130 0.265167
0.000000 0.471252 0.265228
0.000000 0.471527 0.265289
0.000000 0.471802 0.265381
0.000000 0.472168 0.265533
0.000000 0.472565 0.265686
0.000000 0.473022 0.265869
0.033264 0.473511 0.266022
0.113739 0.474060 0.266235
0.170441 0.474609 0.266449
0.216980 0.475189 0.266693
0.258942 0.475800 0.266968
0.298615 0.476410 0.267212
0.337036 0.476929 0.267487
0.374847 0.477417 0.267761
0.412201 0.477844 0.268097
0.449707 0.478149 0.268402
0.487518 0.478333 0.268677
0.525696 0.478333 0.268951
0.564301 0.478119 0.269226
0.603302 0.477722 0.269440
0.642456 0.477081 0.269714
0.681488 0.476349 0.269928
0.720245 0.475433 0.270142
0.758423 0.474426 0.270325
0.795776 0.473419 0.270538
0.832092 0.472473 0.270691
0.867340 0.471588 0.270935
0.901550 0.470886 0.271057
0.934387 0.470428 0.271301
0.965637 0.470306 0.271454
0.000000 0.506439 0.267426
0.000000 0.506531 0.267517
0.000000 0.506653 0.267548
0.000000 0.506775 0.267578
0.000000 0.506989 0.267639
0.000000 0.507233 0.267670
0.000000 0.507538 0.267822
0.000000 0.507904 0.267944
0.000000 0.508301 0.268066
0.007538 0.508728 0.268188
0.074707 0.509186 0.268311
0.149048 0.509705 0.268524
0.202484 0.510162 0.268707
0.248505 0.510651 0.268890
0.290955 0.511139 0.269073
0.331421 0.511597 0.269318
0.370789 0.511993 0.269531
0.409668 0.512268 0.269714
0.448334 0.512451 0.269958
0.487183 0.512512 0.270111
0.526245 0.512390 0.270355
0.565491 0.512085 0.270538
0.604950 0.511597 0.270660
0.644379 0.510925 0.270844
0.683563 0.510101 0.270996
0.722260 0.509155 0.271149
0.760284 0.508148 0.271240
0.797363 0.507172 0.271393
0.833405 0.506226 0.271484
0.868408 0.505371 0.271667
0.902283 0.504608 0.271790
0.934753 0.504120 0.271973
0.965485 0.503998 0.272125
0.000000 0.541412 0.269287
0.000000 0.541504 0.269318
0.000000 0.541595 0.269379
0.000000 0.541718 0.269379
0.000000 0.541870 0.269409
0.000000 0.542114 0.269470
0.000000 0.542358 0.269592
0.000000 0.542664 0.269684
0.000000 0.542969 0.269775
0.000000 0.543335 0.269897
0.037598 0.543701 0.269989
0.124390 0.544098 0.270111
0.187622 0.544495 0.270264
0.238312 0.544830 0.270416
0.283752 0.545197 0.270538
0.326538 0.545502 0.270721
0.367615 0.545746 0.270874
0.407867 0.545898 0.270996
0.447815 0.545929 0.271179
0.487640 0.545807 0.271332
0.527557 0.545532 0.271423
0.567444 0.545105 0.271545
0.607239 0.544495 0.271667
0.646881 0.543732 0.271759
0.686096 0.542847 0.271912
0.724701 0.541870 0.271973
0.762451 0.540802 0.272064
0.799286 0.539795 0.272156
0.835022 0.538818 0.272278
0.869720 0.537903 0.272369
0.903198 0.537109 0.272522
0.935211 0.536560 0.272644
0.965393 0.536407 0.272797
0.000000 0.575439 0.270782
0.000000 0.575500 0.270752
0.000000 0.575592 0.270844
0.000000 0.575684 0.270844
0.000000 0.575806 0.270874
0.000000 0.575989 0.270905
0.000000 0.576172 0.270966
0.000000 0.576416 0.271057
0.000000 0.576660 0.271149
0.000000 0.576904 0.271240
0.015228 0.577179 0.271332
0.095612 0.577454 0.271393
0.173645 0.577728 0.271515
0.229584 0.578003 0.271637
0.278076 0.578186 0.271759
0.322998 0.578369 0.271881
0.365875 0.578430 0.272003
0.407501 0.578430 0.272095
0.448547 0.578308 0.272217
0.489288 0.578033 0.272308
0.529846 0.577606 0.272430
0.570282 0.577026 0.272491
0.610352 0.576294 0.272552
0.650085 0.575439 0.272644
0.689270 0.574432 0.272766
0.727600 0.573395 0.272797
0.765106 0.572327 0.272858
0.801575 0.571228 0.272949
0.836975 0.570221 0.273010
0.871307 0.569244 0.273163
0.904327 0.568390 0.273285
0.935760 0.567810 0.273407
0.965424 0.567535 0.273590
0.000000 0.608246 0.272064
0.000000 0.608307 0.272034
0.000000 0.608368 0.272064
0.000000 0.608429 0.272095
0.000000 0.608551 0.272156
0.000000 0.608673 0.272156
0.000000 0.608795 0.272186
0.000000 0.608978 0.272247
0.000000 0.609131 0.272308
0.000000 0.609314 0.272430
0.004669 0.609497 0.272491
0.077789 0.609650 0.272552
0.162323 0.609802 0.272644
0.223480 0.609955 0.272736
0.274872 0.610016 0.272827
0.321716 0.610016 0.272949
0.366028 0.609955 0.273041
0.408966 0.609772 0.273102
0.450989 0.609467 0.273193
0.492493 0.609039 0.273285
0.533539 0.608459 0.273315
0.574219 0.607758 0.273438
0.614502 0.606903 0.273468
0.654114 0.605957 0.273529
0.693085 0.604858 0.273590
0.731171 0.603729 0.273621
0.768250 0.602631 0.273743
0.804321 0.601471 0.273804
0.839325 0.600372 0.273834
0.873199 0.599335 0.273956
0.905701 0.598419 0.274109
0.936554 0.597809 0.274231
0.965607 0.597443 0.274475
0.000000 0.639801 0.273163
0.000000 0.639801 0.273254
0.000000 0.639862 0.273224
0.000000 0.639893 0.273315
0.000000 0.639954 0.273346
0.000000 0.640045 0.273346
0.000000 0.640137 0.273346
0.000000 0.640228 0.273438
0.000000 0.640289 0.273438
0.000000 0.640411 0.273499
0.000702 0.640503 0.273590
0.068939 0.640564 0.273682
0.155640 0.640594 0.273773
0.221313 0.640594 0.273865
0.274902 0.640533 0.273895
0.323303 0.640411 0.273956
0.368835 0.640167 0.274048
0.412659 0.639832 0.274139
0.455383 0.639374 0.274170
0.497375 0.638794 0.274231
0.538696 0.638092 0.274323
0.579498 0.637207 0.274384
0.619629 0.636261 0.274475
0.659119 0.635193 0.274506
0.697754 0.634033 0.274536
0.735382 0.632843 0.274597
0.772003 0.631622 0.274658
0.807648 0.630432 0.274719
0.842194 0.629272 0.274811
0.875519 0.628174 0.274933
0.907349 0.627228 0.275085
0.937561 0.626556 0.275238
0.966034 0.626099 0.275452
0.000000 0.669922 0.274414
0.000000 0.669922 0.274445
0.000000 0.669952 0.274475
0.000000 0.669983 0.274506
0.000000 0.670013 0.274536
0.000000 0.670044 0.274567
0.000000 0.670074 0.274536
0.000000 0.670105 0.274597
0.000000 0.670105 0.274689
0.000000 0.670135 0.274719
0.001526 0.670105 0.274750
0.069733 0.670105 0.274841
0.156616 0.670013 0.274933
0.224335 0.669891 0.274994
0.279205 0.669708 0.275055
0.328400 0.669403 0.275116
0.374573 0.669037 0.275177
0.418915 0.668579 0.275208
0.462036 0.667938 0.275330
0.504150 0.667236 0.275360
0.545502 0.666382 0.275391
0.586121 0.665405 0.275513
0.626038 0.664337 0.275543
0.665070 0.663177 0.275635
0.703217 0.661957 0.275635
0.740326 0.660706 0.275696
0.776428 0.659454 0.275848
0.811523 0.658173 0.275909
0.845520 0.656921 0.276001
0.878204 0.655823 0.276154
0.909363 0.654846 0.276306
0.938782 0.654144 0.276489
0.966614 0.653656 0.276703
0.000000 0.698547 0.275848
0.000000 0.698578 0.275848
0.000000 0.698578 0.275879
0.000000 0.698578 0.275879
0.000000 0.698578 0.275879
0.000000 0.698578 0.275909
0.000000 0.698547 0.275940
0.000000 0.698517 0.275970
0.000000 0.698456 0.276031
0.000000 0.698395 0.276123
0.007355 0.698303 0.276154
0.080688 0.698181 0.276215
0.166840 0.697998 0.276306
0.233429 0.697754 0.276337
0.288086 0.697418 0.276398
0.337433 0.697021 0.276459
0.383667 0.696503 0.276520
0.427948 0.695923 0.276550
0.470947 0.695190 0.276642
0.512909 0.694336 0.276703
0.553986 0.693390 0.276733
0.594208 0.692322 0.276764
0.633575 0.691162 0.276855
0.672028 0.689941 0.276917
0.709534 0.688690 0.276978
0.746002 0.687378 0.277008
0.781464 0.686096 0.277130
0.816010 0.684784 0.277283
0.849304 0.683533 0.277344
0.881226 0.682404 0.277527
0.911499 0.681458 0.277710
0.940247 0.680756 0.277863
0.967377 0.680237 0.278198
0.000000 0.725830 0.277405
0.000000 0.725830 0.277405
0.000000 0.725830 0.277405
0.000000 0.725800 0.277405
0.000000 0.725769 0.277435
0.000000 0.725708 0.277466
0.000000 0.725647 0.277496
0.000000 0.725586 0.277557
0.000000 0.725464 0.277588
0.000000 0.725342 0.277649
0.021332 0.725159 0.277710
0.101227 0.724945 0.277740
0.185699 0.724670 0.277802
0.248474 0.724304 0.277863
0.301697 0.723877 0.277893
0.350159 0.723358 0.277985
0.395813 0.722748 0.278076
0.439606 0.722046 0.278076
0.482117 0.721222 0.278107
0.523560 0.720276 0.278198
0.563995 0.719269 0.278229
0.603607 0.718140 0.278259
0.642273 0.716919 0.278320
0.679932 0.715698 0.278412
0.716614 0.714386 0.278473
0.752411 0.713074 0.278534
0.787170 0.711792 0.278595
0.820923 0.710449 0.278687
0.853424 0.709259 0.278870
0.884491 0.708130 0.279053
0.913879 0.707184 0.279266
0.941833 0.706482 0.279480
0.968292 0.705963 0.279724
0.000000 0.751892 0.279175
0.000000 0.751862 0.279175
0.000000 0.751862 0.279144
0.000000 0.751801 0.279175
0.000000 0.751709 0.279175
0.000000 0.751648 0.279236
0.000000 0.751556 0.279266
0.000000 0.751434 0.279297
0.000000 0.751282 0.279327
0.002686 0.751068 0.279358
0.049957 0.750824 0.279419
0.132660 0.750519 0.279449
0.210846 0.750183 0.279510
0.268646 0.749756 0.279572
0.319366 0.749237 0.279633
0.366333 0.748627 0.279663
0.410828 0.747925 0.279724
0.453674 0.747131 0.279755
0.495270 0.746216 0.279755
0.535858 0.745239 0.279816
0.575439 0.744141 0.279907
0.614105 0.742981 0.279968
0.651855 0.741760 0.279999
0.688599 0.740509 0.280060
0.724457 0.739227 0.280151
