滤镜资源/Professional Luts Collection/Lutify.me Professional/Alternative Process/Ametrine.cube
# Created by: Lutify.me
# Copyright: (c) Copyright Lutify.me 2015
# Website: https://lutify.me
#LUT size
LUT_3D_SIZE 33
#LUT data points
0.231384 0.122833 0.262146
0.231384 0.122833 0.262146
0.231384 0.122833 0.262146
0.231384 0.122833 0.262146
0.240875 0.122833 0.262146
0.276184 0.122833 0.262146
0.311523 0.123444 0.261444
0.339020 0.131226 0.254639
0.364990 0.139709 0.250610
0.390442 0.147766 0.248779
0.415161 0.155731 0.248322
0.439484 0.163269 0.248871
0.463013 0.170807 0.250092
0.486389 0.177765 0.251617
0.508728 0.185089 0.253723
0.530518 0.192291 0.256165
0.552795 0.198364 0.258087
0.573334 0.205597 0.261017
0.594177 0.211975 0.263611
0.614441 0.218506 0.266541
0.635712 0.223480 0.269012
0.657318 0.227722 0.271240
0.678589 0.231903 0.273407
0.699585 0.236023 0.275482
0.720367 0.240112 0.277679
0.740875 0.244141 0.279816
0.761230 0.248108 0.281799
0.781403 0.252075 0.283905
0.801453 0.256012 0.285950
0.821411 0.259918 0.288025
0.841309 0.263824 0.289978
0.856079 0.266724 0.291626
0.856079 0.266724 0.291626
0.231384 0.122955 0.262146
0.231384 0.122955 0.262146
0.231384 0.122955 0.262146
0.231384 0.122955 0.262146
0.240875 0.122955 0.262146
0.276184 0.122955 0.262146
0.311523 0.123535 0.261444
0.339020 0.131348 0.254669
0.364990 0.139801 0.250549
0.390442 0.147888 0.248779
0.415192 0.155823 0.248352
0.439484 0.163391 0.248901
0.463043 0.170898 0.250061
0.486420 0.177887 0.251648
0.508728 0.185181 0.253662
0.530518 0.192383 0.256134
0.552826 0.198486 0.258057
0.573334 0.205719 0.261139
0.594208 0.212097 0.263672
0.614441 0.218597 0.266541
0.635742 0.223602 0.269012
0.657318 0.227814 0.271210
0.678619 0.232025 0.273407
0.699615 0.236115 0.275574
0.720398 0.240204 0.277649
0.740906 0.244232 0.279785
0.761230 0.248199 0.281860
0.781403 0.252167 0.283966
0.801453 0.256104 0.286011
0.821442 0.260040 0.287994
0.841339 0.263947 0.290070
0.856110 0.266846 0.291595
0.856110 0.266846 0.291595
0.231384 0.142242 0.262146
0.231384 0.142242 0.262146
0.231384 0.142242 0.262146
0.231384 0.142242 0.262146
0.240875 0.142242 0.262146
0.276184 0.142242 0.262146
0.310211 0.144165 0.260010
0.337433 0.152252 0.254059
0.363403 0.160675 0.251099
0.388885 0.168762 0.250244
0.413666 0.176666 0.250671
0.437866 0.184326 0.251892
0.461273 0.191956 0.253784
0.484406 0.199158 0.255951
0.507324 0.205902 0.258240
0.529022 0.213196 0.261078
0.550598 0.220001 0.263885
0.571991 0.226379 0.266785
0.594635 0.230957 0.269135
0.616943 0.235413 0.271454
0.638885 0.239716 0.273682
0.660492 0.243958 0.275848
0.681793 0.248138 0.278046
0.702789 0.252258 0.280212
0.723541 0.256348 0.282349
0.744080 0.260376 0.284485
0.764404 0.264343 0.286530
0.784576 0.268311 0.288635
0.804626 0.272247 0.290680
0.824615 0.276184 0.292755
0.844482 0.280090 0.294708
0.859283 0.282990 0.296295
0.859283 0.282990 0.296295
0.231384 0.162720 0.262146
0.231384 0.162720 0.262146
0.231384 0.162720 0.262146
0.231384 0.162720 0.262146
0.240875 0.162720 0.262146
0.276184 0.162720 0.262146
0.308777 0.166077 0.258789
0.335602 0.174530 0.253937
0.361633 0.182892 0.252380
0.387115 0.190979 0.252625
0.412018 0.198792 0.253906
0.435974 0.206665 0.256042
0.459534 0.214142 0.258514
0.482758 0.221283 0.261200
0.505371 0.228333 0.264038
0.528473 0.234222 0.266907
0.551941 0.239105 0.269409
0.575165 0.243652 0.271790
0.597931 0.248108 0.274139
0.620300 0.252502 0.276367
0.642242 0.256836 0.278625
0.663849 0.261047 0.280853
0.685150 0.265259 0.283020
0.706146 0.269348 0.285217
0.726898 0.273438 0.287323
0.747437 0.277466 0.289429
0.767761 0.281464 0.291534
0.787933 0.285400 0.293549
0.807983 0.289337 0.295624
0.827972 0.293274 0.297668
0.847839 0.297180 0.299744
0.862640 0.300079 0.301208
0.862640 0.300079 0.301208
0.231384 0.184113 0.262146
0.231384 0.184113 0.262146
0.231384 0.184113 0.262146
0.231384 0.184113 0.262146
0.240875 0.184113 0.262146
0.276184 0.184113 0.262146
0.306976 0.189270 0.257782
0.333618 0.197937 0.254761
0.359863 0.206116 0.254700
0.385437 0.214050 0.256042
0.410217 0.221985 0.258423
0.433990 0.230042 0.261475
0.457977 0.237091 0.264435
0.482910 0.242523 0.267059
0.507507 0.247559 0.269684
0.531738 0.252350 0.272156
0.555450 0.256989 0.274597
0.578674 0.261566 0.277008
0.601440 0.266022 0.279297
0.623810 0.270416 0.281616
0.645752 0.274719 0.283875
0.667358 0.278961 0.286072
0.688660 0.283142 0.288239
0.709656 0.287262 0.290344
0.730408 0.291412 0.292633
0.750946 0.296722 0.295990
0.771271 0.302429 0.299744
0.791443 0.308014 0.303467
0.811493 0.313660 0.307251
0.831482 0.319458 0.311188
0.851349 0.325256 0.315063
0.866150 0.329468 0.317993
0.866150 0.329468 0.317993
0.231384 0.206360 0.262146
0.231384 0.206360 0.262146
0.231384 0.206360 0.262146
0.231384 0.206360 0.262146
0.240875 0.206360 0.262146
0.276184 0.206360 0.262146
0.304962 0.213562 0.257599
0.331726 0.222046 0.256897
0.357941 0.230255 0.258514
0.383179 0.238525 0.261444
0.408936 0.245514 0.264404
0.435120 0.251160 0.267212
0.460999 0.256348 0.269928
0.486389 0.261322 0.272522
0.511169 0.266174 0.275085
0.535400 0.270935 0.277588
0.559113 0.275604 0.279968
0.582336 0.280151 0.282410
0.605103 0.285553 0.285614
0.627472 0.291687 0.289673
0.649414 0.297699 0.293640
0.671021 0.303680 0.297546
0.692291 0.309845 0.301727
0.713318 0.315918 0.305847
0.734070 0.321960 0.309937
0.754608 0.327942 0.313965
0.774902 0.333801 0.317932
0.795105 0.339630 0.321899
0.815155 0.345459 0.325836
0.835114 0.351288 0.329773
0.855011 0.357025 0.333679
0.869781 0.361359 0.336578
0.869781 0.361359 0.336578
0.231384 0.229370 0.262146
0.231384 0.229370 0.262146
0.231384 0.229370 0.262146
0.231384 0.229370 0.262146
0.240875 0.229370 0.262146
0.275024 0.230499 0.261017
0.302979 0.238556 0.259277
0.329620 0.247162 0.261444
0.357330 0.253906 0.264343
0.384857 0.259888 0.267303
0.412201 0.265259 0.270142
0.438812 0.270477 0.272827
0.464783 0.276825 0.276764
0.490143 0.283722 0.281281
0.514923 0.290466 0.285706
0.539185 0.297241 0.290161
0.562866 0.304077 0.294830
0.586090 0.310822 0.299377
0.608856 0.317413 0.303864
0.631226 0.323914 0.308228
0.653198 0.330292 0.312561
0.674774 0.336548 0.316772
0.696075 0.342712 0.320984
0.717072 0.348785 0.325073
0.737854 0.354797 0.329163
0.758362 0.360809 0.333191
0.778687 0.366669 0.337189
0.798859 0.372498 0.341156
0.818909 0.378357 0.345062
0.838898 0.384186 0.348999
0.858795 0.389923 0.352905
0.873566 0.394196 0.355804
0.873566 0.394196 0.355804
0.231384 0.253235 0.262146
0.231384 0.253235 0.262146
0.231384 0.253235 0.262146
0.231384 0.253235 0.262146
0.240875 0.253235 0.262146
0.273254 0.256134 0.261963
0.302856 0.262909 0.264648
0.331970 0.271271 0.269867
0.360748 0.278992 0.274902
0.388763 0.286560 0.279816
0.416107 0.294495 0.285187
0.442749 0.302216 0.290436
0.468689 0.309723 0.295502
0.494080 0.317139 0.300507
0.518829 0.324310 0.305359
0.543091 0.331329 0.310120
0.566803 0.338196 0.314789
0.589996 0.344910 0.319336
0.612762 0.351501 0.323792
0.635132 0.358032 0.328186
0.657074 0.364410 0.332489
0.678711 0.370667 0.336731
0.699982 0.376862 0.340912
0.721008 0.382935 0.345062
0.741760 0.388977 0.349121
0.762299 0.394928 0.353149
0.782593 0.400757 0.357117
0.802795 0.406647 0.361084
0.822845 0.412445 0.365021
0.842834 0.418304 0.368958
0.862701 0.424042 0.372864
0.877502 0.428345 0.375763
0.877502 0.428345 0.375763
0.231384 0.277893 0.262146
0.231384 0.277893 0.262146
0.231384 0.277893 0.262146
0.231384 0.277893 0.262146
0.240875 0.277893 0.262146
0.275085 0.274780 0.264709
0.303955 0.283081 0.270355
0.333435 0.293396 0.276123
0.362213 0.301727 0.281769
0.390228 0.309875 0.287292
0.417572 0.317810 0.292664
0.444183 0.325531 0.297882
0.470154 0.333038 0.302979
0.495514 0.340424 0.307953
0.520294 0.347626 0.312805
0.544556 0.354645 0.317566
0.568268 0.361542 0.322235
0.591461 0.368256 0.326782
0.614258 0.374878 0.331268
0.636597 0.381348 0.335632
0.658569 0.387726 0.339966
0.680145 0.393951 0.344177
0.701447 0.400177 0.348358
0.722443 0.406250 0.352478
0.743225 0.412262 0.356567
0.763733 0.418243 0.360596
0.784088 0.424133 0.364594
0.804260 0.429962 0.368530
0.824310 0.435822 0.372467
0.844269 0.441559 0.376373
0.864166 0.447357 0.380280
0.878937 0.451630 0.383179
0.878937 0.451630 0.383179
0.231384 0.303436 0.262146
0.231384 0.303436 0.262146
0.231384 0.303436 0.262146
0.231384 0.303436 0.262146
0.240875 0.303436 0.262146
0.278381 0.301666 0.263916
0.303955 0.291687 0.270355
0.333435 0.302124 0.276123
0.362213 0.314117 0.281769
0.390228 0.325378 0.287292
0.417572 0.334961 0.292664
0.444183 0.342682 0.297882
0.470154 0.350220 0.302979
0.495514 0.357574 0.307953
0.520294 0.364746 0.312805
0.544556 0.371826 0.317566
0.568268 0.378693 0.322235
0.591461 0.385437 0.326782
0.614258 0.392029 0.331268
0.636597 0.398499 0.335632
0.658569 0.404907 0.339966
0.680145 0.411133 0.344177
0.701447 0.417297 0.348358
0.722443 0.423431 0.352478
0.743225 0.429443 0.356567
0.763733 0.435364 0.360596
0.784088 0.441284 0.364594
0.804260 0.447144 0.368530
0.824310 0.452972 0.372467
0.844269 0.458740 0.376373
0.864166 0.464478 0.380280
0.878937 0.468811 0.383179
0.878937 0.468811 0.383179
0.231384 0.329865 0.262146
0.231384 0.329865 0.262146
0.231384 0.329865 0.262146
0.231384 0.329865 0.262146
0.240875 0.329865 0.262146
0.276398 0.329742 0.262268
0.315247 0.318787 0.272644
0.333435 0.310516 0.276123
0.362213 0.320709 0.281769
0.390228 0.332397 0.287292
0.417572 0.343781 0.292664
0.444183 0.354828 0.297882
0.470154 0.365479 0.302979
0.495514 0.375000 0.307953
0.520294 0.382507 0.312805
0.544556 0.389587 0.317566
0.568268 0.396454 0.322235
0.591461 0.403198 0.326782
0.614258 0.409790 0.331268
0.636597 0.416260 0.335632
0.658569 0.422638 0.339966
0.680145 0.428894 0.344177
0.701447 0.435059 0.348358
0.722443 0.441193 0.352478
0.743225 0.447205 0.356567
0.763733 0.453186 0.360596
0.784088 0.459045 0.364594
0.804260 0.464905 0.368530
0.824310 0.470673 0.372467
0.844269 0.476501 0.376373
0.864166 0.482269 0.380280
0.878937 0.486572 0.383179
0.878937 0.486572 0.383179
0.231384 0.357208 0.262146
0.231384 0.357208 0.262146
0.231384 0.357208 0.262146
0.231384 0.357208 0.262146
0.240875 0.357208 0.262146
0.276184 0.357208 0.262146
0.320038 0.348419 0.270935
0.341949 0.335693 0.277802
0.362213 0.329895 0.281769
0.390228 0.339233 0.287292
0.417572 0.350616 0.292664
0.444183 0.361664 0.297882
0.470154 0.372467 0.302979
0.495514 0.383026 0.307953
0.520294 0.393372 0.312805
0.544556 0.403473 0.317566
0.568268 0.412750 0.322235
0.591461 0.421326 0.326782
0.614258 0.428131 0.331268
0.636597 0.434662 0.335632
0.658569 0.441010 0.339966
0.680145 0.447266 0.344177
0.701447 0.453430 0.348358
0.722443 0.459534 0.352478
0.743225 0.465546 0.356567
0.763733 0.471527 0.360596
0.784088 0.477417 0.364594
0.804260 0.483276 0.368530
0.824310 0.489075 0.372467
0.844269 0.494812 0.376373
0.864166 0.500641 0.380280
0.878937 0.504883 0.383179
0.878937 0.504883 0.383179
0.231384 0.385284 0.262146
0.231384 0.385284 0.262146
0.231384 0.385284 0.262146
0.231384 0.385284 0.262146
0.240875 0.385284 0.262146
0.276184 0.385284 0.262146
0.320129 0.378906 0.268494
0.355835 0.367462 0.279968
0.366119 0.351715 0.282562
0.390228 0.349640 0.287292
0.417572 0.357605 0.292664
0.444183 0.368683 0.297882
0.470154 0.379486 0.302979
0.495514 0.390076 0.307953
0.520294 0.400391 0.312805
0.544556 0.410461 0.317566
0.568268 0.420349 0.322235
0.591461 0.430023 0.326782
0.614258 0.439484 0.331268
0.636597 0.448792 0.335632
0.658569 0.457458 0.339966
0.680145 0.465363 0.344177
0.701447 0.472290 0.348358
0.722443 0.478394 0.352478
0.743225 0.484436 0.356567
0.763733 0.490295 0.360596
0.784088 0.496216 0.364594
0.804260 0.502106 0.368530
0.824310 0.507965 0.372467
0.844269 0.513672 0.376373
0.864166 0.519501 0.380280
0.878937 0.523773 0.383179
0.878937 0.523773 0.383179
0.231384 0.413971 0.262146
0.231384 0.413971 0.262146
0.231384 0.413971 0.262146
0.231384 0.413971 0.262146
0.240875 0.413971 0.262146
0.276184 0.413971 0.262146
0.318115 0.409698 0.266418
0.360443 0.398163 0.277954
0.386871 0.388062 0.287048
0.390686 0.369110 0.287384
0.417572 0.369720 0.292664
0.444183 0.375854 0.297882
0.470154 0.386658 0.302979
0.495514 0.397217 0.307953
0.520294 0.407593 0.312805
0.544556 0.417664 0.317566
0.568268 0.427490 0.322235
0.591461 0.437195 0.326782
0.614258 0.446686 0.331268
0.636597 0.455963 0.335632
0.658569 0.465088 0.339966
0.680145 0.474121 0.344177
0.701447 0.482971 0.348358
0.722443 0.491699 0.352478
0.743225 0.500305 0.356567
0.763733 0.507812 0.360596
0.784088 0.515137 0.364594
0.804260 0.521393 0.368530
0.824310 0.527222 0.372467
0.844269 0.533020 0.376373
0.864166 0.538757 0.380280
0.878937 0.543030 0.383179
0.878937 0.543030 0.383179
0.231384 0.443268 0.262146
0.231384 0.443268 0.262146
0.231384 0.443268 0.262146
0.231384 0.443268 0.262146
0.240875 0.443268 0.262146
0.276184 0.443268 0.262146
0.315735 0.440979 0.264435
0.361877 0.429810 0.275574
0.395599 0.418610 0.286804
0.413544 0.407959 0.291870
0.417572 0.389374 0.292664
0.444183 0.390289 0.297882
0.470154 0.393951 0.302979
0.495514 0.404541 0.307953
0.520294 0.414825 0.312805
0.544556 0.424927 0.317566
0.568268 0.434784 0.322235
0.591461 0.444458 0.326782
0.614258 0.453949 0.331268
0.636597 0.463257 0.335632
0.658569 0.472412 0.339966
0.680145 0.481354 0.344177
0.701447 0.490295 0.348358
0.722443 0.498993 0.352478
0.743225 0.507690 0.356567
0.763733 0.516235 0.360596
0.784088 0.524658 0.364594
0.804260 0.533112 0.368530
0.824310 0.541382 0.372467
0.844269 0.549469 0.376373
0.864166 0.556671 0.380280
0.878937 0.562012 0.383179
0.878937 0.562012 0.383179
0.231384 0.473022 0.262146
0.231384 0.473022 0.262146
0.231384 0.473022 0.262146
0.231384 0.473022 0.262146
0.240875 0.473022 0.262146
0.276184 0.473022 0.262146
0.312683 0.472687 0.262482
0.361328 0.461853 0.273285
0.400055 0.450775 0.284393
0.428101 0.440338 0.294830
0.438416 0.426849 0.296753
0.444183 0.410278 0.297882
0.470154 0.411194 0.302979
0.495514 0.412567 0.307953
0.520294 0.422302 0.312805
0.544556 0.432404 0.317566
0.568268 0.442230 0.322235
0.591461 0.451935 0.326782
0.614258 0.461395 0.331268
0.636597 0.470734 0.335632
0.658569 0.479858 0.339966
0.680145 0.488831 0.344177
0.701447 0.497681 0.348358
0.722443 0.506409 0.352478
0.743225 0.515076 0.356567
0.763733 0.523682 0.360596
0.784088 0.532104 0.364594
0.804260 0.540466 0.368530
0.824310 0.548798 0.372467
0.844269 0.557098 0.376373
0.864166 0.565369 0.380280
0.878937 0.571564 0.383179
0.878937 0.571564 0.383179
0.231384 0.503082 0.262146
0.231384 0.503082 0.262146
0.231384 0.503082 0.262146
0.231384 0.503082 0.262146
0.240875 0.503082 0.262146
0.276184 0.503082 0.262146
0.312134 0.503082 0.262146
0.359436 0.494507 0.270691
0.401978 0.483185 0.282043
0.434753 0.472198 0.293030
0.458435 0.462982 0.301666
0.463562 0.446747 0.301666
0.470154 0.431396 0.302979
0.495514 0.432312 0.307953
0.520294 0.433319 0.312805
0.544556 0.439880 0.317566
0.568268 0.449768 0.322235
0.591461 0.459442 0.326782
0.614258 0.468933 0.331268
0.636597 0.478210 0.335632
0.658569 0.487396 0.339966
0.680145 0.496338 0.344177
0.701447 0.505219 0.348358
0.722443 0.513916 0.352478
0.743225 0.522614 0.356567
0.763733 0.531128 0.360596
0.784088 0.539581 0.364594
0.804260 0.548035 0.368530
0.824310 0.556305 0.372467
0.844269 0.564575 0.376373
0.864166 0.572937 0.380280
0.878937 0.579071 0.383179
0.878937 0.579071 0.383179
0.231384 0.533478 0.262146
0.231384 0.533478 0.262146
0.231384 0.533478 0.262146
0.231384 0.533478 0.262146
0.240875 0.533478 0.262146
0.276184 0.533478 0.262146
0.312134 0.533478 0.262146
0.356506 0.527557 0.268066
0.402191 0.516296 0.279297
0.438843 0.504974 0.290680
0.467468 0.494507 0.301147
0.487946 0.487457 0.306671
0.488983 0.467651 0.306671
0.495514 0.452728 0.307953
0.520294 0.453644 0.312805
0.544556 0.454498 0.317566
0.568268 0.457367 0.322235
0.591461 0.467041 0.326782
0.614258 0.476471 0.331268
0.636597 0.485809 0.335632
0.658569 0.494934 0.339966
0.680145 0.503937 0.344177
0.701447 0.512817 0.348358
0.722443 0.521545 0.352478
0.743225 0.530182 0.356567
0.763733 0.538696 0.360596
0.784088 0.547119 0.364594
0.804260 0.555573 0.368530
0.824310 0.563965 0.372467
0.844269 0.572235 0.376373
0.864166 0.580536 0.380280
0.878937 0.586609 0.383179
0.878937 0.586609 0.383179
0.231384 0.564087 0.262177
0.231384 0.564087 0.262177
0.231384 0.564087 0.262177
0.231384 0.564087 0.262177
0.240875 0.564087 0.262146
0.276184 0.564087 0.262146
0.312134 0.564087 0.262146
0.353302 0.560455 0.265778
0.401184 0.548889 0.277313
0.440979 0.538116 0.288086
0.473236 0.527374 0.298859
0.498535 0.517242 0.308960
0.514526 0.509644 0.311676
0.514526 0.489258 0.311676
0.520294 0.474182 0.312805
0.544556 0.475067 0.317566
0.568268 0.475891 0.322235
0.591461 0.476837 0.326782
0.614258 0.484161 0.331268
0.636597 0.493439 0.335632
0.658569 0.502594 0.339966
0.680145 0.511566 0.344177
0.701447 0.520416 0.348358
0.722443 0.529144 0.352478
0.743225 0.537811 0.356567
0.763733 0.546387 0.360596
0.784088 0.554840 0.364594
0.804260 0.563232 0.368530
0.824310 0.571503 0.372467
0.844269 0.579834 0.376373
0.864166 0.588165 0.380280
0.878937 0.594299 0.383179
0.878937 0.594299 0.383179
0.231384 0.594910 0.262177
0.231384 0.594910 0.262177
0.231384 0.594910 0.262177
0.231384 0.594910 0.262177
0.240875 0.594910 0.262146
0.276184 0.594910 0.262146
0.312134 0.594910 0.262146
0.350494 0.592865 0.264160
0.399170 0.582397 0.274628
0.441559 0.571594 0.285431
0.477020 0.560791 0.296234
0.505859 0.550323 0.306702
0.528717 0.541016 0.316010
0.540283 0.531586 0.316742
0.540283 0.511688 0.316742
0.544556 0.495728 0.317566
0.568268 0.496613 0.322235
0.591461 0.497467 0.326782
0.614258 0.498260 0.331268
0.636597 0.501099 0.335632
0.658569 0.510254 0.339966
0.680145 0.519257 0.344177
0.701447 0.528076 0.348358
0.722443 0.536835 0.352478
0.743225 0.545471 0.356567
0.763733 0.553955 0.360596
0.784088 0.562561 0.364594
0.804260 0.570953 0.368530
0.824310 0.579285 0.372467
0.844269 0.587494 0.376373
0.864166 0.595856 0.380280
0.878937 0.601990 0.383179
0.878937 0.601990 0.383179
0.231384 0.625854 0.262146
0.231384 0.625854 0.262146
0.231384 0.625854 0.262146
0.231384 0.625854 0.262146
0.240875 0.625854 0.262146
0.276184 0.625854 0.262146
0.312134 0.625854 0.262146
0.347778 0.625580 0.262421
0.396515 0.615997 0.272003
0.441071 0.604797 0.283173
0.479034 0.593872 0.294128
0.510895 0.583649 0.304321
0.537109 0.573639 0.314362
0.558258 0.566162 0.321808
0.566162 0.554199 0.321808
0.566162 0.534698 0.321808
0.568329 0.517456 0.322235
0.591461 0.518219 0.326782
0.614258 0.519043 0.331268
0.636597 0.519806 0.335632
0.658569 0.520569 0.339966
0.680145 0.527008 0.344177
0.701447 0.535858 0.348358
0.722443 0.544617 0.352478
0.743225 0.553223 0.356567
0.763733 0.561829 0.360596
0.784088 0.570251 0.364594
0.804260 0.578674 0.368530
0.824310 0.587036 0.372467
0.844269 0.595337 0.376373
0.864166 0.603607 0.380280
0.878937 0.609741 0.383179
0.878937 0.609741 0.383179
0.231384 0.656891 0.262146
0.231384 0.656891 0.262146
0.231384 0.656891 0.262146
0.231384 0.656891 0.262146
0.240875 0.656891 0.262146
0.276184 0.656891 0.262146
0.312164 0.656891 0.262146
0.347443 0.656891 0.262146
0.393341 0.649475 0.269531
0.439728 0.638367 0.280640
0.479919 0.627747 0.291260
0.514343 0.617401 0.301636
0.543304 0.607239 0.311768
0.567291 0.597168 0.321838
0.586853 0.591522 0.326904
0.592102 0.577332 0.326904
0.592102 0.558258 0.326904
0.593384 0.540649 0.327179
0.614258 0.539856 0.331268
0.636597 0.540680 0.335632
0.658569 0.541443 0.339966
0.680145 0.542206 0.344177
0.701447 0.544067 0.348358
0.722443 0.552338 0.352478
0.743225 0.561005 0.356567
0.763733 0.569458 0.360596
0.784088 0.577972 0.364594
0.804260 0.586487 0.368530
0.824310 0.594757 0.372467
0.844269 0.603027 0.376373
0.864166 0.611328 0.380280
0.878937 0.617432 0.383179
0.878937 0.617432 0.383179
0.231384 0.688049 0.262146
0.231384 0.688049 0.262146
0.231384 0.688049 0.262146
0.231384 0.688049 0.262146
0.240875 0.688049 0.262146
0.276245 0.688049 0.262146
0.312164 0.688049 0.262146
0.347443 0.688049 0.262146
0.389740 0.683105 0.267090
0.437653 0.671906 0.278290
0.479736 0.661530 0.288666
0.516296 0.650909 0.299286
0.547821 0.641052 0.309143
0.574554 0.630981 0.319183
0.596558 0.621033 0.329163
0.615051 0.617004 0.332031
0.618164 0.601044 0.332031
0.618164 0.582397 0.332031
0.619019 0.564819 0.332184
0.636597 0.561615 0.335632
0.658569 0.562378 0.339966
0.680145 0.563141 0.344177
0.701447 0.563904 0.348358
0.722443 0.564697 0.352478
0.743225 0.568909 0.356567
0.763733 0.577271 0.360596
0.784088 0.585815 0.364594
0.804260 0.594147 0.368530
0.824310 0.602539 0.372467
0.844269 0.610809 0.376373
0.864166 0.619080 0.380280
0.878937 0.625214 0.383179
0.878937 0.625214 0.383179
0.231384 0.719208 0.262146
0.231384 0.719208 0.262146
0.231384 0.719208 0.262146
0.231384 0.719208 0.262146
0.240875 0.719208 0.262177
0.276184 0.719208 0.262146
0.312134 0.719208 0.262146
0.347443 0.719208 0.262146
0.386414 0.716370 0.264984
0.434906 0.706024 0.275299
0.478699 0.694855 0.286499
0.517273 0.684937 0.296417
0.550812 0.674652 0.306702
0.579956 0.664642 0.316711
0.604797 0.654938 0.326385
0.625641 0.645966 0.335358
0.642944 0.642548 0.337128
0.644226 0.625183 0.337128
0.644226 0.606873 0.337128
0.644562 0.589172 0.337189
0.658569 0.583344 0.339966
0.680145 0.584106 0.344177
0.701447 0.584869 0.348358
0.722443 0.585571 0.352478
0.743225 0.586334 0.356567
0.763733 0.587006 0.360596
0.784088 0.593536 0.364594
0.804260 0.601959 0.368530
0.824310 0.610291 0.372467
0.844269 0.618561 0.376373
0.864166 0.626862 0.380280
0.878937 0.633026 0.383179
0.878937 0.633026 0.383179
0.231384 0.750397 0.262177
0.231384 0.750397 0.262177
0.231384 0.750397 0.262177
0.231384 0.750397 0.262177
0.240875 0.750397 0.262146
0.276154 0.750397 0.262146
0.312164 0.750397 0.262146
0.347412 0.750397 0.262146
0.383362 0.749451 0.263092
0.431946 0.739563 0.272980
0.477142 0.728790 0.283722
0.517242 0.718414 0.294128
0.552643 0.708405 0.304108
0.583801 0.698334 0.314148
0.610840 0.688568 0.323944
0.634216 0.679169 0.333313
0.654022 0.670746 0.341766
0.670258 0.667999 0.342224
0.670258 0.649689 0.342224
0.670258 0.631714 0.342224
0.670258 0.614075 0.342224
0.680145 0.605011 0.344177
0.701447 0.605804 0.348358
0.722443 0.606537 0.352478
0.743225 0.607300 0.356567
0.763733 0.608032 0.360596
0.784088 0.608765 0.364594
0.804260 0.610504 0.368530
0.824310 0.618103 0.372467
0.844269 0.626404 0.376373
0.864166 0.634644 0.380280
0.878937 0.640869 0.383179
0.878937 0.640869 0.383179
0.231384 0.781586 0.262115
0.231384 0.781586 0.262115
0.231384 0.781586 0.262115
0.231384 0.781586 0.262115
0.240875 0.781586 0.262115
0.276154 0.781586 0.262146
0.312164 0.781586 0.262146
0.347443 0.781586 0.262146
0.381866 0.781586 0.262146
0.428558 0.773071 0.270630
0.475037 0.762268 0.281403
0.516510 0.752289 0.291412
0.553589 0.741943 0.301788
0.586395 0.731537 0.312164
0.615662 0.722565 0.321136
0.640839 0.712585 0.331116
0.663025 0.703613 0.340088
0.681854 0.696350 0.347382
0.696350 0.692566 0.347382
0.696350 0.674561 0.347382
0.696350 0.656982 0.347382
0.696350 0.639587 0.347382
0.701447 0.626709 0.348358
0.722443 0.627472 0.352478
0.743225 0.628204 0.356567
0.763733 0.628967 0.360596
0.784088 0.629669 0.364594
0.804260 0.630402 0.368530
0.824310 0.631165 0.372467
0.844269 0.634583 0.376373
0.864166 0.642456 0.380280
0.878937 0.648621 0.383179
0.878937 0.648621 0.383179
0.231384 0.812775 0.262177
0.231384 0.812775 0.262177
0.231384 0.812775 0.262177
0.231384 0.812775 0.262177
0.240875 0.812775 0.262177
0.276154 0.812775 0.262146
0.312103 0.812775 0.262146
0.347443 0.812775 0.262146
0.381866 0.812775 0.262146
0.424744 0.806946 0.267944
0.472260 0.796387 0.278564
0.515167 0.785980 0.288940
0.553619 0.775391 0.299530
0.588226 0.765900 0.309021
0.619080 0.756104 0.318817
0.646210 0.746368 0.328552
0.670105 0.737030 0.337891
0.691284 0.728271 0.346680
0.709442 0.722412 0.352478
0.722412 0.717468 0.352478
0.722412 0.699768 0.352478
0.722412 0.682404 0.352478
0.722412 0.665344 0.352478
0.723389 0.649200 0.352661
0.743225 0.649200 0.356567
