滤镜资源/Professional Luts Collection/Lutify.me Professional/Alternative Process/Amethyst Green.cube
# Created by: Lutify.me
# Copyright: (c) Copyright Lutify.me 2015
# Website: https://lutify.me
#LUT size
LUT_3D_SIZE 5
#LUT data points
0.000000 0.000000 0.000000
0.239410 0.000000 0.031555
0.506897 0.000000 0.098969
0.840881 0.000000 0.159851
1.000000 0.000000 0.211426
0.000000 0.229218 0.133179
0.230652 0.231476 0.142792
0.513580 0.232117 0.167786
0.841217 0.220581 0.199493
1.000000 0.288361 0.232544
0.000000 0.575500 0.233795
0.000000 0.578461 0.236267
0.492157 0.583191 0.242950
0.819519 0.589417 0.253815
1.000000 0.615692 0.269440
0.000000 0.851410 0.299896
0.049347 0.849487 0.301025
0.532745 0.843292 0.304474
0.809204 0.836334 0.311462
1.000000 0.835052 0.322968
0.445831 0.986176 0.376251
0.520447 0.984039 0.377075
0.681183 0.978271 0.379639
0.856110 0.971008 0.384827
1.000000 0.965118 0.393127
0.000000 0.000000 0.396912
0.171356 0.000000 0.398529
0.490326 0.000000 0.403259
0.834320 0.000000 0.409637
1.000000 0.000000 0.415253
0.000000 0.229340 0.406891
0.168671 0.231659 0.407928
0.500427 0.231232 0.410706
0.835327 0.220703 0.413422
1.000000 0.291077 0.415344
0.000000 0.576355 0.412354
0.000000 0.579102 0.412292
0.486938 0.583344 0.411865
0.815338 0.589935 0.410858
1.000000 0.616577 0.410645
0.000000 0.850891 0.413696
0.062683 0.848907 0.413910
0.534058 0.842804 0.414612
0.807068 0.836151 0.416626
1.000000 0.835083 0.421082
0.450012 0.985535 0.451904
0.522827 0.983459 0.452362
0.680969 0.977844 0.454041
0.854187 0.970734 0.457550
1.000000 0.964935 0.463440
0.000000 0.000000 0.614349
0.106476 0.000000 0.614502
0.497955 0.000000 0.614777
0.838928 0.000000 0.614227
1.000000 0.000000 0.611969
0.000000 0.231140 0.614960
0.124695 0.232910 0.614899
0.510956 0.229034 0.614258
0.838806 0.223297 0.612183
1.000000 0.300323 0.608459
0.000000 0.578949 0.605347
0.000000 0.580994 0.604858
0.504822 0.584106 0.603210
0.816864 0.591827 0.600220
1.000000 0.619537 0.596954
0.000000 0.849182 0.592865
0.157776 0.847198 0.592743
0.549377 0.841400 0.592529
0.806366 0.835632 0.592590
0.995758 0.835236 0.593689
0.467865 0.983673 0.606781
0.534760 0.981720 0.606934
0.683563 0.976501 0.607666
0.850494 0.969940 0.609222
1.000000 0.964508 0.612000
0.000000 0.000000 0.795868
0.200897 0.000000 0.795776
0.552216 0.000000 0.795258
0.859070 0.000000 0.793671
1.000000 0.000000 0.790314
0.000000 0.233917 0.794861
0.227417 0.233490 0.794556
0.564117 0.225464 0.793396
0.856018 0.232391 0.790771
1.000000 0.318359 0.786591
0.000000 0.582489 0.783813
0.188263 0.583557 0.783264
0.558655 0.585815 0.781525
0.829102 0.596100 0.778564
1.000000 0.625427 0.774963
0.077026 0.846039 0.768707
0.319916 0.844147 0.768524
0.587585 0.839264 0.767944
0.813385 0.835022 0.767181
0.991089 0.835663 0.766663
0.510010 0.980530 0.769867
0.566071 0.978821 0.769897
0.696930 0.974304 0.770020
0.850983 0.968597 0.770477
0.999359 0.963776 0.771332
0.266327 0.000000 0.948944
0.399994 0.000000 0.948700
0.652283 0.000000 0.947845
0.894135 0.000000 0.945892
1.000000 0.108276 0.942261
0.293732 0.232422 0.947113
0.418182 0.229858 0.946716
0.657806 0.224365 0.945404
0.887482 0.253357 0.942749
1.000000 0.346313 0.938660
0.286346 0.585754 0.936035
0.414001 0.586395 0.935547
0.642090 0.589752 0.933960
0.854614 0.603882 0.931335
1.000000 0.634613 0.927979
0.377411 0.841797 0.921600
0.467224 0.840363 0.921387
0.646759 0.837036 0.920776
0.832153 0.834747 0.919891
0.992798 0.836578 0.918976
0.572937 0.976532 0.918457
0.616333 0.975128 0.918427
0.723907 0.971527 0.918365
0.859894 0.966919 0.918365
1.000000 0.962799 0.918488
