滤镜资源/Professional Luts Collection/Lutify.me Professional/Alternative Process/Amethyst Green.cube
# Created by: Lutify.me
# Copyright: (c) Copyright Lutify.me 2015
# Website: https://lutify.me
#LUT size
LUT_3D_SIZE 9
#LUT data points
0.000000 0.000000 0.000000
0.119293 0.000000 0.008820
0.239410 0.000000 0.031555
0.362152 0.000000 0.065491
0.506897 0.000000 0.098969
0.674866 0.000000 0.130615
0.840881 0.000000 0.159851
0.976929 0.000000 0.186768
1.000000 0.000000 0.211426
0.004730 0.103485 0.059448
0.120697 0.101990 0.065674
0.239319 0.098907 0.079895
0.363281 0.092499 0.100525
0.509827 0.066162 0.124420
0.677734 0.002808 0.149445
0.841736 0.000000 0.173492
0.975800 0.000000 0.196655
1.000000 0.080688 0.218414
0.000000 0.229218 0.133179
0.105560 0.229858 0.136230
0.230652 0.231476 0.142792
0.361847 0.233551 0.153900
0.513580 0.232117 0.167786
0.681396 0.224640 0.183228
0.841217 0.220581 0.199493
0.971130 0.240814 0.216156
1.000000 0.288361 0.232544
0.000000 0.393158 0.192474
0.000000 0.394562 0.193909
0.169495 0.397949 0.197113
0.339600 0.402588 0.202667
0.508087 0.406525 0.209961
0.679138 0.409119 0.218567
0.834290 0.414978 0.228271
0.958832 0.431641 0.238922
1.000000 0.460510 0.250336
0.000000 0.575500 0.233795
0.000000 0.576416 0.234497
0.000000 0.578461 0.236267
0.289154 0.581024 0.239105
0.492157 0.583191 0.242950
0.669373 0.585022 0.247833
0.819519 0.589417 0.253815
0.939362 0.599548 0.261047
1.000000 0.615692 0.269440
0.000000 0.736267 0.265625
0.000000 0.736328 0.266052
0.000000 0.736328 0.267151
0.263397 0.735809 0.268951
0.490173 0.734314 0.271606
0.665070 0.732513 0.275177
0.806763 0.732300 0.279938
0.921600 0.735016 0.285950
1.000000 0.740845 0.293335
0.000000 0.851410 0.299896
0.000000 0.850861 0.300262
0.049347 0.849487 0.301025
0.347748 0.846924 0.302460
0.532745 0.843292 0.304474
0.683411 0.839417 0.307495
0.809204 0.836334 0.311462
0.915222 0.834747 0.316650
1.000000 0.835052 0.322968
0.158356 0.929321 0.337311
0.233917 0.928558 0.337555
0.349701 0.926788 0.338226
0.478516 0.923798 0.339325
0.604919 0.919922 0.341125
0.722290 0.915710 0.343658
0.828003 0.911713 0.347107
0.921661 0.908539 0.351501
1.000000 0.906372 0.356903
0.445831 0.986176 0.376251
0.468964 0.985535 0.376587
0.520447 0.984039 0.377075
0.594910 0.981537 0.378113
0.681183 0.978271 0.379639
0.770142 0.974640 0.381897
0.856110 0.971008 0.384827
0.936798 0.967804 0.388580
1.000000 0.965118 0.393127
0.000000 0.000000 0.231934
0.063782 0.000000 0.233398
0.217041 0.000000 0.237427
0.349792 0.000000 0.244141
0.500214 0.000000 0.253357
0.671143 0.000000 0.264160
0.838043 0.000000 0.276001
0.974548 0.000000 0.288055
1.000000 0.000000 0.299683
0.000000 0.102570 0.242706
0.067719 0.101257 0.244110
0.217468 0.098206 0.247681
0.351440 0.091461 0.253723
0.503479 0.063812 0.261932
0.674164 0.001831 0.271637
0.838959 0.000000 0.281921
0.973480 0.000000 0.292389
1.000000 0.082275 0.302795
0.000000 0.229187 0.265320
0.044922 0.229797 0.266357
0.209595 0.231537 0.269073
0.351166 0.233398 0.273499
0.507965 0.231812 0.279419
0.678162 0.224304 0.286224
0.838654 0.220551 0.293549
0.968689 0.241272 0.301300
1.000000 0.289093 0.309143
0.000000 0.393463 0.290192
0.000000 0.394897 0.290863
0.144135 0.398193 0.292358
0.330292 0.402771 0.294830
0.503632 0.406586 0.298096
0.676514 0.409149 0.301941
0.832031 0.415161 0.306244
0.956604 0.432007 0.311066
1.000000 0.460907 0.316437
0.000000 0.575745 0.308044
0.000000 0.576630 0.308380
0.000000 0.578644 0.309143
0.281982 0.581146 0.310425
0.489288 0.583191 0.312073
0.667480 0.585083 0.314056
0.817657 0.589569 0.316650
0.937531 0.599762 0.319977
1.000000 0.615967 0.324127
0.000000 0.736298 0.321686
0.000000 0.736359 0.321869
0.000000 0.736298 0.322418
0.260193 0.735748 0.323273
0.488892 0.734253 0.324524
0.663940 0.732483 0.326263
0.805450 0.732330 0.328735
0.920197 0.735046 0.332184
1.000000 0.740936 0.336578
0.000000 0.851257 0.340942
0.000000 0.850708 0.341156
0.049957 0.849335 0.341583
0.347961 0.846771 0.342438
0.532593 0.843140 0.343719
0.682800 0.839294 0.345642
0.808350 0.836273 0.348358
0.914154 0.834747 0.351990
1.000000 0.835052 0.356598
0.163361 0.929108 0.367828
0.236725 0.928406 0.367981
0.351196 0.926605 0.368469
0.479126 0.923645 0.369354
0.604919 0.919800 0.370697
0.721893 0.915588 0.372681
0.827362 0.911652 0.375458
0.920837 0.908478 0.379059
1.000000 0.906311 0.383545
0.446869 0.985992 0.400360
0.469788 0.985382 0.400482
0.521088 0.983856 0.400970
0.595093 0.981384 0.401825
0.681030 0.978180 0.403229
0.769714 0.974518 0.405121
0.855530 0.970917 0.407715
0.936066 0.967743 0.411072
1.000000 0.965057 0.415070
0.000000 0.000000 0.396912
0.000000 0.000000 0.397369
0.171356 0.000000 0.398529
0.328461 0.000000 0.400543
0.490326 0.000000 0.403259
0.666321 0.000000 0.406403
0.834320 0.000000 0.409637
0.970703 0.000000 0.412689
1.000000 0.000000 0.415253
0.000000 0.100800 0.400177
0.000000 0.099487 0.400604
0.173676 0.096619 0.401672
0.331329 0.088928 0.403503
0.494324 0.058228 0.405914
0.669678 0.001251 0.408600
0.835358 0.000000 0.411194
0.969543 0.000122 0.413544
1.000000 0.087952 0.415527
0.000000 0.229340 0.406891
0.000000 0.229950 0.407227
0.168671 0.231659 0.407928
0.333832 0.233246 0.409210
0.500427 0.231232 0.410706
0.674377 0.223572 0.412170
0.835327 0.220703 0.413422
0.964844 0.242615 0.414490
1.000000 0.291077 0.415344
0.000000 0.394409 0.412598
0.000000 0.395813 0.412750
0.091034 0.398926 0.412964
0.316650 0.403259 0.413361
0.498444 0.406799 0.413666
0.673737 0.409302 0.413788
0.829132 0.415680 0.413727
0.953186 0.432922 0.413635
1.000000 0.462067 0.413544
0.000000 0.576355 0.412354
0.000000 0.577179 0.412354
0.000000 0.579102 0.412292
0.273865 0.581421 0.412170
0.486938 0.583344 0.411865
0.665894 0.585236 0.411377
0.815338 0.589935 0.410858
0.934631 0.600311 0.410583
1.000000 0.616577 0.410645
0.000000 0.736328 0.409546
0.000000 0.736359 0.409515
0.000000 0.736267 0.409485
0.260193 0.735596 0.409424
0.489288 0.734100 0.409302
0.663330 0.732391 0.409302
0.803741 0.732361 0.409576
0.917877 0.735199 0.410339
1.000000 0.741150 0.411804
0.000000 0.850891 0.413696
0.000000 0.850311 0.413757
0.062683 0.848907 0.413910
0.351990 0.846375 0.414154
0.534058 0.842804 0.414612
0.682587 0.839050 0.415375
0.807068 0.836151 0.416626
0.912262 0.834717 0.418488
1.000000 0.835083 0.421082
0.178467 0.928589 0.428497
0.246185 0.927887 0.428589
0.356506 0.926117 0.428864
0.481781 0.923187 0.429352
0.605743 0.919434 0.430206
0.721497 0.915314 0.431488
0.826111 0.911438 0.433350
0.919128 0.908325 0.435852
1.000000 0.906250 0.439056
0.450012 0.985535 0.451904
0.472565 0.984924 0.452026
0.522827 0.983459 0.452362
0.595947 0.981018 0.453033
0.680969 0.977844 0.454041
0.768921 0.974274 0.455536
0.854187 0.970734 0.457550
0.934387 0.967590 0.460175
1.000000 0.964935 0.463440
0.000000 0.000000 0.515747
0.000000 0.000000 0.515869
0.127106 0.000000 0.516174
0.315613 0.000000 0.516693
0.488403 0.000000 0.517273
0.667755 0.000000 0.517761
0.834412 0.000000 0.518005
0.968506 0.000000 0.517792
1.000000 0.000000 0.516998
0.000000 0.098450 0.516663
0.000000 0.097290 0.516754
0.132690 0.094543 0.517029
0.320007 0.084808 0.517456
0.493134 0.048462 0.517914
0.671265 0.000488 0.518127
0.835449 0.000000 0.517975
0.967316 0.000336 0.517365
1.000000 0.098450 0.516235
0.000000 0.229889 0.518158
0.000000 0.230560 0.518188
0.132996 0.232178 0.518280
0.325500 0.233215 0.518372
0.500610 0.230347 0.518250
0.676208 0.222748 0.517792
0.835236 0.221527 0.516876
0.962555 0.245483 0.515564
1.000000 0.294708 0.513885
0.000000 0.396057 0.516998
0.000000 0.397400 0.516907
0.049591 0.400299 0.516724
0.313354 0.404175 0.516296
0.500641 0.407227 0.515564
0.675964 0.409760 0.514374
0.828857 0.416809 0.512756
0.950897 0.434784 0.510956
1.000000 0.464172 0.509003
0.000000 0.577423 0.510468
0.000000 0.578217 0.510345
0.000000 0.579865 0.510010
0.278534 0.581909 0.509399
0.491699 0.583649 0.508423
0.668488 0.585571 0.507080
0.815002 0.590668 0.505554
0.932404 0.601318 0.504028
1.000000 0.617767 0.502686
0.000000 0.736359 0.502136
0.000000 0.736359 0.502045
0.000000 0.736145 0.501801
0.273773 0.735382 0.501434
0.495758 0.733826 0.500854
0.665741 0.732300 0.500214
0.803284 0.732513 0.499695
0.915741 0.735535 0.499420
1.000000 0.741608 0.499573
0.000000 0.850220 0.500305
0.000000 0.849640 0.500336
0.094818 0.848236 0.500305
0.364014 0.845673 0.500305
0.539398 0.842224 0.500366
0.684052 0.838654 0.500610
0.806244 0.835907 0.501129
0.910065 0.834656 0.502075
0.999115 0.835144 0.503510
0.207367 0.927704 0.508301
0.266113 0.927002 0.508331
0.368439 0.925262 0.508514
0.488098 0.922455 0.508820
0.608429 0.918793 0.509308
0.721741 0.914825 0.510132
0.824768 0.911102 0.511322
0.916748 0.908112 0.512970
0.999420 0.906097 0.515167
0.456512 0.984802 0.524384
0.478210 0.984192 0.524506
0.527039 0.982727 0.524719
0.598175 0.980408 0.525208
0.681458 0.977295 0.525879
0.768005 0.973846 0.526917
0.852264 0.970398 0.528381
0.931885 0.967346 0.530273
1.000000 0.964783 0.532623
0.000000 0.000000 0.614349
0.000000 0.000000 0.614380
0.106476 0.000000 0.614502
0.318573 0.000000 0.614655
0.497955 0.000000 0.614777
0.676819 0.000000 0.614655
0.838928 0.000000 0.614227
0.968506 0.000000 0.613342
1.000000 0.000000 0.611969
0.000000 0.095886 0.614716
0.000000 0.094940 0.614716
0.116455 0.091217 0.614838
0.324097 0.077942 0.614899
0.503021 0.033783 0.614868
0.680176 0.000000 0.614563
0.839661 0.000000 0.613861
0.967133 0.000702 0.612701
1.000000 0.113770 0.611084
0.000000 0.231140 0.614960
0.000000 0.231750 0.614929
0.124695 0.232910 0.614899
0.332092 0.233032 0.614685
0.510956 0.229034 0.614258
0.684662 0.221832 0.613434
0.838806 0.223297 0.612183
0.962036 0.250092 0.610504
1.000000 0.300323 0.608459
0.000000 0.398529 0.612488
0.000000 0.399719 0.612396
0.064728 0.402222 0.612122
0.325104 0.405396 0.611572
0.512177 0.407990 0.610657
0.683899 0.410645 0.609344
0.831604 0.418701 0.607635
0.949890 0.437561 0.605652
1.000000 0.467560 0.603455
0.000000 0.578949 0.605347
0.000000 0.579590 0.605225
0.000000 0.580994 0.604858
0.299805 0.582611 0.604187
0.504822 0.584106 0.603210
0.675690 0.586212 0.601837
0.816864 0.591827 0.600220
0.930969 0.602905 0.598572
1.000000 0.619537 0.596954
0.000000 0.736359 0.596619
0.000000 0.736298 0.596497
0.000000 0.735931 0.596252
0.302429 0.735016 0.595825
0.509033 0.733490 0.595154
0.671600 0.732178 0.594391
0.804382 0.732758 0.593658
0.913971 0.736053 0.593048
1.000000 0.742279 0.592712
0.000000 0.849182 0.592865
0.000000 0.848633 0.592834
0.157776 0.847198 0.592743
0.385376 0.844696 0.592651
0.549377 0.841400 0.592529
0.687836 0.838104 0.592499
0.806366 0.835632 0.592590
0.907928 0.834595 0.592987
0.995758 0.835236 0.593689
0.248474 0.926422 0.596619
0.296997 0.925720 0.596649
0.387970 0.924072 0.596710
0.499268 0.921356 0.596832
0.613892 0.917908 0.597076
0.723419 0.914124 0.597534
0.823883 0.910614 0.598236
0.914185 0.907806 0.599213
0.996094 0.905914 0.600586
0.467865 0.983673 0.606781
0.488403 0.983093 0.606812
0.534760 0.981720 0.606934
0.603058 0.979462 0.607208
0.683563 0.976501 0.607666
0.767853 0.973206 0.608337
0.850494 0.969940 0.609222
0.929047 0.967010 0.610443
1.000000 0.964508 0.612000
0.000000 0.000000 0.708832
0.000000 0.000000 0.708832
0.129456 0.000000 0.708862
0.338348 0.000000 0.708832
0.518372 0.000000 0.708618
0.692627 0.000000 0.708221
0.846924 0.000000 0.707489
0.970184 0.000000 0.706299
1.000000 0.000000 0.704590
0.000000 0.092834 0.708893
0.000000 0.091156 0.708893
0.141815 0.085083 0.708862
0.344910 0.065674 0.708771
0.523499 0.014465 0.708496
0.695587 0.000000 0.707916
0.847229 0.000000 0.706940
0.968567 0.004486 0.705536
1.000000 0.132935 0.703613
0.000000 0.232635 0.708496
0.000000 0.233032 0.708435
0.156281 0.233521 0.708282
0.355072 0.232361 0.707977
0.531464 0.227386 0.707367
0.699188 0.221191 0.706360
0.845490 0.226685 0.704956
0.962982 0.256927 0.703156
1.000000 0.308136 0.700989
0.000000 0.401581 0.705353
0.000000 0.402496 0.705261
0.125244 0.404510 0.704926
0.353363 0.406891 0.704346
0.533234 0.408875 0.703369
0.697296 0.412048 0.701965
0.837128 0.421600 0.700256
0.950195 0.441711 0.698212
1.000000 0.472229 0.695923
0.000000 0.580688 0.698059
0.000000 0.581177 0.697906
0.037384 0.582245 0.697510
0.337463 0.583496 0.696838
0.526764 0.584778 0.695770
0.687653 0.587311 0.694427
0.821259 0.593597 0.692810
0.930725 0.605255 0.691071
1.000000 0.622070 0.689301
0.000000 0.736206 0.689087
0.000000 0.736053 0.688934
0.051422 0.735565 0.688690
0.345032 0.734558 0.688171
0.530151 0.733124 0.687500
0.681580 0.732178 0.686646
0.807739 0.733185 0.685760
0.913330 0.736847 0.684875
0.999847 0.743317 0.684143
0.000000 0.847809 0.683838
0.031281 0.847229 0.683777
0.240662 0.845825 0.683655
0.416718 0.843445 0.683441
0.565247 0.840393 0.683197
0.695129 0.837433 0.682953
0.808441 0.835327 0.682739
0.906799 0.834564 0.682678
0.992767 0.835419 0.682861
0.299835 0.924713 0.684357
0.338684 0.924072 0.684357
0.416382 0.922516 0.684357
0.516693 0.919983 0.684357
0.623566 0.916748 0.684418
0.727692 0.913239 0.684570
0.824524 0.910004 0.684875
0.912506 0.907440 0.685364
0.993103 0.905670 0.686066
0.485626 0.982239 0.689911
0.504547 0.981720 0.689941
0.547607 0.980408 0.690002
0.611816 0.978271 0.690125
0.688446 0.975494 0.690369
0.769531 0.972412 0.690704
0.849792 0.969330 0.691254
0.926910 0.966553 0.691925
1.000000 0.964172 0.692871
0.000000 0.000000 0.795868
0.000031 0.000000 0.795868
0.200897 0.000000 0.795776
0.380920 0.000000 0.795593
0.552216 0.000000 0.795258
0.716217 0.000000 0.794647
0.859070 0.000000 0.793671
0.974365 0.000000 0.792236
1.000000 0.000000 0.790314
0.000000 0.086273 0.795746
0.001526 0.083466 0.795715
0.211700 0.073181 0.795593
0.387878 0.044159 0.795380
0.556976 0.001862 0.794922
0.718536 0.000000 0.794128
0.858856 0.000000 0.792969
0.972443 0.013855 0.791382
1.000000 0.155121 0.789337
0.000000 0.233917 0.794861
0.010773 0.233917 0.794769
0.227417 0.233490 0.794556
0.398804 0.230896 0.794128
0.564117 0.225464 0.793396
0.720795 0.221588 0.792297
0.856018 0.232391 0.790771
0.966278 0.266205 0.788879
1.000000 0.318359 0.786591
0.000000 0.404785 0.791229
0.000763 0.405457 0.791107
0.221558 0.406830 0.790771
0.400696 0.408508 0.790131
0.565460 0.410278 0.789124
0.717102 0.414429 0.787720
0.846252 0.425781 0.785950
0.952759 0.447296 0.783875
1.000000 0.478333 0.781586
0.000000 0.582489 0.783813
0.000000 0.582825 0.783630
0.188263 0.583557 0.783264
0.391479 0.584503 0.782562
0.558655 0.585815 0.781525
0.705353 0.588928 0.780182
0.829102 0.596100 0.778564
0.932678 0.608337 0.776794
1.000000 0.625427 0.774963
0.000000 0.735809 0.774780
0.000214 0.735626 0.774658
0.201050 0.735046 0.774384
0.399933 0.733978 0.773865
0.559509 0.732758 0.773163
0.696716 0.732391 0.772278
0.814331 0.733917 0.771301
0.914795 0.737946 0.770294
0.999512 0.744659 0.769318
0.077026 0.846039 0.768707
0.181396 0.845490 0.768646
0.319916 0.844147 0.768524
0.457275 0.841919 0.768250
0.587585 0.839264 0.767944
0.706818 0.836731 0.767548
0.813385 0.835022 0.767181
0.907532 0.834625 0.766907
0.991089 0.835663 0.766663
0.357910 0.922699 0.767273
0.388367 0.922089 0.767242
0.452881 0.920654 0.767181
0.540894 0.918365 0.767151
0.638306 0.915405 0.767090
0.735565 0.912231 0.767059
0.827515 0.909302 0.767120
0.912415 0.907013 0.767303
0.991302 0.905426 0.767578
0.510010 0.980530 0.769867
0.527008 0.980042 0.769867
0.566071 0.978821 0.769897
0.625183 0.976868 0.769928
0.696930 0.974304 0.770020
0.773865 0.971436 0.770203
0.850983 0.968597 0.770477
0.926056 0.966034 0.770813
0.999359 0.963776 0.771332
0.046387 0.000000 0.875336
0.160095 0.000000 0.875275
0.295898 0.000000 0.875153
0.444092 0.000000 0.874908
0.598236 0.000000 0.874420
0.746613 0.000000 0.873688
0.875183 0.000000 0.872589
0.980591 0.000000 0.871033
1.000000 0.044312 0.868988
0.078461 0.072174 0.875061
0.175262 0.067078 0.875000
0.305054 0.050171 0.874817
0.450439 0.013550 0.874512
0.602203 0.000000 0.873962
0.747986 0.000000 0.873077
0.874390 0.000000 0.871826
0.978638 0.051544 0.870178
1.000000 0.180145 0.868011
0.117157 0.234039 0.873840
0.197388 0.233582 0.873749
0.319366 0.232208 0.873474
0.460266 0.228699 0.872986
0.607605 0.223999 0.872192
0.748413 0.224213 0.871033
0.870361 0.240997 0.869537
0.972076 0.278381 0.867615
1.000000 0.331146 0.865295
0.107880 0.407715 0.869965
0.195435 0.408173 0.869812
0.321625 0.409027 0.869446
0.462891 0.410248 0.868805
0.607117 0.412384 0.867798
0.742218 0.418121 0.866425
0.859070 0.431610 0.864716
0.957703 0.454529 0.862701
1.000000 0.486023 0.860413
0.031891 0.584167 0.862610
0.166077 0.584381 0.862488
0.309875 0.584900 0.862091
0.456146 0.585724 0.861420
0.598450 0.587341 0.860413
0.727844 0.591370 0.859131
0.840485 0.599457 0.857574
0.936951 0.612335 0.855865
1.000000 0.629608 0.854034
0.079193 0.735199 0.853882
0.187988 0.734955 0.853760
0.322449 0.734375 0.853485
0.461639 0.733429 0.852997
0.595062 0.732635 0.852295
0.716522 0.732880 0.851440
0.824341 0.734985 0.850433
0.918518 0.739502 0.849396
0.999573 0.746368 0.848358
0.265289 0.843994 0.847534
0.309998 0.843475 0.847473
0.396179 0.842255 0.847321
0.503571 0.840363 0.847046
0.615417 0.838104 0.846710
0.722748 0.836060 0.846283
0.821472 0.834808 0.845825
0.910431 0.834778 0.845367
0.991058 0.836060 0.845001
0.418030 0.920410 0.845001
0.441925 0.919891 0.844971
0.494873 0.918640 0.844910
0.570526 0.916565 0.844818
0.657593 0.913940 0.844696
0.746918 0.911133 0.844604
0.833191 0.908569 0.844513
0.914307 0.906586 0.844482
0.991089 0.905151 0.844513
0.539764 0.978607 0.845795
0.554749 0.978149 0.845764
0.589478 0.977081 0.845764
0.642975 0.975281 0.845764
0.708984 0.972961 0.845795
0.781006 0.970367 0.845825
0.854401 0.967804 0.845947
0.926971 0.965454 0.846130
0.998993 0.963348 0.846344
0.266327 0.000000 0.948944
0.310547 0.000000 0.948853
0.399994 0.000000 0.948700
0.519806 0.000000 0.948364
0.652283 0.000000 0.947845
0.780945 0.000000 0.947052
0.894135 0.000000 0.945892
0.988983 0.000000 0.944305
1.000000 0.108276 0.942261
0.277161 0.044861 0.948547
0.319824 0.036469 0.948486
0.407166 0.014526 0.948273
0.524750 0.000977 0.947937
0.654938 0.000000 0.947296
0.781342 0.000000 0.946381
0.892731 0.002106 0.945099
0.986694 0.095367 0.943390
1.000000 0.207733 0.941315
0.293732 0.232422 0.947113
0.334137 0.231781 0.947021
0.418182 0.229858 0.946716
0.531921 0.226593 0.946198
0.657806 0.224365 0.945404
0.779602 0.230560 0.944275
0.887482 0.253357 0.942749
0.979980 0.293640 0.940887
1.000000 0.346313 0.938660
0.297455 0.410339 0.943146
0.337982 0.410645 0.942993
0.421265 0.411285 0.942657
0.532715 0.412598 0.942017
0.654327 0.415741 0.941040
0.770660 0.423706 0.939728
0.874603 0.439301 0.938110
0.964783 0.463501 0.936218
1.000000 0.495300 0.934021
0.286346 0.585754 0.936035
0.328827 0.585968 0.935883
0.414001 0.586395 0.935547
0.524750 0.587402 0.934937
0.642090 0.589752 0.933960
0.753693 0.594849 0.932800
0.854614 0.603882 0.931335
0.943390 0.617310 0.929718
1.000000 0.634613 0.927979
0.301056 0.734436 0.927795
0.340729 0.734222 0.927673
0.420746 0.733704 0.927399
0.524200 0.733093 0.926941
0.633820 0.732910 0.926300
0.739685 0.733795 0.925507
0.837097 0.736481 0.924561
0.924438 0.741425 0.923553
1.000000 0.748505 0.922516
0.377411 0.841797 0.921600
0.406006 0.841370 0.921539
0.467224 0.840363 0.921387
0.552002 0.838806 0.921143
0.646759 0.837036 0.920776
0.741913 0.835510 0.920349
0.832153 0.834747 0.919891
0.915497 0.835083 0.919403
0.992798 0.836578 0.918976
0.477509 0.918030 0.918640
0.496460 0.917572 0.918610
0.539642 0.916443 0.918518
0.603790 0.914673 0.918427
0.680359 0.912415 0.918274
0.761230 0.910004 0.918121
0.841248 0.907837 0.917969
0.918243 0.906097 0.917877
0.992584 0.904877 0.917786
0.572937 0.976532 0.918457
0.585846 0.976135 0.918427
0.616333 0.975128 0.918427
0.663940 0.973572 0.918396
0.723907 0.971527 0.918365
0.790619 0.969208 0.918365
0.859894 0.966919 0.918365
0.929718 0.964813 0.918427
1.000000 0.962799 0.918488
