滤镜资源/Professional Luts Collection/Lutify.me Professional/Alternative Process/Ametrine.cube
# Created by: Lutify.me
# Copyright: (c) Copyright Lutify.me 2015
# Website: https://lutify.me
#LUT size
LUT_3D_SIZE 9
#LUT data points
0.231384 0.122833 0.262146
0.240875 0.122833 0.262146
0.364990 0.139709 0.250610
0.463013 0.170807 0.250092
0.552795 0.198364 0.258087
0.635712 0.223480 0.269012
0.720367 0.240112 0.277679
0.801453 0.256012 0.285950
0.856079 0.266724 0.291626
0.231384 0.184113 0.262146
0.240875 0.184113 0.262146
0.359863 0.206116 0.254700
0.457977 0.237091 0.264435
0.555450 0.256989 0.274597
0.645752 0.274719 0.283875
0.730408 0.291412 0.292633
0.811493 0.313660 0.307251
0.866150 0.329468 0.317993
0.231384 0.277893 0.262146
0.240875 0.277893 0.262146
0.362213 0.301727 0.281769
0.470154 0.333038 0.302979
0.568268 0.361542 0.322235
0.658569 0.387726 0.339966
0.743225 0.412262 0.356567
0.824310 0.435822 0.372467
0.878937 0.451630 0.383179
0.231384 0.385284 0.262146
0.240875 0.385284 0.262146
0.366119 0.351715 0.282562
0.470154 0.379486 0.302979
0.568268 0.420349 0.322235
0.658569 0.457458 0.339966
0.743225 0.484436 0.356567
0.824310 0.507965 0.372467
0.878937 0.523773 0.383179
0.231384 0.503082 0.262146
0.240875 0.503082 0.262146
0.401978 0.483185 0.282043
0.470154 0.431396 0.302979
0.568268 0.449768 0.322235
0.658569 0.487396 0.339966
0.743225 0.522614 0.356567
0.824310 0.556305 0.372467
0.878937 0.579071 0.383179
0.231384 0.625854 0.262146
0.240875 0.625854 0.262146
0.396515 0.615997 0.272003
0.537109 0.573639 0.314362
0.568329 0.517456 0.322235
0.658569 0.520569 0.339966
0.743225 0.553223 0.356567
0.824310 0.587036 0.372467
0.878937 0.609741 0.383179
0.231384 0.750397 0.262177
0.240875 0.750397 0.262146
0.383362 0.749451 0.263092
0.552643 0.708405 0.304108
0.654022 0.670746 0.341766
0.670258 0.614075 0.342224
0.743225 0.607300 0.356567
0.824310 0.618103 0.372467
0.878937 0.640869 0.383179
0.231384 0.875214 0.262115
0.240875 0.875214 0.262085
0.381775 0.875214 0.262146
0.552002 0.843018 0.294312
0.681091 0.805023 0.332336
0.763672 0.774628 0.362732
0.774628 0.717499 0.362732
0.824310 0.694000 0.372467
0.878937 0.695923 0.383179
0.231384 1.000000 0.262146
0.240875 1.000000 0.262207
0.381744 1.000000 0.262146
0.543213 0.978546 0.283569
0.690369 0.938751 0.323395
0.795380 0.903809 0.358337
0.868927 0.878937 0.383179
0.878937 0.823700 0.383179
0.878937 0.779816 0.383179
0.231384 0.122833 0.342560
0.240875 0.122833 0.342560
0.381836 0.122833 0.342560
0.489624 0.144165 0.326172
0.578461 0.172699 0.320709
0.660706 0.198486 0.323456
0.737640 0.222839 0.329803
0.811951 0.245514 0.337463
0.860809 0.262024 0.344452
0.231354 0.184113 0.342560
0.240875 0.184113 0.342560
0.381836 0.184113 0.342529
0.484314 0.210785 0.327484
0.573456 0.239014 0.328796
0.655457 0.265015 0.336304
0.731720 0.290039 0.346405
0.811493 0.307251 0.354828
0.866150 0.317993 0.360443
0.231384 0.277893 0.342560
0.240875 0.277893 0.342560
0.377960 0.281769 0.339203
0.475983 0.312897 0.340820
0.570831 0.335388 0.351379
0.661133 0.353119 0.360596
0.745819 0.370972 0.370514
0.826874 0.393677 0.385651
0.881531 0.409607 0.396362
0.231384 0.385284 0.342560
0.240875 0.385284 0.342560
0.379242 0.375641 0.349762
0.483368 0.411133 0.370178
0.581451 0.440552 0.389435
0.671753 0.466736 0.407166
0.756439 0.491302 0.423798
0.837524 0.514801 0.439697
0.892120 0.530640 0.450409
0.231384 0.503082 0.342529
0.240875 0.503082 0.342560
0.382874 0.502472 0.343170
0.483368 0.455414 0.370178
0.581451 0.482056 0.389435
0.671753 0.519684 0.407166
0.756439 0.554962 0.423798
0.837524 0.588684 0.439697
0.892120 0.609192 0.450409
0.231384 0.625854 0.342560
0.240875 0.625854 0.342590
0.381836 0.625854 0.342560
0.535217 0.593536 0.374847
0.581512 0.541443 0.389465
0.671753 0.550354 0.407166
0.756439 0.585602 0.423798
0.837524 0.619354 0.439697
0.892120 0.642151 0.450409
0.231384 0.750397 0.342529
0.240875 0.750397 0.342529
0.381866 0.750397 0.342560
0.538971 0.728088 0.364868
0.656158 0.689941 0.402985
0.683472 0.638092 0.409454
0.756439 0.631287 0.423798
0.837524 0.650421 0.439697
0.892120 0.673126 0.450409
0.231384 0.875214 0.342529
0.240875 0.875214 0.342529
0.381866 0.875214 0.342560
0.529724 0.862732 0.355042
0.674591 0.824371 0.393402
0.766388 0.789764 0.427979
0.787811 0.741486 0.429962
0.837524 0.718048 0.439697
0.892120 0.719971 0.450409
0.231384 1.000000 0.342529
0.240875 1.000000 0.342529
0.381805 1.000000 0.342560
0.515228 0.997437 0.345123
0.677094 0.959381 0.383179
0.792480 0.923920 0.418640
0.871368 0.892120 0.450409
0.892120 0.847687 0.450409
0.892120 0.803802 0.450409
0.231415 0.122833 0.418976
0.240845 0.122833 0.418976
0.381866 0.122833 0.418976
0.510986 0.122833 0.418976
0.603394 0.147766 0.398865
0.685730 0.173462 0.390656
0.762604 0.197876 0.389679
0.835541 0.221924 0.392853
0.886078 0.236755 0.395874
0.231384 0.184113 0.418976
0.240845 0.184113 0.418976
0.381836 0.184113 0.418976
0.509064 0.186035 0.416870
0.598633 0.213837 0.398834
0.679993 0.240479 0.395691
0.757233 0.264526 0.398407
0.831116 0.287628 0.404205
0.880066 0.304016 0.409729
0.231384 0.277863 0.418976
0.240875 0.277863 0.418976
0.381836 0.277893 0.418976
0.500946 0.287933 0.410522
0.590179 0.316071 0.405182
0.671875 0.342377 0.410950
0.748810 0.366730 0.420013
0.826874 0.385651 0.428925
0.881531 0.396362 0.434540
0.231384 0.385284 0.418976
0.240875 0.385284 0.418976
0.381836 0.385284 0.418976
0.491699 0.404572 0.418579
0.588470 0.425171 0.428741
0.678741 0.448059 0.443176
0.763428 0.472290 0.459473
0.844513 0.495850 0.475403
0.899139 0.511658 0.486115
0.231384 0.503082 0.419006
0.240875 0.503082 0.419006
0.381836 0.503082 0.418976
0.495880 0.478210 0.434052
0.593994 0.512848 0.453308
0.684296 0.550049 0.471039
0.768951 0.576996 0.487640
0.850037 0.600494 0.503571
0.904663 0.616364 0.514282
0.231384 0.625854 0.418976
0.240875 0.625854 0.418976
0.381836 0.625854 0.418976
0.526642 0.612457 0.432343
0.594025 0.564209 0.453339
0.684296 0.581055 0.471039
0.768951 0.616241 0.487640
0.850037 0.650085 0.503571
0.904663 0.672821 0.514282
0.231384 0.750397 0.419006
0.240875 0.750397 0.418976
0.381836 0.750397 0.419006
0.516510 0.746979 0.422363
0.655304 0.708313 0.461029
0.696014 0.660889 0.473328
0.768951 0.654083 0.487640
0.850037 0.681152 0.503571
0.904663 0.703949 0.514282
0.231384 0.875214 0.418945
0.240875 0.875214 0.419006
0.381836 0.875214 0.418976
0.510986 0.875214 0.418976
0.664276 0.843445 0.450714
0.767731 0.807831 0.486359
0.800354 0.764282 0.493805
0.850037 0.740845 0.503571
0.904663 0.742798 0.514282
0.231384 1.000000 0.418945
0.240875 1.000000 0.418945
0.381836 1.000000 0.419006
0.510956 1.000000 0.418976
0.658875 0.978424 0.440521
0.786987 0.942841 0.476135
0.873627 0.909485 0.509460
0.904663 0.870514 0.514282
0.904663 0.826630 0.514282
0.231354 0.122833 0.491119
0.240845 0.122833 0.491119
0.381866 0.122833 0.491119
0.510986 0.122833 0.491089
0.627472 0.123718 0.489868
0.709381 0.149811 0.468170
0.786530 0.173981 0.458221
0.859528 0.197937 0.454651
0.908539 0.214264 0.454773
0.231384 0.184113 0.491119
0.240845 0.184113 0.491119
0.381866 0.184113 0.491119
0.510986 0.184113 0.491119
0.621948 0.190521 0.484314
0.703857 0.216614 0.467163
0.781006 0.240753 0.461182
0.854553 0.264191 0.460876
0.903595 0.280518 0.462860
0.231384 0.277924 0.491119
0.240875 0.277893 0.491119
0.381866 0.277893 0.491119
0.510986 0.277893 0.491119
0.613953 0.292267 0.478516
0.695709 0.318512 0.470245
0.773010 0.342529 0.471008
0.846619 0.365936 0.476013
0.895447 0.382446 0.481415
0.231384 0.385284 0.491119
0.240875 0.385284 0.491119
0.381836 0.385284 0.491119
0.510986 0.385284 0.491119
0.604431 0.409180 0.480591
0.686462 0.435150 0.485504
0.763763 0.459167 0.494995
0.844513 0.475403 0.503418
0.899139 0.486115 0.509064
0.231384 0.503082 0.491119
0.240875 0.503082 0.491119
0.381836 0.503082 0.491119
0.507690 0.500763 0.494354
0.605804 0.532410 0.513611
0.696136 0.558594 0.531342
0.780792 0.583191 0.547943
0.861847 0.606659 0.563843
0.916504 0.622528 0.574585
0.231384 0.625854 0.491119
0.240875 0.625854 0.491119
0.381836 0.625854 0.491089
0.510986 0.625854 0.491119
0.605865 0.585754 0.513611
0.696136 0.610107 0.531342
0.780792 0.645355 0.547943
0.861847 0.679108 0.563843
0.916504 0.701752 0.574585
0.231384 0.750397 0.491119
0.240875 0.750397 0.491150
0.381836 0.750397 0.491119
0.510986 0.750397 0.491119
0.650818 0.726410 0.515076
0.707825 0.682434 0.533630
0.780792 0.676636 0.547943
0.861847 0.710144 0.563843
0.916504 0.732941 0.574585
0.231384 0.875214 0.491119
0.240875 0.875214 0.491058
0.381836 0.875214 0.491119
0.510986 0.875214 0.491119
0.648102 0.861145 0.505157
0.767303 0.825684 0.540588
0.812195 0.785797 0.554108
0.861847 0.762360 0.563843
0.916504 0.764832 0.574585
0.231384 1.000000 0.491089
0.240875 1.000000 0.491058
0.381836 1.000000 0.491150
0.510956 1.000000 0.491119
0.634766 0.996277 0.494843
0.778320 0.960632 0.530487
0.874329 0.927063 0.564026
0.916504 0.892029 0.574585
0.916504 0.848145 0.574585
0.231384 0.122833 0.559357
0.240875 0.122833 0.559357
0.381836 0.122833 0.559357
0.511017 0.122833 0.559357
0.628357 0.122833 0.559326
0.731415 0.127777 0.554047
0.809021 0.151459 0.533966
0.882904 0.174561 0.522949
0.931458 0.191345 0.518768
0.231384 0.184113 0.559357
0.240906 0.184113 0.559357
0.381866 0.184113 0.559357
0.510986 0.184113 0.559357
0.628357 0.184113 0.559326
0.726105 0.194366 0.548828
0.802856 0.218903 0.532318
0.876740 0.242004 0.524536
0.926880 0.257233 0.522308
0.231384 0.277924 0.559357
0.240875 0.277893 0.559357
0.381836 0.277893 0.559357
0.511017 0.277893 0.559357
0.628357 0.277893 0.559357
0.718323 0.295929 0.543335
0.795563 0.319977 0.533417
0.868408 0.344116 0.531403
0.918549 0.359344 0.532288
0.231384 0.385284 0.559357
0.240875 0.385254 0.559357
0.381836 0.385254 0.559357
0.510986 0.385284 0.559357
0.626801 0.386810 0.557678
0.708923 0.412689 0.543121
0.785645 0.437286 0.542908
0.859131 0.460785 0.548157
0.909485 0.475739 0.552887
0.231384 0.503082 0.559357
0.240875 0.503082 0.559357
0.381836 0.503082 0.559357
0.510986 0.503082 0.559357
0.616608 0.514801 0.553833
0.698822 0.540588 0.560699
0.782776 0.557953 0.569550
0.863831 0.573883 0.577850
0.918457 0.586060 0.584900
0.231384 0.625854 0.559357
0.240875 0.625854 0.559326
0.381836 0.625854 0.559357
0.510986 0.625854 0.559357
0.617096 0.606110 0.570679
0.707306 0.637573 0.588379
0.791992 0.671143 0.605011
0.873077 0.695007 0.620911
0.927673 0.710846 0.631622
0.231384 0.750397 0.559387
0.240875 0.750397 0.559357
0.381836 0.750397 0.559357
0.510986 0.750397 0.559357
0.638428 0.743225 0.566498
0.719025 0.702789 0.590698
0.791992 0.703918 0.605011
0.873077 0.737640 0.620911
0.927673 0.760406 0.631622
0.231384 0.875214 0.559357
0.240875 0.875214 0.559326
0.381836 0.875214 0.559387
0.510986 0.875214 0.559357
0.628357 0.875214 0.559357
0.763824 0.842499 0.592010
0.823395 0.806183 0.611176
0.873077 0.782715 0.620911
0.927673 0.791504 0.631622
0.231384 1.000000 0.559296
0.240875 1.000000 0.559296
0.381836 1.000000 0.559387
0.510986 1.000000 0.559357
0.628326 1.000000 0.559357
0.765320 0.977722 0.581604
0.873596 0.944275 0.615051
0.927673 0.912445 0.631622
0.927673 0.868500 0.631622
0.231354 0.122833 0.624176
0.240845 0.122833 0.624176
0.381805 0.122833 0.624176
0.510986 0.122833 0.624176
0.628357 0.122833 0.624207
0.736359 0.122833 0.624176
0.829620 0.130859 0.615509
0.903717 0.153748 0.596466
0.953308 0.169525 0.587738
0.231384 0.184113 0.624176
0.240875 0.184113 0.624176
0.381836 0.184113 0.624176
0.510986 0.184113 0.624176
0.628357 0.184113 0.624207
0.736359 0.184113 0.624207
0.824097 0.197662 0.610596
0.897827 0.220947 0.594482
0.948212 0.235901 0.587738
0.231384 0.277924 0.624176
0.240875 0.277893 0.624176
0.381866 0.277893 0.624176
0.510956 0.277893 0.624176
0.628357 0.277893 0.624207
0.736359 0.277893 0.624146
0.816620 0.298920 0.605164
0.890717 0.321808 0.594269
0.939331 0.338531 0.590912
0.231384 0.385254 0.624176
0.240875 0.385284 0.624176
0.381836 0.385284 0.624176
0.510986 0.385284 0.624176
0.628357 0.385284 0.624176
0.730286 0.391357 0.617737
0.807404 0.415527 0.603638
0.880981 0.438904 0.600250
0.930206 0.455048 0.601318
0.231384 0.503082 0.624176
0.240875 0.503052 0.624176
0.381836 0.503082 0.624176
0.510986 0.503082 0.624176
0.628357 0.503082 0.624176
0.719910 0.519501 0.613495
0.796814 0.543884 0.613525
0.870605 0.567108 0.620178
0.920319 0.582764 0.626465
0.231384 0.625824 0.624176
0.240875 0.625854 0.624207
0.381836 0.625854 0.624176
0.510986 0.625854 0.624176
0.627686 0.625549 0.624756
0.717834 0.651917 0.641937
0.802490 0.676483 0.658569
0.883575 0.700012 0.674469
0.938202 0.715851 0.685211
0.231384 0.750397 0.624176
0.240875 0.750397 0.624237
0.381836 0.750397 0.624176
0.510986 0.750397 0.624207
0.628357 0.750397 0.624176
0.729675 0.722137 0.644897
0.802643 0.729980 0.659210
0.883728 0.763733 0.675110
0.938324 0.786469 0.685822
0.231384 0.875214 0.624237
0.240875 0.875214 0.624207
0.381836 0.875214 0.624176
0.510986 0.875214 0.624176
0.628357 0.875214 0.624176
0.755585 0.858734 0.640656
0.834015 0.825531 0.665375
0.883728 0.802063 0.675110
0.938324 0.817657 0.685822
0.231384 1.000000 0.624146
0.240875 1.000000 0.624176
0.381836 1.000000 0.624207
0.510986 1.000000 0.624207
0.628326 1.000000 0.624176
0.746429 0.993774 0.630402
0.870392 0.960449 0.663727
0.938324 0.931763 0.685822
0.938324 0.887848 0.685822
0.231354 0.122833 0.686066
0.240814 0.122833 0.686066
0.381866 0.122833 0.686066
0.510956 0.122833 0.686066
0.628357 0.122833 0.686066
0.736359 0.122833 0.686066
0.837646 0.122833 0.685974
0.923950 0.133545 0.674347
0.973450 0.149384 0.660675
0.231384 0.184113 0.686066
0.240875 0.184113 0.686066
0.381805 0.184113 0.686066
0.510986 0.184113 0.686066
0.628326 0.184113 0.686066
0.736359 0.184113 0.686035
0.837646 0.184113 0.686066
0.918701 0.200043 0.669739
0.968506 0.215576 0.657867
0.231384 0.277863 0.686066
0.240875 0.277893 0.686066
0.381836 0.277893 0.686066
0.510986 0.277893 0.686066
0.628357 0.277893 0.686066
0.736359 0.277893 0.686096
0.836823 0.278717 0.685028
0.909943 0.302582 0.664032
0.959778 0.318085 0.655457
0.231384 0.385284 0.686066
0.240875 0.385284 0.686066
0.381836 0.385284 0.686066
0.510986 0.385284 0.686066
0.628357 0.385284 0.686066
0.736359 0.385284 0.686066
0.827393 0.395538 0.675690
0.901398 0.418518 0.661835
0.950165 0.435089 0.657623
0.231384 0.503082 0.686066
0.240875 0.503113 0.686066
0.381836 0.503082 0.686066
0.510956 0.503082 0.686066
0.628357 0.503082 0.686066
0.736359 0.503082 0.686066
0.817078 0.523651 0.671295
0.890808 0.546906 0.667816
0.940552 0.562500 0.669434
0.231384 0.625824 0.686066
0.240875 0.625824 0.686066
0.381836 0.625854 0.686066
0.510986 0.625854 0.686066
0.628357 0.625854 0.686066
0.729401 0.632782 0.681335
0.806335 0.657135 0.683960
0.883972 0.676514 0.692719
0.938599 0.687225 0.698364
0.231384 0.750397 0.686096
0.240875 0.750397 0.686066
0.381836 0.750397 0.686066
0.510986 0.750397 0.686066
0.628357 0.750397 0.686066
0.738159 0.738922 0.696625
0.812775 0.754852 0.710907
0.893860 0.788605 0.726837
0.948486 0.805389 0.737549
0.231384 0.875214 0.686005
0.240875 0.875214 0.686096
0.381836 0.875214 0.686066
0.510986 0.875214 0.686066
0.628357 0.875214 0.686066
0.738312 0.873962 0.687286
0.843506 0.843323 0.717072
0.893860 0.820587 0.726837
0.948486 0.842560 0.737549
0.231384 1.000000 0.686096
0.240875 1.000000 0.686096
0.381836 1.000000 0.686035
0.510986 1.000000 0.686035
0.628357 1.000000 0.686066
0.736359 1.000000 0.686066
0.863525 0.975464 0.710571
0.946198 0.947906 0.737549
0.948486 0.906311 0.737549
0.231354 0.122833 0.745453
0.240906 0.122833 0.745453
0.381866 0.122833 0.745453
0.511017 0.122833 0.745453
0.628387 0.122833 0.745453
0.736420 0.122833 0.745422
0.837646 0.122833 0.745453
0.934662 0.122833 0.745514
0.991852 0.130951 0.737152
0.231354 0.184113 0.745453
0.240906 0.184113 0.745453
0.381836 0.184113 0.745453
0.510986 0.184113 0.745453
0.628326 0.184113 0.745453
0.736389 0.184113 0.745453
0.837646 0.184113 0.745453
0.934662 0.184113 0.745483
0.987640 0.196472 0.732178
0.231384 0.277924 0.745453
0.240875 0.277893 0.745453
0.381836 0.277893 0.745453
0.510986 0.277893 0.745453
0.628326 0.277893 0.745453
0.736359 0.277893 0.745453
0.837646 0.277893 0.745453
0.929840 0.282715 0.740051
0.979553 0.298340 0.725616
0.231384 0.385315 0.745453
0.240875 0.385284 0.745453
0.381836 0.385315 0.745453
0.510986 0.385284 0.745453
0.628357 0.385284 0.745453
0.736359 0.385284 0.745453
0.837646 0.385284 0.745453
0.920441 0.399475 0.731506
0.970001 0.415283 0.721069
0.231384 0.503082 0.745453
0.240875 0.503052 0.745453
0.381836 0.503082 0.745453
0.510986 0.503082 0.745453
0.628357 0.503082 0.745453
0.736359 0.503082 0.745453
0.836517 0.504211 0.744171
0.910217 0.527496 0.726990
0.959473 0.543579 0.722443
0.231384 0.625885 0.745453
0.240875 0.625824 0.745453
0.381836 0.625854 0.745453
0.510986 0.625854 0.745453
0.628357 0.625854 0.745453
0.736359 0.625854 0.745453
0.825775 0.637726 0.736542
0.899689 0.660797 0.733978
0.949249 0.676605 0.737457
0.231384 0.750397 0.745453
0.240875 0.750397 0.745453
0.381836 0.750397 0.745422
0.510986 0.750397 0.745453
0.628357 0.750397 0.745453
0.736359 0.750397 0.745453
0.822540 0.771118 0.760590
0.903595 0.794647 0.776489
0.958221 0.810486 0.787201
0.231384 0.875214 0.745483
0.240875 0.875214 0.745483
0.381836 0.875214 0.745483
0.510986 0.875214 0.745453
0.628357 0.875214 0.745453
0.736359 0.875214 0.745453
0.846008 0.855713 0.764923
0.903595 0.843689 0.776489
0.958221 0.866394 0.787201
0.231384 1.000000 0.745514
0.240875 1.000000 0.745453
0.381836 1.000000 0.745392
0.510986 1.000000 0.745422
0.628357 1.000000 0.745453
0.736359 1.000000 0.745453
0.851196 0.990234 0.755188
0.948456 0.958679 0.786774
0.958221 0.924011 0.787201
0.231384 0.122833 0.802734
0.240845 0.122833 0.802734
0.381805 0.122833 0.802734
0.511047 0.122833 0.802734
0.628357 0.122833 0.802734
0.736328 0.122833 0.802734
0.837646 0.122833 0.802704
0.934662 0.122833 0.802765
1.000000 0.122833 0.802765
0.231445 0.184113 0.802734
0.240814 0.184113 0.802734
0.381866 0.184113 0.802734
0.510986 0.184113 0.802734
0.628326 0.184113 0.802734
0.736359 0.184113 0.802734
0.837646 0.184113 0.802704
0.934662 0.184113 0.802795
1.000000 0.184113 0.802734
0.231384 0.277863 0.802734
0.240875 0.277893 0.802734
0.381805 0.277893 0.802734
0.510986 0.277893 0.802734
0.628387 0.277893 0.802734
0.736359 0.277893 0.802734
0.837646 0.277893 0.802734
0.934662 0.277893 0.802765
0.998596 0.279297 0.800873
0.231384 0.385315 0.802734
0.240875 0.385284 0.802734
0.381836 0.385254 0.802734
0.510986 0.385284 0.802734
0.628387 0.385284 0.802734
0.736359 0.385284 0.802734
0.837646 0.385284 0.802765
0.934662 0.385284 0.802704
0.988434 0.396820 0.790924
0.231384 0.503113 0.802734
0.240875 0.503082 0.802734
0.381836 0.503052 0.802734
0.510986 0.503082 0.802734
0.628357 0.503082 0.802734
0.736389 0.503082 0.802734
0.837646 0.503082 0.802734
0.929169 0.508545 0.796722
0.978668 0.524414 0.784363
0.231384 0.625854 0.802734
0.240875 0.625824 0.802734
0.381836 0.625854 0.802734
0.510986 0.625854 0.802734
0.628357 0.625854 0.802734
0.736359 0.625854 0.802734
0.837646 0.625854 0.802734
0.917999 0.642487 0.789886
0.967499 0.658356 0.785614
0.231384 0.750336 0.802734
0.240875 0.750397 0.802734
0.381836 0.750366 0.802734
0.510986 0.750366 0.802734
0.628357 0.750366 0.802734
0.736359 0.750397 0.802734
0.833801 0.754211 0.799805
0.907440 0.777557 0.800964
0.959045 0.791321 0.806946
0.231384 0.875214 0.802704
0.240875 0.875214 0.802673
0.381836 0.875214 0.802704
0.510986 0.875214 0.802765
0.628357 0.875214 0.802704
0.736359 0.875214 0.802734
0.843414 0.869629 0.808289
0.912994 0.866730 0.824371
0.967621 0.889465 0.835083
0.231384 1.000000 0.802765
0.240875 1.000000 0.802795
0.381836 1.000000 0.802795
0.510986 1.000000 0.802765
0.628357 1.000000 0.802704
0.736359 1.000000 0.802765
0.837646 1.000000 0.802734
0.949371 0.972534 0.830170
0.967621 0.941132 0.835083
