滤镜资源/Professional Luts Collection/Lutify.me Professional/Alternative Process/Amethyst Chevron.cube
# Created by: Lutify.me
# Copyright: (c) Copyright Lutify.me 2015
# Website: https://lutify.me
#LUT size
LUT_3D_SIZE 5
#LUT data points
0.001190 0.000000 0.166443
0.183838 0.000275 0.187469
0.391083 0.000000 0.210327
0.661316 0.000000 0.232330
0.962524 0.000000 0.250214
0.002502 0.171204 0.222595
0.175232 0.172638 0.226135
0.394958 0.172119 0.235565
0.668365 0.147736 0.247681
0.964874 0.066498 0.259216
0.000000 0.435150 0.262085
0.012146 0.437561 0.263062
0.378906 0.442505 0.265564
0.679840 0.441742 0.268555
0.965820 0.435364 0.270782
0.000000 0.698547 0.275848
0.000000 0.698456 0.276031
0.383667 0.696503 0.276520
0.709534 0.688690 0.276978
0.967377 0.680237 0.278198
0.039093 0.892059 0.291351
0.271454 0.890717 0.291321
0.531097 0.886230 0.291199
0.777649 0.879242 0.291138
0.974182 0.875641 0.291870
0.000000 0.000092 0.352142
0.133545 0.000000 0.353027
0.378906 0.000000 0.355774
0.659546 0.000000 0.359406
0.962036 0.000000 0.361664
0.000000 0.171265 0.357941
0.134979 0.172699 0.358612
0.385803 0.171478 0.360291
0.667603 0.145569 0.361969
0.964661 0.065216 0.362274
0.000000 0.435852 0.362457
0.000244 0.438110 0.362457
0.375488 0.442719 0.362305
0.681244 0.441498 0.361237
0.965973 0.435455 0.358978
0.000000 0.698578 0.356293
0.000000 0.698395 0.356201
0.388123 0.696259 0.355865
0.712250 0.688324 0.354919
0.967499 0.680176 0.354065
0.089081 0.891724 0.357788
0.283905 0.890350 0.357666
0.536530 0.885864 0.357269
0.779724 0.878967 0.356659
0.973969 0.875671 0.356384
0.000000 0.000000 0.515472
0.070587 0.000000 0.515656
0.377899 0.000000 0.516144
0.669678 0.000000 0.516205
0.967712 0.000000 0.514648
0.000000 0.172241 0.516541
0.088165 0.173004 0.516571
0.386871 0.169739 0.516510
0.678314 0.139008 0.515564
0.970001 0.062317 0.513062
0.000000 0.437927 0.512451
0.000000 0.439819 0.512177
0.384857 0.443420 0.511230
0.693604 0.440765 0.508972
0.970215 0.435883 0.505463
0.000000 0.698486 0.499237
0.000000 0.698120 0.498993
0.412811 0.695343 0.498138
0.724915 0.687225 0.496490
0.970215 0.679993 0.494415
0.191345 0.890564 0.490265
0.328491 0.889160 0.490082
0.557068 0.884766 0.489349
0.787994 0.878326 0.488159
0.974915 0.875702 0.486847
0.000000 0.000000 0.664520
0.117737 0.000000 0.664520
0.409637 0.000000 0.664307
0.702515 0.000000 0.663300
0.983948 0.000000 0.660797
0.000000 0.173187 0.664154
0.141266 0.172699 0.664001
0.420227 0.165771 0.663422
0.710968 0.125793 0.661774
0.985168 0.061462 0.658661
0.000000 0.441254 0.657898
0.095917 0.442566 0.657562
0.429749 0.444244 0.656372
0.726044 0.439606 0.653900
0.982666 0.437378 0.650238
0.000000 0.697937 0.643066
0.117035 0.697174 0.642731
0.473663 0.693451 0.641693
0.754608 0.685425 0.639801
0.979340 0.680054 0.637299
0.320343 0.888367 0.628967
0.411774 0.886963 0.628693
0.601074 0.882812 0.627869
0.807159 0.877380 0.626404
0.980804 0.875916 0.624481
0.139587 0.000000 0.792969
0.266815 0.000000 0.792877
0.491119 0.000000 0.792389
0.763336 0.000000 0.790985
1.000000 0.000000 0.788361
0.165863 0.171753 0.791992
0.282684 0.169464 0.791809
0.502594 0.155975 0.791016
0.770203 0.103790 0.789215
1.000000 0.069916 0.786194
0.162811 0.444672 0.785400
0.291168 0.445068 0.785065
0.521942 0.443939 0.783905
0.781616 0.438324 0.781616
1.000000 0.441040 0.778351
0.233368 0.696014 0.771759
0.349762 0.694794 0.771454
0.568634 0.690369 0.770508
0.802917 0.683105 0.768799
0.996674 0.680725 0.766602
0.457336 0.885162 0.758423
0.519165 0.883850 0.758179
0.666321 0.880249 0.757446
0.837463 0.876465 0.756195
0.994019 0.876495 0.754395
