滤镜资源/Professional Luts Collection/Lutify.me Professional/Alternative Process/Amethyst.cube
# Created by: Lutify.me
# Copyright: (c) Copyright Lutify.me 2015
# Website: https://lutify.me
#LUT size
LUT_3D_SIZE 33
#LUT data points
0.000000 0.000000 0.076630
0.045502 0.000366 0.080719
0.071808 0.000427 0.084351
0.095947 0.000793 0.086731
0.120728 0.000854 0.089661
0.145477 0.001129 0.092682
0.170593 0.000854 0.095581
0.196228 0.000549 0.098389
0.222290 0.000122 0.101501
0.248688 0.000000 0.104645
0.275604 0.000000 0.107544
0.302979 0.000000 0.110596
0.331024 0.000000 0.113525
0.359650 0.000000 0.116455
0.388794 0.000000 0.119507
0.418427 0.000000 0.122528
0.448517 0.000000 0.125397
0.479095 0.000000 0.128296
0.510162 0.000000 0.131226
0.541687 0.000000 0.133942
0.573700 0.000000 0.136658
0.606201 0.000000 0.139343
0.639282 0.000000 0.141693
0.672913 0.000000 0.144257
0.707092 0.000000 0.146790
0.741699 0.000000 0.149017
0.776642 0.000000 0.151337
0.811676 0.000000 0.153503
0.846619 0.000000 0.155487
0.881256 0.000000 0.157654
0.915344 0.000000 0.159515
0.948944 0.000000 0.161499
0.981934 0.000000 0.163330
0.011200 0.027435 0.091187
0.044098 0.026306 0.091797
0.069580 0.025574 0.092560
0.094421 0.025177 0.094604
0.119354 0.024780 0.096191
0.144531 0.024109 0.098267
0.170074 0.023468 0.100433
0.195831 0.023224 0.102722
0.221893 0.022552 0.105499
0.248535 0.021454 0.107910
0.275513 0.020233 0.110657
0.303040 0.018494 0.113281
0.331085 0.016174 0.116089
0.359680 0.013153 0.118896
0.388885 0.009308 0.121643
0.418579 0.004944 0.124390
0.448669 0.001495 0.127106
0.479248 0.000092 0.129822
0.510315 0.000000 0.132599
0.541840 0.000000 0.135284
0.573883 0.000000 0.137787
0.606384 0.000000 0.140381
0.639435 0.000000 0.142944
0.673096 0.000000 0.145325
0.707306 0.000000 0.147614
0.741943 0.000000 0.149902
0.776825 0.000000 0.152039
0.811859 0.000000 0.154175
0.846771 0.000000 0.156189
0.881348 0.000000 0.158081
0.915405 0.000000 0.160004
0.949005 0.000000 0.161865
0.981995 0.000000 0.163818
0.016815 0.051270 0.097595
0.045807 0.050629 0.098541
0.069977 0.049988 0.098907
0.093842 0.049652 0.100403
0.118591 0.049011 0.101746
0.144073 0.048645 0.102875
0.169647 0.047974 0.104797
0.195465 0.047333 0.106934
0.221832 0.046692 0.109009
0.248413 0.045776 0.111267
0.275482 0.044586 0.113647
0.303040 0.042816 0.116180
0.331116 0.040588 0.118683
0.359772 0.037781 0.121185
0.389008 0.034241 0.123718
0.418701 0.029816 0.126343
0.448853 0.024689 0.129028
0.479431 0.018921 0.131561
0.510559 0.012115 0.134094
0.542084 0.005096 0.136749
0.574097 0.000916 0.139221
0.606598 0.000183 0.141632
0.639709 0.000000 0.144135
0.673340 0.000000 0.146423
0.707520 0.000000 0.148621
0.742157 0.000000 0.150818
0.777069 0.000000 0.152863
0.812073 0.000000 0.154938
0.846954 0.000000 0.156921
0.881531 0.000000 0.158813
0.915558 0.000000 0.160645
0.949127 0.000000 0.162476
0.982086 0.000000 0.164276
0.020721 0.076233 0.104401
0.047333 0.075958 0.104828
0.069855 0.075684 0.105743
0.093597 0.075226 0.106415
0.118347 0.074951 0.107269
0.143738 0.074463 0.108643
0.169220 0.074036 0.110046
0.195190 0.073547 0.111633
0.221558 0.072998 0.113434
0.248260 0.072357 0.115509
0.275452 0.071564 0.117462
0.303040 0.070465 0.119690
0.331238 0.069061 0.121948
0.359955 0.067108 0.124237
0.389252 0.064636 0.126648
0.418945 0.061523 0.128967
0.449097 0.057739 0.131409
0.479706 0.053040 0.133881
0.510803 0.047485 0.136230
0.542358 0.040680 0.138611
0.574402 0.032318 0.140961
0.606903 0.023315 0.143280
0.639984 0.013245 0.145569
0.673645 0.004333 0.147736
0.707825 0.000916 0.149872
0.742432 0.000000 0.152039
0.777313 0.000000 0.154053
0.812347 0.000000 0.156097
0.847198 0.000000 0.157837
0.881714 0.000000 0.159698
0.915741 0.000000 0.161407
0.949280 0.000000 0.163330
0.982208 0.000000 0.164978
0.023865 0.102142 0.111389
0.048737 0.101776 0.111633
0.070374 0.101746 0.112122
0.093750 0.101257 0.112701
0.118042 0.101044 0.113525
0.143066 0.100983 0.114655
0.168854 0.100616 0.115753
0.194855 0.100342 0.116943
0.221313 0.099854 0.118561
0.248108 0.099518 0.120270
0.275330 0.098907 0.122009
0.303070 0.098083 0.123901
0.331299 0.097015 0.125854
0.360138 0.095703 0.127838
0.389465 0.094086 0.130066
0.419189 0.092163 0.132233
0.449371 0.089661 0.134399
0.480011 0.086639 0.136688
0.511139 0.083008 0.138916
0.542694 0.078766 0.141113
0.574738 0.073608 0.143280
0.607269 0.067322 0.145416
0.640381 0.059723 0.147522
0.674042 0.050415 0.149567
0.708191 0.039917 0.151581
0.742798 0.027557 0.153564
0.777679 0.014587 0.155487
0.812683 0.003906 0.157379
0.847504 0.001495 0.159058
0.882019 0.000000 0.160858
0.915985 0.000000 0.162567
0.949432 0.000000 0.164246
0.982330 0.000000 0.165894
0.025818 0.128296 0.118317
0.049713 0.128265 0.118408
0.070435 0.128113 0.118622
0.093567 0.127808 0.119324
0.117523 0.127777 0.119843
0.142609 0.127747 0.120789
0.168274 0.127594 0.121552
0.194519 0.127289 0.122742
0.220947 0.127045 0.124084
0.247925 0.126770 0.125397
0.275269 0.126434 0.126953
0.303101 0.125916 0.128601
0.331421 0.125275 0.130402
0.360291 0.124420 0.132141
0.389709 0.123291 0.134003
0.419495 0.121948 0.135956
0.449677 0.120331 0.137878
0.480347 0.118317 0.139862
0.511536 0.115967 0.141907
0.543121 0.113220 0.143921
0.575165 0.110016 0.145905
0.607697 0.106140 0.147858
0.640808 0.101318 0.149811
0.674469 0.095612 0.151733
0.708679 0.088776 0.153595
0.743286 0.080322 0.155396
0.778137 0.070679 0.157135
0.813110 0.059906 0.158875
0.847900 0.049438 0.160675
0.882324 0.038422 0.162323
0.916290 0.026764 0.163879
0.949707 0.015991 0.165405
0.982483 0.006805 0.167053
0.026093 0.155396 0.124939
0.049255 0.155396 0.125122
0.070007 0.155273 0.125366
0.092468 0.155151 0.125732
0.116913 0.155121 0.126221
0.141907 0.155029 0.126984
0.167694 0.155029 0.127655
0.193909 0.154907 0.128632
0.220581 0.154846 0.129730
0.247589 0.154663 0.130859
0.275085 0.154510 0.132141
0.303009 0.154266 0.133575
0.331482 0.153992 0.135071
0.360413 0.153442 0.136627
0.389862 0.152740 0.138367
0.419739 0.151855 0.139984
0.450012 0.150787 0.141724
0.480713 0.149567 0.143433
0.511871 0.148041 0.145233
0.543488 0.146210 0.147095
0.575592 0.144012 0.148804
0.608185 0.141418 0.150604
0.641327 0.138336 0.152435
0.675018 0.134521 0.154144
0.709229 0.130096 0.155853
0.743866 0.124878 0.157501
0.778687 0.118866 0.159180
0.813599 0.112213 0.160797
0.848328 0.104858 0.162323
0.882690 0.097107 0.163849
0.916565 0.089325 0.165344
0.949921 0.082001 0.166901
0.982666 0.075256 0.168396
0.024139 0.183136 0.131348
0.047668 0.183075 0.131470
0.067810 0.183136 0.131775
0.090759 0.183044 0.132080
0.115051 0.183136 0.132355
0.140656 0.183105 0.133057
0.166504 0.183136 0.133667
0.193024 0.183197 0.134369
0.219727 0.183228 0.135345
0.246918 0.183228 0.136322
0.274597 0.183228 0.137451
0.302765 0.183105 0.138641
0.331421 0.182983 0.139862
0.360474 0.182770 0.141266
0.389954 0.182404 0.142670
0.419891 0.181946 0.144196
0.450226 0.181335 0.145660
0.480988 0.180573 0.147278
0.512238 0.179565 0.148773
0.543854 0.178406 0.150391
0.575989 0.177002 0.152008
0.608643 0.175201 0.153595
0.641815 0.173035 0.155182
0.675568 0.170441 0.156769
0.709808 0.167297 0.158325
0.744446 0.163635 0.159821
0.779266 0.159515 0.161346
0.814148 0.154999 0.162842
0.848816 0.150238 0.164276
0.883118 0.145508 0.165680
0.916901 0.140930 0.167145
0.950195 0.136688 0.168518
0.982849 0.132904 0.169830
0.018951 0.211761 0.137451
0.042023 0.211792 0.137665
0.063812 0.211823 0.137756
0.087341 0.211884 0.138184
0.112305 0.211975 0.138519
0.138336 0.212006 0.138794
0.164581 0.212158 0.139435
0.191376 0.212250 0.140198
0.218567 0.212341 0.140808
0.245911 0.212494 0.141724
0.273804 0.212646 0.142670
0.302246 0.212738 0.143677
0.331024 0.212799 0.144745
0.360229 0.212799 0.145874
0.389862 0.212738 0.147095
0.419922 0.212555 0.148407
0.450348 0.212250 0.149719
0.481171 0.211853 0.151062
0.512482 0.211243 0.152466
0.544220 0.210541 0.153839
0.576385 0.209625 0.155243
0.609131 0.208374 0.156708
0.642334 0.206848 0.158112
0.676178 0.204895 0.159546
0.710480 0.202637 0.160950
0.745087 0.199951 0.162292
0.779938 0.196899 0.163605
0.814758 0.193634 0.164917
0.849365 0.190247 0.166290
0.883575 0.187012 0.167572
0.917297 0.183868 0.168854
0.950470 0.181030 0.170074
0.983032 0.178680 0.171387
0.009308 0.241455 0.143402
0.032318 0.241547 0.143524
0.056213 0.241608 0.143646
0.081543 0.241699 0.143890
0.107910 0.241760 0.144257
0.134430 0.241882 0.144562
0.161499 0.242065 0.145020
0.188782 0.242279 0.145569
0.216370 0.242523 0.146179
0.244263 0.242706 0.146881
0.272491 0.242981 0.147675
0.301208 0.243164 0.148529
0.330261 0.243347 0.149506
0.359650 0.243530 0.150513
0.389465 0.243622 0.151520
0.419708 0.243683 0.152618
0.450287 0.243591 0.153717
0.481232 0.243469 0.154907
0.512604 0.243195 0.156128
0.544464 0.242706 0.157379
0.576752 0.242096 0.158600
0.609558 0.241272 0.159851
0.642883 0.240204 0.161102
0.676758 0.238800 0.162384
0.711121 0.237000 0.163605
0.745758 0.234985 0.164825
0.780579 0.232727 0.166046
0.815369 0.230255 0.167175
0.849915 0.227783 0.168396
0.884064 0.225372 0.169556
0.917633 0.223145 0.170624
0.950745 0.221222 0.171814
0.983185 0.219696 0.173065
0.001923 0.272156 0.148895
0.017456 0.272247 0.148956
0.042908 0.272339 0.149139
0.072052 0.272430 0.149323
0.100525 0.272522 0.149597
0.128723 0.272705 0.149902
0.156830 0.272919 0.150330
0.184937 0.273193 0.150665
0.213257 0.273468 0.151215
0.241821 0.273743 0.151855
0.270630 0.274048 0.152527
0.299561 0.274353 0.153168
0.329010 0.274597 0.154053
0.358734 0.274872 0.154877
0.388794 0.275085 0.155762
0.419220 0.275269 0.156738
0.449921 0.275391 0.157715
0.481079 0.275360 0.158691
0.512604 0.275299 0.159698
0.544586 0.275085 0.160797
0.576996 0.274689 0.161926
0.609924 0.274139 0.163025
0.643372 0.273346 0.164093
0.677368 0.272308 0.165222
0.711761 0.270966 0.166321
0.746460 0.269379 0.167358
0.781250 0.267700 0.168457
0.816010 0.265808 0.169495
0.850464 0.263885 0.170563
0.884491 0.262085 0.171570
0.917969 0.260468 0.172607
0.950989 0.259094 0.173676
0.983368 0.258057 0.174683
0.000000 0.303650 0.154053
0.004028 0.303711 0.154053
0.022675 0.303833 0.154236
0.056732 0.303955 0.154327
0.089661 0.304077 0.154572
0.120514 0.304260 0.154816
0.150299 0.304535 0.155182
0.179749 0.304810 0.155579
0.209045 0.305054 0.155975
0.238403 0.305359 0.156433
0.267914 0.305695 0.157043
0.297485 0.306030 0.157715
0.327240 0.306396 0.158295
0.357330 0.306702 0.158997
0.387756 0.307007 0.159821
0.418427 0.307220 0.160645
0.449402 0.307434 0.161530
0.480713 0.307587 0.162354
0.512451 0.307617 0.163239
0.544586 0.307556 0.164124
0.577179 0.307373 0.165161
0.610260 0.307007 0.166138
0.643860 0.306396 0.167053
0.677979 0.305603 0.167999
0.712433 0.304596 0.169006
0.747162 0.303375 0.169922
0.781921 0.302032 0.170837
0.816650 0.300568 0.171783
0.851013 0.299103 0.172729
0.884949 0.297760 0.173553
0.918335 0.296570 0.174561
0.951233 0.295593 0.175415
0.983459 0.294891 0.176270
0.000000 0.335785 0.158722
0.000000 0.335846 0.158752
0.005127 0.335968 0.158875
0.033325 0.336090 0.158997
0.074371 0.336212 0.159180
0.109344 0.336426 0.159363
0.141876 0.336670 0.159698
0.173126 0.336945 0.160065
0.203705 0.337250 0.160400
0.234070 0.337555 0.160828
0.264404 0.337891 0.161255
0.294678 0.338226 0.161896
0.325012 0.338593 0.162415
0.355560 0.338959 0.162994
0.386292 0.339264 0.163635
0.417328 0.339569 0.164368
0.448608 0.339844 0.165100
0.480194 0.340057 0.165863
0.512115 0.340210 0.166656
0.544495 0.340210 0.167419
0.577301 0.340118 0.168243
0.610596 0.339874 0.169098
0.644318 0.339447 0.169891
0.678558 0.338867 0.170715
0.713135 0.338043 0.171600
0.747864 0.337097 0.172394
0.782623 0.336060 0.173157
0.817261 0.334900 0.173950
0.851562 0.333771 0.174774
0.885376 0.332764 0.175568
0.918671 0.331909 0.176331
0.951447 0.331207 0.177063
0.983551 0.330811 0.177795
0.000000 0.368378 0.162964
0.000000 0.368500 0.163055
0.000000 0.368561 0.163147
0.008606 0.368652 0.163330
0.051208 0.368835 0.163452
0.094513 0.369019 0.163635
0.131042 0.369263 0.163818
0.164734 0.369507 0.164154
0.197205 0.369843 0.164429
0.228821 0.370148 0.164886
0.260101 0.370483 0.165222
0.291138 0.370819 0.165771
0.322174 0.371216 0.166229
0.353241 0.371582 0.166748
0.384552 0.371918 0.167236
0.415894 0.372223 0.167877
0.447510 0.372528 0.168488
0.479401 0.372772 0.169128
0.511688 0.372925 0.169861
0.544281 0.373047 0.170563
0.577301 0.373016 0.171173
0.610809 0.372864 0.171906
0.644775 0.372528 0.172607
0.679138 0.372070 0.173309
0.713806 0.371460 0.174072
0.748535 0.370667 0.174713
0.783295 0.369843 0.175354
0.817902 0.368958 0.176025
0.852081 0.368073 0.176697
0.885803 0.367310 0.177368
0.918945 0.366699 0.178009
0.951630 0.366150 0.178558
0.983551 0.365967 0.179169
0.000000 0.401398 0.166931
0.000000 0.401489 0.167023
0.000000 0.401520 0.167145
0.000153 0.401642 0.167267
0.020508 0.401794 0.167358
0.073730 0.401978 0.167572
0.117279 0.402191 0.167725
0.154510 0.402466 0.167938
0.189240 0.402740 0.168274
0.222504 0.403046 0.168579
0.254974 0.403412 0.168884
0.287018 0.403717 0.169281
0.318787 0.404083 0.169647
0.350555 0.404449 0.170166
0.382294 0.404816 0.170593
0.414215 0.405121 0.171112
0.446228 0.405457 0.171631
0.478424 0.405731 0.172241
0.511017 0.405914 0.172760
0.543976 0.406006 0.173340
0.577271 0.406036 0.173981
0.611023 0.405914 0.174500
0.645203 0.405701 0.175079
0.679718 0.405304 0.175690
0.714447 0.404816 0.176300
0.749237 0.404175 0.176880
0.783966 0.403473 0.177368
0.818512 0.402771 0.177887
0.852570 0.402100 0.178467
0.886169 0.401520 0.178955
0.919189 0.401062 0.179474
0.951752 0.400696 0.179901
0.983521 0.400635 0.180420
0.000000 0.434631 0.170593
0.000000 0.434692 0.170685
0.000000 0.434784 0.170715
0.000000 0.434875 0.170868
0.003662 0.434998 0.170898
0.044037 0.435181 0.171082
0.099426 0.435394 0.171234
0.141998 0.435638 0.171417
0.179718 0.435913 0.171661
0.215057 0.436188 0.171997
0.249023 0.436523 0.172241
0.282135 0.436859 0.172546
0.314850 0.437164 0.172882
0.347351 0.437531 0.173218
0.379761 0.437836 0.173676
0.412170 0.438202 0.174042
0.444641 0.438477 0.174561
0.477356 0.438751 0.174927
0.510254 0.438965 0.175476
0.543549 0.439087 0.175873
0.577179 0.439117 0.176361
0.611206 0.439026 0.176880
0.645630 0.438812 0.177338
0.680328 0.438477 0.177795
0.715118 0.438080 0.178253
0.749939 0.437561 0.178711
0.784637 0.436981 0.179138
0.819092 0.436401 0.179535
0.853027 0.435852 0.179962
0.886505 0.435394 0.180298
0.919434 0.435028 0.180695
0.951813 0.434753 0.181091
0.983429 0.434723 0.181519
0.000000 0.467957 0.173798
0.000000 0.468018 0.173889
0.000000 0.468109 0.173920
0.000000 0.468201 0.174011
0.000000 0.468323 0.174072
0.014374 0.468475 0.174194
0.075165 0.468689 0.174347
0.126770 0.468903 0.174530
0.168579 0.469147 0.174683
0.206451 0.469421 0.174896
0.242249 0.469727 0.175140
0.276733 0.470032 0.175415
0.310455 0.470337 0.175690
0.343750 0.470673 0.176056
0.376923 0.470978 0.176331
0.409912 0.471283 0.176666
0.442932 0.471588 0.177032
0.476105 0.471771 0.177399
0.509460 0.471985 0.177765
0.543091 0.472107 0.178131
0.577087 0.472107 0.178467
0.611420 0.472046 0.178833
0.646088 0.471863 0.179199
0.680939 0.471558 0.179626
0.715851 0.471161 0.179932
0.750671 0.470734 0.180298
0.785309 0.470215 0.180573
0.819672 0.469727 0.180939
0.853516 0.469238 0.181244
0.886841 0.468842 0.181488
0.919678 0.468506 0.181824
0.951904 0.468292 0.182129
0.983337 0.468262 0.182465
0.000000 0.501373 0.176544
0.000000 0.501404 0.176636
0.000000 0.501495 0.176697
0.000000 0.501587 0.176758
0.000000 0.501709 0.176819
0.001038 0.501831 0.176849
0.043457 0.502045 0.177002
0.107880 0.502197 0.177185
0.155762 0.502411 0.177307
0.196838 0.502686 0.177460
0.234680 0.502960 0.177643
0.270752 0.503204 0.177887
0.305695 0.503510 0.178070
0.339935 0.503815 0.178314
0.373840 0.504089 0.178619
0.407562 0.504333 0.178833
0.441162 0.504578 0.179169
0.474823 0.504791 0.179413
0.508667 0.504944 0.179749
0.542755 0.505035 0.180054
0.577118 0.505005 0.180328
0.611725 0.504913 0.180573
0.646637 0.504700 0.180786
0.681641 0.504395 0.181122
0.716644 0.504028 0.181366
0.751495 0.503601 0.181610
0.786102 0.503113 0.181854
0.820312 0.502655 0.182098
0.854034 0.502197 0.182343
0.887268 0.501770 0.182587
0.919952 0.501465 0.182800
0.951996 0.501221 0.183136
0.983215 0.501221 0.183380
0.000000 0.534729 0.178864
0.000000 0.534760 0.178955
0.000000 0.534821 0.178955
0.000000 0.534912 0.179016
0.000000 0.535004 0.179077
0.000000 0.535126 0.179138
0.016113 0.535278 0.179230
0.083771 0.535461 0.179352
0.141113 0.535645 0.179443
0.186340 0.535858 0.179596
0.226715 0.536102 0.179749
0.264435 0.536346 0.179901
0.300690 0.536591 0.180084
0.336029 0.536835 0.180267
0.370789 0.537079 0.180450
0.405243 0.537292 0.180664
0.439514 0.537445 0.180847
0.473755 0.537598 0.181091
0.508057 0.537720 0.181305
0.542633 0.537689 0.181580
0.577362 0.537659 0.181824
0.612335 0.537476 0.182007
0.647400 0.537231 0.182190
0.682556 0.536896 0.182404
0.717621 0.536499 0.182587
0.752441 0.536041 0.182770
0.786987 0.535553 0.182953
0.821106 0.535095 0.183167
0.854675 0.534637 0.183350
0.887787 0.534210 0.183624
0.920288 0.533875 0.183777
0.952148 0.533630 0.184052
0.983124 0.533600 0.184296
0.000000 0.567841 0.180847
0.000000 0.567871 0.180786
0.000000 0.567902 0.180847
0.000000 0.567963 0.180817
0.000000 0.568054 0.180878
0.000000 0.568176 0.180969
0.001953 0.568268 0.181030
0.057312 0.568451 0.181122
0.125000 0.568604 0.181213
0.175415 0.568787 0.181305
0.218658 0.568939 0.181427
0.258362 0.569153 0.181549
0.295990 0.569336 0.181671
0.332367 0.569519 0.181854
0.368042 0.569702 0.182037
0.403259 0.569824 0.182220
0.438202 0.569946 0.182373
0.473022 0.570038 0.182526
0.507904 0.570038 0.182678
0.542877 0.569977 0.182892
0.578003 0.569794 0.183105
0.613251 0.569580 0.183258
0.648529 0.569275 0.183350
0.683746 0.568909 0.183533
0.718811 0.568451 0.183716
0.753632 0.567993 0.183868
0.788025 0.567505 0.184021
0.822021 0.566986 0.184174
0.855469 0.566528 0.184326
0.888397 0.566101 0.184540
0.920715 0.565704 0.184784
0.952362 0.565430 0.184967
0.983063 0.565369 0.185242
0.000000 0.600433 0.182434
0.000000 0.600494 0.182312
0.000000 0.600494 0.182434
0.000000 0.600555 0.182404
0.000000 0.600616 0.182465
0.000000 0.600708 0.182526
0.000000 0.600800 0.182556
0.033600 0.600952 0.182648
0.107758 0.601044 0.182770
0.165039 0.601166 0.182861
0.211243 0.601318 0.182922
0.252869 0.601440 0.183014
0.291931 0.601562 0.183136
0.329407 0.601685 0.183289
0.365936 0.601807 0.183411
0.401917 0.601868 0.183563
0.437531 0.601898 0.183746
0.472931 0.601868 0.183868
0.508270 0.601807 0.184021
0.543671 0.601685 0.184113
0.579102 0.601471 0.184296
0.614563 0.601135 0.184418
0.650024 0.600769 0.184570
0.685303 0.600372 0.184662
0.720337 0.599884 0.184814
0.755035 0.599365 0.184967
0.789337 0.598846 0.185120
0.823120 0.598328 0.185211
0.856415 0.597809 0.185364
0.889191 0.597351 0.185486
0.921265 0.596954 0.185760
0.952606 0.596649 0.185944
0.983032 0.596527 0.186249
0.000000 0.632477 0.183868
0.000000 0.632477 0.183868
0.000000 0.632507 0.183899
0.000000 0.632568 0.183899
0.000000 0.632599 0.183929
0.000000 0.632660 0.183990
0.000000 0.632721 0.184021
0.015106 0.632812 0.184082
0.090393 0.632904 0.184143
0.155884 0.632965 0.184265
0.205231 0.633057 0.184357
0.248627 0.633148 0.184418
0.288971 0.633240 0.184509
0.327484 0.633301 0.184601
0.364838 0.633301 0.184723
0.401428 0.633331 0.184875
0.437622 0.633270 0.184937
0.473572 0.633148 0.185120
0.509399 0.633026 0.185272
0.545135 0.632782 0.185364
0.580811 0.632507 0.185455
0.616486 0.632141 0.185577
0.651978 0.631683 0.185669
0.687225 0.631256 0.185822
0.722229 0.630707 0.185913
0.756775 0.630157 0.185944
0.790863 0.629608 0.186218
0.824493 0.629059 0.186340
0.857574 0.628510 0.186432
0.890106 0.628021 0.186584
0.921936 0.627594 0.186829
0.953003 0.627289 0.187042
0.983124 0.627106 0.187286
0.000000 0.663849 0.185242
0.000000 0.663849 0.185333
0.000000 0.663879 0.185272
0.000000 0.663910 0.185364
0.000000 0.663940 0.185364
0.000000 0.663940 0.185364
0.000000 0.664001 0.185425
0.007294 0.664062 0.185486
0.079590 0.664093 0.185547
0.149078 0.664154 0.185547
0.201172 0.664185 0.185699
0.246185 0.664215 0.185791
0.287567 0.664246 0.185883
0.326965 0.664215 0.186005
0.364990 0.664185 0.186005
0.402222 0.664124 0.186127
0.438873 0.664001 0.186249
0.475250 0.663818 0.186340
0.511383 0.663574 0.186432
0.547394 0.663300 0.186584
0.583252 0.662933 0.186676
0.618988 0.662506 0.186829
0.654449 0.662018 0.186951
0.689667 0.661499 0.187042
0.724518 0.660919 0.187073
0.758820 0.660339 0.187256
0.792725 0.659760 0.187286
0.826111 0.659180 0.187439
0.858978 0.658600 0.187653
0.891235 0.658081 0.187805
0.922760 0.657654 0.187988
0.953491 0.657288 0.188202
0.983337 0.657074 0.188507
0.000000 0.694550 0.186707
0.000000 0.694550 0.186798
0.000000 0.694550 0.186798
0.000000 0.694580 0.186798
0.000000 0.694580 0.186798
0.000000 0.694611 0.186768
0.000000 0.694611 0.186859
0.005829 0.694611 0.186890
0.075562 0.694641 0.186981
0.145996 0.694641 0.186981
0.199951 0.694641 0.187103
0.245972 0.694611 0.187195
0.288147 0.694550 0.187286
0.328094 0.694489 0.187347
0.366730 0.694397 0.187439
0.404327 0.694244 0.187500
0.441376 0.694061 0.187622
0.478058 0.693817 0.187683
0.514465 0.693512 0.187805
0.550598 0.693146 0.187897
0.586487 0.692719 0.187988
0.622162 0.692230 0.188080
0.657562 0.691711 0.188263
0.692535 0.691132 0.188324
0.727142 0.690552 0.188385
0.761292 0.689911 0.188599
0.794891 0.689301 0.188690
0.828064 0.688690 0.188782
0.860657 0.688110 0.188965
0.892578 0.687561 0.189148
0.923767 0.687103 0.189362
0.954132 0.686737 0.189575
0.983643 0.686523 0.189911
0.000000 0.724457 0.188324
0.000000 0.724487 0.188324
0.000000 0.724487 0.188385
0.000000 0.724487 0.188324
0.000000 0.724487 0.188354
0.000000 0.724487 0.188354
0.000000 0.724487 0.188416
0.006683 0.724487 0.188477
0.077179 0.724426 0.188538
0.147552 0.724396 0.188568
0.202179 0.724335 0.188660
0.248596 0.724274 0.188721
0.291077 0.724182 0.188812
0.331299 0.724060 0.188904
0.370209 0.723877 0.188965
0.408142 0.723663 0.189026
0.445282 0.723419 0.189117
0.482117 0.723114 0.189209
0.518555 0.722778 0.189270
0.554688 0.722351 0.189392
0.590546 0.721863 0.189453
0.626068 0.721344 0.189514
0.661194 0.720795 0.189697
0.695984 0.720184 0.189728
0.730286 0.719543 0.189880
0.764069 0.718933 0.190002
0.797394 0.718292 0.190155
0.830292 0.717651 0.190338
0.862518 0.717072 0.190460
0.894104 0.716492 0.190643
0.924866 0.716064 0.190887
0.954834 0.715698 0.191132
0.984009 0.715424 0.191467
0.000000 0.753754 0.190002
0.000000 0.753723 0.190002
0.000000 0.753723 0.189972
0.000000 0.753723 0.190002
0.000000 0.753693 0.190002
0.000000 0.753662 0.190094
0.000000 0.753662 0.190155
0.010681 0.753601 0.190216
0.085175 0.753540 0.190247
0.154724 0.753479 0.190247
0.208191 0.753387 0.190338
0.254181 0.753265 0.190430
0.296570 0.753143 0.190460
0.336731 0.752960 0.190552
0.375580 0.752747 0.190613
0.413544 0.752472 0.190674
0.450714 0.752167 0.190735
0.487427 0.751831 0.190796
0.523773 0.751404 0.190918
0.559753 0.750977 0.190979
0.595337 0.750458 0.191101
0.630585 0.749878 0.191193
0.665466 0.749268 0.191284
0.699829 0.748688 0.191437
0.733765 0.748077 0.191528
0.767273 0.747406 0.191620
0.800232 0.746796 0.191742
0.832764 0.746155 0.191956
0.864594 0.745544 0.192108
0.895721 0.745026 0.192322
0.926056 0.744568 0.192596
0.955627 0.744202 0.192871
0.984467 0.743958 0.193176
0.000000 0.782440 0.191803
0.000000 0.782379 0.191803
0.000000 0.782379 0.191833
0.000000 0.782349 0.191895
0.000000 0.782318 0.191864
0.000000 0.782288 0.191956
0.000000 0.782227 0.192017
0.023956 0.782166 0.191986
0.099304 0.782104 0.192078
0.166931 0.782013 0.192078
0.218048 0.781860 0.192139
0.262939 0.781708 0.192230
0.304626 0.781525 0.192291
0.344391 0.781311 0.192383
0.382904 0.781067 0.192444
0.420532 0.780762 0.192474
0.457489 0.780396 0.192566
0.493927 0.780029 0.192627
0.529999 0.779572 0.192688
0.565643 0.779083 0.192810
0.600922 0.778534 0.192871
0.635742 0.777954 0.193024
0.670197 0.777374 0.193115
0.704193 0.776733 0.193207
0.737701 0.776154 0.193329
