滤镜资源/Professional Luts Collection/Lutify.me Professional/Alternative Process/Anthracite.cube
# Created by: Lutify.me
# Copyright: (c) Copyright Lutify.me 2015
# Website: https://lutify.me
#LUT size
LUT_3D_SIZE 5
#LUT data points
0.000000 0.000000 0.000000
0.139252 0.019958 0.025787
0.400055 0.000000 0.051880
0.718597 0.000000 0.074524
0.975586 0.000000 0.094513
0.023529 0.141937 0.026825
0.148865 0.151489 0.037292
0.395996 0.158539 0.081879
0.726013 0.104370 0.074402
0.978485 0.194916 0.092194
0.000000 0.412323 0.000000
0.147675 0.421906 0.000000
0.434479 0.442780 0.000000
0.666504 0.464600 0.242615
0.871216 0.536346 0.304718
0.000000 0.733368 0.000000
0.113678 0.739929 0.000000
0.458038 0.757080 0.000000
0.772583 0.775299 0.000000
0.968292 0.792328 0.187378
0.000000 0.955933 0.000000
0.220581 0.957520 0.000000
0.509796 0.959930 0.000000
0.812561 0.956390 0.114807
0.999878 0.956360 0.174774
0.014618 0.028748 0.143280
0.150269 0.036407 0.151001
0.413116 0.000000 0.171143
0.728271 0.000000 0.195557
0.979919 0.000000 0.219818
0.030914 0.151154 0.152924
0.159058 0.159058 0.159058
0.422668 0.155365 0.177338
0.735352 0.120850 0.199768
0.982574 0.207245 0.222778
0.000000 0.419434 0.163788
0.160065 0.428528 0.169159
0.445129 0.448273 0.185822
0.679382 0.476929 0.312988
0.879730 0.548553 0.371948
0.000000 0.739197 0.162781
0.139099 0.745483 0.169586
0.467133 0.762115 0.189636
0.779755 0.779968 0.217194
0.972260 0.798798 0.302948
0.000000 0.960541 0.216125
0.234344 0.962036 0.223480
0.517731 0.964081 0.245331
0.818085 0.960297 0.277130
1.000000 0.960510 0.310303
0.000000 0.066986 0.416992
0.139069 0.066223 0.422821
0.439514 0.000000 0.441559
0.752716 0.000000 0.467590
0.988373 0.000000 0.493439
0.000000 0.177124 0.425262
0.151642 0.181976 0.430664
0.447723 0.176758 0.448456
0.759003 0.159973 0.473358
0.990448 0.246094 0.497925
0.000000 0.442932 0.446686
0.165924 0.450317 0.451569
0.467072 0.467072 0.467072
0.776337 0.484344 0.489258
0.993042 0.535248 0.512421
0.000000 0.758362 0.471130
0.171722 0.763824 0.475677
0.487732 0.778656 0.489471
0.797729 0.794891 0.510193
0.956940 0.814697 0.586060
0.007568 0.974396 0.508636
0.263611 0.975372 0.513000
0.538635 0.976318 0.526520
0.831787 0.971802 0.547455
1.000000 0.972626 0.568420
0.000000 0.101776 0.736816
0.078796 0.091095 0.741669
0.459930 0.000000 0.756714
0.778595 0.000000 0.778931
0.989136 0.136871 0.800171
0.000000 0.208740 0.743073
0.105438 0.209473 0.747742
0.467773 0.206299 0.762299
0.783997 0.203674 0.783844
0.990601 0.296570 0.804016
0.000000 0.474457 0.761475
0.160797 0.479553 0.765717
0.487640 0.493164 0.778564
0.798767 0.509796 0.797821
0.993286 0.564911 0.815491
0.000000 0.784912 0.784241
0.197540 0.789276 0.787872
0.511902 0.801727 0.799103
0.816132 0.816132 0.816101
0.990204 0.845123 0.832703
0.124512 0.992981 0.810516
0.289429 0.993439 0.813629
0.566711 0.992737 0.824066
0.844574 0.987610 0.839355
0.997223 0.989594 0.852661
0.000000 0.106110 0.936401
0.248108 0.089294 0.939941
0.526764 0.000000 0.950806
0.821045 0.000000 0.967072
0.993011 0.217865 0.979980
0.038757 0.227081 0.940216
0.262787 0.226624 0.943665
0.534790 0.226837 0.954254
0.825531 0.237427 0.969910
0.994202 0.339355 0.982056
0.147736 0.498138 0.951080
0.294312 0.501923 0.954071
0.556580 0.512787 0.963562
0.837463 0.531036 0.977295
0.996094 0.592926 0.987518
0.202271 0.805359 0.962219
0.325867 0.808899 0.964752
0.585175 0.818573 0.973267
0.850159 0.832092 0.984985
0.995300 0.860779 0.993347
0.308838 1.000000 0.972107
0.406281 1.000000 0.974518
0.640411 1.000000 0.982422
0.871399 0.996552 0.992584
1.000000 1.000000 1.000000
