滤镜资源/Professional Luts Collection/Lutify.me Professional/Alternative Process/Anthracite.cube
# Created by: Lutify.me
# Copyright: (c) Copyright Lutify.me 2015
# Website: https://lutify.me
#LUT size
LUT_3D_SIZE 9
#LUT data points
0.000000 0.000000 0.000000
0.062469 0.014740 0.012268
0.139252 0.019958 0.025787
0.250153 0.000000 0.039032
0.400055 0.000000 0.051880
0.553741 0.000000 0.063934
0.718597 0.000000 0.074524
0.872620 0.000000 0.084137
0.975586 0.000000 0.094513
0.015930 0.063416 0.014740
0.065948 0.065735 0.019806
0.136292 0.072266 0.039062
0.252899 0.057831 0.042175
0.402496 0.000000 0.054169
0.555725 0.000000 0.065155
0.720306 0.000000 0.074951
0.873840 0.000000 0.084045
0.976288 0.000000 0.094330
0.023529 0.141937 0.026825
0.070740 0.144623 0.029877
0.148865 0.151489 0.037292
0.235596 0.159393 0.091919
0.395996 0.158539 0.081879
0.561554 0.135925 0.067932
0.726013 0.104370 0.074402
0.877838 0.107941 0.082092
0.978485 0.194916 0.092194
0.000000 0.259430 0.005646
0.059998 0.262238 0.007568
0.153503 0.270996 0.023560
0.273163 0.282837 0.037354
0.383179 0.288513 0.143372
0.514160 0.316010 0.172485
0.681549 0.334351 0.172089
0.832642 0.351990 0.178741
0.913879 0.397552 0.215515
0.000000 0.412323 0.000000
0.000000 0.414612 0.000000
0.147675 0.421906 0.000000
0.283844 0.432373 0.000000
0.434479 0.442780 0.000000
0.548828 0.441437 0.169312
0.666504 0.464600 0.242615
0.791351 0.496948 0.274536
0.871216 0.536346 0.304718
0.000000 0.567810 0.000000
0.000000 0.569702 0.000000
0.135345 0.575958 0.000000
0.294464 0.585571 0.000000
0.446808 0.596802 0.000000
0.598419 0.609039 0.000000
0.726410 0.606384 0.186646
0.830261 0.625641 0.266510
0.915741 0.658325 0.279633
0.000000 0.733368 0.000000
0.000000 0.734863 0.000000
0.113678 0.739929 0.000000
0.304291 0.747711 0.000000
0.458038 0.757080 0.000000
0.612823 0.766693 0.000000
0.772583 0.775299 0.000000
0.885468 0.773163 0.173309
0.968292 0.792328 0.187378
0.000000 0.871918 0.000000
0.000000 0.872803 0.000000
0.139709 0.875519 0.000000
0.325684 0.879425 0.000000
0.476440 0.883514 0.000000
0.633118 0.886414 0.000000
0.789917 0.887268 0.002075
0.914429 0.887848 0.071564
0.990936 0.891693 0.134552
0.000000 0.955933 0.000000
0.004486 0.956329 0.000000
0.220581 0.957520 0.000000
0.367645 0.958984 0.000000
0.509796 0.959930 0.000000
0.662933 0.959106 0.072510
0.812561 0.956390 0.114807
0.926819 0.954620 0.146606
0.999878 0.956360 0.174774
0.016571 0.014496 0.063171
0.066376 0.022156 0.066315
0.142700 0.026123 0.072510
0.253906 0.000000 0.081390
0.403320 0.000000 0.091522
0.556396 0.000000 0.101746
0.720886 0.000000 0.111694
0.874298 0.000000 0.121155
0.976624 0.000000 0.130951
0.022552 0.066620 0.066681
0.069000 0.069000 0.069000
0.145203 0.072662 0.074738
0.256592 0.060089 0.083038
0.405701 0.000000 0.092987
0.558319 0.000000 0.102753
0.722565 0.000000 0.112366
0.875488 0.000000 0.121338
0.977295 0.000000 0.131042
0.028198 0.144531 0.072632
0.073456 0.147003 0.074402
0.151764 0.153412 0.079407
0.242249 0.163116 0.114410
0.400543 0.160156 0.110992
0.564148 0.137939 0.105469
0.728210 0.107513 0.112946
0.879395 0.110687 0.121185
0.979492 0.197693 0.130585
0.000000 0.261505 0.072876
0.063416 0.264191 0.074402
0.156281 0.272827 0.078857
0.276337 0.284363 0.086029
0.386780 0.291687 0.163910
0.517639 0.319000 0.191162
0.684418 0.336670 0.192719
0.834595 0.354187 0.200684
0.915192 0.400024 0.235352
0.000000 0.413971 0.049255
0.000000 0.416229 0.051514
0.150970 0.423431 0.059235
0.286957 0.433716 0.070160
0.437073 0.444000 0.081757
0.551392 0.443604 0.191010
0.669373 0.467316 0.258820
0.793640 0.499573 0.290100
0.873108 0.539032 0.319733
0.000000 0.569214 0.001373
0.000000 0.571106 0.001953
0.139740 0.577301 0.003845
0.297546 0.586823 0.022614
0.449158 0.598022 0.048859
0.600525 0.610168 0.068695
0.728394 0.608063 0.210510
0.832275 0.627808 0.284058
0.917328 0.660431 0.297424
0.000000 0.734619 0.000000
0.000000 0.736115 0.000000
0.121002 0.741150 0.000000
0.307281 0.748871 0.000000
0.460266 0.758148 0.001312
0.614807 0.767731 0.021576
0.774261 0.776306 0.064514
0.886780 0.774567 0.203125
0.969238 0.793732 0.216370
0.000000 0.872986 0.000000
0.000000 0.873871 0.000000
0.145844 0.876556 0.000000
0.328430 0.880402 0.000000
0.478546 0.884491 0.007996
0.635010 0.887329 0.055359
0.791443 0.888153 0.097870
0.915344 0.888763 0.137360
0.991547 0.892731 0.177582
0.000000 0.956940 0.007568
0.007080 0.957336 0.029175
0.224060 0.958496 0.054749
0.369812 0.959930 0.079193
0.511688 0.960815 0.110870
0.664673 0.959991 0.138306
0.813843 0.957275 0.164581
0.927551 0.955536 0.188721
1.000000 0.957306 0.211884
0.014618 0.028748 0.143280
0.069824 0.033264 0.145386
0.150269 0.036407 0.151001
0.264404 0.000000 0.159882
0.413116 0.000000 0.171143
0.564728 0.000000 0.183014
0.728271 0.000000 0.195557
0.879608 0.000000 0.208008
0.979919 0.000000 0.219818
0.023834 0.074066 0.146210
0.072784 0.075867 0.147919
0.152710 0.078705 0.153107
0.266998 0.065521 0.161713
0.415375 0.000000 0.172668
0.566589 0.000000 0.184326
0.729889 0.000000 0.196655
0.880737 0.000000 0.208801
0.980530 0.000000 0.220520
0.030914 0.151154 0.152924
0.077423 0.153290 0.154419
0.159058 0.159058 0.159058
0.275177 0.162628 0.167053
0.422668 0.155365 0.177338
0.572845 0.143555 0.188232
0.735352 0.120850 0.199768
0.884491 0.123718 0.211395
0.982574 0.207245 0.222778
0.000000 0.267731 0.160370
0.069183 0.270325 0.161652
0.163910 0.278534 0.165802
0.286194 0.289398 0.173065
0.398376 0.302124 0.224091
0.544373 0.323212 0.233917
0.710663 0.334961 0.239929
0.853333 0.353424 0.256287
0.926025 0.404602 0.293671
0.000000 0.419434 0.163788
0.001617 0.421600 0.165039
0.160065 0.428528 0.169159
0.296692 0.438293 0.176422
0.445129 0.448273 0.185822
0.558990 0.451172 0.258942
0.679382 0.476929 0.312988
0.801788 0.509064 0.343384
0.879730 0.548553 0.371948
0.000000 0.574188 0.164520
0.000000 0.576019 0.165771
0.151886 0.582001 0.170258
0.307129 0.591217 0.178040
0.456573 0.602203 0.187836
0.607513 0.614136 0.198822
0.735382 0.614349 0.284332
0.839203 0.635803 0.343903
0.922760 0.668121 0.358307
0.000000 0.739197 0.162781
0.000000 0.740662 0.164276
0.139099 0.745483 0.169586
0.316559 0.752991 0.178497
0.467133 0.762115 0.189636
0.621399 0.771484 0.202606
0.779755 0.779968 0.217194
0.891205 0.779663 0.290375
0.972260 0.798798 0.302948
0.000000 0.877014 0.175171
0.000000 0.877808 0.177002
0.162231 0.880402 0.183136
0.336639 0.884094 0.193390
0.485077 0.888000 0.206238
0.641113 0.890656 0.221710
0.796326 0.891418 0.238800
0.918182 0.892181 0.259460
0.993286 0.896362 0.284241
0.000000 0.960541 0.216125
0.053802 0.960907 0.217865
0.234344 0.962036 0.223480
0.376251 0.963318 0.232941
0.517731 0.964081 0.245331
0.670197 0.963104 0.260468
0.818085 0.960297 0.277130
0.929779 0.958679 0.293793
1.000000 0.960510 0.310303
0.000000 0.046906 0.264343
0.040314 0.049713 0.265930
0.152893 0.050568 0.271179
0.277405 0.003540 0.280121
0.426727 0.000000 0.292084
0.577179 0.000000 0.305389
0.739685 0.000000 0.320160
0.887604 0.000000 0.335052
0.984467 0.000000 0.348785
0.000000 0.085938 0.266937
0.045288 0.087158 0.268402
0.155304 0.088745 0.273407
0.279907 0.074646 0.282135
0.428772 0.000427 0.293884
0.579010 0.000000 0.307068
0.741241 0.000000 0.321625
0.888672 0.000000 0.336334
0.985046 0.004272 0.349915
0.000000 0.162445 0.274261
0.054901 0.164185 0.275635
0.162140 0.169006 0.280304
0.287781 0.171112 0.288666
0.435547 0.164398 0.299896
0.584930 0.154968 0.312469
0.746399 0.139282 0.326447
0.892120 0.150818 0.340546
0.986877 0.224426 0.353607
0.000000 0.278931 0.285156
0.042725 0.281342 0.286407
0.167816 0.288818 0.290741
0.298523 0.298523 0.298523
0.445374 0.307495 0.308960
0.594208 0.316589 0.320679
0.754608 0.322693 0.333832
0.897461 0.334778 0.347290
0.989563 0.371399 0.359924
0.000000 0.429535 0.296783
0.000000 0.431519 0.297943
0.166565 0.437897 0.302063
0.308960 0.446869 0.309448
0.456085 0.456360 0.319183
0.565613 0.466644 0.375122
0.723114 0.487274 0.383789
0.856995 0.509979 0.400421
0.927002 0.551422 0.431061
0.000000 0.583405 0.308655
0.000000 0.585114 0.309784
0.162598 0.590790 0.313812
0.319214 0.599457 0.320923
0.466644 0.610046 0.330109
0.617920 0.621613 0.340912
0.732300 0.622986 0.420685
0.835510 0.650513 0.462189
0.912170 0.683350 0.481079
0.000000 0.747559 0.320282
0.000000 0.748932 0.321442
0.156158 0.753510 0.325500
0.328217 0.760590 0.332428
0.476654 0.769379 0.341400
0.631195 0.778320 0.352325
0.788025 0.786560 0.364685
0.890747 0.785553 0.427063
0.968567 0.805359 0.438416
0.000000 0.884155 0.336975
0.000000 0.884888 0.338165
0.180542 0.887238 0.342316
0.347260 0.890625 0.349365
0.494476 0.894226 0.358582
0.650360 0.896545 0.370087
0.803680 0.897095 0.383026
0.921783 0.897827 0.398804
0.993988 0.901764 0.418457
0.000000 0.966736 0.364746
0.089935 0.967072 0.365845
0.247925 0.967957 0.369873
0.385162 0.969055 0.376495
0.526886 0.969543 0.385681
0.678833 0.968292 0.397003
0.824402 0.965393 0.409668
0.932678 0.963898 0.421967
1.000000 0.965790 0.433929
0.000000 0.066986 0.416992
0.000000 0.068237 0.418304
0.139069 0.066223 0.422821
0.287354 0.017059 0.430847
0.439514 0.000000 0.441559
0.590912 0.000000 0.453827
0.752716 0.000000 0.467590
0.896027 0.000000 0.481293
0.988373 0.000000 0.493439
0.000000 0.101166 0.419037
0.000000 0.101959 0.420319
0.142273 0.101624 0.424683
0.289856 0.085999 0.432587
0.441437 0.010254 0.443146
0.592621 0.000000 0.455261
0.754150 0.000000 0.468903
0.896973 0.000000 0.482452
0.988892 0.077454 0.494446
0.000000 0.177124 0.425262
0.000000 0.178528 0.426453
0.151642 0.181976 0.430664
0.297913 0.182343 0.438263
0.447723 0.176758 0.448456
0.598297 0.169861 0.460175
0.759003 0.159973 0.473358
0.900055 0.177338 0.486359
0.990448 0.246094 0.497925
0.000000 0.293945 0.435120
0.000000 0.296021 0.436218
0.161438 0.302490 0.440216
0.309021 0.310791 0.447418
0.456909 0.319336 0.456940
0.607178 0.328003 0.467987
0.766693 0.334320 0.480377
0.904785 0.347992 0.492676
0.992767 0.385773 0.503662
0.000000 0.442932 0.446686
0.000000 0.444733 0.447754
0.165924 0.450317 0.451569
0.320099 0.458191 0.458282
0.467072 0.467072 0.467072
0.618134 0.475922 0.477478
0.776337 0.484344 0.489258
0.910248 0.500397 0.500793
0.993042 0.535248 0.512421
0.000000 0.595551 0.458832
0.000000 0.597137 0.459869
0.169556 0.602295 0.463501
0.331085 0.610260 0.469849
0.477356 0.620361 0.478027
0.630127 0.631287 0.487915
0.744232 0.642334 0.544464
0.861328 0.669617 0.561249
0.925690 0.702942 0.586517
0.000000 0.758362 0.471130
0.000000 0.759644 0.472168
0.171722 0.763824 0.475677
0.340485 0.770386 0.481689
0.487732 0.778656 0.489471
0.643097 0.787048 0.499176
0.797729 0.794891 0.510193
0.885162 0.793640 0.574005
0.956940 0.814697 0.586060
0.000000 0.893066 0.486359
0.000000 0.893738 0.487396
0.199951 0.895782 0.490875
0.358948 0.898804 0.496735
0.506195 0.901947 0.504639
0.661926 0.903809 0.514557
0.812378 0.904144 0.525696
0.924896 0.904724 0.539856
0.991821 0.907806 0.560455
0.007568 0.974396 0.508636
0.128998 0.974640 0.509613
0.263611 0.975372 0.513000
0.396057 0.976227 0.518616
0.538635 0.976318 0.526520
0.689758 0.974731 0.536469
0.831787 0.971802 0.547455
0.935211 0.970581 0.558075
1.000000 0.972626 0.568420
0.000000 0.085602 0.573578
0.000000 0.085541 0.574738
0.111176 0.079834 0.578918
0.295929 0.036957 0.586365
0.450653 0.000000 0.596100
0.605011 0.000000 0.607666
0.765991 0.000000 0.620880
0.903107 0.000000 0.633972
0.990173 0.043030 0.645538
0.000000 0.116760 0.575348
0.000000 0.116821 0.576477
0.116791 0.113922 0.580597
0.298553 0.096680 0.587891
0.452484 0.042938 0.597595
0.606628 0.000000 0.609039
0.767334 0.000000 0.622162
0.903900 0.000000 0.635132
0.990631 0.140137 0.646606
0.000000 0.192780 0.580994
0.000000 0.193756 0.582123
0.132660 0.195587 0.586090
0.306763 0.194458 0.593231
0.458466 0.190765 0.602600
0.612091 0.186035 0.613800
0.771820 0.181335 0.626556
0.906586 0.204681 0.639069
0.991943 0.270477 0.650146
0.000000 0.310730 0.590363
0.000000 0.312469 0.591431
0.149963 0.317749 0.595306
0.318176 0.324707 0.602081
0.467194 0.333038 0.610962
0.620575 0.341064 0.621643
0.778931 0.347809 0.633759
0.910645 0.363800 0.645569
0.993805 0.403046 0.656067
0.000000 0.458191 0.602112
0.000000 0.459656 0.603149
0.162537 0.464417 0.606812
0.329834 0.471252 0.613159
0.477264 0.479553 0.621429
0.631226 0.487701 0.631531
0.787842 0.496399 0.643005
0.915222 0.514008 0.654083
0.995453 0.548553 0.664001
0.000000 0.609711 0.615051
0.000000 0.611115 0.616058
0.174225 0.615692 0.619568
0.341034 0.622986 0.625488
0.487762 0.632538 0.633209
0.642822 0.642822 0.642822
0.797272 0.654083 0.653625
0.918884 0.671875 0.664276
0.990387 0.702759 0.676819
0.000000 0.771179 0.628845
0.000000 0.772308 0.629791
0.183533 0.776062 0.633057
0.350067 0.782135 0.638580
0.498810 0.789825 0.645935
0.655457 0.797516 0.655212
0.807098 0.805115 0.665649
0.886108 0.811768 0.716064
0.948029 0.833496 0.732544
0.000000 0.903809 0.644501
0.000641 0.904358 0.645447
0.214417 0.906097 0.648560
0.368134 0.908722 0.653778
0.518036 0.911285 0.661072
0.673950 0.912598 0.670227
0.820496 0.912811 0.680389
0.926788 0.914001 0.692352
0.985535 0.915985 0.716736
0.077057 0.983673 0.664398
0.150848 0.983856 0.665283
0.274811 0.984406 0.668213
0.406372 0.984955 0.673248
0.550781 0.984619 0.680420
0.701050 0.982635 0.689392
0.838287 0.979736 0.699158
0.935730 0.978882 0.708344
1.000000 0.981140 0.717133
0.000000 0.101776 0.736816
0.000000 0.100311 0.737885
0.078796 0.091095 0.741669
0.302734 0.055481 0.748230
0.459930 0.000000 0.756714
0.619019 0.000000 0.767120
0.778595 0.000000 0.778931
0.907654 0.000000 0.790314
0.989136 0.136871 0.800171
0.000000 0.131439 0.738251
0.000000 0.130646 0.739319
0.086456 0.125214 0.743073
0.305359 0.107788 0.749542
0.461761 0.072876 0.757965
0.620605 0.001373 0.768341
0.779816 0.000000 0.780060
0.908386 0.018585 0.791290
0.989502 0.186676 0.801025
0.000000 0.208740 0.743073
0.000000 0.209106 0.744080
0.105438 0.209473 0.747742
0.313843 0.207733 0.754059
0.467773 0.206299 0.762299
0.625946 0.203278 0.772461
0.783997 0.203674 0.783844
0.910675 0.232941 0.794708
0.990601 0.296570 0.804016
0.000000 0.328522 0.751221
0.000000 0.329834 0.752197
0.136627 0.333954 0.755707
0.325531 0.340027 0.761719
0.476837 0.348145 0.769562
0.634308 0.355438 0.779236
0.790558 0.362762 0.790009
0.914154 0.381500 0.800201
0.992126 0.422363 0.808960
0.000000 0.474457 0.761475
0.000000 0.475647 0.762421
0.160797 0.479553 0.765717
0.337799 0.485504 0.771271
0.487640 0.493164 0.778564
0.644867 0.500671 0.787689
0.798767 0.509796 0.797821
0.917969 0.529358 0.807312
0.993286 0.564911 0.815491
0.000000 0.625000 0.772644
0.000000 0.626221 0.773560
0.181427 0.630249 0.776611
0.349274 0.636963 0.781738
0.499298 0.645844 0.788635
0.656464 0.655426 0.797241
0.807312 0.666748 0.806702
0.921021 0.685364 0.815430
0.993378 0.713928 0.822937
0.000000 0.784912 0.784241
0.000000 0.785919 0.785034
0.197540 0.789276 0.787872
0.359192 0.794830 0.792572
0.511902 0.801727 0.799103
0.669220 0.808716 0.807281
0.816132 0.816132 0.816101
0.923370 0.827698 0.824219
0.990204 0.845123 0.832703
0.000000 0.914886 0.796448
0.013824 0.915344 0.797211
0.230652 0.916809 0.799805
0.380310 0.918976 0.804260
0.532776 0.920898 0.810577
0.687775 0.921631 0.818451
0.828308 0.921722 0.826813
0.927765 0.924103 0.834869
0.975006 0.927490 0.861572
0.124512 0.992981 0.810516
0.177704 0.993134 0.811218
0.289429 0.993439 0.813629
0.421967 0.993561 0.817932
0.566711 0.992737 0.824066
0.714478 0.990417 0.831543
0.844574 0.987610 0.839355
0.935028 0.987183 0.846313
0.997223 0.989594 0.852661
0.000000 0.109131 0.861755
0.000000 0.106750 0.862671
0.135193 0.094513 0.865875
0.329102 0.062103 0.871246
0.482513 0.000000 0.878296
0.641815 0.000000 0.887085
0.795898 0.000000 0.896759
0.913879 0.006927 0.905548
0.989136 0.183289 0.912720
0.000000 0.139679 0.862793
0.000000 0.138123 0.863739
0.142914 0.130859 0.866882
0.331635 0.115021 0.872223
0.484375 0.087646 0.879211
0.643372 0.012878 0.887970
0.797089 0.001495 0.897614
0.914520 0.099518 0.906250
0.989441 0.222168 0.913330
0.000000 0.220398 0.866364
0.000000 0.220398 0.867249
0.163605 0.219849 0.870361
0.339691 0.218842 0.875549
0.490692 0.218689 0.882416
0.648682 0.217072 0.890991
0.800964 0.222168 0.900330
0.916534 0.257385 0.908630
0.990448 0.319580 0.915344
0.000000 0.343262 0.872437
0.000000 0.344299 0.873291
0.188019 0.347656 0.876282
0.351013 0.353394 0.881165
0.500336 0.360748 0.887726
0.657043 0.367279 0.895874
0.807068 0.375610 0.904633
0.919617 0.397522 0.912292
0.991791 0.439972 0.918549
0.000000 0.488007 0.879791
0.002441 0.488953 0.880585
0.210785 0.492188 0.883331
0.363678 0.497681 0.887817
0.512329 0.504425 0.893951
0.667786 0.511383 0.901611
0.814667 0.521393 0.909790
0.922852 0.543243 0.916840
0.992737 0.579712 0.922577
0.000000 0.637970 0.887329
0.018707 0.638977 0.888062
0.231567 0.642639 0.890594
0.376709 0.648956 0.894745
0.525482 0.656952 0.900574
0.679596 0.665955 0.907745
0.822418 0.677582 0.915283
0.925354 0.697418 0.921692
0.992645 0.726318 0.926849
0.005951 0.796356 0.894562
0.076599 0.797241 0.895233
0.248291 0.800262 0.897491
0.390442 0.805298 0.901398
0.539978 0.811371 0.906891
0.692627 0.817657 0.913635
0.830261 0.825073 0.920532
0.927307 0.837036 0.926331
0.992218 0.853302 0.931091
0.084595 0.923401 0.901428
0.156860 0.923737 0.902008
0.278870 0.924957 0.904114
0.415741 0.926575 0.907837
0.562531 0.927795 0.913147
0.711212 0.928009 0.919556
0.841248 0.928223 0.926025
0.931366 0.931366 0.931366
0.993439 0.937500 0.935944
0.210052 0.999481 0.908966
0.243683 0.999542 0.909515
0.335846 0.999603 0.911560
0.458893 0.999359 0.915192
0.596985 0.998047 0.920319
0.737061 0.995422 0.926392
0.855774 0.992950 0.932312
0.937897 0.993042 0.937225
0.996826 0.995636 0.941559
0.000000 0.106110 0.936401
0.097473 0.102875 0.937195
0.248108 0.089294 0.939941
0.382965 0.058929 0.944489
0.526764 0.000000 0.950806
0.678528 0.000000 0.958710
0.821045 0.000000 0.967072
0.924774 0.065582 0.974213
0.993011 0.217865 0.979980
0.000000 0.140076 0.937225
0.107666 0.138062 0.938080
0.251648 0.130402 0.940826
0.385223 0.117401 0.945282
0.528625 0.090576 0.951599
0.680084 0.037079 0.959412
0.822083 0.034760 0.967712
0.925354 0.148834 0.974792
0.993286 0.251129 0.980469
0.038757 0.227081 0.940216
0.134705 0.226898 0.941010
0.262787 0.226624 0.943665
0.392670 0.227112 0.948059
0.534790 0.226837 0.954254
0.685089 0.226776 0.961945
0.825531 0.237427 0.969910
0.927094 0.278412 0.976654
0.994202 0.339355 0.982056
0.108154 0.354279 0.945221
0.164734 0.355133 0.945953
0.278137 0.358276 0.948486
0.403687 0.363892 0.952698
0.544403 0.370056 0.958588
0.693146 0.376038 0.965851
0.830933 0.385956 0.973328
0.929718 0.411560 0.979523
0.995361 0.455658 0.984528
0.147736 0.498138 0.951080
0.192139 0.498962 0.951782
0.294312 0.501923 0.954071
0.417053 0.506958 0.957977
0.556580 0.512787 0.963562
0.703430 0.519531 0.970367
0.837463 0.531036 0.977295
0.932343 0.555542 0.982971
0.996094 0.592926 0.987518
0.178864 0.648193 0.956909
0.216309 0.649170 0.957550
0.309906 0.652618 0.959625
0.431549 0.658325 0.963348
0.570129 0.665588 0.968628
0.714691 0.674194 0.975006
0.843872 0.686676 0.981354
0.934113 0.707886 0.986450
0.995819 0.737061 0.990540
0.202271 0.805359 0.962219
0.235321 0.806152 0.962769
0.325867 0.808899 0.964752
0.447418 0.813263 0.968292
0.585175 0.818573 0.973267
0.727020 0.824341 0.979187
0.850159 0.832092 0.984985
0.935425 0.844666 0.989594
0.995300 0.860779 0.993347
0.241699 0.929413 0.966949
0.271057 0.929688 0.967468
0.355774 0.930573 0.969391
0.473358 0.931641 0.972809
0.607697 0.932251 0.977570
0.744263 0.932098 0.983185
0.859131 0.932800 0.988525
0.938782 0.936493 0.992737
0.996674 0.942749 0.996368
0.308838 1.000000 0.972107
0.332672 1.000000 0.972656
0.406281 1.000000 0.974518
0.514099 1.000000 0.977844
0.640411 1.000000 0.982422
0.767639 0.998383 0.987701
0.871399 0.996552 0.992584
0.944489 0.997192 0.996521
1.000000 1.000000 1.000000
