滤镜资源/Professional Luts Collection/Lutify.me Professional/Alternative Process/Anthracite.cube
# Created by: Lutify.me
# Copyright: (c) Copyright Lutify.me 2015
# Website: https://lutify.me
#LUT size
LUT_3D_SIZE 33
#LUT data points
0.000000 0.000000 0.000000
0.016296 0.008575 0.008301
0.030823 0.009064 0.008301
0.046570 0.012054 0.009094
0.062469 0.014740 0.012268
0.079834 0.018097 0.016266
0.098114 0.020905 0.019623
0.117676 0.022247 0.022644
0.139252 0.019958 0.025787
0.162872 0.011566 0.028961
0.188965 0.002686 0.032898
0.217957 0.000000 0.035950
0.250153 0.000000 0.039032
0.285187 0.000000 0.042572
0.322388 0.000000 0.046051
0.360962 0.000000 0.048920
0.400055 0.000000 0.051880
0.438843 0.000000 0.055084
0.476807 0.000000 0.058197
0.514679 0.000000 0.061127
0.553741 0.000000 0.063934
0.594055 0.000000 0.066742
0.635223 0.000000 0.069366
0.676910 0.000000 0.072083
0.718597 0.000000 0.074524
0.759796 0.000000 0.076843
0.799774 0.000000 0.079407
0.837677 0.000000 0.081879
0.872620 0.000000 0.084137
0.903809 0.000000 0.086700
0.930908 0.000000 0.089050
0.954681 0.000000 0.091919
0.975586 0.000000 0.094513
0.000000 0.014374 0.015594
0.014435 0.016357 0.008575
0.029907 0.018250 0.009003
0.046112 0.018494 0.011871
0.062744 0.022247 0.014252
0.079895 0.023895 0.017761
0.098145 0.025909 0.019867
0.117828 0.026367 0.023224
0.139404 0.025299 0.026154
0.163086 0.021057 0.029724
0.189148 0.005829 0.032623
0.218079 0.000000 0.036041
0.250275 0.000000 0.039459
0.285339 0.000000 0.042603
0.322571 0.000000 0.045776
0.361115 0.000000 0.049072
0.400208 0.000000 0.052338
0.438965 0.000000 0.055206
0.476898 0.000000 0.057983
0.514771 0.000000 0.061005
0.553833 0.000000 0.063873
0.594116 0.000000 0.066620
0.635315 0.000000 0.069336
0.676971 0.000000 0.072144
0.718689 0.000000 0.074554
0.759918 0.000000 0.076904
0.799835 0.000000 0.079376
0.837769 0.000000 0.081665
0.872681 0.000000 0.083923
0.903870 0.000000 0.086670
0.930939 0.000000 0.089050
0.954742 0.000000 0.091919
0.975647 0.000000 0.094513
0.011169 0.029846 0.009308
0.016388 0.030792 0.009277
0.031525 0.031647 0.009064
0.044098 0.033264 0.017761
0.061920 0.034790 0.018280
0.079559 0.036896 0.019684
0.098236 0.038269 0.021545
0.118073 0.038605 0.024658
0.139771 0.038391 0.027832
0.163452 0.035980 0.030792
0.189575 0.029510 0.033966
0.218628 0.008514 0.036926
0.250824 0.000305 0.040131
0.285828 0.000000 0.043335
0.322998 0.000000 0.046387
0.361542 0.000000 0.049316
0.400635 0.000000 0.052521
0.439362 0.000000 0.055542
0.477264 0.000000 0.058380
0.515106 0.000000 0.061371
0.554169 0.000000 0.064178
0.594452 0.000000 0.066864
0.635620 0.000000 0.069611
0.677277 0.000000 0.072174
0.718964 0.000000 0.074677
0.760193 0.000000 0.077057
0.800110 0.000000 0.079437
0.837982 0.000000 0.081848
0.872894 0.000000 0.084076
0.904053 0.000000 0.086517
0.931091 0.000000 0.089203
0.954834 0.000000 0.091705
0.975739 0.000000 0.094513
0.009644 0.046509 0.012024
0.021027 0.047058 0.012054
0.033234 0.047638 0.014252
0.048645 0.048645 0.014252
0.059509 0.048767 0.026672
0.077087 0.051483 0.027893
0.096466 0.053375 0.028107
0.117096 0.054382 0.029053
0.139465 0.054352 0.030731
0.163879 0.052887 0.032593
0.190369 0.049622 0.035065
0.219482 0.042664 0.037781
0.251709 0.023621 0.040833
0.286743 0.005890 0.043945
0.323883 0.000000 0.047394
0.362366 0.000000 0.050385
0.401398 0.000000 0.053162
0.440094 0.000000 0.056183
0.477936 0.000000 0.059052
0.515747 0.000000 0.061890
0.554779 0.000000 0.064545
0.595062 0.000000 0.067169
0.636200 0.000000 0.069824
0.677856 0.000000 0.072418
0.719513 0.000000 0.074829
0.760681 0.000000 0.077148
0.800598 0.000000 0.079407
0.838409 0.000000 0.081757
0.873260 0.000000 0.084076
0.904358 0.000000 0.086487
0.931396 0.000000 0.089020
0.955078 0.000000 0.091675
0.975983 0.000000 0.094513
0.015930 0.063416 0.014740
0.022522 0.063202 0.014709
0.035553 0.063904 0.016541
0.050140 0.064636 0.018311
0.065948 0.065735 0.019806
0.076385 0.065063 0.035645
0.092926 0.068298 0.039246
0.113312 0.070892 0.038635
0.136292 0.072266 0.039062
0.161682 0.072021 0.038818
0.189758 0.069916 0.038849
0.220306 0.065430 0.039642
0.252899 0.057831 0.042175
0.287933 0.042236 0.045105
0.325073 0.014008 0.048279
0.363525 0.000946 0.051300
0.402496 0.000000 0.054169
0.441101 0.000000 0.057098
0.478912 0.000000 0.059784
0.516693 0.000000 0.062469
0.555725 0.000000 0.065155
0.595978 0.000000 0.067749
0.637085 0.000000 0.070251
0.678680 0.000000 0.072693
0.720306 0.000000 0.074951
0.761444 0.000000 0.077301
0.801300 0.000000 0.079468
0.839050 0.000000 0.081726
0.873840 0.000000 0.084045
0.904846 0.000000 0.086487
0.931824 0.000000 0.088959
0.955444 0.000000 0.091461
0.976288 0.000000 0.094330
0.019684 0.080505 0.019409
0.024994 0.080719 0.018280
0.037048 0.081238 0.019653
0.051605 0.082062 0.021179
0.067383 0.083099 0.022614
0.084167 0.084381 0.025696
0.096100 0.083221 0.041809
0.111053 0.085815 0.049622
0.131531 0.089172 0.051544
0.156250 0.091583 0.051483
0.184753 0.091949 0.050507
0.217102 0.089661 0.048615
0.252625 0.083893 0.046570
0.289276 0.075531 0.047150
0.326721 0.063049 0.049408
0.365112 0.040131 0.052429
0.403992 0.015320 0.055176
0.442474 0.001770 0.057861
0.480164 0.000000 0.060547
0.517914 0.000000 0.063202
0.556915 0.000000 0.065796
0.597137 0.000000 0.068359
0.638214 0.000000 0.070648
0.679779 0.000000 0.072906
0.721375 0.000000 0.075226
0.762421 0.000000 0.077393
0.802216 0.000000 0.079559
0.839905 0.000000 0.081665
0.874603 0.000000 0.083954
0.905518 0.000000 0.086182
0.932373 0.000000 0.088531
0.955933 0.000000 0.091217
0.976715 0.000000 0.093872
0.022278 0.099304 0.022278
0.027039 0.099518 0.022278
0.038483 0.099976 0.022614
0.052643 0.100830 0.024597
0.069000 0.101837 0.025848
0.085724 0.103119 0.027832
0.103912 0.104523 0.029266
0.118042 0.103333 0.046539
0.132660 0.105225 0.058929
0.153015 0.109009 0.063904
0.179047 0.112274 0.064911
0.210297 0.113525 0.063690
0.246338 0.111816 0.060913
0.286072 0.106140 0.056610
0.327026 0.097198 0.053467
0.366852 0.086700 0.053833
0.405792 0.072662 0.056396
0.444183 0.054810 0.058838
0.481781 0.034515 0.061279
0.519440 0.015320 0.063904
0.558441 0.004272 0.066345
0.598633 0.000000 0.068726
0.639648 0.000000 0.070984
0.681152 0.000000 0.072998
0.722687 0.000000 0.075134
0.763641 0.000000 0.077332
0.803345 0.000000 0.079407
0.840912 0.000000 0.081421
0.875488 0.000000 0.083588
0.906311 0.000000 0.085754
0.933044 0.000946 0.088196
0.956543 0.014709 0.090729
0.977203 0.076538 0.093384
0.023743 0.119690 0.024689
0.028198 0.119781 0.024933
0.039703 0.120239 0.025818
0.054199 0.121094 0.026917
0.069824 0.122253 0.028137
0.087067 0.123566 0.029907
0.105377 0.125000 0.031677
0.125214 0.126801 0.033813
0.141937 0.125610 0.050781
0.157501 0.126740 0.066864
0.178040 0.130646 0.075378
0.205475 0.134552 0.078217
0.239044 0.136871 0.077667
0.277557 0.136353 0.074921
0.319550 0.132385 0.070251
0.363251 0.124756 0.064606
0.405884 0.115570 0.060791
0.445831 0.106659 0.060303
0.483643 0.098114 0.061920
0.521271 0.085815 0.064301
0.560211 0.075043 0.066681
0.600342 0.064270 0.068848
0.641327 0.052582 0.070862
0.682800 0.034302 0.072906
0.724243 0.016296 0.074951
0.765106 0.013275 0.076996
0.804688 0.012634 0.078918
0.842163 0.013214 0.080872
0.876587 0.018036 0.083008
0.907227 0.039948 0.085236
0.933838 0.074371 0.087708
0.957214 0.103546 0.090027
0.977814 0.144196 0.092865
0.023529 0.141937 0.026825
0.028229 0.142181 0.026123
0.039856 0.142578 0.027924
0.054749 0.143494 0.028809
0.070740 0.144623 0.029877
0.088196 0.146057 0.031036
0.106720 0.147675 0.033203
0.126862 0.149536 0.035370
0.148865 0.151489 0.037292
0.168365 0.150482 0.054504
0.185547 0.151001 0.074493
0.207001 0.154755 0.086700
0.235596 0.159393 0.091919
0.270508 0.162872 0.092712
0.309998 0.164062 0.090759
0.352356 0.162628 0.087006
0.395996 0.158539 0.081879
0.438995 0.153046 0.076599
0.480286 0.147430 0.072388
0.520905 0.141754 0.069183
0.561554 0.135925 0.067932
0.602264 0.130157 0.068726
0.643280 0.123718 0.070435
0.684662 0.115753 0.072449
0.726013 0.104370 0.074402
0.766815 0.100769 0.076233
0.806274 0.099792 0.078125
0.843567 0.101807 0.080048
0.877838 0.107941 0.082092
0.908295 0.124115 0.084290
0.934753 0.148529 0.086823
0.958038 0.171600 0.089172
0.978485 0.194916 0.092194
0.018463 0.166809 0.027374
0.024384 0.167023 0.026917
0.038544 0.167419 0.028076
0.053772 0.168365 0.029266
0.071014 0.169525 0.030212
0.088776 0.170990 0.031769
0.107758 0.172791 0.033875
0.128357 0.174744 0.035736
0.150574 0.176941 0.037842
0.175018 0.179138 0.040222
0.197723 0.178375 0.057892
0.217133 0.178284 0.081696
0.239838 0.181885 0.097778
0.268860 0.187103 0.106110
0.303864 0.191833 0.108917
0.342834 0.195038 0.108551
0.383911 0.196503 0.106506
0.425385 0.196594 0.103485
0.466522 0.195801 0.099945
0.508240 0.193939 0.095642
0.551392 0.190918 0.090851
0.595520 0.186920 0.085999
0.640198 0.182098 0.080750
0.684418 0.177368 0.076782
0.727173 0.173981 0.075378
0.768555 0.171844 0.075500
0.808014 0.171814 0.076935
0.845154 0.174408 0.078766
0.879211 0.180481 0.080872
0.909485 0.190613 0.083191
0.935760 0.204437 0.085754
0.958862 0.220673 0.088409
0.978363 0.239288 0.093597
0.005188 0.194489 0.025330
0.011444 0.194672 0.025818
0.033264 0.195160 0.026581
0.051453 0.195953 0.027466
0.069489 0.197266 0.029053
0.088562 0.198761 0.030273
0.108154 0.200684 0.032623
0.129303 0.202850 0.034515
0.152100 0.205261 0.036560
0.176971 0.207764 0.039124
0.204315 0.210205 0.041382
0.230560 0.209808 0.059937
0.252411 0.209198 0.088196
0.276215 0.212463 0.108215
0.304901 0.218048 0.120026
0.338654 0.223969 0.125641
0.375732 0.229065 0.127655
0.414154 0.233185 0.127869
0.452972 0.236603 0.127167
0.492950 0.239166 0.125671
0.535095 0.240540 0.122955
0.579102 0.240540 0.119171
0.624451 0.239136 0.114044
0.670410 0.236664 0.108032
0.715607 0.234406 0.102905
0.759674 0.232422 0.098450
0.801361 0.231873 0.095459
0.839996 0.233429 0.093750
0.874756 0.237793 0.093872
0.904297 0.246429 0.097412
0.928314 0.259369 0.104828
0.947571 0.275726 0.115387
0.962463 0.294769 0.128845
0.000000 0.225342 0.018250
0.002014 0.225555 0.019928
0.018982 0.225983 0.020172
0.045563 0.226898 0.021606
0.066345 0.228119 0.023285
0.086792 0.229828 0.025543
0.107635 0.231812 0.027985
0.129608 0.234131 0.030487
0.153168 0.236664 0.033081
0.178619 0.239410 0.035461
0.206512 0.242249 0.037994
0.237030 0.244995 0.040649
0.266724 0.244995 0.060852
0.290924 0.243866 0.093414
0.315430 0.246552 0.117188
0.343201 0.252106 0.132782
0.374725 0.258636 0.141785
0.408813 0.265137 0.146667
0.444397 0.271210 0.149353
0.481903 0.276672 0.150604
0.521881 0.281250 0.150543
0.563995 0.284790 0.149414
0.607666 0.287262 0.147278
0.652313 0.288757 0.144257
0.697266 0.289459 0.140503
0.741516 0.289764 0.136627
0.783142 0.290955 0.134399
0.821075 0.293945 0.134430
0.855011 0.298859 0.136047
0.883514 0.307037 0.140900
0.906219 0.318726 0.149628
0.923981 0.333374 0.161530
0.937408 0.350281 0.175903
0.000000 0.259430 0.005646
0.000000 0.259583 0.006378
0.004547 0.260101 0.006439
0.031342 0.260986 0.006958
0.059998 0.262238 0.007568
0.083191 0.263947 0.011810
0.105743 0.266052 0.014954
0.128937 0.268372 0.017365
0.153503 0.270996 0.023560
0.179810 0.273865 0.027863
0.208344 0.276855 0.030975
0.239471 0.279907 0.034546
0.273163 0.282837 0.037354
0.305664 0.283081 0.059937
0.331696 0.281494 0.096893
0.356659 0.283478 0.124390
0.383179 0.288513 0.143372
0.412018 0.295135 0.155853
0.443176 0.302307 0.164001
0.477112 0.309387 0.169281
0.514160 0.316010 0.172485
0.553741 0.321899 0.174011
0.595276 0.326935 0.174347
0.638123 0.331024 0.173584
0.681549 0.334351 0.172089
0.724426 0.337250 0.170502
0.764587 0.340698 0.170807
0.800415 0.345734 0.174286
0.832642 0.351990 0.178741
0.860016 0.360138 0.184814
0.882202 0.370605 0.193146
0.899994 0.383148 0.203400
0.913879 0.397552 0.215515
0.000000 0.296051 0.000000
0.000000 0.296204 0.000000
0.000000 0.296722 0.000000
0.008667 0.297546 0.000000
0.047729 0.298828 0.000000
0.076874 0.300507 0.001343
0.102264 0.302551 0.002960
0.127197 0.304901 0.004059
0.153015 0.307526 0.005890
0.180359 0.310425 0.008636
0.209869 0.313446 0.013519
0.241760 0.316559 0.018188
0.275879 0.319611 0.026093
0.311951 0.322571 0.030273
0.346344 0.323029 0.057037
0.373627 0.321136 0.098572
0.398651 0.322357 0.129333
0.423889 0.326599 0.151123
0.450714 0.332703 0.167053
0.480286 0.339783 0.178802
0.513336 0.347198 0.187042
0.549530 0.354401 0.192444
0.588226 0.360992 0.195709
0.628723 0.366943 0.197418
0.670258 0.372009 0.197937
0.711578 0.376556 0.197998
0.750427 0.381317 0.199707
0.784576 0.387451 0.204987
0.815216 0.394531 0.211029
0.841431 0.403015 0.218079
0.863007 0.413177 0.226532
0.880646 0.424896 0.236298
0.894867 0.437988 0.247253
0.000000 0.334381 0.000000
0.000000 0.334503 0.000000
0.000000 0.334961 0.000000
0.000000 0.335785 0.000000
0.023285 0.336975 0.000000
0.066956 0.338593 0.000000
0.096741 0.340576 0.000000
0.124268 0.342865 0.000000
0.151825 0.345428 0.000000
0.180481 0.348236 0.000000
0.210999 0.351227 0.000641
0.243744 0.354248 0.002777
0.278595 0.357269 0.005341
0.314941 0.360260 0.009521
0.352417 0.363098 0.015381
0.387787 0.363678 0.052521
0.415619 0.361664 0.098541
0.440369 0.362122 0.131897
0.464935 0.365356 0.156799
0.491119 0.370544 0.176392
0.520111 0.377075 0.191650
0.552185 0.384247 0.202850
0.587250 0.391479 0.210510
0.624725 0.398407 0.215546
0.663727 0.404755 0.218628
0.703094 0.410583 0.220612
0.740479 0.416534 0.223602
0.773102 0.423584 0.230194
0.802368 0.431458 0.237396
0.827454 0.440399 0.245209
0.848511 0.450500 0.253784
0.866180 0.461670 0.263031
0.880951 0.473755 0.272919
0.000000 0.373444 0.000000
0.000000 0.373596 0.000000
0.000000 0.373993 0.000000
0.000000 0.374786 0.000000
0.005432 0.375885 0.000000
0.050446 0.377411 0.000000
0.089325 0.379272 0.000000
0.120209 0.381409 0.000000
0.149872 0.383850 0.000000
0.180206 0.386505 0.000000
0.212036 0.389313 0.000000
0.245697 0.392273 0.000000
0.281128 0.395111 0.000000
0.317963 0.397949 0.000000
0.355652 0.400696 0.000214
0.393616 0.403412 0.003113
0.428864 0.403992 0.047394
0.456665 0.401855 0.097412
0.481567 0.401489 0.133942
0.506470 0.403564 0.162628
0.532837 0.407776 0.185608
0.561462 0.413635 0.203674
0.592621 0.420441 0.217346
0.626465 0.427704 0.227173
0.662323 0.434906 0.233978
0.699066 0.441895 0.238678
0.734680 0.448944 0.243286
0.766052 0.456757 0.250854
0.794159 0.465210 0.258789
0.818542 0.474396 0.266907
0.839386 0.484314 0.275238
0.857330 0.494934 0.283752
0.872864 0.506165 0.292358
0.000000 0.412323 0.000000
0.000000 0.412476 0.000000
0.000000 0.412842 0.000000
0.000000 0.413574 0.000000
0.000000 0.414612 0.000000
0.026703 0.415985 0.000000
0.079559 0.417694 0.000000
0.115356 0.419678 0.000000
0.147675 0.421906 0.000000
0.179779 0.424347 0.000000
0.212982 0.426971 0.000000
0.247742 0.429657 0.000000
0.283844 0.432373 0.000000
0.321045 0.434998 0.000000
0.358917 0.437622 0.000000
0.396973 0.440186 0.000000
0.434479 0.442780 0.000000
0.469025 0.443420 0.041046
0.497284 0.441223 0.096710
0.523163 0.440155 0.137360
0.548828 0.441437 0.169312
0.575470 0.445038 0.194855
0.603821 0.450500 0.215057
0.634186 0.457184 0.230804
0.666504 0.464600 0.242615
0.700043 0.472290 0.251343
0.733490 0.480103 0.258240
0.763916 0.488312 0.266357
0.791351 0.496948 0.274536
0.815369 0.506104 0.282471
0.836304 0.515747 0.290161
0.854767 0.525879 0.297607
0.871216 0.536346 0.304718
0.000000 0.450378 0.000000
0.000000 0.450500 0.000000
0.000000 0.450836 0.000000
0.000000 0.451508 0.000000
0.000000 0.452454 0.000000
0.008453 0.453735 0.000000
0.065735 0.455322 0.000000
0.110046 0.457153 0.000000
0.145416 0.459259 0.000000
0.179504 0.461548 0.000000
0.214142 0.463989 0.000000
0.249817 0.466553 0.000000
0.286682 0.469147 0.000000
0.324280 0.471710 0.000000
0.362274 0.474304 0.000000
0.400269 0.476929 0.000000
0.437744 0.479584 0.000000
0.474396 0.482330 0.000000
0.509125 0.483276 0.029510
0.538788 0.481018 0.095825
0.565887 0.479614 0.140991
0.592316 0.480530 0.175537
0.619202 0.483795 0.203186
0.647186 0.488983 0.225311
0.676514 0.495544 0.242889
0.706818 0.502991 0.256561
0.737610 0.510925 0.266846
0.767242 0.519196 0.275391
0.794373 0.527771 0.283356
0.818359 0.536713 0.290710
0.839630 0.546051 0.297455
0.858765 0.555664 0.303619
0.876160 0.565582 0.309143
0.000000 0.488312 0.000000
0.000000 0.488403 0.000000
0.000000 0.488739 0.000000
0.000000 0.489349 0.000000
0.000000 0.490295 0.000000
0.001312 0.491516 0.000000
0.052277 0.493011 0.000000
0.103821 0.494781 0.000000
0.142944 0.496826 0.000000
0.179169 0.499084 0.000000
0.215271 0.501526 0.000000
0.251984 0.504059 0.000000
0.289459 0.506622 0.000000
0.327454 0.509277 0.000000
0.365631 0.511963 0.000000
0.403595 0.514740 0.000000
0.440857 0.517548 0.000000
0.477478 0.520477 0.000000
0.514374 0.523468 0.000000
0.550537 0.524689 0.012573
0.581665 0.522430 0.094086
0.609802 0.520813 0.143585
0.636780 0.521393 0.180573
0.663696 0.524231 0.210175
0.691040 0.529022 0.233978
0.718903 0.535278 0.253052
0.747131 0.542603 0.267578
0.775818 0.550568 0.277252
0.802917 0.558899 0.284607
0.827057 0.567505 0.291138
0.848724 0.576447 0.296783
0.868408 0.585663 0.301666
0.886505 0.595123 0.305725
0.000000 0.527405 0.000000
0.000000 0.527496 0.000000
0.000000 0.527832 0.000000
0.000000 0.528442 0.000000
0.000000 0.529358 0.000000
0.000000 0.530548 0.000000
0.032227 0.532013 0.000000
0.095306 0.533783 0.000000
0.139587 0.535797 0.000000
0.178375 0.538025 0.000000
0.216125 0.540405 0.000000
0.253906 0.542938 0.000000
0.292023 0.545563 0.000000
0.330444 0.548248 0.000000
0.368805 0.550995 0.000000
0.406799 0.553833 0.000000
0.443909 0.556763 0.000000
0.480469 0.559784 0.000000
0.517487 0.562836 0.000000
0.555725 0.565887 0.000000
0.593292 0.567291 0.001984
0.625519 0.565063 0.092651
0.654449 0.563263 0.145111
0.681702 0.563477 0.184357
0.708313 0.565887 0.215485
0.734650 0.570251 0.240509
0.760925 0.576202 0.259949
0.788269 0.583405 0.272064
0.815460 0.591339 0.278717
0.839813 0.599518 0.284302
0.861786 0.608032 0.288940
0.881836 0.616852 0.292664
0.900330 0.625916 0.295502
0.000000 0.567810 0.000000
0.000000 0.567902 0.000000
0.000000 0.568207 0.000000
0.000000 0.568817 0.000000
0.000000 0.569702 0.000000
0.000000 0.570862 0.000000
0.013153 0.572296 0.000000
0.081757 0.574005 0.000000
0.135345 0.575958 0.000000
0.177124 0.578125 0.000000
0.216705 0.580475 0.000000
0.255615 0.582977 0.000000
0.294464 0.585571 0.000000
0.333282 0.588257 0.000000
0.371826 0.591003 0.000000
0.409821 0.593842 0.000000
0.446808 0.596802 0.000000
0.483398 0.599915 0.000000
0.520599 0.602966 0.000000
0.559021 0.606018 0.000000
0.598419 0.609039 0.000000
0.636841 0.610535 0.001770
0.669861 0.608368 0.090302
0.699188 0.606476 0.145691
0.726410 0.606384 0.186646
0.752319 0.608459 0.218719
0.777283 0.612427 0.244110
0.803009 0.618286 0.260315
0.830261 0.625641 0.266510
0.854767 0.633331 0.271240
0.876923 0.641388 0.274963
0.897156 0.649719 0.277771
0.915741 0.658325 0.279633
0.000000 0.609070 0.000000
0.000000 0.609161 0.000000
0.000000 0.609436 0.000000
0.000000 0.610016 0.000000
0.000000 0.610870 0.000000
0.000000 0.612030 0.000000
0.003815 0.613403 0.000000
0.070740 0.615051 0.000000
0.130432 0.616913 0.000000
0.175659 0.619049 0.000000
0.217163 0.621307 0.000000
0.257263 0.623749 0.000000
0.296814 0.626282 0.000000
0.335999 0.628906 0.000000
0.374725 0.631622 0.000000
0.412689 0.634430 0.000000
0.449615 0.637390 0.000000
0.486237 0.640411 0.000000
0.523712 0.643463 0.000000
0.562317 0.646484 0.000000
0.601837 0.649445 0.000000
0.641937 0.652374 0.000000
0.680817 0.653870 0.001495
0.714111 0.651825 0.087799
0.743378 0.649872 0.145355
0.770050 0.649628 0.187195
0.794739 0.651398 0.219452
0.818817 0.655334 0.241974
0.845703 0.661804 0.248810
0.870300 0.668884 0.252899
0.892517 0.676300 0.255951
0.912720 0.684052 0.258148
0.931274 0.692078 0.259430
0.000000 0.650757 0.000000
0.000000 0.650848 0.000000
0.000000 0.651154 0.000000
0.000000 0.651703 0.000000
0.000000 0.652496 0.000000
0.000000 0.653564 0.000000
0.000000 0.654907 0.000000
0.059570 0.656494 0.000000
0.124939 0.658264 0.000000
0.174194 0.660278 0.000000
0.217590 0.662476 0.000000
0.258850 0.664795 0.000000
0.299133 0.667267 0.000000
0.338684 0.669800 0.000000
0.377533 0.672424 0.000000
0.415436 0.675171 0.000000
0.452362 0.678009 0.000000
0.489136 0.680969 0.000000
0.526855 0.683899 0.000000
0.565674 0.686798 0.000000
0.605316 0.689636 0.000000
0.645477 0.692474 0.000000
0.685852 0.695221 0.000000
0.724609 0.696564 0.001251
0.757538 0.694611 0.085693
0.786133 0.692780 0.144226
0.811615 0.692444 0.185822
0.835022 0.694183 0.215729
0.860596 0.699188 0.226715
0.885101 0.705536 0.230377
0.907227 0.712189 0.233124
0.927307 0.719147 0.235016
0.945648 0.726440 0.236176
0.000000 0.692444 0.000000
0.000000 0.692535 0.000000
0.000000 0.692810 0.000000
0.000000 0.693329 0.000000
0.000000 0.694061 0.000000
0.000000 0.695068 0.000000
0.000000 0.696350 0.000000
0.048553 0.697815 0.000000
0.119171 0.699524 0.000000
0.173004 0.701416 0.000000
0.218262 0.703491 0.000000
0.260620 0.705658 0.000000
0.301514 0.708008 0.000000
0.341461 0.710419 0.000000
0.380402 0.712891 0.000000
0.418182 0.715515 0.000000
0.455109 0.718201 0.000000
0.492126 0.720917 0.000000
0.530151 0.723663 0.000000
0.569153 0.726379 0.000000
0.608917 0.729034 0.000000
0.649139 0.731567 0.000000
0.689545 0.734131 0.000000
0.729706 0.736603 0.000000
0.767487 0.737610 0.001129
0.799225 0.735718 0.085144
0.826385 0.734039 0.142944
0.850128 0.733826 0.182281
0.873932 0.736755 0.201263
0.898346 0.742157 0.205048
0.920258 0.747925 0.207886
0.940094 0.753937 0.209961
0.958069 0.760315 0.211456
0.000000 0.733368 0.000000
0.000000 0.733429 0.000000
0.000000 0.733704 0.000000
0.000000 0.734192 0.000000
0.000000 0.734863 0.000000
0.000000 0.735809 0.000000
0.000000 0.736969 0.000000
0.035126 0.738342 0.000000
0.113678 0.739929 0.000000
0.172668 0.741669 0.000000
0.219574 0.743561 0.000000
0.262848 0.745575 0.000000
0.304291 0.747711 0.000000
0.344452 0.749939 0.000000
0.383453 0.752258 0.000000
0.421143 0.754639 0.000000
0.458038 0.757080 0.000000
0.495331 0.759552 0.000000
0.533661 0.761993 0.000000
0.572937 0.764374 0.000000
0.612823 0.766693 0.000000
0.653046 0.768951 0.000000
0.693359 0.771118 0.000000
0.733459 0.773224 0.000000
0.772583 0.775299 0.000000
0.808380 0.775818 0.001282
0.838074 0.773987 0.087708
0.862976 0.772522 0.142609
0.885468 0.773163 0.173309
0.909454 0.777435 0.178680
0.931122 0.782135 0.182129
0.950623 0.787109 0.184906
0.968292 0.792328 0.187378
0.000000 0.772675 0.000000
0.000000 0.772766 0.000000
0.000000 0.773010 0.000000
0.000000 0.773438 0.000000
0.000000 0.774048 0.000000
0.000000 0.774902 0.000000
0.000000 0.775940 0.000000
0.023285 0.777191 0.000000
0.108673 0.778625 0.000000
0.174042 0.780182 0.000000
0.222076 0.781860 0.000000
0.265961 0.783691 0.000000
0.307709 0.785583 0.000000
0.347992 0.787537 0.000000
0.386902 0.789581 0.000000
0.424438 0.791687 0.000000
0.461426 0.793823 0.000000
0.499023 0.795929 0.000000
0.537628 0.798035 0.000000
0.577026 0.800049 0.000000
0.617035 0.801941 0.000000
0.657288 0.803772 0.000000
0.697571 0.805511 0.000000
0.737488 0.807068 0.000000
0.776398 0.808655 0.000000
0.813568 0.810272 0.000000
0.846375 0.810089 0.008301
0.873077 0.808319 0.096893
0.895386 0.807312 0.142181
0.918365 0.809937 0.153656
0.939789 0.813538 0.158234
0.958954 0.817413 0.162323
0.976288 0.821472 0.166046
0.000000 0.809479 0.000000
0.000000 0.809540 0.000000
0.000000 0.809753 0.000000
0.000000 0.810120 0.000000
0.000000 0.810669 0.000000
0.000000 0.811432 0.000000
0.000000 0.812347 0.000000
0.026886 0.813446 0.000000
0.110687 0.814667 0.000000
0.177765 0.816040 0.000000
0.226288 0.817505 0.000000
0.270416 0.819031 0.000000
0.312256 0.820679 0.000000
0.352386 0.822357 0.000000
0.391022 0.824066 0.000000
0.428375 0.825836 0.000000
0.465485 0.827576 0.000000
0.503326 0.829315 0.000000
0.542175 0.830933 0.000000
0.581726 0.832489 0.000000
0.621735 0.833923 0.000000
0.661987 0.835236 0.000000
0.702179 0.836395 0.000000
0.741913 0.837463 0.000000
0.780518 0.838440 0.000000
