滤镜资源/Professional Luts Collection/Lutify.me Professional/Alternative Process/Apatite.cube
# Created by: Lutify.me
# Copyright: (c) Copyright Lutify.me 2015
# Website: https://lutify.me
#LUT size
LUT_3D_SIZE 5
#LUT data points
0.000000 0.000000 0.000000
0.217102 0.000000 0.055481
0.415680 0.000000 0.152374
0.686310 0.000000 0.244293
0.964417 0.000000 0.299225
0.095367 0.144592 0.203674
0.194550 0.145874 0.217987
0.420898 0.131531 0.254181
0.689911 0.074768 0.292328
0.967590 0.006165 0.308075
0.000000 0.421051 0.308441
0.078339 0.422577 0.308258
0.420044 0.424255 0.307007
0.697021 0.423401 0.303131
0.975128 0.417694 0.296539
0.000000 0.707886 0.279175
0.000000 0.708496 0.278320
0.406982 0.710022 0.275696
0.699677 0.711548 0.270325
0.981293 0.711853 0.261414
0.000000 0.995636 0.209198
0.000000 0.996033 0.208069
0.370483 0.997009 0.204254
0.692871 0.998383 0.196747
0.982788 0.999481 0.184479
0.000000 0.000000 0.368439
0.132996 0.000000 0.368713
0.397888 0.000000 0.369781
0.683716 0.000000 0.370911
0.966339 0.000000 0.369568
0.000000 0.144135 0.371185
0.147308 0.145172 0.371429
0.414978 0.129242 0.371613
0.691254 0.072418 0.370728
0.970154 0.005280 0.367645
0.000000 0.421600 0.367065
0.091034 0.422882 0.366730
0.424744 0.424316 0.365448
0.700348 0.423370 0.362701
0.977692 0.417572 0.357880
0.000000 0.708099 0.344940
0.000000 0.708679 0.344421
0.412476 0.710175 0.342590
0.703033 0.711609 0.338989
0.983765 0.711884 0.333160
0.000000 0.995789 0.301575
0.000000 0.996155 0.300873
0.376221 0.997131 0.298676
0.695984 0.998444 0.294373
0.984955 0.999512 0.287445
0.000000 0.000000 0.515289
0.085999 0.000000 0.515625
0.408844 0.000000 0.516785
0.692596 0.000000 0.518097
0.973389 0.000000 0.518341
0.000000 0.144958 0.518005
0.129486 0.142944 0.518219
0.424988 0.122528 0.518646
0.699585 0.065765 0.518799
0.976959 0.002930 0.518036
0.000000 0.422852 0.518127
0.114716 0.423615 0.518005
0.434875 0.424500 0.517639
0.708282 0.423157 0.516724
0.984161 0.417023 0.515045
0.000000 0.708679 0.510223
0.004303 0.709259 0.510010
0.423950 0.710541 0.509369
0.710754 0.711823 0.507935
0.989777 0.711884 0.505585
0.000000 0.996155 0.492737
0.000000 0.996490 0.492462
0.389893 0.997437 0.491669
0.703552 0.998657 0.489990
0.990417 0.999634 0.487366
0.000000 0.000000 0.734863
0.007721 0.000000 0.735199
0.414795 0.000000 0.736206
0.700684 0.000000 0.737518
0.980988 0.000000 0.738495
0.000000 0.139160 0.737183
0.079254 0.133331 0.737396
0.429443 0.108032 0.737915
0.706970 0.051575 0.738556
0.984344 0.000000 0.738953
0.000000 0.423981 0.739288
0.103943 0.424316 0.739349
0.440033 0.424530 0.739410
0.715454 0.422424 0.739441
0.991150 0.415833 0.739288
0.000000 0.709595 0.738556
0.009766 0.710052 0.738525
0.432068 0.711090 0.738403
0.718140 0.712036 0.738068
0.996307 0.711853 0.737518
0.000000 0.996765 0.733887
0.000000 0.997070 0.733795
0.401733 0.997864 0.733582
0.711212 0.998962 0.733124
0.996429 0.999817 0.732330
0.000000 0.000000 0.995789
0.000000 0.000000 0.996033
0.404388 0.000000 0.996735
0.701752 0.000000 0.997742
0.985016 0.000000 0.998718
0.000000 0.119415 0.997437
0.000000 0.111511 0.997589
0.417847 0.080444 0.998016
0.707397 0.026123 0.998657
0.988220 0.000000 0.999329
0.000000 0.424377 0.999695
0.011719 0.424438 0.999786
0.430389 0.423859 0.999908
0.716095 0.420868 1.000000
0.994781 0.413666 1.000000
0.000000 0.710632 1.000000
0.000000 0.710938 1.000000
0.427063 0.711639 1.000000
0.719788 0.712189 1.000000
0.999878 0.711670 1.000000
0.000000 0.997498 1.000000
0.000000 0.997772 1.000000
0.402191 0.998444 1.000000
0.714325 0.999298 1.000000
1.000000 1.000000 0.999939
