滤镜资源/Professional Luts Collection/Lutify.me Professional/Alternative Process/Apatite.cube
# Created by: Lutify.me
# Copyright: (c) Copyright Lutify.me 2015
# Website: https://lutify.me
#LUT size
LUT_3D_SIZE 9
#LUT data points
0.000000 0.000000 0.000000
0.135651 0.000000 0.015564
0.217102 0.000000 0.055481
0.296265 0.000000 0.103027
0.415680 0.000000 0.152374
0.550049 0.000000 0.200897
0.686310 0.000000 0.244293
0.824402 0.000000 0.278412
0.964417 0.000000 0.299225
0.054321 0.066895 0.094177
0.145691 0.056732 0.102722
0.210419 0.049225 0.123535
0.296692 0.028259 0.154175
0.418213 0.000000 0.190613
0.551880 0.000000 0.228516
0.687561 0.000000 0.262726
0.825439 0.000000 0.288849
0.965363 0.000000 0.303467
0.095367 0.144592 0.203674
0.132446 0.144714 0.208191
0.194550 0.145874 0.217987
0.295013 0.143036 0.234222
0.420898 0.131531 0.254181
0.554321 0.109924 0.274872
0.689911 0.074768 0.292328
0.827759 0.038086 0.303558
0.967590 0.006165 0.308075
0.000000 0.275787 0.286407
0.007233 0.276886 0.287842
0.149780 0.278809 0.290863
0.284393 0.280090 0.295593
0.420654 0.279449 0.300934
0.556458 0.277008 0.305573
0.693115 0.272400 0.308258
0.831360 0.265045 0.308197
0.971130 0.254456 0.305481
0.000000 0.421051 0.308441
0.000000 0.421570 0.308380
0.078339 0.422577 0.308258
0.273499 0.423553 0.307892
0.420044 0.424255 0.307007
0.559082 0.424286 0.305450
0.697021 0.423401 0.303131
0.835541 0.421295 0.300171
0.975128 0.417694 0.296539
0.000000 0.564484 0.297333
0.000000 0.564789 0.297150
0.011353 0.565338 0.296722
0.259705 0.566162 0.295898
0.416565 0.567047 0.294586
0.559692 0.567719 0.292755
0.699493 0.568024 0.290344
0.838867 0.567688 0.287109
0.978668 0.566589 0.282959
0.000000 0.707886 0.279175
0.000000 0.708069 0.278931
0.000000 0.708496 0.278320
0.233063 0.709198 0.277313
0.406982 0.710022 0.275696
0.556610 0.710876 0.273407
0.699677 0.711548 0.270325
0.840729 0.711884 0.266388
0.981293 0.711853 0.261414
0.000000 0.851715 0.250610
0.000000 0.851837 0.250305
0.000000 0.852203 0.249603
0.188904 0.852753 0.248322
0.391602 0.853455 0.246368
0.549988 0.854248 0.243622
0.697449 0.854980 0.239990
0.840881 0.855591 0.235321
0.982727 0.855927 0.229523
0.000000 0.995636 0.209198
0.000000 0.995758 0.208832
0.000000 0.996033 0.208069
0.108673 0.996460 0.206512
0.370483 0.997009 0.204254
0.540100 0.997681 0.200989
0.692871 0.998383 0.196747
0.839325 0.998993 0.191284
0.982788 0.999481 0.184479
0.000000 0.000000 0.294098
0.025238 0.000000 0.295593
0.160339 0.000000 0.299683
0.263519 0.000000 0.306122
0.397949 0.000000 0.314087
0.540466 0.000000 0.321869
0.681580 0.000000 0.327606
0.822754 0.000000 0.330322
0.964417 0.000000 0.329773
0.000000 0.062531 0.304565
0.052094 0.053284 0.305786
0.157013 0.047272 0.309082
0.267853 0.024658 0.314209
0.403259 0.000000 0.320221
0.544159 0.000000 0.325775
0.684113 0.000000 0.329498
0.824493 0.000000 0.330536
0.965668 0.000000 0.329132
0.000732 0.144073 0.322449
0.053986 0.144409 0.323029
0.155914 0.145447 0.324585
0.276917 0.142365 0.326752
0.412537 0.130615 0.329010
0.550690 0.109070 0.330566
0.688843 0.074005 0.330841
0.827972 0.037262 0.329529
0.968292 0.005920 0.327087
0.000000 0.276062 0.331085
0.000000 0.277069 0.331085
0.135773 0.278839 0.331116
0.280151 0.280090 0.330963
0.419647 0.279388 0.330444
0.556702 0.276917 0.329407
0.693848 0.272308 0.327789
0.832214 0.264954 0.325562
0.971893 0.254303 0.322784
0.000000 0.421204 0.326233
0.000000 0.421722 0.326111
0.082184 0.422668 0.325806
0.275360 0.423615 0.325195
0.421509 0.424255 0.324249
0.560242 0.424286 0.322876
0.697998 0.423401 0.321014
0.836395 0.421265 0.318573
0.975830 0.417694 0.315369
0.000000 0.564606 0.316071
0.000000 0.564850 0.315918
0.015198 0.565399 0.315521
0.261841 0.566193 0.314789
0.417999 0.567078 0.313599
0.560791 0.567780 0.311890
0.700439 0.568054 0.309570
0.839691 0.567719 0.306549
0.979401 0.566589 0.302704
0.000000 0.707947 0.299164
0.000000 0.708130 0.298950
0.000000 0.708557 0.298431
0.235931 0.709229 0.297485
0.408661 0.710083 0.296021
0.557831 0.710907 0.293945
0.700684 0.711609 0.291229
0.841583 0.711945 0.287628
0.982056 0.711853 0.283173
0.000000 0.851776 0.273712
0.000000 0.851898 0.273468
0.000000 0.852234 0.272858
0.192810 0.852814 0.271729
0.393372 0.853516 0.270050
0.551178 0.854279 0.267700
0.698425 0.855011 0.264587
0.841705 0.855591 0.260620
0.983429 0.855957 0.255707
0.000000 0.995728 0.238953
0.000000 0.995789 0.238586
0.000000 0.996063 0.237946
0.112701 0.996490 0.236786
0.372131 0.997070 0.234894
0.541260 0.997711 0.232239
0.693817 0.998383 0.228790
0.840027 0.999023 0.224304
0.983398 0.999481 0.218628
0.000000 0.000000 0.368439
0.001892 0.000000 0.368500
0.132996 0.000000 0.368713
0.256378 0.000000 0.369110
0.397888 0.000000 0.369781
0.542053 0.000000 0.370514
0.683716 0.000000 0.370911
0.824890 0.000000 0.370636
0.966339 0.000000 0.369568
0.000000 0.055054 0.369141
0.010376 0.049805 0.369263
0.136688 0.044678 0.369568
0.263702 0.018982 0.370087
0.404236 0.000000 0.370667
0.546143 0.000000 0.371063
0.686371 0.000000 0.371063
0.826660 0.000000 0.370514
0.967560 0.000000 0.369110
0.000000 0.144135 0.371185
0.010773 0.144775 0.371277
0.147308 0.145172 0.371429
0.277069 0.141449 0.371582
0.414978 0.129242 0.371613
0.553253 0.107300 0.371368
0.691254 0.072418 0.370728
0.830078 0.035248 0.369537
0.970154 0.005280 0.367645
0.000000 0.276825 0.371216
0.000000 0.277679 0.371216
0.135956 0.279205 0.371094
0.283295 0.280151 0.370819
0.422729 0.279297 0.370300
0.559357 0.276764 0.369476
0.696228 0.272034 0.368256
0.834290 0.264618 0.366516
0.973785 0.253937 0.364227
0.000000 0.421600 0.367065
0.000000 0.422028 0.366943
0.091034 0.422882 0.366730
0.279755 0.423706 0.366241
0.424744 0.424316 0.365448
0.562927 0.424286 0.364288
0.700348 0.423370 0.362701
0.838470 0.421173 0.360596
0.977692 0.417572 0.357880
0.000000 0.564819 0.358521
0.000000 0.565063 0.358368
0.028351 0.565552 0.358032
0.267151 0.566345 0.357391
0.421539 0.567169 0.356415
0.563660 0.567841 0.355011
0.702820 0.568085 0.353149
0.841766 0.567719 0.350739
0.981232 0.566559 0.347717
0.000000 0.708099 0.344940
0.000000 0.708252 0.344818
0.000000 0.708679 0.344421
0.242493 0.709351 0.343689
0.412476 0.710175 0.342590
0.560699 0.710968 0.341034
0.703033 0.711609 0.338989
0.843567 0.711945 0.336426
0.983765 0.711884 0.333160
0.000000 0.851868 0.326294
0.000000 0.852020 0.326141
0.000000 0.852325 0.325684
0.201050 0.852905 0.324921
0.397247 0.853577 0.323730
0.553986 0.854370 0.322083
0.700623 0.855072 0.319885
0.843567 0.855621 0.317047
0.985016 0.855957 0.313599
0.000000 0.995789 0.301575
0.000000 0.995880 0.301361
0.000000 0.996155 0.300873
0.122620 0.996552 0.299988
0.376221 0.997131 0.298676
0.544006 0.997772 0.296814
0.695984 0.998444 0.294373
0.841858 0.999023 0.291229
0.984955 0.999512 0.287445
0.000000 0.000000 0.430573
0.000000 0.000000 0.430603
0.116333 0.000000 0.430847
0.258148 0.000000 0.431274
0.403198 0.000000 0.431915
0.546783 0.000000 0.432587
0.687866 0.000000 0.433014
0.828522 0.000000 0.433014
0.969543 0.000000 0.432434
0.000000 0.048737 0.431274
0.000000 0.047089 0.431396
0.124329 0.039551 0.431702
0.266418 0.009003 0.432159
0.409515 0.000000 0.432709
0.550781 0.000000 0.433105
0.690460 0.000000 0.433258
0.830231 0.000000 0.433044
0.970703 0.000000 0.432220
0.000000 0.144745 0.433167
0.000000 0.145172 0.433228
0.141418 0.144653 0.433380
0.280731 0.139679 0.433563
0.420013 0.126709 0.433655
0.557678 0.104248 0.433594
0.695160 0.069824 0.433258
0.833588 0.031799 0.432526
0.973236 0.004456 0.431396
0.000000 0.277863 0.433655
0.000000 0.278534 0.433624
0.137268 0.279724 0.433594
0.288422 0.280212 0.433411
0.427612 0.279083 0.433136
0.563629 0.276428 0.432648
0.700012 0.271637 0.431915
0.837708 0.264069 0.430817
0.976807 0.253265 0.429443
0.000000 0.422150 0.431213
0.000000 0.422546 0.431152
0.104797 0.423248 0.431030
0.286255 0.423950 0.430725
0.429749 0.424408 0.430237
0.567200 0.424286 0.429565
0.704041 0.423279 0.428589
0.841766 0.421021 0.427307
0.980621 0.417358 0.425629
0.000000 0.565155 0.425995
0.000000 0.565338 0.425934
0.050232 0.565826 0.425720
0.274719 0.566528 0.425354
0.426758 0.567322 0.424744
0.567841 0.567932 0.423889
0.706421 0.568146 0.422729
0.844910 0.567688 0.421234
0.984009 0.566498 0.419312
0.000000 0.708344 0.417511
0.000000 0.708527 0.417419
0.000000 0.708923 0.417175
0.251282 0.709564 0.416718
0.417847 0.710327 0.416046
0.564850 0.711090 0.415039
0.706512 0.711700 0.413696
0.846588 0.712006 0.411987
0.986420 0.711884 0.409851
0.000000 0.852081 0.405212
0.000000 0.852203 0.405121
0.000000 0.852539 0.404846
0.212646 0.853058 0.404327
0.403015 0.853729 0.403534
0.558197 0.854462 0.402435
0.704071 0.855164 0.400970
0.846497 0.855682 0.399109
0.987549 0.856018 0.396820
0.000000 0.995941 0.388885
0.000000 0.996063 0.388763
0.000000 0.996277 0.388428
0.144836 0.996704 0.387878
0.382568 0.997253 0.387054
0.548309 0.997864 0.385864
0.699341 0.998535 0.384277
0.844666 0.999115 0.382294
0.987366 0.999573 0.379883
0.000000 0.000000 0.515289
0.000000 0.000000 0.515381
0.085999 0.000000 0.515625
0.259155 0.000000 0.516113
0.408844 0.000000 0.516785
0.552032 0.000000 0.517517
0.692596 0.000000 0.518097
0.832764 0.000000 0.518402
0.973389 0.000000 0.518341
0.000000 0.044495 0.516113
0.000000 0.041626 0.516235
0.102570 0.027985 0.516541
0.268250 0.001404 0.516968
0.414917 0.000000 0.517548
0.555817 0.000000 0.518066
0.695068 0.000000 0.518463
0.834442 0.000000 0.518585
0.974518 0.000000 0.518311
0.000000 0.144958 0.518005
0.000000 0.144745 0.518097
0.129486 0.142944 0.518219
0.283600 0.136566 0.518463
0.424988 0.122528 0.518646
0.562469 0.099152 0.518829
0.699585 0.065765 0.518799
0.837646 0.026611 0.518585
0.976959 0.002930 0.518036
0.000000 0.279022 0.519043
0.000000 0.279480 0.519043
0.134766 0.280090 0.519043
0.292969 0.280060 0.519012
0.432404 0.278748 0.518921
0.568237 0.275848 0.518738
0.704315 0.270905 0.518372
0.841675 0.263123 0.517853
0.980438 0.252228 0.517120
0.000000 0.422852 0.518127
0.000000 0.423126 0.518097
0.114716 0.423615 0.518005
0.292206 0.424194 0.517883
0.434875 0.424500 0.517639
0.571838 0.424286 0.517303
0.708282 0.423157 0.516724
0.845673 0.420776 0.515991
0.984161 0.417023 0.515045
0.000000 0.565552 0.515289
0.000000 0.565735 0.515259
0.068024 0.566193 0.515137
0.282135 0.566833 0.514923
0.432220 0.567535 0.514587
0.572540 0.568054 0.514069
0.710663 0.568176 0.513367
0.848724 0.567657 0.512482
0.987457 0.566406 0.511322
0.000000 0.708679 0.510223
0.000000 0.708862 0.510162
0.004303 0.709259 0.510010
0.260773 0.709839 0.509766
0.423950 0.710541 0.509369
0.569794 0.711243 0.508759
0.710754 0.711823 0.507935
0.850311 0.712067 0.506897
0.989777 0.711884 0.505585
0.000000 0.852356 0.502747
0.000000 0.852478 0.502686
0.000000 0.852783 0.502502
0.225311 0.853271 0.502197
0.409760 0.853943 0.501740
0.563293 0.854614 0.501068
0.708252 0.855286 0.500153
0.850128 0.855804 0.499023
0.990753 0.856079 0.497650
0.000000 0.996155 0.492737
0.000000 0.996246 0.492676
0.000000 0.996490 0.492462
0.167145 0.996887 0.492126
0.389893 0.997437 0.491669
0.553528 0.998016 0.490967
0.703552 0.998657 0.489990
0.848206 0.999207 0.488831
0.990417 0.999634 0.487366
0.000000 0.000000 0.617981
0.000000 0.000000 0.618103
0.044312 0.000000 0.618378
0.258606 0.000000 0.618835
0.413300 0.000000 0.619446
0.556732 0.000000 0.620178
0.697205 0.000000 0.620819
0.837128 0.000000 0.621277
0.977417 0.000000 0.621521
0.000000 0.032684 0.618835
0.000000 0.026306 0.618958
0.069153 0.008148 0.619202
0.268524 0.000000 0.619629
0.419098 0.000000 0.620148
0.560364 0.000000 0.620697
0.699554 0.000000 0.621185
0.838715 0.000000 0.621521
0.978485 0.000000 0.621613
0.000000 0.143433 0.620575
0.000000 0.142548 0.620636
0.109161 0.139496 0.620789
0.284790 0.131439 0.621002
0.428711 0.116486 0.621307
0.566650 0.091827 0.621552
0.703857 0.059875 0.621735
0.841827 0.020233 0.621796
0.980896 0.000916 0.621704
0.000000 0.279907 0.621857
0.000000 0.280060 0.621887
0.127228 0.280182 0.621918
0.295227 0.279694 0.621948
0.436035 0.278076 0.621979
0.572296 0.274994 0.622009
0.708466 0.269775 0.621948
0.845703 0.261841 0.621826
0.984253 0.250793 0.621521
0.000000 0.423492 0.621948
0.000000 0.423645 0.621948
0.117523 0.424011 0.621948
0.295776 0.424377 0.621918
0.438843 0.424561 0.621826
0.575989 0.424164 0.621704
0.712433 0.422852 0.621490
0.849609 0.420410 0.621155
0.987885 0.416534 0.620728
0.000000 0.566071 0.620880
0.000000 0.566223 0.620850
0.076660 0.566620 0.620819
0.287262 0.567169 0.620728
0.436859 0.567780 0.620575
0.576904 0.568176 0.620361
0.714783 0.568146 0.620026
0.852631 0.567596 0.619568
0.991058 0.566284 0.618958
0.000000 0.709106 0.618378
0.000000 0.709290 0.618347
0.009186 0.709625 0.618286
0.268066 0.710175 0.618134
0.429230 0.710815 0.617920
0.574371 0.711426 0.617645
0.714905 0.711945 0.617218
0.854126 0.712097 0.616638
0.993256 0.711884 0.615936
0.000000 0.852692 0.614319
0.000000 0.852814 0.614288
0.000000 0.853119 0.614227
0.235626 0.853577 0.614044
0.415802 0.854156 0.613770
0.568176 0.854797 0.613434
0.712463 0.855438 0.612946
0.853912 0.855865 0.612305
0.994110 0.856171 0.611511
0.000000 0.996429 0.608673
0.000000 0.996521 0.608673
0.000000 0.996765 0.608582
0.183960 0.997131 0.608368
0.396881 0.997620 0.608093
0.558655 0.998199 0.607697
0.707794 0.998779 0.607178
0.851868 0.999298 0.606506
0.993591 0.999725 0.605682
0.000000 0.000000 0.734863
0.000000 0.000000 0.734955
0.007721 0.000000 0.735199
0.254761 0.000000 0.735626
0.414795 0.000000 0.736206
0.559631 0.000000 0.736877
0.700684 0.000000 0.737518
0.840759 0.000000 0.738037
0.980988 0.000000 0.738495
0.000000 0.008514 0.735626
0.000000 0.002563 0.735748
0.029968 0.000000 0.735992
0.265045 0.000000 0.736359
0.420227 0.000000 0.736816
0.563019 0.000000 0.737366
0.702881 0.000000 0.737885
0.842255 0.000000 0.738312
0.982025 0.000000 0.738647
0.000000 0.139160 0.737183
0.000000 0.137665 0.737244
0.079254 0.133331 0.737396
0.281403 0.123993 0.737610
0.429443 0.108032 0.737915
0.569031 0.081512 0.738220
0.706970 0.051575 0.738556
0.845215 0.012665 0.738800
0.984344 0.000000 0.738953
0.000000 0.280121 0.738586
0.000000 0.280090 0.738617
0.106995 0.279785 0.738678
0.292328 0.278961 0.738770
0.436707 0.277069 0.738892
0.574524 0.273682 0.739014
0.711487 0.268158 0.739136
0.849030 0.260010 0.739227
0.987610 0.248688 0.739258
0.000000 0.423981 0.739288
0.000000 0.424072 0.739319
0.103943 0.424316 0.739349
0.294281 0.424530 0.739380
0.440033 0.424530 0.739410
0.578400 0.423920 0.739441
0.715454 0.422424 0.739441
0.852875 0.419800 0.739410
0.991150 0.415833 0.739288
0.000000 0.566589 0.739349
0.000000 0.566742 0.739349
0.071167 0.567078 0.739349
0.287537 0.567535 0.739349
0.438782 0.567993 0.739319
0.579590 0.568268 0.739227
0.717865 0.568176 0.739166
0.855804 0.567444 0.739014
0.994232 0.566040 0.738800
0.000000 0.709595 0.738556
0.000000 0.709747 0.738556
0.009766 0.710052 0.738525
0.270447 0.710541 0.738464
0.432068 0.711090 0.738403
0.577454 0.711639 0.738281
0.718140 0.712036 0.738068
0.857330 0.712158 0.737854
0.996307 0.711853 0.737518
0.000000 0.853119 0.736725
0.000000 0.853210 0.736694
0.000000 0.853485 0.736664
0.240692 0.853912 0.736603
0.419647 0.854462 0.736481
0.571625 0.855042 0.736328
0.715820 0.855591 0.736084
0.857025 0.856018 0.735779
0.997070 0.856232 0.735352
0.000000 0.996765 0.733887
0.000000 0.996826 0.733856
0.000000 0.997070 0.733795
0.193481 0.997406 0.733734
0.401733 0.997864 0.733582
0.562531 0.998383 0.733398
0.711212 0.998962 0.733124
0.854980 0.999420 0.732758
0.996429 0.999817 0.732330
0.000000 0.000000 0.862122
0.000000 0.000000 0.862213
0.000000 0.000000 0.862427
0.243652 0.000000 0.862823
0.411865 0.000000 0.863312
0.559753 0.000000 0.863861
0.702209 0.000000 0.864471
0.843018 0.000000 0.865021
0.983551 0.000000 0.865479
0.000000 0.000000 0.862823
0.000000 0.000000 0.862885
0.003357 0.000000 0.863068
0.253937 0.000000 0.863403
0.417023 0.000000 0.863831
0.562927 0.000000 0.864319
0.704285 0.000000 0.864838
0.844391 0.000000 0.865326
0.984558 0.000000 0.865692
0.000000 0.131287 0.864166
0.000000 0.129272 0.864227
0.034119 0.123993 0.864319
0.270416 0.113800 0.864532
0.425873 0.096313 0.864838
0.568604 0.070007 0.865143
0.708191 0.040771 0.865479
0.847290 0.009277 0.865814
0.986786 0.000000 0.866119
0.000000 0.279510 0.865479
0.000000 0.279327 0.865509
0.066650 0.278839 0.865570
0.282043 0.277710 0.865723
0.433197 0.275574 0.865875
0.574097 0.271851 0.866058
0.712646 0.265961 0.866272
0.851044 0.257538 0.866486
0.989990 0.245972 0.866669
0.000000 0.424286 0.866516
0.000000 0.424347 0.866547
0.069000 0.424500 0.866608
0.285736 0.424530 0.866669
0.437256 0.424286 0.866730
0.578247 0.423462 0.866852
0.716675 0.421783 0.866943
0.854858 0.418976 0.867065
0.993469 0.414886 0.867126
0.000000 0.567108 0.867157
0.000000 0.567230 0.867157
0.043182 0.567474 0.867188
0.281036 0.567841 0.867218
0.436920 0.568146 0.867249
0.579895 0.568298 0.867310
0.719269 0.568024 0.867340
0.857849 0.567200 0.867340
0.996490 0.565704 0.867310
0.000000 0.710114 0.867249
0.000000 0.710236 0.867279
0.003876 0.710480 0.867279
0.266083 0.710907 0.867249
0.431335 0.711395 0.867249
0.578247 0.711853 0.867249
0.719727 0.712128 0.867218
0.859406 0.712128 0.867126
0.998535 0.711792 0.867035
0.000000 0.853546 0.866699
0.000000 0.853638 0.866730
0.000000 0.853882 0.866699
0.238678 0.854279 0.866699
0.420074 0.854767 0.866638
0.573029 0.855286 0.866577
0.717712 0.855743 0.866486
0.859161 0.856110 0.866364
0.999268 0.856232 0.866211
0.000000 0.997101 0.865479
0.000000 0.997192 0.865448
0.000000 0.997406 0.865417
0.194641 0.997711 0.865417
0.403320 0.998138 0.865326
0.564545 0.998657 0.865265
0.713379 0.999115 0.865112
0.857147 0.999573 0.864960
0.998596 0.999908 0.864716
0.000000 0.000000 0.995789
0.000000 0.000000 0.995850
0.000000 0.000000 0.996033
0.222717 0.000000 0.996338
0.404388 0.000000 0.996735
0.556946 0.000000 0.997223
0.701752 0.000000 0.997742
0.843842 0.000000 0.998260
0.985016 0.000000 0.998718
0.000000 0.000000 0.996338
0.000000 0.000000 0.996429
0.000000 0.000000 0.996552
0.233276 0.000000 0.996796
0.409302 0.000000 0.997192
0.559937 0.000000 0.997589
0.703674 0.000000 0.998047
0.845123 0.000000 0.998505
0.985992 0.000000 0.998901
0.000000 0.119415 0.997437
0.000000 0.117340 0.997498
0.000000 0.111511 0.997589
0.250580 0.100098 0.997772
0.417847 0.080444 0.998016
0.565338 0.058136 0.998352
0.707397 0.026123 0.998657
0.847900 0.005310 0.998993
0.988220 0.000000 0.999329
0.000000 0.278259 0.998657
0.000000 0.278015 0.998688
0.009155 0.277374 0.998749
0.263550 0.275970 0.998840
0.425446 0.273468 0.999023
0.570892 0.269409 0.999207
0.711884 0.263153 0.999420
0.851654 0.254364 0.999695
0.991364 0.242432 0.999908
0.000000 0.424377 0.999695
0.000000 0.424438 0.999725
0.011719 0.424438 0.999786
0.269623 0.424316 0.999847
0.430389 0.423859 0.999908
0.575439 0.422821 0.999969
0.716095 0.420868 1.000000
0.855499 0.417877 1.000000
0.994781 0.413666 1.000000
0.000000 0.567535 1.000000
0.000000 0.567627 1.000000
0.006256 0.567810 1.000000
0.267303 0.568054 1.000000
0.431274 0.568237 1.000000
0.577667 0.568237 1.000000
0.718994 0.567780 1.000000
0.858643 0.566833 1.000000
0.997864 0.565247 1.000000
0.000000 0.710632 1.000000
0.000000 0.710724 1.000000
0.000000 0.710938 1.000000
0.254822 0.711273 1.000000
0.427063 0.711639 1.000000
0.576752 0.712036 1.000000
0.719788 0.712189 1.000000
0.860352 0.712067 1.000000
0.999878 0.711670 1.000000
0.000000 0.854034 1.000000
0.000000 0.854095 1.000000
0.000000 0.854309 1.000000
0.229889 0.854645 1.000000
0.417297 0.855072 1.000000
0.572388 0.855530 1.000000
0.718231 0.855927 1.000000
0.860291 0.856171 1.000000
1.000000 0.856293 1.000000
0.000000 0.997498 1.000000
0.000000 0.997589 1.000000
0.000000 0.997772 1.000000
0.188477 0.998047 1.000000
0.402191 0.998444 1.000000
0.564789 0.998871 1.000000
0.714325 0.999298 1.000000
0.858582 0.999664 1.000000
1.000000 1.000000 0.999939
