滤镜资源/Professional Luts Collection/Lutify.me Professional/Alternative Process/Apatite.cube
# Created by: Lutify.me
# Copyright: (c) Copyright Lutify.me 2015
# Website: https://lutify.me
#LUT size
LUT_3D_SIZE 33
#LUT data points
0.000000 0.000000 0.000000
0.036896 0.000000 0.001953
0.071045 0.000000 0.005737
0.103912 0.000000 0.009827
0.135651 0.000000 0.015564
0.163605 0.000000 0.023376
0.185822 0.000000 0.033142
0.202759 0.000000 0.043396
0.217102 0.000000 0.055481
0.232117 0.000000 0.067566
0.250275 0.000000 0.078949
0.271790 0.000000 0.090881
0.296265 0.000000 0.103027
0.323273 0.000000 0.115143
0.352417 0.000000 0.127655
0.383362 0.000000 0.140137
0.415680 0.000000 0.152374
0.448914 0.000000 0.164795
0.482483 0.000000 0.177063
0.516235 0.000000 0.188995
0.550049 0.000000 0.200897
0.583984 0.000000 0.212372
0.618011 0.000000 0.223236
0.652100 0.000000 0.234009
0.686310 0.000000 0.244293
0.720642 0.000000 0.253723
0.755066 0.000000 0.262817
0.789673 0.000000 0.271057
0.824402 0.000000 0.278412
0.859283 0.000000 0.285095
0.894196 0.000000 0.290588
0.929230 0.000000 0.295380
0.964417 0.000000 0.299225
0.007690 0.015564 0.020142
0.044281 0.012848 0.022125
0.076172 0.009735 0.023773
0.107422 0.006256 0.029663
0.137482 0.001648 0.035797
0.164124 0.000214 0.043335
0.185150 0.000031 0.050873
0.201447 0.000000 0.060364
0.215729 0.000000 0.070465
0.231140 0.000000 0.080170
0.249603 0.000000 0.090942
0.271454 0.000000 0.101959
0.296173 0.000000 0.113342
0.323395 0.000000 0.124756
0.352722 0.000000 0.136200
0.383789 0.000000 0.147888
0.416107 0.000000 0.159637
0.449341 0.000000 0.171265
0.482910 0.000000 0.183105
0.516602 0.000000 0.194733
0.550415 0.000000 0.205872
0.584290 0.000000 0.216919
0.618225 0.000000 0.227814
0.652344 0.000000 0.238037
0.686584 0.000000 0.247742
0.720886 0.000000 0.256927
0.755310 0.000000 0.265411
0.789917 0.000000 0.273346
0.824585 0.000000 0.280518
0.859406 0.000000 0.286743
0.894348 0.000000 0.291992
0.929413 0.000000 0.296387
0.964600 0.000000 0.300201
0.017914 0.031097 0.040710
0.053284 0.028046 0.044464
0.082336 0.024963 0.045929
0.111786 0.021118 0.050934
0.139893 0.016571 0.056305
0.164734 0.012329 0.061218
0.184509 0.009644 0.068207
0.200043 0.008698 0.076324
0.214325 0.008301 0.084412
0.230133 0.007446 0.093658
0.249023 0.004700 0.103546
0.271179 0.001251 0.113647
0.296173 0.000061 0.124054
0.323608 0.000000 0.134552
0.353149 0.000000 0.145142
0.384277 0.000000 0.156281
0.416656 0.000000 0.167511
0.449860 0.000000 0.178589
0.483459 0.000000 0.189697
0.517090 0.000000 0.200775
0.550781 0.000000 0.211578
0.584625 0.000000 0.222137
0.618561 0.000000 0.232483
0.652618 0.000000 0.242249
0.686768 0.000000 0.251526
0.721100 0.000000 0.260345
0.755554 0.000000 0.268463
0.790131 0.000000 0.276001
0.824799 0.000000 0.282715
0.859589 0.000000 0.288513
0.894531 0.000000 0.293518
0.929596 0.000000 0.297577
0.964783 0.000000 0.300934
0.034027 0.049194 0.067413
0.065674 0.047089 0.068695
0.090790 0.043945 0.071442
0.116974 0.040649 0.074219
0.142853 0.036194 0.078125
0.165192 0.031921 0.083130
0.183228 0.029449 0.088959
0.198334 0.028107 0.095001
0.212555 0.027130 0.102600
0.228851 0.025299 0.110809
0.248444 0.021729 0.118988
0.271088 0.015717 0.128052
0.296387 0.007324 0.137482
0.324066 0.001556 0.147186
0.353729 0.000000 0.157288
0.384979 0.000000 0.167419
0.417358 0.000000 0.177795
0.450500 0.000000 0.188385
0.484009 0.000000 0.198761
0.517609 0.000000 0.208984
0.551270 0.000000 0.219116
0.585052 0.000000 0.228943
0.618958 0.000000 0.238525
0.652985 0.000000 0.247711
0.687164 0.000000 0.256439
0.721436 0.000000 0.264771
0.755829 0.000000 0.272491
0.790405 0.000000 0.279419
0.825073 0.000000 0.285431
0.859863 0.000000 0.290863
0.894806 0.000000 0.295319
0.929871 0.000000 0.299133
0.965057 0.000000 0.302094
0.054321 0.066895 0.094177
0.079468 0.065002 0.095306
0.100800 0.062988 0.097321
0.123657 0.059937 0.099640
0.145691 0.056732 0.102722
0.165161 0.053833 0.106934
0.181488 0.051910 0.112030
0.195831 0.050568 0.117188
0.210419 0.049225 0.123535
0.227417 0.047089 0.130585
0.247742 0.043152 0.137848
0.270905 0.037109 0.145691
0.296692 0.028259 0.154175
0.324646 0.016998 0.162842
0.354492 0.005493 0.172058
0.385803 0.000549 0.181335
0.418213 0.000000 0.190613
0.451294 0.000000 0.200256
0.484711 0.000000 0.209808
0.518250 0.000000 0.219208
0.551880 0.000000 0.228516
0.585571 0.000000 0.237549
0.619446 0.000000 0.246307
0.653442 0.000000 0.254761
0.687561 0.000000 0.262726
0.721802 0.000000 0.270264
0.756195 0.000000 0.277222
0.790802 0.000000 0.283478
0.825439 0.000000 0.288849
0.860229 0.000000 0.293671
0.895172 0.000000 0.297577
0.930237 0.000000 0.300873
0.965363 0.000000 0.303467
0.074036 0.083191 0.121857
0.093536 0.081451 0.122803
0.111176 0.079834 0.123871
0.129639 0.077881 0.126343
0.147827 0.075897 0.129120
0.164154 0.074127 0.132538
0.178986 0.072754 0.136108
0.192841 0.071899 0.141022
0.207947 0.070801 0.146423
0.225952 0.068939 0.152283
0.246948 0.065887 0.158875
0.270691 0.061218 0.165771
0.296844 0.054840 0.173157
0.325134 0.045868 0.180786
0.355194 0.034027 0.188721
0.386658 0.019867 0.197083
0.419098 0.007416 0.205353
0.452179 0.001068 0.213776
0.485504 0.000000 0.222473
0.518951 0.000000 0.230957
0.552490 0.000000 0.239227
0.586151 0.000000 0.247406
0.619995 0.000000 0.255371
0.653992 0.000000 0.262878
0.688080 0.000000 0.270020
0.722321 0.000000 0.276642
0.756683 0.000000 0.282562
0.791260 0.000000 0.287964
0.825897 0.000000 0.292694
0.860718 0.000000 0.296661
0.895630 0.000000 0.300079
0.930695 0.000000 0.302704
0.965790 0.000000 0.304901
0.090302 0.099731 0.149719
0.105194 0.098694 0.150696
0.118317 0.097656 0.151978
0.133118 0.096497 0.153442
0.147705 0.095398 0.155823
0.161560 0.094543 0.158844
0.174896 0.094055 0.161713
0.188812 0.093658 0.165802
0.204895 0.093048 0.170441
0.223907 0.091736 0.175323
0.245758 0.089630 0.180878
0.270172 0.086761 0.186920
0.296783 0.082733 0.193329
0.325378 0.077332 0.200073
0.355682 0.070251 0.207062
0.387299 0.060944 0.214142
0.419861 0.049255 0.221466
0.452942 0.035583 0.228790
0.486237 0.022186 0.236298
0.519653 0.009888 0.243805
0.553162 0.002777 0.251007
0.586792 0.000702 0.258148
0.620605 0.000000 0.265106
0.654541 0.000000 0.271606
0.688660 0.000000 0.277679
0.722900 0.000000 0.283325
0.757263 0.000000 0.288361
0.791809 0.000000 0.292725
0.826447 0.000000 0.296600
0.861237 0.000000 0.299835
0.896118 0.000000 0.302521
0.931213 0.000000 0.304657
0.966278 0.000000 0.306274
0.098663 0.119659 0.177216
0.109711 0.119171 0.177948
0.119415 0.118744 0.179108
0.131195 0.118256 0.180481
0.143158 0.118073 0.182129
0.155457 0.117950 0.184662
0.168396 0.117981 0.187592
0.183228 0.118073 0.190582
0.200592 0.117828 0.194550
0.220795 0.117310 0.198883
0.243683 0.116150 0.203583
0.268921 0.114410 0.208466
0.296265 0.112000 0.213837
0.325348 0.108826 0.219574
0.355957 0.104584 0.225525
0.387787 0.099243 0.231720
0.420471 0.092712 0.237946
0.453583 0.084808 0.244324
0.486877 0.075317 0.250610
0.520264 0.064514 0.256958
0.553772 0.053162 0.263184
0.587433 0.042389 0.269165
0.621216 0.030334 0.274902
0.655151 0.017914 0.280304
0.689240 0.008453 0.285309
0.723480 0.004639 0.289795
0.757874 0.001770 0.293823
0.792419 0.000000 0.297302
0.827057 0.000000 0.300354
0.861847 0.000000 0.302826
0.896729 0.000000 0.304840
0.931793 0.000000 0.306305
0.966888 0.000000 0.307343
0.095367 0.144592 0.203674
0.103790 0.144531 0.204620
0.111725 0.144379 0.205261
0.121368 0.144531 0.206665
0.132446 0.144714 0.208191
0.144653 0.145081 0.209778
0.158661 0.145416 0.212311
0.175171 0.145721 0.215149
0.194550 0.145874 0.217987
0.216278 0.145691 0.221588
0.240540 0.145294 0.225555
0.266846 0.144409 0.229858
0.295013 0.143036 0.234222
0.324768 0.141144 0.238892
0.355896 0.138611 0.243805
0.388062 0.135376 0.248993
0.420898 0.131531 0.254181
0.454041 0.127075 0.259399
0.487396 0.122009 0.264709
0.520813 0.116333 0.269867
0.554321 0.109924 0.274872
0.588013 0.102600 0.279694
0.621857 0.094116 0.284271
0.655823 0.084595 0.288483
0.689911 0.074768 0.292328
0.724182 0.066864 0.295776
0.758606 0.058228 0.298767
0.793121 0.048645 0.301392
0.827759 0.038086 0.303558
0.862549 0.025726 0.305298
0.897430 0.013733 0.306641
0.932465 0.009888 0.307526
0.967590 0.006165 0.308075
0.076202 0.173859 0.228851
0.084320 0.173920 0.229431
0.092468 0.174103 0.230103
0.102325 0.174347 0.231110
0.114258 0.174744 0.232391
0.128632 0.175201 0.233917
0.145294 0.175720 0.235718
0.164581 0.176178 0.237854
0.186401 0.176453 0.240448
0.210297 0.176666 0.243195
0.236176 0.176636 0.246246
0.263855 0.176239 0.249725
0.293060 0.175598 0.253387
0.323669 0.174530 0.257263
0.355377 0.173096 0.261169
0.387970 0.171143 0.265228
0.421082 0.168793 0.269348
0.454346 0.166229 0.273499
0.487762 0.163269 0.277588
0.521301 0.160004 0.281616
0.554871 0.156403 0.285461
0.588623 0.152496 0.289062
0.622467 0.148254 0.292450
0.656525 0.143494 0.295563
0.690643 0.138336 0.298340
0.724915 0.132721 0.300812
0.759308 0.126404 0.302917
0.793884 0.119263 0.304718
0.828522 0.111084 0.306091
0.863342 0.101562 0.307190
0.898224 0.091461 0.307861
0.933228 0.084045 0.308228
0.968353 0.075958 0.308319
0.033752 0.206055 0.251556
0.043091 0.206238 0.251923
0.054138 0.206482 0.252502
0.069214 0.206787 0.253265
0.086823 0.207184 0.254242
0.106384 0.207703 0.255463
0.127808 0.208221 0.256958
0.151093 0.208740 0.258514
0.176147 0.209167 0.260529
0.202728 0.209473 0.262726
0.230652 0.209747 0.265259
0.260071 0.209747 0.267670
0.290527 0.209473 0.270508
0.322083 0.208984 0.273468
0.354614 0.208191 0.276489
0.387695 0.207092 0.279572
0.421051 0.205811 0.282623
0.454559 0.204224 0.285614
0.488068 0.202545 0.288635
0.521729 0.200592 0.291473
0.555389 0.198486 0.294250
0.589203 0.196136 0.296814
0.623138 0.193604 0.299164
0.657227 0.190857 0.301270
0.691406 0.187805 0.303131
0.725708 0.184479 0.304718
0.760132 0.180908 0.306000
0.794708 0.176910 0.307068
0.829376 0.172485 0.307831
0.864197 0.167664 0.308258
0.899078 0.162354 0.308411
0.934113 0.156433 0.308289
0.969238 0.149811 0.307922
0.006042 0.240204 0.271057
0.009216 0.240509 0.271332
0.013062 0.240692 0.271759
0.020111 0.241058 0.272308
0.042542 0.241425 0.273010
0.075226 0.241913 0.273895
0.105255 0.242371 0.274933
0.134491 0.242920 0.276215
0.163849 0.243378 0.277618
0.193787 0.243805 0.279205
0.224274 0.244171 0.280914
0.255585 0.244354 0.282837
0.287598 0.244415 0.284698
0.320251 0.244232 0.286804
0.353516 0.243896 0.288971
0.387207 0.243347 0.291077
0.420898 0.242615 0.293182
0.454590 0.241821 0.295258
0.488342 0.240753 0.297272
0.522095 0.239655 0.299164
0.555908 0.238403 0.300964
0.589813 0.236938 0.302612
0.623840 0.235321 0.304077
0.657990 0.233582 0.305359
0.692200 0.231598 0.306458
0.726562 0.229370 0.307312
0.761017 0.226990 0.307922
0.795624 0.224274 0.308319
0.830322 0.221252 0.308533
0.865143 0.218079 0.308441
0.900055 0.214447 0.308136
0.935059 0.210693 0.307678
0.970154 0.206482 0.307007
0.000000 0.275787 0.286407
0.000000 0.276062 0.286713
0.000000 0.276245 0.286896
0.000793 0.276550 0.287323
0.007233 0.276886 0.287842
0.028625 0.277283 0.288361
0.075439 0.277771 0.289093
0.114563 0.278259 0.289948
0.149780 0.278809 0.290863
0.183746 0.279205 0.291962
0.217255 0.279602 0.293060
0.250763 0.279877 0.294312
0.284393 0.280090 0.295593
0.318268 0.280090 0.296844
0.352448 0.279999 0.298187
0.386597 0.279785 0.299561
0.420654 0.279449 0.300934
0.454620 0.279022 0.302185
0.488556 0.278473 0.303406
0.522491 0.277771 0.304535
0.556458 0.277008 0.305573
0.590515 0.276062 0.306458
0.624603 0.274994 0.307220
0.658813 0.273804 0.307831
0.693115 0.272400 0.308258
0.727509 0.270844 0.308533
0.761993 0.269135 0.308594
0.796631 0.267212 0.308472
0.831360 0.265045 0.308197
0.866150 0.262756 0.307739
0.901062 0.260193 0.307129
0.936035 0.257416 0.306366
0.971130 0.254456 0.305481
0.000000 0.312103 0.297394
0.000000 0.312317 0.297577
0.000000 0.312469 0.297699
0.000000 0.312744 0.297974
0.000000 0.313049 0.298279
0.003876 0.313416 0.298645
0.031921 0.313843 0.299042
0.090302 0.314270 0.299591
0.134277 0.314697 0.300171
0.173187 0.315186 0.300781
0.209991 0.315552 0.301483
0.245819 0.315857 0.302155
0.281219 0.316101 0.302887
0.316376 0.316254 0.303650
0.351349 0.316223 0.304352
0.386078 0.316162 0.305115
0.420471 0.316071 0.305817
0.454712 0.315857 0.306519
0.488861 0.315552 0.307098
0.522980 0.315155 0.307648
0.557098 0.314667 0.308044
0.591248 0.314056 0.308350
0.625458 0.313324 0.308563
0.659729 0.312469 0.308655
0.694092 0.311462 0.308594
0.728516 0.310333 0.308380
0.763062 0.309082 0.308014
0.797699 0.307709 0.307587
0.832428 0.306122 0.306976
0.867218 0.304382 0.306274
0.902100 0.302490 0.305450
0.937103 0.300354 0.304535
0.972137 0.298187 0.303558
0.000000 0.348633 0.304352
0.000000 0.348755 0.304413
0.000000 0.348907 0.304535
0.000000 0.349121 0.304657
0.000000 0.349396 0.304810
0.000000 0.349701 0.304993
0.005768 0.350067 0.305237
0.059021 0.350464 0.305481
0.117401 0.350830 0.305817
0.162598 0.351135 0.306122
0.203064 0.351562 0.306427
0.241333 0.351837 0.306763
0.278351 0.352081 0.307068
0.314636 0.352234 0.307404
0.350372 0.352356 0.307709
0.385590 0.352356 0.308014
0.420349 0.352356 0.308258
0.454834 0.352295 0.308441
0.489227 0.352142 0.308563
0.523529 0.351929 0.308624
0.557770 0.351624 0.308624
0.592041 0.351227 0.308502
0.626343 0.350739 0.308289
0.660706 0.350189 0.308014
0.695099 0.349487 0.307617
0.729553 0.348663 0.307098
0.764130 0.347717 0.306488
0.798798 0.346649 0.305847
0.833496 0.345490 0.305084
0.868286 0.344147 0.304230
0.903168 0.342712 0.303284
0.938141 0.341125 0.302399
0.973145 0.339447 0.301422
0.000000 0.384979 0.307861
0.000000 0.385071 0.307800
0.000000 0.385193 0.307892
0.000000 0.385376 0.307922
0.000000 0.385590 0.307983
0.000000 0.385864 0.308044
0.000000 0.386108 0.308136
0.028290 0.386444 0.308228
0.099060 0.386780 0.308289
0.152161 0.387085 0.308411
0.196625 0.387360 0.308472
0.237244 0.387665 0.308533
0.275879 0.387878 0.308594
0.313141 0.388092 0.308624
0.349518 0.388184 0.308594
0.385101 0.388336 0.308563
0.420258 0.388367 0.308472
0.455048 0.388428 0.308350
0.489594 0.388367 0.308167
0.524048 0.388306 0.307892
0.558441 0.388123 0.307587
0.592804 0.387909 0.307190
0.627228 0.387573 0.306763
0.661652 0.387207 0.306244
0.696106 0.386719 0.305664
0.730591 0.386139 0.305023
0.765167 0.385468 0.304291
0.799835 0.384674 0.303528
0.834534 0.383789 0.302734
0.869324 0.382751 0.301880
0.904205 0.381683 0.300964
0.939148 0.380463 0.300079
0.974152 0.379120 0.299103
0.000000 0.421051 0.308441
0.000000 0.421143 0.308380
0.000000 0.421265 0.308380
0.000000 0.421387 0.308411
0.000000 0.421570 0.308380
0.000000 0.421814 0.308350
0.000000 0.422058 0.308350
0.009674 0.422272 0.308350
0.078339 0.422577 0.308258
0.141937 0.422852 0.308197
0.190582 0.423096 0.308136
0.233521 0.423340 0.308014
0.273499 0.423553 0.307892
0.311615 0.423737 0.307709
0.348633 0.423950 0.307556
0.384644 0.424072 0.307251
0.420044 0.424255 0.307007
0.455139 0.424286 0.306671
0.489960 0.424347 0.306335
0.524567 0.424316 0.305878
0.559082 0.424286 0.305450
0.593567 0.424194 0.304932
0.628021 0.424011 0.304352
0.662537 0.423767 0.303772
0.697021 0.423401 0.303131
0.731567 0.423035 0.302460
0.766144 0.422546 0.301727
0.800842 0.421967 0.300934
0.835541 0.421295 0.300171
0.870331 0.420563 0.299316
0.905182 0.419708 0.298431
0.940125 0.418762 0.297516
0.975128 0.417694 0.296539
0.000000 0.457001 0.306915
0.000000 0.457092 0.306885
0.000000 0.457214 0.306824
0.000000 0.457306 0.306824
0.000000 0.457458 0.306763
0.000000 0.457642 0.306671
0.000000 0.457855 0.306610
0.001740 0.458038 0.306519
0.060913 0.458282 0.306427
0.131409 0.458527 0.306244
0.184570 0.458740 0.306122
0.229736 0.458984 0.305878
0.270996 0.459198 0.305664
0.309906 0.459412 0.305389
0.347443 0.459595 0.305115
0.383972 0.459808 0.304810
0.419739 0.459961 0.304443
0.455048 0.460114 0.304077
0.490082 0.460175 0.303650
0.524902 0.460236 0.303192
0.559570 0.460266 0.302673
0.594147 0.460236 0.302155
0.628723 0.460175 0.301575
0.663269 0.460022 0.300964
0.697815 0.459839 0.300354
0.732422 0.459564 0.299652
0.767059 0.459229 0.298920
0.801758 0.458801 0.298157
0.836487 0.458313 0.297394
0.871307 0.457764 0.296539
0.906158 0.457123 0.295624
0.941101 0.456390 0.294708
0.976074 0.455566 0.293701
0.000000 0.492920 0.304138
0.000000 0.492981 0.304138
0.000000 0.493042 0.304077
0.000000 0.493134 0.304016
0.000000 0.493256 0.303955
0.000000 0.493408 0.303864
0.000000 0.493591 0.303802
0.000000 0.493774 0.303680
0.044250 0.493958 0.303497
0.119965 0.494171 0.303345
0.178101 0.494385 0.303162
0.225403 0.494629 0.302948
0.268005 0.494812 0.302673
0.307770 0.495056 0.302429
0.345886 0.495270 0.302094
0.382904 0.495483 0.301788
0.419067 0.495667 0.301392
0.454712 0.495819 0.301025
0.489990 0.495972 0.300598
0.524994 0.496094 0.300110
0.559814 0.496155 0.299683
0.594543 0.496216 0.299133
0.629242 0.496185 0.298553
0.663910 0.496124 0.297943
0.698517 0.496033 0.297302
0.733154 0.495880 0.296631
0.767883 0.495636 0.295898
0.802612 0.495361 0.295135
0.837372 0.494995 0.294281
0.872162 0.494568 0.293457
0.907074 0.494080 0.292542
0.942017 0.493530 0.291565
0.976959 0.492920 0.290558
0.000000 0.528717 0.300812
0.000000 0.528778 0.300842
0.000000 0.528839 0.300781
0.000000 0.528900 0.300720
0.000000 0.529022 0.300629
0.000000 0.529144 0.300598
0.000000 0.529297 0.300507
0.000000 0.529480 0.300385
0.025757 0.529633 0.300232
0.105743 0.529846 0.300079
0.170532 0.530029 0.299866
0.220306 0.530243 0.299652
0.264221 0.530457 0.299408
0.305023 0.530701 0.299133
0.343811 0.530914 0.298859
0.381378 0.531158 0.298492
0.417999 0.531342 0.298126
0.454010 0.531525 0.297729
0.489594 0.531677 0.297333
0.524841 0.531830 0.296875
0.559875 0.531982 0.296356
0.594757 0.532074 0.295868
0.629578 0.532104 0.295258
0.664368 0.532104 0.294647
0.699066 0.532043 0.294006
0.733795 0.532013 0.293304
0.768555 0.531860 0.292572
0.803345 0.531677 0.291779
0.838165 0.531464 0.290924
0.872986 0.531128 0.290039
0.907928 0.530762 0.289093
0.942871 0.530334 0.288055
0.977814 0.529877 0.287018
0.000000 0.564484 0.297333
0.000000 0.564575 0.297302
0.000000 0.564636 0.297272
0.000000 0.564697 0.297211
0.000000 0.564789 0.297150
0.000000 0.564880 0.297089
0.000000 0.565033 0.296967
0.000000 0.565186 0.296844
0.011353 0.565338 0.296722
0.088470 0.565521 0.296570
0.161194 0.565704 0.296356
0.214081 0.565918 0.296112
0.259705 0.566162 0.295898
0.301575 0.566376 0.295593
0.341248 0.566589 0.295319
0.379425 0.566803 0.294952
0.416565 0.567047 0.294586
0.452942 0.567200 0.294189
0.488831 0.567444 0.293793
0.524353 0.567596 0.293274
0.559692 0.567719 0.292755
0.594757 0.567871 0.292236
0.629761 0.567963 0.291626
0.664642 0.567993 0.291016
0.699493 0.568024 0.290344
0.734283 0.567993 0.289612
0.769135 0.567963 0.288818
0.803986 0.567871 0.287994
0.838867 0.567688 0.287109
0.873779 0.567505 0.286163
0.908691 0.567261 0.285187
0.943665 0.566956 0.284088
0.978668 0.566589 0.282959
0.000000 0.600311 0.293488
0.000000 0.600372 0.293488
0.000000 0.600403 0.293427
0.000000 0.600464 0.293396
0.000000 0.600555 0.293365
0.000000 0.600647 0.293274
0.000000 0.600769 0.293121
0.000000 0.600891 0.293030
0.003510 0.601074 0.292877
0.072662 0.601227 0.292725
0.149933 0.601440 0.292480
0.206696 0.601624 0.292236
0.254333 0.601868 0.291992
0.297546 0.602081 0.291718
0.338135 0.602295 0.291382
0.377045 0.602509 0.291077
0.414734 0.602753 0.290649
0.451599 0.602936 0.290253
0.487854 0.603149 0.289795
0.523682 0.603333 0.289337
0.559204 0.603516 0.288727
0.594574 0.603638 0.288208
0.629730 0.603760 0.287598
0.664795 0.603882 0.286896
0.699738 0.603943 0.286163
0.734680 0.603973 0.285400
0.769592 0.603943 0.284576
0.804535 0.603943 0.283691
0.839478 0.603851 0.282806
0.874420 0.603729 0.281769
0.909363 0.603546 0.280731
0.944397 0.603333 0.279633
0.979431 0.603088 0.278442
0.000000 0.636139 0.289246
0.000000 0.636169 0.289246
0.000000 0.636230 0.289185
0.000000 0.636292 0.289185
0.000000 0.636353 0.289093
0.000000 0.636444 0.289001
0.000000 0.636566 0.288879
0.000000 0.636688 0.288757
0.000000 0.636841 0.288605
0.053925 0.636993 0.288422
0.135925 0.637207 0.288208
0.198059 0.637390 0.287994
0.248169 0.637604 0.287720
0.292877 0.637817 0.287415
0.334534 0.638031 0.287048
0.374207 0.638245 0.286682
0.412506 0.638489 0.286285
0.449890 0.638672 0.285828
0.486603 0.638885 0.285370
0.522766 0.639099 0.284790
0.558563 0.639313 0.284241
0.594177 0.639404 0.283600
0.629517 0.639587 0.282990
0.664764 0.639709 0.282288
0.699890 0.639801 0.281525
0.734924 0.639893 0.280670
0.769928 0.639923 0.279816
0.804962 0.639923 0.278900
0.839966 0.639923 0.277924
0.875031 0.639862 0.276855
0.910004 0.639740 0.275787
0.945068 0.639618 0.274536
0.980133 0.639435 0.273376
0.000000 0.671997 0.284515
0.000000 0.672058 0.284485
0.000000 0.672089 0.284454
0.000000 0.672119 0.284393
0.000000 0.672211 0.284332
0.000000 0.672302 0.284210
0.000000 0.672424 0.284088
0.000000 0.672546 0.283936
0.000000 0.672668 0.283783
0.032745 0.672821 0.283569
0.118195 0.673004 0.283325
0.188019 0.673218 0.283112
0.241119 0.673401 0.282806
0.287567 0.673584 0.282501
0.330414 0.673828 0.282135
0.370941 0.674042 0.281738
0.409943 0.674255 0.281311
0.447906 0.674469 0.280792
0.485077 0.674652 0.280304
0.521606 0.674866 0.279755
0.557678 0.675110 0.279114
0.593536 0.675293 0.278503
0.629150 0.675415 0.277771
0.664551 0.675568 0.277008
0.699829 0.675720 0.276245
0.735046 0.675781 0.275360
0.770172 0.675873 0.274445
0.805298 0.675934 0.273468
0.840393 0.675934 0.272461
0.875519 0.675934 0.271332
0.910553 0.675903 0.270203
0.945679 0.675781 0.268951
0.980743 0.675690 0.267670
0.000000 0.707886 0.279175
0.000000 0.707947 0.279083
0.000000 0.707947 0.279053
0.000000 0.708008 0.278992
0.000000 0.708069 0.278931
0.000000 0.708160 0.278809
0.000000 0.708282 0.278656
0.000000 0.708374 0.278503
0.000000 0.708496 0.278320
0.013855 0.708649 0.278137
0.096527 0.708832 0.277893
0.176453 0.709015 0.277618
0.233063 0.709198 0.277313
0.281525 0.709412 0.276947
0.325745 0.709595 0.276550
0.367310 0.709808 0.276154
0.406982 0.710022 0.275696
0.445496 0.710266 0.275208
0.483154 0.710480 0.274628
0.520142 0.710663 0.274048
0.556610 0.710876 0.273407
0.592682 0.711060 0.272705
0.628540 0.711273 0.272003
0.664185 0.711426 0.271149
0.699677 0.711548 0.270325
0.735046 0.711670 0.269470
0.770264 0.711792 0.268463
0.805542 0.711853 0.267487
0.840729 0.711884 0.266388
0.875854 0.711945 0.265259
0.911011 0.711914 0.264038
0.946167 0.711914 0.262756
0.981293 0.711853 0.261414
0.000000 0.743805 0.273041
0.000000 0.743835 0.273041
0.000000 0.743866 0.272980
0.000000 0.743927 0.272949
0.000000 0.743958 0.272888
0.000000 0.744049 0.272736
0.000000 0.744141 0.272583
0.000000 0.744263 0.272430
0.000000 0.744385 0.272217
0.004974 0.744537 0.272003
0.078552 0.744690 0.271759
0.162720 0.744843 0.271484
0.224030 0.745026 0.271149
0.274841 0.745239 0.270782
0.320526 0.745422 0.270355
0.363190 0.745636 0.269897
0.403748 0.745850 0.269440
0.442871 0.746063 0.268921
0.481018 0.746277 0.268311
0.518402 0.746490 0.267639
0.555237 0.746704 0.266998
0.591675 0.746887 0.266296
0.627777 0.747070 0.265503
0.663666 0.747253 0.264648
0.699341 0.747406 0.263763
0.734863 0.747528 0.262848
0.770264 0.747650 0.261871
0.805634 0.747772 0.260803
0.840942 0.747833 0.259644
0.876160 0.747894 0.258484
0.911346 0.747925 0.257233
0.946625 0.747955 0.255890
0.981750 0.747955 0.254547
0.000000 0.779755 0.266266
0.000000 0.779755 0.266266
0.000000 0.779816 0.266205
0.000000 0.779846 0.266174
0.000000 0.779877 0.266113
0.000000 0.779968 0.265961
0.000000 0.780060 0.265778
0.000000 0.780151 0.265625
0.000000 0.780304 0.265381
0.000000 0.780426 0.265198
0.057434 0.780579 0.264893
0.146088 0.780731 0.264587
0.213837 0.780914 0.264252
0.267395 0.781097 0.263885
0.314789 0.781281 0.263458
0.358612 0.781494 0.263000
0.400055 0.781708 0.262482
0.439911 0.781891 0.261963
0.478668 0.782104 0.261322
0.516541 0.782288 0.260651
0.553772 0.782501 0.259949
0.590485 0.782715 0.259216
0.626892 0.782898 0.258392
0.662964 0.783081 0.257538
0.698853 0.783234 0.256561
