滤镜资源/Professional Luts Collection/Lutify.me Professional/Alternative Process/Aragonite.cube
# Created by: Lutify.me
# Copyright: (c) Copyright Lutify.me 2015
# Website: https://lutify.me
#LUT size
LUT_3D_SIZE 9
#LUT data points
0.000000 0.000000 0.000000
0.142426 0.000000 0.000000
0.281433 0.000000 0.000000
0.425446 0.000000 0.000000
0.573547 0.000000 0.000000
0.720093 0.000000 0.000000
0.861237 0.000000 0.000000
0.988037 0.000000 0.000000
1.000000 0.000000 0.000000
0.049591 0.108093 0.000000
0.159485 0.103729 0.000000
0.290771 0.091461 0.000000
0.432098 0.060150 0.000000
0.578278 0.002716 0.000000
0.723389 0.000000 0.000000
0.863281 0.000000 0.000000
0.988770 0.000000 0.000000
1.000000 0.000000 0.000000
0.121613 0.223572 0.000000
0.196381 0.221741 0.000000
0.312897 0.216492 0.000000
0.447754 0.205658 0.000000
0.589325 0.187408 0.000000
0.730865 0.160767 0.000000
0.867737 0.126160 0.000000
0.990051 0.096008 0.000000
1.000000 0.105927 0.000000
0.186432 0.348663 0.000000
0.242706 0.347809 0.000000
0.344604 0.345398 0.000000
0.470093 0.340759 0.000000
0.604675 0.333679 0.000000
0.740875 0.324982 0.000000
0.872894 0.316895 0.000000
0.990509 0.315247 0.000000
1.000000 0.325653 0.000000
0.238983 0.488586 0.000000
0.285583 0.488190 0.000000
0.375977 0.487213 0.000000
0.492126 0.485382 0.000000
0.619385 0.482941 0.000000
0.749634 0.480286 0.000000
0.875458 0.479248 0.000000
0.987762 0.482819 0.000000
1.000000 0.493347 0.000000
0.278503 0.638153 0.000000
0.318909 0.638000 0.000000
0.400635 0.637573 0.000000
0.509125 0.636871 0.000000
0.630096 0.635986 0.000000
0.754059 0.635376 0.000000
0.872772 0.636322 0.000000
0.980255 0.640350 0.000000
1.000000 0.648438 0.000000
0.321594 0.782043 0.000000
0.356232 0.781830 0.000000
0.428986 0.781281 0.000000
0.528961 0.780365 0.000000
0.642242 0.779144 0.000000
0.758057 0.778168 0.000000
0.868561 0.778198 0.000000
0.970398 0.780060 0.000000
1.000000 0.784393 0.000000
0.394653 0.904205 0.000000
0.421539 0.903870 0.000000
0.480896 0.903137 0.000000
0.566437 0.901825 0.000000
0.665894 0.900208 0.000000
0.769012 0.898651 0.000000
0.869568 0.897614 0.000000
0.963898 0.897736 0.000000
1.000000 0.899353 0.000000
0.486206 1.000000 0.000000
0.505554 1.000000 0.000000
0.550293 1.000000 0.000000
0.617645 1.000000 0.000000
0.699615 1.000000 0.000000
0.787903 0.999847 0.000000
0.876709 0.998718 0.000000
0.962219 0.998352 0.000000
1.000000 0.998993 0.000000
0.031250 0.000000 0.091370
0.153168 0.000000 0.090790
0.287140 0.000000 0.089264
0.429321 0.000000 0.086182
0.576294 0.000000 0.081360
0.722107 0.000000 0.073761
0.862671 0.000000 0.062836
0.988831 0.000000 0.047241
1.000000 0.000000 0.025970
0.072662 0.107056 0.088440
0.169403 0.102753 0.087799
0.296326 0.090240 0.085968
0.435883 0.057922 0.082977
0.580994 0.001648 0.077606
0.725403 0.000000 0.069458
0.864716 0.000000 0.057312
0.989563 0.000000 0.039337
1.000000 0.000000 0.017120
0.134491 0.223114 0.079285
0.204865 0.221100 0.078522
0.318146 0.215942 0.076416
0.451508 0.204987 0.072357
0.591949 0.186737 0.065582
0.732819 0.160095 0.054718
0.869080 0.125580 0.038147
0.990784 0.095795 0.016602
1.000000 0.106720 0.001007
0.195374 0.348511 0.052216
0.249725 0.347565 0.050751
0.349609 0.345154 0.047119
0.473602 0.340485 0.039795
0.607208 0.333466 0.027954
0.742737 0.324768 0.012787
0.874176 0.316833 0.001862
0.991150 0.315399 0.000000
1.000000 0.325836 0.000000
0.246429 0.488525 0.000366
0.291718 0.488129 0.000214
0.380432 0.487122 0.000000
0.495361 0.485321 0.000000
0.621796 0.482849 0.000000
0.751343 0.480255 0.000000
0.876556 0.479279 0.000000
0.988342 0.482971 0.000000
1.000000 0.493561 0.000000
0.284821 0.638123 0.000000
0.324249 0.637970 0.000000
0.404724 0.637543 0.000000
0.512115 0.636841 0.000000
0.632263 0.635986 0.000000
0.755585 0.635437 0.000000
0.873718 0.636414 0.000000
0.980713 0.640472 0.000000
1.000000 0.648590 0.000000
0.326630 0.782013 0.000000
0.360626 0.781799 0.000000
0.432495 0.781219 0.000000
0.531525 0.780304 0.000000
0.644073 0.779144 0.000000
0.759277 0.778168 0.000000
0.869324 0.778198 0.000000
0.970734 0.780121 0.000000
1.000000 0.784515 0.000000
0.398102 0.904114 0.000000
0.424652 0.903809 0.000000
0.483459 0.903046 0.000000
0.568359 0.901764 0.000000
0.667206 0.900146 0.000000
0.769806 0.898621 0.000000
0.869995 0.897614 0.000000
0.964050 0.897766 0.000000
1.000000 0.899414 0.000000
0.487976 1.000000 0.000000
0.507355 1.000000 0.000000
0.551727 1.000000 0.000000
0.618774 1.000000 0.000000
0.700256 1.000000 0.000000
0.788269 0.999817 0.000000
0.876831 0.998688 0.000000
0.962067 0.998352 0.000000
1.000000 0.999023 0.000000
0.090271 0.000000 0.192871
0.178162 0.000000 0.192535
0.300873 0.000000 0.191864
0.438934 0.000000 0.190460
0.583252 0.000000 0.188324
0.727142 0.000000 0.185333
0.866241 0.000000 0.181152
0.990753 0.000000 0.175995
1.000000 0.000000 0.169556
0.115295 0.104340 0.191528
0.192596 0.099670 0.191162
0.309937 0.086334 0.190460
0.445404 0.052124 0.189056
0.587860 0.000824 0.186859
0.730377 0.000000 0.183655
0.868225 0.000000 0.179321
0.991425 0.000000 0.173737
1.000000 0.000000 0.166870
0.162811 0.221863 0.187653
0.224365 0.219879 0.187378
0.331146 0.214539 0.186462
0.460663 0.203430 0.184906
0.598572 0.184998 0.182312
0.737640 0.158264 0.178650
0.872437 0.123993 0.173523
0.992554 0.095734 0.167053
1.000000 0.108154 0.158936
0.216522 0.347992 0.177979
0.266541 0.347046 0.177521
0.361542 0.344543 0.176331
0.482178 0.339844 0.174255
0.613434 0.332855 0.170868
0.747253 0.324280 0.165985
0.877258 0.316620 0.159454
0.992737 0.315643 0.151093
1.000000 0.326599 0.140839
0.263702 0.488312 0.154816
0.306305 0.487885 0.154236
0.391296 0.486877 0.152557
0.503235 0.485107 0.149506
0.627502 0.482697 0.144806
0.755432 0.480194 0.138000
0.879242 0.479401 0.128937
0.989655 0.483307 0.117279
1.000000 0.494141 0.102356
0.299255 0.638062 0.103729
0.336670 0.637909 0.102692
0.414215 0.637482 0.100006
0.519104 0.636780 0.094879
0.637299 0.635956 0.086761
0.759064 0.635468 0.075073
0.875793 0.636566 0.061371
0.981720 0.640747 0.047180
1.000000 0.648956 0.031555
0.338104 0.781891 0.016998
0.370789 0.781677 0.016144
0.440491 0.781128 0.013855
0.537445 0.780212 0.011169
0.648254 0.779053 0.008301
0.761932 0.778137 0.005829
0.870789 0.778290 0.003448
0.971344 0.780273 0.001648
1.000000 0.784729 0.000000
0.405823 0.903931 0.000000
0.431610 0.903625 0.000000
0.489136 0.902863 0.000000
0.572571 0.901611 0.000000
0.670013 0.900024 0.000000
0.771454 0.898529 0.000000
0.870728 0.897614 0.000000
0.964081 0.897797 0.000000
1.000000 0.899475 0.000000
0.492126 1.000000 0.000000
0.511108 1.000000 0.000000
0.554657 1.000000 0.000000
0.620880 1.000000 0.000000
0.701538 1.000000 0.000000
0.788788 0.999725 0.000000
0.876678 0.998657 0.000000
0.961456 0.998352 0.000305
1.000000 0.999054 0.002777
0.146301 0.000000 0.302551
0.212646 0.000000 0.302460
0.322723 0.000000 0.302185
0.454315 0.000000 0.301666
0.594299 0.000000 0.300903
0.735168 0.000000 0.299774
0.871765 0.000000 0.298309
0.993561 0.000000 0.296539
1.000000 0.000000 0.294464
0.163727 0.098938 0.302185
0.225037 0.094055 0.302124
0.331177 0.079010 0.301849
0.460510 0.039948 0.301331
0.598755 0.000183 0.300507
0.738251 0.000000 0.299316
0.873627 0.000000 0.297729
0.994141 0.000000 0.295837
1.000000 0.000000 0.293549
0.200317 0.219574 0.301147
0.253082 0.217499 0.301056
0.351318 0.211823 0.300781
0.475037 0.200348 0.300140
0.608978 0.181732 0.299133
0.745148 0.154999 0.297760
0.877502 0.121185 0.295868
0.995026 0.095551 0.293549
1.000000 0.110809 0.290833
0.246368 0.346924 0.298035
0.291260 0.345978 0.297821
0.379883 0.343384 0.297363
0.495300 0.338745 0.296509
0.622955 0.331787 0.295227
0.754120 0.323486 0.293365
0.881683 0.316315 0.290985
0.994843 0.316162 0.288086
1.000000 0.327759 0.284882
0.288513 0.487915 0.289581
0.327484 0.487518 0.289337
0.407349 0.486511 0.288727
0.514862 0.484741 0.287689
0.636017 0.482391 0.286041
0.761444 0.480042 0.283722
0.882874 0.479584 0.280853
0.991180 0.483917 0.277466
1.000000 0.495117 0.273773
0.319550 0.637939 0.273804
0.354492 0.637756 0.273529
0.428040 0.637360 0.272827
0.529266 0.636688 0.271637
0.644592 0.635895 0.269806
0.763885 0.635559 0.267426
0.878418 0.636871 0.264557
0.982635 0.641235 0.261444
1.000000 0.649658 0.258301
0.354034 0.781647 0.254425
0.384979 0.781433 0.254211
0.451691 0.780914 0.253693
0.545685 0.780029 0.252838
0.653931 0.778931 0.251587
0.765289 0.778137 0.250092
0.872314 0.778381 0.248535
0.971436 0.780518 0.247101
1.000000 0.785095 0.246155
0.416199 0.903564 0.244873
0.441132 0.903259 0.244812
0.496887 0.902496 0.244720
0.578064 0.901306 0.244568
0.673401 0.899811 0.244385
0.773071 0.898376 0.244446
0.870941 0.897583 0.244843
0.963196 0.897858 0.245880
1.000000 0.899628 0.247711
0.496979 1.000000 0.255951
0.515442 1.000000 0.256104
0.558197 1.000000 0.256317
0.623047 1.000000 0.256805
0.702423 1.000000 0.257690
0.788544 0.999603 0.259033
0.875427 0.998566 0.260986
0.959534 0.998352 0.263733
1.000000 0.999146 0.267303
0.190247 0.000000 0.433441
0.245209 0.000000 0.433472
0.345856 0.000000 0.433472
0.471313 0.000000 0.433502
0.606537 0.000000 0.433533
0.743835 0.000000 0.433533
0.877289 0.000000 0.433502
0.995789 0.000000 0.433533
1.000000 0.000000 0.433594
0.204163 0.089386 0.433777
0.256256 0.083679 0.433807
0.353973 0.065521 0.433807
0.477142 0.021729 0.433807
0.610718 0.000000 0.433777
0.746735 0.000000 0.433746
0.878967 0.000000 0.433685
0.996246 0.000000 0.433594
1.000000 0.000000 0.433533
0.235168 0.215790 0.434448
0.281799 0.213501 0.434448
0.372864 0.207397 0.434418
0.490723 0.195557 0.434357
0.620239 0.176697 0.434265
0.753082 0.149872 0.434082
0.882355 0.116760 0.433807
0.996796 0.095428 0.433472
1.000000 0.115082 0.433167
0.275940 0.345184 0.434723
0.316620 0.344208 0.434692
0.399200 0.341553 0.434601
0.509521 0.336884 0.434418
0.633209 0.330139 0.434082
0.761200 0.322174 0.433624
0.885681 0.315857 0.433044
0.996033 0.316833 0.432434
1.000000 0.329651 0.431793
0.313019 0.487274 0.433014
0.348877 0.486877 0.432953
0.424042 0.485840 0.432739
0.527191 0.484161 0.432434
0.644836 0.481934 0.431915
0.767212 0.479889 0.431244
0.885651 0.479919 0.430420
0.991608 0.484863 0.429504
1.000000 0.496582 0.428680
0.339691 0.637695 0.428314
0.372192 0.637543 0.428223
0.442017 0.637146 0.427979
0.539551 0.636505 0.427612
0.651642 0.635834 0.427094
0.768005 0.635681 0.426392
0.879791 0.637299 0.425659
0.982086 0.641998 0.425049
1.000000 0.650665 0.424622
0.369385 0.781281 0.423492
0.398682 0.781067 0.423462
0.462616 0.780579 0.423370
0.553528 0.779724 0.423218
0.658752 0.778717 0.423065
0.767365 0.778076 0.422913
0.872101 0.778564 0.422974
0.969513 0.780914 0.423309
1.000000 0.785614 0.424011
0.425568 0.903015 0.425690
0.449493 0.902710 0.425720
0.503418 0.902008 0.425842
0.582306 0.900848 0.426056
0.675171 0.899475 0.426453
0.772766 0.898193 0.427094
0.868958 0.897522 0.428101
0.959930 0.897980 0.429565
1.000000 0.899811 0.431671
0.499634 1.000000 0.439209
0.517670 1.000000 0.439331
0.559418 1.000000 0.439606
0.622955 1.000000 0.440125
0.700897 1.000000 0.440979
0.785736 0.999329 0.442169
0.871521 0.998444 0.443848
0.954803 0.998352 0.446106
1.000000 0.999207 0.448975
0.218475 0.000000 0.585297
0.268677 0.000000 0.585327
0.364044 0.000000 0.585480
0.484863 0.000000 0.585754
0.616211 0.000000 0.586151
0.750244 0.000000 0.586670
0.880341 0.000000 0.587311
0.995575 0.000000 0.588135
1.000000 0.000000 0.589111
0.231262 0.072876 0.585876
0.279297 0.065216 0.585938
0.371796 0.041748 0.586090
0.490387 0.003601 0.586334
0.620148 0.000000 0.586700
0.752899 0.000000 0.587158
0.881775 0.000000 0.587769
0.995850 0.000000 0.588501
1.000000 0.000000 0.589417
0.260071 0.209747 0.587280
0.303314 0.207275 0.587341
0.389648 0.200806 0.587433
0.503052 0.188660 0.587646
0.628967 0.169464 0.587952
0.758636 0.142670 0.588287
0.884521 0.110718 0.588745
0.996002 0.095703 0.589294
1.000000 0.120972 0.590057
0.297485 0.342621 0.589111
0.335449 0.341553 0.589111
0.413940 0.338928 0.589172
0.520294 0.334320 0.589264
0.640717 0.327820 0.589417
0.765656 0.320404 0.589569
0.886810 0.315369 0.589813
0.994537 0.317963 0.590149
1.000000 0.332245 0.590607
0.330627 0.486298 0.590271
0.364410 0.485901 0.590271
0.436279 0.484924 0.590271
0.536102 0.483276 0.590271
0.650726 0.481293 0.590240
0.770111 0.479645 0.590240
0.885315 0.480438 0.590271
0.989136 0.486206 0.590424
1.000000 0.498627 0.590698
0.353333 0.637329 0.590179
0.384369 0.637177 0.590179
0.451508 0.636810 0.590149
0.546173 0.636230 0.590118
0.655518 0.635712 0.590057
0.768799 0.635864 0.590057
0.877716 0.637878 0.590088
0.978058 0.643036 0.590363
1.000000 0.652008 0.590851
0.379059 0.780762 0.590637
0.407257 0.780579 0.590668
0.469055 0.780090 0.590698
0.557465 0.779297 0.590790
0.659943 0.778473 0.590942
0.765686 0.778046 0.591248
0.868134 0.778839 0.591736
0.963806 0.781403 0.592499
1.000000 0.786377 0.593658
0.429810 0.902252 0.595825
0.453094 0.901978 0.595886
0.505463 0.901306 0.596039
0.582245 0.900269 0.596313
0.672882 0.899017 0.596741
0.768524 0.897919 0.597473
0.863098 0.897461 0.598480
0.952759 0.898071 0.599884
1.000000 0.900116 0.601654
0.497498 1.000000 0.607788
0.515167 1.000000 0.607880
0.556091 1.000000 0.608124
0.618561 1.000000 0.608521
0.695282 0.999969 0.609222
0.778870 0.999023 0.610199
0.863647 0.998291 0.611481
0.946320 0.998352 0.613159
1.000000 0.999298 0.615295
0.236511 0.000000 0.745941
0.284393 0.000000 0.746002
0.376343 0.000000 0.746155
0.493866 0.000000 0.746368
0.622375 0.000000 0.746704
0.753479 0.000000 0.747162
0.879944 0.000000 0.747742
0.992188 0.000000 0.748444
1.000000 0.000000 0.749298
0.249084 0.043701 0.746490
0.294678 0.033905 0.746521
0.383881 0.008514 0.746643
0.499207 0.000000 0.746857
0.626068 0.000000 0.747192
0.755890 0.000000 0.747589
0.881134 0.000000 0.748138
0.992310 0.000000 0.748779
1.000000 0.000000 0.749512
0.276703 0.201080 0.747620
0.317810 0.198517 0.747681
0.400940 0.191711 0.747772
0.511200 0.179138 0.747955
0.634308 0.159698 0.748199
0.761017 0.133026 0.748505
0.883209 0.103668 0.748901
0.992035 0.096649 0.749420
1.000000 0.128815 0.750031
0.311798 0.339081 0.749115
0.348022 0.338074 0.749115
0.423737 0.335449 0.749207
0.527283 0.331024 0.749268
0.645020 0.324890 0.749390
0.766998 0.318390 0.749542
0.884460 0.315033 0.749786
0.989868 0.319702 0.750061
1.000000 0.335693 0.750427
0.342377 0.485016 0.750092
0.374786 0.484619 0.750061
0.444336 0.483704 0.750092
0.541595 0.482239 0.750092
0.653595 0.480499 0.750092
0.769897 0.479462 0.750092
0.881531 0.481262 0.750122
0.983490 0.488007 0.750214
1.000000 0.501343 0.750397
0.362793 0.636841 0.749939
0.392700 0.636719 0.749908
0.457733 0.636383 0.749878
0.549896 0.635956 0.749847
0.656525 0.635620 0.749786
0.766510 0.636200 0.749756
0.872375 0.638794 0.749756
0.970398 0.644409 0.749908
1.000000 0.653839 0.750183
0.386017 0.780090 0.749847
0.413208 0.779938 0.749878
0.473083 0.779480 0.749878
0.558929 0.778839 0.749908
0.658386 0.778168 0.749969
0.761200 0.778076 0.750092
0.861298 0.779175 0.750366
0.955017 0.782135 0.750824
1.000000 0.787323 0.751465
0.432495 0.901337 0.752563
0.455048 0.901062 0.752594
0.505646 0.900482 0.752686
0.580139 0.899536 0.752838
0.668457 0.898499 0.753082
0.761963 0.897644 0.753479
0.854706 0.897400 0.754089
0.943024 0.898315 0.754852
1.000000 0.900452 0.755920
0.494354 1.000000 0.759399
0.511627 1.000000 0.759460
0.551636 1.000000 0.759613
0.612762 1.000000 0.759857
0.688080 0.999634 0.760223
0.770264 0.998657 0.760773
0.853821 0.998169 0.761505
0.935852 0.998383 0.762512
1.000000 0.999451 0.763733
0.270630 0.000000 0.889801
0.313019 0.000000 0.889832
0.397705 0.000000 0.889862
0.509033 0.000000 0.889984
0.632629 0.000000 0.890076
0.759277 0.000000 0.890198
0.880554 0.000000 0.890381
0.988861 0.000000 0.890564
1.000000 0.000000 0.890747
0.281891 0.004150 0.890076
0.322479 0.001892 0.890076
0.404724 0.000000 0.890106
0.514099 0.000000 0.890167
0.636139 0.000000 0.890259
0.761383 0.000000 0.890350
0.881500 0.000000 0.890503
0.988800 0.000000 0.890656
1.000000 0.000000 0.890778
0.306335 0.189911 0.890533
0.343506 0.187134 0.890564
0.420563 0.180237 0.890564
0.525330 0.167328 0.890594
0.643738 0.147675 0.890625
0.765900 0.121643 0.890625
0.882996 0.097382 0.890656
0.988190 0.099579 0.890686
1.000000 0.139252 0.890717
0.337646 0.334869 0.890900
0.370758 0.333862 0.890869
0.441589 0.331390 0.890869
0.540131 0.327209 0.890808
0.653320 0.321747 0.890747
0.770691 0.316498 0.890625
0.883179 0.315338 0.890503
0.985382 0.322418 0.890381
1.000000 0.340454 0.890228
0.364990 0.483582 0.890411
0.394958 0.483215 0.890411
0.460205 0.482422 0.890350
0.552856 0.481171 0.890228
0.660400 0.479889 0.890045
0.771820 0.479706 0.889832
0.878906 0.482635 0.889557
0.977753 0.490601 0.889252
1.000000 0.504883 0.888977
0.382812 0.636414 0.888641
0.410583 0.636292 0.888611
0.471680 0.636047 0.888519
0.559326 0.635742 0.888367
0.661133 0.635773 0.888184
0.766327 0.636871 0.887909
0.868256 0.640106 0.887634
0.963257 0.646332 0.887360
1.000000 0.656189 0.887146
0.403107 0.779419 0.886444
0.428314 0.779266 0.886444
0.484436 0.778900 0.886383
0.565674 0.778412 0.886292
0.660309 0.778046 0.886200
0.759003 0.778320 0.886108
0.855804 0.779785 0.886017
0.947021 0.783142 0.885956
1.000000 0.788605 0.886047
0.443176 0.900330 0.885986
0.464203 0.900116 0.885986
0.511902 0.899597 0.885986
0.582611 0.898834 0.886017
0.667358 0.898010 0.886047
0.757721 0.897430 0.886139
0.847809 0.897491 0.886322
0.934296 0.898651 0.886566
1.000000 0.901001 0.886963
0.497498 1.000000 0.888306
0.514038 1.000000 0.888306
0.552277 1.000000 0.888367
0.611084 0.999908 0.888458
0.683960 0.999084 0.888580
0.763855 0.998352 0.888794
0.845581 0.998077 0.889099
0.926666 0.998505 0.889526
1.000000 0.999664 0.890076
0.331604 0.000000 1.000000
0.365814 0.000000 1.000000
0.438416 0.000000 1.000000
0.538818 0.000000 1.000000
0.653595 0.000000 1.000000
0.772339 0.000000 1.000000
0.886139 0.000000 1.000000
0.988800 0.000000 1.000000
1.000000 0.000000 1.000000
0.340485 0.000000 1.000000
0.373596 0.000000 1.000000
0.444458 0.000000 1.000000
0.543304 0.000000 1.000000
0.656616 0.000000 1.000000
0.774139 0.000000 1.000000
0.886749 0.000000 1.000000
0.988556 0.000000 1.000000
1.000000 0.000000 1.000000
0.359985 0.176208 1.000000
0.390869 0.173462 1.000000
0.458099 0.166290 1.000000
0.553131 0.153351 1.000000
0.663239 0.133942 1.000000
0.777618 0.109772 1.000000
0.887543 0.095123 1.000000
0.987427 0.107544 1.000000
1.000000 0.152649 1.000000
0.385193 0.330200 1.000000
0.413483 0.329346 1.000000
0.475952 0.327057 1.000000
0.565826 0.323364 1.000000
0.671112 0.318726 1.000000
0.780762 0.315460 1.000000
0.886536 0.316895 1.000000
0.983826 0.326599 1.000000
1.000000 0.346802 1.000000
0.407074 0.482178 1.000000
0.433167 0.481903 1.000000
0.491241 0.481232 1.000000
0.575989 0.480286 1.000000
0.675690 0.479706 1.000000
0.779663 0.480713 1.000000
0.880676 0.484955 1.000000
0.974884 0.494171 1.000000
1.000000 0.509460 1.000000
0.420380 0.636108 1.000000
0.444702 0.636017 1.000000
0.499359 0.635895 1.000000
0.579285 0.635834 1.000000
0.673279 0.636353 1.000000
0.771729 0.638123 1.000000
0.868347 0.642029 1.000000
0.959198 0.648895 1.000000
1.000000 0.659180 1.000000
0.434906 0.778839 1.000000
0.457184 0.778687 1.000000
0.507385 0.778473 1.000000
0.581329 0.778168 1.000000
0.669067 0.778137 1.000000
0.762054 0.778870 0.999969
0.854279 0.780792 0.999908
0.941956 0.784485 0.999847
1.000000 0.790222 0.999695
0.465149 0.899384 0.999054
0.484100 0.899200 0.999023
0.527466 0.898804 0.998993
0.592865 0.898224 0.998962
0.672333 0.897614 0.998901
0.758057 0.897339 0.998871
0.844391 0.897766 0.998840
0.928375 0.899170 0.998840
1.000000 0.901672 0.998962
0.509186 1.000000 0.999268
0.524292 1.000000 0.999298
0.560089 0.999878 0.999298
0.615387 0.999268 0.999329
0.684570 0.998627 0.999359
0.761139 0.998108 0.999451
0.840302 0.998077 0.999542
0.919861 0.998749 0.999756
0.999969 1.000000 0.999939
