滤镜资源/Professional Luts Collection/Lutify.me Professional/Alternative Process/Aragonite.cube
# Created by: Lutify.me
# Copyright: (c) Copyright Lutify.me 2015
# Website: https://lutify.me
#LUT size
LUT_3D_SIZE 5
#LUT data points
0.000000 0.000000 0.000000
0.281433 0.000000 0.000000
0.573547 0.000000 0.000000
0.861237 0.000000 0.000000
1.000000 0.000000 0.000000
0.121613 0.223572 0.000000
0.312897 0.216492 0.000000
0.589325 0.187408 0.000000
0.867737 0.126160 0.000000
1.000000 0.105927 0.000000
0.238983 0.488586 0.000000
0.375977 0.487213 0.000000
0.619385 0.482941 0.000000
0.875458 0.479248 0.000000
1.000000 0.493347 0.000000
0.321594 0.782043 0.000000
0.428986 0.781281 0.000000
0.642242 0.779144 0.000000
0.868561 0.778198 0.000000
1.000000 0.784393 0.000000
0.486206 1.000000 0.000000
0.550293 1.000000 0.000000
0.699615 1.000000 0.000000
0.876709 0.998718 0.000000
1.000000 0.998993 0.000000
0.090271 0.000000 0.192871
0.300873 0.000000 0.191864
0.583252 0.000000 0.188324
0.866241 0.000000 0.181152
1.000000 0.000000 0.169556
0.162811 0.221863 0.187653
0.331146 0.214539 0.186462
0.598572 0.184998 0.182312
0.872437 0.123993 0.173523
1.000000 0.108154 0.158936
0.263702 0.488312 0.154816
0.391296 0.486877 0.152557
0.627502 0.482697 0.144806
0.879242 0.479401 0.128937
1.000000 0.494141 0.102356
0.338104 0.781891 0.016998
0.440491 0.781128 0.013855
0.648254 0.779053 0.008301
0.870789 0.778290 0.003448
1.000000 0.784729 0.000000
0.492126 1.000000 0.000000
0.554657 1.000000 0.000000
0.701538 1.000000 0.000000
0.876678 0.998657 0.000000
1.000000 0.999054 0.002777
0.190247 0.000000 0.433441
0.345856 0.000000 0.433472
0.606537 0.000000 0.433533
0.877289 0.000000 0.433502
1.000000 0.000000 0.433594
0.235168 0.215790 0.434448
0.372864 0.207397 0.434418
0.620239 0.176697 0.434265
0.882355 0.116760 0.433807
1.000000 0.115082 0.433167
0.313019 0.487274 0.433014
0.424042 0.485840 0.432739
0.644836 0.481934 0.431915
0.885651 0.479919 0.430420
1.000000 0.496582 0.428680
0.369385 0.781281 0.423492
0.462616 0.780579 0.423370
0.658752 0.778717 0.423065
0.872101 0.778564 0.422974
1.000000 0.785614 0.424011
0.499634 1.000000 0.439209
0.559418 1.000000 0.439606
0.700897 1.000000 0.440979
0.871521 0.998444 0.443848
1.000000 0.999207 0.448975
0.236511 0.000000 0.745941
0.376343 0.000000 0.746155
0.622375 0.000000 0.746704
0.879944 0.000000 0.747742
1.000000 0.000000 0.749298
0.276703 0.201080 0.747620
0.400940 0.191711 0.747772
0.634308 0.159698 0.748199
0.883209 0.103668 0.748901
1.000000 0.128815 0.750031
0.342377 0.485016 0.750092
0.444336 0.483704 0.750092
0.653595 0.480499 0.750092
0.881531 0.481262 0.750122
1.000000 0.501343 0.750397
0.386017 0.780090 0.749847
0.473083 0.779480 0.749878
0.658386 0.778168 0.749969
0.861298 0.779175 0.750366
1.000000 0.787323 0.751465
0.494354 1.000000 0.759399
0.551636 1.000000 0.759613
0.688080 0.999634 0.760223
0.853821 0.998169 0.761505
1.000000 0.999451 0.763733
0.331604 0.000000 1.000000
0.438416 0.000000 1.000000
0.653595 0.000000 1.000000
0.886139 0.000000 1.000000
1.000000 0.000000 1.000000
0.359985 0.176208 1.000000
0.458099 0.166290 1.000000
0.663239 0.133942 1.000000
0.887543 0.095123 1.000000
1.000000 0.152649 1.000000
0.407074 0.482178 1.000000
0.491241 0.481232 1.000000
0.675690 0.479706 1.000000
0.880676 0.484955 1.000000
1.000000 0.509460 1.000000
0.434906 0.778839 1.000000
0.507385 0.778473 1.000000
0.669067 0.778137 1.000000
0.854279 0.780792 0.999908
1.000000 0.790222 0.999695
0.509186 1.000000 0.999268
0.560089 0.999878 0.999298
0.684570 0.998627 0.999359
0.840302 0.998077 0.999542
0.999969 1.000000 0.999939
