滤镜资源/Professional Luts Collection/Lutify.me Professional/Alternative Process/Aragonite.cube
# Created by: Lutify.me
# Copyright: (c) Copyright Lutify.me 2015
# Website: https://lutify.me
#LUT size
LUT_3D_SIZE 33
#LUT data points
0.000000 0.000000 0.000000
0.038818 0.000000 0.000000
0.073792 0.000000 0.000000
0.107788 0.000000 0.000000
0.142426 0.000000 0.000000
0.176880 0.000000 0.000000
0.211670 0.000000 0.000000
0.246368 0.000000 0.000000
0.281433 0.000000 0.000000
0.316742 0.000000 0.000000
0.352570 0.000000 0.000000
0.388824 0.000000 0.000000
0.425446 0.000000 0.000000
0.462341 0.000000 0.000000
0.499390 0.000000 0.000000
0.536499 0.000000 0.000000
0.573547 0.000000 0.000000
0.610443 0.000000 0.000000
0.647217 0.000000 0.000000
0.683777 0.000000 0.000000
0.720093 0.000000 0.000000
0.756042 0.000000 0.000000
0.791656 0.000000 0.000000
0.826752 0.000000 0.000000
0.861237 0.000000 0.000000
0.894989 0.000000 0.000000
0.927734 0.000000 0.000000
0.959534 0.000000 0.000000
0.988037 0.000000 0.000000
1.000000 0.000000 0.000000
1.000000 0.000000 0.000000
1.000000 0.000000 0.000000
1.000000 0.000000 0.000000
0.008850 0.024841 0.000000
0.047394 0.022949 0.000000
0.078918 0.021759 0.000000
0.111816 0.019165 0.000000
0.145142 0.015839 0.000000
0.179321 0.011688 0.000000
0.213562 0.006409 0.000000
0.248230 0.001251 0.000000
0.283020 0.000061 0.000000
0.318237 0.000000 0.000000
0.353943 0.000000 0.000000
0.390076 0.000000 0.000000
0.426575 0.000000 0.000000
0.463348 0.000000 0.000000
0.500366 0.000000 0.000000
0.537415 0.000000 0.000000
0.574341 0.000000 0.000000
0.611145 0.000000 0.000000
0.647888 0.000000 0.000000
0.684418 0.000000 0.000000
0.720673 0.000000 0.000000
0.756561 0.000000 0.000000
0.792084 0.000000 0.000000
0.827148 0.000000 0.000000
0.861633 0.000000 0.000000
0.895294 0.000000 0.000000
0.928040 0.000000 0.000000
0.959747 0.000000 0.000000
0.988159 0.000000 0.000000
1.000000 0.000000 0.000000
1.000000 0.000000 0.000000
1.000000 0.000000 0.000000
1.000000 0.000000 0.000000
0.018341 0.051514 0.000000
0.055176 0.050201 0.000000
0.085297 0.048584 0.000000
0.116150 0.046906 0.000000
0.148712 0.043762 0.000000
0.182159 0.039490 0.000000
0.216034 0.034149 0.000000
0.250214 0.027374 0.000000
0.284912 0.019775 0.000000
0.319916 0.011017 0.000000
0.355377 0.002808 0.000000
0.391357 0.000183 0.000000
0.427826 0.000000 0.000000
0.464539 0.000000 0.000000
0.501434 0.000000 0.000000
0.538422 0.000000 0.000000
0.575256 0.000000 0.000000
0.612030 0.000000 0.000000
0.648682 0.000000 0.000000
0.685150 0.000000 0.000000
0.721313 0.000000 0.000000
0.757172 0.000000 0.000000
0.792633 0.000000 0.000000
0.827606 0.000000 0.000000
0.862000 0.000000 0.000000
0.895660 0.000000 0.000000
0.928314 0.000000 0.000000
0.959961 0.000000 0.000000
0.988342 0.000000 0.000000
1.000000 0.000000 0.000000
1.000000 0.000000 0.000000
1.000000 0.000000 0.000000
1.000000 0.000000 0.000000
0.032501 0.079498 0.000000
0.065521 0.078735 0.000000
0.092773 0.077515 0.000000
0.122101 0.076080 0.000000
0.153320 0.074158 0.000000
0.186127 0.071350 0.000000
0.219269 0.067719 0.000000
0.253113 0.062988 0.000000
0.287354 0.056885 0.000000
0.322235 0.049011 0.000000
0.357605 0.038757 0.000000
0.393433 0.026337 0.000000
0.429688 0.012604 0.000000
0.466248 0.003174 0.000000
0.503021 0.000244 0.000000
0.539795 0.000000 0.000000
0.576569 0.000000 0.000000
0.613220 0.000000 0.000000
0.649750 0.000000 0.000000
0.686096 0.000000 0.000000
0.722198 0.000000 0.000000
0.757996 0.000000 0.000000
0.793335 0.000000 0.000000
0.828278 0.000000 0.000000
0.862579 0.000000 0.000000
0.896118 0.000000 0.000000
0.928711 0.000000 0.000000
0.960266 0.000000 0.000000
0.988495 0.000000 0.000000
1.000000 0.000000 0.000000
1.000000 0.000000 0.000000
1.000000 0.000000 0.000000
1.000000 0.000000 0.000000
0.049591 0.108093 0.000000
0.077698 0.107391 0.000000
0.102356 0.106476 0.000000
0.129700 0.105347 0.000000
0.159485 0.103729 0.000000
0.191101 0.101807 0.000000
0.223755 0.099030 0.000000
0.256866 0.095673 0.000000
0.290771 0.091461 0.000000
0.325256 0.086212 0.000000
0.360443 0.079376 0.000000
0.396027 0.070892 0.000000
0.432098 0.060150 0.000000
0.468506 0.046265 0.000000
0.505096 0.029694 0.000000
0.541748 0.012634 0.000000
0.578278 0.002716 0.000000
0.614777 0.000214 0.000000
0.651215 0.000000 0.000000
0.687439 0.000000 0.000000
0.723389 0.000000 0.000000
0.759033 0.000000 0.000000
0.794312 0.000000 0.000000
0.829102 0.000000 0.000000
0.863281 0.000000 0.000000
0.896698 0.000000 0.000000
0.929199 0.000000 0.000000
0.960663 0.000000 0.000000
0.988770 0.000000 0.000000
1.000000 0.000000 0.000000
1.000000 0.000000 0.000000
1.000000 0.000000 0.000000
1.000000 0.000000 0.000000
0.067627 0.136627 0.000000
0.091217 0.135956 0.000000
0.113281 0.135376 0.000000
0.138794 0.134430 0.000000
0.167175 0.133270 0.000000
0.197418 0.131592 0.000000
0.229126 0.129517 0.000000
0.261597 0.126892 0.000000
0.295074 0.123596 0.000000
0.329163 0.119629 0.000000
0.363953 0.114838 0.000000
0.399292 0.108948 0.000000
0.435059 0.101685 0.000000
0.471252 0.092834 0.000000
0.507629 0.081940 0.000000
0.544067 0.068329 0.000000
0.580444 0.051941 0.000000
0.616760 0.033813 0.000000
0.653015 0.015045 0.000000
0.689087 0.003571 0.000000
0.724884 0.000580 0.000000
0.760376 0.000000 0.000000
0.795532 0.000000 0.000000
0.830170 0.000000 0.000000
0.864197 0.000000 0.000000
0.897491 0.000000 0.000000
0.929810 0.000000 0.000000
0.961121 0.000000 0.000000
0.989075 0.000000 0.000000
1.000000 0.000000 0.000000
1.000000 0.000000 0.000000
1.000000 0.000000 0.000000
1.000000 0.000000 0.000000
0.085876 0.165344 0.000000
0.105957 0.164948 0.000000
0.125732 0.164368 0.000000
0.149323 0.163574 0.000000
0.176086 0.162506 0.000000
0.204926 0.161255 0.000000
0.235687 0.159576 0.000000
0.267395 0.157440 0.000000
0.300140 0.154968 0.000000
0.333893 0.151764 0.000000
0.368225 0.147980 0.000000
0.403259 0.143555 0.000000
0.438751 0.138153 0.000000
0.474579 0.131836 0.000000
0.510681 0.124451 0.000000
0.546844 0.115753 0.000000
0.583008 0.105560 0.000000
0.619141 0.093414 0.000000
0.655182 0.078613 0.000000
0.691040 0.061859 0.000000
0.726654 0.044983 0.000000
0.761963 0.025665 0.000000
0.796936 0.010101 0.000000
0.831390 0.003448 0.000000
0.865265 0.000610 0.000000
0.898376 0.000000 0.000000
0.930542 0.000000 0.000000
0.961639 0.000000 0.000000
0.989410 0.000000 0.000000
1.000000 0.000000 0.000000
1.000000 0.000000 0.000000
1.000000 0.000000 0.000000
1.000000 0.000000 0.000000
0.103821 0.194275 0.000000
0.121613 0.193817 0.000000
0.138977 0.193390 0.000000
0.160797 0.192780 0.000000
0.185669 0.191986 0.000000
0.213562 0.190887 0.000000
0.242981 0.189545 0.000000
0.274017 0.187836 0.000000
0.306244 0.185638 0.000000
0.339203 0.183167 0.000000
0.373260 0.180145 0.000000
0.407867 0.176483 0.000000
0.443024 0.172363 0.000000
0.478485 0.167511 0.000000
0.514252 0.161957 0.000000
0.550110 0.155640 0.000000
0.585968 0.148529 0.000000
0.621857 0.140564 0.000000
0.657623 0.131531 0.000000
0.693268 0.121307 0.000000
0.728668 0.109650 0.000000
0.763763 0.096039 0.000000
0.798523 0.080811 0.000000
0.832764 0.068024 0.000000
0.866425 0.055481 0.000000
0.899323 0.042664 0.000000
0.931274 0.030182 0.000000
0.962189 0.019897 0.000000
0.989716 0.012878 0.000000
1.000000 0.011627 0.000000
1.000000 0.011810 0.000000
1.000000 0.012970 0.000000
1.000000 0.021820 0.000000
0.121613 0.223572 0.000000
0.137207 0.223267 0.000000
0.152863 0.222870 0.000000
0.172943 0.222382 0.000000
0.196381 0.221741 0.000000
0.222931 0.220795 0.000000
0.251312 0.219666 0.000000
0.281464 0.218262 0.000000
0.312897 0.216492 0.000000
0.345520 0.214355 0.000000
0.378876 0.211914 0.000000
0.413055 0.209015 0.000000
0.447754 0.205658 0.000000
0.482880 0.201874 0.000000
0.518250 0.197540 0.000000
0.553772 0.192719 0.000000
0.589325 0.187408 0.000000
0.624847 0.181549 0.000000
0.660370 0.175140 0.000000
0.695740 0.168274 0.000000
0.730865 0.160767 0.000000
0.765778 0.152771 0.000000
0.800262 0.144257 0.000000
0.834320 0.135254 0.000000
0.867737 0.126160 0.000000
0.900391 0.116943 0.000000
0.932098 0.108063 0.000000
0.962738 0.100983 0.000000
0.990051 0.096008 0.000000
1.000000 0.094818 0.000000
1.000000 0.095642 0.000000
1.000000 0.098633 0.000000
1.000000 0.105927 0.000000
0.138763 0.253540 0.000000
0.152802 0.253326 0.000000
0.167175 0.253021 0.000000
0.185577 0.252563 0.000000
0.207886 0.251984 0.000000
0.233002 0.251190 0.000000
0.260437 0.250305 0.000000
0.289612 0.249084 0.000000
0.320312 0.247681 0.000000
0.352203 0.245972 0.000000
0.385132 0.243958 0.000000
0.418732 0.241547 0.000000
0.452972 0.238861 0.000000
0.487610 0.235809 0.000000
0.522614 0.232391 0.000000
0.557739 0.228668 0.000000
0.592957 0.224548 0.000000
0.628143 0.220154 0.000000
0.663330 0.215363 0.000000
0.698425 0.210236 0.000000
0.733307 0.204895 0.000000
0.767883 0.199341 0.000000
0.802124 0.193695 0.000000
0.835938 0.187988 0.000000
0.869080 0.182465 0.000000
0.901428 0.177490 0.000000
0.932861 0.173248 0.000000
0.963257 0.170105 0.000000
0.990326 0.168243 0.000000
1.000000 0.167969 0.000000
1.000000 0.169342 0.000000
1.000000 0.172607 0.000000
1.000000 0.177734 0.000000
0.155304 0.284363 0.000000
0.167969 0.284119 0.000000
0.181427 0.283844 0.000000
0.198547 0.283478 0.000000
0.219513 0.283020 0.000000
0.243439 0.282379 0.000000
0.269867 0.281586 0.000000
0.298187 0.280670 0.000000
0.328186 0.279449 0.000000
0.359436 0.278076 0.000000
0.391754 0.276428 0.000000
0.424805 0.274536 0.000000
0.458527 0.272278 0.000000
0.492706 0.269867 0.000000
0.527222 0.267120 0.000000
0.561951 0.264191 0.000000
0.596741 0.261047 0.000000
0.631622 0.257568 0.000000
0.666473 0.253937 0.000000
0.701233 0.250092 0.000000
0.735809 0.246124 0.000000
0.770111 0.242065 0.000000
0.804077 0.238007 0.000000
0.837555 0.234131 0.000000
0.870392 0.230438 0.000000
0.902466 0.227203 0.000000
0.933563 0.224701 0.000000
0.963715 0.223053 0.000000
0.990509 0.222412 0.000000
1.000000 0.222900 0.000000
1.000000 0.224640 0.000000
1.000000 0.227692 0.000000
1.000000 0.232086 0.000000
0.171326 0.315979 0.000000
0.182800 0.315857 0.000000
0.195190 0.315613 0.000000
0.211304 0.315338 0.000000
0.231079 0.314941 0.000000
0.254059 0.314423 0.000000
0.279480 0.313782 0.000000
0.307098 0.312958 0.000000
0.336273 0.311981 0.000000
0.366913 0.310822 0.000000
0.398621 0.309509 0.000000
0.431122 0.307953 0.000000
0.464264 0.306213 0.000000
0.497925 0.304230 0.000000
0.532013 0.302124 0.000000
0.566315 0.299774 0.000000
0.600677 0.297272 0.000000
0.635162 0.294617 0.000000
0.669678 0.291779 0.000000
0.704102 0.288849 0.000000
0.738342 0.285889 0.000000
0.772339 0.282867 0.000000
0.806000 0.279877 0.000000
0.839172 0.277100 0.000000
0.871674 0.274628 0.000000
0.903442 0.272522 0.000000
0.934204 0.271057 0.000000
0.964050 0.270294 0.000000
0.990601 0.270325 0.000000
1.000000 0.271332 0.000000
1.000000 0.273315 0.000000
1.000000 0.276306 0.000000
1.000000 0.280426 0.000000
0.186432 0.348663 0.000000
0.197052 0.348541 0.000000
0.208618 0.348389 0.000000
0.223694 0.348175 0.000000
0.242706 0.347809 0.000000
0.264709 0.347351 0.000000
0.289368 0.346832 0.000000
0.316101 0.346191 0.000000
0.344604 0.345398 0.000000
0.374451 0.344482 0.000000
0.405579 0.343384 0.000000
0.437531 0.342133 0.000000
0.470093 0.340759 0.000000
0.503265 0.339172 0.000000
0.536804 0.337494 0.000000
0.570709 0.335632 0.000000
0.604675 0.333679 0.000000
0.638763 0.331635 0.000000
0.672913 0.329468 0.000000
0.707001 0.327209 0.000000
0.740875 0.324982 0.000000
0.774567 0.322723 0.000000
0.807861 0.320557 0.000000
0.840698 0.318604 0.000000
0.872894 0.316895 0.000000
0.904266 0.315582 0.000000
0.934692 0.314850 0.000000
0.964172 0.314728 0.000000
0.990509 0.315247 0.000000
1.000000 0.316559 0.000000
1.000000 0.318756 0.000000
1.000000 0.321716 0.000000
1.000000 0.325653 0.000000
0.200562 0.382355 0.000000
0.210571 0.382233 0.000000
0.221619 0.382080 0.000000
0.235931 0.381927 0.000000
0.254028 0.381653 0.000000
0.275238 0.381256 0.000000
0.299072 0.380829 0.000000
0.325073 0.380310 0.000000
0.352905 0.379639 0.000000
0.382080 0.378937 0.000000
0.412506 0.378052 0.000000
0.443817 0.377045 0.000000
0.475891 0.375946 0.000000
0.508484 0.374786 0.000000
0.541626 0.373383 0.000000
0.575012 0.371948 0.000000
0.608643 0.370392 0.000000
0.642334 0.368805 0.000000
0.676117 0.367126 0.000000
0.709808 0.365479 0.000000
0.743378 0.363770 0.000000
0.776672 0.362122 0.000000
0.809631 0.360565 0.000000
0.842102 0.359222 0.000000
0.873932 0.358154 0.000000
0.904907 0.357422 0.000000
0.934967 0.357208 0.000000
0.964111 0.357513 0.000000
0.990204 0.358429 0.000000
1.000000 0.359955 0.000000
1.000000 0.362244 0.000000
1.000000 0.365204 0.000000
1.000000 0.369019 0.000000
0.214081 0.416992 0.000000
0.223572 0.416901 0.000000
0.234009 0.416748 0.000000
0.247711 0.416626 0.000000
0.265045 0.416382 0.000000
0.285431 0.416107 0.000000
0.308533 0.415741 0.000000
0.333801 0.415314 0.000000
0.360931 0.414764 0.000000
0.389526 0.414154 0.000000
0.419312 0.413513 0.000000
0.450073 0.412689 0.000000
0.481537 0.411835 0.000000
0.513672 0.410889 0.000000
0.546265 0.409882 0.000000
0.579254 0.408722 0.000000
0.612427 0.407532 0.000000
0.645752 0.406311 0.000000
0.679169 0.405090 0.000000
0.712494 0.403778 0.000000
0.745667 0.402557 0.000000
0.778656 0.401367 0.000000
0.811249 0.400330 0.000000
0.843292 0.399445 0.000000
0.874725 0.398834 0.000000
0.905334 0.398560 0.000000
0.934998 0.398743 0.000000
0.963776 0.399384 0.000000
0.989685 0.400513 0.000000
1.000000 0.402252 0.000000
1.000000 0.404633 0.000000
1.000000 0.407593 0.000000
1.000000 0.411224 0.000000
0.226990 0.452454 0.000000
0.235931 0.452362 0.000000
0.245758 0.452240 0.000000
0.258972 0.452148 0.000000
0.275635 0.451935 0.000000
0.295288 0.451721 0.000000
0.317657 0.451447 0.000000
0.342224 0.451080 0.000000
0.368683 0.450684 0.000000
0.396637 0.450195 0.000000
0.425842 0.449646 0.000000
0.455994 0.449066 0.000000
0.487000 0.448334 0.000000
0.518616 0.447632 0.000000
0.550781 0.446808 0.000000
0.583252 0.445984 0.000000
0.616058 0.445038 0.000000
0.648987 0.444153 0.000000
0.682007 0.443207 0.000000
0.714996 0.442291 0.000000
0.747772 0.441376 0.000000
0.780396 0.440582 0.000000
0.812592 0.439880 0.000000
0.844269 0.439392 0.000000
0.875244 0.439178 0.000000
0.905426 0.439270 0.000000
0.934692 0.439728 0.000000
0.963135 0.440613 0.000000
0.988861 0.441956 0.000000
1.000000 0.443817 0.000000
1.000000 0.446228 0.000000
1.000000 0.449127 0.000000
1.000000 0.452637 0.000000
0.238983 0.488586 0.000000
0.247498 0.488525 0.000000
0.256836 0.488464 0.000000
0.269562 0.488342 0.000000
0.285583 0.488190 0.000000
0.304596 0.488037 0.000000
0.326263 0.487793 0.000000
0.350220 0.487518 0.000000
0.375977 0.487213 0.000000
0.403381 0.486816 0.000000
0.432007 0.486389 0.000000
0.461670 0.485931 0.000000
0.492126 0.485382 0.000000
0.523254 0.484833 0.000000
0.554993 0.484222 0.000000
0.587097 0.483551 0.000000
0.619385 0.482941 0.000000
0.651978 0.482208 0.000000
0.684601 0.481567 0.000000
0.717194 0.480896 0.000000
0.749634 0.480286 0.000000
0.781830 0.479767 0.000000
0.813629 0.479401 0.000000
0.844910 0.479187 0.000000
0.875458 0.479248 0.000000
0.905182 0.479584 0.000000
0.934052 0.480286 0.000000
0.962097 0.481354 0.000000
0.987762 0.482819 0.000000
1.000000 0.484741 0.000000
1.000000 0.487122 0.000000
1.000000 0.489960 0.000000
1.000000 0.493347 0.000000
0.250061 0.525421 0.000000
0.258240 0.525360 0.000000
0.267120 0.525330 0.000000
0.279297 0.525208 0.000000
0.294800 0.525116 0.000000
0.313263 0.524963 0.000000
0.334320 0.524780 0.000000
0.357635 0.524536 0.000000
0.382812 0.524292 0.000000
0.409576 0.524017 0.000000
0.437714 0.523712 0.000000
0.466858 0.523346 0.000000
0.496887 0.522919 0.000000
0.527588 0.522491 0.000000
0.558838 0.522064 0.000000
0.590546 0.521545 0.000000
0.622498 0.521057 0.000000
0.654633 0.520599 0.000000
0.686920 0.520111 0.000000
0.719116 0.519653 0.000000
0.751160 0.519318 0.000000
0.782959 0.519012 0.000000
0.814362 0.518829 0.000000
0.845184 0.518860 0.000000
0.875275 0.519104 0.000000
0.904572 0.519653 0.000000
0.933044 0.520477 0.000000
0.960724 0.521667 0.000000
0.986298 0.523193 0.000000
0.999969 0.525116 0.000000
1.000000 0.527435 0.000000
1.000000 0.530182 0.000000
1.000000 0.533386 0.000000
0.260223 0.562775 0.000000
0.268066 0.562744 0.000000
0.276642 0.562683 0.000000
0.288361 0.562622 0.000000
0.303375 0.562531 0.000000
0.321259 0.562439 0.000000
0.341797 0.562286 0.000000
0.364532 0.562103 0.000000
0.389130 0.561920 0.000000
0.415405 0.561676 0.000000
0.442993 0.561432 0.000000
0.471649 0.561157 0.000000
0.501251 0.560852 0.000000
0.531494 0.560516 0.000000
0.562408 0.560211 0.000000
0.593658 0.559845 0.000000
0.625275 0.559479 0.000000
0.657043 0.559143 0.000000
0.688873 0.558777 0.000000
0.720734 0.558533 0.000000
0.752411 0.558289 0.000000
0.783783 0.558167 0.000000
0.814728 0.558167 0.000000
0.845093 0.558350 0.000000
0.874725 0.558746 0.000000
0.903625 0.559387 0.000000
0.931702 0.560303 0.000000
0.959015 0.561523 0.000000
0.984528 0.563049 0.000000
0.999817 0.564911 0.000000
1.000000 0.567108 0.000000
1.000000 0.569733 0.000000
1.000000 0.572693 0.000000
0.269592 0.600433 0.000000
0.277130 0.600433 0.000000
0.285492 0.600403 0.000000
0.296814 0.600311 0.000000
0.311371 0.600250 0.000000
0.328705 0.600159 0.000000
0.348694 0.600067 0.000000
0.370911 0.599915 0.000000
0.395020 0.599762 0.000000
0.420776 0.599579 0.000000
0.447906 0.599396 0.000000
0.476135 0.599152 0.000000
0.505249 0.598938 0.000000
0.535156 0.598663 0.000000
0.565643 0.598419 0.000000
0.596588 0.598114 0.000000
0.627777 0.597870 0.000000
0.659149 0.597626 0.000000
0.690643 0.597382 0.000000
0.722076 0.597168 0.000000
0.753357 0.597107 0.000000
0.784302 0.597046 0.000000
0.814789 0.597168 0.000000
0.844696 0.597443 0.000000
0.873871 0.597870 0.000000
0.902313 0.598572 0.000000
0.930023 0.599518 0.000000
0.957001 0.600708 0.000000
0.982513 0.602142 0.000000
0.999603 0.603943 0.000000
1.000000 0.605988 0.000000
1.000000 0.608398 0.000000
1.000000 0.611115 0.000000
0.278503 0.638153 0.000000
0.285797 0.638153 0.000000
0.293884 0.638123 0.000000
0.304840 0.638062 0.000000
0.318909 0.638000 0.000000
0.335815 0.637909 0.000000
0.355316 0.637817 0.000000
0.376984 0.637726 0.000000
0.400635 0.637573 0.000000
0.425934 0.637421 0.000000
0.452606 0.637238 0.000000
0.480408 0.637054 0.000000
0.509125 0.636871 0.000000
0.538605 0.636658 0.000000
0.568695 0.636444 0.000000
0.599274 0.636200 0.000000
0.630096 0.635986 0.000000
0.661133 0.635773 0.000000
0.692200 0.635620 0.000000
0.723236 0.635498 0.000000
0.754059 0.635376 0.000000
0.784576 0.635406 0.000000
0.814575 0.635559 0.000000
0.844025 0.635895 0.000000
0.872772 0.636322 0.000000
0.900787 0.636993 0.000000
0.928101 0.637878 0.000000
0.954712 0.639008 0.000000
0.980255 0.640350 0.000000
0.999390 0.641968 0.000000
1.000000 0.643829 0.000000
1.000000 0.645996 0.000000
1.000000 0.648438 0.000000
0.287476 0.675568 0.000000
0.294495 0.675537 0.000000
0.302307 0.675507 0.000000
0.312927 0.675476 0.000000
0.326599 0.675415 0.000000
0.342957 0.675323 0.000000
0.362030 0.675232 0.000000
0.383179 0.675140 0.000000
0.406372 0.675018 0.000000
0.431244 0.674866 0.000000
0.457428 0.674683 0.000000
0.484772 0.674530 0.000000
0.513092 0.674316 0.000000
0.542175 0.674133 0.000000
0.571869 0.673920 0.000000
0.601990 0.673706 0.000000
0.632446 0.673492 0.000000
0.663086 0.673309 0.000000
0.693787 0.673157 0.000000
0.724365 0.673035 0.000000
0.754700 0.672974 0.000000
0.784760 0.672974 0.000000
0.814270 0.673096 0.000000
0.843231 0.673370 0.000000
0.871521 0.673798 0.000000
0.899139 0.674408 0.000000
0.926117 0.675201 0.000000
0.952362 0.676178 0.000000
0.977875 0.677368 0.000000
0.998993 0.678772 0.000000
1.000000 0.680389 0.000000
1.000000 0.682281 0.000000
1.000000 0.684418 0.000000
0.297150 0.712280 0.000000
0.303894 0.712219 0.000000
0.311432 0.712219 0.000000
0.321716 0.712158 0.000000
0.334961 0.712097 0.000000
0.350861 0.712006 0.000000
0.369415 0.711914 0.000000
0.390045 0.711823 0.000000
0.412689 0.711670 0.000000
0.437012 0.711517 0.000000
0.462708 0.711334 0.000000
0.489624 0.711151 0.000000
0.517487 0.710968 0.000000
0.546112 0.710724 0.000000
0.575378 0.710510 0.000000
0.605072 0.710297 0.000000
0.635071 0.710052 0.000000
0.665283 0.709839 0.000000
0.695526 0.709656 0.000000
0.725647 0.709503 0.000000
0.755493 0.709412 0.000000
0.785004 0.709381 0.000000
0.814026 0.709473 0.000000
0.842499 0.709656 0.000000
0.870331 0.709991 0.000000
0.897552 0.710480 0.000000
0.924133 0.711151 0.000000
0.950043 0.711975 0.000000
0.975250 0.713013 0.000000
0.997803 0.714203 0.000000
1.000000 0.715607 0.000000
1.000000 0.717255 0.000000
1.000000 0.719086 0.000000
0.308350 0.747864 0.000000
0.314819 0.747803 0.000000
0.322113 0.747772 0.000000
0.331940 0.747742 0.000000
0.344666 0.747681 0.000000
0.360016 0.747589 0.000000
0.377960 0.747467 0.000000
0.398010 0.747345 0.000000
0.420105 0.747192 0.000000
0.443878 0.747009 0.000000
0.469025 0.746796 0.000000
0.495331 0.746613 0.000000
0.522675 0.746368 0.000000
0.550781 0.746124 0.000000
0.579559 0.745880 0.000000
0.608795 0.745575 0.000000
0.638306 0.745331 0.000000
0.667969 0.745087 0.000000
0.697723 0.744843 0.000000
0.727295 0.744629 0.000000
0.756592 0.744507 0.000000
0.785492 0.744415 0.000000
0.813995 0.744446 0.000000
0.841919 0.744568 0.000000
0.869324 0.744812 0.000000
0.896118 0.745178 0.000000
0.922302 0.745697 0.000000
0.947845 0.746399 0.000000
0.972748 0.747223 0.000000
0.995331 0.748260 0.000000
1.000000 0.749451 0.000000
1.000000 0.750824 0.000000
1.000000 0.752441 0.000000
0.321594 0.782043 0.000000
0.327728 0.782013 0.000000
0.334656 0.781982 0.000000
0.344025 0.781921 0.000000
0.356232 0.781830 0.000000
0.371002 0.781738 0.000000
0.388245 0.781616 0.000000
0.407623 0.781464 0.000000
0.428986 0.781281 0.000000
0.452087 0.781067 0.000000
0.476624 0.780853 0.000000
0.502289 0.780609 0.000000
0.528961 0.780365 0.000000
0.556488 0.780090 0.000000
0.584656 0.779785 0.000000
0.613312 0.779480 0.000000
0.642242 0.779144 0.000000
0.671326 0.778870 0.000000
0.700409 0.778595 0.000000
0.729370 0.778351 0.000000
0.758057 0.778168 0.000000
0.786346 0.778046 0.000000
0.814240 0.777985 0.000000
0.841675 0.778046 0.000000
0.868561 0.778198 0.000000
0.894958 0.778442 0.000000
0.920685 0.778839 0.000000
0.945892 0.779388 0.000000
0.970398 0.780060 0.000000
0.992950 0.780914 0.000000
1.000000 0.781891 0.000000
1.000000 0.783081 0.000000
1.000000 0.784393 0.000000
0.336975 0.814789 0.000000
0.342773 0.814758 0.000000
0.349274 0.814697 0.000000
0.358185 0.814636 0.000000
0.369781 0.814545 0.000000
0.383820 0.814423 0.000000
0.400360 0.814270 0.000000
0.418976 0.814117 0.000000
0.439545 0.813934 0.000000
0.461823 0.813690 0.000000
0.485596 0.813446 0.000000
0.510529 0.813202 0.000000
0.536499 0.812897 0.000000
0.563293 0.812592 0.000000
0.590790 0.812256 0.000000
0.618744 0.811920 0.000000
0.646973 0.811584 0.000000
0.675323 0.811218 0.000000
0.703705 0.810913 0.000000
0.731964 0.810669 0.000000
0.759949 0.810425 0.000000
0.787628 0.810242 0.000000
0.814911 0.810120 0.000000
0.841797 0.810089 0.000000
0.868164 0.810150 0.000000
0.894043 0.810303 0.000000
0.919373 0.810608 0.000000
0.944153 0.811005 0.000000
0.968292 0.811523 0.000000
0.990723 0.812195 0.000000
1.000000 0.813019 0.000000
1.000000 0.813965 0.000000
1.000000 0.815094 0.000000
0.354370 0.846069 0.000000
0.359894 0.846008 0.000000
0.365906 0.845947 0.000000
0.374298 0.845856 0.000000
0.385254 0.845764 0.000000
0.398529 0.845673 0.000000
0.414307 0.845490 0.000000
0.432068 0.845306 0.000000
0.451782 0.845093 0.000000
0.473175 0.844879 0.000000
0.496033 0.844574 0.000000
0.520111 0.844299 0.000000
0.545258 0.843964 0.000000
0.571228 0.843628 0.000000
0.597900 0.843262 0.000000
0.625031 0.842926 0.000000
0.652466 0.842529 0.000000
0.680054 0.842163 0.000000
0.707672 0.841827 0.000000
0.735138 0.841492 0.000000
0.762390 0.841217 0.000000
0.789368 0.841003 0.000000
0.816071 0.840820 0.000000
0.842346 0.840698 0.000000
0.868195 0.840698 0.000000
