滤镜资源/Professional Luts Collection/Lutify.me Professional/Alternative Process/Astrophyllite.cube
# Created by: Lutify.me
# Copyright: (c) Copyright Lutify.me 2015
# Website: https://lutify.me
#LUT size
LUT_3D_SIZE 5
#LUT data points
0.000000 0.000000 0.000000
0.198456 0.000000 0.008118
0.491699 0.000000 0.030914
0.798553 0.000000 0.071320
1.000000 0.000000 0.118256
0.000000 0.220795 0.052582
0.199005 0.223816 0.059631
0.498566 0.219696 0.078888
0.799927 0.202667 0.107819
1.000000 0.221832 0.140137
0.000000 0.520203 0.143433
0.122925 0.521667 0.145844
0.496124 0.523987 0.152802
0.793823 0.526550 0.163910
1.000000 0.541779 0.179565
0.000000 0.803345 0.207733
0.097351 0.802856 0.209076
0.503693 0.801025 0.213287
0.783234 0.798920 0.221527
1.000000 0.801605 0.235077
0.246368 1.000000 0.296112
0.367401 1.000000 0.297211
0.580322 1.000000 0.300720
0.796570 1.000000 0.307709
0.995422 1.000000 0.318573
0.000000 0.000000 0.314667
0.152191 0.000000 0.322021
0.479858 0.000000 0.330231
0.791412 0.000000 0.338196
1.000000 0.000000 0.346405
0.000000 0.219666 0.331726
0.160004 0.221954 0.333801
0.488800 0.217529 0.338409
0.793915 0.201294 0.343811
1.000000 0.222626 0.350067
0.000000 0.519287 0.348206
0.081848 0.520721 0.348938
0.490204 0.522949 0.350739
0.789368 0.525879 0.353424
1.000000 0.541687 0.357605
0.000000 0.802368 0.365265
0.084442 0.801880 0.365875
0.500305 0.800079 0.367706
0.779297 0.798218 0.371368
1.000000 0.801117 0.377716
0.241150 1.000000 0.411407
0.363373 1.000000 0.412140
0.576385 1.000000 0.414490
0.792480 1.000000 0.419128
0.991364 1.000000 0.426544
0.000000 0.000000 0.584839
0.029388 0.000000 0.589752
0.467438 0.000000 0.596771
0.783478 0.000000 0.601990
1.000000 0.000000 0.605774
0.000000 0.219421 0.595123
0.066315 0.219696 0.596954
0.477997 0.213318 0.600555
0.786133 0.198914 0.603912
1.000000 0.226410 0.606750
0.000000 0.518463 0.603058
0.020905 0.519562 0.603607
0.482544 0.521484 0.604919
0.781128 0.525116 0.606476
1.000000 0.542328 0.608490
0.000000 0.800140 0.610016
0.064423 0.799652 0.610413
0.493469 0.797943 0.611572
0.768982 0.796661 0.613708
0.990417 0.800140 0.617218
0.224304 1.000000 0.634399
0.350311 1.000000 0.634857
0.563721 1.000000 0.636292
0.779327 1.000000 0.639038
0.978699 1.000000 0.643372
0.000000 0.000000 0.844391
0.000000 0.000000 0.847595
0.463593 0.000000 0.853546
0.776947 0.000000 0.858490
1.000000 0.000000 0.861450
0.000000 0.217041 0.851288
0.008942 0.215454 0.852905
0.474274 0.207001 0.856323
0.778656 0.197510 0.859497
1.000000 0.235199 0.861511
0.000000 0.518097 0.856659
0.010895 0.518829 0.857147
0.480225 0.520355 0.858337
0.770813 0.525452 0.859558
0.997894 0.544861 0.860535
0.000000 0.797272 0.857727
0.079529 0.796753 0.858002
0.489563 0.795349 0.858673
0.755066 0.795044 0.859741
0.972687 0.799438 0.861237
0.219543 1.000000 0.865662
0.341614 1.000000 0.865875
0.550018 1.000000 0.866577
0.762390 0.999969 0.867798
0.961792 1.000000 0.869659
0.000000 0.000000 1.000000
0.114777 0.000000 1.000000
0.505402 0.000000 1.000000
0.792816 0.000000 1.000000
1.000000 0.000000 1.000000
0.000000 0.211060 1.000000
0.168427 0.208496 1.000000
0.518890 0.200226 1.000000
0.794983 0.200745 1.000000
1.000000 0.249603 1.000000
0.000000 0.519409 1.000000
0.229340 0.519806 1.000000
0.533020 0.521423 1.000000
0.789551 0.528748 1.000000
1.000000 0.550018 1.000000
0.112000 0.796387 1.000000
0.303650 0.795868 1.000000
0.550781 0.794769 1.000000
0.781525 0.795288 1.000000
0.987610 0.799957 1.000000
0.381500 1.000000 1.000000
0.453918 1.000000 1.000000
0.613708 1.000000 1.000000
0.801941 0.999939 1.000000
0.992523 0.999847 1.000000
