滤镜资源/Professional Luts Collection/Lutify.me Professional/Alternative Process/Astrophyllite.cube
# Created by: Lutify.me
# Copyright: (c) Copyright Lutify.me 2015
# Website: https://lutify.me
#LUT size
LUT_3D_SIZE 33
#LUT data points
0.000000 0.000000 0.000000
0.015198 0.000000 0.000000
0.032715 0.000397 0.001129
0.056061 0.000427 0.001556
0.081482 0.000763 0.002350
0.108093 0.000397 0.003479
0.136383 0.000061 0.004639
0.166443 0.000000 0.006470
0.198456 0.000000 0.008118
0.232056 0.000000 0.010223
0.267029 0.000000 0.012207
0.303040 0.000000 0.014740
0.339752 0.000000 0.017639
0.377075 0.000000 0.020447
0.414948 0.000000 0.023590
0.453156 0.000000 0.027039
0.491699 0.000000 0.030914
0.530457 0.000000 0.035339
0.569275 0.000000 0.039886
0.608093 0.000000 0.044678
0.646881 0.000000 0.049866
0.685455 0.000000 0.054993
0.723663 0.000000 0.059875
0.761414 0.000000 0.065460
0.798553 0.000000 0.071320
0.834900 0.000000 0.076691
0.870300 0.000000 0.082764
0.904633 0.000000 0.088776
0.937683 0.000000 0.094727
0.969391 0.000000 0.100952
0.998047 0.000000 0.106659
1.000000 0.000000 0.112823
1.000000 0.000000 0.118256
0.000000 0.017517 0.003082
0.013275 0.017517 0.003082
0.030457 0.018280 0.003143
0.054779 0.018341 0.004517
0.080475 0.018616 0.005341
0.107697 0.018341 0.006470
0.136383 0.017822 0.007629
0.166840 0.016235 0.009155
0.198914 0.013550 0.011108
0.232727 0.009399 0.012878
0.267761 0.003876 0.015137
0.303802 0.000702 0.017456
0.340546 0.000000 0.020294
0.377777 0.000000 0.023132
0.415588 0.000000 0.026245
0.453766 0.000000 0.029938
0.492218 0.000000 0.033752
0.530884 0.000000 0.037872
0.569672 0.000000 0.042542
0.608490 0.000000 0.047424
0.647217 0.000000 0.052216
0.685699 0.000000 0.057129
0.723846 0.000000 0.062500
0.761597 0.000000 0.067902
0.798706 0.000000 0.073242
0.834991 0.000000 0.078918
0.870300 0.000000 0.084656
0.904633 0.000000 0.090576
0.937592 0.000000 0.096588
0.969269 0.000000 0.102325
0.997925 0.000000 0.108246
1.000000 0.000000 0.113739
1.000000 0.000000 0.119720
0.000000 0.038239 0.005829
0.010132 0.038940 0.006195
0.028473 0.038971 0.006592
0.053467 0.039398 0.007324
0.079865 0.040039 0.008423
0.107452 0.040131 0.009369
0.136414 0.039978 0.010590
0.167267 0.038452 0.012329
0.199677 0.036072 0.013763
0.233459 0.032410 0.015778
0.268494 0.027374 0.017914
0.304504 0.020538 0.020538
0.341248 0.011963 0.023407
0.378479 0.003693 0.026154
0.416229 0.000275 0.029144
0.454407 0.000000 0.032837
0.492798 0.000000 0.036835
0.531403 0.000000 0.041016
0.570160 0.000000 0.045532
0.608917 0.000000 0.050171
0.647552 0.000000 0.054901
0.686035 0.000000 0.059845
0.724152 0.000000 0.065094
0.761780 0.000000 0.070465
0.798828 0.000000 0.075836
0.835083 0.000000 0.081299
0.870392 0.000000 0.086792
0.904633 0.000000 0.092651
0.937592 0.000000 0.098450
0.969147 0.000000 0.104218
0.997772 0.000000 0.110046
1.000000 0.000000 0.115540
1.000000 0.000000 0.120911
0.000000 0.064453 0.010071
0.005585 0.064758 0.010498
0.024200 0.065033 0.010925
0.050079 0.065826 0.011688
0.077972 0.066315 0.012543
0.106567 0.066650 0.013641
0.136414 0.066650 0.015076
0.167542 0.066315 0.016357
0.200348 0.065002 0.018188
0.234375 0.062653 0.020325
0.269623 0.059082 0.022156
0.305573 0.054474 0.024597
0.342224 0.048126 0.027313
0.379395 0.039581 0.030212
0.417114 0.029053 0.033600
0.455200 0.017548 0.037109
0.493530 0.006500 0.040955
0.532074 0.000977 0.045349
0.570770 0.000153 0.049652
0.609436 0.000000 0.054016
0.648010 0.000000 0.058716
0.686432 0.000000 0.063507
0.724487 0.000000 0.068481
0.762085 0.000000 0.073578
0.799011 0.000000 0.078796
0.835175 0.000000 0.084320
0.870392 0.000000 0.089996
0.904572 0.000000 0.095581
0.937408 0.000000 0.100983
0.968933 0.000000 0.106720
0.997528 0.000000 0.112030
1.000000 0.000000 0.117584
1.000000 0.000000 0.122925
0.000000 0.092743 0.015839
0.000519 0.093140 0.015961
0.016998 0.093353 0.016632
0.044678 0.093781 0.017395
0.075073 0.094360 0.017883
0.104828 0.094910 0.019318
0.136047 0.095123 0.020538
0.167877 0.094971 0.021790
0.200928 0.094513 0.023743
0.235321 0.093262 0.025726
0.270691 0.091339 0.027832
0.306671 0.088470 0.030304
0.343353 0.084656 0.032928
0.380554 0.079712 0.035889
0.418213 0.073334 0.039490
0.456238 0.065643 0.042999
0.494446 0.055939 0.046509
0.532898 0.044373 0.050568
0.571503 0.031769 0.054901
0.610138 0.017517 0.059235
0.648590 0.006531 0.063660
0.686920 0.002014 0.068237
0.724915 0.000519 0.072968
0.762360 0.000000 0.077911
0.799194 0.000000 0.083038
0.835266 0.000000 0.088318
0.870422 0.000000 0.093719
0.904480 0.000000 0.099091
0.937225 0.000000 0.104370
0.968689 0.000000 0.109894
0.997162 0.000000 0.114899
1.000000 0.000000 0.120300
1.000000 0.000000 0.125458
0.000000 0.122528 0.022705
0.000000 0.122864 0.023132
0.006134 0.123169 0.023285
0.035461 0.123535 0.024261
0.069458 0.124207 0.025055
0.102051 0.124695 0.026520
0.134521 0.125153 0.027191
0.167603 0.125305 0.028839
0.201447 0.125061 0.030487
0.236145 0.124451 0.032776
0.271759 0.123383 0.035065
0.307892 0.121765 0.037506
0.344513 0.119415 0.040344
0.381744 0.116394 0.043182
0.419373 0.112732 0.046295
0.457336 0.108124 0.049805
0.495483 0.102661 0.053253
0.533875 0.095978 0.056946
0.572388 0.087952 0.061066
0.610901 0.078644 0.065308
0.649292 0.068268 0.069489
0.687500 0.058197 0.073944
0.725342 0.047638 0.078613
0.762726 0.036224 0.083435
0.799438 0.024963 0.088318
0.835388 0.015167 0.093292
0.870422 0.008423 0.098175
0.904327 0.007141 0.103271
0.936981 0.007233 0.108490
0.968292 0.008575 0.113525
0.996735 0.015808 0.118530
1.000000 0.029541 0.123505
1.000000 0.048279 0.128479
0.000000 0.153992 0.031128
0.000000 0.154236 0.031616
0.000671 0.154633 0.032196
0.020782 0.155090 0.032776
0.060852 0.155518 0.033813
0.097321 0.156097 0.035004
0.132263 0.156464 0.035767
0.166626 0.156830 0.037628
0.201355 0.156952 0.039520
0.236816 0.156647 0.041138
0.272583 0.156128 0.043640
0.308929 0.155273 0.045868
0.345703 0.153900 0.048645
0.382874 0.152069 0.051605
0.420502 0.149689 0.054565
0.458435 0.146790 0.057709
0.496582 0.143372 0.061035
0.534882 0.139465 0.064484
0.573303 0.134857 0.068329
0.611725 0.129517 0.072357
0.650024 0.123718 0.076294
0.688110 0.117432 0.080597
0.725800 0.110657 0.085175
0.763062 0.103607 0.089691
0.799683 0.096588 0.094238
0.835480 0.090485 0.098999
0.870361 0.085754 0.103729
0.904144 0.084290 0.108429
0.936615 0.085052 0.113190
0.967834 0.088104 0.117859
0.996155 0.094666 0.122650
1.000000 0.104736 0.127472
1.000000 0.117462 0.132172
0.000000 0.186707 0.041626
0.000000 0.187012 0.041626
0.000000 0.187317 0.042145
0.003906 0.187714 0.042938
0.046783 0.188263 0.043640
0.090271 0.188721 0.044830
0.128052 0.189209 0.046356
0.164764 0.189606 0.047333
0.200653 0.189819 0.049316
0.236694 0.189880 0.051056
0.273163 0.189636 0.053223
0.309784 0.189178 0.055298
0.346710 0.188477 0.057648
0.383942 0.187378 0.060486
0.421600 0.185974 0.063293
0.459503 0.184143 0.066406
0.497620 0.181946 0.069641
0.535858 0.179321 0.072906
0.574219 0.176361 0.076324
0.612518 0.173065 0.080139
0.650726 0.169495 0.084106
0.688690 0.165771 0.088135
0.726257 0.161926 0.092285
0.763367 0.158142 0.096497
0.799805 0.154724 0.100800
0.835480 0.151855 0.105255
0.870178 0.149933 0.109558
0.903809 0.149445 0.113983
0.936127 0.150604 0.118439
0.967163 0.153687 0.122772
0.995453 0.158661 0.127258
1.000000 0.165497 0.131592
1.000000 0.173950 0.135925
0.000000 0.220795 0.052582
0.000000 0.221069 0.053131
0.000000 0.221344 0.053192
0.000275 0.221741 0.054199
0.026001 0.222229 0.054840
0.079315 0.222656 0.055420
0.122192 0.223083 0.056915
0.161255 0.223511 0.058350
0.199005 0.223816 0.059631
0.235992 0.224091 0.061432
0.272980 0.224091 0.063385
0.310089 0.223938 0.065643
0.347321 0.223633 0.067780
0.384766 0.223083 0.070282
0.422485 0.222229 0.072937
0.460449 0.221100 0.075867
0.498566 0.219696 0.078888
0.536774 0.218018 0.082031
0.575043 0.216064 0.085358
0.613281 0.213928 0.088837
0.651367 0.211639 0.092438
0.689209 0.209229 0.096161
0.726654 0.206848 0.100037
0.763641 0.204559 0.103882
0.799927 0.202667 0.107819
0.835388 0.201233 0.111877
0.869904 0.200531 0.115723
0.903320 0.200867 0.119843
0.935455 0.202362 0.123962
0.966339 0.205261 0.127991
0.994568 0.209412 0.132111
1.000000 0.214996 0.136139
1.000000 0.221832 0.140137
0.000000 0.256073 0.064514
0.000000 0.256287 0.064850
0.000000 0.256500 0.065033
0.000000 0.256866 0.065582
0.005646 0.257202 0.066528
0.063080 0.257660 0.067413
0.113831 0.258057 0.068268
0.156281 0.258514 0.069427
0.196014 0.258911 0.071045
0.234406 0.259216 0.072540
0.272156 0.259460 0.074310
0.309845 0.259491 0.076294
0.347443 0.259460 0.078552
0.385162 0.259216 0.080963
0.423126 0.258728 0.083344
0.461182 0.258118 0.085999
0.499329 0.257233 0.088806
0.537537 0.256226 0.091675
0.575745 0.255005 0.094727
0.613892 0.253632 0.097870
0.651886 0.252167 0.101257
0.689636 0.250610 0.104614
0.726959 0.249146 0.108093
0.763794 0.247803 0.111572
0.799896 0.246765 0.115082
0.835175 0.246185 0.118683
0.869507 0.246155 0.122253
0.902710 0.246948 0.125916
0.934631 0.248688 0.129700
0.965332 0.251404 0.133575
0.993469 0.255249 0.137207
1.000000 0.260193 0.141083
1.000000 0.266113 0.144836
0.000000 0.292206 0.076782
0.000000 0.292389 0.076874
0.000000 0.292603 0.077332
0.000000 0.292816 0.077881
0.000397 0.293152 0.078430
0.040405 0.293610 0.079224
0.101990 0.294006 0.080383
0.149261 0.294464 0.081360
0.191681 0.294861 0.082642
0.231598 0.295227 0.084198
0.270599 0.295563 0.085876
0.308929 0.295746 0.087463
0.347076 0.295868 0.089508
0.385193 0.295868 0.091705
0.423370 0.295685 0.093994
0.461609 0.295349 0.096466
0.499786 0.294952 0.098969
0.538086 0.294312 0.101532
0.576263 0.293579 0.104309
0.614380 0.292755 0.107147
0.652313 0.291870 0.110107
0.689911 0.290955 0.113129
0.727112 0.290100 0.116180
0.763733 0.289429 0.119324
0.799713 0.288910 0.122467
0.834808 0.288849 0.125732
0.868896 0.289276 0.128967
0.901886 0.290375 0.132294
0.933563 0.292236 0.135742
0.964081 0.294922 0.139282
0.992126 0.298553 0.142700
1.000000 0.302979 0.146179
1.000000 0.308197 0.149567
0.000000 0.329041 0.089294
0.000000 0.329193 0.089447
0.000000 0.329407 0.089874
0.000000 0.329651 0.090363
0.000000 0.329956 0.090851
0.014435 0.330292 0.091522
0.085083 0.330719 0.092255
0.139893 0.331146 0.093475
0.185486 0.331573 0.094604
0.227692 0.331940 0.095764
0.267975 0.332336 0.097260
0.307251 0.332611 0.099030
0.346100 0.332825 0.100647
0.384674 0.332977 0.102661
0.423218 0.333008 0.104645
0.461700 0.332916 0.106750
0.500031 0.332733 0.109070
0.538300 0.332489 0.111298
0.576569 0.332062 0.113708
0.614624 0.331635 0.116211
0.652527 0.331116 0.118835
0.690002 0.330658 0.121521
0.727081 0.330231 0.124207
0.763550 0.329956 0.127014
0.799316 0.329926 0.129822
0.834198 0.330200 0.132812
0.868073 0.330933 0.135742
0.900818 0.332214 0.138733
0.932281 0.334137 0.141876
0.962555 0.336823 0.144928
0.990570 0.340179 0.148071
1.000000 0.344269 0.151245
1.000000 0.349060 0.154449
0.000000 0.366577 0.101532
0.000000 0.366730 0.101807
0.000000 0.366882 0.102081
0.000000 0.367126 0.102509
0.000000 0.367371 0.102997
0.002136 0.367706 0.103516
0.061554 0.368103 0.104370
0.127350 0.368500 0.105225
0.177643 0.368927 0.106171
0.222229 0.369354 0.107330
0.264313 0.369720 0.108521
0.304840 0.370056 0.110077
0.344391 0.370331 0.111542
0.383575 0.370575 0.113159
0.422577 0.370697 0.114929
0.461365 0.370789 0.116821
0.499878 0.370789 0.118744
0.538300 0.370758 0.120728
0.576569 0.370605 0.122864
0.614685 0.370422 0.125092
0.652466 0.370209 0.127380
0.689911 0.369995 0.129700
0.726837 0.369904 0.132111
0.763153 0.369934 0.134583
0.798706 0.370178 0.137115
0.833344 0.370728 0.139679
0.866974 0.371643 0.142334
0.899475 0.373077 0.145050
0.930725 0.375031 0.147858
0.960785 0.377594 0.150635
0.988739 0.380829 0.153473
1.000000 0.384583 0.156403
1.000000 0.389038 0.159363
0.000000 0.404602 0.113190
0.000000 0.404755 0.113464
0.000000 0.404877 0.113617
0.000000 0.405090 0.114105
0.000000 0.405334 0.114410
0.000000 0.405670 0.114838
0.033081 0.406006 0.115601
0.110779 0.406403 0.116425
0.167816 0.406769 0.117157
0.215698 0.407135 0.118195
0.259583 0.407562 0.119293
0.301483 0.407867 0.120514
0.342072 0.408264 0.121765
0.382019 0.408539 0.123199
0.421478 0.408752 0.124634
0.460632 0.408936 0.126251
0.499420 0.409088 0.128052
0.537964 0.409149 0.129791
0.576355 0.409180 0.131592
0.614441 0.409180 0.133575
0.652222 0.409149 0.135559
0.689545 0.409180 0.137604
0.726318 0.409271 0.139740
0.762482 0.409515 0.141937
0.797852 0.409943 0.144226
0.832275 0.410645 0.146454
0.865631 0.411713 0.148712
0.897888 0.413177 0.151245
0.928864 0.415161 0.153778
0.958740 0.417603 0.156372
0.986664 0.420654 0.158966
1.000000 0.424103 0.161621
1.000000 0.428192 0.164307
0.000000 0.443054 0.124054
0.000000 0.443146 0.124176
0.000000 0.443298 0.124512
0.000000 0.443481 0.124756
0.000000 0.443695 0.125122
0.000000 0.443970 0.125458
0.010193 0.444275 0.126068
0.087921 0.444611 0.126709
0.155640 0.444977 0.127472
0.207642 0.445374 0.128296
0.254028 0.445740 0.129242
0.297455 0.446106 0.130310
0.339172 0.446442 0.131409
0.379883 0.446777 0.132629
0.419922 0.447052 0.133942
0.459534 0.447235 0.135254
0.498596 0.447479 0.136719
0.537354 0.447662 0.138397
0.575836 0.447754 0.139893
0.613983 0.447876 0.141602
0.651703 0.447998 0.143372
0.688965 0.448151 0.145172
0.725616 0.448395 0.147003
0.761597 0.448730 0.149017
0.796722 0.449310 0.151031
0.830902 0.450104 0.153076
0.864014 0.451202 0.155090
0.895996 0.452698 0.157379
0.926727 0.454620 0.159729
0.956360 0.456970 0.162048
0.984283 0.459778 0.164337
0.999969 0.463013 0.166840
1.000000 0.466736 0.169312
0.000000 0.481659 0.134186
0.000000 0.481720 0.134216
0.000000 0.481873 0.134399
0.000000 0.482025 0.134583
0.000000 0.482208 0.134979
0.000000 0.482452 0.135315
0.001251 0.482727 0.135773
0.062714 0.483032 0.136414
0.140900 0.483337 0.136963
0.198303 0.483704 0.137817
0.247467 0.484070 0.138580
0.292755 0.484406 0.139435
0.335785 0.484711 0.140442
0.377350 0.485077 0.141510
0.418030 0.485352 0.142609
0.458038 0.485626 0.143768
0.497498 0.485809 0.145020
0.536469 0.486023 0.146332
0.575073 0.486237 0.147797
0.613281 0.486420 0.149200
0.651001 0.486603 0.150757
0.688141 0.486847 0.152374
0.724701 0.487152 0.153992
0.760498 0.487579 0.155762
0.795380 0.488220 0.157593
0.829315 0.489044 0.159424
0.862122 0.490173 0.161346
0.893829 0.491638 0.163330
0.924316 0.493439 0.165466
0.953735 0.495667 0.167572
0.981659 0.498260 0.169739
0.999878 0.501251 0.172028
1.000000 0.504639 0.174408
0.000000 0.520203 0.143433
0.000000 0.520264 0.143524
0.000000 0.520386 0.143555
0.000000 0.520508 0.143738
0.000000 0.520691 0.144073
0.000000 0.520905 0.144348
0.000000 0.521149 0.144745
0.034668 0.521393 0.145355
0.122925 0.521667 0.145844
0.187927 0.522003 0.146515
0.240417 0.522308 0.147247
0.287659 0.522614 0.147949
0.331970 0.522919 0.148865
0.374512 0.523224 0.149719
0.415924 0.523499 0.150726
0.456360 0.523743 0.151703
0.496124 0.523987 0.152802
0.535431 0.524170 0.153961
0.574158 0.524384 0.155182
0.612396 0.524597 0.156464
0.650085 0.524841 0.157837
0.687164 0.525116 0.159241
0.723511 0.525452 0.160706
0.759125 0.525909 0.162292
0.793823 0.526550 0.163910
0.827454 0.527405 0.165649
0.859985 0.528473 0.167328
0.891388 0.529877 0.169189
0.921631 0.531586 0.171112
0.950867 0.533661 0.173065
0.978851 0.536011 0.175171
0.999786 0.538727 0.177216
1.000000 0.541779 0.179565
0.000000 0.558594 0.151855
0.000000 0.558624 0.152008
0.000000 0.558716 0.152100
0.000000 0.558838 0.152252
0.000000 0.558990 0.152557
0.000000 0.559143 0.152740
0.000000 0.559387 0.153107
0.013702 0.559570 0.153625
0.100769 0.559814 0.154083
0.176666 0.560089 0.154602
0.233032 0.560364 0.155273
0.282410 0.560608 0.155884
0.328156 0.560883 0.156616
0.371613 0.561127 0.157440
0.413666 0.561401 0.158264
0.454712 0.561615 0.159119
0.494843 0.561798 0.160156
0.534210 0.562012 0.161194
0.573151 0.562195 0.162292
0.611450 0.562378 0.163422
0.649078 0.562622 0.164673
0.686035 0.562897 0.165924
0.722229 0.563263 0.167206
0.757629 0.563690 0.168640
0.792053 0.564301 0.170105
0.825409 0.565094 0.171661
0.857635 0.566101 0.173279
0.888763 0.567413 0.174988
0.918762 0.569000 0.176819
0.947784 0.570862 0.178711
0.975830 0.572998 0.180634
0.999695 0.575439 0.182617
1.000000 0.578125 0.184814
0.000000 0.596558 0.159790
0.000000 0.596619 0.160004
0.000000 0.596680 0.160126
0.000000 0.596771 0.160217
0.000000 0.596893 0.160431
0.000000 0.597046 0.160675
0.000000 0.597198 0.161011
0.003510 0.597412 0.161377
0.082794 0.597595 0.161804
0.165192 0.597778 0.162262
0.225800 0.597992 0.162781
0.277344 0.598236 0.163361
0.324463 0.598419 0.164062
0.368927 0.598633 0.164764
0.411652 0.598846 0.165527
0.453094 0.598999 0.166351
0.493591 0.599152 0.167145
0.533264 0.599304 0.168121
0.572174 0.599487 0.169098
0.610474 0.599640 0.170105
0.648071 0.599792 0.171295
0.684906 0.600037 0.172394
0.720947 0.600372 0.173615
0.756073 0.600769 0.174927
0.790222 0.601318 0.176300
0.823242 0.602051 0.177704
0.855164 0.602966 0.179291
0.886017 0.604156 0.180908
0.915771 0.605560 0.182617
0.944580 0.607208 0.184479
0.972504 0.609100 0.186310
0.998474 0.611237 0.188263
1.000000 0.613617 0.190308
0.000000 0.633911 0.167450
0.000000 0.633972 0.167572
0.000000 0.634033 0.167725
0.000000 0.634094 0.167755
0.000000 0.634186 0.167877
0.000000 0.634277 0.168182
0.000000 0.634430 0.168518
0.000275 0.634583 0.168762
0.068298 0.634705 0.169189
0.154419 0.634888 0.169617
0.219543 0.635010 0.170013
0.273102 0.635162 0.170563
0.321472 0.635315 0.171143
0.366760 0.635468 0.171875
0.410065 0.635590 0.172546
0.451965 0.635712 0.173340
0.492676 0.635803 0.174103
0.532471 0.635895 0.174957
0.571503 0.635986 0.175842
0.609711 0.636078 0.176727
0.647186 0.636200 0.177826
0.683868 0.636353 0.178925
0.719666 0.636627 0.179962
0.754517 0.636963 0.181274
0.788330 0.637390 0.182678
0.821045 0.638062 0.184021
0.852631 0.638855 0.185516
0.883240 0.639862 0.187103
0.912781 0.641083 0.188812
0.941376 0.642487 0.190552
0.969147 0.644104 0.192352
0.995483 0.645935 0.194305
1.000000 0.648010 0.196320
0.000000 0.670441 0.174957
0.000000 0.670471 0.174927
0.000000 0.670502 0.175110
0.000000 0.670563 0.175110
0.000000 0.670624 0.175262
0.000000 0.670685 0.175537
0.000000 0.670776 0.175812
0.000000 0.670868 0.176025
0.058319 0.670959 0.176422
0.145874 0.671051 0.176819
0.214996 0.671143 0.177246
0.270386 0.671234 0.177673
0.319702 0.671326 0.178253
0.365662 0.671387 0.178833
0.409363 0.671448 0.179565
0.451538 0.671478 0.180206
0.492432 0.671478 0.181030
0.532257 0.671478 0.181793
0.571198 0.671539 0.182678
0.609314 0.671570 0.183533
0.646637 0.671570 0.184601
0.683075 0.671661 0.185669
0.718567 0.671814 0.186768
0.753082 0.672058 0.187866
0.786560 0.672394 0.189331
0.818909 0.672913 0.190643
0.850220 0.673553 0.192139
0.880493 0.674408 0.193665
0.909821 0.675385 0.195343
0.938263 0.676575 0.197052
0.965851 0.677917 0.198914
0.992157 0.679443 0.200928
1.000000 0.681152 0.202942
0.000000 0.705872 0.182404
0.000000 0.705872 0.182434
0.000000 0.705872 0.182556
0.000000 0.705902 0.182648
0.000000 0.705963 0.182831
0.000000 0.705994 0.182983
0.000000 0.706024 0.183228
0.000000 0.706055 0.183472
0.054474 0.706116 0.183807
0.141937 0.706146 0.184174
0.213654 0.706146 0.184631
0.269928 0.706177 0.185059
0.319824 0.706177 0.185577
0.366058 0.706177 0.186127
0.409973 0.706146 0.186737
0.452179 0.706085 0.187500
0.493042 0.706024 0.188141
0.532837 0.705933 0.189026
0.571655 0.705841 0.189850
0.609528 0.705780 0.190735
0.646576 0.705750 0.191681
0.682709 0.705719 0.192780
0.717896 0.705719 0.193878
0.751984 0.705872 0.195099
0.785065 0.706116 0.196320
0.817047 0.706451 0.197723
0.847992 0.706940 0.199249
0.878021 0.707581 0.200806
0.907104 0.708374 0.202423
0.935303 0.709290 0.204163
0.962738 0.710388 0.206055
0.989044 0.711578 0.208069
1.000000 0.713013 0.210144
0.000000 0.739929 0.190155
0.000000 0.739899 0.190369
0.000000 0.739929 0.190369
0.000000 0.739899 0.190491
0.000000 0.739899 0.190674
0.000000 0.739929 0.190765
0.000000 0.739929 0.190979
0.000000 0.739899 0.191284
0.059814 0.739899 0.191589
0.145386 0.739868 0.191925
0.216675 0.739807 0.192413
0.272766 0.739746 0.192841
0.322510 0.739685 0.193390
0.368622 0.739594 0.193939
0.412384 0.739471 0.194489
0.454437 0.739319 0.195160
0.495026 0.739166 0.195923
0.534546 0.738983 0.196655
0.573059 0.738800 0.197571
0.610626 0.738647 0.198425
0.647217 0.738464 0.199463
0.682983 0.738312 0.200500
0.717682 0.738251 0.201660
0.751373 0.738281 0.202850
0.783997 0.738342 0.204163
0.815552 0.738586 0.205536
0.846161 0.738922 0.206879
0.875824 0.739349 0.208557
0.904663 0.739960 0.210205
0.932617 0.740662 0.212006
0.959869 0.741516 0.213928
0.986115 0.742523 0.215729
1.000000 0.743622 0.217865
0.000000 0.772400 0.198639
0.000000 0.772400 0.198761
0.000000 0.772369 0.198822
0.000000 0.772369 0.198944
0.000000 0.772339 0.199066
0.000000 0.772339 0.199219
0.000000 0.772278 0.199402
0.002899 0.772217 0.199707
0.074280 0.772156 0.200012
0.157501 0.772064 0.200348
0.224915 0.771942 0.200806
0.279449 0.771820 0.201233
0.328308 0.771667 0.201752
0.373688 0.771484 0.202301
0.416901 0.771271 0.202911
0.458405 0.771057 0.203552
0.498566 0.770813 0.204285
0.537567 0.770569 0.205048
0.575653 0.770264 0.205933
0.612701 0.770020 0.206879
0.648834 0.769775 0.207764
0.683960 0.769531 0.208893
0.718140 0.769379 0.210083
0.751251 0.769287 0.211304
0.783356 0.769287 0.212585
0.814484 0.769379 0.213989
0.844666 0.769562 0.215424
0.874023 0.769867 0.216949
0.902557 0.770294 0.218597
0.930267 0.770844 0.220367
0.957306 0.771484 0.222321
0.983459 0.772278 0.224121
1.000000 0.773163 0.226166
0.000000 0.803345 0.207733
0.000000 0.803314 0.207825
0.000000 0.803284 0.207916
0.000000 0.803253 0.207977
0.000000 0.803192 0.208130
0.000000 0.803162 0.208344
0.000000 0.803070 0.208496
0.015503 0.802979 0.208801
0.097351 0.802856 0.209076
0.176605 0.802734 0.209412
0.238220 0.802551 0.209839
0.290070 0.802368 0.210327
0.337219 0.802124 0.210815
0.381409 0.801910 0.211334
0.423645 0.801636 0.211945
0.464325 0.801331 0.212616
0.503693 0.801025 0.213287
0.542023 0.800690 0.214081
0.579376 0.800354 0.214905
0.615784 0.800018 0.215881
0.651215 0.799713 0.216827
0.685669 0.799408 0.217896
0.719177 0.799164 0.219055
0.751648 0.799011 0.220245
0.783234 0.798920 0.221527
0.813873 0.798889 0.222992
0.843567 0.798981 0.224426
0.872589 0.799164 0.225983
0.900818 0.799408 0.227631
0.928253 0.799835 0.229279
0.955048 0.800323 0.231171
0.981140 0.800903 0.233002
1.000000 0.801605 0.235077
0.000000 0.832825 0.217407
0.000000 0.832764 0.217438
0.000000 0.832733 0.217529
0.000000 0.832703 0.217651
0.000000 0.832642 0.217743
0.000000 0.832550 0.217957
0.002350 0.832428 0.218140
0.046509 0.832306 0.218445
0.128326 0.832123 0.218750
0.200592 0.831970 0.219025
0.255646 0.831757 0.219452
0.304108 0.831512 0.219940
0.348999 0.831268 0.220459
0.391541 0.830963 0.220978
0.432465 0.830627 0.221588
0.471985 0.830292 0.222260
0.510376 0.829926 0.222961
0.547729 0.829529 0.223694
0.584198 0.829132 0.224548
0.619781 0.828766 0.225433
0.654419 0.828400 0.226410
0.688080 0.828064 0.227539
0.720825 0.827759 0.228577
0.752655 0.827545 0.229828
0.783569 0.827362 0.231079
0.813690 0.827271 0.232483
0.842987 0.827271 0.233978
0.871552 0.827332 0.235413
0.899414 0.827484 0.237122
0.926575 0.827759 0.238739
0.953094 0.828094 0.240662
0.979034 0.828552 0.242462
1.000000 0.829071 0.244415
0.000000 0.860962 0.227600
0.000000 0.860901 0.227692
0.000000 0.860870 0.227722
0.000000 0.860809 0.227905
0.000000 0.860718 0.228027
0.001190 0.860626 0.228210
0.023682 0.860474 0.228363
0.097870 0.860321 0.228607
0.170288 0.860168 0.228943
0.227234 0.859955 0.229279
0.276093 0.859711 0.229614
0.320892 0.859436 0.230072
0.363220 0.859131 0.230530
0.403778 0.858795 0.231110
0.443024 0.858429 0.231689
0.481171 0.858032 0.232361
0.518311 0.857635 0.233063
0.554626 0.857208 0.233826
0.590088 0.856781 0.234650
0.624634 0.856354 0.235565
0.658325 0.855988 0.236542
0.691101 0.855591 0.237579
0.723053 0.855286 0.238739
0.754150 0.855011 0.239899
0.784424 0.854797 0.241119
