滤镜资源/Professional Luts Collection/Lutify.me Professional/Alternative Process/Astrophyllite.cube
# Created by: Lutify.me
# Copyright: (c) Copyright Lutify.me 2015
# Website: https://lutify.me
#LUT size
LUT_3D_SIZE 9
#LUT data points
0.000000 0.000000 0.000000
0.081482 0.000763 0.002350
0.198456 0.000000 0.008118
0.339752 0.000000 0.017639
0.491699 0.000000 0.030914
0.646881 0.000000 0.049866
0.798553 0.000000 0.071320
0.937683 0.000000 0.094727
1.000000 0.000000 0.118256
0.000000 0.092743 0.015839
0.075073 0.094360 0.017883
0.200928 0.094513 0.023743
0.343353 0.084656 0.032928
0.494446 0.055939 0.046509
0.648590 0.006531 0.063660
0.799194 0.000000 0.083038
0.937225 0.000000 0.104370
1.000000 0.000000 0.125458
0.000000 0.220795 0.052582
0.026001 0.222229 0.054840
0.199005 0.223816 0.059631
0.347321 0.223633 0.067780
0.498566 0.219696 0.078888
0.651367 0.211639 0.092438
0.799927 0.202667 0.107819
0.935455 0.202362 0.123962
1.000000 0.221832 0.140137
0.000000 0.366577 0.101532
0.000000 0.367371 0.102997
0.177643 0.368927 0.106171
0.344391 0.370331 0.111542
0.499878 0.370789 0.118744
0.652466 0.370209 0.127380
0.798706 0.370178 0.137115
0.930725 0.375031 0.147858
1.000000 0.389038 0.159363
0.000000 0.520203 0.143433
0.000000 0.520691 0.144073
0.122925 0.521667 0.145844
0.331970 0.522919 0.148865
0.496124 0.523987 0.152802
0.650085 0.524841 0.157837
0.793823 0.526550 0.163910
0.921631 0.531586 0.171112
1.000000 0.541779 0.179565
0.000000 0.670441 0.174957
0.000000 0.670624 0.175262
0.058319 0.670959 0.176422
0.319702 0.671326 0.178253
0.492432 0.671478 0.181030
0.646637 0.671570 0.184601
0.786560 0.672394 0.189331
0.909821 0.675385 0.195343
1.000000 0.681152 0.202942
0.000000 0.803345 0.207733
0.000000 0.803192 0.208130
0.097351 0.802856 0.209076
0.337219 0.802124 0.210815
0.503693 0.801025 0.213287
0.651215 0.799713 0.216827
0.783234 0.798920 0.221527
0.900818 0.799408 0.227631
1.000000 0.801605 0.235077
0.000000 0.913879 0.249390
0.034149 0.913605 0.249725
0.243591 0.912903 0.250580
0.396942 0.911713 0.252136
0.537445 0.910065 0.254639
0.667816 0.908325 0.257935
0.787445 0.906982 0.262421
0.897369 0.906342 0.268066
0.999390 0.906738 0.274902
0.246368 1.000000 0.296112
0.287109 1.000000 0.296417
0.367401 1.000000 0.297211
0.470093 1.000000 0.298584
0.580322 1.000000 0.300720
0.690308 1.000000 0.303802
0.796570 1.000000 0.307709
0.898041 1.000000 0.312561
0.995422 1.000000 0.318573
0.000000 0.000031 0.156250
0.044464 0.000061 0.160461
0.186005 0.000000 0.165649
0.333527 0.000000 0.172058
0.487579 0.000000 0.179932
0.643677 0.000000 0.188660
0.795807 0.000000 0.198181
0.935181 0.000000 0.208069
1.000000 0.000000 0.218201
0.000000 0.091705 0.169128
0.033936 0.093384 0.170807
0.189178 0.093201 0.174622
0.337341 0.083099 0.179901
0.490509 0.053772 0.186737
0.645599 0.005310 0.194550
0.796631 0.000000 0.203033
0.934845 0.000000 0.211914
1.000000 0.000000 0.221375
0.000000 0.220215 0.188110
0.000122 0.221375 0.189148
0.187225 0.223022 0.191711
0.341614 0.222809 0.195496
0.494965 0.218903 0.200592
0.648682 0.210968 0.206573
0.797668 0.202179 0.213196
0.933350 0.202148 0.220398
1.000000 0.221985 0.228149
0.000000 0.366119 0.209503
0.000000 0.366882 0.210175
0.166229 0.368378 0.211731
0.339569 0.369781 0.214233
0.496918 0.370331 0.217529
0.650360 0.369751 0.221558
0.796844 0.369873 0.226196
0.928864 0.374908 0.231415
1.000000 0.388977 0.237427
0.000000 0.519836 0.228271
0.000000 0.520325 0.228699
0.109314 0.521332 0.229675
0.328308 0.522552 0.231201
0.494019 0.523621 0.233307
0.648468 0.524506 0.235962
0.792297 0.526306 0.239166
0.920074 0.531433 0.243134
1.000000 0.541718 0.248077
0.000000 0.670135 0.244568
0.000000 0.670319 0.244873
0.047943 0.670654 0.245544
0.317108 0.671021 0.246674
0.490875 0.671173 0.248352
0.645355 0.671295 0.250580
0.785278 0.672180 0.253540
0.908417 0.675232 0.257507
1.000000 0.681030 0.262573
0.000000 0.803009 0.265442
0.000000 0.802887 0.265686
0.092987 0.802551 0.266357
0.335602 0.801819 0.267578
0.502533 0.800720 0.269409
0.650146 0.799408 0.271912
0.782013 0.798706 0.275299
0.899506 0.799255 0.279724
1.000000 0.801453 0.285339
0.000000 0.913574 0.296082
0.029724 0.913300 0.296295
0.241974 0.912598 0.297089
0.395782 0.911438 0.298279
0.536438 0.909821 0.300232
0.666718 0.908081 0.302856
0.786285 0.906738 0.306458
0.896149 0.906189 0.311005
0.998199 0.906586 0.316559
0.244476 1.000000 0.334045
0.285645 1.000000 0.334320
0.366364 1.000000 0.335022
0.468994 1.000000 0.336243
0.579132 1.000000 0.338074
0.689148 1.000000 0.340637
0.795410 1.000000 0.344055
0.896881 1.000000 0.348297
0.994232 1.000000 0.353424
0.000000 0.000000 0.314667
0.000000 0.000000 0.317719
0.152191 0.000000 0.322021
0.319794 0.000000 0.326172
0.479858 0.000000 0.330231
0.638367 0.000000 0.334259
0.791412 0.000000 0.338196
0.930847 0.000000 0.342163
1.000000 0.000000 0.346405
0.000000 0.091278 0.322479
0.000000 0.092316 0.323853
0.158234 0.090759 0.326416
0.324585 0.079590 0.329590
0.483337 0.049011 0.332947
0.640625 0.003754 0.336456
0.792450 0.000000 0.340027
0.930695 0.000000 0.343719
1.000000 0.000000 0.347565
0.000000 0.219666 0.331726
0.000000 0.220642 0.332397
0.160004 0.221954 0.333801
0.330658 0.221497 0.335907
0.488800 0.217529 0.338409
0.644379 0.209656 0.341034
0.793915 0.201294 0.343811
0.929443 0.202026 0.346802
1.000000 0.222626 0.350067
0.000000 0.365540 0.340790
0.000000 0.366272 0.341156
0.141388 0.367645 0.341919
0.330688 0.369019 0.343231
0.492004 0.369476 0.344818
0.646820 0.368988 0.346649
0.793579 0.369324 0.348633
0.925323 0.374725 0.350891
1.000000 0.389160 0.353455
0.000000 0.519287 0.348206
0.000000 0.519745 0.348450
0.081848 0.520721 0.348938
0.321503 0.521881 0.349670
0.490204 0.522949 0.350739
0.645538 0.523926 0.351959
0.789368 0.525879 0.353424
0.916779 0.531219 0.355286
1.000000 0.541687 0.357605
0.000000 0.669525 0.354797
0.000000 0.669708 0.354950
0.025177 0.670044 0.355286
0.312256 0.670380 0.355896
0.487946 0.670593 0.356781
0.642853 0.670746 0.357910
0.782501 0.671722 0.359436
0.905365 0.674866 0.361572
1.000000 0.680817 0.364410
0.000000 0.802368 0.365265
0.000000 0.802216 0.365417
0.084442 0.801880 0.365875
0.332520 0.801178 0.366608
0.500305 0.800079 0.367706
0.647797 0.798828 0.369232
0.779297 0.798218 0.371368
0.896576 0.798859 0.374146
1.000000 0.801117 0.377716
0.000000 0.912872 0.384369
0.020325 0.912628 0.384552
0.238739 0.911926 0.385010
0.393524 0.910797 0.385895
0.534210 0.909210 0.387207
0.664185 0.907562 0.389069
0.783508 0.906281 0.391571
0.893250 0.905731 0.394775
0.995239 0.906219 0.398834
0.241150 1.000000 0.411407
0.282745 1.000000 0.411621
0.363373 1.000000 0.412140
0.466278 1.000000 0.413055
0.576385 1.000000 0.414490
0.686249 1.000000 0.416473
0.792480 1.000000 0.419128
0.893921 1.000000 0.422424
0.991364 1.000000 0.426544
0.000000 0.000000 0.453064
0.000000 0.000000 0.455322
0.097961 0.000000 0.459076
0.305176 0.000000 0.462921
0.472778 0.000000 0.466309
0.633728 0.000000 0.469177
0.787170 0.000000 0.471741
0.925934 0.000000 0.474030
1.000000 0.000000 0.476227
0.000000 0.090729 0.458801
0.000000 0.090637 0.459991
0.109680 0.087158 0.462372
0.310791 0.074005 0.465179
0.476624 0.041016 0.467926
0.636200 0.002014 0.470398
0.788361 0.000000 0.472626
0.925842 0.000000 0.474670
1.000000 0.000519 0.476685
0.000000 0.219543 0.465454
0.000000 0.220215 0.466064
0.118805 0.220947 0.467316
0.318481 0.219940 0.469025
0.482819 0.215668 0.470886
0.640350 0.207886 0.472687
0.789978 0.200134 0.474365
0.924744 0.202240 0.476013
1.000000 0.224030 0.477631
0.000000 0.365204 0.470978
0.000000 0.365875 0.471252
0.102448 0.367035 0.471954
0.320770 0.368195 0.472900
0.486969 0.368561 0.473999
0.643188 0.368164 0.475189
0.789795 0.368835 0.476288
0.920685 0.374847 0.477478
1.000000 0.389740 0.478790
0.000000 0.518799 0.474609
0.000000 0.519226 0.474792
0.053345 0.520081 0.475159
0.313934 0.521210 0.475708
0.486237 0.522217 0.476379
0.642334 0.523254 0.477112
0.785675 0.525421 0.477905
0.912231 0.531097 0.478882
1.000000 0.541840 0.480133
0.000000 0.668823 0.477386
0.000000 0.668945 0.477509
0.013672 0.669250 0.477753
0.307068 0.669556 0.478180
0.484833 0.669769 0.478729
0.639801 0.670013 0.479462
0.778687 0.671204 0.480408
0.900757 0.674530 0.481689
1.000000 0.680603 0.483429
0.000000 0.801392 0.483154
0.000000 0.801239 0.483276
0.075592 0.800873 0.483551
0.329132 0.800201 0.484100
0.497467 0.799133 0.484863
0.644440 0.798004 0.485962
0.775146 0.797485 0.487427
0.891846 0.798279 0.489380
0.997620 0.800659 0.491852
0.000000 0.911835 0.495880
0.017517 0.911560 0.496063
0.234467 0.910889 0.496399
0.390198 0.909760 0.497101
0.530670 0.908264 0.498077
0.660004 0.906708 0.499512
0.778839 0.905518 0.501404
0.888306 0.905121 0.503815
0.990234 0.905670 0.506836
0.234619 1.000000 0.515900
0.276733 1.000000 0.516083
0.358276 1.000000 0.516479
0.461304 1.000000 0.517212
0.571350 1.000000 0.518372
0.681061 1.000000 0.519928
0.787170 1.000000 0.522003
0.888580 1.000000 0.524628
0.986206 1.000000 0.527771
0.000000 0.000000 0.584839
0.000000 0.000000 0.586548
0.029388 0.000000 0.589752
0.291504 0.000000 0.593414
0.467438 0.000000 0.596771
0.630402 0.000000 0.599609
0.783478 0.000000 0.601990
0.920593 0.000000 0.604004
1.000000 0.000000 0.605774
0.000000 0.088196 0.589325
0.000000 0.086853 0.590393
0.048035 0.081238 0.592621
0.297760 0.065186 0.595367
0.471436 0.029724 0.598114
0.632874 0.000916 0.600555
0.784607 0.000000 0.602631
0.920441 0.000000 0.604462
1.000000 0.001740 0.606110
0.000000 0.219421 0.595123
0.000000 0.219666 0.595703
0.066315 0.219696 0.596954
0.306946 0.218079 0.598694
0.477997 0.213318 0.600555
0.637085 0.205627 0.602325
0.786133 0.198914 0.603912
0.919220 0.203064 0.605347
1.000000 0.226410 0.606750
0.000000 0.365173 0.599915
0.000000 0.365662 0.600220
0.060516 0.366577 0.600891
0.311279 0.367401 0.601898
0.482727 0.367584 0.603027
0.639984 0.367279 0.604218
0.785736 0.368469 0.605316
0.915009 0.375275 0.606384
1.000000 0.390900 0.607483
0.000000 0.518463 0.603058
0.000000 0.518799 0.603210
0.020905 0.519562 0.603607
0.306549 0.520538 0.604187
0.482544 0.521484 0.604919
0.638947 0.522583 0.605682
0.781128 0.525116 0.606476
0.906189 0.531250 0.607391
1.000000 0.542328 0.608490
0.000000 0.668030 0.605438
0.000000 0.668152 0.605530
0.007874 0.668396 0.605804
0.301575 0.668671 0.606232
0.481293 0.668884 0.606842
0.635895 0.669189 0.607513
0.773407 0.670624 0.608398
0.894318 0.674255 0.609497
0.999512 0.680511 0.610962
0.000000 0.800140 0.610016
0.000000 0.800018 0.610138
0.064423 0.799652 0.610413
0.324768 0.798920 0.610901
0.493469 0.797943 0.611572
0.639496 0.796967 0.612518
0.768982 0.796661 0.613708
0.884979 0.797638 0.615295
0.990417 0.800140 0.617218
0.000000 0.910431 0.619659
0.012939 0.910156 0.619812
0.227509 0.909515 0.620117
0.385010 0.908417 0.620667
0.525055 0.907013 0.621460
0.653595 0.905609 0.622620
0.771790 0.904602 0.624084
0.880890 0.904327 0.625946
0.982849 0.904968 0.628235
0.224304 1.000000 0.634399
0.267639 1.000000 0.634521
0.350311 1.000000 0.634857
0.453796 1.000000 0.635437
0.563721 1.000000 0.636292
0.673340 1.000000 0.637482
0.779327 1.000000 0.639038
0.880829 1.000000 0.640991
0.978699 1.000000 0.643372
0.000000 0.000000 0.718079
0.000000 0.000000 0.719421
0.000000 0.000000 0.722107
0.277435 0.000000 0.725494
0.462524 0.000000 0.728821
0.627258 0.000000 0.731720
0.779236 0.000000 0.734131
0.913940 0.000000 0.736084
1.000000 0.000000 0.737732
0.000000 0.081970 0.721649
0.000000 0.079407 0.722595
0.004364 0.071350 0.724609
0.284271 0.051514 0.727295
0.466553 0.014374 0.730042
0.629700 0.000000 0.732544
0.780273 0.000000 0.734680
0.913696 0.000000 0.736450
1.000000 0.003448 0.737946
0.000000 0.218628 0.726807
0.000000 0.218567 0.727356
0.013062 0.217896 0.728577
0.294891 0.215546 0.730316
0.473297 0.210358 0.732269
0.633759 0.203003 0.734100
0.781555 0.197845 0.735718
0.912231 0.204773 0.737122
1.000000 0.229980 0.738373
0.000000 0.365173 0.731232
0.000000 0.365479 0.731537
0.015198 0.366089 0.732239
0.301331 0.366577 0.733276
0.478455 0.366577 0.734467
0.636353 0.366486 0.735657
0.780640 0.368378 0.736786
0.907654 0.376343 0.737793
1.000000 0.392822 0.738739
0.000000 0.518188 0.734039
0.000000 0.518463 0.734222
0.007477 0.519104 0.734589
0.299042 0.519928 0.735199
0.478638 0.520813 0.735931
0.634918 0.522095 0.736694
0.775299 0.525055 0.737457
0.898407 0.531769 0.738251
1.000000 0.543274 0.739075
0.000000 0.667236 0.735718
0.000000 0.667328 0.735840
0.002319 0.667511 0.736084
0.296387 0.667725 0.736511
0.477600 0.667938 0.737030
0.631104 0.668427 0.737671
0.766632 0.670166 0.738403
0.886078 0.674103 0.739227
0.993134 0.680603 0.740234
0.000000 0.798737 0.738586
0.000000 0.798584 0.738678
0.055939 0.798218 0.738922
0.320923 0.797546 0.739288
0.489136 0.796631 0.739838
0.633484 0.795837 0.740540
0.761383 0.795776 0.741425
0.876343 0.796997 0.742523
0.981354 0.799713 0.743835
0.000000 0.908752 0.744598
0.011536 0.908508 0.744690
0.222382 0.907898 0.744934
0.379974 0.906891 0.745361
0.518829 0.905609 0.745911
0.646027 0.904388 0.746735
0.763367 0.903564 0.747742
0.871979 0.903442 0.749023
0.973907 0.904266 0.750580
0.215881 1.000000 0.753876
0.259644 1.000000 0.753967
0.342651 1.000000 0.754181
0.445984 1.000000 0.754578
0.555511 1.000000 0.755188
0.664612 1.000000 0.756012
0.770355 1.000000 0.757050
0.871826 1.000000 0.758331
0.970032 1.000000 0.759888
0.000000 0.000000 0.844391
0.000000 0.000000 0.845428
0.000000 0.000000 0.847595
0.273956 0.000000 0.850525
0.463593 0.000000 0.853546
0.627747 0.000000 0.856262
0.776947 0.000000 0.858490
0.907959 0.000000 0.860168
1.000000 0.000000 0.861450
0.000000 0.070648 0.847137
0.000000 0.066956 0.847931
0.000000 0.056152 0.849640
0.281189 0.032776 0.852020
0.467499 0.003204 0.854553
0.630005 0.000000 0.856903
0.777832 0.000000 0.858856
0.907623 0.000000 0.860382
1.000000 0.006989 0.861511
0.000000 0.217041 0.851288
0.000000 0.216675 0.851807
0.008942 0.215454 0.852905
0.292908 0.212433 0.854523
0.474274 0.207001 0.856323
0.633759 0.200317 0.858032
0.778656 0.197510 0.859497
0.905914 0.207764 0.860626
1.000000 0.235199 0.861511
0.000000 0.365112 0.854828
0.000000 0.365295 0.855133
0.013458 0.365631 0.855774
0.301453 0.365845 0.856720
0.479675 0.365723 0.857819
0.636017 0.365967 0.858917
0.777100 0.368866 0.859863
0.900879 0.378235 0.860626
1.000000 0.395691 0.861206
0.000000 0.518097 0.856659
0.000000 0.518311 0.856812
0.010895 0.518829 0.857147
0.302032 0.519501 0.857697
0.480225 0.520355 0.858337
0.633972 0.521851 0.859009
0.770813 0.525452 0.859558
0.891144 0.532898 0.860046
0.997894 0.544861 0.860535
0.000000 0.666504 0.856995
0.000000 0.666595 0.857117
0.010437 0.666748 0.857330
0.301941 0.666901 0.857666
0.479187 0.667145 0.858063
0.629181 0.667908 0.858551
0.761230 0.670013 0.859009
0.878448 0.674347 0.859528
0.984344 0.681091 0.860107
0.000000 0.797272 0.857727
0.000000 0.797119 0.857819
0.079529 0.796753 0.858002
0.326508 0.796143 0.858276
0.489563 0.795349 0.858673
0.629974 0.794769 0.859131
0.755066 0.795044 0.859741
0.868378 0.796539 0.860413
0.972687 0.799438 0.861237
0.000000 0.907043 0.860565
0.021942 0.906799 0.860626
0.231445 0.906219 0.860809
0.381622 0.905304 0.861115
0.516327 0.904175 0.861511
0.640747 0.903168 0.862061
0.756195 0.902557 0.862732
0.863800 0.902679 0.863525
0.965393 0.903656 0.864502
0.219543 1.000000 0.865662
0.261414 1.000000 0.865723
0.341614 1.000000 0.865875
0.442413 1.000000 0.866150
0.550018 1.000000 0.866577
0.657654 1.000000 0.867126
0.762390 0.999969 0.867798
0.863434 0.999878 0.868652
0.961792 1.000000 0.869659
0.000000 0.000000 0.957275
0.000000 0.000000 0.958038
0.007843 0.000000 0.959808
0.295532 0.000000 0.962250
0.477203 0.000000 0.964905
0.636017 0.000000 0.967346
0.779358 0.000000 0.969391
0.904999 0.000000 0.970856
1.000000 0.000000 0.971893
0.000000 0.052551 0.959351
0.000000 0.048096 0.959991
0.016388 0.035034 0.961395
0.302185 0.010376 0.963440
0.480835 0.000427 0.965729
0.637909 0.000000 0.967865
0.779968 0.000000 0.969635
0.904480 0.000000 0.970978
1.000000 0.032227 0.971924
0.000000 0.214508 0.962677
0.000000 0.213928 0.963104
0.046600 0.212250 0.964050
0.313507 0.208801 0.965485
0.487122 0.203491 0.967102
0.641052 0.198151 0.968689
0.780151 0.198517 0.970001
0.902405 0.212708 0.971008
1.000000 0.242371 0.971680
0.000000 0.365051 0.965424
0.000000 0.365143 0.965668
0.070709 0.365234 0.966278
0.322510 0.365234 0.967133
0.491974 0.365204 0.968140
0.642365 0.366058 0.969147
0.777588 0.370361 0.969971
0.896820 0.381287 0.970551
1.000000 0.399750 0.970978
0.000000 0.518188 0.966522
0.000000 0.518372 0.966675
0.072021 0.518768 0.966980
0.324402 0.519348 0.967499
0.492035 0.520294 0.968048
0.639099 0.522217 0.968628
0.770081 0.526581 0.969086
0.886444 0.534760 0.969421
0.991302 0.547272 0.969666
0.000000 0.665985 0.966095
0.000000 0.666016 0.966187
0.075562 0.666138 0.966370
0.325165 0.666260 0.966675
0.489929 0.666656 0.967010
0.632538 0.667755 0.967377
0.759277 0.670319 0.967712
0.873169 0.675018 0.968079
0.977295 0.682037 0.968384
0.000000 0.795837 0.965637
0.000000 0.795685 0.965698
0.144409 0.795349 0.965851
0.346283 0.794800 0.966064
0.497528 0.794189 0.966370
0.631042 0.793976 0.966736
0.751892 0.794525 0.967163
0.862640 0.796295 0.967590
0.965637 0.799408 0.968109
0.011749 0.905243 0.966614
0.106201 0.905029 0.966675
0.258057 0.904541 0.966797
0.392639 0.903748 0.967010
0.519562 0.902832 0.967316
0.639252 0.902039 0.967712
0.751740 0.901733 0.968170
0.857544 0.902039 0.968719
0.958435 0.903107 0.969360
0.238556 1.000000 0.969208
0.275879 1.000000 0.969269
0.349792 1.000000 0.969391
0.445221 1.000000 0.969604
0.548889 1.000000 0.969879
0.653778 0.999634 0.970276
0.756683 0.999176 0.970764
0.856781 0.999146 0.971313
0.955017 0.999573 0.972015
0.000000 0.000000 1.000000
0.000000 0.000000 1.000000
0.114777 0.000000 1.000000
0.339264 0.000000 1.000000
0.505402 0.000000 1.000000
0.656433 0.000000 1.000000
0.792816 0.000000 1.000000
0.913300 0.000000 1.000000
1.000000 0.000000 1.000000
0.000000 0.028534 1.000000
0.000000 0.022858 1.000000
0.132446 0.009155 1.000000
0.345642 0.001617 1.000000
0.510071 0.000000 1.000000
0.658997 0.000000 1.000000
0.793732 0.000000 1.000000
0.913116 0.000183 1.000000
1.000000 0.056580 1.000000
0.000000 0.211060 1.000000
0.000000 0.210388 1.000000
0.168427 0.208496 1.000000
0.361267 0.204926 1.000000
0.518890 0.200226 1.000000
0.663574 0.196747 1.000000
0.794983 0.200745 1.000000
0.912048 0.218353 1.000000
1.000000 0.249603 1.000000
0.000000 0.365326 1.000000
0.000000 0.365356 1.000000
0.205536 0.365326 1.000000
0.377197 0.365265 1.000000
0.527710 0.365417 1.000000
0.667236 0.367096 1.000000
0.794189 0.372864 1.000000
0.908295 0.384979 1.000000
1.000000 0.404144 1.000000
0.000000 0.519409 1.000000
0.003296 0.519531 1.000000
0.229340 0.519806 1.000000
0.388702 0.520325 1.000000
0.533020 0.521423 1.000000
0.667206 0.523743 1.000000
0.789551 0.528748 1.000000
0.900879 0.537415 1.000000
1.000000 0.550018 1.000000
0.000000 0.667023 1.000000
0.070984 0.667023 1.000000
0.253204 0.667053 1.000000
0.400177 0.667175 1.000000
0.537292 0.667603 1.000000
0.665100 0.668915 1.000000
0.783051 0.671722 1.000000
0.891968 0.676544 1.000000
0.993591 0.683411 1.000000
0.112000 0.796387 1.000000
0.190125 0.796234 1.000000
0.303650 0.795868 1.000000
0.427429 0.795288 1.000000
0.550781 0.794769 1.000000
0.669373 0.794647 1.000000
0.781525 0.795288 1.000000
0.887207 0.797028 1.000000
0.987610 0.799957 1.000000
0.270020 0.905853 1.000000
0.305695 0.905609 1.000000
0.378174 0.905121 1.000000
0.473480 0.904358 1.000000
0.578094 0.903473 1.000000
0.684265 0.902679 1.000000
0.788391 0.902283 1.000000
0.889191 0.902496 1.000000
0.987518 0.903351 1.000000
0.381500 1.000000 1.000000
0.403809 1.000000 1.000000
0.453918 1.000000 1.000000
0.526917 1.000000 1.000000
0.613708 1.000000 1.000000
0.706879 1.000000 1.000000
0.801941 0.999939 1.000000
0.897156 0.999695 1.000000
0.992523 0.999847 1.000000
