滤镜资源/Professional Luts Collection/Lutify.me Professional/Alternative Process/Atacamite.cube
# Created by: Lutify.me
# Copyright: (c) Copyright Lutify.me 2015
# Website: https://lutify.me
#LUT size
LUT_3D_SIZE 9
#LUT data points
0.000000 0.000000 0.000000
0.046875 0.007721 0.000763
0.128296 0.025726 0.001648
0.235718 0.044495 0.003052
0.389374 0.028595 0.002747
0.588654 0.000000 0.000000
0.782318 0.000000 0.000000
0.941742 0.000000 0.000000
1.000000 0.000000 0.000000
0.000000 0.099182 0.001190
0.001312 0.103668 0.001862
0.112793 0.112946 0.002655
0.233002 0.122498 0.003357
0.393494 0.117432 0.001465
0.594116 0.059937 0.000000
0.785278 0.000000 0.000000
0.942474 0.000000 0.000000
1.000000 0.000000 0.000000
0.000000 0.219604 0.000153
0.000000 0.222290 0.000092
0.042725 0.228149 0.000153
0.222260 0.235199 0.000000
0.401886 0.235687 0.000000
0.605225 0.219879 0.000000
0.790741 0.195831 0.000000
0.943085 0.185150 0.000000
1.000000 0.205811 0.000000
0.000000 0.366364 0.000000
0.000000 0.368347 0.000000
0.000000 0.372833 0.000000
0.186676 0.378204 0.000000
0.410248 0.380096 0.000000
0.617523 0.375458 0.000000
0.795105 0.370667 0.000000
0.940918 0.373352 0.000000
1.000000 0.388031 0.000000
0.000000 0.530457 0.000000
0.000000 0.531616 0.000000
0.000000 0.533997 0.000000
0.111542 0.536316 0.000000
0.420013 0.536224 0.000000
0.627411 0.533661 0.000000
0.796539 0.532104 0.000000
0.935120 0.534851 0.000000
1.000000 0.543793 0.000000
0.000000 0.683441 0.000000
0.000000 0.683624 0.000000
0.000000 0.683777 0.000000
0.135590 0.683044 0.000000
0.447021 0.680725 0.000000
0.640839 0.677795 0.000000
0.798462 0.675812 0.000000
0.928467 0.676666 0.000000
1.000000 0.680939 0.000000
0.000000 0.811401 0.000000
0.000000 0.810974 0.000000
0.000000 0.809845 0.000000
0.275452 0.807617 0.000000
0.496185 0.804535 0.000000
0.664368 0.801086 0.000000
0.805298 0.798370 0.000000
0.925171 0.797424 0.000000
1.000000 0.798370 0.000000
0.000000 0.916168 0.000000
0.011475 0.915649 0.000000
0.222015 0.914337 0.000000
0.405823 0.912170 0.000000
0.559570 0.909271 0.000000
0.696320 0.906281 0.000000
0.817505 0.903870 0.000000
0.926422 0.902527 0.000000
1.000000 0.902252 0.000000
0.285126 1.000000 0.000000
0.324768 1.000000 0.000000
0.404388 1.000000 0.000000
0.507355 1.000000 0.000000
0.617676 1.000000 0.000000
0.726440 1.000000 0.010986
0.830444 1.000000 0.030945
0.929626 1.000000 0.055420
1.000000 1.000000 0.079590
0.000000 0.002289 0.103333
0.024384 0.010071 0.103668
0.120819 0.027374 0.104431
0.234222 0.045135 0.105591
0.391113 0.026733 0.106110
0.591248 0.000000 0.104401
0.783997 0.000000 0.100006
0.942535 0.000000 0.093018
1.000000 0.000000 0.082794
0.000000 0.100342 0.104614
0.000000 0.104645 0.104980
0.104492 0.113800 0.105591
0.231720 0.122833 0.106323
0.395416 0.116669 0.106232
0.596680 0.057007 0.103729
0.786865 0.000000 0.098114
0.943268 0.000000 0.089447
1.000000 0.000000 0.077667
0.000000 0.220367 0.105164
0.000000 0.222931 0.105316
0.027466 0.228668 0.105255
0.221649 0.235474 0.104889
0.404114 0.235504 0.102905
0.607635 0.219360 0.097717
0.792145 0.195465 0.089203
0.943787 0.185181 0.076965
1.000000 0.206482 0.060913
0.000000 0.366943 0.092712
0.000000 0.368866 0.092438
0.000000 0.373230 0.091400
0.187683 0.378479 0.088959
0.412933 0.380096 0.083618
0.619659 0.375336 0.073883
0.796326 0.370636 0.059540
0.941376 0.373535 0.041168
1.000000 0.388306 0.022064
0.000000 0.530792 0.044006
0.000000 0.531921 0.043213
0.000000 0.534210 0.040741
0.116119 0.536407 0.035797
0.423096 0.536163 0.027191
0.629211 0.533630 0.015411
0.797424 0.532135 0.005920
0.935394 0.534973 0.001831
1.000000 0.543976 0.000519
0.000000 0.683502 0.000854
0.000000 0.683655 0.000793
0.000000 0.683807 0.000671
0.141296 0.682953 0.000366
0.449524 0.680664 0.000000
0.642090 0.677734 0.000000
0.798981 0.675812 0.000000
0.928406 0.676727 0.000000
1.000000 0.681061 0.000000
0.000000 0.811310 0.000000
0.000000 0.810883 0.000000
0.000000 0.809692 0.000000
0.279236 0.807495 0.000031
0.497711 0.804413 0.000092
0.664948 0.800995 0.000275
0.805298 0.798309 0.000549
0.924805 0.797394 0.001495
1.000000 0.798401 0.003387
0.000000 0.916016 0.027374
0.012238 0.915527 0.028046
0.225250 0.914185 0.029724
0.407043 0.912018 0.032593
0.559967 0.909180 0.037872
0.696228 0.906219 0.045441
0.817078 0.903809 0.056030
0.925781 0.902496 0.068878
1.000000 0.902222 0.085358
0.285919 1.000000 0.135803
0.325439 1.000000 0.136444
0.404724 1.000000 0.137726
0.507294 1.000000 0.140198
0.617249 1.000000 0.143982
0.725800 1.000000 0.149323
0.829651 1.000000 0.156433
0.928741 1.000000 0.165283
1.000000 1.000000 0.175598
0.000000 0.007233 0.226135
0.000000 0.014923 0.226349
0.092804 0.031036 0.227112
0.227814 0.045746 0.228210
0.394379 0.021271 0.229370
0.596741 0.000000 0.229980
0.787354 0.000000 0.229797
0.943939 0.000000 0.229156
1.000000 0.000000 0.228149
0.000000 0.103210 0.227722
0.000000 0.107330 0.227966
0.072632 0.115417 0.228668
0.225983 0.123260 0.229614
0.399048 0.114594 0.230499
0.602051 0.049500 0.230652
0.790070 0.000000 0.230042
0.944550 0.000000 0.228882
1.000000 0.000000 0.227478
0.000000 0.222137 0.230499
0.000000 0.224609 0.230713
0.000000 0.230072 0.231049
0.217377 0.236053 0.231506
0.408478 0.234894 0.231659
0.612701 0.217865 0.230804
0.794952 0.194580 0.229156
0.944794 0.185516 0.227051
1.000000 0.207825 0.224701
0.000000 0.368347 0.230011
0.000000 0.370178 0.230011
0.000000 0.374268 0.229889
0.187103 0.378998 0.229614
0.418335 0.379974 0.228668
0.624023 0.375000 0.226715
0.798553 0.370605 0.224121
0.941925 0.373932 0.221313
1.000000 0.389069 0.218750
0.000000 0.531616 0.221680
0.000000 0.532654 0.221588
0.000000 0.534729 0.221252
0.123749 0.536560 0.220581
0.429077 0.536041 0.219238
0.632660 0.533478 0.217224
0.798889 0.532166 0.215057
0.935364 0.535217 0.213257
1.000000 0.544403 0.212311
0.000000 0.683655 0.212372
0.000000 0.683777 0.212311
0.000000 0.683746 0.212097
0.151794 0.682770 0.211700
0.454407 0.680420 0.211060
0.644318 0.677582 0.210327
0.799438 0.675781 0.210052
0.927734 0.676819 0.210693
1.000000 0.681244 0.212708
0.000000 0.811005 0.216003
0.000000 0.810577 0.216125
0.000000 0.809357 0.216339
0.286621 0.807190 0.216736
0.500458 0.804138 0.217438
0.665771 0.800781 0.218689
0.804779 0.798218 0.220886
0.923523 0.797424 0.224243
1.000000 0.798462 0.229126
0.000000 0.915680 0.241608
0.013824 0.915131 0.241821
0.231659 0.913849 0.242279
0.409332 0.911713 0.243347
0.560486 0.908905 0.244934
0.695496 0.906036 0.247406
0.815582 0.903717 0.250885
0.923889 0.902435 0.255524
1.000000 0.902222 0.261475
0.287659 1.000000 0.282074
0.326630 1.000000 0.282288
0.404816 1.000000 0.282928
0.506683 1.000000 0.284180
0.615906 1.000000 0.286011
0.723907 1.000000 0.288727
0.827454 1.000000 0.292389
0.926514 1.000000 0.296997
1.000000 1.000000 0.302734
0.000000 0.015503 0.371826
0.000000 0.022247 0.372162
0.001953 0.036377 0.372833
0.206146 0.045013 0.373993
0.395569 0.011841 0.375336
0.602997 0.000000 0.376587
0.790710 0.000000 0.377777
0.944458 0.000000 0.378967
1.000000 0.000000 0.380096
0.000000 0.107758 0.373596
0.000000 0.111237 0.373840
0.000000 0.118225 0.374512
0.205658 0.123260 0.375519
0.400940 0.109772 0.376678
0.608154 0.035339 0.377716
0.793213 0.000000 0.378601
0.944885 0.000000 0.379456
1.000000 0.000000 0.380310
0.000000 0.224945 0.377014
0.000000 0.227203 0.377258
0.000000 0.231995 0.377716
0.200348 0.236664 0.378387
0.411835 0.233398 0.379089
0.618286 0.215271 0.379486
0.797516 0.192902 0.379761
0.944672 0.186035 0.380005
1.000000 0.210144 0.380310
0.000000 0.370514 0.379852
0.000000 0.372253 0.379974
0.000000 0.375854 0.380157
0.176239 0.379700 0.380341
0.423584 0.379578 0.380402
0.628662 0.374420 0.380157
0.800201 0.370575 0.379791
0.941223 0.374695 0.379547
1.000000 0.390289 0.379669
0.000000 0.532867 0.379486
0.000000 0.533752 0.379517
0.000000 0.535461 0.379547
0.128479 0.536713 0.379517
0.435638 0.535736 0.379303
0.636078 0.533234 0.378937
0.799530 0.532227 0.378723
0.933838 0.535675 0.378845
1.000000 0.545166 0.379547
0.000000 0.683807 0.379333
0.000000 0.683807 0.379333
0.000000 0.683594 0.379364
0.167511 0.682404 0.379425
0.459778 0.679993 0.379456
0.646179 0.677307 0.379700
0.798828 0.675751 0.380188
0.925415 0.677032 0.381287
1.000000 0.681580 0.383087
0.000000 0.810455 0.385345
0.000000 0.809998 0.385437
0.000122 0.808746 0.385620
0.295166 0.806580 0.385986
0.503143 0.803619 0.386566
0.665741 0.800415 0.387512
0.802826 0.798035 0.389038
0.920471 0.797394 0.391205
1.000000 0.798523 0.394135
0.000000 0.915009 0.401306
0.016083 0.914490 0.401428
0.239532 0.913208 0.401764
0.411652 0.911133 0.402405
0.560333 0.908447 0.403351
0.693481 0.905701 0.404816
0.812469 0.903503 0.406830
0.920258 0.902344 0.409576
1.000000 0.902222 0.412994
0.289551 1.000000 0.424988
0.327789 1.000000 0.425140
0.404816 1.000000 0.425476
0.505188 1.000000 0.426178
0.613251 1.000000 0.427338
0.720398 1.000000 0.428925
0.823517 1.000000 0.431122
0.922455 1.000000 0.433868
1.000000 1.000000 0.437256
0.000000 0.025024 0.528900
0.000000 0.030762 0.529053
0.000000 0.040771 0.529572
0.157013 0.040192 0.530365
0.394135 0.002655 0.531342
0.608734 0.000000 0.532318
0.792877 0.000000 0.533356
0.943085 0.000000 0.534393
1.000000 0.000000 0.535431
0.000000 0.112915 0.530151
0.000000 0.115723 0.530334
0.000000 0.120697 0.530792
0.160034 0.121796 0.531494
0.400696 0.100403 0.532349
0.613678 0.017731 0.533173
0.795105 0.000000 0.533997
0.943298 0.000000 0.534821
1.000000 0.000000 0.535614
0.000000 0.228668 0.532745
0.000000 0.230560 0.532898
0.000000 0.234283 0.533203
0.162903 0.236816 0.533722
0.413849 0.230469 0.534210
0.623199 0.211182 0.534637
0.798828 0.190613 0.535004
0.942596 0.187103 0.535370
1.000000 0.213654 0.535797
0.000000 0.373474 0.535065
0.000000 0.374939 0.535095
0.000000 0.377777 0.535248
0.150665 0.380219 0.535431
0.428497 0.378723 0.535492
0.632629 0.373474 0.535461
0.800598 0.370544 0.535370
0.938477 0.375824 0.535370
1.000000 0.392273 0.535583
0.000000 0.534424 0.535309
0.000000 0.535065 0.535339
0.000000 0.536255 0.535339
0.133301 0.536713 0.535309
0.442383 0.535217 0.535248
0.638855 0.532898 0.535065
0.798798 0.532379 0.534973
0.930389 0.536438 0.535095
1.000000 0.546234 0.535614
0.000000 0.683746 0.535400
0.000000 0.683685 0.535431
0.000000 0.683197 0.535461
0.192047 0.681763 0.535461
0.465485 0.679382 0.535492
0.647430 0.676880 0.535583
0.796814 0.675690 0.535889
0.921234 0.677338 0.536560
1.000000 0.682068 0.537628
0.000000 0.809570 0.538910
0.000000 0.809082 0.538940
0.004913 0.807831 0.539062
0.305939 0.805695 0.539246
0.506256 0.802856 0.539581
0.665070 0.799866 0.540131
0.799469 0.797821 0.540985
0.915680 0.797394 0.542236
1.000000 0.798676 0.543945
0.000000 0.914032 0.548157
0.022583 0.913544 0.548248
0.250854 0.912292 0.548431
0.415314 0.910309 0.548737
0.560150 0.907776 0.549316
0.690613 0.905212 0.550140
0.807953 0.903290 0.551331
0.915009 0.902222 0.552917
1.000000 0.902191 0.554962
0.293854 1.000000 0.562103
0.330811 1.000000 0.562195
0.405640 1.000000 0.562408
0.503784 1.000000 0.562805
0.609863 1.000000 0.563477
0.715820 1.000000 0.564423
0.818237 1.000000 0.565674
0.916962 1.000000 0.567352
1.000000 1.000000 0.569397
0.000000 0.034668 0.676514
0.000000 0.038025 0.676666
0.000000 0.041290 0.676941
0.091431 0.026245 0.677399
0.398926 0.000000 0.677887
0.617004 0.000000 0.678375
0.795746 0.000000 0.678864
0.941132 0.000000 0.679230
1.000000 0.000000 0.679596
0.000000 0.118103 0.677277
0.000000 0.119659 0.677399
0.000000 0.121796 0.677643
0.102509 0.116669 0.678040
0.406616 0.083649 0.678467
0.621674 0.003723 0.678802
0.797699 0.000000 0.679108
0.941162 0.000000 0.679382
1.000000 0.000000 0.679565
0.000000 0.232635 0.678741
0.000000 0.233978 0.678833
0.000000 0.236145 0.678955
0.121033 0.235626 0.679199
0.422089 0.225739 0.679352
0.630402 0.205933 0.679413
0.800720 0.188110 0.679413
0.939972 0.189270 0.679352
1.000000 0.218750 0.679260
0.000000 0.376740 0.679626
0.000000 0.377747 0.679626
0.000000 0.379578 0.679657
0.136047 0.380280 0.679626
0.439240 0.377319 0.679504
0.638641 0.372437 0.679230
0.801453 0.370789 0.678925
0.935150 0.377655 0.678589
1.000000 0.395050 0.678345
0.000000 0.535889 0.678650
0.000000 0.536285 0.678650
0.000000 0.536774 0.678558
0.153503 0.536407 0.678406
0.453949 0.534546 0.678162
0.643555 0.532593 0.677826
0.798462 0.532715 0.677521
0.926392 0.537567 0.677277
1.000000 0.547852 0.677216
0.000000 0.683472 0.677124
0.000000 0.683228 0.677094
0.000000 0.682465 0.677032
0.227814 0.680878 0.676941
0.475464 0.678619 0.676819
0.650421 0.676422 0.676666
0.795044 0.675720 0.676636
0.916595 0.677826 0.676727
1.000000 0.682831 0.677094
0.000000 0.808319 0.677582
0.000000 0.807831 0.677612
0.022369 0.806610 0.677582
0.324341 0.804565 0.677612
0.512756 0.801941 0.677704
0.665741 0.799255 0.677856
0.796295 0.797577 0.678192
0.910553 0.797394 0.678741
1.000000 0.798889 0.679535
0.011597 0.912750 0.681641
0.080231 0.912292 0.681671
0.271576 0.911133 0.681732
0.423584 0.909271 0.681885
0.562195 0.906952 0.682098
0.688599 0.904633 0.682465
0.803589 0.902954 0.683044
0.909546 0.902100 0.683807
1.000000 0.902191 0.684814
0.305664 1.000000 0.688507
0.339935 1.000000 0.688568
0.410797 1.000000 0.688660
0.504944 1.000000 0.688843
0.608002 1.000000 0.689148
0.711823 1.000000 0.689575
0.813110 1.000000 0.690216
0.911377 1.000000 0.691040
1.000000 1.000000 0.692078
0.000000 0.039032 0.805634
0.000000 0.038757 0.805695
0.000000 0.031494 0.805817
0.097656 0.003448 0.805969
0.421997 0.000000 0.806091
0.632446 0.000000 0.806152
0.802429 0.000000 0.806091
0.941101 0.000000 0.805908
1.000000 0.000000 0.805573
0.000000 0.120880 0.805969
0.000000 0.121033 0.806030
0.000000 0.118713 0.806122
0.115509 0.104645 0.806244
0.430023 0.053253 0.806305
0.636597 0.000000 0.806244
0.803955 0.000000 0.806030
0.940887 0.000000 0.805756
1.000000 0.000000 0.805328
0.000000 0.235809 0.806488
0.000000 0.236267 0.806488
0.000000 0.236237 0.806488
0.145081 0.231995 0.806488
0.445953 0.218903 0.806335
0.644196 0.199951 0.806091
0.806091 0.186218 0.805664
0.939148 0.193115 0.805145
1.000000 0.225830 0.804474
0.000000 0.379517 0.806030
0.000000 0.380005 0.806000
0.000000 0.380493 0.805908
0.189453 0.379425 0.805695
0.462921 0.375610 0.805328
0.650818 0.371552 0.804840
0.805573 0.371613 0.804199
0.933594 0.380402 0.803467
1.000000 0.398834 0.802704
0.000000 0.536896 0.803619
0.000000 0.536957 0.803589
0.000000 0.536804 0.803436
0.226654 0.535706 0.803162
0.476196 0.533813 0.802734
0.654022 0.532379 0.802185
0.801208 0.533447 0.801605
0.924194 0.539215 0.800964
1.000000 0.549988 0.800354
0.000000 0.682648 0.800354
0.000000 0.682312 0.800323
0.000000 0.681396 0.800171
0.280762 0.679810 0.799957
0.494659 0.677765 0.799622
0.658630 0.676056 0.799255
0.796204 0.675995 0.798859
0.913788 0.678619 0.798523
1.000000 0.683899 0.798279
0.000000 0.806763 0.798157
0.000000 0.806305 0.798126
0.092499 0.805145 0.798065
0.356628 0.803253 0.797974
0.526947 0.800873 0.797821
0.670807 0.798615 0.797699
0.795929 0.797333 0.797607
0.907288 0.797546 0.797638
1.000000 0.799225 0.797760
0.066864 0.911255 0.798370
0.174866 0.910797 0.798370
0.307373 0.909760 0.798370
0.441223 0.908081 0.798370
0.570099 0.906006 0.798370
0.690369 0.904053 0.798431
0.801819 0.902618 0.798553
0.905914 0.902039 0.798767
1.000000 0.902252 0.799103
0.329834 1.000000 0.800568
0.360199 1.000000 0.800568
0.424561 1.000000 0.800598
0.512329 1.000000 0.800629
0.610535 1.000000 0.800720
0.710999 1.000000 0.800873
0.810303 1.000000 0.801086
0.907532 1.000000 0.801422
1.000000 0.999969 0.801788
0.000000 0.028229 0.915558
0.000000 0.022614 0.915588
0.000000 0.003693 0.915619
0.194550 0.000000 0.915588
0.466553 0.000000 0.915497
0.657471 0.000000 0.915283
0.814819 0.000000 0.914978
0.944702 0.000000 0.914459
1.000000 0.000000 0.913727
0.000000 0.117584 0.915680
0.000000 0.115387 0.915680
0.000000 0.106812 0.915680
0.213928 0.080048 0.915619
0.473663 0.011932 0.915466
0.660797 0.000000 0.915192
0.815887 0.000000 0.914764
0.944153 0.000000 0.914154
1.000000 0.001068 0.913361
0.000000 0.236176 0.915588
0.000000 0.235535 0.915588
0.000000 0.232910 0.915497
0.247955 0.225128 0.915344
0.487213 0.210602 0.915039
0.666809 0.194122 0.914581
0.816895 0.185944 0.913971
0.941772 0.199585 0.913208
1.000000 0.235077 0.912262
0.000000 0.380798 0.914398
0.000000 0.380676 0.914307
0.000000 0.379944 0.914185
0.281921 0.377533 0.913879
0.500824 0.373810 0.913422
0.671143 0.371185 0.912811
0.814728 0.373444 0.912018
0.935394 0.384308 0.911133
1.000000 0.403778 0.910156
0.000000 0.536987 0.911285
0.000000 0.536774 0.911224
0.002228 0.536102 0.911041
0.309601 0.534760 0.910706
0.510651 0.533203 0.910217
0.671844 0.532562 0.909607
0.808533 0.534760 0.908875
0.925171 0.541534 0.908112
1.000000 0.552887 0.907288
0.000000 0.681396 0.907288
0.000000 0.681000 0.907257
0.056702 0.680115 0.907074
0.345612 0.678650 0.906830
0.524139 0.676971 0.906433
0.673248 0.675873 0.905975
0.801575 0.676544 0.905457
0.914062 0.679718 0.904938
1.000000 0.685272 0.904388
0.000000 0.804962 0.903992
0.016388 0.804565 0.903961
0.225037 0.803497 0.903870
0.401093 0.801819 0.903717
0.549316 0.799774 0.903473
0.681213 0.798035 0.903259
0.799316 0.797302 0.903015
0.906860 0.797852 0.902802
1.000000 0.799744 0.902649
0.205261 0.909576 0.902527
0.258759 0.909210 0.902527
0.354187 0.908234 0.902466
0.467651 0.906769 0.902374
0.583984 0.905060 0.902283
0.696533 0.903473 0.902222
0.803284 0.902374 0.902161
0.904846 0.901978 0.902130
1.000000 0.902374 0.902161
0.363251 1.000000 0.902588
0.389313 1.000000 0.902557
0.445892 1.000000 0.902557
0.525757 1.000000 0.902557
0.617645 1.000000 0.902527
0.713776 1.000000 0.902527
0.810272 1.000000 0.902557
0.905884 1.000000 0.902618
1.000000 1.000000 0.902771
0.000000 0.000000 1.000000
0.000000 0.000000 1.000000
0.000000 0.000000 1.000000
0.316956 0.000000 1.000000
0.521851 0.000000 1.000000
0.688660 0.000000 1.000000
0.830963 0.000000 1.000000
0.950897 0.000000 1.000000
1.000000 0.000000 1.000000
0.000000 0.101044 1.000000
0.000000 0.095581 1.000000
0.003967 0.078217 1.000000
0.328522 0.031860 1.000000
0.527222 0.000000 1.000000
0.691132 0.000000 1.000000
0.831390 0.000000 1.000000
0.949982 0.000000 1.000000
1.000000 0.008118 1.000000
0.000000 0.231384 1.000000
0.000000 0.229828 1.000000
0.051239 0.224945 1.000000
0.350525 0.215302 1.000000
0.537323 0.201813 1.000000
0.695099 0.189575 1.000000
0.831085 0.188721 1.000000
0.946899 0.208771 1.000000
1.000000 0.246521 1.000000
0.000000 0.379791 1.000000
0.000000 0.379272 1.000000
0.120331 0.377808 1.000000
0.372467 0.375244 1.000000
0.546478 0.372498 1.000000
0.696625 0.371826 1.000000
0.827026 0.376648 1.000000
0.939606 0.389526 1.000000
1.000000 0.409912 1.000000
0.000000 0.536072 1.000000
0.000000 0.535797 1.000000
0.180664 0.535034 1.000000
0.389282 0.533905 1.000000
0.551605 0.532959 1.000000
0.694153 0.533356 1.000000
0.818817 0.536865 1.000000
0.928497 0.544617 1.000000
1.000000 0.556366 1.000000
0.000000 0.679901 1.000000
0.006073 0.679565 1.000000
0.242096 0.678772 1.000000
0.411499 0.677582 1.000000
0.559082 0.676422 1.000000
0.691559 0.676056 1.000000
0.809753 0.677521 1.000000
0.916565 0.681244 1.000000
1.000000 0.687012 1.000000
0.112579 0.803070 1.000000
0.199310 0.802704 1.000000
0.320068 0.801788 1.000000
0.449432 0.800385 1.000000
0.575958 0.798798 1.000000
0.694946 0.797668 1.000000
0.805328 0.797363 1.000000
0.908569 0.798309 1.000000
1.000000 0.800385 1.000000
0.296051 0.907806 1.000000
0.331238 0.907532 1.000000
0.403198 0.906708 1.000000
0.498047 0.905518 1.000000
0.601501 0.904144 1.000000
0.705597 0.902924 1.000000
0.807098 0.902191 1.000000
0.905609 0.902039 1.000000
1.000000 0.902588 1.000000
0.399658 1.000000 1.000000
0.421631 1.000000 1.000000
0.470947 1.000000 1.000000
0.542694 1.000000 1.000000
0.627747 1.000000 1.000000
0.718872 1.000000 1.000000
0.812103 1.000000 1.000000
0.905792 0.999969 1.000000
0.999969 1.000000 0.999939
