滤镜资源/Professional Luts Collection/Lutify.me Professional/Alternative Process/Atacamite.cube
# Created by: Lutify.me
# Copyright: (c) Copyright Lutify.me 2015
# Website: https://lutify.me
#LUT size
LUT_3D_SIZE 33
#LUT data points
0.000000 0.000000 0.000000
0.007690 0.001190 0.000000
0.016449 0.003082 0.000031
0.029419 0.005066 0.000397
0.046875 0.007721 0.000763
0.065430 0.011871 0.000519
0.085510 0.015930 0.000977
0.106384 0.020569 0.001465
0.128296 0.025726 0.001648
0.151886 0.031433 0.002167
0.177429 0.036774 0.002350
0.205261 0.041290 0.002686
0.235718 0.044495 0.003052
0.269012 0.046051 0.003143
0.305634 0.044922 0.003143
0.345795 0.039520 0.003052
0.389374 0.028595 0.002747
0.436188 0.012695 0.002167
0.485657 0.001587 0.001038
0.536865 0.000000 0.000092
0.588654 0.000000 0.000000
0.639923 0.000000 0.000000
0.689575 0.000000 0.000000
0.737061 0.000000 0.000000
0.782318 0.000000 0.000000
0.825378 0.000000 0.000000
0.866333 0.000000 0.000000
0.905090 0.000000 0.000000
0.941742 0.000000 0.000000
0.975555 0.000000 0.000000
0.999481 0.000000 0.000000
1.000000 0.000000 0.000000
1.000000 0.000000 0.000000
0.000000 0.020966 0.000397
0.000000 0.022522 0.000397
0.008575 0.024078 0.000031
0.021423 0.026367 0.000702
0.039764 0.029053 0.001099
0.060394 0.032867 0.001434
0.081299 0.036926 0.001221
0.102997 0.041931 0.001801
0.125732 0.046906 0.002228
0.150055 0.051727 0.002350
0.176239 0.056091 0.002716
0.204559 0.059753 0.003113
0.235352 0.062531 0.003418
0.268921 0.063843 0.003479
0.305878 0.063019 0.003479
0.346283 0.058929 0.003204
0.390045 0.049927 0.002563
0.437042 0.033813 0.001770
0.486633 0.012939 0.000763
0.537842 0.000641 0.000000
0.589600 0.000000 0.000000
0.640778 0.000000 0.000000
0.690308 0.000000 0.000000
0.737701 0.000000 0.000000
0.782898 0.000000 0.000000
0.825836 0.000000 0.000000
0.866608 0.000000 0.000000
0.905304 0.000000 0.000000
0.941833 0.000000 0.000000
0.975586 0.000000 0.000000
0.999481 0.000000 0.000000
1.000000 0.000000 0.000000
1.000000 0.000000 0.000000
0.000000 0.044800 0.000427
0.000000 0.045898 0.001129
0.000000 0.047577 0.000793
0.012848 0.049591 0.000793
0.031189 0.052094 0.001160
0.053711 0.054962 0.001526
0.076569 0.058563 0.001587
0.099487 0.062164 0.001923
0.123016 0.066345 0.002350
0.148010 0.070282 0.002472
0.174713 0.073975 0.002930
0.203491 0.077087 0.003357
0.234833 0.079376 0.003510
0.268890 0.080536 0.003540
0.306122 0.080017 0.003418
0.346802 0.076874 0.003021
0.390869 0.069916 0.002441
0.438049 0.057251 0.001587
0.487762 0.035980 0.000549
0.538971 0.011780 0.000000
0.590668 0.000000 0.000000
0.641785 0.000000 0.000000
0.691193 0.000000 0.000000
0.738434 0.000000 0.000000
0.783478 0.000000 0.000000
0.826324 0.000000 0.000000
0.867004 0.000000 0.000000
0.905609 0.000000 0.000000
0.942047 0.000000 0.000000
0.975647 0.000000 0.000000
0.999481 0.000000 0.000000
1.000000 0.000000 0.000000
1.000000 0.000000 0.000000
0.000000 0.071625 0.000824
0.000000 0.072449 0.001190
0.000000 0.073639 0.001495
0.000366 0.075104 0.001190
0.018860 0.077057 0.001526
0.043396 0.079437 0.001862
0.068878 0.082214 0.002197
0.093750 0.085297 0.001984
0.118774 0.088531 0.002319
0.144989 0.091644 0.002930
0.172668 0.094666 0.003082
0.202179 0.097473 0.003387
0.234039 0.099670 0.003540
0.268738 0.100800 0.003296
0.306549 0.100372 0.003113
0.347656 0.097809 0.002686
0.392029 0.092438 0.002136
0.439423 0.083099 0.001282
0.489258 0.067871 0.000336
0.540497 0.043671 0.000000
0.592163 0.015533 0.000000
0.643158 0.000305 0.000000
0.692352 0.000000 0.000000
0.739410 0.000000 0.000000
0.784271 0.000000 0.000000
0.826935 0.000000 0.000000
0.867462 0.000000 0.000000
0.905945 0.000000 0.000000
0.942230 0.000000 0.000000
0.975739 0.000000 0.000000
0.999512 0.000000 0.000000
1.000000 0.000000 0.000000
1.000000 0.000000 0.000000
0.000000 0.099182 0.001190
0.000000 0.100098 0.001221
0.000000 0.100891 0.001831
0.000000 0.102020 0.001587
0.001312 0.103668 0.001862
0.026917 0.105682 0.001953
0.057526 0.107758 0.002014
0.085358 0.110229 0.002350
0.112793 0.112946 0.002655
0.140503 0.115692 0.002960
0.169495 0.118378 0.003174
0.200226 0.120575 0.003204
0.233002 0.122498 0.003357
0.268494 0.123627 0.002991
0.307007 0.123474 0.002869
0.348694 0.121582 0.002411
0.393494 0.117432 0.001465
0.441254 0.110321 0.000610
0.491241 0.099426 0.000061
0.542572 0.083435 0.000000
0.594116 0.059937 0.000000
0.644897 0.029266 0.000000
0.693848 0.005920 0.000000
0.740662 0.000000 0.000000
0.785278 0.000000 0.000000
0.827728 0.000000 0.000000
0.868073 0.000000 0.000000
0.906372 0.000000 0.000000
0.942474 0.000000 0.000000
0.975861 0.000000 0.000000
0.999512 0.000000 0.000000
1.000000 0.000000 0.000000
1.000000 0.000000 0.000000
0.000000 0.127625 0.001740
0.000000 0.128265 0.001556
0.000000 0.128906 0.001617
0.000000 0.129791 0.001862
0.000031 0.131256 0.001892
0.004578 0.132751 0.002228
0.038879 0.134735 0.002045
0.073090 0.136932 0.002289
0.104187 0.139130 0.002380
0.134399 0.141602 0.002655
0.165283 0.143890 0.002777
0.197449 0.145966 0.002777
0.231567 0.147644 0.002777
0.268036 0.148743 0.002655
0.307495 0.148773 0.001923
0.349915 0.147461 0.001373
0.395294 0.144318 0.000610
0.443451 0.138916 0.000153
0.493683 0.130737 0.000000
0.545044 0.119476 0.000000
0.596497 0.104584 0.000000
0.646973 0.085358 0.000000
0.695679 0.061249 0.000000
0.742157 0.037048 0.000000
0.786469 0.015045 0.000000
0.828674 0.004028 0.000000
0.868774 0.001312 0.000000
0.906860 0.000000 0.000000
0.942719 0.000000 0.000000
0.975922 0.000000 0.000000
0.999481 0.000031 0.000000
1.000000 0.000732 0.000000
1.000000 0.004059 0.000000
0.000000 0.157043 0.001495
0.000000 0.157562 0.001495
0.000000 0.158203 0.001709
0.000000 0.159027 0.001556
0.000000 0.160156 0.001587
0.000153 0.161560 0.001831
0.011108 0.163116 0.001953
0.053955 0.165070 0.001831
0.091705 0.167206 0.001923
0.125916 0.169281 0.001740
0.159454 0.171326 0.001984
0.193604 0.173309 0.001984
0.229401 0.174896 0.001678
0.267303 0.176025 0.001312
0.307800 0.176270 0.000793
0.351196 0.175385 0.000336
0.397369 0.173035 0.000153
0.446014 0.168945 0.000000
0.496490 0.162903 0.000000
0.547852 0.154602 0.000000
0.599182 0.144165 0.000000
0.649384 0.131866 0.000000
0.697693 0.118011 0.000000
0.743835 0.102539 0.000000
0.787842 0.085846 0.000000
0.829742 0.071930 0.000000
0.869537 0.061157 0.000000
0.907288 0.053040 0.000000
0.942963 0.048706 0.000000
0.975922 0.049011 0.000000
0.999481 0.054169 0.000000
1.000000 0.064484 0.000000
1.000000 0.077606 0.000000
0.000000 0.187500 0.000793
0.000000 0.187988 0.000549
0.000000 0.188660 0.000824
0.000000 0.189392 0.000580
0.000000 0.190491 0.000580
0.000000 0.191681 0.000580
0.000397 0.193176 0.000885
0.022797 0.194794 0.000885
0.073181 0.196686 0.000885
0.113861 0.198639 0.000641
0.151520 0.200623 0.000549
0.188568 0.202454 0.000427
0.226410 0.204010 0.000397
0.266052 0.205139 0.000305
0.308044 0.205627 0.000183
0.352539 0.205139 0.000061
0.399536 0.203491 0.000000
0.448792 0.200378 0.000000
0.499573 0.195770 0.000000
0.550995 0.189667 0.000000
0.602112 0.182129 0.000000
0.652008 0.173584 0.000000
0.699890 0.164551 0.000000
0.745636 0.155334 0.000000
0.789276 0.146332 0.000000
0.830780 0.138000 0.000000
0.870270 0.130829 0.000000
0.907745 0.125641 0.000000
0.943115 0.123352 0.000000
0.975830 0.124664 0.000000
0.999481 0.129517 0.000000
1.000000 0.137970 0.000000
1.000000 0.148834 0.000000
0.000000 0.219604 0.000153
0.000000 0.220062 0.000092
0.000000 0.220612 0.000122
0.000000 0.221313 0.000092
0.000000 0.222290 0.000092
0.000000 0.223480 0.000092
0.000000 0.224884 0.000092
0.000793 0.226440 0.000153
0.042725 0.228149 0.000153
0.096680 0.229980 0.000153
0.140472 0.231812 0.000061
0.181488 0.233612 0.000061
0.222260 0.235199 0.000000
0.264130 0.236359 0.000000
0.307892 0.237030 0.000000
0.353821 0.236877 0.000000
0.401886 0.235687 0.000000
0.451721 0.233429 0.000000
0.502838 0.229980 0.000000
0.554321 0.225403 0.000000
0.605225 0.219879 0.000000
0.654724 0.213745 0.000000
0.702179 0.207550 0.000000
0.747528 0.201447 0.000000
0.790741 0.195831 0.000000
0.831848 0.191040 0.000000
0.870972 0.187378 0.000000
0.908081 0.185272 0.000000
0.943085 0.185150 0.000000
0.975616 0.187195 0.000000
0.999451 0.191376 0.000000
1.000000 0.197693 0.000000
1.000000 0.205811 0.000000
0.000000 0.253601 0.000000
0.000000 0.254089 0.000000
0.000000 0.254517 0.000000
0.000000 0.255249 0.000000
0.000000 0.256073 0.000000
0.000000 0.257202 0.000000
0.000000 0.258545 0.000000
0.000000 0.260040 0.000000
0.002106 0.261627 0.000000
0.069366 0.263397 0.000000
0.124878 0.265167 0.000000
0.171722 0.266876 0.000000
0.216461 0.268402 0.000000
0.261200 0.269623 0.000000
0.307220 0.270325 0.000000
0.354828 0.270447 0.000000
0.404114 0.269653 0.000000
0.454773 0.268036 0.000000
0.506226 0.265442 0.000000
0.557770 0.261993 0.000000
0.608459 0.257935 0.000000
0.657501 0.253540 0.000000
0.704468 0.249207 0.000000
0.749329 0.245117 0.000000
0.792114 0.241486 0.000000
0.832794 0.238617 0.000000
0.871521 0.236725 0.000000
0.908264 0.236053 0.000000
0.942932 0.236877 0.000000
0.975220 0.239227 0.000000
0.999420 0.243256 0.000000
1.000000 0.248779 0.000000
1.000000 0.255676 0.000000
0.000000 0.289551 0.000000
0.000000 0.289978 0.000000
0.000000 0.290344 0.000000
0.000000 0.291046 0.000000
0.000000 0.291870 0.000000
0.000000 0.292908 0.000000
0.000000 0.294128 0.000000
0.000000 0.295532 0.000000
0.000061 0.297058 0.000000
0.021820 0.298737 0.000000
0.102020 0.300415 0.000000
0.158600 0.302002 0.000000
0.208679 0.303497 0.000000
0.257294 0.304688 0.000000
0.306000 0.305450 0.000000
0.355560 0.305695 0.000000
0.406250 0.305237 0.000000
0.457825 0.304016 0.000000
0.509705 0.302094 0.000000
0.561249 0.299530 0.000000
0.611603 0.296570 0.000000
0.660187 0.293427 0.000000
0.706665 0.290405 0.000000
0.751007 0.287689 0.000000
0.793304 0.285400 0.000000
0.833588 0.283752 0.000000
0.871857 0.282959 0.000000
0.908234 0.283142 0.000000
0.942535 0.284454 0.000000
0.974548 0.287048 0.000000
0.999359 0.290863 0.000000
1.000000 0.295837 0.000000
1.000000 0.301910 0.000000
0.000000 0.327148 0.000000
0.000000 0.327576 0.000000
0.000000 0.327942 0.000000
0.000000 0.328613 0.000000
0.000000 0.329376 0.000000
0.000000 0.330322 0.000000
0.000000 0.331451 0.000000
0.000000 0.332794 0.000000
0.000000 0.334167 0.000000
0.001740 0.335693 0.000000
0.064117 0.337280 0.000000
0.140991 0.338745 0.000000
0.198944 0.340149 0.000000
0.252167 0.341309 0.000000
0.304169 0.342102 0.000000
0.356110 0.342346 0.000000
0.408264 0.342133 0.000000
0.460724 0.341248 0.000000
0.513092 0.339783 0.000000
0.564636 0.337891 0.000000
0.614685 0.335754 0.000000
0.662750 0.333557 0.000000
0.708649 0.331482 0.000000
0.752502 0.329742 0.000000
0.794342 0.328369 0.000000
0.834167 0.327515 0.000000
0.871979 0.327423 0.000000
0.907928 0.328156 0.000000
0.941864 0.329681 0.000000
0.973663 0.332367 0.000000
0.999298 0.335907 0.000000
1.000000 0.340454 0.000000
1.000000 0.345795 0.000000
0.000000 0.366364 0.000000
0.000000 0.366699 0.000000
0.000000 0.367096 0.000000
0.000000 0.367676 0.000000
0.000000 0.368347 0.000000
0.000000 0.369232 0.000000
0.000000 0.370270 0.000000
0.000000 0.371490 0.000000
0.000000 0.372833 0.000000
0.000000 0.374207 0.000000
0.017029 0.375610 0.000000
0.115601 0.376953 0.000000
0.186676 0.378204 0.000000
0.246002 0.379242 0.000000
0.301849 0.379974 0.000000
0.356384 0.380280 0.000000
0.410248 0.380096 0.000000
0.463623 0.379517 0.000000
0.516296 0.378448 0.000000
0.567810 0.377014 0.000000
0.617523 0.375458 0.000000
0.665070 0.373932 0.000000
0.710449 0.372528 0.000000
0.753784 0.371429 0.000000
0.795105 0.370667 0.000000
0.834473 0.370392 0.000000
0.871887 0.370667 0.000000
0.907379 0.371674 0.000000
0.940918 0.373352 0.000000
0.972534 0.375885 0.000000
0.999207 0.379211 0.000000
1.000000 0.383270 0.000000
1.000000 0.388031 0.000000
0.000000 0.406738 0.000000
0.000000 0.407043 0.000000
0.000000 0.407379 0.000000
0.000000 0.407898 0.000000
0.000000 0.408539 0.000000
0.000000 0.409332 0.000000
0.000000 0.410309 0.000000
0.000000 0.411377 0.000000
0.000000 0.412567 0.000000
0.000000 0.413818 0.000000
0.001801 0.415070 0.000000
0.077118 0.416260 0.000000
0.171204 0.417328 0.000000
0.238953 0.418274 0.000000
0.299225 0.418854 0.000000
0.356476 0.419128 0.000000
0.412109 0.419006 0.000000
0.466431 0.418518 0.000000
0.519501 0.417694 0.000000
0.570801 0.416656 0.000000
0.620087 0.415497 0.000000
0.667114 0.414398 0.000000
0.712006 0.413452 0.000000
0.754822 0.412781 0.000000
0.795654 0.412384 0.000000
0.834534 0.412384 0.000000
0.871490 0.412872 0.000000
0.906586 0.413940 0.000000
0.939728 0.415649 0.000000
0.971130 0.417999 0.000000
0.998779 0.421021 0.000000
1.000000 0.424591 0.000000
1.000000 0.428772 0.000000
0.000000 0.447937 0.000000
0.000000 0.448212 0.000000
0.000000 0.448547 0.000000
0.000000 0.448975 0.000000
0.000000 0.449554 0.000000
0.000000 0.450256 0.000000
0.000000 0.451080 0.000000
0.000000 0.452026 0.000000
0.000000 0.453064 0.000000
0.000000 0.454132 0.000000
0.000000 0.455231 0.000000
0.044922 0.456238 0.000000
0.152618 0.457153 0.000000
0.231232 0.457855 0.000000
0.296692 0.458313 0.000000
0.356873 0.458466 0.000000
0.414124 0.458374 0.000000
0.469299 0.457916 0.000000
0.522583 0.457214 0.000000
0.573730 0.456390 0.000000
0.622528 0.455505 0.000000
0.669037 0.454651 0.000000
0.713379 0.453979 0.000000
0.755707 0.453522 0.000000
0.796021 0.453339 0.000000
0.834442 0.453461 0.000000
0.870941 0.454010 0.000000
0.905579 0.455048 0.000000
0.938324 0.456635 0.000000
0.969421 0.458771 0.000000
0.997437 0.461456 0.000000
1.000000 0.464630 0.000000
1.000000 0.468262 0.000000
0.000000 0.489410 0.000000
0.000000 0.489655 0.000000
0.000000 0.489929 0.000000
0.000000 0.490326 0.000000
0.000000 0.490753 0.000000
0.000000 0.491394 0.000000
0.000000 0.492096 0.000000
0.000000 0.492889 0.000000
0.000000 0.493744 0.000000
0.000000 0.494629 0.000000
0.000000 0.495483 0.000000
0.022308 0.496338 0.000000
0.129700 0.496979 0.000000
0.223999 0.497528 0.000000
0.294861 0.497772 0.000000
0.357819 0.497803 0.000000
0.416656 0.497559 0.000000
0.472534 0.497101 0.000000
0.525818 0.496490 0.000000
0.576630 0.495758 0.000000
0.624908 0.494995 0.000000
0.670898 0.494324 0.000000
0.714691 0.493744 0.000000
0.756470 0.493408 0.000000
0.796295 0.493256 0.000000
0.834229 0.493439 0.000000
0.870239 0.493988 0.000000
0.904419 0.494965 0.000000
0.936768 0.496368 0.000000
0.967560 0.498260 0.000000
0.995422 0.500641 0.000000
1.000000 0.503418 0.000000
1.000000 0.506592 0.000000
0.000000 0.530457 0.000000
0.000000 0.530670 0.000000
0.000000 0.530914 0.000000
0.000000 0.531219 0.000000
0.000000 0.531616 0.000000
0.000000 0.532104 0.000000
0.000000 0.532715 0.000000
0.000000 0.533295 0.000000
0.000000 0.533997 0.000000
0.000000 0.534668 0.000000
0.000000 0.535309 0.000000
0.013641 0.535889 0.000000
0.111542 0.536316 0.000000
0.218750 0.536591 0.000000
0.294678 0.536682 0.000000
0.360138 0.536530 0.000000
0.420013 0.536224 0.000000
0.476288 0.535675 0.000000
0.529419 0.535004 0.000000
0.579742 0.534363 0.000000
0.627411 0.533661 0.000000
0.672791 0.533051 0.000000
0.716034 0.532562 0.000000
0.757263 0.532196 0.000000
0.796539 0.532104 0.000000
0.833923 0.532257 0.000000
0.869446 0.532745 0.000000
0.903168 0.533600 0.000000
0.935120 0.534851 0.000000
0.965576 0.536499 0.000000
0.993347 0.538574 0.000000
1.000000 0.541016 0.000000
1.000000 0.543793 0.000000
0.000000 0.570679 0.000000
0.000000 0.570831 0.000000
0.000000 0.571014 0.000000
0.000000 0.571259 0.000000
0.000000 0.571594 0.000000
0.000000 0.571960 0.000000
0.000000 0.572418 0.000000
0.000000 0.572845 0.000000
0.000000 0.573334 0.000000
0.000000 0.573822 0.000000
0.000000 0.574219 0.000000
0.010712 0.574554 0.000000
0.106903 0.574768 0.000000
0.217224 0.574829 0.000000
0.297028 0.574738 0.000000
0.364166 0.574402 0.000000
0.424713 0.573944 0.000000
0.480774 0.573364 0.000000
0.533478 0.572693 0.000000
0.583160 0.572021 0.000000
0.630157 0.571411 0.000000
0.674896 0.570770 0.000000
0.717468 0.570312 0.000000
0.758118 0.569946 0.000000
0.796844 0.569824 0.000000
0.833649 0.569946 0.000000
0.868652 0.570312 0.000000
0.901886 0.571075 0.000000
0.933411 0.572174 0.000000
0.963501 0.573608 0.000000
0.991180 0.575348 0.000000
1.000000 0.577484 0.000000
1.000000 0.579895 0.000000
0.000000 0.609680 0.000000
0.000000 0.609802 0.000000
0.000000 0.609955 0.000000
0.000000 0.610107 0.000000
0.000000 0.610321 0.000000
0.000000 0.610596 0.000000
0.000000 0.610901 0.000000
0.000000 0.611206 0.000000
0.000000 0.611511 0.000000
0.000000 0.611786 0.000000
0.000000 0.612000 0.000000
0.012512 0.612122 0.000000
0.108826 0.612122 0.000000
0.220795 0.612000 0.000000
0.302643 0.611725 0.000000
0.370239 0.611298 0.000000
0.430664 0.610718 0.000000
0.486298 0.610077 0.000000
0.538147 0.609375 0.000000
0.587006 0.608704 0.000000
0.633270 0.608032 0.000000
0.677246 0.607452 0.000000
0.719177 0.606934 0.000000
0.759125 0.606567 0.000000
0.797180 0.606384 0.000000
0.833435 0.606445 0.000000
0.867828 0.606750 0.000000
0.900574 0.607361 0.000000
0.931671 0.608276 0.000000
0.961395 0.609497 0.000000
0.988983 0.610992 0.000000
1.000000 0.612762 0.000000
1.000000 0.614838 0.000000
0.000000 0.647308 0.000000
0.000000 0.647400 0.000000
0.000000 0.647461 0.000000
0.000000 0.647583 0.000000
0.000000 0.647705 0.000000
0.000000 0.647888 0.000000
0.000000 0.648041 0.000000
0.000000 0.648224 0.000000
0.000000 0.648376 0.000000
0.000000 0.648468 0.000000
0.000000 0.648468 0.000000
0.018433 0.648407 0.000000
0.118988 0.648254 0.000000
0.230347 0.647949 0.000000
0.311646 0.647522 0.000000
0.378632 0.646973 0.000000
0.438141 0.646332 0.000000
0.492645 0.645630 0.000000
0.543518 0.644958 0.000000
0.591370 0.644226 0.000000
0.636810 0.643555 0.000000
0.679993 0.642883 0.000000
0.721100 0.642395 0.000000
0.760345 0.641998 0.000000
0.797699 0.641754 0.000000
0.833282 0.641754 0.000000
0.867096 0.641937 0.000000
0.899292 0.642395 0.000000
0.929993 0.643158 0.000000
0.959381 0.644135 0.000000
0.986847 0.645355 0.000000
1.000000 0.646851 0.000000
1.000000 0.648529 0.000000
0.000000 0.683441 0.000000
0.000000 0.683472 0.000000
0.000000 0.683502 0.000000
0.000000 0.683563 0.000000
0.000000 0.683624 0.000000
0.000000 0.683685 0.000000
0.000000 0.683746 0.000000
0.000000 0.683807 0.000000
0.000000 0.683777 0.000000
0.000000 0.683716 0.000000
0.000000 0.683594 0.000000
0.027863 0.683350 0.000000
0.135590 0.683044 0.000000
0.245605 0.682587 0.000000
0.323883 0.682068 0.000000
0.389038 0.681427 0.000000
0.447021 0.680725 0.000000
0.500153 0.679962 0.000000
0.549683 0.679260 0.000000
0.596405 0.678558 0.000000
0.640839 0.677795 0.000000
0.683136 0.677124 0.000000
0.723419 0.676575 0.000000
0.761841 0.676147 0.000000
0.798462 0.675812 0.000000
0.833344 0.675720 0.000000
0.866547 0.675812 0.000000
0.898193 0.676147 0.000000
0.928467 0.676666 0.000000
0.957520 0.677429 0.000000
0.984833 0.678406 0.000000
0.999969 0.679596 0.000000
1.000000 0.680939 0.000000
0.000000 0.717957 0.000000
0.000000 0.717987 0.000000
0.000000 0.717957 0.000000
0.000000 0.717987 0.000000
0.000000 0.717987 0.000000
0.000000 0.717957 0.000000
0.000000 0.717926 0.000000
0.000000 0.717865 0.000000
0.000000 0.717712 0.000000
0.000000 0.717499 0.000000
0.000000 0.717224 0.000000
0.054474 0.716888 0.000000
0.157471 0.716431 0.000000
0.265564 0.715881 0.000000
0.339081 0.715271 0.000000
0.401367 0.714569 0.000000
0.457153 0.713837 0.000000
0.508606 0.713043 0.000000
0.556793 0.712250 0.000000
0.602325 0.711487 0.000000
0.645569 0.710754 0.000000
0.686829 0.710022 0.000000
0.726196 0.709412 0.000000
0.763733 0.708893 0.000000
0.799561 0.708527 0.000000
0.833679 0.708313 0.000000
0.866241 0.708313 0.000000
0.897339 0.708466 0.000000
0.927155 0.708832 0.000000
0.955841 0.709381 0.000000
0.983002 0.710083 0.000000
0.999908 0.711029 0.000000
1.000000 0.712067 0.000000
0.000000 0.750854 0.000000
0.000000 0.750854 0.000000
0.000000 0.750793 0.000000
0.000000 0.750763 0.000000
0.000000 0.750702 0.000000
0.000000 0.750580 0.000000
0.000000 0.750458 0.000000
0.000000 0.750305 0.000000
0.000000 0.750061 0.000000
0.000000 0.749725 0.000000
0.008545 0.749359 0.000000
0.092224 0.748871 0.000000
0.198456 0.748352 0.000000
0.288696 0.747711 0.000000
0.356659 0.747009 0.000000
0.415497 0.746277 0.000000
0.468811 0.745514 0.000000
0.518341 0.744690 0.000000
0.564880 0.743866 0.000000
0.609039 0.743073 0.000000
0.651062 0.742249 0.000000
0.691193 0.741516 0.000000
0.729492 0.740814 0.000000
0.766144 0.740234 0.000000
0.801086 0.739807 0.000000
0.834381 0.739532 0.000000
0.866272 0.739380 0.000000
0.896851 0.739410 0.000000
0.926178 0.739624 0.000000
0.954468 0.739960 0.000000
0.981445 0.740448 0.000000
0.999847 0.741150 0.000000
1.000000 0.741943 0.000000
0.000000 0.781982 0.000000
0.000000 0.781982 0.000000
0.000000 0.781891 0.000000
0.000000 0.781799 0.000000
0.000000 0.781708 0.000000
0.000000 0.781525 0.000000
0.000000 0.781342 0.000000
0.000000 0.781097 0.000000
0.000000 0.780762 0.000000
0.000000 0.780334 0.000000
0.038208 0.779877 0.000000
0.135101 0.779327 0.000000
0.238434 0.778717 0.000000
0.313965 0.778046 0.000000
0.376099 0.777313 0.000000
0.431244 0.776520 0.000000
0.481873 0.775726 0.000000
0.529266 0.774872 0.000000
0.574127 0.774017 0.000000
0.616730 0.773163 0.000000
0.657318 0.772339 0.000000
0.696228 0.771576 0.000000
0.733429 0.770844 0.000000
0.768951 0.770203 0.000000
0.802979 0.769714 0.000000
0.835510 0.769348 0.000000
0.866669 0.769135 0.000000
0.896667 0.769043 0.000000
0.925507 0.769104 0.000000
0.953430 0.769287 0.000000
0.980164 0.769592 0.000000
0.999786 0.770081 0.000000
1.000000 0.770660 0.000000
0.000000 0.811401 0.000000
0.000000 0.811371 0.000000
0.000000 0.811279 0.000000
0.000000 0.811157 0.000000
0.000000 0.810974 0.000000
0.000000 0.810791 0.000000
0.000000 0.810547 0.000000
0.000000 0.810242 0.000000
0.000000 0.809845 0.000000
0.010651 0.809357 0.000000
0.087463 0.808838 0.000000
0.187988 0.808258 0.000000
0.275452 0.807617 0.000000
0.340454 0.806946 0.000000
0.397003 0.806183 0.000000
0.448425 0.805359 0.000000
0.496185 0.804535 0.000000
0.541290 0.803650 0.000000
0.584198 0.802795 0.000000
0.625153 0.801941 0.000000
0.664368 0.801086 0.000000
0.701904 0.800293 0.000000
0.737915 0.799561 0.000000
0.772308 0.798920 0.000000
0.805298 0.798370 0.000000
0.836975 0.797943 0.000000
0.867401 0.797638 0.000000
0.896851 0.797455 0.000000
0.925171 0.797424 0.000000
0.952667 0.797485 0.000000
0.979187 0.797668 0.000000
0.999756 0.797974 0.000000
1.000000 0.798370 0.000000
0.000000 0.839294 0.000000
0.000000 0.839203 0.000000
0.000000 0.839142 0.000000
0.000000 0.838989 0.000000
0.000000 0.838806 0.000000
0.000000 0.838562 0.000000
0.000000 0.838257 0.000000
0.000000 0.837921 0.000000
0.005310 0.837524 0.000000
0.055481 0.837036 0.000000
0.150482 0.836487 0.000000
0.243591 0.835876 0.000000
0.310425 0.835236 0.000000
0.367340 0.834503 0.000000
0.418793 0.833740 0.000000
0.466553 0.832947 0.000000
0.511505 0.832092 0.000000
0.554230 0.831238 0.000000
0.595093 0.830353 0.000000
0.634308 0.829498 0.000000
0.671936 0.828674 0.000000
0.708038 0.827881 0.000000
0.742737 0.827118 0.000000
0.776062 0.826508 0.000000
0.808014 0.825928 0.000000
0.838806 0.825470 0.000000
0.868530 0.825134 0.000000
0.897278 0.824890 0.000000
0.925171 0.824768 0.000000
0.952209 0.824738 0.000000
0.978455 0.824829 0.000000
0.999725 0.825012 0.000000
1.000000 0.825287 0.000000
0.000000 0.865875 0.000000
0.000000 0.865784 0.000000
0.000000 0.865692 0.000000
0.000000 0.865540 0.000000
0.000000 0.865356 0.000000
0.000000 0.865112 0.000000
0.000000 0.864807 0.000000
0.006500 0.864441 0.000000
0.042175 0.864014 0.000000
0.132507 0.863525 0.000000
0.222260 0.862976 0.000000
0.288177 0.862396 0.000000
0.343842 0.861725 0.000000
0.394165 0.860992 0.000000
0.441010 0.860229 0.000000
0.485229 0.859436 0.000000
0.527344 0.858612 0.000000
0.567719 0.857788 0.000000
0.606567 0.856934 0.000000
0.643951 0.856079 0.000000
0.679962 0.855255 0.000000
0.714569 0.854492 0.000000
0.747955 0.853760 0.000000
0.780060 0.853149 0.000000
0.811035 0.852570 0.000000
