滤镜资源/Professional Luts Collection/Lutify.me Professional/Alternative Process/Atacamite.cube
# Created by: Lutify.me
# Copyright: (c) Copyright Lutify.me 2015
# Website: https://lutify.me
#LUT size
LUT_3D_SIZE 5
#LUT data points
0.000000 0.000000 0.000000
0.128296 0.025726 0.001648
0.389374 0.028595 0.002747
0.782318 0.000000 0.000000
1.000000 0.000000 0.000000
0.000000 0.219604 0.000153
0.042725 0.228149 0.000153
0.401886 0.235687 0.000000
0.790741 0.195831 0.000000
1.000000 0.205811 0.000000
0.000000 0.530457 0.000000
0.000000 0.533997 0.000000
0.420013 0.536224 0.000000
0.796539 0.532104 0.000000
1.000000 0.543793 0.000000
0.000000 0.811401 0.000000
0.000000 0.809845 0.000000
0.496185 0.804535 0.000000
0.805298 0.798370 0.000000
1.000000 0.798370 0.000000
0.285126 1.000000 0.000000
0.404388 1.000000 0.000000
0.617676 1.000000 0.000000
0.830444 1.000000 0.030945
1.000000 1.000000 0.079590
0.000000 0.007233 0.226135
0.092804 0.031036 0.227112
0.394379 0.021271 0.229370
0.787354 0.000000 0.229797
1.000000 0.000000 0.228149
0.000000 0.222137 0.230499
0.000000 0.230072 0.231049
0.408478 0.234894 0.231659
0.794952 0.194580 0.229156
1.000000 0.207825 0.224701
0.000000 0.531616 0.221680
0.000000 0.534729 0.221252
0.429077 0.536041 0.219238
0.798889 0.532166 0.215057
1.000000 0.544403 0.212311
0.000000 0.811005 0.216003
0.000000 0.809357 0.216339
0.500458 0.804138 0.217438
0.804779 0.798218 0.220886
1.000000 0.798462 0.229126
0.287659 1.000000 0.282074
0.404816 1.000000 0.282928
0.615906 1.000000 0.286011
0.827454 1.000000 0.292389
1.000000 1.000000 0.302734
0.000000 0.025024 0.528900
0.000000 0.040771 0.529572
0.394135 0.002655 0.531342
0.792877 0.000000 0.533356
1.000000 0.000000 0.535431
0.000000 0.228668 0.532745
0.000000 0.234283 0.533203
0.413849 0.230469 0.534210
0.798828 0.190613 0.535004
1.000000 0.213654 0.535797
0.000000 0.534424 0.535309
0.000000 0.536255 0.535339
0.442383 0.535217 0.535248
0.798798 0.532379 0.534973
1.000000 0.546234 0.535614
0.000000 0.809570 0.538910
0.004913 0.807831 0.539062
0.506256 0.802856 0.539581
0.799469 0.797821 0.540985
1.000000 0.798676 0.543945
0.293854 1.000000 0.562103
0.405640 1.000000 0.562408
0.609863 1.000000 0.563477
0.818237 1.000000 0.565674
1.000000 1.000000 0.569397
0.000000 0.039032 0.805634
0.000000 0.031494 0.805817
0.421997 0.000000 0.806091
0.802429 0.000000 0.806091
1.000000 0.000000 0.805573
0.000000 0.235809 0.806488
0.000000 0.236237 0.806488
0.445953 0.218903 0.806335
0.806091 0.186218 0.805664
1.000000 0.225830 0.804474
0.000000 0.536896 0.803619
0.000000 0.536804 0.803436
0.476196 0.533813 0.802734
0.801208 0.533447 0.801605
1.000000 0.549988 0.800354
0.000000 0.806763 0.798157
0.092499 0.805145 0.798065
0.526947 0.800873 0.797821
0.795929 0.797333 0.797607
1.000000 0.799225 0.797760
0.329834 1.000000 0.800568
0.424561 1.000000 0.800598
0.610535 1.000000 0.800720
0.810303 1.000000 0.801086
1.000000 0.999969 0.801788
0.000000 0.000000 1.000000
0.000000 0.000000 1.000000
0.521851 0.000000 1.000000
0.830963 0.000000 1.000000
1.000000 0.000000 1.000000
0.000000 0.231384 1.000000
0.051239 0.224945 1.000000
0.537323 0.201813 1.000000
0.831085 0.188721 1.000000
1.000000 0.246521 1.000000
0.000000 0.536072 1.000000
0.180664 0.535034 1.000000
0.551605 0.532959 1.000000
0.818817 0.536865 1.000000
1.000000 0.556366 1.000000
0.112579 0.803070 1.000000
0.320068 0.801788 1.000000
0.575958 0.798798 1.000000
0.805328 0.797363 1.000000
1.000000 0.800385 1.000000
0.399658 1.000000 1.000000
0.470947 1.000000 1.000000
0.627747 1.000000 1.000000
0.812103 1.000000 1.000000
0.999969 1.000000 0.999939
