滤镜资源/Professional Luts Collection/Lutify.me Professional/Alternative Process/Azurite.cube
# Created by: Lutify.me
# Copyright: (c) Copyright Lutify.me 2015
# Website: https://lutify.me
#LUT size
LUT_3D_SIZE 5
#LUT data points
0.000000 0.000000 0.000000
0.219543 0.000000 0.055481
0.437317 0.000000 0.153839
0.762146 0.000000 0.250763
1.000000 0.000000 0.313049
0.094330 0.146088 0.207764
0.197876 0.147156 0.223083
0.448883 0.124115 0.262451
0.770599 0.008667 0.305145
1.000000 0.000000 0.323517
0.000000 0.455475 0.323334
0.015228 0.458191 0.323090
0.455597 0.461395 0.321198
0.781647 0.460510 0.315613
1.000000 0.471222 0.306976
0.000000 0.785980 0.285187
0.000000 0.785980 0.284393
0.457001 0.784943 0.281921
0.781036 0.782440 0.277466
1.000000 0.785278 0.272614
0.069000 1.000000 0.273499
0.301788 1.000000 0.273712
0.569061 1.000000 0.274170
0.813751 1.000000 0.275970
1.000000 1.000000 0.280182
0.000000 0.000000 0.391235
0.118347 0.000000 0.391724
0.418884 0.000000 0.393463
0.760742 0.000000 0.395355
1.000000 0.000000 0.395294
0.000000 0.145325 0.395508
0.136871 0.146332 0.395935
0.443024 0.120056 0.396698
0.772919 0.007019 0.396332
1.000000 0.000000 0.393707
0.000000 0.456390 0.392731
0.021820 0.458771 0.392334
0.461823 0.461517 0.390717
0.785400 0.460571 0.387054
1.000000 0.471954 0.381378
0.000000 0.786041 0.366913
0.000000 0.785980 0.366516
0.464111 0.784851 0.365082
0.783417 0.782440 0.362732
1.000000 0.785461 0.360748
0.102875 1.000000 0.368927
0.310242 1.000000 0.369110
0.571655 1.000000 0.369873
0.813629 1.000000 0.371796
1.000000 1.000000 0.375641
0.000000 0.000000 0.567474
0.004791 0.000000 0.568024
0.429260 0.000000 0.569763
0.771698 0.000000 0.571991
1.000000 0.000000 0.573792
0.000000 0.145782 0.571625
0.067413 0.142822 0.572052
0.453522 0.105957 0.573029
0.782806 0.002655 0.573914
1.000000 0.000000 0.574219
0.000000 0.458618 0.574127
0.028076 0.460144 0.574066
0.474030 0.461700 0.573700
0.792664 0.460785 0.572693
1.000000 0.474243 0.571228
0.000000 0.786041 0.567017
0.000000 0.785828 0.566925
0.477844 0.784424 0.566681
0.786224 0.782349 0.566376
1.000000 0.786102 0.566711
0.155182 1.000000 0.576477
0.327911 1.000000 0.576691
0.575439 1.000000 0.577423
0.810608 1.000000 0.579010
1.000000 1.000000 0.581940
0.000000 0.000000 0.811310
0.000000 0.000000 0.811676
0.441833 0.000000 0.812622
0.784576 0.000000 0.813721
1.000000 0.000000 0.814423
0.000000 0.136902 0.813660
0.006622 0.127319 0.813843
0.466370 0.069366 0.814270
0.793945 0.000000 0.814545
1.000000 0.000000 0.814362
0.000000 0.460876 0.814117
0.046875 0.461548 0.813995
0.490692 0.461670 0.813538
0.799988 0.461578 0.812653
1.000000 0.479004 0.811310
0.000000 0.785706 0.807281
0.033966 0.785278 0.807159
0.498840 0.783661 0.806763
0.788147 0.782440 0.806213
1.000000 0.787415 0.805786
0.225800 1.000000 0.807831
0.359253 1.000000 0.807861
0.583191 1.000000 0.808014
0.805786 1.000000 0.808411
1.000000 0.999969 0.809326
0.000000 0.000000 1.000000
0.083649 0.000000 1.000000
0.506378 0.000000 1.000000
0.817169 0.000000 1.000000
1.000000 0.000000 1.000000
0.000000 0.103485 1.000000
0.179138 0.084076 1.000000
0.527283 0.015686 1.000000
0.823578 0.000000 1.000000
1.000000 0.000000 1.000000
0.000000 0.462433 1.000000
0.244965 0.462372 1.000000
0.549622 0.461670 1.000000
0.823212 0.464600 1.000000
1.000000 0.487518 1.000000
0.000000 0.784821 1.000000
0.269836 0.784302 1.000000
0.554230 0.782959 1.000000
0.804382 0.783234 1.000000
1.000000 0.789886 1.000000
0.343231 1.000000 1.000000
0.431763 1.000000 1.000000
0.613586 1.000000 1.000000
0.812347 1.000000 1.000000
0.999969 1.000000 0.999939
