滤镜资源/Professional Luts Collection/Lutify.me Professional/Alternative Process/Azurite.cube
# Created by: Lutify.me
# Copyright: (c) Copyright Lutify.me 2015
# Website: https://lutify.me
#LUT size
LUT_3D_SIZE 33
#LUT data points
0.000000 0.000000 0.000000
0.036896 0.000000 0.001953
0.070557 0.000000 0.005737
0.103851 0.000000 0.009766
0.135986 0.000000 0.015564
0.164398 0.000000 0.022827
0.187256 0.000000 0.033020
0.204742 0.000000 0.043396
0.219543 0.000000 0.055481
0.235199 0.000000 0.067657
0.254333 0.000000 0.079041
0.277222 0.000000 0.091095
0.303528 0.000000 0.103363
0.332947 0.000000 0.115723
0.365265 0.000000 0.128448
0.400177 0.000000 0.141205
0.437317 0.000000 0.153839
0.476105 0.000000 0.166595
0.515869 0.000000 0.179230
0.556244 0.000000 0.191681
0.597076 0.000000 0.204285
0.638245 0.000000 0.216431
0.679626 0.000000 0.228058
0.720978 0.000000 0.239594
0.762146 0.000000 0.250763
0.802979 0.000000 0.261139
0.843170 0.000000 0.271210
0.882568 0.000000 0.280396
0.920807 0.000000 0.288757
0.957703 0.000000 0.296417
0.991455 0.000000 0.302826
1.000000 0.000000 0.308441
1.000000 0.000000 0.313049
0.007355 0.015167 0.020142
0.044647 0.012512 0.022095
0.075775 0.010071 0.023407
0.107544 0.005951 0.029297
0.138031 0.001617 0.035736
0.165039 0.000183 0.043335
0.186615 0.000000 0.050842
0.203583 0.000000 0.060364
0.218262 0.000000 0.070526
0.234375 0.000000 0.080353
0.253876 0.000000 0.091125
0.277100 0.000000 0.102264
0.303650 0.000000 0.113831
0.333282 0.000000 0.125488
0.365875 0.000000 0.137146
0.400940 0.000000 0.149170
0.438049 0.000000 0.161255
0.476837 0.000000 0.173309
0.516663 0.000000 0.185608
0.557007 0.000000 0.197784
0.597778 0.000000 0.209595
0.638855 0.000000 0.221344
0.680145 0.000000 0.233002
0.721497 0.000000 0.244019
0.762695 0.000000 0.254578
0.803436 0.000000 0.264709
0.843597 0.000000 0.274200
0.882904 0.000000 0.283020
0.921082 0.000000 0.291138
0.957886 0.000000 0.298218
0.991577 0.000000 0.304474
1.000000 0.000000 0.309631
1.000000 0.000000 0.314087
0.017914 0.030365 0.040710
0.053284 0.028015 0.044464
0.082367 0.024933 0.045929
0.112091 0.020782 0.050903
0.140442 0.016144 0.056274
0.165863 0.011658 0.061249
0.186005 0.008820 0.068420
0.202179 0.007416 0.076385
0.216980 0.006866 0.084595
0.233459 0.005676 0.093811
0.253387 0.002441 0.103882
0.276947 0.000427 0.114136
0.303894 0.000000 0.124756
0.333801 0.000000 0.135529
0.366516 0.000000 0.146423
0.401733 0.000000 0.157867
0.438965 0.000000 0.169525
0.477753 0.000000 0.181000
0.517548 0.000000 0.192596
0.557831 0.000000 0.204285
0.598541 0.000000 0.215698
0.639587 0.000000 0.226929
0.680817 0.000000 0.238098
0.722107 0.000000 0.248657
0.763214 0.000000 0.258789
0.803925 0.000000 0.268524
0.844025 0.000000 0.277557
0.883301 0.000000 0.286011
0.921448 0.000000 0.293640
0.958160 0.000000 0.300354
0.991760 0.000000 0.306213
1.000000 0.000000 0.311066
1.000000 0.000000 0.315125
0.034027 0.049103 0.067413
0.065918 0.046783 0.068878
0.090820 0.043945 0.071472
0.117554 0.040344 0.074249
0.143677 0.035767 0.078156
0.166412 0.031525 0.083160
0.184875 0.028870 0.089142
0.200592 0.026978 0.095367
0.215332 0.025879 0.102966
0.232422 0.023468 0.111328
0.253082 0.019104 0.119598
0.277130 0.011963 0.128815
0.304352 0.003540 0.138519
0.334564 0.000244 0.148560
0.367523 0.000000 0.159058
0.402863 0.000000 0.169525
0.440186 0.000000 0.180267
0.478943 0.000000 0.191315
0.518677 0.000000 0.202179
0.558929 0.000000 0.213013
0.599579 0.000000 0.223816
0.640594 0.000000 0.234375
0.681732 0.000000 0.244720
0.722961 0.000000 0.254700
0.763977 0.000000 0.264282
0.804596 0.000000 0.273499
0.844604 0.000000 0.282166
0.883820 0.000000 0.289978
0.921844 0.000000 0.296844
0.958496 0.000000 0.303101
0.992004 0.000000 0.308319
1.000000 0.000000 0.312897
1.000000 0.000000 0.316498
0.054291 0.066925 0.094360
0.079315 0.065216 0.095673
0.100983 0.062805 0.097565
0.124176 0.059723 0.100006
0.146606 0.056702 0.103058
0.166565 0.053741 0.107330
0.183441 0.051147 0.112518
0.198212 0.049896 0.117706
0.213409 0.048462 0.124298
0.231140 0.045715 0.131561
0.252563 0.040985 0.138977
0.277283 0.033295 0.147064
0.305054 0.022827 0.155762
0.335602 0.009460 0.164764
0.368774 0.001801 0.174377
0.404297 0.000000 0.183990
0.441711 0.000000 0.193695
0.480469 0.000000 0.203888
0.520111 0.000000 0.214020
0.560303 0.000000 0.223999
0.600861 0.000000 0.233978
0.641785 0.000000 0.243744
0.682861 0.000000 0.253265
0.723999 0.000000 0.262482
0.764954 0.000000 0.271332
0.805481 0.000000 0.279755
0.845367 0.000000 0.287567
0.884491 0.000000 0.294617
0.922394 0.000000 0.300842
0.958923 0.000000 0.306396
0.992340 0.000000 0.310974
1.000000 0.000000 0.314972
1.000000 0.000000 0.318054
0.074097 0.083405 0.122528
0.093811 0.081696 0.123688
0.111511 0.080017 0.124756
0.130463 0.077881 0.127197
0.149048 0.075897 0.129883
0.165741 0.073944 0.133545
0.181000 0.072723 0.137177
0.195404 0.071564 0.142242
0.211212 0.070282 0.147736
0.229950 0.067963 0.153778
0.252136 0.064240 0.160706
0.277466 0.058594 0.167847
0.305664 0.050323 0.175568
0.336731 0.038361 0.183502
0.370239 0.022339 0.191833
0.405914 0.006897 0.200623
0.443420 0.000549 0.209381
0.482178 0.000000 0.218323
0.521790 0.000000 0.227600
0.561890 0.000000 0.236755
0.602417 0.000000 0.245728
0.643250 0.000000 0.254578
0.684235 0.000000 0.263306
0.725281 0.000000 0.271606
0.766113 0.000000 0.279510
0.806549 0.000000 0.286926
0.846344 0.000000 0.293701
0.885315 0.000000 0.299866
0.923065 0.000000 0.305298
0.959442 0.000000 0.309937
0.992676 0.000000 0.313904
1.000000 0.000000 0.317169
1.000000 0.000000 0.319794
0.090607 0.100128 0.151276
0.105438 0.099060 0.152222
0.119049 0.098022 0.153503
0.133850 0.096863 0.155182
0.148987 0.095612 0.157501
0.163239 0.094849 0.160614
0.177185 0.094208 0.163696
0.191559 0.093597 0.167908
0.208282 0.092712 0.172699
0.228149 0.091309 0.177795
0.251251 0.088837 0.183624
0.277405 0.085175 0.190002
0.306244 0.079865 0.196777
0.337708 0.072418 0.203888
0.371582 0.061890 0.211304
0.407593 0.047180 0.218842
0.445251 0.027985 0.226654
0.484100 0.010468 0.234497
0.523621 0.001404 0.242615
0.563690 0.000000 0.250763
0.604126 0.000000 0.258636
0.644897 0.000000 0.266479
0.685822 0.000000 0.274200
0.726746 0.000000 0.281464
0.767487 0.000000 0.288208
0.807770 0.000000 0.294586
0.847443 0.000000 0.300323
0.886230 0.000000 0.305450
0.923828 0.000000 0.309845
0.960052 0.000000 0.313629
0.993042 0.000000 0.316833
1.000000 0.000000 0.319427
1.000000 0.000000 0.321381
0.098755 0.120422 0.179840
0.109863 0.119934 0.180634
0.120026 0.119507 0.181854
0.131653 0.119110 0.183136
0.144226 0.118805 0.184998
0.156982 0.118500 0.187592
0.170471 0.118683 0.190826
0.185944 0.118591 0.193817
0.203949 0.118256 0.198029
0.225159 0.117523 0.202667
0.249512 0.116150 0.207611
0.276642 0.113861 0.212891
0.306366 0.110626 0.218597
0.338440 0.105988 0.224823
0.372864 0.099670 0.231140
0.409180 0.091064 0.237793
0.447052 0.079559 0.244568
0.485992 0.064056 0.251495
0.525574 0.044983 0.258331
0.565582 0.025391 0.265320
0.606018 0.009521 0.272217
0.646698 0.002045 0.278870
0.687531 0.000000 0.285278
0.728363 0.000000 0.291351
0.768982 0.000000 0.296997
0.809143 0.000000 0.302094
0.848633 0.000000 0.306671
0.887238 0.000000 0.310760
0.924622 0.000000 0.314240
0.960602 0.000000 0.317139
0.993439 0.000000 0.319550
1.000000 0.000000 0.321350
1.000000 0.000000 0.322693
0.094330 0.146088 0.207764
0.102875 0.145935 0.208832
0.111328 0.145905 0.209473
0.121429 0.145966 0.210907
0.132751 0.146179 0.212555
0.145691 0.146545 0.214294
0.160187 0.146851 0.217010
0.177521 0.147156 0.220032
0.197876 0.147156 0.223083
0.220795 0.147034 0.226929
0.246613 0.146393 0.231201
0.274994 0.145020 0.235870
0.305786 0.143158 0.240631
0.338806 0.140289 0.245697
0.373840 0.136292 0.251099
0.410706 0.130951 0.256714
0.448883 0.124115 0.262451
0.487885 0.115631 0.268188
0.527496 0.104919 0.274017
0.567535 0.091309 0.279785
0.607941 0.074188 0.285431
0.648621 0.057648 0.290863
0.689392 0.039429 0.295959
0.730133 0.020935 0.300751
0.770599 0.008667 0.305145
0.810608 0.003448 0.309052
0.849915 0.000000 0.312469
0.888306 0.000000 0.315491
0.925446 0.000000 0.318054
0.961182 0.000000 0.320068
0.993774 0.000000 0.321716
1.000000 0.000000 0.322815
1.000000 0.000000 0.323517
0.072235 0.176392 0.234802
0.080780 0.176544 0.235443
0.089569 0.176636 0.236176
0.100128 0.176941 0.237213
0.113098 0.177277 0.238617
0.128052 0.177917 0.240234
0.145660 0.178375 0.242340
0.166168 0.178802 0.244629
0.189087 0.179260 0.247437
0.214722 0.179260 0.250519
0.242401 0.179230 0.253876
0.272430 0.178589 0.257629
0.304474 0.177460 0.261627
0.338593 0.175812 0.265961
0.374512 0.173309 0.270294
0.411987 0.169922 0.274811
0.450531 0.165619 0.279358
0.489746 0.160431 0.283997
0.529419 0.154266 0.288605
0.569580 0.146851 0.293121
0.609955 0.138123 0.297455
0.650604 0.127777 0.301575
0.691315 0.115356 0.305389
0.731964 0.099915 0.308929
0.772308 0.085236 0.312103
0.812103 0.073883 0.314880
0.851196 0.062042 0.317352
0.889374 0.051331 0.319366
0.926239 0.040619 0.321014
0.961731 0.031708 0.322266
0.994019 0.025848 0.323090
1.000000 0.023804 0.323608
1.000000 0.026367 0.323730
0.026031 0.210266 0.259613
0.034210 0.210510 0.260040
0.043518 0.210815 0.260681
0.060089 0.211151 0.261536
0.080688 0.211609 0.262604
0.102264 0.212219 0.263977
0.125763 0.212799 0.265656
0.150879 0.213318 0.267395
0.177826 0.213837 0.269592
0.206421 0.214264 0.272125
0.236786 0.214417 0.274933
0.268799 0.214325 0.277618
0.302521 0.213806 0.280762
0.337952 0.212860 0.284088
0.374878 0.211395 0.287476
0.413025 0.209320 0.290955
0.451965 0.206696 0.294434
0.491455 0.203461 0.297791
0.531311 0.199615 0.301208
0.571533 0.195160 0.304443
0.612000 0.189972 0.307587
0.652618 0.184174 0.310486
0.693268 0.177643 0.313110
0.733795 0.170563 0.315521
0.773987 0.162720 0.317657
0.813629 0.154419 0.319427
0.852478 0.145966 0.320923
0.890381 0.137451 0.322083
0.926971 0.129333 0.322937
0.962189 0.122955 0.323456
0.994232 0.119263 0.323669
1.000000 0.118652 0.323608
1.000000 0.121765 0.323181
0.002960 0.247070 0.281342
0.005524 0.247345 0.281677
0.008514 0.247620 0.282166
0.014038 0.248016 0.282745
0.026978 0.248474 0.283569
0.061035 0.249084 0.284607
0.097443 0.249695 0.285767
0.130737 0.250244 0.287231
0.163208 0.250854 0.288818
0.195984 0.251404 0.290558
0.229584 0.251831 0.292542
0.264221 0.252014 0.294739
0.299957 0.251984 0.296875
0.336792 0.251587 0.299225
0.374908 0.250854 0.301697
0.413788 0.249664 0.304077
0.453217 0.248077 0.306549
0.492981 0.246155 0.308868
0.533081 0.243774 0.311157
0.573425 0.241058 0.313293
0.613953 0.237854 0.315308
0.654602 0.234283 0.317200
0.695190 0.230286 0.318848
0.735626 0.226074 0.320251
0.775635 0.221649 0.321472
0.815094 0.217072 0.322449
0.853699 0.212830 0.323059
0.891327 0.209015 0.323486
0.927612 0.205994 0.323639
0.962494 0.204163 0.323517
0.994293 0.203796 0.323212
1.000000 0.204987 0.322632
1.000000 0.207947 0.321869
0.000000 0.286224 0.298767
0.000000 0.286469 0.299042
0.000000 0.286713 0.299347
0.000000 0.287109 0.299835
0.002167 0.287537 0.300385
0.012024 0.288086 0.300995
0.052490 0.288727 0.301849
0.103180 0.289398 0.302826
0.144684 0.290039 0.303894
0.183258 0.290680 0.305115
0.220886 0.291229 0.306396
0.258606 0.291626 0.307831
0.296600 0.291870 0.309296
0.335297 0.291840 0.310791
0.374542 0.291565 0.312286
0.414307 0.291016 0.313843
0.454254 0.290161 0.315369
0.494354 0.289062 0.316833
0.534698 0.287628 0.318207
0.575226 0.285919 0.319458
0.615845 0.283936 0.320587
0.656525 0.281616 0.321564
0.697083 0.279114 0.322388
0.737396 0.276428 0.323029
0.777252 0.273682 0.323425
0.816437 0.270966 0.323669
0.854797 0.268555 0.323669
0.892120 0.266541 0.323486
0.928070 0.265259 0.323090
0.962616 0.264893 0.322510
0.994141 0.265594 0.321747
1.000000 0.267395 0.320801
1.000000 0.270508 0.319794
0.000000 0.327209 0.311340
0.000000 0.327454 0.311523
0.000000 0.327667 0.311707
0.000000 0.328033 0.312042
0.000000 0.328430 0.312378
0.000000 0.328979 0.312744
0.009155 0.329590 0.313293
0.061493 0.330231 0.313904
0.121185 0.330872 0.314484
0.168091 0.331573 0.315216
0.210938 0.332153 0.316040
0.252136 0.332642 0.316864
0.292786 0.333038 0.317749
0.333313 0.333282 0.318542
0.373932 0.333221 0.319366
0.414520 0.333038 0.320190
0.455048 0.332642 0.320984
0.495575 0.332062 0.321716
0.536224 0.331238 0.322357
0.576904 0.330231 0.322906
0.617676 0.328979 0.323334
0.658356 0.327484 0.323639
0.698853 0.325897 0.323761
0.739075 0.324188 0.323761
0.778717 0.322510 0.323608
0.817688 0.320892 0.323242
0.855743 0.319550 0.322723
0.892731 0.318665 0.322144
0.928314 0.318359 0.321350
0.962494 0.318756 0.320435
0.993713 0.320068 0.319397
1.000000 0.322205 0.318268
1.000000 0.325378 0.317108
0.000000 0.369446 0.319244
0.000000 0.369659 0.319336
0.000000 0.369873 0.319458
0.000000 0.370178 0.319611
0.000000 0.370544 0.319794
0.000000 0.371063 0.320007
0.000000 0.371613 0.320312
0.013855 0.372192 0.320587
0.089233 0.372833 0.320923
0.150208 0.373413 0.321259
0.199707 0.374054 0.321625
0.245087 0.374573 0.322021
0.288544 0.375000 0.322388
0.331085 0.375305 0.322784
0.372986 0.375488 0.323059
0.414459 0.375488 0.323303
0.455597 0.375427 0.323578
0.496552 0.375183 0.323761
0.537537 0.374756 0.323822
0.578461 0.374146 0.323822
0.619293 0.373413 0.323730
0.660034 0.372528 0.323486
0.700500 0.371582 0.323120
0.740570 0.370544 0.322693
0.779999 0.369568 0.322083
0.818695 0.368683 0.321350
0.856445 0.368073 0.320526
0.893036 0.367889 0.319611
0.928223 0.368195 0.318634
0.962036 0.369110 0.317535
0.993011 0.370728 0.316406
1.000000 0.373108 0.315247
1.000000 0.376312 0.314056
0.000000 0.412292 0.323059
0.000000 0.412445 0.323059
0.000000 0.412659 0.323120
0.000000 0.412964 0.323151
0.000000 0.413269 0.323242
0.000000 0.413727 0.323334
0.000000 0.414185 0.323395
0.000671 0.414764 0.323486
0.045776 0.415344 0.323547
0.128540 0.415894 0.323700
0.187256 0.416473 0.323761
0.237366 0.417023 0.323792
0.283966 0.417389 0.323822
0.328400 0.417816 0.323792
0.371643 0.418060 0.323761
0.413971 0.418304 0.323639
0.455811 0.418335 0.323486
0.497314 0.418304 0.323242
0.538574 0.418182 0.322937
0.579742 0.417908 0.322540
0.620728 0.417511 0.322083
0.661469 0.417023 0.321533
0.701874 0.416504 0.320831
0.741791 0.415924 0.320068
0.781006 0.415466 0.319244
0.819427 0.415131 0.318329
0.856781 0.415009 0.317352
0.892975 0.415283 0.316315
0.927765 0.416016 0.315247
0.961182 0.417267 0.314148
0.991913 0.419098 0.312988
1.000000 0.421539 0.311859
1.000000 0.424744 0.310699
0.000000 0.455475 0.323334
0.000000 0.455597 0.323364
0.000000 0.455811 0.323334
0.000000 0.456055 0.323303
0.000000 0.456360 0.323334
0.000000 0.456726 0.323303
0.000000 0.457184 0.323242
0.000000 0.457672 0.323181
0.015228 0.458191 0.323090
0.100189 0.458679 0.323029
0.173218 0.459198 0.322876
0.229126 0.459686 0.322723
0.278748 0.460144 0.322540
0.325226 0.460541 0.322296
0.369843 0.460876 0.321960
0.413147 0.461151 0.321625
0.455597 0.461395 0.321198
0.497681 0.461487 0.320740
0.539368 0.461517 0.320190
0.580750 0.461456 0.319580
0.621826 0.461334 0.318939
0.662567 0.461121 0.318176
0.702911 0.460876 0.317383
0.742645 0.460632 0.316498
0.781647 0.460510 0.315613
0.819733 0.460510 0.314606
0.856720 0.460754 0.313599
0.892517 0.461334 0.312561
0.926880 0.462341 0.311493
0.959930 0.463776 0.310394
0.990417 0.465729 0.309265
1.000000 0.468170 0.308167
1.000000 0.471222 0.306976
0.000000 0.498901 0.320953
0.000000 0.498993 0.320984
0.000000 0.499176 0.320923
0.000000 0.499390 0.320862
0.000000 0.499664 0.320801
0.000000 0.499969 0.320709
0.000000 0.500366 0.320587
0.000000 0.500763 0.320465
0.001984 0.501221 0.320282
0.069244 0.501678 0.320099
0.156738 0.502136 0.319855
0.219635 0.502594 0.319580
0.272827 0.503021 0.319275
0.321320 0.503448 0.318878
0.367340 0.503845 0.318481
0.411743 0.504150 0.317963
0.455048 0.504425 0.317474
0.497589 0.504639 0.316956
0.539703 0.504761 0.316315
0.581360 0.504822 0.315643
0.622559 0.504852 0.314911
0.663300 0.504822 0.314148
0.703522 0.504791 0.313293
0.743134 0.504761 0.312408
0.781860 0.504883 0.311462
0.819641 0.505096 0.310516
0.856232 0.505554 0.309509
0.891602 0.506348 0.308441
0.925568 0.507446 0.307404
0.958282 0.508972 0.306335
0.988586 0.510925 0.305206
1.000000 0.513336 0.304077
1.000000 0.516205 0.302917
0.000000 0.542358 0.316956
0.000000 0.542450 0.316925
0.000000 0.542572 0.316864
0.000000 0.542755 0.316772
0.000000 0.542999 0.316681
0.000000 0.543274 0.316589
0.000000 0.543579 0.316467
0.000000 0.543945 0.316284
0.000000 0.544342 0.316071
0.039062 0.544708 0.315857
0.136414 0.545135 0.315552
0.208527 0.545593 0.315247
0.265747 0.545990 0.314911
0.316620 0.546387 0.314514
0.364166 0.546753 0.314056
0.409729 0.547089 0.313568
0.453888 0.547363 0.313019
0.497070 0.547607 0.312469
0.539581 0.547791 0.311798
0.581543 0.547913 0.311157
0.622925 0.547974 0.310425
0.663696 0.548065 0.309631
0.703796 0.548157 0.308807
0.743225 0.548279 0.307953
0.781708 0.548492 0.306976
0.819153 0.548889 0.306061
0.855377 0.549438 0.305084
0.890350 0.550262 0.304077
0.923920 0.551453 0.303009
0.956238 0.552948 0.301941
0.986389 0.554810 0.300812
1.000000 0.557068 0.299713
1.000000 0.559753 0.298553
0.000000 0.585571 0.312134
0.000000 0.585663 0.312103
0.000000 0.585754 0.312042
0.000000 0.585907 0.311951
0.000000 0.586090 0.311859
0.000000 0.586334 0.311737
0.000000 0.586609 0.311615
0.000000 0.586914 0.311432
0.000000 0.587219 0.311249
0.016083 0.587585 0.311005
0.109253 0.587921 0.310730
0.195892 0.588287 0.310425
0.257660 0.588684 0.310059
0.311249 0.589020 0.309662
0.360565 0.589355 0.309235
0.407379 0.589630 0.308746
0.452423 0.589874 0.308197
0.496277 0.590118 0.307617
0.539246 0.590271 0.307037
0.581451 0.590454 0.306274
0.623016 0.590515 0.305603
0.663818 0.590637 0.304871
0.703857 0.590759 0.303986
0.743073 0.590942 0.303131
0.781281 0.591217 0.302277
0.818359 0.591614 0.301331
0.854187 0.592224 0.300354
0.888763 0.593018 0.299377
0.921967 0.594177 0.298340
0.953949 0.595581 0.297272
0.983978 0.597290 0.296173
0.999969 0.599335 0.295135
1.000000 0.601776 0.294006
0.000000 0.628235 0.307007
0.000000 0.628296 0.306946
0.000000 0.628387 0.306915
0.000000 0.628510 0.306824
0.000000 0.628662 0.306732
0.000000 0.628815 0.306610
0.000000 0.629059 0.306488
0.000000 0.629303 0.306305
0.000000 0.629547 0.306122
0.004059 0.629852 0.305878
0.087463 0.630157 0.305603
0.181976 0.630463 0.305298
0.249390 0.630737 0.304932
0.305817 0.631042 0.304535
0.356964 0.631287 0.304108
0.405060 0.631531 0.303619
0.451050 0.631714 0.303101
0.495544 0.631866 0.302521
0.538910 0.632019 0.301941
0.581390 0.632111 0.301270
0.623047 0.632172 0.300537
0.663879 0.632233 0.299774
0.703796 0.632355 0.298981
0.742828 0.632507 0.298096
0.780701 0.632751 0.297241
0.817383 0.633118 0.296387
0.852814 0.633698 0.295410
0.886993 0.634430 0.294464
0.919861 0.635437 0.293427
0.951538 0.636688 0.292419
0.981415 0.638214 0.291351
0.999908 0.640015 0.290344
1.000000 0.642151 0.289307
0.000000 0.669952 0.301636
0.000000 0.670044 0.301575
0.000000 0.670105 0.301544
0.000000 0.670166 0.301483
0.000000 0.670319 0.301392
0.000000 0.670441 0.301270
0.000000 0.670624 0.301117
0.000000 0.670807 0.300964
0.000000 0.670990 0.300751
0.000000 0.671204 0.300507
0.069214 0.671448 0.300232
0.168060 0.671661 0.299927
0.241913 0.671875 0.299591
0.301208 0.672058 0.299194
0.354095 0.672241 0.298737
0.403320 0.672363 0.298309
0.450134 0.672485 0.297760
0.495209 0.672546 0.297211
0.539001 0.672577 0.296631
0.581665 0.672607 0.295959
0.623352 0.672638 0.295258
0.664154 0.672607 0.294556
0.703888 0.672638 0.293762
0.742615 0.672729 0.292938
0.780182 0.672913 0.292053
0.816437 0.673187 0.291199
0.851471 0.673645 0.290314
0.885254 0.674255 0.289398
0.917755 0.675079 0.288422
0.949036 0.676147 0.287506
0.978821 0.677368 0.286560
0.999817 0.678894 0.285583
1.000000 0.680695 0.284576
0.000000 0.710449 0.296112
0.000000 0.710480 0.296082
0.000000 0.710510 0.295959
0.000000 0.710602 0.295959
0.000000 0.710663 0.295868
0.000000 0.710785 0.295715
0.000000 0.710876 0.295593
0.000000 0.710999 0.295441
0.000000 0.711151 0.295258
0.000000 0.711273 0.294983
0.057129 0.711395 0.294739
0.156525 0.711517 0.294434
0.236725 0.711639 0.294098
0.298523 0.711731 0.293732
0.352844 0.711792 0.293274
0.403015 0.711823 0.292816
0.450409 0.711823 0.292358
0.495911 0.711792 0.291779
0.539917 0.711700 0.291199
0.582672 0.711609 0.290588
0.624298 0.711487 0.289917
0.664978 0.711365 0.289246
0.704437 0.711304 0.288513
0.742798 0.711273 0.287781
0.779907 0.711304 0.286926
0.815765 0.711487 0.286133
0.850342 0.711761 0.285248
0.883698 0.712219 0.284424
0.915863 0.712860 0.283600
0.946808 0.713654 0.282715
0.976410 0.714630 0.281921
0.999725 0.715912 0.281006
1.000000 0.717346 0.280121
0.000000 0.749237 0.290527
0.000000 0.749237 0.290466
0.000000 0.749268 0.290436
0.000000 0.749329 0.290405
0.000000 0.749359 0.290283
0.000000 0.749420 0.290161
0.000000 0.749451 0.290039
0.000000 0.749512 0.289856
0.000000 0.749573 0.289703
0.000000 0.749603 0.289490
0.052948 0.749664 0.289246
0.151215 0.749695 0.288940
0.235901 0.749695 0.288635
0.299042 0.749664 0.288269
0.354248 0.749603 0.287903
0.404846 0.749512 0.287476
0.452545 0.749390 0.286957
0.498138 0.749207 0.286438
0.542206 0.748993 0.285889
0.584869 0.748779 0.285339
0.626251 0.748566 0.284698
0.666534 0.748291 0.284088
0.705658 0.748108 0.283447
0.743530 0.747925 0.282715
0.780151 0.747864 0.282013
0.815491 0.747864 0.281311
0.849609 0.748016 0.280518
0.882568 0.748260 0.279755
0.914276 0.748688 0.279083
0.944855 0.749298 0.278290
0.974274 0.750061 0.277527
0.999664 0.751038 0.276825
1.000000 0.752197 0.276062
0.000000 0.785980 0.285187
0.000000 0.785980 0.285126
0.000000 0.786011 0.285126
0.000000 0.786011 0.285034
0.000000 0.786011 0.284943
0.000000 0.786011 0.284882
0.000000 0.786011 0.284698
0.000000 0.786011 0.284576
0.000000 0.785980 0.284393
0.000000 0.785950 0.284210
0.060944 0.785889 0.283997
0.157318 0.785828 0.283722
0.241119 0.785706 0.283417
0.304047 0.785583 0.283081
0.359070 0.785400 0.282745
0.409576 0.785187 0.282349
0.457001 0.784943 0.281921
0.502411 0.784637 0.281433
0.546143 0.784302 0.280945
0.588440 0.783966 0.280457
0.629456 0.783630 0.279907
0.669220 0.783264 0.279297
0.707733 0.782928 0.278748
0.745056 0.782654 0.278107
0.781036 0.782440 0.277466
0.815796 0.782318 0.276855
0.849365 0.782318 0.276245
0.881836 0.782440 0.275574
0.913147 0.782654 0.274994
0.943268 0.783081 0.274323
0.972321 0.783630 0.273743
0.999237 0.784393 0.273132
1.000000 0.785278 0.272614
0.000000 0.820648 0.280304
0.000000 0.820648 0.280212
0.000000 0.820618 0.280212
0.000000 0.820618 0.280151
0.000000 0.820587 0.280060
0.000000 0.820557 0.279999
0.000000 0.820496 0.279877
0.000000 0.820435 0.279755
0.000000 0.820343 0.279572
0.003235 0.820221 0.279388
0.079102 0.820099 0.279205
0.174957 0.819946 0.278992
0.252655 0.819733 0.278717
0.313690 0.819519 0.278412
0.367584 0.819244 0.278076
0.417297 0.818909 0.277710
0.464081 0.818542 0.277344
0.508789 0.818146 0.276947
0.551880 0.817719 0.276489
0.593567 0.817261 0.276062
0.633850 0.816803 0.275574
0.672943 0.816345 0.275146
0.710754 0.815918 0.274597
0.747284 0.815552 0.274078
0.782623 0.815247 0.273560
0.816742 0.815002 0.273071
0.849731 0.814850 0.272522
0.881683 0.814819 0.272064
0.912415 0.814911 0.271576
0.942139 0.815125 0.271057
0.970734 0.815491 0.270630
0.997620 0.816010 0.270233
1.000000 0.816711 0.269836
0.000000 0.853333 0.276062
0.000000 0.853271 0.275970
0.000000 0.853271 0.275940
0.000000 0.853241 0.275940
0.000000 0.853180 0.275848
0.000000 0.853119 0.275726
0.000000 0.852997 0.275665
0.000000 0.852875 0.275543
0.000000 0.852753 0.275421
0.018738 0.852570 0.275238
0.107269 0.852356 0.275024
0.200287 0.852112 0.274872
0.270111 0.851807 0.274658
0.327881 0.851501 0.274414
0.379761 0.851135 0.274139
0.427979 0.850739 0.273834
0.473633 0.850281 0.273499
0.517365 0.849792 0.273163
0.559509 0.849243 0.272797
0.600250 0.848724 0.272430
0.639679 0.848175 0.272034
0.677795 0.847656 0.271667
0.714752 0.847137 0.271301
0.750427 0.846710 0.270905
0.784973 0.846283 0.270416
