滤镜资源/Professional Luts Collection/Lutify.me Professional/Alternative Process/Azurite.cube
# Created by: Lutify.me
# Copyright: (c) Copyright Lutify.me 2015
# Website: https://lutify.me
#LUT size
LUT_3D_SIZE 9
#LUT data points
0.000000 0.000000 0.000000
0.135986 0.000000 0.015564
0.219543 0.000000 0.055481
0.303528 0.000000 0.103363
0.437317 0.000000 0.153839
0.597076 0.000000 0.204285
0.762146 0.000000 0.250763
0.920807 0.000000 0.288757
1.000000 0.000000 0.313049
0.054291 0.066925 0.094360
0.146606 0.056702 0.103058
0.213409 0.048462 0.124298
0.305054 0.022827 0.155762
0.441711 0.000000 0.193695
0.600861 0.000000 0.233978
0.764954 0.000000 0.271332
0.922394 0.000000 0.300842
1.000000 0.000000 0.318054
0.094330 0.146088 0.207764
0.132751 0.146179 0.212555
0.197876 0.147156 0.223083
0.305786 0.143158 0.240631
0.448883 0.124115 0.262451
0.607941 0.074188 0.285431
0.770599 0.008667 0.305145
0.925446 0.000000 0.318054
1.000000 0.000000 0.323517
0.000000 0.286224 0.298767
0.002167 0.287537 0.300385
0.144684 0.290039 0.303894
0.296600 0.291870 0.309296
0.454254 0.290161 0.315369
0.615845 0.283936 0.320587
0.777252 0.273682 0.323425
0.928070 0.265259 0.323090
1.000000 0.270508 0.319794
0.000000 0.455475 0.323334
0.000000 0.456360 0.323334
0.015228 0.458191 0.323090
0.278748 0.460144 0.322540
0.455597 0.461395 0.321198
0.621826 0.461334 0.318939
0.781647 0.460510 0.315613
0.926880 0.462341 0.311493
1.000000 0.471222 0.306976
0.000000 0.628235 0.307007
0.000000 0.628662 0.306732
0.000000 0.629547 0.306122
0.249390 0.630737 0.304932
0.451050 0.631714 0.303101
0.623047 0.632172 0.300537
0.780701 0.632751 0.297241
0.919861 0.635437 0.293427
1.000000 0.642151 0.289307
0.000000 0.785980 0.285187
0.000000 0.786011 0.284943
0.000000 0.785980 0.284393
0.241119 0.785706 0.283417
0.457001 0.784943 0.281921
0.629456 0.783630 0.279907
0.781036 0.782440 0.277466
0.913147 0.782654 0.274994
1.000000 0.785278 0.272614
0.000000 0.912933 0.270142
0.000000 0.912659 0.270020
0.026825 0.911896 0.269806
0.318542 0.910522 0.269318
0.499847 0.908447 0.268707
0.654907 0.905853 0.267975
0.792175 0.903412 0.267303
0.913727 0.901764 0.267120
1.000000 0.901642 0.267395
0.069000 1.000000 0.273499
0.172638 1.000000 0.273560
0.301788 1.000000 0.273712
0.436432 1.000000 0.273773
0.569061 1.000000 0.274170
0.695648 1.000000 0.274902
0.813751 1.000000 0.275970
0.921600 1.000000 0.277679
1.000000 1.000000 0.280182
0.000000 0.000000 0.305664
0.006653 0.000000 0.307373
0.157257 0.000000 0.312073
0.268250 0.000000 0.319489
0.419037 0.000000 0.328796
0.587738 0.000000 0.337830
0.757751 0.000000 0.344727
0.919128 0.000000 0.348267
1.000000 0.000000 0.348419
0.000000 0.062317 0.317780
0.034149 0.052704 0.319153
0.153564 0.045654 0.322968
0.273468 0.018555 0.328979
0.426086 0.000000 0.336060
0.593292 0.000000 0.342651
0.761719 0.000000 0.347168
0.921417 0.000000 0.348846
1.000000 0.000000 0.347900
0.000000 0.145355 0.338776
0.031586 0.145782 0.339508
0.152283 0.146698 0.341339
0.285126 0.142212 0.344025
0.439972 0.122711 0.346863
0.604492 0.071991 0.348969
0.769775 0.008240 0.349518
0.925629 0.000000 0.348236
1.000000 0.000000 0.345734
0.000000 0.286499 0.350006
0.000000 0.287781 0.350067
0.125183 0.290161 0.350159
0.291565 0.291840 0.350067
0.453369 0.289978 0.349579
0.616486 0.283722 0.348328
0.778259 0.273499 0.346283
0.928833 0.265259 0.343536
1.000000 0.270691 0.340332
0.000000 0.455719 0.344299
0.000000 0.456573 0.344147
0.017212 0.458344 0.343750
0.281097 0.460236 0.342926
0.457550 0.461395 0.341614
0.623413 0.461334 0.339661
0.782776 0.460541 0.336975
0.927460 0.462463 0.333649
1.000000 0.471405 0.329803
0.000000 0.628357 0.329773
0.000000 0.628784 0.329559
0.000000 0.629669 0.329010
0.252625 0.630829 0.327942
0.453003 0.631744 0.326355
0.624512 0.632202 0.324036
0.781677 0.632812 0.321045
0.920319 0.635529 0.317627
1.000000 0.642273 0.313904
0.000000 0.786011 0.310211
0.000000 0.786041 0.310059
0.000000 0.785980 0.309540
0.245422 0.785706 0.308685
0.459167 0.784912 0.307373
0.630829 0.783569 0.305634
0.781799 0.782440 0.303589
0.913422 0.782684 0.301453
1.000000 0.785309 0.299591
0.000000 0.912872 0.297943
0.000000 0.912598 0.297852
0.030273 0.911835 0.297668
0.321716 0.910461 0.297302
0.501556 0.908356 0.296875
0.655853 0.905792 0.296387
0.792633 0.903351 0.296051
0.913818 0.901764 0.296173
1.000000 0.901672 0.296783
0.080383 1.000000 0.303375
0.177795 1.000000 0.303436
0.304504 1.000000 0.303528
0.437988 1.000000 0.303772
0.569855 1.000000 0.304260
0.696014 1.000000 0.304993
0.813812 1.000000 0.306152
0.921387 1.000000 0.307892
1.000000 1.000000 0.310242
0.000000 0.000000 0.391235
0.000000 0.000000 0.391327
0.118347 0.000000 0.391724
0.257843 0.000000 0.392426
0.418884 0.000000 0.393463
0.590302 0.000000 0.394562
0.760742 0.000000 0.395355
0.921387 0.000000 0.395599
1.000000 0.000000 0.395294
0.000000 0.054443 0.392426
0.000000 0.049042 0.392548
0.123169 0.042755 0.393036
0.266693 0.011444 0.393829
0.427246 0.000000 0.394745
0.596313 0.000000 0.395508
0.764832 0.000000 0.395935
0.923645 0.000000 0.395782
1.000000 0.000000 0.395050
0.000000 0.145325 0.395508
0.000000 0.146088 0.395660
0.136871 0.146332 0.395935
0.283936 0.140808 0.396362
0.443024 0.120056 0.396698
0.608124 0.067780 0.396729
0.772919 0.007019 0.396332
0.927643 0.000000 0.395294
1.000000 0.000000 0.393707
0.000000 0.287445 0.397034
0.000000 0.288605 0.397064
0.120544 0.290619 0.397003
0.294312 0.291870 0.396851
0.457275 0.289703 0.396423
0.620148 0.283234 0.395538
0.781189 0.273010 0.394135
0.930573 0.265228 0.392181
1.000000 0.271301 0.389740
0.000000 0.456390 0.392731
0.000000 0.457153 0.392609
0.021820 0.458771 0.392334
0.286133 0.460480 0.391724
0.461823 0.461517 0.390717
0.627014 0.461304 0.389160
0.785400 0.460571 0.387054
0.928894 0.462708 0.384399
1.000000 0.471954 0.381378
0.000000 0.628693 0.381317
0.000000 0.629059 0.381134
0.000000 0.629913 0.380707
0.260376 0.630981 0.379913
0.457825 0.631866 0.378632
0.628052 0.632263 0.376862
0.783905 0.632904 0.374634
0.921356 0.635773 0.372101
1.000000 0.642609 0.369537
0.000000 0.786041 0.366913
0.000000 0.786041 0.366821
0.000000 0.785980 0.366516
0.255188 0.785645 0.365936
0.464111 0.784851 0.365082
0.633881 0.783508 0.363953
0.783417 0.782440 0.362732
0.913971 0.782776 0.361603
1.000000 0.785461 0.360748
0.000000 0.912689 0.360809
0.000000 0.912384 0.360779
0.050354 0.911652 0.360718
0.328613 0.910248 0.360626
0.505249 0.908173 0.360535
0.657806 0.905640 0.360504
0.793365 0.903259 0.360718
0.913666 0.901733 0.361237
1.000000 0.901703 0.362366
0.102875 1.000000 0.368927
0.189087 1.000000 0.368988
0.310242 1.000000 0.369110
0.441284 1.000000 0.369415
0.571655 1.000000 0.369873
0.696655 1.000000 0.370667
0.813629 1.000000 0.371796
0.920654 1.000000 0.373444
1.000000 1.000000 0.375641
0.000000 0.000000 0.465240
0.000000 0.000000 0.465393
0.077637 0.000000 0.465790
0.255341 0.000000 0.466461
0.424469 0.000000 0.467468
0.596497 0.000000 0.468567
0.766052 0.000000 0.469482
0.924774 0.000000 0.470123
1.000000 0.000000 0.470428
0.000000 0.047333 0.466431
0.000000 0.045502 0.466614
0.090515 0.036255 0.467041
0.265533 0.003235 0.467804
0.432861 0.000000 0.468689
0.602417 0.000000 0.469513
0.770020 0.000000 0.470154
0.926880 0.000000 0.470490
1.000000 0.000000 0.470490
0.000000 0.145905 0.469391
0.000000 0.146271 0.469513
0.116577 0.145355 0.469818
0.284882 0.137939 0.470245
0.448669 0.114868 0.470673
0.613983 0.060486 0.470978
0.777771 0.004974 0.471008
0.930573 0.000000 0.470673
1.000000 0.000000 0.470123
0.000000 0.288757 0.471527
0.000000 0.289703 0.471558
0.110168 0.291260 0.471588
0.298157 0.291840 0.471588
0.463043 0.289093 0.471436
0.625732 0.282349 0.471069
0.785553 0.272217 0.470367
0.932983 0.265228 0.469391
1.000000 0.272400 0.468170
0.000000 0.457367 0.469696
0.000000 0.458069 0.469666
0.029724 0.459381 0.469513
0.293091 0.460815 0.469177
0.468079 0.461639 0.468658
0.632355 0.461273 0.467804
0.789154 0.460663 0.466614
0.930634 0.463165 0.465210
1.000000 0.472870 0.463623
0.000000 0.629181 0.463379
0.000000 0.629517 0.463287
0.000000 0.630280 0.463043
0.270630 0.631226 0.462616
0.464539 0.631989 0.461884
0.632904 0.632355 0.460938
0.786743 0.633087 0.459747
0.922302 0.636139 0.458435
1.000000 0.643219 0.457214
0.000000 0.786072 0.455811
0.000000 0.786041 0.455750
0.000000 0.785950 0.455566
0.267700 0.785553 0.455292
0.470734 0.784668 0.454926
0.637878 0.783386 0.454407
0.785187 0.782379 0.453949
0.914001 0.782898 0.453583
1.000000 0.785736 0.453583
0.000000 0.912323 0.454559
0.000000 0.912018 0.454529
0.078644 0.911255 0.454590
0.338013 0.909882 0.454651
0.510223 0.907806 0.454742
0.660126 0.905334 0.454987
0.793884 0.903046 0.455414
0.912842 0.901672 0.456207
1.000000 0.901733 0.457458
0.129211 1.000000 0.463623
0.204102 1.000000 0.463684
0.318665 1.000000 0.463837
0.445831 1.000000 0.464142
0.573761 1.000000 0.464661
0.697113 1.000000 0.465424
0.812775 1.000000 0.466522
0.918823 1.000000 0.468018
1.000000 1.000000 0.470032
0.000000 0.000000 0.567474
0.000000 0.000000 0.567627
0.004791 0.000000 0.568024
0.247314 0.000000 0.568726
0.429260 0.000000 0.569763
0.602966 0.000000 0.570892
0.771698 0.000000 0.571991
0.927887 0.000000 0.572998
1.000000 0.000000 0.573792
0.000000 0.041840 0.568726
0.000000 0.038086 0.568878
0.020203 0.021576 0.569336
0.259583 0.000000 0.570038
0.437744 0.000000 0.570923
0.608734 0.000000 0.571869
0.775482 0.000000 0.572723
0.929810 0.000000 0.573456
1.000000 0.000000 0.574005
0.000000 0.145782 0.571625
0.000000 0.145386 0.571716
0.067413 0.142822 0.572052
0.282043 0.132721 0.572479
0.453522 0.105957 0.573029
0.619995 0.049164 0.573517
0.782806 0.002655 0.573914
0.933014 0.000000 0.574097
1.000000 0.000000 0.574219
0.000000 0.290283 0.574188
0.000000 0.290894 0.574219
0.078857 0.291748 0.574310
0.299164 0.291351 0.574463
0.468201 0.288025 0.574493
0.631439 0.280792 0.574493
0.789917 0.270966 0.574280
0.934723 0.265228 0.573944
1.000000 0.274109 0.573547
0.000000 0.458618 0.574127
0.000000 0.459076 0.574127
0.028076 0.460144 0.574066
0.297943 0.461212 0.573914
0.474030 0.461700 0.573700
0.637726 0.461243 0.573273
0.792664 0.460785 0.572693
0.931488 0.463898 0.571960
1.000000 0.474243 0.571228
0.000000 0.629852 0.570892
0.000000 0.630157 0.570862
0.000000 0.630768 0.570740
0.279968 0.631561 0.570496
0.471405 0.632172 0.570129
0.637848 0.632477 0.569580
0.789154 0.633362 0.568939
0.922180 0.636749 0.568298
1.000000 0.644135 0.567810
0.000000 0.786041 0.567017
0.000000 0.786011 0.566986
0.000000 0.785828 0.566925
0.280975 0.785370 0.566833
0.477844 0.784424 0.566681
0.641815 0.783173 0.566498
0.786224 0.782349 0.566376
0.912903 0.783081 0.566406
1.000000 0.786102 0.566711
0.000000 0.911774 0.568024
0.000000 0.911469 0.568085
0.108612 0.910706 0.568115
0.348541 0.909302 0.568237
0.515442 0.907288 0.568420
0.662048 0.904907 0.568726
0.793396 0.902802 0.569275
0.910553 0.901581 0.570068
1.000000 0.901764 0.571289
0.155182 1.000000 0.576477
0.220581 1.000000 0.576538
0.327911 1.000000 0.576691
0.450653 1.000000 0.576965
0.575439 1.000000 0.577423
0.696655 1.000000 0.578094
0.810608 1.000000 0.579010
0.915405 1.000000 0.580261
1.000000 1.000000 0.581940
0.000000 0.000000 0.688232
0.000000 0.000000 0.688385
0.000000 0.000000 0.688721
0.235535 0.000000 0.689331
0.433167 0.000000 0.690155
0.609406 0.000000 0.691132
0.777222 0.000000 0.692078
0.930176 0.000000 0.692932
1.000000 0.000000 0.693726
0.000000 0.026428 0.689331
0.000000 0.019043 0.689453
0.000000 0.001526 0.689819
0.250519 0.000000 0.690369
0.441650 0.000000 0.691101
0.615051 0.000000 0.691895
0.780762 0.000000 0.692657
0.931824 0.000000 0.693359
1.000000 0.000000 0.693909
0.000000 0.143280 0.691711
0.000000 0.142029 0.691833
0.012115 0.137360 0.692047
0.276978 0.123718 0.692413
0.457642 0.091400 0.692871
0.626007 0.032562 0.693329
0.787567 0.000153 0.693695
0.934448 0.000000 0.693970
1.000000 0.000000 0.694153
0.000000 0.291443 0.693909
0.000000 0.291656 0.693939
0.046692 0.291718 0.694000
0.298370 0.290344 0.694122
0.472870 0.286255 0.694214
0.637115 0.278717 0.694244
0.793915 0.269348 0.694153
0.935394 0.265564 0.694031
1.000000 0.276672 0.693817
0.000000 0.459808 0.694122
0.000000 0.460144 0.694122
0.020813 0.460876 0.694061
0.301727 0.461578 0.694000
0.479919 0.461731 0.693817
0.643158 0.461121 0.693542
0.795654 0.461029 0.693146
0.931152 0.465057 0.692657
1.000000 0.476257 0.692200
0.000000 0.630615 0.691864
0.000000 0.630829 0.691864
0.000000 0.631348 0.691772
0.289642 0.631897 0.691589
0.478760 0.632324 0.691315
0.642822 0.632599 0.690918
0.790863 0.633759 0.690491
0.920807 0.637604 0.690033
1.000000 0.645416 0.689636
0.000000 0.785950 0.689056
0.000000 0.785858 0.689026
0.002350 0.785614 0.688965
0.295654 0.785065 0.688873
0.485779 0.784119 0.688751
0.645660 0.782898 0.688629
0.786499 0.782349 0.688507
0.910492 0.783356 0.688538
1.000000 0.786652 0.688721
0.000000 0.911011 0.689575
0.000000 0.910675 0.689606
0.146698 0.909912 0.689636
0.360901 0.908508 0.689667
0.521332 0.906555 0.689758
0.663727 0.904358 0.689972
0.792114 0.902466 0.690308
0.907043 0.901459 0.690887
1.000000 0.901855 0.691650
0.184479 1.000000 0.695129
0.240753 1.000000 0.695160
0.339569 1.000000 0.695251
0.456635 1.000000 0.695435
0.577576 1.000000 0.695709
0.695862 1.000000 0.696106
0.807648 1.000000 0.696716
0.910919 1.000000 0.697571
1.000000 1.000000 0.698608
0.000000 0.000000 0.811310
0.000000 0.000000 0.811462
0.000000 0.000000 0.811676
0.234894 0.000000 0.812073
0.441833 0.000000 0.812622
0.619080 0.000000 0.813171
0.784576 0.000000 0.813721
0.932892 0.000000 0.814117
1.000000 0.000000 0.814423
0.000000 0.001373 0.812134
0.000000 0.000000 0.812225
0.000000 0.000000 0.812439
0.251587 0.000000 0.812805
0.450256 0.000000 0.813202
0.624512 0.000000 0.813660
0.787811 0.000000 0.814056
0.934265 0.000000 0.814362
1.000000 0.000000 0.814484
0.000000 0.136902 0.813660
0.000000 0.134583 0.813721
0.006622 0.127319 0.813843
0.280548 0.109375 0.814056
0.466370 0.069366 0.814270
0.635101 0.015503 0.814453
0.793945 0.000000 0.814545
0.936340 0.000000 0.814484
1.000000 0.000000 0.814362
0.000000 0.291626 0.814789
0.000000 0.291473 0.814819
0.042572 0.290741 0.814819
0.305267 0.288605 0.814819
0.482269 0.283783 0.814758
0.645844 0.276031 0.814606
0.799438 0.267639 0.814331
0.936432 0.266510 0.813965
1.000000 0.280365 0.813507
0.000000 0.460876 0.814117
0.000000 0.461121 0.814056
0.046875 0.461548 0.813995
0.313934 0.461853 0.813843
0.490692 0.461670 0.813538
0.651581 0.461029 0.813171
0.799988 0.461578 0.812653
0.931183 0.466705 0.812012
1.000000 0.479004 0.811310
0.000000 0.631348 0.811127
0.000000 0.631531 0.811066
0.013092 0.631897 0.810944
0.308899 0.632263 0.810699
0.491211 0.632477 0.810364
0.650665 0.632874 0.809875
0.793793 0.634460 0.809296
0.919800 0.638855 0.808685
1.000000 0.647156 0.808075
0.000000 0.785706 0.807281
0.000000 0.785583 0.807251
0.033966 0.785278 0.807159
0.320099 0.784637 0.807007
0.498840 0.783661 0.806763
0.652191 0.782684 0.806488
0.788147 0.782440 0.806213
0.908539 0.783783 0.805969
1.000000 0.787415 0.805786
0.000000 0.910004 0.805756
0.007538 0.909698 0.805756
0.201630 0.908905 0.805725
0.381104 0.907562 0.805695
0.531616 0.905701 0.805664
0.667908 0.903717 0.805634
0.792114 0.902100 0.805695
0.904053 0.901398 0.805847
1.000000 0.902008 0.806152
0.225800 1.000000 0.807831
0.272095 1.000000 0.807831
0.359253 1.000000 0.807861
0.467957 1.000000 0.807922
0.583191 1.000000 0.808014
0.697266 1.000000 0.808167
0.805786 1.000000 0.808411
0.906982 1.000000 0.808777
1.000000 0.999969 0.809326
0.000000 0.000000 0.922729
0.000000 0.000000 0.922791
0.000000 0.000000 0.922943
0.266693 0.000000 0.923157
0.464966 0.000000 0.923431
0.637695 0.000000 0.923615
0.797363 0.000000 0.923767
0.938843 0.000000 0.923737
1.000000 0.000000 0.923553
0.000000 0.000000 0.923248
0.000000 0.000000 0.923309
0.001190 0.000000 0.923401
0.281952 0.000000 0.923553
0.472961 0.000000 0.923706
0.642731 0.000000 0.923828
0.800262 0.000000 0.923859
0.939880 0.000000 0.923737
1.000000 0.000000 0.923401
0.000000 0.124512 0.924042
0.000000 0.120911 0.924042
0.041809 0.110687 0.924072
0.309235 0.086731 0.924133
0.488434 0.045380 0.924133
0.652557 0.005554 0.924011
0.805511 0.000000 0.923767
0.941284 0.000000 0.923401
1.000000 0.000000 0.922852
0.000000 0.290527 0.924133
0.000000 0.290192 0.924103
0.105591 0.288940 0.924042
0.334320 0.286041 0.923920
0.504150 0.280701 0.923676
0.662415 0.273010 0.923340
0.809723 0.266449 0.922821
0.940399 0.268585 0.922180
1.000000 0.285675 0.921387
0.000000 0.461761 0.922363
0.000000 0.461884 0.922302
0.129517 0.462036 0.922180
0.346741 0.462036 0.921936
0.513275 0.461609 0.921539
0.667328 0.461182 0.920990
0.808746 0.462677 0.920288
0.934052 0.469116 0.919403
1.000000 0.482727 0.918427
0.000000 0.632111 0.918304
0.000000 0.632233 0.918274
0.116211 0.632416 0.918091
0.347595 0.632629 0.917816
0.514648 0.632812 0.917358
0.665222 0.633392 0.916748
0.800995 0.635559 0.916016
0.921509 0.640564 0.915192
1.000000 0.649445 0.914307
0.000000 0.785309 0.913269
0.000000 0.785187 0.913239
0.150085 0.784821 0.913086
0.361084 0.784180 0.912872
0.521606 0.783264 0.912506
0.664764 0.782562 0.912109
0.793793 0.782684 0.911591
0.909210 0.784515 0.911102
1.000000 0.788513 0.910614
0.014618 0.908783 0.909821
0.096771 0.908447 0.909790
0.268494 0.907715 0.909698
0.413483 0.906433 0.909576
0.549713 0.904816 0.909393
0.677582 0.903076 0.909210
0.795868 0.901794 0.909027
0.903625 0.901428 0.908875
1.000000 0.902252 0.908752
0.281067 1.000000 0.908966
0.317413 1.000000 0.908966
0.390869 1.000000 0.908936
0.488220 1.000000 0.908905
0.595245 1.000000 0.908844
0.703278 1.000000 0.908813
0.807281 1.000000 0.908813
0.905548 1.000000 0.908813
0.999939 0.999969 0.908905
0.000000 0.000000 1.000000
0.000000 0.000000 1.000000
0.083649 0.000000 1.000000
0.331360 0.000000 1.000000
0.506378 0.000000 1.000000
0.667633 0.000000 1.000000
0.817169 0.000000 1.000000
0.949463 0.000000 1.000000
1.000000 0.000000 1.000000
0.000000 0.000000 1.000000
0.000000 0.000000 1.000000
0.116364 0.000000 1.000000
0.343414 0.000000 1.000000
0.513397 0.000000 1.000000
0.672089 0.000000 1.000000
0.819519 0.000000 1.000000
0.950165 0.000000 1.000000
1.000000 0.000000 1.000000
0.000000 0.103485 1.000000
0.000000 0.098328 1.000000
0.179138 0.084076 1.000000
0.366058 0.058136 1.000000
0.527283 0.015686 1.000000
0.680603 0.000305 1.000000
0.823578 0.000000 1.000000
0.950745 0.000000 1.000000
1.000000 0.000000 1.000000
0.000000 0.288452 1.000000
0.002380 0.287811 1.000000
0.224274 0.286133 1.000000
0.388336 0.282684 1.000000
0.541443 0.277039 1.000000
0.688812 0.270203 1.000000
0.826141 0.266357 1.000000
0.948761 0.272369 1.000000
1.000000 0.292999 1.000000
0.000000 0.462433 1.000000
0.037659 0.462433 1.000000
0.244965 0.462372 1.000000
0.401306 0.462097 1.000000
0.549622 0.461670 1.000000
0.691833 0.461792 1.000000
0.823212 0.464600 1.000000
0.940979 0.472626 1.000000
1.000000 0.487518 1.000000
0.000000 0.632812 1.000000
0.037781 0.632843 1.000000
0.248077 0.632935 1.000000
0.404175 0.633057 1.000000
0.550140 0.633301 1.000000
0.687408 0.634338 1.000000
0.813538 0.637177 1.000000
0.927124 0.642914 1.000000
1.000000 0.652405 1.000000
0.000000 0.784821 1.000000
0.103455 0.784668 1.000000
0.269836 0.784302 1.000000
0.415863 0.783661 1.000000
0.554230 0.782959 1.000000
0.684204 0.782593 1.000000
0.804382 0.783234 1.000000
0.913513 0.785522 1.000000
1.000000 0.789886 1.000000
0.189301 0.907440 1.000000
0.244232 0.907135 1.000000
0.341034 0.906403 1.000000
0.456329 0.905304 1.000000
0.576019 0.903870 1.000000
0.693176 0.902496 1.000000
0.803986 0.901581 1.000000
0.906555 0.901581 1.000000
1.000000 0.902649 1.000000
0.343231 1.000000 1.000000
0.371124 1.000000 1.000000
0.431763 1.000000 1.000000
0.516571 1.000000 1.000000
0.613586 1.000000 1.000000
0.713989 1.000000 1.000000
0.812347 1.000000 1.000000
0.907196 1.000000 1.000000
0.999969 1.000000 0.999939
