滤镜资源/Lutify.me Free 3D LUTs Package/Capture One/Mac/Lutify.me JPG Styles/100%/LM-JPG-Heulandite-100.costyle
<?xml version="1.0"?>
<SL Engine="1000">
	<E K="ICCProfile" V="LM-JPG-Heulandite-100.icm" />
	<E K="Name" V="LM-JPG-Heulandite" />
	<E K="StyleSource" V="Styles" />
	<E K="UUID" V="8B2C327C-BE8C-465E-BC2F-75016F9F18DE" />
</SL>
