滤镜资源/Lutify.me Free 3D LUTs Package/Capture One/Mac/Lutify.me JPG Styles/100%/LM-JPG-Hilutite-100.costyle
<?xml version="1.0"?>
<SL Engine="1000">
	<E K="ICCProfile" V="LM-JPG-Hilutite-100.icm" />
	<E K="Name" V="LM-JPG-Hilutite" />
	<E K="StyleSource" V="Styles" />
	<E K="UUID" V="685F803D-326B-4624-9155-CDDB44C3D11C" />
</SL>
