滤镜资源/Professional Luts Collection/Triune-Digital-Cinematic-LUTs/3D LUTs (CUBE)/STANDARD/BW/Noir 3 - Rec709.cube
#Created by Benjamin (IWLTBAP) : http://luts.iwltbap.com
#Copyright: (C) Copyright 2016 Triune Films and IWLTBAP
TITLE "Blockbuster LUTs Pack (Rec.709)"
#LUT size
LUT_3D_SIZE 5
#LUT data points
DOMAIN_MIN 0.000000 0.000000 0.000000
DOMAIN_MAX 0.903226 0.903226 0.903226
0.000000 0.000488 0.000244
0.026978 0.029327 0.033264
0.065704 0.072052 0.084473
0.146698 0.182739 0.198151
0.271515 0.330597 0.372070
0.023621 0.025879 0.029297
0.033691 0.036194 0.041199
0.079407 0.088379 0.105164
0.168793 0.218048 0.228333
0.309052 0.369904 0.418701
0.055176 0.059631 0.068817
0.071930 0.079498 0.093933
0.095612 0.107697 0.129181
0.192261 0.249298 0.262360
0.349243 0.412415 0.462616
0.114563 0.133911 0.156250
0.146667 0.182648 0.198090
0.180145 0.234253 0.244568
0.221008 0.279297 0.301666
0.390900 0.456177 0.503998
0.205658 0.264313 0.281219
0.254028 0.312592 0.348175
0.308929 0.369812 0.418610
0.370087 0.433899 0.483673
0.434052 0.501068 0.542694
0.012268 0.013824 0.015472
0.033691 0.036194 0.041199
0.079407 0.088379 0.105164
0.168793 0.218048 0.228333
0.309052 0.369904 0.418701
0.011688 0.013184 0.014740
0.079437 0.088440 0.105225
0.168823 0.218079 0.228363
0.309143 0.370026 0.418854
0.499512 0.567383 0.596680
0.037811 0.040466 0.046112
0.157990 0.200714 0.213287
0.192291 0.249329 0.262390
0.349396 0.412567 0.462738
0.542236 0.608673 0.630676
0.079437 0.088409 0.105194
0.271515 0.330597 0.372070
0.328857 0.391205 0.441315
0.390991 0.456299 0.504120
0.584595 0.645294 0.661652
0.157928 0.200592 0.213196
0.434204 0.501221 0.542816
0.499390 0.567291 0.596588
0.563263 0.627411 0.646454
0.626862 0.679230 0.690735
0.024963 0.027252 0.030914
0.051208 0.055206 0.063568
0.095612 0.107697 0.129181
0.192261 0.249298 0.262360
0.349243 0.412415 0.462616
0.024292 0.026550 0.030090
0.116577 0.136780 0.159088
0.192291 0.249329 0.262390
0.349396 0.412567 0.462738
0.542236 0.608673 0.630676
0.023621 0.025879 0.029297
0.114594 0.133942 0.156281
0.349426 0.412598 0.462769
0.542358 0.608765 0.630737
0.733063 0.764374 0.761841
0.055176 0.059631 0.068817
0.205719 0.264374 0.281281
0.521332 0.589233 0.614471
0.584686 0.645355 0.661713
0.764465 0.792480 0.785248
0.114563 0.133911 0.156250
0.349396 0.412567 0.462738
0.692474 0.730530 0.734192
0.750824 0.780182 0.774994
0.789062 0.814880 0.805603
0.040253 0.043121 0.049255
0.074768 0.082886 0.098267
0.136993 0.167572 0.185974
0.221008 0.279297 0.301666
0.390900 0.456177 0.503998
0.039459 0.042236 0.048187
0.162323 0.207642 0.219299
0.257477 0.316071 0.353119
0.390991 0.456299 0.504120
0.584595 0.645294 0.661652
0.038635 0.041321 0.047119
0.160156 0.204132 0.216278
0.438812 0.505890 0.546722
0.584686 0.645355 0.661713
0.764465 0.792480 0.785248
0.037842 0.040466 0.046112
0.157990 0.200714 0.213287
0.434326 0.501373 0.542969
0.764526 0.792542 0.785309
0.854889 0.873016 0.860962
0.079407 0.088379 0.105164
0.271515 0.330597 0.372070
0.605682 0.662537 0.676300
0.846985 0.865967 0.854218
0.868469 0.885681 0.873779
0.059326 0.064453 0.074799
0.110657 0.128326 0.150696
0.184998 0.240265 0.251678
0.293365 0.353210 0.400238
0.434052 0.501068 0.542694
0.058289 0.063171 0.073181
0.214966 0.273407 0.293640
0.336914 0.399719 0.450134
0.482086 0.549835 0.582428
0.626862 0.679230 0.690735
0.057220 0.061920 0.071594
0.211884 0.270416 0.289520
0.529633 0.597443 0.621185
0.674896 0.716766 0.722687
0.789062 0.814880 0.805603
0.056183 0.060730 0.070129
0.208832 0.267395 0.285431
0.525452 0.593323 0.617828
0.812622 0.835907 0.825439
0.868469 0.885681 0.873779
0.055176 0.059631 0.068817
0.205719 0.264374 0.281281
0.521332 0.589233 0.614471
0.810608 0.834167 0.823761
0.910004 0.927673 0.917206
