滤镜资源/Professional Luts Collection/Triune-Digital-Cinematic-LUTs/3D LUTs (CUBE)/STANDARD/BW/Noir 3 - Rec709.cube
#Created by Benjamin (IWLTBAP) : http://luts.iwltbap.com
#Copyright: (C) Copyright 2016 Triune Films and IWLTBAP
TITLE "Blockbuster LUTs Pack (Rec.709)"
#LUT size
LUT_3D_SIZE 8
#LUT data points
DOMAIN_MIN 0.000000 0.000000 0.000000
DOMAIN_MAX 0.903226 0.903226 0.903226
0.000000 0.000488 0.000244
0.015015 0.016785 0.018890
0.031281 0.033752 0.038391
0.052338 0.056488 0.065094
0.084076 0.093933 0.112091
0.131470 0.158875 0.179016
0.190613 0.247253 0.259918
0.271515 0.330597 0.372070
0.013336 0.014984 0.016815
0.018372 0.020416 0.023041
0.035431 0.037994 0.043274
0.058105 0.062988 0.072937
0.093323 0.104950 0.125824
0.144989 0.180054 0.195984
0.205688 0.264343 0.281250
0.292389 0.352234 0.399017
0.027466 0.029846 0.033875
0.033173 0.035706 0.040619
0.040131 0.042969 0.049103
0.064209 0.070251 0.082153
0.103455 0.118073 0.140503
0.157959 0.200623 0.213226
0.223236 0.281525 0.304688
0.314758 0.376038 0.425232
0.044769 0.048096 0.055145
0.052338 0.056458 0.065063
0.061157 0.066620 0.077545
0.070923 0.078308 0.092407
0.114563 0.133911 0.156250
0.170319 0.220490 0.230438
0.242188 0.300476 0.331085
0.337494 0.400299 0.450714
0.067230 0.073853 0.086792
0.079407 0.088379 0.105164
0.093292 0.104950 0.125793
0.108978 0.125946 0.148346
0.125702 0.149902 0.171814
0.183594 0.238556 0.249664
0.261169 0.319885 0.358490
0.361053 0.424561 0.474518
0.103455 0.118073 0.140503
0.120117 0.141815 0.164093
0.138031 0.169220 0.187286
0.157928 0.200592 0.213196
0.176727 0.230011 0.239563
0.197388 0.255676 0.269897
0.281830 0.341278 0.385376
0.385010 0.449829 0.498260
0.151733 0.190643 0.204559
0.170319 0.220490 0.230438
0.190521 0.247131 0.259796
0.214417 0.272858 0.292877
0.242126 0.300415 0.331024
0.271362 0.330414 0.371857
0.303253 0.363708 0.412140
0.408478 0.475189 0.521088
0.205658 0.264313 0.281219
0.232697 0.290802 0.317413
0.261169 0.319855 0.358429
0.292328 0.352173 0.398926
0.325928 0.388062 0.437958
0.360962 0.424500 0.474457
0.396729 0.462494 0.509674
0.434052 0.501068 0.542694
0.006989 0.008087 0.008911
0.018372 0.020416 0.023041
0.035431 0.037994 0.043274
0.058105 0.062988 0.072937
0.093323 0.104950 0.125824
0.144989 0.180054 0.195984
0.205688 0.264343 0.281250
0.292389 0.352234 0.399017
0.006683 0.007721 0.008514
0.035431 0.037994 0.043274
0.058136 0.062988 0.072968
0.093353 0.104980 0.125854
0.145020 0.180084 0.196014
0.205719 0.264374 0.281281
0.292450 0.352295 0.399109
0.396973 0.462738 0.509888
0.020020 0.022186 0.025055
0.055206 0.059662 0.068848
0.064209 0.070251 0.082153
0.103485 0.118103 0.140564
0.157990 0.200714 0.213287
0.223267 0.281555 0.304718
0.314789 0.376099 0.425262
0.421387 0.488312 0.532135
0.035431 0.037994 0.043274
0.084076 0.093933 0.112091
0.098022 0.110565 0.132782
0.114563 0.133911 0.156250
0.170349 0.220520 0.230469
0.242218 0.300507 0.331146
0.337524 0.400330 0.450745
0.446991 0.514130 0.553528
0.055176 0.059631 0.068817
0.125763 0.149994 0.171906
0.144989 0.180054 0.195984
0.164124 0.210541 0.221832
0.183624 0.238586 0.249695
0.261200 0.319916 0.358521
0.361115 0.424652 0.474609
0.471649 0.539185 0.573853
0.084045 0.093933 0.112061
0.176788 0.230072 0.239624
0.197418 0.255737 0.269958
0.223236 0.281525 0.304688
0.251709 0.310211 0.344849
0.281921 0.341339 0.385468
0.385040 0.449860 0.498291
0.496277 0.564148 0.594025
0.125732 0.149933 0.171875
0.242218 0.300507 0.331146
0.271484 0.330536 0.372040
0.303375 0.363831 0.412262
0.337494 0.400299 0.450714
0.373291 0.437195 0.486908
0.408508 0.475220 0.521118
0.521210 0.589081 0.614349
0.176758 0.230042 0.239594
0.326019 0.388153 0.438080
0.361115 0.424652 0.474609
0.396820 0.462585 0.509766
0.434143 0.501190 0.542786
0.471558 0.539124 0.573792
0.508667 0.576538 0.604156
0.545105 0.611206 0.632812
0.014008 0.015717 0.017639
0.025909 0.028259 0.032043
0.040131 0.042969 0.049103
0.064209 0.070251 0.082153
0.103455 0.118073 0.140503
0.157959 0.200623 0.213226
0.223236 0.281525 0.304688
0.314758 0.376038 0.425232
0.013672 0.015350 0.017212
0.045258 0.048645 0.055786
0.064209 0.070251 0.082153
0.103485 0.118103 0.140564
0.157990 0.200714 0.213287
0.223267 0.281555 0.304718
0.314789 0.376099 0.425262
0.421387 0.488312 0.532135
0.013336 0.014984 0.016815
0.044769 0.048096 0.055145
0.103516 0.118134 0.140594
0.157990 0.200714 0.213287
0.223328 0.281616 0.304810
0.314819 0.376129 0.425293
0.421448 0.488342 0.532166
0.533203 0.600616 0.623871
0.027466 0.029846 0.033875
0.067230 0.073853 0.086792
0.151794 0.190735 0.204651
0.170380 0.220612 0.230530
0.242279 0.300568 0.331238
0.337585 0.400421 0.450836
0.447083 0.514191 0.553589
0.557373 0.622162 0.642029
0.044769 0.048096 0.055145
0.103485 0.118103 0.140564
0.205719 0.264374 0.281281
0.232819 0.290894 0.317596
0.261261 0.319977 0.358612
0.361145 0.424683 0.474640
0.471680 0.539215 0.573883
0.581604 0.642822 0.659546
0.067230 0.073853 0.086792
0.151794 0.190704 0.204620
0.282013 0.341431 0.385590
0.314789 0.376099 0.425262
0.349304 0.412476 0.462677
0.385101 0.449951 0.498383
0.496338 0.564240 0.594086
0.605591 0.662445 0.676239
0.103455 0.118073 0.140503
0.205688 0.264343 0.281250
0.373413 0.437317 0.487000
0.408661 0.475372 0.521271
0.446991 0.514130 0.553528
0.483948 0.551727 0.583954
0.521240 0.589111 0.614380
0.629974 0.681641 0.692810
0.151733 0.190643 0.204559
0.281982 0.341400 0.385529
0.471680 0.539215 0.573883
0.508789 0.576660 0.604248
0.545227 0.611328 0.632904
0.581512 0.642761 0.659515
0.617645 0.672028 0.684479
0.654633 0.700897 0.709412
0.021027 0.023224 0.026245
0.033966 0.036499 0.041534
0.050049 0.053925 0.062073
0.070923 0.078308 0.092407
0.114563 0.133911 0.156250
0.170319 0.220490 0.230438
0.242188 0.300476 0.331085
0.337494 0.400299 0.450714
0.020691 0.022888 0.025848
0.056335 0.060883 0.070312
0.080322 0.089478 0.106567
0.114563 0.133911 0.156250
0.170349 0.220520 0.230469
0.242218 0.300507 0.331146
0.337524 0.400330 0.450745
0.446991 0.514130 0.553528
0.020386 0.022522 0.025452
0.055786 0.060272 0.069580
0.126923 0.151825 0.173340
0.170380 0.220612 0.230530
0.242279 0.300568 0.331238
0.337585 0.400421 0.450836
0.447083 0.514191 0.553589
0.557373 0.622162 0.642029
0.020020 0.022186 0.025055
0.055206 0.059662 0.068848
0.125763 0.149994 0.171906
0.242340 0.300629 0.331329
0.337646 0.400482 0.450897
0.447144 0.514282 0.553650
0.557465 0.622223 0.642090
0.667389 0.710907 0.717773
0.035431 0.037994 0.043274
0.084076 0.093933 0.112091
0.176819 0.230133 0.239716
0.326141 0.388275 0.438202
0.361206 0.424744 0.474701
0.471802 0.539368 0.573975
0.581635 0.642853 0.659576
0.692474 0.730530 0.734192
0.055176 0.059631 0.068817
0.125763 0.149994 0.171906
0.242279 0.300568 0.331238
0.421448 0.488342 0.532166
0.459534 0.526855 0.563873
0.496399 0.564301 0.594147
0.605652 0.662506 0.676300
0.715759 0.749847 0.750000
0.084045 0.093933 0.112061
0.176788 0.230072 0.239624
0.326111 0.388245 0.438141
0.521332 0.589233 0.614471
0.557373 0.622162 0.642029
0.593719 0.652740 0.667999
0.630035 0.681702 0.692841
0.738434 0.769012 0.765656
0.125732 0.149933 0.171875
0.242218 0.300507 0.331146
0.421387 0.488312 0.532135
0.617767 0.672089 0.684540
0.654755 0.700989 0.709503
0.692444 0.730499 0.734161
0.727203 0.759460 0.757843
0.756744 0.785522 0.779449
0.028992 0.031403 0.035645
0.043854 0.047058 0.053925
0.062378 0.068054 0.079407
0.089600 0.100525 0.120270
0.125702 0.149902 0.171814
0.183594 0.238556 0.249664
0.261169 0.319885 0.358490
0.361053 0.424561 0.474518
0.028595 0.031006 0.035217
0.069366 0.076385 0.089996
0.100128 0.113342 0.135803
0.139435 0.171387 0.189056
0.183624 0.238586 0.249695
0.261200 0.319916 0.358521
0.361115 0.424652 0.474609
0.471649 0.539185 0.573853
0.028229 0.030609 0.034760
0.068542 0.075439 0.088776
0.154297 0.194733 0.208130
0.198853 0.257477 0.272034
0.261261 0.319977 0.358612
0.361145 0.424683 0.474640
0.471680 0.539215 0.573883
0.581604 0.642822 0.659546
0.027863 0.030212 0.034302
0.067841 0.074585 0.087708
0.153046 0.192719 0.206390
0.284119 0.343658 0.388306
0.361206 0.424744 0.474701
0.471802 0.539368 0.573975
0.581635 0.642853 0.659576
0.692474 0.730530 0.734192
0.027466 0.029846 0.033875
0.067230 0.073853 0.086792
0.151794 0.190735 0.204651
0.282043 0.341492 0.385620
0.471863 0.539429 0.574036
0.581696 0.642883 0.659607
0.692657 0.730682 0.734283
0.778870 0.805573 0.796906
0.044769 0.048096 0.055145
0.103485 0.118103 0.140564
0.205719 0.264374 0.281281
0.373413 0.437317 0.487000
0.569580 0.632996 0.651215
0.605774 0.662598 0.676361
0.715851 0.749939 0.750061
0.792480 0.818024 0.808533
0.067230 0.073853 0.086761
0.151794 0.190704 0.204620
0.282013 0.341431 0.385590
0.471771 0.539307 0.573944
0.667450 0.710938 0.717804
0.704346 0.740295 0.742188
0.738464 0.769043 0.765686
0.804871 0.829224 0.819031
0.103455 0.118073 0.140503
0.205688 0.264343 0.281250
0.373352 0.437256 0.486938
0.569427 0.632874 0.651093
0.756836 0.785583 0.779510
0.778839 0.805542 0.796875
0.799133 0.824097 0.814209
0.816315 0.839081 0.828461
0.037842 0.040466 0.046112
0.054626 0.058990 0.068085
0.077545 0.086182 0.102417
0.111176 0.129089 0.151459
0.152954 0.192596 0.206299
0.197388 0.255676 0.269897
0.281830 0.341278 0.385376
0.385010 0.449829 0.498260
0.037323 0.039948 0.045532
0.087769 0.098328 0.117554
0.123505 0.146606 0.168854
0.166626 0.214569 0.225311
0.216187 0.274628 0.295288
0.281921 0.341339 0.385468
0.385040 0.449860 0.498291
0.496277 0.564148 0.594025
0.036865 0.039459 0.044983
0.086853 0.097229 0.116180
0.180939 0.235260 0.245758
0.236572 0.294739 0.322998
0.305695 0.366302 0.414886
0.385101 0.449951 0.498383
0.496338 0.564240 0.594086
0.605591 0.662445 0.676239
0.036377 0.038971 0.044403
0.085907 0.096130 0.114807
0.179565 0.233551 0.243713
0.330688 0.393158 0.443390
0.411163 0.477997 0.523560
0.496399 0.564301 0.594147
0.605652 0.662506 0.676300
0.715759 0.749847 0.750000
0.035889 0.038483 0.043823
0.084991 0.095032 0.113434
0.178192 0.231812 0.241669
0.328430 0.390717 0.440796
0.523804 0.591705 0.616486
0.605774 0.662598 0.676361
0.715851 0.749939 0.750061
0.792480 0.818024 0.808533
0.035431 0.037994 0.043274
0.084076 0.093933 0.112091
0.176788 0.230072 0.239624
0.326141 0.388275 0.438202
0.521393 0.589264 0.614502
0.715881 0.749969 0.750092
0.792542 0.818085 0.808563
0.842499 0.861969 0.850372
0.055176 0.059631 0.068817
0.125763 0.149994 0.171906
0.242279 0.300568 0.331238
0.421448 0.488342 0.532166
0.617828 0.672180 0.684601
0.785706 0.811829 0.802734
0.804901 0.829224 0.819061
0.851501 0.869995 0.858063
0.084045 0.093933 0.112061
0.176758 0.230042 0.239594
0.326111 0.388245 0.438141
0.521332 0.589233 0.614471
0.715851 0.749939 0.750061
0.833344 0.853851 0.842560
0.846985 0.865967 0.854218
0.860352 0.877930 0.865753
0.047546 0.051178 0.058807
0.067230 0.073853 0.086761
0.097015 0.109375 0.131287
0.135254 0.164825 0.183777
0.179474 0.233398 0.243561
0.234528 0.292664 0.320068
0.303253 0.363708 0.412140
0.408478 0.475189 0.521088
0.047089 0.050659 0.058167
0.109039 0.126068 0.148438
0.150482 0.188629 0.202881
0.194733 0.252350 0.265961
0.255524 0.314087 0.350311
0.328278 0.390564 0.440643
0.408508 0.475220 0.521118
0.521210 0.589081 0.614349
0.046600 0.050140 0.057587
0.107910 0.124420 0.146851
0.212769 0.271271 0.290680
0.277771 0.337067 0.380127
0.354065 0.417389 0.467468
0.436768 0.503815 0.544983
0.521240 0.589111 0.614380
0.629974 0.681641 0.692810
0.046173 0.049652 0.056976
0.106812 0.122833 0.145264
0.211029 0.269562 0.288361
0.380463 0.444946 0.493866
0.464447 0.531860 0.567932
0.547668 0.613495 0.634735
0.630035 0.681702 0.692841
0.738434 0.769012 0.765656
0.045685 0.049133 0.056366
0.105713 0.121277 0.143707
0.209229 0.267822 0.286011
0.378143 0.442444 0.491608
0.574402 0.636932 0.654541
0.657349 0.703033 0.711212
0.738464 0.769043 0.765686
0.804871 0.829224 0.819031
0.045227 0.048615 0.055756
0.104584 0.119659 0.142090
0.207520 0.266113 0.283661
0.375793 0.439911 0.489349
0.571991 0.634979 0.652863
0.758423 0.787048 0.780731
0.804901 0.829224 0.819061
0.851501 0.869995 0.858063
0.044769 0.048096 0.055145
0.103485 0.118103 0.140564
0.205719 0.264374 0.281281
0.373413 0.437317 0.487000
0.569580 0.632996 0.651215
0.756866 0.785614 0.779541
0.851532 0.869995 0.858093
0.884674 0.901276 0.889893
0.067230 0.073853 0.086761
0.151794 0.190704 0.204620
0.282013 0.341431 0.385590
0.471771 0.539307 0.573944
0.667450 0.710938 0.717804
0.810608 0.834167 0.823761
0.881561 0.898132 0.886627
0.889709 0.906494 0.895233
0.059326 0.064453 0.074799
0.084961 0.095001 0.113403
0.120117 0.141815 0.164093
0.162872 0.208527 0.220093
0.210907 0.269440 0.288208
0.275574 0.334808 0.377319
0.351532 0.414795 0.464935
0.434052 0.501068 0.542694
0.058746 0.063721 0.073883
0.132599 0.160675 0.180481
0.176758 0.230042 0.239594
0.230804 0.288910 0.314758
0.298828 0.358948 0.407074
0.377991 0.442261 0.491455
0.461761 0.529144 0.565735
0.545105 0.611206 0.632812
0.058136 0.062988 0.072968
0.131470 0.158875 0.179016
0.251770 0.310272 0.344910
0.323853 0.385834 0.435608
0.403961 0.470276 0.516693
0.488861 0.556763 0.588013
0.571808 0.634827 0.652740
0.654633 0.700897 0.709412
0.057526 0.062286 0.072052
0.130310 0.157104 0.177582
0.249878 0.308350 0.342163
0.431702 0.498688 0.540741
0.516327 0.584229 0.610382
0.598602 0.656738 0.671387
0.682404 0.722656 0.727600
0.756744 0.785522 0.779449
0.056915 0.061554 0.071106
0.129181 0.155365 0.176208
0.247986 0.306396 0.339447
0.429169 0.496155 0.538635
0.625244 0.677979 0.689606
0.708984 0.744171 0.745361
0.773376 0.800537 0.792175
0.816315 0.839081 0.828461
0.056335 0.060883 0.070312
0.128021 0.153534 0.174713
0.246094 0.304474 0.336731
0.426575 0.493530 0.536438
0.622772 0.676025 0.687958
0.788422 0.814301 0.805054
0.828888 0.849945 0.838837
0.860352 0.877930 0.865753
0.055786 0.060272 0.069580
0.126892 0.151794 0.173309
0.244171 0.302490 0.333923
0.423981 0.490936 0.534302
0.620361 0.674133 0.686310
0.787079 0.813080 0.803925
0.868347 0.885498 0.873596
0.889709 0.906494 0.895233
0.055176 0.059631 0.068817
0.125763 0.149994 0.171906
0.242279 0.300568 0.331238
0.421448 0.488342 0.532166
0.617828 0.672180 0.684601
0.785706 0.811829 0.802734
0.867645 0.884857 0.872925
0.910004 0.927673 0.917206
