滤镜资源/Professional Luts Collection/Triune-Digital-Cinematic-LUTs/3D LUTs (CUBE)/STANDARD/BW/Noir 3 - Rec709.cube
#Created by Benjamin (IWLTBAP) : http://luts.iwltbap.com
#Copyright: (C) Copyright 2016 Triune Films and IWLTBAP
TITLE "Blockbuster LUTs Pack (Rec.709)"
#LUT size
LUT_3D_SIZE 32
#LUT data points
0.000000 0.000488 0.000244
0.003754 0.004578 0.004913
0.007507 0.008636 0.009552
0.011261 0.012726 0.014221
0.015015 0.016785 0.018890
0.018768 0.020874 0.023560
0.022675 0.024902 0.028198
0.026978 0.029327 0.033264
0.031281 0.033752 0.038391
0.036011 0.038605 0.043976
0.041321 0.044281 0.050629
0.046509 0.050049 0.057465
0.052338 0.056488 0.065094
0.058899 0.063904 0.074127
0.065704 0.072052 0.084473
0.073975 0.081940 0.097046
0.084076 0.093933 0.112091
0.094513 0.106354 0.127563
0.106262 0.122070 0.144501
0.118774 0.139923 0.162201
0.131470 0.158875 0.179016
0.146698 0.182739 0.198151
0.161102 0.205688 0.217621
0.175079 0.227936 0.237091
0.190613 0.247253 0.259918
0.207886 0.266510 0.284180
0.228027 0.286163 0.311035
0.249390 0.307861 0.341492
0.271515 0.330597 0.372070
0.295105 0.355072 0.402496
0.320404 0.382080 0.431641
0.346405 0.409485 0.459717
0.003357 0.004120 0.004395
0.004578 0.005463 0.005920
0.008331 0.009552 0.010590
0.012085 0.013641 0.015259
0.015839 0.017700 0.019928
0.019592 0.021759 0.024536
0.023621 0.025879 0.029297
0.027924 0.030304 0.034424
0.032227 0.034729 0.039520
0.037201 0.039825 0.045410
0.042450 0.045563 0.052124
0.047668 0.051300 0.058960
0.053772 0.058075 0.066986
0.060394 0.065704 0.076416
0.067230 0.073853 0.086792
0.076019 0.084351 0.100098
0.086395 0.096710 0.115540
0.096802 0.109100 0.130981
0.109039 0.126068 0.148438
0.121552 0.143860 0.166138
0.134674 0.163910 0.183044
0.150146 0.188141 0.202484
0.164185 0.210602 0.221893
0.178528 0.232239 0.242188
0.194000 0.251465 0.264923
0.212311 0.270813 0.290100
0.232819 0.290894 0.317596
0.254120 0.312683 0.348328
0.276764 0.336029 0.378845
0.300598 0.360870 0.409119
0.326111 0.388245 0.438141
0.352325 0.415619 0.465729
0.006683 0.007721 0.008514
0.007935 0.009094 0.010071
0.009186 0.010468 0.011627
0.012939 0.014526 0.016296
0.016693 0.018616 0.020966
0.020447 0.022614 0.025543
0.024597 0.026886 0.030457
0.028870 0.031281 0.035522
0.033203 0.035736 0.040649
0.038391 0.041077 0.046814
0.043610 0.046814 0.053650
0.048798 0.052582 0.060486
0.055176 0.059631 0.068817
0.061920 0.067505 0.078705
0.068939 0.075897 0.089386
0.078247 0.087006 0.103455
0.088715 0.099457 0.118958
0.099304 0.112152 0.134644
0.111816 0.129944 0.152313
0.124329 0.147827 0.170074
0.138123 0.169312 0.187378
0.153320 0.193176 0.206787
0.167267 0.215607 0.226227
0.181946 0.236481 0.247192
0.197479 0.255798 0.270050
0.216705 0.275116 0.295959
0.237518 0.295715 0.324371
0.258911 0.317535 0.355164
0.281982 0.341400 0.385529
0.306274 0.366943 0.415558
0.331696 0.394226 0.444550
0.358185 0.421631 0.471649
0.010010 0.011383 0.012665
0.011261 0.012726 0.014221
0.012512 0.014069 0.015778
0.013763 0.015442 0.017334
0.017517 0.019531 0.022003
0.021271 0.023468 0.026520
0.025543 0.027832 0.031586
0.029846 0.032288 0.036682
0.034210 0.036743 0.041840
0.039551 0.042328 0.048340
0.044769 0.048096 0.055145
0.050201 0.054108 0.062286
0.056641 0.061218 0.070709
0.063416 0.069336 0.081024
0.070953 0.078308 0.092438
0.080566 0.089783 0.106903
0.091034 0.102234 0.122406
0.102081 0.116089 0.138580
0.114594 0.133942 0.156281
0.127136 0.152161 0.173645
0.141541 0.174622 0.191650
0.156433 0.198181 0.211121
0.170349 0.220520 0.230469
0.185425 0.240784 0.252289
0.201294 0.260040 0.275391
0.221100 0.279388 0.301788
0.242279 0.300568 0.331238
0.263672 0.322449 0.361938
0.287170 0.346802 0.392242
0.311890 0.372955 0.421967
0.337524 0.400330 0.450745
0.364227 0.427856 0.477753
0.013336 0.014984 0.016815
0.014618 0.016357 0.018372
0.015839 0.017700 0.019928
0.017120 0.019043 0.021484
0.018372 0.020416 0.023041
0.022186 0.024384 0.027588
0.026489 0.028839 0.032684
0.030792 0.033264 0.037811
0.035431 0.037994 0.043274
0.040741 0.043640 0.049866
0.045929 0.049377 0.056671
0.051636 0.055695 0.064148
0.058105 0.062988 0.072937
0.064972 0.071136 0.083313
0.072998 0.080719 0.095520
0.082886 0.092529 0.110321
0.093323 0.104950 0.125824
0.104858 0.120056 0.142487
0.117371 0.137878 0.160187
0.130005 0.156647 0.177216
0.144989 0.180054 0.195984
0.159515 0.203156 0.215424
0.173462 0.225525 0.234802
0.188843 0.245056 0.257324
0.205688 0.264343 0.281250
0.225586 0.283813 0.307800
0.246979 0.305389 0.338013
0.268921 0.327881 0.368683
0.292389 0.352234 0.399017
0.317566 0.379059 0.428406
0.343414 0.406433 0.456726
0.370300 0.434082 0.483856
0.016693 0.018616 0.020966
0.017944 0.019958 0.022522
0.019196 0.021332 0.024078
0.020447 0.022614 0.025543
0.021729 0.023926 0.027039
0.023163 0.025391 0.028748
0.027435 0.029816 0.033844
0.031738 0.034241 0.038910
0.036621 0.039215 0.044678
0.041870 0.044922 0.051392
0.047089 0.050659 0.058167
0.053040 0.057251 0.066010
0.059631 0.064789 0.075256
0.066467 0.072968 0.085632
0.074982 0.083130 0.098541
0.085205 0.095306 0.113770
0.095642 0.107727 0.129242
0.107605 0.124023 0.146423
0.120148 0.141846 0.164154
0.132935 0.161194 0.180878
0.148438 0.185425 0.200287
0.162598 0.208099 0.219696
0.176758 0.230042 0.239594
0.192291 0.249329 0.262390
0.210114 0.268677 0.287170
0.230347 0.288452 0.314178
0.251740 0.310242 0.344879
0.274109 0.333252 0.375397
0.297760 0.357819 0.405853
0.323273 0.385193 0.434937
0.349304 0.412476 0.462677
0.376282 0.440430 0.489807
0.020020 0.022186 0.025055
0.021271 0.023468 0.026520
0.022675 0.024902 0.028198
0.024109 0.026398 0.029877
0.025543 0.027832 0.031586
0.026978 0.029327 0.033264
0.028412 0.030792 0.034973
0.032715 0.035217 0.040070
0.037811 0.040466 0.046112
0.043030 0.046173 0.052856
0.048218 0.051941 0.059692
0.054474 0.058838 0.067902
0.061157 0.066620 0.077545
0.067963 0.074738 0.087921
0.077087 0.085632 0.101746
0.087524 0.098053 0.117188
0.098022 0.110565 0.132782
0.110413 0.127991 0.150360
0.122894 0.145782 0.168030
0.136353 0.166534 0.185181
0.151794 0.190704 0.204620
0.165680 0.213074 0.223999
0.180206 0.234344 0.244659
0.195709 0.253601 0.267426
0.214478 0.272949 0.292999
0.235138 0.293274 0.320923
0.256439 0.315033 0.351654
0.279358 0.338684 0.382172
0.303375 0.363831 0.412262
0.328857 0.391205 0.441315
0.355225 0.418579 0.468658
0.382172 0.446747 0.495514
0.023621 0.025879 0.029297
0.025055 0.027344 0.031006
0.026489 0.028839 0.032684
0.027924 0.030273 0.034393
0.029388 0.031799 0.036102
0.030792 0.033264 0.037811
0.032227 0.034729 0.039520
0.033691 0.036194 0.041199
0.039001 0.041687 0.047577
0.044159 0.047455 0.054382
0.049469 0.053314 0.061340
0.055908 0.060394 0.069763
0.062683 0.068420 0.079865
0.069946 0.077087 0.090881
0.079407 0.088379 0.105164
0.089844 0.100800 0.120636
0.100677 0.114136 0.136597
0.113190 0.131927 0.154297
0.125732 0.149933 0.171875
0.139801 0.171936 0.189484
0.154846 0.195618 0.208893
0.168793 0.218048 0.228333
0.183624 0.238586 0.249695
0.199188 0.257904 0.272522
0.218872 0.277222 0.298859
0.239838 0.298096 0.327728
0.261200 0.319916 0.358521
0.284515 0.344055 0.388824
0.309052 0.369904 0.418701
0.334564 0.397308 0.447754
0.361115 0.424652 0.474609
0.388062 0.453125 0.501221
0.027466 0.029846 0.033875
0.028870 0.031281 0.035522
0.030334 0.032745 0.037231
0.031738 0.034241 0.038910
0.033173 0.035706 0.040619
0.034821 0.037384 0.042572
0.036591 0.039185 0.044678
0.038391 0.041077 0.046814
0.040131 0.042969 0.049103
0.045349 0.048737 0.055908
0.050903 0.054871 0.063202
0.057343 0.062073 0.071777
0.064209 0.070251 0.082153
0.071930 0.079498 0.093933
0.081726 0.091156 0.108612
0.092133 0.103546 0.124023
0.103455 0.118073 0.140503
0.115967 0.135895 0.158234
0.128601 0.154419 0.175446
0.143219 0.177307 0.193787
0.157959 0.200623 0.213226
0.171875 0.223022 0.232635
0.187103 0.242920 0.254791
0.203491 0.262207 0.278320
0.223236 0.281525 0.304688
0.244598 0.302948 0.334564
0.266266 0.325104 0.365265
0.289795 0.349518 0.395630
0.314758 0.376038 0.425232
0.340424 0.403351 0.453705
0.367218 0.430939 0.480743
0.393860 0.459412 0.506897
0.031281 0.033722 0.038361
0.032745 0.035248 0.040100
0.034210 0.036743 0.041840
0.036011 0.038605 0.043976
0.037811 0.040466 0.046112
0.039551 0.042328 0.048340
0.041290 0.044250 0.050598
0.043030 0.046173 0.052856
0.044769 0.048096 0.055145
0.046478 0.049988 0.057404
0.052338 0.056458 0.065063
0.058868 0.063873 0.074066
0.065704 0.072021 0.084442
0.073975 0.081909 0.097015
0.084015 0.093903 0.112030
0.094452 0.106323 0.127502
0.106201 0.122009 0.144440
0.118774 0.139893 0.162170
0.131439 0.158844 0.178986
0.146667 0.182678 0.198120
0.161011 0.205566 0.217499
0.175049 0.227905 0.237061
0.190552 0.247192 0.259857
0.207855 0.266479 0.284149
0.227966 0.286102 0.310944
0.249329 0.307800 0.341400
0.271484 0.330536 0.372040
0.295044 0.354980 0.402435
0.320343 0.382050 0.431610
0.346375 0.409454 0.459686
0.373291 0.437195 0.486908
0.399811 0.465820 0.512665
0.035431 0.037994 0.043274
0.037201 0.039825 0.045380
0.039001 0.041687 0.047577
0.040710 0.043610 0.049835
0.042450 0.045563 0.052124
0.044159 0.047455 0.054382
0.045929 0.049377 0.056671
0.047638 0.051300 0.058929
0.049469 0.053314 0.061340
0.051605 0.055664 0.064117
0.053741 0.058044 0.066925
0.060364 0.065674 0.076385
0.067230 0.073853 0.086761
0.075958 0.084290 0.100067
0.086365 0.096680 0.115479
0.096771 0.109070 0.130920
0.108978 0.125946 0.148346
0.121490 0.143799 0.166046
0.134613 0.163818 0.182983
0.150116 0.188049 0.202423
0.164124 0.210541 0.221832
0.178436 0.232117 0.242065
0.193970 0.251434 0.264893
0.212250 0.270752 0.290009
0.232697 0.290802 0.317413
0.254089 0.312653 0.348267
0.276672 0.335907 0.378693
0.300537 0.360779 0.409027
0.326019 0.388153 0.438080
0.352234 0.415497 0.465637
0.379181 0.443573 0.492645
0.405640 0.472107 0.518341
0.040131 0.042969 0.049103
0.041870 0.044922 0.051392
0.043610 0.046814 0.053650
0.045349 0.048737 0.055908
0.047058 0.050629 0.058167
0.048798 0.052582 0.060455
0.050903 0.054871 0.063202
0.053040 0.057251 0.066010
0.055176 0.059601 0.068817
0.057343 0.062073 0.071777
0.059601 0.064789 0.075226
0.061920 0.067505 0.078705
0.068939 0.075897 0.089355
0.078217 0.086975 0.103424
0.088654 0.099426 0.118866
0.099243 0.112091 0.134583
0.111786 0.129913 0.152283
0.124298 0.147766 0.170013
0.138031 0.169220 0.187286
0.153290 0.193146 0.206757
0.167206 0.215515 0.226135
0.181915 0.236450 0.247162
0.197418 0.255737 0.269958
0.216644 0.275055 0.295898
0.237457 0.295654 0.324280
0.258820 0.317444 0.355042
0.281921 0.341339 0.385468
0.306213 0.366882 0.415497
0.331635 0.394165 0.444458
0.358124 0.421570 0.471558
0.385040 0.449860 0.498291
0.411652 0.478485 0.523987
0.044769 0.048096 0.055145
0.046478 0.050018 0.057434
0.048218 0.051941 0.059692
0.050201 0.054108 0.062286
0.052338 0.056458 0.065063
0.054474 0.058838 0.067902
0.056610 0.061188 0.070679
0.058868 0.063873 0.074066
0.061157 0.066620 0.077545
0.063416 0.069305 0.080994
0.065704 0.072021 0.084442
0.067963 0.074707 0.087891
0.070923 0.078308 0.092407
0.080536 0.089722 0.106842
0.090973 0.102173 0.122345
0.102051 0.116058 0.138519
0.114563 0.133911 0.156250
0.127106 0.152130 0.173615
0.141510 0.174591 0.191620
0.156372 0.198059 0.211029
0.170319 0.220490 0.230438
0.185364 0.240753 0.252228
0.201263 0.260010 0.275360
0.221069 0.279358 0.301758
0.242188 0.300476 0.331085
0.263641 0.322388 0.361877
0.287140 0.346771 0.392212
0.311829 0.372925 0.421906
0.337494 0.400299 0.450714
0.364105 0.427734 0.477631
0.390961 0.456268 0.504089
0.418121 0.485016 0.529419
0.049469 0.053314 0.061340
0.051636 0.055695 0.064148
0.053772 0.058044 0.066956
0.055908 0.060394 0.069763
0.058105 0.062988 0.072937
0.060364 0.065674 0.076385
0.062683 0.068420 0.079865
0.064941 0.071106 0.083282
0.067230 0.073853 0.086761
0.069916 0.077087 0.090851
0.072968 0.080719 0.095490
0.075958 0.084290 0.100067
0.079376 0.088348 0.105133
0.082855 0.092499 0.110291
0.093292 0.104919 0.125763
0.104797 0.119995 0.142426
0.117340 0.137848 0.160156
0.129974 0.156586 0.177185
0.144928 0.179962 0.195923
0.159454 0.203064 0.215363
0.173431 0.225494 0.234772
0.188812 0.245026 0.257294
0.205658 0.264313 0.281219
0.225494 0.283722 0.307709
0.246948 0.305359 0.337982
0.268799 0.327759 0.368561
0.292358 0.352203 0.398987
0.317505 0.379028 0.428375
0.343353 0.406342 0.456665
0.370209 0.433990 0.483795
0.396790 0.462555 0.509735
0.424500 0.491455 0.534698
0.055176 0.059631 0.068817
0.057343 0.062073 0.071777
0.059631 0.064789 0.075256
0.061920 0.067505 0.078705
0.064209 0.070251 0.082153
0.066467 0.072937 0.085602
0.068939 0.075897 0.089355
0.071930 0.079498 0.093933
0.074982 0.083099 0.098511
0.078217 0.086975 0.103424
0.081696 0.091125 0.108582
0.085175 0.095276 0.113708
0.088654 0.099426 0.118866
0.092133 0.103546 0.124023
0.095612 0.107697 0.129181
0.107605 0.123962 0.146393
0.120117 0.141815 0.164093
0.132843 0.161072 0.180786
0.148407 0.185394 0.200256
0.162567 0.208038 0.219635
0.176727 0.230011 0.239563
0.192261 0.249298 0.262360
0.210022 0.268585 0.287018
0.230286 0.288391 0.314087
0.251678 0.310150 0.344727
0.274048 0.333191 0.375305
0.297699 0.357727 0.405792
0.323120 0.385040 0.434753
0.349243 0.412415 0.462616
0.376190 0.440308 0.489716
0.402679 0.468903 0.515472
0.430939 0.497955 0.540100
0.061157 0.066620 0.077545
0.063416 0.069336 0.081024
0.065704 0.072021 0.084442
0.067963 0.074738 0.087921
0.070923 0.078308 0.092407
0.073975 0.081909 0.097015
0.077087 0.085602 0.101715
0.080536 0.089752 0.106873
0.084015 0.093903 0.112030
0.087494 0.098022 0.117157
0.090973 0.102173 0.122345
0.094452 0.106293 0.127472
0.097992 0.110535 0.132751
0.102020 0.116028 0.138489
0.106201 0.121979 0.144409
0.110382 0.127899 0.150299
0.122894 0.145752 0.167999
0.136322 0.166473 0.185120
0.151703 0.190582 0.204529
0.165680 0.213013 0.223969
0.180176 0.234314 0.244629
0.195679 0.253571 0.267395
0.214447 0.272888 0.292908
0.235046 0.293182 0.320801
0.256409 0.315002 0.351624
0.279297 0.338623 0.382080
0.303314 0.363800 0.412231
0.328827 0.391174 0.441254
0.355103 0.418457 0.468536
0.382080 0.446686 0.495453
0.408569 0.475281 0.521179
0.437286 0.504333 0.545410
0.067230 0.073853 0.086792
0.069946 0.077087 0.090881
0.072968 0.080719 0.095490
0.075989 0.084320 0.100067
0.079407 0.088379 0.105164
0.082886 0.092529 0.110321
0.086365 0.096680 0.115479
0.089844 0.100800 0.120636
0.093292 0.104950 0.125793
0.096802 0.109070 0.130951
0.100677 0.114105 0.136566
0.104797 0.119995 0.142426
0.108978 0.125946 0.148346
0.113159 0.131897 0.154266
0.117340 0.137848 0.160156
0.121460 0.143738 0.166016
0.125702 0.149902 0.171814
0.139740 0.171844 0.189423
0.154816 0.195587 0.208862
0.168762 0.218018 0.228302
0.183594 0.238556 0.249664
0.199127 0.257843 0.272461
0.218781 0.277130 0.298737
0.239807 0.298065 0.327667
0.261169 0.319885 0.358490
0.284454 0.343994 0.388763
0.308990 0.369873 0.418671
0.334442 0.397186 0.447662
0.361053 0.424561 0.474518
0.387970 0.453064 0.501160
0.414825 0.481689 0.526642
0.443726 0.510834 0.550812
0.074982 0.083130 0.098541
0.078247 0.087006 0.103455
0.081726 0.091156 0.108612
0.085205 0.095306 0.113770
0.088684 0.099426 0.118896
0.092133 0.103546 0.124023
0.095642 0.107697 0.129211
0.099243 0.112091 0.134583
0.103455 0.118073 0.140503
0.107605 0.123962 0.146393
0.111786 0.129913 0.152283
0.115936 0.135864 0.158203
0.120117 0.141815 0.164093
0.124268 0.147736 0.169983
0.128571 0.154388 0.175415
0.132843 0.161072 0.180786
0.138031 0.169220 0.187286
0.143188 0.177246 0.193756
0.157928 0.200592 0.213196
0.171844 0.222931 0.232574
0.187073 0.242859 0.254730
0.203400 0.262115 0.278198
0.223206 0.281494 0.304657
0.244568 0.302917 0.334534
0.266205 0.325043 0.365173
0.289703 0.349457 0.395538
0.314606 0.375916 0.425079
0.340363 0.403259 0.453644
0.367188 0.430878 0.480713
0.393829 0.459381 0.506866
0.421265 0.488190 0.532013
0.450104 0.517242 0.556122
0.084045 0.093933 0.112061
0.087524 0.098053 0.117188
0.091003 0.102203 0.122375
0.094452 0.106323 0.127502
0.098022 0.110565 0.132782
0.102051 0.116058 0.138519
0.106201 0.122009 0.144440
0.110413 0.127960 0.150330
0.114563 0.133911 0.156250
0.118744 0.139832 0.162140
0.122894 0.145752 0.167999
0.127106 0.152130 0.173615
0.131409 0.158813 0.178955
0.136322 0.166473 0.185120
0.141479 0.174561 0.191589
0.146667 0.182648 0.198090
0.151703 0.190582 0.204529
0.156372 0.198059 0.211029
0.160980 0.205505 0.217468
0.174988 0.227844 0.237000
0.190491 0.247101 0.259766
0.207825 0.266449 0.284119
0.227936 0.286072 0.310913
0.249268 0.307739 0.341309
0.271423 0.330475 0.371948
0.294952 0.354889 0.402313
0.320282 0.381989 0.431519
0.346283 0.409363 0.459595
0.373230 0.437134 0.486847
0.399750 0.465759 0.512604
0.427643 0.494598 0.537354
0.456299 0.523560 0.561218
0.093323 0.104950 0.125824
0.096802 0.109070 0.130951
0.100677 0.114136 0.136597
0.104828 0.120026 0.142456
0.108978 0.125946 0.148346
0.113190 0.131927 0.154297
0.117340 0.137848 0.160156
0.121490 0.143799 0.166046
0.125702 0.149902 0.171814
0.129974 0.156586 0.177185
0.134583 0.163788 0.182953
0.139771 0.171875 0.189453
0.144928 0.179962 0.195923
0.150055 0.187988 0.202362
0.154816 0.195587 0.208862
0.159454 0.203033 0.215332
0.164093 0.210510 0.221802
0.168732 0.217987 0.228271
0.173401 0.225464 0.234741
0.178406 0.232086 0.242035
0.193970 0.251404 0.264862
0.212189 0.270691 0.289917
0.232666 0.290771 0.317383
0.254028 0.312592 0.348175
0.276611 0.335846 0.378601
0.300476 0.360748 0.408966
0.325928 0.388062 0.437958
0.352173 0.415436 0.465546
0.379120 0.443481 0.492554
0.405609 0.472076 0.518311
0.434082 0.501099 0.542725
0.462341 0.529724 0.566223
0.103455 0.118073 0.140503
0.107605 0.124023 0.146423
0.111786 0.129913 0.152283
0.115967 0.135895 0.158234
0.120117 0.141815 0.164093
0.124298 0.147766 0.170013
0.128571 0.154388 0.175415
0.132843 0.161072 0.180786
0.138031 0.169220 0.187286
0.143188 0.177246 0.193756
0.148407 0.185394 0.200256
0.153259 0.193085 0.206696
0.157928 0.200592 0.213196
0.162567 0.208038 0.219635
0.167206 0.215515 0.226135
0.171844 0.222931 0.232574
0.176727 0.230011 0.239563
0.181885 0.236420 0.247131
0.187073 0.242859 0.254730
0.192230 0.249237 0.262299
0.197388 0.255676 0.269897
0.216583 0.274994 0.295776
0.237427 0.295624 0.324249
0.258789 0.317413 0.355011
0.281830 0.341278 0.385376
0.306091 0.366760 0.415375
0.331604 0.394135 0.444427
0.358093 0.421539 0.471527
0.385010 0.449829 0.498260
0.411621 0.478455 0.523956
0.440491 0.507568 0.548065
0.468506 0.535980 0.571259
0.114563 0.133911 0.156250
0.118744 0.139832 0.162140
0.122894 0.145782 0.168030
0.127106 0.152130 0.173615
0.131439 0.158844 0.178986
0.136322 0.166473 0.185120
0.141510 0.174591 0.191620
0.146667 0.182648 0.198090
0.151733 0.190643 0.204559
0.156372 0.198059 0.211029
0.161011 0.205566 0.217499
0.165680 0.213013 0.223969
0.170288 0.220459 0.230408
0.174988 0.227844 0.237000
0.180145 0.234253 0.244568
0.185333 0.240723 0.252197
0.190491 0.247101 0.259766
0.195679 0.253571 0.267395
0.201202 0.259949 0.275269
0.207825 0.266449 0.284119
0.214417 0.272858 0.292877
0.221008 0.279297 0.301666
0.242126 0.300415 0.331024
0.263611 0.322357 0.361847
0.287018 0.346680 0.392090
0.311768 0.372833 0.421814
0.337402 0.400238 0.450623
0.364014 0.427643 0.477539
0.390900 0.456177 0.503998
0.417969 0.484894 0.529266
0.446869 0.514008 0.553436
0.474670 0.542267 0.576324
0.125732 0.149933 0.171875
0.129974 0.156586 0.177185
0.134613 0.163818 0.182983
0.139771 0.171875 0.189453
0.144958 0.180023 0.195953
0.150116 0.188049 0.202423
0.154816 0.195587 0.208862
0.159454 0.203064 0.215363
0.164093 0.210510 0.221802
0.168762 0.218018 0.228302
0.173401 0.225464 0.234741
0.178436 0.232117 0.242065
0.183594 0.238556 0.249664
0.188812 0.245026 0.257294
0.193970 0.251404 0.264862
0.199127 0.257812 0.272430
0.205597 0.264252 0.281128
0.212189 0.270691 0.289917
0.218781 0.277130 0.298737
0.225464 0.283661 0.307617
0.232666 0.290771 0.317383
0.239746 0.298004 0.327576
0.246887 0.305298 0.337891
0.268738 0.327698 0.368469
0.292328 0.352173 0.398926
0.317474 0.378967 0.428345
0.343292 0.406281 0.456604
0.370178 0.433960 0.483765
0.396729 0.462494 0.509674
0.424408 0.491364 0.534637
0.453125 0.520325 0.558624
0.480743 0.548462 0.581329
0.138031 0.169220 0.187286
0.143219 0.177307 0.193787
0.148407 0.185394 0.200256
0.153290 0.193146 0.206757
0.157928 0.200592 0.213196
0.162567 0.208069 0.219666
0.167206 0.215515 0.226135
0.171875 0.223022 0.232635
0.176727 0.230011 0.239563
0.181885 0.236420 0.247131
0.187073 0.242859 0.254730
0.192230 0.249237 0.262299
0.197418 0.255707 0.269928
0.203400 0.262115 0.278198
0.210022 0.268585 0.287018
0.216583 0.274994 0.295776
0.223206 0.281494 0.304657
0.230255 0.288361 0.314026
0.237427 0.295624 0.324249
0.244507 0.302856 0.334442
0.251678 0.310150 0.344727
0.258789 0.317413 0.355011
0.266174 0.325012 0.365143
0.273987 0.333130 0.375244
0.297577 0.357635 0.405670
0.323090 0.384979 0.434723
0.349213 0.412384 0.462555
0.376160 0.440277 0.489685
0.402649 0.468872 0.515442
0.430817 0.497803 0.540009
0.459320 0.526642 0.563690
0.486908 0.554718 0.586365
0.151733 0.190643 0.204559
0.156403 0.198151 0.211090
0.161011 0.205566 0.217499
0.165680 0.213013 0.223969
0.170319 0.220490 0.230438
0.174988 0.227844 0.237000
0.180176 0.234314 0.244629
0.185333 0.240723 0.252197
0.190521 0.247131 0.259796
0.195679 0.253571 0.267395
0.201263 0.260010 0.275360
0.207825 0.266449 0.284119
0.214417 0.272858 0.292877
0.221008 0.279297 0.301666
0.227875 0.286011 0.310822
0.235046 0.293182 0.320801
0.242126 0.300415 0.331024
0.249268 0.307739 0.341309
0.256378 0.314972 0.351562
0.263611 0.322357 0.361847
0.271362 0.330414 0.371857
0.279236 0.338562 0.381989
0.287018 0.346680 0.392090
0.294952 0.354889 0.402313
0.303253 0.363708 0.412140
0.328766 0.391083 0.441193
0.355072 0.418427 0.468506
0.382019 0.446594 0.495361
0.408478 0.475189 0.521088
0.437256 0.504303 0.545380
0.465454 0.532867 0.568726
0.493073 0.560944 0.591400
0.164124 0.210541 0.221832
0.168762 0.218018 0.228302
0.173431 0.225494 0.234772
0.178436 0.232117 0.242065
0.183624 0.238586 0.249695
0.188812 0.245026 0.257294
0.193970 0.251434 0.264893
0.199127 0.257843 0.272461
0.205597 0.264252 0.281128
0.212219 0.270721 0.289978
0.218781 0.277130 0.298737
0.225494 0.283722 0.307709
0.232666 0.290771 0.317383
0.239807 0.298065 0.327667
0.246887 0.305298 0.337891
0.254028 0.312592 0.348175
0.261169 0.319855 0.358429
0.268799 0.327759 0.368561
0.276611 0.335846 0.378601
0.284424 0.343964 0.388702
0.292328 0.352173 0.398926
0.300415 0.360657 0.408905
0.308929 0.369812 0.418610
0.317413 0.378906 0.428253
0.325928 0.388062 0.437958
0.334381 0.397095 0.447571
0.360962 0.424500 0.474457
0.387878 0.452911 0.501068
0.414764 0.481628 0.526581
0.443695 0.510803 0.550781
0.471497 0.539062 0.573730
0.499298 0.567169 0.596497
0.176758 0.230042 0.239594
0.181915 0.236450 0.247162
0.187073 0.242859 0.254730
0.192261 0.249298 0.262360
0.197418 0.255707 0.269928
0.203430 0.262146 0.278229
0.210022 0.268585 0.287018
0.216644 0.275055 0.295898
0.223206 0.281494 0.304657
0.230286 0.288391 0.314087
0.237427 0.295624 0.324249
0.244507 0.302856 0.334442
0.251678 0.310150 0.344727
0.258789 0.317413 0.355011
0.266205 0.325043 0.365173
0.273987 0.333130 0.375244
0.281830 0.341278 0.385376
0.289642 0.349396 0.395477
0.297607 0.357666 0.405701
0.306091 0.366760 0.415375
0.314606 0.375916 0.425079
0.323090 0.384979 0.434723
0.331573 0.394104 0.444366
0.340332 0.403229 0.453583
0.349152 0.412323 0.462494
0.358063 0.421478 0.471497
0.367065 0.430786 0.480621
0.393799 0.459320 0.506836
0.421112 0.488037 0.531891
0.450012 0.517181 0.556061
0.477692 0.545349 0.578796
0.505493 0.573364 0.601562
0.190521 0.247131 0.259796
0.195709 0.253601 0.267426
0.201263 0.260010 0.275360
0.207855 0.266479 0.284149
0.214447 0.272888 0.292908
0.221008 0.279297 0.301666
0.227936 0.286072 0.310913
0.235046 0.293182 0.320801
0.242188 0.300476 0.331085
0.249268 0.307739 0.341309
0.256409 0.315002 0.351624
0.263611 0.322357 0.361847
0.271423 0.330475 0.371948
0.279236 0.338562 0.381989
0.287018 0.346680 0.392090
0.294952 0.354889 0.402313
0.303314 0.363800 0.412231
