滤镜资源/Professional Luts Collection/Triune-Digital-Cinematic-LUTs/3D LUTs (3DL)/LOG/3h10 to Yuma - LOG.3dl
# Created by Benjamin (IWLTBAP) : http://luts.iwltbap.com
# Copyright: (C) Copyright 2016 Triune Films and IWLTBAP
# Blockbuster LUTs Pack
0 256 512 768 1023
77 50 32
2 21 677
9 153 1590
5 280 2087
3 306 2215
674 993 327
524 884 811
299 728 1837
76 561 2395
43 527 2489
1385 2186 743
1336 2181 910
998 2075 1986
869 1869 2814
855 1798 2956
2266 3133 1247
2274 3157 1347
2054 3139 1995
1810 3062 2995
1817 3028 3225
2478 3352 1410
2520 3391 1538
2387 3375 1937
2205 3385 2911
2210 3378 3301
806 0 0
760 3 448
431 140 1569
398 279 2131
410 290 2198
1008 825 135
865 739 642
485 577 1751
238 459 2345
228 469 2474
1426 2131 711
1365 2110 856
1029 2016 1919
881 1799 2809
864 1715 2936
2308 3131 1238
2280 3126 1313
2068 3107 1947
1829 3036 2963
1817 2985 3232
2567 3391 1456
2567 3398 1541
2458 3391 1906
2247 3384 2872
2245 3376 3305
2012 245 26
2051 245 168
1847 211 1249
1671 283 2034
1642 294 2094
2218 490 9
2152 449 143
1807 336 1327
1491 380 2149
1454 383 2257
2383 1924 509
2355 1903 580
2045 1816 1641
1695 1551 2674
1638 1456 2813
2550 3037 1164
2521 3027 1244
2340 3022 1815
2045 2952 2846
2026 2898 3192
2714 3383 1446
2700 3385 1515
2615 3387 1833
2372 3384 2805
2353 3373 3304
2615 354 3
2651 355 113
2507 324 1093
2370 338 1884
2358 349 2020
2798 459 12
2818 456 76
2616 395 1036
2402 393 1967
2396 410 2104
3339 1528 365
3326 1503 421
3186 1346 1210
2712 1053 2307
2586 926 2460
3514 2866 1020
3492 2863 1085
3380 2837 1527
3058 2778 2588
2915 2695 3016
3502 3343 1380
3483 3345 1432
3431 3351 1647
3147 3369 2612
3004 3356 3224
2720 367 0
2774 373 111
2651 343 1080
2494 346 1852
2498 364 2012
2867 461 25
2898 464 72
2729 404 1002
2547 395 1918
2547 416 2075
3447 1358 301
3446 1333 392
3347 1146 1071
2858 897 2171
2746 778 2354
3643 2754 1034
3640 2736 1077
3638 2706 1398
3523 2615 2419
3363 2507 2918
3661 3287 1541
3661 3288 1570
3660 3275 1668
3656 3308 2508
3611 3304 3135
