滤镜资源/Professional Luts Collection/Triune-Digital-Cinematic-LUTs/3D LUTs (3DL)/LOG/3h10 to Yuma - LOG.3dl
# Created by Benjamin (IWLTBAP) : http://luts.iwltbap.com
# Copyright: (C) Copyright 2016 Triune Films and IWLTBAP
# Blockbuster LUTs Pack
0 64 128 192 256 320 384 448 512 576 640 704 768 832 896 960 1023
77 50 32
24 19 77
12 12 190
1 5 367
2 21 677
2 2 846
0 14 1059
4 103 1378
9 153 1590
2 204 1820
6 245 1979
6 264 2037
5 280 2087
7 290 2121
4 292 2147
4 299 2182
3 306 2215
134 170 48
79 133 92
25 89 276
9 74 466
10 74 737
8 50 895
2 57 1096
9 134 1392
7 179 1611
1 222 1833
2 266 2011
2 289 2087
1 305 2146
3 313 2180
7 309 2182
7 316 2217
9 323 2242
313 436 59
274 399 115
168 334 299
106 288 502
81 294 777
40 256 992
13 255 1268
7 262 1482
8 278 1693
3 289 1910
12 332 2084
5 338 2149
3 345 2197
4 345 2226
7 337 2233
6 342 2270
12 349 2293
534 723 233
510 708 254
434 634 348
387 612 547
310 573 801
257 548 1031
152 483 1300
105 471 1563
71 454 1783
35 427 1988
12 428 2194
15 421 2241
21 427 2268
20 427 2301
9 414 2334
10 412 2342
17 420 2373
674 993 327
654 978 344
624 946 377
578 912 546
524 884 811
490 867 1071
418 805 1339
347 759 1620
299 728 1837
190 636 2079
114 587 2258
76 560 2350
76 561 2395
80 556 2423
70 537 2435
49 527 2462
43 527 2489
780 1301 449
765 1295 464
747 1286 481
703 1255 603
660 1224 843
630 1193 1073
600 1145 1369
542 1078 1627
518 1049 1886
440 952 2100
355 867 2344
315 801 2479
310 789 2506
299 776 2531
273 754 2558
255 736 2589
243 718 2602
980 1618 524
965 1608 542
947 1596 564
910 1582 646
862 1569 863
791 1533 1099
716 1500 1399
660 1446 1673
640 1411 1926
622 1339 2167
575 1236 2403
534 1126 2592
528 1098 2632
522 1079 2661
514 1049 2675
504 1021 2701
497 998 2727
1169 1896 617
1161 1897 643
1154 1896 670
1141 1889 692
1092 1878 871
1014 1855 1115
929 1835 1413
841 1789 1697
794 1755 1960
766 1714 2214
728 1637 2444
695 1552 2675
684 1508 2721
674 1472 2742
663 1438 2776
657 1410 2817
658 1382 2850
1385 2186 743
1377 2185 762
1371 2186 783
1362 2186 808
1336 2181 910
1256 2157 1149
1165 2129 1421
1066 2108 1708
998 2075 1986
963 2036 2221
938 1995 2486
907 1933 2731
869 1869 2814
862 1848 2843
865 1839 2889
858 1818 2925
855 1798 2956
1613 2452 856
1611 2457 878
1610 2460 899
1601 2454 918
1583 2450 966
1529 2443 1165
1439 2423 1428
1351 2410 1705
1269 2383 1984
1208 2347 2237
1165 2315 2487
1125 2268 2743
1081 2206 2879
1063 2177 2917
1064 2166 2955
1066 2160 2996
1068 2149 3036
1854 2702 974
1855 2707 992
1853 2708 1015
1841 2701 1041
1828 2695 1062
1797 2703 1201
1714 2690 1429
1619 2680 1708
1544 2670 1980
1468 2636 2241
1418 2611 2498
1382 2585 2757
1319 2526 2942
1299 2496 2998
1298 2488 3036
1298 2481 3085
1302 2476 3120
2063 2913 1106
2074 2925 1127
2079 2933 1153
2080 2938 1178
2065 2933 1206
2032 2932 1272
1960 2925 1462
1872 2910 1714
1800 2913 1988
1719 2892 2239
1651 2865 2493
1617 2849 2767
1570 2805 2981
1538 2780 3077
1542 2775 3111
1546 2770 3149
1559 2768 3178
2266 3133 1247
2271 3141 1273
2275 3149 1300
2279 3156 1325
2274 3157 1347
2262 3153 1367
2219 3151 1517
2125 3127 1748
2054 3139 1995
1976 3123 2240
1890 3102 2488
1840 3097 2751
1810 3062 2995
1779 3017 3118
1788 3021 3160
1799 3028 3194
1817 3028 3225
2368 3252 1329
2384 3262 1360
2395 3273 1387
2402 3281 1412
2401 3285 1434
2393 3285 1457
2368 3287 1547
2295 3268 1736
2241 3280 1979
2179 3285 2216
2098 3263 2471
2056 3274 2732
2013 3263 2974
1960 3215 3143
1985 3220 3192
2004 3228 3227
2029 3230 3264
2407 3285 1357
2422 3297 1388
2430 3307 1416
2436 3315 1441
2436 3319 1463
2429 3319 1483
2417 3322 1542
2363 3313 1720
2290 3309 1934
2243 3325 2183
2175 3316 2426
2128 3323 2676
2090 3322 2938
2040 3290 3130
2052 3285 3208
2081 3292 3247
2115 3296 3278
2442 3319 1384
2456 3331 1414
2465 3341 1442
2472 3348 1470
2475 3352 1496
2468 3352 1515
2457 3353 1552
2419 3352 1713
2336 3338 1919
2293 3359 2164
2232 3360 2402
2171 3350 2647
2143 3357 2911
2098 3333 3105
2102 3325 3223
2128 3334 3263
2157 3339 3292
2478 3352 1410
2490 3362 1442
2501 3373 1475
2515 3385 1511
2520 3391 1538
2515 3391 1557
2505 3390 1588
2470 3391 1741
2387 3375 1937
2345 3396 2183
2278 3393 2410
2220 3379 2658
2205 3385 2911
2153 3366 3114
2148 3362 3235
2177 3374 3275
2210 3378 3301
122 22 20
96 16 68
56 11 176
27 3 372
20 8 644
15 2 868
15 16 1077
14 92 1359
20 150 1587
13 210 1838
20 243 1974
18 259 2023
18 274 2069
17 282 2105
14 286 2139
9 289 2174
9 296 2206
185 114 37
142 108 91
67 63 238
35 57 432
22 55 687
13 42 891
9 49 1095
12 123 1374
16 177 1608
9 222 1830
15 266 2014
14 286 2083
13 300 2129
14 306 2164
17 304 2176
13 307 2209
15 314 2234
294 390 64
283 378 84
193 311 299
130 265 470
80 264 757
43 239 981
19 243 1244
13 243 1459
20 275 1690
10 283 1902
16 321 2078
10 331 2153
9 341 2205
10 343 2239
12 339 2251
17 339 2272
22 346 2292
526 693 195
517 690 219
437 623 327
398 600 549
318 548 774
260 532 1033
159 471 1298
106 449 1539
75 445 1774
27 406 1967
23 420 2173
29 415 2229
25 416 2261
21 415 2295
13 406 2325
13 396 2325
23 407 2362
676 975 310
666 969 340
639 942 368
589 901 548
532 872 797
500 853 1061
428 794 1331
357 745 1609
296 709 1830
202 632 2073
124 582 2253
77 553 2359
77 550 2395
82 545 2417
72 531 2435
54 520 2463
52 524 2484
782 1281 436
777 1278 457
760 1268 475
716 1243 599
671 1214 836
637 1179 1062
605 1132 1354
556 1071 1616
519 1030 1872
445 944 2099
367 861 2337
313 784 2476
310 774 2504
302 765 2528
280 745 2554
262 727 2585
252 707 2596
988 1609 522
975 1603 541
957 1591 563
918 1569 637
867 1557 847
798 1522 1092
726 1492 1385
669 1437 1662
647 1397 1923
629 1328 2155
581 1222 2387
533 1102 2587
528 1078 2638
525 1063 2668
517 1039 2685
509 1009 2693
500 985 2712
1178 1890 610
1168 1887 635
1162 1887 662
1152 1883 688
1102 1867 863
1025 1848 1109
939 1827 1406
856 1784 1684
800 1746 1949
771 1704 2200
736 1629 2435
701 1538 2674
685 1486 2725
676 1452 2747
670 1422 2776
664 1394 2816
667 1368 2847
1395 2183 739
1384 2178 757
1378 2178 778
1369 2177 799
1344 2174 907
1268 2151 1143
1174 2121 1413
1074 2100 1706
1006 2069 1983
971 2031 2212
941 1983 2477
910 1922 2724
872 1858 2819
870 1839 2851
874 1831 2895
865 1808 2929
860 1784 2952
1621 2449 851
1614 2447 872
1614 2453 893
1607 2451 913
1591 2444 953
1537 2436 1155
1449 2419 1419
1359 2400 1696
1277 2376 1980
1217 2341 2232
1169 2305 2477
1129 2259 2736
1085 2199 2883
1067 2168 2917
1068 2155 2953
1071 2149 2995
1072 2140 3036
1865 2701 972
1857 2700 988
1859 2704 1010
1851 2701 1034
1839 2694 1054
1806 2698 1193
1727 2689 1422
1626 2673 1703
1549 2664 1972
1478 2634 2240
1423 2604 2493
1386 2577 2750
1327 2524 2951
1306 2490 3006
1302 2478 3036
1301 2470 3082
1307 2469 3121
2073 2913 1108
2073 2917 1122
2083 2929 1148
2085 2934 1172
2068 2926 1199
2039 2926 1261
1968 2918 1458
1881 2904 1707
1808 2907 1987
1729 2890 2238
1660 2861 2489
1623 2842 2761
1577 2803 2987
1548 2777 3084
1547 2770 3111
1551 2765 3147
1564 2762 3177
2279 3138 1247
2275 3137 1264
2278 3144 1291
2281 3152 1317
2277 3152 1337
2268 3148 1355
2224 3145 1508
2137 3126 1741
2060 3133 1985
1982 3118 2235
1900 3102 2486
1845 3092 2744
1817 3058 2992
1792 3019 3123
1792 3014 3162
1802 3020 3197
1820 3023 3230
2390 3262 1337
2391 3264 1357
2405 3274 1387
2416 3285 1414
2413 3284 1430
2403 3280 1449
2380 3286 1539
2314 3273 1732
2251 3279 1973
2190 3284 2211
2116 3268 2463
2069 3274 2727
2025 3265 2967
1983 3226 3153
1997 3220 3197
2015 3228 3232
2040 3231 3265
2428 3295 1365
2431 3299 1387
2444 3310 1418
2451 3319 1443
2448 3319 1460
2439 3315 1475
2427 3320 1536
2380 3318 1713
2303 3309 1927
2256 3327 2178
2192 3321 2417
2136 3322 2672
2100 3320 2931
2066 3300 3133
2063 3286 3213
2088 3291 3249
2125 3298 3279
2464 3329 1392
2467 3332 1414
2480 3345 1444
2487 3352 1473
2486 3352 1493
2476 3349 1508
2466 3351 1547
2431 3353 1704
2351 3339 1911
2307 3361 2157
2245 3362 2395
2182 3350 2646
2154 3357 2902
2124 3343 3108
2110 3325 3226
2136 3333 3265
2167 3341 3292
2501 3362 1422
2500 3363 1442
2513 3375 1476
2521 3384 1507
2527 3388 1533
2522 3388 1552
2513 3388 1585
2481 3390 1730
2404 3379 1931
2357 3396 2170
2294 3396 2403
2230 3380 2654
2215 3385 2907
2185 3375 3123
2157 3361 3238
2184 3373 3277
2218 3379 3301
290 10 8
289 5 27
245 3 122
167 1 303
109 1 571
73 1 841
57 23 1085
53 99 1386
45 154 1614
46 206 1846
48 258 2039
50 269 2081
56 277 2113
54 281 2139
49 284 2168
46 289 2207
41 295 2242
374 69 26
330 69 42
250 36 180
184 36 368
106 30 610
67 24 863
49 44 1099
44 121 1397
42 172 1624
38 226 1859
37 277 2063
40 287 2112
47 294 2149
46 298 2180
41 301 2208
38 304 2238
36 307 2269
419 312 32
411 299 78
339 270 211
259 236 452
171 210 717
100 197 944
59 193 1189
44 218 1444
38 247 1672
36 282 1907
28 322 2112
27 322 2169
25 330 2216
24 333 2246
24 333 2264
25 332 2286
28 335 2310
519 616 131
505 611 160
462 579 268
421 549 519
350 512 734
267 490 1008
190 451 1270
135 436 1508
82 423 1739
35 389 1948
32 411 2154
41 406 2223
31 402 2263
28 401 2291
25 393 2306
22 384 2312
28 395 2355
673 944 283
670 940 319
656 929 357
596 884 545
535 850 773
498 823 1034
431 773 1309
354 721 1586
296 685 1815
201 618 2058
124 565 2235
78 537 2355
77 532 2388
73 524 2410
66 515 2432
55 507 2457
50 507 2473
780 1251 413
779 1247 439
770 1240 464
728 1222 590
681 1196 820
643 1158 1051
610 1110 1342
564 1055 1600
512 998 1851
439 925 2089
375 848 2326
307 765 2474
297 750 2501
282 736 2529
273 723 2551
263 708 2574
254 692 2588
990 1590 519
977 1588 536
963 1579 561
926 1553 617
870 1539 827
803 1504 1073
732 1474 1366
677 1421 1641
655 1379 1908
640 1314 2141
585 1204 2371
535 1079 2579
525 1052 2638
523 1038 2660
520 1019 2675
516 993 2684
507 970 2705
1184 1879 604
1171 1873 622
1165 1871 650
1158 1869 680
1108 1853 853
1033 1835 1101
942 1811 1390
864 1773 1673
803 1731 1935
773 1687 2183
742 1616 2426
704 1518 2668
685 1456 2727
680 1425 2752
675 1402 2780
670 1375 2814
673 1350 2843
1404 2175 736
1390 2171 753
1384 2168 775
1375 2166 793
1348 2160 899
1279 2142 1130
1183 2114 1404
1083 2089 1696
1013 2059 1970
976 2024 2206
942 1967 2460
912 1910 2713
875 1845 2824
874 1827 2859
877 1817 2898
870 1795 2930
864 1768 2949
1628 2444 845
1619 2441 865
1615 2442 886
1612 2444 905
1599 2439 940
1543 2426 1144
1457 2413 1407
1367 2389 1692
1286 2369 1968
1225 2333 2224
1177 2299 2473
1134 2249 2731
1088 2189 2886
1074 2159 2926
1073 2145 2959
1074 2137 2995
1073 2127 3037
1872 2696 969
1864 2697 980
1859 2694 1001
1859 2697 1026
1848 2691 1045
1813 2691 1183
1736 2684 1413
1633 2667 1695
1553 2654 1967
1486 2629 2235
1427 2596 2484
1389 2569 2741
1333 2517 2957
1312 2483 3013
1306 2469 3040
1304 2459 3079
1309 2457 3119
2082 2911 1106
2080 2914 1120
2082 2920 1143
2086 2927 1166
2070 2919 1193
2043 2917 1249
1973 2910 1450
1889 2900 1701
1813 2898 1981
1736 2884 2233
1667 2858 2484
1627 2832 2748
1582 2797 2991
1557 2773 3091
1554 2764 3115
1554 2758 3145
1567 2755 3176
2292 3141 1246
2287 3140 1261
2280 3139 1281
2282 3146 1307
2278 3145 1326
2271 3141 1342
2227 3137 1495
2148 3122 1728
2064 3125 1974
1986 3112 2228
1910 3101 2481
1849 3085 2736
1824 3054 2985
1806 3021 3132
1801 3012 3166
1804 3010 3200
1821 3015 3235
2410 3272 1345
2411 3274 1363
2412 3276 1385
2425 3285 1414
2423 3285 1431
2412 3280 1442
2391 3286 1530
2333 3277 1729
2263 3279 1962
2201 3284 2209
2134 3271 2453
2081 3274 2719
2035 3265 2959
2007 3238 3163
2015 3227 3206
2026 3227 3236
2051 3231 3268
2449 3305 1373
2451 3308 1392
2454 3312 1417
2465 3322 1446
2463 3322 1462
2450 3313 1469
2436 3317 1529
2395 3321 1703
2318 3311 1919
2271 3331 2173
2206 3323 2408
2149 3323 2668
2111 3320 2921
2092 3311 3138
2084 3293 3224
2101 3292 3254
2135 3299 3280
2485 3338 1399
2487 3341 1419
2491 3346 1445
2502 3355 1476
2502 3356 1497
2488 3346 1503
2477 3346 1535
2441 3352 1694
2370 3345 1903
2321 3362 2151
2257 3361 2384
2197 3353 2640
2165 3357 2890
2138 3347 3110
2129 3330 3233
2143 3333 3267
2176 3341 3294
2524 3373 1436
2521 3373 1452
2524 3377 1476
2534 3387 1509
2537 3390 1533
2532 3386 1548
2522 3384 1575
2490 3388 1720
2424 3385 1924
2370 3396 2161
2307 3396 2395
2246 3383 2648
2227 3385 2894
2200 3377 3125
2178 3367 3243
2192 3372 3279
2227 3379 3302
513 3 2
520 5 18
520 6 79
467 5 261
385 3 506
312 5 792
235 22 1065
167 88 1333
139 149 1605
132 210 1839
129 259 2039
134 269 2089
133 275 2125
131 278 2153
125 283 2185
117 288 2215
126 295 2229
554 28 11
543 29 24
532 29 101
482 24 281
374 20 533
291 21 793
215 44 1082
144 109 1358
122 163 1608
105 221 1849
121 279 2067
115 285 2117
113 289 2155
109 293 2185
106 298 2216
108 301 2246
