滤镜资源/Professional Luts Collection/Triune-Digital-Cinematic-LUTs/3D LUTs (3DL)/LOG/3h10 to Yuma - LOG.3dl
# Created by Benjamin (IWLTBAP) : http://luts.iwltbap.com
# Copyright: (C) Copyright 2016 Triune Films and IWLTBAP
# Blockbuster LUTs Pack
0 128 256 384 512 640 768 896 1023
77 50 32
12 12 190
2 21 677
0 14 1059
9 153 1590
6 245 1979
5 280 2087
4 292 2147
3 306 2215
313 436 59
168 334 299
81 294 777
13 255 1268
8 278 1693
12 332 2084
3 345 2197
7 337 2233
12 349 2293
674 993 327
624 946 377
524 884 811
418 805 1339
299 728 1837
114 587 2258
76 561 2395
70 537 2435
43 527 2489
980 1618 524
947 1596 564
862 1569 863
716 1500 1399
640 1411 1926
575 1236 2403
528 1098 2632
514 1049 2675
497 998 2727
1385 2186 743
1371 2186 783
1336 2181 910
1165 2129 1421
998 2075 1986
938 1995 2486
869 1869 2814
865 1839 2889
855 1798 2956
1854 2702 974
1853 2708 1015
1828 2695 1062
1714 2690 1429
1544 2670 1980
1418 2611 2498
1319 2526 2942
1298 2488 3036
1302 2476 3120
2266 3133 1247
2275 3149 1300
2274 3157 1347
2219 3151 1517
2054 3139 1995
1890 3102 2488
1810 3062 2995
1788 3021 3160
1817 3028 3225
2407 3285 1357
2430 3307 1416
2436 3319 1463
2417 3322 1542
2290 3309 1934
2175 3316 2426
2090 3322 2938
2052 3285 3208
2115 3296 3278
2478 3352 1410
2501 3373 1475
2520 3391 1538
2505 3390 1588
2387 3375 1937
2278 3393 2410
2205 3385 2911
2148 3362 3235
2210 3378 3301
290 10 8
245 3 122
109 1 571
57 23 1085
45 154 1614
48 258 2039
56 277 2113
49 284 2168
41 295 2242
419 312 32
339 270 211
171 210 717
59 193 1189
38 247 1672
28 322 2112
25 330 2216
24 333 2264
28 335 2310
673 944 283
656 929 357
535 850 773
431 773 1309
296 685 1815
124 565 2235
77 532 2388
66 515 2432
50 507 2473
990 1590 519
963 1579 561
870 1539 827
732 1474 1366
655 1379 1908
585 1204 2371
525 1052 2638
520 1019 2675
507 970 2705
1404 2175 736
1384 2168 775
1348 2160 899
1183 2114 1404
1013 2059 1970
942 1967 2460
875 1845 2824
877 1817 2898
864 1768 2949
1872 2696 969
1859 2694 1001
1848 2691 1045
1736 2684 1413
1553 2654 1967
1427 2596 2484
1333 2517 2957
1306 2469 3040
1309 2457 3119
2292 3141 1246
2280 3139 1281
2278 3145 1326
2227 3137 1495
2064 3125 1974
1910 3101 2481
1824 3054 2985
1801 3012 3166
1821 3015 3235
2449 3305 1373
2454 3312 1417
2463 3322 1462
2436 3317 1529
2318 3311 1919
2206 3323 2408
2111 3320 2921
2084 3293 3224
2135 3299 3280
2524 3373 1436
2524 3377 1476
2537 3390 1533
2522 3384 1575
2424 3385 1924
2307 3396 2395
2227 3385 2894
2178 3367 3243
2227 3379 3302
806 0 0
851 2 47
760 3 448
606 19 1034
431 140 1569
428 270 2034
398 279 2131
399 288 2173
410 290 2198
939 165 28
924 144 89
782 108 524
558 86 1075
362 193 1601
306 288 2054
300 306 2174
301 314 2237
327 321 2289
1008 825 135
979 803 230
865 739 642
692 661 1187
485 577 1751
290 494 2206
238 459 2345
226 454 2402
228 469 2474
1126 1514 453
1106 1498 516
1028 1477 765
849 1409 1291
729 1312 1854
652 1141 2332
582 977 2593
585 948 2652
579 920 2707
1426 2131 711
1406 2125 752
1365 2110 856
1211 2079 1354
1029 2016 1919
948 1927 2415
881 1799 2809
867 1757 2885
864 1715 2936
1873 2671 960
1860 2671 984
1852 2671 1030
1744 2658 1377
1558 2626 1942
1429 2563 2451
1333 2484 2937
1310 2442 3047
1304 2422 3113
2308 3131 1238
2294 3130 1271
2280 3126 1313
2233 3115 1456
2068 3107 1947
1920 3085 2454
1829 3036 2963
1811 3000 3177
1817 2985 3232
2487 3316 1381
2485 3320 1420
2483 3324 1465
2458 3314 1509
2354 3318 1902
2234 3325 2391
2135 3322 2900
2131 3308 3240
2157 3300 3287
2567 3391 1456
2562 3391 1489
2567 3398 1541
2549 3382 1564
2458 3391 1906
2333 3397 2375
2247 3384 2872
2227 3381 3252
2245 3376 3305
1370 73 18
1475 116 49
1418 97 255
1340 84 820
1180 134 1434
1083 242 1922
1075 276 2052
1060 271 2069
1043 285 2144
1547 165 11
1495 142 36
1452 134 230
1303 106 846
1120 148 1433
1013 265 1944
962 290 2084
958 296 2146
948 301 2209
1639 647 26
1624 635 72
1528 566 402
1361 484 970
1142 440 1565
946 412 2045
863 418 2282
851 418 2324
847 413 2358
1702 1373 323
1686 1362 372
1630 1335 570
1466 1270 1110
1269 1163 1710
1083 1006 2230
956 860 2531
939 824 2580
919 796 2627
1792 2055 603
1781 2052 661
1749 2035 731
1607 2005 1220
1427 1943 1816
1284 1852 2337
1169 1699 2768
1140 1647 2843
1141 1611 2903
1991 2628 910
1979 2631 966
1952 2616 1001
1863 2615 1313
1665 2581 1872
1534 2520 2401
1421 2436 2896
1391 2384 3019
1384 2359 3082
2346 3097 1220
2330 3093 1258
2313 3093 1300
2269 3085 1415
2099 3072 1901
1940 3050 2418
1838 3000 2927
1814 2960 3158
1821 2947 3214
2515 3316 1375
2507 3317 1413
2499 3316 1455
2484 3318 1506
2386 3321 1877
2262 3326 2362
2156 3320 2863
2154 3308 3237
2179 3301 3289
2590 3391 1451
2588 3393 1487
2586 3393 1533
2574 3389 1577
2486 3391 1877
2362 3399 2350
2269 3385 2844
2248 3382 3242
2267 3376 3302
2012 245 26
2053 247 40
2051 245 168
1951 217 706
1847 211 1249
1732 254 1818
1671 283 2034
1642 281 2043
1642 294 2094
2041 264 19
2049 267 36
2057 268 148
1946 233 677
1808 221 1261
1670 268 1831
1590 297 2041
1591 319 2117
1576 322 2162
2218 490 9
2215 483 33
2152 449 143
2007 392 714
1807 336 1327
1601 340 1869
1491 380 2149
1466 377 2190
1454 383 2257
2304 1174 184
2300 1162 218
2270 1137 340
2135 1061 867
1916 959 1496
1697 831 2037
1506 684 2377
1467 649 2419
1443 633 2472
2383 1924 509
2375 1916 544
2355 1903 580
2236 1877 1033
2045 1816 1641
1860 1720 2214
1695 1551 2674
1655 1489 2756
1638 1456 2813
2460 2538 826
2455 2540 857
2431 2531 893
2362 2521 1170
2174 2500 1741
2007 2446 2290
1866 2346 2812
1808 2286 2967
1797 2260 3040
2550 3037 1164
2539 3036 1201
2521 3027 1244
2485 3027 1333
2340 3022 1815
2170 2998 2337
2045 2952 2846
2020 2910 3132
2026 2898 3192
2655 3310 1368
2646 3311 1401
2640 3316 1442
2625 3314 1483
2538 3312 1828
2399 3323 2315
2289 3319 2819
2261 3310 3236
2278 3299 3285
2714 3383 1446
2706 3384 1468
2700 3385 1515
2690 3388 1566
2615 3387 1833
2475 3396 2304
2372 3384 2805
2338 3381 3239
2353 3373 3304
2464 321 23
2495 330 29
2504 334 129
2440 314 626
2361 297 1168
2261 301 1695
2220 319 1880
2200 329 1971
2190 331 2027
2484 344 8
2511 352 34
2531 354 110
2445 330 578
2353 311 1124
2243 314 1691
2193 341 1937
2169 347 1999
2145 346 2065
2648 456 7
2631 446 22
2628 446 99
2517 410 520
2358 371 1121
2199 353 1688
2101 374 2005
2079 383 2084
2063 388 2140
2834 927 56
2825 912 87
2807 895 153
2711 827 605
2493 739 1246
2272 630 1790
2074 532 2176
2036 523 2250
2003 514 2302
2959 1750 423
2950 1741 453
2931 1725 476
2849 1687 805
2681 1615 1429
2474 1513 1999
2254 1308 2491
2193 1241 2585
2172 1206 2648
2993 2425 730
2989 2419 758
2976 2412 793
2928 2400 982
2755 2370 1565
2582 2321 2132
2404 2214 2675
2335 2144 2860
2319 2120 2918
3031 2970 1084
3024 2967 1119
3009 2959 1149
2980 2953 1221
2848 2944 1669
2683 2924 2205
2530 2881 2741
2454 2826 3062
2449 2818 3125
3044 3297 1331
3035 3297 1348
3026 3297 1384
3007 3300 1428
2932 3304 1723
2792 3313 2223
2650 3312 2746
2565 3291 3187
2572 3279 3250
3059 3371 1396
3049 3373 1427
3041 3377 1469
3022 3371 1513
2956 3377 1745
2823 3383 2212
2688 3383 2725
2608 3370 3192
2607 3362 3272
2615 354 3
2624 348 38
2651 355 113
2584 338 586
2507 324 1093
2431 328 1641
2370 338 1884
2381 357 1954
2358 349 2020
2654 369 6
2683 376 28
2695 375 111
2631 361 542
2551 346 1085
2457 348 1627
2402 359 1899
2387 364 1963
2372 369 2043
2798 459 12
2805 457 24
2818 456 76
2735 427 455
2616 395 1036
2498 386 1577
2402 393 1967
2404 398 2031
2396 410 2104
3082 761 38
3074 757 61
3064 740 99
3018 672 427
2824 608 1073
2632 539 1604
2454 495 2050
2428 488 2109
2398 488 2183
3339 1528 365
3334 1520 392
3326 1503 421
3293 1450 614
3186 1346 1210
2957 1218 1793
2712 1053 2307
2626 959 2406
2586 926 2460
3468 2275 658
3464 2271 698
3454 2264 736
3423 2246 852
3309 2213 1375
3148 2141 1947
2935 2027 2482
2829 1936 2741
2807 1913 2793
3514 2866 1020
3504 2867 1053
3492 2863 1085
3477 2851 1123
3380 2837 1527
3223 2821 2061
3058 2778 2588
2936 2712 2952
2915 2695 3016
3500 3263 1326
3495 3265 1350
3488 3266 1377
3475 3266 1399
3434 3270 1620
3294 3277 2105
3132 3276 2624
2999 3253 3115
2980 3241 3193
3502 3343 1380
3493 3343 1407
3483 3345 1432
3473 3346 1453
3431 3351 1647
3306 3368 2104
3147 3369 2612
3023 3364 3114
3004 3356 3224
2680 368 0
2705 366 31
2709 362 119
2651 349 557
2585 332 1076
2501 336 1608
2428 342 1877
2431 356 1960
2445 369 2017
2727 390 8
2751 391 28
2752 384 107
2703 378 529
2622 356 1049
2531 354 1594
2463 365 1901
2456 374 1979
2447 381 2035
2841 459 8
2849 462 41
2859 460 67
2787 426 418
2667 397 1003
2576 389 1543
2476 393 1937
2479 403 2011
2466 407 2074
3110 708 29
3102 703 57
3094 689 87
3059 627 373
2873 577 1006
2695 518 1537
2523 478 1991
2508 484 2089
2481 478 2146
3406 1414 325
3402 1406 359
3392 1386 389
3373 1330 554
3283 1209 1114
3065 1084 1696
2808 941 2217
2734 844 2337
2700 809 2392
3609 2171 655
3601 2165 696
3591 2157 734
3585 2133 808
3540 2091 1262
3379 1993 1829
3174 1879 2375
3074 1774 2638
3049 1737 2708
3631 2776 1022
3630 2774 1042
3629 2765 1068
3627 2754 1098
3624 2741 1421
3563 2707 1943
3436 2656 2464
3290 2575 2872
3260 2552 2934
3640 3202 1412
3639 3200 1423
3641 3204 1435
3640 3204 1459
3637 3196 1606
3630 3210 2065
3583 3211 2526
3452 3178 3019
3423 3172 3129
3640 3292 1505
3639 3289 1520
3638 3290 1539
3637 3297 1575
3635 3297 1681
3632 3314 2087
3604 3337 2523
3474 3332 3026
3426 3326 3170
2720 367 0
2760 372 24
2774 373 111
2714 362 526
2651 343 1080
2575 346 1599
2494 346 1852
2489 355 1945
2498 364 2012
2778 397 14
2797 396 33
2817 402 84
2760 385 509
2676 362 1041
2611 368 1593
2531 369 1883
2527 379 1969
2510 381 2035
2867 461 25
2891 471 65
2898 464 72
2834 431 403
2729 404 1002
2642 395 1532
2547 395 1918
2553 409 2000
2547 416 2075
3145 690 37
3135 682 67
3132 669 97
3097 612 364
2918 560 974
2748 516 1530
2585 482 1972
2581 486 2068
2558 486 2136
3447 1358 301
3448 1351 354
3446 1333 392
3420 1269 540
3347 1146 1071
3118 1024 1651
2858 897 2171
2783 814 2297
2746 778 2354
3648 2125 652
3646 2120 694
3644 2110 731
3639 2090 804
3615 2032 1214
3454 1950 1783
3252 1830 2346
3147 1701 2610
3118 1670 2672
3643 2754 1034
3643 2746 1049
3640 2736 1077
3640 2727 1110
3638 2706 1398
3611 2674 1918
3523 2615 2419
3393 2530 2851
3363 2507 2918
3657 3196 1402
3657 3194 1411
3657 3190 1435
3657 3188 1457
3655 3164 1576
3649 3184 2042
3645 3179 2497
3584 3141 2965
3553 3129 3083
3661 3287 1541
3661 3289 1555
3661 3288 1570
3661 3287 1590
3660 3275 1668
3655 3298 2082
3656 3308 2508
3617 3292 2964
3611 3304 3135
