滤镜资源/Professional Luts Collection/Triune-Digital-Cinematic-LUTs/3D LUTs (3DL)/LOG/Alien - LOG.3dl
# Created by Benjamin (IWLTBAP) : http://luts.iwltbap.com
# Copyright: (C) Copyright 2016 Triune Films and IWLTBAP
# Blockbuster LUTs Pack
0 256 512 768 1023
7 14 59
8 66 600
16 236 1721
21 386 2498
22 459 2765
7 547 223
5 564 614
0 766 1663
21 936 2668
24 978 2957
11 1652 635
11 1642 861
24 1767 1859
81 1919 3207
94 1944 3453
110 3102 1271
114 3091 1446
144 3128 2327
235 3317 3604
286 3374 4021
175 3620 1562
183 3637 1759
216 3725 2483
316 3920 3682
767 4021 4087
502 95 164
447 102 656
384 226 1898
391 320 2712
403 373 2961
367 509 195
308 534 603
274 644 1702
291 849 2711
279 903 3045
115 1601 610
109 1588 806
129 1707 1794
183 1873 3177
192 1898 3438
207 3045 1242
210 3037 1411
239 3069 2257
325 3255 3548
380 3323 4010
281 3631 1572
290 3652 1761
319 3733 2447
417 3922 3653
907 4036 4087
1669 342 507
1683 350 874
1534 339 1806
1537 458 3188
1544 501 3549
1499 520 385
1487 601 724
1387 615 1711
1355 743 3290
1333 776 3560
1336 1596 458
1319 1584 586
1121 1693 1870
1040 1881 3376
834 1956 3715
625 2984 1250
623 2980 1407
642 3011 2178
735 3193 3503
804 3264 4048
611 3691 1639
614 3713 1819
632 3781 2390
724 3949 3610
1318 4071 4089
2614 532 753
2654 547 1072
2674 529 1907
2742 650 3032
2764 682 3362
2709 674 643
2728 768 930
2776 831 1868
2784 864 3091
2808 881 3437
3021 1446 511
3025 1437 661
2975 1715 1926
2923 1688 3385
2947 1763 3924
2850 3006 839
2817 3000 1031
2769 3015 1804
2641 3212 3549
2660 3336 4088
2616 3870 1503
2571 3893 1754
2452 3957 2334
2281 4078 3723
2731 4083 4092
2935 572 823
2951 594 1125
2977 578 2007
3052 679 3121
3084 713 3430
2995 687 715
3007 759 971
3015 807 1913
3092 862 3204
3115 887 3494
3251 1477 725
3248 1471 880
3265 1752 2000
3357 1681 3490
3374 1773 3899
3483 2990 1022
3498 2977 1210
3533 3010 1964
3640 3175 3524
3622 3229 4069
3669 4032 1926
3679 4054 2152
3694 4059 2548
3765 4078 3751
3811 4090 4094
