滤镜资源/Professional Luts Collection/Triune-Digital-Cinematic-LUTs/3D LUTs (3DL)/LOG/Alien - LOG.3dl
# Created by Benjamin (IWLTBAP) : http://luts.iwltbap.com
# Copyright: (C) Copyright 2016 Triune Films and IWLTBAP
# Blockbuster LUTs Pack
0 64 128 192 256 320 384 448 512 576 640 704 768 832 896 960 1023
7 14 59
7 17 129
9 26 260
10 43 417
8 66 600
8 97 820
9 150 1081
12 200 1376
16 236 1721
20 294 2101
21 350 2356
21 369 2433
21 386 2498
21 402 2565
21 420 2630
22 439 2697
22 459 2765
8 80 78
8 80 127
9 84 260
9 94 412
8 109 587
8 134 801
9 183 1057
12 233 1344
15 269 1686
19 328 2065
20 390 2354
20 411 2436
20 428 2501
20 445 2567
21 464 2633
21 483 2702
23 502 2775
9 211 117
9 209 144
8 209 261
7 214 416
7 228 588
7 253 799
7 301 1047
10 359 1323
14 397 1656
16 446 2024
17 511 2345
18 527 2448
19 535 2514
20 548 2584
21 562 2655
22 577 2726
24 594 2804
7 365 164
7 363 191
7 362 268
7 366 415
7 379 600
5 408 817
1 463 1062
1 526 1329
5 573 1642
12 627 1999
18 694 2359
20 719 2507
21 725 2575
22 736 2648
23 747 2721
24 757 2796
26 771 2875
7 547 223
7 546 250
7 543 289
7 547 435
5 564 614
1 600 842
0 653 1084
0 711 1350
0 766 1663
4 829 2026
18 897 2393
20 932 2601
21 936 2668
22 945 2738
23 955 2809
23 965 2882
24 978 2957
6 768 299
6 766 327
6 762 356
6 765 476
3 784 653
0 815 866
0 864 1117
0 917 1397
0 974 1713
5 1044 2065
17 1115 2433
22 1160 2707
23 1163 2773
24 1169 2841
25 1176 2911
25 1182 2983
26 1190 3061
5 1028 390
5 1027 421
5 1024 452
5 1025 530
4 1041 711
1 1065 916
0 1101 1155
0 1155 1446
6 1219 1768
17 1284 2109
23 1345 2480
27 1391 2814
30 1395 2905
32 1399 2973
34 1403 3045
38 1406 3118
42 1413 3192
8 1330 503
7 1329 538
7 1326 574
6 1321 615
7 1328 786
8 1347 991
10 1380 1217
13 1427 1489
18 1486 1814
23 1540 2170
30 1589 2542
46 1633 2910
53 1642 3055
57 1643 3124
61 1646 3193
64 1652 3260
69 1662 3327
11 1652 635
11 1651 672
11 1648 708
11 1643 743
11 1642 861
13 1662 1074
16 1691 1301
19 1726 1557
24 1767 1859
36 1809 2217
53 1851 2605
71 1900 2996
81 1919 3207
84 1920 3271
87 1925 3333
90 1931 3393
94 1944 3453
21 1988 770
21 1988 808
21 1987 846
21 1983 884
20 1979 951
22 1989 1163
27 2009 1398
35 2035 1650
49 2064 1933
63 2099 2267
76 2143 2654
94 2200 3056
109 2233 3340
113 2236 3418
117 2243 3474
122 2254 3527
127 2270 3583
53 2329 913
53 2329 953
54 2327 994
53 2323 1035
53 2318 1076
55 2323 1253
61 2340 1500
69 2362 1757
77 2390 2037
86 2424 2353
99 2468 2714
119 2524 3105
143 2576 3437
154 2590 3550
160 2600 3608
166 2609 3666
173 2625 3725
78 2707 1069
79 2706 1112
79 2704 1155
80 2700 1198
80 2693 1241
82 2691 1344
88 2703 1608
96 2722 1885
106 2746 2176
117 2778 2485
131 2819 2815
154 2871 3169
187 2937 3530
205 2964 3699
212 2971 3755
219 2979 3811
227 2992 3870
110 3102 1271
111 3102 1314
112 3100 1358
113 3097 1402
114 3091 1446
115 3083 1490
124 3091 1740
133 3105 2032
144 3128 2327
158 3161 2630
176 3201 2944
200 3253 3265
235 3317 3604
265 3355 3846
272 3359 3906
279 3364 3963
286 3374 4021
138 3349 1408
140 3352 1454
142 3356 1501
144 3359 1549
146 3361 1596
147 3362 1645
153 3371 1807
164 3395 2115
179 3432 2422
198 3479 2728
220 3533 3037
245 3587 3347
279 3642 3660
313 3687 3949
338 3697 4030
392 3705 4061
409 3715 4083
150 3436 1457
152 3440 1503
154 3443 1549
156 3447 1598
158 3450 1648
160 3453 1700
163 3461 1804
175 3491 2106
190 3533 2419
210 3587 2727
234 3644 3034
260 3698 3342
292 3751 3648
330 3803 3952
375 3823 4045
466 3834 4064
568 3851 4084
162 3526 1509
165 3530 1554
167 3534 1602
168 3538 1651
170 3541 1703
172 3545 1756
175 3551 1837
186 3581 2112
202 3625 2429
222 3678 2736
246 3733 3040
273 3782 3343
302 3831 3644
357 3881 3936
498 3910 4046
557 3916 4065
663 3934 4086
175 3620 1562
178 3624 1608
179 3629 1657
181 3633 1708
183 3637 1759
185 3641 1812
188 3648 1893
199 3679 2168
216 3725 2483
238 3777 2787
263 3827 3088
289 3873 3386
316 3920 3682
370 3967 3965
640 4006 4047
703 4013 4067
767 4021 4087
58 18 64
55 21 132
52 30 276
50 46 425
46 67 606
43 99 828
41 150 1085
42 196 1378
42 229 1722
43 286 2097
41 346 2363
41 367 2441
41 384 2505
41 401 2571
41 419 2637
41 438 2703
42 457 2770
44 75 74
41 74 125
39 78 257
38 88 407
33 103 584
30 127 797
28 177 1053
31 228 1342
35 262 1684
38 319 2060
40 386 2360
40 408 2444
40 425 2508
40 442 2573
40 461 2639
41 480 2707
42 499 2779
29 205 116
29 204 144
28 204 257
27 208 412
26 222 584
27 246 795
27 292 1043
30 347 1319
34 384 1652
36 432 2022
37 496 2351
38 514 2455
39 524 2520
40 537 2589
40 552 2659
41 568 2729
43 584 2806
26 360 164
26 359 191
26 358 264
26 361 411
26 373 595
24 402 812
20 456 1058
21 516 1325
26 559 1641
33 612 1996
37 680 2353
39 707 2508
40 713 2577
41 725 2649
42 737 2723
43 748 2800
45 762 2880
25 543 222
25 542 249
25 538 284
26 543 431
24 559 610
20 594 839
19 646 1079
19 704 1345
19 758 1657
24 819 2019
37 888 2388
40 923 2604
40 927 2671
41 936 2741
42 946 2813
42 957 2887
43 970 2962
25 764 297
25 763 326
25 758 355
25 760 471
22 778 648
19 809 861
19 857 1112
19 910 1391
19 966 1706
23 1035 2059
36 1106 2428
41 1153 2707
42 1156 2776
42 1162 2844
43 1169 2914
44 1177 2987
47 1184 3064
24 1022 388
24 1021 419
24 1019 450
24 1018 525
23 1034 705
20 1057 910
19 1093 1148
19 1147 1439
24 1211 1761
36 1276 2102
42 1338 2472
50 1385 2808
53 1390 2905
56 1394 2973
60 1398 3044
64 1401 3117
68 1408 3192
26 1324 499
26 1323 535
25 1320 571
25 1315 610
25 1321 779
26 1339 984
28 1371 1210
31 1419 1481
36 1478 1806
42 1533 2161
54 1582 2533
72 1628 2902
79 1638 3054
82 1638 3122
86 1642 3191
89 1647 3258
93 1657 3326
30 1646 631
30 1645 668
30 1642 704
29 1636 739
30 1635 853
32 1654 1066
34 1684 1293
37 1718 1548
44 1759 1851
60 1802 2208
78 1844 2596
96 1894 2987
106 1914 3203
109 1915 3269
112 1920 3331
115 1926 3391
119 1939 3452
42 1981 765
42 1981 803
41 1980 841
41 1976 879
40 1971 941
43 1982 1154
49 2002 1390
59 2027 1641
74 2057 1924
87 2091 2258
101 2135 2644
118 2192 3047
134 2226 3337
138 2229 3416
142 2237 3473
147 2248 3526
152 2264 3582
78 2322 907
79 2321 948
79 2320 988
78 2317 1029
78 2311 1069
80 2315 1243
86 2332 1491
94 2355 1748
102 2382 2027
111 2416 2343
124 2460 2704
143 2515 3096
168 2568 3432
179 2583 3549
185 2593 3608
191 2603 3665
199 2617 3724
103 2699 1065
104 2698 1107
104 2696 1150
105 2692 1193
105 2686 1235
107 2682 1335
113 2695 1598
121 2713 1874
130 2738 2165
142 2770 2475
156 2810 2805
178 2862 3160
212 2928 3522
230 2957 3698
237 2963 3754
244 2971 3810
251 2985 3869
135 3094 1266
136 3093 1310
137 3092 1353
138 3088 1396
139 3082 1440
140 3075 1483
148 3082 1728
158 3096 2020
169 3119 2317
183 3152 2620
200 3192 2934
225 3244 3257
259 3307 3596
289 3346 3845
296 3351 3904
303 3356 3961
310 3366 4020
164 3351 1409
166 3354 1455
168 3358 1502
170 3361 1549
172 3364 1596
173 3364 1644
179 3373 1801
191 3397 2109
205 3433 2417
224 3480 2724
246 3533 3033
270 3587 3342
304 3640 3655
338 3686 3949
364 3696 4031
419 3704 4061
436 3715 4083
176 3439 1458
178 3442 1504
180 3446 1551
182 3450 1599
184 3453 1648
186 3457 1699
190 3464 1801
201 3493 2099
217 3536 2414
237 3589 2721
260 3646 3029
286 3700 3337
317 3752 3643
355 3804 3948
403 3825 4045
497 3837 4064
601 3854 4085
189 3529 1511
191 3533 1556
193 3537 1603
195 3542 1651
197 3545 1703
199 3549 1755
201 3555 1834
212 3583 2105
228 3627 2423
248 3680 2730
272 3734 3035
298 3784 3338
327 3832 3639
382 3882 3933
531 3913 4046
589 3919 4065
697 3938 4086
202 3623 1565
204 3627 1611
206 3633 1658
208 3637 1709
210 3641 1760
212 3645 1812
215 3651 1889
226 3682 2160
243 3727 2477
263 3779 2781
288 3828 3082
314 3875 3381
341 3920 3677
394 3968 3961
673 4009 4047
737 4016 4067
801 4024 4087
158 27 74
156 29 133
147 39 275
137 53 458
129 75 646
122 110 871
119 155 1128
119 186 1426
119 216 1759
124 272 2118
127 339 2391
123 361 2471
120 379 2534
118 397 2598
116 414 2661
115 432 2725
116 451 2790
143 70 77
141 69 117
131 75 259
123 85 435
116 102 614
110 132 835
107 182 1088
106 219 1377
106 248 1712
108 304 2076
110 380 2382
106 403 2468
102 421 2531
101 438 2594
100 457 2659
99 476 2725
101 494 2794
116 196 106
114 194 136
109 195 255
103 201 411
97 213 586
92 236 800
88 280 1048
88 322 1326
87 350 1659
87 401 2025
84 471 2359
81 492 2468
78 503 2530
77 518 2597
76 534 2664
75 551 2733
76 568 2808
76 352 163
75 351 191
73 349 260
69 353 407
66 364 590
64 390 805
57 442 1049
55 497 1315
58 535 1632
58 585 1987
58 656 2341
60 686 2508
60 693 2576
61 705 2648
62 719 2721
62 732 2798
63 746 2879
48 532 219
47 531 247
47 528 278
46 532 420
45 546 598
39 579 827
37 632 1067
38 689 1332
38 741 1642
45 799 2000
56 868 2373
59 906 2602
60 910 2670
61 919 2741
62 929 2813
62 941 2887
63 955 2965
44 754 293
44 752 322
44 748 351
44 748 460
40 765 637
37 795 849
37 843 1099
37 896 1376
37 951 1690
41 1019 2045
53 1091 2415
59 1140 2704
60 1144 2777
61 1150 2846
64 1157 2916
66 1165 2988
71 1173 3065
43 1011 383
43 1010 414
43 1007 446
43 1006 514
41 1020 694
38 1043 898
37 1079 1136
37 1133 1426
42 1196 1747
53 1263 2087
61 1326 2457
74 1374 2800
78 1381 2903
81 1385 2971
85 1390 3042
88 1393 3115
92 1400 3190
45 1312 494
44 1311 530
44 1309 566
43 1304 603
43 1308 768
45 1326 973
46 1358 1199
49 1405 1469
54 1465 1793
62 1522 2147
78 1571 2518
96 1619 2891
103 1630 3050
106 1631 3118
110 1635 3188
114 1640 3255
118 1650 3323
48 1635 627
48 1634 663
48 1632 699
48 1627 734
48 1625 843
50 1643 1056
53 1672 1283
56 1707 1537
66 1749 1839
85 1792 2195
102 1834 2584
119 1884 2975
130 1906 3198
133 1907 3266
136 1912 3328
139 1918 3389
143 1931 3449
63 1971 760
63 1971 797
63 1970 835
62 1966 873
62 1962 929
64 1972 1143
71 1991 1378
83 2017 1630
98 2046 1912
111 2081 2245
125 2125 2631
142 2181 3034
158 2217 3332
163 2221 3413
167 2228 3470
171 2239 3523
177 2255 3579
103 2312 901
103 2312 941
104 2311 982
103 2307 1022
103 2301 1062
104 2305 1231
110 2321 1478
118 2343 1735
126 2371 2014
135 2405 2330
148 2449 2690
167 2504 3084
192 2558 3425
204 2575 3548
210 2584 3606
216 2594 3664
223 2609 3722
128 2688 1059
128 2687 1101
129 2685 1143
130 2682 1186
130 2676 1228
131 2672 1323
138 2684 1585
145 2702 1860
155 2727 2152
166 2758 2460
180 2799 2791
202 2851 3148
236 2916 3512
254 2947 3696
261 2953 3752
268 2961 3808
275 2974 3867
159 3082 1261
160 3082 1304
161 3080 1347
162 3078 1390
163 3072 1432
164 3065 1476
173 3070 1713
182 3085 2006
193 3107 2303
207 3140 2606
225 3181 2922
248 3232 3245
282 3294 3584
313 3336 3842
320 3340 3902
326 3345 3959
334 3355 4018
190 3353 1410
192 3357 1456
194 3360 1502
196 3363 1549
198 3366 1596
200 3366 1644
205 3374 1792
217 3398 2101
231 3433 2410
250 3480 2717
272 3533 3026
296 3586 3336
328 3638 3648
362 3684 3947
391 3694 4032
445 3703 4061
461 3713 4083
203 3441 1460
205 3444 1506
207 3448 1552
209 3452 1600
211 3456 1649
212 3460 1699
216 3467 1796
228 3496 2089
243 3538 2406
262 3591 2715
286 3648 3022
312 3701 3330
342 3752 3637
380 3804 3942
432 3827 4045
526 3839 4064
633 3857 4085
215 3531 1512
217 3535 1558
220 3540 1604
222 3545 1652
223 3549 1703
225 3552 1755
228 3558 1828
238 3586 2095
254 3629 2415
274 3681 2723
298 3736 3028
324 3785 3331
352 3833 3632
406 3883 3928
561 3916 4046
620 3922 4065
731 3941 4086
228 3626 1567
231 3630 1613
233 3636 1659
235 3641 1708
237 3645 1760
239 3649 1812
241 3654 1884
252 3684 2150
269 3729 2468
289 3780 2774
314 3830 3075
340 3876 3374
366 3921 3670
420 3970 3956
707 4012 4047
771 4020 4067
836 4028 4087
302 48 100
301 44 141
297 51 275
281 67 444
258 88 686
237 133 949
231 165 1199
231 185 1498
237 214 1829
244 257 2186
248 315 2463
246 339 2543
243 357 2602
242 377 2662
241 397 2722
240 417 2782
241 436 2843
282 78 99
281 74 124
277 78 255
262 94 424
240 114 662
220 159 915
214 192 1163
215 213 1460
221 241 1791
228 293 2137
233 366 2438
229 393 2526
227 411 2587
225 430 2648
224 451 2709
222 470 2773
