滤镜资源/Professional Luts Collection/Triune-Digital-Cinematic-LUTs/3D LUTs (3DL)/LOG/Alien - LOG.3dl
# Created by Benjamin (IWLTBAP) : http://luts.iwltbap.com
# Copyright: (C) Copyright 2016 Triune Films and IWLTBAP
# Blockbuster LUTs Pack
0 128 256 384 512 640 768 896 1023
7 14 59
9 26 260
8 66 600
9 150 1081
16 236 1721
21 350 2356
21 386 2498
21 420 2630
22 459 2765
9 211 117
8 209 261
7 228 588
7 301 1047
14 397 1656
17 511 2345
19 535 2514
21 562 2655
24 594 2804
7 547 223
7 543 289
5 564 614
0 653 1084
0 766 1663
18 897 2393
21 936 2668
23 955 2809
24 978 2957
5 1028 390
5 1024 452
4 1041 711
0 1101 1155
6 1219 1768
23 1345 2480
30 1395 2905
34 1403 3045
42 1413 3192
11 1652 635
11 1648 708
11 1642 861
16 1691 1301
24 1767 1859
53 1851 2605
81 1919 3207
87 1925 3333
94 1944 3453
53 2329 913
54 2327 994
53 2318 1076
61 2340 1500
77 2390 2037
99 2468 2714
143 2576 3437
160 2600 3608
173 2625 3725
110 3102 1271
112 3100 1358
114 3091 1446
124 3091 1740
144 3128 2327
176 3201 2944
235 3317 3604
272 3359 3906
286 3374 4021
150 3436 1457
154 3443 1549
158 3450 1648
163 3461 1804
190 3533 2419
234 3644 3034
292 3751 3648
375 3823 4045
568 3851 4084
175 3620 1562
179 3629 1657
183 3637 1759
188 3648 1893
216 3725 2483
263 3827 3088
316 3920 3682
640 4006 4047
767 4021 4087
158 27 74
147 39 275
129 75 646
119 155 1128
119 216 1759
127 339 2391
120 379 2534
116 414 2661
116 451 2790
116 196 106
109 195 255
97 213 586
88 280 1048
87 350 1659
84 471 2359
78 503 2530
76 534 2664
76 568 2808
48 532 219
47 528 278
45 546 598
37 632 1067
38 741 1642
56 868 2373
60 910 2670
62 929 2813
63 955 2965
43 1011 383
43 1007 446
41 1020 694
37 1079 1136
42 1196 1747
61 1326 2457
78 1381 2903
85 1390 3042
92 1400 3190
48 1635 627
48 1632 699
48 1625 843
53 1672 1283
66 1749 1839
102 1834 2584
130 1906 3198
136 1912 3328
143 1931 3449
103 2312 901
104 2311 982
103 2301 1062
110 2321 1478
126 2371 2014
148 2449 2690
192 2558 3425
210 2584 3606
223 2609 3722
159 3082 1261
161 3080 1347
163 3072 1432
173 3070 1713
193 3107 2303
225 3181 2922
282 3294 3584
320 3340 3902
334 3355 4018
203 3441 1460
207 3448 1552
211 3456 1649
216 3467 1796
243 3538 2406
286 3648 3022
342 3752 3637
432 3827 4045
633 3857 4085
228 3626 1567
233 3636 1659
237 3645 1760
241 3654 1884
269 3729 2468
314 3830 3075
366 3921 3670
707 4012 4047
836 4028 4087
502 95 164
502 78 292
447 102 656
385 171 1295
384 226 1898
393 299 2559
391 320 2712
394 343 2836
403 373 2961
453 197 150
447 192 249
403 204 604
339 265 1220
336 303 1810
349 385 2487
346 415 2678
346 452 2796
346 502 2918
367 509 195
361 505 254
308 534 603
272 600 1099
274 644 1702
283 792 2382
291 849 2711
292 870 2859
279 903 3045
175 1006 374
173 1001 436
165 999 676
154 1050 1119
151 1158 1731
192 1289 2443
205 1353 2925
206 1361 3062
212 1373 3209
115 1601 610
113 1599 682
109 1588 806
113 1628 1242
129 1707 1794
159 1796 2533
183 1873 3177
187 1879 3314
192 1898 3438
150 2273 881
151 2272 960
150 2264 1041
156 2281 1434
172 2330 1967
194 2407 2642
238 2520 3396
257 2550 3596
270 2575 3712
207 3045 1242
209 3044 1327
210 3037 1411
219 3033 1664
239 3069 2257
270 3142 2878
325 3255 3548
366 3307 3893
380 3323 4010
255 3445 1464
259 3453 1554
263 3461 1650
268 3472 1782
294 3540 2384
336 3651 3003
392 3754 3618
491 3831 4045
701 3864 4085
281 3631 1572
286 3641 1663
290 3652 1761
294 3661 1867
319 3733 2447
365 3832 3056
417 3922 3653
777 4020 4047
907 4036 4087
1003 195 312
1001 195 428
984 154 658
871 215 1201
857 255 2029
866 344 2767
863 371 2934
867 391 3053
876 412 3172
943 266 295
936 264 371
932 231 618
804 271 1146
785 304 1959
795 394 2693
794 430 2921
796 449 3038
804 469 3157
898 469 245
894 469 304
892 518 591
782 548 1104
710 573 1928
710 680 2608
708 752 2949
705 784 3074
685 835 3230
784 977 321
777 976 380
751 977 571
577 1041 1149
557 1092 1786
585 1232 2501
596 1298 3063
585 1309 3201
496 1358 3378
396 1607 606
394 1607 677
388 1599 768
384 1618 1251
390 1693 1813
420 1783 2547
446 1874 3221
448 1883 3368
456 1904 3492
369 2248 862
369 2248 936
364 2241 1011
362 2252 1391
369 2297 1933
384 2373 2611
420 2490 3383
435 2524 3611
446 2549 3725
333 2999 1225
332 2999 1307
329 2993 1388
328 2986 1595
340 3018 2193
361 3089 2819
404 3200 3497
446 3259 3885
461 3275 4000
317 3452 1473
320 3460 1561
323 3470 1653
323 3479 1760
345 3542 2345
387 3651 2970
442 3753 3586
550 3836 4045
773 3872 4085
333 3638 1580
338 3648 1669
342 3659 1766
346 3669 1867
370 3735 2408
414 3833 3024
472 3922 3623
841 4027 4045
982 4044 4088
1669 342 507
1676 344 597
1683 350 874
1596 285 1148
1534 339 1806
1526 418 2795
1537 458 3188
1543 478 3378
1544 501 3549
1584 379 482
1578 379 534
1586 386 809
1519 327 1085
1460 386 1746
1437 462 2737
1460 517 3232
1461 538 3389
1458 560 3534
1499 520 385
1497 538 457
1487 601 724
1480 591 1063
1387 615 1711
1355 694 2738
1355 743 3290
1343 756 3411
1333 776 3560
1488 908 359
1489 896 420
1484 883 569
1484 983 1060
1364 1062 1753
1276 1114 2787
1247 1195 3363
1215 1221 3490
1117 1320 3714
1336 1596 458
1333 1595 520
1319 1584 586
1278 1601 1098
1121 1693 1870
1041 1759 2654
1040 1881 3376
911 1925 3585
834 1956 3715
709 2265 897
706 2266 971
698 2261 1041
693 2272 1355
677 2311 1978
680 2383 2671
744 2509 3441
777 2547 3704
794 2568 3823
625 2984 1250
625 2985 1329
623 2980 1407
622 2974 1558
642 3011 2178
675 3087 2813
735 3193 3503
790 3250 3943
804 3264 4048
608 3504 1534
611 3514 1621
612 3525 1710
610 3535 1802
632 3600 2343
675 3695 2974
729 3787 3587
987 3892 4046
1149 3918 4087
611 3691 1639
613 3702 1729
614 3713 1819
611 3724 1911
632 3781 2390
674 3865 3013
724 3949 3610
1143 4063 4041
1318 4071 4089
2397 498 697
2401 494 755
2444 509 1046
2432 536 1400
2366 467 1839
2388 570 2650
2385 611 3000
2383 625 3181
2392 637 3368
2340 523 658
2340 545 731
2389 561 993
2383 597 1350
2298 524 1757
2303 610 2566
2307 668 3016
2305 682 3204
2311 695 3404
2283 632 544
2279 651 617
2283 729 866
2301 790 1264
2236 741 1685
2190 789 2468
2184 836 3088
2172 841 3302
2186 851 3542
2276 939 494
2280 939 554
2285 938 663
2279 1058 1131
2263 1142 1728
2143 1181 2479
2107 1193 3360
2089 1197 3587
2102 1222 3832
2273 1536 421
2286 1532 485
2287 1519 548
2310 1519 949
2262 1635 1733
2127 1674 2524
2008 1715 3643
1969 1765 3873
1957 1808 4020
2118 2281 578
2113 2287 645
2097 2288 717
2046 2280 1050
1955 2295 1798
1765 2406 2713
1645 2535 3596
1596 2607 3988
1661 2623 4074
1258 3031 1259
1256 3033 1345
1251 3031 1432
1240 3025 1565
1204 3066 2173
1153 3137 2905
1145 3221 3592
1312 3286 4040
1494 3316 4084
979 3611 1633
982 3621 1722
983 3630 1813
981 3639 1903
1008 3694 2363
1062 3774 3008
1138 3856 3612
1649 3976 4048
1759 3991 4091
988 3792 1740
989 3800 1830
989 3808 1919
983 3816 2008
1000 3862 2401
1092 3941 3038
1341 4039 3647
1718 4078 4037
1946 4078 4093
2614 532 753
2621 531 806
2654 547 1072
2666 584 1449
2674 529 1907
2707 613 2658
2742 650 3032
2751 664 3189
2764 682 3362
2631 567 729
2637 591 800
2671 615 1038
2692 657 1415
2698 616 1872
2716 675 2597
2755 721 3050
2762 734 3208
2778 751 3386
2709 674 643
2713 696 716
2728 768 930
2787 845 1364
2776 831 1868
2755 819 2499
2784 864 3091
2789 869 3249
2808 881 3437
2903 942 587
2914 945 645
2918 946 725
2923 1139 1267
2915 1249 1941
2874 1179 2450
2862 1218 3225
2860 1225 3418
2906 1244 3671
3021 1446 511
3025 1445 587
3025 1437 661
3007 1465 1091
2975 1715 1926
3023 1686 2513
2923 1688 3385
2939 1722 3725
2947 1763 3924
3032 2167 512
3028 2166 579
3020 2161 647
3005 2167 876
2958 2160 1719
2990 2316 2558
2900 2395 3379
2882 2442 3926
2882 2482 4071
2850 3006 839
2835 3005 936
2817 3000 1031
2787 2979 1151
2769 3015 1804
2710 3081 2659
2641 3212 3549
2642 3321 4044
2660 3336 4088
2606 3677 1329
2583 3689 1440
2556 3700 1558
2515 3710 1684
2487 3763 2207
2133 3871 3041
1694 3949 3673
2487 4027 4044
2611 4025 4092
2616 3870 1503
2597 3881 1627
2571 3893 1754
2532 3904 1881
2452 3957 2334
2181 4063 3118
2281 4078 3723
2549 4086 4028
2731 4083 4092
2763 552 788
2767 554 842
2787 570 1091
2803 608 1478
2822 556 1951
2863 622 2667
2897 662 3064
2913 678 3225
2922 697 3385
2774 585 759
2777 610 830
2797 638 1053
2828 673 1435
2837 643 1911
2876 683 2611
2910 734 3087
2924 750 3246
2934 767 3410
2843 678 680
2847 700 755
2858 764 947
2903 831 1373
2890 819 1883
2911 797 2511
2935 853 3129
2945 861 3283
2958 875 3451
3030 920 602
3033 921 659
3032 923 728
3039 1126 1272
3040 1238 1951
3055 1159 2480
3030 1203 3261
3036 1216 3442
3072 1232 3644
3162 1449 644
3163 1445 710
3161 1436 783
3144 1469 1175
3149 1726 1960
3244 1712 2564
3199 1666 3445
3202 1702 3702
3225 1750 3882
3282 2129 688
3282 2133 769
3276 2119 866
3258 2094 1112
3271 2181 1858
3342 2373 2688
3365 2354 3399
3352 2423 3876
3355 2464 4030
3384 2997 900
3382 2987 1001
3384 2974 1099
3389 2956 1197
3420 3006 1882
3457 3056 2712
3525 3156 3474
3494 3202 4017
3484 3213 4069
3486 3782 1598
3492 3787 1694
3495 3790 1790
3495 3791 1887
3503 3825 2277
3516 3887 2989
3545 3952 3625
3514 4009 4022
3513 4013 4093
3500 3985 1761
3502 3994 1864
3503 4004 1970
3500 4014 2076
3502 4044 2392
3523 4063 3083
3534 4073 3707
3474 4088 4012
3529 4088 4093
2935 572 823
2938 579 882
2951 594 1125
2955 631 1525
2977 578 2007
3030 628 2729
3052 679 3121
3069 695 3275
3084 713 3430
2946 604 793
2950 628 866
2964 656 1085
2975 688 1474
2984 660 1964
3045 686 2674
3065 751 3150
3081 766 3303
3096 784 3453
2995 687 715
2998 706 790
3007 759 971
3023 812 1391
3015 807 1913
3085 781 2575
3092 862 3204
3104 870 3352
3115 887 3494
3141 957 661
3142 956 715
3141 960 783
3147 1161 1325
3153 1257 1989
3224 1147 2545
3206 1211 3396
3215 1230 3563
3224 1253 3692
3251 1477 725
3251 1475 798
3248 1471 880
3236 1498 1243
3265 1752 2000
3369 1751 2618
3357 1681 3490
3377 1743 3794
3374 1773 3899
3367 2147 803
3362 2131 905
3355 2115 1009
3349 2106 1217
3389 2198 1904
3456 2412 2745
3500 2389 3430
3501 2460 3937
3494 2490 4039
3483 2990 1022
3490 2983 1113
3498 2977 1210
3502 2963 1320
3533 3010 1964
3574 3086 2806
3640 3175 3524
3632 3229 4023
3622 3229 4069
3627 3801 1691
3633 3808 1800
3635 3815 1904
3636 3817 2005
3643 3850 2356
3679 3911 3027
3722 3963 3641
3772 4004 4013
3758 4005 4089
3669 4032 1926
3675 4044 2042
3679 4054 2152
3683 4055 2260
3694 4059 2548
3730 4068 3198
3765 4078 3751
3802 4088 4007
3811 4090 4094
