滤镜资源/Professional Luts Collection/Triune-Digital-Cinematic-LUTs/3D LUTs (3DL)/LOG/Batman vs Superman - LOG.3dl
# Created by Benjamin (IWLTBAP) : http://luts.iwltbap.com
# Copyright: (C) Copyright 2016 Triune Films and IWLTBAP
# Blockbuster LUTs Pack
0 128 256 384 512 640 768 896 1023
23 41 51
55 125 338
102 229 737
141 342 1181
188 478 1667
247 592 2084
262 618 2178
274 642 2266
286 665 2351
54 281 102
49 281 275
89 374 671
128 484 1119
175 607 1610
242 720 2080
260 737 2190
274 756 2277
285 776 2362
94 638 152
90 629 228
72 637 598
104 738 1041
148 861 1534
221 984 2038
255 1020 2218
269 1037 2304
282 1058 2391
120 1015 199
116 1009 266
97 1028 545
88 1039 965
107 1147 1457
177 1282 1988
239 1353 2279
257 1371 2369
268 1391 2457
157 1422 241
147 1418 324
133 1409 472
105 1480 936
100 1480 1379
126 1596 1914
184 1703 2337
203 1722 2433
221 1746 2524
215 1863 281
207 1863 347
194 1860 431
134 1873 868
129 1981 1372
121 1967 1845
150 2083 2372
156 2112 2505
161 2132 2596
275 2327 358
262 2328 431
249 2325 510
197 2303 784
164 2401 1321
149 2506 1861
145 2484 2343
172 2533 2593
183 2547 2678
299 2521 397
295 2523 470
285 2527 548
260 2532 681
176 2573 1222
174 2746 1793
163 2775 2312
163 2770 2621
169 2794 2714
311 2617 414
303 2618 487
294 2622 566
275 2624 675
179 2647 1195
178 2813 1753
169 2883 2297
159 2873 2648
159 2873 2719
360 80 54
272 128 320
277 229 722
304 343 1173
337 476 1654
392 592 2082
396 619 2180
404 643 2267
413 666 2352
201 266 100
215 311 292
230 413 708
262 520 1157
302 638 1645
364 745 2114
370 762 2228
378 780 2313
390 802 2402
155 623 149
161 647 239
137 652 608
168 754 1055
218 876 1549
297 998 2055
332 1036 2246
346 1053 2332
360 1076 2423
177 1008 191
182 1037 279
160 1042 550
151 1061 982
171 1171 1479
252 1306 2011
318 1376 2313
332 1392 2401
344 1415 2493
216 1420 219
226 1453 305
203 1437 477
168 1501 947
163 1508 1403
195 1625 1941
259 1734 2374
276 1754 2471
293 1781 2566
281 1855 277
290 1887 360
278 1883 434
202 1893 876
196 2011 1393
187 2000 1873
217 2116 2405
221 2145 2544
229 2169 2639
345 2321 352
354 2355 443
343 2352 520
289 2346 779
227 2418 1330
225 2538 1889
216 2516 2371
246 2563 2627
259 2580 2715
381 2532 394
399 2569 484
385 2573 562
358 2575 680
243 2603 1231
245 2771 1802
237 2819 2335
234 2813 2657
235 2838 2751
395 2628 412
412 2673 504
396 2676 581
380 2678 676
247 2691 1203
250 2845 1765
245 2929 2325
223 2917 2686
223 2916 2756
888 152 37
841 166 299
725 249 695
689 348 1162
626 485 1664
671 609 2105
679 638 2210
686 661 2294
694 683 2379
771 328 53
803 334 228
670 392 671
593 488 1147
577 611 1642
643 725 2114
652 740 2242
661 760 2326
671 785 2416
513 597 144
530 623 228
509 724 653
471 842 1152
530 968 1657
606 1085 2159
626 1125 2369
630 1139 2452
638 1159 2541
402 985 191
411 1016 273
400 1098 558
344 1120 1033
378 1230 1539
459 1354 2063
507 1423 2385
512 1436 2470
521 1458 2560
332 1402 217
343 1434 301
338 1467 444
264 1509 944
252 1527 1418
281 1639 1953
345 1750 2407
358 1768 2504
371 1794 2597
347 1834 274
359 1868 358
362 1892 443
278 1902 858
265 2017 1393
256 2014 1883
283 2131 2424
286 2162 2577
295 2185 2671
412 2304 355
421 2341 441
437 2370 529
389 2367 754
285 2420 1325
298 2553 1900
286 2532 2383
318 2580 2655
329 2596 2740
456 2541 400
482 2581 489
496 2616 578
471 2621 678
310 2635 1225
315 2789 1798
310 2859 2349
298 2849 2687
299 2871 2780
484 2638 419
509 2685 509
510 2731 589
485 2739 666
326 2744 1181
319 2872 1764
320 2968 2339
285 2951 2716
285 2949 2785
1528 250 43
1519 243 238
1402 329 644
1331 398 1101
1324 518 1628
1326 625 2155
1286 650 2291
1267 669 2382
1236 687 2477
1455 370 31
1468 375 152
1399 418 599
1271 487 1075
1259 596 1603
1233 709 2149
1176 746 2324
1137 767 2411
1110 793 2503
1204 705 90
1267 728 151
1375 761 526
1185 841 1088
1117 944 1640
1009 1068 2190
960 1121 2436
955 1135 2518
953 1154 2605
937 968 145
966 998 224
1016 1081 474
933 1211 1074
837 1342 1674
848 1476 2226
886 1553 2573
888 1561 2652
893 1575 2732
783 1397 225
809 1433 309
821 1466 427
785 1612 959
606 1664 1547
666 1773 2093
737 1884 2566
748 1896 2661
762 1913 2742
690 1834 313
715 1871 399
735 1900 488
741 2019 853
531 2090 1436
520 2111 1973
534 2211 2508
530 2238 2670
550 2258 2756
609 2300 376
629 2339 463
647 2368 552
653 2418 742
420 2450 1322
436 2581 1919
409 2557 2403
434 2602 2694
441 2615 2776
548 2554 410
575 2596 499
592 2632 589
595 2666 679
402 2675 1189
385 2805 1775
386 2896 2352
361 2881 2715
363 2901 2807
562 2650 425
596 2699 517
611 2747 594
605 2794 667
426 2799 1129
384 2893 1743
391 3001 2339
347 2983 2740
347 2979 2812
2244 365 126
2244 355 253
2199 410 633
2057 501 1044
2073 547 1506
2058 677 2071
2044 722 2266
2026 746 2386
2020 767 2498
2167 442 110
2172 447 192
2183 471 576
2034 572 1011
2026 630 1481
2002 768 2079
1981 824 2335
1972 845 2447
1976 864 2562
2053 799 64
2113 803 131
2163 791 474
2073 860 983
1973 953 1502
1917 1083 2159
1908 1121 2521
1887 1119 2634
1854 1126 2751
1758 1091 112
1832 1126 176
1961 1185 331
2027 1272 931
1815 1369 1576
1731 1480 2256
1512 1539 2702
1433 1545 2778
1375 1557 2853
1479 1411 143
1526 1450 215
1552 1479 299
1664 1668 848
1546 1821 1588
1396 1946 2271
1271 2038 2783
1220 2040 2881
1207 2049 2956
1396 1913 201
1437 1959 291
1456 1994 384
1487 2122 785
1320 2257 1462
981 2291 2143
982 2365 2684
1027 2390 2865
1046 2403 2944
1141 2386 310
1170 2432 410
1183 2465 514
1206 2514 703
1197 2662 1333
899 2692 1979
821 2699 2533
840 2726 2838
845 2735 2916
1030 2674 379
1057 2717 483
1080 2756 584
1091 2795 679
1055 2974 1132
752 2966 1791
692 3036 2444
671 3006 2826
674 3017 2908
1003 2765 402
1030 2820 496
1046 2868 581
1053 2913 665
1007 3064 1072
711 3047 1722
647 3116 2405
637 3089 2823
632 3083 2904
2910 460 160
2912 455 244
2872 467 609
2810 554 1038
2705 652 1498
2723 703 2031
2701 757 2272
2686 783 2390
2674 809 2515
2863 546 152
2874 545 231
2875 534 555
2818 625 1003
2685 733 1471
2697 790 2024
2668 856 2336
2650 885 2461
2642 914 2590
2833 863 108
2851 857 192
2850 834 460
2864 854 936
2705 974 1444
2667 1046 2056
2603 1128 2500
2593 1139 2606
2599 1154 2718
2660 1233 125
2714 1253 186
2776 1265 301
2825 1280 864
2733 1356 1427
2587 1488 2162
2564 1579 2731
2542 1582 2849
2523 1589 2959
2353 1526 175
2414 1572 243
2458 1605 310
2668 1781 768
2698 1903 1431
2463 2018 2216
2360 2104 2877
2287 2106 3026
2237 2112 3119
2114 1921 196
2156 1969 278
2185 2006 357
2267 2141 709
2360 2370 1352
2256 2568 2159
2153 2653 2873
2065 2663 3126
2010 2657 3206
2031 2505 250
2080 2556 337
2114 2595 426
2146 2648 603
2193 2837 1264
1992 2986 1981
1560 2946 2720
1522 2945 3084
1492 2942 3158
1868 2863 310
1894 2912 426
1907 2955 542
1906 2993 647
1879 3151 1089
1691 3307 1763
1178 3236 2503
1074 3174 2998
1073 3173 3078
1759 2949 337
1794 3007 447
1810 3051 550
1812 3088 649
1791 3230 1007
1619 3384 1688
1119 3306 2430
1040 3256 2971
1039 3241 3061
3090 483 156
3095 478 231
3085 478 570
3045 555 1002
2937 666 1454
2958 730 2036
2948 754 2287
2947 783 2407
2936 810 2534
3104 579 155
3113 579 231
3134 559 519
3113 628 964
3008 741 1427
2995 827 2034
2981 859 2352
2978 886 2478
2973 912 2612
3172 854 125
3176 850 210
3182 833 439
3230 804 868
3135 920 1391
3064 1040 2035
3031 1063 2485
3029 1073 2598
3033 1094 2716
3186 1305 135
3220 1320 197
3252 1315 275
3314 1279 788
3299 1308 1371
3172 1523 2146
3124 1550 2704
3122 1556 2828
3122 1569 2938
3112 1696 143
3159 1736 203
3192 1762 264
3304 1854 609
3398 1900 1317
3272 2005 2120
3156 2112 2829
3146 2121 3015
3141 2135 3116
2909 2030 199
2956 2080 270
2994 2117 337
3089 2226 588
3275 2478 1218
3308 2608 1985
3087 2706 2825
3077 2732 3140
3066 2737 3232
2717 2503 228
2762 2554 305
2796 2594 387
2823 2633 491
2938 2851 1200
3023 3054 1855
2941 3202 2705
2948 3251 3201
2937 3255 3293
2632 2994 281
2673 3041 370
2705 3083 460
2727 3120 571
2806 3261 1053
2814 3428 1795
2738 3558 2548
2516 3540 3197
2467 3534 3307
2606 3098 293
2649 3145 383
2678 3183 478
2696 3225 624
2744 3342 1005
2750 3507 1744
2668 3645 2484
2276 3622 3167
2078 3584 3304
3190 500 166
3196 494 238
3196 487 556
3161 556 984
3064 665 1428
3063 737 2020
3061 770 2326
3049 779 2416
3048 805 2542
3206 595 165
3216 595 239
3233 573 504
3227 625 941
3136 733 1400
3099 833 2016
3093 873 2392
3081 883 2487
3083 909 2619
3262 838 135
3266 835 219
3276 821 414
3309 780 841
3240 888 1363
3153 1015 1994
3139 1045 2502
3124 1040 2587
3134 1059 2707
3277 1300 133
3306 1309 195
3332 1300 257
3388 1257 752
3396 1278 1337
3293 1478 2096
3245 1536 2706
3232 1520 2814
3237 1533 2924
3252 1716 139
3290 1752 202
3320 1773 265
3422 1840 554
3522 1870 1275
3453 1947 2038
3345 2111 2805
3327 2084 3004
3329 2096 3105
3209 2087 201
3252 2140 266
3290 2185 327
3355 2266 467
3540 2488 1122
3603 2596 1927
3470 2688 2790
3418 2696 3129
3420 2699 3225
3206 2535 228
3240 2578 301
3269 2615 376
3294 2645 471
3438 2869 1124
3560 3085 1788
3588 3196 2625
3481 3236 3205
3483 3236 3297
3216 3023 279
3247 3062 370
3268 3093 459
3285 3121 546
3345 3218 886
3446 3414 1642
3488 3574 2419
3491 3688 3165
3493 3701 3311
3189 3157 301
3226 3199 397
3251 3232 486
3270 3264 574
3321 3353 901
3421 3548 1640
3448 3689 2405
3464 3805 3129
3428 3801 3290
3293 515 172
3298 510 244
3305 501 552
3276 556 976
3186 660 1416
3159 747 2014
3164 787 2356
3158 795 2457
3147 802 2551
3307 612 174
3316 612 249
3332 587 501
3326 625 930
3250 731 1400
3196 851 2016
3199 893 2430
3190 904 2537
3183 908 2626
3343 842 141
3349 839 225
3362 825 408
3388 780 834
3341 884 1364
3249 1021 1994
3241 1058 2526
3233 1055 2623
3224 1054 2708
3362 1314 128
3389 1317 189
3412 1306 253
3467 1264 737
3481 1281 1337
3401 1469 2089
3346 1545 2711
3338 1533 2839
3330 1526 2922
3339 1738 138
3376 1773 203
3406 1794 269
3501 1845 533
3598 1875 1273
3548 1954 2029
3450 2122 2799
3429 2103 3021
3421 2089 3103
3305 2124 205
3348 2180 269
3383 2220 331
3442 2289 466
3623 2493 1101
3679 2598 1927
3585 2675 2778
3515 2710 3137
3509 2689 3223
3292 2541 233
3327 2590 308
3356 2628 387
3380 2658 482
3529 2878 1080
3644 3088 1772
3670 3194 2616
3573 3241 3208
3569 3226 3298
3307 3020 284
3340 3064 380
3366 3097 470
3387 3124 558
3447 3213 880
3547 3406 1663
3600 3574 2450
3662 3687 3156
3626 3694 3313
3314 3144 296
3344 3185 393
3367 3217 483
3387 3248 570
3435 3319 798
3548 3513 1532
3591 3675 2324
3649 3811 3097
3658 3847 3313
