滤镜资源/Professional Luts Collection/Triune-Digital-Cinematic-LUTs/3D LUTs (3DL)/LOG/Batman vs Superman - LOG.3dl
# Created by Benjamin (IWLTBAP) : http://luts.iwltbap.com
# Copyright: (C) Copyright 2016 Triune Films and IWLTBAP
# Blockbuster LUTs Pack
0 64 128 192 256 320 384 448 512 576 640 704 768 832 896 960 1023
23 41 51
38 73 160
55 125 338
76 175 535
102 229 737
123 281 953
141 342 1181
159 407 1420
188 478 1667
222 545 1917
247 592 2084
255 605 2134
262 618 2178
268 630 2223
274 642 2266
280 653 2308
286 665 2351
35 122 70
34 122 130
53 172 309
72 219 506
97 271 710
119 320 925
137 376 1155
155 436 1394
182 506 1642
218 573 1893
246 626 2083
254 640 2137
262 653 2182
269 666 2226
275 678 2269
280 689 2312
287 701 2355
54 281 102
54 279 133
49 281 275
66 327 469
89 374 671
110 426 887
128 484 1119
146 543 1358
175 607 1610
211 670 1864
242 720 2080
253 730 2146
260 737 2190
267 748 2234
274 756 2277
279 765 2319
285 776 2362
75 455 128
73 451 158
65 451 256
60 452 433
78 496 634
99 549 849
117 605 1078
135 663 1318
164 727 1569
198 790 1825
232 846 2060
248 866 2156
256 873 2200
264 883 2244
271 892 2287
277 900 2329
283 912 2373
94 638 152
93 635 182
90 629 228
71 636 412
72 637 598
87 680 810
104 738 1041
120 798 1283
148 861 1534
183 922 1790
221 984 2038
246 1014 2174
255 1020 2218
263 1029 2262
269 1037 2304
275 1046 2347
282 1058 2391
108 825 175
108 823 207
106 818 239
94 820 375
78 834 579
82 831 776
93 877 1000
103 938 1243
127 1002 1498
163 1068 1757
204 1133 2018
239 1177 2203
250 1184 2249
259 1193 2294
268 1202 2337
273 1211 2381
278 1222 2425
120 1015 199
118 1013 233
116 1009 266
114 1006 343
97 1028 545
86 1040 762
88 1039 965
96 1087 1203
107 1147 1457
136 1215 1721
177 1282 1988
224 1341 2216
239 1353 2279
250 1362 2325
257 1371 2369
263 1380 2413
268 1391 2457
139 1215 226
135 1214 263
130 1209 298
126 1203 336
115 1217 508
93 1250 734
93 1256 954
92 1255 1166
101 1302 1416
117 1370 1682
143 1436 1951
198 1503 2210
221 1525 2308
231 1534 2354
237 1544 2400
244 1553 2446
249 1565 2491
157 1422 241
152 1421 283
147 1418 324
142 1411 363
133 1409 472
111 1440 696
105 1480 936
104 1481 1158
100 1480 1379
112 1533 1645
126 1596 1914
153 1664 2186
184 1703 2337
195 1713 2386
203 1722 2433
211 1732 2478
221 1746 2524
183 1645 251
179 1645 288
175 1645 328
169 1640 375
157 1624 450
137 1634 659
115 1680 904
117 1727 1152
110 1719 1376
110 1718 1609
122 1770 1879
139 1838 2155
152 1890 2360
153 1903 2423
160 1913 2467
166 1922 2512
174 1935 2558
215 1863 281
211 1863 312
207 1863 347
201 1863 387
194 1860 431
171 1838 616
134 1873 868
128 1934 1126
129 1981 1372
120 1968 1606
121 1967 1845
135 2025 2125
150 2083 2372
153 2103 2461
156 2112 2505
159 2121 2550
161 2132 2596
238 2091 314
230 2092 347
222 2092 383
216 2091 422
209 2090 465
201 2084 570
157 2074 826
137 2130 1089
147 2207 1359
138 2243 1610
131 2227 1850
132 2225 2092
148 2288 2376
163 2313 2505
167 2320 2549
170 2328 2593
174 2338 2637
275 2327 358
268 2328 394
262 2328 431
256 2327 469
249 2325 510
241 2321 552
197 2303 784
158 2332 1057
164 2401 1321
160 2483 1603
149 2506 1861
143 2487 2104
145 2484 2343
166 2528 2547
172 2533 2593
177 2539 2635
183 2547 2678
294 2472 388
295 2473 424
293 2474 461
287 2476 499
279 2478 538
270 2479 581
243 2479 725
178 2474 1004
175 2537 1270
175 2622 1548
167 2702 1851
159 2711 2095
159 2696 2342
159 2694 2545
163 2707 2615
168 2719 2662
173 2731 2708
299 2521 397
297 2522 433
295 2523 470
291 2525 509
285 2527 548
277 2529 590
260 2532 681
194 2517 950
176 2573 1222
176 2652 1493
174 2746 1793
163 2783 2067
163 2775 2312
163 2770 2536
163 2770 2621
166 2782 2667
169 2794 2714
305 2569 405
302 2569 442
299 2570 478
295 2572 517
290 2574 557
283 2576 599
268 2578 669
207 2567 912
178 2605 1190
176 2679 1455
176 2774 1753
166 2835 2050
166 2830 2289
159 2822 2520
162 2822 2635
163 2822 2671
163 2834 2717
311 2617 414
308 2617 449
303 2618 487
299 2619 526
294 2622 566
288 2623 608
275 2624 675
213 2614 917
179 2647 1195
176 2721 1459
178 2813 1753
169 2885 2064
169 2883 2297
159 2874 2530
159 2873 2648
159 2873 2684
159 2873 2719
128 49 51
104 74 151
119 123 328
134 173 526
155 229 730
173 281 946
188 340 1174
202 405 1413
225 475 1658
256 542 1908
278 591 2082
284 605 2134
291 618 2179
298 631 2223
303 642 2266
309 654 2309
316 665 2352
80 115 69
85 132 137
104 184 317
119 230 515
139 278 717
155 326 933
170 382 1161
189 448 1401
216 518 1649
254 587 1901
283 640 2096
292 655 2152
299 668 2196
306 681 2240
312 693 2283
319 706 2328
326 718 2371
82 275 101
88 286 143
82 287 279
99 333 474
122 382 677
143 435 896
161 492 1127
180 552 1368
210 616 1619
248 678 1873
280 728 2092
291 739 2161
298 747 2205
306 758 2249
312 767 2291
319 777 2335
326 789 2379
101 450 127
106 461 169
98 459 259
92 461 439
110 506 641
131 558 857
150 614 1087
169 675 1329
200 738 1580
234 799 1835
270 857 2072
286 877 2171
295 884 2215
304 894 2259
311 903 2302
317 913 2346
323 926 2390
122 635 150
125 647 192
123 642 233
103 646 416
103 647 606
118 691 818
136 749 1050
152 809 1294
183 872 1544
220 934 1801
260 995 2050
285 1025 2189
294 1031 2233
301 1040 2277
307 1048 2319
314 1058 2364
321 1070 2408
136 823 172
140 837 215
139 832 248
126 829 379
109 845 585
113 842 784
125 891 1011
135 950 1255
161 1015 1511
200 1081 1770
242 1144 2029
277 1189 2217
288 1196 2265
298 1205 2310
305 1213 2353
311 1224 2398
316 1236 2443
149 1014 195
151 1029 239
148 1026 275
145 1018 350
128 1038 550
117 1053 770
120 1053 976
127 1099 1214
139 1162 1470
171 1229 1734
215 1297 2002
262 1354 2231
278 1367 2297
288 1375 2342
294 1384 2386
301 1394 2431
306 1405 2476
169 1214 217
170 1228 263
165 1226 302
159 1219 344
146 1226 512
124 1259 739
125 1269 964
123 1268 1177
132 1317 1430
148 1385 1696
179 1451 1966
236 1518 2225
259 1541 2327
268 1549 2373
274 1558 2419
281 1569 2465
288 1582 2512
188 1422 229
192 1441 272
186 1439 317
181 1433 360
167 1423 478
142 1451 701
137 1493 943
135 1497 1169
132 1496 1393
143 1548 1658
159 1611 1928
191 1681 2202
222 1720 2356
232 1729 2406
239 1739 2452
248 1751 2500
257 1764 2546
214 1642 249
220 1657 287
216 1658 324
210 1657 367
198 1648 442
171 1644 663
147 1689 909
148 1740 1160
140 1736 1387
142 1734 1623
155 1789 1895
174 1855 2171
185 1908 2379
186 1921 2442
193 1931 2487
199 1942 2534
207 1956 2581
248 1859 279
253 1876 319
249 1876 353
244 1875 390
237 1874 430
211 1859 615
167 1885 873
161 1945 1132
162 1997 1384
152 1986 1621
152 1985 1860
169 2043 2142
184 2100 2389
186 2121 2481
189 2130 2525
192 2141 2573
195 2153 2619
274 2088 311
275 2107 355
266 2108 392
258 2107 428
251 2104 467
243 2105 567
194 2091 831
170 2142 1096
181 2221 1367
173 2263 1626
165 2248 1868
165 2245 2109
182 2306 2392
198 2331 2524
202 2338 2568
206 2347 2614
210 2358 2658
311 2325 355
316 2342 401
309 2342 438
302 2341 475
295 2338 513
287 2335 554
242 2325 783
190 2343 1061
196 2410 1326
195 2494 1611
187 2523 1876
179 2505 2120
181 2501 2358
203 2545 2565
209 2550 2611
216 2556 2654
222 2565 2697
332 2478 385
344 2496 432
341 2497 469
335 2499 507
328 2500 546
319 2500 585
290 2502 723
218 2497 1007
208 2551 1277
209 2635 1555
205 2719 1860
197 2733 2111
197 2718 2357
197 2714 2562
202 2728 2633
207 2741 2682
211 2754 2728
340 2527 394
350 2545 440
346 2546 477
340 2548 516
334 2549 555
326 2551 595
306 2553 680
235 2547 950
210 2587 1228
210 2665 1498
210 2760 1800
201 2805 2082
201 2797 2325
200 2792 2550
201 2792 2639
203 2805 2687
203 2817 2733
347 2575 403
357 2595 449
352 2596 487
345 2598 526
340 2599 565
333 2600 605
318 2601 670
252 2595 912
212 2623 1197
210 2695 1463
212 2788 1758
205 2857 2065
204 2854 2303
191 2845 2535
194 2845 2654
195 2844 2689
195 2856 2736
353 2623 412
363 2643 458
357 2645 497
351 2646 536
345 2647 575
338 2648 614
325 2648 677
260 2640 917
214 2666 1202
211 2739 1468
214 2829 1760
208 2905 2078
207 2907 2312
191 2898 2545
191 2896 2668
191 2896 2703
191 2895 2738
360 80 54
344 82 152
272 128 320
272 175 511
277 229 722
287 282 943
304 343 1173
316 407 1409
337 476 1654
368 542 1899
392 592 2082
394 606 2136
396 619 2180
401 632 2224
404 643 2267
408 654 2309
413 666 2352
309 140 59
312 140 121
252 174 305
251 218 497
256 269 708
271 324 929
286 384 1159
299 449 1397
321 519 1644
354 586 1893
380 641 2095
384 656 2153
387 670 2198
392 682 2241
396 694 2285
400 707 2329
406 719 2373
201 266 100
208 277 141
215 311 292
223 361 496
230 413 708
245 465 929
262 520 1157
277 579 1399
302 638 1645
334 694 1893
364 745 2114
369 756 2186
370 762 2228
375 771 2271
378 780 2313
383 789 2357
390 802 2402
176 438 126
179 449 169
183 474 270
166 479 452
180 523 656
195 573 872
211 628 1101
227 689 1344
251 748 1592
279 805 1843
312 863 2082
328 884 2187
336 890 2231
343 900 2274
350 908 2316
356 919 2361
362 933 2407
155 623 149
159 635 190
161 647 239
139 651 414
137 652 608
150 694 821
168 754 1055
186 813 1298
218 876 1549
257 938 1807
297 998 2055
323 1029 2202
332 1036 2246
340 1045 2290
346 1053 2332
353 1063 2377
360 1076 2423
163 813 170
168 828 212
171 840 255
159 834 377
140 848 585
143 847 787
156 897 1016
166 956 1261
197 1022 1518
237 1085 1776
279 1150 2037
316 1195 2229
327 1203 2280
336 1212 2324
342 1220 2367
347 1230 2412
353 1244 2458
177 1008 191
180 1024 234
182 1037 279
177 1028 352
160 1042 550
147 1061 773
151 1061 982
157 1107 1221
171 1171 1479
207 1238 1743
252 1306 2011
301 1362 2242
318 1376 2313
326 1384 2357
332 1392 2401
338 1402 2446
344 1415 2493
199 1210 207
201 1225 252
202 1238 300
195 1234 344
178 1231 512
155 1265 740
155 1278 969
154 1277 1184
163 1329 1440
181 1396 1706
216 1461 1975
274 1529 2237
298 1552 2344
305 1560 2391
312 1570 2436
319 1580 2483
325 1595 2530
216 1420 219
223 1437 262
226 1453 305
220 1452 350
203 1437 477
174 1457 704
168 1501 947
166 1511 1178
163 1508 1403
175 1561 1670
195 1625 1941
228 1694 2216
259 1734 2374
269 1744 2425
276 1754 2471
284 1765 2518
293 1781 2566
246 1636 247
252 1652 285
258 1666 327
252 1666 365
242 1666 429
207 1654 664
179 1696 913
180 1751 1166
172 1751 1398
173 1747 1634
190 1803 1907
210 1869 2182
218 1922 2395
219 1936 2461
226 1946 2506
233 1957 2553
242 1972 2601
281 1855 277
287 1872 317
290 1887 360
285 1886 396
278 1883 434
252 1879 610
202 1893 876
194 1953 1136
196 2011 1393
186 2002 1633
187 2000 1873
205 2060 2157
217 2116 2405
219 2137 2500
221 2145 2544
225 2156 2591
229 2169 2639
308 2084 309
311 2103 353
311 2120 399
302 2120 437
293 2118 474
285 2118 564
235 2110 831
202 2151 1101
213 2230 1372
208 2278 1638
202 2264 1880
198 2260 2122
216 2320 2404
232 2347 2544
236 2353 2587
241 2361 2632
246 2373 2677
345 2321 352
350 2339 397
354 2355 443
348 2355 481
343 2352 520
334 2348 558
289 2346 779
223 2355 1064
227 2418 1330
230 2503 1617
225 2538 1889
216 2521 2134
216 2516 2371
240 2559 2581
246 2563 2627
253 2570 2671
259 2580 2715
367 2483 384
382 2502 431
393 2520 476
388 2522 515
380 2523 554
371 2523 592
339 2524 718
260 2520 1006
241 2565 1282
243 2647 1559
243 2734 1867
235 2754 2124
235 2739 2370
235 2733 2578
240 2748 2651
244 2760 2698
248 2773 2745
381 2532 394
393 2551 439
399 2569 484
392 2571 523
385 2573 562
378 2574 601
358 2575 680
281 2571 945
243 2603 1231
244 2677 1501
245 2771 1802
239 2825 2093
237 2819 2335
232 2812 2561
234 2813 2657
235 2825 2704
235 2838 2751
389 2580 403
401 2601 449
405 2619 495
398 2621 533
391 2623 572
384 2623 611
372 2624 670
304 2616 907
246 2643 1199
244 2709 1467
247 2800 1761
243 2874 2075
241 2876 2315
222 2866 2546
226 2864 2670
227 2864 2706
227 2877 2753
395 2628 412
407 2649 458
412 2673 504
404 2675 543
396 2676 581
390 2677 620
380 2678 676
312 2668 910
247 2691 1203
245 2759 1474
250 2845 1765
247 2923 2087
245 2929 2325
223 2920 2558
223 2917 2686
223 2917 2721
223 2916 2756
610 117 59
605 105 131
531 154 330
485 185 499
468 230 708
450 285 934
438 346 1175
447 410 1410
466 479 1656
500 546 1898
527 600 2092
530 615 2149
533 628 2193
537 640 2237
540 651 2279
544 662 2321
550 673 2363
577 158 55
573 163 110
521 185 307
460 223 485
440 269 693
428 328 923
419 388 1162
432 453 1398
453 524 1646
488 591 1892
518 648 2103
523 665 2166
526 678 2210
530 690 2252
534 700 2294
539 713 2338
