滤镜资源/Professional Luts Collection/Triune-Digital-Cinematic-LUTs/3D LUTs (3DL)/LOG/Batman vs Superman - LOG.3dl
# Created by Benjamin (IWLTBAP) : http://luts.iwltbap.com
# Copyright: (C) Copyright 2016 Triune Films and IWLTBAP
# Blockbuster LUTs Pack
0 256 512 768 1023
23 41 51
102 229 737
188 478 1667
262 618 2178
286 665 2351
94 638 152
72 637 598
148 861 1534
255 1020 2218
282 1058 2391
157 1422 241
133 1409 472
100 1480 1379
184 1703 2337
221 1746 2524
275 2327 358
249 2325 510
164 2401 1321
145 2484 2343
183 2547 2678
311 2617 414
294 2622 566
179 2647 1195
169 2883 2297
159 2873 2719
888 152 37
725 249 695
626 485 1664
679 638 2210
694 683 2379
513 597 144
509 724 653
530 968 1657
626 1125 2369
638 1159 2541
332 1402 217
338 1467 444
252 1527 1418
345 1750 2407
371 1794 2597
412 2304 355
437 2370 529
285 2420 1325
286 2532 2383
329 2596 2740
484 2638 419
510 2731 589
326 2744 1181
320 2968 2339
285 2949 2785
2244 365 126
2199 410 633
2073 547 1506
2044 722 2266
2020 767 2498
2053 799 64
2163 791 474
1973 953 1502
1908 1121 2521
1854 1126 2751
1479 1411 143
1552 1479 299
1546 1821 1588
1271 2038 2783
1207 2049 2956
1141 2386 310
1183 2465 514
1197 2662 1333
821 2699 2533
845 2735 2916
1003 2765 402
1046 2868 581
1007 3064 1072
647 3116 2405
632 3083 2904
3090 483 156
3085 478 570
2937 666 1454
2948 754 2287
2936 810 2534
3172 854 125
3182 833 439
3135 920 1391
3031 1063 2485
3033 1094 2716
3112 1696 143
3192 1762 264
3398 1900 1317
3156 2112 2829
3141 2135 3116
2717 2503 228
2796 2594 387
2938 2851 1200
2941 3202 2705
2937 3255 3293
2606 3098 293
2678 3183 478
2744 3342 1005
2668 3645 2484
2078 3584 3304
3293 515 172
3305 501 552
3186 660 1416
3164 787 2356
3147 802 2551
3343 842 141
3362 825 408
3341 884 1364
3241 1058 2526
3224 1054 2708
3339 1738 138
3406 1794 269
3598 1875 1273
3450 2122 2799
3421 2089 3103
3292 2541 233
3356 2628 387
3529 2878 1080
3670 3194 2616
3569 3226 3298
3314 3144 296
3367 3217 483
3435 3319 798
3591 3675 2324
3658 3847 3313
