滤镜资源/Professional Luts Collection/Triune-Digital-Cinematic-LUTs/3D LUTs (3DL)/LOG/Breaking Bad - LOG.3dl
# Created by Benjamin (IWLTBAP) : http://luts.iwltbap.com
# Copyright: (C) Copyright 2016 Triune Films and IWLTBAP
# Blockbuster LUTs Pack
0 256 512 768 1023
30 46 45
109 167 675
166 252 1458
197 275 1778
207 286 1885
91 481 144
114 500 524
231 703 1540
303 776 2134
307 759 2223
262 1252 367
256 1245 520
339 1389 1557
457 1588 2457
485 1634 2640
508 2150 624
502 2129 704
538 2248 1536
621 2411 2623
646 2436 2896
593 2465 721
593 2466 801
563 2394 1216
706 2797 2671
743 2840 3061
950 217 205
661 161 630
537 264 1564
522 278 1833
520 286 1926
502 584 155
613 665 686
614 918 2026
608 912 2561
618 926 2706
392 1265 360
409 1317 502
457 1456 1620
567 1664 2561
588 1699 2734
581 2155 613
613 2190 698
624 2289 1525
700 2430 2642
728 2458 2943
686 2500 709
763 2558 797
686 2554 1212
796 2860 2705
829 2898 3114
2634 589 554
2416 505 879
2206 453 1614
2147 457 2200
2105 454 2307
2146 885 500
2523 1080 970
2321 726 1704
1960 624 2289
1892 629 2439
1713 1620 542
1779 1614 632
2082 2072 2074
1882 2285 3175
1812 2363 3379
1304 2393 633
1351 2409 727
1428 2631 1541
1269 2781 2883
1234 2859 3334
1233 2711 727
1305 2763 825
1245 2861 1211
1110 3183 2867
1105 3148 3327
3355 747 710
3164 669 993
2837 574 1623
2841 582 2235
2839 583 2349
3247 1096 739
3432 1132 992
3202 850 1751
2904 717 2286
2928 723 2419
2937 1793 768
3014 1818 866
3436 2298 2108
3414 2089 3012
3409 2166 3261
2481 2607 838
2517 2614 922
2649 2813 1402
3250 3282 3221
3333 3416 3708
2173 3090 901
2212 3108 988
2247 3176 1202
2980 3678 3175
2971 3733 3731
3521 779 743
3343 706 1001
2978 598 1619
2964 600 2247
2962 601 2357
3453 1088 773
3592 1115 996
3328 849 1708
3035 720 2305
3029 713 2408
3171 1803 811
3255 1836 914
3658 2300 2086
3643 2216 3043
3608 2141 3247
2938 2629 901
2986 2624 982
3197 2831 1445
3754 3307 3226
3760 3377 3700
2801 3183 995
2836 3222 1086
2916 3301 1284
3535 3697 2991
3855 3888 3846
