滤镜资源/Professional Luts Collection/Triune-Digital-Cinematic-LUTs/3D LUTs (3DL)/LOG/Breaking Bad - LOG.3dl
# Created by Benjamin (IWLTBAP) : http://luts.iwltbap.com
# Copyright: (C) Copyright 2016 Triune Films and IWLTBAP
# Blockbuster LUTs Pack
0 64 128 192 256 320 384 448 512 576 640 704 768 832 896 960 1023
30 46 45
38 54 119
58 78 265
91 117 447
109 167 675
100 192 897
115 209 1096
139 230 1279
166 252 1458
186 267 1630
194 273 1727
196 274 1755
197 275 1778
199 277 1803
202 280 1830
205 283 1858
207 286 1885
37 103 55
37 99 100
55 118 237
86 157 418
116 203 630
110 233 856
112 245 1069
141 262 1266
169 282 1450
191 300 1633
202 308 1750
204 309 1780
206 310 1804
208 312 1828
211 314 1855
214 317 1883
217 320 1910
51 211 77
51 209 104
54 208 212
83 242 389
120 293 600
125 341 854
133 359 1081
166 381 1299
193 408 1506
209 415 1677
220 415 1812
222 405 1844
223 398 1862
225 396 1886
228 397 1914
231 399 1943
234 404 1974
72 337 106
72 334 133
74 333 208
82 342 356
116 388 557
143 451 822
152 487 1077
186 523 1317
214 562 1548
242 597 1772
259 605 1941
261 594 1987
260 584 2004
261 581 2026
263 577 2049
265 575 2074
267 576 2101
91 481 144
93 478 170
94 474 207
96 484 353
114 500 524
159 559 771
167 608 1037
200 657 1295
231 703 1540
261 742 1779
294 782 2018
303 786 2116
303 776 2134
303 769 2154
304 764 2176
305 759 2199
307 759 2223
129 651 194
128 649 217
127 644 240
128 645 350
142 663 533
172 694 751
186 744 1007
218 799 1277
252 853 1535
282 897 1779
316 947 2030
336 977 2189
340 977 2222
343 979 2254
346 980 2285
348 978 2312
350 978 2339
179 844 250
178 842 274
177 839 298
175 832 358
181 839 528
197 882 774
209 906 1002
241 962 1274
277 1018 1543
307 1058 1786
344 1125 2044
371 1175 2249
375 1178 2298
379 1182 2333
384 1187 2369
388 1192 2405
393 1200 2442
214 1040 300
213 1038 323
212 1035 347
211 1030 375
211 1023 511
228 1066 756
254 1117 1032
274 1147 1283
304 1190 1546
336 1238 1795
371 1300 2048
405 1369 2296
418 1390 2389
422 1396 2428
427 1401 2466
431 1406 2504
437 1413 2542
262 1252 367
262 1252 389
261 1250 412
259 1246 434
256 1245 520
262 1250 718
300 1322 1033
319 1366 1323
339 1389 1557
369 1433 1800
402 1484 2049
434 1541 2301
457 1588 2457
464 1600 2506
471 1612 2551
478 1622 2596
485 1634 2640
326 1478 434
325 1478 456
324 1477 478
323 1473 500
321 1472 543
316 1460 707
338 1502 976
369 1583 1323
383 1613 1590
408 1644 1821
439 1686 2066
465 1725 2308
492 1772 2501
503 1790 2565
511 1803 2613
518 1816 2660
526 1832 2708
385 1692 493
385 1691 514
384 1690 536
383 1688 558
381 1684 580
377 1681 697
379 1677 926
414 1770 1259
435 1834 1607
456 1870 1865
480 1900 2095
505 1929 2329
529 1963 2540
540 1979 2622
546 1991 2668
553 2003 2715
560 2019 2764
445 1913 555
444 1910 576
443 1908 597
442 1904 619
440 1900 640
436 1895 695
430 1879 884
453 1950 1199
492 2053 1587
512 2099 1903
531 2134 2143
550 2153 2360
571 2179 2586
582 2193 2697
587 2198 2737
592 2204 2779
598 2216 2823
508 2150 624
508 2146 644
506 2141 663
504 2135 683
502 2129 704
500 2122 726
489 2107 863
492 2118 1129
538 2248 1536
568 2322 1900
591 2374 2184
606 2398 2410
621 2411 2623
635 2427 2781
638 2429 2821
642 2431 2858
646 2436 2896
550 2302 672
550 2302 692
550 2302 712
550 2301 732
550 2300 753
548 2299 775
543 2292 855
524 2247 1038
548 2320 1382
604 2471 1848
632 2541 2176
652 2596 2443
667 2621 2669
683 2633 2850
689 2638 2905
693 2642 2943
697 2648 2980
565 2356 688
565 2356 708
565 2356 728
565 2357 748
565 2357 769
565 2357 790
562 2355 838
542 2314 999
546 2326 1279
605 2490 1749
643 2591 2136
666 2654 2416
681 2694 2660
701 2713 2862
709 2720 2941
713 2725 2978
717 2731 3016
579 2410 704
579 2410 724
579 2410 744
579 2411 764
579 2411 785
579 2412 805
578 2411 841
561 2379 984
552 2352 1218
602 2495 1660
650 2629 2104
675 2694 2394
693 2744 2651
711 2765 2860
722 2776 2967
726 2780 3001
730 2785 3038
593 2465 721
593 2465 741
593 2465 761
593 2465 781
593 2466 801
593 2466 821
593 2465 854
577 2435 997
563 2394 1216
608 2524 1641
661 2673 2108
686 2742 2406
706 2797 2671
724 2819 2881
736 2831 2992
739 2836 3026
743 2840 3061
102 57 52
99 56 115
114 74 261
143 114 447
155 157 667
152 181 885
159 203 1081
176 224 1263
194 245 1437
209 260 1606
213 266 1709
213 268 1738
215 269 1762
217 271 1788
220 274 1816
223 277 1844
225 280 1871
80 104 56
81 100 100
98 119 242
130 158 432
145 206 671
143 233 906
157 248 1113
181 274 1308
200 294 1481
218 307 1646
229 318 1774
232 321 1810
234 322 1834
237 327 1865
242 333 1899
244 336 1927
247 340 1954
77 208 76
79 209 106
83 208 211
112 242 390
149 298 612
152 346 871
164 365 1097
195 387 1313
219 411 1515
233 414 1679
245 415 1823
248 410 1865
249 403 1886
252 406 1916
256 411 1950
258 412 1976
261 416 2005
96 333 105
98 337 135
100 334 207
109 344 358
147 396 568
172 463 846
185 504 1107
217 542 1346
245 581 1578
271 611 1798
286 615 1961
287 603 2008
286 592 2023
288 589 2047
290 588 2073
292 586 2097
294 587 2125
116 480 144
120 486 174
121 482 207
124 489 355
145 508 534
187 575 795
199 629 1069
233 681 1332
263 729 1578
292 764 1816
321 800 2044
330 804 2144
330 792 2162
331 789 2185
333 787 2211
334 782 2234
336 782 2259
155 651 194
159 660 222
158 656 246
156 651 352
170 673 540
199 706 766
215 761 1031
248 820 1307
282 876 1568
313 922 1814
344 969 2056
363 999 2217
367 1000 2252
370 1002 2285
374 1006 2319
376 1004 2345
378 1003 2372
204 846 251
206 854 276
205 851 300
203 843 359
207 850 534
224 894 785
238 922 1020
269 976 1295
304 1034 1567
336 1083 1815
371 1148 2068
396 1194 2274
401 1198 2326
406 1203 2362
410 1210 2399
415 1215 2436
420 1223 2473
240 1044 302
243 1053 328
242 1050 352
240 1045 379
239 1041 518
255 1082 765
281 1134 1050
301 1161 1301
331 1208 1566
364 1263 1821
398 1322 2070
431 1390 2319
444 1411 2416
448 1416 2455
453 1423 2493
458 1428 2531
463 1435 2569
288 1257 368
293 1269 394
292 1268 417
290 1263 440
287 1264 524
289 1267 725
326 1339 1049
344 1383 1338
363 1404 1571
395 1452 1819
427 1502 2068
458 1557 2320
482 1607 2480
490 1618 2529
496 1629 2574
503 1640 2618
510 1651 2661
349 1482 434
352 1490 457
352 1489 479
351 1486 502
350 1487 544
343 1478 709
361 1510 979
393 1598 1336
406 1626 1603
431 1656 1835
460 1695 2076
487 1734 2317
516 1786 2519
526 1805 2585
534 1818 2631
541 1831 2679
549 1846 2727
407 1697 493
409 1706 515
409 1705 537
408 1702 560
407 1698 582
404 1700 697
403 1693 926
437 1786 1271
460 1850 1620
478 1881 1878
501 1909 2106
525 1936 2336
551 1975 2554
561 1992 2639
567 2002 2684
574 2015 2731
582 2031 2779
464 1921 555
468 1930 577
467 1927 598
466 1923 620
465 1917 641
462 1911 694
457 1902 886
475 1963 1204
516 2072 1597
534 2112 1912
552 2144 2151
571 2161 2368
592 2188 2595
603 2203 2711
607 2207 2750
612 2213 2792
618 2225 2836
527 2155 622
531 2166 644
530 2162 664
528 2156 683
526 2149 704
524 2142 726
517 2131 862
516 2137 1130
561 2264 1541
591 2338 1909
611 2383 2191
626 2406 2418
641 2418 2631
655 2435 2793
658 2434 2831
661 2436 2868
666 2442 2906
569 2310 669
573 2327 692
573 2327 712
573 2327 732
573 2325 753
573 2323 776
570 2317 852
555 2285 1039
573 2345 1392
628 2494 1856
654 2559 2186
673 2610 2454
687 2633 2678
704 2644 2862
709 2648 2918
713 2653 2955
717 2658 2992
583 2364 686
587 2381 708
587 2381 728
588 2381 748
588 2382 770
588 2382 792
588 2379 839
573 2352 997
575 2361 1291
631 2517 1760
666 2615 2148
688 2670 2429
702 2705 2668
721 2725 2871
730 2733 2955
735 2739 2993
739 2745 3030
597 2419 702
605 2436 723
604 2437 743
604 2437 764
603 2438 787
602 2438 809
602 2437 842
591 2413 981
581 2389 1227
628 2523 1672
675 2654 2114
697 2711 2407
714 2757 2659
732 2777 2868
744 2789 2980
747 2793 3014
751 2799 3052
611 2474 719
620 2492 739
620 2492 759
618 2492 780
617 2493 803
616 2493 825
616 2492 856
607 2470 993
592 2433 1225
634 2552 1653
685 2697 2117
708 2759 2419
727 2809 2678
745 2830 2889
757 2845 3004
760 2849 3039
764 2854 3073
267 89 77
256 84 132
233 81 258
251 113 446
260 158 671
257 172 874
262 186 1065
269 213 1242
280 236 1408
290 252 1569
292 258 1676
288 259 1706
285 259 1730
284 261 1755
285 263 1783
286 266 1812
289 269 1841
231 126 74
233 122 112
214 115 239
234 146 432
245 189 679
252 210 900
259 231 1104
270 262 1290
280 280 1450
287 289 1599
292 299 1728
290 303 1767
288 304 1792
289 309 1823
292 316 1859
293 319 1889
296 322 1918
182 228 76
183 225 106
191 225 222
220 263 426
239 324 698
249 363 990
271 393 1233
283 411 1424
298 428 1615
296 415 1723
300 415 1854
301 414 1909
300 411 1938
302 413 1970
305 420 2008
309 427 2044
313 433 2077
163 341 103
164 339 134
168 343 207
174 356 370
210 416 598
224 484 891
241 531 1158
264 559 1378
282 589 1599
299 609 1802
309 609 1957
310 598 2013
308 587 2028
310 585 2053
312 586 2083
315 587 2112
318 588 2140
147 475 142
150 481 173
152 486 206
154 488 351
173 510 536
215 583 810
229 646 1097
264 700 1362
293 748 1611
321 782 1847
347 814 2068
356 815 2169
355 803 2188
356 798 2211
359 799 2241
362 798 2268
364 797 2293
179 646 192
183 655 221
187 662 250
182 651 348
195 674 540
224 713 775
243 774 1051
278 838 1334
310 895 1597
342 945 1847
370 988 2081
390 1017 2244
393 1018 2281
397 1020 2315
401 1026 2350
404 1026 2380
406 1026 2406
227 843 250
230 852 275
233 858 302
230 850 356
232 854 534
249 902 790
264 933 1033
295 989 1313
330 1048 1588
364 1104 1841
397 1168 2091
422 1213 2298
428 1217 2354
432 1222 2391
437 1230 2429
442 1236 2467
447 1244 2503
265 1045 303
268 1054 329
270 1061 355
268 1057 381
265 1052 517
280 1094 770
308 1149 1064
326 1174 1318
356 1223 1583
392 1287 1845
424 1343 2092
457 1409 2341
470 1430 2443
474 1435 2481
479 1443 2520
484 1448 2558
490 1456 2596
312 1258 367
316 1270 393
321 1280 419
318 1277 443
316 1280 525
316 1284 729
352 1355 1060
369 1399 1354
387 1417 1584
420 1469 1838
452 1520 2087
482 1575 2339
508 1625 2504
516 1638 2556
523 1648 2599
529 1657 2641
535 1669 2684
371 1483 432
374 1491 455
378 1500 478
377 1498 501
377 1500 541
372 1500 710
383 1519 980
417 1613 1348
430 1639 1614
454 1666 1846
482 1704 2086
508 1742 2325
539 1800 2537
550 1819 2605
557 1832 2651
564 1844 2698
572 1859 2746
427 1701 492
430 1710 515
433 1719 538
433 1716 561
432 1712 583
431 1716 695
426 1706 921
459 1795 1274
483 1865 1631
500 1891 1888
523 1917 2116
545 1942 2341
572 1984 2566
584 2003 2656
589 2014 2700
596 2026 2747
603 2042 2795
484 1926 555
487 1935 577
490 1943 599
489 1940 620
488 1934 642
487 1926 692
484 1925 885
497 1976 1207
540 2088 1607
556 2125 1920
574 2152 2160
592 2169 2375
612 2196 2603
625 2213 2726
629 2216 2765
633 2222 2805
639 2234 2849
545 2159 620
549 2170 642
554 2179 664
553 2175 684
551 2168 704
549 2160 726
544 2150 858
541 2158 1127
584 2277 1543
614 2353 1916
632 2391 2197
646 2412 2423
660 2423 2636
675 2441 2804
678 2440 2842
681 2441 2878
685 2446 2916
588 2318 667
595 2335 688
604 2351 710
605 2352 731
603 2351 752
602 2348 775
597 2342 847
585 2322 1036
600 2370 1396
653 2517 1861
677 2578 2195
694 2622 2463
708 2645 2687
725 2655 2874
730 2659 2930
734 2663 2966
738 2668 3004
602 2373 684
609 2389 705
617 2405 727
618 2406 747
616 2407 769
617 2407 792
613 2404 838
603 2385 992
603 2394 1294
656 2540 1764
691 2639 2157
710 2686 2439
723 2719 2676
742 2737 2879
752 2747 2969
756 2752 3006
760 2758 3044
617 2428 700
627 2445 720
634 2460 742
634 2461 763
632 2462 785
632 2462 808
631 2462 841
621 2446 975
610 2426 1230
655 2551 1680
700 2681 2125
719 2730 2418
735 2770 2667
752 2788 2875
765 2802 2993
768 2807 3028
773 2813 3066
631 2483 717
642 2501 737
653 2517 757
652 2518 778
648 2518 800
646 2519 825
644 2519 856
635 2501 987
623 2473 1227
661 2580 1662
709 2722 2126
731 2778 2431
749 2823 2686
765 2842 2895
778 2858 3017
781 2863 3052
785 2867 3086
535 144 117
530 137 159
479 126 282
412 117 432
415 153 649
392 174 861
384 185 1085
391 211 1283
393 230 1428
395 246 1570
396 257 1683
393 260 1716
390 262 1740
390 264 1766
390 267 1794
390 270 1822
393 273 1850
475 167 103
494 169 139
461 154 257
403 149 424
407 186 659
385 206 883
375 222 1107
385 250 1310
388 270 1458
391 283 1596
396 298 1730
395 304 1773
393 306 1797
394 310 1827
395 316 1861
396 319 1889
