滤镜资源/Professional Luts Collection/Triune-Digital-Cinematic-LUTs/3D LUTs (3DL)/LOG/Breaking Bad - LOG.3dl
# Created by Benjamin (IWLTBAP) : http://luts.iwltbap.com
# Copyright: (C) Copyright 2016 Triune Films and IWLTBAP
# Blockbuster LUTs Pack
0 128 256 384 512 640 768 896 1023
30 46 45
58 78 265
109 167 675
115 209 1096
166 252 1458
194 273 1727
197 275 1778
202 280 1830
207 286 1885
51 211 77
54 208 212
120 293 600
133 359 1081
193 408 1506
220 415 1812
223 398 1862
228 397 1914
234 404 1974
91 481 144
94 474 207
114 500 524
167 608 1037
231 703 1540
294 782 2018
303 776 2134
304 764 2176
307 759 2223
179 844 250
177 839 298
181 839 528
209 906 1002
277 1018 1543
344 1125 2044
375 1178 2298
384 1187 2369
393 1200 2442
262 1252 367
261 1250 412
256 1245 520
300 1322 1033
339 1389 1557
402 1484 2049
457 1588 2457
471 1612 2551
485 1634 2640
385 1692 493
384 1690 536
381 1684 580
379 1677 926
435 1834 1607
480 1900 2095
529 1963 2540
546 1991 2668
560 2019 2764
508 2150 624
506 2141 663
502 2129 704
489 2107 863
538 2248 1536
591 2374 2184
621 2411 2623
638 2429 2821
646 2436 2896
565 2356 688
565 2356 728
565 2357 769
562 2355 838
546 2326 1279
643 2591 2136
681 2694 2660
709 2720 2941
717 2731 3016
593 2465 721
593 2465 761
593 2466 801
593 2465 854
563 2394 1216
661 2673 2108
706 2797 2671
736 2831 2992
743 2840 3061
267 89 77
233 81 258
260 158 671
262 186 1065
280 236 1408
292 258 1676
285 259 1730
285 263 1783
289 269 1841
182 228 76
191 225 222
239 324 698
271 393 1233
298 428 1615
300 415 1854
300 411 1938
305 420 2008
313 433 2077
147 475 142
152 486 206
173 510 536
229 646 1097
293 748 1611
347 814 2068
355 803 2188
359 799 2241
364 797 2293
227 843 250
233 858 302
232 854 534
264 933 1033
330 1048 1588
397 1168 2091
428 1217 2354
437 1230 2429
447 1244 2503
312 1258 367
321 1280 419
316 1280 525
352 1355 1060
387 1417 1584
452 1520 2087
508 1625 2504
523 1648 2599
535 1669 2684
427 1701 492
433 1719 538
432 1712 583
426 1706 921
483 1865 1631
523 1917 2116
572 1984 2566
589 2014 2700
603 2042 2795
545 2159 620
554 2179 664
551 2168 704
544 2150 858
584 2277 1543
632 2391 2197
660 2423 2636
678 2440 2842
685 2446 2916
602 2373 684
617 2405 727
616 2407 769
613 2404 838
603 2394 1294
691 2639 2157
723 2719 2676
752 2747 2969
760 2758 3044
631 2483 717
653 2517 757
648 2518 800
644 2519 856
623 2473 1227
709 2722 2126
749 2823 2686
778 2858 3017
785 2867 3086
950 217 205
911 210 342
661 161 630
582 191 1081
537 264 1564
531 277 1792
522 278 1833
520 281 1877
520 286 1926
737 315 171
890 340 314
723 283 670
582 308 1174
513 350 1577
508 351 1816
502 348 1888
505 359 1954
508 369 2016
502 584 155
524 583 206
613 665 686
575 817 1408
614 918 2026
617 923 2453
608 912 2561
608 909 2620
618 926 2706
410 898 253
416 900 301
443 966 556
459 1082 1183
522 1236 1786
580 1353 2306
587 1359 2551
591 1367 2625
601 1389 2705
392 1265 360
398 1281 409
409 1317 502
429 1396 1084
457 1456 1620
517 1562 2137
567 1664 2561
578 1682 2654
588 1699 2734
466 1698 487
473 1717 533
479 1731 580
476 1732 899
530 1885 1639
565 1925 2124
614 1996 2584
635 2035 2739
649 2062 2831
581 2155 613
597 2176 655
613 2190 698
593 2176 835
624 2289 1525
674 2407 2204
700 2430 2642
722 2453 2870
728 2458 2943
646 2389 679
685 2421 721
727 2452 767
688 2453 826
661 2460 1278
740 2689 2168
770 2755 2694
797 2778 2998
804 2786 3069
686 2500 709
727 2531 752
763 2558 797
740 2563 843
686 2554 1212
760 2779 2139
796 2860 2705
821 2887 3043
829 2898 3114
1854 412 373
1839 397 478
1529 305 736
1289 236 1038
1273 295 1612
1112 354 2036
1020 356 2097
965 359 2144
933 363 2196
1601 460 335
1827 516 461
1687 439 782
1306 301 1049
1162 328 1560
1012 394 2000
906 398 2087
889 407 2153
872 413 2215
1340 708 310
1417 729 375
1709 892 836
1663 790 1350
1413 692 1849
1118 679 2233
979 680 2377
953 682 2437
956 695 2526
1089 1069 324
1130 1070 373
1213 1109 542
1349 1373 1411
1310 1534 2093
1215 1624 2680
1083 1640 3029
1078 1665 3110
1088 1697 3185
872 1438 369
902 1448 417
935 1454 479
1046 1657 1147
955 1767 1861
956 1909 2456
941 2004 2951
940 2020 3053
946 2044 3141
795 1808 478
824 1811 517
846 1813 560
830 1880 848
805 2088 1742
791 2096 2260
840 2206 2801
851 2232 2961
861 2249 3045
759 2189 603
793 2210 648
819 2221 691
837 2247 803
724 2349 1486
772 2486 2253
780 2461 2670
805 2497 2936
813 2510 3018
738 2413 676
794 2452 723
849 2490 771
859 2503 821
718 2523 1228
791 2741 2159
820 2800 2707
845 2817 3033
853 2829 3107
765 2518 706
821 2556 754
873 2591 801
888 2606 849
742 2616 1187
808 2824 2119
848 2913 2719
869 2929 3075
875 2935 3148
2634 589 554
2612 565 623
2416 505 879
2226 450 1191
2206 453 1614
2216 469 2110
2147 457 2200
2122 455 2253
2105 454 2307
2469 625 524
2590 648 602
2508 593 897
2245 507 1189
2120 472 1559
2140 495 2077
2056 483 2195
2024 479 2249
1993 478 2305
2146 885 500
2221 920 566
2523 1080 970
2511 955 1423
2321 726 1704
2096 646 2104
1960 624 2289
1916 621 2355
1892 629 2439
1923 1212 499
1971 1223 552
2065 1286 702
2345 1586 1501
2353 1505 2037
2220 1316 2526
2064 1174 2838
2024 1229 2927
1988 1310 3017
1713 1620 542
1751 1625 588
1779 1614 632
1862 1768 1052
2082 2072 2074
2019 2213 2681
1882 2285 3175
1826 2319 3290
1812 2363 3379
1406 2012 562
1443 2022 611
1476 2025 659
1534 2052 844
1693 2363 1868
1668 2449 2486
1549 2560 3066
1498 2602 3278
1501 2632 3374
1304 2393 633
1328 2402 679
1351 2409 727
1391 2428 820
1428 2631 1541
1295 2807 2422
1269 2781 2883
1235 2836 3237
1234 2859 3334
1249 2627 703
1280 2650 752
1313 2673 802
1334 2687 849
1289 2795 1237
1116 3042 2245
1117 3105 2886
1114 3064 3233
1124 3084 3321
1233 2711 727
1268 2738 776
1305 2763 825
1328 2779 871
1245 2861 1211
1087 3084 2164
1110 3183 2867
1107 3159 3253
1105 3148 3327
3213 720 677
3192 698 728
3010 640 990
2816 576 1268
2718 557 1645
2717 563 2089
2710 563 2229
2703 563 2286
2697 562 2341
3156 774 670
3199 783 727
3120 727 1013
2886 647 1284
2713 600 1619
2687 597 2056
2677 596 2230
2669 596 2286
2659 594 2340
2889 1071 670
2954 1091 731
3140 1122 991
3149 994 1443
2942 832 1756
2710 730 2041
2688 717 2285
2684 714 2350
2673 711 2414
2628 1352 643
2668 1369 695
2741 1434 813
3022 1691 1560
3054 1637 2074
2956 1314 2396
2840 1052 2618
2828 1062 2714
2827 1096 2824
2418 1707 670
2449 1722 716
2476 1730 761
2560 1917 1174
2871 2246 2144
2868 2188 2632
2754 2057 3095
2739 2084 3218
2735 2167 3318
2157 2112 696
2188 2132 744
2213 2142 790
2279 2168 944
2420 2459 1741
2650 2669 2650
2652 2801 3213
2656 2879 3457
2682 2917 3543
1914 2583 764
1938 2587 806
1962 2586 849
1985 2571 909
1955 2737 1349
2365 2997 2504
2290 3054 3062
2282 3140 3441
2300 3169 3537
1667 2863 790
1680 2873 833
1697 2883 877
1714 2887 921
1787 2951 1168
2037 3288 2386
1939 3396 3021
1878 3408 3460
1915 3435 3557
1641 2936 805
1659 2947 849
1680 2958 895
1705 2968 941
1769 3021 1155
1891 3343 2344
1853 3474 3004
1783 3502 3472
1813 3507 3570
3355 747 710
3337 729 757
3164 669 993
2908 585 1231
2837 574 1623
2839 580 2059
2841 582 2235
2841 582 2294
2839 583 2349
3361 818 719
3397 828 773
3305 763 997
3062 680 1275
2903 635 1623
2849 620 2032
2844 620 2239
2845 621 2297
2843 622 2352
3247 1096 739
3303 1097 794
3432 1132 992
3429 983 1422
3202 850 1751
2970 745 2045
2904 717 2286
2916 718 2354
2928 723 2419
3081 1435 747
3120 1448 795
3184 1473 871
3453 1728 1519
3522 1698 2057
3400 1392 2394
3213 1105 2613
3218 1123 2701
3237 1153 2792
2937 1793 768
2978 1806 817
3014 1818 866
3131 2007 1211
3436 2298 2108
3493 2277 2632
3414 2089 3012
3403 2094 3160
3409 2166 3261
2738 2195 796
2757 2198 837
2777 2201 880
2828 2254 1018
3070 2566 1802
3360 2799 2687
3365 2799 3171
3345 2837 3427
3339 2876 3514
2481 2607 838
2500 2613 881
2517 2614 922
2530 2601 968
2649 2813 1402
2939 3076 2385
3250 3282 3221
3309 3383 3629
3333 3416 3708
2247 2996 890
2266 3002 933
2284 3011 977
2296 3021 1022
2323 3076 1214
2563 3364 2085
3038 3586 3163
3008 3628 3612
3084 3663 3723
2173 3090 901
2193 3097 943
2212 3108 988
2223 3122 1034
2247 3176 1202
2502 3428 2018
2980 3678 3175
2963 3723 3617
2971 3733 3731
3437 762 726
3410 744 770
3261 689 998
2991 602 1227
2906 585 1615
2899 589 2049
2902 591 2239
2901 591 2297
2901 592 2353
3450 837 740
3474 844 790
3390 782 989
3153 699 1272
2985 652 1619
2913 630 2024
2906 629 2243
2909 631 2303
2908 631 2358
3360 1084 757
3410 1083 811
3515 1113 987
3488 952 1383
3261 843 1721
3035 741 2030
2969 714 2294
2967 710 2349
2972 711 2408
3189 1441 766
3234 1455 819
3290 1477 883
3540 1700 1491
3600 1660 2022
3483 1403 2384
3306 1124 2627
3283 1103 2695
3301 1132 2782
3076 1790 792
3115 1804 840
3155 1822 892
3294 1992 1207
3573 2289 2079
3635 2265 2587
3556 2131 3009
3529 2046 3138
3541 2113 3233
2968 2197 835
2997 2202 879
3031 2207 926
3094 2250 1038
3320 2539 1708
3629 2803 2649
3658 2841 3177
3634 2847 3432
3624 2886 3525
2848 2634 890
2868 2633 929
2891 2631 969
2920 2628 1012
3093 2829 1435
3405 3109 2349
3690 3305 3223
3699 3366 3630
3700 3385 3701
2735 3054 961
2750 3070 1005
2765 3083 1048
2780 3094 1092
2849 3162 1277
3115 3433 2078
3463 3588 3015
3747 3784 3736
3774 3798 3834
2684 3156 976
2696 3175 1020
2710 3194 1065
2725 3213 1112
2782 3280 1265
2994 3506 1997
3374 3699 3032
3717 3860 3709
3730 3867 3827
3521 779 743
3487 759 784
3343 706 1001
3084 622 1238
2978 598 1619
2961 598 2051
2964 600 2247
2963 601 2303
2962 601 2357
3532 853 757
3552 862 810
3467 799 991
3249 720 1286
3066 667 1627
2976 639 2025
2968 638 2250
2971 640 2309
2970 641 2363
3453 1088 773
3502 1086 827
3592 1115 996
3551 950 1372
3328 849 1708
3103 747 2030
3035 720 2305
3029 714 2354
3029 713 2408
3296 1466 792
3344 1482 845
3390 1506 905
3618 1704 1492
3673 1661 2016
3562 1448 2404
3403 1174 2667
3379 1151 2735
3369 1155 2801
3171 1803 811
3209 1820 861
3255 1836 914
3390 2004 1223
3658 2300 2086
3713 2272 2579
3643 2216 3043
3616 2146 3178
3608 2141 3247
3064 2202 853
3094 2208 897
3127 2216 945
3190 2252 1049
3431 2560 1749
3704 2819 2665
3725 2859 3185
3700 2883 3460
3697 2889 3530
2938 2629 901
2960 2626 940
2986 2624 982
3018 2625 1027
3197 2831 1445
3500 3122 2357
3754 3307 3226
3766 3376 3644
3760 3377 3700
2836 3070 976
2854 3087 1020
2874 3100 1065
2898 3109 1111
2984 3192 1308
3261 3440 2111
3597 3601 3029
3834 3783 3738
3853 3785 3833
2801 3183 995
2818 3204 1039
2836 3222 1086
2856 3239 1134
2916 3301 1284
3178 3525 2040
3535 3697 2991
3782 3841 3659
3855 3888 3846
