滤镜资源/Professional Luts Collection/Triune-Digital-Cinematic-LUTs/3D LUTs (3DL)/LOG/Captain America Civil War - LOG.3dl
# Created by Benjamin (IWLTBAP) : http://luts.iwltbap.com
# Copyright: (C) Copyright 2016 Triune Films and IWLTBAP
# Blockbuster LUTs Pack
0 64 128 192 256 320 384 448 512 576 640 704 768 832 896 960 1023
5 7 1
8 10 87
12 21 251
19 40 518
15 89 842
30 134 1158
86 140 1530
136 129 1961
181 134 2349
223 162 2776
253 187 3094
270 207 3203
298 240 3292
332 273 3362
364 293 3415
399 312 3465
434 331 3516
15 96 13
15 94 71
19 104 226
19 120 465
12 158 790
23 190 1112
71 186 1478
121 169 1914
167 167 2311
211 192 2730
248 231 3085
267 257 3202
294 291 3290
329 323 3360
363 343 3413
397 361 3464
432 379 3515
18 276 26
19 273 65
22 272 204
24 290 406
11 342 719
13 394 1035
50 412 1377
105 387 1804
140 331 2245
181 307 2669
237 360 3055
269 401 3190
296 432 3278
329 458 3348
359 466 3403
393 474 3457
429 486 3511
6 492 34
7 486 72
10 483 184
15 484 387
9 520 651
2 574 957
16 620 1270
65 622 1656
116 589 2122
156 567 2551
205 620 2951
239 675 3114
261 700 3191
291 716 3261
328 715 3328
370 713 3395
408 719 3455
0 729 52
0 725 95
1 719 157
2 716 392
1 725 626
0 757 899
2 799 1200
12 843 1525
49 848 1941
108 782 2403
152 817 2821
200 895 3049
225 924 3129
257 942 3202
290 943 3266
328 943 3329
366 947 3391
0 983 104
0 978 147
0 970 191
0 964 383
1 967 648
0 979 907
1 987 1163
2 1032 1464
25 1097 1841
83 1089 2228
123 1050 2677
197 1100 3028
229 1131 3125
262 1145 3206
289 1142 3267
324 1136 3333
360 1136 3396
0 1239 169
0 1235 213
0 1230 260
0 1225 377
1 1214 657
0 1218 931
0 1216 1180
1 1233 1448
39 1304 1788
105 1372 2148
158 1414 2562
214 1440 2975
242 1458 3109
270 1457 3190
295 1432 3258
324 1401 3327
354 1385 3395
4 1526 256
3 1521 304
2 1515 352
1 1506 410
1 1490 653
1 1475 943
2 1481 1217
17 1486 1477
68 1532 1768
123 1612 2096
153 1677 2468
195 1757 2886
235 1799 3080
262 1807 3153
283 1800 3209
308 1788 3265
334 1777 3322
39 1829 363
36 1823 414
32 1817 466
28 1809 518
20 1796 665
19 1771 950
38 1773 1244
73 1779 1509
110 1812 1776
144 1881 2088
164 1912 2407
205 1991 2819
256 2058 3090
278 2069 3165
295 2070 3219
315 2071 3272
338 2073 3324
80 2144 480
78 2137 525
76 2133 573
74 2126 620
76 2121 699
81 2112 945
97 2096 1240
122 2098 1516
146 2119 1785
175 2164 2092
198 2175 2395
232 2215 2758
303 2302 3093
334 2322 3189
347 2322 3241
361 2322 3291
377 2327 3341
160 2462 592
159 2456 636
157 2450 680
155 2442 725
154 2435 767
158 2433 947
164 2425 1210
175 2413 1501
203 2427 1794
230 2443 2097
250 2445 2399
287 2473 2742
359 2546 3090
405 2580 3227
417 2578 3274
430 2576 3322
444 2579 3369
251 2743 684
250 2737 728
250 2731 773
249 2724 817
248 2718 857
250 2713 948
257 2710 1187
265 2712 1468
271 2701 1781
292 2715 2102
314 2726 2421
348 2742 2744
431 2811 3104
498 2860 3300
507 2854 3342
516 2848 3385
526 2846 3428
297 3031 767
297 3025 811
297 3019 854
297 3013 897
298 3007 937
298 3003 973
307 3002 1175
319 3008 1431
328 2990 1754
342 2993 2094
383 3030 2445
421 3030 2758
505 3079 3102
593 3151 3383
601 3146 3432
609 3142 3478
616 3141 3522
322 3213 831
323 3208 875
323 3203 917
324 3199 960
325 3198 1001
328 3198 1040
335 3200 1166
355 3214 1422
376 3214 1720
396 3215 2068
445 3256 2421
501 3278 2755
566 3305 3086
660 3404 3438
674 3408 3518
681 3407 3566
688 3408 3615
336 3269 857
337 3265 903
338 3260 947
339 3256 990
341 3255 1031
344 3257 1070
350 3260 1151
368 3272 1393
394 3286 1677
413 3286 2016
458 3320 2367
517 3352 2705
582 3383 3046
667 3471 3410
694 3499 3550
702 3500 3598
709 3502 3647
353 3324 885
353 3320 931
354 3315 976
355 3312 1021
357 3311 1061
360 3313 1100
365 3316 1162
382 3325 1380
410 3347 1656
430 3343 1981
470 3372 2332
529 3410 2672
595 3438 3018
670 3513 3375
707 3558 3571
714 3560 3619
722 3561 3667
369 3379 914
370 3375 959
371 3370 1004
372 3367 1051
374 3366 1093
377 3369 1131
382 3373 1191
400 3383 1407
430 3406 1679
451 3402 1998
492 3432 2347
549 3467 2683
613 3500 3034
684 3573 3395
720 3617 3592
731 3618 3638
737 3620 3687
130 41 25
121 20 94
102 21 252
94 39 526
86 86 835
98 132 1156
152 140 1514
200 130 1929
235 134 2333
271 161 2758
299 186 3080
315 203 3187
338 227 3277
374 263 3353
409 288 3413
445 308 3464
480 327 3514
86 102 26
80 93 72
66 87 222
63 100 476
55 130 783
62 174 1110
112 179 1469
166 166 1892
208 166 2300
251 192 2716
293 227 3075
312 248 3187
335 273 3276
371 309 3352
407 335 3413
443 354 3465
478 373 3516
58 276 32
57 273 68
56 270 203
57 283 407
44 322 711
46 376 1032
85 374 1382
139 331 1806
175 289 2245
222 292 2659
276 335 3049
306 364 3182
330 388 3270
365 423 3347
400 441 3409
438 453 3462
474 470 3513
39 490 38
40 484 73
43 482 180
48 483 388
43 512 649
34 567 953
48 609 1268
106 601 1659
155 559 2127
193 534 2555
249 571 2961
295 618 3135
321 645 3215
351 671 3288
387 683 3357
428 684 3422
466 691 3482
33 726 55
33 724 94
33 718 148
35 715 389
34 722 626
33 750 896
35 795 1197
46 836 1521
88 830 1941
147 763 2413
195 799 2828
247 865 3048
269 892 3124
300 918 3200
335 928 3269
377 927 3336
418 930 3403
33 980 106
33 978 146
33 971 189
33 964 375
33 965 643
33 971 897
33 982 1157
34 1027 1458
54 1085 1826
110 1075 2227
151 1032 2678
226 1065 3013
260 1098 3107
296 1122 3196
328 1130 3266
365 1125 3333
402 1126 3396
33 1234 171
33 1234 213
33 1230 259
33 1222 367
33 1213 648
33 1212 922
33 1212 1174
34 1229 1442
67 1291 1773
137 1365 2144
187 1402 2557
245 1405 2960
277 1422 3100
308 1430 3190
337 1415 3267
366 1384 3335
397 1369 3402
38 1520 258
37 1517 299
35 1511 347
34 1504 403
33 1489 642
34 1471 933
34 1475 1208
49 1482 1470
98 1522 1756
154 1603 2087
185 1670 2462
226 1742 2876
265 1776 3066
293 1789 3148
319 1791 3213
345 1777 3270
373 1764 3329
72 1821 365
70 1820 408
67 1813 460
62 1804 512
54 1793 656
53 1771 937
68 1766 1234
105 1775 1502
141 1803 1765
175 1869 2075
196 1907 2399
235 1980 2806
282 2039 3070
307 2056 3155
328 2064 3217
348 2065 3271
371 2067 3323
111 2133 481
111 2132 522
109 2127 569
107 2120 617
108 2115 690
114 2109 936
128 2089 1230
154 2092 1509
178 2113 1779
205 2151 2078
229 2169 2387
263 2208 2748
327 2283 3074
362 2308 3180
380 2316 3239
395 2316 3290
412 2321 3340
190 2452 596
190 2450 634
188 2443 678
187 2436 721
185 2429 763
190 2427 939
196 2416 1201
207 2407 1494
234 2421 1786
259 2431 2083
281 2440 2393
319 2467 2735
383 2526 3070
433 2567 3218
451 2572 3275
464 2570 3322
479 2573 3370
282 2733 690
283 2732 727
282 2725 771
281 2718 815
280 2712 856
281 2708 942
288 2704 1179
296 2704 1458
303 2695 1772
323 2707 2090
346 2719 2411
379 2736 2736
458 2796 3088
526 2847 3289
540 2847 3340
549 2842 3383
560 2840 3426
329 3019 775
330 3020 812
330 3014 855
330 3008 898
331 3001 936
331 2996 971
339 2996 1169
351 2997 1424
361 2985 1745
374 2986 2083
413 3019 2433
453 3024 2749
534 3068 3090
621 3137 3372
634 3140 3429
641 3136 3474
649 3134 3519
357 3208 841
359 3210 880
359 3206 922
360 3202 966
361 3200 1006
363 3199 1043
370 3202 1165
389 3210 1418
411 3216 1714
431 3217 2059
476 3250 2409
535 3278 2747
599 3303 3078
689 3390 3424
708 3406 3517
714 3406 3565
721 3407 3615
370 3264 867
373 3266 906
374 3262 950
375 3258 993
377 3256 1034
379 3257 1074
385 3261 1152
402 3270 1388
429 3287 1671
449 3289 2005
490 3317 2355
552 3355 2698
615 3383 3036
694 3458 3389
729 3500 3550
736 3502 3599
743 3503 3648
386 3319 895
389 3322 933
390 3318 979
391 3314 1023
392 3312 1064
395 3313 1103
400 3317 1163
416 3325 1376
444 3346 1651
466 3347 1970
503 3369 2321
564 3412 2663
628 3439 3007
697 3500 3353
741 3559 3571
748 3561 3620
756 3563 3668
403 3374 923
406 3377 962
407 3373 1007
408 3370 1053
410 3368 1096
412 3369 1134
417 3373 1191
435 3382 1402
464 3406 1675
487 3406 1987
524 3429 2335
583 3469 2674
647 3500 3023
711 3559 3373
754 3618 3592
765 3620 3639
772 3621 3687
374 93 68
375 86 128
368 49 263
320 39 517
268 85 829
263 132 1150
306 143 1498
355 133 1883
390 133 2290
433 159 2723
464 185 3057
476 199 3158
494 217 3238
527 244 3314
562 273 3384
600 298 3448
640 322 3510
333 142 69
333 135 108
317 101 237
266 76 487
222 114 794
225 161 1115
270 174 1463
322 166 1850
355 165 2263
394 190 2689
434 224 3060
449 242 3170
467 261 3249
500 288 3321
533 317 3389
570 342 3451
608 366 3512
260 294 65
250 292 96
223 277 220
177 257 438
153 283 732
154 305 1039
202 294 1407
257 267 1807
291 256 2224
328 271 2643
369 304 3044
397 327 3176
415 342 3252
446 370 3326
478 398 3394
517 422 3458
555 444 3515
135 495 46
133 491 81
129 487 175
125 486 399
113 503 654
101 550 947
111 580 1271
170 545 1676
211 495 2125
240 476 2556
299 517 2972
356 556 3159
381 581 3238
411 610 3312
443 634 3381
480 647 3443
513 657 3497
72 716 58
71 715 96
71 710 140
72 708 377
70 712 621
67 734 884
67 782 1186
81 822 1513
129 799 1940
186 737 2414
240 773 2833
303 825 3063
326 849 3136
355 874 3208
388 892 3280
431 900 3352
472 904 3417
66 969 106
66 967 145
66 964 187
66 958 359
66 956 629
66 956 880
66 971 1145
66 1016 1446
83 1066 1804
136 1053 2220
182 1008 2679
262 1033 3002
297 1062 3094
331 1087 3177
366 1105 3254
407 1110 3330
447 1110 3396
66 1225 170
66 1225 212
66 1223 256
66 1215 354
66 1206 632
66 1201 906
66 1202 1162
66 1219 1429
94 1275 1754
165 1351 2133
215 1382 2548
273 1372 2954
309 1379 3092
341 1386 3181
374 1381 3264
410 1362 3342
443 1349 3410
70 1509 257
69 1507 299
68 1504 342
67 1496 394
66 1483 626
66 1463 920
67 1466 1195
81 1474 1459
127 1509 1742
184 1588 2072
217 1658 2453
258 1725 2868
298 1750 3055
325 1761 3137
355 1768 3210
386 1761 3277
414 1747 3337
105 1811 365
103 1809 407
101 1806 452
97 1798 502
88 1788 642
86 1767 922
98 1756 1220
135 1769 1492
172 1795 1755
205 1852 2057
228 1898 2388
265 1968 2794
309 2019 3052
332 2036 3138
356 2050 3207
378 2058 3269
402 2061 3322
142 2120 481
142 2120 523
142 2119 565
140 2112 612
140 2107 679
146 2103 924
157 2079 1216
185 2085 1500
210 2105 1770
235 2137 2062
260 2162 2377
294 2199 2736
351 2261 3054
386 2288 3163
409 2301 3229
428 2308 3288
446 2313 3339
219 2440 599
219 2438 636
219 2435 674
217 2427 717
216 2421 758
222 2419 928
227 2407 1191
237 2397 1482
264 2413 1776
288 2418 2070
312 2432 2382
349 2458 2724
411 2511 3057
457 2546 3202
479 2557 3266
497 2563 3322
512 2566 3371
314 2722 694
314 2720 731
314 2717 769
313 2711 812
312 2705 853
312 2701 936
318 2696 1169
327 2693 1445
334 2688 1761
354 2698 2077
376 2708 2396
411 2729 2726
487 2786 3076
549 2825 3272
567 2831 3330
582 2833 3381
593 2832 3425
360 3005 781
362 3006 818
363 3006 855
363 3000 897
363 2994 935
363 2989 969
370 2988 1159
382 2985 1415
393 2977 1733
406 2977 2070
443 3006 2418
484 3016 2738
563 3057 3075
647 3116 3356
662 3125 3419
673 3128 3470
682 3127 3516
391 3203 852
394 3206 891
396 3209 929
397 3205 973
398 3203 1012
399 3202 1048
405 3203 1162
423 3208 1413
446 3216 1707
466 3219 2049
507 3245 2396
568 3277 2738
633 3303 3069
716 3374 3407
738 3397 3508
748 3404 3564
754 3405 3614
405 3258 878
408 3261 916
410 3264 955
412 3260 999
413 3258 1039
415 3259 1078
420 3262 1153
437 3270 1383
463 3287 1663
484 3292 1993
522 3315 2342
586 3356 2686
649 3385 3025
722 3444 3366
760 3494 3543
770 3503 3599
777 3504 3648
420 3314 905
423 3317 943
426 3319 982
427 3316 1027
429 3314 1068
431 3314 1107
435 3316 1163
451 3325 1371
477 3344 1644
502 3351 1959
536 3368 2308
597 3412 2652
662 3439 2994
728 3495 3339
772 3553 3563
782 3562 3620
790 3565 3669
437 3369 932
440 3372 971
442 3375 1010
444 3372 1056
446 3371 1098
448 3371 1137
452 3373 1191
469 3383 1397
497 3404 1668
523 3410 1976
557 3428 2322
617 3469 2663
681 3501 3011
743 3555 3360
785 3612 3585
799 3621 3639
806 3623 3688
657 154 116
656 146 166
651 134 294
636 69 505
567 81 791
505 128 1120
481 144 1482
520 137 1853
571 134 2254
625 157 2677
669 185 3027
689 203 3138
711 222 3218
751 250 3292
794 280 3367
843 310 3438
899 337 3511
613 187 113
614 181 144
614 165 272
590 112 462
520 110 763
461 158 1093
447 175 1451
492 169 1825
536 166 2225
585 188 2650
639 225 3034
662 246 3153
682 264 3231
720 292 3304
761 321 3377
807 349 3445
