滤镜资源/Professional Luts Collection/Triune-Digital-Cinematic-LUTs/3D LUTs (3DL)/LOG/Captain America Civil War - LOG.3dl
# Created by Benjamin (IWLTBAP) : http://luts.iwltbap.com
# Copyright: (C) Copyright 2016 Triune Films and IWLTBAP
# Blockbuster LUTs Pack
0 128 256 384 512 640 768 896 1023
5 7 1
12 21 251
15 89 842
86 140 1530
181 134 2349
253 187 3094
298 240 3292
364 293 3415
434 331 3516
18 276 26
22 272 204
11 342 719
50 412 1377
140 331 2245
237 360 3055
296 432 3278
359 466 3403
429 486 3511
0 729 52
1 719 157
1 725 626
2 799 1200
49 848 1941
152 817 2821
225 924 3129
290 943 3266
366 947 3391
0 1239 169
0 1230 260
1 1214 657
0 1216 1180
39 1304 1788
158 1414 2562
242 1458 3109
295 1432 3258
354 1385 3395
39 1829 363
32 1817 466
20 1796 665
38 1773 1244
110 1812 1776
164 1912 2407
256 2058 3090
295 2070 3219
338 2073 3324
160 2462 592
157 2450 680
154 2435 767
164 2425 1210
203 2427 1794
250 2445 2399
359 2546 3090
417 2578 3274
444 2579 3369
297 3031 767
297 3019 854
298 3007 937
307 3002 1175
328 2990 1754
383 3030 2445
505 3079 3102
601 3146 3432
616 3141 3522
336 3269 857
338 3260 947
341 3255 1031
350 3260 1151
394 3286 1677
458 3320 2367
582 3383 3046
694 3499 3550
709 3502 3647
369 3379 914
371 3370 1004
374 3366 1093
382 3373 1191
430 3406 1679
492 3432 2347
613 3500 3034
720 3617 3592
737 3620 3687
374 93 68
368 49 263
268 85 829
306 143 1498
390 133 2290
464 185 3057
494 217 3238
562 273 3384
640 322 3510
260 294 65
223 277 220
153 283 732
202 294 1407
291 256 2224
369 304 3044
415 342 3252
478 398 3394
555 444 3515
72 716 58
71 710 140
70 712 621
67 782 1186
129 799 1940
240 773 2833
326 849 3136
388 892 3280
472 904 3417
66 1225 170
66 1223 256
66 1206 632
66 1202 1162
94 1275 1754
215 1382 2548
309 1379 3092
374 1381 3264
443 1349 3410
105 1811 365
101 1806 452
88 1788 642
98 1756 1220
172 1795 1755
228 1898 2388
309 2019 3052
356 2050 3207
402 2061 3322
219 2440 599
219 2435 674
216 2421 758
227 2407 1191
264 2413 1776
312 2432 2382
411 2511 3057
479 2557 3266
512 2566 3371
360 3005 781
363 3006 855
363 2994 935
370 2988 1159
393 2977 1733
443 3006 2418
563 3057 3075
662 3125 3419
682 3127 3516
405 3258 878
410 3264 955
413 3258 1039
420 3262 1153
463 3287 1663
522 3315 2342
649 3385 3025
760 3494 3543
777 3504 3648
437 3369 932
442 3375 1010
446 3371 1098
452 3373 1191
497 3404 1668
557 3428 2322
681 3501 3011
785 3612 3585
806 3623 3688
960 217 160
955 200 329
900 100 768
789 150 1422
774 137 2244
920 196 3023
985 246 3213
1081 307 3371
1195 364 3537
850 357 158
862 337 275
800 245 699
661 250 1368
680 228 2173
816 280 2998
891 324 3232
986 382 3381
1092 433 3529
654 713 117
647 705 184
506 735 684
388 739 1249
476 580 2078
617 566 2937
748 668 3282
820 719 3411
904 765 3539
292 1261 152
289 1250 255
281 1235 588
271 1201 1155
281 1249 1737
370 1307 2554
508 1290 3105
572 1283 3253
652 1291 3417
226 1791 360
222 1788 443
205 1773 595
190 1729 1175
256 1764 1721
305 1862 2352
378 1980 3037
419 2002 3188
474 2030 3323
272 2402 594
273 2399 669
273 2391 745
287 2380 1155
321 2381 1741
369 2398 2343
467 2478 3031
529 2513 3242
577 2541 3369
423 2972 784
425 2973 857
426 2969 929
431 2961 1130
454 2951 1694
500 2974 2378
619 3030 3043
714 3081 3392
745 3102 3507
475 3254 896
480 3259 974
486 3265 1052
492 3267 1151
530 3284 1643
590 3317 2313
717 3385 3000
823 3479 3528
847 3508 3652
506 3363 949
512 3369 1026
518 3375 1105
523 3376 1186
564 3400 1649
627 3432 2296
748 3504 2985
848 3598 3569
877 3628 3694
1718 420 289
1723 402 433
1632 361 769
1508 162 1291
1425 147 2113
1618 291 3046
1682 376 3330
1740 429 3512
1806 471 3680
1569 487 267
1586 463 361
1574 432 703
1402 245 1219
1288 211 2027
1451 320 2969
1562 432 3331
1634 483 3505
1715 526 3672
1337 799 269
1346 787 329
1384 762 619
1233 667 1208
1083 478 1963
1189 566 2905
1375 702 3347
1450 737 3497
1535 767 3648
1179 1238 173
1175 1232 240
1128 1205 450
842 1184 1167
705 1151 1854
775 1233 2671
1076 1214 3273
1160 1189 3425
1244 1187 3574
652 1890 253
646 1890 347
628 1878 490
580 1834 1144
626 1828 1767
661 1885 2400
796 1991 3101
859 2008 3256
931 2026 3390
583 2423 599
581 2420 677
577 2412 753
588 2406 1117
597 2394 1726
632 2397 2334
728 2473 3025
795 2508 3259
844 2533 3386
590 2952 782
589 2951 855
583 2944 925
577 2934 1092
592 2930 1641
623 2945 2334
727 2998 3001
824 3051 3390
854 3071 3507
560 3259 906
563 3261 983
565 3266 1061
567 3272 1145
597 3286 1607
659 3320 2271
786 3389 2964
894 3484 3535
918 3515 3660
578 3367 958
583 3369 1035
589 3375 1114
596 3380 1193
631 3400 1617
697 3436 2254
816 3508 2951
918 3604 3572
949 3636 3706
2489 713 450
2493 700 554
2500 669 872
2276 645 1382
2476 346 2092
2674 512 2975
2672 562 3241
2673 584 3396
2689 604 3554
2404 754 440
2405 744 499
2413 707 814
2207 675 1294
2323 377 1975
2539 525 2865
2560 610 3237
2566 641 3406
2584 666 3575
2180 1023 440
2196 1016 500
2232 970 767
2150 922 1230
2081 663 1857
2188 647 2691
2354 805 3266
2368 835 3442
2377 857 3611
2044 1381 479
2063 1384 542
2090 1368 683
2036 1357 1245
1910 1192 1820
1801 1049 2611
1922 1103 3360
1960 1121 3548
2016 1142 3720
1914 1857 361
1929 1869 433
1922 1868 497
1798 1837 955
1429 1730 1752
1266 1789 2467
1401 1979 3263
1462 1996 3456
1527 2003 3616
1202 2464 362
1184 2447 476
1151 2440 572
1121 2439 1003
1032 2437 1673
1068 2483 2413
1224 2549 3111
1303 2575 3375
1340 2602 3509
1017 3021 862
1014 3019 939
1009 3012 1012
1000 2998 1140
1025 3001 1666
1070 3014 2356
1191 3050 3034
1276 3108 3476
1298 3132 3604
974 3326 993
976 3331 1073
975 3333 1151
968 3333 1225
991 3352 1647
1052 3392 2262
1153 3451 2965
1237 3554 3601
1262 3584 3726
968 3427 1036
970 3431 1115
969 3434 1192
963 3434 1267
985 3453 1646
1046 3496 2238
1132 3549 2937
1220 3655 3611
1258 3686 3751
2969 912 501
2973 901 570
2990 911 950
2952 922 1577
3256 669 2258
3409 658 3035
3443 685 3347
3459 694 3505
3474 704 3657
2938 975 497
2940 966 558
2963 965 889
2933 981 1513
3157 771 2160
3342 716 2946
3379 744 3338
3392 754 3495
3405 765 3649
2889 1226 521
2910 1219 584
2929 1203 819
2903 1221 1467
2925 1088 2015
3183 898 2781
3248 901 3344
3254 906 3503
3263 914 3654
2841 1583 589
2861 1586 651
2879 1584 777
2821 1593 1465
2787 1538 1954
2955 1362 2617
3041 1267 3316
3041 1241 3483
3057 1238 3640
2771 2030 678
2790 2041 741
2799 2045 805
2758 2051 1339
2683 2018 1940
2738 1906 2512
2770 1771 3356
2720 1732 3606
2726 1744 3757
2639 2532 433
2659 2547 507
2663 2557 578
2646 2594 878
2498 2485 1719
2301 2486 2444
2203 2553 3206
2092 2602 3567
2107 2633 3711
2018 3090 434
2028 3094 538
2024 3079 670
1966 3032 901
1767 2991 1634
1678 3053 2331
1701 3164 3142
1767 3248 3680
1792 3270 3805
1461 3443 1080
1460 3445 1156
1458 3447 1233
1454 3451 1317
1472 3470 1711
1558 3544 2341
1627 3606 3066
1740 3686 3732
1781 3704 3848
1457 3554 1141
1458 3558 1216
1459 3562 1293
1455 3565 1374
1469 3577 1717
1544 3640 2326
1604 3695 3026
1720 3772 3703
1776 3798 3854
3103 967 542
3106 965 600
3113 980 972
3097 998 1588
3360 833 2246
3579 686 3011
3653 720 3408
3684 787 3576
3712 853 3730
3123 1053 551
3123 1050 614
3130 1055 921
3116 1077 1542
3271 976 2166
3567 776 2932
3652 795 3412
3687 869 3581
3717 937 3737
3182 1305 588
3198 1304 661
3199 1298 886
3178 1312 1514
3183 1282 2058
3538 998 2795
3661 992 3430
3695 1034 3597
3726 1090 3756
3241 1697 661
3253 1697 745
3263 1694 879
3233 1697 1504
3265 1688 2041
3491 1456 2663
3668 1481 3447
3706 1503 3632
3738 1545 3784
3296 2126 713
3290 2119 801
3287 2112 905
3274 2102 1425
3288 2096 2015
3346 2056 2545
3601 2010 3366
3658 2047 3639
3687 2078 3779
3307 2593 835
3293 2582 903
3276 2566 976
3249 2535 1266
3271 2574 1920
3286 2632 2554
3425 2621 3261
3498 2676 3695
3513 2700 3819
3186 3080 653
3175 3068 751
3165 3055 855
3152 3040 992
3159 3086 1619
3127 3133 2339
3070 3241 3222
3052 3352 3834
3053 3366 3940
2874 3521 736
2859 3519 832
2851 3521 922
2824 3521 1018
2804 3536 1435
2696 3606 2227
2505 3734 3111
2550 3832 3874
2572 3842 3998
2748 3632 818
2727 3632 923
2716 3633 1014
2680 3636 1112
2617 3651 1460
2462 3710 2229
2267 3831 3071
2424 3934 3840
2517 3950 4005
3188 1009 569
3190 1008 629
3181 1007 983
3173 1037 1591
3392 916 2232
3658 753 2998
3738 796 3433
3772 842 3597
3801 931 3752
3213 1093 582
3211 1092 644
3206 1093 941
3192 1118 1546
3308 1053 2147
3641 847 2916
3741 879 3441
3775 922 3603
3806 1013 3761
3271 1326 626
3279 1323 701
3268 1308 900
3243 1319 1508
3251 1300 2047
3612 1024 2777
3749 1026 3456
3781 1052 3613
3813 1137 3775
3323 1707 710
3330 1706 802
3333 1700 916
3311 1696 1489
3349 1693 2027
3558 1476 2626
3759 1494 3443
3808 1531 3651
3835 1588 3793
3392 2128 790
3382 2117 884
3377 2107 990
3380 2097 1425
3411 2104 1999
3469 2097 2542
3739 2011 3347
3816 2067 3658
3844 2119 3795
3477 2585 924
3465 2572 994
3450 2554 1068
3435 2527 1277
3493 2577 1912
3549 2627 2561
3708 2629 3216
3852 2689 3736
3870 2726 3856
3537 3073 1142
3533 3064 1203
3531 3056 1269
3528 3043 1331
3538 3043 1733
3637 3163 2487
3699 3262 3192
3875 3280 3859
3894 3295 3966
3590 3566 647
3589 3562 723
3583 3556 797
3580 3550 878
3581 3554 1154
3637 3626 1707
3714 3772 2908
3750 3856 3892
3752 3871 4029
3556 3675 646
3555 3675 721
3552 3676 796
3543 3677 869
3536 3687 1089
3565 3764 1647
3613 3907 2838
3638 4001 3859
3693 4012 4053
3278 1057 600
3278 1057 665
3256 1043 1017
3250 1078 1614
3438 975 2234
3740 838 3012
3826 887 3464
3861 941 3623
3890 1001 3775
3304 1141 617
3301 1140 684
3281 1131 983
3268 1158 1571
3353 1114 2153
3722 920 2928
3831 975 3472
3866 1025 3632
3896 1083 3784
3359 1361 675
3362 1356 751
3340 1336 940
3310 1336 1523
3327 1320 2056
3691 1063 2778
3840 1110 3485
3873 1144 3643
3900 1197 3793
3405 1737 765
3405 1734 867
3401 1727 980
3386 1709 1500
3431 1718 2037
3609 1524 2617
3844 1527 3460
3891 1578 3660
3913 1648 3795
3457 2138 854
3441 2121 951
3432 2108 1057
3452 2106 1442
3492 2119 2002
3553 2134 2559
3821 2031 3352
3899 2105 3674
3924 2159 3801
3538 2582 960
3527 2570 1031
3516 2552 1109
3504 2529 1295
3570 2585 1920
3628 2634 2571
3773 2639 3203
3933 2702 3751
3951 2733 3867
3610 3080 1172
3605 3069 1229
3602 3059 1288
3601 3048 1348
3613 3049 1741
3714 3166 2494
3776 3265 3195
3961 3280 3866
3976 3291 3973
3687 3570 686
3688 3565 767
3686 3560 844
3686 3556 926
3695 3559 1214
3751 3621 1785
3859 3779 2936
3937 3854 3868
3954 3867 4033
3683 3686 668
3686 3687 744
3688 3687 821
3685 3687 896
3692 3699 1119
3733 3765 1646
3864 3922 2755
3944 4014 3831
3962 4029 4065
