滤镜资源/Professional Luts Collection/Triune-Digital-Cinematic-LUTs/3D LUTs (3DL)/LOG/Captain America Civil War - LOG.3dl
# Created by Benjamin (IWLTBAP) : http://luts.iwltbap.com
# Copyright: (C) Copyright 2016 Triune Films and IWLTBAP
# Blockbuster LUTs Pack
0 256 512 768 1023
5 7 1
15 89 842
181 134 2349
298 240 3292
434 331 3516
0 729 52
1 725 626
49 848 1941
225 924 3129
366 947 3391
39 1829 363
20 1796 665
110 1812 1776
256 2058 3090
338 2073 3324
297 3031 767
298 3007 937
328 2990 1754
505 3079 3102
616 3141 3522
369 3379 914
374 3366 1093
430 3406 1679
613 3500 3034
737 3620 3687
960 217 160
900 100 768
774 137 2244
985 246 3213
1195 364 3537
654 713 117
506 735 684
476 580 2078
748 668 3282
904 765 3539
226 1791 360
205 1773 595
256 1764 1721
378 1980 3037
474 2030 3323
423 2972 784
426 2969 929
454 2951 1694
619 3030 3043
745 3102 3507
506 3363 949
518 3375 1105
564 3400 1649
748 3504 2985
877 3628 3694
2489 713 450
2500 669 872
2476 346 2092
2672 562 3241
2689 604 3554
2180 1023 440
2232 970 767
2081 663 1857
2354 805 3266
2377 857 3611
1914 1857 361
1922 1868 497
1429 1730 1752
1401 1979 3263
1527 2003 3616
1017 3021 862
1009 3012 1012
1025 3001 1666
1191 3050 3034
1298 3132 3604
968 3427 1036
969 3434 1192
985 3453 1646
1132 3549 2937
1258 3686 3751
3103 967 542
3113 980 972
3360 833 2246
3653 720 3408
3712 853 3730
3182 1305 588
3199 1298 886
3183 1282 2058
3661 992 3430
3726 1090 3756
3296 2126 713
3287 2112 905
3288 2096 2015
3601 2010 3366
3687 2078 3779
3186 3080 653
3165 3055 855
3159 3086 1619
3070 3241 3222
3053 3366 3940
2748 3632 818
2716 3633 1014
2617 3651 1460
2267 3831 3071
2517 3950 4005
3278 1057 600
3256 1043 1017
3438 975 2234
3826 887 3464
3890 1001 3775
3359 1361 675
3340 1336 940
3327 1320 2056
3840 1110 3485
3900 1197 3793
3457 2138 854
3432 2108 1057
3492 2119 2002
3821 2031 3352
3924 2159 3801
3610 3080 1172
3602 3059 1288
3613 3049 1741
3776 3265 3195
3976 3291 3973
3683 3686 668
3688 3687 821
3692 3699 1119
3864 3922 2755
3962 4029 4065
