滤镜资源/Professional Luts Collection/Triune-Digital-Cinematic-LUTs/3D LUTs (3DL)/LOG/Drive - LOG.3dl
# Created by Benjamin (IWLTBAP) : http://luts.iwltbap.com
# Copyright: (C) Copyright 2016 Triune Films and IWLTBAP
# Blockbuster LUTs Pack
0 256 512 768 1023
0 0 3
0 43 823
7 237 1970
14 342 2625
14 382 2837
34 688 69
0 705 747
0 819 1903
27 923 2733
32 951 2943
157 1609 210
132 1636 548
2 1694 1829
43 1886 2967
56 1911 3172
365 2740 501
350 2745 692
381 2894 1790
218 2888 3064
212 2886 3398
501 3074 564
486 3085 756
482 3190 1534
408 3298 2956
365 3310 3491
874 34 0
809 35 757
619 166 1900
601 270 2637
603 319 2848
674 634 3
460 680 727
386 776 1882
382 857 2747
394 896 2954
383 1579 187
349 1583 473
171 1658 1792
215 1861 2973
225 1884 3179
547 2722 494
519 2715 682
531 2853 1723
385 2868 3040
380 2870 3410
706 3104 564
676 3109 756
655 3189 1469
596 3324 2927
545 3329 3505
2452 237 25
2481 244 631
2158 270 1730
1733 299 2596
1698 348 2814
2194 710 70
2268 675 467
1946 718 1690
1462 782 2774
1471 833 2994
2121 1594 115
2123 1604 293
1408 1793 1866
1165 1917 3086
1175 1935 3300
1755 2797 368
1678 2801 557
1244 2791 1529
1074 2877 3020
1058 2880 3466
1475 3232 542
1359 3200 782
1210 3225 1372
1098 3392 2870
1000 3377 3540
3295 373 92
3329 391 577
3308 502 1697
3277 609 2555
3244 650 2791
3363 791 130
3373 765 428
3376 913 1678
3298 993 2726
3271 1002 2932
3496 1748 206
3500 1765 392
3427 2008 1813
3364 2076 3049
3304 2074 3335
3318 2791 350
3304 2797 537
3273 2893 1341
3216 3165 3065
3081 3184 3671
3074 3382 473
3061 3396 656
3046 3449 1141
3046 3687 2814
2768 3705 3739
3514 415 111
3533 433 569
3509 544 1698
3503 659 2603
3473 690 2827
3577 780 142
3573 756 412
3576 901 1661
3520 975 2733
3495 984 2942
3730 1748 249
3731 1762 441
3678 1978 1746
3664 2045 3005
3632 2050 3324
3792 2744 420
3794 2754 604
3799 2841 1292
3818 3159 3045
3790 3165 3666
3760 3360 496
3758 3376 671
3761 3419 1031
3839 3679 2582
3876 3815 3744
