滤镜资源/Professional Luts Collection/Triune-Digital-Cinematic-LUTs/3D LUTs (3DL)/LOG/Drive - LOG.3dl
# Created by Benjamin (IWLTBAP) : http://luts.iwltbap.com
# Copyright: (C) Copyright 2016 Triune Films and IWLTBAP
# Blockbuster LUTs Pack
0 64 128 192 256 320 384 448 512 576 640 704 768 832 896 960 1023
0 0 3
0 0 109
0 0 327
0 0 558
0 43 823
0 97 1094
0 164 1376
2 214 1666
7 237 1970
10 279 2293
12 318 2508
13 331 2572
14 342 2625
14 352 2678
14 362 2732
14 372 2785
14 382 2837
0 77 10
0 71 86
0 72 303
0 96 541
0 131 806
0 171 1076
0 221 1354
0 266 1643
6 289 1943
8 325 2264
11 367 2509
12 381 2577
13 392 2631
14 402 2684
14 411 2738
14 421 2790
14 430 2842
0 288 32
0 285 80
0 275 285
0 283 529
0 307 792
0 337 1061
0 378 1340
0 423 1629
0 447 1922
4 468 2233
9 498 2512
12 504 2594
13 507 2648
14 514 2702
15 520 2755
15 526 2807
17 536 2860
17 484 45
12 484 100
1 488 252
0 486 506
0 492 776
0 516 1045
0 547 1319
0 593 1616
0 633 1915
2 659 2219
11 688 2514
16 699 2630
18 701 2682
20 708 2735
21 715 2789
22 721 2843
24 732 2897
34 688 69
30 689 123
24 691 199
2 711 478
0 705 747
0 712 1027
0 732 1301
0 773 1601
0 819 1903
3 858 2209
18 902 2520
25 922 2683
27 923 2733
29 929 2785
30 935 2837
30 941 2890
32 951 2943
53 903 99
50 904 152
46 904 204
28 924 423
1 943 721
0 936 998
0 935 1286
0 963 1583
0 1009 1882
4 1057 2190
22 1119 2518
31 1158 2742
33 1160 2793
34 1165 2843
35 1172 2895
35 1178 2947
36 1189 2999
84 1131 127
80 1133 177
77 1133 227
67 1140 357
29 1174 684
1 1183 984
0 1163 1266
0 1170 1562
0 1207 1858
6 1260 2166
22 1331 2498
31 1390 2775
34 1397 2846
35 1403 2897
35 1410 2949
36 1418 3001
37 1428 3053
119 1364 166
116 1365 214
113 1366 264
108 1366 322
82 1399 622
32 1430 965
1 1424 1255
0 1408 1540
0 1426 1834
10 1480 2144
24 1559 2482
32 1628 2796
36 1644 2906
38 1648 2956
39 1655 3008
40 1662 3059
42 1672 3111
157 1609 210
154 1611 257
151 1612 304
148 1612 353
132 1636 548
89 1682 924
39 1712 1256
5 1699 1541
2 1694 1829
15 1732 2139
26 1802 2474
35 1864 2800
43 1886 2967
45 1889 3019
49 1895 3071
52 1901 3121
56 1911 3172
188 1880 271
185 1882 318
181 1885 367
176 1886 418
168 1895 515
137 1945 854
121 2004 1238
91 2039 1569
45 2018 1848
26 2023 2150
29 2059 2469
40 2101 2794
51 2127 3018
56 2130 3082
60 2134 3131
65 2138 3181
71 2147 3230
222 2167 353
217 2170 400
211 2172 448
205 2173 497
199 2174 548
179 2211 790
179 2273 1164
187 2339 1555
158 2357 1872
103 2336 2161
54 2336 2470
53 2347 2781
78 2368 3049
87 2372 3141
92 2376 3189
97 2380 3238
104 2387 3286
281 2456 437
276 2459 484
271 2461 533
265 2462 581
260 2463 630
253 2476 752
255 2532 1085
275 2598 1486
286 2650 1861
239 2650 2176
176 2622 2469
123 2613 2775
126 2617 3064
137 2621 3200
141 2624 3248
147 2627 3295
153 2633 3342
365 2740 501
361 2741 549
357 2742 596
353 2744 643
350 2745 692
346 2745 742
343 2780 1016
356 2832 1377
381 2894 1790
382 2928 2155
316 2911 2464
255 2899 2775
218 2888 3064
211 2882 3256
208 2881 3305
209 2881 3351
212 2886 3398
432 2908 534
428 2911 581
426 2914 629
423 2917 676
422 2922 726
421 2928 777
418 2948 942
422 2995 1279
437 3057 1679
464 3110 2082
427 3126 2416
364 3118 2734
319 3119 3046
302 3111 3287
298 3110 3356
296 3112 3403
294 3115 3451
456 2965 544
453 2967 592
450 2970 639
446 2972 687
445 2978 737
444 2985 788
443 2999 892
441 3041 1205
451 3099 1590
479 3162 2008
470 3192 2355
405 3194 2679
357 3192 2994
334 3194 3272
331 3196 3376
328 3198 3422
325 3200 3468
480 3021 555
477 3023 602
473 3025 650
468 3026 697
467 3032 747
466 3038 797
464 3049 878
459 3085 1157
464 3140 1531
492 3206 1954
499 3243 2309
434 3251 2638
385 3243 2954
354 3249 3249
350 3251 3388
349 3253 3434
346 3255 3480
501 3074 564
496 3076 612
492 3078 659
488 3080 707
486 3085 756
484 3091 806
482 3101 884
477 3137 1159
482 3190 1534
509 3257 1954
519 3296 2311
458 3305 2640
408 3298 2956
373 3304 3258
367 3305 3399
367 3308 3445
365 3310 3491
81 0 2
78 0 101
74 0 319
69 0 551
64 20 807
58 75 1076
54 140 1359
56 196 1651
57 227 1959
54 270 2282
50 313 2508
49 327 2574
50 338 2628
50 348 2680
50 358 2732
50 369 2785
50 380 2837
54 62 7
51 61 76
48 60 295
44 74 531
40 105 793
35 149 1063
32 207 1343
35 257 1633
43 283 1934
45 319 2255
47 363 2509
48 378 2580
49 389 2634
50 400 2686
50 409 2739
50 419 2791
50 428 2842
35 276 30
33 276 78
32 266 277
32 274 523
32 296 784
32 329 1054
32 371 1333
32 413 1621
36 436 1915
41 456 2228
45 488 2512
47 495 2598
48 498 2651
50 506 2704
50 512 2756
51 518 2807
52 527 2860
55 476 44
50 477 98
38 481 243
32 479 500
32 485 769
32 510 1040
32 542 1314
32 588 1610
32 627 1910
38 651 2214
46 678 2510
50 690 2632
52 692 2684
54 700 2737
56 707 2790
57 713 2843
59 725 2898
72 681 65
67 683 121
62 683 189
35 706 472
32 701 744
32 707 1022
32 727 1296
32 769 1597
32 814 1899
39 852 2205
53 894 2515
59 914 2685
61 915 2735
63 921 2786
64 928 2838
65 934 2890
66 944 2943
91 897 97
87 898 150
82 898 203
65 917 412
34 938 715
32 930 993
32 931 1281
32 959 1578
32 1005 1878
40 1052 2186
57 1113 2513
66 1153 2744
67 1155 2797
69 1160 2847
70 1167 2898
71 1174 2949
71 1184 3001
121 1126 125
117 1127 176
114 1127 226
105 1133 349
67 1168 675
34 1178 978
32 1159 1262
32 1166 1558
32 1203 1854
43 1257 2163
57 1327 2494
66 1387 2775
69 1395 2851
70 1401 2901
71 1407 2952
72 1415 3004
72 1426 3056
157 1359 165
153 1360 213
150 1361 262
145 1361 320
120 1392 610
69 1425 957
35 1421 1251
32 1404 1535
32 1422 1830
46 1477 2140
59 1555 2478
67 1625 2796
71 1642 2911
74 1646 2961
76 1653 3011
79 1659 3062
81 1669 3114
195 1606 209
191 1606 256
189 1607 303
185 1606 352
170 1628 536
127 1677 913
80 1708 1249
41 1696 1537
37 1691 1825
51 1728 2135
61 1799 2470
72 1861 2798
83 1885 2971
87 1888 3023
91 1894 3073
94 1899 3124
98 1909 3175
228 1877 269
225 1877 316
221 1879 364
215 1880 415
207 1888 504
178 1938 842
162 1998 1226
131 2035 1564
84 2016 1845
62 2021 2147
64 2056 2465
76 2099 2791
92 2126 3021
98 2128 3086
103 2132 3134
107 2137 3183
112 2146 3233
266 2164 352
262 2164 397
256 2167 446
250 2168 494
244 2168 545
222 2204 779
219 2266 1151
227 2334 1547
199 2354 1869
144 2335 2159
93 2333 2469
92 2345 2778
119 2367 3051
129 2371 3144
134 2374 3192
140 2378 3240
146 2386 3289
325 2454 435
320 2454 481
315 2456 529
309 2457 577
304 2457 627
296 2469 744
295 2525 1073
313 2591 1473
326 2645 1854
280 2648 2173
217 2620 2467
163 2611 2772
167 2615 3063
179 2620 3203
183 2622 3250
189 2625 3297
195 2632 3345
410 2738 500
405 2738 547
401 2739 594
397 2740 642
392 2739 690
388 2739 739
384 2773 1007
395 2825 1365
420 2888 1780
423 2924 2149
358 2909 2461
297 2897 2772
261 2887 3062
254 2882 3260
251 2879 3308
251 2880 3354
255 2886 3402
480 2915 534
477 2917 582
474 2919 630
471 2922 677
466 2923 725
465 2928 775
463 2948 934
464 2994 1269
479 3056 1666
506 3111 2075
471 3129 2412
409 3121 2731
364 3122 3043
347 3115 3292
343 3114 3361
341 3116 3408
339 3119 3455
504 2971 545
501 2974 593
498 2976 640
494 2978 688
490 2980 735
488 2986 786
488 3000 887
485 3041 1195
493 3099 1576
521 3163 1997
516 3196 2350
449 3199 2675
403 3196 2989
379 3200 3272
377 3202 3381
374 3204 3427
370 3206 3473
529 3028 555
526 3030 603
523 3033 651
520 3036 699
513 3035 746
511 3040 796
509 3050 873
504 3085 1146
507 3139 1518
534 3207 1940
543 3246 2303
479 3255 2633
431 3248 2948
400 3256 3249
395 3257 3392
394 3258 3438
391 3261 3484
550 3083 564
546 3085 612
541 3086 660
537 3088 707
531 3087 755
528 3092 805
526 3101 879
521 3137 1149
524 3191 1520
550 3258 1941
564 3300 2304
503 3310 2634
454 3304 2951
418 3311 3257
411 3310 3402
412 3312 3448
410 3314 3494
284 0 0
281 0 82
267 0 308
229 0 544
218 16 799
205 63 1065
199 106 1340
203 142 1631
205 183 1941
205 235 2265
200 286 2504
191 304 2574
184 319 2629
180 332 2684
177 346 2736
174 359 2786
174 371 2836
252 50 0
245 50 59
225 51 285
195 50 520
188 70 778
180 111 1041
175 159 1318
174 208 1609
175 248 1918
173 293 2241
168 347 2506
160 365 2582
155 379 2638
152 390 2691
150 402 2742
148 414 2792
148 425 2842
207 255 9
201 255 60
174 255 270
156 256 517
151 274 775
144 309 1043
137 351 1321
134 390 1606
136 409 1903
133 430 2218
130 467 2508
123 476 2601
117 479 2654
116 488 2705
114 495 2754
112 501 2804
114 511 2855
157 460 37
154 461 90
138 466 225
111 469 492
106 473 760
99 498 1029
91 531 1304
86 576 1598
83 612 1897
84 633 2202
86 660 2501
88 674 2633
88 677 2685
89 685 2739
90 692 2792
92 700 2844
95 711 2898
117 667 60
111 669 117
105 669 179
75 692 455
66 688 731
64 693 1009
64 715 1284
64 757 1583
64 802 1887
74 840 2193
87 878 2504
93 899 2685
95 900 2735
97 907 2787
98 914 2839
101 921 2890
102 930 2942
128 884 91
123 886 148
119 885 200
103 903 394
67 927 702
64 918 981
64 920 1269
64 948 1567
64 994 1867
76 1041 2176
92 1102 2505
100 1142 2743
102 1145 2799
104 1150 2850
105 1158 2901
106 1164 2951
107 1174 3002
158 1115 121
153 1116 174
150 1116 224
142 1121 336
105 1157 659
67 1168 967
64 1150 1251
64 1156 1548
64 1195 1845
78 1249 2155
92 1318 2487
101 1379 2774
104 1389 2855
105 1395 2906
106 1402 2957
107 1409 3007
108 1420 3058
194 1351 161
191 1351 211
187 1351 260
182 1351 314
158 1381 592
106 1416 945
68 1415 1243
64 1396 1527
66 1415 1823
81 1470 2133
94 1548 2472
103 1620 2793
109 1638 2915
112 1642 2965
115 1649 3015
119 1655 3065
122 1665 3116
232 1600 207
228 1599 254
225 1599 302
221 1598 350
208 1617 521
167 1667 897
123 1701 1239
80 1691 1531
73 1685 1819
85 1722 2129
96 1794 2465
112 1856 2794
124 1882 2973
128 1885 3027
132 1890 3076
135 1896 3126
139 1905 3177
271 1872 267
268 1872 313
264 1872 361
257 1873 412
250 1879 491
221 1928 827
202 1989 1213
173 2031 1557
125 2013 1841
99 2016 2141
100 2052 2461
118 2093 2785
133 2123 3023
139 2125 3090
144 2129 3137
148 2134 3186
154 2143 3236
308 2160 350
304 2159 395
300 2159 442
294 2161 490
289 2161 542
265 2194 767
258 2258 1137
265 2326 1536
240 2350 1864
184 2332 2156
132 2329 2464
133 2340 2773
160 2364 3051
171 2369 3149
176 2371 3196
182 2375 3243
188 2383 3292
369 2451 433
363 2449 478
358 2449 526
352 2450 573
347 2450 623
339 2460 735
336 2515 1060
352 2582 1458
366 2639 1846
321 2644 2169
258 2617 2463
205 2607 2767
208 2612 3060
220 2618 3208
224 2619 3253
230 2622 3299
237 2628 3347
457 2736 498
449 2735 545
444 2735 592
441 2736 640
436 2734 688
430 2732 736
425 2765 996
435 2817 1350
459 2880 1766
464 2918 2140
399 2907 2457
338 2893 2768
303 2883 3057
297 2881 3265
293 2877 3312
294 2877 3358
297 2883 3405
533 2922 534
525 2924 583
522 2926 630
518 2928 678
514 2929 726
509 2929 774
508 2949 925
509 2995 1257
520 3054 1650
548 3111 2065
517 3132 2406
453 3125 2726
408 3125 3039
393 3121 3296
388 3119 3366
385 3120 3412
384 3123 3460
557 2979 545
549 2981 594
546 2982 641
542 2985 689
537 2986 737
533 2988 785
533 3001 882
530 3041 1183
535 3098 1559
563 3164 1983
562 3200 2341
495 3205 2668
449 3201 2984
425 3207 3271
422 3208 3386
419 3210 3431
417 3212 3478
582 3035 556
574 3038 604
571 3040 652
568 3042 700
561 3041 747
556 3042 795
554 3051 867
549 3086 1134
550 3139 1502
576 3207 1925
588 3250 2294
526 3261 2626
478 3253 2942
445 3261 3246
440 3262 3397
440 3264 3442
436 3266 3488
602 3090 564
594 3093 613
591 3095 661
587 3098 709
580 3096 756
574 3096 804
571 3103 872
566 3136 1137
567 3190 1505
592 3258 1925
609 3303 2296
549 3316 2627
501 3310 2944
463 3316 3253
457 3316 3407
457 3317 3451
455 3319 3498
558 2 0
555 0 69
563 0 281
536 4 520
435 26 791
411 67 1056
398 108 1329
403 137 1616
408 161 1926
404 202 2253
399 247 2507
391 266 2581
387 283 2634
385 299 2687
383 313 2738
381 329 2788
384 345 2840
527 56 0
519 56 42
522 51 256
486 61 502
398 75 770
376 114 1035
365 152 1308
370 180 1594
375 205 1901
373 247 2226
369 305 2502
362 329 2583
357 347 2638
354 363 2692
353 379 2743
350 397 2795
