滤镜资源/Professional Luts Collection/Triune-Digital-Cinematic-LUTs/3D LUTs (3DL)/LOG/Drive - LOG.3dl
# Created by Benjamin (IWLTBAP) : http://luts.iwltbap.com
# Copyright: (C) Copyright 2016 Triune Films and IWLTBAP
# Blockbuster LUTs Pack
0 128 256 384 512 640 768 896 1023
0 0 3
0 0 327
0 43 823
0 164 1376
7 237 1970
12 318 2508
14 342 2625
14 362 2732
14 382 2837
0 288 32
0 275 285
0 307 792
0 378 1340
0 447 1922
9 498 2512
13 507 2648
15 520 2755
17 536 2860
34 688 69
24 691 199
0 705 747
0 732 1301
0 819 1903
18 902 2520
27 923 2733
30 935 2837
32 951 2943
84 1131 127
77 1133 227
29 1174 684
0 1163 1266
0 1207 1858
22 1331 2498
34 1397 2846
35 1410 2949
37 1428 3053
157 1609 210
151 1612 304
132 1636 548
39 1712 1256
2 1694 1829
26 1802 2474
43 1886 2967
49 1895 3071
56 1911 3172
222 2167 353
211 2172 448
199 2174 548
179 2273 1164
158 2357 1872
54 2336 2470
78 2368 3049
92 2376 3189
104 2387 3286
365 2740 501
357 2742 596
350 2745 692
343 2780 1016
381 2894 1790
316 2911 2464
218 2888 3064
208 2881 3305
212 2886 3398
456 2965 544
450 2970 639
445 2978 737
443 2999 892
451 3099 1590
470 3192 2355
357 3192 2994
331 3196 3376
325 3200 3468
501 3074 564
492 3078 659
486 3085 756
482 3101 884
482 3190 1534
519 3296 2311
408 3298 2956
367 3305 3399
365 3310 3491
284 0 0
267 0 308
218 16 799
199 106 1340
205 183 1941
200 286 2504
184 319 2629
177 346 2736
174 371 2836
207 255 9
174 255 270
151 274 775
137 351 1321
136 409 1903
130 467 2508
117 479 2654
114 495 2754
114 511 2855
117 667 60
105 669 179
66 688 731
64 715 1284
64 802 1887
87 878 2504
95 900 2735
98 914 2839
102 930 2942
158 1115 121
150 1116 224
105 1157 659
64 1150 1251
64 1195 1845
92 1318 2487
104 1389 2855
106 1402 2957
108 1420 3058
232 1600 207
225 1599 302
208 1617 521
123 1701 1239
73 1685 1819
96 1794 2465
124 1882 2973
132 1890 3076
139 1905 3177
308 2160 350
300 2159 442
289 2161 542
258 2258 1137
240 2350 1864
132 2329 2464
160 2364 3051
176 2371 3196
188 2383 3292
457 2736 498
444 2735 592
436 2734 688
425 2765 996
459 2880 1766
399 2907 2457
303 2883 3057
293 2877 3312
297 2883 3405
557 2979 545
546 2982 641
537 2986 737
533 3001 882
535 3098 1559
562 3200 2341
449 3201 2984
422 3208 3386
417 3212 3478
602 3090 564
591 3095 661
580 3096 756
571 3103 872
567 3190 1505
609 3303 2296
501 3310 2944
457 3316 3407
455 3319 3498
874 34 0
885 22 251
809 35 757
625 112 1315
619 166 1900
612 244 2500
601 270 2637
598 292 2745
603 319 2848
810 235 0
780 237 205
701 223 719
534 259 1273
539 289 1856
535 357 2479
527 378 2651
527 409 2757
529 442 2860
674 634 3
660 634 85
460 680 727
395 710 1288
386 776 1882
383 821 2492
382 857 2747
384 873 2849
394 896 2954
458 1102 72
447 1103 186
395 1124 584
280 1136 1240
276 1180 1832
296 1302 2480
301 1376 2877
302 1389 2977
308 1408 3077
383 1579 187
373 1578 295
349 1583 473
251 1674 1202
171 1658 1792
190 1765 2437
215 1861 2973
218 1870 3081
225 1884 3179
391 2136 343
382 2133 434
373 2133 532
335 2222 1087
317 2326 1836
212 2306 2439
239 2344 3040
258 2356 3201
271 2367 3295
547 2722 494
531 2719 588
519 2715 682
505 2739 960
531 2853 1723
481 2892 2437
385 2868 3040
375 2866 3319
380 2870 3410
663 2992 543
647 2997 641
635 2998 738
625 3004 865
621 3096 1517
654 3206 2315
542 3211 2966
514 3220 3396
508 3222 3485
706 3104 564
689 3109 661
676 3109 756
664 3108 855
655 3189 1469
699 3310 2272
596 3324 2927
548 3328 3417
545 3329 3505
1616 98 0
1624 104 188
1627 115 669
1405 129 1237
1077 173 1858
1076 238 2446
1062 266 2608
1059 290 2718
1063 317 2826
1502 236 0
1518 227 112
1529 228 609
1274 226 1193
1001 263 1807
996 330 2425
987 373 2644
987 398 2755
994 425 2862
1379 631 0
1371 630 87
1330 662 598
1089 674 1213
871 635 1822
864 727 2457
861 794 2758
858 816 2857
862 842 2957
1268 1069 33
1264 1072 123
1248 1088 393
804 1150 1239
704 1171 1850
724 1281 2493
754 1370 2923
758 1384 3021
769 1406 3121
1056 1624 142
1033 1629 231
982 1634 354
750 1675 1117
625 1700 1825
633 1793 2468
658 1885 3023
659 1893 3135
667 1906 3230
864 2171 286
834 2168 392
798 2159 510
699 2193 994
665 2324 1807
536 2306 2434
545 2344 3046
557 2359 3229
569 2370 3323
811 2718 467
784 2713 570
753 2707 672
706 2711 903
695 2813 1643
641 2872 2405
531 2849 3015
511 2847 3327
513 2852 3418
792 3008 542
776 3013 641
754 3018 739
733 3019 844
710 3089 1455
746 3211 2274
640 3222 2932
605 3229 3403
599 3232 3492
812 3113 569
797 3120 664
781 3124 760
769 3126 856
746 3184 1411
787 3314 2229
693 3338 2895
638 3337 3417
634 3338 3512
2452 237 25
2454 235 179
2481 244 631
2439 252 1117
2158 270 1730
1807 271 2404
1733 299 2596
1706 322 2707
1698 348 2814
2357 313 21
2357 311 113
2383 314 564
2356 329 1062
2042 345 1686
1644 348 2375
1595 393 2622
1582 422 2735
1578 454 2847
2194 710 70
2200 705 156
2268 675 467
2280 708 1036
1946 718 1690
1492 695 2397
1462 782 2774
1464 806 2885
1471 833 2994
2125 1105 60
2131 1107 145
2140 1116 355
2134 1265 1113
1851 1270 1805
1323 1224 2480
1328 1333 2956
1325 1347 3056
1334 1368 3161
2121 1594 115
2129 1603 204
2123 1604 293
2129 1706 822
1408 1793 1866
1144 1828 2525
1165 1917 3086
1167 1923 3207
1175 1935 3300
1978 2241 268
1973 2248 356
1948 2248 444
1831 2312 823
1273 2344 1722
1091 2363 2479
1078 2389 3085
1082 2400 3294
1091 2409 3386
1755 2797 368
1723 2802 460
1678 2801 557
1526 2786 812
1244 2791 1529
1171 2887 2386
1074 2877 3020
1065 2877 3373
1058 2880 3466
1547 3148 498
1489 3133 615
1418 3115 737
1347 3099 871
1216 3125 1404
1199 3248 2215
1091 3280 2910
1026 3276 3433
1018 3276 3523
1475 3232 542
1415 3214 662
1359 3200 782
1309 3196 897
1210 3225 1372
1186 3341 2157
1098 3392 2870
1010 3378 3432
1000 3377 3540
3124 344 81
3127 345 178
3152 363 614
3151 406 1123
3091 454 1702
3032 513 2279
2967 542 2528
2931 558 2656
2901 576 2782
3072 433 78
3076 432 166
3098 444 555
3102 489 1068
3042 539 1655
2971 602 2249
2885 649 2585
2849 668 2714
2827 691 2836
3001 791 118
3006 787 198
3019 761 457
3021 805 1030
2977 862 1646
2885 907 2265
2767 954 2725
2732 955 2839
2706 963 2953
2912 1207 143
2913 1217 235
2905 1229 398
2909 1353 1065
2913 1411 1765
2814 1459 2397
2637 1449 2934
2543 1428 3054
2462 1421 3168
2877 1647 150
2885 1659 237
2883 1662 323
2929 1776 812
2758 2003 1883
2730 2044 2505
2388 1989 3129
2232 1972 3295
2142 1972 3397
2804 2200 215
2812 2217 305
2811 2226 393
2822 2281 691
2754 2444 1534
2583 2562 2496
2216 2555 3149
2009 2527 3393
1946 2520 3485
2611 2833 328
2611 2838 413
2607 2840 498
2599 2845 630
2555 2954 1446
2423 3025 2322
1896 2986 3060
1773 2955 3443
1749 2951 3535
2488 3222 400
2485 3230 491
2476 3238 589
2457 3248 704
2373 3309 1359
2271 3403 2169
1829 3411 2919
1654 3369 3495
1644 3363 3591
2452 3329 436
2446 3338 532
2434 3344 631
2415 3355 742
2313 3400 1336
2202 3485 2121
1832 3514 2867
1616 3469 3480
1606 3466 3605
3295 373 92
3302 374 177
3329 391 577
3336 444 1105
3308 502 1697
3299 567 2281
3277 609 2555
3262 628 2669
3244 650 2791
3306 472 91
3314 471 178
3336 485 523
3349 540 1063
3323 610 1670
3312 677 2261
3282 740 2617
3267 759 2731
3251 783 2849
3363 791 130
3367 784 208
3373 765 428
3387 816 1005
3376 913 1678
3349 947 2267
3298 993 2726
3284 993 2826
3271 1002 2932
3415 1290 210
3419 1302 304
3419 1312 428
3389 1436 1109
3439 1469 1774
3397 1491 2380
3340 1511 2902
3320 1501 3012
3307 1501 3111
3496 1748 206
3500 1759 298
3500 1765 392
3483 1860 899
3427 2008 1813
3420 2056 2481
3364 2076 3049
3329 2070 3230
3304 2074 3335
3459 2244 254
3457 2252 348
3450 2257 442
3438 2285 715
3354 2478 1675
3341 2627 2499
3311 2666 3135
3246 2646 3431
3218 2645 3531
3318 2791 350
3312 2795 443
3304 2797 537
3292 2796 645
3273 2893 1341
3263 3045 2154
3216 3165 3065
3107 3186 3581
3081 3184 3671
3122 3273 454
3115 3280 545
3106 3287 636
3093 3293 727
3088 3348 1181
3105 3479 2020
3085 3584 2873
2874 3610 3622
2865 3602 3728
3074 3382 473
3068 3388 565
3061 3396 656
3049 3402 747
3046 3449 1141
3068 3578 1968
3046 3687 2814
2769 3711 3588
2768 3705 3739
3405 393 98
3412 394 185
3430 412 565
3436 462 1100
3410 523 1692
3407 584 2269
3393 637 2583
3378 654 2696
3363 669 2805
3414 491 97
3423 490 186
3437 504 511
3448 556 1057
3426 633 1665
3423 700 2252
3398 765 2640
3383 780 2751
3370 798 2860
3471 775 132
3473 767 210
3472 751 412
3481 794 985
3477 896 1658
3458 925 2240
3411 969 2725
3396 973 2830
3385 983 2932
3517 1287 233
3519 1299 327
3518 1304 428
3490 1411 1071
3548 1435 1720
3514 1463 2342
3467 1488 2888
3450 1479 3009
3440 1479 3106
3637 1744 235
3639 1753 331
3639 1757 427
3615 1848 895
3583 1980 1761
3600 2028 2444
3558 2047 3012
3535 2049 3220
3523 2050 3321
3694 2240 315
3693 2247 409
3692 2250 503
3688 2270 715
3625 2461 1638
3643 2611 2475
3648 2652 3110
3622 2631 3430
3609 2629 3524
3708 2752 411
3709 2758 504
3709 2762 597
3711 2761 688
3713 2852 1306
3732 3034 2209
3727 3162 3039
3699 3176 3576
3691 3172 3665
3676 3248 483
3672 3253 570
3668 3257 660
3664 3260 748
3664 3303 1109
3688 3433 1876
3718 3568 2700
3710 3659 3583
3700 3666 3746
3635 3368 497
3629 3376 584
3623 3385 671
3616 3393 758
3611 3432 1050
3634 3574 1838
3669 3698 2644
3673 3790 3521
3660 3806 3753
3514 415 111
3521 418 197
3533 433 569
3533 483 1113
3509 544 1698
3513 602 2272
3503 659 2603
3489 677 2717
3473 690 2827
3525 511 111
3530 511 199
3541 525 514
3545 575 1064
3525 656 1674
3529 719 2258
3508 786 2657
3494 800 2769
3480 815 2877
3577 780 142
3577 773 222
3573 756 412
3577 800 990
3576 901 1661
3561 928 2239
3520 975 2733
3507 975 2838
3495 984 2942
3616 1298 250
3617 1309 344
3615 1313 442
3584 1414 1069
3645 1428 1705
3618 1470 2343
3574 1489 2890
3560 1482 3018
3549 1484 3116
3730 1748 249
3731 1757 346
3731 1762 441
3697 1856 911
3678 1978 1746
3702 2027 2436
3664 2045 3005
3643 2048 3223
3632 2050 3324
3784 2240 326
3783 2247 420
3780 2251 515
3775 2267 714
3716 2454 1623
3738 2603 2461
3751 2643 3099
3728 2620 3429
3714 2619 3523
3792 2744 420
3793 2749 512
3794 2754 604
3794 2753 695
3799 2841 1292
3821 3027 2202
3818 3159 3045
3796 3171 3577
3790 3165 3666
3768 3235 483
3767 3241 570
3768 3245 660
3768 3248 751
3772 3285 1095
3803 3415 1864
3851 3554 2700
3869 3649 3564
3862 3660 3748
3760 3360 496
3759 3368 584
3758 3376 671
3758 3385 760
3761 3419 1031
3790 3543 1775
3839 3679 2582
3886 3791 3465
3876 3815 3744
