滤镜资源/Professional Luts Collection/Triune-Digital-Cinematic-LUTs/3D LUTs (3DL)/LOG/Game of Thrones - LOG.3dl
# Created by Benjamin (IWLTBAP) : http://luts.iwltbap.com
# Copyright: (C) Copyright 2016 Triune Films and IWLTBAP
# Blockbuster LUTs Pack
0 128 256 384 512 640 768 896 1023
0 0 0
8 5 279
22 15 772
51 33 1288
88 106 1810
144 163 2240
158 175 2336
167 188 2423
179 200 2509
23 239 2
34 232 217
68 280 743
92 344 1283
145 393 1817
196 436 2297
218 414 2401
220 417 2484
237 419 2568
89 678 4
97 696 117
129 796 703
187 874 1280
281 940 1847
368 1004 2387
392 1007 2567
399 1009 2653
412 1016 2739
180 1215 49
193 1230 160
220 1323 637
273 1440 1281
390 1542 1875
503 1634 2455
555 1665 2757
569 1667 2847
584 1678 2937
279 1781 133
287 1806 247
302 1864 512
389 2025 1240
486 2171 1920
611 2294 2536
717 2371 2979
736 2375 3069
754 2390 3162
369 2376 224
381 2406 343
395 2428 460
500 2612 1157
608 2792 1895
687 2936 2577
773 3036 3146
805 3046 3281
824 3058 3372
472 2988 313
486 3020 433
496 3049 553
559 3162 974
660 3356 1776
724 3504 2481
766 3608 3134
775 3620 3390
781 3625 3484
497 3247 342
517 3281 463
530 3318 584
560 3371 767
664 3598 1602
720 3766 2333
736 3811 3021
734 3816 3465
733 3822 3539
516 3371 355
537 3404 476
548 3442 597
567 3487 751
669 3698 1547
717 3858 2294
720 3878 2977
716 3883 3480
715 3889 3546
289 10 1
292 21 264
349 25 779
390 50 1311
439 124 1839
475 181 2281
453 198 2376
451 209 2460
460 218 2544
233 223 10
222 221 226
268 262 738
327 325 1284
380 379 1821
431 414 2312
406 404 2420
397 407 2502
400 413 2585
172 665 9
178 680 111
212 774 703
288 862 1270
400 931 1841
494 994 2387
520 999 2581
527 1002 2667
542 1008 2753
251 1211 63
266 1225 178
301 1313 642
387 1436 1294
522 1535 1890
643 1627 2459
697 1662 2775
707 1666 2865
716 1679 2955
355 1781 153
366 1805 270
394 1859 524
509 2026 1260
608 2175 1941
751 2295 2566
855 2377 3020
874 2381 3113
896 2393 3206
465 2379 246
483 2409 370
502 2432 491
620 2615 1176
729 2793 1916
808 2933 2599
903 3035 3171
935 3045 3311
956 3055 3404
574 2998 333
595 3032 455
615 3059 579
679 3161 988
782 3354 1793
847 3499 2500
890 3601 3151
905 3613 3428
906 3625 3509
619 3263 364
637 3303 485
652 3343 606
689 3388 793
787 3609 1616
847 3773 2349
859 3818 3037
857 3829 3468
857 3830 3567
625 3394 369
649 3428 494
670 3464 619
696 3503 769
790 3709 1558
839 3864 2311
843 3884 2995
840 3894 3488
840 3894 3580
827 39 0
861 48 243
926 62 783
992 89 1334
1048 174 1878
1109 236 2356
1098 251 2462
1101 261 2547
1106 273 2632
763 215 3
786 214 179
861 243 739
941 309 1301
1014 367 1853
1066 414 2364
1051 399 2493
1060 403 2578
1077 409 2664
697 651 33
705 669 161
774 771 796
885 863 1372
980 945 1926
1065 1011 2458
1078 1016 2666
1079 1014 2747
1091 1020 2833
645 1198 123
651 1221 247
700 1308 700
797 1437 1369
907 1544 1965
1005 1637 2532
1044 1674 2857
1047 1671 2939
1057 1681 3024
534 1777 198
550 1801 321
579 1840 539
688 2012 1274
786 2156 1960
911 2277 2579
1004 2358 3055
1013 2360 3148
1029 2374 3237
571 2367 277
594 2399 399
616 2424 521
737 2591 1175
842 2772 1914
927 2910 2602
1037 3011 3188
1067 3024 3340
1086 3035 3432
694 2994 365
716 3026 490
734 3054 612
794 3143 981
898 3337 1793
965 3480 2503
1008 3586 3154
1025 3610 3443
1043 3619 3536
735 3294 391
758 3330 518
777 3366 641
810 3406 811
907 3618 1616
965 3782 2350
981 3827 3031
980 3835 3503
979 3839 3576
753 3416 403
781 3447 535
801 3487 659
823 3524 792
910 3724 1556
968 3874 2305
977 3893 2999
979 3903 3514
978 3904 3593
1404 75 0
1451 79 212
1539 94 779
1624 131 1350
1723 211 1914
1788 291 2429
1787 308 2555
1789 321 2642
1801 331 2730
1357 205 1
1382 203 145
1475 218 728
1576 278 1307
1677 344 1877
1750 429 2419
1749 458 2589
1752 472 2677
1759 486 2765
1354 630 46
1364 651 171
1444 749 766
1541 858 1412
1653 946 1996
1749 1023 2547
1773 1035 2787
1774 1035 2866
1784 1043 2949
1309 1209 193
1322 1232 322
1366 1314 745
1461 1460 1495
1590 1579 2115
1705 1681 2707
1762 1729 3080
1763 1730 3161
1776 1740 3249
1266 1807 291
1282 1836 425
1296 1867 610
1409 2056 1428
1522 2207 2139
1634 2324 2758
1709 2399 3255
1711 2401 3355
1719 2413 3439
1181 2422 379
1197 2452 517
1203 2474 652
1283 2623 1264
1384 2786 2016
1454 2913 2702
1526 3005 3286
1533 3020 3453
1543 3028 3543
1007 3014 445
1020 3044 574
1028 3068 694
1060 3133 996
1150 3320 1815
1200 3457 2523
1236 3561 3172
1266 3589 3496
1276 3597 3583
886 3322 434
904 3357 558
924 3386 687
932 3423 813
1021 3624 1590
1086 3784 2337
1106 3834 3024
1103 3845 3515
1102 3847 3595
888 3441 448
917 3475 583
935 3514 706
962 3546 838
1042 3728 1545
1100 3882 2293
1114 3900 2995
1117 3913 3531
1116 3916 3602
2003 108 0
2033 114 168
2158 126 766
2281 167 1361
2385 263 1947
2474 351 2495
2488 372 2652
2496 384 2742
2507 398 2832
1960 189 0
1975 193 103
2101 207 710
2241 293 1317
2344 401 1913
2447 492 2482
2463 526 2690
2466 542 2781
2478 556 2871
1994 606 75
2018 624 190
2109 717 706
2232 833 1379
2333 935 2027
2438 1021 2609
2475 1044 2891
2481 1041 2974
2493 1050 3059
2000 1204 206
2018 1229 339
2061 1298 691
2180 1459 1485
2304 1592 2183
2430 1699 2797
2500 1753 3216
2502 1753 3299
2516 1762 3389
1971 1837 371
1991 1866 509
2002 1888 650
2116 2071 1488
2210 2218 2261
2325 2324 2887
2404 2397 3412
2407 2400 3524
2417 2409 3612
1942 2469 464
1956 2498 600
1964 2520 736
2023 2640 1323
2102 2797 2140
2174 2911 2833
2246 2994 3419
2258 3008 3618
2266 3016 3704
1840 3066 518
1848 3094 653
1853 3116 789
1865 3160 1055
1934 3335 1932
1986 3454 2652
2019 3542 3311
2035 3575 3653
2039 3581 3723
1654 3424 535
1659 3456 671
1663 3484 808
1655 3512 944
1704 3680 1678
1747 3823 2427
1759 3877 3106
1744 3887 3638
1737 3887 3704
1607 3547 575
1615 3580 716
1619 3610 857
1612 3641 992
1656 3782 1629
1694 3919 2372
1692 3937 3061
1667 3947 3628
1660 3947 3707
2580 141 11
2620 138 131
2763 147 743
2893 211 1363
3038 310 1971
3141 414 2550
3165 446 2749
3174 461 2842
3190 475 2935
2566 217 26
2592 219 136
2724 234 691
2867 345 1323
3008 456 1943
3125 562 2538
3163 604 2793
3166 622 2887
3180 638 2980
2608 577 98
2631 597 212
2743 675 642
2896 800 1327
3018 911 1991
3127 1002 2634
3172 1036 2992
3178 1033 3076
3192 1043 3162
2667 1196 209
2689 1223 342
2732 1273 619
2886 1440 1438
3023 1571 2151
3130 1671 2821
3205 1727 3292
3209 1725 3381
3221 1734 3469
2702 1849 383
2721 1878 519
2734 1896 657
2845 2052 1429
2940 2190 2225
3029 2292 2913
3111 2361 3470
3118 2365 3602
3127 2373 3689
2668 2489 524
2687 2512 665
2694 2533 800
2743 2626 1307
2810 2774 2175
2859 2880 2924
2933 2952 3518
2949 2967 3752
2956 2974 3833
2595 3085 577
2602 3110 711
2608 3130 848
2612 3158 1056
2661 3313 1968
2693 3419 2747
2726 3493 3408
2751 3522 3781
2751 3527 3840
2448 3497 583
2452 3525 719
2451 3554 850
2446 3578 986
2467 3708 1704
2491 3836 2512
2508 3915 3196
2496 3929 3757
2492 3928 3820
2398 3612 593
2402 3643 734
2406 3670 878
2402 3696 1019
2413 3808 1641
2436 3933 2448
2444 3984 3134
2420 3993 3728
2413 3996 3818
2764 143 20
2783 152 130
2930 157 687
3083 220 1322
3242 328 1944
3386 431 2541
3436 475 2788
3455 492 2884
3475 508 2978
2801 225 39
2818 236 150
2960 243 638
3131 354 1289
3289 476 1923
3432 590 2537
3508 641 2844
3529 658 2940
3549 674 3035
2911 523 102
2941 544 217
3056 601 571
3246 731 1262
3408 844 1928
3548 939 2578
3626 983 2998
3641 978 3091
3657 991 3186
3139 1167 220
3177 1193 341
3220 1225 529
3411 1390 1359
3575 1515 2083
3705 1611 2762
3785 1674 3303
3797 1672 3414
3809 1680 3511
3344 1837 373
3368 1863 510
3388 1881 647
3502 2007 1342
3616 2138 2145
3712 2235 2841
3776 2303 3473
3785 2310 3641
3795 2317 3729
3391 2477 509
3408 2500 647
3420 2516 785
3457 2583 1192
3531 2723 2086
3575 2819 2858
3620 2886 3516
3640 2902 3793
3644 2907 3860
3308 3080 606
3318 3100 745
3319 3120 878
3320 3135 1040
3370 3266 1934
3385 3360 2760
3393 3424 3472
3419 3451 3881
3420 3453 3942
3177 3548 616
3183 3570 754
3186 3592 891
3182 3611 1026
3198 3704 1654
3200 3811 2528
3192 3882 3261
3193 3924 3857
3189 3929 3941
3137 3659 639
3142 3684 789
3144 3708 932
3139 3731 1073
3146 3810 1597
3143 3918 2469
3132 3993 3193
3117 4031 3811
3109 4032 3955
2863 153 27
2892 157 136
3034 159 659
3188 223 1300
3354 332 1927
3491 442 2531
3549 491 2805
3572 507 2902
3593 523 2996
2904 233 46
2920 243 157
3057 248 609
3240 355 1267
3398 481 1906
3539 600 2525
3627 655 2861
3655 669 2958
3672 688 3054
2999 491 100
3032 509 214
3131 554 524
3333 680 1223
3498 792 1883
3642 883 2530
3733 937 2981
3748 937 3075
3767 948 3175
3233 1127 218
3272 1153 339
3308 1174 475
3508 1336 1294
3680 1462 2022
3818 1558 2705
3905 1622 3274
3920 1620 3397
3927 1629 3489
3494 1794 363
3519 1821 499
3544 1838 635
3656 1951 1266
3789 2081 2079
3896 2178 2779
3951 2246 3423
3955 2253 3629
3957 2259 3725
3674 2438 493
3693 2461 631
3715 2477 770
3754 2526 1091
3851 2665 2004
3917 2757 2779
3968 2820 3447
3980 2838 3794
3984 2841 3861
3781 3048 577
3798 3066 716
3808 3082 851
3819 3091 986
3883 3204 1829
3914 3290 2665
3930 3348 3398
3954 3373 3898
3960 3374 3958
3803 3566 676
3811 3583 809
3817 3598 943
3820 3611 1075
3842 3674 1602
3859 3763 2478
3836 3821 3255
3813 3854 3905
3815 3857 4025
3768 3691 755
3777 3713 903
3780 3734 1048
3782 3753 1197
3790 3805 1598
3798 3893 2455
3778 3953 3192
3746 3993 3847
3738 4006 4018
2983 152 32
3015 153 143
3131 166 647
3296 228 1293
3463 340 1924
3613 448 2533
3671 503 2823
3691 520 2919
3717 534 3015
3006 240 52
3040 242 163
3151 258 599
3350 360 1261
3508 490 1905
3657 608 2527
3751 666 2879
3773 684 2976
3793 702 3072
3096 484 103
3127 501 217
3219 541 507
3431 667 1212
3602 777 1875
3755 870 2521
3849 933 2986
3865 930 3079
3884 940 3177
3341 1116 222
3384 1140 342
3413 1163 469
3616 1321 1274
3792 1446 2006
3932 1540 2689
3998 1605 3269
4001 1602 3396
4000 1612 3490
3603 1787 356
3631 1811 495
3657 1828 632
3764 1937 1242
3899 2067 2056
4004 2159 2761
4018 2225 3409
4021 2233 3626
4022 2239 3722
3786 2429 488
3808 2449 627
3826 2467 764
3864 2510 1064
3962 2649 1981
4023 2739 2757
4037 2799 3427
4046 2816 3788
4047 2819 3857
3895 3037 571
3909 3055 708
3921 3071 841
3930 3081 977
3993 3188 1800
4029 3270 2641
4045 3327 3376
4063 3351 3894
4064 3353 3958
3916 3560 689
3928 3578 813
3938 3591 950
3946 3601 1097
3973 3658 1587
4000 3744 2461
3993 3798 3223
3970 3829 3897
3979 3830 4035
3920 3698 790
3930 3721 934
3940 3740 1088
3947 3759 1233
3963 3802 1621
3982 3886 2455
3973 3941 3178
3945 3977 3850
3943 3988 4039
