滤镜资源/Professional Luts Collection/Triune-Digital-Cinematic-LUTs/3D LUTs (3DL)/LOG/Game of Thrones - LOG.3dl
# Created by Benjamin (IWLTBAP) : http://luts.iwltbap.com
# Copyright: (C) Copyright 2016 Triune Films and IWLTBAP
# Blockbuster LUTs Pack
0 64 128 192 256 320 384 448 512 576 640 704 768 832 896 960 1023
0 0 0
3 2 103
8 5 279
14 10 516
22 15 772
43 15 1029
51 33 1288
72 66 1549
88 106 1810
116 143 2070
144 163 2240
154 168 2292
158 175 2336
163 181 2379
167 188 2423
174 193 2466
179 200 2509
13 81 2
10 82 73
14 81 253
27 78 494
34 79 755
41 87 1018
66 106 1282
73 136 1544
107 164 1806
127 204 2065
161 225 2257
176 228 2311
180 235 2354
183 242 2398
187 249 2440
192 255 2483
195 262 2525
23 239 2
32 233 44
34 232 217
49 253 474
68 280 743
82 312 1014
92 344 1283
121 367 1552
145 393 1817
175 417 2079
196 436 2297
215 422 2361
218 414 2401
221 414 2443
220 417 2484
225 417 2525
237 419 2568
58 421 3
56 430 42
54 456 173
77 496 449
92 536 726
113 572 1005
129 608 1283
168 635 1559
192 671 1833
243 694 2103
284 714 2346
298 712 2440
305 703 2481
311 703 2523
315 704 2565
316 705 2607
320 712 2650
89 678 4
92 686 44
97 696 117
112 747 410
129 796 703
148 840 992
187 874 1280
220 913 1564
281 940 1847
316 980 2125
368 1004 2387
390 1012 2525
392 1007 2567
395 1007 2610
399 1009 2653
404 1010 2695
412 1016 2739
126 945 14
134 952 66
136 960 122
148 1005 362
177 1055 679
194 1109 982
229 1155 1274
279 1197 1567
335 1239 1858
380 1282 2145
430 1317 2423
468 1334 2616
472 1329 2659
477 1330 2703
482 1332 2747
488 1333 2790
497 1340 2835
180 1215 49
189 1223 104
193 1230 160
194 1262 306
220 1323 637
245 1382 964
273 1440 1281
324 1495 1579
390 1542 1875
455 1587 2165
503 1634 2455
545 1667 2695
555 1665 2757
561 1665 2802
569 1667 2847
576 1670 2891
584 1678 2937
229 1496 89
237 1505 146
243 1513 205
246 1523 274
267 1590 588
289 1665 928
328 1732 1264
376 1796 1594
432 1855 1903
496 1912 2194
562 1964 2484
620 2006 2760
640 2012 2861
649 2011 2906
656 2015 2952
662 2019 2998
670 2028 3045
279 1781 133
284 1794 190
287 1806 247
290 1815 304
302 1864 512
345 1943 891
389 2025 1240
438 2101 1583
486 2171 1920
539 2237 2234
611 2294 2536
685 2347 2829
717 2371 2979
727 2371 3025
736 2375 3069
744 2380 3115
754 2390 3162
326 2076 178
336 2086 237
342 2098 298
347 2107 358
354 2131 462
387 2228 828
443 2322 1202
498 2407 1562
551 2486 1915
602 2559 2259
653 2627 2579
717 2686 2876
771 2719 3090
785 2722 3151
795 2727 3196
806 2730 3243
818 2738 3290
369 2376 224
373 2391 283
381 2406 343
387 2417 401
395 2428 460
435 2504 751
500 2612 1157
559 2705 1535
608 2792 1895
650 2868 2243
687 2936 2577
728 2992 2894
773 3036 3146
794 3043 3235
805 3046 3281
815 3049 3327
824 3058 3372
419 2678 271
415 2700 331
423 2716 391
429 2730 451
436 2743 511
470 2777 663
536 2895 1082
591 2995 1473
639 3080 1845
679 3157 2200
712 3224 2540
738 3286 2866
765 3336 3166
779 3353 3296
788 3355 3342
797 3359 3387
805 3368 3431
472 2988 313
478 3004 373
486 3020 433
490 3035 493
496 3049 553
504 3060 612
559 3162 974
616 3268 1394
660 3356 1776
697 3434 2138
724 3504 2481
752 3561 2817
766 3608 3134
769 3621 3338
775 3620 3390
780 3618 3436
781 3625 3484
494 3180 335
499 3199 395
505 3218 456
511 3236 517
521 3254 577
533 3269 637
567 3328 848
626 3447 1289
666 3549 1681
705 3631 2056
729 3709 2405
744 3749 2746
747 3765 3083
746 3769 3358
747 3767 3444
747 3767 3495
747 3770 3530
497 3247 342
506 3263 402
517 3281 463
521 3300 524
530 3318 584
538 3336 645
560 3371 767
622 3489 1198
664 3598 1602
703 3686 1984
720 3766 2333
734 3802 2691
736 3811 3021
735 3817 3335
734 3816 3465
734 3819 3505
733 3822 3539
507 3309 348
519 3323 409
530 3341 470
531 3362 530
538 3380 591
546 3398 651
562 3425 746
619 3529 1128
665 3639 1548
700 3733 1929
721 3805 2287
727 3834 2653
728 3844 2976
726 3849 3305
726 3849 3475
725 3852 3508
724 3856 3542
516 3371 355
526 3386 416
537 3404 476
540 3425 537
548 3442 597
555 3460 657
567 3487 751
623 3588 1124
669 3698 1547
702 3791 1928
717 3858 2294
720 3866 2662
720 3878 2977
718 3881 3312
716 3883 3480
716 3886 3513
715 3889 3546
104 5 1
104 6 94
106 8 270
103 15 514
105 20 774
122 18 1035
130 36 1295
149 72 1555
168 111 1815
193 146 2073
208 169 2248
213 175 2301
219 181 2344
224 187 2388
229 194 2431
234 200 2474
243 204 2517
81 76 4
76 75 74
83 73 246
101 64 487
83 72 750
88 78 1013
109 98 1277
123 138 1543
161 170 1806
190 209 2066
221 234 2265
235 238 2320
241 243 2363
244 250 2406
247 257 2449
252 263 2491
259 267 2533
70 231 3
66 232 44
74 228 215
87 245 468
108 271 738
126 301 1009
136 336 1280
174 357 1549
198 389 1816
240 410 2078
264 429 2302
271 422 2368
272 415 2408
276 416 2449
280 417 2491
285 416 2532
296 418 2574
98 417 6
98 423 47
97 448 169
118 487 450
135 528 722
153 566 1002
181 599 1281
213 636 1559
266 662 1833
310 690 2104
347 713 2349
360 713 2448
364 705 2489
371 704 2531
376 704 2573
381 704 2615
389 709 2658
127 676 7
131 683 47
136 692 113
150 745 410
168 791 707
195 833 992
229 873 1279
293 905 1565
347 939 1848
387 976 2126
433 1004 2390
457 1013 2534
459 1006 2575
462 1007 2618
465 1010 2661
470 1011 2704
477 1018 2748
165 944 19
169 953 72
173 960 129
190 1001 361
214 1053 683
236 1106 990
286 1153 1279
350 1194 1572
403 1238 1860
449 1281 2147
500 1316 2427
532 1338 2623
536 1333 2668
540 1333 2712
548 1334 2756
557 1334 2800
567 1340 2844
216 1216 57
225 1224 112
231 1231 169
234 1260 310
257 1321 642
288 1382 971
330 1442 1290
387 1496 1590
459 1541 1885
524 1587 2173
575 1634 2459
615 1668 2701
626 1667 2767
633 1667 2812
638 1670 2857
644 1673 2901
652 1680 2947
272 1493 100
276 1505 156
281 1513 215
284 1524 281
304 1589 592
341 1665 937
390 1732 1277
436 1799 1606
495 1858 1914
565 1913 2209
630 1965 2498
687 2010 2772
709 2016 2876
718 2015 2920
727 2018 2964
736 2021 3009
745 2030 3055
318 1783 143
323 1795 200
326 1807 257
329 1816 314
341 1862 518
397 1947 898
450 2028 1252
497 2104 1594
547 2175 1932
606 2239 2249
683 2296 2553
753 2351 2845
787 2376 3000
797 2375 3047
806 2380 3092
814 2385 3136
823 2395 3182
365 2078 186
372 2089 248
379 2100 309
384 2109 369
392 2130 467
445 2230 838
505 2324 1215
561 2409 1576
616 2489 1930
665 2564 2273
717 2630 2592
786 2687 2891
837 2721 3107
849 2724 3167
861 2728 3214
874 2729 3263
885 2737 3310
410 2378 232
416 2392 291
425 2407 352
433 2419 413
443 2429 474
490 2508 759
560 2615 1167
619 2710 1546
670 2793 1908
709 2870 2253
748 2936 2590
790 2992 2904
838 3036 3160
861 3043 3252
871 3046 3297
879 3050 3341
888 3059 3385
460 2683 279
464 2704 339
479 2719 400
492 2732 461
501 2745 520
530 2780 672
597 2896 1093
652 2996 1484
699 3082 1855
741 3156 2211
773 3224 2551
800 3284 2877
827 3335 3177
847 3351 3314
856 3353 3359
866 3357 3405
876 3365 3450
517 2993 320
527 3010 381
536 3027 441
545 3042 502
554 3055 563
564 3066 624
619 3164 982
678 3268 1405
720 3358 1785
758 3433 2148
785 3503 2491
810 3561 2824
828 3606 3144
835 3618 3357
841 3617 3408
843 3618 3455
843 3626 3496
547 3187 343
558 3206 404
566 3227 464
571 3248 524
583 3265 585
594 3281 647
627 3338 853
688 3454 1299
727 3556 1691
765 3638 2064
790 3713 2415
803 3755 2752
808 3766 3100
808 3774 3357
807 3773 3437
808 3773 3490
809 3774 3539
547 3255 350
557 3275 410
568 3294 471
579 3312 531
591 3329 592
603 3347 653
625 3380 778
681 3497 1203
724 3604 1609
762 3693 1989
786 3768 2344
796 3809 2685
797 3813 3037
796 3823 3331
794 3824 3459
795 3824 3513
795 3826 3557
551 3319 356
567 3336 417
580 3353 477
588 3373 538
599 3391 598
611 3408 659
630 3431 758
680 3536 1134
724 3647 1554
758 3740 1933
783 3807 2300
789 3841 2642
789 3847 2990
788 3854 3302
786 3855 3474
786 3856 3522
786 3858 3562
557 3382 362
572 3399 423
587 3416 483
596 3435 544
607 3452 604
617 3470 665
634 3494 758
684 3594 1130
731 3703 1556
761 3797 1933
778 3861 2306
783 3873 2651
782 3880 2994
780 3887 3308
777 3887 3488
778 3888 3532
778 3891 3565
289 10 1
279 16 83
292 21 264
320 22 514
349 25 779
357 38 1045
390 50 1311
407 91 1577
439 124 1839
460 159 2098
475 181 2281
463 190 2334
453 198 2376
452 203 2418
451 209 2460
451 215 2502
460 218 2544
256 75 2
267 65 61
265 70 235
282 69 487
306 70 754
322 86 1022
351 118 1291
377 156 1559
407 191 1824
428 229 2085
439 258 2291
429 267 2349
425 271 2391
427 275 2433
430 280 2475
436 282 2517
449 283 2559
233 223 10
226 224 51
222 221 226
248 231 474
268 262 738
292 297 1012
327 325 1284
349 356 1554
380 379 1821
397 405 2083
431 414 2312
421 409 2382
406 404 2420
402 405 2461
397 407 2502
395 407 2543
400 413 2585
206 404 10
204 410 53
199 429 175
211 472 453
233 515 718
262 552 998
299 586 1278
322 624 1555
357 652 1829
398 672 2098
425 695 2346
438 696 2453
439 687 2493
445 686 2535
451 685 2577
457 685 2619
464 690 2662
172 665 9
175 673 48
178 680 111
191 730 402
212 774 703
251 816 983
288 862 1270
357 891 1557
400 931 1841
451 964 2120
494 994 2387
517 1005 2539
520 999 2581
523 1000 2624
527 1002 2667
535 1002 2710
542 1008 2753
203 935 24
205 945 78
208 953 135
228 988 358
250 1045 676
292 1091 994
351 1138 1286
411 1185 1572
472 1226 1856
519 1269 2143
571 1305 2424
603 1328 2627
609 1323 2675
615 1323 2719
621 1325 2763
629 1326 2807
638 1332 2851
251 1211 63
260 1218 119
266 1225 178
271 1250 309
301 1313 642
339 1375 973
387 1436 1294
451 1489 1596
522 1535 1890
586 1582 2177
643 1627 2459
685 1663 2705
697 1662 2775
703 1662 2820
707 1666 2865
710 1670 2909
716 1679 2955
310 1488 112
313 1501 167
318 1509 226
321 1519 288
351 1584 593
394 1661 941
447 1729 1283
497 1795 1614
558 1856 1920
632 1909 2220
698 1960 2510
758 2006 2784
778 2015 2892
785 2015 2935
792 2019 2980
802 2022 3024
813 2030 3070
355 1781 153
360 1792 212
366 1805 270
371 1814 327
394 1859 524
453 1945 904
509 2026 1260
559 2103 1605
608 2175 1941
673 2238 2261
751 2295 2566
820 2352 2859
855 2377 3020
865 2378 3068
874 2381 3113
885 2384 3159
896 2393 3206
406 2079 197
414 2091 259
426 2103 321
433 2112 382
446 2130 473
504 2229 846
564 2324 1222
625 2408 1589
678 2489 1942
726 2564 2283
782 2629 2602
855 2685 2904
906 2719 3125
915 2723 3185
924 2727 3229
935 2729 3276
947 2736 3325
465 2379 246
472 2394 307
483 2409 370
491 2421 430
502 2432 491
550 2508 768
620 2615 1176
679 2708 1555
729 2793 1916
770 2868 2263
808 2933 2599
851 2990 2912
903 3035 3171
925 3042 3265
935 3045 3311
946 3048 3358
956 3055 3404
517 2689 290
528 2706 352
543 2720 417
555 2734 480
564 2747 541
588 2782 679
657 2895 1100
712 2995 1493
760 3079 1864
800 3154 2218
833 3222 2558
862 3280 2887
887 3332 3183
909 3351 3326
920 3352 3372
934 3354 3420
945 3361 3467
574 2998 333
585 3015 394
595 3032 455
604 3047 516
615 3059 579
628 3067 644
679 3161 988
738 3266 1412
782 3354 1793
819 3430 2155
847 3499 2500
869 3559 2830
890 3601 3151
901 3614 3379
905 3613 3428
905 3616 3472
906 3625 3509
613 3197 361
625 3216 424
634 3236 484
637 3259 540
644 3279 600
654 3294 662
685 3346 857
747 3461 1304
788 3561 1698
823 3644 2069
852 3716 2423
867 3756 2761
869 3770 3098
870 3775 3379
871 3774 3460
870 3776 3502
871 3777 3550
619 3263 364
628 3284 424
637 3303 485
644 3323 545
652 3343 606
664 3359 670
689 3388 793
738 3506 1202
787 3609 1616
820 3700 1991
847 3773 2349
858 3812 2692
859 3818 3037
858 3826 3339
857 3829 3468
857 3829 3518
857 3830 3567
621 3330 364
631 3349 425
642 3366 489
652 3385 551
661 3403 612
673 3419 676
693 3440 771
738 3543 1133
785 3653 1558
817 3746 1936
842 3812 2302
850 3845 2647
851 3851 2991
850 3858 3307
848 3861 3477
848 3861 3523
848 3862 3574
625 3394 369
636 3412 430
649 3428 494
659 3446 556
670 3464 619
680 3481 681
696 3503 769
748 3597 1133
790 3709 1558
820 3803 1936
839 3864 2311
843 3878 2647
843 3884 2995
843 3891 3311
840 3894 3488
840 3894 3534
840 3894 3580
528 29 1
548 26 70
578 29 253
605 37 513
626 46 782
652 55 1053
678 73 1323
707 111 1593
733 150 1859
763 184 2122
776 213 2318
770 220 2376
763 226 2418
764 231 2460
763 237 2502
762 242 2544
771 246 2587
500 72 1
501 74 43
542 71 224
566 80 486
591 89 758
625 98 1031
648 139 1305
687 175 1576
707 218 1845
738 254 2110
754 286 2328
756 292 2392
754 295 2434
754 301 2476
753 307 2519
752 314 2561
