滤镜资源/Professional Luts Collection/Triune-Digital-Cinematic-LUTs/3D LUTs (3DL)/LOG/Game of Thrones - LOG.3dl
# Created by Benjamin (IWLTBAP) : http://luts.iwltbap.com
# Copyright: (C) Copyright 2016 Triune Films and IWLTBAP
# Blockbuster LUTs Pack
0 256 512 768 1023
0 0 0
22 15 772
88 106 1810
158 175 2336
179 200 2509
89 678 4
129 796 703
281 940 1847
392 1007 2567
412 1016 2739
279 1781 133
302 1864 512
486 2171 1920
717 2371 2979
754 2390 3162
472 2988 313
496 3049 553
660 3356 1776
766 3608 3134
781 3625 3484
516 3371 355
548 3442 597
669 3698 1547
720 3878 2977
715 3889 3546
827 39 0
926 62 783
1048 174 1878
1098 251 2462
1106 273 2632
697 651 33
774 771 796
980 945 1926
1078 1016 2666
1091 1020 2833
534 1777 198
579 1840 539
786 2156 1960
1004 2358 3055
1029 2374 3237
694 2994 365
734 3054 612
898 3337 1793
1008 3586 3154
1043 3619 3536
753 3416 403
801 3487 659
910 3724 1556
977 3893 2999
978 3904 3593
2003 108 0
2158 126 766
2385 263 1947
2488 372 2652
2507 398 2832
1994 606 75
2109 717 706
2333 935 2027
2475 1044 2891
2493 1050 3059
1971 1837 371
2002 1888 650
2210 2218 2261
2404 2397 3412
2417 2409 3612
1840 3066 518
1853 3116 789
1934 3335 1932
2019 3542 3311
2039 3581 3723
1607 3547 575
1619 3610 857
1656 3782 1629
1692 3937 3061
1660 3947 3707
2764 143 20
2930 157 687
3242 328 1944
3436 475 2788
3475 508 2978
2911 523 102
3056 601 571
3408 844 1928
3626 983 2998
3657 991 3186
3344 1837 373
3388 1881 647
3616 2138 2145
3776 2303 3473
3795 2317 3729
3308 3080 606
3319 3120 878
3370 3266 1934
3393 3424 3472
3420 3453 3942
3137 3659 639
3144 3708 932
3146 3810 1597
3132 3993 3193
3109 4032 3955
2983 152 32
3131 166 647
3463 340 1924
3671 503 2823
3717 534 3015
3096 484 103
3219 541 507
3602 777 1875
3849 933 2986
3884 940 3177
3603 1787 356
3657 1828 632
3899 2067 2056
4018 2225 3409
4022 2239 3722
3895 3037 571
3921 3071 841
3993 3188 1800
4045 3327 3376
4064 3353 3958
3920 3698 790
3940 3740 1088
3963 3802 1621
3973 3941 3178
3943 3988 4039
