滤镜资源/Professional Luts Collection/Triune-Digital-Cinematic-LUTs/3D LUTs (3DL)/LOG/Gone Girl - LOG.3dl
# Created by Benjamin (IWLTBAP) : http://luts.iwltbap.com
# Copyright: (C) Copyright 2016 Triune Films and IWLTBAP
# Blockbuster LUTs Pack
0 64 128 192 256 320 384 448 512 576 640 704 768 832 896 960 1023
24 23 9
32 46 80
73 85 352
117 98 679
148 95 992
245 131 1310
379 151 1699
485 199 2054
593 253 2380
720 290 2712
806 311 2945
830 319 3019
851 325 3082
873 331 3147
894 338 3210
915 345 3273
934 352 3334
44 113 16
37 118 60
57 153 274
102 183 589
126 171 915
216 191 1245
355 196 1640
464 230 2002
575 280 2344
705 314 2680
806 335 2951
832 343 3030
853 349 3093
873 356 3156
894 363 3219
917 367 3284
936 375 3346
69 334 37
62 329 61
51 321 216
73 354 492
86 354 825
157 357 1151
277 348 1547
403 348 1927
524 373 2288
681 389 2651
794 410 2957
823 415 3049
852 411 3116
875 413 3181
897 416 3244
922 417 3310
943 423 3373
77 619 80
74 610 114
68 594 211
68 593 443
77 614 769
126 620 1103
216 616 1495
338 595 1871
453 589 2230
584 593 2591
731 596 2933
795 586 3079
830 573 3151
865 566 3224
900 559 3297
928 557 3364
953 561 3425
93 902 158
92 894 192
91 881 233
89 879 428
89 897 722
105 917 1064
178 918 1458
285 900 1836
400 884 2181
502 885 2528
623 877 2879
712 864 3080
746 851 3144
779 844 3211
814 837 3279
842 835 3336
866 839 3393
128 1204 229
127 1198 257
125 1188 283
124 1182 414
125 1198 683
135 1216 1012
177 1227 1395
258 1218 1804
346 1210 2154
453 1202 2490
575 1190 2851
653 1177 3116
677 1164 3177
702 1155 3238
726 1152 3291
750 1148 3343
776 1151 3395
175 1518 306
174 1514 330
173 1507 354
172 1502 419
174 1517 646
182 1540 967
197 1550 1326
239 1558 1746
299 1556 2117
376 1555 2459
505 1537 2824
612 1516 3133
640 1502 3216
658 1494 3271
676 1491 3322
695 1487 3373
713 1490 3423
224 1834 386
223 1832 408
222 1827 429
221 1822 455
223 1835 625
227 1863 918
232 1881 1263
245 1889 1671
281 1899 2057
342 1902 2409
427 1906 2784
543 1886 3137
589 1871 3253
608 1863 3302
627 1858 3351
643 1855 3401
659 1858 3451
271 2144 472
271 2145 492
271 2144 512
270 2140 531
271 2149 628
277 2181 886
284 2206 1217
289 2214 1605
302 2220 2005
335 2234 2364
385 2251 2746
460 2252 3145
524 2238 3314
549 2226 3363
572 2219 3409
598 2212 3453
619 2211 3508
321 2451 559
322 2453 578
322 2453 597
322 2451 616
322 2451 660
330 2479 870
339 2511 1178
343 2530 1543
353 2538 1949
366 2554 2309
400 2576 2688
452 2588 3105
490 2594 3362
504 2588 3430
517 2585 3480
536 2580 3530
564 2574 3587
378 2764 647
379 2765 666
379 2766 686
378 2765 705
378 2763 729
381 2781 873
393 2811 1151
399 2832 1498
405 2850 1889
416 2865 2261
432 2884 2617
463 2905 3037
501 2920 3367
515 2919 3466
523 2919 3519
532 2916 3581
542 2918 3645
436 3073 745
437 3077 766
438 3080 786
438 3080 806
438 3080 829
439 3086 899
450 3118 1142
458 3144 1465
461 3168 1841
470 3188 2217
483 3202 2562
497 3212 2962
528 3232 3348
546 3237 3498
551 3234 3557
560 3231 3622
571 3231 3686
495 3383 850
495 3387 869
496 3390 889
497 3392 911
497 3391 933
497 3390 957
506 3419 1145
516 3452 1444
521 3480 1805
530 3507 2178
538 3527 2519
548 3535 2905
563 3546 3301
587 3556 3528
588 3553 3600
591 3553 3667
594 3556 3735
531 3580 916
533 3586 936
534 3592 956
536 3598 979
537 3603 1004
538 3607 1030
543 3626 1138
552 3665 1411
557 3699 1750
570 3734 2117
581 3765 2459
592 3786 2836
603 3806 3233
623 3822 3538
630 3824 3638
636 3826 3704
642 3828 3770
544 3648 938
545 3655 957
546 3661 978
548 3667 1001
549 3673 1026
550 3679 1053
553 3691 1117
562 3731 1365
569 3766 1691
581 3804 2057
614 3828 2406
652 3842 2766
681 3857 3166
722 3871 3505
734 3876 3643
742 3878 3708
750 3881 3773
555 3717 960
556 3723 978
557 3729 999
559 3735 1022
560 3741 1047
561 3746 1074
563 3756 1123
571 3790 1340
585 3822 1658
625 3843 2025
673 3860 2383
713 3874 2735
742 3888 3128
786 3902 3477
800 3908 3652
806 3911 3713
814 3913 3778
566 3786 981
567 3792 999
569 3797 1020
570 3803 1044
571 3809 1069
572 3814 1096
574 3824 1143
607 3841 1370
644 3858 1694
688 3877 2058
736 3893 2413
777 3907 2759
809 3922 3144
854 3936 3487
869 3942 3665
873 3944 3723
879 3946 3784
146 65 36
161 66 95
182 82 337
229 98 657
251 93 978
327 130 1310
453 152 1688
545 201 2047
642 254 2376
763 290 2705
846 312 2947
870 320 3023
891 326 3087
913 332 3151
934 339 3214
954 346 3277
973 353 3339
102 113 17
102 111 56
127 142 264
175 175 580
198 163 908
271 183 1247
397 190 1630
501 230 1993
608 281 2338
737 314 2674
843 336 2953
870 344 3034
891 350 3097
911 357 3160
933 363 3224
955 368 3288
975 376 3350
107 322 36
105 315 60
98 307 206
124 342 482
145 344 812
209 349 1148
325 341 1537
449 342 1918
566 370 2283
716 386 2645
829 405 2956
860 411 3051
888 407 3118
911 410 3182
934 413 3246
959 414 3312
979 420 3375
111 609 80
113 598 114
108 582 204
111 580 432
121 604 759
166 610 1098
257 605 1483
375 585 1858
492 581 2225
625 587 2588
769 589 2931
835 581 3085
870 568 3156
905 560 3229
940 554 3302
968 552 3368
993 556 3430
116 900 155
116 891 187
114 879 224
113 875 420
115 892 715
135 910 1059
217 906 1442
322 888 1822
432 874 2173
531 877 2523
658 871 2874
751 859 3082
785 845 3146
819 838 3213
852 831 3281
879 830 3338
905 834 3395
146 1200 226
146 1194 257
145 1183 282
143 1177 408
146 1192 676
161 1208 1005
204 1219 1385
291 1206 1791
378 1198 2144
482 1193 2484
602 1182 2845
681 1170 3114
710 1157 3178
735 1148 3239
763 1145 3291
789 1142 3343
815 1145 3395
191 1514 302
191 1510 330
190 1503 354
189 1497 416
191 1512 640
203 1532 961
219 1541 1318
263 1547 1738
328 1544 2109
406 1545 2451
534 1528 2816
636 1508 3130
665 1493 3218
683 1486 3272
701 1483 3323
719 1479 3374
737 1481 3424
237 1829 384
238 1827 408
237 1823 429
236 1817 454
237 1829 619
243 1857 910
249 1874 1256
262 1881 1663
299 1892 2051
364 1897 2403
453 1898 2775
568 1877 3132
615 1862 3252
634 1853 3302
653 1849 3351
669 1846 3401
684 1849 3451
284 2141 470
285 2142 492
285 2141 511
284 2137 531
285 2145 623
291 2175 878
299 2199 1210
304 2206 1597
317 2215 1999
353 2230 2358
403 2245 2740
482 2244 3139
550 2229 3312
575 2217 3361
598 2211 3407
623 2204 3452
643 2203 3508
335 2447 558
336 2448 579
337 2448 598
336 2446 617
337 2445 657
344 2473 864
353 2505 1171
357 2524 1535
368 2535 1943
381 2551 2305
415 2572 2683
468 2583 3100
509 2588 3362
527 2580 3430
540 2577 3479
559 2572 3529
588 2566 3586
391 2759 647
392 2760 667
392 2761 686
392 2760 705
392 2758 729
394 2776 868
407 2807 1145
412 2829 1492
419 2848 1883
430 2863 2257
444 2881 2613
477 2901 3032
517 2916 3366
531 2915 3468
539 2914 3521
548 2911 3583
558 2913 3647
449 3075 746
451 3078 767
451 3081 787
451 3081 806
451 3080 829
453 3086 897
463 3117 1137
471 3142 1459
474 3166 1835
483 3186 2212
495 3199 2558
509 3209 2956
540 3228 3345
559 3233 3501
564 3231 3560
574 3227 3624
586 3227 3688
507 3384 851
508 3387 871
509 3391 890
510 3392 911
510 3392 934
510 3391 958
518 3418 1140
528 3451 1439
533 3479 1799
542 3506 2173
549 3524 2514
559 3532 2899
575 3542 3296
600 3553 3530
601 3550 3602
603 3549 3669
606 3552 3737
545 3588 919
547 3594 939
548 3600 960
549 3606 983
551 3611 1007
552 3615 1033
556 3633 1136
566 3671 1408
570 3705 1745
583 3739 2113
594 3770 2456
606 3790 2831
617 3809 3229
641 3823 3539
647 3825 3640
653 3827 3706
659 3829 3773
557 3656 941
558 3662 960
560 3668 981
561 3675 1004
562 3680 1029
563 3686 1056
566 3698 1117
575 3737 1361
582 3772 1686
594 3809 2051
633 3830 2403
671 3844 2761
699 3859 3161
741 3873 3502
753 3878 3646
761 3880 3711
769 3883 3776
568 3725 962
570 3731 981
571 3737 1002
572 3742 1025
573 3748 1050
574 3754 1077
576 3763 1123
585 3796 1336
601 3826 1654
644 3845 2020
691 3862 2381
732 3876 2731
761 3890 3123
804 3904 3473
819 3910 3655
825 3913 3716
833 3915 3780
580 3793 984
581 3799 1003
582 3805 1024
583 3811 1047
584 3816 1072
585 3822 1099
591 3828 1145
626 3844 1369
663 3861 1692
707 3879 2054
754 3895 2410
795 3909 2755
827 3923 3139
872 3937 3482
888 3944 3668
891 3946 3726
898 3948 3786
578 189 144
585 184 205
525 134 360
505 101 629
518 96 948
574 131 1305
679 155 1684
752 207 2040
842 254 2381
950 292 2702
1029 317 2956
1044 324 3037
1057 330 3101
1074 336 3164
1091 342 3228
1108 348 3290
1127 356 3352
415 193 91
427 190 128
408 166 287
408 159 560
436 150 884
490 177 1242
603 191 1625
686 236 1986
781 282 2342
897 315 2672
993 339 2959
1010 348 3045
1023 353 3108
1039 360 3171
1058 365 3236
1077 370 3300
1097 377 3362
272 308 39
270 300 63
276 288 194
291 321 461
323 331 785
363 338 1136
467 331 1523
578 336 1904
681 363 2276
817 377 2635
924 397 2952
948 404 3056
970 400 3122
988 403 3185
1008 406 3249
1030 408 3314
1049 415 3376
206 586 77
205 576 113
203 558 191
203 555 413
209 584 739
248 588 1080
333 583 1456
436 565 1838
546 564 2213
678 570 2579
817 573 2925
884 566 3091
917 554 3161
951 547 3234
985 541 3306
1012 541 3372
1037 545 3433
145 885 147
146 877 178
145 864 213
142 859 402
147 871 696
170 889 1040
253 885 1415
353 867 1800
461 853 2155
559 859 2510
697 855 2864
796 843 3084
829 831 3148
863 823 3217
898 816 3286
926 814 3345
952 818 3403
163 1186 218
164 1180 249
163 1170 276
162 1163 391
172 1173 658
187 1189 988
234 1199 1362
323 1186 1769
408 1178 2126
509 1176 2471
626 1166 2834
710 1155 3111
742 1142 3177
770 1134 3238
799 1132 3290
829 1129 3342
857 1133 3394
205 1502 297
206 1497 327
206 1491 352
205 1485 409
208 1498 628
222 1516 948
240 1525 1303
285 1530 1722
356 1525 2094
436 1527 2437
562 1511 2803
662 1493 3125
691 1479 3219
710 1472 3272
728 1468 3324
747 1465 3375
765 1468 3425
250 1819 380
251 1817 405
251 1813 427
250 1806 450
251 1817 609
259 1844 898
266 1861 1244
278 1869 1650
316 1880 2041
387 1884 2393
477 1885 2762
594 1864 3124
643 1849 3251
662 1840 3301
679 1836 3351
694 1834 3401
708 1837 3452
296 2134 467
297 2134 490
297 2133 510
297 2129 529
298 2136 616
306 2165 867
313 2188 1199
319 2196 1585
332 2205 1989
370 2221 2350
420 2238 2730
504 2234 3130
575 2218 3309
601 2206 3360
623 2200 3406
648 2192 3451
667 2191 3507
347 2440 557
349 2441 578
350 2440 598
350 2438 617
351 2437 653
357 2464 855
366 2496 1161
370 2516 1525
382 2529 1934
394 2545 2298
430 2565 2675
484 2575 3092
532 2578 3359
551 2570 3428
564 2567 3478
584 2560 3528
613 2554 3584
403 2752 646
405 2753 666
405 2754 685
405 2753 705
405 2751 729
407 2767 861
419 2799 1136
425 2823 1484
432 2844 1874
443 2858 2251
457 2876 2606
490 2895 3025
532 2909 3364
547 2908 3470
555 2907 3523
564 2905 3586
574 2907 3650
462 3073 745
464 3076 767
464 3078 786
464 3078 806
464 3077 829
465 3081 892
475 3113 1129
483 3138 1451
486 3161 1825
495 3181 2205
507 3193 2551
520 3203 2948
552 3222 3340
571 3228 3503
579 3224 3561
589 3220 3625
601 3220 3689
519 3383 850
521 3386 871
521 3389 890
522 3391 912
522 3391 934
523 3390 958
530 3416 1133
540 3449 1431
545 3475 1790
554 3501 2165
560 3520 2507
570 3527 2890
586 3536 3288
612 3547 3531
613 3544 3604
616 3542 3671
619 3546 3739
559 3596 922
561 3602 942
562 3608 963
563 3614 986
564 3619 1010
565 3623 1037
569 3639 1133
579 3677 1403
583 3710 1739
595 3744 2107
607 3774 2451
619 3793 2824
630 3811 3222
657 3824 3538
663 3825 3642
669 3827 3708
676 3829 3774
571 3665 944
572 3670 964
573 3677 984
575 3683 1007
576 3688 1032
577 3694 1059
579 3706 1117
588 3743 1355
595 3778 1678
610 3814 2044
652 3832 2397
691 3846 2753
718 3861 3154
759 3874 3497
772 3880 3649
780 3882 3714
788 3885 3779
582 3732 966
583 3738 984
584 3744 1005
585 3750 1028
587 3756 1053
588 3761 1080
589 3770 1123
598 3802 1329
620 3829 1649
663 3847 2014
710 3864 2376
750 3878 2725
779 3892 3116
823 3906 3467
839 3913 3658
844 3915 3719
852 3917 3783
593 3801 987
594 3806 1006
595 3812 1027
596 3818 1050
597 3824 1075
601 3827 1103
610 3831 1149
645 3846 1366
682 3863 1687
725 3881 2048
773 3897 2405
814 3911 2749
845 3925 3132
890 3939 3477
907 3946 3671
910 3948 3729
916 3950 3789
1197 355 298
1171 348 335
1107 302 465
1003 210 685
921 116 941
943 134 1289
1009 163 1668
1056 214 2025
1136 256 2381
1229 296 2699
1299 324 2965
1310 334 3050
1319 340 3113
1333 346 3176
1349 351 3241
1364 357 3303
1382 364 3364
983 345 237
985 343 265
949 319 394
862 240 606
815 159 871
842 177 1224
920 196 1612
978 241 1975
1064 282 2341
1165 317 2672
1249 347 2964
1262 357 3056
1275 362 3121
1289 368 3184
1308 372 3250
1325 377 3313
