滤镜资源/Professional Luts Collection/Triune-Digital-Cinematic-LUTs/3D LUTs (3DL)/LOG/Gone Girl - LOG.3dl
# Created by Benjamin (IWLTBAP) : http://luts.iwltbap.com
# Copyright: (C) Copyright 2016 Triune Films and IWLTBAP
# Blockbuster LUTs Pack
0 256 512 768 1023
24 23 9
148 95 992
593 253 2380
851 325 3082
934 352 3334
93 902 158
89 897 722
400 884 2181
746 851 3144
866 839 3393
271 2144 472
271 2149 628
302 2220 2005
524 2238 3314
619 2211 3508
495 3383 850
497 3391 933
521 3480 1805
563 3546 3301
594 3556 3735
566 3786 981
571 3809 1069
644 3858 1694
809 3922 3144
879 3946 3784
1924 529 508
1581 277 1073
1525 265 2374
1652 351 3139
1699 376 3383
819 823 120
763 785 607
971 823 2116
1285 801 3190
1382 785 3436
344 2110 458
348 2101 590
374 2171 1952
633 2173 3299
719 2147 3502
541 3367 843
545 3376 930
567 3456 1758
606 3512 3262
643 3523 3742
618 3815 992
636 3831 1088
718 3867 1673
881 3928 3112
953 3954 3795
3627 1175 1071
3569 1110 1443
3248 634 2568
3105 463 3234
3111 477 3454
3230 1374 798
3207 1349 1034
2928 895 2320
2892 664 3332
2935 657 3563
2221 2128 393
2178 2102 460
2065 2080 1796
2234 2125 3254
2271 2115 3524
1503 3379 808
1445 3384 881
1286 3428 1678
1275 3444 3155
1456 3432 3715
1151 3868 1173
1131 3876 1267
1083 3901 1720
1150 3955 3075
1243 3979 3834
3987 1504 1413
3988 1524 1633
3904 1118 2723
3857 891 3365
3849 849 3504
3988 1685 1362
3989 1680 1491
3924 1299 2625
3868 999 3412
3861 954 3548
3907 2559 948
3908 2547 996
3890 2548 2217
3824 2187 3359
3809 2077 3604
3585 3362 733
3564 3355 792
3474 3342 1478
3421 3328 3003
3456 3329 3672
3277 3924 952
3254 3936 1023
3199 3961 1417
3189 4019 2927
3202 4019 3836
4041 1602 1496
4045 1630 1682
3996 1244 2749
3968 1010 3407
3964 973 3538
4045 1747 1472
4047 1746 1572
4012 1399 2650
3981 1100 3447
3977 1060 3575
4052 2610 1049
4056 2600 1096
4037 2604 2276
4019 2250 3408
4030 2114 3681
4027 3437 956
4026 3434 1020
4015 3435 1619
4014 3463 3158
4014 3382 3780
4031 4005 1068
4035 4016 1140
4046 4031 1416
4062 4069 2993
4085 4076 3924
