滤镜资源/Professional Luts Collection/Triune-Digital-Cinematic-LUTs/3D LUTs (3DL)/LOG/Gone Girl - LOG.3dl
# Created by Benjamin (IWLTBAP) : http://luts.iwltbap.com
# Copyright: (C) Copyright 2016 Triune Films and IWLTBAP
# Blockbuster LUTs Pack
0 128 256 384 512 640 768 896 1023
24 23 9
73 85 352
148 95 992
379 151 1699
593 253 2380
806 311 2945
851 325 3082
894 338 3210
934 352 3334
69 334 37
51 321 216
86 354 825
277 348 1547
524 373 2288
794 410 2957
852 411 3116
897 416 3244
943 423 3373
93 902 158
91 881 233
89 897 722
178 918 1458
400 884 2181
623 877 2879
746 851 3144
814 837 3279
866 839 3393
175 1518 306
173 1507 354
174 1517 646
197 1550 1326
299 1556 2117
505 1537 2824
640 1502 3216
676 1491 3322
713 1490 3423
271 2144 472
271 2144 512
271 2149 628
284 2206 1217
302 2220 2005
385 2251 2746
524 2238 3314
572 2219 3409
619 2211 3508
378 2764 647
379 2766 686
378 2763 729
393 2811 1151
405 2850 1889
432 2884 2617
501 2920 3367
523 2919 3519
542 2918 3645
495 3383 850
496 3390 889
497 3391 933
506 3419 1145
521 3480 1805
538 3527 2519
563 3546 3301
588 3553 3600
594 3556 3735
544 3648 938
546 3661 978
549 3673 1026
553 3691 1117
569 3766 1691
614 3828 2406
681 3857 3166
734 3876 3643
750 3881 3773
566 3786 981
569 3797 1020
571 3809 1069
574 3824 1143
644 3858 1694
736 3893 2413
809 3922 3144
869 3942 3665
879 3946 3784
578 189 144
525 134 360
518 96 948
679 155 1684
842 254 2381
1029 317 2956
1057 330 3101
1091 342 3228
1127 356 3352
272 308 39
276 288 194
323 331 785
467 331 1523
681 363 2276
924 397 2952
970 400 3122
1008 406 3249
1049 415 3376
145 885 147
145 864 213
147 871 696
253 885 1415
461 853 2155
697 855 2864
829 831 3148
898 816 3286
952 818 3403
205 1502 297
206 1491 352
208 1498 628
240 1525 1303
356 1525 2094
562 1511 2803
691 1479 3219
728 1468 3324
765 1468 3425
296 2134 467
297 2133 510
298 2136 616
313 2188 1199
332 2205 1989
420 2238 2730
575 2218 3309
623 2200 3406
667 2191 3507
403 2752 646
405 2754 685
405 2751 729
419 2799 1136
432 2844 1874
457 2876 2606
532 2909 3364
555 2907 3523
574 2907 3650
519 3383 850
521 3389 890
522 3391 934
530 3416 1133
545 3475 1790
560 3520 2507
586 3536 3288
613 3544 3604
619 3546 3739
571 3665 944
573 3677 984
576 3688 1032
579 3706 1117
595 3778 1678
652 3832 2397
718 3861 3154
772 3880 3649
788 3885 3779
593 3801 987
595 3812 1027
597 3824 1075
610 3831 1149
682 3863 1687
773 3897 2405
845 3925 3132
907 3946 3671
916 3950 3789
1924 529 508
1798 477 612
1581 277 1073
1444 182 1661
1525 265 2374
1641 336 2981
1652 351 3139
1675 362 3265
1699 376 3383
1253 519 282
1254 505 380
1152 381 835
1155 290 1500
1303 332 2269
1487 388 2945
1529 392 3153
1561 400 3282
1595 412 3402
819 823 120
804 799 169
763 785 607
807 823 1320
971 823 2116
1184 827 2858
1285 801 3190
1337 784 3327
1382 785 3436
480 1461 265
465 1448 322
425 1440 585
426 1470 1251
569 1463 2043
749 1458 2760
908 1438 3215
954 1429 3319
1008 1431 3419
344 2110 458
346 2107 501
348 2101 590
358 2149 1158
374 2171 1952
465 2199 2689
633 2173 3299
678 2154 3400
719 2147 3502
425 2725 641
428 2728 680
429 2725 724
442 2770 1100
455 2816 1838
479 2849 2578
559 2880 3352
585 2880 3526
603 2879 3653
541 3367 843
544 3374 887
545 3376 930
552 3397 1106
567 3456 1758
580 3498 2480
606 3512 3262
638 3521 3606
643 3523 3742
596 3680 948
600 3692 990
602 3703 1038
606 3719 1114
622 3788 1655
689 3836 2380
754 3864 3132
810 3884 3656
826 3889 3784
618 3815 992
623 3826 1034
636 3831 1088
648 3836 1152
718 3867 1673
808 3901 2390
881 3928 3112
945 3950 3678
953 3954 3795
2871 885 806
2839 879 873
2708 732 1296
2475 485 1856
2310 348 2388
2356 393 3029
2357 406 3200
2360 420 3318
2373 435 3430
2544 852 669
2498 835 710
2414 733 1106
2233 493 1687
2148 360 2292
2221 421 2984
2241 438 3219
2248 452 3337
2265 466 3447
2001 1095 431
1980 1072 462
1977 1057 802
1851 924 1407
1820 774 2102
1956 771 2885
2035 744 3265
2057 738 3381
2083 743 3489
1548 1450 246
1528 1432 277
1480 1402 470
1420 1399 1143
1480 1409 1944
1611 1440 2709
1713 1439 3230
1738 1431 3334
1771 1434 3439
1180 2064 377
1160 2058 417
1125 2046 475
974 2088 1068
934 2100 1852
1069 2118 2593
1297 2105 3248
1339 2094 3366
1382 2094 3486
784 2740 639
755 2742 675
718 2740 718
620 2783 1077
616 2820 1813
639 2840 2554
759 2843 3328
806 2830 3519
833 2825 3644
622 3368 845
620 3373 884
618 3373 929
618 3384 1076
625 3434 1714
631 3471 2447
650 3480 3225
687 3489 3610
694 3489 3745
629 3699 954
633 3710 997
635 3721 1045
635 3732 1105
650 3797 1615
726 3839 2346
792 3867 3093
851 3888 3662
867 3893 3790
651 3826 1000
666 3831 1050
678 3836 1104
691 3841 1165
756 3870 1641
844 3904 2357
917 3931 3076
985 3954 3677
993 3958 3801
3627 1175 1071
3617 1169 1112
3569 1110 1443
3396 846 2046
3248 634 2568
3130 490 3063
3105 463 3234
3100 464 3347
3111 477 3454
3539 1160 1010
3522 1155 1033
3502 1126 1327
3306 879 1921
3163 649 2487
3040 507 3014
3021 487 3252
3024 498 3371
3038 508 3480
3230 1374 798
3214 1356 824
3207 1349 1034
3084 1197 1691
2928 895 2320
2864 690 2943
2892 664 3332
2909 657 3448
2935 657 3563
2734 1734 577
2718 1718 601
2702 1698 681
2621 1689 1379
2504 1533 2057
2450 1408 2684
2519 1397 3260
2534 1383 3366
2558 1381 3477
2221 2128 393
2205 2119 427
2178 2102 460
2077 2087 987
2065 2080 1796
2119 2108 2525
2234 2125 3254
2258 2114 3389
2271 2115 3524
1879 2715 560
1862 2713 592
1837 2707 624
1769 2722 924
1723 2730 1694
1731 2735 2414
1866 2766 3219
1914 2765 3465
1927 2770 3601
1503 3379 808
1477 3384 842
1445 3384 881
1389 3389 1002
1286 3428 1678
1177 3473 2415
1275 3444 3155
1414 3434 3584
1456 3432 3715
1121 3805 1060
1110 3809 1108
1095 3813 1161
1071 3816 1226
1036 3841 1705
1046 3872 2385
1090 3895 3101
1140 3913 3700
1175 3917 3824
1151 3868 1173
1142 3872 1217
1131 3876 1267
1110 3879 1323
1083 3901 1720
1099 3932 2381
1150 3955 3075
1218 3976 3695
1243 3979 3834
3944 1428 1348
3943 1427 1374
3934 1418 1624
3868 1183 2197
3808 989 2709
3749 808 3187
3723 739 3332
3710 715 3407
3701 701 3484
3927 1438 1314
3924 1437 1336
3925 1449 1532
3854 1216 2108
3783 1000 2652
3718 812 3153
3684 729 3346
3672 708 3425
3663 698 3505
3842 1590 1143
3839 1577 1173
3844 1574 1297
3790 1423 1917
3714 1124 2541
3655 881 3094
3617 756 3398
3603 738 3475
3595 728 3554
3627 1965 898
3625 1954 922
3623 1939 970
3613 1943 1606
3536 1777 2311
3424 1538 2853
3386 1349 3323
3386 1309 3419
3395 1293 3529
3365 2385 713
3361 2379 736
3351 2366 757
3312 2359 1170
3266 2348 2023
3176 2233 2643
3118 2071 3235
3130 2049 3394
3136 2049 3530
2969 2770 548
2954 2766 577
2932 2755 607
2867 2744 819
2781 2721 1629
2768 2725 2378
2826 2726 3144
2862 2736 3458
2871 2739 3597
2609 3336 707
2593 3337 740
2574 3334 771
2540 3330 838
2488 3340 1524
2460 3354 2277
2490 3329 3012
2544 3357 3529
2547 3363 3672
2312 3802 906
2295 3811 941
2275 3821 981
2248 3828 1034
2235 3853 1503
2223 3897 2251
2209 3914 2982
2237 3914 3639
2241 3915 3783
2250 3910 980
2235 3919 1015
2217 3926 1060
2191 3932 1124
2174 3952 1532
2194 3983 2271
2199 4004 2994
2227 4019 3664
2223 4021 3838
3987 1504 1413
3987 1506 1438
3988 1524 1633
3945 1310 2194
3904 1118 2723
3871 959 3197
3857 891 3365
3853 868 3435
3849 849 3504
3987 1540 1406
3986 1542 1432
3990 1564 1584
3952 1378 2128
3910 1170 2683
3877 1009 3169
3861 926 3382
3857 905 3452
3854 886 3521
3988 1685 1362
3988 1679 1393
3989 1680 1491
3970 1562 2016
3924 1299 2625
3890 1124 3118
3868 999 3412
3864 974 3479
3861 954 3548
3976 2100 1121
3976 2093 1151
3976 2082 1193
3975 2093 1727
3949 1927 2459
3912 1690 3005
3878 1483 3426
3871 1435 3512
3865 1403 3598
3907 2559 948
3908 2556 972
3908 2547 996
3909 2548 1303
3890 2548 2217
3864 2432 2849
3824 2187 3359
3810 2115 3498
3809 2077 3604
3816 2990 814
3814 2987 837
3808 2979 864
3795 2971 990
3750 2962 1838
3725 2967 2600
3676 2846 3235
3662 2748 3500
3657 2716 3614
3585 3362 733
3576 3360 763
3564 3355 792
3544 3345 830
3474 3342 1478
3424 3338 2246
3421 3328 3003
3449 3331 3537
3456 3329 3672
3331 3825 877
3320 3832 912
3305 3838 948
3282 3842 992
3247 3860 1397
3222 3883 2151
3209 3891 2916
3222 3885 3597
3225 3884 3760
3277 3924 952
3267 3930 987
3254 3936 1023
3231 3942 1069
3199 3961 1417
3190 3995 2152
3189 4019 2927
3207 4023 3630
3202 4019 3836
4014 1553 1453
4014 1555 1478
4017 1579 1654
3984 1376 2199
3951 1182 2731
3925 1028 3199
3913 951 3385
3910 929 3453
3907 912 3520
4014 1588 1448
4014 1591 1474
4017 1611 1608
3991 1444 2133
3956 1235 2690
3931 1079 3170
3918 985 3403
3915 966 3470
3912 948 3538
4017 1708 1424
4017 1703 1453
4018 1707 1532
4006 1605 2024
3970 1348 2629
3944 1179 3115
3926 1046 3429
3923 1023 3494
3920 1004 3561
4015 2109 1195
4015 2103 1224
4015 2092 1259
4016 2105 1734
3999 1939 2467
3971 1705 3010
3948 1493 3446
3943 1445 3537
3940 1412 3621
4000 2580 1004
4001 2577 1030
4002 2569 1058
3999 2569 1323
3989 2573 2246
3979 2454 2888
3963 2210 3398
3964 2126 3561
3963 2082 3660
3994 3046 914
3994 3044 942
3994 3039 971
3994 3034 1057
3970 3033 1911
3966 3052 2688
3954 2934 3314
3946 2805 3593
3946 2761 3694
3969 3428 903
3968 3427 935
3967 3424 968
3967 3417 1004
3955 3424 1594
3941 3440 2372
3937 3439 3127
3936 3390 3638
3934 3360 3741
3937 3881 977
3935 3883 1006
3933 3884 1034
3929 3882 1067
3926 3889 1384
3917 3906 2135
3904 3903 2881
3904 3888 3608
3903 3880 3801
3935 3979 1014
3934 3984 1046
3933 3989 1079
3930 3993 1118
3932 4003 1379
3930 4034 2126
3922 4046 2884
3925 4045 3627
3922 4037 3879
4041 1602 1496
4041 1605 1521
4045 1630 1682
4021 1432 2227
3996 1244 2749
3977 1091 3213
3968 1010 3407
3966 989 3474
3964 973 3538
4042 1637 1493
4042 1640 1518
4045 1658 1640
4026 1499 2162
4001 1295 2711
3983 1141 3185
3973 1044 3425
3971 1025 3491
3970 1009 3555
4045 1747 1472
4045 1743 1501
4047 1746 1572
4039 1650 2052
4012 1399 2650
3994 1235 3129
3981 1100 3447
3978 1077 3512
3977 1060 3575
4049 2137 1250
4049 2132 1279
4050 2122 1313
4052 2136 1772
4041 1975 2496
4023 1745 3033
4007 1531 3466
4004 1483 3558
4002 1449 3643
4052 2610 1049
4054 2607 1071
4056 2600 1096
4054 2598 1362
4037 2604 2276
4040 2485 2917
4019 2250 3408
4030 2158 3583
4030 2114 3681
4051 3068 971
4051 3066 1000
4052 3061 1028
4051 3055 1112
4033 3060 1942
4031 3082 2717
4022 2967 3335
4024 2830 3628
4027 2785 3729
4027 3437 956
4026 3437 988
4026 3434 1020
4026 3427 1056
4015 3435 1619
4010 3457 2405
4014 3463 3158
4014 3412 3675
4014 3382 3780
4008 3892 1019
4008 3895 1049
4008 3896 1078
4008 3894 1111
4011 3901 1405
4012 3919 2188
4022 3931 2923
4035 3921 3651
4032 3910 3855
4031 4005 1068
4033 4011 1101
4035 4016 1140
4036 4019 1190
4046 4031 1416
4054 4056 2208
4062 4069 2993
4083 4077 3688
4085 4076 3924
