滤镜资源/Professional Luts Collection/Triune-Digital-Cinematic-LUTs/3D LUTs (3DL)/LOG/Gravity - LOG.3dl
# Created by Benjamin (IWLTBAP) : http://luts.iwltbap.com
# Copyright: (C) Copyright 2016 Triune Films and IWLTBAP
# Blockbuster LUTs Pack
0 64 128 192 256 320 384 448 512 576 640 704 768 832 896 960 1023
4 5 25
14 14 120
39 39 338
90 90 715
168 144 1123
320 203 1557
437 259 1977
560 312 2381
691 363 2776
790 413 3160
856 440 3380
873 447 3442
884 452 3485
894 456 3528
903 461 3569
910 464 3601
915 466 3629
15 118 34
12 80 99
33 76 291
81 122 655
138 172 1054
295 230 1492
408 283 1916
538 334 2332
669 383 2718
765 432 3105
842 465 3367
864 473 3437
878 479 3484
889 483 3527
899 488 3569
906 491 3603
912 493 3631
42 332 62
39 311 99
28 218 235
72 259 586
123 306 970
235 423 1415
330 364 1811
482 413 2248
621 458 2640
720 503 3027
807 535 3329
840 540 3420
859 541 3472
874 545 3521
886 547 3565
895 549 3602
903 552 3636
71 566 102
68 547 139
58 485 224
66 471 515
113 525 892
174 643 1330
227 638 1714
377 636 2144
556 622 2565
665 628 2967
771 636 3305
821 648 3440
839 649 3493
853 658 3544
864 661 3586
873 665 3618
879 667 3646
105 828 153
102 811 180
97 780 223
90 733 480
107 750 824
161 851 1244
213 894 1641
270 925 2042
394 970 2464
576 1010 2883
712 1033 3269
801 1045 3476
826 1035 3533
842 1032 3582
853 1030 3624
864 1031 3658
873 1044 3689
137 1084 192
135 1071 217
133 1055 242
129 1028 439
128 1023 788
154 1066 1176
204 1122 1567
257 1174 1970
311 1240 2382
389 1299 2785
527 1369 3175
652 1422 3438
687 1423 3500
713 1427 3554
732 1430 3601
750 1431 3641
764 1439 3678
173 1361 241
171 1348 264
169 1334 294
166 1318 418
165 1308 760
167 1319 1121
200 1369 1518
250 1424 1905
304 1504 2317
354 1564 2710
403 1635 3084
459 1696 3386
486 1706 3466
509 1714 3518
526 1720 3562
543 1724 3603
563 1733 3645
211 1655 290
209 1646 321
208 1636 359
207 1627 426
206 1622 737
206 1618 1088
210 1635 1469
242 1686 1839
294 1765 2239
344 1826 2630
392 1892 3008
435 1958 3349
449 1972 3468
454 1975 3516
459 1978 3559
463 1982 3595
466 1991 3629
253 1976 357
252 1969 411
251 1961 462
249 1952 516
249 1947 710
249 1947 1065
250 1951 1444
255 1974 1785
285 2019 2159
335 2083 2554
384 2148 2939
428 2215 3294
450 2244 3473
456 2245 3524
460 2247 3567
463 2248 3600
466 2252 3629
295 2299 469
295 2296 526
294 2292 582
293 2285 634
292 2278 728
293 2279 1048
293 2279 1409
296 2294 1768
298 2302 2112
327 2334 2484
376 2402 2868
422 2470 3238
450 2518 3472
456 2522 3528
461 2525 3569
464 2526 3602
466 2531 3629
337 2619 573
336 2616 628
336 2613 683
335 2608 736
334 2601 789
335 2603 1031
335 2602 1372
335 2598 1735
336 2604 2089
339 2614 2434
370 2666 2811
415 2727 3174
450 2782 3462
458 2793 3537
461 2797 3572
464 2802 3602
466 2810 3629
378 2937 659
378 2935 714
377 2932 767
376 2927 820
376 2921 872
375 2917 1002
376 2917 1344
376 2915 1699
376 2917 2064
378 2926 2417
383 2946 2766
408 2985 3104
448 3054 3433
459 3072 3545
461 3074 3573
464 3077 3602
466 3086 3629
420 3264 756
420 3263 810
420 3260 864
419 3255 916
419 3250 968
418 3244 1021
418 3242 1314
418 3238 1670
418 3238 2036
418 3240 2397
422 3257 2734
425 3274 3061
442 3314 3374
459 3349 3544
462 3350 3574
464 3352 3602
466 3358 3629
445 3460 831
445 3461 886
446 3462 940
446 3462 993
446 3462 1047
446 3463 1102
446 3463 1287
447 3467 1639
447 3471 1989
450 3483 2352
451 3495 2699
453 3500 3021
455 3517 3332
459 3531 3531
462 3532 3574
464 3534 3602
466 3536 3629
454 3527 858
454 3528 912
454 3529 966
454 3529 1019
454 3530 1073
455 3532 1128
455 3532 1245
456 3537 1586
455 3536 1934
456 3542 2292
458 3551 2645
460 3562 2972
461 3569 3283
462 3574 3514
462 3574 3574
464 3576 3602
466 3578 3629
460 3579 881
460 3579 936
460 3580 990
460 3580 1044
460 3581 1098
460 3582 1152
461 3582 1241
460 3581 1550
461 3583 1900
461 3585 2252
462 3590 2607
463 3596 2935
464 3602 3248
464 3602 3494
464 3602 3576
464 3602 3602
466 3604 3629
465 3624 904
465 3624 959
465 3625 1014
465 3625 1067
465 3625 1121
465 3625 1175
465 3625 1261
464 3618 1566
465 3623 1917
465 3626 2263
466 3629 2617
466 3629 2942
466 3629 3251
466 3629 3495
466 3629 3578
466 3629 3604
466 3629 3629
66 5 6
66 8 81
94 38 328
147 88 703
230 142 1104
378 201 1538
491 256 1956
607 311 2369
722 363 2767
828 411 3149
894 440 3380
912 447 3444
923 452 3487
934 456 3529
943 461 3569
951 464 3601
957 466 3629
47 55 7
52 56 76
73 73 286
119 118 651
178 168 1049
340 224 1493
451 278 1915
575 333 2328
697 384 2723
806 434 3110
885 466 3374
906 474 3443
920 479 3488
931 484 3531
941 488 3572
948 491 3603
954 493 3631
64 295 45
64 293 86
55 210 229
99 252 581
150 297 962
262 383 1397
377 359 1812
524 409 2250
648 454 2642
756 498 3021
848 531 3331
881 536 3423
901 538 3476
916 541 3524
929 544 3569
939 545 3603
947 548 3636
94 539 82
94 533 127
85 479 216
92 466 510
140 519 888
199 618 1313
264 624 1708
424 618 2143
581 581 2556
695 608 2956
806 631 3295
859 644 3439
878 646 3492
893 649 3542
905 652 3584
915 654 3616
922 656 3644
130 810 122
129 804 180
124 775 220
117 728 475
133 743 818
186 831 1228
240 886 1637
303 916 2043
440 949 2465
621 985 2885
762 1006 3273
853 1019 3483
878 1008 3537
894 1007 3585
906 1006 3627
916 1007 3662
924 1020 3692
163 1074 170
162 1066 219
160 1050 244
156 1025 429
155 1018 780
179 1050 1157
231 1117 1559
284 1167 1963
339 1233 2375
428 1292 2782
585 1361 3177
715 1412 3447
753 1412 3509
779 1415 3563
797 1418 3610
813 1420 3649
826 1427 3685
200 1357 231
198 1347 266
196 1332 295
193 1315 405
192 1306 750
193 1309 1105
225 1361 1506
276 1417 1895
330 1496 2308
381 1557 2705
433 1628 3079
508 1691 3387
548 1704 3474
574 1710 3526
594 1715 3569
615 1721 3612
636 1729 3654
237 1651 290
236 1643 323
235 1634 360
234 1624 423
233 1618 729
232 1613 1077
237 1629 1457
269 1680 1833
321 1758 2235
371 1820 2626
419 1886 3004
461 1951 3346
476 1967 3469
482 1968 3517
486 1971 3560
490 1975 3597
493 1983 3631
280 1971 354
279 1965 408
277 1957 460
276 1946 514
276 1942 701
276 1943 1056
277 1946 1428
281 1966 1778
311 2013 2154
362 2077 2548
411 2142 2933
455 2208 3290
477 2239 3474
483 2240 3525
488 2242 3569
491 2243 3602
493 2248 3631
322 2295 463
321 2291 522
321 2287 578
320 2279 632
319 2271 720
319 2272 1037
320 2274 1398
322 2287 1759
325 2297 2104
354 2327 2476
402 2395 2859
449 2464 3232
478 2512 3471
484 2516 3529
488 2519 3572
491 2520 3604
493 2525 3631
363 2613 569
363 2610 625
363 2607 681
362 2603 735
361 2596 788
362 2597 1022
362 2597 1363
362 2594 1726
363 2600 2081
366 2608 2426
397 2658 2802
442 2721 3167
477 2777 3461
485 2789 3539
489 2792 3574
491 2796 3604
493 2804 3631
404 2931 658
404 2928 713
404 2926 767
403 2921 820
402 2915 873
402 2911 997
402 2912 1337
402 2910 1691
403 2912 2057
405 2921 2410
409 2940 2760
434 2979 3098
474 3047 3428
487 3068 3547
489 3070 3576
491 3073 3604
493 3081 3631
447 3257 755
446 3256 810
446 3254 864
446 3249 917
445 3244 970
444 3238 1024
444 3236 1309
444 3233 1667
445 3234 2033
445 3234 2390
448 3250 2730
451 3268 3056
470 3308 3372
487 3344 3546
489 3345 3576
491 3348 3604
493 3354 3631
473 3461 831
473 3463 888
473 3464 942
473 3465 997
473 3465 1051
473 3465 1107
474 3466 1283
474 3469 1634
475 3474 1984
477 3484 2346
479 3496 2695
480 3501 3015
483 3518 3327
486 3531 3533
489 3533 3576
491 3535 3604
493 3538 3631
481 3529 857
482 3531 914
482 3532 969
482 3532 1024
482 3533 1078
482 3534 1132
482 3535 1245
483 3540 1579
483 3540 1929
484 3544 2286
485 3553 2639
487 3565 2964
488 3571 3276
489 3576 3513
489 3576 3576
491 3578 3604
493 3580 3631
488 3581 882
488 3582 939
488 3582 993
488 3583 1048
488 3583 1102
488 3584 1156
488 3584 1241
488 3583 1543
489 3587 1895
489 3588 2245
489 3592 2601
490 3598 2928
491 3604 3240
491 3604 3493
491 3604 3578
491 3604 3604
493 3606 3631
493 3627 905
493 3627 962
493 3627 1017
493 3627 1071
493 3627 1125
493 3628 1180
493 3627 1261
492 3621 1559
493 3627 1912
493 3629 2256
493 3631 2611
493 3631 2934
493 3631 3244
493 3631 3494
493 3631 3580
493 3631 3606
493 3631 3631
249 25 25
262 28 79
277 36 300
341 85 680
415 137 1073
502 192 1482
630 250 1914
743 305 2333
849 358 2736
959 408 3125
1041 439 3374
1062 448 3446
1070 452 3488
1079 456 3529
1087 461 3569
1092 464 3601
1100 466 3629
203 54 19
209 56 56
226 63 260
285 110 640
369 160 1035
463 215 1448
595 273 1881
709 329 2304
815 382 2706
925 432 3096
1010 466 3373
1031 476 3451
1038 480 3492
1048 484 3533
1055 488 3572
1061 491 3603
1068 493 3631
143 187 20
145 190 48
156 188 221
199 226 587
266 263 969
377 300 1383
523 351 1831
647 402 2256
751 449 2655
863 492 3036
956 526 3351
983 532 3445
991 532 3492
1001 535 3536
1009 537 3575
1014 538 3607
1021 540 3635
145 458 55
146 458 85
148 458 187
155 456 507
199 508 884
252 570 1286
349 590 1704
508 571 2145
630 548 2549
737 591 2942
846 622 3281
903 636 3436
920 638 3489
934 641 3539
946 644 3582
957 645 3615
966 647 3643
152 772 97
155 770 147
153 758 206
146 716 456
161 726 803
211 800 1202
266 869 1622
339 897 2035
495 918 2460
661 943 2877
806 966 3267
902 979 3488
923 966 3538
938 964 3583
948 960 3624
957 958 3657
966 972 3687
185 1050 146
187 1047 195
185 1037 245
181 1012 411
180 1003 762
203 1028 1133
256 1101 1541
309 1151 1949
367 1216 2362
477 1276 2774
647 1345 3174
782 1392 3456
821 1392 3521
846 1395 3573
863 1397 3619
878 1398 3658
890 1406 3693
225 1341 211
224 1334 253
222 1322 293
219 1305 388
218 1297 731
218 1295 1085
250 1346 1486
301 1404 1879
355 1483 2294
407 1544 2694
465 1614 3071
574 1682 3389
628 1698 3484
655 1704 3536
673 1708 3579
693 1713 3622
711 1721 3664
264 1641 277
263 1636 319
262 1627 360
260 1618 417
259 1610 710
259 1604 1063
262 1617 1436
294 1669 1820
347 1747 2224
398 1810 2618
446 1874 2997
489 1942 3342
508 1959 3472
518 1961 3520
525 1964 3563
531 1968 3600
538 1976 3636
306 1961 353
305 1956 406
304 1948 457
302 1938 512
302 1933 688
302 1935 1043
303 1937 1410
307 1957 1769
337 2004 2145
388 2068 2541
437 2132 2925
482 2200 3286
505 2230 3474
511 2232 3527
516 2235 3571
519 2236 3604
521 2240 3633
348 2287 456
348 2284 515
347 2279 572
346 2270 627
345 2263 708
345 2263 1024
346 2266 1384
348 2278 1747
351 2289 2094
380 2318 2466
428 2386 2849
475 2456 3224
505 2503 3470
511 2508 3530
516 2511 3573
519 2512 3606
521 2517 3633
390 2606 564
389 2603 620
389 2600 677
388 2596 731
388 2589 786
388 2589 1010
388 2589 1352
388 2586 1713
390 2595 2072
392 2599 2416
422 2647 2790
468 2711 3156
504 2769 3458
513 2782 3541
516 2786 3576
519 2789 3606
521 2796 3633
430 2922 656
430 2919 711
430 2916 765
429 2913 818
429 2907 871
428 2903 989
429 2906 1325
429 2903 1679
430 2906 2046
431 2914 2401
435 2932 2751
461 2971 3089
501 3038 3421
514 3061 3548
517 3063 3578
519 3066 3606
521 3074 3633
473 3249 754
473 3247 808
472 3245 862
472 3241 917
471 3235 971
471 3229 1026
470 3227 1301
471 3225 1662
471 3227 2026
471 3226 2382
474 3241 2724
478 3260 3050
496 3300 3368
514 3338 3549
517 3339 3578
519 3341 3606
521 3348 3633
500 3463 832
501 3465 888
501 3467 944
501 3467 1000
501 3467 1055
501 3467 1111
501 3468 1278
502 3471 1626
503 3477 1979
504 3485 2339
506 3496 2689
508 3502 3008
510 3518 3322
514 3532 3534
517 3533 3578
519 3535 3606
521 3538 3633
509 3531 857
509 3533 914
510 3534 971
510 3535 1026
510 3536 1082
510 3537 1136
510 3538 1244
511 3542 1570
511 3544 1921
512 3547 2276
513 3555 2631
515 3567 2956
516 3574 3268
517 3578 3511
517 3578 3578
519 3580 3606
521 3583 3633
515 3583 881
515 3584 938
515 3585 995
516 3585 1050
516 3586 1106
516 3587 1160
516 3587 1239
516 3586 1534
516 3590 1887
517 3591 2236
517 3593 2594
518 3601 2919
519 3606 3231
519 3606 3488
519 3606 3580
519 3606 3606
521 3608 3633
520 3629 905
520 3629 962
520 3629 1019
520 3629 1074
520 3630 1129
521 3630 1184
520 3629 1259
519 3623 1550
520 3630 1903
521 3632 2247
521 3633 2603
521 3633 2926
521 3633 3235
521 3633 3491
521 3633 3583
521 3633 3608
521 3633 3633
548 64 64
556 65 109
574 68 300
575 82 646
641 132 1035
709 186 1438
813 244 1870
916 298 2282
1021 351 2685
1140 402 3080
1248 437 3361
1275 447 3441
1287 452 3486
1298 456 3528
1305 461 3569
1313 464 3601
1323 466 3629
498 84 57
504 86 86
528 90 256
532 105 606
598 155 1001
665 209 1404
776 267 1835
879 322 2256
987 375 2661
1104 426 3053
1214 464 3358
1243 475 3445
1254 479 3489
1266 484 3531
1275 488 3572
1283 491 3603
