滤镜资源/Professional Luts Collection/Triune-Digital-Cinematic-LUTs/3D LUTs (3DL)/LOG/Gravity - LOG.3dl
# Created by Benjamin (IWLTBAP) : http://luts.iwltbap.com
# Copyright: (C) Copyright 2016 Triune Films and IWLTBAP
# Blockbuster LUTs Pack
0 128 256 384 512 640 768 896 1023
4 5 25
39 39 338
168 144 1123
437 259 1977
691 363 2776
856 440 3380
884 452 3485
903 461 3569
915 466 3629
42 332 62
28 218 235
123 306 970
330 364 1811
621 458 2640
807 535 3329
859 541 3472
886 547 3565
903 552 3636
105 828 153
97 780 223
107 750 824
213 894 1641
394 970 2464
712 1033 3269
826 1035 3533
853 1030 3624
873 1044 3689
173 1361 241
169 1334 294
165 1308 760
200 1369 1518
304 1504 2317
403 1635 3084
486 1706 3466
526 1720 3562
563 1733 3645
253 1976 357
251 1961 462
249 1947 710
250 1951 1444
285 2019 2159
384 2148 2939
450 2244 3473
460 2247 3567
466 2252 3629
337 2619 573
336 2613 683
334 2601 789
335 2602 1372
336 2604 2089
370 2666 2811
450 2782 3462
461 2797 3572
466 2810 3629
420 3264 756
420 3260 864
419 3250 968
418 3242 1314
418 3238 2036
422 3257 2734
442 3314 3374
462 3350 3574
466 3358 3629
454 3527 858
454 3529 966
454 3530 1073
455 3532 1245
455 3536 1934
458 3551 2645
461 3569 3283
462 3574 3574
466 3578 3629
465 3624 904
465 3625 1014
465 3625 1121
465 3625 1261
465 3623 1917
466 3629 2617
466 3629 3251
466 3629 3578
466 3629 3629
249 25 25
277 36 300
415 137 1073
630 250 1914
849 358 2736
1041 439 3374
1070 452 3488
1087 461 3569
1100 466 3629
143 187 20
156 188 221
266 263 969
523 351 1831
751 449 2655
956 526 3351
991 532 3492
1009 537 3575
1021 540 3635
152 772 97
153 758 206
161 726 803
266 869 1622
495 918 2460
806 966 3267
923 966 3538
948 960 3624
966 972 3687
225 1341 211
222 1322 293
218 1297 731
250 1346 1486
355 1483 2294
465 1614 3071
628 1698 3484
673 1708 3579
711 1721 3664
306 1961 353
304 1948 457
302 1933 688
303 1937 1410
337 2004 2145
437 2132 2925
505 2230 3474
516 2235 3571
521 2240 3633
390 2606 564
389 2600 677
388 2589 786
388 2589 1352
390 2595 2072
422 2647 2790
504 2769 3458
516 2786 3576
521 2796 3633
473 3249 754
472 3245 862
471 3235 971
470 3227 1301
471 3227 2026
474 3241 2724
496 3300 3368
517 3339 3578
521 3348 3633
509 3531 857
510 3534 971
510 3536 1082
510 3538 1244
511 3544 1921
513 3555 2631
516 3574 3268
517 3578 3578
521 3583 3633
520 3629 905
520 3629 1019
520 3630 1129
520 3629 1259
520 3630 1903
521 3633 2603
521 3633 3235
521 3633 3583
521 3633 3633
874 106 106
885 108 315
887 127 993
1046 241 1847
1232 344 2638
1490 437 3359
1533 452 3489
1546 461 3570
1566 466 3629
742 201 88
775 201 208
777 215 916
935 318 1755
1134 415 2572
1388 500 3317
1451 509 3494
1469 517 3575
1490 521 3633
526 660 81
533 656 137
553 739 843
745 748 1681
963 692 2507
1187 756 3237
1291 765 3517
1306 774 3598
1326 801 3661
387 1272 161
391 1282 225
397 1290 681
415 1296 1443
541 1443 2279
796 1592 3084
1016 1675 3543
1047 1681 3635
1074 1693 3712
395 1922 310
395 1920 439
389 1908 643
382 1907 1362
408 1968 2110
501 2093 2894
566 2199 3476
574 2204 3572
581 2212 3638
441 2577 548
440 2571 661
439 2560 775
438 2555 1307
441 2568 2034
472 2610 2753
557 2740 3445
572 2759 3580
576 2769 3638
524 3219 749
523 3214 857
522 3205 967
521 3198 1267
523 3202 1995
525 3214 2696
548 3274 3347
572 3317 3583
576 3326 3638
564 3536 861
565 3539 973
565 3540 1087
565 3543 1237
566 3549 1900
568 3556 2607
571 3578 3252
572 3583 3583
576 3587 3638
575 3633 906
576 3634 1020
576 3634 1135
576 3634 1251
576 3635 1879
576 3638 2579
576 3638 3220
576 3638 3587
576 3638 3638
1567 196 196
1580 198 326
1535 191 972
1542 224 1734
1757 339 2596
2050 433 3331
2084 452 3488
2083 461 3571
2095 466 3629
1434 255 177
1461 261 263
1448 252 856
1438 278 1660
1637 382 2506
1940 482 3282
2003 507 3491
2006 516 3575
2024 521 3633
1221 674 148
1237 665 205
1357 699 779
1329 621 1614
1503 593 2430
1755 682 3211
1852 709 3519
1862 711 3592
1882 714 3649
1035 1199 150
1040 1203 211
1073 1248 588
1070 1332 1518
1312 1396 2382
1575 1502 3177
1729 1550 3639
1741 1548 3708
1762 1557 3766
698 1841 235
698 1867 320
700 1905 506
677 1923 1341
739 1956 2120
1012 2114 2929
1345 2254 3578
1351 2259 3679
1373 2269 3743
671 2566 411
681 2571 565
674 2550 720
664 2531 1265
658 2545 2001
680 2590 2729
770 2712 3437
775 2736 3597
780 2747 3655
659 3188 753
656 3183 863
650 3175 972
641 3164 1224
634 3170 1941
627 3180 2655
640 3236 3313
663 3289 3590
666 3296 3645
631 3544 876
629 3541 983
626 3541 1094
623 3545 1219
622 3555 1867
623 3559 2568
626 3582 3224
627 3587 3587
632 3591 3642
631 3638 914
631 3637 1026
631 3637 1139
631 3638 1255
631 3640 1841
632 3642 2539
632 3642 3195
632 3642 3588
632 3642 3642
2387 305 305
2398 307 394
2415 310 971
2301 292 1730
2439 331 2518
2680 425 3270
2716 448 3461
2715 459 3557
2716 466 3629
2277 342 290
2284 346 347
2317 352 870
2175 329 1619
2319 372 2429
2594 473 3218
2643 504 3471
2639 515 3565
2640 521 3633
2015 683 252
2038 662 311
2137 603 746
2081 579 1496
2147 550 2324
2414 643 3122
2512 679 3497
2498 684 3586
2510 687 3647
1815 1216 226
1840 1218 285
1901 1240 556
2040 1355 1531
2080 1323 2339
2282 1336 3118
2397 1342 3610
2400 1338 3677
2414 1345 3734
1624 1782 228
1637 1795 292
1649 1811 421
1754 1948 1294
1792 2032 2260
2015 2132 3062
2223 2227 3707
2241 2238 3794
2266 2252 3852
1347 2445 314
1357 2468 429
1330 2492 575
1246 2587 1164
1196 2584 2061
1438 2654 2813
1740 2815 3551
1747 2846 3731
1767 2854 3789
971 3222 626
977 3215 793
970 3196 938
959 3169 1182
950 3159 1953
947 3183 2642
1014 3240 3319
1072 3298 3630
1099 3307 3689
934 3585 892
931 3583 1012
926 3581 1133
917 3577 1259
909 3582 1870
901 3594 2556
892 3606 3216
881 3607 3607
882 3611 3662
914 3661 945
911 3661 1062
906 3658 1180
897 3654 1301
889 3661 1844
879 3662 2529
868 3661 3180
856 3660 3599
853 3660 3660
3175 409 409
3166 407 464
3159 407 888
3143 405 1817
3237 420 2583
3330 436 3230
3359 448 3460
3373 459 3557
3382 466 3628
3102 450 399
3102 454 454
3099 454 793
3070 450 1708
3137 461 2495
3258 483 3180
3299 503 3466
3315 514 3564
3328 521 3632
2947 637 378
2963 628 436
2987 619 678
2995 615 1581
2971 601 2356
3104 616 3065
3202 647 3483
3209 653 3580
3218 656 3644
2714 1262 346
2740 1264 405
2769 1259 526
2900 1348 1581
2902 1304 2313
2968 1241 3006
3095 1092 3550
3097 1078 3634
3103 1083 3693
2515 1818 320
2542 1831 379
2558 1834 444
2715 1983 1349
2812 2065 2295
2875 2040 2996
3012 2045 3666
3013 2053 3774
3023 2063 3831
2278 2394 310
2297 2407 370
2316 2422 467
2426 2531 1027
2537 2654 2116
2627 2747 2942
2780 2863 3660
2786 2893 3869
2802 2903 3926
2088 3082 415
2102 3100 553
2118 3122 725
2141 3157 977
2185 3282 2018
2225 3330 2800
2290 3383 3475
2346 3441 3810
2378 3450 3870
1775 3611 816
1787 3631 960
1799 3650 1111
1762 3664 1265
1655 3680 1891
1695 3702 2629
1820 3729 3303
2031 3762 3763
2057 3769 3826
1608 3695 886
1603 3716 1031
1586 3722 1164
1519 3718 1298
1436 3724 1834
1542 3742 2571
1697 3768 3250
1930 3807 3736
1988 3816 3817
3419 441 441
3419 441 492
3421 441 841
3421 441 1789
3488 452 2575
3517 457 3210
3519 457 3473
3520 458 3555
3526 464 3619
3415 491 440
3423 496 496
3424 496 738
3420 496 1688
3482 506 2508
3521 512 3160
3523 512 3479
3524 514 3559
3530 519 3623
3423 640 442
3432 642 498
3452 648 648
3463 642 1580
3481 636 2393
3526 633 3065
3532 622 3493
3533 617 3569
3538 620 3632
3428 1266 443
3450 1263 501
3470 1250 577
3569 1338 1599
3576 1264 2347
3562 1127 2999
3569 1043 3526
3566 1012 3610
3571 1011 3671
3398 1881 439
3404 1888 495
3419 1888 552
3545 2007 1442
3626 2045 2334
3629 2010 2992
3654 1993 3607
3658 1984 3755
3662 1991 3820
3260 2463 422
3256 2461 476
3260 2460 562
3337 2527 1132
3479 2677 2179
3574 2768 2974
3601 2754 3601
3621 2779 3867
3624 2785 3929
2983 3034 406
2991 3045 554
3003 3063 759
3020 3076 976
3163 3221 1935
3287 3339 2804
3363 3444 3562
3413 3500 3946
3420 3503 4003
2792 3588 728
2809 3609 888
2830 3621 1035
2846 3636 1184
2901 3720 1786
3031 3860 2711
3053 3894 3434
3108 3894 3897
3118 3896 3969
2729 3683 803
2749 3701 951
2773 3716 1094
2786 3737 1245
2820 3809 1762
2941 3927 2678
2976 3949 3385
3032 3958 3868
3041 3960 3956
3530 454 454
3532 455 505
3536 455 829
3534 455 1776
3570 461 2559
3561 459 3185
3566 460 3474
3574 462 3558
3577 464 3619
3528 505 454
3535 510 510
3539 510 733
3532 509 1679
3573 516 2494
3577 516 3138
3571 516 3481
3578 517 3563
3581 519 3624
3532 637 455
3538 639 510
3552 642 646
3555 635 1544
3578 628 2367
3586 618 3041
3580 606 3492
3585 602 3571
3588 603 3631
3555 1227 459
3565 1223 515
3575 1204 576
3661 1264 1542
3643 1191 2311
3634 1048 2967
3616 1004 3509
3627 986 3611
3627 971 3666
3566 1864 460
3571 1867 516
3581 1865 588
3695 1964 1408
3757 2010 2300
3762 1958 2961
3708 1950 3547
3764 1952 3749
3768 1956 3813
3562 2449 460
3570 2444 526
3585 2447 659
3637 2494 1132
3799 2647 2164
3862 2707 2948
3804 2693 3537
3865 2718 3854
3867 2720 3911
3535 3023 492
3550 3040 706
3544 3038 919
3569 3045 1094
3736 3189 1945
3860 3338 2830
3894 3400 3524
3939 3417 3950
3941 3418 4014
3513 3571 733
3486 3551 931
3510 3568 1087
3564 3613 1221
3642 3693 1729
3731 3795 2634
3854 3913 3408
3919 3973 3981
3921 3978 4074
3482 3674 777
3464 3665 966
3501 3690 1118
3548 3734 1252
3594 3798 1671
3696 3892 2582
3809 4007 3375
3856 4066 3950
3849 4065 4065
3628 466 466
3628 466 517
3629 466 837
3627 466 1792
3629 466 2558
3613 463 3179
3584 459 3452
3626 465 3561
3629 466 3621
3628 517 466
3632 521 521
3633 521 741
3631 521 1702
3631 521 2493
3629 520 3134
3593 515 3462
3631 521 3566
3633 521 3626
3629 641 466
3633 643 521
3642 645 647
3642 637 1555
3636 626 2361
3641 615 3035
3608 601 3474
3639 600 3574
3640 598 3632
3629 1218 466
3633 1215 521
3638 1199 579
3720 1241 1541
3674 1179 2297
3686 1019 2960
3636 1020 3493
3682 984 3615
3684 996 3672
3629 1868 466
3633 1865 521
3643 1859 607
3743 1954 1420
3809 1998 2286
3818 1957 2954
3718 1945 3514
3820 1956 3751
3823 1976 3815
3624 2438 465
3635 2432 541
3648 2440 738
3670 2476 1171
3856 2630 2158
3915 2694 2946
3844 2675 3519
3917 2702 3853
3917 2704 3907
3633 3025 535
3645 3036 737
3613 3023 953
3606 3018 1146
3828 3185 1943
3915 3314 2825
3960 3384 3517
4007 3406 3952
4008 3403 4012
3612 3560 738
3579 3531 941
3576 3525 1131
3637 3572 1267
3772 3690 1724
3812 3743 2618
3995 3908 3403
4073 3974 3982
4074 3968 4082
3599 3650 828
3568 3628 1026
3584 3647 1191
3663 3716 1313
3760 3800 1679
3801 3839 2555
3986 4003 3346
4068 4081 3943
4080 4092 4092
