滤镜资源/Professional Luts Collection/Triune-Digital-Cinematic-LUTs/3D LUTs (3DL)/LOG/Gravity - LOG.3dl
# Created by Benjamin (IWLTBAP) : http://luts.iwltbap.com
# Copyright: (C) Copyright 2016 Triune Films and IWLTBAP
# Blockbuster LUTs Pack
0 256 512 768 1023
4 5 25
168 144 1123
691 363 2776
884 452 3485
915 466 3629
105 828 153
107 750 824
394 970 2464
826 1035 3533
873 1044 3689
253 1976 357
249 1947 710
285 2019 2159
450 2244 3473
466 2252 3629
420 3264 756
419 3250 968
418 3238 2036
442 3314 3374
466 3358 3629
465 3624 904
465 3625 1121
465 3623 1917
466 3629 3251
466 3629 3629
874 106 106
887 127 993
1232 344 2638
1533 452 3489
1566 466 3629
526 660 81
553 739 843
963 692 2507
1291 765 3517
1326 801 3661
395 1922 310
389 1908 643
408 1968 2110
566 2199 3476
581 2212 3638
524 3219 749
522 3205 967
523 3202 1995
548 3274 3347
576 3326 3638
575 3633 906
576 3634 1135
576 3635 1879
576 3638 3220
576 3638 3638
2387 305 305
2415 310 971
2439 331 2518
2716 448 3461
2716 466 3629
2015 683 252
2137 603 746
2147 550 2324
2512 679 3497
2510 687 3647
1624 1782 228
1649 1811 421
1792 2032 2260
2223 2227 3707
2266 2252 3852
971 3222 626
970 3196 938
950 3159 1953
1014 3240 3319
1099 3307 3689
914 3661 945
906 3658 1180
889 3661 1844
868 3661 3180
853 3660 3660
3419 441 441
3421 441 841
3488 452 2575
3519 457 3473
3526 464 3619
3423 640 442
3452 648 648
3481 636 2393
3532 622 3493
3538 620 3632
3398 1881 439
3419 1888 552
3626 2045 2334
3654 1993 3607
3662 1991 3820
2983 3034 406
3003 3063 759
3163 3221 1935
3363 3444 3562
3420 3503 4003
2729 3683 803
2773 3716 1094
2820 3809 1762
2976 3949 3385
3041 3960 3956
3628 466 466
3629 466 837
3629 466 2558
3584 459 3452
3629 466 3621
3629 641 466
3642 645 647
3636 626 2361
3608 601 3474
3640 598 3632
3629 1868 466
3643 1859 607
3809 1998 2286
3718 1945 3514
3823 1976 3815
3633 3025 535
3613 3023 953
3828 3185 1943
3960 3384 3517
4008 3403 4012
3599 3650 828
3584 3647 1191
3760 3800 1679
3986 4003 3346
4080 4092 4092
