滤镜资源/Professional Luts Collection/Triune-Digital-Cinematic-LUTs/3D LUTs (3DL)/LOG/Guardians of the Galaxy - LOG.3dl
# Created by Benjamin (IWLTBAP) : http://luts.iwltbap.com
# Copyright: (C) Copyright 2016 Triune Films and IWLTBAP
# Blockbuster LUTs Pack
0 256 512 768 1023
0 0 0
0 177 881
0 476 1951
0 637 2546
0 696 2758
2 747 132
19 757 792
34 894 1818
35 1039 2564
32 1080 2763
120 1640 265
129 1645 535
161 1786 1825
188 1900 2838
190 1928 3037
360 2658 498
279 2654 748
315 2855 1768
366 3054 3151
368 3012 3486
488 2977 660
406 2993 901
360 3160 1649
423 3548 3117
442 3481 3616
992 215 61
1043 311 881
734 610 1995
543 789 2631
503 842 2847
874 819 243
641 874 841
387 1002 1841
327 1104 2603
313 1137 2815
211 1620 285
215 1603 514
240 1753 1786
254 1870 2857
254 1900 3071
451 2655 505
370 2668 776
384 2872 1801
438 3067 3168
441 3000 3510
573 3028 699
462 3058 943
429 3195 1668
506 3599 3129
530 3526 3670
2298 500 76
2404 495 675
2574 728 1782
2424 959 2584
2362 1011 2812
2240 919 189
2230 895 535
2341 1062 1770
1966 1176 2755
1845 1192 2957
2264 1873 345
2223 1882 523
1745 2080 1963
1113 2118 3099
1160 2230 3388
1247 2686 657
1142 2691 818
776 2774 1743
895 3213 3234
942 3216 3669
914 3173 828
772 3192 1066
671 3269 1748
836 3774 3313
836 3715 3795
3241 752 147
3316 749 624
3460 915 1725
3445 1118 2626
3457 1177 2878
3331 1089 227
3347 1077 421
3464 1112 1619
3450 1334 2741
3468 1372 2985
3647 2009 327
3637 2001 421
3576 2106 1652
3583 2259 3216
3627 2365 3611
3565 3252 643
3556 3270 812
3520 3329 1649
3241 3440 3230
3156 3443 3824
3277 3857 1205
3262 3883 1447
3225 3938 1922
2751 4080 3053
2660 3980 3937
3508 839 156
3561 840 599
3669 980 1721
3620 1170 2643
3632 1228 2903
3581 1146 223
3597 1138 391
3685 1148 1610
3633 1371 2758
3662 1416 3025
3916 2088 335
3910 2095 465
3894 2261 1767
3861 2410 3249
3934 2430 3643
3995 3212 867
4003 3239 1184
4015 3320 1886
3966 3446 3158
3936 3515 3841
4017 3947 1349
4018 3960 1543
4017 3995 1883
3994 4074 3262
3957 4083 3930
