滤镜资源/Professional Luts Collection/Triune-Digital-Cinematic-LUTs/3D LUTs (3DL)/LOG/Guardians of the Galaxy - LOG.3dl
# Created by Benjamin (IWLTBAP) : http://luts.iwltbap.com
# Copyright: (C) Copyright 2016 Triune Films and IWLTBAP
# Blockbuster LUTs Pack
0 64 128 192 256 320 384 448 512 576 640 704 768 832 896 960 1023
0 0 0
0 8 145
0 58 388
0 116 633
0 177 881
0 242 1132
0 314 1392
0 394 1668
0 476 1951
0 556 2242
0 608 2435
0 624 2494
0 637 2546
0 651 2598
0 666 2651
0 680 2704
0 696 2758
0 92 36
0 90 114
0 123 353
0 173 604
0 225 854
0 283 1106
0 349 1365
0 422 1639
0 502 1922
0 581 2211
0 639 2431
0 655 2493
0 669 2545
0 682 2596
0 696 2648
0 711 2701
0 725 2754
0 302 71
0 299 107
0 300 327
0 322 573
0 358 821
0 410 1076
0 469 1337
0 535 1609
0 604 1890
0 673 2172
0 729 2417
0 741 2495
0 749 2546
0 759 2597
0 769 2647
0 780 2699
0 794 2751
0 521 103
0 519 136
0 524 279
0 523 558
0 541 803
0 575 1049
0 616 1301
0 673 1573
0 739 1853
0 804 2135
0 863 2393
0 882 2500
0 888 2550
0 897 2600
0 907 2649
0 917 2698
0 930 2750
2 747 132
4 744 164
6 738 221
13 766 524
19 757 792
24 775 1039
28 809 1290
31 847 1547
34 894 1818
36 948 2098
37 1004 2366
36 1033 2515
35 1039 2564
34 1047 2612
33 1057 2661
32 1067 2712
32 1080 2763
31 970 163
33 967 196
35 961 231
41 979 430
49 1013 768
54 1003 1034
59 1017 1286
63 1049 1542
67 1090 1810
71 1133 2084
74 1176 2353
75 1205 2545
74 1207 2592
74 1213 2639
74 1220 2687
74 1229 2737
74 1242 2789
60 1190 191
63 1187 227
64 1183 262
68 1191 367
75 1237 668
83 1265 1022
88 1253 1285
93 1263 1540
98 1295 1805
103 1337 2081
108 1383 2362
112 1421 2597
112 1427 2662
112 1431 2709
112 1438 2757
112 1444 2806
113 1454 2858
90 1412 223
92 1410 260
93 1409 299
94 1408 344
102 1438 592
110 1508 949
117 1523 1283
123 1509 1545
129 1519 1808
135 1550 2080
142 1597 2368
148 1644 2641
149 1657 2744
149 1662 2792
150 1668 2840
151 1676 2890
152 1686 2942
120 1640 265
122 1638 309
123 1638 350
124 1636 390
129 1645 535
138 1703 849
146 1794 1240
154 1797 1552
161 1786 1825
169 1794 2096
177 1827 2380
185 1876 2677
188 1900 2838
188 1904 2887
189 1911 2935
189 1916 2986
190 1928 3037
150 1881 318
152 1876 372
154 1870 423
155 1865 468
157 1862 537
167 1906 816
177 1990 1140
188 2101 1547
198 2095 1842
208 2090 2129
217 2103 2420
224 2132 2716
228 2161 2939
228 2163 3002
229 2167 3049
229 2172 3098
230 2183 3149
186 2152 344
186 2142 413
187 2126 479
188 2108 538
189 2096 589
198 2110 795
210 2195 1118
222 2309 1460
237 2428 1864
250 2423 2157
262 2420 2460
269 2431 2775
272 2438 3037
272 2438 3128
272 2440 3174
272 2441 3219
273 2448 3267
259 2411 395
248 2411 462
230 2408 523
225 2390 592
226 2364 660
232 2334 791
247 2408 1119
262 2517 1438
276 2662 1809
292 2771 2203
305 2760 2500
316 2745 2808
319 2743 3122
318 2725 3249
317 2721 3293
318 2719 3337
320 2721 3380
360 2658 498
344 2661 563
324 2662 627
302 2660 688
279 2654 748
272 2629 812
284 2619 1116
300 2733 1448
315 2855 1768
332 3012 2166
346 3108 2554
358 3082 2848
366 3054 3151
368 3041 3367
367 3029 3411
367 3019 3448
368 3012 3486
423 2814 569
410 2819 639
393 2822 704
373 2824 767
353 2822 830
339 2814 892
313 2783 1078
325 2868 1423
342 2986 1731
358 3136 2074
373 3297 2502
387 3355 2855
401 3322 3156
409 3294 3409
410 3296 3492
412 3296 3541
413 3292 3582
447 2868 599
434 2872 666
417 2875 731
398 2876 794
381 2873 856
367 2866 920
334 2843 1034
332 2902 1370
348 3043 1684
364 3187 2005
381 3341 2407
395 3445 2830
409 3421 3123
421 3389 3401
424 3379 3503
426 3384 3556
427 3387 3607
469 2920 631
455 2923 697
439 2924 761
421 2925 822
404 2923 883
386 2919 943
353 2906 1030
337 2947 1327
353 3093 1647
368 3227 1955
385 3373 2343
401 3502 2799
415 3488 3100
428 3450 3386
433 3432 3519
434 3431 3561
436 3435 3612
488 2977 660
471 2982 723
452 2985 785
430 2989 844
406 2993 901
382 2994 956
346 2981 1040
344 3019 1327
360 3160 1649
375 3284 1954
391 3422 2336
408 3548 2797
423 3548 3117
436 3504 3402
440 3485 3537
441 3481 3575
442 3481 3616
71 23 24
61 37 146
43 83 396
25 145 647
15 202 892
14 263 1141
13 331 1398
12 408 1668
10 487 1949
9 566 2239
8 619 2442
8 635 2503
8 648 2555
8 662 2607
8 676 2660
8 691 2713
8 706 2767
14 101 59
13 96 108
11 135 350
10 182 603
9 231 851
8 286 1102
8 353 1361
8 430 1634
8 510 1917
8 589 2208
8 650 2439
8 667 2504
8 680 2557
8 694 2608
8 708 2662
8 723 2715
8 738 2768
8 297 88
8 294 120
8 295 319
8 318 568
8 361 818
8 415 1074
8 474 1334
8 539 1605
8 608 1885
8 677 2170
8 734 2424
8 748 2505
8 755 2557
8 765 2609
8 776 2660
8 787 2712
8 801 2765
8 518 116
8 516 149
8 520 277
8 519 554
10 538 800
13 572 1046
15 616 1299
16 678 1570
16 744 1850
15 808 2132
13 867 2395
11 888 2508
9 894 2559
8 903 2609
8 913 2660
8 923 2710
8 936 2762
20 747 145
22 743 175
25 737 225
33 765 518
39 757 790
43 773 1039
47 806 1289
50 845 1546
52 892 1815
53 951 2096
54 1010 2367
53 1040 2522
51 1045 2572
50 1054 2622
49 1064 2671
48 1073 2722
48 1086 2774
49 970 173
52 966 205
54 959 241
60 978 436
67 1012 764
73 1003 1033
78 1017 1286
81 1048 1542
85 1087 1807
88 1129 2081
91 1173 2352
92 1207 2550
91 1212 2600
90 1219 2649
90 1227 2697
90 1236 2748
91 1249 2800
78 1190 200
81 1187 235
82 1182 272
86 1190 375
94 1236 670
101 1265 1018
106 1253 1285
112 1263 1540
116 1293 1803
120 1333 2079
125 1379 2362
129 1420 2603
129 1425 2672
129 1430 2719
130 1437 2767
130 1443 2817
130 1455 2869
106 1411 229
109 1410 266
111 1408 305
112 1407 351
119 1438 598
127 1506 942
134 1524 1281
140 1510 1544
147 1518 1807
152 1548 2079
159 1595 2369
165 1644 2648
166 1658 2755
167 1663 2804
167 1669 2853
167 1676 2903
168 1687 2955
136 1639 269
138 1637 314
140 1637 355
141 1634 395
146 1642 537
155 1702 854
164 1791 1232
171 1797 1550
180 1787 1825
186 1793 2096
195 1826 2382
202 1878 2684
205 1903 2851
205 1907 2902
206 1914 2952
206 1919 3001
207 1931 3054
166 1883 315
168 1880 369
170 1872 422
171 1865 469
174 1861 536
183 1904 816
194 1987 1136
206 2099 1538
216 2098 1841
226 2093 2131
235 2104 2422
242 2135 2723
246 2164 2952
246 2166 3018
246 2172 3066
247 2177 3115
248 2187 3166
203 2156 338
202 2150 406
203 2135 474
204 2115 536
206 2101 591
215 2112 798
228 2198 1125
241 2314 1465
256 2437 1865
269 2433 2162
281 2427 2468
287 2436 2784
290 2441 3048
289 2441 3142
290 2442 3189
290 2443 3234
291 2451 3282
283 2413 396
271 2420 468
253 2418 529
245 2401 598
244 2377 667
249 2343 797
265 2416 1129
281 2530 1454
296 2675 1820
312 2788 2214
326 2776 2514
335 2757 2823
337 2748 3132
335 2727 3261
335 2723 3305
336 2721 3348
337 2722 3391
384 2664 504
370 2671 575
350 2672 639
327 2671 699
303 2665 760
295 2641 825
302 2630 1128
319 2746 1463
334 2871 1789
352 3025 2178
366 3124 2566
377 3096 2860
385 3064 3162
386 3044 3377
385 3030 3419
385 3019 3456
387 3012 3494
450 2827 581
438 2834 655
420 2837 721
400 2839 785
381 2837 848
366 2827 910
335 2800 1090
344 2882 1437
360 3007 1746
376 3159 2091
392 3312 2504
405 3369 2863
420 3333 3163
429 3304 3422
430 3304 3503
432 3303 3550
433 3298 3591
473 2881 611
461 2887 684
444 2889 749
425 2890 812
407 2887 875
393 2879 938
357 2859 1049
350 2919 1380
366 3063 1694
382 3205 2016
399 3352 2411
413 3456 2831
429 3431 3126
442 3399 3406
445 3389 3515
447 3393 3568
449 3397 3617
496 2933 644
483 2937 715
464 2940 778
443 2943 838
425 2942 898
406 2938 958
373 2924 1044
355 2970 1334
371 3113 1656
387 3245 1965
403 3385 2351
419 3508 2793
434 3499 3103
449 3460 3391
454 3441 3530
455 3441 3572
457 3445 3624
513 2993 670
494 3001 737
469 3010 796
442 3019 852
415 3022 911
389 3023 967
360 3003 1049
362 3041 1334
378 3180 1659
392 3302 1965
409 3436 2348
426 3554 2789
443 3558 3120
457 3513 3408
462 3493 3548
463 3489 3586
463 3489 3627
373 88 47
363 94 118
359 121 403
301 181 668
266 245 918
232 317 1169
193 383 1425
163 453 1691
147 527 1968
134 601 2249
122 655 2461
111 670 2526
105 682 2578
101 696 2630
97 710 2682
93 724 2736
92 739 2791
329 144 76
317 144 117
305 165 362
255 214 629
219 274 884
185 341 1136
150 405 1391
130 474 1655
116 549 1933
105 622 2214
95 682 2453
86 699 2524
79 710 2575
75 723 2628
71 737 2681
68 751 2734
68 765 2789
258 331 139
246 328 171
208 327 324
174 359 580
133 405 836
108 453 1089
96 505 1343
83 563 1606
70 626 1884
58 689 2168
49 747 2432
40 761 2522
30 766 2572
26 776 2624
24 786 2676
23 796 2729
23 810 2784
104 527 163
95 524 191
82 525 295
76 530 551
62 552 799
56 586 1045
53 630 1296
47 687 1563
41 747 1841
35 808 2123
30 866 2391
26 889 2514
23 894 2565
21 904 2617
20 913 2669
18 924 2720
17 937 2772
42 741 158
44 737 189
47 730 234
54 753 502
59 749 780
62 764 1029
65 797 1281
68 837 1537
69 889 1807
70 950 2088
70 1008 2362
69 1040 2527
67 1046 2577
66 1055 2627
65 1065 2678
64 1075 2730
64 1088 2782
67 963 182
70 959 215
72 952 251
77 969 435
85 1005 755
90 995 1025
94 1008 1278
99 1040 1534
102 1077 1798
105 1119 2072
107 1169 2347
108 1208 2553
106 1214 2606
106 1221 2655
106 1230 2705
106 1239 2756
106 1251 2808
95 1184 208
97 1180 244
100 1175 281
103 1181 375
111 1227 665
118 1258 1008
123 1248 1278
128 1257 1534
133 1286 1796
137 1325 2072
141 1370 2356
145 1413 2604
145 1421 2677
145 1426 2725
145 1435 2775
145 1442 2825
145 1455 2877
123 1407 235
125 1405 272
127 1402 314
129 1400 356
136 1432 599
144 1498 932
152 1519 1272
157 1506 1539
163 1513 1802
169 1542 2074
175 1587 2364
181 1638 2649
183 1654 2764
183 1659 2812
183 1665 2862
184 1673 2913
185 1684 2965
152 1634 271
154 1633 314
156 1631 358
157 1628 398
162 1636 533
171 1696 855
180 1783 1220
188 1793 1543
196 1784 1821
204 1788 2092
211 1822 2379
219 1874 2686
222 1901 2860
222 1906 2913
222 1913 2963
223 1918 3013
224 1929 3065
182 1881 314
185 1879 368
187 1871 421
188 1862 470
190 1857 531
199 1897 810
210 1981 1135
222 2093 1525
233 2096 1835
243 2091 2128
252 2102 2421
259 2133 2725
262 2163 2961
262 2166 3030
263 2172 3079
263 2178 3129
265 2187 3180
221 2156 331
219 2153 399
219 2140 468
220 2118 534
222 2101 590
231 2109 793
245 2197 1125
258 2312 1463
273 2438 1860
287 2437 2162
299 2430 2470
305 2437 2787
306 2440 3056
306 2441 3154
306 2442 3201
307 2444 3246
308 2451 3294
307 2412 394
295 2420 467
277 2422 532
266 2410 599
260 2387 669
266 2349 797
282 2419 1133
299 2537 1464
314 2683 1827
332 2798 2219
345 2787 2522
354 2764 2831
354 2749 3138
353 2727 3272
352 2722 3316
353 2720 3357
355 2722 3401
409 2667 508
394 2674 579
374 2678 649
352 2678 710
327 2672 771
316 2650 835
319 2635 1131
337 2753 1473
353 2882 1805
370 3036 2192
385 3136 2575
396 3107 2870
404 3071 3171
404 3045 3388
402 3028 3427
403 3018 3463
404 3011 3502
477 2839 591
464 2846 667
447 2850 737
427 2852 801
407 2850 864
392 2840 926
358 2815 1097
363 2894 1447
379 3025 1757
395 3178 2106
411 3327 2512
425 3384 2870
439 3346 3170
449 3315 3434
450 3312 3515
452 3309 3560
454 3304 3600
500 2894 622
487 2899 696
470 2902 767
451 2903 829
433 2899 892
419 2890 955
381 2873 1061
368 2934 1386
384 3080 1701
400 3221 2025
417 3364 2417
432 3470 2833
448 3444 3130
462 3410 3413
466 3399 3528
468 3402 3579
470 3406 3628
523 2944 656
507 2950 727
486 2955 792
465 2959 852
444 2958 913
425 2952 973
392 2940 1054
373 2984 1337
389 3128 1664
404 3259 1973
421 3399 2362
438 3514 2785
454 3510 3105
470 3470 3397
475 3452 3542
476 3451 3585
478 3456 3636
536 3007 680
510 3021 744
482 3033 805
454 3042 862
426 3045 921
399 3045 978
374 3023 1057
380 3057 1338
396 3195 1665
410 3315 1972
427 3448 2360
445 3560 2781
462 3570 3122
478 3524 3413
483 3503 3560
484 3499 3598
485 3500 3640
681 152 63
674 159 119
685 163 343
696 214 647
609 278 941
553 345 1188
504 423 1445
441 514 1719
380 583 1994
339 649 2272
323 702 2490
313 716 2558
304 728 2609
299 741 2661
295 755 2714
290 768 2768
288 784 2824
646 193 84
639 192 116
639 197 306
653 247 623
562 310 912
506 373 1160
456 454 1421
392 537 1691
338 604 1964
310 667 2240
295 725 2481
285 742 2555
277 754 2606
272 766 2658
268 780 2711
264 794 2765
