滤镜资源/Professional Luts Collection/Triune-Digital-Cinematic-LUTs/3D LUTs (3DL)/LOG/Guardians of the Galaxy - LOG.3dl
# Created by Benjamin (IWLTBAP) : http://luts.iwltbap.com
# Copyright: (C) Copyright 2016 Triune Films and IWLTBAP
# Blockbuster LUTs Pack
0 128 256 384 512 640 768 896 1023
0 0 0
0 58 388
0 177 881
0 314 1392
0 476 1951
0 608 2435
0 637 2546
0 666 2651
0 696 2758
0 302 71
0 300 327
0 358 821
0 469 1337
0 604 1890
0 729 2417
0 749 2546
0 769 2647
0 794 2751
2 747 132
6 738 221
19 757 792
28 809 1290
34 894 1818
37 1004 2366
35 1039 2564
33 1057 2661
32 1080 2763
60 1190 191
64 1183 262
75 1237 668
88 1253 1285
98 1295 1805
108 1383 2362
112 1427 2662
112 1438 2757
113 1454 2858
120 1640 265
123 1638 350
129 1645 535
146 1794 1240
161 1786 1825
177 1827 2380
188 1900 2838
189 1911 2935
190 1928 3037
186 2152 344
187 2126 479
189 2096 589
210 2195 1118
237 2428 1864
262 2420 2460
272 2438 3037
272 2440 3174
273 2448 3267
360 2658 498
324 2662 627
279 2654 748
284 2619 1116
315 2855 1768
346 3108 2554
366 3054 3151
367 3029 3411
368 3012 3486
447 2868 599
417 2875 731
381 2873 856
334 2843 1034
348 3043 1684
381 3341 2407
409 3421 3123
424 3379 3503
427 3387 3607
488 2977 660
452 2985 785
406 2993 901
346 2981 1040
360 3160 1649
391 3422 2336
423 3548 3117
440 3485 3537
442 3481 3616
373 88 47
359 121 403
266 245 918
193 383 1425
147 527 1968
122 655 2461
105 682 2578
97 710 2682
92 739 2791
258 331 139
208 327 324
133 405 836
96 505 1343
70 626 1884
49 747 2432
30 766 2572
24 786 2676
23 810 2784
42 741 158
47 730 234
59 749 780
65 797 1281
69 889 1807
70 1008 2362
67 1046 2577
65 1065 2678
64 1088 2782
95 1184 208
100 1175 281
111 1227 665
123 1248 1278
133 1286 1796
141 1370 2356
145 1421 2677
145 1435 2775
145 1455 2877
152 1634 271
156 1631 358
162 1636 533
180 1783 1220
196 1784 1821
211 1822 2379
222 1901 2860
222 1913 2963
224 1929 3065
221 2156 331
219 2140 468
222 2101 590
245 2197 1125
273 2438 1860
299 2430 2470
306 2440 3056
306 2442 3201
308 2451 3294
409 2667 508
374 2678 649
327 2672 771
319 2635 1131
353 2882 1805
385 3136 2575
404 3071 3171
402 3028 3427
404 3011 3502
500 2894 622
470 2902 767
433 2899 892
381 2873 1061
384 3080 1701
417 3364 2417
448 3444 3130
466 3399 3528
470 3406 3628
536 3007 680
482 3033 805
426 3045 921
374 3023 1057
396 3195 1665
427 3448 2360
462 3570 3122
483 3503 3560
485 3500 3640
992 215 61
986 222 286
1043 311 881
886 445 1464
734 610 1995
593 763 2506
543 789 2631
515 814 2735
503 842 2847
938 398 133
918 393 261
946 453 846
745 561 1412
594 701 1947
464 814 2476
441 833 2633
430 854 2737
424 882 2847
874 819 243
841 820 313
641 874 841
466 929 1347
387 1002 1841
347 1073 2366
327 1104 2603
318 1117 2708
313 1137 2815
398 1263 270
356 1254 348
302 1242 710
288 1285 1277
265 1310 1787
241 1383 2335
233 1440 2690
227 1452 2790
225 1473 2896
211 1620 285
214 1609 368
215 1603 514
229 1746 1189
240 1753 1786
248 1786 2345
254 1870 2857
253 1881 2966
254 1900 3071
252 2134 321
249 2127 451
252 2088 579
272 2161 1092
302 2403 1815
329 2404 2443
337 2416 3046
338 2422 3207
341 2433 3301
451 2655 505
418 2667 645
370 2668 776
349 2621 1109
384 2872 1801
418 3132 2562
438 3067 3168
437 3013 3434
441 3000 3510
551 2911 644
517 2917 788
478 2915 917
428 2896 1070
417 3083 1699
453 3375 2428
489 3471 3131
509 3422 3556
513 3427 3653
573 3028 699
517 3053 825
462 3058 943
407 3043 1064
429 3195 1668
463 3459 2376
506 3599 3129
528 3529 3588
530 3526 3670
1613 341 36
1623 359 197
1712 380 753
1779 520 1338
1663 685 1965
1414 781 2519
1336 823 2646
1296 851 2737
1267 882 2833
1574 470 82
1565 459 164
1628 451 677
1687 584 1299
1522 719 1935
1251 833 2478
1171 882 2650
1136 916 2750
1106 954 2855
1591 845 162
1572 843 228
1530 885 687
1545 973 1337
1199 1028 1951
931 1123 2468
814 1179 2725
769 1202 2824
742 1222 2926
1554 1316 311
1530 1321 390
1458 1349 698
1103 1461 1378
858 1467 1900
669 1512 2396
629 1538 2756
618 1540 2853
612 1553 2957
1192 1793 427
1133 1796 485
1023 1795 581
640 1835 1251
604 1915 1872
557 1884 2376
533 1958 2920
531 1987 3057
532 2016 3175
601 2141 374
559 2140 445
506 2127 540
433 2092 1036
451 2345 1803
482 2395 2404
470 2424 3046
479 2468 3261
494 2504 3372
560 2632 517
523 2642 641
473 2642 766
417 2600 1052
442 2824 1768
477 3098 2535
496 3045 3142
493 2987 3440
498 2982 3520
609 2929 672
570 2933 812
525 2933 939
481 2915 1067
447 3073 1677
485 3370 2412
530 3496 3116
551 3443 3582
555 3447 3676
610 3054 715
553 3073 841
496 3077 963
440 3058 1083
460 3187 1649
497 3456 2365
546 3620 3119
571 3553 3609
573 3549 3697
2298 500 76
2309 503 199
2404 495 675
2508 597 1237
2574 728 1782
2498 906 2383
2424 959 2584
2386 986 2699
2362 1011 2812
2230 566 98
2225 564 145
2300 539 597
2416 638 1184
2477 770 1744
2359 953 2375
2271 1011 2622
2237 1030 2729
2220 1047 2840
2240 919 189
2226 914 230
2230 895 535
2302 915 1138
2341 1062 1770
2118 1168 2434
1966 1176 2755
1903 1179 2857
1845 1192 2957
2302 1320 265
2291 1320 310
2271 1331 483
2207 1452 1217
2174 1538 1887
1776 1516 2544
1491 1559 2967
1425 1575 3067
1376 1599 3172
2264 1873 345
2249 1880 415
2223 1882 523
2123 1975 1190
1745 2080 1963
1362 2019 2528
1113 2118 3099
1131 2176 3264
1160 2230 3388
1881 2365 502
1838 2361 587
1784 2351 694
1590 2357 1044
1094 2451 1810
978 2643 2607
939 2642 3176
1017 2759 3474
1063 2821 3596
1247 2686 657
1198 2688 731
1142 2691 818
1020 2684 993
776 2774 1743
816 3142 2619
895 3213 3234
911 3189 3568
942 3216 3669
989 2994 800
937 3010 920
871 3017 1038
802 3006 1156
688 3137 1762
757 3477 2573
853 3675 3309
854 3629 3697
861 3622 3771
914 3173 828
847 3191 948
772 3192 1066
699 3173 1187
671 3269 1748
736 3568 2535
836 3774 3313
843 3729 3715
836 3715 3795
3027 687 136
3038 694 205
3088 667 668
3208 731 1184
3223 852 1749
3234 996 2337
3227 1065 2597
3210 1093 2715
3196 1123 2842
2973 748 156
2976 753 188
3015 727 589
3131 762 1118
3156 888 1700
3165 1033 2290
3153 1119 2616
3133 1148 2741
3116 1177 2867
2934 1019 222
2929 1015 254
2912 982 465
2990 937 1014
3031 1059 1655
3045 1198 2265
3007 1292 2713
2977 1307 2832
2957 1323 2953
2963 1406 292
2952 1401 332
2925 1393 426
2909 1414 1004
2932 1441 1680
2939 1591 2384
2849 1632 2957
2840 1647 3104
2834 1663 3246
3008 1877 325
3001 1877 375
2984 1870 432
2969 1926 962
2879 2083 1810
2837 2153 2567
2631 2108 3259
2617 2186 3456
2622 2242 3575
2949 2550 454
2941 2560 518
2926 2561 583
2892 2587 964
2813 2673 1730
2542 2762 2607
2238 2726 3312
2366 2856 3632
2423 2911 3729
2614 3087 588
2588 3087 712
2554 3078 855
2497 3060 1036
2330 3056 1654
1782 3135 2460
1753 3387 3366
1811 3386 3729
1907 3405 3804
2160 3461 885
2132 3479 1022
2100 3503 1138
2049 3528 1244
1827 3664 1704
1505 3844 2569
1407 3992 3527
1391 3887 3904
1431 3873 3964
2079 3609 962
2053 3644 1086
2027 3679 1191
1976 3715 1293
1758 3844 1706
1474 3997 2594
1429 4029 3518
1421 3923 3862
1397 3903 3930
3241 752 147
3260 763 208
3316 749 624
3425 771 1127
3460 915 1725
3435 1028 2300
3445 1118 2626
3455 1155 2765
3457 1177 2878
3262 836 169
3274 846 196
3311 824 552
3404 822 1059
3459 966 1680
3430 1081 2263
3442 1186 2658
3455 1221 2797
3456 1241 2907
3331 1089 227
3340 1092 252
3347 1077 421
3412 1002 933
3464 1112 1619
3435 1229 2235
3450 1334 2741
3467 1358 2879
3468 1372 2985
3483 1505 291
3487 1505 317
3482 1495 384
3497 1502 874
3505 1491 1608
3482 1644 2351
3522 1749 2997
3557 1774 3164
3578 1802 3301
3647 2009 327
3647 2010 363
3637 2001 421
3616 2012 794
3576 2106 1652
3532 2136 2437
3583 2259 3216
3620 2315 3476
3627 2365 3611
3685 2549 462
3681 2554 533
3671 2553 605
3647 2566 853
3600 2638 1646
3522 2771 2487
3478 2810 3265
3469 2886 3648
3463 2950 3749
3565 3252 643
3563 3263 723
3556 3270 812
3544 3272 906
3520 3329 1649
3433 3371 2353
3241 3440 3230
3134 3413 3729
3156 3443 3824
3340 3758 1124
3332 3769 1260
3324 3782 1383
3307 3792 1502
3289 3835 1927
3217 3881 2461
2770 3940 3024
2695 3950 3870
2717 3921 3947
3277 3857 1205
3269 3871 1330
3262 3883 1447
3245 3896 1563
3225 3938 1922
3168 4016 2460
2751 4080 3053
2661 4012 3842
2660 3980 3937
3377 794 152
3394 805 214
3442 794 604
3525 799 1098
3570 945 1713
3531 1052 2289
3533 1140 2631
3538 1172 2761
3552 1206 2903
3397 880 174
3409 890 199
3438 871 532
3514 848 1034
3570 995 1667
3532 1110 2259
3532 1210 2667
3541 1241 2797
3557 1274 2941
3455 1106 224
3464 1110 247
3472 1098 397
3523 1031 908
3577 1116 1596
3543 1238 2224
3541 1339 2740
3554 1360 2870
3574 1388 3015
3599 1519 283
3606 1522 308
3605 1516 364
3635 1544 846
3642 1532 1610
3624 1689 2367
3635 1784 3001
3673 1797 3176
3713 1826 3335
3802 2036 327
3805 2040 366
3800 2036 430
3789 2064 804
3776 2192 1708
3743 2212 2455
3757 2343 3218
3815 2361 3491
3841 2393 3630
3916 2596 489
3918 2607 571
3920 2613 648
3917 2632 894
3891 2711 1706
3847 2828 2489
3807 2904 3263
3860 2959 3673
3863 2988 3780
3933 3212 744
3935 3223 879
3937 3233 1050
3941 3236 1188
3952 3306 1799
3948 3344 2402
3871 3420 3144
3833 3478 3734
3830 3499 3830
3950 3834 1134
3948 3840 1244
3946 3846 1348
3943 3850 1448
3936 3887 1811
3913 3954 2478
3862 3978 3095
3762 4041 3780
3740 4017 3936
3917 3977 1291
3914 3984 1408
3909 3992 1515
3904 4000 1620
3894 4023 1912
3862 4054 2565
3798 4065 3195
3682 4088 3753
3685 4070 3937
3508 839 156
3522 849 220
3561 840 599
3628 831 1095
3669 980 1721
3627 1090 2309
3620 1170 2643
3624 1201 2774
3632 1228 2903
3527 925 178
3537 935 203
3559 919 527
3619 883 1026
3671 1030 1677
3630 1153 2284
3620 1243 2682
3627 1273 2812
3638 1299 2942
3581 1146 223
3591 1151 244
3597 1138 391
3642 1081 915
3685 1148 1610
3648 1279 2252
3633 1371 2758
3644 1391 2886
3662 1416 3025
3726 1568 278
3733 1572 303
3735 1570 359
3766 1608 859
3771 1600 1647
3752 1761 2419
3750 1853 3048
3783 1865 3218
3819 1881 3367
3916 2088 335
3916 2092 390
3910 2095 465
3902 2136 880
3894 2261 1767
3861 2276 2490
3861 2410 3249
3905 2426 3508
3934 2430 3643
3982 2632 521
3984 2646 608
3986 2659 687
3989 2681 966
3986 2766 1770
3943 2888 2539
3901 2960 3286
3938 3014 3679
3957 3013 3789
3995 3212 867
3998 3226 1043
4003 3239 1184
4006 3244 1308
4015 3320 1886
4014 3363 2448
3966 3446 3158
3927 3510 3737
3936 3515 3841
4016 3798 1269
4017 3804 1373
4017 3808 1473
4017 3811 1569
4017 3841 1882
4016 3919 2467
3998 3982 3077
3963 4018 3766
3953 4032 3925
4017 3947 1349
4017 3954 1449
4018 3960 1543
4018 3968 1633
4017 3995 1883
4016 4053 2570
3994 4074 3262
3967 4079 3797
3957 4083 3930
