滤镜资源/Professional Luts Collection/Triune-Digital-Cinematic-LUTs/3D LUTs (3DL)/LOG/Harry Potter - LOG.3dl
# Created by Benjamin (IWLTBAP) : http://luts.iwltbap.com
# Copyright: (C) Copyright 2016 Triune Films and IWLTBAP
# Blockbuster LUTs Pack
0 256 512 768 1023
0 0 104
0 102 661
0 433 1402
18 580 1885
87 633 2084
0 597 380
0 633 717
5 783 1512
280 945 2175
363 994 2358
559 1559 940
542 1574 1089
439 1670 1853
641 1836 2761
682 1856 2898
1396 2761 1763
1373 2759 1840
1358 2798 2283
1242 2821 3048
1279 2847 3262
1746 3067 2008
1738 3075 2088
1726 3109 2423
1707 3166 3100
1699 3186 3358
710 151 171
448 249 714
421 475 1429
546 643 1984
588 701 2181
449 589 295
284 621 689
350 754 1463
535 940 2183
583 992 2372
661 1537 912
629 1530 1041
536 1642 1809
722 1821 2754
761 1843 2898
1473 2737 1740
1436 2730 1820
1400 2772 2246
1313 2808 3026
1350 2838 3265
1877 3085 2014
1867 3091 2097
1845 3124 2414
1827 3181 3093
1815 3204 3366
2090 429 225
1998 498 713
1718 710 1661
1589 900 2335
1562 955 2504
1967 620 66
1975 587 473
1510 897 1587
1369 1113 2412
1351 1162 2580
1908 1709 677
1862 1698 789
1339 1775 1852
1323 1927 2839
1349 1954 3039
2156 2784 1675
2099 2777 1769
1926 2794 2215
1722 2846 3024
1736 2876 3296
2347 3153 2035
2332 3160 2126
2281 3178 2427
2238 3235 3091
2187 3255 3386
2805 584 320
2813 660 695
2784 1063 1890
2733 1301 2708
2723 1360 2857
2849 680 210
2859 706 483
2846 1115 1729
2767 1451 2762
2758 1496 2904
3051 1518 286
3044 1488 348
3085 1708 1524
2910 2145 2976
2898 2148 3158
3113 2783 1313
3099 2779 1396
3079 2832 1905
2924 2964 3035
2882 2992 3359
3148 3236 1916
3141 3246 2024
3116 3270 2314
3022 3337 3121
2986 3358 3435
2954 657 362
2965 717 688
2978 1157 1923
2933 1436 2792
2932 1485 2944
2980 742 305
2985 760 505
3016 1164 1730
2955 1532 2823
2954 1578 2974
3149 1509 404
3148 1503 496
3190 1734 1535
3114 2141 2969
3112 2179 3178
3413 2748 1386
3410 2750 1480
3397 2807 1920
3311 2951 2977
3264 2996 3369
3464 3291 2142
3457 3302 2252
3439 3323 2479
3382 3381 3151
3367 3408 3467
