滤镜资源/Professional Luts Collection/Triune-Digital-Cinematic-LUTs/3D LUTs (3DL)/LOG/Harry Potter - LOG.3dl
# Created by Benjamin (IWLTBAP) : http://luts.iwltbap.com
# Copyright: (C) Copyright 2016 Triune Films and IWLTBAP
# Blockbuster LUTs Pack
0 128 256 384 512 640 768 896 1023
0 0 104
0 5 350
0 102 661
0 301 1007
0 433 1402
1 549 1779
18 580 1885
46 607 1985
87 633 2084
0 240 211
0 252 366
0 332 683
0 427 1029
0 526 1409
10 643 1827
46 666 1946
90 689 2044
154 715 2142
0 597 380
0 602 433
0 633 717
0 694 1106
5 783 1512
175 903 1986
280 945 2175
324 966 2264
363 994 2358
201 1018 606
199 1023 648
182 1050 847
54 1101 1228
164 1188 1686
385 1300 2201
477 1363 2485
503 1377 2564
527 1397 2644
559 1559 940
551 1559 983
542 1574 1089
516 1620 1447
439 1670 1853
522 1757 2364
641 1836 2761
661 1843 2832
682 1856 2898
918 2181 1368
903 2180 1412
890 2177 1455
863 2205 1717
855 2246 2075
791 2268 2493
877 2339 2953
903 2348 3044
923 2358 3104
1396 2761 1763
1386 2762 1803
1373 2759 1840
1364 2773 1976
1358 2798 2283
1335 2822 2662
1242 2821 3048
1251 2834 3210
1279 2847 3262
1601 2965 1906
1597 2970 1946
1593 2976 1987
1597 2989 2054
1583 3020 2343
1596 3056 2722
1543 3080 3075
1515 3089 3285
1573 3108 3336
1746 3067 2008
1741 3071 2047
1738 3075 2088
1742 3085 2146
1726 3109 2423
1756 3142 2782
1707 3166 3100
1663 3179 3318
1699 3186 3358
49 3 161
47 14 377
45 141 671
43 315 1009
40 441 1399
115 559 1788
170 590 1897
233 618 1999
293 645 2099
36 218 181
35 237 354
33 317 665
30 407 1001
28 510 1384
107 633 1816
167 659 1943
218 682 2039
274 707 2136
16 580 366
16 582 420
16 619 701
15 681 1087
20 766 1488
233 889 1963
334 935 2168
368 958 2259
401 985 2353
243 1005 595
234 1003 638
218 1036 829
126 1088 1208
236 1175 1667
426 1291 2183
518 1359 2484
542 1373 2563
566 1393 2645
594 1551 930
584 1549 976
573 1560 1074
551 1611 1432
481 1664 1840
562 1753 2352
682 1836 2762
704 1844 2835
723 1857 2901
959 2173 1359
944 2172 1406
925 2165 1446
897 2197 1703
888 2238 2062
831 2264 2481
921 2339 2952
949 2349 3048
968 2359 3107
1437 2754 1756
1421 2752 1795
1407 2749 1833
1394 2764 1965
1383 2790 2271
1364 2816 2652
1281 2819 3041
1292 2835 3212
1317 2846 3265
1661 2975 1910
1653 2978 1950
1648 2983 1991
1644 2992 2052
1630 3027 2340
1647 3063 2719
1587 3088 3072
1562 3099 3290
1621 3117 3340
1809 3075 2010
1805 3079 2051
1798 3082 2091
1796 3089 2144
1782 3116 2420
1813 3149 2780
1765 3173 3098
1715 3188 3322
1754 3195 3362
710 151 171
653 167 379
448 249 714
365 364 1049
421 475 1429
527 607 1860
546 643 1984
565 671 2084
588 701 2181
649 274 158
647 276 311
356 341 680
273 422 1016
341 519 1397
479 651 1848
510 684 2000
533 711 2098
558 741 2195
449 589 295
423 585 348
284 621 689
247 668 1056
350 754 1463
483 884 1949
535 940 2183
557 963 2275
583 992 2372
504 1011 579
488 1009 623
437 1014 800
380 1079 1184
429 1164 1645
548 1281 2162
624 1357 2490
640 1369 2568
660 1390 2651
661 1537 912
649 1533 957
629 1530 1041
600 1588 1398
536 1642 1809
604 1731 2319
722 1821 2754
743 1830 2830
761 1843 2898
996 2150 1337
976 2147 1384
957 2140 1428
922 2172 1669
910 2213 2033
858 2243 2452
954 2324 2940
990 2339 3048
1007 2348 3107
1473 2737 1740
1456 2735 1780
1436 2730 1820
1414 2741 1939
1400 2772 2246
1386 2800 2629
1313 2808 3026
1329 2828 3213
1350 2838 3265
1726 2985 1914
1718 2988 1954
1711 2991 1996
1704 2998 2050
1686 3035 2332
1702 3070 2712
1636 3096 3064
1611 3109 3295
1674 3126 3344
1877 3085 2014
1871 3088 2055
1867 3091 2097
1860 3095 2141
1845 3124 2414
1874 3156 2774
1827 3181 3093
1776 3198 3326
1815 3204 3366
1426 321 133
1393 330 340
1243 365 707
1055 464 1126
961 560 1505
961 705 2004
947 742 2139
943 770 2231
944 798 2323
1367 357 69
1360 360 241
1203 393 654
970 487 1076
874 575 1454
888 725 1958
888 778 2144
889 806 2237
893 834 2329
1320 610 74
1319 600 147
1237 621 571
880 714 1086
777 787 1486
802 928 2003
829 993 2266
837 1016 2353
851 1044 2444
1160 1085 456
1138 1079 505
1072 1071 679
787 1113 1187
737 1180 1635
800 1299 2161
862 1384 2526
875 1399 2607
893 1421 2702
1187 1618 862
1154 1617 918
1095 1612 995
879 1623 1399
817 1688 1824
869 1782 2349
974 1873 2801
989 1883 2881
1002 1897 2953
1344 2195 1320
1308 2188 1369
1258 2171 1411
1130 2169 1653
1084 2222 2019
1048 2264 2448
1140 2347 2950
1173 2364 3073
1183 2374 3132
1619 2731 1723
1598 2729 1763
1568 2722 1803
1509 2717 1907
1467 2755 2214
1445 2782 2600
1377 2796 3005
1393 2820 3216
1407 2829 3267
1810 2998 1919
1801 3001 1960
1791 3004 2001
1779 3007 2047
1753 3043 2318
1767 3078 2697
1696 3104 3051
1666 3119 3301
1732 3136 3349
1947 3095 2018
1942 3098 2059
1936 3101 2101
1931 3104 2146
1916 3133 2401
1939 3164 2760
1896 3189 3081
1841 3207 3329
1879 3213 3370
2090 429 225
2078 437 337
1998 498 713
1850 592 1194
1718 710 1661
1633 855 2185
1589 900 2335
1571 927 2420
1562 955 2504
2021 443 188
2011 446 274
1940 496 646
1772 590 1125
1628 718 1597
1543 872 2133
1498 934 2335
1481 960 2421
1472 988 2506
1967 620 66
1967 607 143
1975 587 473
1729 744 1064
1510 897 1587
1409 1038 2126
1369 1113 2412
1353 1133 2493
1351 1162 2580
1985 1063 152
1984 1053 209
1994 1020 329
1839 1130 1030
1419 1303 1709
1289 1391 2224
1276 1470 2608
1268 1481 2687
1276 1502 2774
1908 1709 677
1891 1706 730
1862 1698 789
1726 1724 1247
1339 1775 1852
1268 1841 2364
1323 1927 2839
1334 1938 2944
1349 1954 3039
1976 2248 1185
1955 2250 1244
1921 2246 1304
1790 2261 1577
1543 2288 2037
1434 2335 2484
1487 2408 2985
1506 2426 3129
1503 2435 3193
2156 2784 1675
2130 2782 1722
2099 2777 1769
2045 2773 1864
1926 2794 2215
1828 2828 2608
1722 2846 3024
1732 2870 3247
1736 2876 3296
2271 3066 1925
2261 3071 1971
2250 3075 2019
2232 3079 2067
2189 3099 2354
2161 3135 2727
2090 3160 3069
2040 3175 3324
2066 3184 3368
2347 3153 2035
2340 3157 2080
2332 3160 2126
2317 3163 2174
2281 3178 2427
2271 3209 2780
2238 3235 3091
2163 3251 3342
2187 3255 3386
2659 538 297
2654 542 356
2648 620 722
2622 805 1293
2541 952 1841
2479 1103 2417
2437 1151 2584
2420 1179 2663
2411 1215 2743
2620 549 279
2615 553 333
2609 612 651
2579 785 1208
2485 936 1758
2415 1098 2355
2367 1172 2576
2349 1201 2656
2340 1237 2737
2581 631 125
2584 625 201
2594 642 471
2566 806 1071
2410 1006 1659
2324 1215 2301
2259 1304 2609
2237 1327 2687
2231 1357 2769
2587 1003 151
2587 993 210
2586 961 300
2608 1018 876
2455 1360 1692
2283 1569 2358
2196 1638 2750
2178 1648 2823
2182 1667 2899
2679 1635 351
2680 1629 380
2676 1615 406
2696 1609 724
2614 1799 1644
2285 1998 2443
2190 2047 2902
2176 2051 3011
2192 2061 3096
2574 2272 945
2567 2275 998
2554 2274 1057
2526 2300 1315
2488 2368 1882
2292 2444 2498
2214 2494 2999
2194 2511 3183
2180 2519 3240
2669 2803 1517
2661 2804 1568
2650 2803 1621
2632 2802 1706
2576 2848 2111
2469 2890 2614
2347 2919 3040
2290 2936 3284
2268 2940 3334
2752 3124 1883
2746 3129 1930
2739 3134 1979
2727 3138 2030
2700 3167 2319
2650 3201 2756
2620 3233 3095
2566 3247 3353
2528 3249 3399
2786 3205 2015
2782 3209 2063
2776 3213 2112
2765 3217 2165
2739 3239 2418
2690 3266 2794
2678 3295 3114
2612 3313 3366
2620 3314 3414
2805 584 320
2805 589 370
2813 660 695
2819 868 1282
2784 1063 1890
2736 1231 2477
2733 1301 2708
2724 1326 2782
2723 1360 2857
2815 607 310
2815 612 361
2822 665 629
2831 865 1206
2803 1074 1832
2746 1247 2432
2741 1339 2721
2732 1363 2794
2733 1401 2870
2849 680 210
2853 684 285
2859 706 483
2874 880 1060
2846 1115 1729
2777 1315 2366
2767 1451 2762
2757 1464 2831
2758 1496 2904
2910 969 213
2912 957 255
2915 931 309
2959 950 783
2953 1290 1620
2876 1621 2387
2847 1775 2881
2834 1781 2955
2836 1796 3023
3051 1518 286
3048 1506 317
3044 1488 348
3056 1450 569
3085 1708 1524
2991 2009 2416
2910 2145 2976
2892 2145 3090
2898 2148 3158
3169 2156 568
3166 2147 586
3161 2134 602
3160 2111 672
3173 2229 1400
3073 2434 2361
2930 2554 3020
2899 2561 3215
2891 2571 3267
3113 2783 1313
3107 2781 1351
3099 2779 1396
3085 2775 1459
3079 2832 1905
3039 2905 2491
2924 2964 3035
2887 2987 3312
2882 2992 3359
3136 3155 1750
3132 3160 1802
3128 3165 1857
3122 3170 1916
3116 3193 2163
3065 3240 2678
2999 3274 3100
2962 3293 3372
2940 3296 3423
3148 3236 1916
3145 3240 1968
3141 3246 2024
3134 3250 2084
3116 3270 2314
3069 3309 2762
3022 3337 3121
2992 3358 3380
2986 3358 3435
2884 619 339
2885 624 389
2894 686 685
2909 896 1272
2890 1113 1905
2840 1288 2496
2839 1372 2753
2838 1397 2833
2834 1421 2901
2891 643 330
2892 648 380
2899 691 618
2917 890 1193
2904 1119 1843
2848 1300 2448
2845 1403 2763
2845 1430 2842
2842 1459 2912
2917 708 263
2920 713 330
2923 730 488
2943 890 1041
2939 1135 1724
2869 1336 2365
2864 1482 2790
2862 1504 2867
2858 1527 2935
2966 949 231
2968 939 272
2971 921 318
3003 978 806
3020 1273 1585
2962 1588 2348
2944 1779 2888
2939 1798 2979
2938 1803 3043
3106 1475 311
3104 1467 352
3102 1458 400
3115 1485 701
3148 1711 1519
3097 1987 2365
3048 2138 2969
3040 2159 3106
3045 2150 3170
3267 2109 618
3266 2105 652
3265 2099 691
3267 2101 808
3282 2241 1493
3236 2414 2327
3153 2549 2995
3131 2573 3222
3130 2567 3276
3385 2713 1185
3383 2714 1232
3381 2716 1288
3378 2713 1349
3365 2795 1851
3333 2878 2417
3268 2951 2980
3216 2994 3323
3216 2991 3368
3430 3171 1771
3426 3175 1823
3422 3179 1878
3416 3183 1940
3395 3212 2207
3350 3265 2737
3314 3297 3091
3279 3321 3382
3274 3324 3443
3424 3255 1895
3421 3260 1944
3417 3266 2000
3412 3273 2058
3396 3295 2262
3362 3342 2722
3325 3371 3088
3294 3393 3393
3285 3395 3457
2954 657 362
2954 662 410
2965 717 688
2987 924 1271
2978 1157 1923
2935 1345 2525
2933 1436 2792
2933 1461 2871
2932 1485 2944
2960 681 354
2961 685 401
2969 724 626
2993 918 1193
2989 1159 1857
2943 1355 2477
2939 1466 2801
2940 1492 2880
2940 1521 2955
2980 742 305
2982 746 363
2985 760 505
3009 915 1044
3016 1164 1730
2960 1380 2389
2955 1532 2823
2954 1552 2900
2954 1578 2974
3018 981 305
3019 976 352
3019 964 402
3046 1039 867
3071 1306 1589
3033 1595 2346
3023 1792 2903
3022 1816 3000
3023 1837 3067
3149 1509 404
3148 1507 446
3148 1503 496
3159 1553 830
3190 1734 1535
3152 1998 2360
3114 2141 2969
3111 2166 3119
3112 2179 3178
3302 2138 736
3302 2138 778
3301 2136 826
3303 2146 957
3316 2263 1546
3281 2417 2326
3209 2549 2987
3191 2579 3228
3186 2582 3278
3413 2748 1386
3412 2749 1432
3410 2750 1480
3408 2746 1527
3397 2807 1920
3375 2877 2416
3311 2951 2977
3270 2998 3328
3264 2996 3369
3460 3199 1975
3458 3202 2022
3455 3205 2073
3451 3207 2124
3434 3226 2334
3407 3264 2720
3376 3297 3076
3354 3325 3380
3345 3326 3447
3464 3291 2142
3461 3296 2195
3457 3302 2252
3453 3307 2311
3439 3323 2479
3411 3356 2847
3382 3381 3151
3367 3403 3399
3367 3408 3467
