滤镜资源/Professional Luts Collection/Triune-Digital-Cinematic-LUTs/3D LUTs (3DL)/LOG/Harry Potter - LOG.3dl
# Created by Benjamin (IWLTBAP) : http://luts.iwltbap.com
# Copyright: (C) Copyright 2016 Triune Films and IWLTBAP
# Blockbuster LUTs Pack
0 64 128 192 256 320 384 448 512 576 640 704 768 832 896 960 1023
0 0 104
0 1 200
0 5 350
0 26 500
0 102 661
0 221 829
0 301 1007
0 368 1203
0 433 1402
0 500 1614
1 549 1779
6 566 1836
18 580 1885
30 593 1935
46 607 1985
64 620 2035
87 633 2084
0 19 138
0 15 200
0 34 358
0 89 507
0 182 662
0 268 828
0 331 1005
0 388 1194
0 451 1393
0 517 1604
2 573 1791
9 590 1851
24 604 1902
38 618 1952
58 631 2002
78 645 2052
105 658 2101
0 240 211
0 241 244
0 252 366
0 289 521
0 332 683
0 380 852
0 427 1029
0 474 1214
0 526 1409
0 586 1617
10 643 1827
26 657 1898
46 666 1946
64 677 1995
90 689 2044
118 701 2092
154 715 2142
0 428 295
0 430 319
0 436 392
0 449 531
0 471 696
0 507 877
0 547 1063
0 588 1253
0 636 1446
1 692 1658
58 757 1895
106 780 1998
133 788 2044
163 800 2092
200 812 2140
232 823 2187
266 837 2235
0 597 380
0 600 401
0 602 433
0 615 562
0 633 717
0 656 903
0 694 1106
0 736 1309
5 783 1512
42 840 1734
175 903 1986
259 939 2133
280 945 2175
300 955 2219
324 966 2264
341 979 2310
363 994 2358
6 790 480
6 793 502
7 794 523
7 805 615
5 825 768
1 846 947
0 875 1157
9 918 1378
60 968 1595
176 1027 1830
302 1091 2096
376 1137 2288
390 1142 2328
403 1150 2371
418 1160 2414
432 1170 2455
447 1183 2500
201 1018 606
201 1020 627
199 1023 648
195 1031 702
182 1050 847
140 1074 1023
54 1101 1228
55 1135 1453
164 1188 1686
295 1243 1931
385 1300 2201
459 1354 2428
477 1363 2485
490 1370 2525
503 1377 2564
515 1385 2604
527 1397 2644
414 1277 758
411 1279 780
409 1280 801
406 1283 829
394 1303 952
381 1327 1129
338 1355 1327
267 1383 1541
293 1416 1765
374 1472 2020
453 1526 2291
527 1578 2542
555 1594 2629
566 1598 2667
577 1604 2704
587 1610 2740
598 1619 2777
559 1559 940
555 1559 961
551 1559 983
548 1560 1007
542 1574 1089
530 1595 1255
516 1620 1447
481 1647 1645
439 1670 1853
455 1703 2090
522 1757 2364
598 1811 2630
641 1836 2761
651 1838 2798
661 1843 2832
671 1848 2865
682 1856 2898
719 1866 1149
713 1865 1170
708 1865 1192
704 1865 1215
700 1869 1258
684 1886 1399
678 1906 1580
663 1930 1768
625 1951 1957
590 1967 2171
613 1998 2425
687 2053 2697
743 2086 2870
754 2089 2913
763 2093 2944
773 2097 2975
786 2105 3007
918 2181 1368
910 2180 1390
903 2180 1412
896 2179 1433
890 2177 1455
881 2192 1562
863 2205 1717
866 2226 1898
855 2246 2075
824 2259 2268
791 2268 2493
820 2303 2751
877 2339 2953
893 2345 3015
903 2348 3044
911 2351 3074
923 2358 3104
1153 2485 1576
1147 2486 1597
1140 2485 1619
1132 2484 1639
1124 2482 1660
1122 2489 1718
1105 2503 1855
1100 2516 2014
1113 2535 2188
1099 2546 2371
1065 2553 2576
1028 2560 2798
1044 2584 3012
1063 2595 3104
1070 2597 3133
1078 2601 3161
1089 2608 3189
1396 2761 1763
1391 2762 1783
1386 2762 1803
1380 2761 1822
1373 2759 1840
1368 2757 1859
1364 2773 1976
1344 2781 2111
1358 2798 2283
1359 2813 2469
1335 2822 2662
1288 2823 2859
1242 2821 3048
1247 2833 3179
1251 2834 3210
1262 2839 3236
1279 2847 3262
1543 2914 1866
1541 2917 1887
1539 2919 1907
1536 2922 1928
1534 2924 1948
1533 2927 1969
1534 2939 2039
1517 2954 2170
1521 2970 2335
1533 2988 2527
1518 3002 2714
1487 3010 2901
1448 3016 3079
1411 3013 3224
1436 3023 3266
1459 3031 3292
1485 3041 3318
1601 2965 1906
1599 2968 1926
1597 2970 1946
1594 2973 1966
1593 2976 1987
1594 2980 2009
1597 2989 2054
1585 3005 2184
1583 3020 2343
1604 3040 2535
1596 3056 2722
1572 3070 2902
1543 3080 3075
1505 3084 3230
1515 3089 3285
1542 3098 3311
1573 3108 3336
1670 3017 1955
1668 3019 1974
1665 3021 1994
1663 3023 2013
1661 3026 2034
1662 3030 2056
1664 3036 2092
1654 3051 2211
1644 3065 2365
1666 3083 2552
1668 3099 2737
1649 3113 2911
1625 3123 3075
1585 3129 3229
1585 3133 3301
1603 3138 3322
1635 3147 3347
1746 3067 2008
1743 3069 2027
1741 3071 2047
1740 3073 2067
1738 3075 2088
1740 3079 2111
1742 3085 2146
1733 3097 2268
1726 3109 2423
1748 3126 2604
1756 3142 2782
1739 3155 2945
1707 3166 3100
1665 3175 3248
1663 3179 3318
1680 3182 3338
1699 3186 3358
18 1 127
17 2 209
16 7 358
16 31 503
15 113 661
14 227 827
13 303 1004
12 370 1199
10 434 1397
9 500 1607
9 550 1777
14 567 1835
34 581 1885
56 595 1935
80 608 1985
108 621 2034
137 634 2083
12 14 127
12 20 194
11 38 349
10 83 497
9 168 653
8 256 817
8 322 991
8 385 1185
8 449 1385
8 516 1596
11 574 1791
22 592 1853
43 605 1903
68 619 1953
96 632 2003
125 646 2052
156 659 2101
8 226 201
8 231 242
8 242 360
8 279 516
8 326 677
8 375 845
8 421 1021
8 468 1207
8 521 1401
9 581 1610
29 639 1824
53 654 1898
77 663 1945
105 675 1994
134 687 2043
165 699 2091
201 713 2140
8 420 288
8 423 317
8 431 387
8 445 526
8 467 692
8 503 871
8 543 1057
8 583 1246
8 631 1439
17 688 1650
85 753 1888
147 778 1997
175 786 2043
203 798 2091
238 810 2140
263 822 2186
294 835 2234
8 591 375
8 593 399
8 596 427
8 612 557
8 629 712
8 653 897
8 690 1100
8 732 1302
15 778 1504
64 834 1724
200 900 1980
283 937 2132
303 943 2174
321 954 2218
345 965 2264
361 977 2310
383 992 2358
14 785 476
14 786 499
14 787 520
13 800 610
12 820 763
9 842 940
8 871 1150
19 914 1372
77 964 1589
200 1023 1824
324 1087 2089
396 1135 2286
410 1140 2328
423 1148 2370
437 1158 2413
451 1168 2455
466 1182 2500
224 1014 602
220 1014 623
216 1015 644
211 1025 697
199 1046 841
167 1070 1017
84 1097 1221
92 1131 1447
202 1184 1680
319 1240 1925
407 1298 2195
480 1353 2425
498 1363 2486
511 1369 2525
524 1378 2565
535 1385 2604
547 1397 2646
432 1273 754
429 1274 777
426 1275 798
422 1276 823
413 1299 946
401 1323 1123
363 1353 1321
301 1380 1535
320 1414 1759
398 1470 2014
474 1524 2285
547 1577 2539
576 1595 2631
587 1599 2669
598 1605 2706
608 1611 2742
619 1620 2779
577 1556 936
573 1556 959
568 1555 981
563 1554 1002
558 1569 1084
547 1592 1249
534 1617 1441
500 1644 1640
460 1668 1848
476 1701 2085
542 1756 2360
619 1811 2628
662 1837 2762
673 1840 2800
683 1844 2834
693 1849 2867
702 1857 2900
739 1863 1146
734 1863 1168
727 1861 1189
718 1858 1210
714 1862 1250
701 1883 1393
694 1903 1573
680 1927 1763
644 1949 1952
609 1966 2167
632 1996 2420
707 2054 2694
766 2087 2871
778 2090 2915
788 2094 2946
798 2099 2977
809 2106 3009
939 2178 1365
932 2178 1388
924 2177 1409
915 2175 1430
908 2172 1451
900 2188 1557
880 2202 1711
882 2223 1893
872 2243 2069
842 2257 2263
812 2267 2489
842 2303 2747
900 2340 2953
917 2346 3017
926 2349 3046
935 2353 3076
945 2359 3105
1173 2483 1573
1166 2483 1595
1159 2483 1616
1150 2481 1637
1141 2478 1657
1135 2483 1711
1122 2501 1851
1114 2513 2009
1127 2532 2183
1115 2544 2366
1083 2552 2571
1048 2559 2794
1065 2584 3011
1086 2597 3106
1092 2599 3135
1100 2602 3163
1109 2609 3190
1417 2758 1760
1410 2758 1780
1405 2758 1799
1398 2757 1819
1390 2755 1837
1382 2752 1856
1380 2769 1972
1359 2778 2106
1371 2795 2278
1373 2811 2464
1350 2820 2658
1305 2822 2856
1262 2821 3045
1268 2834 3181
1272 2836 3211
1283 2840 3237
1298 2848 3264
1571 2918 1868
1567 2920 1888
1564 2922 1909
1562 2925 1929
1559 2927 1950
1555 2929 1970
1556 2941 2037
1540 2957 2169
1541 2973 2334
1552 2990 2525
1538 3004 2713
1506 3013 2900
1469 3019 3078
1433 3017 3225
1459 3028 3268
1481 3036 3294
1506 3045 3319
1631 2970 1908
1627 2972 1928
1625 2974 1948
1622 2976 1968
1621 2979 1989
1619 2982 2010
1621 2990 2054
1612 3009 2183
1607 3024 2342
1628 3043 2533
1621 3060 2721
1593 3073 2901
1565 3084 3074
1529 3089 3230
1538 3094 3288
1566 3103 3313
1596 3112 3338
1700 3021 1956
1698 3023 1976
1695 3025 1996
1692 3027 2015
1690 3030 2035
1688 3032 2056
1690 3038 2090
1684 3055 2210
1671 3068 2364
1692 3086 2550
1695 3103 2736
1672 3116 2909
1646 3127 3074
1609 3134 3229
1609 3138 3303
1628 3143 3325
1658 3151 3349
1778 3071 2009
1776 3073 2030
1773 3075 2049
1770 3076 2069
1768 3079 2089
1767 3082 2111
1769 3087 2145
1763 3101 2267
1754 3113 2422
1775 3129 2602
1784 3145 2781
1766 3158 2944
1735 3170 3099
1690 3179 3247
1687 3183 3320
1704 3186 3340
1724 3190 3360
49 3 161
48 4 230
47 14 377
46 45 516
45 141 671
44 245 835
43 315 1009
42 377 1200
40 441 1399
52 506 1608
115 559 1788
142 576 1848
170 590 1897
200 604 1947
233 618 1999
262 631 2049
293 645 2099
44 33 159
43 45 207
42 54 362
41 95 504
40 179 658
39 268 822
38 333 995
37 393 1186
35 455 1385
47 520 1593
112 581 1795
143 599 1861
171 612 1910
196 626 1960
222 639 2010
249 653 2060
279 667 2110
36 218 181
35 218 217
35 237 354
34 269 506
33 317 665
32 363 830
30 407 1001
29 457 1188
28 510 1384
40 571 1594
107 633 1816
146 651 1897
167 659 1943
191 670 1992
218 682 2039
243 694 2087
274 707 2136
27 411 272
26 412 300
25 420 379
25 438 518
24 461 684
22 496 863
21 534 1045
20 573 1232
19 621 1426
35 678 1635
131 742 1874
198 771 1992
225 779 2038
252 791 2087
279 803 2135
302 815 2182
325 828 2230
16 580 366
16 581 391
16 582 420
16 602 546
16 619 701
15 642 885
15 681 1087
15 721 1288
20 766 1488
87 822 1707
233 889 1963
318 929 2126
334 935 2168
351 946 2213
368 958 2259
384 970 2305
401 985 2353
44 774 468
42 775 491
39 774 514
31 789 598
22 810 751
18 831 928
19 860 1137
29 904 1359
87 953 1575
220 1012 1808
346 1077 2074
416 1128 2279
429 1134 2324
441 1142 2366
455 1153 2409
468 1163 2451
483 1177 2498
243 1005 595
240 1005 617
234 1003 638
228 1011 686
218 1036 829
187 1060 1005
126 1088 1208
135 1122 1434
236 1175 1667
339 1231 1913
426 1291 2183
498 1348 2420
518 1359 2484
529 1365 2523
542 1373 2563
553 1381 2603
566 1393 2645
448 1266 748
445 1266 770
441 1265 792
437 1265 815
429 1290 935
418 1315 1112
382 1345 1311
334 1373 1525
350 1408 1750
419 1465 2004
493 1519 2276
566 1575 2534
596 1593 2631
607 1598 2669
618 1604 2706
629 1611 2744
639 1620 2780
594 1551 930
589 1550 954
584 1549 976
578 1546 997
573 1560 1074
563 1586 1239
551 1611 1432
519 1639 1632
481 1664 1840
497 1697 2077
562 1753 2352
638 1809 2623
682 1836 2762
694 1839 2801
704 1844 2835
714 1849 2868
723 1857 2901
757 1858 1139
752 1858 1163
746 1856 1185
736 1852 1205
727 1852 1239
717 1878 1386
709 1897 1564
696 1922 1755
662 1945 1945
627 1962 2159
651 1993 2412
726 2052 2689
787 2086 2871
801 2091 2917
811 2094 2948
822 2098 2979
832 2106 3011
959 2173 1359
952 2173 1383
944 2172 1406
935 2169 1426
925 2165 1446
916 2181 1549
897 2197 1703
896 2217 1884
888 2238 2062
859 2253 2256
831 2264 2481
862 2300 2741
921 2339 2952
940 2347 3019
949 2349 3048
958 2352 3078
968 2359 3107
1193 2479 1569
1186 2478 1591
1178 2477 1613
1169 2476 1634
1159 2473 1653
1149 2476 1703
1138 2496 1844
1128 2508 2001
1141 2527 2176
1129 2541 2360
1099 2549 2565
1067 2556 2789
1085 2583 3007
1108 2597 3107
1114 2599 3136
1121 2601 3164
1130 2608 3192
1437 2754 1756
1429 2753 1775
1421 2752 1795
1415 2752 1815
1407 2749 1833
1398 2746 1851
1394 2764 1965
1374 2775 2100
1383 2790 2271
1386 2806 2457
1364 2816 2652
1321 2819 2851
1281 2819 3041
1288 2833 3183
1292 2835 3212
1302 2838 3238
1317 2846 3265
1600 2923 1870
1596 2924 1890
1591 2926 1911
1588 2928 1931
1585 2930 1951
1580 2932 1971
1578 2942 2034
1564 2961 2168
1561 2975 2332
1573 2993 2523
1558 3006 2711
1526 3016 2898
1490 3022 3076
1454 3021 3226
1481 3031 3270
1505 3040 3296
1529 3048 3321
1661 2975 1910
1658 2976 1930
1653 2978 1950
1651 2980 1970
1648 2983 1991
1646 2985 2011
1644 2992 2052
1637 3012 2181
1630 3027 2340
1651 3046 2530
1647 3063 2719
1617 3077 2899
1587 3088 3072
1553 3093 3229
1562 3099 3290
1592 3108 3316
1621 3117 3340
1731 3026 1958
1729 3028 1978
1726 3029 1998
1722 3031 2018
1720 3033 2037
1717 3036 2058
1716 3040 2089
1714 3059 2208
1699 3072 2362
1719 3090 2547
1723 3106 2735
1700 3120 2907
1674 3131 3072
1639 3139 3228
1636 3143 3306
1658 3147 3327
1688 3156 3351
1809 3075 2010
1807 3077 2031
1805 3079 2051
1801 3080 2071
1798 3082 2091
1797 3085 2113
1796 3089 2144
1794 3105 2265
1782 3116 2420
1802 3133 2599
1813 3149 2780
1794 3162 2942
1765 3173 3098
1721 3183 3246
1715 3188 3322
1735 3191 3342
1754 3195 3362
303 22 177
280 26 234
201 43 385
105 88 538
83 186 688
82 275 852
86 335 1024
105 393 1212
145 453 1408
233 518 1619
335 578 1816
362 598 1884
377 612 1934
396 626 1984
413 640 2035
428 654 2084
446 669 2134
267 63 172
276 65 207
194 83 364
101 135 521
78 217 673
76 293 837
78 351 1009
86 408 1197
108 467 1394
195 532 1604
316 597 1818
349 618 1892
365 632 1942
385 646 1993
402 661 2044
419 675 2094
