滤镜资源/Professional Luts Collection/Triune-Digital-Cinematic-LUTs/3D LUTs (3DL)/LOG/House of Cards - LOG.3dl
# Created by Benjamin (IWLTBAP) : http://luts.iwltbap.com
# Copyright: (C) Copyright 2016 Triune Films and IWLTBAP
# Blockbuster LUTs Pack
0 256 512 768 1023
0 0 0
117 53 971
215 188 2391
356 280 3117
417 312 3368
192 795 125
207 685 669
418 885 2318
572 945 3345
623 937 3583
475 1873 365
473 1819 578
455 1605 1634
750 1857 3237
801 1883 3535
875 2990 661
858 2946 780
818 2790 1484
747 2593 2698
909 2708 3287
997 3347 772
980 3328 885
999 3257 1449
861 3057 2530
887 2980 3140
1065 151 104
858 154 748
762 184 2183
776 256 2990
812 287 3246
820 718 127
909 892 807
870 891 2238
903 872 3245
916 865 3489
704 1870 381
737 1916 620
693 1663 1660
924 1857 3271
960 1882 3571
1000 2968 670
1037 3005 830
988 2832 1502
934 2626 2708
1073 2722 3331
1129 3371 798
1136 3391 934
1177 3325 1471
1077 3134 2559
1115 3065 3210
2474 445 357
2349 455 823
2000 378 1831
1861 379 2817
1826 383 3095
2234 785 326
2288 938 768
1985 917 1850
1850 868 3024
1822 852 3279
1903 1665 360
1912 1712 491
2087 2092 2014
2026 2112 3447
2007 2093 3730
1725 2915 664
1720 2924 786
1879 3149 1779
1808 2872 2886
1841 2905 3527
1685 3449 992
1684 3465 1140
1699 3507 1577
1673 3348 2675
1723 3293 3397
3358 649 521
3348 701 900
3036 630 1796
2819 565 2639
2789 554 2893
3357 920 526
3403 1017 790
3182 1028 1786
2909 912 2755
2874 886 2999
3310 1712 564
3323 1759 690
3466 2116 1923
3187 2106 3098
3132 2086 3437
3009 2660 643
3012 2690 767
3094 2936 1487
3287 3314 3246
3234 3302 3888
2860 3334 831
2861 3369 992
2869 3432 1381
3122 3802 3031
3194 3781 3814
3613 718 571
3644 802 928
3320 705 1788
3094 630 2651
3044 616 2860
3623 953 575
3662 1031 790
3449 1036 1752
3171 925 2743
3105 887 2943
3622 1707 614
3644 1757 743
3790 2088 1861
3539 2099 3047
3444 2055 3345
3640 2642 718
3656 2673 848
3750 2893 1429
3933 3305 3179
3846 3318 3805
3758 3399 989
3777 3446 1201
3809 3535 1600
3954 3863 3123
4043 4035 4035
