滤镜资源/Professional Luts Collection/Triune-Digital-Cinematic-LUTs/3D LUTs (3DL)/LOG/House of Cards - LOG.3dl
# Created by Benjamin (IWLTBAP) : http://luts.iwltbap.com
# Copyright: (C) Copyright 2016 Triune Films and IWLTBAP
# Blockbuster LUTs Pack
0 64 128 192 256 320 384 448 512 576 640 704 768 832 896 960 1023
0 0 0
15 11 131
48 25 384
86 45 665
117 53 971
149 59 1301
162 95 1658
186 141 2022
215 188 2391
290 233 2745
324 262 2980
343 271 3054
356 280 3117
364 288 3181
377 296 3244
397 304 3306
417 312 3368
17 100 10
29 93 88
66 118 354
106 157 655
151 157 951
159 148 1281
183 163 1627
196 186 1991
220 224 2362
282 261 2717
333 292 2987
352 302 3066
362 310 3127
369 317 3188
378 326 3253
396 334 3319
416 342 3380
47 312 37
54 307 81
79 282 261
130 313 567
188 350 923
233 383 1305
249 389 1658
252 394 2010
284 400 2366
329 409 2712
369 417 3012
381 413 3102
389 410 3159
397 412 3217
403 414 3277
414 415 3340
431 424 3405
114 548 80
118 540 121
126 521 239
142 480 458
199 518 796
256 562 1186
302 609 1605
330 648 2020
375 664 2394
411 671 2744
453 676 3065
477 670 3192
485 659 3247
487 657 3306
490 655 3366
500 651 3426
517 652 3488
192 795 125
189 786 166
187 774 227
193 730 429
207 685 669
272 733 1038
327 786 1457
369 837 1892
418 885 2318
489 928 2732
548 957 3109
567 953 3289
572 945 3345
583 943 3402
595 942 3460
608 936 3522
623 937 3583
249 1055 176
251 1045 214
252 1033 254
262 1007 411
253 947 627
265 911 892
340 962 1292
392 1022 1735
444 1074 2175
510 1125 2602
589 1175 3022
637 1209 3319
651 1211 3391
668 1213 3457
683 1217 3523
696 1219 3593
712 1227 3662
323 1322 228
321 1314 265
322 1300 303
326 1285 392
327 1230 608
318 1172 835
325 1135 1128
409 1199 1558
467 1266 2011
534 1323 2453
606 1375 2881
669 1420 3245
688 1424 3347
702 1429 3416
716 1436 3486
730 1443 3559
748 1454 3630
399 1596 295
397 1589 327
392 1579 361
391 1565 405
405 1528 594
392 1459 814
374 1401 1061
391 1368 1373
481 1439 1832
548 1512 2292
624 1572 2729
698 1625 3139
723 1639 3294
731 1644 3367
742 1651 3439
759 1658 3511
775 1669 3582
475 1873 365
474 1867 395
470 1857 425
471 1843 458
473 1819 578
477 1767 805
454 1695 1033
438 1639 1299
455 1605 1634
550 1687 2107
632 1766 2564
715 1827 3001
750 1857 3237
767 1860 3314
781 1866 3386
790 1873 3461
801 1883 3535
567 2156 433
566 2149 464
563 2136 496
563 2122 529
563 2106 585
567 2072 797
547 2007 1022
515 1942 1265
490 1886 1548
508 1853 1904
627 1941 2381
725 2020 2833
780 2062 3159
797 2072 3257
813 2080 3332
827 2087 3407
842 2097 3482
681 2428 513
677 2422 542
669 2412 574
663 2400 605
660 2389 635
659 2363 785
654 2322 1021
621 2247 1251
579 2194 1510
540 2140 1808
579 2108 2175
714 2198 2646
806 2268 3049
831 2285 3193
842 2292 3268
859 2300 3344
878 2311 3421
771 2710 586
772 2703 614
772 2688 642
769 2675 671
762 2664 700
758 2646 782
755 2611 1009
742 2556 1250
693 2487 1490
647 2436 1765
606 2378 2071
656 2351 2437
801 2445 2905
853 2480 3124
870 2490 3200
885 2501 3280
898 2516 3358
875 2990 661
873 2985 690
868 2973 721
862 2960 750
858 2946 780
854 2934 810
851 2903 998
857 2864 1249
818 2790 1484
769 2729 1738
721 2676 2023
677 2620 2332
747 2593 2698
858 2664 3041
880 2677 3127
896 2691 3208
909 2708 3287
936 3163 713
935 3161 742
929 3154 771
924 3147 801
919 3139 829
917 3133 859
916 3118 973
922 3085 1218
918 3037 1472
864 2963 1710
819 2909 1978
772 2861 2271
743 2814 2583
806 2792 2911
858 2817 3044
889 2842 3129
914 2867 3212
960 3225 730
959 3223 759
954 3215 788
949 3208 818
942 3202 848
939 3198 879
936 3189 949
941 3158 1175
949 3129 1441
905 3052 1675
858 3000 1932
811 2955 2222
781 2913 2528
779 2863 2832
834 2873 3005
870 2889 3095
905 2913 3182
980 3287 751
980 3286 778
976 3279 807
969 3273 837
963 3266 867
959 3261 898
955 3252 951
955 3226 1149
971 3195 1420
942 3126 1662
889 3072 1909
847 3026 2193
814 2986 2498
800 2936 2805
821 2918 2979
856 2925 3067
889 2942 3158
997 3347 772
997 3347 800
991 3342 825
983 3336 854
980 3328 885
980 3322 917
977 3314 968
984 3285 1174
999 3257 1449
981 3195 1698
926 3139 1948
899 3097 2231
861 3057 2530
851 3005 2841
874 2986 3015
881 2982 3076
887 2980 3140
147 18 14
128 20 102
132 28 343
154 42 625
170 53 935
196 56 1267
212 90 1622
224 136 1991
247 183 2364
319 229 2720
357 260 2967
370 269 3043
383 277 3107
391 285 3171
402 293 3234
420 302 3297
439 310 3359
119 97 17
136 119 96
134 129 346
160 142 624
182 142 922
196 133 1253
215 151 1599
222 182 1967
247 222 2341
307 257 2695
364 290 2975
380 300 3056
388 308 3117
394 316 3180
404 324 3244
419 332 3309
437 340 3371
116 312 44
127 321 93
142 296 268
183 323 572
234 355 923
269 375 1287
282 377 1634
285 382 1988
313 389 2344
354 398 2693
398 405 2999
408 404 3091
416 401 3148
424 403 3207
430 406 3267
440 408 3331
456 416 3395
170 548 90
179 559 139
179 536 246
199 494 466
252 527 801
302 569 1189
343 612 1605
367 648 2014
406 655 2375
442 662 2726
482 666 3049
506 661 3183
514 651 3238
518 648 3297
521 645 3357
530 642 3418
545 643 3480
236 794 135
244 802 182
237 790 233
237 743 433
261 699 677
318 743 1043
371 793 1459
410 842 1894
458 889 2318
528 927 2726
579 948 3093
597 945 3281
601 936 3336
610 935 3392
622 933 3451
634 927 3513
649 928 3576
294 1053 182
301 1063 226
300 1050 265
303 1019 414
293 959 629
317 926 899
388 970 1298
436 1027 1739
484 1078 2175
550 1128 2603
627 1178 3023
676 1213 3323
690 1212 3395
705 1213 3460
721 1216 3526
733 1219 3596
747 1227 3666
359 1319 237
366 1327 277
365 1315 315
365 1296 397
367 1241 610
358 1182 837
376 1148 1134
453 1206 1563
509 1270 2013
574 1327 2454
646 1379 2882
710 1423 3248
729 1429 3355
742 1434 3424
756 1440 3493
769 1446 3566
786 1457 3638
432 1593 298
438 1601 336
433 1593 370
430 1578 411
442 1540 597
432 1470 817
414 1412 1063
439 1381 1380
522 1445 1836
588 1517 2293
666 1577 2729
737 1628 3142
764 1643 3302
771 1649 3375
783 1656 3447
800 1661 3519
816 1672 3590
507 1870 368
513 1878 404
509 1869 434
509 1854 466
509 1831 582
517 1779 808
494 1707 1037
477 1650 1300
503 1620 1642
593 1693 2110
674 1770 2565
755 1831 3003
791 1862 3245
809 1864 3322
821 1870 3395
829 1877 3469
839 1887 3542
599 2151 436
603 2157 470
600 2146 503
600 2132 536
601 2116 590
607 2083 801
586 2019 1025
554 1953 1268
528 1898 1550
556 1867 1911
672 1947 2383
766 2024 2835
823 2066 3165
839 2076 3267
853 2084 3340
868 2091 3416
882 2101 3490
710 2423 514
714 2426 548
706 2417 579
702 2408 612
698 2397 643
697 2372 788
694 2332 1025
662 2256 1255
619 2205 1513
580 2151 1810
625 2120 2182
756 2202 2648
848 2272 3053
872 2289 3202
884 2296 3276
900 2304 3354
918 2314 3429
802 2703 588
803 2705 618
805 2693 647
804 2683 677
801 2673 708
795 2656 786
794 2621 1012
782 2566 1253
733 2496 1493
688 2446 1767
646 2389 2073
706 2362 2442
843 2449 2907
896 2485 3134
913 2494 3210
926 2506 3289
938 2520 3366
905 2985 663
906 2985 693
902 2977 725
898 2967 756
894 2955 787
891 2944 818
888 2913 1001
894 2874 1252
857 2800 1489
809 2739 1742
762 2684 2025
717 2631 2333
792 2604 2704
902 2670 3052
923 2682 3138
938 2696 3218
951 2713 3296
966 3165 717
967 3166 746
963 3162 777
961 3159 808
959 3154 839
957 3149 869
955 3135 978
960 3102 1223
958 3054 1478
905 2980 1716
862 2925 1982
814 2878 2274
785 2830 2584
854 2807 2921
905 2829 3055
934 2852 3139
957 2877 3220
989 3227 734
990 3228 763
988 3224 794
985 3221 825
982 3218 857
978 3214 889
975 3206 955
979 3176 1180
990 3147 1446
948 3070 1680
901 3018 1936
855 2974 2224
824 2932 2529
821 2881 2835
883 2890 3018
916 2901 3104
950 2925 3191
1013 3290 753
1015 3291 783
1013 3287 812
1007 3285 844
1002 3282 876
998 3278 908
995 3269 958
996 3243 1156
1013 3213 1429
987 3145 1674
935 3091 1922
900 3047 2205
861 3006 2508
849 2955 2817
881 2939 2998
905 2944 3081
936 2956 3169
1030 3351 775
1032 3352 804
1029 3349 831
1025 3347 862
1022 3344 895
1021 3339 927
1020 3330 977
1028 3302 1183
1045 3275 1459
1027 3215 1709
976 3159 1958
946 3117 2241
914 3074 2539
907 3026 2850
923 3006 3034
932 3004 3096
943 3002 3158
440 54 44
412 61 120
350 58 299
343 63 567
352 72 875
350 61 1200
360 79 1550
355 123 1922
357 172 2302
420 217 2662
454 250 2924
461 261 3006
469 269 3071
482 278 3136
493 286 3200
500 294 3265
510 302 3329
391 118 42
398 139 108
348 144 293
336 141 562
344 144 863
345 127 1191
361 147 1542
356 175 1910
361 215 2285
418 249 2642
447 282 2936
456 293 3024
459 301 3089
468 310 3153
482 318 3217
494 326 3282
503 334 3345
333 293 48
338 304 93
375 359 312
378 370 591
383 364 897
388 354 1230
390 352 1577
385 358 1938
396 368 2301
426 376 2652
466 387 2967
467 387 3071
469 383 3129
472 385 3189
475 388 3250
483 391 3313
498 399 3377
305 537 92
308 544 130
335 580 275
335 532 492
366 550 814
394 581 1195
418 613 1599
427 635 1987
451 637 2343
479 642 2695
511 647 3024
532 642 3169
538 631 3225
545 628 3285
548 626 3345
557 623 3406
569 625 3469
292 792 146
295 797 182
311 810 249
307 762 442
321 711 679
363 745 1042
412 792 1454
450 839 1888
496 884 2309
563 919 2712
606 930 3069
625 927 3269
628 920 3324
634 918 3380
646 916 3439
658 910 3501
671 910 3565
345 1049 188
348 1054 223
361 1069 279
359 1039 419
352 978 637
372 935 902
431 971 1295
479 1026 1735
522 1076 2170
587 1124 2599
663 1174 3019
713 1206 3323
726 1205 3397
741 1208 3463
757 1212 3529
769 1215 3599
778 1216 3663
400 1315 246
403 1319 279
419 1334 333
423 1318 408
420 1258 616
411 1199 844
430 1158 1138
498 1208 1563
551 1270 2011
613 1326 2451
685 1378 2878
750 1423 3250
769 1430 3363
781 1434 3432
796 1440 3502
808 1447 3575
824 1458 3647
470 1593 304
473 1597 336
484 1614 386
483 1602 426
486 1555 601
480 1485 823
461 1428 1068
488 1392 1385
564 1450 1836
629 1518 2290
706 1577 2725
775 1629 3143
804 1646 3311
811 1651 3383
824 1658 3455
841 1663 3527
857 1673 3599
545 1871 372
548 1875 404
559 1892 452
560 1879 486
553 1850 590
557 1790 810
538 1719 1042
518 1662 1303
548 1632 1646
635 1697 2111
715 1772 2565
795 1832 3003
832 1864 3252
849 1866 3331
860 1873 3404
866 1879 3477
877 1889 3550
639 2149 441
641 2153 472
650 2168 517
651 2156 551
650 2136 600
647 2093 803
626 2028 1027
593 1963 1269
566 1908 1549
603 1879 1915
716 1951 2384
806 2025 2834
865 2068 3172
880 2079 3276
893 2087 3349
908 2093 3424
922 2103 3498
743 2422 517
746 2425 548
759 2438 595
754 2428 627
747 2414 657
736 2382 791
733 2340 1027
702 2264 1256
658 2213 1514
619 2160 1810
670 2129 2185
799 2205 2649
890 2274 3058
913 2292 3211
925 2299 3286
942 2306 3363
957 2317 3440
840 2697 592
842 2700 623
849 2713 662
848 2702 692
846 2689 721
837 2669 793
832 2629 1014
821 2575 1255
774 2504 1495
728 2453 1768
686 2398 2071
752 2373 2446
885 2451 2908
939 2489 3144
954 2497 3221
967 2509 3298
980 2523 3375
937 2981 667
940 2984 698
950 2996 739
945 2986 770
938 2972 800
933 2958 829
924 2921 1003
932 2882 1255
896 2808 1491
848 2746 1744
804 2692 2025
758 2639 2332
838 2612 2708
946 2675 3063
965 2686 3148
978 2700 3228
992 2717 3306
995 3169 720
999 3174 752
1009 3187 791
1007 3183 822
1004 3177 852
1001 3169 882
995 3153 982
999 3119 1227
998 3071 1482
947 2996 1720
905 2942 1985
857 2895 2276
827 2846 2585
902 2823 2931
952 2840 3066
979 2862 3149
999 2885 3231
1019 3231 739
1024 3236 771
1033 3249 809
1028 3246 840
1025 3241 871
1021 3235 902
1016 3223 962
1016 3195 1182
1030 3165 1450
991 3088 1686
944 3037 1939
902 2993 2226
868 2950 2529
861 2901 2836
932 2908 3029
963 2917 3112
994 2937 3199
1045 3294 758
1050 3300 790
1060 3312 828
1054 3309 860
1046 3305 890
1042 3299 921
1036 3288 965
1040 3259 1162
1055 3231 1438
1036 3165 1684
982 3110 1933
951 3067 2215
914 3027 2514
902 2974 2826
933 2960 3017
952 2962 3094
983 2973 3177
1066 3354 778
1071 3359 810
1075 3363 842
1071 3361 873
1064 3359 907
1062 3355 941
1062 3347 987
1071 3321 1189
1092 3293 1465
1072 3236 1719
1026 3179 1968
993 3136 2250
968 3092 2546
964 3047 2857
977 3025 3051
989 3026 3113
1001 3024 3174
736 102 75
729 119 143
661 118 309
598 103 513
573 104 813
566 101 1144
562 106 1495
550 130 1859
548 167 2236
565 206 2593
601 239 2867
599 250 2955
605 258 3020
619 267 3085
632 276 3151
637 285 3219
643 293 3285
695 152 73
700 168 126
648 182 300
585 169 507
565 170 802
564 167 1135
558 166 1486
544 184 1852
545 212 2225
563 242 2585
599 276 2885
608 286 2978
608 294 3042
616 301 3106
629 310 3170
631 318 3235
