滤镜资源/Professional Luts Collection/Triune-Digital-Cinematic-LUTs/3D LUTs (3DL)/LOG/House of Cards - LOG.3dl
# Created by Benjamin (IWLTBAP) : http://luts.iwltbap.com
# Copyright: (C) Copyright 2016 Triune Films and IWLTBAP
# Blockbuster LUTs Pack
0 128 256 384 512 640 768 896 1023
0 0 0
48 25 384
117 53 971
162 95 1658
215 188 2391
324 262 2980
356 280 3117
377 296 3244
417 312 3368
47 312 37
79 282 261
188 350 923
249 389 1658
284 400 2366
369 417 3012
389 410 3159
403 414 3277
431 424 3405
192 795 125
187 774 227
207 685 669
327 786 1457
418 885 2318
548 957 3109
572 945 3345
595 942 3460
623 937 3583
323 1322 228
322 1300 303
327 1230 608
325 1135 1128
467 1266 2011
606 1375 2881
688 1424 3347
716 1436 3486
748 1454 3630
475 1873 365
470 1857 425
473 1819 578
454 1695 1033
455 1605 1634
632 1766 2564
750 1857 3237
781 1866 3386
801 1883 3535
681 2428 513
669 2412 574
660 2389 635
654 2322 1021
579 2194 1510
579 2108 2175
806 2268 3049
842 2292 3268
878 2311 3421
875 2990 661
868 2973 721
858 2946 780
851 2903 998
818 2790 1484
721 2676 2023
747 2593 2698
880 2677 3127
909 2708 3287
960 3225 730
954 3215 788
942 3202 848
936 3189 949
949 3129 1441
858 3000 1932
781 2913 2528
834 2873 3005
905 2913 3182
997 3347 772
991 3342 825
980 3328 885
977 3314 968
999 3257 1449
926 3139 1948
861 3057 2530
874 2986 3015
887 2980 3140
440 54 44
350 58 299
352 72 875
360 79 1550
357 172 2302
454 250 2924
469 269 3071
493 286 3200
510 302 3329
333 293 48
375 359 312
383 364 897
390 352 1577
396 368 2301
466 387 2967
469 383 3129
475 388 3250
498 399 3377
292 792 146
311 810 249
321 711 679
412 792 1454
496 884 2309
606 930 3069
628 920 3324
646 916 3439
671 910 3565
400 1315 246
419 1334 333
420 1258 616
430 1158 1138
551 1270 2011
685 1378 2878
769 1430 3363
796 1440 3502
824 1458 3647
545 1871 372
559 1892 452
553 1850 590
538 1719 1042
548 1632 1646
715 1772 2565
832 1864 3252
860 1873 3404
877 1889 3550
743 2422 517
759 2438 595
747 2414 657
733 2340 1027
658 2213 1514
670 2129 2185
890 2274 3058
925 2299 3286
957 2317 3440
937 2981 667
950 2996 739
938 2972 800
924 2921 1003
896 2808 1491
804 2692 2025
838 2612 2708
965 2686 3148
992 2717 3306
1019 3231 739
1033 3249 809
1025 3241 871
1016 3223 962
1030 3165 1450
944 3037 1939
868 2950 2529
932 2908 3029
994 2937 3199
1066 3354 778
1075 3363 842
1064 3359 907
1062 3347 987
1092 3293 1465
1026 3179 1968
968 3092 2546
977 3025 3051
1001 3024 3174
1065 151 104
1002 172 322
858 154 748
794 145 1430
762 184 2183
786 240 2836
776 256 2990
793 271 3115
812 287 3246
955 318 101
978 376 293
854 379 751
801 350 1420
766 333 2162
778 342 2847
764 330 3035
774 340 3160
788 355 3289
820 718 127
823 744 199
909 892 807
892 904 1508
870 891 2238
893 888 2951
903 872 3245
911 863 3365
916 865 3489
733 1289 236
734 1297 301
803 1402 704
806 1269 1218
838 1324 2041
926 1411 2892
991 1459 3408
1004 1463 3542
1022 1474 3678
704 1870 381
707 1877 445
737 1916 620
716 1794 1084
693 1663 1660
817 1767 2551
924 1857 3271
941 1866 3426
960 1882 3571
806 2408 521
813 2416 587
848 2446 684
834 2367 1034
773 2242 1531
777 2142 2183
969 2269 3063
1008 2295 3309
1036 2311 3461
1000 2968 670
1006 2975 733
1037 3005 830
1020 2956 1017
988 2832 1502
904 2716 2033
934 2626 2708
1050 2691 3172
1073 2722 3331
1092 3251 752
1099 3263 816
1118 3304 915
1122 3289 1000
1114 3202 1458
1035 3080 1953
962 2992 2533
1035 2945 3053
1086 2966 3217
1129 3371 798
1133 3382 866
1136 3391 934
1142 3382 1004
1177 3325 1471
1124 3216 1982
1077 3134 2559
1101 3066 3085
1115 3065 3210
1755 292 224
1748 320 389
1574 294 762
1413 260 1261
1321 253 2020
1248 277 2763
1229 288 2944
1223 294 3071
1229 302 3206
1655 384 210
1668 421 320
1544 436 744
1378 387 1234
1284 363 1989
1233 380 2745
1223 384 2983
1215 393 3109
1214 403 3244
1509 731 202
1513 756 265
1572 910 777
1443 917 1325
1375 898 2058
1347 874 2797
1325 848 3138
1319 836 3258
1323 829 3386
1350 1177 231
1353 1197 293
1395 1308 601
1496 1489 1396
1476 1502 2130
1460 1504 2886
1441 1474 3366
1434 1457 3482
1432 1455 3605
1229 1765 333
1228 1772 393
1244 1818 521
1377 1985 1265
1369 1876 1836
1395 1922 2640
1433 1973 3378
1435 1976 3539
1446 1988 3680
1228 2440 550
1228 2444 612
1223 2444 674
1332 2564 1176
1287 2410 1697
1239 2267 2273
1323 2332 3118
1334 2356 3393
1349 2369 3538
1207 2974 688
1208 2979 751
1211 2986 820
1251 3041 1064
1228 2928 1576
1146 2801 2091
1120 2660 2721
1206 2708 3219
1223 2730 3373
1192 3276 769
1195 3287 833
1203 3316 915
1228 3350 1028
1206 3242 1453
1146 3131 1961
1076 3034 2530
1145 2985 3083
1181 2997 3241
1201 3386 817
1209 3395 887
1217 3403 957
1226 3410 1028
1260 3359 1468
1228 3253 1987
1191 3174 2557
1208 3116 3118
1227 3105 3248
2474 445 357
2490 482 472
2349 455 823
2173 423 1267
2000 378 1831
1899 375 2586
1861 379 2817
1840 381 2956
1826 383 3095
2380 493 342
2387 516 402
2309 545 789
2132 521 1237
1961 484 1799
1861 480 2573
1820 480 2873
1798 479 3010
1784 484 3149
2234 785 326
2241 810 388
2288 938 768
2160 968 1303
1985 917 1850
1892 890 2616
1850 868 3024
1832 854 3151
1822 852 3279
2074 1188 329
2078 1210 392
2100 1297 595
2177 1506 1348
2058 1523 1965
1989 1506 2698
1951 1485 3246
1935 1468 3369
1925 1462 3497
1903 1665 360
1904 1679 420
1912 1712 491
1990 1908 1140
2087 2092 2014
2044 2097 2747
2026 2112 3447
2011 2099 3605
2007 2093 3730
1771 2258 463
1769 2264 523
1777 2292 596
1850 2426 1021
1964 2585 1882
1951 2483 2447
1952 2512 3235
1952 2524 3541
1953 2530 3680
1725 2915 664
1724 2920 725
1720 2924 786
1740 2974 962
1879 3149 1779
1843 3005 2302
1808 2872 2886
1835 2894 3382
1841 2905 3527
1698 3359 906
1700 3366 978
1699 3373 1050
1692 3378 1121
1741 3448 1611
1717 3351 2146
1650 3254 2688
1663 3186 3237
1681 3185 3368
1685 3449 992
1686 3457 1066
1684 3465 1140
1676 3473 1212
1699 3507 1577
1688 3414 2104
1673 3348 2675
1709 3302 3260
1723 3293 3397
3159 599 483
3163 624 550
3094 632 893
2927 603 1310
2766 558 1823
2591 507 2418
2539 500 2684
2518 499 2815
2499 501 2951
3085 652 471
3092 672 533
3072 724 862
2902 694 1283
2738 658 1794
2565 610 2398
2505 601 2726
2482 603 2864
2465 604 2999
2963 879 454
2968 902 517
2998 998 786
2905 1038 1302
2729 997 1817
2551 933 2405
2477 901 2853
2448 889 2983
2431 884 3121
2803 1237 447
2808 1266 509
2818 1325 641
2889 1532 1311
2768 1568 1931
2593 1519 2489
2515 1495 3085
2490 1478 3220
2475 1477 3357
2634 1676 460
2634 1692 521
2638 1724 586
2693 1901 1095
2769 2103 1966
2656 2119 2589
2584 2108 3289
2561 2094 3473
2552 2092 3601
2456 2168 498
2453 2174 557
2458 2207 626
2495 2318 924
2574 2510 1754
2681 2702 2628
2635 2702 3359
2628 2711 3692
2627 2716 3824
2307 2746 601
2304 2751 660
2308 2771 727
2320 2820 855
2427 3038 1623
2551 3195 2487
2528 3093 3062
2524 3094 3565
2526 3102 3700
2202 3231 737
2205 3242 807
2205 3253 879
2199 3267 950
2271 3403 1472
2420 3594 2338
2404 3515 2902
2388 3435 3439
2400 3423 3562
2209 3380 862
2212 3391 938
2210 3403 1019
2204 3415 1103
2222 3461 1443
2388 3640 2275
2434 3609 2892
2450 3555 3460
2473 3546 3612
3358 649 521
3368 674 581
3348 701 900
3182 666 1299
3036 630 1796
2886 583 2381
2819 565 2639
2799 561 2765
2789 554 2893
3358 715 521
3369 741 582
3388 806 874
3230 772 1282
3081 742 1777
2933 698 2361
2846 674 2676
2832 671 2802
2819 668 2930
3357 920 526
3371 945 587
3403 1017 790
3346 1063 1286
3182 1028 1786
3026 968 2347
2909 912 2755
2889 892 2868
2874 886 2999
3352 1281 539
3366 1313 606
3379 1349 691
3460 1541 1273
3375 1601 1906
3202 1563 2447
3054 1508 2933
3025 1487 3069
3009 1485 3199
3310 1712 564
3314 1732 627
3323 1759 690
3377 1913 1087
3466 2116 1923
3357 2155 2554
3187 2106 3098
3146 2086 3304
3132 2086 3437
3186 2171 593
3184 2180 652
3190 2209 719
3214 2295 927
3295 2501 1691
3379 2712 2578
3274 2734 3219
3221 2715 3578
3209 2714 3705
3009 2660 643
3005 2664 701
3012 2690 767
3018 2723 850
3094 2936 1487
3177 3119 2359
3287 3314 3246
3247 3301 3762
3234 3302 3888
2857 3159 729
2859 3176 794
2860 3193 857
2853 3207 920
2905 3334 1332
3015 3549 2205
3151 3748 3101
3137 3674 3642
3132 3657 3767
2860 3334 831
2862 3352 911
2861 3369 992
2853 3384 1072
2869 3432 1381
2960 3596 2134
3122 3802 3031
3184 3797 3647
3194 3781 3814
3487 686 545
3498 705 603
3497 753 911
3326 703 1298
3178 664 1784
3030 621 2364
2956 591 2645
2924 590 2746
2910 579 2879
3487 751 545
3498 773 605
3540 857 888
3375 805 1277
3222 775 1769
3072 735 2346
2986 706 2683
2957 699 2780
2939 695 2913
3485 929 549
3498 953 612
3528 1011 781
3479 1054 1264
3312 1020 1755
3153 956 2316
3033 904 2746
3000 881 2839
2985 872 2968
3486 1280 564
3498 1308 628
3513 1331 698
3590 1518 1238
3511 1579 1867
3344 1542 2408
3199 1488 2911
3156 1462 3028
3136 1453 3154
3486 1701 588
3496 1721 653
3511 1748 720
3565 1884 1062
3662 2088 1873
3567 2137 2513
3405 2092 3057
3344 2059 3249
3324 2051 3368
3493 2162 637
3497 2174 697
3516 2202 764
3544 2267 922
3638 2479 1640
3733 2695 2528
3643 2730 3173
3556 2690 3483
3539 2682 3596
3512 2640 703
3514 2643 761
3524 2672 829
3538 2698 898
3622 2897 1436
3711 3097 2295
3813 3304 3193
3755 3331 3717
3741 3325 3830
3531 3140 791
3535 3155 855
3537 3168 920
3538 3179 985
3576 3284 1280
3661 3491 2082
3750 3702 2974
3854 3899 3831
3853 3881 3973
3566 3370 942
3569 3391 1032
3572 3416 1128
3574 3438 1228
3589 3495 1523
3635 3634 2220
3706 3799 2998
3814 3969 3762
3844 3984 3984
3613 718 571
3628 737 629
3644 802 928
3475 736 1309
3320 705 1788
3171 658 2357
3094 630 2651
3064 627 2755
3044 616 2860
3617 784 570
3629 805 632
3678 902 901
3518 842 1287
3366 815 1772
3215 771 2337
3126 743 2686
3092 735 2789
3069 731 2894
3623 953 575
3636 974 638
3662 1031 790
3617 1077 1269
3449 1036 1752
3291 976 2302
3171 925 2743
3141 905 2843
3105 887 2943
3618 1292 590
3629 1326 649
3643 1350 715
3720 1524 1232
3648 1587 1860
3481 1552 2401
3334 1504 2912
3295 1473 3030
3259 1467 3128
3622 1707 614
3634 1728 680
3644 1757 743
3694 1887 1066
3790 2088 1861
3702 2142 2506
3539 2099 3047
3480 2067 3249
3444 2055 3345
3628 2163 659
3633 2173 720
3649 2203 788
3674 2266 931
3770 2477 1633
3862 2692 2517
3770 2733 3163
3677 2696 3481
3648 2683 3575
3640 2642 718
3641 2646 776
3656 2673 848
3671 2695 915
3750 2893 1429
3840 3095 2281
3933 3305 3179
3874 3330 3716
3846 3318 3805
3666 3117 803
3670 3134 866
3674 3148 929
3685 3164 998
3736 3272 1271
3824 3482 2060
3914 3691 2946
4015 3886 3802
4041 3935 4032
3758 3399 989
3769 3422 1093
3777 3446 1201
3784 3472 1313
3809 3535 1600
3877 3688 2340
3954 3863 3123
4022 3991 3802
4043 4035 4035
