滤镜资源/Professional Luts Collection/Triune-Digital-Cinematic-LUTs/3D LUTs (3DL)/LOG/Mission Impossible - LOG.3dl
# Created by Benjamin (IWLTBAP) : http://luts.iwltbap.com
# Copyright: (C) Copyright 2016 Triune Films and IWLTBAP
# Blockbuster LUTs Pack
0 256 512 768 1023
28 22 50
60 196 1073
137 412 2364
184 533 3076
202 575 3316
69 802 104
71 879 909
150 1078 2227
233 1193 3185
256 1218 3428
136 1811 238
148 1848 633
226 2024 2053
320 2149 3322
344 2170 3557
269 2921 471
275 2923 686
379 3176 1871
463 3244 3375
483 3246 3761
342 3351 494
353 3380 712
414 3542 1554
509 3681 3252
526 3671 3817
1047 162 148
1093 220 1049
801 406 2411
863 561 3213
879 603 3444
758 763 112
604 825 866
602 1000 2185
668 1124 3200
686 1146 3443
370 1769 221
366 1790 547
422 1977 1998
499 2109 3313
517 2130 3557
438 2889 460
441 2886 673
533 3108 1788
629 3208 3332
651 3210 3759
513 3356 484
523 3385 700
579 3531 1487
681 3692 3212
697 3679 3821
2477 381 368
2563 422 1047
2580 536 2279
2490 690 3284
2419 697 3554
2264 872 295
2309 899 873
2284 953 2158
2080 1055 3348
2011 1075 3585
1980 1849 283
1965 1852 472
1580 1959 2007
1499 2070 3353
1483 2073 3603
1339 2951 383
1256 2917 607
1189 2976 1604
1288 3163 3266
1296 3168 3782
1135 3480 495
1086 3463 683
1075 3528 1363
1143 3724 3126
1136 3700 3837
3398 552 483
3439 583 1035
3533 685 2281
3581 788 3352
3584 800 3603
3457 969 494
3466 973 900
3539 1034 2122
3594 1083 3394
3595 1074 3644
3559 1973 481
3571 1990 708
3543 2088 2053
3531 2045 3495
3503 2017 3838
3308 3171 571
3292 3164 771
3262 3211 1582
3053 3330 3395
3019 3325 3986
3029 3771 636
3005 3773 836
2960 3805 1321
2512 3931 3038
2550 3898 3964
3649 594 515
3672 619 1028
3757 712 2259
3814 814 3390
3825 818 3642
3700 963 541
3697 958 892
3767 1004 2082
3827 1068 3426
3836 1052 3672
3837 1967 555
3833 1970 792
3857 2059 2022
3872 2028 3451
3874 1992 3823
3947 3082 645
3951 3079 843
3979 3124 1583
4022 3343 3407
4023 3285 4044
3979 3849 713
3979 3856 893
3987 3879 1266
4040 4036 3030
4066 4075 4084
