滤镜资源/Professional Luts Collection/Triune-Digital-Cinematic-LUTs/3D LUTs (3DL)/LOG/Mission Impossible - LOG.3dl
# Created by Benjamin (IWLTBAP) : http://luts.iwltbap.com
# Copyright: (C) Copyright 2016 Triune Films and IWLTBAP
# Blockbuster LUTs Pack
0 64 128 192 256 320 384 448 512 576 640 704 768 832 896 960 1023
28 22 50
33 41 207
45 91 489
53 137 777
60 196 1073
70 251 1374
91 305 1690
114 356 2022
137 412 2364
159 470 2714
174 510 2946
179 521 3016
184 533 3076
188 543 3136
192 554 3197
197 565 3259
202 575 3316
29 122 52
33 132 165
45 182 445
52 238 747
48 296 1047
54 345 1349
87 383 1662
114 419 1995
136 469 2338
158 526 2691
175 569 2955
182 583 3030
186 594 3088
190 604 3148
195 614 3209
201 625 3268
205 634 3326
39 339 60
40 339 129
47 362 393
56 416 698
51 471 1004
56 523 1311
72 573 1629
104 618 1967
136 652 2317
160 691 2669
183 728 2967
191 731 3058
197 733 3116
202 740 3175
208 746 3233
215 752 3292
222 763 3354
53 566 82
54 568 145
58 582 334
62 613 641
60 663 955
63 714 1267
81 766 1584
102 817 1921
140 863 2271
171 904 2632
201 947 2969
217 964 3105
222 964 3166
229 971 3227
236 976 3287
243 983 3347
249 992 3409
69 802 104
70 803 163
71 808 255
78 847 593
71 879 909
73 922 1225
91 972 1541
118 1025 1877
150 1078 2227
184 1128 2585
215 1172 2936
229 1194 3129
233 1193 3185
237 1197 3245
243 1202 3305
250 1208 3367
256 1218 3428
82 1045 129
83 1049 187
84 1051 250
89 1083 518
87 1121 870
86 1146 1181
105 1188 1500
136 1242 1833
168 1298 2182
196 1350 2540
224 1395 2896
244 1426 3152
248 1425 3209
253 1428 3266
259 1434 3326
265 1441 3385
272 1451 3445
94 1294 159
94 1297 216
96 1300 277
99 1315 432
108 1370 812
110 1396 1142
125 1423 1457
157 1471 1791
187 1526 2136
212 1576 2491
239 1622 2855
263 1659 3162
268 1660 3240
272 1661 3296
278 1668 3354
285 1674 3415
292 1685 3476
111 1549 194
111 1551 252
113 1555 313
115 1559 387
126 1601 719
145 1661 1103
158 1684 1424
181 1720 1748
205 1768 2094
229 1811 2450
254 1852 2812
282 1891 3153
292 1900 3277
297 1900 3335
303 1907 3393
309 1912 3453
316 1923 3514
136 1811 238
138 1816 297
139 1821 359
140 1822 420
148 1848 633
173 1912 1027
197 1966 1390
210 1993 1717
226 2024 2053
250 2060 2412
276 2097 2778
303 2132 3130
320 2149 3322
326 2150 3382
332 2156 3440
337 2160 3497
344 2170 3557
164 2084 296
165 2089 355
167 2094 416
169 2097 477
173 2108 587
192 2160 935
228 2245 1338
250 2295 1689
260 2308 2026
277 2324 2375
303 2355 2746
331 2387 3105
353 2410 3359
359 2411 3434
365 2415 3492
371 2419 3550
378 2428 3610
190 2362 359
192 2366 416
194 2371 473
197 2376 533
200 2379 591
215 2417 852
245 2487 1237
286 2581 1644
306 2612 2000
315 2614 2353
334 2630 2712
363 2659 3079
387 2675 3382
395 2678 3487
400 2680 3543
406 2683 3602
411 2690 3658
226 2640 420
228 2644 474
230 2648 530
233 2651 586
235 2653 643
243 2667 781
268 2721 1136
307 2813 1542
349 2909 1966
360 2925 2328
374 2931 2694
401 2945 3051
424 2955 3391
433 2955 3546
437 2955 3600
442 2957 3655
446 2962 3708
269 2921 471
270 2922 524
272 2924 577
273 2924 631
275 2923 686
277 2924 742
299 2977 1048
334 3062 1423
379 3176 1871
406 3238 2300
421 3247 2671
444 3249 3036
463 3244 3375
473 3244 3603
476 3242 3659
479 3242 3711
483 3246 3761
301 3118 486
304 3125 540
307 3132 594
310 3142 649
314 3151 702
317 3157 758
329 3190 943
359 3267 1309
396 3366 1727
436 3466 2217
459 3497 2622
477 3498 2993
495 3492 3344
501 3477 3618
505 3480 3698
508 3483 3749
511 3485 3800
315 3195 492
318 3204 545
321 3211 599
323 3218 654
326 3227 708
330 3237 763
338 3259 879
364 3329 1228
399 3420 1625
441 3529 2120
469 3581 2560
485 3581 2933
500 3570 3288
508 3557 3590
512 3560 3706
515 3565 3758
518 3568 3810
328 3272 494
331 3279 548
334 3287 602
337 3295 657
340 3304 712
343 3313 767
349 3329 855
371 3389 1169
403 3472 1559
445 3579 2043
478 3649 2518
492 3644 2890
504 3625 3247
512 3614 3560
516 3612 3711
519 3615 3762
522 3619 3815
342 3351 494
345 3359 548
348 3366 602
350 3372 657
353 3380 712
357 3391 769
362 3406 856
383 3463 1166
414 3542 1554
455 3644 2037
488 3715 2523
499 3700 2893
509 3681 3252
518 3669 3566
521 3667 3718
523 3668 3767
526 3671 3817
134 32 58
134 40 200
141 88 485
143 139 779
144 195 1077
150 252 1383
165 304 1702
182 356 2033
197 413 2371
213 472 2719
222 514 2958
225 525 3030
230 537 3090
235 548 3149
240 558 3209
245 568 3268
250 578 3328
100 114 54
100 121 155
108 166 436
112 218 734
108 276 1036
109 324 1341
135 370 1663
158 418 2000
180 469 2342
203 525 2693
222 571 2964
228 586 3040
234 598 3100
239 608 3159
245 618 3220
250 629 3278
256 638 3337
83 332 62
83 331 127
89 351 381
98 404 688
94 462 995
98 513 1301
115 564 1622
149 606 1961
179 640 2314
204 681 2670
230 721 2972
239 726 3065
244 727 3123
250 734 3181
256 740 3239
263 746 3297
271 756 3358
96 562 81
96 561 141
100 574 321
104 604 631
102 655 946
105 706 1260
122 759 1576
143 809 1913
182 853 2264
212 896 2626
242 938 2964
260 957 3107
264 956 3165
271 962 3226
277 967 3286
285 975 3347
291 984 3409
112 797 103
111 795 160
113 799 243
119 839 582
113 871 900
115 916 1218
132 963 1534
159 1018 1870
191 1071 2221
227 1121 2579
256 1165 2931
272 1188 3130
276 1185 3187
280 1190 3246
287 1196 3307
293 1202 3370
300 1212 3431
124 1040 129
125 1042 185
125 1044 246
131 1074 504
129 1114 860
128 1141 1174
146 1182 1492
177 1235 1826
209 1291 2176
238 1343 2534
266 1388 2891
286 1419 3150
291 1419 3210
296 1422 3269
302 1428 3328
308 1435 3387
315 1446 3446
136 1288 156
136 1291 212
137 1294 274
141 1307 421
150 1363 801
151 1389 1134
167 1417 1450
200 1466 1784
229 1520 2129
254 1571 2485
280 1616 2849
305 1653 3158
311 1655 3241
315 1656 3298
321 1662 3355
328 1670 3416
334 1679 3476
152 1543 191
153 1545 249
155 1549 309
157 1553 380
168 1594 707
187 1655 1094
200 1677 1417
223 1714 1740
247 1761 2087
271 1806 2445
297 1847 2807
324 1885 3148
335 1895 3278
340 1896 3335
346 1902 3394
352 1907 3454
359 1918 3515
178 1806 236
179 1810 293
181 1815 355
182 1815 416
190 1840 621
213 1904 1015
239 1961 1383
251 1988 1710
268 2019 2046
292 2055 2405
318 2092 2772
345 2126 3125
363 2145 3321
369 2145 3384
375 2151 3440
380 2155 3498
387 2164 3557
205 2078 292
207 2082 351
209 2087 411
210 2090 472
214 2101 575
233 2153 922
268 2235 1326
291 2288 1681
302 2304 2019
319 2319 2368
345 2350 2739
373 2382 3099
395 2404 3357
402 2405 3435
408 2409 3493
414 2415 3551
421 2424 3610
232 2356 355
234 2361 412
236 2365 468
239 2370 529
241 2373 588
256 2409 841
285 2476 1224
327 2572 1634
348 2607 1992
357 2609 2346
377 2625 2705
406 2654 3072
429 2671 3378
438 2673 3488
443 2675 3544
448 2678 3602
454 2685 3658
267 2633 416
269 2637 470
271 2640 527
274 2643 581
276 2645 638
284 2659 771
309 2712 1125
347 2803 1528
391 2902 1956
402 2920 2320
416 2927 2687
443 2940 3044
466 2950 3385
476 2951 3546
480 2949 3601
484 2951 3655
489 2958 3707
312 2918 471
313 2917 523
314 2919 575
316 2919 629
317 2918 684
319 2919 739
340 2968 1037
374 3051 1409
419 3166 1856
448 3232 2289
463 3241 2664
486 3244 3028
505 3239 3369
516 3240 3602
519 3238 3660
522 3238 3711
526 3242 3762
344 3120 485
347 3126 538
349 3133 593
353 3143 648
356 3152 701
359 3157 755
371 3188 932
400 3266 1298
438 3363 1713
479 3465 2203
502 3499 2615
520 3499 2986
537 3492 3338
544 3479 3617
548 3480 3699
551 3482 3751
554 3484 3802
358 3197 491
361 3204 544
363 3211 598
366 3219 652
369 3228 706
373 3237 760
380 3259 873
406 3328 1215
441 3419 1610
483 3526 2102
512 3583 2552
529 3584 2924
543 3571 3281
551 3561 3586
555 3562 3706
558 3567 3759
561 3570 3811
371 3274 493
374 3281 546
376 3288 599
379 3296 653
382 3304 709
386 3314 763
391 3329 848
413 3388 1156
444 3469 1545
487 3576 2025
521 3652 2508
536 3648 2880
547 3628 3240
556 3617 3555
559 3615 3712
562 3618 3763
565 3621 3815
385 3353 490
388 3360 544
391 3368 599
393 3374 654
395 3381 709
399 3390 765
404 3405 848
424 3461 1152
455 3538 1540
497 3640 2018
532 3717 2511
542 3703 2884
552 3683 3245
561 3672 3560
564 3669 3719
566 3670 3768
568 3673 3819
396 64 68
428 69 190
431 92 478
367 136 772
325 191 1076
327 240 1389
341 289 1724
357 346 2071
373 395 2414
395 453 2763
414 503 3018
412 518 3091
412 530 3149
415 541 3207
417 552 3267
421 566 3326
428 577 3385
341 127 62
353 130 143
357 145 435
305 190 733
291 241 1034
295 288 1347
310 348 1679
328 410 2027
343 460 2372
365 513 2725
386 564 3007
385 580 3085
383 591 3142
386 603 3201
390 614 3258
394 627 3318
401 638 3376
262 320 58
252 320 128
248 333 368
246 383 678
236 441 985
234 494 1292
252 540 1614
280 579 1962
295 617 2317
317 663 2675
342 709 2982
343 716 3081
339 715 3137
342 721 3194
345 729 3252
349 736 3309
356 746 3370
205 553 79
204 555 142
201 560 299
200 587 617
191 638 932
189 691 1245
199 744 1563
212 792 1900
242 833 2251
262 874 2613
289 920 2953
306 942 3107
308 942 3164
312 945 3222
318 950 3282
325 959 3342
333 968 3406
162 787 102
161 784 157
161 786 231
166 822 562
158 853 882
157 900 1202
173 949 1519
198 1001 1855
230 1054 2206
267 1104 2566
296 1147 2920
315 1175 3130
318 1172 3189
322 1175 3248
329 1182 3309
336 1187 3372
343 1198 3433
166 1028 129
166 1029 182
166 1030 241
172 1058 481
171 1099 842
169 1126 1158
187 1169 1478
218 1221 1812
249 1278 2162
278 1329 2520
307 1375 2880
329 1408 3148
333 1407 3211
338 1410 3270
345 1417 3330
351 1424 3389
358 1435 3448
178 1277 154
178 1277 209
179 1281 269
182 1293 404
191 1348 781
193 1376 1120
208 1405 1438
241 1455 1771
269 1508 2117
296 1560 2474
321 1605 2838
347 1642 3153
353 1646 3241
357 1647 3298
363 1653 3356
370 1660 3417
377 1671 3477
194 1532 187
195 1535 245
196 1538 305
198 1542 371
209 1582 688
228 1644 1078
241 1667 1405
264 1704 1729
288 1752 2077
312 1797 2434
338 1837 2798
366 1876 3142
378 1887 3279
382 1889 3335
388 1895 3395
394 1899 3454
401 1909 3514
219 1797 232
221 1800 289
223 1805 350
224 1807 411
231 1829 605
253 1891 998
280 1952 1372
293 1981 1700
310 2012 2036
333 2047 2395
360 2085 2763
387 2119 3118
406 2138 3320
411 2139 3384
418 2145 3442
423 2150 3500
430 2158 3557
247 2069 287
249 2075 347
250 2079 406
252 2082 467
255 2090 560
273 2142 907
308 2223 1311
332 2280 1671
344 2296 2009
360 2311 2359
387 2342 2730
415 2375 3090
438 2398 3356
444 2398 3435
450 2403 3493
456 2408 3550
463 2416 3609
274 2348 352
276 2352 408
278 2357 465
280 2360 524
283 2364 584
297 2399 828
325 2464 1209
367 2562 1620
389 2599 1983
399 2602 2337
418 2617 2696
448 2648 3065
471 2663 3373
481 2667 3489
486 2669 3545
491 2672 3602
497 2679 3659
309 2625 412
310 2628 466
313 2631 523
315 2634 578
317 2636 634
325 2649 760
350 2702 1113
387 2790 1513
431 2892 1943
444 2912 2309
458 2920 2677
485 2933 3035
508 2944 3378
518 2943 3546
522 2942 3601
526 2943 3655
531 2950 3707
355 2911 468
355 2911 521
356 2912 573
357 2912 626
359 2910 681
360 2910 736
380 2955 1023
413 3037 1394
458 3151 1839
489 3224 2277
505 3234 2653
528 3237 3018
547 3233 3361
558 3232 3602
562 3231 3659
564 3231 3710
568 3235 3762
388 3123 484
390 3128 537
392 3135 591
396 3145 646
399 3153 700
402 3158 754
412 3186 919
442 3263 1285
479 3359 1695
520 3463 2189
544 3499 2606
563 3500 2977
580 3493 3331
587 3478 3616
591 3480 3699
594 3481 3752
597 3485 3804
401 3199 489
404 3206 542
406 3213 596
409 3220 650
412 3229 704
415 3238 758
423 3258 865
447 3325 1199
482 3416 1592
524 3523 2083
554 3585 2540
572 3588 2912
586 3574 3272
594 3563 3580
598 3564 3707
601 3569 3760
604 3572 3812
415 3277 490
417 3284 545
419 3289 597
422 3297 651
425 3306 707
429 3315 761
433 3329 840
454 3386 1140
486 3467 1529
528 3573 2003
564 3653 2494
579 3651 2868
590 3631 3231
598 3619 3548
602 3617 3713
605 3620 3763
608 3624 3815
428 3355 488
431 3362 541
433 3370 596
436 3376 651
438 3382 706
441 3391 762
446 3405 839
465 3459 1137
496 3535 1524
538 3639 1997
575 3720 2497
585 3707 2873
595 3686 3235
604 3674 3553
607 3672 3721
609 3672 3769
611 3674 3819
720 121 113
736 119 203
783 132 459
760 155 764
667 188 1069
587 241 1383
549 292 1718
559 345 2068
579 401 2420
609 461 2783
639 520 3058
640 537 3137
637 547 3194
641 559 3254
646 571 3312
650 582 3368
657 594 3425
671 166 106
680 167 164
727 175 413
689 197 727
601 236 1034
538 288 1349
513 336 1683
525 386 2030
545 443 2384
577 505 2748
611 568 3050
613 590 3137
611 602 3192
615 613 3251
619 624 3309
622 635 3365
