滤镜资源/Professional Luts Collection/Triune-Digital-Cinematic-LUTs/3D LUTs (3DL)/LOG/Mission Impossible - LOG.3dl
# Created by Benjamin (IWLTBAP) : http://luts.iwltbap.com
# Copyright: (C) Copyright 2016 Triune Films and IWLTBAP
# Blockbuster LUTs Pack
0 128 256 384 512 640 768 896 1023
28 22 50
45 91 489
60 196 1073
91 305 1690
137 412 2364
174 510 2946
184 533 3076
192 554 3197
202 575 3316
39 339 60
47 362 393
51 471 1004
72 573 1629
136 652 2317
183 728 2967
197 733 3116
208 746 3233
222 763 3354
69 802 104
71 808 255
71 879 909
91 972 1541
150 1078 2227
215 1172 2936
233 1193 3185
243 1202 3305
256 1218 3428
94 1294 159
96 1300 277
108 1370 812
125 1423 1457
187 1526 2136
239 1622 2855
268 1660 3240
278 1668 3354
292 1685 3476
136 1811 238
139 1821 359
148 1848 633
197 1966 1390
226 2024 2053
276 2097 2778
320 2149 3322
332 2156 3440
344 2170 3557
190 2362 359
194 2371 473
200 2379 591
245 2487 1237
306 2612 2000
334 2630 2712
387 2675 3382
400 2680 3543
411 2690 3658
269 2921 471
272 2924 577
275 2923 686
299 2977 1048
379 3176 1871
421 3247 2671
463 3244 3375
476 3242 3659
483 3246 3761
315 3195 492
321 3211 599
326 3227 708
338 3259 879
399 3420 1625
469 3581 2560
500 3570 3288
512 3560 3706
518 3568 3810
342 3351 494
348 3366 602
353 3380 712
362 3406 856
414 3542 1554
488 3715 2523
509 3681 3252
521 3667 3718
526 3671 3817
396 64 68
431 92 478
325 191 1076
341 289 1724
373 395 2414
414 503 3018
412 530 3149
417 552 3267
428 577 3385
262 320 58
248 333 368
236 441 985
252 540 1614
295 617 2317
342 709 2982
339 715 3137
345 729 3252
356 746 3370
162 787 102
161 786 231
158 853 882
173 949 1519
230 1054 2206
296 1147 2920
318 1172 3189
329 1182 3309
343 1198 3433
178 1277 154
179 1281 269
191 1348 781
208 1405 1438
269 1508 2117
321 1605 2838
353 1646 3241
363 1653 3356
377 1671 3477
219 1797 232
223 1805 350
231 1829 605
280 1952 1372
310 2012 2036
360 2085 2763
406 2138 3320
418 2145 3442
430 2158 3557
274 2348 352
278 2357 465
283 2364 584
325 2464 1209
389 2599 1983
418 2617 2696
471 2663 3373
486 2669 3545
497 2679 3659
355 2911 468
356 2912 573
359 2910 681
380 2955 1023
458 3151 1839
505 3234 2653
547 3233 3361
562 3231 3659
568 3235 3762
401 3199 489
406 3213 596
412 3229 704
423 3258 865
482 3416 1592
554 3585 2540
586 3574 3272
598 3564 3707
604 3572 3812
428 3355 488
433 3370 596
438 3382 706
446 3405 839
496 3535 1524
575 3720 2497
595 3686 3235
607 3672 3721
611 3674 3819
1047 162 148
1096 164 443
1093 220 1049
890 293 1709
801 406 2411
869 534 3069
863 561 3213
867 580 3327
879 603 3444
944 348 127
957 355 350
915 380 979
754 446 1635
715 529 2330
788 642 3024
790 659 3210
796 677 3327
808 700 3442
758 763 112
739 763 223
604 825 866
561 915 1494
602 1000 2185
651 1090 2901
668 1124 3200
674 1132 3320
686 1146 3443
485 1277 137
471 1266 249
465 1297 698
472 1374 1401
517 1478 2087
553 1572 2809
575 1619 3250
577 1624 3364
587 1639 3482
370 1769 221
368 1772 334
366 1790 547
403 1916 1328
422 1977 1998
459 2050 2725
499 2109 3313
506 2114 3439
517 2130 3557
356 2317 341
360 2326 455
364 2333 573
402 2425 1158
470 2570 1945
498 2586 2660
553 2636 3355
569 2643 3542
580 2653 3657
438 2889 460
440 2889 568
441 2886 673
458 2919 984
533 3108 1788
586 3208 2618
629 3208 3332
644 3206 3656
651 3210 3759
487 3204 484
492 3216 591
498 3233 699
507 3258 844
563 3406 1549
640 3589 2508
672 3581 3247
684 3567 3711
690 3576 3814
513 3356 484
518 3371 593
523 3385 700
530 3404 816
579 3531 1487
658 3716 2455
681 3692 3212
693 3676 3723
697 3679 3821
1729 247 247
1768 260 481
1812 289 1020
1759 358 1661
1628 433 2361
1545 570 3058
1508 605 3236
1487 625 3361
1471 646 3486
1645 390 218
1654 386 388
1723 401 931
1640 451 1593
1502 509 2297
1422 653 3009
1381 701 3253
1368 720 3373
1362 737 3491
1509 790 170
1522 798 277
1525 839 828
1404 835 1536
1216 928 2239
1165 1032 2936
1170 1061 3260
1170 1067 3369
1178 1077 3479
1341 1272 175
1331 1274 272
1266 1290 608
1011 1351 1397
981 1441 2079
1010 1525 2794
1049 1572 3276
1053 1575 3392
1063 1587 3510
1035 1808 205
1000 1820 304
937 1818 445
857 1866 1245
878 1950 1965
915 2025 2698
957 2084 3318
959 2089 3453
968 2102 3569
768 2341 310
752 2324 419
736 2303 536
750 2371 1068
812 2540 1898
828 2563 2626
871 2611 3337
875 2616 3550
883 2627 3664
660 2869 443
653 2861 550
647 2859 660
642 2871 919
700 3046 1706
746 3172 2565
776 3174 3290
785 3175 3658
789 3178 3759
593 3216 478
592 3220 585
594 3234 694
595 3255 811
642 3392 1485
724 3590 2449
757 3586 3206
771 3572 3713
777 3579 3819
600 3364 478
604 3373 586
610 3389 698
617 3407 807
660 3521 1429
741 3712 2388
767 3699 3169
780 3679 3720
784 3682 3824
2477 381 368
2493 389 539
2563 422 1047
2550 465 1626
2580 536 2279
2527 671 3062
2490 690 3284
2462 694 3422
2419 697 3554
2377 455 350
2397 467 459
2462 495 962
2457 545 1550
2465 608 2207
2411 743 3004
2367 767 3303
2312 769 3436
2269 778 3562
2264 872 295
2283 876 408
2309 899 873
2322 925 1464
2284 953 2158
2187 1030 2938
2080 1055 3348
2029 1059 3463
2011 1075 3585
2137 1307 266
2154 1317 369
2174 1345 644
2120 1415 1406
1998 1406 2124
1829 1483 2870
1760 1543 3394
1740 1546 3507
1737 1556 3627
1980 1849 283
1977 1853 373
1965 1852 472
1818 1885 1172
1580 1959 2007
1514 2034 2722
1499 2070 3353
1483 2066 3493
1483 2073 3603
1748 2396 326
1717 2398 422
1669 2399 519
1489 2419 980
1322 2500 1821
1323 2548 2600
1367 2585 3318
1371 2589 3563
1378 2598 3677
1339 2951 383
1305 2941 490
1256 2917 607
1190 2872 856
1189 2976 1604
1251 3151 2516
1288 3163 3266
1294 3165 3681
1296 3168 3782
1156 3348 483
1129 3341 577
1110 3330 682
1094 3327 796
1098 3396 1415
1157 3593 2345
1179 3615 3168
1175 3595 3729
1176 3600 3832
1135 3480 495
1106 3470 583
1086 3463 683
1072 3465 798
1075 3528 1363
1127 3708 2276
1143 3724 3126
1137 3699 3721
1136 3700 3837
3197 517 461
3200 521 568
3232 545 1064
3261 593 1657
3308 656 2315
3319 745 3051
3292 766 3319
3274 775 3450
3265 782 3579
3130 598 453
3142 609 554
3164 629 998
3208 680 1590
3235 744 2242
3248 829 2984
3214 857 3327
3199 865 3457
3194 872 3587
3060 962 431
3064 961 541
3075 978 908
3086 999 1498
3101 1036 2145
3110 1086 2884
3071 1100 3356
3056 1091 3483
3053 1092 3616
2953 1414 395
2973 1424 499
2997 1439 699
2950 1492 1458
2949 1498 2071
2939 1524 2817
2887 1514 3449
2849 1506 3583
2818 1510 3707
2829 1890 380
2846 1903 477
2849 1907 578
2859 2002 1231
2769 2054 2026
2698 2023 2786
2518 2012 3538
2456 2012 3698
2431 2026 3806
2677 2513 396
2676 2518 486
2666 2520 582
2653 2563 938
2492 2564 1789
2271 2640 2679
2183 2653 3397
2100 2626 3659
2083 2628 3761
2475 3089 455
2468 3091 554
2457 3089 655
2429 3090 812
2190 3100 1579
1919 3185 2478
1864 3189 3277
1843 3176 3725
1853 3182 3827
2176 3541 516
2153 3550 614
2125 3559 716
2075 3561 816
1857 3544 1343
1722 3624 2235
1698 3654 3137
1703 3634 3755
1712 3643 3867
2065 3669 531
2035 3673 628
1999 3677 723
1928 3666 811
1778 3662 1272
1673 3719 2167
1660 3761 3082
1665 3742 3732
1673 3749 3870
3398 552 483
3407 558 581
3439 583 1035
3483 628 1628
3533 685 2281
3572 766 3025
3581 788 3352
3582 793 3473
3584 800 3603
3402 645 482
3419 658 586
3443 678 976
3486 721 1563
3532 778 2217
3570 858 2960
3585 886 3365
3587 890 3486
3589 898 3617
3457 969 494
3462 971 605
3466 973 900
3492 999 1493
3539 1034 2122
3566 1074 2857
3594 1083 3394
3596 1072 3514
3595 1074 3644
3534 1467 480
3548 1473 594
3554 1474 761
3528 1510 1464
3551 1522 2058
3558 1541 2788
3584 1533 3451
3579 1519 3595
3576 1517 3728
3559 1973 481
3568 1984 591
3571 1990 708
3568 2039 1281
3543 2088 2053
3525 2066 2724
3531 2045 3495
3510 2016 3711
3503 2017 3838
3496 2522 503
3492 2521 608
3484 2519 714
3473 2529 1039
3468 2643 1850
3491 2737 2740
3433 2687 3503
3378 2655 3851
3369 2657 3952
3308 3171 571
3301 3169 670
3292 3164 771
3276 3155 896
3262 3211 1582
3217 3270 2467
3053 3330 3395
3016 3323 3888
3019 3325 3986
3097 3652 626
3088 3653 726
3078 3655 830
3059 3657 933
3041 3693 1391
2956 3780 2164
2613 3827 3152
2638 3783 3847
2652 3781 3971
3029 3771 636
3018 3771 734
3005 3773 836
2985 3776 938
2960 3805 1321
2868 3896 2043
2512 3931 3038
2506 3895 3800
2550 3898 3964
3524 574 498
3529 578 597
3557 601 1025
3595 641 1608
3646 698 2263
3687 771 3001
3704 803 3373
3707 804 3494
3710 808 3619
3530 669 499
3540 679 602
3563 697 966
3598 736 1545
3645 790 2195
3687 865 2936
3709 902 3384
3713 900 3508
3715 905 3633
3577 955 515
3581 956 625
3582 954 882
3609 980 1474
3654 1008 2089
3683 1043 2824
3717 1064 3409
3720 1053 3531
3722 1052 3655
3657 1452 510
3665 1457 628
3666 1451 763
3649 1482 1436
3674 1494 2025
3688 1507 2740
3733 1516 3454
3736 1498 3605
3738 1494 3732
3723 1962 521
3725 1968 641
3724 1968 761
3739 2011 1263
3734 2059 2022
3727 2037 2669
3763 2030 3459
3760 1998 3704
3761 1993 3824
3787 2491 575
3789 2495 685
3786 2493 791
3793 2506 1031
3825 2627 1833
3847 2718 2723
3837 2655 3447
3836 2619 3836
3840 2618 3942
3839 3096 635
3839 3095 730
3843 3092 831
3845 3084 937
3873 3139 1583
3905 3263 2490
3932 3356 3415
3923 3307 3956
3926 3302 4043
3833 3709 681
3831 3707 771
3827 3705 861
3825 3705 961
3824 3724 1349
3839 3809 2190
3874 3892 3171
3899 3921 3944
3900 3916 4077
3794 3840 686
3789 3841 775
3779 3843 867
3769 3846 975
3761 3863 1296
3775 3949 2109
3811 4020 3047
3851 4066 3902
3842 4068 4079
3649 594 515
3652 599 614
3672 619 1028
3706 654 1603
3757 712 2259
3796 774 2994
3814 814 3390
3821 816 3518
3825 818 3642
3659 692 519
3663 699 622
3681 717 977
3712 753 1548
3755 803 2186
3797 869 2931
3820 914 3403
3825 914 3530
3830 915 3652
3700 963 541
3697 958 646
3697 958 892
3726 981 1475
3767 1004 2082
3791 1035 2814
3827 1068 3426
3833 1055 3551
3836 1052 3672
3776 1461 544
3777 1460 661
3775 1454 793
3767 1481 1435
3790 1491 2021
3796 1503 2729
3844 1518 3461
3851 1502 3622
3852 1496 3744
3837 1967 555
3832 1969 672
3833 1970 792
3853 2009 1272
3857 2059 2022
3843 2038 2662
3872 2028 3451
3873 1998 3714
3874 1992 3823
3904 2489 600
3901 2488 703
3900 2489 809
3906 2501 1037
3945 2627 1843
3961 2717 2724
3949 2659 3434
3946 2611 3837
3946 2607 3939
3947 3082 645
3949 3083 742
3951 3079 843
3952 3070 949
3979 3124 1583
4015 3261 2505
4022 3343 3407
4019 3289 3957
4023 3285 4044
3975 3691 698
3975 3690 789
3975 3687 879
3977 3687 973
3985 3703 1323
4008 3780 2148
4036 3884 3137
4052 3914 3933
4055 3909 4079
3979 3849 713
3980 3852 803
3979 3856 893
3981 3861 985
3987 3879 1266
4013 3957 2069
4040 4036 3030
4061 4073 3889
4066 4075 4084
