滤镜资源/Professional Luts Collection/Triune-Digital-Cinematic-LUTs/3D LUTs (3DL)/LOG/Saving Private Ryan - LOG.3dl
# Created by Benjamin (IWLTBAP) : http://luts.iwltbap.com
# Copyright: (C) Copyright 2016 Triune Films and IWLTBAP
# Blockbuster LUTs Pack
0 64 128 192 256 320 384 448 512 576 640 704 768 832 896 960 1023
5 16 15
7 11 105
13 15 269
28 31 507
45 49 755
57 64 1012
61 73 1286
96 99 1575
127 131 1856
167 165 2147
191 186 2341
198 193 2400
205 199 2450
210 205 2500
217 210 2549
223 215 2599
231 221 2649
17 112 31
14 93 93
17 79 254
32 90 488
48 103 736
60 114 993
65 118 1264
93 137 1552
125 166 1833
166 199 2126
194 224 2347
201 230 2410
208 236 2461
214 242 2511
220 247 2560
227 252 2610
235 258 2660
45 301 64
41 287 100
35 251 256
47 246 487
62 250 730
73 254 988
78 261 1252
101 284 1541
128 287 1820
166 307 2113
201 328 2365
210 327 2441
215 325 2489
221 327 2538
227 329 2587
233 332 2636
240 336 2686
87 512 111
83 500 144
75 473 245
78 466 487
91 465 730
99 464 983
105 470 1245
127 494 1533
150 496 1817
179 507 2109
214 519 2383
227 518 2491
232 513 2539
238 514 2588
243 514 2637
249 513 2685
255 518 2735
136 730 161
132 718 192
125 700 238
124 692 465
129 694 721
136 695 972
143 702 1239
164 720 1528
185 724 1812
210 741 2105
236 758 2391
253 761 2544
258 756 2591
263 755 2638
268 755 2685
273 755 2732
279 759 2779
189 957 207
185 950 243
179 938 276
174 931 448
176 932 701
181 937 966
187 940 1233
205 953 1516
223 960 1800
246 975 2095
270 993 2386
287 1004 2589
290 998 2637
293 996 2684
297 996 2730
301 996 2777
305 1000 2825
248 1205 264
243 1200 301
238 1193 338
232 1185 434
227 1179 679
230 1181 950
236 1187 1225
250 1194 1499
267 1203 1788
286 1216 2082
308 1233 2370
328 1250 2615
332 1245 2681
335 1242 2728
338 1241 2775
341 1241 2823
346 1244 2872
320 1473 335
314 1467 371
307 1459 408
301 1450 452
290 1438 657
288 1437 933
292 1442 1211
301 1450 1493
315 1458 1776
331 1464 2063
349 1476 2353
370 1494 2625
377 1493 2727
379 1490 2774
383 1489 2823
386 1489 2871
390 1493 2921
400 1747 411
394 1742 446
387 1735 481
379 1725 517
362 1707 642
351 1697 903
353 1704 1193
359 1711 1479
367 1719 1765
379 1723 2047
394 1729 2335
414 1741 2624
425 1743 2779
428 1740 2828
431 1739 2876
434 1739 2924
438 1743 2973
482 2035 495
475 2025 527
468 2016 560
460 2005 595
447 1989 656
422 1967 879
416 1969 1162
420 1978 1461
425 1984 1749
431 1985 2030
444 1989 2316
462 1999 2605
474 2000 2811
477 1994 2873
479 1992 2920
482 1991 2967
486 1994 3015
565 2335 589
558 2323 619
551 2311 649
543 2297 680
534 2281 712
506 2251 868
489 2244 1135
485 2250 1432
490 2260 1734
493 2260 2017
499 2259 2300
514 2264 2583
527 2267 2828
531 2260 2916
532 2256 2962
534 2252 3008
537 2254 3056
652 2634 684
645 2624 715
638 2613 745
630 2599 774
621 2582 803
603 2554 881
572 2528 1114
559 2527 1399
555 2533 1706
559 2535 2000
562 2532 2279
567 2529 2556
581 2535 2830
588 2533 2964
590 2530 3011
592 2527 3059
594 2528 3107
747 2949 785
740 2938 815
732 2925 845
724 2913 876
715 2897 906
706 2879 934
668 2826 1109
642 2808 1370
629 2809 1672
628 2813 1976
632 2814 2265
633 2808 2540
637 2806 2813
646 2808 3009
648 2805 3061
651 2803 3109
653 2805 3159
806 3144 847
800 3137 878
794 3129 910
787 3121 941
781 3112 973
773 3101 1005
749 3062 1104
710 3020 1331
692 3021 1619
682 3024 1929
685 3033 2227
690 3038 2510
694 3040 2789
698 3043 3039
700 3043 3113
703 3043 3161
705 3043 3210
827 3212 868
821 3205 899
815 3197 931
808 3189 963
802 3181 995
796 3173 1028
782 3152 1093
739 3095 1293
716 3091 1565
704 3097 1875
703 3105 2178
709 3116 2464
714 3124 2747
719 3132 3024
721 3133 3135
723 3134 3184
725 3135 3232
847 3279 889
842 3272 921
836 3265 952
829 3257 984
823 3249 1016
817 3241 1049
807 3227 1103
767 3168 1275
737 3152 1532
723 3159 1838
718 3163 2147
723 3174 2433
729 3183 2719
734 3192 3001
736 3194 3151
737 3194 3198
739 3195 3247
868 3345 910
862 3339 942
856 3332 974
850 3324 1006
844 3316 1038
838 3308 1071
829 3296 1125
789 3237 1294
756 3214 1543
742 3221 1846
733 3223 2156
738 3233 2441
744 3244 2728
749 3252 3013
751 3256 3167
752 3256 3214
753 3256 3261
74 13 11
75 15 101
79 17 266
91 33 500
104 51 746
113 65 1000
115 73 1269
141 95 1553
173 128 1840
205 161 2131
223 183 2332
229 190 2393
235 196 2443
241 202 2494
248 207 2543
256 213 2593
263 218 2642
62 92 23
60 85 86
61 73 246
73 84 481
86 97 728
94 108 986
97 114 1258
127 138 1545
162 169 1828
200 201 2121
228 226 2349
235 233 2414
241 238 2464
248 244 2515
255 249 2564
262 255 2614
269 260 2664
72 286 58
70 277 99
64 242 248
76 238 480
92 243 723
103 249 983
109 255 1247
132 271 1533
163 283 1816
200 303 2108
234 323 2365
242 323 2443
248 322 2491
255 324 2540
262 327 2589
269 329 2638
275 334 2688
114 499 105
113 494 144
104 467 239
107 461 481
121 460 725
130 460 978
136 465 1241
157 484 1525
182 492 1812
211 503 2103
246 515 2378
260 514 2492
267 509 2540
273 511 2590
279 510 2638
285 510 2687
291 515 2736
165 717 153
165 716 194
158 698 234
154 689 462
160 691 717
168 692 969
174 698 1235
194 712 1521
215 721 1808
239 737 2101
267 754 2388
286 758 2546
291 752 2592
296 752 2639
302 752 2687
308 752 2734
314 757 2781
218 947 201
219 947 242
214 939 278
207 931 445
207 929 696
212 934 962
218 937 1229
234 946 1509
253 956 1796
276 973 2092
299 990 2383
317 1000 2590
320 995 2639
324 993 2686
327 993 2732
331 993 2779
336 997 2826
278 1201 263
279 1203 306
275 1196 343
266 1186 435
258 1178 676
260 1178 945
266 1184 1221
279 1191 1495
296 1200 1785
316 1213 2080
337 1231 2367
357 1247 2614
361 1242 2683
364 1240 2731
367 1239 2778
371 1238 2826
375 1241 2875
352 1470 335
352 1472 377
346 1464 414
337 1453 457
322 1439 655
318 1436 928
322 1440 1208
331 1448 1488
344 1456 1773
359 1462 2060
377 1474 2349
399 1492 2624
407 1492 2730
410 1488 2777
413 1488 2826
417 1487 2875
421 1491 2925
433 1744 412
432 1745 452
426 1739 487
417 1729 523
397 1710 642
383 1698 900
383 1704 1190
388 1709 1475
396 1717 1761
408 1721 2043
423 1726 2330
444 1739 2620
455 1742 2780
458 1739 2830
461 1738 2877
465 1738 2925
469 1743 2975
516 2035 497
514 2032 534
507 2022 567
499 2009 600
485 1993 658
456 1968 876
447 1969 1158
449 1978 1458
455 1983 1746
461 1984 2027
474 1989 2311
492 1998 2601
505 1999 2811
507 1994 2875
510 1992 2922
513 1991 2969
516 1994 3017
599 2334 592
597 2331 628
590 2319 658
582 2305 688
573 2288 719
543 2255 869
522 2244 1129
516 2251 1429
520 2259 1731
523 2260 2015
529 2259 2297
544 2264 2579
558 2266 2828
561 2259 2919
563 2255 2965
564 2252 3011
567 2253 3059
686 2634 687
684 2631 724
676 2621 754
668 2608 784
660 2591 812
642 2562 885
608 2531 1112
591 2526 1395
586 2533 1701
590 2535 1996
593 2532 2277
598 2529 2554
611 2534 2829
618 2532 2968
620 2529 3015
622 2526 3063
625 2527 3111
780 2948 788
777 2944 824
769 2932 854
761 2919 885
752 2903 915
743 2886 943
706 2831 1110
676 2810 1367
661 2809 1668
659 2812 1971
662 2813 2262
664 2808 2537
667 2805 2811
677 2808 3012
679 2804 3064
681 2803 3112
684 2804 3162
841 3149 851
839 3149 889
833 3141 921
826 3133 953
819 3124 984
812 3113 1015
790 3078 1111
748 3030 1332
728 3029 1617
716 3030 1925
718 3039 2224
722 3044 2507
726 3046 2787
729 3048 3042
732 3047 3117
734 3048 3166
737 3048 3214
861 3217 873
860 3217 910
854 3209 942
847 3202 974
841 3193 1006
835 3186 1038
821 3168 1103
779 3107 1294
753 3100 1563
739 3105 1870
736 3112 2175
741 3123 2461
746 3130 2744
751 3138 3023
753 3140 3139
755 3141 3187
757 3142 3236
882 3283 894
880 3283 932
874 3276 964
868 3269 995
862 3261 1028
856 3254 1060
846 3241 1111
808 3182 1279
774 3161 1530
759 3166 1833
751 3171 2143
756 3182 2430
761 3191 2715
766 3198 2999
768 3201 3154
769 3201 3202
771 3203 3251
902 3350 915
900 3349 953
895 3343 985
889 3336 1017
883 3329 1050
877 3321 1082
868 3310 1133
830 3253 1300
794 3223 1542
777 3228 1840
767 3231 2151
771 3242 2438
777 3251 2725
782 3259 3011
784 3262 3171
784 3263 3218
785 3263 3265
216 18 14
216 19 78
221 25 268
232 41 501
243 58 742
254 71 993
260 78 1254
273 94 1524
305 124 1810
339 156 2101
359 179 2313
358 185 2377
359 191 2428
362 197 2478
365 202 2528
369 208 2579
376 213 2629
197 71 17
196 68 59
199 69 244
209 80 477
220 94 718
230 109 971
236 118 1237
252 134 1511
283 164 1797
318 194 2090
340 218 2325
341 226 2394
341 231 2446
345 237 2496
349 242 2546
354 248 2597
361 253 2647
186 242 38
184 240 73
180 231 239
189 230 474
201 237 718
210 245 978
212 251 1247
227 259 1523
256 275 1809
289 297 2102
318 317 2362
321 317 2445
319 315 2492
323 317 2541
327 320 2590
331 322 2639
338 327 2689
189 466 83
188 466 126
182 456 229
181 451 473
190 451 717
195 453 971
196 455 1233
208 465 1511
227 478 1800
252 491 2091
284 502 2369
299 503 2492
304 497 2540
310 499 2589
315 499 2637
321 499 2686
327 504 2735
198 694 142
198 695 184
196 689 229
189 679 450
193 680 705
199 681 957
204 686 1222
222 695 1506
244 709 1796
269 726 2089
299 742 2378
320 747 2546
326 742 2592
332 741 2639
338 742 2687
344 742 2734
350 747 2781
247 934 197
248 934 238
247 932 279
239 923 433
237 919 685
242 924 951
247 927 1218
263 936 1498
282 946 1786
304 963 2083
327 980 2375
346 991 2588
350 986 2640
354 985 2687
358 985 2733
363 985 2779
368 989 2827
307 1190 262
308 1193 304
309 1193 346
300 1182 430
289 1172 667
289 1170 935
295 1177 1211
308 1184 1486
325 1193 1778
344 1206 2072
364 1223 2360
385 1239 2611
390 1236 2685
393 1233 2733
397 1232 2780
401 1232 2828
406 1235 2877
383 1461 334
383 1464 375
384 1464 418
375 1454 459
355 1437 649
347 1430 919
351 1435 1200
359 1441 1480
373 1450 1766
388 1457 2053
406 1469 2343
429 1487 2621
437 1487 2733
440 1484 2780
443 1484 2829
447 1483 2878
451 1487 2928
465 1739 411
464 1739 451
464 1739 492
456 1730 528
434 1712 641
414 1697 894
412 1702 1184
416 1705 1468
425 1713 1754
437 1717 2037
452 1722 2324
473 1735 2615
485 1739 2780
488 1736 2832
492 1736 2879
495 1735 2927
499 1740 2976
548 2032 498
547 2029 535
545 2026 573
537 2013 606
524 1997 657
490 1969 872
479 1968 1152
479 1976 1453
484 1980 1740
490 1981 2021
503 1986 2305
522 1996 2594
535 1997 2810
538 1992 2876
540 1990 2924
543 1989 2971
547 1992 3020
632 2332 595
631 2329 631
629 2326 667
621 2312 697
612 2295 726
581 2258 868
555 2243 1122
547 2249 1423
549 2257 1725
553 2257 2010
559 2257 2291
574 2261 2574
587 2263 2826
591 2257 2921
593 2253 2968
595 2250 3014
598 2251 3062
720 2633 689
717 2630 726
715 2626 764
707 2614 793
698 2599 822
682 2570 888
644 2532 1108
623 2524 1389
617 2531 1694
620 2533 1991
623 2530 2273
628 2527 2550
641 2531 2826
649 2529 2972
650 2526 3019
652 2523 3066
655 2524 3114
813 2945 790
810 2942 827
807 2937 863
799 2924 894
789 2908 923
780 2891 952
743 2835 1110
710 2809 1363
693 2807 1661
689 2809 1964
692 2811 2257
694 2806 2533
698 2803 2807
707 2805 3015
709 2801 3067
711 2800 3115
714 2802 3165
876 3154 856
874 3154 894
872 3154 931
866 3146 964
859 3137 996
851 3127 1027
830 3095 1118
788 3040 1332
764 3037 1614
750 3038 1920
750 3045 2220
754 3050 2503
758 3051 2784
761 3052 3044
764 3052 3121
766 3052 3170
769 3054 3219
896 3221 877
894 3221 915
892 3221 953
886 3214 985
880 3206 1018
874 3199 1050
861 3183 1112
820 3121 1295
790 3110 1559
774 3113 1863
769 3120 2170
774 3130 2455
779 3137 2740
784 3145 3020
785 3147 3143
788 3148 3192
790 3150 3241
916 3287 898
915 3288 937
913 3287 974
907 3281 1007
901 3274 1039
895 3266 1072
886 3256 1120
849 3200 1284
813 3170 1527
794 3175 1826
785 3179 2137
789 3190 2425
794 3197 2710
798 3205 2996
801 3208 3159
801 3208 3207
804 3210 3255
937 3354 920
935 3354 958
933 3354 996
928 3348 1028
922 3341 1061
916 3334 1094
908 3324 1141
872 3271 1305
833 3233 1539
813 3236 1834
801 3239 2145
804 3250 2434
809 3259 2720
814 3266 3008
817 3270 3175
817 3270 3223
818 3271 3269
413 38 31
418 39 87
430 43 276
429 54 501
448 73 749
457 86 1000
455 91 1251
460 106 1519
484 131 1794
512 160 2081
531 183 2305
531 190 2374
532 196 2425
535 201 2475
538 207 2526
541 212 2577
548 218 2628
387 76 31
388 76 65
402 78 249
402 88 478
421 107 724
430 123 977
429 129 1232
434 143 1500
459 168 1777
491 197 2068
513 222 2314
515 229 2389
515 235 2441
518 240 2492
521 245 2541
525 250 2592
