滤镜资源/Professional Luts Collection/Triune-Digital-Cinematic-LUTs/3D LUTs (3DL)/LOG/Saving Private Ryan - LOG.3dl
# Created by Benjamin (IWLTBAP) : http://luts.iwltbap.com
# Copyright: (C) Copyright 2016 Triune Films and IWLTBAP
# Blockbuster LUTs Pack
0 128 256 384 512 640 768 896 1023
5 16 15
13 15 269
45 49 755
61 73 1286
127 131 1856
191 186 2341
205 199 2450
217 210 2549
231 221 2649
45 301 64
35 251 256
62 250 730
78 261 1252
128 287 1820
201 328 2365
215 325 2489
227 329 2587
240 336 2686
136 730 161
125 700 238
129 694 721
143 702 1239
185 724 1812
236 758 2391
258 756 2591
268 755 2685
279 759 2779
248 1205 264
238 1193 338
227 1179 679
236 1187 1225
267 1203 1788
308 1233 2370
332 1245 2681
338 1241 2775
346 1244 2872
400 1747 411
387 1735 481
362 1707 642
353 1704 1193
367 1719 1765
394 1729 2335
425 1743 2779
431 1739 2876
438 1743 2973
565 2335 589
551 2311 649
534 2281 712
489 2244 1135
490 2260 1734
499 2259 2300
527 2267 2828
532 2256 2962
537 2254 3056
747 2949 785
732 2925 845
715 2897 906
668 2826 1109
629 2809 1672
632 2814 2265
637 2806 2813
648 2805 3061
653 2805 3159
827 3212 868
815 3197 931
802 3181 995
782 3152 1093
716 3091 1565
703 3105 2178
714 3124 2747
721 3133 3135
725 3135 3232
868 3345 910
856 3332 974
844 3316 1038
829 3296 1125
756 3214 1543
733 3223 2156
744 3244 2728
751 3256 3167
753 3256 3261
216 18 14
221 25 268
243 58 742
260 78 1254
305 124 1810
359 179 2313
359 191 2428
365 202 2528
376 213 2629
186 242 38
180 231 239
201 237 718
212 251 1247
256 275 1809
318 317 2362
319 315 2492
327 320 2590
338 327 2689
198 694 142
196 689 229
193 680 705
204 686 1222
244 709 1796
299 742 2378
326 742 2592
338 742 2687
350 747 2781
307 1190 262
309 1193 346
289 1172 667
295 1177 1211
325 1193 1778
364 1223 2360
390 1236 2685
397 1232 2780
406 1235 2877
465 1739 411
464 1739 492
434 1712 641
412 1702 1184
425 1713 1754
452 1722 2324
485 1739 2780
492 1736 2879
499 1740 2976
632 2332 595
629 2326 667
612 2295 726
555 2243 1122
549 2257 1725
559 2257 2291
587 2263 2826
593 2253 2968
598 2251 3062
813 2945 790
807 2937 863
789 2908 923
743 2835 1110
693 2807 1661
692 2811 2257
698 2803 2807
709 2801 3067
714 2802 3165
896 3221 877
892 3221 953
880 3206 1018
861 3183 1112
790 3110 1559
769 3120 2170
779 3137 2740
785 3147 3143
790 3150 3241
937 3354 920
933 3354 996
922 3341 1061
908 3324 1141
833 3233 1539
801 3239 2145
809 3259 2720
817 3270 3175
818 3271 3269
672 76 64
686 80 293
676 91 745
691 112 1255
710 151 1798
730 195 2311
725 206 2432
727 216 2531
737 226 2632
632 251 78
634 249 245
623 223 702
627 236 1214
634 253 1755
672 287 2312
672 283 2462
678 291 2561
689 301 2662
545 687 151
554 688 235
557 696 707
531 702 1230
570 725 1792
626 750 2377
644 747 2612
647 745 2706
654 749 2802
534 1180 261
538 1185 344
529 1194 664
494 1180 1198
510 1193 1766
543 1221 2350
562 1229 2704
565 1224 2798
577 1228 2894
580 1723 413
580 1722 493
567 1717 633
504 1685 1155
505 1693 1727
523 1701 2298
551 1720 2777
554 1716 2880
560 1721 2977
695 2311 594
692 2307 669
687 2294 741
622 2229 1095
607 2239 1700
617 2240 2268
645 2247 2815
652 2238 2972
658 2237 3068
876 2927 791
870 2921 864
863 2908 938
821 2839 1104
757 2796 1638
751 2798 2237
757 2791 2791
769 2788 3072
774 2788 3171
966 3230 886
962 3231 963
958 3230 1040
943 3213 1127
868 3129 1548
838 3138 2154
845 3154 2727
852 3163 3155
857 3167 3252
1007 3362 927
1004 3364 1007
1000 3364 1084
989 3352 1154
913 3252 1530
873 3260 2129
876 3275 2707
883 3286 3187
884 3287 3279
1289 165 153
1276 162 322
1250 162 771
1211 163 1255
1255 207 1819
1264 248 2348
1247 256 2481
1240 262 2576
1238 269 2672
1263 291 168
1257 284 280
1211 259 716
1168 243 1204
1187 271 1768
1187 310 2315
1172 322 2496
1164 329 2592
1161 336 2690
1238 733 229
1241 737 312
1213 733 714
1124 700 1199
1103 721 1764
1096 737 2346
1090 725 2613
1083 717 2705
1082 715 2796
1102 1206 304
1119 1213 391
1149 1229 665
1066 1234 1228
1016 1252 1788
1045 1277 2361
1050 1282 2744
1050 1274 2838
1060 1275 2936
1090 1748 448
1105 1753 535
1113 1752 647
1064 1774 1189
914 1752 1756
923 1757 2323
949 1768 2813
951 1764 2925
963 1767 3022
1101 2329 623
1098 2333 707
1087 2328 791
1057 2311 1145
890 2272 1694
877 2268 2272
887 2269 2818
886 2261 2999
889 2261 3098
1083 2918 797
1066 2912 876
1044 2903 953
1008 2877 1124
908 2793 1607
875 2792 2215
868 2784 2776
871 2773 3089
873 2770 3186
1052 3242 893
1047 3246 975
1040 3246 1053
1031 3245 1137
953 3149 1522
912 3160 2123
913 3172 2703
921 3182 3169
924 3184 3264
1078 3371 933
1073 3373 1014
1070 3375 1095
1068 3376 1175
1000 3282 1517
949 3282 2097
944 3293 2684
951 3303 3193
952 3304 3291
1955 284 273
1925 273 379
1938 276 795
1874 269 1280
1825 266 1804
1861 313 2377
1851 323 2543
1844 329 2637
1839 335 2731
1911 349 274
1904 347 342
1896 339 740
1832 332 1230
1780 330 1757
1813 379 2349
1798 393 2564
1784 397 2655
1775 402 2748
1935 763 331
1930 770 409
1942 772 753
1845 731 1219
1768 717 1744
1740 741 2333
1699 724 2629
1674 713 2722
1657 710 2818
1894 1241 399
1896 1247 480
1890 1269 705
1859 1298 1255
1725 1260 1762
1680 1285 2348
1627 1286 2761
1611 1276 2853
1609 1277 2948
1783 1767 501
1794 1773 586
1796 1770 672
1783 1817 1208
1695 1831 1798
1647 1845 2365
1621 1859 2875
1606 1849 2999
1605 1849 3099
1778 2364 671
1784 2371 755
1783 2373 840
1765 2365 1171
1712 2400 1764
1553 2366 2323
1500 2363 2876
1495 2351 3091
1500 2350 3191
1770 2950 846
1772 2953 928
1766 2950 1010
1731 2936 1162
1673 2938 1719
1412 2883 2244
1342 2881 2823
1327 2863 3176
1331 2859 3272
1687 3320 948
1682 3326 1030
1672 3329 1115
1637 3328 1199
1552 3331 1649
1356 3263 2124
1267 3282 2734
1257 3289 3252
1253 3285 3344
1664 3440 982
1656 3445 1064
1640 3448 1149
1599 3446 1231
1526 3451 1637
1352 3374 2096
1260 3390 2701
1247 3396 3247
1242 3394 3358
2615 403 394
2589 394 452
2638 401 828
2566 391 1298
2475 375 1823
2438 375 2362
2446 386 2577
2442 393 2679
2437 400 2779
2590 466 397
2586 466 456
2606 464 788
2561 458 1252
2453 441 1781
2415 441 2326
2422 459 2605
2411 466 2706
2397 471 2803
2598 802 435
2602 799 503
2630 797 783
2644 741 1218
2469 736 1762
2394 709 2306
2364 718 2676
2333 709 2768
2316 709 2861
2574 1285 506
2575 1293 588
2584 1304 751
2628 1329 1281
2509 1298 1785
2392 1287 2328
2285 1286 2785
2255 1271 2879
2241 1265 2974
2530 1792 597
2530 1800 679
2524 1803 764
2512 1867 1258
2492 1898 1832
2357 1856 2338
2249 1861 2896
2231 1855 3039
2225 1854 3133
2436 2346 710
2436 2354 792
2433 2359 878
2428 2375 1169
2400 2418 1784
2351 2452 2367
2234 2443 2936
2240 2445 3198
2243 2449 3297
2427 2959 891
2431 2962 972
2429 2965 1055
2408 2966 1184
2373 2964 1738
2334 3008 2331
2177 2971 2886
2130 2958 3288
2131 2961 3387
2372 3387 1003
2374 3396 1086
2364 3405 1173
2339 3410 1264
2303 3417 1690
2263 3445 2261
2039 3406 2770
1960 3410 3348
1946 3407 3445
2355 3506 1036
2354 3516 1121
2338 3523 1209
2313 3527 1299
2281 3529 1673
2236 3551 2238
2011 3511 2731
1887 3518 3331
1896 3521 3465
2808 437 428
2793 431 481
2849 439 817
2858 443 1262
2729 422 1807
2698 417 2338
2684 418 2578
2688 422 2681
2685 424 2783
2849 511 443
2853 512 503
2877 512 783
2930 522 1224
2777 500 1777
2743 494 2312
2722 495 2604
2725 499 2710
2718 502 2814
2944 791 489
2952 787 558
2986 770 769
3081 726 1184
2918 730 1747
2853 693 2287
2803 663 2670
2787 659 2771
2778 661 2873
3048 1299 579
3053 1309 659
3070 1315 778
3178 1312 1272
3159 1276 1755
3024 1288 2328
2919 1265 2803
2898 1256 2917
2879 1251 3013
3139 1816 678
3142 1829 764
3142 1839 855
3159 1897 1297
3212 1898 1833
3099 1876 2355
2961 1858 2888
2903 1835 3064
2877 1831 3161
3160 2354 787
3153 2364 873
3147 2371 960
3131 2400 1212
3103 2479 1844
3096 2501 2404
2956 2463 2913
2848 2439 3215
2838 2450 3325
3057 2910 907
3059 2916 988
3054 2921 1070
3035 2925 1173
3008 2971 1738
2998 3016 2341
2976 3077 2949
2904 3069 3385
2902 3073 3481
2993 3413 1040
2995 3426 1125
2990 3439 1213
2979 3448 1304
2958 3477 1694
2949 3511 2287
2921 3581 2885
2822 3562 3445
2812 3557 3556
2972 3535 1072
2970 3547 1156
2965 3559 1244
2953 3568 1336
2933 3591 1669
2921 3630 2263
2887 3702 2853
2758 3673 3414
2758 3679 3573
2928 458 450
2914 452 502
2965 460 813
3017 470 1249
2857 445 1794
2827 440 2328
2809 439 2584
2798 438 2681
2794 440 2782
2966 532 463
2970 532 523
2989 531 776
3078 545 1210
2910 523 1759
2875 518 2299
2852 516 2609
2836 514 2706
2833 518 2812
3049 772 504
3053 765 569
3078 747 748
3181 717 1163
3044 708 1707
2967 673 2259
2923 651 2667
2894 639 2760
2885 640 2864
3145 1272 587
3149 1280 666
3165 1282 762
3287 1270 1236
3303 1228 1706
3140 1255 2300
3059 1226 2785
3031 1209 2905
3022 1212 3006
3287 1788 690
3290 1800 777
3294 1809 867
3325 1861 1262
3416 1849 1786
3320 1830 2314
3197 1833 2868
3133 1805 3066
3105 1796 3167
3457 2332 810
3459 2341 895
3463 2349 985
3454 2378 1196
3443 2463 1835
3490 2479 2389
3370 2463 2912
3261 2418 3220
3233 2410 3315
3619 2885 936
3618 2895 1021
3614 2904 1111
3600 2910 1206
3554 2992 1779
3562 3053 2379
3558 3093 2959
3480 3070 3412
3470 3069 3501
3609 3425 1076
3605 3432 1158
3598 3440 1243
3592 3445 1331
3596 3483 1672
3607 3536 2287
3608 3607 2889
3609 3659 3506
3612 3670 3648
3593 3556 1109
3589 3567 1192
3583 3576 1276
3578 3584 1366
3584 3616 1646
3581 3671 2254
3591 3750 2855
3590 3816 3484
3578 3828 3669
3047 479 471
3033 473 523
3079 480 817
3156 492 1244
2992 469 1789
2951 462 2329
2931 459 2594
2921 459 2688
2903 456 2783
3079 551 483
3084 552 543
3101 549 782
3205 565 1207
3053 549 1751
3003 542 2299
2975 537 2622
2963 535 2715
2941 532 2811
3154 773 520
3158 765 583
3177 748 747
3289 725 1162
3178 711 1690
3084 683 2254
3045 663 2672
3024 650 2764
2996 644 2858
3250 1268 598
3254 1275 679
3268 1277 770
3394 1258 1229
3440 1207 1688
3252 1253 2297
3187 1221 2787
3155 1202 2908
3138 1199 3005
3398 1783 703
3401 1796 789
3406 1806 881
3440 1854 1258
3542 1832 1773
3458 1814 2302
3332 1826 2864
3272 1808 3071
3234 1792 3169
3583 2328 820
3586 2337 906
3588 2346 995
3575 2373 1194
3561 2455 1831
3624 2463 2375
3500 2455 2910
3405 2426 3239
3358 2404 3320
3730 2878 946
3728 2889 1032
3723 2899 1122
3709 2905 1218
3664 2989 1779
3674 3052 2378
3670 3092 2958
3623 3078 3424
3594 3066 3507
3734 3422 1085
3736 3431 1169
3733 3440 1255
3732 3445 1345
3736 3481 1671
3756 3544 2292
3762 3611 2889
3774 3662 3510
3771 3664 3650
3740 3562 1120
3739 3574 1204
3738 3584 1289
3739 3593 1378
3754 3622 1636
3774 3685 2251
3786 3758 2842
3798 3823 3479
3810 3852 3687
