滤镜资源/Professional Luts Collection/Triune-Digital-Cinematic-LUTs/3D LUTs (3DL)/LOG/Saving Private Ryan - LOG.3dl
# Created by Benjamin (IWLTBAP) : http://luts.iwltbap.com
# Copyright: (C) Copyright 2016 Triune Films and IWLTBAP
# Blockbuster LUTs Pack
0 256 512 768 1023
5 16 15
45 49 755
127 131 1856
205 199 2450
231 221 2649
136 730 161
129 694 721
185 724 1812
258 756 2591
279 759 2779
400 1747 411
362 1707 642
367 1719 1765
425 1743 2779
438 1743 2973
747 2949 785
715 2897 906
629 2809 1672
637 2806 2813
653 2805 3159
868 3345 910
844 3316 1038
756 3214 1543
744 3244 2728
753 3256 3261
672 76 64
676 91 745
710 151 1798
725 206 2432
737 226 2632
545 687 151
557 696 707
570 725 1792
644 747 2612
654 749 2802
580 1723 413
567 1717 633
505 1693 1727
551 1720 2777
560 1721 2977
876 2927 791
863 2908 938
757 2796 1638
757 2791 2791
774 2788 3171
1007 3362 927
1000 3364 1084
913 3252 1530
876 3275 2707
884 3287 3279
1955 284 273
1938 276 795
1825 266 1804
1851 323 2543
1839 335 2731
1935 763 331
1942 772 753
1768 717 1744
1699 724 2629
1657 710 2818
1783 1767 501
1796 1770 672
1695 1831 1798
1621 1859 2875
1605 1849 3099
1770 2950 846
1766 2950 1010
1673 2938 1719
1342 2881 2823
1331 2859 3272
1664 3440 982
1640 3448 1149
1526 3451 1637
1260 3390 2701
1242 3394 3358
2808 437 428
2849 439 817
2729 422 1807
2684 418 2578
2685 424 2783
2944 791 489
2986 770 769
2918 730 1747
2803 663 2670
2778 661 2873
3139 1816 678
3142 1839 855
3212 1898 1833
2961 1858 2888
2877 1831 3161
3057 2910 907
3054 2921 1070
3008 2971 1738
2976 3077 2949
2902 3073 3481
2972 3535 1072
2965 3559 1244
2933 3591 1669
2887 3702 2853
2758 3679 3573
3047 479 471
3079 480 817
2992 469 1789
2931 459 2594
2903 456 2783
3154 773 520
3177 748 747
3178 711 1690
3045 663 2672
2996 644 2858
3398 1783 703
3406 1806 881
3542 1832 1773
3332 1826 2864
3234 1792 3169
3730 2878 946
3723 2899 1122
3664 2989 1779
3670 3092 2958
3594 3066 3507
3740 3562 1120
3738 3584 1289
3754 3622 1636
3786 3758 2842
3810 3852 3687
