滤镜资源/Professional Luts Collection/Triune-Digital-Cinematic-LUTs/3D LUTs (3DL)/LOG/Skyfall - LOG.3dl
# Created by Benjamin (IWLTBAP) : http://luts.iwltbap.com
# Copyright: (C) Copyright 2016 Triune Films and IWLTBAP
# Blockbuster LUTs Pack
0 128 256 384 512 640 768 896 1023
39 47 59
47 51 260
66 107 661
77 189 1144
90 246 1736
136 357 2247
151 387 2354
162 416 2451
173 447 2545
59 229 62
59 231 223
64 290 637
76 400 1146
90 455 1747
124 583 2309
135 603 2425
145 627 2519
156 655 2612
113 584 112
110 584 192
72 667 632
63 815 1180
88 941 1807
124 1074 2408
142 1108 2596
152 1126 2686
164 1149 2776
126 1197 291
119 1195 364
97 1216 673
94 1304 1231
118 1420 1851
155 1520 2431
182 1562 2709
191 1573 2790
201 1588 2872
348 1858 571
325 1856 656
266 1818 790
210 1818 1288
194 1865 1867
230 1935 2407
245 1984 2797
247 1989 2880
254 2002 2965
530 2408 862
510 2405 943
489 2395 1017
395 2347 1352
332 2338 1857
316 2375 2380
313 2413 2845
320 2420 2966
328 2430 3049
706 2915 1087
669 2904 1145
634 2885 1200
545 2839 1375
447 2812 1816
400 2827 2340
407 2869 2841
423 2886 3060
434 2892 3137
852 3129 1192
792 3119 1253
735 3110 1312
683 3094 1397
548 3057 1786
483 3070 2278
480 3118 2779
524 3169 3122
555 3181 3205
973 3232 1247
917 3224 1309
860 3216 1368
787 3204 1442
604 3162 1799
527 3172 2275
520 3214 2768
576 3266 3145
618 3279 3228
296 70 64
273 62 248
267 115 647
258 207 1164
265 255 1736
314 355 2252
316 380 2358
323 405 2452
334 433 2546
226 229 64
219 227 208
212 273 614
210 376 1126
219 420 1714
245 526 2288
244 545 2411
250 570 2504
259 598 2599
193 568 104
192 568 177
136 647 613
120 792 1158
143 910 1785
184 1048 2391
206 1084 2594
217 1105 2685
228 1128 2778
199 1190 284
193 1190 361
165 1204 656
153 1293 1215
175 1400 1839
211 1503 2420
243 1557 2713
252 1569 2795
263 1584 2877
466 1865 566
420 1863 661
363 1842 816
284 1819 1283
260 1857 1862
292 1927 2400
308 1980 2799
310 1986 2884
315 1999 2971
647 2410 858
618 2407 941
582 2399 1025
481 2360 1363
408 2340 1851
386 2370 2373
381 2409 2842
384 2417 2970
392 2429 3053
818 2916 1094
771 2906 1155
728 2888 1212
637 2851 1388
528 2817 1815
471 2824 2333
475 2866 2833
489 2883 3064
498 2889 3141
998 3148 1206
940 3139 1269
878 3130 1329
805 3118 1415
635 3075 1790
563 3085 2272
551 3129 2773
601 3181 3130
652 3196 3214
1124 3252 1260
1067 3243 1324
1011 3235 1386
952 3228 1459
698 3181 1803
603 3186 2270
594 3225 2763
678 3279 3153
741 3294 3238
1010 191 108
951 165 264
871 171 667
755 232 1195
712 265 1776
736 363 2299
734 390 2409
742 412 2498
751 439 2589
915 318 106
876 297 217
782 296 615
659 392 1149
624 407 1746
657 486 2296
658 497 2432
664 517 2520
674 540 2611
777 651 123
763 644 184
701 669 595
555 779 1167
530 828 1764
534 944 2356
546 995 2584
549 1014 2676
555 1041 2784
750 1197 237
725 1185 324
659 1173 633
379 1296 1218
371 1380 1838
407 1483 2410
429 1551 2729
431 1562 2810
438 1580 2898
764 1867 530
689 1867 640
554 1858 813
411 1821 1271
351 1837 1841
369 1904 2379
379 1964 2798
378 1970 2887
381 1984 2974
812 2396 830
757 2394 921
701 2387 1012
569 2357 1356
485 2332 1832
455 2353 2354
447 2394 2832
447 2404 2972
455 2416 3057
950 2906 1089
891 2894 1156
839 2880 1216
740 2853 1388
614 2817 1807
544 2813 2315
544 2853 2817
554 2873 3067
562 2878 3144
1170 3166 1214
1098 3159 1284
1032 3149 1347
957 3139 1426
729 3094 1788
642 3100 2261
626 3139 2761
691 3194 3137
754 3211 3223
1283 3270 1269
1220 3262 1338
1164 3255 1402
1113 3248 1467
831 3205 1808
695 3202 2262
674 3237 2752
781 3292 3161
867 3309 3248
1775 352 179
1725 325 304
1663 321 689
1462 312 1182
1263 263 1750
1242 316 2267
1240 336 2396
1245 352 2488
1255 372 2582
1719 456 177
1690 436 261
1613 404 619
1432 409 1140
1218 343 1715
1201 406 2260
1209 441 2437
1216 463 2530
1228 489 2624
1718 817 188
1702 807 251
1624 791 574
1465 836 1176
1206 848 1793
1171 888 2358
1163 934 2607
1155 946 2694
1154 968 2793
1675 1347 266
1660 1344 341
1607 1338 584
1437 1367 1228
1096 1368 1867
1052 1426 2410
1072 1494 2768
1060 1508 2857
1038 1553 2989
1658 1932 459
1638 1930 555
1587 1918 684
1295 1887 1284
869 1906 1875
810 1961 2410
808 2025 2842
794 2030 2938
774 2045 3043
1581 2417 651
1545 2421 771
1493 2419 895
1113 2413 1376
854 2380 1845
757 2387 2363
720 2418 2843
702 2427 3000
702 2439 3087
1418 2913 1045
1323 2904 1140
1224 2890 1221
1057 2867 1388
826 2834 1813
699 2813 2298
674 2843 2798
669 2861 3074
672 2866 3152
1395 3189 1213
1300 3182 1295
1220 3174 1366
1144 3163 1430
871 3124 1783
728 3115 2240
706 3151 2740
790 3208 3146
873 3225 3233
1464 3287 1267
1387 3281 1346
1323 3275 1418
1271 3268 1483
1025 3237 1808
810 3221 2246
763 3249 2731
912 3307 3164
996 3323 3257
2473 572 243
2444 568 356
2372 557 752
2229 511 1232
1995 416 1761
1810 376 2280
1801 394 2435
1804 407 2526
1813 423 2620
2420 636 237
2407 637 302
2332 621 684
2201 593 1191
1966 496 1716
1764 454 2262
1754 474 2458
1755 486 2549
1763 503 2643
2436 989 249
2426 985 309
2384 986 602
2251 985 1182
1992 871 1742
1784 789 2303
1761 800 2577
1752 801 2659
1754 814 2753
2456 1431 291
2443 1427 360
2414 1426 539
2308 1467 1157
2081 1442 1822
1818 1403 2409
1769 1416 2806
1754 1422 2893
1756 1444 3017
2410 1958 427
2393 1964 525
2362 1963 632
2242 1977 1206
2038 1984 1853
1761 2004 2441
1699 2056 2899
1685 2075 3028
1684 2101 3121
2396 2445 459
2367 2455 598
2320 2463 761
2182 2478 1245
1803 2459 1863
1484 2467 2392
1334 2502 2886
1295 2512 3075
1320 2526 3167
2399 2901 588
2351 2906 751
2293 2912 918
2182 2919 1190
1837 2940 1868
1486 2912 2340
1276 2913 2825
1367 2939 3136
1376 2943 3224
2302 3231 989
2265 3247 1147
2217 3259 1288
2144 3264 1408
1899 3267 1868
1609 3249 2315
1388 3247 2761
1498 3292 3201
1566 3306 3292
2294 3329 1100
2253 3343 1243
2207 3353 1366
2143 3357 1472
1935 3358 1872
1676 3342 2315
1456 3335 2746
1512 3375 3203
1569 3388 3305
3040 714 311
3031 714 380
2979 713 751
2882 725 1314
2670 611 1819
2522 529 2316
2468 502 2475
2452 501 2560
2451 516 2656
3015 786 312
3008 787 375
2957 783 698
2862 809 1256
2659 702 1772
2487 608 2289
2416 575 2491
2405 581 2583
2409 599 2680
3023 1085 324
3017 1079 385
2996 1073 620
2878 1092 1201
2700 1015 1758
2483 888 2284
2371 823 2567
2352 816 2653
2350 822 2746
3033 1495 349
3032 1495 410
3027 1491 528
2953 1530 1130
2805 1546 1788
2565 1433 2342
2425 1342 2746
2396 1329 2839
2388 1328 2948
3030 1960 392
3024 1962 464
3013 1957 537
2960 2007 1087
2858 2074 1804
2663 2056 2417
2510 2049 2890
2485 2054 3040
2479 2075 3135
2975 2417 424
2965 2422 500
2948 2427 603
2866 2488 1125
2746 2536 1819
2619 2557 2407
2481 2587 2933
2457 2608 3168
2456 2621 3263
2966 2898 469
2958 2901 547
2936 2906 663
2871 2925 949
2705 3003 1832
2524 3005 2374
2354 3007 2878
2344 3027 3239
2345 3033 3324
2906 3228 703
2880 3246 862
2847 3261 1027
2801 3279 1213
2692 3341 1810
2578 3372 2359
2418 3368 2819
2357 3384 3272
2378 3390 3360
2869 3331 878
2849 3345 1014
2815 3361 1184
2784 3377 1331
2693 3426 1811
2592 3456 2351
2439 3452 2805
2357 3468 3260
2369 3476 3367
3190 743 329
3188 744 393
3154 742 710
3077 773 1288
2932 700 1825
2793 624 2339
2748 596 2534
2734 585 2613
2722 578 2688
3216 830 336
3215 831 401
3187 823 667
3116 872 1241
2998 830 1806
2830 735 2324
2769 693 2560
2754 679 2637
2741 669 2712
3298 1103 365
3294 1095 429
3285 1081 611
3209 1106 1179
3115 1108 1785
2916 977 2302
2820 896 2618
2798 867 2687
2783 850 2765
3409 1535 414
3409 1534 482
3407 1529 575
3356 1567 1175
3278 1612 1831
3119 1516 2352
2986 1457 2782
2938 1401 2859
2911 1356 2948
3473 2003 483
3472 2008 563
3468 2008 642
3444 2069 1143
3377 2158 1897
3305 2162 2457
3140 2089 2903
3062 2021 3024
3045 2023 3114
3453 2459 602
3446 2471 708
3433 2482 826
3405 2527 1160
3357 2615 1894
3302 2647 2452
3184 2622 2936
3088 2598 3170
3073 2607 3262
3369 2920 758
3357 2933 872
3346 2941 980
3327 2950 1121
3266 3035 1847
3204 3062 2392
3133 3069 2892
3074 3075 3284
3071 3078 3368
3274 3327 1088
3264 3339 1202
3254 3350 1312
3240 3359 1413
3203 3401 1843
3149 3428 2377
3088 3436 2837
3014 3442 3296
3010 3446 3399
3248 3418 1190
3240 3429 1296
3232 3439 1396
3219 3449 1497
3188 3482 1838
3137 3513 2368
3081 3527 2825
2997 3536 3278
2983 3542 3405
3278 759 341
3276 757 403
3246 751 695
3179 794 1267
3063 749 1825
2916 674 2346
2869 642 2564
2854 633 2643
2839 623 2721
3304 849 350
3303 846 415
3278 833 654
3217 890 1222
3127 879 1809
2955 783 2327
2893 744 2593
2876 732 2671
2861 718 2747
3377 1095 379
3372 1085 443
3364 1068 600
3297 1089 1144
3210 1102 1765
3028 976 2287
2938 916 2642
2912 886 2714
2895 867 2791
3479 1519 430
3479 1520 501
3476 1512 577
3430 1545 1146
3367 1600 1810
3250 1528 2342
3122 1482 2792
3074 1424 2877
3034 1364 2957
3561 1997 540
3561 2004 627
3558 2009 728
3538 2063 1173
3495 2144 1890
3443 2153 2446
3330 2091 2899
3267 2052 3046
3229 2014 3119
3602 2486 777
3595 2505 903
3589 2519 1021
3583 2547 1252
3567 2624 1917
3540 2650 2462
3485 2634 2939
3411 2603 3202
3380 2581 3275
3616 2984 1089
3616 2993 1181
3615 3000 1276
3615 3002 1365
3602 3061 1906
3585 3082 2432
3569 3088 2910
3520 3073 3309
3495 3065 3384
3637 3396 1338
3634 3401 1415
3630 3404 1495
3625 3408 1584
3613 3425 1881
3587 3447 2401
3568 3457 2854
3542 3468 3319
3539 3470 3444
3620 3483 1380
3616 3490 1460
3611 3495 1548
3605 3502 1634
3594 3518 1868
3570 3544 2383
3549 3563 2839
3518 3578 3299
3513 3585 3448
3359 768 351
3356 764 411
3329 755 687
3271 805 1249
3182 794 1835
3036 721 2361
2989 692 2595
2971 677 2673
2953 665 2752
3387 864 364
3384 859 426
3361 841 654
3308 902 1212
3232 914 1816
3074 823 2338
3017 798 2626
2996 780 2704
2976 763 2781
3453 1106 394
3449 1096 459
3439 1076 608
3382 1095 1138
3304 1121 1771
3140 995 2292
3065 965 2675
3038 934 2749
3013 908 2826
3546 1531 453
3546 1531 525
3543 1523 600
3500 1552 1158
3448 1612 1817
3366 1573 2362
3244 1525 2814
3201 1473 2906
3163 1432 2978
3624 2008 582
3621 2022 692
3618 2029 799
3600 2078 1220
3568 2146 1902
3523 2154 2450
3429 2099 2904
3377 2074 3066
3344 2051 3135
3660 2503 851
3653 2522 975
3651 2533 1082
3648 2556 1289
3638 2623 1919
3614 2649 2465
3570 2634 2941
3504 2608 3214
3477 2593 3286
3681 2995 1143
3681 3004 1234
3681 3010 1322
3681 3012 1404
3673 3062 1909
3659 3082 2430
3646 3086 2909
3611 3073 3318
3590 3068 3391
3707 3401 1372
3706 3406 1448
3706 3410 1527
3704 3411 1610
3697 3426 1890
3683 3447 2403
3675 3458 2864
3658 3468 3334
3652 3469 3457
3714 3495 1423
3713 3501 1502
3710 3507 1587
3708 3514 1676
3702 3527 1898
3685 3552 2419
3674 3572 2887
3660 3588 3349
3656 3592 3499
