滤镜资源/Professional Luts Collection/Triune-Digital-Cinematic-LUTs/3D LUTs (3DL)/LOG/Skyfall - LOG.3dl
# Created by Benjamin (IWLTBAP) : http://luts.iwltbap.com
# Copyright: (C) Copyright 2016 Triune Films and IWLTBAP
# Blockbuster LUTs Pack
0 256 512 768 1023
39 47 59
66 107 661
90 246 1736
151 387 2354
173 447 2545
113 584 112
72 667 632
88 941 1807
142 1108 2596
164 1149 2776
348 1858 571
266 1818 790
194 1865 1867
245 1984 2797
254 2002 2965
706 2915 1087
634 2885 1200
447 2812 1816
407 2869 2841
434 2892 3137
973 3232 1247
860 3216 1368
604 3162 1799
520 3214 2768
618 3279 3228
1010 191 108
871 171 667
712 265 1776
734 390 2409
751 439 2589
777 651 123
701 669 595
530 828 1764
546 995 2584
555 1041 2784
764 1867 530
554 1858 813
351 1837 1841
379 1964 2798
381 1984 2974
950 2906 1089
839 2880 1216
614 2817 1807
544 2853 2817
562 2878 3144
1283 3270 1269
1164 3255 1402
831 3205 1808
674 3237 2752
867 3309 3248
2473 572 243
2372 557 752
1995 416 1761
1801 394 2435
1813 423 2620
2436 989 249
2384 986 602
1992 871 1742
1761 800 2577
1754 814 2753
2410 1958 427
2362 1963 632
2038 1984 1853
1699 2056 2899
1684 2101 3121
2399 2901 588
2293 2912 918
1837 2940 1868
1276 2913 2825
1376 2943 3224
2294 3329 1100
2207 3353 1366
1935 3358 1872
1456 3335 2746
1569 3388 3305
3190 743 329
3154 742 710
2932 700 1825
2748 596 2534
2722 578 2688
3298 1103 365
3285 1081 611
3115 1108 1785
2820 896 2618
2783 850 2765
3473 2003 483
3468 2008 642
3377 2158 1897
3140 2089 2903
3045 2023 3114
3369 2920 758
3346 2941 980
3266 3035 1847
3133 3069 2892
3071 3078 3368
3248 3418 1190
3232 3439 1396
3188 3482 1838
3081 3527 2825
2983 3542 3405
3359 768 351
3329 755 687
3182 794 1835
2989 692 2595
2953 665 2752
3453 1106 394
3439 1076 608
3304 1121 1771
3065 965 2675
3013 908 2826
3624 2008 582
3618 2029 799
3568 2146 1902
3429 2099 2904
3344 2051 3135
3681 2995 1143
3681 3010 1322
3673 3062 1909
3646 3086 2909
3590 3068 3391
3714 3495 1423
3710 3507 1587
3702 3527 1898
3674 3572 2887
3656 3592 3499
