滤镜资源/Professional Luts Collection/Triune-Digital-Cinematic-LUTs/3D LUTs (3DL)/LOG/Skyfall - LOG.3dl
# Created by Benjamin (IWLTBAP) : http://luts.iwltbap.com
# Copyright: (C) Copyright 2016 Triune Films and IWLTBAP
# Blockbuster LUTs Pack
0 64 128 192 256 320 384 448 512 576 640 704 768 832 896 960 1023
39 47 59
38 47 129
47 51 260
66 76 431
66 107 661
69 148 895
77 189 1144
83 220 1436
90 246 1736
109 302 2042
136 357 2247
144 375 2306
151 387 2354
156 402 2403
162 416 2451
168 431 2498
173 447 2545
40 102 60
41 101 111
48 106 244
66 127 413
67 155 644
69 200 882
79 243 1135
85 265 1422
93 292 1724
111 348 2033
136 413 2266
142 432 2328
146 447 2377
151 461 2426
156 477 2474
162 494 2521
167 509 2568
59 229 62
59 228 94
59 231 223
64 253 399
64 290 637
67 346 882
76 400 1146
80 429 1442
90 455 1747
106 509 2052
124 583 2309
130 596 2380
135 603 2425
140 615 2473
145 627 2519
150 639 2564
156 655 2612
92 390 77
92 389 109
90 394 201
74 416 386
65 465 631
62 532 885
62 601 1154
68 655 1458
82 686 1771
96 749 2083
118 838 2367
126 860 2470
130 863 2515
135 873 2561
141 884 2607
148 893 2654
155 908 2702
113 584 112
113 584 145
110 584 192
88 618 393
72 667 632
61 734 896
63 815 1180
73 887 1488
88 941 1807
102 1002 2124
124 1074 2408
138 1104 2552
142 1108 2596
147 1116 2641
152 1126 2686
158 1136 2731
164 1149 2776
128 848 180
122 849 218
117 845 253
97 859 404
72 914 649
68 976 913
74 1046 1203
86 1120 1516
99 1179 1836
116 1241 2146
138 1299 2429
153 1338 2616
156 1341 2659
160 1348 2701
166 1356 2743
172 1363 2785
178 1374 2828
126 1197 291
123 1199 329
119 1195 364
109 1191 449
97 1216 673
92 1255 940
94 1304 1231
102 1362 1541
118 1420 1851
138 1473 2153
155 1520 2431
177 1558 2651
182 1562 2709
187 1567 2749
191 1573 2790
196 1579 2831
201 1588 2872
199 1532 413
193 1533 455
188 1530 492
178 1520 532
156 1517 714
143 1538 969
137 1569 1265
136 1606 1566
145 1643 1860
166 1687 2149
188 1727 2422
211 1763 2667
218 1771 2754
221 1773 2794
224 1778 2835
227 1783 2876
231 1791 2917
348 1858 571
340 1859 614
325 1856 656
306 1844 688
266 1818 790
230 1804 1009
210 1818 1288
196 1840 1586
194 1865 1867
210 1898 2142
230 1935 2407
241 1969 2662
245 1984 2797
246 1985 2839
247 1989 2880
249 1994 2922
254 2002 2965
470 2161 737
446 2161 785
433 2158 827
422 2153 865
399 2139 923
347 2104 1096
306 2084 1322
277 2084 1594
265 2099 1871
268 2126 2136
272 2156 2395
272 2182 2646
273 2201 2827
274 2202 2882
278 2205 2924
283 2209 2968
288 2217 3012
530 2408 862
520 2406 902
510 2405 943
502 2402 982
489 2395 1017
448 2376 1153
395 2347 1352
356 2334 1590
332 2338 1857
322 2353 2123
316 2375 2380
315 2396 2629
313 2413 2845
317 2417 2925
320 2420 2966
323 2423 3007
328 2430 3049
600 2651 967
589 2647 1000
578 2642 1032
568 2638 1066
558 2631 1099
532 2619 1174
471 2593 1366
419 2575 1583
390 2575 1832
366 2582 2100
355 2599 2360
360 2619 2611
359 2637 2852
361 2645 2969
362 2645 3009
366 2647 3048
371 2653 3087
706 2915 1087
688 2910 1117
669 2904 1145
651 2895 1173
634 2885 1200
616 2872 1224
545 2839 1375
486 2819 1582
447 2812 1816
416 2815 2070
400 2827 2340
403 2846 2591
407 2869 2841
420 2886 3017
423 2886 3060
427 2887 3098
434 2892 3137
800 3074 1163
770 3070 1194
748 3066 1224
725 3062 1254
706 3056 1283
688 3049 1310
636 3029 1398
560 3000 1586
512 2996 1807
471 2995 2046
453 3008 2311
450 3027 2566
455 3056 2816
477 3087 3043
495 3093 3105
506 3099 3146
518 3105 3188
852 3129 1192
822 3124 1223
792 3119 1253
762 3115 1282
735 3110 1312
717 3106 1341
683 3094 1397
600 3063 1570
548 3057 1786
504 3057 2019
483 3070 2278
475 3089 2533
480 3118 2779
503 3153 3025
524 3169 3122
539 3175 3162
555 3181 3205
911 3181 1219
885 3177 1251
855 3172 1281
823 3167 1310
794 3163 1339
769 3159 1369
726 3151 1413
639 3121 1567
579 3109 1776
532 3109 2005
507 3119 2258
494 3135 2512
499 3164 2757
524 3197 3002
548 3217 3134
563 3223 3174
585 3230 3215
973 3232 1247
946 3228 1278
917 3224 1309
887 3220 1338
860 3216 1368
836 3213 1398
787 3204 1442
670 3176 1594
604 3162 1799
555 3161 2027
527 3172 2275
515 3186 2524
520 3214 2768
550 3246 3012
576 3266 3145
597 3273 3187
618 3279 3228
113 50 60
109 48 123
116 51 254
133 78 421
126 108 650
123 150 888
127 187 1137
129 216 1425
131 241 1724
147 296 2030
173 353 2245
180 370 2304
186 382 2352
192 396 2401
198 411 2449
204 426 2496
210 441 2543
91 99 60
89 98 106
95 101 237
111 122 403
106 149 633
102 191 871
109 232 1121
115 261 1408
123 288 1712
143 342 2021
171 408 2262
177 428 2326
182 441 2374
187 456 2423
192 472 2472
198 488 2519
203 503 2566
92 225 62
92 223 93
93 224 217
99 244 392
97 280 628
98 338 874
109 392 1138
115 419 1431
124 443 1735
141 496 2044
159 568 2306
166 580 2377
171 584 2421
175 596 2468
180 608 2515
186 619 2561
192 634 2607
126 386 76
126 385 108
124 388 196
106 410 380
95 456 625
93 522 878
95 589 1147
100 638 1450
113 668 1761
127 730 2073
147 822 2358
156 847 2466
161 850 2510
166 861 2557
174 872 2604
182 883 2651
189 898 2700
147 579 109
148 579 142
147 579 187
122 612 387
102 662 626
90 728 891
91 809 1174
101 879 1483
115 930 1800
130 992 2116
154 1066 2403
169 1097 2553
173 1101 2597
178 1111 2642
184 1120 2687
190 1130 2733
195 1143 2778
165 848 176
160 847 214
155 845 253
133 855 397
102 912 642
96 974 908
102 1042 1198
114 1113 1511
127 1170 1831
145 1231 2141
168 1292 2426
183 1333 2616
186 1337 2661
190 1344 2703
196 1352 2745
203 1360 2788
209 1370 2830
161 1197 288
158 1199 327
156 1199 365
146 1193 449
130 1214 668
123 1254 936
124 1301 1226
133 1357 1537
147 1413 1848
166 1466 2150
183 1514 2428
206 1555 2650
212 1561 2711
217 1566 2752
221 1573 2793
226 1579 2833
231 1588 2875
241 1535 416
233 1537 458
228 1535 497
220 1528 539
194 1520 713
177 1537 964
169 1567 1261
167 1602 1562
176 1638 1857
195 1682 2145
217 1723 2419
241 1761 2666
249 1770 2756
252 1773 2797
255 1777 2837
258 1782 2879
262 1791 2920
402 1864 571
388 1864 617
373 1861 660
357 1855 701
315 1832 806
270 1812 1017
246 1820 1286
230 1837 1584
227 1862 1866
242 1894 2140
261 1932 2404
272 1967 2660
276 1982 2798
277 1983 2841
278 1988 2882
280 1993 2925
284 2002 2968
534 2163 729
506 2163 779
481 2161 828
468 2156 868
446 2147 929
392 2115 1107
347 2091 1326
315 2086 1593
299 2097 1869
301 2124 2133
306 2153 2391
305 2180 2643
306 2200 2828
307 2201 2884
310 2204 2927
314 2209 2971
320 2216 3015
579 2410 864
569 2409 904
559 2407 945
547 2405 986
537 2400 1024
494 2383 1162
439 2355 1359
398 2340 1593
370 2340 1855
358 2352 2120
351 2373 2377
350 2394 2625
347 2412 2844
349 2416 2926
352 2419 2968
355 2422 3009
360 2430 3051
647 2653 972
635 2650 1005
623 2645 1038
612 2641 1073
602 2635 1108
576 2625 1183
514 2601 1373
463 2580 1586
431 2577 1832
403 2581 2097
391 2598 2358
396 2618 2608
393 2636 2849
394 2644 2971
395 2645 3012
399 2647 3050
404 2653 3089
761 2917 1091
739 2912 1122
720 2906 1151
699 2898 1179
678 2888 1207
659 2876 1233
590 2846 1383
529 2823 1585
486 2814 1816
454 2816 2067
435 2826 2337
438 2844 2588
441 2869 2838
453 2885 3019
456 2885 3062
460 2886 3100
466 2891 3139
874 3084 1171
844 3080 1202
814 3076 1232
785 3071 1262
758 3065 1292
737 3059 1320
685 3041 1406
605 3010 1590
555 3004 1810
511 3002 2046
492 3014 2310
487 3032 2565
490 3060 2813
512 3091 3045
532 3098 3109
544 3104 3150
556 3110 3192
926 3138 1199
897 3134 1230
865 3129 1261
835 3124 1291
805 3120 1320
781 3116 1350
737 3106 1406
647 3074 1575
591 3066 1789
546 3065 2019
523 3077 2275
511 3094 2531
515 3124 2777
540 3158 3022
562 3175 3126
578 3181 3166
595 3188 3209
985 3190 1226
959 3186 1258
928 3181 1289
897 3177 1319
870 3173 1348
845 3169 1378
804 3162 1422
688 3133 1573
623 3118 1779
573 3117 2006
545 3127 2256
532 3141 2508
535 3170 2755
560 3202 2999
586 3223 3137
601 3229 3178
630 3237 3220
1048 3242 1254
1021 3238 1285
992 3233 1317
963 3229 1347
937 3226 1377
911 3222 1407
871 3217 1452
733 3188 1601
649 3171 1802
597 3170 2028
565 3179 2273
553 3192 2521
556 3219 2766
589 3252 3010
626 3273 3149
654 3280 3191
677 3286 3233
296 70 64
289 66 121
273 62 248
279 84 420
267 115 647
257 173 901
258 207 1164
260 228 1450
265 255 1736
286 302 2033
314 355 2252
315 369 2312
316 380 2358
320 392 2406
323 405 2452
326 418 2498
334 433 2546
261 110 63
257 107 101
247 100 231
254 117 396
244 146 620
234 201 873
235 240 1132
238 263 1413
243 289 1708
261 338 2013
291 400 2261
292 416 2326
293 429 2374
297 443 2423
300 458 2470
304 473 2518
312 488 2564
226 229 64
223 228 94
219 227 208
221 240 382
212 273 614
205 330 864
210 376 1126
214 399 1411
219 420 1714
228 462 2019
245 526 2288
246 540 2366
244 545 2411
247 556 2457
250 570 2504
253 583 2552
259 598 2599
215 383 73
213 382 105
209 382 186
189 400 372
167 443 616
160 506 867
158 568 1135
157 611 1435
163 641 1744
166 700 2055
183 793 2341
193 822 2458
196 826 2502
201 837 2549
208 850 2597
216 861 2644
223 876 2693
193 568 104
194 569 137
192 568 177
165 599 373
136 647 613
122 712 876
120 792 1158
128 860 1465
143 910 1785
157 971 2100
184 1048 2391
202 1080 2550
206 1084 2594
212 1095 2640
217 1105 2685
223 1115 2731
228 1128 2778
202 838 170
198 837 207
194 835 247
171 842 384
135 901 628
125 964 895
129 1030 1185
141 1099 1499
156 1154 1819
173 1214 2129
197 1279 2417
212 1322 2614
216 1327 2661
221 1335 2703
227 1343 2746
234 1352 2789
241 1363 2832
199 1190 284
194 1190 322
193 1190 361
185 1189 442
165 1204 656
155 1247 924
153 1293 1215
163 1346 1528
175 1400 1839
193 1452 2142
211 1503 2420
236 1549 2648
243 1557 2713
248 1562 2754
252 1569 2795
257 1575 2835
263 1584 2877
285 1534 417
276 1535 460
268 1535 501
262 1530 543
233 1520 711
212 1532 955
201 1561 1252
198 1594 1555
205 1630 1850
224 1674 2139
246 1716 2413
272 1757 2662
280 1768 2758
283 1770 2799
286 1775 2839
289 1781 2881
293 1790 2922
466 1865 566
445 1866 615
420 1863 661
405 1858 704
363 1842 816
311 1818 1022
284 1819 1283
265 1834 1579
260 1857 1862
274 1888 2135
292 1927 2400
303 1963 2656
308 1980 2799
308 1981 2843
310 1986 2884
311 1991 2927
315 1999 2971
601 2163 719
571 2162 770
541 2160 820
516 2156 868
494 2151 929
437 2124 1116
390 2096 1330
354 2087 1591
335 2094 1865
335 2119 2129
339 2149 2387
339 2176 2638
340 2197 2828
340 2199 2886
342 2202 2929
346 2206 2973
351 2214 3017
647 2410 858
629 2409 901
618 2407 941
601 2404 983
582 2399 1025
540 2387 1166
481 2360 1363
438 2343 1592
408 2340 1851
392 2350 2116
386 2370 2373
384 2390 2621
381 2409 2842
382 2414 2928
384 2417 2970
387 2420 3011
392 2429 3053
697 2653 974
682 2650 1009
670 2646 1043
658 2642 1078
647 2637 1114
622 2630 1189
558 2606 1379
507 2585 1589
472 2579 1830
441 2580 2092
428 2595 2354
431 2615 2604
429 2634 2845
428 2642 2972
428 2643 3013
432 2645 3052
437 2651 3091
818 2916 1094
796 2912 1125
771 2906 1155
749 2898 1184
728 2888 1212
706 2877 1239
637 2851 1388
573 2828 1589
528 2817 1815
493 2816 2063
471 2824 2333
473 2842 2584
475 2866 2833
486 2884 3021
489 2883 3064
493 2884 3102
498 2889 3141
944 3093 1177
917 3090 1209
888 3086 1240
857 3081 1271
827 3075 1300
798 3068 1329
739 3052 1413
651 3020 1595
598 3012 1811
552 3009 2045
531 3020 2306
523 3036 2562
525 3063 2810
548 3094 3045
569 3102 3113
581 3108 3154
593 3114 3196
998 3148 1206
971 3144 1237
940 3139 1269
908 3134 1300
878 3130 1329
851 3126 1359
805 3118 1415
696 3086 1580
635 3075 1790
588 3074 2019
563 3085 2272
550 3100 2527
551 3129 2773
576 3163 3018
601 3181 3130
622 3188 3170
652 3196 3214
1061 3200 1233
1034 3196 1265
1003 3191 1296
971 3186 1327
942 3182 1357
916 3178 1387
882 3174 1430
753 3145 1579
668 3127 1780
616 3126 2006
584 3134 2253
571 3148 2504
572 3175 2751
596 3207 2996
631 3229 3141
658 3237 3183
693 3245 3225
1124 3252 1260
1095 3247 1292
1067 3243 1324
1038 3239 1355
1011 3235 1386
986 3232 1416
952 3228 1459
811 3202 1608
698 3181 1803
643 3179 2029
603 3186 2270
592 3199 2517
594 3225 2763
631 3257 3007
678 3279 3153
715 3288 3196
741 3294 3238
614 121 82
598 116 132
587 110 254
545 109 430
497 130 657
453 188 914
438 225 1194
439 240 1481
449 269 1763
467 313 2056
491 363 2281
494 377 2342
495 387 2387
497 397 2431
500 409 2476
504 421 2521
511 434 2566
572 152 79
565 149 111
544 141 235
508 140 405
464 163 634
422 225 892
410 268 1170
411 282 1455
422 310 1742
441 355 2037
471 410 2284
475 427 2351
474 438 2397
475 450 2442
477 462 2487
481 474 2533
