滤镜资源/Professional Luts Collection/Triune-Digital-Cinematic-LUTs/3D LUTs (3DL)/LOG/Suicide Squad - LOG.3dl
# Created by Benjamin (IWLTBAP) : http://luts.iwltbap.com
# Copyright: (C) Copyright 2016 Triune Films and IWLTBAP
# Blockbuster LUTs Pack
0 64 128 192 256 320 384 448 512 576 640 704 768 832 896 960 1023
45 84 91
43 92 163
50 146 366
58 246 583
63 316 779
64 377 977
84 478 1193
133 579 1411
227 671 1644
322 758 1903
395 818 2084
419 838 2143
439 855 2195
458 872 2248
480 890 2301
500 906 2353
519 923 2404
49 135 98
45 127 149
50 196 342
57 290 561
64 359 754
63 414 951
82 505 1165
128 600 1385
221 692 1616
312 780 1876
393 849 2083
420 870 2146
439 887 2198
459 904 2251
482 921 2304
502 939 2357
521 957 2409
63 350 152
60 342 182
53 338 342
58 396 535
64 469 723
65 525 919
85 608 1135
133 698 1353
221 780 1581
299 863 1842
393 937 2080
427 955 2159
447 966 2210
468 980 2263
489 995 2316
508 1010 2368
528 1028 2422
84 588 240
84 584 261
72 584 361
67 563 539
72 604 702
74 652 886
92 727 1099
142 814 1316
216 893 1540
292 974 1802
395 1055 2066
440 1086 2180
462 1096 2233
485 1111 2287
505 1125 2339
525 1141 2392
546 1158 2446
125 842 324
122 836 343
121 830 373
94 841 560
90 795 713
89 818 878
101 873 1070
142 942 1273
207 1018 1493
293 1093 1754
403 1175 2031
465 1220 2194
483 1232 2247
501 1245 2300
521 1260 2354
542 1276 2408
560 1293 2460
176 1107 396
175 1099 415
174 1092 432
153 1101 540
107 1097 737
101 1037 892
112 1055 1058
158 1110 1251
219 1171 1464
319 1234 1722
419 1304 1994
490 1363 2209
507 1375 2263
523 1389 2315
540 1404 2369
556 1419 2422
574 1437 2475
236 1372 472
237 1367 490
237 1362 507
235 1357 548
213 1398 732
174 1364 942
172 1293 1077
208 1303 1242
279 1354 1459
364 1415 1722
453 1482 1998
534 1545 2248
550 1557 2316
562 1565 2363
574 1577 2412
587 1589 2461
602 1605 2512
313 1644 555
315 1640 572
317 1633 589
318 1624 608
306 1628 720
269 1704 951
269 1639 1139
281 1561 1271
322 1562 1461
386 1610 1718
470 1675 2002
562 1745 2286
590 1768 2394
602 1778 2443
616 1790 2492
631 1803 2540
648 1820 2590
352 1912 633
353 1908 648
354 1903 664
354 1892 680
347 1872 732
330 1924 915
351 2016 1176
352 1929 1348
358 1844 1509
403 1838 1725
477 1885 2002
563 1954 2298
616 1993 2464
637 2002 2515
658 2014 2566
677 2029 2616
698 2046 2666
474 2225 729
475 2221 741
475 2215 755
472 2198 768
462 2160 794
421 2125 906
398 2236 1147
454 2343 1436
444 2223 1623
461 2139 1796
507 2133 2024
579 2180 2308
655 2230 2526
681 2240 2590
701 2252 2638
718 2263 2682
732 2278 2724
543 2546 836
544 2545 848
543 2542 858
542 2534 868
538 2514 879
489 2383 937
421 2416 1113
464 2562 1413
504 2648 1727
500 2512 1914
517 2441 2093
571 2439 2331
664 2474 2572
693 2487 2648
708 2496 2687
723 2506 2726
737 2518 2763
622 2811 936
621 2809 947
619 2806 958
618 2802 971
614 2795 985
586 2754 1017
461 2601 1104
474 2709 1359
561 2883 1728
598 2920 2059
583 2785 2213
622 2728 2393
688 2730 2603
721 2738 2700
732 2741 2733
743 2746 2767
755 2756 2802
710 3112 1061
710 3110 1073
708 3109 1084
704 3108 1096
700 3104 1108
692 3090 1119
573 2925 1164
524 2910 1344
560 3049 1656
621 3199 2069
656 3174 2356
675 3048 2475
708 3005 2629
740 2994 2754
750 2990 2785
759 2990 2816
769 2995 2848
826 3422 1188
832 3429 1202
837 3439 1217
840 3453 1233
832 3458 1244
807 3436 1241
745 3334 1259
656 3278 1366
633 3387 1629
705 3454 1996
734 3471 2409
740 3363 2571
735 3260 2667
762 3230 2796
770 3217 2836
778 3214 2865
787 3214 2895
854 3464 1206
858 3470 1220
857 3480 1234
860 3493 1249
857 3502 1262
840 3490 1264
826 3474 1284
788 3418 1387
728 3497 1609
733 3568 1921
742 3573 2366
764 3487 2593
749 3373 2679
769 3318 2803
786 3310 2862
792 3304 2887
801 3301 2915
897 3575 1254
898 3582 1267
897 3589 1280
899 3597 1294
902 3602 1307
905 3602 1318
905 3599 1334
885 3552 1409
803 3597 1609
735 3662 1879
748 3653 2301
790 3578 2609
765 3458 2693
775 3384 2807
797 3366 2880
809 3365 2907
819 3358 2932
923 3698 1305
928 3704 1319
933 3711 1333
938 3718 1347
943 3724 1360
947 3726 1372
950 3723 1388
942 3683 1454
846 3707 1645
747 3745 1898
768 3729 2306
803 3655 2636
789 3532 2725
787 3449 2830
810 3426 2901
821 3422 2926
832 3418 2953
74 88 93
74 94 166
79 147 357
84 246 577
90 318 772
89 379 972
108 477 1189
168 578 1407
254 670 1639
343 758 1898
416 820 2085
439 840 2145
459 857 2197
478 874 2251
499 891 2303
521 909 2356
539 926 2408
68 123 99
64 119 142
69 192 338
75 282 556
80 353 750
78 407 947
96 498 1161
146 599 1380
239 691 1611
330 780 1871
414 851 2084
442 872 2149
461 889 2201
481 906 2255
502 924 2308
522 941 2360
541 959 2412
74 340 153
72 332 181
65 330 334
71 389 531
78 463 720
78 521 916
98 602 1131
152 692 1350
241 775 1579
320 858 1839
414 933 2081
448 952 2162
468 964 2213
488 978 2266
508 993 2319
527 1007 2371
547 1026 2424
96 582 243
95 579 266
85 574 353
78 557 535
85 601 700
88 650 885
105 724 1097
166 811 1315
237 891 1540
313 970 1800
414 1052 2065
461 1084 2183
483 1095 2237
505 1109 2291
524 1124 2343
545 1139 2396
564 1156 2449
146 844 327
142 838 347
137 825 371
107 835 552
103 792 712
102 817 878
116 872 1070
166 941 1273
227 1016 1493
315 1090 1754
423 1172 2031
484 1219 2198
503 1230 2252
521 1244 2305
540 1259 2359
561 1273 2412
579 1291 2465
196 1109 397
197 1102 419
194 1090 437
176 1091 533
123 1095 734
113 1035 891
130 1054 1058
178 1110 1252
241 1171 1466
339 1233 1722
439 1302 1994
509 1361 2211
526 1373 2267
542 1387 2320
559 1402 2374
575 1418 2426
592 1436 2480
257 1372 471
257 1366 491
256 1357 508
254 1349 546
230 1385 721
193 1362 936
189 1293 1077
229 1302 1243
301 1355 1462
384 1416 1725
472 1482 2000
552 1545 2252
569 1557 2322
581 1567 2371
593 1579 2420
605 1590 2470
619 1605 2518
331 1638 554
333 1634 571
336 1628 589
338 1619 609
327 1616 713
284 1693 940
286 1639 1137
299 1562 1272
341 1563 1463
404 1611 1721
488 1676 2005
581 1746 2292
609 1770 2403
622 1780 2452
635 1793 2501
650 1805 2548
667 1822 2598
373 1912 633
374 1908 647
375 1902 663
375 1892 680
369 1869 732
345 1908 904
362 2006 1167
368 1930 1346
376 1846 1511
421 1839 1727
496 1888 2007
582 1956 2303
635 1995 2471
656 2004 2524
677 2017 2575
697 2030 2624
716 2048 2673
501 2227 731
500 2225 744
499 2221 757
497 2210 770
487 2172 794
442 2115 900
409 2220 1134
467 2334 1426
461 2224 1621
479 2141 1799
524 2134 2027
596 2182 2311
672 2231 2532
700 2243 2598
718 2253 2644
735 2265 2689
750 2281 2731
573 2543 840
572 2543 851
570 2543 863
568 2538 872
564 2527 882
517 2398 939
435 2402 1101
476 2544 1397
518 2645 1721
515 2511 1911
532 2438 2091
588 2440 2335
680 2475 2575
711 2490 2655
725 2498 2693
739 2506 2731
753 2520 2769
655 2810 941
653 2808 952
651 2804 962
647 2800 972
643 2794 985
623 2771 1021
482 2598 1099
483 2693 1345
569 2865 1710
612 2918 2052
597 2784 2212
636 2726 2392
702 2729 2603
737 2738 2704
748 2742 2738
759 2747 2772
770 2756 2806
747 3101 1063
746 3101 1074
744 3103 1086
741 3103 1098
734 3100 1109
724 3089 1120
611 2946 1171
534 2885 1329
573 3027 1641
630 3185 2053
669 3172 2354
689 3046 2474
721 3002 2628
755 2993 2757
765 2990 2789
774 2990 2819
783 2994 2851
871 3422 1195
871 3430 1208
874 3439 1222
879 3451 1238
880 3466 1254
868 3471 1264
793 3362 1272
689 3279 1365
646 3380 1618
715 3448 1977
743 3472 2393
755 3370 2574
749 3264 2668
776 3232 2799
785 3223 2842
793 3218 2870
802 3217 2899
895 3462 1212
900 3468 1225
901 3477 1239
905 3489 1255
902 3507 1271
895 3514 1282
862 3490 1291
822 3420 1387
752 3490 1600
746 3566 1904
754 3575 2348
782 3495 2596
764 3381 2682
783 3321 2803
803 3317 2868
809 3309 2891
818 3305 2920
936 3580 1263
937 3585 1275
936 3592 1288
935 3599 1300
931 3607 1313
931 3611 1325
932 3607 1340
916 3560 1412
835 3592 1602
746 3660 1866
763 3653 2281
805 3588 2610
783 3468 2697
791 3389 2808
814 3371 2884
826 3370 2912
836 3363 2936
956 3703 1313
958 3708 1325
961 3714 1338
963 3721 1351
969 3727 1365
973 3730 1379
977 3729 1394
970 3693 1458
880 3703 1639
761 3743 1887
785 3731 2285
817 3666 2634
807 3542 2729
803 3454 2831
826 3430 2904
837 3425 2930
849 3424 2957
143 101 105
143 101 179
147 168 366
144 253 572
146 329 776
149 389 974
195 481 1187
266 578 1405
339 671 1635
423 758 1892
499 825 2090
518 845 2152
533 862 2203
549 879 2256
566 896 2309
583 913 2362
601 931 2414
130 137 106
127 135 150
132 198 339
131 276 549
136 354 752
138 413 949
172 502 1160
244 600 1379
319 693 1608
402 781 1865
484 855 2087
506 878 2155
522 894 2207
539 911 2260
557 929 2313
574 946 2366
592 963 2418
122 325 161
121 319 192
114 321 325
117 392 537
125 466 727
126 521 920
149 598 1132
221 687 1349
298 771 1577
372 851 1835
463 927 2082
493 949 2168
508 959 2219
527 974 2272
543 988 2324
560 1003 2377
579 1020 2429
136 586 251
130 580 276
120 564 343
107 548 530
113 596 700
114 647 886
135 719 1096
205 804 1312
267 884 1536
338 962 1795
435 1043 2060
484 1078 2188
503 1088 2240
524 1102 2294
542 1117 2345
563 1132 2398
582 1149 2451
171 841 326
169 836 350
159 824 374
120 816 535
115 780 704
114 808 873
134 864 1065
187 932 1268
245 1007 1488
334 1082 1748
440 1163 2026
504 1213 2203
523 1225 2257
540 1239 2310
559 1254 2364
579 1269 2417
597 1286 2471
215 1105 394
216 1098 418
215 1087 439
199 1073 522
142 1086 725
128 1026 885
150 1047 1055
195 1104 1248
261 1165 1463
357 1225 1717
456 1295 1989
528 1356 2213
546 1368 2272
561 1383 2325
577 1397 2378
594 1413 2431
609 1431 2484
280 1368 470
280 1362 489
278 1352 508
273 1338 544
248 1366 706
210 1354 925
207 1287 1073
249 1298 1242
320 1350 1460
402 1412 1722
489 1478 1998
569 1541 2253
587 1554 2328
599 1564 2376
611 1575 2425
622 1586 2473
637 1603 2524
351 1632 552
353 1626 568
355 1619 587
356 1611 607
349 1600 703
300 1676 924
301 1634 1132
316 1558 1270
359 1560 1462
422 1609 1720
505 1673 2005
598 1744 2293
628 1769 2410
639 1778 2458
654 1792 2508
668 1804 2555
685 1821 2604
396 1913 631
397 1909 645
397 1902 661
396 1891 678
391 1866 732
364 1891 892
372 1992 1155
384 1928 1343
393 1844 1511
438 1837 1728
515 1885 2007
599 1954 2305
654 1995 2479
675 2005 2533
696 2018 2584
714 2030 2631
735 2049 2682
531 2226 735
530 2225 747
528 2224 759
524 2219 772
518 2194 794
467 2107 894
421 2201 1118
479 2322 1414
478 2224 1616
495 2139 1798
541 2133 2028
611 2180 2311
690 2232 2538
718 2244 2606
736 2254 2652
751 2266 2696
766 2281 2737
608 2539 844
606 2539 855
603 2540 867
598 2537 877
594 2531 886
548 2420 941
451 2386 1087
486 2523 1379
531 2639 1713
531 2509 1908
547 2435 2088
603 2437 2334
697 2473 2577
728 2489 2660
742 2496 2697
756 2504 2735
770 2518 2773
694 2810 947
692 2807 957
689 2803 967
684 2799 977
678 2792 986
659 2774 1020
508 2601 1095
493 2676 1331
577 2844 1690
627 2913 2043
611 2781 2208
649 2722 2389
716 2726 2602
752 2736 2708
763 2739 2741
774 2746 2776
785 2754 2809
790 3101 1068
789 3100 1079
786 3099 1089
781 3098 1101
773 3092 1111
763 3082 1121
658 2973 1181
542 2858 1314
581 3005 1623
637 3166 2033
681 3168 2350
702 3043 2471
734 2998 2625
769 2990 2760
779 2987 2792
788 2987 2822
797 2992 2854
913 3423 1202
915 3430 1215
916 3439 1229
921 3451 1244
922 3466 1261
921 3483 1277
853 3395 1288
726 3280 1365
662 3371 1606
727 3443 1956
755 3473 2381
770 3378 2577
763 3268 2668
790 3235 2801
800 3226 2846
808 3221 2874
819 3220 2903
942 3464 1221
943 3469 1233
946 3474 1246
947 3486 1260
947 3502 1277
948 3523 1295
908 3507 1302
859 3428 1389
779 3483 1589
758 3563 1887
764 3577 2321
800 3506 2598
779 3389 2684
800 3328 2804
821 3323 2873
827 3316 2897
837 3312 2926
978 3586 1272
980 3590 1285
980 3595 1296
976 3602 1308
972 3609 1321
968 3616 1333
963 3617 1348
949 3571 1416
870 3586 1594
758 3657 1852
780 3655 2257
820 3599 2609
802 3478 2701
807 3395 2809
831 3376 2888
845 3378 2919
854 3368 2941
998 3710 1323
998 3713 1334
999 3718 1346
998 3724 1359
997 3729 1371
999 3732 1384
1004 3734 1401
999 3704 1462
921 3699 1632
781 3741 1876
801 3733 2263
830 3678 2630
826 3553 2734
819 3458 2831
843 3433 2908
855 3430 2935
867 3427 2962
427 199 201
433 192 245
460 230 396
443 288 589
349 357 791
290 414 994
322 499 1202
376 586 1410
440 672 1633
516 758 1886
588 828 2094
609 850 2159
623 867 2209
639 884 2261
655 902 2314
670 919 2367
685 937 2419
389 220 199
384 223 227
412 244 371
396 304 566
310 379 767
266 435 969
301 518 1173
355 606 1383
419 693 1606
496 780 1859
577 858 2087
600 883 2161
614 900 2212
630 916 2265
646 934 2318
660 951 2370
