滤镜资源/Professional Luts Collection/Triune-Digital-Cinematic-LUTs/3D LUTs (3DL)/LOG/Suicide Squad - LOG.3dl
# Created by Benjamin (IWLTBAP) : http://luts.iwltbap.com
# Copyright: (C) Copyright 2016 Triune Films and IWLTBAP
# Blockbuster LUTs Pack
0 256 512 768 1023
45 84 91
63 316 779
227 671 1644
439 855 2195
519 923 2404
125 842 324
90 795 713
207 1018 1493
483 1232 2247
560 1293 2460
352 1912 633
347 1872 732
358 1844 1509
616 1993 2464
698 2046 2666
710 3112 1061
700 3104 1108
560 3049 1656
708 3005 2629
769 2995 2848
923 3698 1305
943 3724 1360
846 3707 1645
789 3532 2725
832 3418 2953
772 303 285
828 395 795
577 694 1664
732 879 2230
786 944 2428
626 788 392
438 777 724
464 1019 1524
687 1227 2299
744 1285 2508
540 1919 643
495 1904 720
433 1828 1499
692 1981 2487
767 2033 2690
876 3083 1075
862 3061 1112
600 2947 1575
759 2979 2612
826 2977 2858
1093 3720 1344
1087 3730 1388
1008 3693 1616
863 3576 2741
906 3440 2974
2384 742 626
2575 841 943
2726 1073 1662
2381 1159 2335
2323 1219 2577
2256 1031 665
2345 1008 835
2453 1245 1605
2087 1364 2456
1906 1403 2749
2165 1911 950
2150 1903 992
1642 1921 1762
1194 1986 2647
1231 2015 2814
1851 3062 1291
1830 3031 1334
1627 3014 1619
1042 2950 2623
1119 2936 2899
1708 3769 1500
1679 3750 1522
1570 3890 1729
1069 3677 2778
1096 3478 3019
3422 1156 1011
3518 1186 1207
3808 1363 1850
3698 1502 2696
3609 1527 2935
3562 1375 1074
3563 1369 1192
3823 1533 1826
3713 1691 2802
3645 1703 3012
3815 2148 1322
3802 2143 1362
3665 2198 1958
3537 2270 2952
3345 2245 3192
3426 3312 1692
3411 3295 1726
3368 3267 1960
3048 3209 2803
2618 3185 3290
3198 3876 1894
3183 3877 1934
3135 3877 2078
2803 3928 2686
1710 3642 3285
3785 1259 1099
3828 1275 1270
3996 1449 1899
3938 1587 2828
3906 1609 3037
3849 1442 1151
3857 1438 1254
4002 1592 1863
3952 1748 2910
3933 1759 3097
3930 2209 1373
3932 2210 1418
3962 2225 1985
3948 2358 2971
3910 2341 3244
3852 3133 1684
3855 3119 1722
3869 3113 1903
3980 3343 2871
3945 3255 3220
3809 3954 2055
3811 3950 2097
3815 3940 2181
3986 3984 2878
4013 3963 3289
