滤镜资源/Professional Luts Collection/Triune-Digital-Cinematic-LUTs/3D LUTs (3DL)/LOG/Suicide Squad - LOG.3dl
# Created by Benjamin (IWLTBAP) : http://luts.iwltbap.com
# Copyright: (C) Copyright 2016 Triune Films and IWLTBAP
# Blockbuster LUTs Pack
0 128 256 384 512 640 768 896 1023
45 84 91
50 146 366
63 316 779
84 478 1193
227 671 1644
395 818 2084
439 855 2195
480 890 2301
519 923 2404
63 350 152
53 338 342
64 469 723
85 608 1135
221 780 1581
393 937 2080
447 966 2210
489 995 2316
528 1028 2422
125 842 324
121 830 373
90 795 713
101 873 1070
207 1018 1493
403 1175 2031
483 1232 2247
521 1260 2354
560 1293 2460
236 1372 472
237 1362 507
213 1398 732
172 1293 1077
279 1354 1459
453 1482 1998
550 1557 2316
574 1577 2412
602 1605 2512
352 1912 633
354 1903 664
347 1872 732
351 2016 1176
358 1844 1509
477 1885 2002
616 1993 2464
658 2014 2566
698 2046 2666
543 2546 836
543 2542 858
538 2514 879
421 2416 1113
504 2648 1727
517 2441 2093
664 2474 2572
708 2496 2687
737 2518 2763
710 3112 1061
708 3109 1084
700 3104 1108
573 2925 1164
560 3049 1656
656 3174 2356
708 3005 2629
750 2990 2785
769 2995 2848
854 3464 1206
857 3480 1234
857 3502 1262
826 3474 1284
728 3497 1609
742 3573 2366
749 3373 2679
786 3310 2862
801 3301 2915
923 3698 1305
933 3711 1333
943 3724 1360
950 3723 1388
846 3707 1645
768 3729 2306
789 3532 2725
810 3426 2901
832 3418 2953
143 101 105
147 168 366
146 329 776
195 481 1187
339 671 1635
499 825 2090
533 862 2203
566 896 2309
601 931 2414
122 325 161
114 321 325
125 466 727
149 598 1132
298 771 1577
463 927 2082
508 959 2219
543 988 2324
579 1020 2429
171 841 326
159 824 374
115 780 704
134 864 1065
245 1007 1488
440 1163 2026
523 1225 2257
559 1254 2364
597 1286 2471
280 1368 470
278 1352 508
248 1366 706
207 1287 1073
320 1350 1460
489 1478 1998
587 1554 2328
611 1575 2425
637 1603 2524
396 1913 631
397 1902 661
391 1866 732
372 1992 1155
393 1844 1511
515 1885 2007
654 1995 2479
696 2018 2584
735 2049 2682
608 2539 844
603 2540 867
594 2531 886
451 2386 1087
531 2639 1713
547 2435 2088
697 2473 2577
742 2496 2697
770 2518 2773
790 3101 1068
786 3099 1089
773 3092 1111
658 2973 1181
581 3005 1623
681 3168 2350
734 2998 2625
779 2987 2792
797 2992 2854
942 3464 1221
946 3474 1246
947 3502 1277
908 3507 1302
779 3483 1589
764 3577 2321
779 3389 2684
821 3323 2873
837 3312 2926
998 3710 1323
999 3718 1346
997 3729 1371
1004 3734 1401
921 3699 1632
801 3733 2263
826 3553 2734
843 3433 2908
867 3427 2962
772 303 285
814 306 440
828 395 795
508 541 1251
577 694 1664
703 842 2116
732 879 2230
759 911 2328
786 944 2428
693 414 309
679 416 406
692 489 760
422 613 1180
522 761 1592
661 907 2076
702 941 2227
732 973 2329
758 1007 2432
626 788 392
605 784 435
438 777 724
348 880 1099
464 1019 1524
618 1161 2046
687 1227 2299
715 1254 2404
744 1285 2508
578 1375 512
557 1381 540
447 1348 683
336 1284 1082
445 1351 1477
589 1462 1994
678 1540 2346
696 1560 2444
720 1588 2542
540 1919 643
529 1919 668
495 1904 720
402 1937 1105
433 1828 1499
556 1866 1996
692 1981 2487
731 2002 2593
767 2033 2690
689 2516 852
686 2516 874
673 2512 893
499 2345 1054
550 2606 1672
576 2415 2070
726 2454 2571
775 2481 2705
802 2504 2780
876 3083 1075
873 3074 1094
862 3061 1112
770 3005 1186
600 2947 1575
700 3151 2328
759 2979 2612
808 2973 2796
826 2977 2858
1035 3481 1243
1037 3487 1266
1037 3499 1291
1027 3560 1340
846 3469 1564
792 3577 2261
816 3409 2687
855 3331 2881
873 3321 2935
1093 3720 1344
1092 3724 1366
1087 3730 1388
1073 3738 1412
1008 3693 1616
832 3740 2207
863 3576 2741
879 3442 2917
906 3440 2974
1601 475 371
1616 469 472
1776 582 811
1753 702 1239
1555 809 1710
1242 956 2255
1177 990 2388
1089 999 2475
1081 1019 2559
1518 539 378
1525 558 447
1661 620 774
1632 728 1191
1406 837 1679
1099 984 2215
1008 1013 2363
1021 1036 2446
1040 1065 2538
1474 852 470
1474 850 504
1433 860 767
1392 944 1173
962 1055 1652
900 1168 2100
949 1229 2355
966 1251 2448
985 1279 2542
1379 1283 612
1374 1282 639
1339 1285 752
866 1308 1163
735 1375 1565
842 1456 2032
917 1543 2416
930 1566 2516
955 1599 2621
1283 1868 808
1276 1865 834
1253 1861 870
905 1928 1089
682 1854 1560
796 1884 2054
903 1979 2538
932 2000 2646
959 2026 2735
1278 2478 972
1264 2476 991
1237 2470 1007
1065 2495 1120
680 2516 1588
725 2415 2092
860 2445 2587
906 2474 2734
928 2497 2807
1179 3051 1124
1164 3042 1139
1138 3033 1153
1068 3018 1204
652 2863 1504
748 3125 2294
809 2952 2596
861 2948 2802
879 2954 2865
1150 3503 1272
1147 3504 1292
1140 3512 1314
1126 3542 1346
935 3457 1536
827 3579 2184
858 3437 2689
893 3341 2891
912 3330 2945
1188 3727 1367
1188 3728 1387
1184 3732 1409
1174 3738 1431
1088 3706 1600
860 3748 2135
900 3604 2745
918 3451 2924
944 3448 2984
2384 742 626
2388 740 680
2575 841 943
2704 974 1314
2726 1073 1662
2497 1128 2122
2381 1159 2335
2340 1190 2455
2323 1219 2577
2304 756 608
2313 769 640
2477 844 890
2609 980 1256
2628 1087 1620
2393 1153 2093
2281 1206 2344
2256 1236 2460
2237 1258 2595
2256 1031 665
2261 1028 692
2345 1008 835
2475 1137 1215
2453 1245 1605
2199 1307 2098
2087 1364 2456
2006 1378 2596
1906 1403 2749
2297 1358 774
2306 1361 801
2275 1366 855
2168 1429 1245
2163 1490 1653
1791 1539 2226
1335 1592 2642
1285 1603 2710
1294 1629 2791
2165 1911 950
2167 1912 974
2150 1903 992
2088 1949 1214
1642 1921 1762
1159 1948 2268
1194 1986 2647
1213 1995 2738
1231 2015 2814
1989 2518 1149
1985 2514 1169
1973 2504 1188
1911 2483 1324
1535 2494 1635
1007 2446 2182
1110 2431 2623
1156 2454 2777
1177 2473 2845
1851 3062 1291
1844 3050 1313
1830 3031 1334
1807 3002 1382
1627 3014 1619
980 3033 2182
1042 2950 2623
1100 2931 2837
1119 2936 2899
1729 3600 1431
1716 3580 1440
1700 3566 1452
1679 3562 1466
1562 3747 1677
1029 3589 2053
1064 3520 2743
1088 3373 2933
1102 3358 2983
1708 3769 1500
1694 3756 1509
1679 3750 1522
1658 3749 1538
1570 3890 1729
1079 3760 2047
1069 3677 2778
1076 3485 2956
1096 3478 3019
3157 1073 938
3148 1074 972
3249 1111 1164
3480 1219 1488
3574 1304 1824
3502 1380 2315
3339 1408 2548
3242 1417 2683
3171 1425 2804
3089 1089 922
3089 1093 952
3158 1124 1126
3396 1237 1444
3488 1325 1785
3434 1410 2254
3237 1445 2554
3139 1453 2685
3075 1462 2802
3057 1263 943
3050 1259 968
3037 1243 1079
3244 1350 1399
3322 1439 1744
3292 1526 2192
3016 1558 2615
2947 1558 2722
2909 1562 2834
3103 1581 1031
3090 1579 1051
3049 1572 1085
3011 1575 1366
3104 1673 1749
3043 1763 2220
2759 1761 2733
2719 1768 2874
2677 1790 3004
3076 1952 1139
3098 1960 1168
3082 1954 1187
2987 1996 1347
2756 2090 1870
2696 2079 2327
2310 2090 2961
2036 2081 3071
1867 2077 3121
2781 2617 1335
2776 2616 1355
2762 2611 1374
2730 2627 1458
2626 2636 1813
2317 2559 2401
1668 2555 2902
1524 2539 3008
1531 2544 3055
2567 3197 1504
2563 3195 1523
2554 3189 1541
2536 3176 1568
2440 3100 1856
2144 3044 2267
1368 3019 2747
1415 2950 2953
1427 2950 3005
2433 3698 1651
2425 3698 1669
2412 3696 1687
2388 3691 1701
2325 3690 1856
2082 3765 2189
1319 3582 2726
1343 3396 2978
1352 3365 3023
2413 3839 1712
2403 3837 1729
2387 3832 1745
2362 3825 1757
2310 3840 1879
2083 3922 2210
1307 3738 2701
1326 3533 3004
1339 3504 3063
3422 1156 1011
3425 1161 1044
3518 1186 1207
3767 1287 1512
3808 1363 1850
3799 1466 2421
3698 1502 2696
3648 1516 2821
3609 1527 2935
3449 1203 1023
3456 1209 1056
3508 1226 1195
3776 1324 1485
3813 1409 1833
3810 1513 2380
3702 1564 2731
3659 1579 2850
3622 1589 2960
3562 1375 1074
3563 1374 1102
3563 1369 1192
3767 1432 1455
3823 1533 1826
3821 1628 2333
3713 1691 2802
3675 1696 2913
3645 1703 3012
3760 1754 1200
3755 1752 1222
3740 1741 1249
3766 1689 1463
3802 1799 1871
3777 1888 2347
3679 1955 2916
3635 1953 3020
3599 1955 3110
3815 2148 1322
3811 2147 1342
3802 2143 1362
3753 2168 1477
3665 2198 1958
3639 2269 2421
3537 2270 2952
3414 2239 3099
3345 2245 3192
3708 2575 1436
3704 2573 1456
3696 2566 1475
3678 2565 1533
3609 2657 1931
3405 2751 2472
3298 2691 2873
3093 2700 3119
3030 2716 3211
3426 3312 1692
3419 3306 1710
3411 3295 1726
3397 3279 1745
3368 3267 1960
3300 3243 2420
3048 3209 2803
2714 3190 3193
2618 3185 3290
3235 3751 1855
3229 3750 1875
3221 3751 1895
3205 3749 1913
3168 3734 2074
3109 3698 2442
2805 3756 2712
1935 3560 3227
1849 3526 3301
3198 3876 1894
3191 3876 1913
3183 3877 1934
3166 3878 1953
3135 3877 2078
3088 3871 2434
2803 3928 2686
1739 3704 3200
1710 3642 3285
3609 1208 1055
3610 1213 1087
3682 1230 1236
3875 1324 1524
3913 1406 1868
3891 1499 2443
3828 1545 2762
3790 1558 2879
3762 1568 2985
3634 1255 1067
3642 1260 1100
3677 1270 1225
3876 1358 1494
3919 1451 1852
3903 1544 2394
3837 1608 2794
3801 1620 2909
3778 1631 3010
3729 1402 1111
3731 1401 1140
3735 1398 1219
3867 1449 1462
3928 1554 1837
3915 1628 2314
3849 1712 2848
3820 1718 2954
3798 1726 3052
3862 1780 1230
3857 1777 1252
3847 1764 1274
3866 1699 1463
3924 1807 1875
3893 1893 2345
3855 1982 2945
3826 1985 3062
3798 1988 3152
3892 2176 1352
3892 2177 1375
3893 2175 1397
3883 2198 1499
3862 2201 1964
3858 2284 2419
3844 2326 2972
3789 2309 3133
3741 2299 3219
3839 2601 1475
3840 2600 1496
3841 2597 1517
3843 2601 1570
3870 2709 1979
3877 2787 2468
3844 2805 2872
3779 2745 3150
3716 2737 3225
3797 3164 1685
3798 3157 1704
3800 3147 1722
3803 3129 1739
3817 3126 1909
3897 3237 2460
3860 3322 2864
3812 3249 3127
3799 3262 3207
3757 3843 1988
3756 3837 2006
3755 3830 2025
3754 3821 2043
3756 3804 2123
3834 3806 2519
3913 3833 2844
3846 3777 3157
3841 3782 3226
3742 3969 2053
3741 3966 2073
3739 3964 2093
3737 3961 2113
3739 3952 2198
3818 3936 2562
3858 3931 2869
3752 3954 3165
3768 3902 3264
3785 1259 1099
3788 1263 1131
3828 1275 1270
3974 1362 1544
3996 1449 1899
3974 1526 2457
3938 1587 2828
3921 1599 2936
3906 1609 3037
3801 1305 1112
3806 1310 1144
3825 1316 1261
3965 1394 1514
3998 1496 1881
3982 1570 2405
3943 1649 2859
3933 1662 2961
3920 1672 3060
3849 1442 1151
3852 1442 1180
3857 1438 1254
3958 1479 1484
4002 1592 1863
3990 1650 2331
3952 1748 2910
3944 1751 3002
3933 1759 3097
3948 1827 1268
3947 1823 1291
3942 1807 1310
3961 1736 1491
4001 1836 1899
3980 1925 2381
3959 2020 2997
3949 2019 3102
3932 2023 3194
3930 2209 1373
3931 2211 1396
3932 2210 1418
3935 2229 1520
3962 2225 1985
3965 2307 2435
3948 2358 2971
3939 2347 3160
3910 2341 3244
3885 2625 1496
3885 2625 1517
3886 2624 1540
3888 2629 1590
3917 2727 1988
3977 2799 2474
3962 2832 2874
3952 2780 3176
3902 2764 3250
3852 3133 1684
3853 3127 1703
3855 3119 1722
3857 3105 1740
3869 3113 1903
3949 3248 2467
3980 3343 2871
3987 3273 3153
3945 3255 3220
3811 3797 1975
3813 3791 1993
3815 3783 2012
3817 3773 2031
3822 3757 2107
3881 3750 2456
3987 3802 2829
4000 3811 3177
4007 3804 3241
3809 3954 2055
3810 3951 2075
3811 3950 2097
3811 3948 2119
3815 3940 2181
3881 3943 2520
3986 3984 2878
4006 3972 3184
4013 3963 3289
