滤镜资源/Professional Luts Collection/Triune-Digital-Cinematic-LUTs/3D LUTs (3DL)/LOG/The Walking Dead - LOG.3dl
# Created by Benjamin (IWLTBAP) : http://luts.iwltbap.com
# Copyright: (C) Copyright 2016 Triune Films and IWLTBAP
# Blockbuster LUTs Pack
0 256 512 768 1023
46 51 72
48 53 1207
69 70 2615
82 83 3355
93 90 3605
58 821 90
224 873 947
217 824 2361
242 838 3222
251 841 3441
157 1915 178
270 1967 490
543 2114 1824
541 2084 3078
531 2050 3284
172 3023 84
237 3051 225
574 3234 1239
905 3428 2723
896 3398 3128
143 3310 61
212 3351 193
476 3514 877
903 3799 2412
1023 3875 3047
1225 194 214
1112 68 1138
1030 81 2579
1053 95 3376
1073 102 3607
738 770 94
767 851 893
687 823 2387
707 815 3353
721 815 3577
323 1884 185
421 1930 462
699 2082 1811
673 2037 3098
658 2002 3306
288 3000 115
359 3026 262
710 3199 1250
1064 3387 2731
1055 3357 3173
242 3324 88
320 3368 228
603 3523 906
1080 3803 2431
1230 3885 3108
2943 493 476
2878 435 1298
2757 188 2618
2661 178 3444
2641 187 3654
2561 938 369
2633 1007 968
2453 789 2425
2321 765 3443
2318 755 3658
1954 1875 251
1967 1902 481
2086 2129 2110
1920 2130 3440
1900 2098 3670
962 2953 175
931 2985 372
1270 3140 1364
1763 3328 2849
1733 3286 3379
730 3349 96
753 3408 293
967 3548 1012
1541 3828 2514
1739 3917 3259
3812 646 628
3807 591 1327
3812 287 2591
3708 185 3517
3691 167 3716
3716 1019 563
3794 1056 1051
3815 810 2387
3731 624 3542
3712 584 3737
3457 1880 450
3492 1901 660
3681 2079 2042
3605 1911 3481
3571 1884 3779
2982 2880 172
3021 2916 361
3143 3058 1337
3356 3330 3326
3288 3301 3978
2589 3375 66
2635 3422 234
2702 3530 803
2900 3837 2883
3104 3985 3766
3946 666 665
3952 605 1308
3998 306 2567
3933 191 3549
3917 170 3746
3867 997 594
3938 1024 1035
3977 773 2362
3945 550 3563
3931 522 3759
3680 1854 483
3720 1872 697
3898 2003 1966
3935 1821 3461
3914 1799 3798
3559 2878 348
3600 2909 527
3725 3017 1284
4012 3310 3309
4022 3229 3986
3478 3396 105
3516 3442 264
3597 3532 708
3872 3843 2800
4055 4041 4043
