滤镜资源/Professional Luts Collection/Triune-Digital-Cinematic-LUTs/3D LUTs (3DL)/LOG/The Walking Dead - LOG.3dl
# Created by Benjamin (IWLTBAP) : http://luts.iwltbap.com
# Copyright: (C) Copyright 2016 Triune Films and IWLTBAP
# Blockbuster LUTs Pack
0 64 128 192 256 320 384 448 512 576 640 704 768 832 896 960 1023
46 51 72
46 52 217
47 53 530
47 53 863
48 53 1207
53 55 1563
57 60 1926
62 64 2274
69 70 2615
76 78 2974
79 81 3218
81 82 3292
82 83 3355
84 85 3418
87 87 3482
90 88 3544
93 90 3605
55 130 74
56 127 165
55 125 482
55 121 814
55 114 1162
58 110 1523
62 108 1892
66 106 2241
72 111 2581
79 119 2937
84 123 3214
85 124 3294
86 126 3358
88 127 3421
91 129 3484
95 135 3544
99 141 3603
56 338 77
63 334 122
101 335 407
99 330 759
95 315 1099
93 304 1457
95 296 1833
98 292 2187
106 297 2521
114 303 2862
120 303 3167
119 292 3267
118 282 3332
120 282 3394
123 283 3456
127 284 3516
131 289 3574
54 579 82
71 580 145
126 590 342
158 593 687
156 585 1070
153 573 1409
151 560 1757
154 553 2104
158 552 2440
166 560 2775
176 568 3084
178 562 3210
177 553 3269
178 551 3327
180 549 3386
182 548 3444
186 554 3500
58 821 90
78 828 158
107 835 255
202 868 593
224 873 947
222 864 1336
221 855 1707
216 837 2041
217 824 2361
226 829 2681
236 840 2996
242 845 3167
242 838 3222
244 837 3277
246 837 3332
248 837 3387
251 841 3441
80 1061 121
98 1070 180
116 1076 241
197 1118 496
292 1167 838
299 1166 1168
296 1155 1555
296 1149 1931
290 1129 2267
288 1111 2587
300 1118 2904
311 1128 3128
311 1122 3184
312 1121 3238
314 1121 3291
316 1121 3345
319 1126 3396
103 1336 147
121 1345 203
140 1352 261
188 1375 404
297 1439 728
374 1480 1031
381 1476 1367
381 1470 1758
381 1466 2136
377 1450 2477
371 1424 2799
380 1425 3071
382 1418 3142
383 1416 3194
385 1416 3246
388 1418 3298
391 1423 3349
134 1626 174
151 1635 226
168 1641 278
190 1649 343
286 1708 611
385 1767 915
458 1806 1226
465 1800 1596
468 1800 1978
468 1793 2354
466 1780 2692
457 1751 2990
452 1731 3103
450 1720 3156
449 1715 3208
449 1709 3258
450 1710 3307
157 1915 178
173 1923 225
190 1930 273
208 1935 324
270 1967 490
373 2031 790
463 2080 1105
534 2118 1456
543 2114 1824
543 2109 2207
543 2103 2571
544 2098 2903
541 2084 3078
537 2071 3133
535 2063 3185
532 2054 3235
531 2050 3284
177 2221 166
193 2227 209
210 2234 254
228 2238 300
262 2251 385
363 2302 661
457 2356 977
548 2409 1335
622 2446 1689
634 2443 2057
630 2430 2435
633 2430 2792
634 2426 3036
632 2417 3110
631 2412 3164
630 2408 3217
631 2410 3268
189 2514 144
205 2521 184
221 2528 225
239 2534 268
259 2540 312
344 2583 520
448 2639 844
544 2694 1205
636 2744 1567
716 2785 1926
734 2787 2295
729 2773 2665
726 2762 2971
723 2753 3079
722 2748 3133
721 2743 3186
721 2744 3237
184 2778 113
200 2785 151
216 2791 188
232 2796 227
248 2800 265
295 2821 361
410 2883 675
515 2945 1043
617 3008 1421
717 3068 1796
802 3112 2159
827 3120 2524
821 3105 2870
816 3090 3028
814 3082 3083
812 3075 3136
812 3074 3187
172 3023 84
188 3031 119
204 3039 154
220 3046 189
237 3051 225
253 3054 261
354 3109 498
468 3173 853
574 3234 1239
678 3299 1621
779 3359 2000
869 3410 2363
905 3428 2723
902 3415 2964
899 3406 3024
897 3400 3077
896 3398 3128
159 3169 71
176 3180 104
192 3190 138
209 3200 172
225 3209 205
241 3217 239
296 3250 354
417 3322 683
526 3387 1060
634 3458 1449
739 3532 1834
838 3594 2211
928 3650 2572
965 3671 2886
964 3666 2973
963 3664 3026
962 3663 3080
154 3217 67
171 3227 101
187 3238 134
204 3249 167
221 3259 200
237 3270 234
270 3290 301
386 3359 590
499 3429 960
606 3498 1347
715 3578 1737
818 3649 2118
910 3710 2484
984 3759 2821
986 3760 2955
986 3759 3009
986 3758 3063
149 3263 64
166 3274 98
183 3284 131
200 3295 164
216 3306 196
233 3316 229
258 3333 281
361 3394 523
480 3467 891
588 3534 1276
697 3612 1666
805 3689 2053
902 3750 2424
984 3807 2769
1003 3818 2946
1005 3818 3001
1005 3817 3055
143 3310 61
160 3321 95
178 3331 128
195 3341 161
212 3351 193
228 3361 225
253 3378 276
355 3440 509
476 3514 877
585 3582 1261
693 3656 1649
804 3736 2039
903 3799 2412
990 3858 2760
1020 3875 2937
1021 3875 2992
1023 3875 3047
152 52 70
139 51 190
133 53 508
127 54 842
124 54 1192
124 56 1551
122 60 1918
122 65 2266
123 70 2607
124 78 2966
121 82 3220
121 83 3295
123 84 3358
125 85 3421
129 87 3485
140 88 3545
152 90 3605
115 121 72
112 118 141
108 117 466
103 112 802
99 106 1155
97 102 1518
97 101 1888
102 106 2238
108 112 2577
115 119 2934
119 124 3220
121 125 3302
123 126 3365
125 128 3427
128 131 3490
133 137 3550
143 142 3613
92 328 76
98 324 120
134 324 393
131 318 745
128 306 1090
128 295 1454
129 287 1830
132 283 2186
140 288 2520
149 296 2861
154 295 3173
154 284 3277
154 277 3342
157 277 3404
160 278 3465
163 278 3526
168 284 3584
88 572 81
103 573 141
156 582 329
192 585 674
190 578 1060
187 567 1400
186 555 1751
188 547 2100
192 547 2437
201 554 2773
210 562 3085
212 557 3217
212 547 3277
213 545 3336
215 544 3394
218 544 3452
222 550 3509
90 816 89
111 823 158
137 829 245
235 863 587
258 869 942
256 860 1333
254 849 1705
250 832 2040
251 820 2358
259 824 2679
270 838 2996
277 842 3173
277 835 3228
279 834 3283
281 833 3338
283 833 3393
286 838 3447
111 1057 121
129 1067 181
148 1073 241
227 1113 491
325 1164 835
333 1163 1168
330 1152 1557
329 1145 1933
324 1125 2268
322 1108 2587
334 1114 2902
344 1125 3131
345 1119 3189
346 1116 3243
348 1116 3297
350 1117 3350
353 1122 3401
134 1334 147
152 1342 203
171 1350 261
219 1372 401
329 1436 725
408 1477 1031
414 1473 1369
414 1467 1760
415 1463 2139
410 1446 2478
404 1420 2799
413 1421 3071
415 1415 3146
417 1413 3198
419 1413 3250
422 1415 3303
425 1420 3352
164 1624 175
181 1633 227
199 1640 280
221 1647 343
317 1704 608
417 1764 915
492 1804 1227
499 1797 1597
502 1797 1979
502 1790 2355
499 1776 2693
490 1747 2992
485 1726 3109
483 1715 3161
483 1710 3212
482 1705 3263
484 1706 3313
188 1913 180
204 1921 228
221 1928 276
239 1933 327
300 1965 488
404 2028 789
497 2079 1106
568 2116 1458
577 2113 1825
577 2107 2209
577 2100 2573
578 2094 2904
574 2079 3083
570 2066 3139
568 2058 3191
565 2049 3240
564 2045 3289
206 2217 167
223 2223 211
240 2230 257
258 2234 303
291 2246 383
393 2298 659
489 2353 977
581 2407 1336
656 2444 1690
669 2441 2058
665 2428 2437
667 2427 2792
667 2423 3040
665 2413 3116
664 2408 3170
663 2404 3223
664 2405 3274
218 2509 147
234 2517 187
251 2524 228
269 2531 271
290 2536 316
373 2578 518
478 2633 844
574 2688 1204
667 2738 1565
748 2780 1925
767 2782 2295
762 2769 2665
759 2759 2974
756 2749 3085
755 2743 3138
754 2739 3191
754 2739 3242
213 2774 117
230 2782 154
245 2788 192
262 2792 230
279 2796 269
324 2817 361
439 2879 674
545 2940 1041
647 3002 1419
748 3062 1794
834 3107 2157
859 3114 2522
854 3099 2869
849 3084 3034
846 3076 3088
844 3070 3142
844 3069 3192
200 3022 92
217 3030 128
234 3037 163
250 3043 198
267 3048 234
284 3052 270
385 3106 505
501 3169 860
607 3230 1242
711 3295 1622
813 3354 2002
903 3405 2363
939 3422 2723
935 3409 2970
932 3400 3030
931 3393 3082
930 3392 3134
185 3175 78
203 3185 112
220 3195 147
237 3205 181
254 3214 215
270 3222 249
325 3253 361
450 3325 695
562 3391 1072
673 3459 1460
780 3533 1844
881 3595 2219
972 3651 2578
1009 3672 2895
1008 3667 2985
1008 3665 3038
1008 3664 3091
180 3222 74
198 3233 109
215 3243 142
232 3254 176
249 3265 210
266 3275 243
299 3295 310
417 3362 600
534 3433 972
644 3501 1357
756 3580 1746
861 3650 2126
959 3712 2493
1035 3763 2829
1038 3763 2971
1038 3761 3025
1038 3760 3078
173 3267 71
192 3279 105
209 3289 139
227 3300 172
244 3311 206
261 3322 239
287 3337 289
391 3397 531
515 3471 904
625 3538 1287
738 3614 1676
847 3690 2061
948 3752 2433
1034 3809 2778
1056 3821 2962
1057 3821 3017
1057 3820 3071
167 3313 68
185 3324 102
204 3335 135
222 3346 169
239 3356 202
256 3366 235
281 3382 284
384 3443 518
510 3517 890
622 3585 1274
733 3659 1659
846 3737 2048
949 3801 2421
1039 3859 2769
1073 3879 2953
1074 3878 3008
1075 3878 3063
512 96 111
463 85 188
403 54 471
379 55 805
357 56 1169
340 58 1539
338 62 1910
343 66 2260
352 72 2602
364 80 2960
371 84 3226
364 85 3305
362 86 3367
364 88 3428
366 89 3489
370 90 3549
380 91 3607
442 142 102
435 138 155
348 106 429
320 102 771
303 100 1135
294 100 1508
291 103 1882
295 107 2233
302 113 2574
312 121 2931
320 126 3226
314 127 3312
310 128 3374
313 131 3436
317 136 3497
322 140 3556
332 144 3614
273 307 77
272 306 119
276 308 359
257 303 717
249 293 1079
245 284 1455
239 276 1836
236 271 2192
243 276 2526
251 282 2874
256 282 3196
251 272 3306
246 264 3369
247 263 3431
250 264 3493
253 263 3554
261 267 3615
174 558 78
182 559 128
229 568 302
272 573 648
264 567 1036
256 555 1383
250 544 1741
246 535 2094
242 534 2430
242 539 2767
247 546 3084
248 541 3228
246 531 3288
247 529 3347
249 529 3406
253 530 3464
258 535 3521
128 803 88
149 810 156
172 815 235
267 848 568
293 854 925
288 846 1320
285 835 1695
281 818 2031
283 806 2349
291 811 2672
302 825 2992
310 830 3180
310 823 3236
312 822 3291
314 821 3346
316 820 3401
319 825 3455
142 1045 120
160 1055 180
179 1062 241
254 1100 476
355 1152 823
364 1151 1161
361 1140 1553
361 1133 1929
355 1113 2263
354 1096 2582
366 1103 2897
376 1114 3134
377 1108 3195
378 1106 3250
380 1107 3303
382 1107 3356
385 1113 3407
164 1324 147
182 1333 203
202 1341 262
246 1361 391
358 1425 716
439 1467 1027
446 1463 1366
446 1457 1758
446 1453 2137
441 1435 2475
436 1411 2797
446 1412 3070
448 1408 3150
450 1405 3203
452 1406 3255
454 1407 3307
457 1412 3357
194 1617 175
211 1626 227
229 1633 280
250 1639 340
345 1695 601
448 1756 911
525 1797 1225
532 1790 1595
534 1790 1978
534 1783 2353
531 1768 2691
523 1740 2994
517 1718 3115
515 1707 3166
515 1703 3218
516 1700 3268
518 1702 3317
218 1907 182
235 1915 230
252 1922 279
271 1928 330
329 1958 483
435 2022 786
529 2073 1105
602 2111 1457
610 2108 1824
610 2102 2208
610 2095 2572
610 2088 2904
606 2072 3088
603 2059 3145
600 2051 3196
597 2041 3246
596 2037 3294
236 2210 169
252 2217 214
270 2223 259
288 2228 306
318 2239 378
422 2292 656
520 2348 976
614 2402 1335
690 2440 1689
702 2436 2058
698 2424 2436
700 2422 2790
700 2417 3045
698 2407 3122
697 2402 3176
696 2397 3228
696 2398 3278
247 2503 149
264 2511 190
281 2518 231
299 2524 274
320 2530 319
402 2570 516
507 2626 841
604 2680 1200
698 2731 1562
780 2773 1923
799 2775 2293
795 2763 2663
792 2753 2975
789 2743 3091
787 2737 3144
786 2733 3197
787 2733 3248
243 2769 123
259 2776 161
276 2782 199
292 2787 237
310 2792 276
353 2811 364
469 2872 674
575 2933 1040
678 2995 1416
780 3054 1792
867 3099 2155
891 3106 2519
885 3091 2867
881 3076 3040
878 3068 3094
876 3062 3148
876 3061 3197
229 3018 100
247 3026 136
263 3033 171
280 3039 207
298 3044 244
314 3048 280
416 3099 511
535 3162 868
643 3223 1249
750 3288 1629
855 3348 2009
946 3397 2370
979 3414 2727
974 3401 2981
972 3392 3041
970 3385 3093
969 3383 3144
212 3179 85
231 3190 120
248 3200 155
265 3210 189
283 3219 224
300 3227 258
353 3256 366
482 3327 704
598 3392 1082
710 3460 1468
821 3533 1851
925 3594 2226
1020 3650 2587
1060 3671 2908
1058 3666 3000
1058 3664 3053
1058 3663 3106
206 3227 81
224 3238 116
243 3249 150
260 3260 184
278 3270 219
295 3280 253
328 3299 317
446 3365 605
568 3436 981
681 3503 1365
795 3581 1752
904 3651 2131
1005 3713 2499
1085 3764 2836
1090 3765 2986
1090 3763 3040
1090 3762 3094
199 3272 78
218 3283 112
236 3294 146
254 3305 181
272 3316 214
290 3327 248
315 3342 296
419 3400 536
547 3474 912
661 3541 1295
777 3616 1683
889 3690 2067
994 3754 2439
1083 3810 2785
1109 3824 2978
1109 3823 3033
1109 3822 3087
192 3316 75
211 3328 109
229 3339 143
248 3350 177
266 3360 211
284 3371 244
308 3386 290
412 3445 523
543 3520 898
658 3587 1283
773 3661 1667
888 3738 2054
994 3802 2426
1088 3860 2777
1126 3882 2969
1127 3881 3024
1128 3881 3079
904 148 164
890 145 231
797 101 479
737 60 786
705 59 1141
676 61 1517
652 64 1898
641 69 2255
648 75 2604
664 83 2960
679 88 3235
676 89 3318
673 90 3379
675 91 3439
679 92 3499
685 94 3559
696 95 3617
861 183 158
861 183 200
752 143 431
684 102 748
652 101 1106
622 103 1489
598 106 1871
590 110 2229
597 117 2575
613 125 2931
630 134 3234
627 139 3325
624 143 3386
627 147 3446
631 150 3506
636 155 3565
