滤镜资源/Professional Luts Collection/Triune-Digital-Cinematic-LUTs/3D LUTs (3DL)/LOG/The Walking Dead - LOG.3dl
# Created by Benjamin (IWLTBAP) : http://luts.iwltbap.com
# Copyright: (C) Copyright 2016 Triune Films and IWLTBAP
# Blockbuster LUTs Pack
0 128 256 384 512 640 768 896 1023
46 51 72
47 53 530
48 53 1207
57 60 1926
69 70 2615
79 81 3218
82 83 3355
87 87 3482
93 90 3605
56 338 77
101 335 407
95 315 1099
95 296 1833
106 297 2521
120 303 3167
118 282 3332
123 283 3456
131 289 3574
58 821 90
107 835 255
224 873 947
221 855 1707
217 824 2361
236 840 2996
242 838 3222
246 837 3332
251 841 3441
103 1336 147
140 1352 261
297 1439 728
381 1476 1367
381 1466 2136
371 1424 2799
382 1418 3142
385 1416 3246
391 1423 3349
157 1915 178
190 1930 273
270 1967 490
463 2080 1105
543 2114 1824
543 2103 2571
541 2084 3078
535 2063 3185
531 2050 3284
189 2514 144
221 2528 225
259 2540 312
448 2639 844
636 2744 1567
734 2787 2295
726 2762 2971
722 2748 3133
721 2744 3237
172 3023 84
204 3039 154
237 3051 225
354 3109 498
574 3234 1239
779 3359 2000
905 3428 2723
899 3406 3024
896 3398 3128
154 3217 67
187 3238 134
221 3259 200
270 3290 301
499 3429 960
715 3578 1737
910 3710 2484
986 3760 2955
986 3758 3063
143 3310 61
178 3331 128
212 3351 193
253 3378 276
476 3514 877
693 3656 1649
903 3799 2412
1020 3875 2937
1023 3875 3047
512 96 111
403 54 471
357 56 1169
338 62 1910
352 72 2602
371 84 3226
362 86 3367
366 89 3489
380 91 3607
273 307 77
276 308 359
249 293 1079
239 276 1836
243 276 2526
256 282 3196
246 264 3369
250 264 3493
261 267 3615
128 803 88
172 815 235
293 854 925
285 835 1695
283 806 2349
302 825 2992
310 823 3236
314 821 3346
319 825 3455
164 1324 147
202 1341 262
358 1425 716
446 1463 1366
446 1453 2137
436 1411 2797
448 1408 3150
452 1406 3255
457 1412 3357
218 1907 182
252 1922 279
329 1958 483
529 2073 1105
610 2108 1824
610 2095 2572
606 2072 3088
600 2051 3196
596 2037 3294
247 2503 149
281 2518 231
320 2530 319
507 2626 841
698 2731 1562
799 2775 2293
792 2753 2975
787 2737 3144
787 2733 3248
229 3018 100
263 3033 171
298 3044 244
416 3099 511
643 3223 1249
855 3348 2009
979 3414 2727
972 3392 3041
969 3383 3144
206 3227 81
243 3249 150
278 3270 219
328 3299 317
568 3436 981
795 3581 1752
1005 3713 2499
1090 3765 2986
1090 3762 3094
192 3316 75
229 3339 143
266 3360 211
308 3386 290
543 3520 898
773 3661 1667
994 3802 2426
1126 3882 2969
1128 3881 3079
1225 194 214
1220 176 510
1112 68 1138
1043 71 1874
1030 81 2579
1059 92 3227
1053 95 3376
1060 98 3493
1073 102 3607
1152 368 197
1201 365 375
962 264 1057
886 245 1813
862 245 2532
891 257 3216
898 237 3405
908 243 3523
926 250 3636
738 770 94
742 777 202
767 851 893
706 850 1674
687 823 2387
701 822 3067
707 815 3353
710 811 3467
721 815 3577
394 1305 138
418 1325 255
568 1405 686
672 1454 1373
656 1435 2147
652 1400 2806
663 1395 3196
658 1389 3302
661 1393 3404
323 1884 185
357 1900 285
421 1930 462
623 2049 1089
699 2082 1811
687 2066 2562
673 2037 3098
662 2012 3209
658 2002 3306
306 2476 158
341 2490 242
382 2503 332
564 2594 826
759 2701 1547
862 2746 2280
853 2726 2973
849 2710 3157
847 2705 3259
288 3000 115
323 3014 188
359 3026 262
472 3075 510
710 3199 1250
931 3324 2009
1064 3387 2731
1057 3364 3071
1055 3357 3173
258 3235 95
297 3257 166
334 3279 236
382 3305 328
632 3439 987
869 3581 1754
1093 3713 2501
1190 3768 3014
1190 3765 3122
242 3324 88
281 3346 158
320 3368 228
360 3392 299
603 3523 906
847 3663 1676
1080 3803 2431
1230 3888 2999
1230 3885 3108
2125 333 357
2112 328 605
2076 226 1234
1967 109 1912
1874 100 2581
1836 134 3208
1821 140 3371
1815 146 3485
1818 152 3597
1981 480 321
1996 485 473
1936 405 1131
1834 262 1817
1742 243 2500
1710 274 3156
1701 283 3375
1699 290 3489
1705 296 3599
1719 865 244
1726 868 327
1885 925 889
1531 854 1697
1412 809 2415
1412 811 3104
1424 801 3420
1426 792 3529
1436 791 3631
1330 1305 179
1340 1320 298
1368 1366 653
1380 1485 1485
1262 1500 2238
1249 1471 2921
1253 1437 3364
1252 1429 3472
1262 1431 3574
780 1868 213
764 1890 319
778 1915 465
1021 2038 1120
1145 2086 1866
1132 2067 2630
1147 2054 3199
1147 2040 3321
1161 2043 3422
561 2439 192
600 2458 281
641 2473 375
840 2558 847
1080 2680 1596
1199 2733 2334
1177 2711 3035
1156 2689 3239
1150 2681 3336
431 2975 150
469 2993 228
504 3005 305
600 3043 520
855 3164 1263
1086 3289 2022
1214 3348 2741
1195 3323 3117
1192 3316 3219
319 3243 111
360 3267 184
397 3288 256
434 3309 331
686 3438 969
937 3579 1739
1173 3711 2487
1290 3773 3043
1290 3769 3152
291 3331 101
333 3354 173
374 3377 245
414 3399 316
654 3523 889
914 3663 1664
1158 3802 2418
1331 3893 3021
1331 3889 3138
2943 493 476
2953 502 687
2878 435 1298
2873 268 1951
2757 188 2618
2691 172 3257
2661 178 3444
2646 182 3549
2641 187 3654
2827 583 449
2837 590 556
2790 561 1198
2776 411 1860
2657 324 2538
2581 311 3197
2551 321 3442
2538 326 3549
2534 332 3654
2561 938 369
2573 946 467
2633 1007 968
2567 932 1706
2453 789 2425
2344 775 3093
2321 765 3443
2315 756 3552
2318 755 3658
2294 1371 292
2311 1388 407
2347 1427 686
2488 1530 1480
2183 1483 2327
2052 1434 2997
2028 1396 3459
2022 1384 3566
2028 1382 3667
1954 1875 251
1965 1892 363
1967 1902 481
2057 2002 1227
2086 2129 2110
1939 2151 2839
1920 2130 3440
1903 2106 3573
1900 2098 3670
1523 2424 223
1522 2440 330
1506 2451 439
1455 2531 954
1599 2664 1715
1748 2727 2421
1718 2700 3137
1715 2686 3388
1717 2682 3489
962 2953 175
948 2972 272
931 2985 372
948 3010 572
1270 3140 1364
1571 3262 2124
1763 3328 2849
1738 3295 3277
1733 3286 3379
793 3268 121
798 3297 217
805 3322 318
805 3343 424
1047 3468 1105
1349 3608 1868
1604 3734 2585
1756 3803 3176
1749 3798 3286
730 3349 96
741 3380 192
753 3408 293
761 3433 399
967 3548 1012
1285 3694 1793
1541 3828 2514
1736 3917 3129
1739 3917 3259
3663 617 585
3687 631 756
3617 559 1357
3559 450 1960
3558 267 2636
3454 202 3272
3415 183 3487
3399 179 3591
3392 178 3698
3573 709 558
3595 723 706
3562 690 1268
3492 603 1881
3497 416 2557
3391 358 3216
3346 338 3491
3332 336 3599
3328 337 3707
3343 1012 486
3361 1026 610
3413 1068 1040
3373 1012 1734
3388 833 2431
3272 751 3120
3228 710 3512
3216 698 3623
3214 696 3732
3051 1406 413
3066 1421 526
3091 1443 735
3193 1548 1498
3157 1474 2271
3079 1378 2979
3027 1357 3509
3016 1344 3624
3015 1341 3730
2833 1904 360
2849 1923 468
2859 1935 579
2946 2034 1240
3049 2156 2140
2934 2083 2914
2826 2037 3535
2785 1998 3677
2769 1979 3770
2524 2408 249
2542 2429 355
2552 2443 463
2593 2498 864
2691 2621 1794
2766 2758 2744
2663 2743 3461
2622 2711 3742
2608 2698 3847
2163 2916 124
2183 2938 225
2196 2955 330
2206 2977 504
2268 3089 1417
2360 3227 2385
2527 3320 3082
2434 3283 3523
2409 3267 3624
1796 3241 85
1821 3267 176
1837 3295 274
1840 3321 377
1881 3437 1056
2045 3592 2064
2320 3729 2804
2419 3813 3381
2400 3804 3496
1693 3337 76
1724 3362 161
1746 3389 256
1755 3417 359
1793 3523 947
1964 3682 1978
2259 3822 2736
2415 3925 3342
2406 3936 3474
3812 646 628
3836 657 780
3807 591 1327
3762 492 1926
3812 287 2591
3732 209 3249
3708 185 3517
3699 176 3618
3691 167 3716
3790 748 612
3814 761 759
3817 733 1251
3771 644 1857
3821 444 2517
3745 367 3197
3716 337 3525
3707 327 3625
3699 323 3724
3716 1019 563
3738 1029 688
3794 1056 1051
3790 995 1731
3815 810 2387
3772 684 3095
3731 624 3542
3721 598 3640
3712 584 3737
3605 1425 508
3626 1439 621
3651 1452 776
3750 1527 1487
3737 1454 2221
3784 1285 2980
3728 1237 3557
3717 1215 3676
3709 1205 3777
3457 1880 450
3476 1894 555
3492 1901 660
3566 1966 1160
3681 2079 2042
3670 1981 2810
3605 1911 3481
3578 1888 3669
3571 1884 3779
3293 2418 370
3311 2435 466
3325 2446 565
3367 2489 844
3486 2625 1787
3591 2763 2750
3548 2681 3470
3503 2653 3814
3492 2644 3925
2982 2880 172
3003 2899 264
3021 2916 361
3037 2934 486
3143 3058 1337
3255 3195 2374
3356 3330 3326
3302 3317 3865
3288 3301 3978
2675 3278 71
2699 3302 154
2717 3324 242
2728 3346 338
2801 3439 901
2910 3595 1972
3012 3746 2990
3150 3853 3682
3139 3844 3817
2589 3375 66
2615 3399 147
2635 3422 234
2645 3446 327
2702 3530 803
2801 3687 1878
2900 3837 2883
3079 3968 3598
3104 3985 3766
3881 657 649
3905 666 799
3883 600 1312
3847 502 1906
3911 299 2570
3854 215 3233
3829 186 3530
3819 177 3632
3810 167 3730
3860 759 632
3884 771 778
3890 743 1235
3856 652 1838
3914 459 2495
3865 368 3175
3834 334 3538
3826 326 3638
3818 319 3736
3797 1000 581
3819 1011 710
3869 1031 1035
3871 962 1711
3899 781 2362
3883 633 3068
3845 568 3550
3836 546 3649
3829 538 3745
3694 1405 525
3714 1417 639
3736 1424 766
3836 1495 1463
3839 1421 2190
3906 1234 2952
3866 1176 3560
3859 1153 3688
3855 1145 3788
3597 1856 472
3617 1868 578
3637 1876 686
3706 1929 1129
3820 2016 1977
3847 1926 2761
3831 1842 3462
3815 1823 3684
3808 1816 3788
3533 2383 401
3554 2399 497
3574 2410 597
3614 2438 812
3745 2559 1681
3888 2701 2682
3896 2591 3416
3846 2523 3763
3834 2513 3868
3457 2882 332
3479 2900 422
3500 2914 513
3521 2922 608
3634 3032 1317
3786 3180 2350
3919 3316 3313
3916 3254 3875
3914 3243 3985
3373 3285 114
3392 3305 195
3410 3324 281
3426 3342 370
3497 3425 845
3633 3581 1927
3756 3721 2940
3869 3851 3857
3863 3851 4024
3312 3386 64
3326 3410 144
3341 3434 229
3356 3458 322
3408 3533 711
3536 3695 1775
3652 3843 2795
3774 3996 3757
3794 4034 3987
3946 666 665
3970 674 815
3952 605 1308
3924 510 1904
3998 306 2567
3958 225 3232
3933 191 3549
3925 180 3650
3917 170 3746
3926 769 648
3949 780 793
3959 750 1233
3932 657 1836
3999 465 2494
3967 376 3174
3938 338 3555
3930 329 3654
3923 321 3751
3867 997 594
3890 1008 724
3938 1024 1035
3944 950 1711
3977 773 2362
3979 619 3066
3945 550 3563
3937 531 3662
3931 522 3759
3769 1404 537
3790 1416 652
3811 1422 774
3910 1489 1464
3918 1411 2186
3998 1219 2949
3970 1160 3569
3964 1137 3700
3960 1129 3798
3680 1854 483
3700 1866 590
3720 1872 697
3786 1921 1126
3898 2003 1966
3935 1908 2753
3935 1821 3461
3920 1805 3695
3914 1799 3798
3622 2374 411
3642 2389 508
3662 2401 607
3699 2426 810
3824 2542 1648
3970 2679 2657
3986 2558 3394
3944 2493 3754
3935 2485 3860
3559 2878 348
3580 2895 436
3600 2909 527
3621 2917 621
3725 3017 1284
3881 3168 2329
4012 3310 3309
4024 3243 3878
4022 3229 3986
3495 3287 166
3516 3306 247
3537 3324 334
3558 3340 424
3631 3415 851
3779 3570 1935
3913 3712 2947
4038 3842 3848
4039 3833 4024
3478 3396 105
3497 3419 182
3516 3442 264
3538 3466 356
3597 3532 708
3737 3696 1772
3872 3843 2800
4012 3998 3740
4055 4041 4043
