滤镜资源/Professional Luts Collection/Triune-Digital-Cinematic-LUTs/3D LUTs (3DL)/LOG/The Ring - LOG.3dl
# Created by Benjamin (IWLTBAP) : http://luts.iwltbap.com
# Copyright: (C) Copyright 2016 Triune Films and IWLTBAP
# Blockbuster LUTs Pack
0 128 256 384 512 640 768 896 1023
0 0 0
0 2 125
0 56 467
0 228 962
0 465 1562
0 692 2112
0 745 2244
0 802 2366
0 849 2488
0 111 0
0 132 127
0 199 490
0 335 959
0 539 1527
0 767 2132
0 817 2276
0 868 2399
0 917 2525
0 460 36
0 468 109
0 558 524
0 662 1019
0 815 1584
0 1015 2203
0 1095 2438
0 1127 2548
0 1170 2666
0 952 152
0 956 218
0 1012 524
0 1130 1070
0 1258 1664
0 1426 2314
0 1527 2676
0 1555 2792
0 1585 2911
0 1535 339
0 1534 400
0 1552 540
0 1674 1082
0 1816 1722
0 1970 2406
0 2094 2951
0 2119 3068
0 2149 3188
0 2206 564
0 2201 609
0 2202 665
0 2287 1087
0 2437 1737
0 2601 2463
0 2762 3177
0 2802 3369
0 2819 3488
0 2953 816
0 2948 857
0 2935 901
0 2968 1121
0 3124 1750
0 3299 2499
0 3485 3304
0 3551 3654
0 3587 3793
0 3275 921
0 3275 963
0 3285 1012
0 3306 1110
0 3458 1683
0 3663 2418
0 3897 3255
0 4032 3837
0 4055 3960
0 3455 980
0 3455 1032
0 3465 1073
0 3480 1150
0 3618 1672
0 3826 2418
0 4041 3238
0 4095 3884
0 4095 4030
105 0 0
135 0 136
101 58 496
81 220 981
76 455 1562
71 690 2126
65 743 2261
63 791 2381
61 849 2513
75 102 3
80 114 113
63 176 474
58 312 946
53 513 1508
47 751 2125
42 806 2283
40 850 2402
39 906 2523
31 438 33
31 448 89
30 534 500
28 641 999
28 793 1557
28 992 2177
28 1071 2431
28 1116 2554
28 1154 2668
28 925 145
28 940 212
28 993 507
28 1108 1050
28 1235 1640
28 1405 2290
28 1510 2674
28 1532 2781
28 1572 2906
28 1510 332
28 1513 388
28 1530 519
28 1648 1062
28 1795 1699
28 1949 2383
28 2076 2937
28 2111 3071
28 2135 3190
28 2173 553
28 2174 597
28 2174 653
28 2263 1067
28 2412 1715
28 2581 2443
28 2740 3162
28 2780 3357
28 2802 3487
28 2918 800
28 2924 848
28 2920 893
28 2945 1107
28 3095 1725
28 3274 2477
28 3456 3273
28 3527 3642
28 3557 3777
28 3275 921
28 3295 971
28 3288 1013
28 3307 1106
28 3461 1668
28 3662 2407
28 3876 3227
28 4022 3827
28 4055 3970
28 3455 980
28 3455 1020
28 3465 1071
28 3479 1143
28 3613 1653
28 3819 2395
28 4035 3216
28 4095 3884
28 4095 4030
406 10 10
500 23 168
563 65 579
530 225 1072
258 451 1645
203 692 2228
198 754 2368
195 803 2486
194 853 2612
364 102 11
415 112 114
479 165 519
430 296 1007
194 490 1569
182 732 2185
177 796 2360
175 844 2478
174 896 2603
249 419 41
255 430 98
274 506 488
194 611 994
154 754 1553
149 957 2180
144 1052 2456
141 1091 2570
140 1134 2695
127 888 144
125 898 205
122 950 470
117 1065 1013
113 1194 1605
108 1357 2250
102 1472 2666
99 1501 2782
98 1539 2900
79 1476 326
78 1479 379
75 1484 489
72 1604 1019
68 1741 1647
64 1892 2332
60 2037 2918
59 2061 3043
58 2093 3172
57 2135 541
57 2132 590
57 2130 643
57 2213 1027
57 2367 1678
57 2532 2400
57 2695 3134
57 2734 3340
57 2766 3470
57 2883 787
57 2883 834
57 2888 888
57 2900 1069
57 3050 1692
57 3229 2434
57 3409 3231
57 3492 3631
57 3526 3769
57 3275 921
57 3295 973
57 3307 1024
57 3304 1101
57 3455 1642
57 3652 2371
57 3881 3202
57 4021 3826
57 4064 3971
57 3455 980
57 3455 1030
57 3465 1081
57 3477 1135
57 3605 1633
57 3810 2364
57 4030 3193
57 4095 3893
57 4095 4030
868 58 33
952 70 191
1086 122 654
1162 257 1182
1141 463 1767
975 705 2380
846 777 2541
728 825 2660
614 874 2780
808 121 31
856 133 126
994 183 579
1072 297 1099
1050 482 1675
833 725 2311
642 818 2530
527 867 2650
428 915 2760
745 430 62
761 437 129
841 496 499
910 593 1032
872 734 1614
575 933 2252
348 1039 2569
298 1077 2687
285 1116 2800
540 880 163
542 880 225
565 923 453
588 1031 1003
470 1159 1605
268 1321 2258
252 1443 2717
249 1471 2830
248 1508 2953
231 1440 327
230 1438 383
227 1444 462
223 1557 983
219 1693 1617
214 1845 2302
209 1994 2925
206 2021 3067
204 2050 3184
184 2090 534
182 2092 582
180 2093 637
176 2157 982
171 2305 1624
166 2468 2345
161 2636 3092
157 2686 3333
156 2712 3460
129 2826 776
128 2826 818
125 2824 868
121 2844 1022
117 2980 1629
112 3157 2369
107 3341 3170
104 3437 3614
103 3467 3748
91 3275 921
90 3288 973
89 3292 1025
87 3309 1090
85 3434 1591
85 3639 2324
85 3865 3152
85 4021 3826
85 4059 3971
85 3455 980
85 3464 1032
85 3465 1083
85 3477 1143
85 3594 1584
85 3798 2315
85 4015 3138
85 4095 3880
85 4095 4030
1407 160 93
1464 176 226
1650 233 718
1789 335 1283
1869 506 1902
1866 735 2547
1830 813 2751
1807 859 2872
1782 907 2988
1342 196 86
1370 206 161
1550 261 634
1694 363 1198
1775 524 1809
1771 754 2471
1719 846 2723
1694 897 2848
1673 948 2971
1268 464 115
1286 470 188
1399 522 530
1539 606 1093
1612 733 1702
1602 916 2359
1537 1034 2735
1491 1076 2855
1453 1118 2976
1168 888 209
1179 890 267
1213 917 454
1331 1019 1016
1396 1140 1640
1361 1291 2310
1225 1432 2833
1148 1455 2944
1071 1493 3066
904 1419 351
907 1422 408
906 1422 469
961 1527 966
978 1660 1609
849 1807 2306
507 1958 2967
441 1987 3119
390 2018 3246
341 2054 541
340 2057 590
337 2058 644
334 2112 949
330 2260 1592
325 2417 2316
320 2584 3071
317 2639 3352
315 2670 3487
293 2784 775
292 2779 814
289 2776 866
286 2790 988
282 2925 1587
277 3099 2323
272 3279 3122
268 3385 3624
267 3414 3754
246 3297 937
244 3298 981
242 3302 1032
238 3321 1096
233 3442 1551
228 3636 2281
222 3856 3100
216 4026 3844
215 4066 3985
231 3465 993
229 3473 1039
227 3479 1089
223 3490 1149
218 3588 1546
213 3788 2265
207 4011 3085
201 4095 3874
199 4095 4043
2001 297 204
2025 309 280
2232 365 766
2437 453 1367
2582 587 2021
2669 793 2717
2664 877 2959
2662 926 3087
2658 968 3215
1936 335 192
1971 345 265
2144 395 686
2344 474 1285
2493 610 1932
2579 810 2626
2581 920 2950
2574 958 3064
2568 1010 3194
1859 533 209
1878 539 275
1985 569 563
2184 650 1157
2334 762 1804
2421 930 2495
2423 1058 2932
2410 1092 3054
2402 1133 3177
1774 916 279
1786 922 339
1822 936 476
1996 1034 1050
2136 1144 1704
2213 1285 2396
2210 1430 2978
2191 1460 3110
2176 1494 3228
1643 1431 402
1650 1432 458
1650 1428 515
1747 1518 968
1869 1642 1626
1928 1785 2342
1901 1942 3051
1865 1975 3233
1838 2010 3360
1317 2037 572
1319 2044 624
1317 2040 679
1345 2082 929
1417 2222 1580
1433 2375 2308
1302 2546 3087
1146 2609 3422
1071 2635 3551
474 2743 788
478 2751 836
468 2748 888
466 2747 977
452 2874 1548
441 3048 2290
436 3226 3100
432 3344 3658
431 3372 3789
410 3333 977
408 3323 1013
406 3335 1065
402 3352 1127
398 3440 1520
393 3641 2250
388 3859 3074
383 4051 3875
382 4062 4027
396 3495 1024
394 3498 1072
392 3506 1122
388 3514 1176
384 3602 1518
379 3795 2232
374 4013 3054
369 4095 3879
367 4095 4084
2189 345 241
2215 357 316
2406 404 743
2641 490 1355
2834 622 2025
2963 814 2730
3001 916 3043
3023 962 3186
3037 1009 3309
2192 388 241
2215 397 313
2381 444 674
2626 530 1284
2814 652 1953
2960 845 2671
3011 967 3062
3025 1005 3187
3037 1052 3318
2204 566 266
2234 569 336
2336 594 562
2579 672 1169
2788 780 1842
2938 935 2557
3002 1067 3064
3024 1106 3196
3031 1149 3330
2269 950 345
2287 954 412
2312 958 501
2526 1049 1063
2738 1154 1743
2888 1290 2463
2973 1445 3126
2982 1474 3271
2991 1504 3396
2284 1453 471
2289 1449 521
2305 1451 585
2418 1520 981
2606 1643 1653
2752 1780 2394
2833 1942 3150
2837 1978 3373
2844 2014 3509
2155 2045 631
2163 2046 682
2161 2045 734
2193 2068 930
2332 2205 1582
2453 2360 2331
2515 2525 3127
2500 2597 3526
2496 2633 3659
1779 2736 832
1779 2731 872
1777 2733 921
1773 2728 992
1845 2842 1534
1918 3013 2282
1932 3187 3096
1866 3315 3720
1837 3342 3856
717 3372 1020
719 3369 1065
711 3378 1116
695 3385 1173
685 3465 1509
672 3645 2226
644 3852 3055
574 4034 3900
550 4042 4074
562 3535 1067
579 3541 1116
575 3551 1167
570 3561 1225
563 3624 1501
553 3815 2210
541 4033 3037
536 4095 3900
534 4095 4095
2301 370 264
2336 382 338
2520 432 733
2757 518 1348
2969 643 2026
3110 822 2739
3167 938 3098
3169 975 3221
3192 1022 3354
2311 420 264
2336 422 328
2484 468 665
2739 555 1275
2947 670 1951
3099 852 2673
3160 980 3101
3179 1025 3232
3192 1072 3356
2328 571 288
2353 572 355
2434 593 550
2692 668 1155
2907 769 1829
3071 922 2549
3161 1069 3110
3177 1106 3242
3192 1144 3371
2386 945 359
2402 942 419
2430 941 493
2641 1021 1040
2862 1131 1717
3042 1263 2450
3147 1420 3140
3168 1456 3313
3177 1487 3433
2446 1423 482
2461 1437 536
2481 1436 601
2595 1490 952
2803 1605 1626
2987 1743 2372
3111 1901 3149
3144 1954 3424
3151 1985 3557
2480 2029 650
2490 2026 698
2506 2029 759
2542 2044 914
2719 2177 1562
2897 2330 2318
3025 2487 3122
3075 2577 3589
3081 2603 3724
2427 2717 858
2432 2714 907
2450 2713 956
2461 2705 1012
2573 2812 1517
2726 2974 2265
2852 3146 3089
2927 3304 3808
2918 3315 3932
2237 3432 1087
2244 3439 1126
2241 3431 1174
2244 3434 1231
2270 3477 1507
2372 3657 2215
2463 3868 3062
2483 4008 3939
2506 4034 4094
2075 3595 1133
2074 3606 1184
2074 3607 1228
2070 3622 1286
2071 3667 1502
2144 3853 2198
2199 4062 3036
2178 4095 3923
2282 4095 4081
2423 405 287
2458 417 351
2626 462 729
2882 539 1356
3092 664 2032
3249 840 2757
3314 952 3133
3326 998 3256
3337 1045 3390
2423 445 287
2458 457 351
2598 497 670
2855 576 1282
3071 694 1962
3235 866 2694
3314 1001 3144
3326 1038 3268
3337 1085 3401
2450 588 304
2470 593 374
2548 613 557
2808 686 1162
3034 784 1841
3210 930 2568
3311 1086 3152
3326 1122 3283
3337 1159 3406
2500 956 376
2519 951 439
2545 952 512
2760 1028 1041
2992 1137 1729
3179 1267 2466
3298 1424 3170
3323 1461 3348
3337 1489 3468
2564 1429 494
2585 1439 554
2599 1438 613
2716 1491 957
2937 1610 1631
3127 1749 2389
3264 1901 3163
3299 1948 3444
3311 1977 3585
2606 2033 663
2617 2030 713
2629 2026 770
2671 2038 916
2854 2171 1557
3041 2319 2313
3184 2483 3127
3242 2579 3615
3255 2605 3748
2576 2709 863
2582 2714 913
2592 2715 964
2606 2696 1020
2720 2802 1510
2886 2965 2263
3027 3134 3086
3106 3275 3805
3116 3307 3950
2435 3419 1083
2437 3436 1134
2450 3420 1183
2454 3421 1241
2501 3473 1501
2628 3652 2216
2752 3854 3053
2836 3991 3926
2888 4025 4094
2357 3612 1150
2369 3623 1201
2371 3625 1243
2379 3642 1301
2410 3683 1510
2517 3863 2196
2623 4074 3032
2693 4095 3928
2854 4095 4069
