滤镜资源/Professional Luts Collection/Triune-Digital-Cinematic-LUTs/3D LUTs (3DL)/LOG/The Conjuring - LOG.3dl
# Created by Benjamin (IWLTBAP) : http://luts.iwltbap.com
# Copyright: (C) Copyright 2016 Triune Films and IWLTBAP
# Blockbuster LUTs Pack
0 64 128 192 256 320 384 448 512 576 640 704 768 832 896 960 1023
28 33 42
28 30 89
28 31 183
29 35 299
32 45 428
38 68 574
56 104 738
79 147 910
101 191 1085
125 237 1264
141 271 1386
146 282 1424
151 292 1457
155 301 1490
160 309 1521
164 318 1552
167 325 1583
35 82 53
34 81 97
33 77 193
34 78 307
38 87 437
46 108 581
62 140 743
83 177 910
106 220 1084
129 267 1265
148 306 1405
153 318 1446
158 328 1479
163 337 1511
167 346 1543
171 354 1574
175 362 1605
46 199 77
46 197 105
46 194 224
47 188 345
53 198 478
66 221 627
84 251 785
104 289 952
125 327 1124
147 369 1303
167 406 1457
172 412 1502
175 415 1530
179 421 1561
183 426 1591
187 433 1621
191 441 1653
60 339 107
57 336 133
59 333 218
67 331 379
75 334 521
87 349 668
105 379 824
125 416 995
148 457 1173
170 500 1352
192 541 1519
199 552 1583
202 554 1611
205 560 1642
209 566 1671
212 571 1701
216 579 1733
90 485 134
81 483 162
73 481 204
84 480 372
97 482 547
108 490 699
124 512 858
146 548 1035
168 590 1212
191 633 1391
214 673 1568
225 692 1663
228 694 1690
231 699 1718
234 703 1747
238 709 1776
242 718 1808
132 639 156
123 636 185
112 632 211
98 636 346
114 641 543
129 646 725
144 657 894
164 686 1066
187 725 1241
211 767 1429
234 807 1611
251 834 1736
254 836 1764
259 841 1794
264 847 1824
269 854 1855
275 862 1888
191 807 181
177 800 209
163 793 235
135 788 304
126 803 519
147 807 727
165 817 917
184 835 1092
207 867 1276
230 905 1464
255 945 1644
279 978 1798
286 983 1840
291 988 1871
297 993 1901
302 999 1932
307 1006 1964
281 996 211
260 986 240
240 976 270
216 964 303
160 968 473
164 980 717
186 982 921
206 997 1117
229 1019 1307
253 1052 1495
281 1090 1678
312 1126 1855
324 1136 1923
328 1140 1954
333 1144 1985
338 1148 2016
344 1155 2048
399 1197 253
371 1186 281
346 1174 308
320 1161 335
248 1139 431
195 1158 676
207 1163 925
229 1166 1128
251 1180 1324
280 1207 1519
313 1241 1712
345 1276 1905
365 1295 2011
370 1297 2042
374 1301 2072
379 1305 2101
384 1312 2133
529 1409 297
497 1395 326
466 1382 354
439 1367 382
391 1343 428
274 1334 620
240 1353 903
257 1349 1137
283 1353 1339
312 1372 1538
343 1399 1738
379 1432 1939
403 1456 2079
410 1460 2119
414 1463 2149
419 1466 2180
424 1472 2210
642 1634 364
613 1616 386
583 1598 407
551 1579 432
523 1560 456
412 1518 583
310 1538 845
291 1545 1130
317 1540 1353
344 1545 1552
375 1565 1755
412 1595 1960
441 1620 2133
451 1626 2194
455 1629 2225
460 1632 2255
465 1637 2287
781 1875 444
744 1857 469
710 1837 490
679 1816 507
648 1793 524
587 1751 584
432 1719 784
356 1746 1089
351 1739 1357
385 1735 1569
414 1743 1770
447 1764 1975
479 1790 2175
494 1801 2270
499 1803 2302
504 1805 2334
510 1812 2369
947 2146 532
908 2125 558
869 2104 583
831 2083 607
796 2059 627
761 2034 643
620 1941 766
473 1944 1017
416 1962 1340
427 1945 1582
458 1937 1786
489 1949 1994
520 1970 2205
542 1986 2350
548 1989 2387
553 1992 2420
559 1998 2455
1061 2324 591
1022 2307 618
984 2288 644
947 2268 671
910 2249 696
874 2229 718
787 2162 778
611 2086 951
496 2125 1265
467 2125 1569
489 2106 1784
522 2109 1994
553 2129 2212
585 2157 2409
592 2163 2462
598 2167 2497
603 2172 2532
1107 2392 615
1068 2375 640
1031 2357 667
992 2337 694
957 2318 719
922 2300 743
857 2258 783
691 2149 918
543 2170 1192
491 2195 1530
497 2170 1761
528 2166 1967
562 2186 2189
599 2221 2410
612 2233 2494
616 2238 2527
621 2243 2563
1152 2460 641
1115 2444 666
1078 2427 691
1039 2407 717
1002 2388 743
968 2369 766
914 2340 803
760 2220 908
588 2208 1141
516 2249 1494
507 2226 1749
535 2213 1951
568 2228 2173
605 2259 2396
624 2280 2514
629 2284 2548
634 2290 2584
1197 2528 667
1161 2513 692
1125 2497 717
1087 2478 742
1050 2459 767
1014 2439 791
962 2411 827
804 2288 931
621 2256 1146
540 2304 1500
522 2280 1764
547 2264 1966
579 2274 2187
617 2307 2414
637 2329 2536
642 2333 2571
647 2338 2606
74 34 44
74 34 94
72 35 190
70 39 304
72 49 430
76 70 570
90 102 728
109 142 898
128 186 1072
146 229 1248
160 264 1375
164 274 1414
169 284 1447
173 293 1480
178 302 1512
182 311 1544
186 319 1575
68 81 53
67 80 97
64 77 191
63 78 306
65 86 435
69 106 579
84 139 742
105 181 912
128 225 1087
150 272 1267
170 312 1412
176 324 1453
180 334 1486
185 343 1519
189 352 1551
193 360 1582
197 368 1613
68 197 77
68 196 108
69 193 221
69 187 343
74 196 475
88 221 627
105 251 786
125 289 953
145 326 1124
168 369 1304
189 407 1461
194 414 1508
197 416 1536
201 423 1567
205 429 1597
208 435 1627
212 443 1659
84 338 108
83 337 137
82 333 217
88 331 377
97 334 519
109 350 667
126 380 825
146 417 996
169 459 1175
192 502 1354
213 542 1521
220 554 1588
223 556 1617
227 562 1647
230 567 1676
234 573 1706
238 581 1738
115 486 135
114 488 168
104 484 204
106 481 371
119 483 547
130 491 699
146 514 860
168 552 1038
190 593 1215
213 636 1395
235 675 1572
247 696 1669
250 697 1696
253 702 1725
256 707 1753
260 712 1783
265 721 1815
156 640 155
158 644 190
148 640 219
123 640 346
136 643 542
151 649 727
166 661 896
187 691 1069
209 729 1246
233 770 1433
256 810 1615
274 837 1742
278 840 1772
283 845 1801
288 851 1832
293 858 1863
299 867 1895
221 809 179
223 815 213
209 808 243
173 798 310
150 809 519
169 812 729
187 821 919
206 840 1095
229 871 1280
252 909 1467
279 949 1648
304 983 1805
312 989 1849
317 994 1880
322 999 1911
327 1004 1942
332 1012 1974
313 1000 210
313 1005 245
291 995 275
266 981 310
193 976 472
186 986 718
208 989 925
228 1001 1119
251 1023 1310
277 1057 1499
306 1095 1683
336 1131 1862
349 1143 1934
354 1146 1965
359 1150 1996
364 1155 2027
370 1162 2060
443 1203 248
433 1205 285
403 1194 314
374 1179 343
296 1152 434
225 1166 674
230 1170 928
251 1172 1130
275 1186 1328
305 1213 1523
337 1247 1717
370 1283 1911
390 1302 2019
396 1305 2051
400 1308 2081
404 1312 2111
409 1319 2142
573 1418 294
563 1416 330
531 1403 358
497 1386 387
447 1362 433
315 1340 617
270 1362 901
282 1357 1140
308 1360 1342
337 1379 1542
369 1406 1742
404 1440 1944
429 1463 2087
436 1468 2129
441 1471 2159
445 1475 2189
450 1481 2220
692 1645 366
681 1642 400
650 1624 420
619 1604 440
585 1584 465
467 1533 586
349 1544 837
319 1555 1131
342 1548 1357
369 1553 1557
402 1574 1761
438 1603 1965
467 1628 2140
477 1634 2203
482 1637 2234
486 1640 2265
491 1646 2296
834 1888 446
813 1883 484
776 1865 506
741 1842 524
712 1820 540
647 1776 592
484 1728 782
391 1756 1084
380 1750 1359
412 1745 1574
442 1753 1776
474 1773 1982
506 1799 2183
522 1810 2282
526 1812 2313
531 1815 2346
538 1822 2381
999 2158 535
975 2153 573
935 2131 598
895 2109 622
857 2085 643
821 2060 660
679 1962 772
519 1953 1014
450 1974 1341
455 1956 1586
485 1947 1791
516 1959 2001
548 1981 2213
570 1997 2364
576 2000 2400
581 2003 2434
588 2010 2468
1117 2343 598
1094 2342 637
1056 2325 664
1019 2306 690
981 2285 714
942 2263 736
849 2198 794
672 2110 959
540 2143 1264
501 2144 1573
518 2123 1792
550 2124 2002
582 2144 2222
616 2175 2425
623 2180 2479
628 2185 2513
634 2190 2549
1162 2410 622
1140 2410 661
1103 2394 687
1065 2375 713
1028 2356 739
993 2337 762
925 2298 804
756 2177 925
593 2185 1187
528 2215 1530
528 2190 1769
557 2182 1975
590 2202 2198
629 2237 2421
642 2251 2509
646 2255 2543
651 2260 2578
1208 2479 649
1186 2480 688
1150 2464 714
1113 2446 738
1076 2427 764
1041 2408 787
987 2379 822
829 2257 924
644 2224 1139
557 2268 1491
539 2247 1755
565 2232 1960
598 2246 2182
635 2277 2408
656 2299 2531
659 2303 2565
664 2308 2599
1256 2549 676
1234 2548 714
1198 2534 740
1161 2517 764
1124 2499 790
1088 2479 813
1037 2452 847
876 2329 949
680 2274 1145
582 2322 1495
555 2302 1771
578 2285 1977
610 2294 2198
648 2327 2427
669 2349 2553
673 2353 2587
677 2357 2622
169 44 50
174 46 100
175 48 209
167 53 324
162 63 446
163 83 579
174 111 728
189 145 889
205 183 1057
222 223 1228
233 253 1355
234 262 1394
234 270 1425
237 279 1457
239 287 1489
242 297 1522
246 306 1555
164 85 58
164 85 97
164 82 203
156 84 319
150 90 441
153 111 578
166 142 733
181 177 896
198 217 1066
216 259 1239
229 293 1382
230 304 1425
232 314 1459
235 323 1491
238 332 1524
241 342 1557
245 351 1589
155 203 79
154 202 110
153 201 225
148 196 348
147 203 482
157 228 635
171 260 797
187 297 962
203 332 1131
220 372 1308
237 409 1467
239 415 1516
238 417 1543
240 423 1573
243 429 1603
245 435 1634
248 443 1665
145 339 106
145 339 139
142 338 219
140 333 376
143 335 519
152 352 668
166 383 828
182 419 999
200 459 1175
218 500 1352
236 540 1520
243 552 1593
245 553 1620
248 559 1650
250 564 1679
254 569 1709
258 577 1740
142 482 133
143 483 168
140 484 206
130 478 364
141 480 541
151 486 693
167 512 857
189 549 1036
211 591 1213
234 634 1393
255 673 1570
268 694 1673
272 696 1700
275 701 1729
278 706 1758
282 711 1787
288 720 1819
179 636 153
182 641 189
183 643 224
151 641 341
157 642 538
172 647 723
188 660 894
208 691 1069
230 729 1245
255 770 1433
278 810 1615
298 839 1747
302 842 1778
306 847 1808
311 853 1838
317 859 1869
322 868 1902
248 807 177
250 813 211
252 818 247
217 807 312
175 812 516
191 813 726
209 822 918
228 841 1095
250 873 1281
275 910 1468
302 951 1650
328 985 1810
336 992 1857
341 997 1888
346 1002 1919
351 1007 1950
357 1015 1983
345 1001 207
345 1006 242
344 1010 279
317 998 314
231 982 469
209 991 716
230 992 926
249 1003 1119
273 1026 1310
301 1060 1500
330 1098 1685
361 1135 1867
374 1147 1943
379 1151 1974
385 1156 2006
390 1160 2037
396 1168 2070
487 1207 242
477 1209 280
466 1211 318
432 1197 348
348 1166 438
257 1172 670
253 1177 929
274 1176 1131
299 1190 1329
330 1217 1525
362 1251 1719
395 1288 1916
416 1308 2028
421 1311 2061
425 1314 2090
430 1318 2120
435 1325 2151
617 1423 289
609 1423 327
598 1421 360
562 1405 390
508 1382 434
360 1347 614
301 1369 897
306 1364 1142
332 1365 1344
362 1384 1546
394 1412 1746
430 1446 1948
454 1469 2093
461 1474 2136
466 1477 2167
471 1481 2197
476 1488 2229
742 1654 367
730 1653 402
720 1649 433
689 1629 452
655 1608 473
526 1551 591
390 1550 829
349 1563 1130
367 1555 1359
395 1560 1561
428 1580 1765
463 1609 1969
493 1635 2147
503 1641 2212
508 1644 2243
512 1647 2274
518 1653 2307
887 1900 447
866 1896 486
845 1890 522
809 1869 541
775 1846 558
714 1804 602
539 1740 783
430 1765 1077
411 1762 1361
440 1753 1578
469 1761 1782
501 1781 1988
533 1807 2190
549 1819 2293
553 1820 2324
559 1824 2357
565 1831 2392
1051 2169 538
1027 2165 575
1002 2158 613
963 2136 638
922 2110 658
882 2084 676
741 1986 781
565 1962 1011
485 1984 1337
484 1967 1589
512 1955 1795
543 1967 2005
575 1989 2219
599 2008 2376
605 2010 2413
610 2013 2446
616 2019 2481
1173 2361 604
1151 2362 644
1128 2361 683
1092 2344 710
1054 2323 734
1014 2300 755
917 2237 811
736 2134 965
586 2159 1260
537 2164 1576
548 2140 1799
579 2140 2010
612 2161 2232
647 2192 2440
654 2198 2496
659 2202 2530
665 2208 2566
1219 2430 629
1197 2431 669
1175 2430 707
1138 2414 734
1101 2395 759
1066 2376 782
998 2338 824
827 2212 937
647 2202 1183
567 2235 1528
560 2211 1776
587 2201 1983
620 2220 2206
660 2256 2432
673 2270 2526
677 2275 2560
682 2279 2595
1267 2500 656
1246 2501 696
1224 2501 735
1186 2484 760
1149 2466 786
1113 2447 809
1063 2420 841
902 2300 939
703 2242 1137
600 2287 1485
573 2269 1761
596 2252 1969
627 2263 2189
666 2296 2419
687 2319 2547
690 2322 2581
694 2327 2615
1316 2571 684
1293 2571 724
1271 2570 762
1235 2555 787
1199 2538 813
1163 2519 837
1115 2494 868
951 2376 965
744 2294 1145
627 2341 1487
591 2327 1777
610 2308 1988
641 2315 2207
679 2348 2439
701 2370 2571
705 2374 2605
709 2377 2639
307 69 66
314 69 109
322 73 222
299 76 342
289 91 468
283 110 601
286 135 747
294 166 903
304 199 1063
316 236 1229
327 266 1361
328 276 1403
328 283 1434
330 291 1465
333 299 1497
335 307 1528
339 316 1560
299 101 71
301 102 102
314 106 215
293 106 338
280 117 463
272 136 598
273 161 746
283 194 905
294 229 1067
310 269 1238
323 303 1385
324 314 1430
325 322 1462
327 330 1494
330 338 1525
333 347 1557
