滤镜资源/Professional Luts Collection/Triune-Digital-Cinematic-LUTs/3D LUTs (3DL)/LOG/The Matrix - LOG.3dl
# Created by Benjamin (IWLTBAP) : http://luts.iwltbap.com
# Copyright: (C) Copyright 2016 Triune Films and IWLTBAP
# Blockbuster LUTs Pack
0 256 512 768 1023
14 0 29
0 70 502
0 401 1255
0 690 1728
0 797 1893
183 739 225
112 742 698
0 984 1461
0 1237 2005
0 1308 2148
695 2291 622
691 2268 787
543 2276 1880
251 2412 2742
202 2443 2868
1307 3553 1147
1297 3535 1249
1297 3512 1911
928 3542 3235
477 3624 3598
1695 3863 1492
1699 3863 1614
1738 3863 2123
1661 3910 3255
1376 4023 3834
809 54 124
636 131 720
109 431 1555
104 726 1943
102 833 2086
598 698 180
573 673 661
338 941 1477
353 1220 2045
356 1294 2197
796 2232 556
796 2206 747
625 2212 1819
392 2362 2715
354 2393 2849
1368 3514 1094
1384 3493 1232
1381 3468 1868
1001 3495 3184
616 3589 3581
1783 3863 1463
1830 3863 1619
1863 3863 2103
1799 3909 3232
1513 4023 3834
2588 386 333
2364 492 871
2104 696 1933
1948 886 2704
1791 959 2908
2208 858 394
2354 757 666
1978 959 1792
1475 1179 2767
1254 1241 2968
1919 2197 478
1901 2175 608
1844 2146 1751
1418 2370 2810
1255 2437 3073
1925 3456 913
1902 3441 1031
1948 3392 1834
1508 3418 3094
1124 3537 3614
2244 3878 1424
2230 3878 1561
2284 3867 2045
2248 3905 3182
1957 4023 3849
3600 656 526
3586 700 958
3129 1048 2007
3222 1155 2908
3238 1182 3158
3627 990 538
3627 980 803
3287 1246 1891
3285 1362 2967
3280 1388 3209
3374 2237 953
3402 2205 1032
3718 2047 1688
3456 2222 3087
3315 2268 3506
3308 3401 1008
3295 3390 1101
3277 3355 1651
3162 3343 3059
2973 3424 3773
3471 3915 1590
3460 3912 1731
3435 3912 2068
3423 3950 3079
3297 4037 3954
3849 739 594
3820 782 984
3413 1124 2034
3409 1260 2920
3487 1275 3182
3860 1022 602
3869 1005 825
3544 1276 1906
3458 1430 2967
3526 1433 3224
3682 2209 984
3715 2178 1061
4050 1989 1646
3610 2265 3085
3653 2286 3454
3808 3372 1339
3804 3358 1432
3825 3328 1847
4060 3233 2947
3890 3321 3705
4095 3994 2144
4095 3994 2256
4095 3994 2458
4095 4023 3373
4095 4081 4095
