滤镜资源/Professional Luts Collection/Triune-Digital-Cinematic-LUTs/3D LUTs (3DL)/LOG/The Book of Eli - LOG.3dl
# Created by Benjamin (IWLTBAP) : http://luts.iwltbap.com
# Copyright: (C) Copyright 2016 Triune Films and IWLTBAP
# Blockbuster LUTs Pack
0 64 128 192 256 320 384 448 512 576 640 704 768 832 896 960 1023
117 111 101
116 110 149
120 115 253
135 126 388
158 150 554
180 173 732
207 204 912
237 235 1104
284 283 1321
329 324 1541
356 357 1689
371 372 1739
382 383 1780
387 392 1821
392 399 1860
397 407 1898
403 413 1933
154 184 128
151 179 163
147 177 267
156 181 400
179 200 564
202 223 741
224 248 916
252 275 1108
300 324 1328
344 364 1549
380 403 1716
396 419 1767
404 430 1810
411 439 1851
416 448 1891
419 453 1928
426 462 1968
210 322 169
207 318 193
201 308 291
202 304 421
222 319 585
255 350 776
286 386 970
324 425 1172
364 455 1392
403 496 1615
454 548 1806
462 548 1857
463 546 1890
468 551 1928
475 559 1969
481 564 2008
488 572 2048
251 444 199
246 441 223
244 437 298
243 434 429
251 441 584
285 466 783
329 516 991
377 560 1200
436 621 1453
499 685 1704
552 740 1906
571 752 1988
580 757 2028
591 768 2072
602 777 2117
610 783 2158
620 791 2202
277 561 217
277 560 244
279 563 289
280 567 439
291 573 589
312 588 770
351 628 977
414 690 1212
479 763 1479
569 854 1756
658 943 2024
704 994 2176
715 1001 2217
732 1009 2259
750 1015 2298
764 1019 2334
779 1028 2374
319 704 269
322 708 300
324 710 333
331 716 444
344 715 586
361 734 762
389 763 965
442 826 1208
527 910 1474
625 1017 1777
737 1134 2071
836 1246 2309
858 1258 2349
878 1272 2396
899 1289 2447
910 1299 2491
919 1311 2539
384 874 315
385 875 344
388 876 374
394 879 446
408 888 595
425 905 781
452 931 984
485 977 1209
562 1063 1473
654 1179 1785
768 1319 2093
886 1457 2374
912 1486 2453
930 1507 2510
949 1530 2564
966 1549 2615
983 1570 2664
448 1066 382
449 1067 407
450 1067 432
453 1065 468
470 1078 627
482 1101 812
491 1111 1009
531 1157 1216
601 1242 1480
684 1359 1788
751 1487 2092
849 1634 2382
887 1690 2501
913 1714 2558
942 1738 2614
964 1757 2667
991 1781 2719
471 1289 459
470 1292 492
471 1293 522
472 1289 551
476 1294 655
500 1317 822
524 1338 1037
555 1379 1245
593 1438 1495
648 1539 1778
709 1662 2083
822 1797 2372
923 1889 2532
948 1915 2590
962 1933 2645
975 1950 2699
1001 1978 2756
457 1524 540
456 1523 569
455 1522 599
456 1519 628
456 1514 677
483 1549 860
528 1597 1081
543 1622 1297
558 1654 1519
615 1739 1787
728 1864 2095
855 1996 2391
896 2065 2574
922 2088 2633
951 2107 2679
973 2124 2726
994 2145 2776
541 1777 632
539 1774 659
536 1770 689
536 1766 716
533 1760 742
537 1774 876
561 1831 1129
592 1887 1366
617 1916 1580
687 1989 1841
747 2073 2103
852 2191 2400
1010 2314 2667
1038 2332 2747
1052 2340 2787
1070 2350 2824
1084 2363 2863
604 2040 727
599 2036 759
593 2031 790
589 2026 819
584 2020 846
589 2029 928
618 2084 1173
704 2165 1442
730 2202 1680
756 2239 1902
830 2309 2162
938 2399 2426
1092 2518 2702
1167 2577 2847
1190 2591 2892
1210 2605 2935
1228 2620 2976
815 2292 863
809 2292 893
801 2290 920
791 2290 952
782 2289 984
777 2284 1015
765 2317 1231
813 2385 1495
924 2471 1777
968 2513 2005
1016 2563 2241
1114 2642 2493
1224 2719 2738
1337 2796 2927
1363 2814 2976
1383 2829 3021
1403 2843 3061
937 2447 957
933 2448 990
932 2452 1026
927 2456 1062
925 2463 1097
927 2472 1135
930 2496 1258
960 2545 1515
1093 2670 1838
1168 2736 2100
1214 2773 2314
1299 2835 2539
1397 2918 2780
1469 2975 2989
1489 2992 3043
1504 3002 3080
1519 3014 3120
992 2505 998
990 2508 1033
989 2511 1068
989 2518 1106
987 2526 1143
988 2535 1179
989 2553 1253
1005 2597 1493
1135 2720 1814
1229 2806 2097
1278 2844 2319
1350 2903 2542
1455 2986 2782
1525 3048 3004
1549 3071 3080
1562 3080 3112
1575 3089 3148
1053 2567 1043
1050 2570 1078
1049 2573 1114
1049 2581 1152
1047 2589 1188
1045 2596 1224
1048 2610 1281
1057 2651 1489
1170 2759 1796
1277 2858 2096
1323 2901 2321
1388 2957 2545
1490 3034 2782
1560 3096 3008
1592 3123 3106
1602 3131 3134
1613 3139 3166
1112 2630 1089
1108 2632 1122
1109 2635 1158
1109 2643 1196
1108 2651 1233
1105 2658 1268
1109 2671 1327
1120 2715 1530
1227 2816 1827
1328 2916 2130
1375 2964 2358
1436 3019 2576
1530 3090 2810
1603 3151 3036
1636 3177 3133
1645 3184 3160
1654 3190 3188
183 120 108
180 119 152
182 126 261
197 139 399
216 161 566
235 187 744
254 215 920
280 246 1112
319 291 1328
358 330 1547
383 363 1699
396 378 1748
408 392 1792
413 399 1832
417 405 1869
423 412 1906
431 421 1943
197 183 130
192 178 160
186 174 264
192 180 398
211 199 562
232 221 740
250 248 917
278 279 1110
324 327 1330
368 369 1554
407 411 1727
424 429 1781
432 439 1821
438 447 1862
443 454 1901
446 461 1939
454 470 1979
237 317 169
233 313 192
229 306 288
228 302 420
247 318 583
281 350 777
313 385 971
346 420 1167
390 452 1389
428 496 1617
479 548 1812
487 549 1866
489 547 1896
494 552 1934
501 560 1975
506 565 2013
512 573 2054
277 445 206
276 444 232
273 437 297
272 434 429
279 442 584
315 468 785
359 520 996
407 562 1201
467 627 1458
528 689 1708
580 741 1913
601 754 1999
609 760 2040
621 772 2084
631 781 2128
640 788 2170
650 795 2214
303 560 217
305 561 247
307 562 287
309 569 443
320 576 591
343 593 774
383 634 985
448 698 1222
515 773 1489
603 861 1764
691 951 2036
738 999 2189
748 1004 2227
764 1011 2266
781 1017 2304
795 1021 2340
810 1032 2382
348 705 267
350 706 297
352 708 330
359 718 446
368 717 591
389 738 767
419 768 974
477 833 1221
560 915 1485
657 1021 1784
768 1138 2078
869 1249 2320
892 1263 2363
911 1277 2405
931 1294 2453
943 1307 2503
954 1321 2554
411 875 319
414 877 348
415 878 378
422 883 450
431 890 598
453 907 781
484 938 988
521 988 1221
595 1071 1485
684 1186 1794
797 1324 2100
916 1463 2389
945 1496 2470
967 1520 2526
988 1544 2583
1005 1564 2633
1024 1586 2683
476 1069 391
477 1070 416
478 1069 441
480 1066 471
496 1077 626
509 1104 814
521 1114 1012
563 1163 1224
632 1253 1489
712 1368 1795
784 1497 2102
881 1644 2395
932 1703 2518
958 1727 2574
987 1751 2631
1010 1768 2681
1036 1794 2733
497 1291 463
496 1292 495
497 1292 526
498 1289 555
501 1292 652
526 1315 820
549 1339 1039
582 1380 1248
622 1446 1502
679 1552 1786
742 1674 2094
865 1812 2383
971 1902 2552
995 1926 2607
1011 1946 2662
1023 1961 2714
1051 1990 2771
486 1519 539
485 1519 568
485 1519 598
484 1517 629
483 1513 675
508 1542 855
547 1593 1080
565 1623 1299
588 1659 1522
650 1748 1792
764 1878 2105
899 2009 2401
955 2083 2593
980 2109 2657
1006 2130 2704
1026 2146 2750
1050 2167 2799
569 1775 632
568 1773 660
565 1769 690
568 1764 718
568 1759 745
570 1775 876
594 1827 1125
623 1884 1363
652 1919 1588
726 1994 1838
787 2078 2109
893 2203 2407
1063 2330 2678
1091 2346 2759
1105 2355 2799
1120 2365 2836
1135 2378 2876
636 2038 722
628 2033 753
622 2028 784
615 2023 816
610 2017 844
615 2027 926
649 2081 1168
738 2162 1434
771 2207 1683
797 2246 1909
872 2313 2164
988 2409 2435
1155 2531 2719
1230 2589 2865
1255 2607 2912
1273 2620 2953
1289 2634 2993
851 2291 865
846 2292 896
839 2290 924
834 2290 953
825 2288 984
821 2283 1015
809 2317 1230
849 2382 1488
959 2471 1777
1011 2517 2011
1059 2566 2245
1162 2650 2500
1280 2730 2748
1396 2813 2949
1422 2831 2998
1442 2844 3042
1460 2857 3078
978 2453 965
973 2454 997
972 2457 1033
971 2462 1068
969 2469 1103
969 2477 1139
975 2503 1262
1004 2551 1517
1132 2674 1838
1213 2743 2104
1265 2786 2323
1347 2845 2547
1445 2929 2789
1517 2986 2997
1537 3004 3052
1552 3014 3090
1567 3026 3130
1031 2513 1006
1028 2515 1039
1026 2519 1075
1029 2524 1113
1026 2530 1148
1027 2539 1184
1035 2560 1261
1052 2605 1496
1170 2721 1810
1270 2810 2097
1327 2858 2327
1399 2915 2551
1500 2996 2788
1570 3057 3007
1599 3084 3089
1612 3093 3122
1624 3102 3157
1090 2576 1052
1091 2581 1088
1089 2584 1123
1090 2587 1159
1089 2595 1196
1088 2602 1231
1091 2616 1289
1102 2656 1491
1207 2761 1793
1316 2863 2096
1372 2916 2331
1436 2969 2553
1533 3043 2788
1605 3105 3011
1641 3136 3116
1649 3142 3142
1659 3150 3174
1149 2638 1097
1149 2643 1132
1149 2645 1167
1151 2650 1203
1150 2657 1241
1148 2665 1278
1152 2677 1333
1164 2719 1532
1263 2819 1826
1368 2922 2131
1422 2977 2365
1483 3030 2582
1571 3099 2814
1646 3159 3038
1683 3189 3144
1689 3195 3170
1694 3200 3198
298 135 117
299 138 159
308 146 275
335 176 433
364 208 614
380 234 791
393 253 963
411 282 1156
436 318 1368
471 362 1587
504 403 1753
511 417 1802
512 423 1839
514 430 1876
517 437 1913
520 445 1951
529 454 1990
308 186 133
305 183 158
305 184 270
323 203 421
349 231 598
368 258 779
383 279 955
405 312 1153
433 352 1366
473 401 1592
512 448 1776
517 458 1826
518 465 1863
520 472 1900
523 478 1936
526 486 1973
535 495 2013
335 311 175
330 306 196
331 308 290
328 311 432
349 329 597
375 362 789
406 396 987
425 427 1179
463 460 1402
498 505 1629
541 554 1831
540 552 1881
539 551 1913
541 553 1947
543 559 1984
548 564 2023
556 573 2065
347 448 219
345 445 241
341 439 299
340 440 437
343 447 590
374 473 789
415 524 1004
455 566 1207
504 628 1459
557 687 1705
608 737 1915
630 751 2008
636 753 2045
646 765 2089
657 777 2134
666 784 2176
676 791 2220
335 560 227
337 562 257
338 562 293
341 565 437
352 574 590
375 593 775
414 636 989
477 698 1224
546 774 1491
630 858 1764
718 947 2037
767 995 2195
777 1000 2233
793 1008 2271
809 1015 2308
822 1018 2344
835 1029 2386
375 700 263
377 702 294
379 704 327
388 715 442
395 717 596
419 737 765
446 768 978
512 839 1227
590 916 1492
687 1022 1786
800 1141 2084
900 1247 2328
925 1263 2374
946 1280 2416
965 1300 2466
976 1312 2516
988 1327 2567
439 873 323
442 875 353
444 876 383
449 880 447
455 887 598
479 906 779
512 940 988
556 994 1228
626 1075 1492
715 1190 1799
832 1330 2105
948 1465 2399
984 1505 2483
1006 1531 2542
1028 1560 2604
1045 1578 2653
1065 1599 2702
503 1069 398
504 1069 423
504 1068 448
506 1063 475
521 1073 621
534 1101 810
550 1116 1011
594 1168 1230
664 1262 1499
737 1373 1798
819 1505 2107
918 1652 2407
981 1718 2536
1006 1742 2593
1032 1765 2650
1058 1785 2701
1085 1812 2754
523 1292 471
522 1293 504
523 1293 534
524 1289 563
529 1289 647
554 1313 818
578 1340 1037
609 1378 1250
652 1454 1508
711 1562 1793
785 1685 2103
912 1826 2398
1021 1914 2576
1041 1936 2629
1059 1957 2679
1075 1976 2732
1101 2001 2785
520 1515 538
519 1516 567
520 1516 598
519 1514 628
517 1512 670
534 1534 847
565 1585 1075
590 1623 1297
623 1662 1525
688 1757 1795
808 1890 2115
948 2024 2412
1020 2103 2614
1047 2131 2681
1065 2153 2731
1084 2169 2777
1109 2190 2827
597 1772 632
595 1770 660
594 1766 690
598 1762 718
602 1757 747
604 1775 875
625 1823 1121
653 1878 1356
687 1919 1590
764 1995 1835
828 2081 2113
939 2214 2415
1117 2344 2690
1148 2362 2775
1161 2370 2814
1178 2382 2853
1192 2393 2891
670 2037 720
662 2031 750
651 2023 779
643 2017 810
636 2013 843
643 2023 921
680 2075 1160
769 2155 1424
810 2207 1681
840 2247 1913
915 2316 2166
1035 2413 2438
1214 2542 2733
1293 2603 2882
1316 2618 2926
1333 2631 2968
1345 2643 3006
888 2289 868
883 2290 899
876 2289 927
872 2289 956
866 2288 985
861 2283 1016
850 2316 1228
884 2379 1480
994 2468 1773
1049 2518 2014
1105 2570 2249
1211 2654 2506
1336 2739 2757
1452 2825 2967
1479 2844 3017
1500 2858 3060
1516 2871 3095
1023 2463 974
1020 2466 1007
1018 2469 1040
1019 2474 1077
1018 2478 1115
1016 2484 1149
1021 2511 1266
1049 2559 1519
1169 2676 1835
1258 2751 2107
1318 2798 2332
1394 2855 2556
1494 2938 2797
1564 2995 3003
1586 3015 3063
1600 3026 3101
1614 3038 3140
1071 2523 1016
1069 2526 1050
1067 2529 1083
1070 2534 1121
1071 2539 1157
1070 2546 1192
1076 2565 1266
1097 2610 1497
1205 2723 1806
1310 2816 2095
1377 2872 2333
1446 2927 2557
1547 3008 2796
1617 3067 3010
1647 3097 3099
1659 3107 3133
1670 3117 3171
1129 2587 1063
1128 2591 1097
1129 2594 1131
1130 2597 1167
1132 2602 1204
1129 2607 1238
1133 2621 1293
1150 2664 1493
1244 2765 1791
1354 2867 2094
1418 2927 2335
1480 2978 2556
1574 3051 2792
1650 3114 3013
1686 3149 3128
1696 3158 3158
1706 3166 3191
1188 2650 1108
1187 2653 1143
1191 2658 1179
1191 2661 1214
1191 2665 1249
1191 2673 1287
1194 2684 1338
1214 2728 1535
1297 2822 1823
1407 2927 2130
1467 2988 2370
1526 3039 2586
1612 3107 2818
1689 3169 3043
1726 3203 3159
1732 3209 3186
1736 3213 3212
426 143 128
426 143 163
449 167 288
486 213 464
533 258 664
569 295 855
598 336 1053
599 355 1239
603 383 1436
628 411 1649
653 445 1815
657 457 1866
662 468 1905
668 479 1945
675 491 1989
683 503 2033
691 511 2073
430 180 139
428 178 158
442 195 278
473 237 449
516 277 644
549 315 836
578 356 1035
583 378 1226
597 411 1428
625 444 1647
655 482 1831
661 492 1883
665 502 1922
674 514 1963
682 527 2009
690 540 2053
