滤镜资源/Professional Luts Collection/Triune-Digital-Cinematic-LUTs/3D LUTs (3DL)/LOG/The Conjuring - LOG.3dl
# Created by Benjamin (IWLTBAP) : http://luts.iwltbap.com
# Copyright: (C) Copyright 2016 Triune Films and IWLTBAP
# Blockbuster LUTs Pack
0 256 512 768 1023
28 33 42
32 45 428
101 191 1085
151 292 1457
167 325 1583
90 485 134
97 482 547
168 590 1212
228 694 1690
242 718 1808
399 1197 253
248 1139 431
251 1180 1324
365 1295 2011
384 1312 2133
947 2146 532
796 2059 627
416 1962 1340
520 1970 2205
559 1998 2455
1197 2528 667
1050 2459 767
621 2256 1146
579 2274 2187
647 2338 2606
499 108 91
452 121 487
439 234 1093
437 307 1455
441 334 1574
489 511 118
457 552 583
408 643 1263
458 742 1765
470 763 1884
650 1215 216
578 1227 433
365 1197 1328
470 1312 2039
486 1329 2165
1151 2177 536
1057 2158 688
564 2002 1320
630 2003 2227
672 2035 2504
1442 2612 694
1351 2616 862
901 2349 1151
704 2357 2224
775 2421 2675
1493 300 222
1410 294 555
1240 359 1159
1166 495 1653
1144 518 1770
1680 656 292
1641 719 630
1342 716 1254
1097 798 1830
1058 803 1948
1783 1311 330
1821 1359 487
1482 1606 1611
1249 1654 2384
1219 1655 2514
2078 2363 537
2065 2405 690
1863 2504 1487
1224 2325 2476
1221 2325 2788
2141 2839 692
2117 2874 902
1935 2914 1457
1131 2675 2404
1160 2688 2896
2120 406 297
2049 419 584
1986 482 1182
1807 543 1662
1799 607 1835
2390 737 381
2369 749 607
2273 811 1258
2042 843 1841
1994 900 2020
2858 1552 618
2895 1623 781
2949 1906 1727
2623 1897 2434
2369 1870 2642
3116 2475 764
3137 2539 921
3174 2756 1677
3166 3035 2864
2973 3028 3271
3233 3065 805
3253 3140 950
3245 3272 1419
3206 3528 2757
2931 3505 3443
2289 434 316
2217 440 573
2179 517 1180
2021 567 1669
1957 601 1811
2520 737 396
2489 730 578
2419 790 1220
2249 826 1820
2161 836 1950
3009 1558 647
3056 1633 816
3112 1838 1640
2984 1905 2397
2807 1902 2613
3508 2561 918
3535 2632 1104
3617 2874 1823
3663 3103 2917
3538 3091 3296
3696 3138 958
3722 3210 1101
3772 3339 1490
3873 3639 2862
3873 3783 3680
