滤镜资源/Professional Luts Collection/Triune-Digital-Cinematic-LUTs/3D LUTs (3DL)/LOG/The Book of Eli - LOG.3dl
# Created by Benjamin (IWLTBAP) : http://luts.iwltbap.com
# Copyright: (C) Copyright 2016 Triune Films and IWLTBAP
# Blockbuster LUTs Pack
0 128 256 384 512 640 768 896 1023
117 111 101
120 115 253
158 150 554
207 204 912
284 283 1321
356 357 1689
382 383 1780
392 399 1860
403 413 1933
210 322 169
201 308 291
222 319 585
286 386 970
364 455 1392
454 548 1806
463 546 1890
475 559 1969
488 572 2048
277 561 217
279 563 289
291 573 589
351 628 977
479 763 1479
658 943 2024
715 1001 2217
750 1015 2298
779 1028 2374
384 874 315
388 876 374
408 888 595
452 931 984
562 1063 1473
768 1319 2093
912 1486 2453
949 1530 2564
983 1570 2664
471 1289 459
471 1293 522
476 1294 655
524 1338 1037
593 1438 1495
709 1662 2083
923 1889 2532
962 1933 2645
1001 1978 2756
541 1777 632
536 1770 689
533 1760 742
561 1831 1129
617 1916 1580
747 2073 2103
1010 2314 2667
1052 2340 2787
1084 2363 2863
815 2292 863
801 2290 920
782 2289 984
765 2317 1231
924 2471 1777
1016 2563 2241
1224 2719 2738
1363 2814 2976
1403 2843 3061
992 2505 998
989 2511 1068
987 2526 1143
989 2553 1253
1135 2720 1814
1278 2844 2319
1455 2986 2782
1549 3071 3080
1575 3089 3148
1112 2630 1089
1109 2635 1158
1108 2651 1233
1109 2671 1327
1227 2816 1827
1375 2964 2358
1530 3090 2810
1636 3177 3133
1654 3190 3188
298 135 117
308 146 275
364 208 614
393 253 963
436 318 1368
504 403 1753
512 423 1839
517 437 1913
529 454 1990
335 311 175
331 308 290
349 329 597
406 396 987
463 460 1402
541 554 1831
539 551 1913
543 559 1984
556 573 2065
335 560 227
338 562 293
352 574 590
414 636 989
546 774 1491
718 947 2037
777 1000 2233
809 1015 2308
835 1029 2386
439 873 323
444 876 383
455 887 598
512 940 988
626 1075 1492
832 1330 2105
984 1505 2483
1028 1560 2604
1065 1599 2702
523 1292 471
523 1293 534
529 1289 647
578 1340 1037
652 1454 1508
785 1685 2103
1021 1914 2576
1059 1957 2679
1101 2001 2785
597 1772 632
594 1766 690
602 1757 747
625 1823 1121
687 1919 1590
828 2081 2113
1117 2344 2690
1161 2370 2814
1192 2393 2891
888 2289 868
876 2289 927
866 2288 985
850 2316 1228
994 2468 1773
1105 2570 2249
1336 2739 2757
1479 2844 3017
1516 2871 3095
1071 2523 1016
1067 2529 1083
1071 2539 1157
1076 2565 1266
1205 2723 1806
1377 2872 2333
1547 3008 2796
1647 3097 3099
1670 3117 3171
1188 2650 1108
1191 2658 1179
1191 2665 1249
1194 2684 1338
1297 2822 1823
1467 2988 2370
1612 3107 2818
1726 3203 3159
1736 3213 3212
561 162 146
589 186 293
689 287 690
818 434 1157
874 499 1569
873 528 1909
874 540 1992
891 564 2074
900 579 2148
587 309 197
587 308 287
650 372 652
769 497 1104
816 562 1519
855 607 1913
859 609 2020
874 633 2113
891 651 2195
610 586 271
611 589 331
646 626 647
726 709 1058
859 847 1571
1031 1017 2124
1090 1068 2334
1102 1083 2412
1129 1107 2497
644 900 367
645 898 423
656 916 621
722 990 1045
863 1168 1582
1071 1423 2198
1247 1605 2596
1294 1647 2703
1340 1685 2812
617 1287 490
619 1285 540
619 1274 627
672 1343 1020
730 1463 1523
902 1713 2124
1150 1950 2636
1201 1997 2737
1244 2036 2830
664 1756 635
665 1752 689
670 1742 743
681 1793 1085
762 1907 1573
908 2079 2111
1236 2362 2709
1294 2399 2852
1323 2423 2930
954 2280 871
941 2277 924
930 2277 987
921 2304 1209
1055 2450 1750
1191 2570 2251
1430 2742 2762
1587 2861 3050
1618 2887 3123
1162 2547 1038
1166 2557 1109
1168 2564 1177
1176 2583 1282
1277 2725 1792
1470 2897 2340
1640 3030 2808
1741 3128 3132
1765 3150 3208
1272 2674 1133
1273 2682 1204
1279 2691 1276
1282 2703 1350
1365 2826 1819
1560 3009 2376
1697 3128 2827
1809 3228 3187
1825 3243 3244
864 199 171
873 223 311
987 322 682
1230 522 1225
1515 751 1831
1638 859 2275
1634 863 2361
1635 870 2426
1631 874 2485
872 310 214
870 312 298
962 394 664
1167 564 1184
1447 782 1780
1567 892 2238
1553 888 2346
1550 891 2406
1557 896 2472
908 595 307
910 598 364
940 624 638
1067 743 1114
1335 964 1695
1515 1116 2223
1571 1166 2457
1583 1171 2526
1597 1185 2602
938 922 398
949 928 463
1000 976 686
1092 1081 1139
1267 1261 1674
1584 1550 2328
1781 1718 2733
1821 1754 2833
1850 1772 2905
1003 1373 575
1001 1371 624
1007 1378 695
1091 1484 1148
1240 1644 1686
1537 1940 2337
1802 2183 2875
1850 2224 2977
1883 2250 3057
1077 1854 723
1060 1848 782
1032 1829 829
1014 1825 1101
1143 1994 1646
1392 2231 2254
1713 2508 2864
1767 2556 3023
1785 2577 3099
1173 2314 927
1154 2306 983
1132 2298 1040
1108 2300 1198
1204 2433 1717
1370 2578 2251
1582 2748 2766
1745 2888 3093
1767 2910 3169
1272 2575 1074
1280 2590 1144
1281 2597 1215
1275 2604 1294
1346 2723 1763
1561 2922 2341
1714 3043 2800
1839 3160 3169
1861 3184 3241
1363 2697 1165
1368 2712 1237
1371 2717 1306
1376 2731 1378
1443 2833 1803
1645 3024 2365
1777 3147 2826
1894 3256 3213
1908 3269 3278
1214 256 231
1232 273 325
1370 377 704
1584 531 1209
2002 819 1874
2262 1044 2455
2284 1071 2585
2299 1087 2659
2314 1101 2730
1205 324 253
1211 331 303
1323 419 663
1543 574 1160
1956 872 1841
2229 1103 2432
2271 1143 2609
2284 1158 2683
2295 1168 2754
1268 615 338
1276 618 407
1334 653 663
1509 795 1159
1909 1097 1830
2244 1372 2478
2287 1401 2713
2282 1393 2765
2281 1387 2812
1366 993 483
1374 995 542
1405 1021 719
1507 1102 1144
1786 1348 1741
2124 1647 2400
2236 1730 2763
2239 1723 2824
2251 1732 2889
1453 1445 647
1463 1459 715
1481 1477 796
1676 1654 1309
1814 1787 1806
2045 1993 2371
2308 2235 2928
2339 2263 3026
2359 2285 3103
1677 2033 918
1683 2046 993
1684 2050 1067
1754 2122 1384
1894 2269 1919
2063 2424 2430
2281 2625 2985
2352 2692 3177
2382 2720 3265
1912 2581 1245
1893 2567 1295
1862 2549 1340
1804 2516 1416
1824 2577 1859
2007 2749 2415
2214 2928 2941
2316 3042 3260
2340 3061 3336
1894 2803 1337
1880 2803 1397
1866 2802 1458
1850 2801 1516
1886 2878 1904
2024 3036 2431
2141 3163 2900
2259 3287 3305
2274 3309 3381
1907 2889 1382
1898 2893 1448
1891 2899 1515
1885 2905 1576
1913 2969 1922
2032 3115 2440
2147 3246 2909
2255 3367 3325
2275 3386 3409
1657 325 289
1668 341 355
1803 424 716
2076 614 1259
2315 784 1792
2687 1094 2492
2769 1180 2708
2784 1203 2788
2798 1221 2856
1671 407 326
1680 419 377
1796 485 696
2049 666 1228
2306 853 1780
2673 1161 2481
2776 1270 2740
2787 1291 2821
2798 1299 2882
1757 676 418
1766 681 481
1831 714 713
2038 857 1208
2338 1089 1821
2728 1434 2540
2826 1519 2863
2824 1511 2913
2834 1519 2979
1890 1080 583
1901 1082 642
1926 1092 759
2060 1198 1228
2320 1427 1823
2699 1787 2542
2845 1933 2968
2855 1935 3033
2874 1950 3102
2092 1619 821
2101 1626 882
2108 1635 956
2232 1745 1388
2357 1861 1882
2573 2076 2452
2768 2278 2994
2785 2287 3092
2798 2301 3160
2288 2182 1101
2292 2193 1175
2290 2196 1250
2336 2249 1510
2502 2408 2057
2590 2501 2514
2718 2644 3007
2795 2723 3234
2818 2743 3310
2522 2750 1476
2523 2755 1542
2521 2760 1614
2517 2766 1719
2575 2847 2170
2648 2949 2630
2729 3044 3062
2835 3146 3392
2850 3159 3456
2648 3151 1776
2647 3160 1839
2637 3162 1894
2615 3157 1944
2570 3149 2189
2590 3206 2588
2686 3327 3048
2802 3457 3472
2821 3476 3542
2657 3244 1831
2650 3250 1892
2636 3247 1943
2609 3234 1983
2564 3220 2188
2587 3282 2595
2682 3403 3048
2786 3530 3477
2807 3554 3565
1821 356 318
1830 367 382
1959 450 711
2218 615 1218
2487 815 1785
2755 1044 2402
2908 1191 2718
2946 1231 2820
2967 1255 2895
1881 446 355
1890 454 413
2008 523 703
2243 677 1204
2536 903 1800
2767 1104 2398
2959 1291 2774
2993 1328 2869
3011 1348 2945
2050 692 479
2062 695 533
2158 753 731
2356 882 1227
2654 1119 1850
2858 1308 2422
3054 1494 2857
3084 1514 2945
3105 1532 3029
2347 1155 669
2367 1167 739
2406 1187 852
2583 1318 1353
2785 1511 1915
3006 1750 2524
3240 2011 3070
3271 2040 3166
3285 2047 3232
2717 1810 1046
2720 1812 1114
2715 1806 1176
2793 1875 1528
2902 1975 1996
3050 2147 2542
3248 2378 3102
3284 2413 3239
3301 2429 3311
2923 2390 1374
2927 2396 1444
2921 2390 1501
2933 2407 1685
2998 2485 2149
3061 2563 2589
3181 2705 3068
3239 2767 3300
3256 2789 3375
3040 2874 1681
3035 2872 1736
3021 2862 1781
2999 2846 1838
3041 2910 2248
3143 3044 2733
3209 3121 3145
3250 3163 3431
3267 3179 3499
3115 3275 1948
3110 3279 2006
3108 3287 2070
3105 3294 2135
3128 3335 2394
3209 3443 2828
3274 3524 3230
3316 3574 3577
3314 3573 3640
3134 3377 2018
3133 3385 2079
3134 3395 2143
3134 3404 2205
3154 3445 2432
3222 3539 2843
3264 3607 3230
3313 3665 3587
3321 3678 3676
1914 380 336
1922 390 399
2054 465 710
2292 617 1194
2588 841 1793
2784 1017 2340
2958 1179 2703
3010 1235 2817
3036 1264 2896
1980 472 378
1989 478 440
2105 541 704
2323 680 1183
2634 925 1801
2806 1083 2337
3010 1280 2761
3060 1336 2868
3080 1357 2948
2156 693 489
2169 699 544
2241 741 723
2420 857 1213
2708 1091 1823
2890 1268 2381
3095 1455 2840
3124 1482 2927
3149 1507 3019
2432 1141 681
2457 1154 755
2498 1179 856
2696 1334 1357
2863 1501 1908
3078 1731 2513
3294 1973 3052
3341 2006 3162
3359 2019 3233
2845 1822 1083
2853 1822 1146
2857 1818 1218
2914 1867 1525
3037 1991 2027
3170 2140 2544
3358 2353 3089
3420 2416 3269
3449 2446 3352
3173 2472 1505
3177 2471 1564
3180 2468 1620
3190 2475 1772
3235 2529 2205
3290 2593 2618
3407 2721 3091
3490 2804 3370
3511 2823 3440
3379 2971 1841
3379 2970 1898
3378 2968 1956
3373 2963 2014
3416 3018 2381
3482 3092 2787
3529 3142 3168
3585 3188 3476
3590 3192 3534
3576 3434 2156
3574 3436 2207
3565 3430 2258
3558 3426 2313
3570 3449 2508
3623 3517 2889
3700 3603 3293
3727 3636 3630
3717 3627 3702
3600 3537 2221
3603 3543 2278
3596 3540 2325
3592 3541 2376
3598 3562 2531
3647 3629 2906
3727 3721 3314
3767 3779 3668
3772 3786 3773
2008 402 362
2019 417 429
2142 470 707
2377 630 1200
2670 862 1805
2841 1017 2325
3006 1170 2691
3060 1229 2809
3095 1263 2897
2080 492 406
2092 503 470
2197 552 708
2411 690 1190
2710 942 1814
2873 1090 2318
3058 1269 2749
3111 1331 2865
3136 1358 2954
2252 709 494
2277 719 555
2337 751 730
2516 872 1231
2770 1086 1820
2954 1270 2379
3142 1439 2834
3170 1468 2922
3196 1494 3015
2530 1157 705
2556 1169 779
2597 1193 878
2791 1352 1383
2931 1497 1914
3156 1743 2528
3347 1957 3050
3399 1997 3162
3424 2016 3240
2934 1839 1115
2942 1844 1184
2949 1845 1259
3004 1879 1539
3128 2016 2057
3249 2152 2557
3419 2347 3087
3490 2426 3289
3525 2458 3374
3252 2487 1535
3263 2495 1604
3263 2489 1660
3275 2500 1804
3312 2543 2220
3362 2604 2635
3477 2729 3101
3568 2818 3392
3585 2835 3459
3459 2989 1875
3460 2990 1936
3459 2994 2001
3461 2992 2059
3496 3042 2410
3557 3107 2804
3592 3142 3167
3653 3195 3487
3658 3198 3544
3651 3454 2187
3651 3455 2238
3650 3456 2291
3651 3456 2346
3668 3478 2534
3717 3540 2910
3781 3606 3290
3816 3641 3636
3809 3633 3710
3702 3567 2258
3708 3579 2319
3713 3584 2370
3715 3588 2423
3727 3606 2577
3778 3671 2945
3832 3738 3322
3885 3801 3679
3888 3804 3792
