滤镜资源/Professional Luts Collection/Triune-Digital-Cinematic-LUTs/3D LUTs (3DL)/LOG/The Lord of the Rings - LOG.3dl
# Created by Benjamin (IWLTBAP) : http://luts.iwltbap.com
# Copyright: (C) Copyright 2016 Triune Films and IWLTBAP
# Blockbuster LUTs Pack
0 64 128 192 256 320 384 448 512 576 640 704 768 832 896 960 1023
21 19 18
25 23 64
32 29 201
85 61 395
137 110 610
178 146 827
212 176 1065
278 207 1403
393 230 1954
554 309 2521
653 372 2850
676 385 2932
687 392 2977
692 396 3003
699 401 3035
710 408 3077
711 410 3096
23 53 20
26 54 53
42 67 190
88 116 383
139 156 592
181 192 810
217 219 1047
275 236 1402
378 251 1912
521 319 2430
627 381 2786
643 392 2845
648 395 2872
654 400 2901
649 397 2906
659 403 2945
661 404 2961
31 165 28
34 171 47
56 192 184
115 242 381
164 287 595
203 324 809
238 349 1050
284 340 1447
370 344 1898
470 372 2290
527 398 2514
543 402 2579
555 403 2623
564 407 2661
572 409 2693
574 411 2717
568 409 2713
85 332 67
89 337 100
110 350 197
139 384 378
184 429 584
229 472 805
251 490 1091
281 473 1462
354 474 1834
425 488 2118
482 507 2351
506 513 2447
518 515 2493
527 519 2532
538 521 2571
544 525 2600
536 530 2595
147 506 130
151 514 162
160 522 211
188 550 387
222 589 586
261 631 814
253 634 1095
288 633 1432
350 633 1723
407 637 1982
469 656 2239
502 670 2377
512 669 2417
521 669 2455
527 673 2487
533 677 2515
533 686 2522
208 686 193
214 692 226
221 697 259
241 719 395
279 765 598
291 809 817
280 818 1079
314 814 1355
369 816 1641
424 821 1910
493 847 2194
538 866 2383
547 864 2425
556 866 2464
563 868 2496
569 872 2526
570 883 2536
283 883 267
289 889 299
293 896 331
308 916 415
330 964 601
326 1013 797
331 1020 1033
364 1016 1296
415 1023 1584
474 1043 1876
537 1064 2164
588 1082 2390
598 1080 2446
607 1082 2489
616 1087 2527
621 1090 2557
623 1097 2570
359 1097 344
364 1105 374
368 1110 408
373 1121 447
391 1192 594
402 1242 782
413 1243 1004
440 1250 1266
488 1267 1560
540 1283 1852
600 1305 2148
661 1332 2422
679 1334 2516
686 1332 2556
690 1331 2589
695 1329 2619
698 1334 2639
457 1349 432
463 1369 459
468 1384 487
471 1400 513
489 1459 603
512 1496 790
528 1506 1007
550 1519 1267
582 1532 1554
633 1553 1856
690 1578 2163
751 1605 2459
773 1604 2597
779 1598 2640
784 1595 2677
788 1593 2710
789 1591 2731
586 1683 525
595 1703 551
602 1720 577
608 1731 603
612 1737 648
631 1762 814
652 1783 1027
667 1789 1272
697 1813 1562
739 1840 1870
792 1865 2179
844 1884 2477
873 1881 2672
878 1872 2724
880 1864 2759
880 1853 2786
876 1842 2804
740 2022 644
743 2026 668
746 2030 691
748 2032 714
750 2033 739
760 2045 858
778 2063 1058
798 2081 1298
827 2109 1583
857 2129 1884
896 2149 2190
944 2166 2491
983 2173 2744
990 2160 2824
994 2155 2864
993 2142 2896
993 2133 2925
881 2325 760
880 2321 780
881 2322 803
881 2320 824
880 2317 846
882 2317 906
897 2333 1091
922 2361 1325
946 2382 1596
974 2404 1890
1005 2426 2194
1046 2447 2503
1094 2463 2803
1105 2449 2926
1105 2439 2964
1107 2431 3000
1110 2426 3039
1009 2603 869
1005 2598 886
1004 2593 906
1004 2591 927
1002 2588 950
1001 2584 973
1017 2603 1131
1038 2627 1354
1063 2653 1616
1094 2682 1910
1121 2701 2205
1151 2720 2509
1192 2735 2818
1211 2721 3011
1212 2712 3053
1219 2711 3100
1232 2722 3159
1072 2751 925
1066 2742 939
1063 2737 956
1066 2740 981
1068 2744 1007
1067 2740 1030
1077 2754 1126
1101 2787 1345
1124 2810 1596
1158 2849 1888
1190 2881 2182
1218 2902 2479
1235 2897 2760
1283 2927 3040
1297 2934 3120
1307 2939 3175
1318 2947 3231
1086 2790 939
1083 2784 954
1080 2778 970
1080 2777 993
1082 2782 1020
1084 2784 1046
1088 2788 1102
1107 2813 1303
1135 2848 1558
1171 2891 1846
1201 2922 2136
1232 2950 2434
1252 2954 2716
1309 3004 3030
1334 3025 3152
1346 3034 3209
1356 3041 3265
1097 2823 950
1094 2816 964
1091 2812 981
1090 2810 1004
1093 2813 1031
1095 2816 1058
1100 2821 1103
1113 2838 1282
1145 2881 1539
1180 2924 1826
1209 2952 2114
1238 2976 2406
1267 3000 2695
1322 3050 3011
1360 3087 3176
1369 3092 3231
1380 3100 3286
1097 2836 949
1091 2828 964
1088 2821 983
1088 2820 1006
1094 2828 1036
1095 2829 1063
1099 2835 1109
1117 2859 1298
1151 2904 1560
1188 2949 1847
1213 2971 2127
1249 3008 2423
1290 3052 2722
1346 3107 3036
1384 3146 3195
1391 3149 3246
1397 3148 3298
64 21 20
70 24 62
105 31 205
152 74 403
191 121 612
229 156 828
264 190 1069
328 203 1470
436 237 1990
585 311 2531
676 370 2854
696 383 2931
704 390 2967
711 394 2997
725 403 3047
725 404 3062
730 408 3088
54 52 23
60 52 51
88 67 191
131 115 382
170 156 590
210 190 807
243 217 1053
301 233 1424
407 255 1922
544 318 2428
653 384 2794
678 402 2884
697 412 2949
711 423 3004
724 430 3054
734 435 3096
737 438 3121
66 166 30
73 171 50
89 190 184
140 243 380
191 288 595
233 323 811
260 343 1066
307 333 1458
395 338 1901
500 374 2317
594 417 2647
614 425 2725
625 426 2768
637 432 2811
645 436 2848
649 439 2875
640 435 2862
118 332 74
122 337 107
138 352 199
165 385 379
211 428 584
254 471 810
271 482 1099
307 469 1464
382 471 1855
466 492 2190
530 516 2440
555 523 2539
566 524 2585
574 527 2619
582 529 2653
588 534 2683
577 537 2666
172 508 134
179 513 165
188 520 210
214 551 387
248 590 586
280 630 817
276 630 1098
313 630 1446
378 634 1764
437 638 2027
502 659 2291
536 673 2433
546 673 2477
556 675 2512
559 677 2536
563 681 2560
560 689 2561
238 687 200
242 696 232
248 699 265
268 723 398
301 770 598
311 808 815
300 817 1081
336 815 1375
393 817 1666
454 825 1951
520 849 2233
564 867 2416
574 866 2462
582 867 2498
589 871 2531
596 878 2561
596 889 2569
311 887 274
315 892 304
319 899 337
333 918 418
348 971 595
347 1013 792
351 1024 1039
386 1022 1313
435 1028 1605
497 1045 1902
562 1069 2193
614 1089 2424
624 1084 2479
631 1085 2518
642 1092 2560
650 1099 2594
650 1106 2601
387 1103 351
391 1116 379
395 1121 412
397 1136 444
412 1198 586
424 1250 779
432 1249 1005
458 1255 1273
507 1270 1571
562 1288 1873
624 1311 2170
682 1335 2444
700 1336 2539
706 1333 2577
711 1332 2610
716 1333 2639
719 1339 2658
485 1368 434
489 1391 457
496 1406 486
498 1417 511
514 1469 600
535 1507 787
548 1514 1008
567 1524 1268
602 1538 1563
653 1559 1869
709 1581 2174
770 1608 2473
795 1609 2619
801 1602 2661
804 1598 2695
808 1596 2727
812 1598 2754
617 1706 529
621 1719 554
629 1737 581
633 1744 607
638 1754 648
653 1772 811
673 1794 1027
687 1799 1274
714 1817 1563
757 1844 1878
810 1868 2187
865 1890 2490
896 1889 2692
899 1879 2741
903 1872 2778
906 1867 2814
906 1858 2838
768 2043 649
770 2046 673
773 2050 696
774 2048 719
774 2047 741
782 2056 855
799 2074 1057
815 2085 1296
842 2109 1580
874 2132 1888
915 2154 2198
961 2166 2497
1000 2173 2754
1008 2161 2836
1011 2154 2876
1019 2155 2922
1022 2152 2958
906 2337 763
906 2339 785
906 2337 807
905 2335 828
904 2331 849
905 2329 905
916 2339 1086
940 2367 1323
964 2389 1596
992 2409 1894
1021 2428 2197
1061 2446 2504
1107 2461 2802
1125 2455 2941
1129 2449 2984
1136 2449 3031
1142 2449 3075
1026 2602 869
1031 2615 891
1028 2609 909
1028 2607 932
1027 2603 954
1025 2598 976
1033 2606 1125
1055 2631 1350
1085 2664 1618
1114 2691 1912
1136 2701 2206
1167 2721 2512
1209 2738 2823
1237 2737 3035
1246 2740 3087
1252 2739 3135
1264 2748 3192
1089 2749 925
1092 2761 946
1087 2753 960
1087 2752 983
1091 2757 1010
1091 2756 1033
1099 2766 1124
1127 2805 1347
1145 2822 1596
1178 2858 1886
1212 2894 2188
1243 2918 2491
1267 2926 2783
1320 2962 3073
1335 2970 3156
1345 2976 3208
1356 2984 3262
1103 2789 939
1107 2801 960
1103 2794 974
1101 2790 995
1104 2795 1022
1106 2797 1048
1110 2802 1103
1134 2836 1306
1158 2863 1560
1191 2902 1846
1222 2933 2140
1258 2969 2448
1287 2990 2740
1343 3035 3053
1371 3059 3184
1381 3067 3236
1391 3072 3290
1113 2820 948
1117 2832 969
1115 2828 985
1114 2826 1007
1115 2827 1033
1117 2829 1060
1121 2835 1104
1139 2860 1285
1170 2899 1543
1202 2936 1826
1238 2977 2127
1274 3014 2428
1309 3045 2726
1360 3089 3035
1399 3124 3208
1407 3128 3258
1417 3135 3311
1112 2831 947
1116 2843 968
1113 2837 987
1112 2837 1010
1116 2842 1039
1117 2843 1066
1124 2853 1112
1146 2883 1302
1176 2923 1565
1214 2969 1853
1249 3008 2149
1290 3054 2450
1332 3099 2754
1386 3149 3060
1424 3184 3229
1431 3187 3275
1437 3185 3324
211 27 26
222 31 69
254 54 228
291 102 421
327 147 630
359 186 850
394 204 1143
455 197 1596
566 243 2105
680 312 2556
727 348 2762
737 360 2824
746 369 2873
756 378 2919
761 383 2952
765 387 2982
767 389 3004
199 56 28
206 62 55
233 89 211
268 131 399
304 174 607
338 217 826
372 238 1117
422 227 1539
521 262 2015
638 328 2477
723 381 2804
742 397 2888
754 407 2945
764 416 2994
775 422 3037
778 427 3069
775 424 3074
198 185 40
202 191 71
213 211 198
250 251 393
294 298 604
327 335 822
344 333 1118
388 319 1512
468 334 1927
562 369 2324
645 413 2649
666 424 2747
679 429 2805
690 436 2853
699 441 2895
706 445 2930
694 441 2921
199 339 87
204 342 121
212 357 205
234 390 383
276 435 588
305 470 820
312 470 1110
350 457 1474
418 462 1855
500 485 2216
575 516 2514
604 527 2627
613 528 2674
621 530 2705
623 532 2726
628 536 2754
613 537 2726
205 501 136
210 508 168
215 514 208
243 547 382
276 584 580
302 623 811
298 621 1096
334 617 1439
402 626 1790
468 636 2079
535 660 2345
572 672 2494
581 671 2532
588 674 2563
592 678 2588
595 681 2610
588 690 2599
264 684 203
270 692 237
275 698 270
296 720 395
326 767 596
328 802 809
320 808 1077
354 809 1388
412 811 1688
481 826 1988
546 848 2265
589 862 2450
599 863 2499
609 865 2535
614 870 2563
620 877 2590
619 889 2591
338 887 278
341 892 309
345 896 341
358 914 415
372 970 591
367 1009 784
367 1022 1037
405 1024 1325
456 1027 1620
517 1045 1921
585 1069 2215
641 1092 2458
649 1088 2512
656 1088 2548
666 1095 2587
674 1103 2621
676 1112 2633
415 1104 356
419 1116 385
421 1123 417
424 1139 448
433 1202 578
444 1253 772
450 1252 1002
476 1257 1277
524 1270 1580
584 1292 1891
648 1317 2194
705 1340 2466
724 1341 2565
730 1338 2602
735 1338 2633
741 1341 2668
748 1350 2694
512 1378 439
516 1402 461
523 1422 487
525 1433 513
537 1478 594
554 1516 781
567 1520 1004
585 1527 1269
621 1543 1571
676 1567 1886
733 1589 2192
790 1612 2487
819 1615 2641
823 1610 2684
827 1606 2716
835 1606 2756
839 1610 2786
644 1724 534
649 1737 559
656 1754 584
659 1761 610
663 1771 646
675 1784 807
693 1802 1024
709 1810 1277
735 1825 1570
777 1851 1886
830 1874 2197
888 1898 2506
919 1896 2712
923 1886 2764
927 1881 2801
933 1880 2843
934 1874 2873
794 2057 652
797 2066 677
800 2069 702
800 2067 724
798 2062 745
805 2068 852
822 2086 1054
838 2098 1298
865 2121 1586
895 2141 1895
937 2165 2211
982 2175 2509
1020 2177 2767
1030 2168 2856
1034 2164 2898
1042 2164 2943
1053 2171 2991
923 2332 762
931 2355 789
932 2355 812
931 2352 833
927 2346 853
926 2341 904
937 2349 1082
960 2375 1320
987 2400 1599
1015 2422 1903
1043 2438 2207
1079 2450 2508
1125 2462 2806
1149 2467 2962
1153 2461 3006
1161 2461 3055
1175 2473 3111
1043 2599 869
1048 2611 891
1052 2624 912
1053 2624 936
1052 2620 959
1050 2615 981
1054 2615 1120
1077 2641 1348
1108 2677 1621
1137 2704 1918
1157 2710 2212
1186 2726 2515
1227 2741 2827
1262 2749 3052
1273 2755 3108
1283 2759 3161
1294 2767 3215
1106 2749 926
1111 2763 947
1115 2775 968
1112 2772 988
1114 2773 1014
1115 2774 1038
1122 2782 1121
1152 2825 1349
1173 2845 1603
1203 2877 1895
1235 2907 2195
1267 2932 2501
1295 2946 2796
1351 2985 3091
1369 2998 3178
1378 3003 3230
1388 3009 3282
1121 2790 940
1126 2803 960
1130 2815 982
1128 2811 1001
1129 2813 1027
1132 2817 1054
1135 2821 1105
1164 2862 1310
1188 2890 1567
1219 2925 1853
1248 2953 2149
1285 2987 2457
1317 3012 2754
1375 3063 3067
1407 3090 3209
1416 3095 3261
1426 3103 3312
1132 2824 950
1138 2838 972
1142 2849 992
1140 2847 1014
1140 2846 1039
1143 2849 1066
1146 2854 1106
1172 2891 1291
1200 2927 1551
1235 2967 1838
1269 3003 2138
1304 3035 2441
1342 3071 2742
1394 3118 3052
1434 3153 3233
1441 3156 3282
1451 3163 3332
1131 2836 949
1139 2857 974
1144 2866 998
1142 2864 1019
1145 2866 1047
1146 2868 1074
1152 2876 1118
1178 2914 1308
1211 2958 1576
1251 3006 1870
1285 3043 2167
1329 3090 2471
1373 3137 2774
1423 3182 3080
1463 3219 3259
1470 3222 3305
1474 3220 3350
402 66 57
412 74 112
429 99 256
464 135 444
500 178 649
532 202 895
557 174 1257
635 194 1707
728 247 2159
787 303 2478
828 344 2693
831 351 2744
838 360 2794
846 369 2839
848 372 2868
856 381 2916
855 382 2941
385 98 61
388 103 93
405 124 234
440 163 424
481 210 631
508 231 878
525 212 1216
586 222 1635
676 268 2084
770 332 2500
833 381 2791
843 392 2858
846 399 2899
846 401 2923
846 404 2948
849 408 2979
