滤镜资源/Professional Luts Collection/Triune-Digital-Cinematic-LUTs/3D LUTs (3DL)/LOG/The Ring - LOG.3dl
# Created by Benjamin (IWLTBAP) : http://luts.iwltbap.com
# Copyright: (C) Copyright 2016 Triune Films and IWLTBAP
# Blockbuster LUTs Pack
0 256 512 768 1023
0 0 0
0 56 467
0 465 1562
0 745 2244
0 849 2488
0 460 36
0 558 524
0 815 1584
0 1095 2438
0 1170 2666
0 1535 339
0 1552 540
0 1816 1722
0 2094 2951
0 2149 3188
0 2953 816
0 2935 901
0 3124 1750
0 3485 3304
0 3587 3793
0 3455 980
0 3465 1073
0 3618 1672
0 4041 3238
0 4095 4030
406 10 10
563 65 579
258 451 1645
198 754 2368
194 853 2612
249 419 41
274 506 488
154 754 1553
144 1052 2456
140 1134 2695
79 1476 326
75 1484 489
68 1741 1647
60 2037 2918
58 2093 3172
57 2883 787
57 2888 888
57 3050 1692
57 3409 3231
57 3526 3769
57 3455 980
57 3465 1081
57 3605 1633
57 4030 3193
57 4095 4030
1407 160 93
1650 233 718
1869 506 1902
1830 813 2751
1782 907 2988
1268 464 115
1399 522 530
1612 733 1702
1537 1034 2735
1453 1118 2976
904 1419 351
906 1422 469
978 1660 1609
507 1958 2967
390 2018 3246
293 2784 775
289 2776 866
282 2925 1587
272 3279 3122
267 3414 3754
231 3465 993
227 3479 1089
218 3588 1546
207 4011 3085
199 4095 4043
2189 345 241
2406 404 743
2834 622 2025
3001 916 3043
3037 1009 3309
2204 566 266
2336 594 562
2788 780 1842
3002 1067 3064
3031 1149 3330
2284 1453 471
2305 1451 585
2606 1643 1653
2833 1942 3150
2844 2014 3509
1779 2736 832
1777 2733 921
1845 2842 1534
1932 3187 3096
1837 3342 3856
562 3535 1067
575 3551 1167
563 3624 1501
541 4033 3037
534 4095 4095
2423 405 287
2626 462 729
3092 664 2032
3314 952 3133
3337 1045 3390
2450 588 304
2548 613 557
3034 784 1841
3311 1086 3152
3337 1159 3406
2564 1429 494
2599 1438 613
2937 1610 1631
3264 1901 3163
3311 1977 3585
2576 2709 863
2592 2715 964
2720 2802 1510
3027 3134 3086
3116 3307 3950
2357 3612 1150
2371 3625 1243
2410 3683 1510
2623 4074 3032
2854 4095 4069
