滤镜资源/Professional Luts Collection/Triune-Digital-Cinematic-LUTs/3D LUTs (3DL)/LOG/The Conjuring - LOG.3dl
# Created by Benjamin (IWLTBAP) : http://luts.iwltbap.com
# Copyright: (C) Copyright 2016 Triune Films and IWLTBAP
# Blockbuster LUTs Pack
0 128 256 384 512 640 768 896 1023
28 33 42
28 31 183
32 45 428
56 104 738
101 191 1085
141 271 1386
151 292 1457
160 309 1521
167 325 1583
46 199 77
46 194 224
53 198 478
84 251 785
125 327 1124
167 406 1457
175 415 1530
183 426 1591
191 441 1653
90 485 134
73 481 204
97 482 547
124 512 858
168 590 1212
214 673 1568
228 694 1690
234 703 1747
242 718 1808
191 807 181
163 793 235
126 803 519
165 817 917
207 867 1276
255 945 1644
286 983 1840
297 993 1901
307 1006 1964
399 1197 253
346 1174 308
248 1139 431
207 1163 925
251 1180 1324
313 1241 1712
365 1295 2011
374 1301 2072
384 1312 2133
642 1634 364
583 1598 407
523 1560 456
310 1538 845
317 1540 1353
375 1565 1755
441 1620 2133
455 1629 2225
465 1637 2287
947 2146 532
869 2104 583
796 2059 627
620 1941 766
416 1962 1340
458 1937 1786
520 1970 2205
548 1989 2387
559 1998 2455
1107 2392 615
1031 2357 667
957 2318 719
857 2258 783
543 2170 1192
497 2170 1761
562 2186 2189
612 2233 2494
621 2243 2563
1197 2528 667
1125 2497 717
1050 2459 767
962 2411 827
621 2256 1146
522 2280 1764
579 2274 2187
637 2329 2536
647 2338 2606
169 44 50
175 48 209
162 63 446
174 111 728
205 183 1057
233 253 1355
234 270 1425
239 287 1489
246 306 1555
155 203 79
153 201 225
147 203 482
171 260 797
203 332 1131
237 409 1467
238 417 1543
243 429 1603
248 443 1665
142 482 133
140 484 206
141 480 541
167 512 857
211 591 1213
255 673 1570
272 696 1700
278 706 1758
288 720 1819
248 807 177
252 818 247
175 812 516
209 822 918
250 873 1281
302 951 1650
336 992 1857
346 1002 1919
357 1015 1983
487 1207 242
466 1211 318
348 1166 438
253 1177 929
299 1190 1329
362 1251 1719
416 1308 2028
425 1314 2090
435 1325 2151
742 1654 367
720 1649 433
655 1608 473
390 1550 829
367 1555 1359
428 1580 1765
493 1635 2147
508 1644 2243
518 1653 2307
1051 2169 538
1002 2158 613
922 2110 658
741 1986 781
485 1984 1337
512 1955 1795
575 1989 2219
605 2010 2413
616 2019 2481
1219 2430 629
1175 2430 707
1101 2395 759
998 2338 824
647 2202 1183
560 2211 1776
620 2220 2206
673 2270 2526
682 2279 2595
1316 2571 684
1271 2570 762
1199 2538 813
1115 2494 868
744 2294 1145
591 2327 1777
641 2315 2207
701 2370 2571
709 2377 2639
499 108 91
511 109 235
452 121 487
434 168 773
439 234 1093
443 294 1386
437 307 1455
437 320 1513
441 334 1574
527 240 117
527 250 237
461 229 495
409 265 788
405 320 1104
418 381 1426
416 382 1506
420 395 1567
426 410 1629
489 511 118
505 522 187
457 552 583
389 573 916
408 643 1263
447 719 1623
458 742 1765
462 750 1822
470 763 1884
502 833 147
518 849 222
464 893 541
365 871 949
392 911 1313
439 987 1683
466 1027 1911
470 1033 1971
478 1046 2035
650 1215 216
638 1224 295
578 1227 433
336 1195 922
365 1197 1328
419 1254 1717
470 1312 2039
477 1319 2104
486 1329 2165
836 1658 359
811 1657 434
791 1648 495
484 1555 805
417 1563 1353
479 1585 1764
543 1640 2154
559 1651 2259
570 1662 2324
1151 2177 536
1103 2171 614
1057 2158 688
879 2041 796
564 2002 1320
567 1969 1797
630 2003 2227
662 2025 2436
672 2035 2504
1339 2472 641
1294 2474 724
1251 2473 804
1155 2424 863
767 2237 1171
630 2259 1788
683 2261 2223
740 2314 2563
747 2322 2632
1442 2612 694
1396 2618 785
1351 2616 862
1278 2581 909
901 2349 1151
672 2384 1788
704 2357 2224
767 2414 2607
775 2421 2675
979 197 144
958 189 251
922 205 527
830 238 816
804 316 1156
777 380 1469
762 392 1545
754 401 1599
750 413 1656
1027 304 171
1006 302 250
940 290 516
832 303 809
776 371 1149
737 434 1469
723 453 1576
714 463 1631
709 474 1689
1132 595 232
1138 610 297
1091 647 600
887 624 914
752 663 1265
723 730 1628
709 749 1786
703 752 1838
703 762 1895
1072 880 186
1103 904 269
1142 970 517
890 1027 1053
755 1043 1424
770 1111 1797
772 1142 2038
768 1143 2094
771 1153 2157
1156 1261 207
1178 1285 291
1188 1311 400
1022 1426 996
747 1363 1460
753 1395 1841
774 1439 2162
773 1442 2229
777 1451 2290
1316 1722 335
1304 1742 418
1273 1752 508
1151 1776 873
726 1703 1423
730 1691 1845
765 1730 2239
770 1738 2357
777 1748 2422
1446 2224 514
1396 2231 610
1338 2226 701
1222 2196 865
766 2050 1290
691 2019 1822
736 2037 2249
761 2057 2479
768 2064 2545
1498 2523 643
1448 2533 746
1399 2533 831
1344 2525 906
943 2291 1157
712 2317 1789
746 2303 2231
806 2358 2601
814 2366 2669
1566 2651 695
1520 2658 796
1477 2665 887
1437 2664 962
1088 2436 1163
767 2448 1785
769 2405 2235
832 2456 2637
843 2468 2715
1493 300 222
1439 283 293
1410 294 555
1370 317 839
1240 359 1159
1192 473 1549
1166 495 1653
1152 506 1711
1144 518 1770
1504 367 236
1489 367 290
1422 359 543
1373 381 832
1244 421 1155
1175 537 1557
1136 562 1688
1119 570 1742
1108 581 1800
1680 656 292
1676 675 358
1641 719 630
1522 695 920
1342 716 1254
1171 786 1648
1097 798 1830
1073 798 1887
1058 803 1948
1784 967 337
1794 988 402
1791 1052 599
1731 1171 1087
1408 1128 1426
1193 1159 1837
1133 1198 2111
1113 1198 2165
1102 1206 2225
1783 1311 330
1809 1338 406
1821 1359 487
1816 1541 1043
1482 1606 1611
1284 1600 2028
1249 1654 2384
1227 1651 2456
1219 1655 2514
1937 1775 386
1954 1809 461
1959 1837 540
1925 1919 881
1731 2094 1572
1305 1984 2078
1241 1978 2461
1229 1984 2602
1229 1992 2667
2078 2363 537
2076 2388 609
2065 2405 690
2019 2417 855
1863 2504 1487
1290 2374 2031
1224 2325 2476
1218 2320 2721
1221 2325 2788
2119 2723 643
2109 2742 734
2095 2760 837
2060 2768 948
1901 2809 1448
1368 2635 1844
1141 2590 2420
1172 2610 2806
1174 2614 2875
2141 2839 692
2130 2857 792
2117 2874 902
2078 2878 1013
1935 2914 1457
1431 2716 1797
1131 2675 2404
1150 2679 2809
1160 2688 2896
1983 385 283
1939 375 331
1888 394 597
1844 411 878
1788 442 1181
1645 494 1521
1625 546 1685
1614 577 1768
1601 605 1847
2009 449 295
1995 455 351
1922 460 583
1870 482 874
1817 516 1184
1672 562 1526
1640 641 1749
1618 669 1829
1593 690 1901
2172 718 347
2171 728 407
2132 765 638
2049 770 946
1960 787 1271
1783 820 1622
1650 886 1907
1595 885 1965
1554 889 2024
2313 1067 431
2325 1091 495
2347 1138 637
2304 1272 1133
2182 1245 1438
1955 1274 1819
1656 1284 2167
1590 1270 2223
1548 1270 2290
2414 1436 505
2419 1462 578
2420 1485 651
2470 1680 1156
2420 1812 1682
2108 1762 2030
1714 1722 2452
1670 1724 2549
1653 1731 2608
2475 1848 535
2488 1880 606
2496 1910 687
2524 2014 997
2517 2227 1680
2369 2346 2246
1940 2260 2683
1911 2273 2859
1912 2285 2927
2658 2432 626
2670 2468 699
2678 2501 777
2677 2539 910
2642 2661 1522
2561 2817 2186
2100 2734 2747
1952 2670 3008
1943 2673 3074
2718 2886 707
2727 2923 783
2729 2957 867
2717 2981 973
2667 3048 1469
2606 3154 2110
2035 3047 2634
1809 2967 3079
1794 2956 3142
2736 3009 733
2743 3041 811
2743 3072 908
2727 3093 1017
2679 3144 1467
2605 3232 2093
2072 3114 2562
1737 3024 3060
1747 3028 3159
2120 406 297
2088 399 340
2049 419 584
2012 438 866
1986 482 1182
1880 510 1496
1807 543 1662
1804 573 1747
1799 607 1835
2189 477 312
2183 483 367
2124 489 571
2091 520 868
2067 570 1194
1967 597 1513
1877 631 1712
1873 665 1803
1868 703 1896
2390 737 381
2393 744 438
2369 749 607
2315 767 916
2273 811 1258
2196 840 1596
2042 843 1841
2015 865 1927
1994 900 2020
2636 1129 495
2655 1156 561
2688 1191 663
2689 1286 1104
2635 1295 1435
2561 1337 1806
2378 1374 2156
2303 1385 2258
2233 1392 2335
2858 1552 618
2878 1588 697
2895 1623 781
2984 1812 1235
2949 1906 1727
2864 1885 2054
2623 1897 2434
2466 1881 2573
2369 1870 2642
3021 2011 734
3033 2047 817
3043 2081 907
3084 2181 1174
3143 2425 1855
3127 2511 2337
2891 2460 2676
2556 2378 2870
2502 2387 2957
3116 2475 764
3129 2508 840
3137 2539 921
3141 2574 1031
3174 2756 1677
3193 2919 2313
3166 3035 2864
3000 3025 3195
2973 3028 3271
3223 2944 790
3235 2983 857
3245 3023 934
3246 3057 1023
3245 3166 1456
3237 3304 2132
3222 3437 2787
3010 3430 3329
2982 3418 3415
3233 3065 805
3246 3105 877
3253 3140 950
3252 3171 1035
3245 3272 1419
3233 3408 2108
3206 3528 2757
2937 3505 3308
2931 3505 3443
2205 418 305
2173 411 348
2136 430 576
2103 451 858
2086 500 1178
1995 528 1493
1914 552 1661
1884 572 1735
1880 604 1823
2270 492 322
2262 495 375
2209 499 560
2185 535 860
2166 589 1189
2088 622 1512
1991 641 1711
1958 658 1784
1957 696 1878
2450 730 387
2447 731 441
2424 729 584
2373 744 890
2339 790 1229
2279 823 1570
2138 817 1820
2087 821 1884
2074 858 1980
2693 1117 500
2711 1142 566
2735 1168 648
2743 1243 1057
2707 1266 1395
2652 1319 1776
2511 1351 2120
2438 1352 2213
2386 1373 2304
2943 1548 633
2966 1586 715
2986 1619 798
3083 1789 1201
3046 1857 1666
3001 1855 2013
2862 1900 2401
2736 1891 2543
2670 1896 2628
3208 2035 774
3228 2071 856
3251 2113 952
3293 2205 1181
3367 2447 1856
3369 2520 2320
3275 2502 2679
3079 2460 2871
3019 2454 2943
3437 2548 891
3451 2583 977
3464 2618 1072
3475 2650 1182
3543 2865 1816
3582 3018 2410
3592 3101 2920
3476 3085 3227
3460 3089 3294
3587 3001 922
3597 3034 994
3607 3069 1073
3614 3100 1165
3652 3221 1576
3692 3386 2295
3731 3527 2932
3717 3608 3473
3709 3624 3587
3604 3120 924
3613 3154 988
3624 3191 1063
3635 3228 1155
3668 3328 1483
3707 3501 2242
3746 3637 2892
3727 3730 3465
3685 3740 3616
2289 434 316
2256 423 356
2217 440 573
2190 467 859
2179 517 1180
2104 552 1502
2021 567 1669
1989 580 1735
1957 601 1811
2353 509 334
2345 510 384
2293 511 560
2274 550 861
2260 606 1190
2201 650 1522
2104 661 1721
2070 671 1786
2038 691 1861
2520 737 396
2515 736 449
2489 730 578
2445 744 883
2419 790 1220
2377 835 1569
2249 826 1820
2205 821 1879
2161 836 1950
2759 1125 511
2775 1148 576
2794 1170 652
2803 1231 1041
2783 1261 1382
2744 1328 1773
2627 1355 2114
2566 1357 2203
2511 1367 2282
3009 1558 647
3033 1597 731
3056 1633 816
3151 1789 1196
3112 1838 1640
3080 1848 1996
2984 1905 2397
2879 1905 2538
2807 1902 2613
3280 2048 791
3302 2084 872
3323 2125 968
3363 2212 1185
3436 2441 1842
3443 2509 2300
3370 2502 2674
3218 2490 2890
3135 2464 2940
3508 2561 918
3522 2596 1007
3535 2632 1104
3546 2665 1216
3617 2874 1823
3663 3031 2407
3663 3103 2917
3581 3103 3243
3538 3091 3296
3660 3018 956
3674 3053 1033
3687 3088 1118
3699 3121 1219
3743 3239 1612
3803 3411 2284
3832 3530 2929
3831 3621 3492
3814 3625 3597
3696 3138 958
3708 3172 1025
3722 3210 1101
3735 3245 1192
3772 3339 1490
3838 3518 2191
3873 3639 2862
3891 3758 3504
3873 3783 3680
