滤镜资源/Professional Luts Collection/Triune-Digital-Cinematic-LUTs/3D LUTs (3DL)/LOG/The Lord of the Rings - LOG.3dl
# Created by Benjamin (IWLTBAP) : http://luts.iwltbap.com
# Copyright: (C) Copyright 2016 Triune Films and IWLTBAP
# Blockbuster LUTs Pack
0 256 512 768 1023
21 19 18
137 110 610
393 230 1954
687 392 2977
711 410 3096
147 506 130
222 589 586
350 633 1723
512 669 2417
533 686 2522
457 1349 432
489 1459 603
582 1532 1554
773 1604 2597
789 1591 2731
1009 2603 869
1002 2588 950
1063 2653 1616
1192 2735 2818
1232 2722 3159
1097 2836 949
1094 2828 1036
1151 2904 1560
1290 3052 2722
1397 3148 3298
606 124 112
690 215 672
893 251 2089
970 363 2733
962 375 2855
571 557 209
603 605 598
631 624 1799
782 698 2639
794 732 2758
613 1430 440
612 1484 575
671 1548 1576
868 1618 2695
896 1624 2860
1083 2598 873
1098 2639 966
1146 2680 1610
1269 2748 2824
1352 2798 3248
1180 2860 962
1204 2916 1066
1276 3008 1591
1447 3203 2807
1546 3284 3403
1903 433 430
2072 490 857
2126 512 2026
2168 613 2868
2003 555 2847
1810 721 421
1943 741 724
1931 747 1831
1871 800 2746
1852 838 2964
1807 1673 642
1832 1686 715
1828 1774 1730
1808 1936 3006
1681 1931 3245
1867 2882 1077
1861 2877 1145
1729 2900 1722
1743 3036 2996
1835 3102 3532
1732 3177 1152
1677 3185 1217
1657 3290 1676
1827 3510 2952
1912 3585 3629
3006 813 806
3028 823 1065
3132 865 2114
2879 745 2744
2617 643 2656
2896 929 766
3089 976 979
3031 937 1887
3023 907 2867
3052 949 3098
3374 1943 1089
3409 1959 1173
3488 2127 2060
3541 2265 3322
3571 2334 3655
3564 3213 1467
3617 3234 1557
3630 3323 2054
3574 3427 3298
3585 3510 3861
3496 3715 1596
3532 3775 1695
3507 3859 1993
3462 4001 3252
3417 3981 3903
3222 882 875
3203 874 1093
3268 900 2057
2808 692 2517
2854 710 2735
3029 933 797
3188 971 974
3161 944 1856
3209 945 2886
3235 954 3110
3589 1944 1140
3634 1966 1228
3748 2146 2086
3835 2294 3347
3866 2352 3702
3994 3220 1609
4005 3263 1720
4037 3372 2258
4092 3514 3394
4095 3547 3900
4086 3795 1849
4095 3839 1969
4095 3900 2323
4095 4023 3560
4095 4090 4087
