滤镜资源/Professional Luts Collection/Triune-Digital-Cinematic-LUTs/3D LUTs (3DL)/LOG/The Book of Eli - LOG.3dl
# Created by Benjamin (IWLTBAP) : http://luts.iwltbap.com
# Copyright: (C) Copyright 2016 Triune Films and IWLTBAP
# Blockbuster LUTs Pack
0 256 512 768 1023
117 111 101
158 150 554
284 283 1321
382 383 1780
403 413 1933
277 561 217
291 573 589
479 763 1479
715 1001 2217
779 1028 2374
471 1289 459
476 1294 655
593 1438 1495
923 1889 2532
1001 1978 2756
815 2292 863
782 2289 984
924 2471 1777
1224 2719 2738
1403 2843 3061
1112 2630 1089
1108 2651 1233
1227 2816 1827
1530 3090 2810
1654 3190 3188
561 162 146
689 287 690
874 499 1569
874 540 1992
900 579 2148
610 586 271
646 626 647
859 847 1571
1090 1068 2334
1129 1107 2497
617 1287 490
619 1274 627
730 1463 1523
1150 1950 2636
1244 2036 2830
954 2280 871
930 2277 987
1055 2450 1750
1430 2742 2762
1618 2887 3123
1272 2674 1133
1279 2691 1276
1365 2826 1819
1697 3128 2827
1825 3243 3244
1214 256 231
1370 377 704
2002 819 1874
2284 1071 2585
2314 1101 2730
1268 615 338
1334 653 663
1909 1097 1830
2287 1401 2713
2281 1387 2812
1453 1445 647
1481 1477 796
1814 1787 1806
2308 2235 2928
2359 2285 3103
1912 2581 1245
1862 2549 1340
1824 2577 1859
2214 2928 2941
2340 3061 3336
1907 2889 1382
1891 2899 1515
1913 2969 1922
2147 3246 2909
2275 3386 3409
1821 356 318
1959 450 711
2487 815 1785
2908 1191 2718
2967 1255 2895
2050 692 479
2158 753 731
2654 1119 1850
3054 1494 2857
3105 1532 3029
2717 1810 1046
2715 1806 1176
2902 1975 1996
3248 2378 3102
3301 2429 3311
3040 2874 1681
3021 2862 1781
3041 2910 2248
3209 3121 3145
3267 3179 3499
3134 3377 2018
3134 3395 2143
3154 3445 2432
3264 3607 3230
3321 3678 3676
2008 402 362
2142 470 707
2670 862 1805
3006 1170 2691
3095 1263 2897
2252 709 494
2337 751 730
2770 1086 1820
3142 1439 2834
3196 1494 3015
2934 1839 1115
2949 1845 1259
3128 2016 2057
3419 2347 3087
3525 2458 3374
3459 2989 1875
3459 2994 2001
3496 3042 2410
3592 3142 3167
3658 3198 3544
3702 3567 2258
3713 3584 2370
3727 3606 2577
3832 3738 3322
3888 3804 3792
