滤镜资源/Professional Luts Collection/Triune-Digital-Cinematic-LUTs/3D LUTs (3DL)/LOG/The Ring - LOG.3dl
# Created by Benjamin (IWLTBAP) : http://luts.iwltbap.com
# Copyright: (C) Copyright 2016 Triune Films and IWLTBAP
# Blockbuster LUTs Pack
0 64 128 192 256 320 384 448 512 576 640 704 768 832 896 960 1023
0 0 0
0 0 38
0 2 125
0 17 254
0 56 467
0 122 701
0 228 962
0 340 1250
0 465 1562
0 592 1888
0 692 2112
0 719 2183
0 745 2244
0 775 2305
0 802 2366
0 826 2427
0 849 2488
0 26 0
0 35 35
0 42 129
0 53 256
0 91 463
0 152 686
0 247 947
0 353 1226
0 471 1535
0 604 1860
0 710 2116
0 739 2189
0 766 2253
0 795 2317
0 823 2378
0 846 2439
0 869 2500
0 111 0
0 119 26
0 132 127
0 155 280
0 199 490
0 252 706
0 335 959
0 422 1221
0 539 1527
0 657 1844
0 767 2132
0 798 2223
0 817 2276
0 840 2333
0 868 2399
0 894 2464
0 917 2525
0 250 13
0 257 39
0 277 113
0 313 287
0 358 508
0 403 733
0 482 987
0 558 1257
0 655 1547
0 758 1851
0 872 2160
0 919 2292
0 936 2348
0 957 2403
0 977 2456
0 998 2513
0 1022 2575
0 460 36
0 463 66
0 468 109
0 511 295
0 558 524
0 609 765
0 662 1019
0 735 1294
0 815 1584
0 910 1887
0 1015 2203
0 1075 2379
0 1095 2438
0 1110 2493
0 1127 2548
0 1147 2606
0 1170 2666
0 693 79
0 697 111
0 698 141
0 728 289
0 775 529
0 825 780
0 886 1049
0 947 1328
0 1024 1627
0 1109 1934
0 1206 2259
0 1270 2487
0 1283 2544
0 1307 2608
0 1329 2670
0 1340 2725
0 1355 2781
0 952 152
0 955 185
0 956 218
0 966 300
0 1012 524
0 1072 790
0 1130 1070
0 1193 1363
0 1258 1664
0 1340 1981
0 1426 2314
0 1509 2598
0 1527 2676
0 1540 2733
0 1555 2792
0 1568 2850
0 1585 2911
0 1223 239
0 1229 270
0 1233 300
0 1234 338
0 1274 529
0 1331 792
0 1391 1075
0 1463 1384
0 1530 1697
0 1602 2021
0 1686 2361
0 1771 2692
0 1801 2814
0 1813 2874
0 1827 2934
0 1837 2990
0 1851 3048
0 1535 339
0 1535 369
0 1534 400
0 1535 425
0 1552 540
0 1610 794
0 1674 1082
0 1749 1397
0 1816 1722
0 1889 2054
0 1970 2406
0 2055 2757
0 2094 2951
0 2105 3010
0 2119 3068
0 2132 3127
0 2149 3188
0 1850 442
0 1857 470
0 1861 499
0 1859 527
0 1862 576
0 1903 798
0 1972 1085
0 2044 1397
0 2118 1729
0 2195 2081
0 2273 2438
0 2360 2805
0 2419 3082
0 2431 3160
0 2443 3219
0 2457 3280
0 2477 3343
0 2206 564
0 2203 586
0 2201 609
0 2202 637
0 2202 665
0 2223 815
0 2287 1087
0 2359 1404
0 2437 1737
0 2520 2097
0 2601 2463
0 2689 2844
0 2762 3177
0 2787 3302
0 2802 3369
0 2808 3427
0 2819 3488
0 2553 672
0 2558 697
0 2561 722
0 2560 748
0 2558 776
0 2567 851
0 2625 1102
0 2690 1405
0 2772 1742
0 2854 2104
0 2942 2485
0 3034 2868
0 3128 3266
0 3157 3443
0 3163 3505
0 3177 3570
0 3199 3637
0 2953 816
0 2951 837
0 2948 857
0 2943 879
0 2935 901
0 2932 928
0 2968 1121
0 3038 1413
0 3124 1750
0 3206 2115
0 3299 2499
0 3393 2895
0 3485 3304
0 3542 3585
0 3551 3654
0 3566 3722
0 3587 3793
0 3188 892
0 3188 912
0 3191 935
0 3197 961
0 3200 985
0 3200 1010
0 3224 1123
0 3295 1400
0 3384 1730
0 3485 2096
0 3585 2474
0 3683 2879
0 3786 3298
0 3886 3681
0 3903 3777
0 3917 3842
0 3939 3913
0 3275 921
0 3275 943
0 3275 963
0 3279 986
0 3285 1012
0 3291 1041
0 3306 1110
0 3373 1359
0 3458 1683
0 3569 2048
0 3663 2418
0 3779 2830
0 3897 3255
0 3979 3659
0 4032 3837
0 4043 3899
0 4055 3960
0 3365 951
0 3365 976
0 3365 998
0 3369 1018
0 3375 1041
0 3381 1070
0 3390 1122
0 3445 1339
0 3530 1652
0 3637 2013
0 3737 2391
0 3846 2793
0 3957 3214
0 4029 3632
0 4063 3861
0 4064 3933
0 4075 3995
0 3455 980
0 3455 1006
0 3455 1032
0 3459 1053
0 3465 1073
0 3471 1099
0 3480 1150
0 3528 1365
0 3618 1672
0 3720 2031
0 3826 2418
0 3933 2819
0 4041 3238
0 4095 3657
0 4095 3884
0 4095 3957
0 4095 4030
34 0 0
45 0 35
34 1 133
30 16 270
28 59 470
26 126 711
24 224 961
22 336 1243
20 459 1553
17 588 1879
15 691 2113
14 719 2189
14 743 2247
14 769 2305
14 798 2368
14 826 2433
14 849 2494
24 32 0
23 31 31
21 37 123
20 48 260
18 84 455
16 145 682
15 238 940
14 349 1217
14 467 1528
14 600 1856
14 709 2117
14 739 2195
14 763 2256
14 789 2317
14 818 2378
14 846 2439
14 869 2500
15 106 0
15 114 24
14 125 120
14 149 274
14 192 483
14 247 700
14 327 953
14 416 1216
14 531 1519
14 651 1839
14 762 2129
14 794 2226
14 813 2279
14 837 2337
14 865 2402
14 890 2462
14 914 2523
14 246 12
14 251 38
14 272 112
14 307 282
14 352 500
14 395 728
14 473 979
14 552 1249
14 645 1537
14 753 1844
14 867 2154
14 911 2285
14 928 2342
14 949 2399
14 971 2455
14 994 2516
14 1018 2578
14 453 35
14 457 61
14 460 98
14 508 292
14 550 515
14 600 758
14 656 1014
14 724 1283
14 810 1577
14 903 1879
14 1007 2194
14 1069 2381
14 1088 2439
14 1108 2498
14 1124 2552
14 1141 2608
14 1164 2667
14 687 78
14 690 109
14 691 140
14 721 284
14 770 522
14 822 776
14 878 1041
14 941 1320
14 1013 1618
14 1100 1925
14 1197 2249
14 1269 2488
14 1278 2544
14 1297 2602
14 1320 2665
14 1338 2725
14 1354 2782
14 942 149
14 951 182
14 953 216
14 957 294
14 1008 521
14 1063 784
14 1121 1064
14 1183 1354
14 1250 1657
14 1330 1972
14 1419 2305
14 1502 2595
14 1519 2674
14 1529 2728
14 1546 2787
14 1563 2849
14 1580 2909
14 1217 239
14 1220 267
14 1225 297
14 1224 332
14 1262 517
14 1322 783
14 1383 1069
14 1451 1371
14 1520 1686
14 1594 2014
14 1676 2352
14 1760 2683
14 1793 2812
14 1805 2870
14 1819 2930
14 1829 2986
14 1844 3044
14 1524 336
14 1527 364
14 1526 394
14 1526 423
14 1542 533
14 1600 786
14 1665 1074
14 1734 1386
14 1808 1713
14 1879 2044
14 1963 2398
14 2043 2746
14 2087 2946
14 2103 3012
14 2116 3070
14 2126 3129
14 2143 3190
14 1842 442
14 1848 470
14 1853 499
14 1850 525
14 1852 569
14 1893 790
14 1962 1075
14 2032 1386
14 2108 1720
14 2185 2071
14 2264 2429
14 2347 2793
14 2412 3077
14 2425 3156
14 2435 3215
14 2443 3276
14 2462 3339
14 2190 558
14 2190 579
14 2188 602
14 2190 630
14 2189 659
14 2213 808
14 2277 1078
14 2351 1396
14 2425 1727
14 2511 2087
14 2594 2456
14 2676 2833
14 2753 3171
14 2778 3296
14 2793 3364
14 2800 3427
14 2811 3488
14 2550 676
14 2551 699
14 2554 723
14 2550 746
14 2548 773
14 2556 846
14 2609 1092
14 2680 1395
14 2761 1734
14 2848 2098
14 2929 2471
14 3022 2858
14 3116 3253
14 3145 3436
14 3152 3499
14 3167 3565
14 3188 3632
14 2938 809
14 2941 834
14 2938 854
14 2936 875
14 2929 897
14 2923 923
14 2959 1115
14 3027 1406
14 3110 1737
14 3192 2101
14 3290 2493
14 3381 2885
14 3475 3293
14 3532 3578
14 3540 3648
14 3553 3716
14 3574 3787
14 3188 892
14 3199 918
14 3203 941
14 3200 962
14 3200 985
14 3200 1010
14 3226 1120
14 3295 1396
14 3383 1722
14 3480 2088
14 3586 2474
14 3679 2871
14 3785 3293
14 3879 3674
14 3897 3774
14 3913 3845
14 3935 3916
14 3275 921
14 3283 946
14 3284 966
14 3282 987
14 3285 1012
14 3291 1041
14 3309 1110
14 3374 1352
14 3458 1675
14 3563 2038
14 3664 2415
14 3778 2821
14 3886 3242
14 3978 3650
14 4028 3833
14 4043 3903
14 4055 3964
14 3365 951
14 3365 971
14 3365 992
14 3369 1016
14 3375 1041
14 3381 1070
14 3391 1119
14 3443 1332
14 3528 1644
14 3631 2001
14 3735 2381
14 3843 2781
14 3954 3204
14 4029 3629
14 4063 3861
14 4064 3933
14 4075 3995
14 3455 980
14 3455 1000
14 3455 1026
14 3459 1052
14 3465 1073
14 3471 1099
14 3480 1147
14 3526 1357
14 3616 1664
14 3715 2019
14 3823 2407
14 3931 2808
14 4039 3228
14 4095 3653
14 4095 3884
14 4095 3957
14 4095 4030
105 0 0
125 0 40
135 0 136
132 23 292
101 58 496
84 123 725
81 220 981
79 333 1264
76 455 1562
74 585 1886
71 690 2126
68 719 2202
65 743 2261
64 766 2321
63 791 2381
62 820 2447
61 849 2513
99 27 0
104 26 26
115 31 126
109 42 276
85 79 473
74 145 702
72 237 957
70 345 1233
67 467 1536
64 593 1854
62 708 2124
59 739 2207
56 763 2268
55 786 2329
54 811 2387
53 840 2449
53 869 2516
75 102 3
77 108 26
80 114 113
69 139 271
63 176 474
60 233 702
58 312 946
55 407 1217
53 513 1508
50 636 1828
47 751 2125
45 787 2226
42 806 2283
41 827 2343
40 850 2402
39 878 2462
39 906 2523
50 233 13
50 241 37
48 259 104
47 295 275
45 335 489
43 386 717
40 456 969
38 535 1234
35 627 1519
32 739 1829
30 853 2138
30 902 2281
29 919 2339
29 940 2397
28 962 2456
28 984 2516
28 1008 2577
31 438 33
31 442 59
31 448 89
30 492 278
30 534 500
29 583 742
28 641 999
28 708 1267
28 793 1557
28 889 1865
28 992 2177
28 1054 2374
28 1071 2431
28 1095 2494
28 1116 2554
28 1133 2610
28 1154 2668
28 673 75
28 676 106
28 678 136
28 706 273
28 756 507
28 808 763
28 860 1025
28 925 1306
28 996 1601
28 1081 1909
28 1183 2233
28 1259 2485
28 1273 2544
28 1287 2599
28 1306 2657
28 1325 2718
28 1348 2779
28 925 145
28 934 178
28 940 212
28 944 282
28 993 507
28 1048 770
28 1108 1050
28 1168 1339
28 1235 1640
28 1312 1952
28 1405 2290
28 1489 2585
28 1510 2674
28 1517 2724
28 1532 2781
28 1551 2843
28 1572 2906
28 1207 238
28 1211 266
28 1214 294
28 1212 326
28 1249 504
28 1309 769
28 1370 1058
28 1436 1358
28 1506 1672
28 1581 2003
28 1662 2339
28 1747 2672
28 1782 2809
28 1794 2866
28 1808 2924
28 1818 2980
28 1833 3039
28 1510 332
28 1513 360
28 1513 388
28 1514 417
28 1530 519
28 1584 772
28 1648 1062
28 1719 1372
28 1795 1699
28 1865 2034
28 1949 2383
28 2029 2734
28 2076 2937
28 2094 3008
28 2111 3071
28 2120 3129
28 2135 3190
28 1829 439
28 1835 468
28 1841 497
28 1838 522
28 1840 561
28 1880 779
28 1948 1064
28 2016 1375
28 2094 1709
28 2170 2056
28 2250 2414
28 2338 2781
28 2402 3069
28 2417 3151
28 2427 3210
28 2433 3272
28 2445 3334
28 2173 553
28 2173 575
28 2174 597
28 2175 625
28 2174 653
28 2199 798
28 2263 1067
28 2336 1383
28 2412 1715
28 2498 2075
28 2581 2443
28 2662 2821
28 2740 3162
28 2768 3292
28 2780 3357
28 2788 3421
28 2802 3487
28 2543 677
28 2544 699
28 2543 722
28 2540 745
28 2536 770
28 2544 839
28 2595 1081
28 2669 1384
28 2748 1722
28 2834 2087
28 2915 2457
28 3010 2850
28 3101 3237
28 3131 3431
28 3140 3493
28 3154 3559
28 3175 3626
28 2918 800
28 2922 824
28 2924 848
28 2924 871
28 2920 893
28 2913 919
28 2945 1107
28 3014 1396
28 3095 1725
28 3177 2088
28 3274 2477
28 3364 2869
28 3456 3273
28 3520 3573
28 3527 3642
28 3538 3709
28 3557 3777
28 3185 892
28 3196 918
28 3208 944
28 3205 965
28 3200 985
28 3200 1010
28 3230 1118
28 3295 1389
28 3379 1713
28 3476 2078
28 3581 2467
28 3680 2864
28 3781 3284
28 3874 3669
28 3892 3771
28 3908 3843
28 3926 3916
28 3275 921
28 3284 946
28 3295 971
28 3293 993
28 3288 1013
28 3291 1041
28 3307 1106
28 3378 1346
28 3461 1668
28 3556 2024
28 3662 2407
28 3775 2809
28 3876 3227
28 3973 3639
28 4022 3827
28 4039 3900
28 4055 3970
28 3365 951
28 3365 971
28 3373 995
28 3378 1020
28 3378 1043
28 3381 1070
28 3390 1116
28 3446 1326
28 3527 1634
28 3624 1986
28 3734 2374
28 3842 2772
28 3956 3196
28 4022 3617
28 4059 3857
28 4059 3929
28 4075 3999
28 3455 980
28 3455 1000
28 3455 1020
28 3459 1046
28 3465 1071
28 3471 1099
28 3479 1143
28 3527 1348
28 3613 1653
28 3712 2008
28 3819 2395
28 3927 2792
28 4035 3216
28 4095 3642
28 4095 3884
28 4095 3957
28 4095 4030
230 0 0
259 8 42
296 12 148
326 23 327
316 55 540
268 121 770
188 217 1015
143 328 1297
140 451 1597
138 583 1917
135 688 2171
132 719 2249
130 745 2308
129 769 2365
128 792 2422
127 820 2487
127 849 2553
215 21 0
225 26 27
272 33 133
288 47 304
282 78 511
239 142 741
161 238 994
134 342 1265
132 464 1567
130 594 1884
127 709 2165
124 741 2248
122 766 2309
121 792 2370
120 815 2427
119 840 2487
