滤镜资源/Professional Luts Collection/Triune-Digital-Cinematic-LUTs/3D LUTs (3DL)/LOG/The Matrix - LOG.3dl
# Created by Benjamin (IWLTBAP) : http://luts.iwltbap.com
# Copyright: (C) Copyright 2016 Triune Films and IWLTBAP
# Blockbuster LUTs Pack
0 128 256 384 512 640 768 896 1023
14 0 29
0 14 216
0 70 502
0 200 848
0 401 1255
0 636 1637
0 690 1728
0 743 1810
0 797 1893
34 190 75
2 215 268
3 269 555
0 357 881
0 540 1272
0 784 1694
0 830 1785
0 880 1865
0 926 1947
183 739 225
180 726 295
112 742 698
0 835 1093
0 984 1461
0 1179 1860
0 1237 2005
0 1275 2075
0 1308 2148
424 1522 409
426 1510 462
424 1497 706
348 1511 1241
50 1579 1742
0 1717 2140
0 1796 2345
0 1818 2408
0 1855 2475
695 2291 622
691 2284 669
691 2268 787
692 2262 1225
543 2276 1880
322 2337 2417
251 2412 2742
226 2423 2803
202 2443 2868
992 2947 870
988 2940 917
982 2927 973
988 2917 1295
996 2905 1845
791 2931 2550
524 3016 3070
505 3025 3171
503 3038 3249
1307 3553 1147
1303 3547 1194
1297 3535 1249
1290 3529 1434
1297 3512 1911
1301 3503 2542
928 3542 3235
550 3612 3512
477 3624 3598
1516 3766 1327
1525 3766 1390
1525 3766 1447
1525 3766 1532
1544 3775 1976
1580 3780 2538
1360 3825 3201
931 3914 3678
376 3992 3852
1695 3863 1492
1695 3863 1555
1699 3863 1614
1709 3863 1690
1738 3863 2123
1783 3869 2642
1661 3910 3255
1412 3974 3689
1376 4023 3834
284 0 42
208 29 291
70 84 624
43 194 927
40 392 1295
37 640 1677
34 700 1764
33 755 1844
32 802 1926
196 181 70
168 180 261
55 228 597
30 327 894
28 512 1276
25 766 1697
22 820 1800
21 863 1878
20 908 1958
221 710 196
230 693 284
156 715 682
28 803 1074
18 952 1440
15 1155 1848
15 1224 2000
15 1255 2070
15 1299 2150
460 1492 389
463 1480 457
460 1467 688
383 1478 1220
103 1557 1723
17 1691 2122
15 1783 2339
15 1804 2402
15 1835 2468
727 2269 600
735 2261 667
731 2246 776
731 2240 1212
574 2257 1861
376 2319 2401
325 2397 2733
305 2409 2798
288 2426 2867
1031 2929 851
1030 2921 917
1023 2910 963
1027 2900 1282
1034 2888 1832
825 2911 2531
575 2998 3057
565 3007 3170
562 3022 3240
1345 3545 1129
1349 3533 1194
1343 3526 1240
1341 3509 1415
1344 3499 1892
1339 3486 2526
961 3525 3217
603 3596 3510
544 3615 3596
1565 3775 1313
1583 3766 1390
1584 3766 1451
1584 3769 1533
1605 3775 1969
1628 3780 2524
1429 3825 3192
977 3914 3678
468 3992 3858
1744 3863 1478
1763 3863 1555
1763 3863 1619
1771 3863 1693
1803 3863 2112
1836 3865 2639
1730 3910 3242
1475 3983 3698
1439 4023 3834
809 54 124
707 77 337
636 131 720
437 238 1180
109 431 1555
107 662 1867
104 726 1943
103 782 2013
102 833 2086
682 192 150
743 162 261
617 213 683
331 314 1137
98 492 1470
96 751 1821
93 815 1925
92 861 1993
91 909 2070
598 698 180
592 686 244
573 673 661
393 784 1086
338 941 1477
347 1141 1879
353 1220 2045
356 1255 2116
356 1294 2197
640 1457 334
632 1450 391
639 1422 678
551 1436 1195
323 1520 1696
216 1656 2100
155 1758 2341
140 1781 2403
136 1810 2476
796 2232 556
795 2225 623
796 2206 747
794 2194 1180
625 2212 1819
437 2274 2363
392 2362 2715
372 2372 2780
354 2393 2849
1049 2898 817
1058 2891 891
1066 2878 957
1063 2859 1248
1064 2853 1794
849 2875 2493
626 2964 3032
626 2978 3156
621 2992 3224
1368 3514 1094
1380 3504 1166
1384 3493 1232
1375 3481 1389
1381 3468 1868
1374 3459 2493
1001 3495 3184
657 3573 3496
616 3589 3581
1608 3775 1303
1623 3775 1376
1645 3767 1452
1647 3774 1534
1665 3775 1959
1684 3780 2507
1503 3822 3171
1033 3914 3678
565 3992 3867
1783 3863 1463
1807 3863 1536
1830 3863 1619
1832 3863 1694
1863 3863 2103
1891 3868 2622
1799 3909 3232
1533 3983 3703
1513 4023 3834
1616 174 223
1602 185 381
1282 305 782
1274 372 1274
1114 514 1836
661 735 2323
509 792 2409
447 829 2452
395 876 2507
1507 261 216
1504 254 317
1273 330 722
1204 402 1208
1000 543 1764
526 773 2240
371 850 2336
330 890 2381
296 933 2438
1188 772 332
1220 747 369
1426 642 630
1283 701 1189
815 877 1742
612 1120 2115
621 1227 2277
620 1261 2337
625 1301 2410
1168 1447 301
1161 1436 371
1166 1412 592
1134 1404 1162
918 1508 1685
752 1671 2160
727 1782 2436
721 1802 2502
718 1831 2592
1201 2210 463
1193 2206 526
1172 2188 607
1189 2157 1198
1002 2178 1797
829 2255 2347
792 2356 2743
775 2370 2821
745 2395 2899
1304 2867 726
1298 2860 784
1284 2847 849
1324 2822 1237
1302 2810 1783
1044 2833 2455
858 2932 3013
853 2948 3154
834 2967 3240
1493 3477 1037
1483 3472 1096
1477 3461 1167
1494 3443 1344
1493 3425 1829
1463 3417 2456
1078 3452 3132
749 3533 3482
725 3547 3565
1676 3779 1284
1680 3778 1357
1695 3775 1437
1717 3775 1524
1731 3775 1932
1744 3780 2479
1593 3817 3139
1087 3914 3678
690 3992 3867
1842 3863 1448
1856 3863 1529
1880 3863 1612
1911 3863 1697
1942 3863 2082
1966 3868 2597
1878 3909 3203
1618 3985 3696
1593 4023 3834
2588 386 333
2561 394 459
2364 492 871
2051 632 1357
2104 696 1933
2065 822 2533
1948 886 2704
1868 918 2807
1791 959 2908
2483 421 314
2468 421 387
2331 499 792
1995 648 1285
2021 723 1862
1940 863 2466
1785 942 2694
1698 979 2801
1621 1015 2905
2208 858 394
2260 823 426
2354 757 666
2122 860 1214
1978 959 1792
1750 1093 2422
1475 1179 2767
1357 1205 2864
1254 1241 2968
1896 1504 549
1907 1489 594
1980 1450 706
2250 1349 1103
2126 1385 1796
1570 1583 2412
1356 1743 2743
1309 1771 2813
1254 1804 2926
1919 2197 478
1918 2190 542
1901 2175 608
1933 2147 1074
1844 2146 1751
1649 2224 2309
1418 2370 2810
1328 2402 2955
1255 2437 3073
1901 2846 616
1893 2840 683
1877 2827 752
1834 2813 1049
1858 2779 1812
1590 2808 2423
1367 2913 3008
1275 2951 3221
1225 2975 3340
1925 3456 913
1917 3451 968
1902 3441 1031
1871 3426 1156
1948 3392 1834
1878 3384 2460
1508 3418 3094
1192 3512 3509
1124 3537 3614
2108 3792 1245
2096 3792 1314
2088 3790 1383
2075 3790 1457
2147 3776 1962
2136 3777 2513
2001 3809 3144
1569 3903 3678
1243 3997 3879
2244 3878 1424
2240 3878 1493
2230 3878 1561
2235 3878 1651
2284 3867 2045
2301 3877 2574
2248 3905 3182
2038 3974 3686
1957 4023 3849
3392 603 472
3378 610 553
3335 652 955
3038 819 1467
2843 967 1994
2930 1029 2626
2940 1049 2879
2935 1066 2991
2932 1086 3099
3324 653 454
3317 652 521
3286 685 884
3010 849 1396
2804 994 1933
2866 1060 2568
2878 1095 2882
2867 1115 2987
2848 1152 3088
3205 944 462
3203 935 519
3203 913 754
3062 1004 1281
2801 1149 1855
2789 1216 2483
2742 1281 2884
2708 1301 2987
2673 1326 3099
2829 1592 687
2852 1574 721
2927 1515 779
3109 1396 1137
3008 1450 1800
2784 1605 2428
2554 1716 2979
2479 1720 3112
2429 1728 3278
2667 2213 796
2670 2203 838
2667 2189 882
2812 2130 1175
2960 2069 1674
2826 2113 2435
2283 2256 3101
2156 2269 3305
2071 2275 3486
2663 2821 735
2658 2814 785
2645 2802 834
2636 2783 1071
2668 2762 1646
2530 2764 2391
2279 2869 2988
2038 2959 3374
1902 2995 3533
2595 3429 823
2593 3422 893
2581 3413 963
2558 3399 1070
2508 3386 1598
2490 3355 2471
2208 3393 3074
1810 3509 3582
1744 3539 3729
2713 3804 1252
2710 3804 1325
2701 3804 1401
2685 3802 1476
2687 3797 1871
2740 3792 2491
2612 3820 3117
2318 3898 3700
2071 3990 3910
2823 3892 1439
2821 3892 1516
2832 3892 1617
2821 3892 1689
2805 3892 1997
2845 3895 2537
2804 3919 3129
2616 3983 3713
2593 4025 3883
3600 656 526
3600 670 595
3586 700 958
3347 884 1472
3129 1048 2007
3140 1136 2596
3222 1155 2908
3224 1168 3037
3238 1182 3158
3605 737 526
3605 739 594
3587 770 909
3408 931 1422
3177 1096 1962
3147 1196 2546
3241 1220 2926
3245 1233 3054
3265 1247 3175
3627 990 538
3627 985 607
3627 980 803
3560 1049 1313
3287 1246 1891
3196 1342 2469
3285 1362 2967
3275 1381 3082
3280 1388 3209
3534 1595 718
3567 1569 749
3608 1528 801
3686 1463 1192
3602 1544 1822
3384 1702 2465
3355 1777 3020
3315 1797 3161
3310 1809 3318
3374 2237 953
3386 2226 993
3402 2205 1032
3560 2129 1243
3718 2047 1688
3674 2082 2453
3456 2222 3087
3331 2266 3325
3315 2268 3506
3320 2826 1057
3321 2814 1100
3322 2802 1144
3343 2780 1273
3489 2718 1748
3584 2675 2307
3432 2736 3094
3197 2793 3505
3204 2780 3645
3308 3401 1008
3303 3398 1054
3295 3390 1101
3284 3373 1156
3277 3355 1651
3307 3330 2304
3162 3343 3059
2984 3418 3635
2973 3424 3773
3402 3820 1373
3399 3820 1450
3391 3820 1520
3376 3817 1595
3364 3809 1944
3361 3807 2477
3327 3820 3050
3091 3884 3734
2997 3950 3939
3471 3915 1590
3466 3914 1662
3460 3912 1731
3448 3910 1798
3435 3912 2068
3427 3925 2546
3423 3950 3079
3316 4002 3752
3297 4037 3954
3732 699 560
3718 705 628
3703 741 962
3517 908 1483
3270 1089 2018
3237 1183 2578
3322 1206 2920
3354 1220 3045
3355 1226 3168
3732 773 560
3732 773 628
3713 813 919
3567 953 1424
3319 1130 1969
3251 1244 2529
3341 1270 2937
3374 1280 3061
3375 1295 3188
3745 999 571
3745 993 635
3748 987 805
3691 1051 1306
3422 1245 1885
3299 1358 2453
3371 1387 2963
3402 1389 3092
3403 1405 3217
3698 1557 713
3722 1533 746
3749 1496 793
3809 1448 1180
3705 1546 1807
3479 1710 2442
3443 1789 3010
3493 1779 3177
3459 1805 3325
3551 2211 968
3569 2198 1009
3590 2178 1047
3729 2105 1237
3921 1999 1653
3768 2107 2427
3609 2223 3090
3591 2251 3315
3530 2273 3471
3573 2806 1143
3584 2798 1184
3592 2787 1232
3622 2762 1334
3785 2692 1754
3964 2620 2274
3829 2682 3131
3696 2773 3444
3658 2784 3584
3716 3384 1274
3720 3378 1321
3719 3365 1369
3721 3351 1417
3754 3326 1811
3809 3296 2375
4005 3239 2956
3864 3307 3594
3818 3318 3738
3968 3855 1637
3959 3852 1698
3952 3847 1769
3946 3841 1826
3936 3834 2116
3937 3830 2617
3945 3835 3121
3921 3858 3746
3940 3861 3982
4034 3972 1819
4030 3970 1884
4026 3969 1949
4021 3967 2008
4013 3971 2214
4017 3981 2683
4018 3996 3203
3990 4027 3819
3963 4053 4041
3849 739 594
3835 744 662
3820 782 984
3670 936 1500
3413 1124 2034
3347 1237 2586
3409 1260 2920
3453 1261 3051
3487 1275 3182
3849 807 594
3849 807 657
3834 849 940
3710 980 1440
3461 1166 1988
3365 1288 2540
3426 1323 2939
3472 1329 3071
3492 1338 3197
3860 1022 602
3860 1017 666
3869 1005 825
3808 1083 1324
3544 1276 1906
3409 1391 2467
3458 1430 2967
3495 1422 3102
3526 1433 3224
3833 1562 713
3849 1534 760
3870 1508 810
3948 1429 1174
3736 1622 1837
3538 1750 2456
3519 1815 3026
3564 1812 3206
3591 1813 3332
3682 2209 984
3698 2200 1028
3715 2178 1061
3803 2123 1268
4050 1989 1646
3731 2176 2439
3610 2265 3085
3633 2280 3338
3653 2286 3454
3680 2804 1173
3693 2798 1212
3694 2786 1253
3719 2762 1351
3809 2720 1787
4058 2615 2275
3808 2734 3124
3725 2798 3451
3762 2787 3566
3808 3372 1339
3806 3366 1386
3804 3358 1432
3811 3344 1473
3825 3328 1847
3855 3310 2382
4060 3233 2947
3873 3323 3587
3890 3321 3705
4046 3859 1749
4044 3855 1806
4041 3851 1854
4037 3844 1910
4033 3836 2129
4041 3842 2609
4046 3846 3114
4093 3846 3736
4079 3879 3965
4095 3994 2144
4095 3994 2207
4095 3994 2256
4095 3994 2307
4095 3994 2458
4095 4008 2874
4095 4023 3373
4095 4059 3936
4095 4081 4095
