滤镜资源/Professional Luts Collection/Triune-Digital-Cinematic-LUTs/3D LUTs (3DL)/LOG/The Lord of the Rings - LOG.3dl
# Created by Benjamin (IWLTBAP) : http://luts.iwltbap.com
# Copyright: (C) Copyright 2016 Triune Films and IWLTBAP
# Blockbuster LUTs Pack
0 128 256 384 512 640 768 896 1023
21 19 18
32 29 201
137 110 610
212 176 1065
393 230 1954
653 372 2850
687 392 2977
699 401 3035
711 410 3096
31 165 28
56 192 184
164 287 595
238 349 1050
370 344 1898
527 398 2514
555 403 2623
572 409 2693
568 409 2713
147 506 130
160 522 211
222 589 586
253 634 1095
350 633 1723
469 656 2239
512 669 2417
527 673 2487
533 686 2522
283 883 267
293 896 331
330 964 601
331 1020 1033
415 1023 1584
537 1064 2164
598 1080 2446
616 1087 2527
623 1097 2570
457 1349 432
468 1384 487
489 1459 603
528 1506 1007
582 1532 1554
690 1578 2163
773 1604 2597
784 1595 2677
789 1591 2731
740 2022 644
746 2030 691
750 2033 739
778 2063 1058
827 2109 1583
896 2149 2190
983 2173 2744
994 2155 2864
993 2133 2925
1009 2603 869
1004 2593 906
1002 2588 950
1017 2603 1131
1063 2653 1616
1121 2701 2205
1192 2735 2818
1212 2712 3053
1232 2722 3159
1086 2790 939
1080 2778 970
1082 2782 1020
1088 2788 1102
1135 2848 1558
1201 2922 2136
1252 2954 2716
1334 3025 3152
1356 3041 3265
1097 2836 949
1088 2821 983
1094 2828 1036
1099 2835 1109
1151 2904 1560
1213 2971 2127
1290 3052 2722
1384 3146 3195
1397 3148 3298
211 27 26
254 54 228
327 147 630
394 204 1143
566 243 2105
727 348 2762
746 369 2873
761 383 2952
767 389 3004
198 185 40
213 211 198
294 298 604
344 333 1118
468 334 1927
645 413 2649
679 429 2805
699 441 2895
694 441 2921
205 501 136
215 514 208
276 584 580
298 621 1096
402 626 1790
535 660 2345
581 671 2532
592 678 2588
588 690 2599
338 887 278
345 896 341
372 970 591
367 1022 1037
456 1027 1620
585 1069 2215
649 1088 2512
666 1095 2587
676 1112 2633
512 1378 439
523 1422 487
537 1478 594
567 1520 1004
621 1543 1571
733 1589 2192
819 1615 2641
827 1606 2716
839 1610 2786
794 2057 652
800 2069 702
798 2062 745
822 2086 1054
865 2121 1586
937 2165 2211
1020 2177 2767
1034 2164 2898
1053 2171 2991
1043 2599 869
1052 2624 912
1052 2620 959
1054 2615 1120
1108 2677 1621
1157 2710 2212
1227 2741 2827
1273 2755 3108
1294 2767 3215
1121 2790 940
1130 2815 982
1129 2813 1027
1135 2821 1105
1188 2890 1567
1248 2953 2149
1317 3012 2754
1407 3090 3209
1426 3103 3312
1131 2836 949
1144 2866 998
1145 2866 1047
1152 2876 1118
1211 2958 1576
1285 3043 2167
1373 3137 2774
1463 3219 3259
1474 3220 3350
606 124 112
635 154 295
690 215 672
801 169 1343
893 251 2089
970 348 2632
970 363 2733
974 375 2813
962 375 2855
571 253 134
592 274 265
654 321 642
688 277 1233
766 315 1986
889 406 2651
923 423 2833
920 429 2893
885 422 2877
571 557 209
578 567 275
603 605 598
560 602 1129
631 624 1799
746 677 2416
782 698 2639
789 706 2707
794 732 2758
597 928 322
597 945 376
556 992 560
517 1016 1026
599 1043 1670
721 1094 2303
787 1122 2650
795 1127 2721
814 1148 2800
613 1430 440
614 1459 489
612 1484 575
628 1530 986
671 1548 1576
783 1595 2223
868 1618 2695
874 1606 2768
896 1624 2860
831 2045 648
842 2074 701
842 2074 747
860 2097 1032
902 2129 1577
973 2167 2208
1066 2193 2800
1093 2194 2961
1112 2204 3058
1083 2598 873
1090 2622 914
1098 2639 966
1099 2633 1108
1146 2680 1610
1199 2718 2210
1269 2748 2824
1331 2784 3145
1352 2798 3248
1167 2810 951
1175 2833 991
1181 2848 1039
1189 2858 1112
1243 2925 1570
1306 2992 2164
1389 3075 2783
1479 3154 3259
1495 3161 3359
1180 2860 962
1189 2885 1004
1204 2916 1066
1210 2922 1127
1276 3008 1591
1360 3109 2195
1447 3203 2807
1534 3281 3309
1546 3284 3403
1051 227 216
1093 263 372
1355 263 764
1396 253 1330
1412 329 1984
1462 424 2597
1438 433 2708
1416 436 2774
1371 424 2794
1021 333 240
1058 345 332
1253 329 693
1324 296 1274
1352 353 1986
1364 438 2603
1321 449 2760
1276 448 2825
1184 426 2806
1076 634 286
1102 633 334
1161 625 609
1159 612 1128
1168 659 1800
1147 718 2419
1069 723 2661
1044 730 2736
1055 751 2833
1093 1031 325
1096 1036 376
1083 1032 543
1054 1044 1031
1039 1103 1686
1027 1152 2328
1043 1183 2724
1059 1191 2826
1090 1219 2945
1102 1557 493
1095 1580 534
1078 1580 602
1020 1589 1018
976 1623 1615
1051 1682 2278
1143 1735 2826
1164 1742 2954
1194 1771 3069
1145 2127 711
1132 2147 748
1103 2151 782
1079 2162 1054
1111 2203 1612
1168 2244 2248
1272 2306 2886
1307 2324 3094
1330 2339 3202
1211 2646 907
1209 2660 942
1208 2667 980
1208 2666 1108
1249 2714 1614
1294 2753 2217
1360 2793 2840
1426 2835 3204
1446 2848 3308
1240 2862 980
1237 2870 1011
1241 2882 1053
1243 2888 1113
1298 2959 1558
1369 3042 2159
1462 3142 2794
1551 3217 3309
1568 3227 3406
1240 2904 987
1245 2922 1025
1258 2946 1080
1265 2956 1142
1339 3057 1584
1426 3166 2194
1518 3266 2821
1609 3349 3356
1620 3351 3452
1903 433 430
1994 455 534
2072 490 857
2093 498 1362
2126 512 2026
2159 586 2671
2168 613 2868
2172 627 2974
2003 555 2847
1851 467 412
1912 484 482
2035 510 800
2026 506 1289
2012 499 1919
1995 549 2505
1934 548 2661
1843 515 2639
1761 486 2628
1810 721 421
1885 725 479
1943 741 724
1943 741 1207
1931 747 1831
1925 792 2456
1871 800 2746
1855 807 2849
1852 838 2964
1791 1126 495
1827 1130 536
1867 1135 667
1860 1179 1151
1854 1217 1755
1871 1290 2408
1869 1359 2893
1842 1361 3001
1829 1389 3120
1807 1673 642
1830 1688 681
1832 1686 715
1831 1715 1131
1828 1774 1730
1830 1854 2383
1808 1936 3006
1750 1930 3143
1681 1931 3245
1849 2302 864
1867 2324 907
1857 2317 940
1856 2338 1187
1824 2377 1748
1698 2411 2354
1701 2499 3032
1678 2516 3280
1694 2529 3388
1867 2882 1077
1874 2886 1115
1861 2877 1145
1836 2874 1225
1729 2900 1722
1665 2953 2331
1743 3036 2996
1816 3091 3422
1835 3102 3532
1768 3135 1148
1756 3135 1181
1718 3124 1205
1675 3118 1234
1631 3183 1643
1725 3317 2297
1814 3420 2951
1885 3485 3505
1898 3491 3607
1732 3177 1152
1718 3183 1187
1677 3185 1217
1642 3191 1259
1657 3290 1676
1750 3421 2318
1827 3510 2952
1896 3577 3512
1912 3585 3629
2802 742 736
2788 737 775
2810 749 1032
2829 758 1478
2875 775 2112
2982 818 2843
2972 833 3065
2702 723 2886
2356 576 2601
2652 726 680
2766 763 757
2756 760 970
2723 747 1382
2707 737 1960
2620 697 2481
2488 656 2604
2449 649 2659
2453 661 2760
2543 870 657
2621 883 717
2717 907 904
2700 905 1322
2680 893 1898
2634 861 2469
2617 875 2840
2611 884 2950
2627 924 3072
2568 1258 730
2623 1267 779
2671 1272 865
2684 1336 1306
2687 1372 1881
2691 1416 2503
2720 1487 3049
2710 1496 3168
2715 1533 3293
2648 1822 877
2692 1836 924
2693 1835 962
2723 1893 1314
2722 1964 1902
2734 2032 2532
2796 2150 3201
2786 2169 3377
2782 2201 3497
2713 2469 1069
2748 2491 1122
2751 2491 1159
2760 2513 1329
2760 2577 1916
2768 2660 2564
2816 2780 3253
2812 2823 3562
2798 2845 3678
2739 3081 1276
2765 3091 1319
2767 3092 1354
2756 3089 1406
2763 3161 1925
2753 3238 2571
2714 3295 3193
2686 3361 3669
2643 3361 3764
2661 3431 1382
2679 3445 1424
2677 3455 1462
2657 3466 1500
2656 3559 1885
2637 3660 2532
2520 3721 3132
2438 3759 3702
2419 3751 3795
2643 3501 1399
2650 3521 1443
2645 3541 1485
2621 3553 1522
2626 3656 1903
2600 3757 2542
2464 3810 3124
2408 3851 3691
2421 3840 3806
3006 813 806
3000 810 842
3028 823 1065
3055 834 1484
3132 865 2114
3254 912 2842
2879 745 2744
2679 663 2634
2617 643 2656
2915 815 769
3022 849 842
3007 842 1013
2985 832 1399
2942 811 1926
2799 743 2378
2773 728 2631
2777 734 2725
2791 749 2834
2896 929 766
2975 945 827
3089 976 979
3063 958 1356
3031 937 1887
3013 917 2452
3023 907 2867
3028 912 2973
3052 949 3098
3114 1356 898
3171 1363 948
3210 1364 1006
3234 1430 1408
3262 1475 1965
3301 1524 2591
3327 1561 3147
3335 1574 3279
3361 1623 3411
3374 1943 1089
3403 1959 1136
3409 1959 1173
3439 2010 1449
3488 2127 2060
3514 2197 2684
3541 2265 3322
3544 2283 3523
3571 2334 3655
3525 2601 1292
3554 2621 1340
3563 2623 1379
3578 2648 1493
3623 2765 2092
3626 2852 2738
3624 2910 3364
3640 2964 3717
3628 2994 3803
3564 3213 1467
3600 3225 1514
3617 3234 1557
3611 3233 1599
3630 3323 2054
3603 3386 2687
3574 3427 3298
3587 3497 3808
3585 3510 3861
3524 3631 1577
3554 3656 1626
3571 3682 1674
3560 3699 1715
3553 3764 1984
3523 3839 2631
3497 3892 3247
3443 3919 3817
3489 3899 3900
3496 3715 1596
3522 3745 1647
3532 3775 1695
3524 3796 1738
3507 3859 1993
3483 3944 2640
3462 4001 3252
3423 4008 3789
3417 3981 3903
3131 855 848
3130 855 887
3139 858 1084
3144 860 1478
3261 909 2113
3179 868 2661
2793 696 2575
2722 664 2596
2732 674 2687
3032 853 807
3135 885 879
3093 866 1022
3046 846 1388
2950 802 1864
2850 754 2328
2874 760 2648
2887 765 2753
2915 784 2871
2979 933 788
3045 947 843
3164 979 981
3119 951 1340
3087 928 1854
3087 919 2419
3103 912 2862
3110 911 2970
3136 938 3096
3204 1348 920
3262 1360 971
3302 1361 1020
3319 1416 1394
3361 1463 1949
3398 1508 2566
3437 1549 3148
3446 1556 3288
3476 1608 3420
3501 1929 1116
3530 1945 1162
3537 1944 1199
3584 1999 1450
3646 2120 2056
3692 2201 2688
3728 2265 3323
3731 2272 3546
3765 2326 3680
3782 2594 1348
3816 2621 1399
3835 2633 1442
3860 2660 1534
3914 2784 2128
3953 2899 2787
3971 2949 3396
3980 2978 3765
3948 3018 3830
3967 3231 1580
3971 3249 1634
3975 3264 1686
3977 3268 1730
4005 3366 2204
4037 3450 2825
4060 3501 3373
4067 3514 3840
4043 3542 3898
4038 3697 1753
4043 3720 1806
4047 3739 1858
4049 3754 1904
4058 3804 2144
4057 3877 2853
4055 3926 3410
4051 3939 3836
4050 3947 3957
4045 3801 1778
4050 3828 1827
4052 3849 1876
4050 3864 1930
4047 3913 2196
4044 3991 2903
4041 4028 3390
4037 4058 3867
4035 4059 3982
3222 882 875
3208 876 907
3203 874 1093
3154 852 1459
3268 900 2057
2768 677 2240
2808 692 2517
2833 702 2619
2854 710 2735
3104 871 826
3186 895 888
3089 852 1007
3012 818 1362
2903 769 1803
2952 787 2346
2988 798 2686
3004 803 2787
3029 815 2906
3029 933 797
3084 944 847
3188 971 974
3165 952 1343
3161 944 1856
3185 944 2432
3209 945 2886
3217 943 2993
3235 954 3110
3265 1358 934
3318 1369 983
3367 1374 1032
3421 1440 1422
3460 1485 1975
3505 1535 2591
3538 1569 3168
3552 1586 3316
3587 1645 3451
3589 1944 1140
3622 1962 1188
3634 1966 1228
3682 2017 1473
3748 2146 2086
3791 2223 2709
3835 2294 3347
3837 2303 3577
3866 2352 3702
3873 2599 1368
3904 2639 1426
3910 2643 1466
3916 2662 1551
3955 2815 2188
3988 2917 2811
4013 2966 3387
4029 2988 3745
4025 3029 3836
3994 3220 1609
4000 3245 1668
4005 3263 1720
4007 3270 1768
4037 3372 2258
4071 3465 2880
4092 3514 3394
4095 3535 3814
4095 3547 3900
4068 3687 1796
4073 3707 1853
4079 3727 1912
4082 3740 1965
4093 3790 2229
4095 3870 2967
4095 3923 3499
4095 3981 3938
4095 3971 4006
4086 3795 1849
4091 3816 1904
4095 3839 1969
4095 3858 2043
4095 3900 2323
4095 3974 3059
4095 4023 3560
4095 4071 3972
4095 4090 4087
