滤镜资源/Professional Luts Collection/Triune-Digital-Cinematic-LUTs/3D LUTs (3DL)/LOG/The Matrix - LOG.3dl
# Created by Benjamin (IWLTBAP) : http://luts.iwltbap.com
# Copyright: (C) Copyright 2016 Triune Films and IWLTBAP
# Blockbuster LUTs Pack
0 64 128 192 256 320 384 448 512 576 640 704 768 832 896 960 1023
14 0 29
0 14 106
0 14 216
0 41 353
0 70 502
0 132 659
0 200 848
0 290 1041
0 401 1255
0 538 1480
0 636 1637
0 668 1686
0 690 1728
0 717 1769
0 743 1810
0 777 1852
0 797 1893
14 59 29
1 73 105
0 82 223
0 97 361
0 129 499
0 174 661
0 236 841
0 308 1028
0 423 1248
0 560 1471
0 676 1651
0 709 1703
0 731 1745
0 758 1786
0 784 1827
0 807 1869
0 838 1910
34 190 75
31 188 114
2 215 268
0 247 414
3 269 555
0 300 712
0 357 881
0 434 1068
0 540 1272
0 669 1496
0 784 1694
0 816 1750
0 830 1785
0 859 1825
0 880 1865
0 895 1905
0 926 1947
80 405 138
80 402 174
75 397 281
8 431 474
2 465 643
12 502 802
11 556 963
9 631 1145
0 734 1346
0 852 1559
0 966 1766
0 1012 1848
0 1022 1876
0 1045 1916
0 1063 1956
0 1081 1992
0 1107 2033
183 739 225
182 734 253
180 726 295
162 728 476
112 742 698
14 786 917
0 835 1093
0 900 1273
0 984 1461
0 1077 1656
0 1179 1860
0 1229 1970
0 1237 2005
0 1257 2044
0 1275 2075
0 1287 2108
0 1308 2148
302 1124 311
301 1120 344
298 1113 367
303 1114 488
286 1111 686
230 1122 957
102 1156 1205
3 1201 1416
0 1264 1604
0 1345 1791
0 1431 1986
0 1500 2131
0 1506 2158
0 1516 2192
0 1535 2229
0 1552 2263
0 1569 2296
424 1522 409
428 1518 435
426 1510 462
422 1501 527
424 1497 706
401 1502 939
348 1511 1241
207 1534 1514
50 1579 1742
4 1637 1946
0 1717 2140
0 1783 2306
0 1796 2345
0 1805 2375
0 1818 2408
0 1835 2442
0 1855 2475
559 1929 510
559 1925 536
557 1919 562
553 1910 593
554 1899 739
556 1896 951
523 1898 1219
449 1912 1554
369 1925 1836
179 1975 2085
109 2026 2292
57 2087 2480
39 2103 2549
31 2111 2576
25 2122 2608
17 2133 2637
15 2150 2673
695 2291 622
693 2288 645
691 2284 669
692 2277 695
691 2268 787
688 2263 979
692 2262 1225
646 2262 1519
543 2276 1880
477 2288 2164
322 2337 2417
281 2387 2631
251 2412 2742
237 2416 2774
226 2423 2803
214 2427 2834
202 2443 2868
838 2626 736
837 2623 768
835 2619 791
832 2612 813
831 2603 862
838 2594 1029
843 2592 1254
838 2587 1518
789 2592 1848
664 2609 2209
593 2627 2493
440 2682 2757
421 2712 2913
417 2717 2961
413 2722 2988
400 2727 3025
397 2738 3065
992 2947 870
990 2944 893
988 2940 917
985 2934 947
982 2927 973
984 2920 1094
988 2917 1295
997 2910 1553
996 2905 1845
934 2908 2193
791 2931 2550
703 2955 2828
524 3016 3070
506 3024 3138
505 3025 3171
504 3029 3208
503 3038 3249
1147 3262 1000
1146 3259 1031
1144 3255 1058
1141 3250 1080
1138 3243 1103
1134 3234 1170
1142 3231 1355
1146 3226 1595
1144 3217 1865
1157 3210 2190
1044 3221 2540
873 3240 2892
696 3286 3176
538 3322 3311
533 3322 3349
524 3329 3387
519 3335 3426
1307 3553 1147
1305 3551 1170
1303 3547 1194
1300 3543 1227
1297 3535 1249
1292 3528 1270
1290 3529 1434
1297 3519 1644
1297 3512 1911
1303 3507 2195
1301 3503 2542
1134 3519 2891
928 3542 3235
696 3586 3452
550 3612 3512
496 3620 3561
477 3624 3598
1447 3716 1266
1447 3716 1293
1447 3716 1322
1447 3716 1354
1445 3715 1378
1444 3714 1401
1442 3712 1503
1444 3719 1706
1458 3718 1959
1448 3717 2224
1500 3716 2550
1410 3729 2886
1187 3756 3235
934 3799 3536
760 3823 3636
500 3865 3720
326 3885 3784
1516 3766 1327
1525 3766 1361
1525 3766 1390
1525 3766 1415
1525 3766 1447
1525 3766 1473
1525 3766 1532
1525 3775 1730
1544 3775 1976
1547 3775 2236
1580 3780 2538
1551 3794 2868
1360 3825 3201
1120 3866 3521
931 3914 3678
711 3947 3765
376 3992 3852
1607 3819 1407
1609 3819 1445
1610 3819 1470
1610 3819 1495
1610 3819 1529
1610 3819 1558
1610 3819 1600
1621 3821 1785
1636 3822 2025
1638 3822 2278
1672 3822 2565
1669 3840 2887
1530 3868 3198
1311 3909 3504
1160 3945 3683
1047 3979 3760
781 4026 3863
1695 3863 1492
1695 3863 1530
1695 3863 1555
1702 3863 1580
1699 3863 1614
1707 3863 1643
1709 3863 1690
1717 3863 1879
1738 3863 2123
1738 3863 2367
1783 3869 2642
1778 3882 2957
1661 3910 3255
1505 3953 3534
1412 3974 3689
1379 4003 3759
1376 4023 3834
127 0 29
83 11 134
41 16 279
17 41 399
15 69 531
14 123 682
13 194 857
12 287 1050
10 396 1254
9 535 1486
8 635 1650
8 669 1700
8 690 1740
8 724 1772
8 748 1813
8 777 1855
8 797 1896
70 54 42
54 53 107
25 63 251
10 83 379
9 112 515
8 159 668
8 223 839
8 304 1030
8 420 1242
8 560 1478
8 675 1660
8 709 1706
8 731 1748
8 758 1789
8 785 1830
8 807 1872
8 838 1913
57 182 60
59 181 115
28 207 261
23 237 415
18 259 554
8 291 708
8 344 874
8 422 1061
8 530 1271
8 660 1491
8 775 1694
8 809 1756
8 823 1795
8 853 1834
8 873 1873
8 892 1905
8 920 1947
104 395 130
106 391 176
98 389 273
26 427 469
22 460 638
35 492 797
34 551 960
27 623 1143
14 727 1343
9 845 1555
8 959 1760
8 1007 1849
8 1020 1884
8 1039 1920
8 1056 1957
8 1078 1997
8 1100 2038
200 729 213
204 724 253
205 718 290
191 716 473
135 733 692
35 776 908
8 824 1086
8 892 1267
8 974 1457
8 1067 1657
8 1169 1860
8 1223 1969
8 1233 2002
8 1250 2040
8 1268 2078
8 1284 2111
8 1303 2150
322 1118 309
321 1111 341
319 1104 370
322 1102 482
309 1099 686
247 1112 950
122 1146 1197
15 1192 1407
8 1258 1599
8 1333 1785
8 1424 1982
8 1492 2127
8 1499 2158
8 1517 2191
8 1530 2226
8 1543 2259
8 1561 2299
445 1512 401
445 1507 435
446 1500 461
442 1491 525
445 1486 701
422 1490 932
368 1500 1232
232 1525 1505
75 1572 1733
24 1631 1939
8 1709 2133
8 1776 2298
8 1790 2343
8 1801 2374
8 1817 2405
8 1830 2439
8 1846 2477
575 1918 507
575 1914 534
577 1908 561
574 1899 591
572 1888 732
577 1886 944
544 1888 1210
468 1901 1546
392 1914 1826
215 1967 2076
147 2017 2285
95 2077 2478
73 2101 2545
61 2104 2575
53 2116 2606
48 2124 2636
44 2140 2667
713 2282 615
714 2279 641
713 2275 666
714 2267 695
712 2259 784
708 2255 972
713 2253 1217
666 2252 1512
560 2269 1871
494 2281 2159
349 2330 2410
316 2378 2630
289 2406 2740
277 2407 2770
264 2415 2801
258 2425 2835
251 2436 2864
859 2617 734
857 2614 764
855 2610 786
852 2603 816
848 2594 858
858 2586 1026
863 2583 1247
858 2579 1514
810 2583 1841
678 2600 2202
612 2619 2486
464 2676 2749
454 2706 2911
448 2711 2958
439 2713 2989
436 2723 3023
428 2734 3059
1012 2938 864
1010 2935 891
1009 2932 918
1006 2926 945
1002 2919 969
1008 2914 1088
1008 2911 1287
1018 2901 1546
1016 2899 1837
953 2900 2188
807 2922 2542
720 2948 2822
549 3009 3064
543 3015 3139
541 3017 3170
532 3020 3204
537 3031 3245
1168 3253 997
1166 3251 1028
1165 3247 1054
1162 3242 1078
1158 3234 1101
1156 3226 1166
1164 3223 1354
1169 3217 1587
1164 3209 1860
1175 3203 2184
1061 3213 2533
888 3232 2883
722 3278 3167
564 3315 3307
560 3313 3345
557 3320 3384
556 3328 3425
1326 3545 1142
1328 3542 1166
1326 3539 1199
1323 3534 1224
1319 3530 1245
1317 3523 1268
1318 3520 1426
1317 3510 1640
1320 3505 1903
1322 3500 2187
1320 3495 2536
1151 3512 2886
947 3534 3227
705 3581 3451
577 3605 3515
528 3613 3560
515 3625 3602
1471 3716 1263
1474 3716 1297
1474 3716 1329
1474 3716 1354
1473 3715 1380
1471 3713 1406
1474 3712 1500
1476 3719 1702
1483 3717 1958
1477 3715 2220
1523 3715 2546
1437 3727 2881
1210 3754 3229
958 3797 3534
782 3820 3635
530 3863 3719
369 3882 3782
1540 3769 1324
1549 3766 1365
1550 3766 1391
1550 3766 1417
1550 3766 1447
1550 3766 1477
1550 3767 1535
1559 3775 1729
1572 3775 1975
1574 3775 2236
1605 3780 2531
1579 3794 2869
1393 3825 3196
1148 3866 3515
956 3914 3678
739 3947 3765
427 3992 3852
1631 3819 1404
1637 3819 1445
1637 3819 1470
1637 3819 1495
1637 3819 1529
1637 3819 1558
1637 3819 1604
1648 3822 1785
1668 3822 2021
1675 3822 2279
1695 3823 2558
1701 3840 2883
1558 3866 3193
1338 3909 3503
1187 3945 3684
1072 3979 3760
825 4026 3863
1719 3863 1489
1733 3863 1519
1733 3863 1558
1733 3863 1588
1733 3863 1619
1734 3863 1644
1736 3863 1693
1751 3863 1882
1771 3863 2117
1779 3863 2368
1811 3866 2645
1808 3882 2956
1694 3910 3250
1532 3953 3529
1445 3977 3697
1409 4003 3762
1403 4023 3834
284 0 42
234 14 126
208 29 291
149 41 471
70 84 624
44 133 774
43 194 927
42 280 1098
40 392 1295
39 531 1513
37 640 1677
36 671 1725
34 700 1764
34 724 1804
33 755 1844
32 777 1884
32 802 1926
234 49 64
251 46 98
210 56 277
125 72 462
54 109 605
39 153 750
38 219 903
37 299 1078
35 416 1275
34 559 1495
32 677 1679
31 712 1733
30 740 1772
29 765 1813
28 789 1855
28 818 1896
28 838 1938
196 181 70
197 176 112
168 180 261
107 196 435
55 228 597
33 269 736
30 327 894
29 408 1071
28 512 1276
26 640 1491
25 766 1697
23 798 1764
22 820 1800
22 841 1839
21 863 1878
20 888 1917
20 908 1958
181 385 106
185 383 147
179 377 266
103 410 453
79 446 632
79 479 789
70 533 952
57 607 1137
35 708 1334
30 825 1544
23 941 1755
21 992 1842
21 1008 1876
19 1027 1915
22 1049 1953
21 1065 1993
21 1094 2034
221 710 196
229 706 235
230 693 284
214 694 459
156 715 682
60 757 892
28 803 1074
20 872 1252
18 952 1440
15 1051 1642
15 1155 1848
15 1210 1971
15 1224 2000
15 1241 2034
15 1255 2070
15 1270 2109
15 1299 2150
335 1103 292
338 1098 330
335 1086 367
342 1082 472
326 1084 679
265 1093 941
145 1127 1182
33 1177 1393
15 1238 1582
15 1316 1772
15 1409 1971
15 1476 2119
15 1492 2156
15 1503 2186
15 1516 2221
15 1529 2258
15 1550 2299
460 1492 389
462 1487 426
463 1480 457
460 1471 516
460 1467 688
442 1470 920
383 1478 1220
256 1508 1491
103 1557 1723
45 1618 1925
17 1691 2122
15 1766 2293
15 1783 2339
15 1793 2366
15 1804 2402
15 1815 2436
15 1835 2468
593 1900 491
591 1896 526
595 1890 559
592 1881 586
594 1871 721
594 1871 934
564 1871 1199
482 1884 1532
409 1902 1818
243 1954 2064
182 2006 2273
135 2072 2467
109 2090 2540
101 2097 2571
89 2105 2599
80 2114 2632
78 2129 2669
727 2269 600
731 2266 634
735 2261 667
734 2254 693
731 2246 776
729 2244 964
731 2240 1212
684 2241 1502
574 2257 1861
514 2270 2148
376 2319 2401
348 2369 2620
325 2397 2733
312 2399 2766
305 2409 2798
296 2414 2829
288 2426 2867
878 2605 721
876 2602 757
874 2598 784
873 2591 814
873 2583 849
878 2579 1017
882 2573 1238
877 2569 1506
827 2572 1833
696 2588 2191
630 2608 2479
490 2666 2740
484 2697 2905
477 2701 2954
474 2708 2989
468 2713 3019
459 2723 3058
1031 2929 851
1030 2925 884
1030 2921 917
1027 2915 943
1023 2910 963
1029 2905 1081
1027 2900 1282
1037 2889 1537
1034 2888 1832
970 2889 2177
825 2911 2531
737 2938 2815
575 2998 3057
569 3005 3134
565 3007 3170
562 3012 3199
562 3022 3240
1187 3243 985
1186 3240 1023
1188 3236 1050
1187 3231 1073
1183 3223 1102
1185 3215 1159
1184 3214 1343
1188 3207 1579
1184 3200 1850
1194 3194 2174
1081 3203 2523
905 3222 2872
743 3269 3157
598 3307 3303
592 3308 3340
588 3314 3379
588 3319 3420
1345 3545 1129
1348 3536 1162
1349 3533 1194
1346 3529 1218
1343 3526 1240
1341 3519 1268
1341 3509 1415
1338 3505 1630
1344 3499 1892
1342 3491 2179
1339 3486 2526
1167 3503 2878
961 3525 3217
719 3576 3448
603 3596 3510
559 3604 3555
544 3615 3596
1495 3717 1252
1496 3717 1293
1509 3716 1329
1509 3716 1354
1508 3715 1383
1506 3713 1412
1504 3716 1496
1503 3719 1698
1513 3716 1952
1504 3714 2216
1544 3714 2540
1464 3725 2875
1234 3751 3221
979 3793 3530
799 3822 3638
551 3860 3718
407 3885 3781
1565 3775 1313
1574 3769 1354
1583 3766 1390
1584 3766 1422
1584 3766 1451
1584 3766 1479
1584 3769 1533
1591 3775 1722
1605 3775 1969
1606 3775 2234
1628 3780 2524
1613 3794 2861
1429 3825 3192
1176 3865 3508
977 3914 3678
770 3947 3769
468 3992 3858
1651 3821 1393
1659 3819 1432
1670 3819 1469
1670 3819 1499
1670 3819 1532
1670 3819 1559
1671 3819 1602
1681 3822 1776
1695 3822 2018
1703 3822 2278
1724 3824 2552
1730 3840 2881
1592 3864 3192
1370 3909 3498
1218 3945 3684
1103 3979 3764
866 4026 3863
1744 3863 1478
1747 3863 1513
1763 3863 1555
1763 3863 1593
1763 3863 1619
1764 3863 1649
1771 3863 1693
1783 3863 1874
1803 3863 2112
1816 3863 2360
1836 3865 2639
1847 3882 2947
1730 3910 3242
1572 3953 3533
1475 3983 3698
1447 4005 3762
1439 4023 3834
499 26 83
475 29 145
403 52 302
390 66 483
336 92 699
202 152 893
88 218 1060
75 301 1216
74 398 1393
72 535 1587
71 650 1748
70 685 1798
68 712 1826
68 737 1865
67 763 1905
67 790 1945
67 811 1987
459 56 87
472 52 119
411 66 280
381 83 474
305 112 679
168 168 875
78 237 1034
71 313 1186
69 421 1363
68 559 1560
67 689 1741
65 726 1794
64 754 1833
64 778 1870
63 803 1910
62 831 1944
