滤镜资源/Professional Luts Collection/Triune-Digital-Cinematic-LUTs/3D LUTs (3DL)/LOG/Tron - LOG.3dl
# Created by Benjamin (IWLTBAP) : http://luts.iwltbap.com
# Copyright: (C) Copyright 2016 Triune Films and IWLTBAP
# Blockbuster LUTs Pack
0 256 512 768 1023
0 0 0
1 37 1167
11 68 2405
17 90 3080
19 84 3249
2 543 87
0 721 1008
0 765 2634
4 680 3428
1 672 3550
7 1545 288
1 1638 661
0 1988 2354
0 1922 3443
0 1915 3560
28 2857 490
26 2874 681
4 3078 1838
0 3253 3423
0 3185 3608
35 3153 602
33 3170 723
20 3286 1460
0 3635 3306
0 3596 3658
906 179 140
897 49 1291
317 99 2742
459 114 3387
415 113 3507
555 597 96
317 642 889
156 705 2575
154 610 3436
148 587 3558
89 1523 253
79 1595 582
68 1979 2300
61 1888 3445
59 1879 3565
87 2849 475
86 2867 658
65 3048 1758
58 3252 3408
58 3170 3612
95 3172 595
95 3192 719
82 3291 1391
58 3641 3261
58 3607 3663
2539 330 410
2531 159 934
2387 92 2749
2025 135 3433
1788 130 3538
2466 745 168
2514 813 803
2094 540 2565
1529 449 3454
1380 419 3560
1894 1744 233
1838 1744 458
977 1859 2166
378 1723 3493
364 1675 3619
541 2952 321
466 2949 508
318 3007 1509
275 3316 3401
270 3216 3664
341 3257 393
331 3269 593
288 3327 1210
209 3657 3140
202 3643 3683
3692 527 597
3591 402 946
3812 167 2592
3622 182 3435
3555 166 3540
3815 944 508
3825 1006 938
3857 677 2242
3664 429 3454
3604 389 3553
3915 1980 124
3960 2046 372
3915 2183 2027
3580 1773 3530
3481 1652 3667
3630 3202 475
3619 3206 644
3504 3264 1641
3000 3407 3408
2837 3301 3796
3203 3590 591
3185 3600 770
3112 3624 1279
2267 3720 2953
855 3819 3790
3920 621 652
3838 493 974
3955 320 2482
3900 231 3460
3872 203 3555
3975 993 601
3957 1054 978
3956 745 2143
3915 436 3480
3889 377 3574
4058 2051 255
4061 2077 567
4021 2326 2183
3956 1790 3505
3916 1704 3667
4084 3216 466
4086 3225 685
4089 3304 1634
4037 3508 3433
3997 3310 3814
4085 3682 640
4086 3697 829
4089 3735 1259
4066 3926 3156
4088 4071 4055
