滤镜资源/Professional Luts Collection/Triune-Digital-Cinematic-LUTs/3D LUTs (3DL)/LOG/Tron - LOG.3dl
# Created by Benjamin (IWLTBAP) : http://luts.iwltbap.com
# Copyright: (C) Copyright 2016 Triune Films and IWLTBAP
# Blockbuster LUTs Pack
0 64 128 192 256 320 384 448 512 576 640 704 768 832 896 960 1023
0 0 0
10 12 249
28 41 561
7 26 866
1 37 1167
3 55 1467
5 69 1756
8 68 2065
11 68 2405
13 82 2756
15 93 2974
16 92 3035
17 90 3080
17 88 3124
18 85 3168
19 83 3209
19 84 3249
2 84 8
3 100 189
7 134 509
5 137 852
0 135 1204
1 134 1527
4 122 1831
8 104 2140
9 110 2470
13 119 2817
17 117 3059
18 112 3119
19 109 3162
20 107 3204
20 105 3244
21 104 3283
22 105 3321
7 227 27
7 237 133
0 267 427
0 292 779
0 302 1154
0 304 1528
1 303 1922
2 293 2319
6 265 2680
15 219 2992
27 184 3225
31 174 3284
32 168 3316
33 170 3351
34 170 3384
35 168 3414
37 168 3448
10 372 57
11 386 141
1 417 348
0 467 706
0 500 1084
0 515 1458
0 525 1852
0 526 2282
0 482 2693
10 422 3042
28 402 3311
32 417 3402
30 406 3432
31 408 3466
31 407 3499
30 402 3530
27 398 3558
2 543 87
2 560 163
1 578 254
0 653 611
0 721 1008
0 748 1394
0 770 1791
0 786 2216
0 765 2634
1 724 2999
7 691 3279
5 697 3405
4 680 3428
1 672 3456
1 671 3488
1 670 3520
1 672 3550
0 741 134
0 759 204
0 773 263
0 838 514
0 934 915
0 998 1332
0 1035 1736
0 1059 2163
0 1068 2567
0 1045 2944
0 999 3241
0 995 3407
0 980 3430
0 973 3457
0 972 3489
0 971 3520
0 976 3550
1 980 200
0 993 254
0 1006 310
0 1043 448
0 1151 824
0 1252 1241
0 1309 1659
0 1350 2085
0 1367 2506
0 1364 2887
0 1323 3191
0 1307 3396
0 1295 3433
0 1288 3460
0 1286 3492
0 1284 3523
0 1289 3552
3 1248 252
2 1262 302
1 1274 355
0 1287 419
0 1378 735
0 1494 1152
0 1584 1567
0 1639 2002
0 1673 2429
0 1680 2834
0 1642 3146
0 1608 3368
0 1598 3432
0 1589 3460
0 1587 3492
0 1586 3522
0 1590 3551
7 1545 288
6 1559 345
5 1571 400
4 1581 455
1 1638 661
0 1753 1074
0 1859 1495
0 1934 1903
0 1988 2354
0 2008 2756
0 1993 3104
0 1933 3338
0 1922 3443
0 1911 3472
0 1910 3502
0 1910 3531
0 1915 3560
12 1889 338
11 1899 390
10 1909 441
9 1919 499
7 1944 608
1 2046 984
0 2150 1411
0 2242 1826
0 2312 2254
0 2352 2688
0 2357 3052
0 2298 3316
0 2258 3456
0 2244 3490
0 2243 3518
0 2242 3547
0 2247 3576
17 2238 408
16 2245 457
16 2254 507
15 2260 557
14 2266 611
9 2325 879
2 2421 1283
0 2516 1705
0 2615 2162
0 2679 2598
0 2702 2994
0 2669 3280
0 2589 3453
0 2568 3503
0 2567 3532
0 2566 3561
0 2570 3590
23 2570 446
22 2577 495
22 2583 547
21 2588 600
20 2593 657
18 2612 788
11 2685 1157
3 2775 1559
0 2874 2010
0 2972 2485
0 3027 2918
0 3023 3237
0 2929 3436
0 2888 3510
0 2886 3539
0 2884 3567
0 2888 3596
28 2857 490
27 2862 532
27 2867 578
26 2871 627
26 2874 681
25 2877 737
20 2924 1032
13 2990 1412
4 3078 1838
0 3181 2315
0 3274 2797
0 3311 3190
0 3253 3423
0 3183 3523
0 3181 3553
0 3181 3581
0 3185 3608
31 3012 539
30 3018 575
30 3023 611
30 3030 648
29 3035 685
29 3040 727
26 3066 910
20 3120 1261
13 3194 1657
3 3303 2132
0 3407 2629
0 3487 3090
0 3486 3397
0 3424 3548
0 3423 3587
0 3425 3613
0 3429 3640
32 3060 557
32 3065 592
31 3071 626
31 3076 661
30 3082 698
30 3088 736
29 3103 836
23 3156 1180
16 3219 1540
6 3325 2021
0 3428 2505
0 3527 2992
0 3556 3352
0 3504 3539
0 3500 3596
0 3503 3622
0 3506 3649
33 3106 577
33 3111 610
33 3116 644
32 3121 674
32 3126 709
31 3131 746
30 3142 810
25 3189 1117
19 3247 1466
10 3341 1933
0 3447 2421
0 3551 2929
0 3597 3312
0 3556 3525
0 3546 3601
0 3549 3627
0 3551 3653
35 3153 602
35 3157 630
34 3161 662
34 3165 692
33 3170 723
32 3175 756
31 3185 818
27 3228 1103
20 3286 1460
11 3374 1918
1 3480 2410
0 3582 2916
0 3635 3306
0 3600 3528
0 3592 3606
0 3594 3632
0 3596 3658
130 14 9
130 22 242
103 47 567
61 28 897
41 56 1236
36 79 1568
33 84 1863
34 75 2171
33 79 2494
33 90 2822
34 93 3029
34 91 3083
35 88 3127
36 86 3170
37 84 3211
38 85 3249
38 85 3288
68 84 8
54 97 170
51 128 494
41 124 835
24 119 1185
19 122 1521
20 117 1864
22 105 2192
26 114 2523
31 121 2863
37 113 3095
40 110 3154
42 109 3195
43 107 3236
44 106 3275
45 107 3313
46 107 3351
38 225 27
35 235 130
25 263 414
23 285 767
20 295 1143
16 299 1518
15 299 1910
16 287 2309
22 256 2679
35 211 3008
50 182 3244
54 175 3305
56 172 3335
57 173 3368
58 172 3399
58 169 3429
60 169 3463
33 372 57
35 385 140
23 414 336
15 457 687
14 491 1070
14 509 1450
14 522 1846
14 524 2274
15 482 2685
24 423 3036
42 399 3307
46 416 3403
43 400 3431
43 401 3466
43 399 3499
43 396 3530
41 393 3559
25 541 84
26 558 159
26 573 240
17 646 596
15 712 993
14 743 1385
14 765 1784
14 782 2210
14 765 2628
15 724 2994
21 692 3274
20 698 3406
19 679 3429
16 671 3457
16 668 3489
16 663 3521
16 664 3551
16 742 131
15 760 200
15 773 259
15 831 498
14 926 902
14 994 1323
14 1032 1729
14 1056 2157
14 1066 2561
14 1043 2940
14 998 3238
14 992 3407
14 976 3431
14 969 3458
14 968 3491
14 967 3521
14 972 3551
15 981 198
15 994 252
14 1006 308
14 1040 440
14 1145 811
14 1247 1229
14 1308 1653
14 1349 2079
14 1366 2501
14 1363 2884
14 1322 3189
14 1303 3396
14 1290 3435
14 1284 3462
14 1282 3494
14 1281 3524
14 1286 3554
18 1250 251
17 1263 300
16 1275 355
15 1287 417
14 1374 724
14 1491 1140
14 1585 1559
14 1640 1996
14 1673 2424
14 1680 2829
14 1643 3143
14 1605 3368
14 1595 3434
14 1585 3462
14 1583 3494
14 1582 3524
14 1586 3553
22 1550 286
21 1562 343
20 1575 399
19 1583 454
16 1637 652
14 1751 1061
14 1860 1485
14 1937 1895
14 1993 2348
14 2011 2752
14 1997 3101
14 1935 3337
14 1920 3444
14 1909 3473
14 1909 3503
14 1908 3532
14 1913 3561
27 1893 333
26 1904 386
25 1913 438
24 1922 495
22 1944 597
16 2044 970
14 2149 1397
14 2243 1816
14 2315 2246
14 2356 2684
14 2359 3049
14 2302 3315
14 2258 3456
14 2242 3491
14 2242 3519
14 2241 3548
14 2245 3577
32 2241 405
31 2249 454
31 2257 504
30 2263 554
29 2269 607
24 2324 865
17 2420 1269
14 2516 1692
14 2616 2152
14 2683 2591
14 2707 2990
14 2673 3278
14 2589 3453
14 2567 3504
14 2566 3533
14 2565 3562
14 2570 3591
38 2573 444
37 2579 492
37 2586 544
36 2590 597
35 2594 653
33 2613 780
26 2683 1142
18 2774 1547
15 2872 1997
14 2973 2476
14 3030 2911
14 3027 3235
14 2932 3435
14 2887 3511
14 2885 3539
14 2884 3568
14 2888 3597
43 2859 489
42 2864 529
42 2869 575
41 2873 624
41 2876 676
40 2879 731
35 2923 1020
28 2986 1395
19 3075 1823
14 3178 2302
14 3273 2787
14 3312 3185
14 3255 3422
14 3183 3525
14 3181 3554
14 3181 3582
14 3185 3609
46 3019 539
46 3025 574
45 3030 611
45 3036 647
44 3041 683
44 3046 721
42 3070 893
36 3123 1246
28 3194 1637
18 3302 2117
14 3406 2614
14 3490 3081
14 3490 3394
14 3428 3549
14 3426 3588
14 3429 3615
14 3432 3642
47 3067 557
47 3073 592
47 3078 626
46 3083 659
46 3088 696
45 3094 734
44 3108 827
38 3159 1164
32 3220 1523
22 3323 2000
14 3427 2487
14 3528 2982
14 3560 3347
14 3509 3538
14 3504 3598
14 3507 3624
14 3510 3650
48 3111 574
48 3116 606
48 3121 641
47 3125 672
47 3131 706
46 3137 743
45 3147 804
41 3191 1099
34 3249 1452
25 3340 1913
15 3446 2405
14 3551 2916
14 3601 3304
14 3561 3523
14 3550 3602
14 3552 3628
14 3555 3654
50 3156 599
49 3161 626
49 3165 657
48 3169 689
48 3174 720
47 3180 753
46 3190 812
42 3230 1084
36 3287 1446
27 3372 1896
16 3479 2393
14 3582 2900
14 3638 3298
14 3604 3526
14 3595 3607
14 3597 3633
14 3599 3659
344 78 32
360 63 180
354 62 561
245 33 897
154 57 1229
123 81 1575
105 88 1969
98 97 2377
104 102 2734
111 99 3010
128 93 3187
127 93 3234
124 93 3267
123 93 3301
122 93 3333
122 93 3365
127 94 3400
296 125 19
321 125 117
295 120 487
186 100 835
123 103 1188
99 120 1542
87 125 1931
83 133 2334
90 130 2709
103 123 3016
121 114 3215
118 113 3266
114 114 3300
114 114 3334
115 114 3367
117 114 3400
121 115 3435
222 240 40
213 245 133
155 259 391
112 270 747
89 274 1126
71 280 1501
60 279 1895
59 273 2306
64 238 2704
83 196 3049
105 184 3290
105 186 3350
99 183 3375
99 182 3405
99 180 3434
99 177 3462
100 179 3495
107 377 65
107 386 144
82 406 313
62 449 662
48 480 1050
44 501 1436
41 513 1833
38 516 2257
36 472 2667
43 407 3023
62 384 3302
64 409 3408
58 388 3433
55 380 3463
55 379 3495
56 376 3526
55 377 3556
53 535 81
54 552 157
54 564 229
40 631 569
30 694 968
29 728 1366
29 752 1766
29 770 2195
29 755 2613
29 715 2982
35 682 3266
34 687 3406
33 668 3429
30 657 3457
30 652 3490
30 646 3521
30 646 3552
33 735 125
32 752 196
31 765 254
30 818 472
29 910 878
29 980 1304
29 1020 1714
29 1045 2142
29 1055 2548
29 1034 2931
29 990 3232
29 983 3406
29 967 3432
29 959 3459
29 958 3492
29 955 3522
29 959 3551
30 974 193
29 988 249
29 1001 305
29 1030 424
29 1131 787
29 1235 1210
29 1300 1639
29 1341 2068
29 1359 2490
29 1357 2875
29 1315 3183
29 1294 3395
29 1283 3437
29 1276 3464
29 1275 3496
29 1274 3526
29 1279 3555
33 1247 248
32 1259 298
31 1271 353
30 1282 411
29 1364 706
29 1482 1121
29 1579 1546
29 1636 1985
29 1669 2415
29 1676 2821
29 1639 3137
29 1599 3365
29 1588 3436
29 1578 3464
29 1576 3496
29 1576 3526
29 1580 3555
37 1551 282
36 1562 339
35 1574 398
34 1583 453
30 1632 639
29 1744 1044
29 1856 1471
29 1938 1884
29 1994 2339
29 2010 2745
29 1996 3097
29 1933 3335
29 1916 3445
29 1905 3475
29 1905 3505
29 1904 3534
29 1909 3563
42 1895 325
41 1905 380
40 1914 434
39 1923 490
37 1941 582
31 2039 953
29 2144 1381
29 2241 1803
29 2316 2235
29 2357 2677
29 2360 3044
29 2302 3312
29 2254 3457
29 2238 3492
29 2237 3521
29 2236 3549
29 2240 3578
47 2242 401
46 2250 450
46 2258 501
45 2264 551
44 2269 603
39 2320 850
32 2415 1252
29 2511 1676
29 2614 2140
29 2684 2581
29 2709 2984
29 2676 3274
29 2586 3452
29 2565 3505
29 2563 3534
29 2563 3563
29 2567 3592
53 2573 442
52 2580 490
51 2586 541
51 2591 593
50 2594 648
48 2611 769
41 2680 1126
33 2770 1532
29 2869 1980
29 2971 2465
29 3031 2902
29 3030 3230
29 2932 3433
29 2885 3512
29 2882 3541
29 2881 3569
29 2885 3598
58 2860 487
57 2864 526
57 2869 571
56 2873 620
56 2876 671
55 2879 726
50 2920 1006
43 2982 1378
35 3070 1806
29 3174 2287
29 3270 2774
29 3312 3178
29 3256 3419
29 3182 3526
29 3179 3555
29 3179 3583
29 3183 3610
61 3025 537
61 3031 572
61 3036 607
60 3042 644
60 3047 680
59 3051 717
57 3072 874
51 3124 1229
44 3193 1615
33 3301 2099
29 3405 2596
29 3492 3069
29 3494 3391
29 3432 3550
29 3430 3590
29 3433 3617
29 3436 3643
63 3073 556
63 3079 590
62 3084 625
62 3089 657
61 3094 693
61 3100 731
59 3113 816
54 3161 1144
47 3220 1502
37 3321 1977
29 3426 2466
29 3529 2969
29 3564 3340
29 3514 3536
29 3508 3599
29 3511 3625
29 3514 3652
64 3117 574
64 3122 606
63 3127 640
63 3132 672
62 3137 704
62 3143 741
61 3152 798
56 3193 1078
49 3250 1434
40 3338 1889
30 3445 2386
29 3550 2899
29 3603 3295
29 3566 3520
29 3554 3604
29 3556 3630
29 3558 3656
65 3160 597
64 3165 624
64 3170 654
64 3174 686
63 3179 717
63 3185 751
62 3194 804
57 3233 1063
51 3288 1429
42 3370 1870
31 3477 2374
29 3580 2880
29 3640 3288
29 3609 3523
29 3598 3608
29 3600 3634
29 3602 3660
600 139 99
598 126 165
675 82 505
615 42 918
440 55 1249
272 78 1570
220 86 1957
182 97 2372
180 105 2767
271 103 3088
355 110 3302
332 113 3353
308 111 3380
307 112 3413
305 113 3445
303 113 3477
298 113 3509
567 165 70
590 167 136
633 128 436
539 106 855
367 99 1195
229 115 1528
189 119 1913
166 130 2327
163 130 2736
222 124 3069
316 133 3306
288 143 3364
264 139 3390
258 142 3422
255 143 3453
252 144 3483
