滤镜资源/Professional Luts Collection/Triune-Digital-Cinematic-LUTs/3D LUTs (3DL)/LOG/Tron - LOG.3dl
# Created by Benjamin (IWLTBAP) : http://luts.iwltbap.com
# Copyright: (C) Copyright 2016 Triune Films and IWLTBAP
# Blockbuster LUTs Pack
0 128 256 384 512 640 768 896 1023
0 0 0
28 41 561
1 37 1167
5 69 1756
11 68 2405
15 93 2974
17 90 3080
18 85 3168
19 84 3249
7 227 27
0 267 427
0 302 1154
1 303 1922
6 265 2680
27 184 3225
32 168 3316
34 170 3384
37 168 3448
2 543 87
1 578 254
0 721 1008
0 770 1791
0 765 2634
7 691 3279
4 680 3428
1 671 3488
1 672 3550
1 980 200
0 1006 310
0 1151 824
0 1309 1659
0 1367 2506
0 1323 3191
0 1295 3433
0 1286 3492
0 1289 3552
7 1545 288
5 1571 400
1 1638 661
0 1859 1495
0 1988 2354
0 1993 3104
0 1922 3443
0 1910 3502
0 1915 3560
17 2238 408
16 2254 507
14 2266 611
2 2421 1283
0 2615 2162
0 2702 2994
0 2589 3453
0 2567 3532
0 2570 3590
28 2857 490
27 2867 578
26 2874 681
20 2924 1032
4 3078 1838
0 3274 2797
0 3253 3423
0 3181 3553
0 3185 3608
32 3060 557
31 3071 626
30 3082 698
29 3103 836
16 3219 1540
0 3428 2505
0 3556 3352
0 3500 3596
0 3506 3649
35 3153 602
34 3161 662
33 3170 723
31 3185 818
20 3286 1460
1 3480 2410
0 3635 3306
0 3592 3606
0 3596 3658
344 78 32
354 62 561
154 57 1229
105 88 1969
104 102 2734
128 93 3187
124 93 3267
122 93 3333
127 94 3400
222 240 40
155 259 391
89 274 1126
60 279 1895
64 238 2704
105 184 3290
99 183 3375
99 180 3434
100 179 3495
53 535 81
54 564 229
30 694 968
29 752 1766
29 755 2613
35 682 3266
33 668 3429
30 652 3490
30 646 3552
30 974 193
29 1001 305
29 1131 787
29 1300 1639
29 1359 2490
29 1315 3183
29 1283 3437
29 1275 3496
29 1279 3555
37 1551 282
35 1574 398
30 1632 639
29 1856 1471
29 1994 2339
29 1996 3097
29 1916 3445
29 1905 3505
29 1909 3563
47 2242 401
46 2258 501
44 2269 603
32 2415 1252
29 2614 2140
29 2709 2984
29 2586 3452
29 2563 3534
29 2567 3592
58 2860 487
57 2869 571
56 2876 671
50 2920 1006
35 3070 1806
29 3270 2774
29 3256 3419
29 3179 3555
29 3183 3610
63 3073 556
62 3084 625
61 3094 693
59 3113 816
47 3220 1502
29 3426 2466
29 3564 3340
29 3508 3599
29 3514 3652
65 3160 597
64 3170 654
63 3179 717
62 3194 804
51 3288 1429
31 3477 2374
29 3640 3288
29 3598 3608
29 3602 3660
906 179 140
961 123 398
897 49 1291
436 79 1964
317 99 2742
553 112 3304
459 114 3387
424 113 3445
415 113 3507
806 298 57
869 306 304
717 224 1134
313 214 1847
221 195 2659
420 181 3287
348 181 3402
328 175 3458
328 178 3518
555 597 96
545 604 236
317 642 889
165 706 1725
156 705 2575
164 629 3245
154 610 3436
149 592 3497
148 587 3558
168 977 150
156 990 280
127 1073 688
119 1288 1596
114 1346 2456
109 1303 3163
103 1255 3445
100 1236 3503
99 1230 3561
89 1523 253
86 1546 371
79 1595 582
73 1831 1415
68 1979 2300
64 1980 3074
61 1888 3445
59 1875 3507
59 1879 3565
77 2224 386
76 2241 487
74 2253 592
61 2385 1195
58 2591 2096
58 2697 2959
58 2569 3447
58 2542 3536
58 2545 3594
87 2849 475
87 2860 559
86 2867 658
81 2903 959
65 3048 1758
58 3254 2736
58 3252 3408
58 3167 3557
58 3170 3612
94 3086 551
93 3096 621
92 3105 686
90 3120 788
78 3220 1448
58 3422 2416
58 3573 3318
58 3517 3603
58 3523 3655
95 3172 595
95 3182 655
95 3192 719
94 3205 789
82 3291 1391
61 3472 2326
58 3641 3261
58 3603 3611
58 3607 3663
1666 247 268
1651 188 376
1853 74 1145
1612 70 1987
1172 84 2743
1051 112 3298
970 117 3393
926 116 3453
916 118 3515
1642 317 162
1659 351 358
1777 192 966
1494 157 1885
1010 134 2657
949 159 3250
878 184 3398
840 177 3456
836 178 3517
1452 672 57
1549 684 145
1473 712 779
1172 640 1720
578 593 2551
411 549 3215
421 540 3445
406 520 3503
423 512 3561
1148 1111 181
1131 1116 293
1029 1123 654
578 1185 1499
267 1242 2413
259 1225 3145
256 1150 3463
252 1128 3519
251 1120 3577
539 1609 195
511 1611 313
454 1604 475
249 1720 1256
221 1960 2247
216 1969 3052
211 1846 3459
208 1817 3523
207 1809 3582
227 2211 223
222 2220 350
213 2224 479
190 2328 1049
173 2594 2014
168 2732 2929
163 2585 3456
159 2537 3554
157 2540 3610
167 2833 403
164 2844 496
160 2853 607
151 2884 874
130 3021 1668
113 3234 2675
108 3251 3393
105 3149 3562
104 3152 3617
130 3098 544
129 3109 613
128 3119 682
124 3130 761
110 3218 1379
89 3412 2340
86 3579 3280
86 3526 3607
86 3531 3659
127 3186 596
128 3197 657
128 3208 722
127 3219 788
114 3291 1330
93 3462 2251
86 3645 3214
86 3609 3612
86 3613 3666
2539 330 410
2524 284 503
2531 159 934
2692 74 1900
2387 92 2749
2170 117 3316
2025 135 3433
1907 130 3485
1788 130 3538
2441 412 381
2501 421 475
2458 253 808
2634 140 1795
2290 148 2673
2055 161 3276
1880 183 3436
1733 181 3485
1650 185 3540
2466 745 168
2561 747 267
2514 813 803
2475 629 1552
2094 540 2565
1787 461 3225
1529 449 3454
1424 428 3504
1380 419 3560
2221 1175 116
2318 1201 195
2378 1236 493
2140 1277 1370
1754 1190 2424
1178 1087 3180
776 1016 3490
715 995 3540
731 988 3600
1894 1744 233
1873 1747 332
1838 1744 458
1623 1786 1254
977 1859 2166
423 1853 3062
378 1723 3493
369 1684 3559
364 1675 3619
1351 2390 275
1310 2390 361
1232 2382 471
880 2381 993
387 2495 1860
329 2687 2890
324 2566 3469
320 2476 3581
319 2469 3635
541 2952 321
506 2952 407
466 2949 508
418 2947 728
318 3007 1509
280 3216 2580
275 3316 3401
271 3213 3611
270 3216 3664
360 3188 359
355 3193 455
349 3199 561
340 3206 668
298 3262 1253
240 3406 2201
224 3608 3229
219 3573 3632
217 3577 3683
341 3257 393
337 3263 489
331 3269 593
322 3277 707
288 3327 1210
229 3465 2134
209 3657 3140
203 3639 3622
202 3643 3683
3459 496 551
3454 472 619
3346 342 928
3473 215 1680
3550 99 2701
3316 135 3297
3190 127 3431
3124 118 3486
3080 115 3543
3385 589 540
3448 596 623
3337 480 895
3427 324 1549
3503 141 2619
3237 191 3258
3090 190 3437
3022 182 3493
2979 179 3550
3442 863 343
3459 887 501
3510 940 889
3405 717 1298
3411 529 2464
3082 436 3205
2880 407 3465
2811 379 3519
2769 372 3574
3343 1315 151
3435 1324 240
3547 1327 418
3353 1434 1356
3254 1239 2197
2862 1116 3150
2603 992 3511
2520 949 3565
2471 940 3617
3111 1803 115
3181 1836 204
3198 1847 301
3238 1953 1107
2978 1980 2014
2535 1866 3073
2146 1663 3551
1949 1568 3622
1836 1554 3673
2799 2512 285
2786 2513 370
2759 2510 475
2656 2534 974
2384 2591 1888
1702 2686 2856
1051 2538 3525
652 2363 3647
583 2356 3688
2449 3128 406
2429 3131 496
2394 3130 600
2321 3126 788
1941 3145 1642
862 3224 2521
470 3345 3401
438 3245 3666
435 3240 3715
1893 3369 469
1872 3374 555
1829 3377 651
1756 3381 760
1569 3417 1317
797 3451 2077
397 3637 3153
387 3647 3673
386 3648 3724
1710 3420 465
1678 3423 546
1630 3425 634
1547 3427 734
1360 3459 1210
750 3494 1963
379 3666 3030
373 3708 3651
371 3711 3718
3692 527 597
3690 505 659
3591 402 946
3670 255 1558
3812 167 2592
3734 193 3273
3622 182 3435
3583 170 3486
3555 166 3540
3706 652 600
3752 654 685
3664 557 919
3689 371 1428
3846 298 2489
3768 263 3232
3641 257 3440
3602 244 3490
3575 238 3544
3815 944 508
3826 970 651
3825 1006 938
3765 837 1327
3857 677 2242
3816 485 3162
3664 429 3454
3628 400 3502
3604 389 3553
3932 1396 273
3950 1423 397
3956 1449 593
3895 1575 1443
3836 1297 1933
3864 1168 3085
3643 1052 3508
3601 971 3555
3580 958 3603
3915 1980 124
3943 2017 239
3960 2046 372
3974 2103 1022
3915 2183 2027
3868 1916 2869
3580 1773 3530
3506 1664 3616
3481 1652 3667
3832 2558 220
3851 2581 321
3854 2587 430
3865 2622 802
3876 2758 1751
3737 2814 2743
3416 2627 3512
3305 2462 3686
3279 2451 3735
3630 3202 475
3628 3205 555
3619 3206 644
3599 3203 771
3504 3264 1641
3277 3340 2606
3000 3407 3408
2858 3308 3747
2837 3301 3796
3335 3536 574
3329 3542 661
3320 3548 757
3298 3552 865
3256 3588 1412
3065 3636 2243
2540 3700 3142
1662 3751 3739
1510 3756 3799
3203 3590 591
3196 3595 676
3185 3600 770
3159 3603 873
3112 3624 1279
2949 3670 2078
2267 3720 2953
989 3816 3711
855 3819 3790
3815 568 626
3812 545 689
3723 440 957
3774 270 1505
3894 237 2526
3867 213 3259
3795 219 3442
3762 204 3491
3737 195 3544
3828 688 629
3855 701 713
3793 596 930
3790 403 1392
3906 381 2411
3886 283 3215
3810 288 3449
3779 274 3498
3754 262 3550
3906 959 558
3912 987 699
3897 1015 945
3844 861 1339
3906 700 2169
3911 472 3137
3827 424 3463
3799 393 3510
3778 381 3560
3998 1412 331
4004 1445 472
4001 1457 624
3954 1604 1469
3903 1325 1917
3956 1168 3019
3837 1063 3508
3814 963 3559
3796 948 3607
4009 2005 186
4021 2044 335
4025 2055 485
4028 2113 1097
3986 2256 2107
3974 1959 2765
3864 1780 3509
3824 1686 3614
3816 1675 3663
4034 2601 281
4047 2655 400
4049 2668 510
4051 2690 794
4049 2809 1782
3996 2907 2785
3955 2586 3466
3891 2473 3689
3884 2466 3736
4039 3206 436
4041 3210 529
4042 3212 633
4043 3209 754
4052 3282 1567
4047 3410 2564
4007 3477 3394
3930 3319 3753
3930 3313 3799
4036 3589 571
4036 3594 661
4036 3599 760
4035 3605 876
4036 3642 1328
4019 3730 2341
3952 3828 3244
3959 3884 3825
3966 3886 3901
4015 3656 601
4014 3661 690
4012 3669 786
4009 3677 897
4004 3708 1238
3982 3796 2215
3902 3880 3056
3907 3981 3807
3846 3978 3890
3920 621 652
3915 604 718
3838 493 974
3859 322 1480
3955 320 2482
3946 233 3256
3900 231 3460
3886 222 3506
3872 203 3555
3931 743 658
3931 758 748
3892 674 966
3871 489 1404
3959 462 2362
3958 304 3216
3906 295 3467
3891 282 3514
3879 263 3563
3975 993 601
3969 1016 732
3957 1054 978
3912 896 1365
3956 745 2143
3972 492 3117
3915 436 3480
3901 397 3525
3889 377 3574
4038 1467 398
4037 1485 525
4035 1497 678
4000 1667 1527
3963 1380 1944
3996 1252 2986
3924 1111 3517
3910 1014 3570
3903 994 3618
4058 2051 255
4060 2066 407
4061 2077 567
4061 2148 1170
4021 2326 2183
4006 2037 2765
3956 1790 3505
3923 1715 3619
3916 1704 3667
4076 2646 329
4077 2660 437
4079 2670 556
4080 2695 852
4077 2841 1871
4031 2975 2864
4010 2654 3453
3967 2477 3693
3963 2469 3740
4084 3216 466
4085 3221 571
4086 3225 685
4087 3226 820
4089 3304 1634
4078 3429 2657
4037 3508 3433
3998 3315 3767
3997 3310 3814
4086 3603 604
4087 3608 697
4088 3614 803
4088 3621 926
4089 3657 1362
4087 3744 2347
4061 3849 3298
4061 3918 3895
4063 3911 3982
4085 3682 640
4085 3690 733
4086 3697 829
4087 3707 942
4089 3735 1259
4088 3825 2226
4066 3926 3156
4080 4056 3926
4088 4071 4055
