滤镜资源/2018.1更新vsco/2018.1更新 vsco cube/VSCO G6.cube
#Generated by Picture Instruments - Look Converter
LUT_3D_SIZE 5
0.0000 0.0000 0.0000
0.1765 0.0392 0.0196
0.5804 0.1216 0.0627
0.8157 0.1686 0.0824
0.8902 0.1804 0.0980
0.0196 0.1882 0.1098
0.2118 0.1843 0.0275
0.5804 0.2431 0.0627
0.8196 0.2980 0.0863
0.8941 0.3137 0.1020
0.0431 0.4627 0.2588
0.1608 0.4667 0.2314
0.6000 0.4902 0.0627
0.8431 0.5059 0.0706
0.9216 0.5216 0.0784
0.0706 0.7216 0.3922
0.1569 0.7176 0.3765
0.5098 0.7255 0.1765
0.8510 0.7529 0.0471
0.9216 0.7569 0.0667
0.0784 0.8941 0.4824
0.1647 0.8941 0.4667
0.5176 0.8863 0.2980
0.8196 0.9294 0.1098
0.9294 0.9333 0.0706
0.0353 0.0118 0.1804
0.2510 0.0431 0.1804
0.6157 0.1294 0.2118
0.8471 0.1333 0.2118
0.9216 0.1451 0.2157
0.0275 0.1843 0.2000
0.1961 0.2314 0.2471
0.6196 0.2824 0.2314
0.8667 0.3098 0.2667
0.9255 0.3255 0.2627
0.0353 0.4902 0.3137
0.1020 0.5333 0.3529
0.6039 0.5176 0.2314
0.8510 0.5294 0.2510
0.9333 0.5373 0.2510
0.0549 0.7333 0.4235
0.1020 0.7725 0.4627
0.5137 0.7412 0.3647
0.8510 0.7647 0.2235
0.9333 0.7529 0.2510
0.0706 0.9059 0.5137
0.1059 0.9176 0.5294
0.5255 0.9059 0.4627
0.8235 0.9333 0.2941
0.9529 0.9294 0.2549
0.0275 0.0353 0.4627
0.1608 0.0549 0.5098
0.6275 0.1059 0.5255
0.8824 0.1451 0.4784
0.9490 0.1608 0.4667
0.0235 0.2039 0.5020
0.1294 0.2314 0.6078
0.6980 0.2510 0.5059
0.8980 0.2824 0.5098
0.9529 0.2980 0.5059
0.0078 0.4980 0.5137
0.0549 0.5294 0.5490
0.5804 0.5686 0.5765
0.8824 0.5765 0.5098
0.9373 0.5804 0.5098
0.0078 0.7804 0.5686
0.0275 0.8000 0.5961
0.5020 0.8196 0.6392
0.8667 0.7765 0.4980
0.9451 0.7608 0.5137
0.0353 0.9412 0.6471
0.0549 0.9490 0.6588
0.4980 0.9294 0.6902
0.8275 0.9294 0.5765
0.9490 0.9294 0.5294
0.0510 0.0471 0.7412
0.1373 0.0706 0.7725
0.5725 0.1176 0.8118
0.8863 0.1569 0.7961
0.9647 0.1647 0.7608
0.0471 0.2157 0.8000
0.1216 0.2431 0.8980
0.6000 0.2627 0.8784
0.9098 0.2863 0.8549
0.9882 0.2941 0.8078
0.0431 0.4902 0.7765
0.0706 0.5137 0.8118
0.5098 0.5529 0.8980
0.9529 0.5255 0.7412
0.9804 0.5294 0.7137
0.0275 0.7725 0.8078
0.0235 0.7882 0.8196
0.4000 0.8118 0.8471
0.8431 0.8157 0.8275
0.9608 0.7843 0.7529
0.0275 0.9686 0.8235
0.0118 0.9882 0.8353
0.3608 0.9882 0.8471
0.8235 0.9686 0.8510
0.9608 0.9451 0.7608
0.0392 0.0588 0.9333
0.1255 0.0667 0.9451
0.5333 0.1216 0.9608
0.8784 0.1608 0.9725
0.9765 0.1765 0.9569
0.0392 0.2275 0.9529
0.1059 0.2392 0.9608
0.5608 0.2745 0.9725
0.8980 0.2941 0.9922
0.9882 0.3059 0.9765
0.0392 0.5020 0.9490
0.0627 0.5216 0.9529
0.4784 0.5529 0.9725
0.8941 0.5412 0.9961
0.9843 0.5373 0.9686
0.0235 0.7725 0.9647
0.0353 0.7843 0.9686
0.3608 0.8039 0.9725
0.8392 0.8118 0.9843
0.9882 0.7608 0.9412
0.0196 0.9608 0.9725
0.0235 0.9765 0.9765
0.3216 0.9765 0.9804
0.7804 0.9843 0.9882
0.9882 0.9843 0.9882
