滤镜资源/Professional Luts Collection/Lutify.me Professional/Skintone/Galaxyte.cube
# Created by: Lutify.me
# Copyright: (c) Copyright Lutify.me 2015
# Website: https://lutify.me
#LUT size
LUT_3D_SIZE 9
#LUT data points
0.087646 0.086731 0.078583
0.139282 0.079956 0.078796
0.204102 0.078461 0.078156
0.276367 0.077454 0.081024
0.372498 0.059906 0.087921
0.501434 0.000488 0.094391
0.651276 0.000000 0.101532
0.808929 0.000000 0.107452
0.959412 0.000000 0.111359
0.101196 0.109955 0.078217
0.143951 0.105652 0.077698
0.205475 0.104004 0.080566
0.278473 0.100403 0.085602
0.375366 0.085114 0.091797
0.505768 0.018646 0.096863
0.655182 0.000000 0.103363
0.811981 0.000000 0.108551
0.961365 0.000000 0.111359
0.127045 0.149139 0.092102
0.155060 0.144623 0.090851
0.210083 0.139038 0.090332
0.283661 0.135620 0.093506
0.383179 0.123322 0.097748
0.512695 0.086182 0.102539
0.663147 0.000000 0.106079
0.818054 0.000000 0.109528
0.965149 0.000000 0.110504
0.149078 0.203278 0.106903
0.170654 0.197357 0.104553
0.218384 0.191650 0.103943
0.291718 0.184540 0.103333
0.394287 0.178955 0.105164
0.524811 0.161835 0.107269
0.672943 0.124939 0.108826
0.826660 0.046814 0.107880
0.970306 0.000671 0.105927
0.147461 0.290802 0.118378
0.170959 0.281311 0.116730
0.220398 0.275024 0.113556
0.297607 0.268616 0.112885
0.404083 0.259949 0.111053
0.535736 0.257080 0.109589
0.682770 0.247131 0.107208
0.833008 0.231873 0.102936
0.973053 0.220001 0.096100
0.090973 0.410614 0.118073
0.137451 0.397186 0.120087
0.204559 0.388916 0.117188
0.295929 0.383636 0.111115
0.410248 0.376404 0.110321
0.543579 0.367157 0.107269
0.688843 0.368988 0.101166
0.835632 0.369171 0.092010
0.970886 0.372864 0.079346
0.000000 0.546112 0.103577
0.022705 0.531677 0.107117
0.169586 0.519348 0.111603
0.285004 0.514435 0.100311
0.412415 0.509552 0.088074
0.549988 0.501526 0.087616
0.694275 0.492737 0.080994
0.837006 0.499207 0.064270
0.965851 0.508423 0.041199
0.000000 0.682648 0.071991
0.000000 0.668549 0.077789
0.116150 0.655914 0.085419
0.276093 0.647644 0.081879
0.413116 0.644806 0.049927
0.555878 0.639557 0.022247
0.698639 0.631317 0.022614
0.836792 0.624176 0.008911
0.958282 0.634583 0.000000
0.000000 0.804626 0.038330
0.000000 0.792816 0.042816
0.127167 0.781586 0.052032
0.292206 0.772278 0.056458
0.427429 0.770325 0.002502
0.567291 0.766846 0.000000
0.706726 0.760559 0.000000
0.836761 0.752869 0.000000
0.950623 0.748199 0.000000
0.086609 0.082123 0.133331
0.115051 0.083008 0.098389
0.176117 0.078308 0.094849
0.242798 0.079620 0.092957
0.325989 0.072205 0.092865
0.441437 0.026276 0.093811
0.582947 0.000000 0.098663
0.738861 0.000000 0.105072
0.894440 0.000000 0.109955
0.102722 0.101715 0.121582
0.156982 0.120178 0.132538
0.216339 0.118469 0.128113
0.291443 0.113708 0.124969
0.393372 0.096313 0.122986
0.527466 0.028076 0.120911
0.677368 0.000000 0.121460
0.832703 0.000000 0.121429
0.978790 0.000000 0.119934
0.125763 0.140350 0.123474
0.168488 0.164307 0.137909
0.222626 0.157593 0.127136
0.298798 0.154144 0.124084
0.402771 0.142700 0.122437
0.534821 0.111664 0.121674
0.686310 0.022827 0.119446
0.839355 0.000000 0.118286
0.982849 0.000000 0.114990
0.148560 0.188995 0.132446
0.180328 0.226624 0.146606
0.229584 0.220581 0.135498
0.306793 0.213135 0.126251
0.414093 0.210052 0.123077
0.547028 0.198517 0.120331
0.695404 0.174713 0.117004
0.846893 0.136047 0.112061
0.987305 0.091858 0.104797
0.154724 0.267761 0.141510
0.171997 0.324188 0.153595
0.226746 0.317078 0.141876
0.310944 0.311035 0.130981
0.422089 0.302521 0.123016
0.556183 0.302887 0.117126
0.703033 0.298401 0.110718
0.850739 0.291565 0.102509
0.986298 0.289825 0.090973
0.109924 0.384277 0.139526
0.118347 0.451233 0.148499
0.207703 0.438904 0.142395
0.307129 0.433899 0.126343
0.427612 0.427063 0.115753
0.562775 0.418030 0.108643
0.707794 0.422333 0.097656
0.852112 0.425842 0.082336
0.982178 0.433380 0.065674
0.000000 0.514709 0.136017
0.003052 0.586151 0.140259
0.171967 0.573120 0.133667
0.297150 0.567444 0.113892
0.429047 0.562866 0.090210
0.569092 0.555206 0.078156
0.712372 0.546722 0.065338
0.851898 0.554474 0.041107
0.975067 0.565033 0.014099
0.000000 0.652740 0.117340
0.000000 0.719696 0.122467
0.139618 0.707092 0.113617
0.296051 0.698761 0.097473
0.433350 0.695862 0.051727
0.575775 0.690857 0.005676
0.716980 0.682831 0.000244
0.850891 0.675873 0.000000
0.966278 0.686279 0.000000
0.000000 0.779541 0.097900
0.021210 0.834686 0.116699
0.194061 0.824036 0.103027
0.328979 0.816223 0.083069
0.457397 0.814148 0.011444
0.592712 0.810516 0.000000
0.727539 0.804535 0.000000
0.851898 0.797089 0.000000
0.959320 0.792175 0.000000
0.105927 0.069763 0.207581
0.112305 0.074951 0.164856
0.152985 0.075989 0.126129
0.214386 0.079498 0.119965
0.287933 0.077332 0.116577
0.388245 0.054535 0.114563
0.519897 0.000000 0.114136
0.670532 0.000000 0.115906
0.827454 0.000000 0.117371
0.107544 0.097321 0.193726
0.147430 0.115723 0.208099
0.193024 0.118134 0.163147
0.259430 0.116547 0.156769
0.347992 0.106567 0.152405
0.468964 0.068420 0.148499
0.613434 0.000000 0.145508
0.767181 0.000000 0.143646
0.918365 0.000000 0.140930
0.122711 0.128784 0.179169
0.173950 0.150543 0.192627
0.242035 0.178925 0.207672
0.321777 0.176697 0.200958
0.430847 0.166473 0.195435
0.565460 0.140991 0.190063
0.716888 0.078339 0.183014
0.867432 0.004517 0.176605
0.999786 0.000000 0.169342
0.145813 0.180237 0.175720
0.186188 0.212189 0.193085
0.245056 0.258331 0.212250
0.329132 0.249756 0.196259
0.441833 0.248230 0.189545
0.576416 0.240692 0.183075
0.723389 0.225739 0.176086
0.871002 0.205688 0.167786
1.000000 0.191772 0.157318
0.159698 0.250061 0.181396
0.184814 0.302368 0.199371
0.242157 0.365204 0.219299
0.331238 0.359924 0.199890
0.447205 0.351013 0.184296
0.583374 0.353149 0.174622
0.729218 0.352020 0.164703
0.873383 0.350281 0.153595
0.999817 0.355042 0.141693
0.127258 0.360138 0.182037
0.138977 0.427338 0.195953
0.223450 0.494110 0.221039
0.328278 0.487305 0.201385
0.451538 0.481628 0.179047
0.587677 0.472382 0.163452
0.731140 0.477936 0.150635
0.870728 0.483612 0.136475
0.993713 0.493652 0.120667
0.009308 0.489716 0.179535
0.042725 0.560455 0.194794
0.188080 0.632721 0.214111
0.322388 0.622467 0.196533
0.453644 0.618103 0.166687
0.593353 0.610504 0.143982
0.733734 0.601624 0.126099
0.868347 0.609802 0.106232
0.984375 0.620911 0.084259
0.000000 0.622986 0.179565
0.000000 0.692169 0.195282
0.194794 0.758698 0.217102
0.330933 0.750854 0.192261
0.463348 0.747040 0.155579
0.601807 0.741577 0.117828
0.738922 0.733582 0.088959
0.866394 0.726257 0.059021
0.974762 0.735840 0.029724
0.000000 0.753601 0.172455
0.025269 0.812714 0.195160
0.273254 0.865204 0.225891
0.379364 0.859375 0.195892
0.497711 0.856171 0.154541
0.625061 0.851807 0.107330
0.752319 0.845581 0.054688
0.868713 0.838135 0.024200
0.969086 0.832794 0.003204
0.097107 0.060883 0.307251
0.107788 0.066528 0.250488
0.142273 0.071625 0.199310
0.189880 0.075745 0.156189
0.256866 0.077637 0.148651
0.343323 0.067383 0.143860
0.462952 0.010681 0.139954
0.605591 0.000000 0.138428
0.760742 0.000000 0.137512
0.103088 0.089172 0.288971
0.122009 0.107727 0.312103
0.177399 0.112244 0.249817
0.232971 0.114532 0.198334
0.311035 0.110443 0.189880
0.417664 0.088379 0.184052
0.554382 0.007050 0.178467
0.703827 0.000000 0.174988
0.856903 0.000000 0.171234
0.113983 0.122955 0.270782
0.150879 0.145172 0.292786
0.220917 0.172913 0.313232
0.290375 0.176086 0.249969
0.387390 0.171692 0.240295
0.511444 0.154236 0.233215
0.656128 0.112396 0.225891
0.808716 0.024445 0.217712
0.951904 0.000000 0.210663
0.135773 0.162384 0.251862
0.179504 0.192719 0.272888
0.255035 0.235138 0.291626
0.358826 0.293396 0.309998
0.476837 0.292999 0.300507
0.612579 0.288422 0.291443
0.757050 0.279663 0.282318
0.899536 0.270233 0.272583
1.000000 0.269775 0.261902
0.151764 0.236420 0.245117
0.182220 0.287903 0.264709
0.256409 0.346069 0.288239
0.360199 0.414001 0.316254
0.480194 0.405426 0.292480
0.618073 0.408051 0.280945
0.761627 0.408752 0.269836
0.900543 0.410461 0.258362
1.000000 0.419128 0.246735
0.131592 0.340881 0.244019
0.154846 0.405853 0.264740
0.244385 0.471893 0.292816
0.362122 0.544312 0.323395
0.483337 0.539703 0.295258
0.619171 0.530396 0.272491
0.760498 0.536377 0.258606
0.895142 0.542908 0.244720
1.000000 0.554169 0.232452
0.015533 0.470215 0.241516
0.053314 0.542053 0.261810
0.207642 0.612122 0.289429
0.364746 0.677551 0.328400
0.488647 0.673035 0.298706
0.624115 0.667084 0.268494
0.760101 0.657990 0.245850
0.888184 0.665955 0.230988
0.995605 0.676758 0.218414
0.000000 0.603455 0.243317
0.000000 0.674286 0.265228
0.197083 0.743347 0.290710
0.386719 0.799164 0.334686
0.506165 0.795074 0.302551
0.635437 0.790833 0.267426
0.765472 0.783295 0.238983
0.884460 0.775543 0.215637
0.985168 0.783752 0.202942
0.000000 0.731689 0.249451
0.014587 0.794586 0.274536
0.266296 0.851868 0.304016
0.445831 0.897888 0.346222
0.548676 0.894806 0.311432
0.664001 0.891083 0.274658
0.781067 0.884888 0.242096
0.887756 0.877502 0.216858
0.980774 0.871643 0.193085
0.009613 0.041718 0.437653
0.070435 0.053284 0.366119
0.120575 0.061646 0.299622
0.174255 0.069702 0.238922
0.229614 0.073425 0.190125
0.306732 0.070435 0.181122
0.412109 0.037292 0.174835
0.545776 0.000000 0.170349
0.696320 0.000000 0.167450
0.029083 0.074463 0.415039
0.024536 0.094879 0.443481
0.134247 0.100159 0.370300
0.211517 0.106689 0.298523
0.278931 0.108246 0.239044
0.374329 0.096222 0.228485
0.499786 0.042297 0.220581
0.644165 0.000000 0.214478
0.796082 0.000000 0.209503
0.065247 0.112762 0.392456
0.088074 0.136780 0.420410
0.165802 0.164154 0.448792
0.264832 0.168396 0.369385
0.349396 0.170074 0.299225
0.464081 0.160309 0.286926
0.600281 0.131409 0.277710
0.751038 0.057159 0.268158
0.897766 0.000366 0.259888
0.096771 0.156372 0.369568
0.134460 0.189209 0.396332
0.212189 0.232422 0.423218
0.332031 0.289154 0.444641
0.433624 0.294037 0.365479
0.561157 0.293427 0.353790
0.701416 0.287170 0.343872
0.844604 0.277893 0.333893
0.978363 0.272919 0.323517
0.127533 0.212128 0.344452
0.169067 0.261871 0.367279
0.253540 0.322418 0.389893
0.377533 0.390564 0.411957
0.519073 0.464478 0.437439
0.657471 0.466492 0.425507
0.797150 0.468384 0.413818
0.928802 0.472595 0.401947
1.000000 0.484070 0.390045
0.121826 0.319122 0.334198
0.150452 0.384888 0.357208
0.248566 0.454865 0.381287
0.386353 0.522034 0.413818
0.522034 0.599548 0.445312
0.655090 0.591248 0.417328
0.792633 0.597015 0.403168
0.919983 0.603821 0.389771
1.000000 0.615509 0.378082
0.008209 0.449402 0.329254
0.057129 0.522247 0.352173
0.229279 0.591278 0.381409
0.390167 0.655426 0.420898
0.533051 0.728058 0.454041
0.659637 0.723755 0.421509
0.789215 0.714966 0.395264
0.909302 0.722443 0.380981
1.000000 0.732361 0.369080
0.000000 0.586395 0.326752
0.000000 0.658722 0.351227
0.199463 0.728638 0.379517
0.407135 0.779816 0.429352
0.558777 0.840393 0.463837
0.674866 0.837006 0.430481
0.794769 0.830902 0.399261
0.903961 0.823303 0.374084
0.997528 0.830078 0.362793
0.000000 0.718719 0.329224
0.000000 0.784363 0.356110
0.247803 0.843842 0.387360
0.458557 0.880951 0.443787
0.606049 0.930054 0.477478
0.706421 0.926880 0.444092
0.810333 0.922241 0.411194
0.907196 0.915710 0.383759
0.993408 0.909607 0.360077
0.000000 0.013885 0.583252
0.000000 0.029877 0.505219
0.026245 0.042450 0.429962
0.135315 0.053497 0.355713
0.208710 0.064514 0.285492
0.274261 0.066711 0.229095
0.368103 0.049713 0.218445
0.491791 0.000000 0.210632
0.635620 0.000000 0.205261
0.000000 0.054901 0.557373
0.000000 0.078827 0.587585
0.006195 0.083282 0.511932
0.155487 0.089478 0.432922
0.252258 0.097626 0.353546
0.334625 0.095276 0.286560
0.449982 0.063324 0.273804
0.588623 0.000000 0.264069
0.737579 0.000000 0.256622
0.000000 0.099762 0.532257
0.000000 0.126617 0.562653
0.023468 0.153748 0.596466
0.206757 0.154785 0.515381
0.321594 0.160980 0.429138
0.419708 0.158783 0.354370
0.549561 0.139496 0.339966
0.694672 0.087036 0.328552
0.843872 0.006683 0.317993
0.000000 0.147491 0.507843
0.007751 0.183563 0.537567
0.132141 0.228790 0.568390
0.278687 0.284760 0.596588
0.408234 0.288422 0.506622
0.515778 0.291962 0.425690
0.651031 0.290283 0.411682
0.792267 0.283173 0.400421
0.929474 0.276398 0.389557
0.024872 0.209106 0.480499
0.087524 0.261658 0.507141
0.197327 0.323608 0.534271
0.334351 0.391937 0.561066
0.494446 0.465698 0.582367
0.606323 0.470734 0.499329
0.744080 0.473022 0.487366
0.878662 0.476013 0.475372
0.997253 0.483887 0.463135
0.077728 0.290253 0.448608
0.139404 0.355164 0.472412
0.252350 0.426697 0.496704
0.393768 0.501953 0.520813
0.548859 0.575592 0.548920
0.692871 0.653320 0.579559
0.824554 0.658020 0.565765
0.942078 0.664795 0.552887
1.000000 0.676300 0.540985
0.011139 0.421417 0.437592
0.076416 0.495453 0.462921
0.234192 0.570587 0.488220
0.400940 0.640900 0.517792
0.559875 0.705322 0.557434
0.697998 0.778259 0.587891
0.817932 0.770844 0.559235
0.927917 0.777496 0.545258
1.000000 0.786011 0.533661
0.000000 0.564911 0.431244
0.000000 0.639160 0.456604
0.216919 0.708984 0.485504
0.418213 0.767090 0.524261
0.580322 0.821594 0.567139
0.717163 0.879974 0.599182
0.823059 0.875732 0.567291
0.921844 0.868652 0.540894
1.000000 0.874207 0.529694
0.000000 0.703491 0.428040
0.000000 0.771515 0.455566
0.244263 0.831238 0.488434
0.464783 0.871094 0.537476
0.620148 0.914764 0.580017
0.747742 0.961517 0.612946
0.837128 0.958160 0.581238
0.924622 0.952881 0.552155
1.000000 0.946716 0.527771
0.000000 0.000000 0.739136
0.000000 0.000122 0.657043
0.000000 0.015869 0.575256
0.007355 0.025879 0.497650
0.156219 0.039764 0.416901
0.248138 0.053375 0.339172
0.328064 0.049255 0.274689
0.442596 0.001038 0.262115
0.579285 0.000000 0.252747
0.000000 0.008667 0.712830
0.000000 0.034576 0.743683
0.000000 0.059479 0.661316
0.005981 0.064240 0.583221
0.191437 0.072601 0.498260
0.304840 0.081024 0.412964
0.402802 0.067230 0.340485
0.536072 0.000000 0.326019
0.681610 0.000000 0.314545
0.000000 0.072845 0.685303
0.000000 0.105774 0.715332
0.000000 0.141876 0.744781
0.068512 0.137909 0.669708
0.267822 0.141907 0.582031
0.391144 0.148590 0.491730
0.500092 0.139191 0.413879
0.641052 0.102661 0.397888
0.790283 0.015961 0.384705
0.000000 0.134460 0.656555
0.000000 0.176727 0.684845
0.000000 0.223389 0.718262
0.203003 0.279968 0.749115
0.361603 0.279175 0.664124
0.490814 0.286469 0.570709
0.603241 0.287201 0.489014
0.742798 0.284119 0.473328
0.881165 0.278046 0.460632
0.000000 0.205505 0.625732
0.000000 0.260651 0.654388
0.090393 0.322815 0.685028
0.280640 0.391693 0.713531
0.451630 0.464722 0.738434
0.587219 0.468414 0.646240
0.696625 0.473907 0.564026
0.829926 0.478546 0.550812
0.953888 0.485107 0.538666
0.000000 0.292267 0.593109
0.005188 0.359039 0.619934
0.185547 0.431641 0.646698
0.346649 0.507996 0.672119
0.508972 0.585236 0.696228
0.672058 0.660950 0.717468
0.776703 0.662384 0.641541
0.898682 0.667542 0.628998
0.999664 0.676758 0.616547
0.000000 0.390076 0.558838
0.088379 0.463379 0.584564
0.251221 0.539948 0.609833
0.410583 0.617035 0.634735
0.571655 0.691193 0.660309
0.721252 0.757294 0.693665
0.843750 0.823639 0.723358
0.943268 0.829163 0.710266
1.000000 0.835999 0.699066
0.000000 0.534973 0.549530
0.000153 0.611603 0.575714
0.228394 0.686218 0.601593
0.420135 0.754059 0.629547
0.594574 0.810394 0.664764
0.735809 0.863098 0.703125
0.848206 0.917023 0.732697
0.936676 0.911407 0.706238
1.000000 0.916016 0.695404
0.000000 0.681580 0.542572
0.000000 0.752563 0.569275
0.245728 0.815582 0.598694
0.461761 0.864868 0.634705
0.632416 0.904602 0.677094
0.760590 0.947754 0.714447
0.860962 0.992188 0.744995
0.938721 0.988678 0.716553
1.000000 0.982971 0.692444
0.000000 0.000000 0.890106
0.000000 0.000000 0.811951
0.000000 0.000000 0.731049
0.000000 0.000000 0.648560
0.006073 0.003296 0.567810
0.188934 0.017273 0.481384
0.298065 0.028839 0.397644
0.394501 0.007324 0.327179
0.526428 0.000000 0.312775
0.000000 0.000000 0.865356
0.000000 0.000000 0.894012
0.000000 0.002869 0.816132
0.000000 0.025177 0.734894
0.028107 0.028870 0.654846
0.247559 0.041351 0.564484
0.371735 0.045959 0.475433
0.482697 0.002228 0.399384
0.627167 0.000000 0.383240
0.000000 0.012512 0.838898
0.000000 0.060516 0.866882
0.000000 0.113922 0.892303
0.000000 0.116669 0.819794
0.170227 0.116669 0.739471
0.344849 0.123444 0.647797
0.471405 0.127502 0.556488
0.587891 0.105347 0.476776
0.735748 0.035553 0.459717
0.000000 0.105957 0.810608
0.000000 0.157745 0.836731
0.000000 0.215240 0.862915
0.097687 0.272888 0.894379
0.303528 0.270264 0.817535
0.452576 0.274323 0.728149
0.578461 0.281738 0.636200
0.693604 0.279846 0.554443
0.833344 0.276154 0.537506
0.000000 0.192993 0.779266
0.000000 0.255951 0.802917
0.000000 0.320251 0.832245
0.220154 0.389893 0.860199
0.413269 0.464081 0.883972
0.551941 0.462891 0.801941
0.677673 0.470703 0.710846
0.785278 0.475952 0.630066
0.911438 0.483765 0.615387
0.000000 0.289948 0.744476
0.000000 0.361359 0.766846
0.082489 0.433502 0.795654
0.299622 0.509918 0.820740
0.472565 0.586945 0.843994
0.636566 0.661957 0.865326
0.760315 0.665009 0.779327
0.854095 0.670380 0.705048
0.962006 0.678406 0.692749
0.000000 0.395050 0.708282
0.000000 0.470337 0.731384
0.190125 0.547516 0.756927
0.370148 0.625427 0.779938
0.536224 0.700958 0.801819
0.690826 0.771576 0.823425
0.823425 0.834869 0.846100
0.905151 0.833038 0.781158
0.994904 0.838593 0.769409
0.000000 0.501740 0.673523
0.033752 0.578583 0.697754
0.262115 0.655365 0.722382
0.435486 0.729095 0.746429
0.597473 0.796906 0.770905
0.749268 0.852509 0.798370
0.861572 0.902527 0.831451
0.949005 0.951324 0.860168
1.000000 0.955170 0.849976
0.000000 0.651550 0.663849
0.000000 0.725494 0.689484
0.257263 0.794220 0.714783
0.457886 0.853363 0.741211
0.631348 0.900421 0.771423
0.772064 0.938538 0.807495
0.871338 0.979523 0.841583
0.961853 0.998962 0.880249
1.000000 0.993835 0.856873
0.000000 0.000000 1.000000
0.000000 0.000000 0.957764
0.000000 0.000000 0.882324
0.000000 0.000000 0.803741
0.000000 0.000000 0.721954
0.023193 0.000000 0.638397
0.240662 0.000000 0.547089
0.362732 0.000000 0.459534
0.473358 0.000000 0.384857
0.000000 0.000000 1.000000
0.000000 0.000000 1.000000
0.000000 0.000000 0.961761
0.000000 0.000000 0.885895
0.000000 0.000000 0.807953
0.122345 0.000000 0.723602
0.322235 0.000000 0.630157
0.451233 0.000000 0.540131
0.571228 0.000000 0.461761
0.000000 0.000000 0.982788
0.000000 0.000153 1.000000
0.000000 0.058960 1.000000
0.000000 0.076416 0.961578
0.026489 0.077881 0.889099
0.278107 0.085968 0.804291
0.432617 0.094391 0.712158
0.559357 0.089417 0.622620
0.680115 0.042664 0.541992
0.000000 0.049530 0.955353
0.000000 0.127197 0.978973
0.000000 0.197327 0.999878
0.027496 0.261475 1.000000
0.247559 0.259979 0.960052
0.409790 0.262085 0.878601
0.547089 0.269043 0.789520
0.669159 0.273743 0.701935
0.784058 0.270325 0.620789
0.000000 0.173737 0.924622
0.000000 0.245056 0.945618
0.000000 0.313568 0.972870
0.163422 0.385834 0.998291
0.384613 0.462341 1.000000
0.518616 0.459686 0.946198
0.649628 0.464630 0.859955
0.766052 0.472046 0.774658
0.869263 0.478363 0.695770
0.000000 0.283539 0.890198
0.000000 0.359497 0.909546
0.006653 0.432739 0.937256
0.262299 0.509888 0.961212
0.444153 0.587433 0.983459
0.606659 0.663055 1.000000
0.729309 0.661407 0.926147
0.839355 0.669250 0.841156
0.924927 0.677460 0.767212
0.000000 0.395996 0.853546
0.000000 0.474121 0.873596
0.127655 0.551483 0.898468
0.336609 0.629486 0.920654
0.504639 0.704651 0.942108
0.656799 0.774353 0.963684
0.788818 0.836395 0.980652
0.886719 0.837006 0.908081
0.959412 0.841248 0.839508
0.000000 0.508881 0.817047
0.000092 0.586975 0.837891
0.225861 0.663910 0.861053
0.407623 0.737762 0.882782
0.569916 0.805450 0.904572
0.713776 0.864502 0.927490
0.830505 0.915924 0.951691
0.933777 0.960663 0.949432
0.991974 0.959137 0.915283
0.000000 0.618713 0.783691
0.064728 0.693542 0.806122
0.300629 0.765289 0.829315
0.476013 0.830231 0.852814
0.632416 0.886108 0.877563
0.765656 0.933655 0.903320
0.873047 0.974670 0.931152
0.963837 0.999969 0.957550
1.000000 0.998169 0.957520
