滤镜资源/Professional Luts Collection/Lutify.me Professional/Skintone/Galaxyte.cube
# Created by: Lutify.me
# Copyright: (c) Copyright Lutify.me 2015
# Website: https://lutify.me
#LUT size
LUT_3D_SIZE 5
#LUT data points
0.087646 0.086731 0.078583
0.204102 0.078461 0.078156
0.372498 0.059906 0.087921
0.651276 0.000000 0.101532
0.959412 0.000000 0.111359
0.127045 0.149139 0.092102
0.210083 0.139038 0.090332
0.383179 0.123322 0.097748
0.663147 0.000000 0.106079
0.965149 0.000000 0.110504
0.147461 0.290802 0.118378
0.220398 0.275024 0.113556
0.404083 0.259949 0.111053
0.682770 0.247131 0.107208
0.973053 0.220001 0.096100
0.000000 0.546112 0.103577
0.169586 0.519348 0.111603
0.412415 0.509552 0.088074
0.694275 0.492737 0.080994
0.965851 0.508423 0.041199
0.000000 0.804626 0.038330
0.127167 0.781586 0.052032
0.427429 0.770325 0.002502
0.706726 0.760559 0.000000
0.950623 0.748199 0.000000
0.105927 0.069763 0.207581
0.152985 0.075989 0.126129
0.287933 0.077332 0.116577
0.519897 0.000000 0.114136
0.827454 0.000000 0.117371
0.122711 0.128784 0.179169
0.242035 0.178925 0.207672
0.430847 0.166473 0.195435
0.716888 0.078339 0.183014
0.999786 0.000000 0.169342
0.159698 0.250061 0.181396
0.242157 0.365204 0.219299
0.447205 0.351013 0.184296
0.729218 0.352020 0.164703
0.999817 0.355042 0.141693
0.009308 0.489716 0.179535
0.188080 0.632721 0.214111
0.453644 0.618103 0.166687
0.733734 0.601624 0.126099
0.984375 0.620911 0.084259
0.000000 0.753601 0.172455
0.273254 0.865204 0.225891
0.497711 0.856171 0.154541
0.752319 0.845581 0.054688
0.969086 0.832794 0.003204
0.009613 0.041718 0.437653
0.120575 0.061646 0.299622
0.229614 0.073425 0.190125
0.412109 0.037292 0.174835
0.696320 0.000000 0.167450
0.065247 0.112762 0.392456
0.165802 0.164154 0.448792
0.349396 0.170074 0.299225
0.600281 0.131409 0.277710
0.897766 0.000366 0.259888
0.127533 0.212128 0.344452
0.253540 0.322418 0.389893
0.519073 0.464478 0.437439
0.797150 0.468384 0.413818
1.000000 0.484070 0.390045
0.008209 0.449402 0.329254
0.229279 0.591278 0.381409
0.533051 0.728058 0.454041
0.789215 0.714966 0.395264
1.000000 0.732361 0.369080
0.000000 0.718719 0.329224
0.247803 0.843842 0.387360
0.606049 0.930054 0.477478
0.810333 0.922241 0.411194
0.993408 0.909607 0.360077
0.000000 0.000000 0.739136
0.000000 0.015869 0.575256
0.156219 0.039764 0.416901
0.328064 0.049255 0.274689
0.579285 0.000000 0.252747
0.000000 0.072845 0.685303
0.000000 0.141876 0.744781
0.267822 0.141907 0.582031
0.500092 0.139191 0.413879
0.790283 0.015961 0.384705
0.000000 0.205505 0.625732
0.090393 0.322815 0.685028
0.451630 0.464722 0.738434
0.696625 0.473907 0.564026
0.953888 0.485107 0.538666
0.000000 0.390076 0.558838
0.251221 0.539948 0.609833
0.571655 0.691193 0.660309
0.843750 0.823639 0.723358
1.000000 0.835999 0.699066
0.000000 0.681580 0.542572
0.245728 0.815582 0.598694
0.632416 0.904602 0.677094
0.860962 0.992188 0.744995
1.000000 0.982971 0.692444
0.000000 0.000000 1.000000
0.000000 0.000000 0.882324
0.000000 0.000000 0.721954
0.240662 0.000000 0.547089
0.473358 0.000000 0.384857
0.000000 0.000000 0.982788
0.000000 0.058960 1.000000
0.026489 0.077881 0.889099
0.432617 0.094391 0.712158
0.680115 0.042664 0.541992
0.000000 0.173737 0.924622
0.000000 0.313568 0.972870
0.384613 0.462341 1.000000
0.649628 0.464630 0.859955
0.869263 0.478363 0.695770
0.000000 0.395996 0.853546
0.127655 0.551483 0.898468
0.504639 0.704651 0.942108
0.788818 0.836395 0.980652
0.959412 0.841248 0.839508
0.000000 0.618713 0.783691
0.300629 0.765289 0.829315
0.632416 0.886108 0.877563
0.873047 0.974670 0.931152
1.000000 0.998169 0.957520
