滤镜资源/Professional Luts Collection/Lutify.me Professional/Skintone/Galaxyte.cube
# Created by: Lutify.me
# Copyright: (c) Copyright Lutify.me 2015
# Website: https://lutify.me
#LUT size
LUT_3D_SIZE 33
#LUT data points
0.087646 0.086731 0.078583
0.090454 0.086273 0.078583
0.106812 0.084747 0.078613
0.122894 0.082520 0.078613
0.139282 0.079956 0.078796
0.155731 0.077148 0.078827
0.171570 0.077087 0.078796
0.187653 0.077759 0.078583
0.204102 0.078461 0.078156
0.220978 0.078644 0.077850
0.238464 0.078735 0.078033
0.256805 0.078430 0.079254
0.276367 0.077454 0.081024
0.297363 0.075684 0.082794
0.320190 0.072540 0.084534
0.345184 0.067566 0.086273
0.372498 0.059906 0.087921
0.402161 0.047760 0.089386
0.433838 0.030396 0.090759
0.466980 0.011414 0.092468
0.501434 0.000488 0.094391
0.537384 0.000000 0.096252
0.574554 0.000000 0.097992
0.612549 0.000000 0.099792
0.651276 0.000000 0.101532
0.690552 0.000000 0.103180
0.730072 0.000000 0.104797
0.769623 0.000000 0.106201
0.808929 0.000000 0.107452
0.847748 0.000000 0.108673
0.886017 0.000000 0.109589
0.923279 0.000000 0.110474
0.959412 0.000000 0.111359
0.087585 0.086823 0.078583
0.098846 0.085754 0.078583
0.112091 0.084900 0.078552
0.126099 0.084656 0.078552
0.140869 0.084747 0.078369
0.156219 0.084686 0.078125
0.171814 0.084595 0.077911
0.187866 0.084961 0.077789
0.204315 0.084991 0.077301
0.221222 0.084900 0.077484
0.238800 0.084747 0.078796
0.257172 0.084198 0.080414
0.276764 0.082886 0.082092
0.297821 0.080963 0.083801
0.320679 0.077942 0.085541
0.345703 0.073212 0.087189
0.373016 0.065887 0.088776
0.402649 0.054565 0.090302
0.434509 0.037750 0.091644
0.467865 0.016724 0.093170
0.502411 0.002075 0.095001
0.538300 0.000000 0.096832
0.575348 0.000000 0.098572
0.613403 0.000000 0.100311
0.652161 0.000000 0.101898
0.691345 0.000000 0.103546
0.730804 0.000000 0.105011
0.770294 0.000000 0.106415
0.809540 0.000000 0.107788
0.848389 0.000000 0.109009
0.886566 0.000000 0.109955
0.923798 0.000000 0.110809
0.959869 0.000000 0.111359
0.088043 0.093842 0.078339
0.101440 0.092987 0.078094
0.113678 0.091797 0.078094
0.127411 0.091583 0.077667
0.141449 0.091339 0.077667
0.156616 0.091156 0.077606
0.172180 0.091095 0.077209
0.188171 0.090912 0.076996
0.204559 0.090729 0.077301
0.221497 0.090515 0.078583
0.239105 0.090027 0.079895
0.257568 0.089203 0.081543
0.277222 0.088013 0.083099
0.298309 0.086090 0.084778
0.321198 0.083008 0.086426
0.346252 0.078400 0.088043
0.373566 0.071503 0.089600
0.403229 0.061005 0.091034
0.435150 0.045105 0.092346
0.468689 0.023407 0.093781
0.503296 0.005219 0.095581
0.539185 0.000000 0.097321
0.576294 0.000000 0.098999
0.614288 0.000000 0.100708
0.652985 0.000000 0.102386
0.692139 0.000000 0.103943
0.731537 0.000000 0.105377
0.770996 0.000000 0.106720
0.810272 0.000000 0.107971
0.848999 0.000000 0.109070
0.887085 0.000000 0.110107
0.924286 0.000000 0.110687
0.960236 0.000000 0.111359
0.094391 0.101532 0.077820
0.105438 0.100708 0.077637
0.116119 0.099609 0.077606
0.128510 0.098602 0.077179
0.142487 0.098267 0.076935
0.157379 0.097870 0.076782
0.172821 0.097504 0.076904
0.188599 0.097260 0.077820
0.204926 0.097015 0.078918
0.221893 0.096527 0.079895
0.239471 0.095917 0.081360
0.258026 0.095123 0.082764
0.277740 0.093781 0.084320
0.298920 0.091827 0.085785
0.321960 0.088806 0.087433
0.347015 0.084320 0.089050
0.374329 0.077789 0.090607
0.403931 0.068207 0.092072
0.435852 0.053589 0.093292
0.469543 0.032410 0.094574
0.504364 0.010376 0.096100
0.540283 0.000000 0.097809
0.577301 0.000000 0.099579
0.615295 0.000000 0.101257
0.653961 0.000000 0.102844
0.693085 0.000000 0.104218
0.732452 0.000000 0.105774
0.771851 0.000000 0.107086
0.811035 0.000000 0.108276
0.849731 0.000000 0.109222
0.887756 0.000000 0.110138
0.924866 0.000000 0.110809
0.960754 0.000000 0.111389
0.101196 0.109955 0.078217
0.110168 0.109039 0.078186
0.119385 0.108002 0.077789
0.130798 0.106903 0.077759
0.143951 0.105652 0.077698
0.158173 0.105408 0.078125
0.173431 0.104889 0.078735
0.189087 0.104614 0.079559
0.205475 0.104004 0.080566
0.222382 0.103577 0.081726
0.240082 0.102875 0.082855
0.258667 0.101868 0.084290
0.278473 0.100403 0.085602
0.299835 0.098358 0.087158
0.322968 0.095428 0.088684
0.348083 0.091217 0.090210
0.375366 0.085114 0.091797
0.404938 0.076416 0.093231
0.436798 0.063477 0.094452
0.470703 0.043732 0.095520
0.505768 0.018646 0.096863
0.541626 0.001862 0.098541
0.578674 0.000000 0.100189
0.616608 0.000000 0.101837
0.655182 0.000000 0.103363
0.694275 0.000000 0.104797
0.733582 0.000000 0.106140
0.772919 0.000000 0.107422
0.811981 0.000000 0.108551
0.850647 0.000000 0.109436
0.888550 0.000000 0.110321
0.925598 0.000000 0.110962
0.961365 0.000000 0.111359
0.107330 0.118896 0.081421
0.115051 0.117981 0.080994
0.123230 0.116791 0.080933
0.133514 0.115753 0.080536
0.145874 0.114471 0.080505
0.159515 0.113251 0.080719
0.174377 0.112885 0.081207
0.189880 0.112518 0.081909
0.206207 0.112030 0.082794
0.223114 0.111481 0.083740
0.240784 0.110687 0.084869
0.259491 0.109558 0.086090
0.279449 0.108032 0.087341
0.300934 0.106049 0.088684
0.324249 0.103119 0.090027
0.349518 0.099030 0.091522
0.376801 0.093384 0.093048
0.406311 0.085388 0.094513
0.438080 0.074005 0.095825
0.472015 0.056854 0.096863
0.507324 0.032257 0.097931
0.543365 0.008636 0.099426
0.580322 0.000000 0.100952
0.618256 0.000000 0.102478
0.656738 0.000000 0.103973
0.695770 0.000000 0.105377
0.734955 0.000000 0.106659
0.774231 0.000000 0.107819
0.813202 0.000000 0.108856
0.851746 0.000000 0.109619
0.889557 0.000000 0.110352
0.926483 0.000000 0.110992
0.962158 0.000000 0.111206
0.113892 0.128479 0.084869
0.120544 0.127502 0.084412
0.127747 0.126343 0.084198
0.136871 0.125244 0.084137
0.148346 0.124115 0.083771
0.161560 0.122742 0.083740
0.175842 0.121307 0.083801
0.191071 0.120972 0.084442
0.207153 0.120483 0.085114
0.224152 0.119751 0.085999
0.241730 0.119080 0.087006
0.260468 0.118103 0.088104
0.280579 0.116638 0.089172
0.302185 0.114594 0.090393
0.325684 0.111755 0.091644
0.351166 0.107758 0.093048
0.378662 0.102478 0.094482
0.408112 0.095245 0.095917
0.439728 0.085266 0.097290
0.473450 0.070953 0.098419
0.509003 0.049530 0.099274
0.545380 0.021545 0.100433
0.582336 0.002472 0.101868
0.620148 0.000000 0.103271
0.658600 0.000000 0.104645
0.697540 0.000000 0.105957
0.736633 0.000000 0.107147
0.775787 0.000000 0.108154
0.814636 0.000000 0.109100
0.853058 0.000000 0.109833
0.890717 0.000000 0.110596
0.927521 0.000000 0.110992
0.963043 0.000000 0.111145
0.120422 0.138519 0.088531
0.126373 0.137512 0.087769
0.132629 0.136475 0.087524
0.141022 0.135223 0.087372
0.151337 0.133972 0.087311
0.163818 0.132812 0.087067
0.177612 0.131439 0.087006
0.192657 0.129913 0.087067
0.208466 0.129547 0.087708
0.225281 0.128906 0.088379
0.243011 0.128113 0.089233
0.261780 0.127167 0.090240
0.281982 0.125793 0.091278
0.303802 0.123779 0.092316
0.327423 0.121094 0.093506
0.353088 0.117432 0.094666
0.380737 0.112518 0.096039
0.410339 0.105957 0.097443
0.441833 0.097137 0.098816
0.475281 0.085205 0.100037
0.510712 0.067993 0.100830
0.547455 0.042694 0.101593
0.584595 0.013824 0.102783
0.622345 0.000061 0.104065
0.660736 0.000000 0.105377
0.699524 0.000000 0.106628
0.738525 0.000000 0.107697
0.777527 0.000000 0.108612
0.816254 0.000000 0.109344
0.854523 0.000000 0.109955
0.892090 0.000000 0.110626
0.928680 0.000000 0.110840
0.964050 0.000000 0.110962
0.127045 0.149139 0.092102
0.132080 0.148224 0.091492
0.137878 0.146973 0.091125
0.145447 0.145844 0.090881
0.155060 0.144623 0.090851
0.166748 0.143311 0.090546
0.179901 0.142059 0.090454
0.194519 0.140625 0.090424
0.210083 0.139038 0.090332
0.226654 0.138580 0.091095
0.244354 0.137878 0.091736
0.263336 0.136932 0.092560
0.283661 0.135620 0.093506
0.305603 0.133881 0.094482
0.329468 0.131287 0.095490
0.355316 0.127899 0.096619
0.383179 0.123322 0.097748
0.412903 0.117432 0.098999
0.444458 0.109802 0.100250
0.477722 0.099823 0.101501
0.512695 0.086182 0.102539
0.549469 0.066528 0.103088
0.587067 0.038452 0.103790
0.624878 0.010559 0.104919
0.663147 0.000000 0.106079
0.701782 0.000000 0.107178
0.740662 0.000000 0.108124
0.779480 0.000000 0.108948
0.818054 0.000000 0.109528
0.856140 0.000000 0.109985
0.893555 0.000000 0.110382
0.929962 0.000000 0.110504
0.965149 0.000000 0.110504
0.133362 0.160706 0.095795
0.137848 0.159637 0.095215
0.143066 0.158417 0.094666
0.150208 0.157227 0.094391
0.159210 0.155914 0.094238
0.170135 0.154694 0.094208
0.182739 0.153320 0.093933
0.196686 0.151947 0.093781
0.212036 0.150421 0.093658
0.228394 0.148743 0.093750
0.246033 0.148224 0.094452
0.265015 0.147400 0.095032
0.285522 0.146271 0.095825
0.307648 0.144653 0.096680
0.331696 0.142395 0.097595
0.357727 0.139404 0.098602
0.385742 0.135345 0.099609
0.415649 0.130096 0.100647
0.447327 0.123413 0.101746
0.480621 0.114899 0.102844
0.515320 0.103973 0.103943
0.551544 0.089264 0.104767
0.589294 0.068512 0.105164
0.627502 0.039368 0.105774
0.665741 0.011810 0.106750
0.704254 0.000000 0.107635
0.742950 0.000000 0.108398
0.781616 0.000000 0.109070
0.820038 0.000000 0.109558
0.857941 0.000000 0.109894
0.895111 0.000000 0.110077
0.931366 0.000000 0.110016
0.966370 0.000000 0.109833
0.139465 0.173340 0.099487
0.143555 0.171967 0.098938
0.148224 0.170807 0.098419
0.154938 0.169556 0.097870
0.163483 0.168304 0.097717
0.173737 0.166931 0.097595
0.185638 0.165619 0.097565
0.199158 0.164215 0.097351
0.214111 0.162781 0.097076
0.230347 0.161102 0.097107
0.247955 0.159332 0.097137
0.266937 0.158661 0.097687
0.287506 0.157806 0.098236
0.309875 0.156494 0.098969
0.334137 0.154602 0.099731
0.360382 0.151917 0.100586
0.388519 0.148529 0.101440
0.418549 0.144012 0.102325
0.450348 0.138275 0.103241
0.483734 0.131073 0.104218
0.518402 0.122131 0.105164
0.554291 0.110840 0.106079
0.591400 0.096222 0.106781
0.629761 0.076080 0.106995
0.668427 0.048370 0.107300
0.706909 0.019897 0.107910
0.745422 0.003510 0.108521
0.783936 0.000000 0.108978
0.822144 0.000000 0.109344
0.859863 0.000000 0.109497
0.896790 0.000000 0.109467
0.932861 0.000000 0.109283
0.967621 0.000000 0.108948
0.144867 0.187317 0.103149
0.148621 0.185913 0.102692
0.153046 0.184570 0.102081
0.159180 0.183319 0.101593
0.167328 0.182007 0.101196
0.177185 0.180603 0.100830
0.188629 0.179199 0.100891
0.201721 0.177826 0.100739
0.216278 0.176392 0.100555
0.232330 0.174835 0.100311
0.249847 0.173035 0.100342
0.268951 0.171082 0.100342
0.289642 0.170471 0.100769
0.312134 0.169464 0.101257
0.336609 0.167969 0.102020
0.363068 0.165833 0.102631
0.391418 0.162964 0.103363
0.421539 0.159241 0.104034
0.453461 0.154510 0.104797
0.486908 0.148560 0.105530
0.521667 0.141235 0.106293
0.557495 0.132355 0.106964
0.594299 0.121490 0.107666
0.631989 0.108032 0.108215
0.670593 0.090179 0.108246
0.709412 0.066589 0.108185
0.748047 0.038910 0.108398
0.786346 0.017426 0.108673
0.824341 0.003784 0.108795
0.861847 0.000000 0.108795
0.898590 0.000000 0.108551
0.934418 0.000000 0.108215
0.968964 0.000000 0.107635
0.149078 0.203278 0.106903
0.152588 0.201660 0.106262
0.156952 0.200134 0.105743
0.162781 0.198730 0.105164
0.170654 0.197357 0.104553
0.180206 0.195953 0.104095
0.191376 0.194519 0.103912
0.204071 0.193054 0.104034
0.218384 0.191650 0.103943
0.234253 0.190125 0.103699
0.251740 0.188507 0.103455
0.270874 0.186646 0.103363
0.291718 0.184540 0.103333
0.314484 0.183868 0.103607
0.339142 0.182770 0.104095
0.365814 0.181152 0.104675
0.394287 0.178955 0.105164
0.424561 0.176056 0.105713
0.456543 0.172302 0.106201
0.490051 0.167633 0.106750
0.524811 0.161835 0.107269
0.560699 0.154816 0.107727
0.597443 0.146545 0.108124
0.634918 0.136688 0.108521
0.672943 0.124939 0.108826
0.711456 0.110382 0.108643
0.750183 0.092285 0.108459
0.788696 0.069305 0.108185
0.826660 0.046814 0.107880
0.863953 0.028595 0.107666
0.900421 0.012573 0.107300
0.935974 0.006104 0.106659
0.970306 0.000671 0.105927
0.151825 0.221497 0.110321
0.155334 0.219604 0.109833
0.159668 0.217865 0.109222
0.165405 0.216278 0.108673
0.172913 0.214783 0.108032
0.182312 0.213379 0.107391
0.193390 0.211945 0.106934
0.205994 0.210480 0.106812
0.220184 0.208893 0.106934
0.235962 0.207397 0.106903
0.253387 0.205841 0.106598
0.272675 0.204132 0.106293
0.293701 0.202148 0.106140
0.316620 0.199890 0.106079
0.341614 0.199219 0.106171
0.368408 0.198151 0.106567
0.397064 0.196564 0.106873
0.427521 0.194519 0.107208
0.459595 0.191742 0.107513
0.493042 0.188171 0.107849
0.527832 0.183807 0.108185
0.563660 0.178467 0.108398
0.600403 0.172150 0.108551
0.637848 0.164795 0.108673
0.675781 0.156311 0.108643
0.713928 0.146454 0.108490
0.752228 0.135132 0.108276
0.790619 0.121887 0.107727
0.828522 0.106812 0.107117
0.865814 0.089020 0.106384
0.902191 0.069916 0.105652
0.937622 0.057953 0.104614
0.971588 0.047302 0.103699
0.152679 0.242218 0.113403
0.156342 0.240082 0.113068
0.160645 0.238129 0.112488
0.166443 0.236267 0.111938
0.173981 0.234589 0.111298
0.183228 0.233093 0.110596
0.194275 0.231659 0.109894
0.206940 0.230255 0.109436
0.221344 0.228699 0.109253
0.237183 0.227081 0.109467
0.254669 0.225464 0.109406
0.274048 0.223877 0.109131
0.295380 0.222046 0.108795
0.318604 0.219971 0.108490
0.343750 0.217560 0.108337
0.370850 0.217041 0.108337
0.399658 0.216095 0.108459
0.430206 0.214783 0.108551
0.462372 0.212860 0.108704
0.495941 0.210297 0.108765
0.530670 0.207092 0.108826
0.566498 0.203186 0.108826
0.603180 0.198486 0.108765
0.640533 0.193024 0.108643
0.678375 0.186829 0.108398
0.716461 0.179749 0.107941
0.754578 0.171814 0.107483
0.792633 0.163269 0.106812
0.830261 0.154236 0.105957
0.867432 0.144409 0.104858
0.903687 0.134613 0.103760
0.938934 0.125214 0.102417
0.972687 0.116913 0.100983
0.151337 0.265442 0.116150
0.155151 0.263031 0.115814
0.159760 0.260773 0.115326
0.165680 0.258728 0.114838
0.173370 0.256836 0.114258
0.182770 0.255219 0.113525
0.193939 0.253693 0.112732
0.206818 0.252258 0.112030
0.221436 0.250824 0.111420
0.237732 0.249329 0.111206
0.255524 0.247620 0.111359
0.275055 0.245972 0.111420
0.296661 0.244263 0.111176
0.320160 0.242371 0.110840
0.345673 0.240173 0.110321
0.372955 0.237640 0.109985
0.402008 0.237335 0.109894
0.432709 0.236633 0.109680
0.464966 0.235504 0.109680
0.498535 0.233765 0.109497
0.533325 0.231537 0.109375
0.569122 0.228821 0.109039
0.605743 0.225433 0.108734
0.643005 0.221497 0.108398
0.680695 0.217010 0.107880
0.718597 0.211975 0.107300
0.756561 0.206390 0.106476
0.794434 0.200531 0.105560
0.831879 0.194489 0.104462
0.868713 0.188416 0.103149
0.904694 0.182556 0.101807
0.939667 0.177490 0.100189
0.973206 0.173645 0.098389
0.147461 0.290802 0.118378
0.151672 0.288147 0.118042
0.156647 0.285645 0.117676
0.162933 0.283386 0.117310
0.170959 0.281311 0.116730
0.180695 0.279510 0.116119
0.192169 0.277893 0.115326
0.205383 0.276428 0.114441
0.220398 0.275024 0.113556
0.237152 0.273651 0.112885
0.255676 0.272125 0.112457
0.275757 0.270355 0.112610
0.297607 0.268616 0.112885
0.321411 0.266815 0.112640
0.347137 0.264893 0.112183
0.374786 0.262573 0.111603
0.404083 0.259949 0.111053
0.434967 0.259888 0.110687
0.467316 0.259369 0.110352
0.500977 0.258453 0.110016
0.535736 0.257080 0.109589
0.571472 0.255280 0.109131
0.608032 0.252960 0.108551
0.645203 0.250275 0.107910
0.682770 0.247131 0.107208
0.720490 0.243683 0.106323
0.758240 0.239807 0.105347
0.795837 0.235870 0.104187
0.833008 0.231873 0.102936
0.869537 0.227966 0.101440
0.905243 0.224487 0.099854
0.939880 0.221649 0.097992
0.973053 0.220001 0.096100
0.140625 0.318115 0.119873
0.145447 0.315247 0.119690
0.151001 0.312561 0.119476
0.157898 0.310059 0.119232
0.166565 0.307800 0.118713
0.176880 0.305756 0.118134
0.188904 0.304047 0.117371
0.202698 0.302521 0.116455
0.218231 0.301086 0.115417
0.235596 0.299774 0.114410
0.254761 0.298401 0.113586
0.275757 0.296844 0.113037
0.298248 0.295013 0.113312
0.322388 0.293182 0.113617
0.348419 0.291321 0.113342
0.376312 0.289337 0.112701
0.405853 0.286987 0.112152
0.436981 0.284302 0.111389
0.469482 0.284393 0.110779
0.503174 0.284149 0.110260
0.537964 0.283539 0.109558
0.573669 0.282532 0.108856
0.610107 0.281128 0.108063
0.647186 0.279388 0.107178
0.684570 0.277374 0.106201
0.722137 0.275085 0.105133
0.759644 0.272583 0.103882
0.796967 0.270020 0.102631
0.833832 0.267548 0.101227
0.870056 0.265228 0.099518
0.905426 0.263306 0.097687
0.939758 0.261902 0.095642
0.972626 0.261536 0.093445
0.129181 0.347656 0.119781
0.135468 0.344360 0.120270
0.142303 0.341278 0.120483
0.150269 0.338501 0.120392
0.159882 0.336029 0.120087
0.171112 0.333862 0.119537
0.183960 0.332001 0.118774
0.198608 0.330322 0.117859
0.214935 0.328888 0.116730
0.233093 0.327545 0.115540
0.253052 0.326263 0.114380
0.274780 0.324921 0.113373
0.298279 0.323303 0.112854
0.323120 0.321442 0.113129
0.349487 0.319519 0.113464
0.377655 0.317627 0.113159
0.407410 0.315491 0.112518
0.438751 0.313141 0.111816
0.471405 0.310425 0.110931
0.505157 0.310730 0.110107
0.539978 0.310760 0.109192
0.575653 0.310425 0.108276
0.612030 0.309784 0.107208
0.648956 0.308899 0.106171
0.686127 0.307739 0.104950
0.723480 0.306427 0.103607
0.760773 0.304962 0.102203
0.797852 0.303528 0.100677
0.834412 0.302124 0.099091
0.870422 0.300964 0.097107
0.905518 0.300079 0.094818
0.939606 0.299744 0.092285
0.972198 0.300171 0.089722
0.112701 0.378845 0.118774
0.120667 0.375275 0.119476
0.129089 0.371887 0.120026
0.139008 0.368683 0.120453
0.150513 0.365814 0.120667
0.163025 0.363495 0.120178
0.177185 0.361481 0.119507
0.192963 0.359711 0.118591
0.210419 0.358215 0.117401
0.229584 0.356873 0.116058
0.250488 0.355591 0.114655
0.273102 0.354309 0.113373
0.297424 0.352875 0.112213
0.323273 0.351257 0.111664
0.350433 0.349335 0.112000
0.378876 0.347321 0.112427
0.408875 0.345367 0.112122
0.440308 0.343170 0.111511
0.473114 0.340790 0.110626
0.507019 0.338104 0.109589
0.541809 0.338654 0.108490
0.577454 0.338898 0.107300
0.613708 0.338867 0.106018
0.650482 0.338715 0.104736
0.687500 0.338287 0.103455
0.724640 0.337769 0.101807
0.761749 0.337128 0.100098
0.798615 0.336487 0.098236
0.834991 0.335968 0.096100
0.870758 0.335571 0.093658
0.905670 0.335510 0.090790
0.939453 0.335938 0.087830
0.971649 0.337128 0.085022
0.090973 0.410614 0.118073
0.100739 0.407135 0.118317
0.111145 0.403809 0.118713
0.123444 0.400391 0.119415
0.137451 0.397186 0.120087
0.152466 0.394470 0.120148
0.168396 0.392303 0.119476
0.185699 0.390442 0.118469
0.204559 0.388916 0.117188
0.225037 0.387512 0.115692
0.247070 0.386230 0.114136
0.270660 0.384949 0.112579
0.295929 0.383636 0.111115
0.322662 0.382172 0.109863
0.350739 0.380493 0.109375
0.379944 0.378510 0.109741
0.410248 0.376404 0.110321
0.441833 0.374359 0.110046
0.474701 0.372192 0.109406
0.508606 0.369781 0.108337
0.543579 0.367157 0.107269
0.579132 0.367950 0.105865
0.615295 0.368408 0.104370
0.651917 0.368713 0.102783
0.688843 0.368988 0.101166
0.725800 0.369080 0.099243
0.762726 0.369110 0.097076
0.799438 0.369110 0.094696
0.835632 0.369171 0.092010
0.871155 0.369415 0.089142
0.905701 0.370026 0.085815
0.939087 0.371124 0.082458
0.970886 0.372864 0.079346
0.057678 0.443390 0.116394
0.072113 0.439758 0.116791
0.087097 0.436340 0.117218
0.102875 0.432983 0.117767
0.120148 0.429779 0.118317
0.138550 0.426697 0.119019
0.157532 0.424133 0.118866
0.176788 0.422272 0.117706
0.197357 0.420654 0.116150
0.219299 0.419281 0.114471
0.242706 0.417999 0.112671
0.267517 0.416748 0.110840
0.293762 0.415466 0.108978
0.321442 0.414093 0.107422
0.350372 0.412537 0.106293
0.380463 0.410797 0.105835
0.411407 0.408722 0.106293
0.443298 0.406586 0.106964
0.476257 0.404480 0.106750
0.510254 0.402313 0.106049
0.545135 0.399902 0.104889
0.580841 0.397369 0.103699
0.616913 0.398315 0.101837
0.653442 0.399078 0.099945
0.690186 0.399780 0.097870
0.727051 0.400330 0.095428
0.763824 0.400879 0.092773
0.800262 0.401459 0.089844
0.836212 0.402039 0.086884
0.871338 0.402832 0.083527
0.905548 0.403961 0.079987
0.938568 0.405548 0.075958
0.969910 0.407684 0.072418
0.018524 0.477112 0.113190
0.032104 0.473511 0.113739
0.049561 0.469879 0.114319
0.072906 0.466522 0.114960
0.097046 0.463165 0.115631
0.120422 0.459961 0.116516
0.143860 0.456970 0.117157
0.166534 0.454681 0.116913
0.189240 0.453033 0.115173
0.212799 0.451630 0.113068
0.237579 0.450470 0.110840
0.263702 0.449280 0.108612
0.291107 0.448090 0.106354
0.319763 0.446838 0.104248
0.349579 0.445404 0.102539
0.380432 0.443787 0.101288
0.412170 0.441956 0.100891
0.444672 0.439789 0.101501
0.477814 0.437622 0.102173
0.511871 0.435486 0.101898
0.546753 0.433319 0.101013
0.582428 0.430939 0.099762
0.618622 0.428528 0.098236
0.655060 0.429688 0.095856
0.691681 0.430725 0.093475
0.728302 0.431732 0.090607
0.764801 0.432587 0.087494
0.800995 0.433563 0.084167
0.836609 0.434692 0.080658
0.871429 0.435913 0.076782
0.905243 0.437469 0.072784
0.937836 0.439301 0.068237
0.968719 0.441742 0.064178
0.000000 0.511475 0.109009
0.001648 0.507782 0.109650
0.010071 0.504120 0.110352
0.031952 0.500641 0.110992
0.063568 0.497253 0.111816
0.096649 0.493958 0.112854
0.126251 0.490784 0.113800
0.153992 0.487915 0.114746
0.180359 0.485748 0.114288
0.205933 0.484375 0.111969
0.232208 0.483276 0.109192
0.259583 0.482178 0.106354
0.288116 0.481079 0.103577
0.317719 0.479980 0.100861
0.348419 0.478729 0.098389
0.380035 0.477295 0.096222
0.412445 0.475647 0.094788
0.445587 0.473694 0.094391
0.479309 0.471558 0.095154
0.513489 0.469360 0.095856
0.548370 0.467194 0.095306
0.583954 0.465057 0.094208
0.620087 0.462769 0.092590
0.656586 0.460419 0.090698
0.692993 0.461731 0.087799
0.729462 0.463074 0.084656
0.765686 0.464325 0.081207
0.801575 0.465637 0.077271
0.836884 0.467072 0.073242
0.871338 0.468689 0.068604
0.904785 0.470490 0.064026
0.936951 0.472656 0.058777
0.967377 0.475311 0.053955
0.000000 0.546112 0.103577
0.000000 0.542328 0.104401
0.000000 0.538696 0.105286
0.001617 0.535095 0.106110
0.022705 0.531677 0.107117
0.063293 0.528351 0.108215
0.104126 0.525116 0.109344
0.138214 0.522125 0.110565
0.169586 0.519348 0.111603
0.198639 0.517426 0.110443
0.226654 0.516357 0.107208
0.255402 0.515381 0.103729
0.285004 0.514435 0.100311
0.315521 0.513397 0.096893
0.347015 0.512268 0.093597
0.379364 0.511017 0.090637
0.412415 0.509552 0.088074
0.446106 0.507874 0.086487
0.480408 0.505920 0.086090
0.515015 0.503784 0.087036
0.549988 0.501526 0.087616
0.585480 0.499420 0.086884
0.621490 0.497345 0.085388
0.657806 0.495117 0.083405
0.694275 0.492737 0.080994
0.730499 0.494385 0.077362
0.766418 0.495911 0.073395
0.802094 0.497589 0.069122
0.837006 0.499207 0.064270
0.871063 0.501038 0.059052
0.904144 0.503143 0.053162
0.935883 0.505493 0.047028
0.965851 0.508423 0.041199
0.000000 0.580750 0.097137
0.000000 0.576935 0.098083
0.000000 0.573242 0.099182
0.000000 0.569702 0.100067
0.000000 0.566193 0.101318
0.024597 0.562897 0.102509
0.075409 0.559631 0.103821
0.119781 0.556580 0.105164
0.156921 0.553589 0.106689
0.190491 0.551025 0.107330
0.221130 0.549683 0.104858
0.251160 0.548798 0.100677
0.281891 0.547943 0.096405
0.313354 0.547028 0.092224
0.345612 0.546021 0.087982
0.378601 0.544922 0.084015
0.412262 0.543640 0.080444
0.446472 0.542145 0.077454
0.481232 0.540436 0.075653
0.516327 0.538422 0.075317
0.551544 0.536194 0.076477
0.587067 0.534027 0.076904
0.622894 0.531921 0.076019
0.659058 0.529846 0.074097
0.695251 0.527740 0.071747
0.731476 0.525543 0.068634
0.767151 0.527344 0.063934
0.802429 0.529114 0.058929
0.837006 0.531067 0.053314
0.870728 0.533051 0.047028
0.903320 0.535370 0.040039
0.934631 0.537842 0.033020
0.964172 0.540863 0.026184
0.000000 0.615234 0.089813
0.000000 0.611389 0.090881
0.000000 0.607727 0.091949
0.000000 0.604248 0.093140
0.000000 0.600769 0.094391
0.001312 0.597412 0.095795
0.041901 0.594086 0.097260
0.098419 0.590973 0.098785
0.143097 0.588013 0.100433
0.181549 0.585114 0.102203
0.215698 0.583099 0.101532
0.247406 0.582153 0.097168
0.279144 0.581390 0.092010
0.311432 0.580627 0.086914
0.344391 0.579773 0.081726
0.377991 0.578796 0.076508
0.412109 0.577667 0.071655
0.446808 0.576355 0.067200
0.481995 0.574799 0.063599
0.517487 0.573090 0.061462
0.553070 0.571045 0.061371
0.588623 0.568787 0.062897
0.624390 0.566681 0.063263
0.660309 0.564606 0.061920
0.696259 0.562531 0.059509
