滤镜资源/Professional Luts Collection/Lutify.me Professional/Skintone/Galena.cube
# Created by: Lutify.me
# Copyright: (c) Copyright Lutify.me 2015
# Website: https://lutify.me
#LUT size
LUT_3D_SIZE 9
#LUT data points
0.000000 0.000000 0.000000
0.066833 0.001099 0.000336
0.150238 0.002106 0.000488
0.239319 0.001862 0.001343
0.340149 0.000000 0.002167
0.454773 0.000000 0.002502
0.574188 0.000000 0.002747
0.691925 0.000000 0.002289
0.804352 0.000000 0.000000
0.007080 0.053101 0.001221
0.068970 0.043549 0.000732
0.151733 0.046295 0.000793
0.241211 0.046753 0.001221
0.342621 0.038818 0.001770
0.457214 0.012054 0.001953
0.576141 0.000000 0.001923
0.693359 0.000000 0.000916
0.805328 0.000000 0.000000
0.021362 0.124481 0.004608
0.075806 0.113556 0.002472
0.154266 0.102631 0.002106
0.243591 0.105042 0.001587
0.346069 0.102661 0.001526
0.461029 0.090729 0.001099
0.579712 0.066589 0.000122
0.695923 0.032562 0.000000
0.806976 0.013947 0.000000
0.036194 0.202515 0.007294
0.086090 0.188782 0.005859
0.160004 0.177826 0.002655
0.247711 0.165802 0.002655
0.351257 0.166626 0.001465
0.465668 0.162872 0.000153
0.583221 0.155792 0.000000
0.698608 0.148621 0.000000
0.808868 0.146362 0.000000
0.026794 0.293335 0.004486
0.087860 0.275726 0.006622
0.163696 0.262787 0.001587
0.254181 0.250000 0.000305
0.357697 0.235870 0.000092
0.470856 0.237701 0.000000
0.586700 0.238068 0.000000
0.700317 0.238800 0.000000
0.809143 0.242188 0.000000
0.000000 0.393341 0.000000
0.070282 0.374237 0.000000
0.162445 0.358643 0.000000
0.259399 0.345795 0.000000
0.364899 0.331329 0.000000
0.476196 0.316284 0.000000
0.590179 0.319946 0.000000
0.701935 0.323822 0.000000
0.809235 0.329285 0.000000
0.000000 0.494415 0.000000
0.062988 0.475281 0.000000
0.166992 0.457977 0.000000
0.266510 0.445099 0.000000
0.372955 0.431488 0.000000
0.482513 0.416260 0.000000
0.593933 0.401245 0.000000
0.703644 0.406494 0.000000
0.809326 0.412598 0.000000
0.042389 0.591797 0.000000
0.098877 0.573425 0.000000
0.186768 0.555939 0.000000
0.280701 0.542816 0.000000
0.383698 0.530029 0.000000
0.491180 0.515808 0.000000
0.598785 0.500916 0.000000
0.705933 0.486847 0.000000
0.809906 0.492767 0.000000
0.139160 0.684296 0.000000
0.162018 0.666840 0.000000
0.224609 0.649994 0.000000
0.305695 0.636841 0.000000
0.400696 0.624329 0.000000
0.502747 0.611328 0.000000
0.606476 0.596863 0.000000
0.709351 0.582703 0.000000
0.811462 0.569641 0.000000
0.005341 0.000000 0.050964
0.039185 0.001862 0.021454
0.117584 0.003479 0.017426
0.202759 0.004242 0.013824
0.297089 0.000580 0.009735
0.406799 0.000000 0.005615
0.524994 0.000000 0.003021
0.643921 0.000000 0.002380
0.758820 0.000000 0.001221
0.011719 0.035400 0.030609
0.093262 0.084503 0.065979
0.173676 0.086212 0.058960
0.263245 0.086517 0.052460
0.367157 0.080383 0.046265
0.482208 0.061249 0.039337
0.600159 0.024780 0.031952
0.715637 0.001190 0.023560
0.825592 0.000000 0.013580
0.024536 0.103058 0.034851
0.101196 0.155945 0.070953
0.176056 0.144470 0.053497
0.266083 0.146759 0.045929
0.371063 0.145203 0.038452
0.486023 0.137817 0.030792
0.603607 0.125793 0.021759
0.718353 0.113861 0.011841
0.827637 0.109283 0.001556
0.040588 0.177460 0.040375
0.108429 0.236389 0.075470
0.181427 0.224030 0.055115
0.271027 0.210602 0.039551
0.376526 0.212860 0.030243
0.490540 0.212524 0.020782
0.606476 0.210663 0.010895
0.719727 0.209808 0.001495
0.827972 0.212677 0.000000
0.043304 0.263245 0.042664
0.102448 0.330261 0.076416
0.182709 0.315887 0.054108
0.277618 0.302185 0.032227
0.382568 0.287140 0.018402
0.495239 0.290649 0.007721
0.609406 0.293304 0.000549
0.720917 0.296539 0.000000
0.827759 0.301910 0.000000
0.010315 0.361176 0.037109
0.092957 0.430420 0.073151
0.185181 0.414154 0.050385
0.283752 0.400665 0.019867
0.390106 0.385895 0.003845
0.500336 0.370544 0.000061
0.612518 0.375183 0.000000
0.722107 0.380096 0.000000
0.827606 0.386322 0.000000
0.000000 0.462372 0.026093
0.106842 0.530029 0.070038
0.197235 0.512878 0.046265
0.293884 0.499512 0.008820
0.398926 0.485870 0.000000
0.507172 0.470581 0.000000
0.616241 0.455780 0.000000
0.723755 0.461273 0.000000
0.827728 0.467468 0.000000
0.022308 0.561646 0.018555
0.152191 0.625366 0.076019
0.224731 0.608521 0.048462
0.312561 0.595215 0.005127
0.411987 0.582275 0.000000
0.516724 0.568298 0.000000
0.621765 0.553345 0.000000
0.726349 0.539490 0.000000
0.828644 0.545258 0.000000
0.116608 0.655762 0.027649
0.212494 0.716339 0.098846
0.265656 0.700165 0.067932
0.340942 0.686829 0.018158
0.431366 0.674103 0.000000
0.529602 0.661041 0.000000
0.630463 0.646973 0.000000
0.730713 0.632874 0.000000
0.830811 0.619781 0.000000
0.013672 0.000000 0.125824
0.032715 0.000488 0.090759
0.090088 0.003662 0.056793
0.170563 0.005432 0.049622
0.259216 0.004608 0.044006
0.361908 0.000000 0.038391
0.477295 0.000000 0.032532
0.596191 0.000000 0.026611
0.712799 0.000000 0.019958
0.013580 0.035004 0.104431
0.082581 0.083740 0.143616
0.145172 0.088623 0.106476
0.229218 0.089813 0.099426
0.326111 0.087097 0.092926
0.437256 0.074188 0.086456
0.554352 0.045044 0.079376
0.670441 0.006836 0.071991
0.782196 0.000305 0.062653
0.028290 0.084656 0.082275
0.111328 0.135284 0.120850
0.205292 0.191254 0.164246
0.298889 0.192566 0.155518
0.405304 0.191498 0.147675
0.518433 0.187927 0.139893
0.632568 0.183380 0.131775
0.743744 0.180786 0.122620
0.850006 0.183533 0.112457
0.044800 0.156738 0.084747
0.120605 0.211151 0.126587
0.210510 0.276550 0.170471
0.302490 0.262695 0.149109
0.409332 0.265503 0.139496
0.521637 0.266785 0.130249
0.634460 0.267853 0.120789
0.744019 0.270325 0.110687
0.848969 0.275909 0.099579
0.054199 0.237061 0.089233
0.119720 0.301300 0.130707
0.215363 0.372192 0.176575
0.308929 0.358765 0.151245
0.413422 0.343140 0.131042
0.524353 0.347046 0.120239
0.635498 0.350677 0.109314
0.743652 0.355164 0.097473
0.848053 0.361359 0.083557
0.040009 0.330292 0.092834
0.109192 0.401001 0.131653
0.223419 0.471283 0.183044
0.316956 0.457581 0.154755
0.420898 0.442963 0.128845
0.528381 0.427032 0.108215
0.637573 0.431763 0.095367
0.744263 0.436981 0.080566
0.847473 0.443207 0.063934
0.008636 0.430481 0.092316
0.118622 0.499847 0.137085
0.241241 0.568695 0.192108
0.330139 0.555115 0.160431
0.430695 0.541290 0.129150
0.535645 0.525848 0.103821
0.641113 0.510742 0.078613
0.745697 0.515961 0.061859
0.847534 0.521790 0.043488
0.025391 0.530762 0.092224
0.151550 0.596558 0.145782
0.271973 0.661987 0.205963
0.351501 0.648651 0.171875
0.445374 0.635132 0.137939
0.545746 0.620941 0.104767
0.647278 0.605865 0.077515
0.748474 0.591766 0.046021
0.848633 0.597076 0.031464
0.102264 0.626556 0.100647
0.204437 0.688843 0.162811
0.311707 0.751740 0.225586
0.380402 0.738251 0.191315
0.465485 0.724823 0.156677
0.559021 0.711365 0.121063
0.656219 0.697235 0.086792
0.753571 0.682831 0.059235
0.851135 0.669556 0.029236
0.012909 0.000000 0.213318
0.024292 0.000000 0.172424
0.080292 0.001343 0.132416
0.142517 0.004547 0.097229
0.226715 0.005707 0.089264
0.321869 0.000702 0.083099
0.432312 0.000000 0.077393
0.549622 0.000000 0.071411
0.666840 0.000000 0.064514
0.017365 0.031647 0.189117
0.061188 0.081360 0.237976
0.132965 0.085083 0.191833
0.200317 0.090576 0.151215
0.290161 0.091034 0.142853
0.395721 0.082916 0.135956
0.510895 0.060608 0.128815
0.626923 0.023804 0.122101
0.739746 0.001892 0.114777
0.024078 0.085114 0.163086
0.093323 0.136597 0.209656
0.186066 0.190643 0.264496
0.264954 0.195831 0.215363
0.366272 0.195892 0.206238
0.476654 0.193268 0.197693
0.589996 0.189148 0.189392
0.701874 0.185669 0.180908
0.809601 0.186188 0.171936
0.047852 0.136169 0.139648
0.124664 0.191040 0.183594
0.222534 0.251801 0.235474
0.337585 0.321045 0.294281
0.445831 0.323120 0.282959
0.556458 0.324860 0.272522
0.666229 0.327057 0.262421
0.772644 0.330811 0.252533
0.875153 0.336884 0.242706
0.058777 0.214783 0.141510
0.129730 0.276764 0.187622
0.229584 0.344391 0.243652
0.345062 0.418030 0.304077
0.448059 0.403015 0.276276
0.557709 0.406586 0.264465
0.666382 0.410065 0.253448
0.771790 0.414490 0.242950
0.873566 0.420441 0.232788
0.049744 0.304962 0.144745
0.120758 0.374451 0.192200
0.236694 0.442871 0.252625
0.356537 0.515076 0.315155
0.454987 0.501831 0.284668
0.560028 0.485901 0.258362
0.666687 0.490234 0.246552
0.770660 0.494934 0.235321
0.871613 0.500427 0.224792
0.024353 0.402618 0.149475
0.119110 0.474823 0.198181
0.250488 0.540833 0.263428
0.373383 0.609467 0.328094
0.465942 0.596558 0.296936
0.566742 0.582367 0.267212
0.668915 0.567017 0.241333
0.770782 0.571655 0.230011
0.870514 0.576752 0.219391
0.035004 0.501404 0.157104
0.145508 0.571350 0.209717
0.276520 0.634766 0.277771
0.397064 0.699829 0.343719
0.482178 0.686951 0.312439
0.576660 0.674103 0.280334
0.674744 0.659424 0.253052
0.773041 0.645020 0.227051
0.870941 0.649719 0.216949
0.095490 0.597565 0.168915
0.193298 0.663635 0.226196
0.313019 0.724548 0.296082
0.425751 0.787079 0.362213
0.502594 0.774170 0.331207
0.589844 0.761932 0.298553
0.683258 0.748566 0.268005
0.778137 0.734070 0.242889
0.872986 0.720428 0.217468
0.000000 0.000000 0.323944
0.000763 0.000000 0.273071
0.061646 0.000000 0.224152
0.129883 0.002014 0.178680
0.196991 0.004120 0.140900
0.286865 0.002350 0.132019
0.391296 0.000000 0.125183
0.505768 0.000000 0.119141
0.622589 0.000000 0.112946
0.000000 0.026855 0.294037
0.002472 0.078186 0.352264
0.099152 0.079681 0.301208
0.183929 0.086273 0.247345
0.258423 0.090759 0.201294
0.358185 0.087372 0.191315
0.469666 0.071655 0.183075
0.585297 0.039368 0.175476
0.698578 0.004242 0.168365
0.007507 0.082550 0.263397
0.047546 0.134674 0.321198
0.145538 0.188263 0.384613
0.244019 0.191315 0.329254
0.330963 0.197174 0.275452
0.437653 0.197052 0.264221
0.549133 0.194122 0.254730
0.660919 0.190613 0.245636
0.769531 0.189758 0.236664
0.027832 0.137329 0.233154
0.094818 0.192322 0.289795
0.190033 0.253326 0.351471
0.311310 0.320007 0.415100
0.407013 0.326569 0.358459
0.515808 0.328857 0.347168
0.625519 0.330780 0.336609
0.732910 0.333740 0.326294
0.836517 0.338715 0.316223
0.060089 0.191071 0.206604
0.130829 0.251984 0.260529
0.232025 0.320557 0.319641
0.355103 0.392242 0.381622
0.481110 0.465027 0.445404
0.589661 0.467438 0.433807
0.695740 0.470398 0.422882
0.798553 0.474426 0.412292
0.898560 0.479736 0.402100
0.052582 0.280151 0.208954
0.124817 0.348907 0.263733
0.240356 0.419464 0.325073
0.367188 0.489014 0.391022
0.489441 0.560303 0.456299
0.590454 0.545868 0.427765
0.695007 0.549530 0.415802
0.797058 0.553314 0.404724
0.896515 0.557831 0.394287
0.021210 0.377808 0.213135
0.117981 0.449982 0.269379
0.252838 0.517334 0.334869
0.381927 0.583801 0.402924
0.502899 0.651428 0.468536
0.596924 0.639038 0.438568
0.696198 0.624023 0.411530
0.796448 0.628021 0.399933
0.894745 0.632233 0.389099
0.011932 0.477448 0.220978
0.132660 0.548553 0.278503
0.274902 0.611847 0.347626
0.402802 0.674713 0.416901
0.520020 0.739288 0.482239
0.607178 0.727173 0.452728
0.701660 0.713837 0.423676
0.798004 0.699310 0.397369
0.894257 0.703583 0.386536
0.063873 0.574463 0.232574
0.173401 0.642395 0.291962
0.308594 0.701660 0.363892
0.428894 0.762329 0.433014
0.540619 0.824066 0.497742
0.621185 0.811920 0.468964
0.710052 0.799988 0.438629
0.802612 0.786072 0.412109
0.895386 0.772461 0.386108
0.000000 0.000000 0.447479
0.000000 0.000000 0.392883
0.002502 0.000000 0.338867
0.101593 0.000000 0.283844
0.180939 0.000854 0.232056
0.254395 0.001160 0.189026
0.353729 0.000000 0.179077
0.464722 0.000000 0.171295
0.580231 0.000000 0.164520
0.000000 0.018097 0.415955
0.000000 0.071014 0.476959
0.008850 0.074677 0.422974
0.144073 0.077637 0.367920
0.237518 0.085419 0.310059
0.321960 0.087158 0.259460
0.430634 0.077087 0.247528
0.545074 0.050934 0.237701
0.658600 0.015350 0.229095
0.000000 0.077484 0.382935
0.000000 0.132050 0.443268
0.063812 0.185944 0.507080
0.201538 0.185883 0.455536
0.307526 0.191864 0.395935
0.400085 0.196533 0.341003
0.510620 0.195953 0.328003
0.621826 0.193573 0.317352
0.730865 0.192261 0.307465
0.000000 0.135620 0.349365
0.014984 0.191589 0.410065
0.139374 0.251587 0.475250
0.273560 0.317780 0.538879
0.382111 0.321503 0.483063
0.477783 0.329254 0.426208
0.586548 0.333099 0.413300
0.693542 0.336517 0.402435
0.797455 0.341248 0.392242
0.011597 0.192963 0.317017
0.081390 0.254028 0.378357
0.192993 0.322113 0.441498
0.320618 0.393005 0.504578
0.453339 0.463593 0.566071
0.550476 0.470276 0.510559
0.655914 0.473907 0.499023
0.759277 0.477600 0.488403
0.860046 0.482269 0.478027
0.050385 0.252228 0.288025
0.125580 0.320007 0.347809
0.240723 0.391876 0.409668
0.368347 0.464539 0.471832
0.497040 0.535919 0.533020
0.619598 0.605072 0.593079
0.721924 0.607361 0.582397
0.821991 0.610291 0.572144
0.919373 0.614075 0.562225
0.010040 0.350952 0.290741
0.115814 0.422729 0.351105
0.248260 0.493896 0.413574
0.381714 0.562775 0.477081
0.510742 0.628174 0.541382
0.627563 0.693848 0.603424
0.722290 0.680511 0.576965
0.821045 0.683777 0.565857
0.917419 0.687256 0.555542
0.000000 0.452698 0.295898
0.120056 0.524078 0.356781
0.267975 0.590302 0.421906
0.402069 0.654144 0.487762
0.526581 0.716034 0.553101
0.639587 0.779236 0.614624
0.727844 0.767670 0.587402
0.821747 0.753571 0.562225
0.915955 0.757355 0.551422
0.010529 0.551819 0.304840
0.152710 0.620270 0.366272
0.298828 0.681244 0.434204
0.427216 0.741547 0.501251
0.545380 0.801178 0.566284
0.654816 0.861664 0.627014
0.737274 0.850281 0.600494
0.826294 0.837891 0.573792
0.916534 0.824310 0.549347
0.000000 0.000000 0.571350
0.000000 0.000000 0.517761
0.000000 0.000000 0.463196
0.011078 0.000000 0.407867
0.145752 0.000000 0.349243
0.234070 0.000000 0.293457
0.316956 0.000000 0.244934
0.425629 0.000000 0.233246
0.539673 0.000000 0.224060
0.000000 0.005554 0.540771
0.000000 0.059448 0.600098
0.000000 0.066254 0.546875
0.042755 0.067810 0.494202
0.196930 0.073578 0.435974
0.298096 0.080780 0.376770
0.390717 0.077301 0.323853
0.504700 0.057098 0.310699
0.619080 0.022736 0.299561
0.000000 0.068970 0.508392
0.000000 0.125702 0.567657
0.000000 0.183441 0.624725
0.136017 0.181152 0.578522
0.268768 0.184021 0.523163
0.375183 0.191345 0.463440
0.470764 0.194458 0.408936
0.583130 0.193512 0.394958
0.692841 0.192749 0.383301
0.000000 0.130920 0.474854
0.000000 0.188538 0.534302
0.051819 0.250153 0.594604
0.229919 0.315399 0.656281
0.345886 0.316895 0.606537
0.452942 0.324432 0.548615
0.547852 0.331512 0.494019
0.656158 0.336426 0.480164
0.760376 0.341736 0.468689
0.000000 0.191437 0.440948
0.000366 0.253998 0.500641
0.137299 0.321259 0.563202
0.282867 0.391296 0.624054
0.421539 0.461609 0.681793
0.525482 0.465546 0.629791
0.618744 0.473663 0.575897
0.722015 0.479126 0.563110
0.822174 0.484406 0.552460
0.000000 0.254272 0.407776
0.058289 0.322540 0.468384
0.197784 0.393860 0.530487
0.333008 0.465851 0.590729
0.465332 0.536163 0.649048
0.592987 0.603333 0.705139
0.684845 0.609558 0.653687
0.783936 0.613464 0.642792
0.881592 0.617096 0.632965
0.003357 0.320465 0.377197
0.118347 0.391693 0.438477
0.250122 0.464142 0.499817
0.382599 0.535522 0.559845
0.511627 0.604614 0.618011
0.633911 0.671143 0.674164
0.749054 0.735779 0.728882
0.845398 0.737976 0.719177
0.939026 0.740845 0.709717
0.000000 0.424103 0.380371
0.113007 0.495850 0.441864
0.259888 0.565613 0.503082
0.396454 0.632721 0.563385
0.525635 0.696686 0.622467
0.646271 0.757935 0.681061
0.756378 0.819244 0.738434
0.845245 0.806824 0.714142
0.937347 0.810028 0.703949
0.000000 0.526428 0.385376
0.133484 0.595490 0.447144
0.286469 0.659851 0.509674
0.420593 0.722076 0.571350
0.544739 0.782257 0.631897
0.660736 0.840393 0.691620
0.767303 0.899506 0.748566
0.849701 0.888702 0.723694
0.937378 0.875549 0.700562
0.000000 0.000000 0.688934
0.000000 0.000000 0.638458
0.000000 0.000000 0.586578
0.000000 0.000000 0.533081
0.047455 0.000000 0.477173
0.196198 0.000000 0.417267
0.293335 0.000000 0.359711
0.385376 0.000000 0.308014
0.499634 0.000000 0.295044
0.000000 0.000000 0.660339
0.000000 0.039948 0.715881
0.000000 0.050934 0.666138
0.000000 0.057526 0.614777
0.122253 0.058167 0.562469
0.260559 0.065460 0.503418
0.365173 0.070251 0.444794
0.462158 0.059296 0.391571
0.578400 0.026154 0.377686
0.000000 0.055481 0.629913
0.000000 0.116455 0.685577
0.000000 0.176361 0.738403
0.040405 0.176849 0.692902
0.217773 0.176422 0.644531
0.341034 0.182037 0.588074
0.445312 0.189697 0.530273
0.541779 0.191528 0.477112
0.654022 0.190765 0.462860
0.000000 0.124084 0.598022
0.000000 0.183136 0.653931
0.000000 0.248077 0.707123
0.182587 0.312714 0.766174
0.307800 0.313171 0.721130
0.421173 0.318207 0.668488
0.523285 0.327484 0.612305
0.616730 0.333984 0.560333
0.723511 0.339783 0.546173
0.000000 0.187714 0.565094
0.000000 0.251617 0.621307
0.058868 0.320312 0.677399
0.244110 0.389282 0.735809
0.391113 0.459534 0.790314
0.494812 0.461761 0.743622
0.595001 0.469543 0.689758
0.684875 0.477356 0.639069
0.786560 0.483856 0.625763
0.000000 0.253601 0.531464
0.000000 0.322876 0.588409
0.145172 0.393738 0.646942
0.297546 0.464844 0.704224
0.435303 0.534515 0.759247
0.564880 0.601593 0.811981
0.660950 0.605316 0.763733
0.748627 0.613007 0.713684
0.846313 0.618317 0.701599
0.000000 0.323151 0.498871
0.041351 0.394318 0.556793
0.208588 0.466248 0.615875
0.349030 0.537201 0.672638
0.480743 0.605621 0.727631
0.604736 0.671112 0.781311
0.723877 0.733917 0.832977
0.810516 0.739716 0.785156
0.903381 0.743713 0.774811
0.000000 0.392273 0.468018
0.117920 0.464142 0.527924
0.263885 0.535431 0.586792
0.399353 0.604431 0.643677
0.527283 0.670837 0.698761
0.647430 0.735229 0.752228
0.762054 0.797913 0.803925
0.869415 0.858734 0.854431
0.959351 0.860901 0.845398
0.000000 0.497101 0.471283
0.125702 0.566895 0.531128
0.278778 0.634308 0.589569
0.414459 0.699127 0.646423
0.540527 0.761841 0.701660
0.659912 0.822205 0.755829
0.773285 0.879791 0.809784
0.875458 0.937775 0.863190
0.958832 0.926147 0.840668
0.000000 0.000000 0.798767
0.000000 0.000000 0.751465
0.000000 0.000000 0.702972
0.000000 0.000000 0.652924
0.000000 0.000000 0.601196
0.122375 0.000000 0.544861
0.257172 0.000000 0.485352
0.359985 0.000000 0.427856
0.457092 0.000000 0.375122
0.000000 0.000000 0.771881
0.000000 0.010864 0.824493
0.000000 0.025879 0.777710
0.000000 0.036224 0.729553
0.010803 0.038727 0.680878
0.206696 0.043701 0.626740
0.331726 0.050842 0.568970
0.435944 0.051056 0.512390
0.534515 0.029663 0.460022
0.000000 0.032288 0.743713
0.000000 0.102264 0.795746
0.000000 0.166962 0.845428
0.000000 0.171021 0.800140
0.155792 0.168427 0.757111
0.301025 0.172546 0.705566
0.415314 0.179718 0.650269
0.516541 0.187286 0.595337
0.612061 0.188354 0.544128
0.000000 0.113647 0.713806
0.000000 0.175568 0.765839
0.000000 0.243134 0.815277
0.133484 0.309479 0.869934
0.271271 0.309540 0.828156
0.388214 0.313110 0.780151
0.495453 0.320679 0.727264
0.592743 0.330627 0.673798
0.683960 0.336914 0.624329
0.000000 0.181885 0.682831
0.000000 0.247681 0.734680
0.003906 0.318848 0.784760
0.207397 0.386963 0.841156
0.364014 0.457306 0.892700
0.465759 0.458832 0.849731
0.567474 0.464417 0.800293
0.661926 0.473999 0.747986
0.749207 0.481445 0.699829
0.000000 0.250916 0.650421
0.000000 0.321411 0.702759
0.082794 0.393127 0.755890
0.264648 0.463226 0.811127
0.407990 0.532684 0.863068
0.539032 0.599792 0.912994
0.633301 0.601990 0.869171
0.726288 0.609283 0.818970
0.811005 0.616669 0.771759
0.000000 0.322906 0.617859
0.000000 0.395020 0.671173
0.165039 0.466583 0.726288
0.317291 0.536804 0.780548
0.452484 0.604614 0.832764
0.578186 0.669647 0.883545
0.698059 0.732361 0.932861
0.787903 0.735840 0.887390
0.870270 0.743103 0.840576
0.000000 0.394958 0.586182
0.050079 0.466797 0.641083
0.227936 0.537537 0.696808
0.368805 0.606201 0.750702
0.498291 0.672211 0.802979
0.619354 0.736053 0.853790
0.734924 0.797760 0.903748
0.844971 0.856964 0.952850
0.926483 0.862335 0.907349
0.000000 0.465485 0.556976
0.132568 0.535706 0.613525
0.284302 0.604553 0.669220
0.419037 0.670807 0.723267
0.544067 0.735016 0.775726
0.662109 0.797577 0.826569
0.774567 0.858124 0.876251
0.880188 0.917542 0.925079
0.981445 0.976318 0.973541
