滤镜资源/Professional Luts Collection/Lutify.me Professional/Skintone/Galena.cube
# Created by: Lutify.me
# Copyright: (c) Copyright Lutify.me 2015
# Website: https://lutify.me
#LUT size
LUT_3D_SIZE 5
#LUT data points
0.000000 0.000000 0.000000
0.150238 0.002106 0.000488
0.340149 0.000000 0.002167
0.574188 0.000000 0.002747
0.804352 0.000000 0.000000
0.021362 0.124481 0.004608
0.154266 0.102631 0.002106
0.346069 0.102661 0.001526
0.579712 0.066589 0.000122
0.806976 0.013947 0.000000
0.026794 0.293335 0.004486
0.163696 0.262787 0.001587
0.357697 0.235870 0.000092
0.586700 0.238068 0.000000
0.809143 0.242188 0.000000
0.000000 0.494415 0.000000
0.166992 0.457977 0.000000
0.372955 0.431488 0.000000
0.593933 0.401245 0.000000
0.809326 0.412598 0.000000
0.139160 0.684296 0.000000
0.224609 0.649994 0.000000
0.400696 0.624329 0.000000
0.606476 0.596863 0.000000
0.811462 0.569641 0.000000
0.013672 0.000000 0.125824
0.090088 0.003662 0.056793
0.259216 0.004608 0.044006
0.477295 0.000000 0.032532
0.712799 0.000000 0.019958
0.028290 0.084656 0.082275
0.205292 0.191254 0.164246
0.405304 0.191498 0.147675
0.632568 0.183380 0.131775
0.850006 0.183533 0.112457
0.054199 0.237061 0.089233
0.215363 0.372192 0.176575
0.413422 0.343140 0.131042
0.635498 0.350677 0.109314
0.848053 0.361359 0.083557
0.008636 0.430481 0.092316
0.241241 0.568695 0.192108
0.430695 0.541290 0.129150
0.641113 0.510742 0.078613
0.847534 0.521790 0.043488
0.102264 0.626556 0.100647
0.311707 0.751740 0.225586
0.465485 0.724823 0.156677
0.656219 0.697235 0.086792
0.851135 0.669556 0.029236
0.000000 0.000000 0.323944
0.061646 0.000000 0.224152
0.196991 0.004120 0.140900
0.391296 0.000000 0.125183
0.622589 0.000000 0.112946
0.007507 0.082550 0.263397
0.145538 0.188263 0.384613
0.330963 0.197174 0.275452
0.549133 0.194122 0.254730
0.769531 0.189758 0.236664
0.060089 0.191071 0.206604
0.232025 0.320557 0.319641
0.481110 0.465027 0.445404
0.695740 0.470398 0.422882
0.898560 0.479736 0.402100
0.021210 0.377808 0.213135
0.252838 0.517334 0.334869
0.502899 0.651428 0.468536
0.696198 0.624023 0.411530
0.894745 0.632233 0.389099
0.063873 0.574463 0.232574
0.308594 0.701660 0.363892
0.540619 0.824066 0.497742
0.710052 0.799988 0.438629
0.895386 0.772461 0.386108
0.000000 0.000000 0.571350
0.000000 0.000000 0.463196
0.145752 0.000000 0.349243
0.316956 0.000000 0.244934
0.539673 0.000000 0.224060
0.000000 0.068970 0.508392
0.000000 0.183441 0.624725
0.268768 0.184021 0.523163
0.470764 0.194458 0.408936
0.692841 0.192749 0.383301
0.000000 0.191437 0.440948
0.137299 0.321259 0.563202
0.421539 0.461609 0.681793
0.618744 0.473663 0.575897
0.822174 0.484406 0.552460
0.003357 0.320465 0.377197
0.250122 0.464142 0.499817
0.511627 0.604614 0.618011
0.749054 0.735779 0.728882
0.939026 0.740845 0.709717
0.000000 0.526428 0.385376
0.286469 0.659851 0.509674
0.544739 0.782257 0.631897
0.767303 0.899506 0.748566
0.937378 0.875549 0.700562
0.000000 0.000000 0.798767
0.000000 0.000000 0.702972
0.000000 0.000000 0.601196
0.257172 0.000000 0.485352
0.457092 0.000000 0.375122
0.000000 0.032288 0.743713
0.000000 0.166962 0.845428
0.155792 0.168427 0.757111
0.415314 0.179718 0.650269
0.612061 0.188354 0.544128
0.000000 0.181885 0.682831
0.003906 0.318848 0.784760
0.364014 0.457306 0.892700
0.567474 0.464417 0.800293
0.749207 0.481445 0.699829
0.000000 0.322906 0.617859
0.165039 0.466583 0.726288
0.452484 0.604614 0.832764
0.698059 0.732361 0.932861
0.870270 0.743103 0.840576
0.000000 0.465485 0.556976
0.284302 0.604553 0.669220
0.544067 0.735016 0.775726
0.774567 0.858124 0.876251
0.981445 0.976318 0.973541
