滤镜资源/Professional Luts Collection/Lutify.me Professional/Skintone/Galena.cube
# Created by: Lutify.me
# Copyright: (c) Copyright Lutify.me 2015
# Website: https://lutify.me
#LUT size
LUT_3D_SIZE 33
#LUT data points
0.000000 0.000000 0.000000
0.013672 0.000397 0.000000
0.027679 0.000397 0.000000
0.046692 0.000427 0.000000
0.066833 0.001099 0.000336
0.087341 0.001190 0.000397
0.107971 0.001556 0.000397
0.128906 0.002136 0.000458
0.150238 0.002106 0.000488
0.171661 0.002563 0.000793
0.193695 0.002655 0.001099
0.216309 0.002350 0.001282
0.239319 0.001862 0.001343
0.263031 0.000824 0.001465
0.287659 0.000092 0.001556
0.313354 0.000000 0.001770
0.340149 0.000000 0.002167
0.367859 0.000000 0.002258
0.396332 0.000000 0.002228
0.425385 0.000000 0.002350
0.454773 0.000000 0.002502
0.484497 0.000000 0.002869
0.514404 0.000000 0.003021
0.544312 0.000000 0.002747
0.574188 0.000000 0.002747
0.603973 0.000000 0.002655
0.633545 0.000000 0.002411
0.662903 0.000000 0.002625
0.691925 0.000000 0.002289
0.720551 0.000000 0.001892
0.748871 0.000000 0.001221
0.776794 0.000000 0.000793
0.804352 0.000000 0.000000
0.001190 0.010895 0.000397
0.014801 0.009247 0.000397
0.028442 0.010040 0.000000
0.047424 0.010101 0.000000
0.067230 0.010803 0.000336
0.088135 0.010895 0.000397
0.108582 0.011292 0.000397
0.129456 0.011719 0.000458
0.150665 0.012085 0.000488
0.172241 0.012146 0.000793
0.194275 0.012238 0.001099
0.216888 0.012177 0.001099
0.239899 0.011688 0.001251
0.263519 0.010895 0.001465
0.288147 0.009277 0.001556
0.313904 0.006683 0.001770
0.340729 0.002991 0.002136
0.368439 0.000458 0.002350
0.396912 0.000000 0.002350
0.425964 0.000000 0.002441
0.455383 0.000000 0.002563
0.485046 0.000000 0.002655
0.514893 0.000000 0.002747
0.544800 0.000000 0.002625
0.574677 0.000000 0.002380
0.604401 0.000000 0.002533
0.633911 0.000000 0.002655
0.663239 0.000000 0.002289
0.692230 0.000000 0.001923
0.720917 0.000000 0.001526
0.749146 0.000000 0.001129
0.777069 0.000000 0.000397
0.804596 0.000000 0.000000
0.003052 0.021820 0.000427
0.014923 0.020630 0.000397
0.029205 0.019043 0.000397
0.048676 0.019470 0.000031
0.068207 0.019867 0.000336
0.088409 0.020599 0.000397
0.109039 0.020966 0.000397
0.129913 0.021393 0.000458
0.151093 0.021729 0.000458
0.172638 0.022095 0.000702
0.194733 0.022247 0.001038
0.217285 0.022125 0.001007
0.240326 0.021820 0.001099
0.264008 0.020844 0.001404
0.288666 0.019104 0.001556
0.314484 0.016479 0.001648
0.341309 0.012756 0.001831
0.369019 0.007782 0.002045
0.397522 0.002686 0.002167
0.426544 0.000061 0.002197
0.455872 0.000000 0.002258
0.485565 0.000000 0.002380
0.515381 0.000000 0.002380
0.545227 0.000000 0.002472
0.575073 0.000000 0.002594
0.604797 0.000000 0.002350
0.634277 0.000000 0.002289
0.663605 0.000000 0.001984
0.692596 0.000000 0.001831
0.721191 0.000000 0.001190
0.749451 0.000000 0.000732
0.777313 0.000000 0.000031
0.804779 0.000000 0.000000
0.005310 0.035828 0.000824
0.016785 0.034180 0.000793
0.030334 0.032227 0.000427
0.048462 0.029907 0.000397
0.068359 0.030640 0.000366
0.088837 0.031128 0.000397
0.109375 0.031830 0.000397
0.130341 0.032257 0.000641
0.151489 0.032684 0.000671
0.173096 0.033234 0.000732
0.195190 0.033264 0.000793
0.217743 0.033325 0.001099
0.240845 0.032990 0.001160
0.264557 0.032135 0.001190
0.289246 0.030579 0.001312
0.315094 0.027893 0.001495
0.341949 0.024170 0.001587
0.369659 0.019226 0.001770
0.398132 0.012939 0.002045
0.427124 0.005890 0.002136
0.456482 0.001129 0.002197
0.486145 0.000000 0.002319
0.515869 0.000000 0.002289
0.545715 0.000000 0.002258
0.575531 0.000000 0.002075
0.605225 0.000000 0.002075
0.634735 0.000000 0.001984
0.664001 0.000000 0.001587
0.692932 0.000000 0.001282
0.721527 0.000000 0.001038
0.749725 0.000000 0.000366
0.777588 0.000000 0.000000
0.805054 0.000000 0.000000
0.007080 0.053101 0.001221
0.018768 0.050629 0.001495
0.032227 0.048401 0.001160
0.049500 0.046051 0.000793
0.068970 0.043549 0.000732
0.088928 0.044556 0.000702
0.109711 0.044983 0.000732
0.130554 0.045685 0.000519
0.151733 0.046295 0.000793
0.173431 0.046692 0.001038
0.195557 0.047028 0.001099
0.218109 0.046906 0.001129
0.241211 0.046753 0.001221
0.265015 0.045990 0.001404
0.289856 0.044678 0.001434
0.315735 0.042297 0.001556
0.342621 0.038818 0.001770
0.370453 0.033875 0.001770
0.398926 0.027618 0.001801
0.427917 0.020386 0.001892
0.457214 0.012054 0.001953
0.486816 0.004486 0.002014
0.516541 0.000244 0.002014
0.546326 0.000000 0.002075
0.576141 0.000000 0.001923
0.605804 0.000000 0.001801
0.635223 0.000000 0.001587
0.664459 0.000000 0.001434
0.693359 0.000000 0.000916
0.721924 0.000000 0.000671
0.750061 0.000000 0.000031
0.777924 0.000000 0.000000
0.805328 0.000000 0.000000
0.010345 0.070496 0.001892
0.021667 0.067932 0.001953
0.034302 0.065247 0.001892
0.051605 0.063263 0.001221
0.070007 0.060516 0.001434
0.089752 0.058136 0.001129
0.110168 0.058838 0.000854
0.130920 0.059570 0.000854
0.152191 0.060211 0.000793
0.173920 0.060577 0.000854
0.196045 0.061005 0.000885
0.218567 0.061279 0.001160
0.241730 0.061035 0.001373
0.265594 0.060638 0.001312
0.290466 0.059540 0.001434
0.316437 0.057800 0.001526
0.343414 0.054840 0.001587
0.371246 0.050812 0.001709
0.399811 0.045441 0.001740
0.428802 0.038696 0.001740
0.458130 0.030548 0.001801
0.487640 0.021210 0.001892
0.517365 0.011261 0.001801
0.547119 0.003601 0.001648
0.576843 0.000214 0.001617
0.606445 0.000000 0.001465
0.635834 0.000000 0.001160
0.665039 0.000000 0.000977
0.693878 0.000000 0.000427
0.722382 0.000000 0.000122
0.750488 0.000000 0.000000
0.778290 0.000000 0.000000
0.805634 0.000000 0.000000
0.013641 0.088348 0.002930
0.024780 0.085358 0.002991
0.037659 0.082855 0.002380
0.053589 0.080597 0.001678
0.071869 0.078033 0.001282
0.090790 0.075226 0.001312
0.110931 0.072784 0.001495
0.131592 0.073547 0.001129
0.152771 0.074219 0.001129
0.174408 0.074768 0.001129
0.196503 0.075226 0.001129
0.219025 0.075531 0.001343
0.242218 0.075653 0.001404
0.266144 0.075378 0.001343
0.291077 0.074677 0.001434
0.317200 0.073120 0.001648
0.344269 0.070862 0.001617
0.372131 0.067719 0.001556
0.400696 0.063568 0.001587
0.429718 0.058197 0.001556
0.459076 0.051575 0.001404
0.488647 0.043610 0.001373
0.518311 0.033966 0.001434
0.548035 0.023102 0.001343
0.577698 0.012665 0.001129
0.607269 0.004303 0.000854
0.636627 0.000580 0.000580
0.665741 0.000000 0.000397
0.694489 0.000000 0.000061
0.722931 0.000000 0.000000
0.750977 0.000000 0.000000
0.778717 0.000000 0.000000
0.806061 0.000000 0.000000
0.017365 0.106201 0.003815
0.028290 0.103027 0.003510
0.040802 0.100525 0.003174
0.056213 0.097961 0.002563
0.073792 0.095703 0.001892
0.092377 0.093109 0.001862
0.111969 0.090393 0.001831
0.132324 0.087524 0.001617
0.153412 0.088287 0.001465
0.174988 0.089142 0.001282
0.197083 0.089783 0.001282
0.219666 0.090027 0.001434
0.242828 0.090271 0.001556
0.266815 0.090179 0.001648
0.291840 0.089630 0.001556
0.317963 0.088562 0.001617
0.345093 0.086761 0.001617
0.372986 0.084259 0.001495
0.401581 0.080963 0.001526
0.430634 0.076843 0.001404
0.460052 0.071686 0.001160
0.489685 0.065521 0.000946
0.519348 0.058105 0.000885
0.549042 0.049408 0.000793
0.578644 0.039490 0.000610
0.608124 0.028412 0.000336
0.637421 0.018341 0.000092
0.666473 0.009888 0.000061
0.695190 0.003296 0.000000
0.723572 0.001312 0.000000
0.751617 0.000183 0.000000
0.779266 0.000000 0.000000
0.806488 0.000000 0.000000
0.021362 0.124481 0.004608
0.032166 0.121368 0.004303
0.044678 0.118408 0.003906
0.059174 0.115906 0.003418
0.075806 0.113556 0.002472
0.094238 0.110931 0.002228
0.113281 0.108276 0.002289
0.133362 0.105469 0.002014
0.154266 0.102631 0.002106
0.175781 0.103363 0.001862
0.197754 0.104248 0.001770
0.220398 0.104736 0.001617
0.243591 0.105042 0.001587
0.267609 0.105103 0.001556
0.292725 0.104736 0.001617
0.318939 0.103943 0.001556
0.346069 0.102661 0.001526
0.373962 0.100647 0.001495
0.402557 0.098022 0.001404
0.431641 0.094757 0.001343
0.461029 0.090729 0.001099
0.490662 0.085876 0.000732
0.520386 0.080261 0.000366
0.550110 0.073761 0.000183
0.579712 0.066589 0.000122
0.609131 0.058411 0.000092
0.638336 0.049805 0.000000
0.667297 0.041260 0.000000
0.695923 0.032562 0.000000
0.724243 0.026276 0.000000
0.752228 0.020569 0.000000
0.779816 0.016632 0.000000
0.806976 0.013947 0.000000
0.025330 0.143372 0.005371
0.036591 0.139954 0.005096
0.048584 0.136719 0.004913
0.062286 0.134155 0.004211
0.078430 0.131653 0.003418
0.096191 0.129059 0.002686
0.115112 0.126495 0.002533
0.134735 0.123657 0.002594
0.155212 0.120911 0.002350
0.176636 0.118011 0.002319
0.198578 0.118713 0.002228
0.221161 0.119446 0.002045
0.244354 0.119965 0.001740
0.268494 0.120270 0.001709
0.293762 0.120026 0.001709
0.320007 0.119507 0.001770
0.347168 0.118469 0.001617
0.375092 0.116943 0.001495
0.403656 0.114868 0.001282
0.432709 0.112244 0.001038
0.462067 0.109070 0.000854
0.491669 0.105255 0.000580
0.521362 0.100922 0.000183
0.551086 0.095978 0.000000
0.580688 0.090698 0.000000
0.610107 0.084991 0.000000
0.639313 0.079193 0.000000
0.668213 0.073486 0.000000
0.696777 0.067688 0.000000
0.725037 0.062408 0.000000
0.752869 0.057617 0.000000
0.780396 0.054047 0.000000
0.807526 0.051544 0.000000
0.029083 0.162537 0.006134
0.040833 0.158936 0.006042
0.052032 0.155701 0.005737
0.065369 0.152802 0.005096
0.080963 0.150208 0.004242
0.098297 0.147614 0.003479
0.116974 0.145020 0.002808
0.136475 0.142334 0.002533
0.156708 0.139343 0.002808
0.177765 0.136597 0.002838
0.199707 0.133728 0.002350
0.222076 0.134430 0.002350
0.245331 0.134979 0.002258
0.269562 0.135468 0.002136
0.294861 0.135498 0.001862
0.321228 0.135193 0.001678
0.348389 0.134460 0.001556
0.376373 0.133179 0.001434
0.404907 0.131592 0.001221
0.433899 0.129547 0.000916
0.463226 0.127014 0.000610
0.492706 0.124084 0.000305
0.522308 0.120758 0.000061
0.551971 0.117096 0.000000
0.581543 0.113220 0.000000
0.610931 0.109161 0.000000
0.640106 0.105072 0.000000
0.669037 0.101135 0.000000
0.697601 0.097565 0.000000
0.725800 0.094330 0.000000
0.753571 0.091675 0.000000
0.781067 0.089600 0.000000
0.808105 0.088501 0.000000
0.032776 0.182220 0.006805
0.044373 0.178467 0.006805
0.055359 0.175110 0.006531
0.068359 0.172058 0.005951
0.083527 0.169250 0.005188
0.100311 0.166626 0.004028
0.118744 0.163971 0.003204
0.138184 0.161285 0.002930
0.158295 0.158417 0.002930
0.179108 0.155426 0.003052
0.200806 0.152557 0.003082
0.223206 0.149597 0.002625
0.246460 0.150330 0.002441
0.270752 0.150726 0.002350
0.296173 0.151031 0.002106
0.322571 0.150848 0.001801
0.349792 0.150452 0.001434
0.377716 0.149567 0.001251
0.406250 0.148346 0.000977
0.435181 0.146790 0.000641
0.464386 0.144928 0.000427
0.493805 0.142700 0.000153
0.523346 0.140198 0.000000
0.552917 0.137512 0.000000
0.582367 0.134735 0.000000
0.611694 0.131927 0.000000
0.640778 0.129089 0.000000
0.669647 0.126373 0.000000
0.698151 0.123993 0.000000
0.726318 0.121948 0.000000
0.754120 0.120392 0.000000
0.781586 0.119293 0.000000
0.808655 0.119019 0.000000
0.036194 0.202515 0.007294
0.047211 0.198669 0.007385
0.058472 0.194977 0.007294
0.071136 0.191803 0.006775
0.086090 0.188782 0.005859
0.102539 0.186035 0.004791
0.120605 0.183350 0.003967
0.139801 0.180664 0.003174
0.160004 0.177826 0.002655
0.180695 0.174805 0.003021
0.202209 0.171783 0.003143
0.224518 0.168793 0.003021
0.247711 0.165802 0.002655
0.272125 0.166382 0.002319
0.297607 0.166718 0.002014
0.324066 0.166840 0.001740
0.351257 0.166626 0.001465
0.379150 0.166138 0.001038
0.407654 0.165314 0.000854
0.436523 0.164276 0.000336
0.465668 0.162872 0.000153
0.494965 0.161377 0.000061
0.524384 0.159607 0.000000
0.553864 0.157715 0.000000
0.583221 0.155792 0.000000
0.612427 0.153809 0.000000
0.641388 0.151917 0.000000
0.670197 0.150116 0.000000
0.698608 0.148621 0.000000
0.726715 0.147400 0.000000
0.754425 0.146576 0.000000
0.781860 0.146179 0.000000
0.808868 0.146362 0.000000
0.037628 0.223846 0.007355
0.048798 0.219696 0.007629
0.060516 0.215759 0.007721
0.073303 0.212280 0.007324
0.088135 0.209106 0.006470
0.104370 0.206146 0.005432
0.122345 0.203369 0.004395
0.141388 0.200623 0.003510
0.161530 0.197784 0.002747
0.182404 0.194763 0.002350
0.203766 0.191681 0.002930
0.225952 0.188599 0.003113
0.249207 0.185486 0.002838
0.273590 0.182343 0.002350
0.299164 0.182800 0.001953
0.325592 0.183136 0.001587
0.352844 0.183228 0.001099
0.380676 0.183044 0.000702
0.409088 0.182648 0.000366
0.437866 0.182007 0.000244
0.466949 0.181183 0.000000
0.496185 0.180145 0.000000
0.525482 0.179016 0.000000
0.554840 0.177765 0.000000
0.584076 0.176514 0.000000
0.613159 0.175232 0.000000
0.641998 0.173981 0.000000
0.670715 0.172882 0.000000
0.699036 0.172089 0.000000
0.727051 0.171478 0.000000
0.754669 0.171234 0.000000
0.782013 0.171295 0.000000
0.808929 0.171875 0.000000
0.036438 0.246185 0.007050
0.048645 0.241760 0.007324
0.060760 0.237671 0.007629
0.074249 0.233795 0.007599
0.089050 0.230408 0.006927
0.105591 0.227234 0.005859
0.123535 0.224365 0.004730
0.142517 0.221466 0.003571
0.162750 0.218536 0.002533
0.183655 0.215576 0.002014
0.205322 0.212463 0.001831
0.227570 0.209229 0.002594
0.250824 0.206024 0.002686
0.275269 0.202820 0.002319
0.300751 0.199402 0.001862
0.327240 0.199921 0.001373
0.354431 0.200256 0.000763
0.382233 0.200470 0.000397
0.410583 0.200348 0.000122
0.439301 0.200134 0.000000
0.468262 0.199768 0.000000
0.497375 0.199188 0.000000
0.526581 0.198517 0.000000
0.555817 0.197815 0.000000
0.584930 0.197052 0.000000
0.613922 0.196320 0.000000
0.642670 0.195618 0.000000
0.671234 0.195099 0.000000
0.699493 0.194824 0.000000
0.727386 0.194672 0.000000
0.754913 0.194824 0.000000
0.782196 0.195282 0.000000
0.809021 0.196106 0.000000
0.032928 0.269409 0.006134
0.046082 0.264923 0.006439
0.059021 0.260529 0.006927
0.073578 0.256378 0.007324
0.089172 0.252655 0.006989
0.105865 0.249359 0.005951
0.124054 0.246216 0.004700
0.143250 0.243256 0.003479
0.163452 0.240234 0.002197
0.184570 0.237274 0.001312
0.206451 0.234192 0.000946
0.229095 0.230927 0.001007
0.252563 0.227539 0.001709
0.277039 0.224243 0.001740
0.302521 0.220825 0.001343
0.328888 0.217255 0.000854
0.356049 0.217834 0.000458
0.383820 0.218262 0.000092
0.412079 0.218567 0.000092
0.440704 0.218597 0.000000
0.469574 0.218597 0.000000
0.498627 0.218445 0.000000
0.527679 0.218170 0.000000
0.556793 0.217896 0.000000
0.585815 0.217590 0.000000
0.614655 0.217285 0.000000
0.643341 0.217010 0.000000
0.671783 0.216919 0.000000
0.699890 0.216980 0.000000
0.727722 0.217194 0.000000
0.755157 0.217651 0.000000
0.782318 0.218445 0.000000
0.809082 0.219452 0.000000
0.026794 0.293335 0.004486
0.041016 0.288757 0.005096
0.055298 0.284180 0.005646
0.071106 0.279785 0.006256
0.087860 0.275726 0.006622
0.105316 0.272217 0.005707
0.123718 0.268951 0.004364
0.143311 0.265839 0.002960
0.163696 0.262787 0.001587
0.184998 0.259766 0.000732
0.207336 0.256683 0.000305
0.230408 0.253448 0.000214
0.254181 0.250000 0.000305
0.278778 0.246552 0.000580
0.304321 0.243073 0.000580
0.330597 0.239532 0.000397
0.357697 0.235870 0.000092
0.385376 0.236542 0.000000
0.413605 0.237030 0.000000
0.442108 0.237427 0.000000
0.470856 0.237701 0.000000
0.499817 0.237854 0.000000
0.528778 0.237915 0.000000
0.557770 0.238037 0.000000
0.586700 0.238068 0.000000
0.615417 0.238129 0.000000
0.643951 0.238190 0.000000
0.672302 0.238403 0.000000
0.700317 0.238800 0.000000
0.728027 0.239288 0.000000
0.755402 0.239990 0.000000
0.782440 0.240936 0.000000
0.809143 0.242188 0.000000
0.018494 0.317841 0.002380
0.033264 0.313141 0.003082
0.049438 0.308502 0.003754
0.066803 0.303986 0.004517
0.085052 0.299652 0.005310
0.103638 0.295746 0.005066
0.122681 0.292358 0.003632
0.142609 0.289185 0.002045
0.163422 0.286072 0.000793
0.185150 0.282959 0.000275
0.207855 0.279877 0.000061
0.231476 0.276672 0.000000
0.255707 0.273285 0.000000
0.280518 0.269653 0.000000
0.306061 0.266113 0.000000
0.332428 0.262543 0.000000
0.359406 0.258911 0.000000
0.386993 0.255157 0.000000
0.415070 0.255920 0.000000
0.443542 0.256531 0.000000
0.472198 0.257111 0.000000
0.500977 0.257507 0.000000
0.529846 0.257874 0.000000
0.558746 0.258179 0.000000
0.587555 0.258545 0.000000
0.616180 0.258850 0.000000
0.644592 0.259216 0.000000
0.672821 0.259674 0.000000
0.700714 0.260345 0.000000
0.728333 0.261078 0.000000
0.755585 0.261932 0.000000
0.782562 0.263062 0.000000
0.809174 0.264404 0.000000
0.008575 0.342773 0.000610
0.023438 0.338013 0.000946
0.041077 0.333313 0.001465
0.060760 0.328674 0.002197
0.080963 0.324188 0.003143
0.101013 0.319946 0.003632
0.121033 0.316376 0.002686
0.141602 0.313080 0.001068
0.162964 0.309875 0.000275
0.185211 0.306763 0.000000
0.208374 0.303619 0.000000
0.232300 0.300446 0.000000
0.257019 0.297150 0.000000
0.282196 0.293549 0.000000
0.307922 0.289856 0.000000
0.334198 0.286255 0.000000
0.361145 0.282623 0.000000
0.388702 0.278900 0.000000
0.416595 0.275055 0.000000
0.444977 0.275879 0.000000
0.473541 0.276672 0.000000
0.502228 0.277313 0.000000
0.530975 0.277863 0.000000
0.559753 0.278442 0.000000
0.588409 0.278961 0.000000
0.616913 0.279572 0.000000
0.645264 0.280151 0.000000
0.673340 0.280853 0.000000
0.701111 0.281616 0.000000
0.728607 0.282623 0.000000
0.755768 0.283600 0.000000
0.782654 0.284851 0.000000
0.809174 0.286255 0.000000
0.001282 0.367981 0.000000
0.012756 0.363129 0.000000
0.031342 0.358368 0.000092
0.053345 0.353668 0.000397
0.075745 0.349060 0.000977
0.097778 0.344635 0.001587
0.119232 0.340759 0.001465
0.140503 0.337341 0.000488
0.162598 0.334106 0.000031
0.185364 0.330963 0.000000
0.208862 0.327820 0.000000
0.233185 0.324615 0.000000
0.258148 0.321320 0.000000
0.283722 0.317902 0.000000
0.309753 0.314209 0.000000
0.336121 0.310455 0.000000
0.362976 0.306793 0.000000
0.390350 0.303131 0.000000
0.418213 0.299316 0.000000
0.446381 0.295441 0.000000
0.474884 0.296326 0.000000
0.503479 0.297211 0.000000
0.532074 0.297913 0.000000
0.560730 0.298706 0.000000
0.589294 0.299469 0.000000
0.617676 0.300201 0.000000
0.645874 0.300995 0.000000
0.673859 0.301819 0.000000
0.701538 0.302795 0.000000
0.728912 0.303894 0.000000
0.755981 0.305054 0.000000
0.782776 0.306396 0.000000
0.809204 0.307892 0.000000
0.000000 0.393341 0.000000
0.003906 0.388336 0.000000
0.021637 0.383636 0.000000
0.045532 0.378876 0.000000
0.070282 0.374237 0.000000
0.094330 0.369690 0.000153
0.117645 0.365479 0.000244
0.139740 0.361908 0.000092
0.162445 0.358643 0.000000
0.185669 0.355438 0.000000
0.209564 0.352295 0.000000
0.234131 0.349091 0.000000
0.259399 0.345795 0.000000
0.285156 0.342407 0.000000
0.311432 0.338898 0.000000
0.338043 0.335114 0.000000
0.364899 0.331329 0.000000
0.392151 0.327606 0.000000
0.419861 0.323914 0.000000
0.447876 0.320068 0.000000
0.476196 0.316284 0.000000
0.504700 0.317230 0.000000
0.533264 0.318115 0.000000
0.561737 0.318939 0.000000
0.590179 0.319946 0.000000
0.618408 0.320831 0.000000
0.646545 0.321777 0.000000
0.674377 0.322723 0.000000
0.701935 0.323822 0.000000
0.729218 0.324951 0.000000
0.756195 0.326233 0.000000
0.782867 0.327728 0.000000
0.809235 0.329285 0.000000
0.000000 0.418701 0.000000
0.000092 0.413757 0.000000
0.013550 0.408997 0.000000
0.038513 0.404266 0.000000
0.065704 0.399567 0.000000
0.091370 0.394958 0.000000
0.116180 0.390472 0.000000
0.139435 0.386688 0.000000
0.162628 0.383331 0.000000
0.186249 0.380127 0.000000
0.210449 0.376984 0.000000
0.235352 0.373749 0.000000
0.260773 0.370544 0.000000
0.286743 0.367188 0.000000
0.313110 0.363708 0.000000
0.339905 0.360077 0.000000
0.366821 0.356201 0.000000
0.394043 0.352417 0.000000
0.421600 0.348663 0.000000
0.449524 0.344940 0.000000
0.477631 0.341125 0.000000
0.505981 0.337341 0.000000
0.534393 0.338348 0.000000
0.562805 0.339325 0.000000
0.591034 0.340302 0.000000
0.619171 0.341309 0.000000
0.647125 0.342407 0.000000
0.674896 0.343536 0.000000
0.702332 0.344666 0.000000
0.729492 0.345886 0.000000
0.756348 0.347260 0.000000
0.782990 0.348785 0.000000
0.809235 0.350372 0.000000
0.000000 0.444031 0.000000
0.000000 0.439240 0.000000
0.008575 0.434265 0.000000
0.033569 0.429596 0.000000
0.062500 0.424896 0.000000
0.089539 0.420258 0.000000
0.115356 0.415680 0.000000
0.139709 0.411682 0.000000
0.163391 0.408203 0.000000
0.187317 0.404907 0.000000
0.211700 0.401764 0.000000
0.236786 0.398590 0.000000
0.262390 0.395386 0.000000
0.288452 0.392090 0.000000
0.314941 0.388641 0.000000
0.341797 0.385040 0.000000
0.368866 0.381317 0.000000
0.396027 0.377411 0.000000
0.423462 0.373627 0.000000
0.451202 0.369843 0.000000
0.479126 0.366119 0.000000
0.507324 0.362335 0.000000
0.535645 0.358612 0.000000
0.563873 0.359680 0.000000
0.591980 0.360748 0.000000
0.619995 0.361847 0.000000
0.647766 0.362915 0.000000
0.675385 0.364105 0.000000
0.702759 0.365387 0.000000
0.729828 0.366699 0.000000
0.756561 0.368164 0.000000
0.783051 0.369598 0.000000
0.809235 0.371246 0.000000
0.000000 0.469299 0.000000
0.000000 0.464478 0.000000
0.006592 0.459595 0.000000
0.031555 0.454834 0.000000
0.061218 0.450165 0.000000
0.089111 0.445526 0.000000
0.115479 0.440918 0.000000
0.140625 0.436707 0.000000
0.164764 0.433105 0.000000
0.188934 0.429810 0.000000
0.213501 0.426636 0.000000
0.238586 0.423462 0.000000
0.264252 0.420227 0.000000
0.290344 0.416992 0.000000
0.316895 0.413635 0.000000
0.343750 0.410126 0.000000
0.370880 0.406433 0.000000
0.398102 0.402618 0.000000
0.425446 0.398743 0.000000
0.453003 0.394958 0.000000
0.480774 0.391205 0.000000
0.508728 0.387451 0.000000
0.536804 0.383698 0.000000
0.564972 0.379913 0.000000
0.592926 0.381073 0.000000
0.620789 0.382263 0.000000
0.648468 0.383453 0.000000
0.675934 0.384674 0.000000
0.703156 0.386017 0.000000
0.730133 0.387390 0.000000
0.756775 0.388824 0.000000
0.783173 0.390350 0.000000
0.809265 0.392029 0.000000
0.000000 0.494415 0.000000
0.000031 0.489502 0.000000
0.008575 0.484741 0.000000
0.033447 0.479950 0.000000
0.062988 0.475281 0.000000
0.090668 0.470673 0.000000
0.117065 0.466095 0.000000
0.142609 0.461731 0.000000
0.166992 0.457977 0.000000
0.191223 0.454620 0.000000
0.215881 0.451447 0.000000
0.240906 0.448273 0.000000
0.266510 0.445099 0.000000
0.292542 0.441833 0.000000
0.319031 0.438507 0.000000
0.345856 0.435059 0.000000
0.372955 0.431488 0.000000
0.400238 0.427734 0.000000
0.427551 0.423889 0.000000
0.454956 0.420074 0.000000
0.482513 0.416260 0.000000
0.510223 0.412537 0.000000
0.538147 0.408844 0.000000
0.566040 0.405121 0.000000
0.593933 0.401245 0.000000
0.621674 0.402588 0.000000
0.649139 0.403809 0.000000
0.676544 0.405212 0.000000
0.703644 0.406494 0.000000
0.730469 0.407867 0.000000
0.757019 0.409363 0.000000
0.783295 0.410889 0.000000
0.809326 0.412598 0.000000
0.000000 0.519196 0.000000
0.001404 0.514343 0.000000
0.015045 0.509552 0.000000
0.039581 0.504883 0.000000
0.067841 0.500153 0.000000
0.094421 0.495636 0.000000
0.120361 0.491089 0.000000
0.145844 0.486664 0.000000
0.170258 0.482758 0.000000
0.194305 0.479309 0.000000
0.218811 0.476166 0.000000
0.243744 0.472992 0.000000
0.269196 0.469818 0.000000
0.295074 0.466583 0.000000
0.321442 0.463287 0.000000
0.348206 0.459930 0.000000
0.375214 0.456451 0.000000
0.402405 0.452820 0.000000
0.429718 0.449036 0.000000
0.457062 0.445099 0.000000
0.484406 0.441284 0.000000
0.511932 0.437592 0.000000
0.539551 0.433868 0.000000
0.567261 0.430145 0.000000
0.594940 0.426453 0.000000
0.622589 0.422760 0.000000
0.649994 0.424072 0.000000
0.677185 0.425385 0.000000
0.704132 0.426819 0.000000
0.730835 0.428192 0.000000
0.757294 0.429749 0.000000
0.783447 0.431274 0.000000
0.809418 0.432953 0.000000
0.002289 0.543793 0.000000
0.009277 0.538849 0.000000
0.027130 0.534119 0.000000
0.050507 0.529572 0.000000
0.075775 0.524902 0.000000
0.100616 0.520386 0.000000
0.125671 0.515778 0.000000
0.150360 0.511353 0.000000
0.174561 0.507385 0.000000
0.198303 0.503906 0.000000
0.222473 0.500671 0.000000
0.247162 0.497498 0.000000
0.272369 0.494324 0.000000
0.298096 0.491150 0.000000
0.324280 0.487915 0.000000
0.350861 0.484619 0.000000
0.377686 0.481232 0.000000
0.404785 0.477661 0.000000
0.432037 0.473999 0.000000
0.459320 0.470245 0.000000
0.486542 0.466309 0.000000
0.513794 0.462494 0.000000
0.541229 0.458862 0.000000
0.568665 0.455139 0.000000
0.596069 0.451447 0.000000
