滤镜资源/Professional Luts Collection/Lutify.me Professional/Skintone/Garnet Hessonite.cube
# Created by: Lutify.me
# Copyright: (c) Copyright Lutify.me 2015
# Website: https://lutify.me
#LUT size
LUT_3D_SIZE 33
#LUT data points
0.000000 0.000000 0.000000
0.020996 0.000366 0.000000
0.044434 0.000031 0.000000
0.069397 0.000305 0.000366
0.094910 0.000031 0.000397
0.120544 0.000000 0.000122
0.146759 0.000000 0.000061
0.172882 0.000000 0.000336
0.199463 0.000000 0.000610
0.226440 0.000000 0.000763
0.253906 0.000000 0.000977
0.281860 0.000000 0.000977
0.310577 0.000000 0.001099
0.340057 0.000000 0.001282
0.370392 0.000000 0.001465
0.401581 0.000000 0.001465
0.433411 0.000000 0.001465
0.465546 0.000000 0.001465
0.497772 0.000000 0.001465
0.529816 0.000000 0.001465
0.561493 0.000000 0.001343
0.592682 0.000000 0.001282
0.623199 0.000000 0.001068
0.652893 0.000000 0.000763
0.681793 0.000000 0.000610
0.709961 0.000000 0.000305
0.737274 0.000000 0.000000
0.763947 0.000000 0.000000
0.790009 0.000000 0.000000
0.815613 0.000000 0.000000
0.841095 0.000000 0.000000
0.866486 0.000000 0.000000
0.892090 0.000000 0.000000
0.003448 0.015198 0.000397
0.021332 0.014069 0.000366
0.043701 0.014099 0.000000
0.068329 0.014069 0.000031
0.093506 0.014404 0.000336
0.118896 0.014435 0.000122
0.144714 0.014404 0.000061
0.170807 0.013824 0.000336
0.197266 0.013306 0.000488
0.224182 0.012543 0.000641
0.251648 0.011353 0.000641
0.279541 0.009583 0.000824
0.308075 0.007111 0.000854
0.337433 0.003693 0.001038
0.367706 0.000977 0.001190
0.398773 0.000031 0.001282
0.430450 0.000000 0.001282
0.462585 0.000000 0.001282
0.494781 0.000000 0.001434
0.526855 0.000000 0.001404
0.558533 0.000000 0.001190
0.589691 0.000000 0.001099
0.620209 0.000000 0.000885
0.650024 0.000000 0.000580
0.679016 0.000000 0.000122
0.707123 0.000000 0.000000
0.734467 0.000000 0.000000
0.761169 0.000000 0.000000
0.787262 0.000000 0.000000
0.812927 0.000000 0.000000
0.838318 0.000000 0.000000
0.863739 0.000000 0.000000
0.889343 0.000000 0.000000
0.005890 0.031464 0.001160
0.023712 0.029907 0.000397
0.042633 0.027588 0.000397
0.066986 0.028320 0.000031
0.091553 0.028381 0.000031
0.116882 0.028717 0.000061
0.142639 0.028687 0.000061
0.168640 0.028351 0.000336
0.195068 0.027710 0.000397
0.221954 0.027130 0.000397
0.249237 0.026093 0.000427
0.277100 0.024414 0.000671
0.305634 0.021820 0.000793
0.334839 0.018707 0.000885
0.364929 0.014343 0.000946
0.395966 0.008636 0.000977
0.427582 0.002899 0.001007
0.459656 0.000153 0.001007
0.491852 0.000000 0.001007
0.523834 0.000000 0.000977
0.555511 0.000000 0.000854
0.586700 0.000000 0.000763
0.617279 0.000000 0.000610
0.647095 0.000000 0.000214
0.676117 0.000000 0.000000
0.704285 0.000000 0.000000
0.731689 0.000000 0.000000
0.758423 0.000000 0.000000
0.784546 0.000000 0.000000
0.810150 0.000000 0.000000
0.835602 0.000000 0.000000
0.860962 0.000000 0.000000
0.886505 0.000000 0.000000
0.010437 0.050812 0.001556
0.027100 0.048859 0.001160
0.045135 0.047119 0.000763
0.065399 0.044006 0.000763
0.089905 0.045013 0.000397
0.114960 0.045135 0.000366
0.140411 0.045410 0.000366
0.166321 0.045380 0.000366
0.192657 0.045074 0.000488
0.219604 0.044434 0.000458
0.246887 0.043365 0.000671
0.274658 0.041962 0.000580
0.303101 0.040039 0.000580
0.332275 0.037140 0.000580
0.362335 0.032715 0.000732
0.393250 0.027100 0.000793
0.424835 0.020264 0.000793
0.456818 0.012421 0.000885
0.488953 0.004974 0.000885
0.520935 0.000641 0.000793
0.552612 0.000000 0.000641
0.583832 0.000000 0.000305
0.614349 0.000000 0.000153
0.644196 0.000000 0.000031
0.673248 0.000000 0.000000
0.701477 0.000000 0.000000
0.728912 0.000000 0.000000
0.755676 0.000000 0.000000
0.781799 0.000000 0.000000
0.807495 0.000000 0.000000
0.832886 0.000000 0.000000
0.858215 0.000031 0.000000
0.883728 0.001190 0.000000
0.015869 0.071564 0.002350
0.031189 0.069489 0.001923
0.048920 0.067200 0.001190
0.067902 0.064728 0.001129
0.088593 0.061920 0.000824
0.113098 0.062775 0.000763
0.138550 0.062866 0.000732
0.164246 0.063080 0.000732
0.190399 0.063110 0.000458
0.217163 0.062836 0.000610
0.244476 0.062225 0.000458
0.272156 0.061218 0.000702
0.300537 0.059601 0.000671
0.329742 0.057465 0.000732
0.359833 0.054291 0.000641
0.390686 0.049744 0.000519
0.422211 0.043854 0.000610
0.454163 0.036285 0.000641
0.486267 0.027496 0.000671
0.518219 0.018341 0.000580
0.549866 0.009735 0.000275
0.581024 0.003204 0.000061
0.611572 0.000580 0.000031
0.641418 0.000000 0.000000
0.670471 0.000000 0.000000
0.698730 0.000000 0.000000
0.726196 0.000000 0.000000
0.752991 0.000000 0.000000
0.779083 0.000031 0.000000
0.804779 0.000458 0.000000
0.830170 0.002533 0.000000
0.855530 0.013489 0.000000
0.880951 0.029053 0.000000
0.022034 0.092407 0.003418
0.037628 0.089996 0.002991
0.053833 0.087646 0.002258
0.071289 0.085449 0.001526
0.091217 0.082611 0.001495
0.112122 0.079834 0.001129
0.136902 0.080414 0.000854
0.162384 0.080780 0.001068
0.188507 0.080872 0.001099
0.215088 0.081024 0.000763
0.242188 0.080627 0.000763
0.269867 0.079987 0.000732
0.298126 0.078979 0.000824
0.327240 0.077332 0.000793
0.357269 0.075073 0.000610
0.388123 0.071869 0.000458
0.419617 0.067444 0.000397
0.451599 0.061951 0.000275
0.483734 0.055237 0.000092
0.515686 0.047394 0.000122
0.547241 0.038849 0.000061
0.578369 0.030029 0.000000
0.608917 0.022247 0.000000
0.638763 0.016083 0.000000
0.667816 0.011475 0.000000
0.696106 0.008453 0.000000
0.723541 0.007935 0.000000
0.750336 0.010101 0.000000
0.776459 0.015137 0.000000
0.802094 0.023071 0.000000
0.827484 0.033691 0.000000
0.852753 0.048004 0.000000
0.878174 0.062653 0.000000
0.030029 0.113373 0.004547
0.045074 0.110870 0.004089
0.058990 0.108643 0.003082
0.075653 0.106201 0.002045
0.094513 0.103668 0.001587
0.114563 0.100861 0.001587
0.135925 0.097839 0.001556
0.160919 0.098541 0.001129
0.186737 0.098938 0.001160
0.213135 0.099091 0.001160
0.240051 0.099121 0.000885
0.267578 0.098755 0.000854
0.295868 0.098053 0.000854
0.324860 0.096924 0.000824
0.354767 0.095306 0.000732
0.385590 0.092834 0.000488
0.417053 0.089630 0.000244
0.448975 0.085510 0.000092
0.481079 0.080658 0.000000
0.513062 0.075104 0.000000
0.544708 0.068878 0.000000
0.575867 0.062561 0.000000
0.606415 0.056396 0.000000
0.636230 0.050873 0.000000
0.665222 0.046814 0.000000
0.693451 0.044403 0.000000
0.720947 0.044556 0.000000
0.747681 0.047302 0.000000
0.773773 0.052643 0.000000
0.799438 0.060364 0.000000
0.824768 0.070251 0.000000
0.850037 0.081421 0.000000
0.875397 0.092682 0.000000
0.038940 0.134674 0.005707
0.052521 0.132080 0.005066
0.065338 0.129608 0.004181
0.080475 0.127167 0.003082
0.098083 0.124817 0.002533
0.117828 0.122040 0.001862
0.138306 0.119141 0.001953
0.160034 0.116180 0.001892
0.185333 0.116730 0.001556
0.211487 0.117188 0.001282
0.238312 0.117371 0.001434
0.265717 0.117279 0.001312
0.293793 0.116943 0.000977
0.322723 0.116150 0.000824
0.352509 0.114990 0.000732
0.383209 0.113190 0.000549
0.414612 0.110718 0.000244
0.446442 0.107697 0.000031
0.478485 0.103973 0.000000
0.510406 0.099915 0.000000
0.542053 0.095581 0.000000
0.573242 0.091125 0.000000
0.603790 0.086975 0.000000
0.633636 0.083405 0.000000
0.662689 0.080963 0.000000
0.690918 0.079803 0.000000
0.718353 0.080566 0.000000
0.745087 0.083191 0.000000
0.771210 0.087982 0.000000
0.796814 0.094177 0.000000
0.822113 0.101990 0.000000
0.847290 0.110565 0.000000
0.872528 0.119843 0.000000
0.048218 0.156403 0.006622
0.059967 0.153656 0.006104
0.071899 0.150909 0.005310
0.085907 0.148499 0.004211
0.102448 0.146027 0.003387
0.121246 0.143433 0.002380
0.141327 0.140594 0.002258
0.162384 0.137543 0.002350
0.184418 0.134674 0.002258
0.210114 0.135223 0.001953
0.236755 0.135590 0.001526
0.264008 0.135803 0.001587
0.291992 0.135712 0.001373
0.320770 0.135284 0.001007
0.350464 0.134369 0.000732
0.381073 0.133087 0.000519
0.412384 0.131317 0.000305
0.444061 0.129028 0.000092
0.475983 0.126343 0.000000
0.507843 0.123291 0.000000
0.539398 0.120178 0.000000
0.570496 0.117126 0.000000
0.601044 0.114288 0.000000
0.630890 0.112030 0.000000
0.659912 0.110687 0.000000
0.688141 0.110504 0.000000
0.715515 0.111694 0.000000
0.742249 0.114380 0.000000
0.768280 0.118591 0.000000
0.793854 0.124084 0.000000
0.819092 0.130737 0.000000
0.844177 0.138031 0.000000
0.869385 0.145966 0.000000
0.057434 0.178528 0.008209
0.067871 0.175568 0.007233
0.078674 0.172699 0.006531
0.091736 0.170135 0.005341
0.107483 0.167664 0.004242
0.125305 0.165100 0.003387
0.144867 0.162354 0.002594
0.165375 0.159332 0.002686
0.186920 0.156281 0.002869
0.209259 0.153412 0.002441
0.235474 0.153931 0.002014
0.262482 0.154266 0.001740
0.290314 0.154449 0.001373
0.319031 0.154327 0.001129
0.348663 0.153809 0.000946
0.379120 0.152954 0.000549
0.410309 0.151672 0.000214
0.441864 0.150024 0.000061
0.473633 0.148041 0.000000
0.505341 0.145935 0.000000
0.536804 0.143738 0.000000
0.567780 0.141693 0.000000
0.598206 0.139923 0.000000
0.627991 0.138641 0.000000
0.656921 0.138184 0.000000
0.685089 0.138702 0.000000
0.712463 0.140289 0.000000
0.739105 0.143036 0.000000
0.765137 0.146973 0.000000
0.790680 0.152008 0.000000
0.815826 0.157898 0.000000
0.840881 0.164490 0.000000
0.866028 0.171478 0.000000
0.066345 0.201141 0.009369
0.075775 0.197968 0.008392
0.085785 0.194977 0.007446
0.097809 0.192261 0.006500
0.112671 0.189667 0.005310
0.129761 0.187042 0.003998
0.148621 0.184448 0.003143
0.168762 0.181610 0.002686
0.189789 0.178467 0.002777
0.211731 0.175446 0.002991
0.234680 0.172485 0.002472
0.261322 0.172913 0.002045
0.288940 0.173279 0.001831
0.317505 0.173462 0.001251
0.347015 0.173248 0.000977
0.377380 0.172760 0.000580
0.408356 0.172028 0.000183
0.439789 0.170929 0.000000
0.471375 0.169617 0.000000
0.502930 0.168213 0.000000
0.534241 0.166809 0.000000
0.565094 0.165558 0.000000
0.595398 0.164642 0.000000
0.625061 0.164185 0.000000
0.653900 0.164398 0.000000
0.681946 0.165466 0.000000
0.709259 0.167389 0.000000
0.735901 0.170227 0.000000
0.761871 0.174072 0.000000
0.787323 0.178772 0.000000
0.812469 0.184143 0.000000
0.837524 0.190063 0.000000
0.862610 0.196350 0.000000
0.074005 0.224579 0.010315
0.082794 0.221313 0.009460
0.092102 0.218140 0.008423
0.103668 0.215179 0.007477
0.117767 0.212402 0.006226
0.134186 0.209778 0.004761
0.152435 0.207092 0.003571
0.172302 0.204254 0.002594
0.193054 0.201263 0.002380
0.214569 0.198059 0.002686
0.237061 0.194977 0.002838
0.260498 0.191895 0.002380
0.287781 0.192413 0.001770
0.316193 0.192810 0.001556
0.345520 0.193054 0.000824
0.375763 0.192871 0.000366
0.406586 0.192535 0.000092
0.437775 0.191986 0.000000
0.469238 0.191254 0.000000
0.500580 0.190460 0.000000
0.531708 0.189728 0.000000
0.562439 0.189178 0.000000
0.592560 0.188965 0.000000
0.622070 0.189178 0.000000
0.650818 0.189911 0.000000
0.678802 0.191376 0.000000
0.705994 0.193573 0.000000
0.732574 0.196442 0.000000
0.758514 0.200195 0.000000
0.783905 0.204590 0.000000
0.809021 0.209595 0.000000
0.834076 0.215027 0.000000
0.859100 0.220825 0.000000
0.080383 0.249207 0.010895
0.088715 0.245667 0.010193
0.097687 0.242310 0.009216
0.108887 0.239136 0.008087
0.122559 0.236115 0.006958
0.138458 0.233307 0.005341
0.156189 0.230621 0.003906
0.175507 0.227814 0.002655
0.196106 0.224854 0.001709
0.217621 0.221741 0.001892
0.239716 0.218445 0.002350
0.262939 0.215271 0.002380
0.286926 0.212067 0.002014
0.315002 0.212646 0.001251
0.344208 0.213135 0.000854
0.374207 0.213409 0.000244
0.404846 0.213470 0.000000
0.435883 0.213409 0.000000
0.467102 0.213196 0.000000
0.498291 0.213013 0.000000
0.529205 0.212830 0.000000
0.559753 0.212860 0.000000
0.589722 0.213196 0.000000
0.619049 0.213928 0.000000
0.647705 0.215088 0.000000
0.675568 0.216797 0.000000
0.702698 0.219147 0.000000
0.729156 0.222107 0.000000
0.755035 0.225739 0.000000
0.780426 0.229919 0.000000
0.805511 0.234558 0.000000
0.830505 0.239594 0.000000
0.855530 0.244934 0.000000
0.085083 0.275116 0.010956
0.093231 0.271240 0.010284
0.102173 0.267609 0.009674
0.113098 0.264313 0.008484
0.126404 0.261139 0.007111
0.141998 0.258087 0.005554
0.159485 0.255249 0.003967
0.178406 0.252411 0.002289
0.198730 0.249451 0.001129
0.220215 0.246368 0.000702
0.242493 0.243103 0.000854
0.265350 0.239777 0.001160
0.289215 0.236481 0.001160
0.313965 0.233215 0.000854
0.342926 0.233887 0.000427
0.372742 0.234467 0.000183
0.403137 0.234955 0.000000
0.433960 0.235321 0.000000
0.464996 0.235565 0.000000
0.495941 0.235870 0.000000
0.526642 0.236237 0.000000
0.557007 0.236725 0.000000
0.586792 0.237457 0.000000
0.615967 0.238556 0.000000
0.644501 0.240051 0.000000
0.672241 0.242004 0.000000
0.699280 0.244354 0.000000
0.725708 0.247345 0.000000
0.751495 0.250885 0.000000
0.776855 0.254852 0.000000
0.801910 0.259247 0.000000
0.826904 0.263885 0.000000
0.851898 0.268768 0.000000
0.087616 0.302246 0.009857
0.096100 0.298004 0.009796
0.105103 0.294220 0.009338
0.115997 0.290680 0.008118
0.129242 0.287323 0.006714
0.144653 0.284119 0.005035
0.161896 0.281128 0.003326
0.180695 0.278168 0.001587
0.200958 0.275238 0.000519
0.222351 0.272186 0.000183
0.244720 0.268982 0.000092
0.267731 0.265594 0.000122
0.291443 0.262177 0.000214
0.316162 0.258820 0.000183
0.341644 0.255402 0.000092
0.371246 0.256287 0.000000
0.401459 0.257050 0.000000
0.432037 0.257812 0.000000
0.462799 0.258423 0.000000
0.493591 0.259094 0.000000
0.524048 0.259888 0.000000
0.554199 0.260742 0.000000
0.583832 0.261780 0.000000
0.612854 0.263123 0.000000
0.641235 0.264862 0.000000
0.668854 0.266937 0.000000
0.695801 0.269379 0.000000
0.722168 0.272339 0.000000
0.747925 0.275787 0.000000
0.773224 0.279510 0.000000
0.798248 0.283539 0.000000
0.823242 0.287933 0.000000
0.848236 0.292450 0.000000
0.088593 0.330200 0.007599
0.097534 0.325775 0.008148
0.106995 0.321686 0.007996
0.117798 0.317932 0.006989
0.131134 0.314423 0.005676
0.146423 0.311157 0.003906
0.163666 0.308014 0.002197
0.182373 0.305023 0.000763
0.202576 0.302002 0.000183
0.223999 0.299042 0.000000
0.246429 0.295929 0.000000
0.269684 0.292633 0.000000
0.293579 0.289124 0.000000
0.318268 0.285614 0.000000
0.343658 0.282166 0.000000
0.369720 0.278687 0.000000
0.399689 0.279724 0.000000
0.430084 0.280701 0.000000
0.460602 0.281708 0.000000
0.491119 0.282623 0.000000
0.521423 0.283661 0.000000
0.551331 0.284851 0.000000
0.580811 0.286133 0.000000
0.609680 0.287659 0.000000
0.637878 0.289490 0.000000
0.665436 0.291656 0.000000
0.692261 0.294128 0.000000
0.718536 0.297028 0.000000
0.744232 0.300293 0.000000
0.769531 0.303833 0.000000
0.794556 0.307617 0.000000
0.819519 0.311676 0.000000
0.844543 0.315887 0.000000
0.088959 0.358490 0.004517
0.098083 0.354034 0.005371
0.107971 0.349701 0.005798
0.119019 0.345734 0.005493
0.132385 0.342133 0.004211
0.147675 0.338776 0.002380
0.164886 0.335602 0.000946
0.183777 0.332520 0.000275
0.203857 0.329498 0.000000
0.225281 0.326538 0.000000
0.247833 0.323486 0.000000
0.271271 0.320282 0.000000
0.295502 0.316925 0.000000
0.320221 0.313354 0.000000
0.345642 0.309753 0.000000
0.371521 0.306244 0.000000
0.397949 0.302826 0.000000
0.428101 0.304016 0.000000
0.458405 0.305145 0.000000
0.488678 0.306366 0.000000
0.518738 0.307587 0.000000
0.548462 0.308929 0.000000
0.577728 0.310364 0.000000
0.606476 0.312073 0.000000
0.634552 0.313965 0.000000
0.661926 0.316162 0.000000
0.688690 0.318573 0.000000
0.714905 0.321381 0.000000
0.740540 0.324493 0.000000
0.765808 0.327789 0.000000
0.790802 0.331390 0.000000
0.815765 0.335114 0.000000
0.840790 0.339020 0.000000
0.089294 0.386871 0.001434
0.098389 0.382385 0.002106
0.108490 0.378021 0.002686
0.120148 0.373840 0.003143
0.133606 0.370117 0.002197
0.149017 0.366669 0.000946
0.166168 0.363495 0.000244
0.185028 0.360413 0.000000
0.205200 0.357361 0.000000
0.226624 0.354401 0.000000
0.249207 0.351410 0.000000
0.272766 0.348297 0.000000
0.297150 0.345062 0.000000
0.322113 0.341644 0.000000
0.347473 0.338013 0.000000
0.373322 0.334412 0.000000
0.399567 0.330933 0.000000
0.426147 0.327515 0.000000
0.456207 0.328857 0.000000
0.486267 0.330139 0.000000
0.516113 0.331543 0.000000
0.545593 0.333008 0.000000
0.574677 0.334534 0.000000
0.603210 0.336243 0.000000
0.631165 0.338196 0.000000
0.658447 0.340363 0.000000
0.685089 0.342773 0.000000
0.711212 0.345428 0.000000
0.736816 0.348358 0.000000
0.762054 0.351501 0.000000
0.787018 0.354797 0.000000
0.812012 0.358276 0.000000
0.837036 0.361847 0.000000
0.091003 0.415070 0.000000
0.099701 0.410645 0.000183
0.109833 0.406281 0.000397
0.121765 0.401978 0.000763
0.135437 0.398071 0.000488
0.150818 0.394592 0.000122
0.167938 0.391388 0.000000
0.186646 0.388306 0.000000
0.206787 0.385315 0.000000
0.228302 0.382355 0.000000
0.250824 0.379395 0.000000
0.274445 0.376404 0.000000
0.298859 0.373322 0.000000
0.323883 0.369995 0.000000
0.349396 0.366547 0.000000
0.375183 0.362915 0.000000
0.401184 0.359314 0.000000
0.427582 0.355896 0.000000
0.454102 0.352478 0.000000
0.483856 0.353912 0.000000
0.513489 0.355377 0.000000
0.542786 0.356873 0.000000
0.571655 0.358459 0.000000
0.600037 0.360229 0.000000
0.627777 0.362152 0.000000
0.654938 0.364258 0.000000
0.681519 0.366577 0.000000
0.707550 0.369141 0.000000
0.733032 0.371887 0.000000
0.758270 0.374878 0.000000
0.783234 0.377930 0.000000
0.808228 0.381134 0.000000
0.833282 0.384399 0.000000
0.095337 0.442810 0.000000
0.103363 0.438446 0.000000
0.113007 0.434143 0.000000
0.124634 0.429871 0.000000
0.138550 0.425751 0.000000
0.153687 0.422272 0.000000
0.170685 0.419098 0.000000
0.189209 0.416016 0.000000
0.209229 0.413055 0.000000
0.230591 0.410156 0.000000
0.253113 0.407227 0.000000
0.276550 0.404297 0.000000
0.300903 0.401276 0.000000
0.325867 0.398163 0.000000
0.351349 0.394867 0.000000
0.377167 0.391418 0.000000
0.403046 0.387787 0.000000
0.429047 0.384247 0.000000
0.455322 0.380829 0.000000
0.481628 0.377472 0.000000
0.510956 0.378998 0.000000
0.540039 0.380554 0.000000
0.568695 0.382111 0.000000
0.596863 0.383881 0.000000
0.624481 0.385773 0.000000
0.651489 0.387848 0.000000
0.677948 0.390076 0.000000
0.703918 0.392456 0.000000
0.729370 0.395050 0.000000
0.754517 0.397797 0.000000
0.779510 0.400696 0.000000
0.804474 0.403625 0.000000
0.829590 0.406677 0.000000
0.102783 0.469940 0.000000
0.110138 0.465607 0.000000
0.118896 0.461487 0.000000
0.129883 0.457245 0.000000
0.143494 0.453125 0.000000
0.158386 0.449585 0.000000
0.174896 0.446381 0.000000
0.193115 0.443298 0.000000
0.212891 0.440399 0.000000
0.233917 0.437561 0.000000
0.256165 0.434692 0.000000
0.279358 0.431824 0.000000
0.303436 0.428894 0.000000
0.328217 0.425903 0.000000
0.353516 0.422791 0.000000
0.379242 0.419495 0.000000
0.405090 0.416016 0.000000
0.430878 0.412415 0.000000
0.456726 0.408997 0.000000
0.482666 0.405609 0.000000
0.508636 0.402374 0.000000
0.537476 0.403931 0.000000
0.565887 0.405487 0.000000
0.593781 0.407166 0.000000
0.621246 0.409058 0.000000
0.648102 0.411041 0.000000
0.674469 0.413147 0.000000
0.700287 0.415405 0.000000
0.725739 0.417816 0.000000
0.750824 0.420349 0.000000
0.775818 0.423035 0.000000
0.800781 0.425781 0.000000
0.825928 0.428589 0.000000
0.114014 0.496338 0.000000
0.120300 0.492126 0.000000
0.128021 0.488068 0.000000
0.138153 0.483948 0.000000
0.150818 0.479919 0.000000
0.165100 0.476318 0.000000
0.181000 0.473114 0.000000
0.198578 0.470093 0.000000
0.217834 0.467194 0.000000
0.238464 0.464417 0.000000
0.260284 0.461609 0.000000
0.283081 0.458801 0.000000
0.306824 0.455994 0.000000
0.331207 0.453094 0.000000
0.356171 0.450104 0.000000
0.381592 0.446991 0.000000
0.407227 0.443665 0.000000
0.432922 0.440216 0.000000
0.458466 0.436707 0.000000
0.484039 0.433350 0.000000
0.509552 0.430054 0.000000
0.535034 0.426941 0.000000
0.563232 0.428467 0.000000
0.590912 0.430115 0.000000
0.618134 0.431854 0.000000
0.644806 0.433716 0.000000
0.671082 0.435791 0.000000
0.696808 0.437897 0.000000
0.722137 0.440094 0.000000
0.747223 0.442444 0.000000
0.772156 0.444946 0.000000
0.797180 0.447479 0.000000
0.822357 0.450012 0.000000
0.128571 0.521851 0.000000
0.133545 0.517853 0.000000
0.140167 0.513794 0.000000
0.149109 0.509888 0.000000
0.160706 0.505920 0.000000
0.173981 0.502380 0.000000
0.189056 0.499207 0.000000
0.205841 0.496277 0.000000
0.224365 0.493439 0.000000
0.244293 0.490631 0.000000
0.265533 0.487946 0.000000
0.287842 0.485199 0.000000
0.311035 0.482483 0.000000
0.335022 0.479675 0.000000
0.359528 0.476746 0.000000
0.384521 0.473755 0.000000
0.409760 0.470673 0.000000
0.435150 0.467346 0.000000
0.460480 0.463928 0.000000
0.485626 0.460510 0.000000
0.510773 0.457245 0.000000
0.535828 0.454071 0.000000
0.560760 0.451080 0.000000
0.588226 0.452576 0.000000
0.615234 0.454254 0.000000
0.641754 0.456024 0.000000
0.667755 0.457855 0.000000
0.693420 0.459839 0.000000
0.718689 0.461945 0.000000
0.743774 0.464142 0.000000
0.768677 0.466431 0.000000
0.793671 0.468658 0.000000
0.818878 0.470978 0.000000
0.145599 0.546692 0.000000
0.149323 0.542755 0.000000
0.154938 0.538849 0.000000
0.162689 0.535004 0.000000
0.172913 0.531189 0.000000
0.184937 0.527802 0.000000
0.198975 0.524689 0.000000
0.214813 0.521790 0.000000
0.232483 0.518982 0.000000
0.251648 0.516235 0.000000
0.272125 0.513580 0.000000
0.293701 0.510895 0.000000
0.316254 0.508209 0.000000
0.339600 0.505493 0.000000
0.363586 0.502716 0.000000
0.388031 0.499847 0.000000
0.412811 0.496857 0.000000
0.437744 0.493713 0.000000
0.462799 0.490479 0.000000
0.487671 0.487122 0.000000
0.512299 0.483765 0.000000
0.536957 0.480591 0.000000
0.561401 0.477539 0.000000
0.585754 0.474609 0.000000
0.612488 0.476105 0.000000
0.638824 0.477783 0.000000
0.664703 0.479523 0.000000
0.690216 0.481384 0.000000
0.715393 0.483337 0.000000
0.740417 0.485352 0.000000
0.765320 0.487427 0.000000
0.790314 0.489502 0.000000
0.815552 0.491608 0.000000
0.164276 0.570740 0.000000
0.167053 0.566925 0.000000
0.171692 0.563141 0.000000
0.178192 0.559357 0.000000
0.187042 0.555756 0.000000
0.197784 0.552521 0.000000
0.210602 0.549469 0.000000
0.225372 0.546600 0.000000
0.242035 0.543823 0.000000
0.260254 0.541107 0.000000
0.279938 0.538452 0.000000
0.300720 0.535858 0.000000
0.322479 0.533234 0.000000
0.345093 0.530579 0.000000
0.368378 0.527863 0.000000
0.392212 0.525055 0.000000
0.416382 0.522186 0.000000
0.440826 0.519226 0.000000
0.465424 0.516144 0.000000
0.489990 0.513000 0.000000
0.514282 0.509674 0.000000
0.538391 0.506439 0.000000
0.562469 0.503387 0.000000
0.586304 0.500397 0.000000
0.610016 0.497467 0.000000
0.636139 0.499084 0.000000
0.661804 0.500671 0.000000
0.687256 0.502472 0.000000
0.712341 0.504211 0.000000
0.737213 0.506042 0.000000
0.762115 0.507996 0.000000
0.787140 0.509857 0.000000
0.812439 0.511841 0.000000
0.183899 0.594177 0.000000
0.185974 0.590363 0.000000
0.189575 0.586670 0.000000
0.194977 0.583069 0.000000
0.202454 0.579681 0.000000
0.211975 0.576569 0.000000
0.223694 0.573578 0.000000
0.237457 0.570740 0.000000
0.252991 0.567963 0.000000
0.270172 0.565247 0.000000
0.288879 0.562683 0.000000
0.308746 0.560120 0.000000
0.329651 0.557556 0.000000
0.351471 0.554932 0.000000
0.373993 0.552277 0.000000
0.397125 0.549591 0.000000
0.420685 0.546844 0.000000
0.444489 0.543976 0.000000
0.468536 0.541016 0.000000
0.492584 0.537964 0.000000
0.516541 0.534851 0.000000
0.540314 0.531677 0.000000
0.563873 0.528473 0.000000
0.587341 0.525452 0.000000
0.610596 0.522614 0.000000
0.633698 0.519836 0.000000
0.659241 0.521362 0.000000
0.684448 0.522919 0.000000
0.709473 0.524597 0.000000
0.734283 0.526306 0.000000
0.759125 0.528137 0.000000
0.784149 0.529846 0.000000
0.809448 0.531647 0.000000
0.203857 0.617126 0.000000
0.205109 0.613342 0.000000
0.207947 0.609802 0.000000
0.212219 0.606445 0.000000
0.218689 0.603210 0.000000
0.227112 0.600159 0.000000
0.237854 0.597137 0.000000
0.250519 0.594269 0.000000
0.265015 0.591583 0.000000
0.281189 0.588837 0.000000
0.298798 0.586243 0.000000
0.317719 0.583710 0.000000
0.337677 0.581146 0.000000
0.358643 0.578613 0.000000
0.380371 0.576019 0.000000
0.402740 0.573395 0.000000
0.425507 0.570740 0.000000
0.448700 0.567993 0.000000
0.472137 0.565155 0.000000
0.495697 0.562256 0.000000
0.519196 0.559235 0.000000
0.542542 0.556152 0.000000
0.565704 0.553070 0.000000
0.588684 0.549988 0.000000
0.611542 0.547028 0.000000
