滤镜资源/Professional Luts Collection/Lutify.me Professional/Skintone/Garnet Hessonite.cube
# Created by: Lutify.me
# Copyright: (c) Copyright Lutify.me 2015
# Website: https://lutify.me
#LUT size
LUT_3D_SIZE 5
#LUT data points
0.000000 0.000000 0.000000
0.199463 0.000000 0.000610
0.433411 0.000000 0.001465
0.681793 0.000000 0.000610
0.892090 0.000000 0.000000
0.048218 0.156403 0.006622
0.184418 0.134674 0.002258
0.412384 0.131317 0.000305
0.659912 0.110687 0.000000
0.869385 0.145966 0.000000
0.088959 0.358490 0.004517
0.203857 0.329498 0.000000
0.397949 0.302826 0.000000
0.634552 0.313965 0.000000
0.840790 0.339020 0.000000
0.164276 0.570740 0.000000
0.242035 0.543823 0.000000
0.416382 0.522186 0.000000
0.610016 0.497467 0.000000
0.812439 0.511841 0.000000
0.300873 0.755951 0.003906
0.338898 0.729126 0.000000
0.460571 0.706940 0.000000
0.621674 0.685425 0.000000
0.793640 0.663391 0.000000
0.025452 0.000000 0.151764
0.119751 0.000397 0.071472
0.327911 0.000000 0.055573
0.576874 0.000000 0.040375
0.801788 0.000000 0.020294
0.057587 0.124451 0.097443
0.258911 0.219360 0.178192
0.487030 0.218384 0.160339
0.714722 0.224945 0.140442
0.915375 0.261993 0.115051
0.109070 0.308441 0.106232
0.276581 0.432404 0.184875
0.464905 0.405731 0.135742
0.683502 0.418488 0.109192
0.884949 0.438507 0.074524
0.149933 0.526642 0.099823
0.333679 0.630493 0.199524
0.485931 0.608795 0.129517
0.660797 0.584686 0.068695
0.860474 0.595062 0.034363
0.282898 0.714172 0.121246
0.402405 0.813293 0.242981
0.516541 0.790649 0.171234
0.669983 0.768372 0.094421
0.843597 0.745117 0.031372
0.015533 0.000000 0.358643
0.103882 0.000000 0.248901
0.248444 0.000000 0.158752
0.477112 0.000000 0.140289
0.713562 0.000000 0.125244
0.059357 0.124573 0.290131
0.213257 0.215607 0.417480
0.399506 0.224121 0.289185
0.627350 0.227020 0.267212
0.831451 0.252319 0.245850
0.118073 0.272369 0.219788
0.305481 0.390778 0.335724
0.537292 0.513702 0.466858
0.739288 0.522064 0.442047
0.943298 0.532837 0.419678
0.137482 0.492706 0.224396
0.348785 0.592377 0.360657
0.553711 0.695801 0.492676
0.714661 0.674744 0.432556
0.917297 0.683014 0.408905
0.275116 0.674011 0.265625
0.411499 0.772827 0.398102
0.577332 0.872192 0.524872
0.724548 0.854004 0.464783
0.896515 0.831696 0.409088
0.000000 0.000000 0.632324
0.000000 0.000000 0.514832
0.209503 0.000000 0.378143
0.389618 0.000000 0.261658
0.629089 0.000000 0.236664
0.000000 0.100433 0.560303
0.057220 0.201080 0.682922
0.349731 0.203369 0.561981
0.547485 0.215240 0.431000
0.756531 0.238800 0.400818
0.011108 0.281830 0.475250
0.215179 0.403961 0.598511
0.472778 0.515686 0.712952
0.660248 0.522888 0.596344
0.855347 0.536469 0.573395
0.092712 0.457153 0.397461
0.324646 0.569580 0.523804
0.558472 0.668915 0.638092
0.769318 0.769318 0.751404
0.970154 0.775177 0.730194
0.218903 0.654968 0.411346
0.392181 0.750244 0.538330
0.582245 0.845673 0.654999
0.789551 0.935547 0.774689
0.947876 0.917023 0.722107
0.000000 0.000000 0.870941
0.000000 0.000000 0.766907
0.014008 0.000000 0.656525
0.336365 0.000000 0.523895
0.540924 0.000000 0.398163
0.000000 0.036316 0.805573
0.000000 0.176544 0.921478
0.258636 0.177765 0.812286
0.496368 0.194946 0.686859
0.679260 0.208618 0.572815
0.000000 0.273743 0.729919
0.078888 0.400421 0.840118
0.378540 0.512177 0.953186
0.596619 0.509705 0.844696
0.778961 0.525299 0.722015
0.000000 0.468689 0.647034
0.249695 0.579010 0.757416
0.472046 0.675873 0.874146
0.696472 0.770935 0.978943
0.890350 0.772766 0.874481
0.138184 0.623505 0.583740
0.358887 0.719849 0.693268
0.558411 0.820221 0.805939
0.784332 0.913239 0.910950
0.999908 1.000000 0.999847
