滤镜资源/Professional Luts Collection/Lutify.me Professional/Skintone/Garnet Hessonite.cube
# Created by: Lutify.me
# Copyright: (c) Copyright Lutify.me 2015
# Website: https://lutify.me
#LUT size
LUT_3D_SIZE 9
#LUT data points
0.000000 0.000000 0.000000
0.094910 0.000031 0.000397
0.199463 0.000000 0.000610
0.310577 0.000000 0.001099
0.433411 0.000000 0.001465
0.561493 0.000000 0.001343
0.681793 0.000000 0.000610
0.790009 0.000000 0.000000
0.892090 0.000000 0.000000
0.015869 0.071564 0.002350
0.088593 0.061920 0.000824
0.190399 0.063110 0.000458
0.300537 0.059601 0.000671
0.422211 0.043854 0.000610
0.549866 0.009735 0.000275
0.670471 0.000000 0.000000
0.779083 0.000031 0.000000
0.880951 0.029053 0.000000
0.048218 0.156403 0.006622
0.102448 0.146027 0.003387
0.184418 0.134674 0.002258
0.291992 0.135712 0.001373
0.412384 0.131317 0.000305
0.539398 0.120178 0.000000
0.659912 0.110687 0.000000
0.768280 0.118591 0.000000
0.869385 0.145966 0.000000
0.080383 0.249207 0.010895
0.122559 0.236115 0.006958
0.196106 0.224854 0.001709
0.286926 0.212067 0.002014
0.404846 0.213470 0.000000
0.529205 0.212830 0.000000
0.647705 0.215088 0.000000
0.755035 0.225739 0.000000
0.855530 0.244934 0.000000
0.088959 0.358490 0.004517
0.132385 0.342133 0.004211
0.203857 0.329498 0.000000
0.295502 0.316925 0.000000
0.397949 0.302826 0.000000
0.518738 0.307587 0.000000
0.634552 0.313965 0.000000
0.740540 0.324493 0.000000
0.840790 0.339020 0.000000
0.102783 0.469940 0.000000
0.143494 0.453125 0.000000
0.212891 0.440399 0.000000
0.303436 0.428894 0.000000
0.405090 0.416016 0.000000
0.508636 0.402374 0.000000
0.621246 0.409058 0.000000
0.725739 0.417816 0.000000
0.825928 0.428589 0.000000
0.164276 0.570740 0.000000
0.187042 0.555756 0.000000
0.242035 0.543823 0.000000
0.322479 0.533234 0.000000
0.416382 0.522186 0.000000
0.514282 0.509674 0.000000
0.610016 0.497467 0.000000
0.712341 0.504211 0.000000
0.812439 0.511841 0.000000
0.240875 0.662811 0.000000
0.251434 0.649231 0.000000
0.290741 0.637451 0.000000
0.355652 0.626953 0.000000
0.436829 0.616821 0.000000
0.525299 0.605988 0.000000
0.614380 0.594269 0.000000
0.702179 0.583405 0.000000
0.801697 0.588989 0.000000
0.300873 0.755951 0.003906
0.308716 0.741882 0.000000
0.338898 0.729126 0.000000
0.391510 0.717621 0.000000
0.460571 0.706940 0.000000
0.539062 0.696411 0.000000
0.621674 0.685425 0.000000
0.705811 0.673981 0.000000
0.793640 0.663391 0.000000
0.008026 0.001099 0.069824
0.058228 0.001190 0.029480
0.155273 0.001526 0.023315
0.261353 0.000000 0.018250
0.377777 0.000000 0.012238
0.505188 0.000000 0.005768
0.629883 0.000000 0.001251
0.743225 0.000000 0.000000
0.846680 0.000000 0.000000
0.023224 0.057373 0.041412
0.123993 0.101837 0.080414
0.222595 0.101807 0.072388
0.332550 0.098846 0.064850
0.455292 0.087097 0.056671
0.580719 0.064758 0.047424
0.697327 0.049072 0.036469
0.802673 0.064758 0.022400
0.904083 0.106689 0.005585
0.052795 0.137970 0.048035
0.138000 0.186890 0.084656
0.216278 0.174896 0.065460
0.324249 0.175812 0.056244
0.445526 0.172791 0.046631
0.569641 0.167542 0.035431
0.685638 0.167755 0.021820
0.790436 0.181244 0.007568
0.891083 0.205322 0.000031
0.083344 0.227356 0.053314
0.153107 0.283234 0.087158
0.226471 0.270813 0.064117
0.318512 0.256836 0.046082
0.437012 0.259949 0.033295
0.558350 0.262756 0.018829
0.672272 0.269012 0.004822
0.776184 0.281586 0.000000
0.876556 0.299103 0.000000
0.096680 0.332886 0.052460
0.158936 0.393921 0.083282
0.232666 0.380707 0.056488
0.326294 0.367645 0.027893
0.428741 0.353149 0.011444
0.546600 0.358795 0.001282
0.658142 0.366150 0.000000
0.761108 0.376648 0.000000
0.861603 0.389435 0.000000
0.103760 0.445312 0.040466
0.181335 0.501434 0.077606
0.248230 0.488983 0.044220
0.336975 0.477325 0.006836
0.436188 0.464661 0.000000
0.536346 0.451141 0.000000
0.644775 0.457611 0.000000
0.746490 0.465698 0.000000
0.847382 0.474731 0.000000
0.152740 0.548828 0.029999
0.231964 0.599121 0.075714
0.283813 0.587280 0.035583
0.359955 0.576538 0.000671
0.449341 0.565552 0.000000
0.542786 0.553497 0.000000
0.634491 0.541504 0.000000
0.734283 0.547485 0.000000
0.835266 0.553894 0.000000
0.227753 0.642273 0.036682
0.291046 0.690765 0.086456
0.330353 0.678406 0.045197
0.392517 0.667389 0.002197
0.469604 0.656830 0.000000
0.553772 0.645996 0.000000
0.639465 0.634460 0.000000
0.725494 0.623596 0.000000
0.825928 0.628601 0.000000
0.290741 0.735077 0.056458
0.338470 0.783600 0.114288
0.369904 0.770660 0.077423
0.421753 0.758942 0.027161
0.488525 0.747955 0.000000
0.564423 0.737152 0.000000
0.645264 0.726196 0.000000
0.729523 0.714783 0.000000
0.818237 0.703705 0.000000
0.025452 0.000000 0.151764
0.052155 0.000031 0.112000
0.119751 0.000397 0.071472
0.218903 0.000458 0.062561
0.327911 0.000000 0.055573
0.450226 0.000000 0.048492
0.576874 0.000000 0.040375
0.695190 0.000000 0.030975
0.801788 0.000000 0.020294
0.026550 0.059509 0.125061
0.118896 0.102448 0.162567
0.185150 0.104858 0.122650
0.287201 0.103912 0.115204
0.403625 0.096771 0.107788
0.529114 0.078369 0.099579
0.649841 0.056396 0.090240
0.758453 0.058685 0.080048
0.859497 0.092712 0.065796
0.057587 0.124451 0.097443
0.150940 0.168823 0.138123
0.258911 0.219360 0.178192
0.367645 0.219696 0.169159
0.487030 0.218384 0.160339
0.605286 0.218384 0.150940
0.714722 0.224945 0.140442
0.815308 0.240723 0.128448
0.915375 0.261993 0.115051
0.091278 0.208130 0.103058
0.167267 0.260437 0.142609
0.266663 0.322449 0.181580
0.358826 0.308136 0.160095
0.475647 0.311920 0.148987
0.591644 0.316437 0.137695
0.699524 0.324432 0.125732
0.799377 0.337189 0.112732
0.899811 0.352295 0.097443
0.109070 0.308441 0.106232
0.175323 0.368866 0.143860
0.276581 0.432404 0.184875
0.365936 0.420258 0.157074
0.464905 0.405731 0.135742
0.577515 0.411255 0.122955
0.683502 0.418488 0.109192
0.783539 0.428040 0.093384
0.884949 0.438507 0.074524
0.114502 0.420654 0.103088
0.190186 0.478851 0.142639
0.297943 0.536346 0.189331
0.379181 0.525391 0.157043
0.472382 0.512970 0.127686
0.566986 0.499512 0.104370
0.670288 0.505219 0.089081
0.769623 0.512177 0.070679
0.871521 0.519348 0.050018
0.149933 0.526642 0.099823
0.231232 0.579163 0.145172
0.333679 0.630493 0.199524
0.402893 0.620056 0.164124
0.485931 0.608795 0.129517
0.573608 0.596710 0.097534
0.660797 0.584686 0.068695
0.758606 0.589813 0.051147
0.860474 0.595062 0.034363
0.218536 0.621826 0.106293
0.287292 0.671143 0.157349
0.371643 0.721497 0.217438
0.430054 0.710327 0.181183
0.502838 0.698944 0.145050
0.582733 0.687561 0.107727
0.665558 0.675812 0.071869
0.750610 0.664337 0.042084
0.851562 0.669159 0.028351
0.282898 0.714172 0.121246
0.334991 0.763763 0.179169
0.402405 0.813293 0.242981
0.452087 0.802032 0.207001
0.516541 0.790649 0.171234
0.590118 0.779572 0.133820
0.669983 0.768372 0.094421
0.755005 0.756653 0.058594
0.843597 0.745117 0.031372
0.047302 0.000000 0.240601
0.051910 0.000000 0.198364
0.111908 0.000000 0.153931
0.183014 0.000000 0.114746
0.285767 0.000000 0.104889
0.400421 0.000000 0.097626
0.525330 0.000000 0.090576
0.646637 0.000000 0.082703
0.756897 0.000000 0.073517
0.047028 0.052734 0.215240
0.107056 0.097534 0.263336
0.180328 0.101898 0.209137
0.251007 0.104156 0.166962
0.358276 0.101685 0.158447
0.479889 0.088257 0.150482
0.603424 0.064148 0.141602
0.715973 0.054047 0.132874
0.817963 0.077850 0.122925
0.060089 0.129333 0.181366
0.140137 0.174744 0.227081
0.250641 0.221863 0.278473
0.325897 0.223694 0.228973
0.440338 0.222870 0.219299
0.558716 0.221893 0.209717
0.671143 0.225311 0.199768
0.774231 0.237030 0.189056
0.873230 0.256165 0.177551
0.092804 0.194366 0.154572
0.180847 0.242218 0.198792
0.283203 0.300354 0.250305
0.403198 0.364166 0.307861
0.516693 0.367432 0.295105
0.626617 0.372284 0.283203
0.729187 0.380280 0.271545
0.827515 0.391388 0.260101
0.929138 0.403259 0.248718
0.118774 0.288879 0.157898
0.192139 0.346375 0.204559
0.293243 0.409210 0.258179
0.409393 0.473297 0.316559
0.503601 0.459686 0.287018
0.610840 0.464600 0.273834
0.712524 0.470825 0.261353
0.811401 0.478455 0.249481
0.913879 0.486237 0.238068
0.119720 0.400940 0.156738
0.203979 0.456665 0.209808
0.310822 0.514618 0.267273
0.424500 0.571564 0.329285
0.509857 0.560974 0.295441
0.599182 0.548065 0.266998
0.698364 0.552979 0.254364
0.797150 0.558441 0.242218
0.900177 0.563690 0.230774
0.149536 0.506897 0.161591
0.238403 0.557983 0.219452
0.341644 0.609924 0.280426
0.446747 0.661652 0.345673
0.521759 0.651855 0.310913
0.604401 0.640900 0.277985
0.688568 0.628784 0.250214
0.786285 0.633209 0.238647
0.888702 0.637695 0.227448
0.213837 0.601868 0.174866
0.289307 0.650360 0.234283
0.377899 0.700165 0.298706
0.467377 0.751953 0.365479
0.534058 0.741669 0.331116
0.610107 0.731415 0.296295
0.691925 0.720032 0.264648
0.777863 0.707916 0.237549
0.878662 0.712555 0.227325
0.276825 0.693909 0.190002
0.335968 0.742157 0.254272
0.407532 0.791931 0.321350
0.485931 0.841400 0.388550
0.545837 0.831268 0.355316
0.616669 0.821686 0.320465
0.696594 0.811462 0.286346
0.782440 0.799896 0.256378
0.870209 0.787964 0.230377
0.015533 0.000000 0.358643
0.040710 0.000000 0.303223
0.103882 0.000000 0.248901
0.173492 0.000000 0.199188
0.248444 0.000000 0.158752
0.356567 0.000000 0.148132
0.477112 0.000000 0.140289
0.599670 0.000000 0.132935
0.713562 0.000000 0.125244
0.035980 0.039978 0.326752
0.054932 0.086945 0.390747
0.157318 0.090820 0.327911
0.242004 0.098480 0.265259
0.320374 0.099609 0.216309
0.435089 0.092560 0.205505
0.557587 0.071686 0.195953
0.674286 0.051239 0.186646
0.778839 0.061859 0.177612
0.059357 0.124573 0.290131
0.110352 0.170319 0.350952
0.213257 0.215607 0.417480
0.315948 0.220459 0.346497
0.399506 0.224121 0.289185
0.514160 0.224854 0.277679
0.627350 0.227020 0.267212
0.732544 0.235748 0.256744
0.831451 0.252319 0.245850
0.087769 0.200928 0.250244
0.156769 0.252075 0.307526
0.257385 0.308655 0.371429
0.384430 0.367279 0.436371
0.472290 0.371246 0.375122
0.583069 0.374908 0.362610
0.687836 0.381287 0.350403
0.786652 0.390991 0.338531
0.886383 0.402405 0.327057
0.118073 0.272369 0.219788
0.194427 0.330933 0.273590
0.305481 0.390778 0.335724
0.423065 0.452362 0.402618
0.537292 0.513702 0.466858
0.640167 0.517365 0.454041
0.739288 0.522064 0.442047
0.839600 0.527435 0.430573
0.943298 0.532837 0.419678
0.125732 0.382111 0.221405
0.207306 0.440796 0.279266
0.321747 0.496368 0.346313
0.435852 0.552277 0.414429
0.542847 0.608002 0.478485
0.627411 0.596680 0.448517
0.724976 0.600769 0.435791
0.825989 0.604645 0.423859
0.929962 0.608398 0.412720
0.137482 0.492706 0.224396
0.237518 0.542969 0.290771
0.348785 0.592377 0.360657
0.455200 0.643280 0.428589
0.553711 0.695801 0.492676
0.630890 0.686523 0.461090
0.714661 0.674744 0.432556
0.814514 0.678864 0.420471
0.917297 0.683014 0.408905
0.202759 0.587219 0.241364
0.288574 0.633484 0.309357
0.382935 0.681580 0.378418
0.474792 0.732819 0.445099
0.563629 0.785522 0.507996
0.635529 0.776184 0.477661
0.717499 0.766174 0.446350
0.804962 0.753998 0.419006
0.905487 0.758453 0.407837
0.275116 0.674011 0.265625
0.337280 0.722595 0.331024
0.411499 0.772827 0.398102
0.491333 0.823120 0.463379
0.577332 0.872192 0.524872
0.645874 0.862854 0.496094
0.724548 0.854004 0.464783
0.809998 0.843506 0.435089
0.896515 0.831696 0.409088
0.000000 0.000000 0.497986
0.000000 0.000000 0.436157
0.057526 0.000000 0.373077
0.155334 0.000000 0.309357
0.236298 0.000000 0.252350
0.316925 0.000000 0.205933
0.432434 0.000000 0.193939
0.554230 0.000000 0.185028
0.670898 0.000000 0.177002
0.000000 0.016235 0.462402
0.000000 0.070129 0.529297
0.084381 0.073334 0.468018
0.211517 0.081299 0.398560
0.306183 0.090057 0.330688
0.393982 0.087891 0.274994
0.513855 0.073120 0.261292
0.632874 0.048096 0.249634
0.740845 0.046875 0.239258
0.002167 0.114349 0.423004
0.013794 0.162476 0.489746
0.150208 0.209015 0.556885
0.277924 0.208923 0.492401
0.384430 0.217133 0.419434
0.474792 0.220551 0.357788
0.587494 0.224670 0.343353
0.693726 0.232483 0.331451
0.792206 0.247742 0.320404
0.051331 0.198517 0.379822
0.101685 0.250488 0.446045
0.210175 0.306702 0.513153
0.342255 0.364502 0.576355
0.455170 0.367767 0.508087
0.542694 0.374481 0.445953
0.646362 0.382233 0.432648
0.745087 0.391479 0.420807
0.843018 0.402466 0.409210
0.095886 0.280518 0.336945
0.157013 0.340668 0.400848
0.264435 0.402649 0.465820
0.387939 0.462311 0.529419
0.510864 0.516510 0.590485
0.598083 0.520508 0.532104
0.697296 0.524628 0.520630
0.796356 0.529602 0.509430
0.899292 0.534668 0.498688
0.113953 0.363647 0.302307
0.194885 0.425385 0.364624
0.313599 0.484711 0.429657
0.438171 0.539825 0.494019
0.552979 0.590881 0.556946
0.653564 0.644226 0.613892
0.752289 0.646973 0.602905
0.855194 0.649597 0.592712
0.957947 0.652863 0.582886
0.122772 0.476746 0.303619
0.221588 0.532013 0.369476
0.341309 0.582947 0.437592
0.458221 0.630707 0.504425
0.562958 0.678741 0.567627
0.658051 0.731995 0.624542
0.741028 0.721832 0.598206
0.842468 0.725647 0.587067
0.944153 0.729462 0.576569
0.177277 0.576721 0.314026
0.271729 0.624390 0.383148
0.377075 0.670807 0.452240
0.478058 0.718323 0.518036
0.571960 0.768250 0.579346
0.666321 0.820129 0.636047
0.745239 0.811554 0.608856
0.832092 0.800293 0.583740
0.931213 0.804291 0.573059
0.255768 0.663177 0.335297
0.325439 0.710815 0.402649
0.407257 0.759613 0.469086
0.493225 0.808502 0.532440
0.583557 0.856079 0.592438
0.681213 0.903656 0.649017
0.755707 0.895142 0.622650
0.837921 0.886139 0.595093
0.922333 0.874756 0.571442
0.000000 0.000000 0.632324
0.000000 0.000000 0.575623
0.000000 0.000000 0.514832
0.090179 0.000000 0.447723
0.209503 0.000000 0.378143
0.300751 0.000000 0.315399
0.389618 0.000000 0.261658
0.510498 0.000000 0.247467
0.629089 0.000000 0.236664
0.000000 0.000122 0.597778
0.000000 0.045959 0.657440
0.000000 0.048279 0.605042
0.140900 0.054108 0.542786
0.272278 0.065796 0.471680
0.374695 0.073364 0.402435
0.469971 0.063995 0.342194
0.590454 0.040710 0.326111
0.702728 0.026337 0.312622
0.000000 0.100433 0.560303
0.000000 0.152252 0.622009
0.057220 0.201080 0.682922
0.223663 0.198761 0.628510
0.349731 0.203369 0.561981
0.454590 0.212463 0.492584
0.547485 0.215240 0.431000
0.656616 0.223907 0.414276
0.756531 0.238800 0.400818
0.000000 0.191528 0.519684
0.000854 0.246094 0.582214
0.150696 0.303589 0.642914
0.300568 0.362518 0.699738
0.417480 0.360626 0.643280
0.522675 0.369141 0.576172
0.609619 0.375610 0.517090
0.708710 0.387451 0.501801
0.803802 0.400024 0.489594
0.011108 0.281830 0.475250
0.085052 0.342773 0.537964
0.215179 0.403961 0.598511
0.347534 0.462189 0.656403
0.472778 0.515686 0.712952
0.576691 0.515869 0.654175
0.660248 0.522888 0.596344
0.755615 0.530457 0.583771
0.855347 0.536469 0.573395
0.070618 0.371735 0.432678
0.152100 0.433594 0.496094
0.274353 0.493011 0.556610
0.399475 0.548401 0.614105
0.515106 0.599548 0.670532
0.622681 0.646545 0.729034
0.711731 0.649231 0.672058
0.811615 0.652527 0.661652
0.914612 0.655365 0.651794
0.092712 0.457153 0.397461
0.198517 0.515381 0.461823
0.324646 0.569580 0.523804
0.446869 0.620117 0.582336
0.558472 0.668915 0.638092
0.663971 0.718109 0.693665
0.769318 0.769318 0.751404
0.870728 0.772034 0.740448
0.970154 0.775177 0.730194
0.136841 0.564056 0.399750
0.242828 0.614563 0.465424
0.358765 0.662109 0.528076
0.468781 0.709320 0.587311
0.570557 0.757874 0.644440
0.673248 0.806091 0.702972
0.777008 0.854858 0.762573
0.859619 0.845490 0.735931
0.957001 0.848846 0.724823
0.218903 0.654968 0.411346
0.300079 0.702271 0.476471
0.392181 0.750244 0.538330
0.485565 0.798706 0.597076
0.582245 0.845673 0.654999
0.686920 0.890076 0.715057
0.789551 0.935547 0.774689
0.865814 0.927551 0.747589
0.947876 0.917023 0.722107
0.000000 0.000000 0.752472
0.000000 0.000000 0.701172
0.000000 0.000000 0.648102
0.000000 0.000000 0.589081
0.143280 0.000000 0.522034
0.268616 0.000000 0.451538
0.369232 0.000000 0.385651
0.465607 0.000000 0.326660
0.587006 0.000000 0.310486
0.000000 0.000000 0.720825
0.000000 0.004669 0.776764
0.000000 0.013519 0.727081
0.018494 0.018951 0.673706
0.215912 0.027252 0.611359
0.341705 0.040283 0.542511
0.446686 0.042847 0.476074
0.544586 0.024200 0.415131
0.661957 0.004578 0.397369
0.000000 0.078918 0.685913
0.000000 0.136749 0.742615
0.000000 0.190582 0.801025
0.163513 0.188629 0.749512
0.306824 0.190552 0.691284
0.423859 0.198608 0.626373
0.524231 0.207672 0.562469
0.615753 0.210510 0.503754
0.720428 0.224823 0.486115
0.000000 0.182068 0.649353
0.000000 0.239777 0.705292
0.073303 0.299469 0.761902
0.252533 0.359802 0.819183
0.375885 0.356537 0.765625
0.490051 0.360718 0.703461
0.587036 0.371216 0.640106
0.671692 0.377533 0.584808
0.768555 0.392059 0.568420
0.000000 0.279236 0.608185
0.000916 0.341766 0.663727
0.163879 0.402985 0.719360
0.305084 0.460785 0.776459
0.428772 0.514099 0.835083
0.535889 0.510986 0.780579
0.636871 0.517609 0.715515
0.719879 0.524170 0.659302
0.817627 0.533630 0.644623
0.000000 0.375610 0.564758
0.088226 0.437408 0.621887
0.231079 0.495972 0.677338
0.358307 0.549927 0.733704
0.472565 0.599243 0.792999
0.580353 0.645294 0.852844
0.682556 0.643036 0.796692
0.773804 0.649353 0.734955
0.874420 0.655792 0.721161
0.042816 0.464355 0.526825
0.163940 0.521942 0.584900
0.292694 0.575806 0.640381
0.412476 0.626190 0.695496
0.519623 0.674835 0.752869
0.622223 0.723785 0.811584
0.733032 0.771301 0.869629
0.830231 0.772308 0.812592
0.928101 0.777618 0.800446
0.094635 0.544373 0.494019
0.218781 0.596893 0.554016
0.342926 0.646240 0.610687
0.456390 0.694580 0.665527
0.559509 0.744537 0.721100
0.664612 0.795135 0.777740
0.776367 0.843719 0.833496
0.886200 0.889557 0.886414
0.981750 0.891541 0.876801
0.172455 0.642639 0.496246
0.269989 0.690216 0.556000
0.372650 0.738220 0.612335
0.471100 0.787659 0.667480
0.570374 0.836670 0.724213
0.679688 0.882690 0.782379
0.791199 0.925720 0.840149
0.895142 0.967896 0.895782
0.972076 0.959015 0.872589
0.000000 0.000000 0.870941
0.000000 0.000000 0.818359
0.000000 0.000000 0.766907
0.000000 0.000000 0.714905
0.014008 0.000000 0.656525
0.213104 0.000000 0.591827
0.336365 0.000000 0.523895
0.441742 0.000000 0.459259
0.540924 0.000000 0.398163
0.000000 0.000000 0.839355
0.000000 0.000000 0.898193
0.000000 0.000000 0.845581
0.000000 0.000000 0.792236
0.145752 0.000763 0.735260
0.299683 0.002106 0.673309
0.416412 0.006409 0.608643
0.518951 0.003601 0.547211
0.615387 0.000916 0.488678
0.000000 0.036316 0.805573
0.000000 0.111115 0.863159
0.000000 0.176544 0.921478
0.068787 0.176147 0.869629
0.258636 0.177765 0.812286
0.387695 0.183990 0.750153
0.496368 0.194946 0.686859
0.591309 0.204376 0.627777
0.679260 0.208618 0.572815
0.000000 0.167358 0.769653
0.000000 0.230438 0.824951
0.000000 0.293762 0.882538
0.184021 0.356201 0.938873
0.324249 0.352478 0.888245
0.447388 0.353912 0.828857
0.556000 0.362396 0.763641
0.647614 0.374237 0.701660
0.730316 0.380707 0.648499
0.000000 0.273743 0.729919
0.000000 0.338470 0.783020
0.078888 0.400421 0.840118
0.248779 0.458496 0.897888
0.378540 0.512177 0.953186
0.487640 0.508026 0.904510
0.596619 0.509705 0.844696
0.693848 0.519257 0.778778
0.778961 0.525299 0.722015
0.000000 0.375793 0.687042
0.009155 0.438110 0.740356
0.177063 0.495972 0.797363
0.307709 0.548920 0.856079
0.424316 0.597687 0.913727
0.537140 0.643921 0.967438
0.638672 0.639343 0.920685
0.744568 0.642822 0.859009
0.835480 0.649017 0.799530
0.000000 0.468689 0.647034
0.118530 0.526001 0.701080
0.249695 0.579010 0.757416
0.365479 0.628326 0.816040
0.472046 0.675873 0.874146
0.579163 0.723938 0.928986
0.696472 0.770935 0.978943
0.797028 0.767059 0.932373
0.890350 0.772766 0.874481
0.073059 0.550201 0.613007
0.195496 0.602264 0.667236
0.313019 0.651489 0.722443
0.419342 0.699982 0.779724
0.519104 0.750061 0.836609
0.625427 0.800079 0.890961
0.739563 0.847351 0.941559
0.852997 0.890411 0.989075
0.944061 0.890533 0.940857
0.138184 0.623505 0.583740
0.250519 0.671600 0.638580
0.358887 0.719849 0.693268
0.458008 0.769928 0.749451
0.558411 0.820221 0.805939
0.670013 0.868073 0.860443
0.784332 0.913239 0.910950
0.894287 0.956940 0.956726
0.999908 1.000000 0.999847
