滤镜资源/Professional Luts Collection/Lutify.me Professional/Skintone/Goldstone.cube
# Created by: Lutify.me
# Copyright: (c) Copyright Lutify.me 2015
# Website: https://lutify.me
#LUT size
LUT_3D_SIZE 9
#LUT data points
0.000000 0.000000 0.000000
0.082520 0.000031 0.000763
0.176819 0.000092 0.002563
0.275360 0.000000 0.005585
0.377655 0.000000 0.009521
0.483185 0.000000 0.015381
0.591217 0.000000 0.021881
0.699188 0.000000 0.032288
0.799316 0.000000 0.058350
0.006592 0.088409 0.015930
0.087463 0.070587 0.003448
0.180603 0.066833 0.004852
0.278595 0.061584 0.007477
0.380371 0.053741 0.011444
0.485596 0.041901 0.016693
0.593414 0.024445 0.023132
0.701080 0.010559 0.033600
0.800934 0.029480 0.059906
0.015015 0.193237 0.037720
0.063629 0.172516 0.015900
0.186920 0.154907 0.009216
0.283997 0.150696 0.011932
0.385193 0.145874 0.015686
0.489868 0.139679 0.020569
0.597229 0.131775 0.026733
0.704193 0.125153 0.037933
0.803497 0.132935 0.064362
0.014679 0.305725 0.063629
0.056091 0.282501 0.037567
0.155060 0.261230 0.015594
0.290649 0.243073 0.017731
0.391602 0.238708 0.021362
0.495728 0.234009 0.026215
0.602478 0.228668 0.032288
0.708618 0.224396 0.044495
0.807220 0.227966 0.071777
0.000610 0.424194 0.088623
0.047241 0.399231 0.060608
0.127991 0.375336 0.036163
0.253937 0.353790 0.021576
0.398346 0.334961 0.027100
0.502380 0.330536 0.032288
0.608734 0.326050 0.038483
0.713989 0.322357 0.052063
0.812073 0.323517 0.081116
0.000000 0.545959 0.113678
0.022308 0.520203 0.083496
0.103790 0.494904 0.056122
0.218536 0.470978 0.033203
0.358215 0.449341 0.028748
0.509094 0.429932 0.037354
0.615295 0.425507 0.043640
0.719971 0.421661 0.059540
0.817780 0.420837 0.091827
0.000000 0.667603 0.143463
0.001831 0.642578 0.109070
0.090271 0.617004 0.078064
0.187164 0.591949 0.051758
0.318970 0.568329 0.030640
0.466583 0.546783 0.036377
0.621643 0.526978 0.047394
0.726135 0.522522 0.066833
0.824066 0.519714 0.103516
0.079498 0.782440 0.194458
0.070557 0.759460 0.155792
0.108673 0.736237 0.117523
0.172302 0.712616 0.080872
0.284912 0.689240 0.051361
0.425690 0.666382 0.035522
0.577911 0.644958 0.045807
0.732452 0.624390 0.074768
0.830841 0.619690 0.116638
0.181122 0.893860 0.254608
0.169067 0.871063 0.219177
0.178406 0.848633 0.182556
0.208984 0.826385 0.145508
0.277802 0.804596 0.110443
0.394470 0.783630 0.080292
0.536560 0.763123 0.063293
0.690186 0.743011 0.063416
0.838104 0.720306 0.131378
0.002167 0.005371 0.098541
0.079102 0.001221 0.081696
0.172668 0.001129 0.072205
0.270111 0.000000 0.064667
0.371521 0.000000 0.058594
0.476410 0.000000 0.054504
0.584137 0.000000 0.059814
0.692474 0.000000 0.068176
0.793396 0.000000 0.086426
0.006561 0.081482 0.086548
0.106781 0.099548 0.106659
0.200073 0.094421 0.095886
0.298004 0.088531 0.086609
0.399933 0.080627 0.079163
0.505310 0.069183 0.073639
0.613190 0.053253 0.070862
0.718750 0.044556 0.075867
0.816498 0.067902 0.097443
0.015900 0.185272 0.108002
0.081146 0.204742 0.128082
0.206390 0.185120 0.104431
0.303986 0.179993 0.094513
0.405487 0.174408 0.086426
0.510315 0.167938 0.080261
0.617645 0.160156 0.076630
0.722351 0.155670 0.080048
0.819611 0.164062 0.101501
0.018524 0.296661 0.130859
0.062622 0.317902 0.151550
0.173248 0.295074 0.125183
0.310699 0.274902 0.103027
0.412109 0.269897 0.094330
0.516541 0.264679 0.087585
0.623260 0.259064 0.083130
0.727081 0.255707 0.087585
0.823853 0.259430 0.108093
0.006348 0.414459 0.154541
0.050598 0.436981 0.176117
0.141785 0.411896 0.147552
0.272858 0.389008 0.122406
0.418854 0.368439 0.102295
0.523224 0.363495 0.094879
0.629578 0.358643 0.089844
0.732697 0.355103 0.095917
0.829102 0.356079 0.116425
0.000000 0.535950 0.179108
0.029449 0.558929 0.201813
0.113678 0.532867 0.171265
0.235657 0.508148 0.143219
0.377960 0.485413 0.119476
0.529785 0.464661 0.101807
0.636017 0.459839 0.096252
0.738739 0.455597 0.104675
0.835144 0.454254 0.127594
0.000000 0.658051 0.206360
0.038788 0.680145 0.231934
0.103027 0.654968 0.197754
0.203033 0.629761 0.166473
0.338379 0.605591 0.139191
0.487122 0.583099 0.117126
0.642303 0.562347 0.102692
0.745056 0.557037 0.113953
0.841827 0.553528 0.140869
0.072754 0.774353 0.248230
0.130005 0.794586 0.276489
0.147766 0.771271 0.239197
0.199493 0.747925 0.202393
0.307709 0.725098 0.168243
0.446777 0.702850 0.138672
0.598694 0.681274 0.116516
0.751678 0.659088 0.124634
0.849060 0.653595 0.155426
0.177643 0.886353 0.301025
0.212463 0.906921 0.328064
0.218994 0.883148 0.292419
0.243103 0.860077 0.255890
0.308868 0.838013 0.219910
0.420746 0.817169 0.186279
0.558838 0.797272 0.156708
0.710144 0.777893 0.132843
0.856812 0.754211 0.171539
0.001831 0.012726 0.211365
0.049683 0.003113 0.191315
0.169739 0.003143 0.174927
0.266785 0.001465 0.164520
0.367432 0.000000 0.155365
0.471527 0.000000 0.147583
0.578400 0.000000 0.141235
0.686523 0.000000 0.137390
0.788055 0.000000 0.142273
0.007629 0.091034 0.196960
0.075470 0.109039 0.218018
0.195099 0.071106 0.198730
0.293091 0.065063 0.187469
0.394714 0.056671 0.177277
0.499573 0.043976 0.168274
0.607025 0.026001 0.160522
0.713104 0.016266 0.156158
0.811279 0.042267 0.161255
0.016113 0.177948 0.184448
0.113953 0.197693 0.205505
0.228210 0.219177 0.228180
0.326782 0.213470 0.215790
0.428711 0.207611 0.204407
0.533478 0.201080 0.193970
0.640137 0.193909 0.184875
0.741974 0.192169 0.181854
0.837463 0.200531 0.187531
0.021606 0.288147 0.206909
0.084290 0.309387 0.228149
0.192871 0.332153 0.250793
0.333221 0.310394 0.224762
0.435272 0.304871 0.212799
0.539795 0.299316 0.201904
0.645874 0.293671 0.192352
0.747009 0.291351 0.189819
0.842285 0.295105 0.195953
0.012939 0.404999 0.230225
0.056732 0.427490 0.252014
0.158508 0.450928 0.274933
0.294189 0.426941 0.246674
0.441650 0.405060 0.221527
0.546234 0.399658 0.210022
0.651947 0.394470 0.200195
0.752716 0.391144 0.198608
0.847961 0.391876 0.205902
0.000000 0.526031 0.254425
0.038788 0.549133 0.277100
0.129150 0.572601 0.300537
0.256073 0.547241 0.270294
0.400238 0.523651 0.242767
0.552551 0.501831 0.218414
0.658112 0.496490 0.208374
0.758881 0.491913 0.208252
0.854370 0.490173 0.217316
0.000000 0.648346 0.280212
0.040955 0.670898 0.304626
0.130981 0.693085 0.330017
0.226074 0.668365 0.296783
0.360809 0.644318 0.266266
0.509827 0.621216 0.239197
0.664276 0.599365 0.217133
0.765442 0.593323 0.218964
0.861450 0.589386 0.230194
0.066833 0.765900 0.315186
0.125305 0.786743 0.342163
0.191650 0.807587 0.369446
0.235504 0.783997 0.333832
0.336914 0.761292 0.299744
0.471375 0.739502 0.268097
0.620972 0.718323 0.239319
0.772400 0.695221 0.230743
0.869141 0.689270 0.244629
0.173737 0.878601 0.360535
0.210358 0.899445 0.387512
0.256958 0.920868 0.413940
0.279846 0.896301 0.379272
0.343903 0.873291 0.344879
0.450836 0.852020 0.312012
0.583923 0.832153 0.281128
0.731598 0.813141 0.252655
0.877411 0.789856 0.260590
0.000000 0.022583 0.330688
0.038849 0.006897 0.308746
0.136414 0.006683 0.288910
0.264008 0.004974 0.271820
0.364380 0.000671 0.260651
0.467865 0.000000 0.250336
0.574127 0.000000 0.241028
0.681976 0.000000 0.232849
0.784058 0.000000 0.229797
0.002838 0.101715 0.314606
0.051697 0.120026 0.336761
0.158447 0.080292 0.314728
0.289368 0.049103 0.296051
0.391022 0.042511 0.284271
0.495636 0.032257 0.273407
0.602661 0.018250 0.263367
0.709045 0.011597 0.255096
0.807892 0.043030 0.252533
0.014771 0.188385 0.300049
0.080353 0.208069 0.322235
0.190186 0.229431 0.345734
0.321198 0.185089 0.324646
0.423248 0.178955 0.311859
0.527924 0.171936 0.299988
0.634552 0.163971 0.288940
0.737274 0.162750 0.280945
0.833313 0.174561 0.278870
0.022797 0.280151 0.286713
0.119476 0.301605 0.308807
0.234344 0.324554 0.332306
0.356934 0.348724 0.356964
0.459808 0.342773 0.343323
0.564606 0.336945 0.330444
0.669495 0.331787 0.319031
0.768646 0.330841 0.312622
0.863342 0.334778 0.311646
0.018585 0.396088 0.310333
0.082489 0.418579 0.332611
0.194794 0.442261 0.356110
0.316650 0.466980 0.380737
0.465881 0.444061 0.352783
0.570709 0.438263 0.339539
0.675354 0.433014 0.328064
0.774506 0.430206 0.322418
0.869385 0.431000 0.322144
0.001312 0.516541 0.334656
0.046692 0.539581 0.357452
0.157349 0.563324 0.381165
0.278198 0.587769 0.405853
0.424072 0.563538 0.376251
0.576660 0.540863 0.348938
0.681305 0.535126 0.337555
0.780792 0.530548 0.333069
0.876129 0.528778 0.333893
0.000000 0.638733 0.359985
0.044006 0.661652 0.383759
0.140656 0.684326 0.408386
0.256317 0.707275 0.434082
0.386505 0.683502 0.402344
0.533936 0.660553 0.372650
0.687500 0.637848 0.347687
0.787598 0.631592 0.344635
0.883514 0.627625 0.346802
0.060944 0.757477 0.390533
0.120636 0.778748 0.416260
0.188080 0.800018 0.442383
0.275757 0.821625 0.468964
0.370544 0.798645 0.435913
0.499146 0.776917 0.404419
0.644897 0.756012 0.374451
0.794861 0.733185 0.357208
0.891541 0.727264 0.361023
0.169617 0.871033 0.429688
0.207733 0.891968 0.455963
0.255920 0.913483 0.481964
0.314972 0.935730 0.507690
0.380035 0.911316 0.475159
0.483459 0.889099 0.443756
0.611786 0.868713 0.413757
0.755096 0.849701 0.385071
0.900177 0.827545 0.376495
0.000000 0.034515 0.454895
0.024475 0.012695 0.431824
0.109619 0.012146 0.409821
0.226959 0.011108 0.389771
0.361572 0.006165 0.372070
0.464996 0.000061 0.360138
0.570862 0.000000 0.349030
0.678406 0.000000 0.338623
0.781158 0.000000 0.331024
0.000000 0.113190 0.437622
0.039215 0.132141 0.460846
0.126038 0.091034 0.436981
0.249847 0.058441 0.415741
0.388123 0.047302 0.397430
0.492737 0.039368 0.385101
0.599426 0.026642 0.373474
0.705994 0.018951 0.362762
0.805664 0.051880 0.355377
0.005341 0.199860 0.421600
0.053040 0.219757 0.444763
0.156036 0.241058 0.468750
0.280365 0.195374 0.445679
0.418488 0.154877 0.425201
0.523407 0.147919 0.412201
0.630127 0.139771 0.399872
0.733826 0.139801 0.388763
0.830750 0.156433 0.381592
0.018524 0.291626 0.406738
0.082825 0.312927 0.429779
0.193878 0.335663 0.453888
0.314941 0.359680 0.479004
0.454224 0.310760 0.456879
0.559021 0.304718 0.443085
0.664337 0.299469 0.430023
0.764496 0.300110 0.419312
0.859711 0.307037 0.412842
0.020935 0.387573 0.392639
0.121216 0.410278 0.415680
0.238678 0.434174 0.439758
0.362823 0.459076 0.464813
0.490723 0.484589 0.490723
0.595734 0.478607 0.476379
0.699432 0.473633 0.463593
0.797852 0.471649 0.454712
0.893280 0.472626 0.449432
0.007996 0.507446 0.417297
0.077118 0.530518 0.440369
0.196045 0.554474 0.464447
0.320892 0.579224 0.489410
0.448517 0.604553 0.515167
0.601440 0.581238 0.486237
0.705414 0.575409 0.473816
0.804382 0.571320 0.466003
0.900269 0.569733 0.461487
0.000000 0.629333 0.442566
0.047577 0.652466 0.466095
0.165222 0.675690 0.490387
0.289246 0.699249 0.515594
0.415741 0.723297 0.541779
0.559448 0.700470 0.511688
0.711731 0.677765 0.484619
0.811432 0.671753 0.478027
0.907928 0.668060 0.474426
0.056885 0.749207 0.470581
0.116364 0.770782 0.495178
0.192139 0.792511 0.520325
0.293884 0.814728 0.546234
0.407227 0.837769 0.573029
0.529785 0.815704 0.542511
0.670776 0.794800 0.513123
0.819061 0.772797 0.490845
0.916199 0.767303 0.488403
0.165955 0.863831 0.504883
0.205231 0.884857 0.530182
0.254791 0.906403 0.555603
0.324799 0.928802 0.581238
0.414398 0.952484 0.607300
0.517120 0.928833 0.577118
0.641846 0.907532 0.548340
0.780945 0.888031 0.520752
0.925079 0.867279 0.503296
0.000000 0.049225 0.581696
0.003204 0.020081 0.558075
0.092407 0.019196 0.535187
0.194397 0.018341 0.513245
0.321899 0.015411 0.493195
0.462189 0.005829 0.475037
0.567993 0.000000 0.462555
0.675323 0.000000 0.450684
0.778900 0.000000 0.439880
0.000000 0.125549 0.563812
0.020203 0.144958 0.587463
0.099854 0.102722 0.562988
0.213318 0.069214 0.540161
0.346588 0.055389 0.519714
0.489838 0.047577 0.501282
0.596497 0.036835 0.488495
0.703339 0.029114 0.476105
0.804108 0.062683 0.465057
0.000000 0.212006 0.546936
0.038971 0.232300 0.570679
0.128937 0.253845 0.594635
0.242340 0.206757 0.570526
0.375763 0.164948 0.548431
0.519470 0.130981 0.528656
0.626373 0.123444 0.515472
0.731140 0.125122 0.502258
0.829285 0.147003 0.491028
0.006866 0.303833 0.531036
0.053802 0.325317 0.554657
0.158234 0.347931 0.578918
0.276520 0.371857 0.603790
0.410919 0.321686 0.580566
0.553894 0.275574 0.559204
0.659790 0.270203 0.545258
0.761261 0.272766 0.531433
0.857422 0.283447 0.520599
0.016144 0.399780 0.515900
0.081696 0.422302 0.539459
0.196503 0.445953 0.563812
0.319702 0.470551 0.588928
0.446899 0.495941 0.614594
0.590240 0.444702 0.592224
0.694580 0.440399 0.577606
0.794006 0.440735 0.564636
0.889801 0.444336 0.555023
0.012024 0.498688 0.501343
0.120605 0.521942 0.524841
0.242462 0.546143 0.549225
0.368530 0.571075 0.574432
0.496826 0.596588 0.600281
0.626648 0.622589 0.626678
0.730530 0.617096 0.612793
0.829620 0.613800 0.602020
0.926514 0.612488 0.593750
0.001892 0.620178 0.526581
0.078430 0.643463 0.550171
0.202545 0.667175 0.574402
0.330078 0.691315 0.599365
0.458527 0.716003 0.625183
0.587219 0.741394 0.651917
0.737061 0.718994 0.623840
0.836975 0.713593 0.614166
0.934357 0.710327 0.606567
0.053497 0.740875 0.552979
0.113129 0.762848 0.576874
0.208313 0.785126 0.601410
0.321320 0.807983 0.626770
0.440887 0.831726 0.653076
0.563049 0.856415 0.680420
0.699066 0.835175 0.652008
0.844971 0.814087 0.627014
0.942780 0.809143 0.620117
0.162781 0.856720 0.583496
0.203033 0.877930 0.608032
0.259094 0.899658 0.632874
0.341675 0.922333 0.658356
0.441101 0.946228 0.684540
0.549591 0.971497 0.711365
0.673248 0.948883 0.683258
0.809113 0.928528 0.656586
0.951874 0.908722 0.634491
0.000000 0.077240 0.703156
0.004303 0.039551 0.682159
0.086487 0.031891 0.661072
0.170471 0.028076 0.639374
0.286163 0.025238 0.618073
0.420685 0.019165 0.598206
0.565186 0.005096 0.579834
0.672394 0.000000 0.566956
0.777039 0.007050 0.553864
0.000000 0.142975 0.687561
0.052734 0.165955 0.708588
0.103088 0.120667 0.686707
0.186676 0.083862 0.665161
0.308441 0.064880 0.644684
0.447021 0.058685 0.625092
0.593628 0.047363 0.606567
0.700806 0.040619 0.593201
0.802887 0.073792 0.579254
0.000000 0.226227 0.672119
0.055511 0.248596 0.694000
0.139984 0.272247 0.715393
0.217896 0.222931 0.693207
0.337433 0.178528 0.672272
0.475769 0.141724 0.652527
0.623016 0.116333 0.633759
0.728851 0.119507 0.619263
0.828491 0.146606 0.604797
0.001312 0.317017 0.656830
0.060883 0.339508 0.679474
0.148163 0.363098 0.701752
0.257965 0.388123 0.724213
0.374298 0.336761 0.702484
0.509857 0.288788 0.682129
0.655396 0.245392 0.662781
0.758667 0.249481 0.646973
0.856140 0.264740 0.632538
0.009277 0.412598 0.641571
0.063080 0.435394 0.664795
0.169617 0.459137 0.687958
0.289551 0.484039 0.711426
0.414032 0.510071 0.735443
0.546753 0.458527 0.714142
0.690002 0.409241 0.693970
0.791016 0.411591 0.677917
0.887573 0.418579 0.664551
0.012512 0.511139 0.626373
0.083740 0.534302 0.649994
0.203735 0.558197 0.673920
0.329803 0.582886 0.698273
0.457458 0.608398 0.723175
0.585510 0.634918 0.748749
0.725830 0.584167 0.727478
0.825958 0.583282 0.712646
0.923065 0.584167 0.700928
0.009277 0.611359 0.611511
0.124023 0.634766 0.635284
0.248932 0.658875 0.659698
0.376923 0.683502 0.684662
0.505768 0.708740 0.710266
0.634857 0.734711 0.736633
0.763824 0.761475 0.763824
0.864166 0.756927 0.751373
0.962555 0.753845 0.740875
0.051727 0.732452 0.636932
0.126465 0.754944 0.660461
0.236664 0.777832 0.684570
0.357056 0.801392 0.709534
0.480408 0.825775 0.735443
0.604828 0.851105 0.762329
0.729858 0.877441 0.790253
0.872559 0.856812 0.764191
0.971100 0.852386 0.754181
0.159943 0.849548 0.664429
0.201477 0.871063 0.688324
0.271942 0.893219 0.712769
0.366455 0.916321 0.738007
0.473511 0.940552 0.764160
0.586975 0.966003 0.791107
0.704498 0.992615 0.818787
0.838898 0.971222 0.792358
0.980225 0.951599 0.768127
0.094910 0.121826 0.815460
0.093140 0.088257 0.795776
0.128662 0.074799 0.776886
0.180603 0.064301 0.757843
0.265991 0.054840 0.739014
0.385162 0.044647 0.720764
0.522675 0.028290 0.703003
0.669556 0.006744 0.685394
0.775208 0.020782 0.670929
0.083038 0.175140 0.801361
0.134308 0.199005 0.821136
0.153839 0.154999 0.800293
0.199066 0.118683 0.780426
0.289062 0.095825 0.762024
0.411316 0.087128 0.744904
0.550262 0.075653 0.728210
0.697815 0.058441 0.711609
0.801849 0.084503 0.696106
0.076477 0.250610 0.787994
0.129730 0.274658 0.808167
0.192474 0.299377 0.828613
0.231720 0.250214 0.806732
0.319611 0.206055 0.786987
0.440491 0.169403 0.769348
0.578674 0.143158 0.753082
0.726074 0.129913 0.737335
0.828217 0.154327 0.721130
0.075073 0.336578 0.775116
0.127106 0.360657 0.795776
0.190094 0.385254 0.816528
0.273102 0.410706 0.837952
0.359039 0.359955 0.816345
0.476135 0.312866 0.797211
0.610840 0.270477 0.779968
0.755615 0.234894 0.763824
0.855652 0.251709 0.747192
0.074036 0.428772 0.762360
0.124603 0.452667 0.783600
0.194244 0.477020 0.804901
0.291687 0.502380 0.826965
0.402466 0.528778 0.850159
0.515930 0.478546 0.829193
0.646637 0.430847 0.810364
0.787994 0.386414 0.793091
0.886414 0.395691 0.776886
0.069092 0.524963 0.749268
0.120667 0.548462 0.771210
0.209686 0.572510 0.793365
0.319702 0.597473 0.816223
0.437653 0.623535 0.840118
0.558746 0.650574 0.865173
0.685211 0.601593 0.844543
0.822876 0.554535 0.825775
0.920868 0.557739 0.810974
0.060455 0.623840 0.735992
0.129608 0.646820 0.758575
0.237091 0.670563 0.781616
0.356079 0.695160 0.805359
0.478638 0.720734 0.830017
0.602570 0.747314 0.855713
0.727203 0.774872 0.882477
0.860718 0.727020 0.862000
0.959167 0.725555 0.849060
0.050446 0.724030 0.722015
0.155670 0.747040 0.745392
0.275330 0.770599 0.769318
0.399231 0.794861 0.794006
0.524536 0.819916 0.819519
0.650269 0.845947 0.845978
0.776093 0.872894 0.873444
0.901764 0.900787 0.901794
0.999390 0.896515 0.889893
0.157715 0.842377 0.747101
0.209106 0.864380 0.770447
0.294342 0.887054 0.794556
0.398468 0.910645 0.819550
0.511108 0.935333 0.845490
0.628052 0.961090 0.872437
0.747650 0.987915 0.900177
0.877106 1.000000 0.929169
1.000000 0.994415 0.903442
0.163330 0.159821 0.931976
0.165955 0.134766 0.909180
0.188416 0.122925 0.888580
0.225647 0.114075 0.869171
0.279419 0.105011 0.850647
0.370514 0.096863 0.833710
0.490234 0.087921 0.818085
0.626678 0.074921 0.803131
0.772461 0.054901 0.788269
0.161041 0.209625 0.915527
0.189301 0.229675 0.938446
0.207214 0.191193 0.914337
0.240784 0.159943 0.892365
0.299377 0.139069 0.872772
0.395935 0.132385 0.855927
0.517731 0.126221 0.840912
0.654297 0.118530 0.826813
0.799622 0.108276 0.812927
0.159210 0.280579 0.901062
0.190765 0.302979 0.923157
0.234589 0.325165 0.946686
0.264221 0.279480 0.921326
0.325928 0.238678 0.898834
0.423981 0.205933 0.879913
0.546051 0.184479 0.864166
0.682220 0.175659 0.850464
0.826721 0.171692 0.837402
0.158905 0.362518 0.888184
0.192719 0.386169 0.909729
0.238037 0.409637 0.932495
0.295197 0.433197 0.956451
0.360382 0.384430 0.931213
0.458710 0.340210 0.909363
0.578705 0.301727 0.891174
0.712158 0.271179 0.875885
0.854462 0.250854 0.862366
0.159332 0.450867 0.876434
0.194641 0.474915 0.897705
0.241394 0.498932 0.919830
0.308838 0.523193 0.943481
0.398254 0.548187 0.968597
0.497284 0.499420 0.944458
0.615662 0.454346 0.923492
0.746124 0.413727 0.905731
0.885223 0.378876 0.890472
0.159149 0.543182 0.865204
0.196289 0.567108 0.886566
0.249542 0.591187 0.908569
0.330444 0.615814 0.931915
0.428986 0.641266 0.957001
0.538330 0.667542 0.983368
0.655243 0.619568 0.960480
0.783386 0.575073 0.940247
0.919403 0.534119 0.922791
0.158661 0.638428 0.854187
0.197754 0.661835 0.875824
0.266052 0.685760 0.898132
0.359436 0.710510 0.921600
0.465851 0.736145 0.946564
0.579163 0.762665 0.973022
0.700165 0.789062 0.991150
0.823669 0.742767 0.978638
0.956970 0.698914 0.959076
0.156403 0.735962 0.842987
0.206543 0.758820 0.865143
0.291199 0.782471 0.888062
0.394958 0.807007 0.912018
0.507355 0.832581 0.937164
0.624176 0.859070 0.963593
0.744049 0.886353 0.990631
0.871002 0.912384 0.996552
0.996552 0.867950 0.997528
0.155701 0.835266 0.831177
0.227142 0.857727 0.854065
0.325745 0.881012 0.877869
0.436707 0.905243 0.902527
0.553162 0.930450 0.928253
0.672394 0.956635 0.954956
0.793304 0.983765 0.982635
0.922729 1.000000 0.998169
0.999969 1.000000 0.999908
