滤镜资源/Professional Luts Collection/Lutify.me Professional/Skintone/Goldstone.cube
# Created by: Lutify.me
# Copyright: (c) Copyright Lutify.me 2015
# Website: https://lutify.me
#LUT size
LUT_3D_SIZE 5
#LUT data points
0.000000 0.000000 0.000000
0.176819 0.000092 0.002563
0.377655 0.000000 0.009521
0.591217 0.000000 0.021881
0.799316 0.000000 0.058350
0.015015 0.193237 0.037720
0.186920 0.154907 0.009216
0.385193 0.145874 0.015686
0.597229 0.131775 0.026733
0.803497 0.132935 0.064362
0.000610 0.424194 0.088623
0.127991 0.375336 0.036163
0.398346 0.334961 0.027100
0.608734 0.326050 0.038483
0.812073 0.323517 0.081116
0.000000 0.667603 0.143463
0.090271 0.617004 0.078064
0.318970 0.568329 0.030640
0.621643 0.526978 0.047394
0.824066 0.519714 0.103516
0.181122 0.893860 0.254608
0.178406 0.848633 0.182556
0.277802 0.804596 0.110443
0.536560 0.763123 0.063293
0.838104 0.720306 0.131378
0.001831 0.012726 0.211365
0.169739 0.003143 0.174927
0.367432 0.000000 0.155365
0.578400 0.000000 0.141235
0.788055 0.000000 0.142273
0.016113 0.177948 0.184448
0.228210 0.219177 0.228180
0.428711 0.207611 0.204407
0.640137 0.193909 0.184875
0.837463 0.200531 0.187531
0.012939 0.404999 0.230225
0.158508 0.450928 0.274933
0.441650 0.405060 0.221527
0.651947 0.394470 0.200195
0.847961 0.391876 0.205902
0.000000 0.648346 0.280212
0.130981 0.693085 0.330017
0.360809 0.644318 0.266266
0.664276 0.599365 0.217133
0.861450 0.589386 0.230194
0.173737 0.878601 0.360535
0.256958 0.920868 0.413940
0.343903 0.873291 0.344879
0.583923 0.832153 0.281128
0.877411 0.789856 0.260590
0.000000 0.034515 0.454895
0.109619 0.012146 0.409821
0.361572 0.006165 0.372070
0.570862 0.000000 0.349030
0.781158 0.000000 0.331024
0.005341 0.199860 0.421600
0.156036 0.241058 0.468750
0.418488 0.154877 0.425201
0.630127 0.139771 0.399872
0.830750 0.156433 0.381592
0.020935 0.387573 0.392639
0.238678 0.434174 0.439758
0.490723 0.484589 0.490723
0.699432 0.473633 0.463593
0.893280 0.472626 0.449432
0.000000 0.629333 0.442566
0.165222 0.675690 0.490387
0.415741 0.723297 0.541779
0.711731 0.677765 0.484619
0.907928 0.668060 0.474426
0.165955 0.863831 0.504883
0.254791 0.906403 0.555603
0.414398 0.952484 0.607300
0.641846 0.907532 0.548340
0.925079 0.867279 0.503296
0.000000 0.077240 0.703156
0.086487 0.031891 0.661072
0.286163 0.025238 0.618073
0.565186 0.005096 0.579834
0.777039 0.007050 0.553864
0.000000 0.226227 0.672119
0.139984 0.272247 0.715393
0.337433 0.178528 0.672272
0.623016 0.116333 0.633759
0.828491 0.146606 0.604797
0.009277 0.412598 0.641571
0.169617 0.459137 0.687958
0.414032 0.510071 0.735443
0.690002 0.409241 0.693970
0.887573 0.418579 0.664551
0.009277 0.611359 0.611511
0.248932 0.658875 0.659698
0.505768 0.708740 0.710266
0.763824 0.761475 0.763824
0.962555 0.753845 0.740875
0.159943 0.849548 0.664429
0.271942 0.893219 0.712769
0.473511 0.940552 0.764160
0.704498 0.992615 0.818787
0.980225 0.951599 0.768127
0.163330 0.159821 0.931976
0.188416 0.122925 0.888580
0.279419 0.105011 0.850647
0.490234 0.087921 0.818085
0.772461 0.054901 0.788269
0.159210 0.280579 0.901062
0.234589 0.325165 0.946686
0.325928 0.238678 0.898834
0.546051 0.184479 0.864166
0.826721 0.171692 0.837402
0.159332 0.450867 0.876434
0.241394 0.498932 0.919830
0.398254 0.548187 0.968597
0.615662 0.454346 0.923492
0.885223 0.378876 0.890472
0.158661 0.638428 0.854187
0.266052 0.685760 0.898132
0.465851 0.736145 0.946564
0.700165 0.789062 0.991150
0.956970 0.698914 0.959076
0.155701 0.835266 0.831177
0.325745 0.881012 0.877869
0.553162 0.930450 0.928253
0.793304 0.983765 0.982635
0.999969 1.000000 0.999908
