滤镜资源/Professional Luts Collection/Lutify.me Professional/Skintone/Goldstone.cube
# Created by: Lutify.me
# Copyright: (c) Copyright Lutify.me 2015
# Website: https://lutify.me
#LUT size
LUT_3D_SIZE 33
#LUT data points
0.000000 0.000000 0.000000
0.017517 0.000366 0.000000
0.036652 0.000397 0.000031
0.059387 0.000031 0.000397
0.082520 0.000031 0.000763
0.105560 0.000305 0.001129
0.128998 0.000397 0.001556
0.152771 0.000336 0.001953
0.176819 0.000092 0.002563
0.201111 0.000000 0.003113
0.225586 0.000000 0.003693
0.250397 0.000000 0.004517
0.275360 0.000000 0.005585
0.300598 0.000000 0.006348
0.326111 0.000000 0.007263
0.351776 0.000000 0.008423
0.377655 0.000000 0.009521
0.403748 0.000000 0.010834
0.430054 0.000000 0.012177
0.456543 0.000000 0.013580
0.483185 0.000000 0.015381
0.510010 0.000000 0.016876
0.536957 0.000000 0.018341
0.564026 0.000000 0.020050
0.591217 0.000000 0.021881
0.618500 0.000000 0.023834
0.645813 0.000000 0.025818
0.672791 0.000000 0.028381
0.699188 0.000000 0.032288
0.725006 0.000000 0.037445
0.750244 0.000000 0.043518
0.775024 0.000000 0.050507
0.799316 0.000000 0.058350
0.001556 0.018311 0.003815
0.019440 0.014862 0.000763
0.038208 0.014069 0.000793
0.060333 0.013336 0.001129
0.083221 0.012207 0.001495
0.106445 0.011353 0.001556
0.129852 0.009949 0.001892
0.153412 0.008759 0.002289
0.177307 0.007568 0.002960
0.201508 0.006561 0.003235
0.226013 0.005737 0.003998
0.250824 0.005127 0.004822
0.275818 0.004364 0.005524
0.301025 0.003510 0.006500
0.326508 0.002197 0.007507
0.352234 0.000702 0.008514
0.378113 0.000061 0.009644
0.404175 0.000000 0.010925
0.430481 0.000000 0.012360
0.457001 0.000000 0.013824
0.483643 0.000000 0.015289
0.510406 0.000000 0.016754
0.537384 0.000000 0.018433
0.564484 0.000000 0.020081
0.591675 0.000000 0.021973
0.618958 0.000000 0.023834
0.646240 0.000000 0.025940
0.673248 0.000000 0.028656
0.699585 0.000000 0.032349
0.725403 0.000000 0.037537
0.750610 0.000000 0.044159
0.775360 0.000000 0.051086
0.799744 0.000000 0.058655
0.003448 0.038574 0.007355
0.013184 0.034637 0.003143
0.040100 0.030701 0.001190
0.062256 0.029907 0.001831
0.084595 0.029114 0.001617
0.107544 0.028320 0.001984
0.130920 0.027161 0.002350
0.154633 0.025787 0.002747
0.178497 0.024811 0.003204
0.202606 0.023590 0.003845
0.226990 0.021942 0.004547
0.251648 0.020416 0.005157
0.276550 0.018372 0.006042
0.301666 0.016357 0.006866
0.327118 0.014160 0.007874
0.352783 0.011536 0.008820
0.378601 0.008728 0.009949
0.404663 0.005737 0.011322
0.430969 0.002838 0.012634
0.457458 0.000946 0.014008
0.484100 0.000214 0.015472
0.510895 0.000031 0.016998
0.537872 0.000000 0.018707
0.564972 0.000000 0.020416
0.592133 0.000000 0.022278
0.619446 0.000000 0.024139
0.646729 0.000000 0.025970
0.673706 0.000000 0.028748
0.700043 0.000000 0.032745
0.725830 0.000000 0.038208
0.751068 0.000000 0.044525
0.775757 0.000000 0.051147
0.800110 0.000122 0.058960
0.005035 0.063080 0.011322
0.011597 0.058533 0.006622
0.033478 0.054260 0.002441
0.063629 0.050140 0.002258
0.086182 0.049438 0.002350
0.108856 0.048462 0.002991
0.131989 0.047485 0.003357
0.155609 0.046387 0.003540
0.179535 0.045288 0.003906
0.203674 0.044037 0.004578
0.227997 0.042633 0.005280
0.252655 0.041107 0.005829
0.277557 0.039520 0.006714
0.302673 0.037506 0.007599
0.328064 0.035278 0.008423
0.353668 0.032715 0.009521
0.379456 0.029999 0.010651
0.405487 0.027008 0.011932
0.431763 0.023560 0.013245
0.458191 0.019897 0.014557
0.484802 0.016235 0.015961
0.511566 0.012360 0.017334
0.538452 0.008148 0.019043
0.565521 0.003998 0.020752
0.592682 0.001068 0.022461
0.619965 0.000458 0.024323
0.647217 0.000061 0.026611
0.674164 0.000000 0.029327
0.700470 0.000000 0.032898
0.726227 0.000000 0.038605
0.751404 0.000031 0.044647
0.776154 0.000793 0.051758
0.800476 0.008484 0.059540
0.006592 0.088409 0.015930
0.013977 0.083435 0.011261
0.027924 0.078674 0.006500
0.056702 0.074371 0.003113
0.087463 0.070587 0.003448
0.110382 0.069763 0.003479
0.133606 0.068787 0.003906
0.156830 0.067749 0.004272
0.180603 0.066833 0.004852
0.204803 0.065552 0.005554
0.229156 0.064240 0.005859
0.253693 0.062897 0.006500
0.278595 0.061584 0.007477
0.303680 0.059967 0.008331
0.329010 0.058197 0.009247
0.354614 0.056122 0.010284
0.380371 0.053741 0.011444
0.406372 0.051331 0.012695
0.432617 0.048615 0.013977
0.459045 0.045410 0.015259
0.485596 0.041901 0.016693
0.512360 0.038147 0.018158
0.539246 0.033813 0.019653
0.566284 0.029205 0.021240
0.593414 0.024445 0.023132
0.620697 0.019714 0.025024
0.647919 0.015259 0.027069
0.674835 0.012024 0.029846
0.701080 0.010559 0.033600
0.726807 0.011444 0.039062
0.751923 0.014587 0.045349
0.776642 0.020111 0.052399
0.800934 0.029480 0.059906
0.009155 0.113861 0.020813
0.015961 0.108917 0.016266
0.023621 0.103882 0.011230
0.050781 0.099487 0.006500
0.080475 0.095215 0.004486
0.111877 0.091400 0.004639
0.135010 0.090393 0.004700
0.158478 0.089355 0.005280
0.182068 0.088440 0.005737
0.205994 0.087402 0.006226
0.230408 0.086151 0.006958
0.254913 0.084961 0.007416
0.279694 0.083588 0.008240
0.304810 0.082214 0.009003
0.330139 0.080688 0.010010
0.355682 0.079010 0.011047
0.381409 0.077118 0.012085
0.407379 0.075104 0.013367
0.433594 0.072876 0.014709
0.459961 0.070343 0.016052
0.486481 0.067566 0.017426
0.513214 0.064575 0.018921
0.540100 0.061279 0.020447
0.567139 0.057556 0.022064
0.594238 0.053589 0.024078
0.621490 0.049377 0.025787
0.648682 0.045074 0.027771
0.675537 0.041809 0.030609
0.701782 0.040436 0.034637
0.727417 0.041779 0.040100
0.752594 0.045074 0.046387
0.777252 0.050842 0.053314
0.801483 0.058380 0.060944
0.011108 0.139923 0.025665
0.018250 0.134857 0.020935
0.025208 0.129883 0.016205
0.045685 0.125092 0.010895
0.074127 0.120422 0.006073
0.104553 0.116211 0.005524
0.136749 0.112457 0.006042
0.159943 0.111298 0.006439
0.183563 0.110413 0.006805
0.207550 0.109375 0.007294
0.231812 0.108215 0.007965
0.256256 0.107086 0.008545
0.281006 0.105957 0.009216
0.306030 0.104675 0.010132
0.331329 0.103271 0.011108
0.356812 0.101776 0.012238
0.382538 0.100098 0.013336
0.408478 0.098419 0.014496
0.434662 0.096527 0.015747
0.461029 0.094452 0.017059
0.487518 0.092163 0.018372
0.514191 0.089722 0.019745
0.541046 0.087097 0.021362
0.568054 0.084198 0.022980
0.595123 0.081207 0.024750
0.622345 0.077942 0.026520
0.649536 0.074524 0.028595
0.676331 0.072083 0.031616
0.702515 0.071228 0.035706
0.728119 0.071991 0.040924
0.753235 0.074371 0.047180
0.777893 0.078674 0.054321
0.802094 0.084320 0.062073
0.013031 0.166290 0.031555
0.020172 0.161041 0.026001
0.027344 0.155914 0.021179
0.041260 0.150909 0.015900
0.068634 0.146210 0.010742
0.097595 0.141724 0.006714
0.128937 0.137543 0.007141
0.161743 0.133575 0.007416
0.185303 0.132385 0.008026
0.209045 0.131470 0.008423
0.233276 0.130432 0.009125
0.257751 0.129303 0.009735
0.282440 0.128235 0.010406
0.307434 0.127014 0.011230
0.332703 0.125732 0.012299
0.358124 0.124390 0.013428
0.383820 0.123016 0.014526
0.409729 0.121429 0.015503
0.435852 0.119690 0.016754
0.462158 0.117889 0.018097
0.488647 0.116089 0.019501
0.515289 0.113983 0.020874
0.542084 0.111786 0.022278
0.569061 0.109406 0.023926
0.596130 0.106934 0.025665
0.623291 0.104370 0.027496
0.650421 0.101654 0.029419
0.677185 0.099731 0.032471
0.703308 0.098999 0.036865
0.728912 0.099457 0.042023
0.753967 0.101349 0.048401
0.778595 0.104370 0.055573
0.802765 0.108917 0.063019
0.015015 0.193237 0.037720
0.022217 0.187836 0.031677
0.029572 0.182587 0.026306
0.040131 0.177460 0.021179
0.063629 0.172516 0.015900
0.091400 0.167694 0.010345
0.121490 0.163177 0.008362
0.153564 0.158966 0.008789
0.186920 0.154907 0.009216
0.210724 0.153900 0.009674
0.234894 0.152863 0.010315
0.259338 0.151825 0.011200
0.283997 0.150696 0.011932
0.308960 0.149567 0.012726
0.334137 0.148407 0.013550
0.359589 0.147156 0.014618
0.385193 0.145874 0.015686
0.411072 0.144470 0.016754
0.437164 0.142944 0.017944
0.463409 0.141357 0.019318
0.489868 0.139679 0.020569
0.516479 0.137878 0.022064
0.543243 0.135925 0.023560
0.570190 0.133881 0.025146
0.597229 0.131775 0.026733
0.624359 0.129608 0.028564
0.651428 0.127441 0.030609
0.678131 0.125824 0.033630
0.704193 0.125153 0.037933
0.729767 0.125427 0.043427
0.754791 0.126923 0.049805
0.779358 0.129303 0.056854
0.803497 0.132935 0.064362
0.016144 0.220734 0.044281
0.023407 0.215149 0.037689
0.031067 0.209778 0.031494
0.041412 0.204529 0.026367
0.059509 0.199249 0.020996
0.086151 0.194275 0.015594
0.114807 0.189423 0.010406
0.145782 0.184967 0.010010
0.178558 0.180634 0.010498
0.212402 0.176575 0.011230
0.236511 0.175598 0.011841
0.260956 0.174530 0.012512
0.285583 0.173462 0.013397
0.310486 0.172394 0.014191
0.335693 0.171234 0.015045
0.361053 0.170074 0.015991
0.386688 0.168823 0.016998
0.412506 0.167542 0.018097
0.438538 0.166168 0.019226
0.464783 0.164703 0.020569
0.491211 0.163208 0.021912
0.517792 0.161591 0.023254
0.544525 0.159912 0.024750
0.571411 0.158112 0.026398
0.598389 0.156250 0.027954
0.625488 0.154327 0.029755
0.652527 0.152466 0.031982
0.679169 0.151093 0.035034
0.705170 0.150452 0.039551
0.730682 0.150665 0.045074
0.755646 0.151794 0.051392
0.780182 0.153778 0.058502
0.804321 0.156708 0.066010
0.016541 0.248657 0.050751
0.023895 0.242950 0.043945
0.032135 0.237366 0.037506
0.042847 0.231964 0.031769
0.056396 0.226532 0.026123
0.081177 0.221375 0.020844
0.108582 0.216339 0.015503
0.138367 0.211517 0.011597
0.170441 0.207031 0.011719
0.203888 0.202667 0.012604
0.238312 0.198547 0.013336
0.262573 0.197510 0.013977
0.287262 0.196381 0.014709
0.312195 0.195374 0.015533
0.337311 0.194244 0.016541
0.362671 0.193176 0.017548
0.388214 0.191986 0.018585
0.414032 0.190704 0.019623
0.440063 0.189453 0.020782
0.466248 0.188110 0.021912
0.492645 0.186707 0.023163
0.519165 0.185272 0.024628
0.545868 0.183746 0.026093
0.572723 0.182190 0.027618
0.599670 0.180481 0.029266
0.626709 0.178772 0.031128
0.653687 0.177124 0.033356
0.680267 0.175934 0.036499
0.706268 0.175385 0.041046
0.731689 0.175507 0.046753
0.756622 0.176361 0.053131
0.781128 0.177979 0.060242
0.805237 0.180450 0.067719
0.016113 0.277008 0.057220
0.023712 0.271179 0.050385
0.032379 0.265472 0.044006
0.043304 0.259857 0.037659
0.056061 0.254303 0.031830
0.076538 0.248901 0.026215
0.102844 0.243713 0.020721
0.131500 0.238678 0.015442
0.162506 0.233826 0.013184
0.195435 0.229279 0.013641
0.229431 0.224884 0.014679
0.264343 0.220703 0.015503
0.288940 0.219635 0.016205
0.313812 0.218506 0.016968
0.338989 0.217499 0.017944
0.364349 0.216370 0.018982
0.389893 0.215240 0.019928
0.415619 0.214081 0.021057
0.441620 0.212830 0.022156
0.467804 0.211578 0.023407
0.494141 0.210297 0.024628
0.520660 0.208923 0.026001
0.547302 0.207520 0.027588
0.574097 0.206085 0.029083
0.601013 0.204590 0.030731
0.628021 0.203033 0.032684
0.654968 0.201569 0.034851
0.681458 0.200500 0.038116
0.707397 0.199982 0.042694
0.732758 0.200012 0.048401
0.757690 0.200684 0.054901
0.782166 0.202087 0.062225
0.806183 0.204224 0.069733
0.014679 0.305725 0.063629
0.022522 0.299835 0.056702
0.031494 0.293945 0.050140
0.042999 0.288269 0.043945
0.056091 0.282501 0.037567
0.072296 0.276855 0.031738
0.097717 0.271454 0.026184
0.124969 0.266327 0.020721
0.155060 0.261230 0.015594
0.187103 0.256409 0.014893
0.220703 0.251770 0.015747
0.255249 0.247345 0.016602
0.290649 0.243073 0.017731
0.315552 0.242004 0.018524
0.340668 0.240875 0.019470
0.366028 0.239807 0.020447
0.391602 0.238708 0.021362
0.417297 0.237610 0.022369
0.443237 0.236450 0.023712
0.469421 0.235260 0.024872
0.495728 0.234009 0.026215
0.522217 0.232758 0.027588
0.548828 0.231445 0.029175
0.575592 0.230072 0.030762
0.602478 0.228668 0.032288
0.629425 0.227264 0.034119
0.656281 0.225891 0.036377
0.682709 0.224945 0.039764
0.708618 0.224396 0.044495
0.733948 0.224396 0.050171
0.758789 0.224945 0.056763
0.783234 0.226135 0.064117
0.807220 0.227966 0.071777
0.012085 0.334900 0.069977
0.020538 0.328827 0.062897
0.029572 0.322784 0.056183
0.041840 0.316986 0.049805
0.055450 0.311127 0.043335
0.069763 0.305328 0.037231
0.092499 0.299744 0.031494
0.118988 0.294342 0.026001
0.148041 0.289062 0.020599
0.179138 0.284027 0.016388
0.212097 0.279175 0.016907
0.246307 0.274536 0.017670
0.281342 0.270020 0.018707
0.317230 0.265686 0.020050
0.342377 0.264648 0.020844
0.367706 0.263519 0.021851
0.393250 0.262421 0.022858
0.419006 0.261353 0.023926
0.444946 0.260223 0.025146
0.471069 0.259094 0.026581
0.497345 0.257874 0.027802
0.523773 0.256683 0.029205
0.550385 0.255463 0.030609
0.577118 0.254150 0.032318
0.603973 0.252838 0.033997
0.630859 0.251526 0.035675
0.657654 0.250275 0.037933
0.684052 0.249359 0.041412
0.709900 0.248840 0.046356
0.735168 0.248779 0.052063
0.759949 0.249207 0.058838
0.784363 0.250153 0.066223
0.808350 0.251678 0.073914
0.008423 0.364410 0.076233
0.017334 0.358185 0.069061
0.026581 0.352112 0.062347
0.039429 0.346130 0.055756
0.053711 0.340179 0.049133
0.068420 0.334259 0.042908
0.087402 0.328491 0.037018
0.113129 0.322906 0.031281
0.141144 0.317413 0.025787
0.171539 0.312134 0.020569
0.203705 0.307068 0.017975
0.237396 0.302185 0.018768
0.272125 0.297516 0.019653
0.307739 0.292969 0.020905
0.344055 0.288605 0.022369
0.369415 0.287537 0.023254
0.394958 0.286407 0.024292
0.420654 0.285309 0.025452
0.446655 0.284210 0.026611
0.472748 0.283112 0.027954
0.499023 0.281952 0.029358
0.525421 0.280762 0.030731
0.552002 0.279572 0.032257
0.578705 0.278381 0.033722
0.605530 0.277130 0.035614
0.632385 0.275909 0.037354
0.659119 0.274719 0.039612
0.685425 0.273834 0.043091
0.711212 0.273315 0.048218
0.736450 0.273163 0.054108
0.761200 0.273468 0.061005
0.785583 0.274261 0.068542
0.809540 0.275543 0.076141
0.003723 0.394226 0.082428
0.013031 0.387909 0.075287
0.022522 0.381775 0.068329
0.035797 0.375641 0.061676
0.051086 0.369568 0.054901
0.066559 0.363556 0.048523
0.083191 0.357574 0.042328
0.107269 0.351837 0.036682
0.134430 0.346191 0.030975
0.164001 0.340729 0.025482
0.195465 0.335449 0.020569
0.228607 0.330353 0.019745
0.263031 0.325439 0.020538
0.298248 0.320740 0.021881
0.334351 0.316132 0.023132
0.371094 0.311707 0.024689
0.396667 0.310608 0.025818
0.422394 0.309479 0.026886
0.448334 0.308411 0.028107
0.474457 0.307281 0.029388
0.500702 0.306183 0.030731
0.527100 0.305023 0.032257
0.553650 0.303864 0.033752
0.580322 0.302704 0.035339
0.607117 0.301514 0.037079
0.633942 0.300354 0.039032
0.660614 0.299225 0.041351
0.686859 0.298370 0.044952
0.712585 0.297791 0.050110
0.737793 0.297607 0.056244
0.762482 0.297791 0.063171
0.786835 0.298401 0.070770
0.810791 0.299500 0.078552
0.000610 0.424194 0.088623
0.007599 0.417847 0.081360
0.017700 0.411591 0.074219
0.030975 0.405396 0.067413
0.047241 0.399231 0.060608
0.063812 0.393127 0.054016
0.079987 0.387085 0.047699
0.101685 0.381104 0.041840
0.127991 0.375336 0.036163
0.156616 0.369690 0.030518
0.187469 0.364197 0.025024
0.219971 0.358887 0.020935
0.253937 0.353790 0.021576
0.288910 0.348907 0.022522
0.324738 0.344086 0.024078
0.361267 0.339447 0.025452
0.398346 0.334961 0.027100
0.424133 0.333832 0.028320
0.450043 0.332733 0.029449
0.476166 0.331635 0.030853
0.502380 0.330536 0.032288
0.528778 0.329437 0.033783
0.555298 0.328278 0.035370
0.581970 0.327209 0.036835
0.608734 0.326050 0.038483
0.635529 0.324890 0.040405
0.662109 0.323792 0.042877
0.688324 0.322968 0.046814
0.713989 0.322357 0.052063
0.739136 0.322083 0.058350
0.763855 0.322205 0.065338
0.788147 0.322632 0.073029
0.812073 0.323517 0.081116
0.000000 0.454407 0.094696
0.002380 0.447998 0.087402
0.011505 0.441711 0.080200
0.025208 0.435455 0.073181
0.042175 0.429230 0.066376
0.060089 0.422974 0.059570
0.077148 0.416840 0.053101
0.096008 0.410767 0.047089
0.121674 0.404785 0.041260
0.149414 0.399017 0.035553
0.179504 0.393341 0.029968
0.211517 0.387848 0.024658
0.244904 0.382538 0.022156
0.279541 0.377441 0.023407
0.315094 0.372467 0.024597
0.351410 0.367615 0.026031
0.388367 0.362946 0.027771
0.425842 0.358459 0.029510
0.451752 0.357330 0.030914
0.477844 0.356232 0.032196
0.504120 0.355133 0.033661
0.530457 0.354004 0.035187
0.556976 0.352905 0.036865
0.583618 0.351776 0.038452
0.610352 0.350677 0.039917
0.637115 0.349579 0.041748
0.663696 0.348480 0.044250
0.689850 0.347656 0.048492
0.715454 0.347015 0.053864
0.740570 0.346680 0.060394
0.765228 0.346680 0.067627
0.789520 0.346954 0.075439
0.813416 0.347656 0.083710
0.000000 0.484802 0.100830
0.000000 0.478394 0.093506
0.004883 0.472076 0.086212
0.018677 0.465698 0.078918
0.036224 0.459412 0.071960
0.055420 0.453094 0.065094
0.073822 0.446869 0.058472
0.091461 0.440674 0.052185
0.115173 0.434601 0.046234
0.142487 0.428680 0.040527
0.171722 0.422852 0.034882
0.203064 0.417206 0.029327
0.235992 0.411713 0.024567
0.270172 0.406403 0.023895
0.305511 0.401245 0.025146
0.341522 0.396271 0.026581
0.378235 0.391388 0.027985
0.415619 0.386688 0.030060
0.453430 0.382080 0.032013
0.479523 0.380981 0.033600
0.505768 0.379913 0.034943
0.532166 0.378784 0.036469
0.558655 0.377655 0.037933
0.585266 0.376556 0.039764
0.611969 0.375458 0.041321
0.638702 0.374390 0.043152
0.665253 0.373352 0.045837
0.691376 0.372498 0.050171
0.716919 0.371796 0.055695
0.742035 0.371399 0.062469
0.766663 0.371246 0.069946
0.790955 0.371429 0.077972
0.814819 0.371948 0.086304
0.000000 0.515350 0.107208
0.000000 0.508881 0.099609
0.000885 0.502472 0.092224
0.011688 0.496063 0.084808
0.029541 0.489685 0.077545
0.050079 0.483398 0.070618
0.069794 0.477112 0.063812
0.088043 0.470856 0.057281
0.109070 0.464661 0.051086
0.135712 0.458618 0.045380
0.164185 0.452667 0.039764
0.194763 0.446869 0.034119
0.227173 0.441193 0.028595
0.260925 0.435730 0.024872
0.295898 0.430389 0.025513
0.331757 0.425232 0.026947
0.368225 0.420227 0.028503
0.405334 0.415314 0.030151
0.443024 0.410583 0.032318
0.481140 0.405914 0.034698
0.507446 0.404816 0.036102
0.533844 0.403748 0.037720
0.560333 0.402557 0.039246
0.586945 0.401489 0.040802
0.613647 0.400421 0.042572
0.640350 0.399353 0.044342
0.666840 0.398315 0.047333
0.692902 0.397430 0.051819
0.718445 0.396698 0.057678
0.743500 0.396179 0.064575
0.768127 0.395935 0.072296
0.792419 0.395966 0.080536
0.816284 0.396332 0.089020
0.000000 0.545959 0.113678
0.000000 0.539368 0.105713
0.000000 0.532990 0.098358
0.005066 0.526581 0.090881
0.022308 0.520203 0.083496
0.044006 0.513824 0.076416
0.065155 0.507477 0.069336
0.084503 0.501160 0.062500
0.103790 0.494904 0.056122
0.128906 0.488770 0.050018
0.156860 0.482697 0.044495
0.186737 0.476776 0.038849
0.218536 0.470978 0.033203
0.251831 0.465302 0.027985
0.286316 0.459869 0.025757
0.321899 0.454529 0.027008
0.358215 0.449341 0.028748
0.395142 0.444305 0.030457
0.432648 0.439392 0.032501
0.470642 0.434601 0.034637
0.509094 0.429932 0.037354
0.535522 0.428833 0.038879
0.562012 0.427673 0.040436
0.588593 0.426544 0.042114
0.615295 0.425507 0.043640
0.641968 0.424469 0.045624
0.668427 0.423431 0.048553
0.694458 0.422455 0.053436
0.719971 0.421661 0.059540
0.745026 0.421051 0.066772
0.769623 0.420685 0.074677
0.793884 0.420654 0.083221
0.817780 0.420837 0.091827
0.000000 0.576599 0.120148
0.000000 0.570007 0.112183
0.000000 0.563599 0.104675
0.000916 0.557190 0.097076
0.015167 0.550812 0.089600
0.037170 0.544373 0.082336
0.059998 0.537964 0.074982
0.080536 0.531586 0.068054
0.099762 0.525238 0.061279
0.122803 0.519043 0.054840
0.149902 0.512939 0.048981
0.178925 0.506897 0.043549
0.210083 0.501007 0.037964
0.242859 0.495209 0.032227
0.276947 0.489532 0.027618
0.312103 0.484131 0.027069
0.348145 0.478760 0.028595
0.384918 0.473572 0.030457
0.422272 0.468506 0.032410
0.460114 0.463593 0.034698
0.498444 0.458740 0.037170
0.537170 0.454102 0.040039
0.563660 0.452942 0.041565
0.590240 0.451813 0.043060
0.616882 0.450714 0.044739
0.643524 0.449646 0.046600
0.669983 0.448608 0.049896
0.695984 0.447632 0.054871
0.721466 0.446747 0.061432
0.746521 0.446014 0.068939
0.771118 0.445557 0.077118
0.795410 0.445435 0.085876
0.819305 0.445435 0.094696
0.000000 0.607208 0.126709
0.000000 0.600739 0.118927
0.000000 0.594208 0.110931
0.000061 0.587860 0.103333
0.009247 0.581421 0.095703
0.030548 0.574951 0.088196
0.054718 0.568512 0.080658
0.076569 0.562164 0.073669
0.096375 0.555786 0.066681
0.117310 0.549438 0.059845
0.143280 0.543274 0.053772
0.171570 0.537170 0.048096
0.201904 0.531189 0.042725
0.234131 0.525330 0.037140
0.267761 0.519501 0.031372
0.302551 0.513885 0.027649
0.338257 0.508453 0.028442
0.374725 0.503082 0.030182
0.411926 0.497864 0.032410
0.449585 0.492828 0.034393
0.487732 0.487885 0.036926
0.526398 0.482971 0.039551
0.565247 0.478363 0.042511
0.591858 0.477234 0.043793
0.618530 0.476044 0.045837
0.645172 0.474976 0.047699
0.671509 0.473877 0.051117
0.697510 0.472809 0.056335
0.722992 0.471924 0.063263
0.748077 0.471100 0.071075
0.772644 0.470581 0.079590
0.796906 0.470184 0.088440
0.820831 0.470093 0.097595
0.000000 0.637665 0.134277
0.000000 0.631256 0.125977
0.000000 0.624847 0.117798
0.000000 0.618439 0.109863
0.004333 0.612061 0.102020
0.024567 0.605591 0.094299
0.049622 0.599121 0.086639
0.072540 0.592773 0.079437
0.093170 0.586395 0.072296
0.112915 0.580017 0.065277
0.137177 0.573761 0.058807
0.164795 0.567596 0.052765
0.194183 0.561523 0.047119
0.225677 0.555573 0.041718
0.258820 0.549683 0.036163
0.293152 0.543915 0.030884
0.328491 0.538330 0.028442
0.364716 0.532867 0.029938
0.401672 0.527527 0.031952
0.439178 0.522308 0.034393
0.477142 0.517181 0.036591
0.515564 0.512238 0.039337
0.554413 0.507355 0.041962
0.593445 0.502655 0.044983
0.620056 0.501526 0.046509
0.646729 0.500397 0.048706
0.673126 0.499268 0.052246
0.699066 0.498169 0.057770
0.724579 0.497192 0.064941
0.749603 0.496307 0.073181
0.774231 0.495636 0.081940
0.798492 0.495117 0.091156
0.822449 0.494873 0.100494
0.000000 0.667603 0.143463
0.000000 0.661346 0.134583
0.000000 0.655151 0.126007
0.000000 0.648865 0.117462
0.001831 0.642578 0.109070
0.020172 0.636200 0.101044
0.045227 0.629761 0.093079
0.068787 0.623413 0.085510
0.090271 0.617004 0.078064
0.110199 0.610626 0.070862
0.132263 0.604309 0.064026
0.158722 0.598083 0.057617
0.187164 0.591949 0.051758
0.217773 0.585907 0.046265
0.250244 0.579895 0.040802
0.284058 0.574066 0.035248
0.318970 0.568329 0.030640
0.354797 0.562744 0.029785
0.391479 0.557281 0.031708
0.428772 0.552002 0.033966
0.466583 0.546783 0.036377
0.504852 0.541626 0.038971
0.543518 0.536682 0.041748
0.582458 0.531799 0.044434
0.621643 0.526978 0.047394
0.648315 0.525909 0.049530
0.674622 0.524719 0.053467
0.700653 0.523651 0.059357
0.726135 0.522522 0.066833
0.751190 0.521515 0.075409
0.775848 0.520721 0.084503
0.800079 0.520111 0.094025
0.824066 0.519714 0.103516
0.000610 0.697021 0.154358
0.000214 0.690887 0.144989
0.000305 0.684784 0.135773
0.001190 0.678711 0.126831
0.005646 0.672516 0.117828
0.022186 0.666382 0.109222
0.045013 0.660126 0.100769
0.067291 0.653870 0.092529
0.088409 0.647552 0.084503
0.108398 0.641174 0.076782
0.128326 0.634857 0.069611
0.153015 0.628601 0.062805
0.180786 0.622437 0.056549
0.210388 0.616302 0.050812
0.242035 0.610260 0.045471
0.275299 0.604340 0.040070
0.309723 0.598511 0.034485
0.345123 0.592804 0.030670
0.381470 0.587250 0.031372
0.418518 0.581818 0.033630
0.456146 0.576477 0.036041
0.494232 0.571289 0.038696
0.532715 0.566132 0.041138
0.571533 0.561127 0.044037
0.610626 0.556244 0.047150
0.649841 0.551453 0.050659
0.676239 0.550262 0.054810
0.702179 0.549042 0.060883
0.727692 0.547943 0.068787
0.752777 0.546814 0.077667
0.777435 0.545929 0.087158
0.801727 0.545135 0.096985
0.825714 0.544647 0.106812
0.009369 0.725952 0.166748
0.006836 0.719849 0.156952
0.006531 0.713928 0.147430
0.009979 0.708038 0.138275
0.019135 0.702026 0.128937
0.033661 0.696045 0.119873
0.052399 0.689911 0.110626
0.071259 0.683777 0.101746
0.090149 0.677673 0.093201
0.108948 0.671448 0.084656
0.127197 0.665222 0.076538
0.149170 0.659058 0.068970
0.175323 0.652863 0.061951
0.203735 0.646729 0.055695
0.234436 0.640656 0.050110
0.266907 0.634674 0.044830
0.300781 0.628784 0.039398
0.335754 0.622955 0.034210
0.371704 0.617279 0.031647
0.408508 0.611786 0.033295
0.445831 0.606354 0.035645
0.483704 0.601013 0.038269
0.522064 0.595856 0.040985
0.560699 0.590698 0.043640
0.599640 0.585663 0.046570
