滤镜资源/Professional Luts Collection/Lutify.me Professional/Skintone/Goshenite.cube
# Created by: Lutify.me
# Copyright: (c) Copyright Lutify.me 2015
# Website: https://lutify.me
#LUT size
LUT_3D_SIZE 33
#LUT data points
0.000000 0.000000 0.000000
0.042572 0.011688 0.011688
0.084473 0.023407 0.023407
0.125549 0.035095 0.035095
0.165955 0.046814 0.046814
0.205597 0.058502 0.058502
0.244537 0.070221 0.070221
0.282745 0.081909 0.081909
0.320190 0.093628 0.093628
0.356934 0.105316 0.105316
0.392944 0.117035 0.117035
0.428223 0.128723 0.128723
0.462738 0.140442 0.140442
0.496552 0.152130 0.152130
0.529633 0.163849 0.163849
0.561981 0.175568 0.175568
0.593597 0.187256 0.187256
0.624481 0.198975 0.198975
0.654633 0.210663 0.210663
0.684052 0.222351 0.222351
0.712738 0.234070 0.234070
0.740692 0.245758 0.245758
0.767944 0.257477 0.257477
0.794464 0.269196 0.269196
0.820190 0.280884 0.280884
0.845215 0.292603 0.292603
0.869507 0.304291 0.304291
0.893127 0.316010 0.316010
0.915924 0.327698 0.327698
0.938080 0.339386 0.339386
0.959442 0.351074 0.351074
0.980072 0.362823 0.362823
1.000000 0.374512 0.374512
0.011688 0.042572 0.011688
0.042572 0.042572 0.011688
0.084473 0.053894 0.023407
0.125549 0.065247 0.035095
0.165955 0.076599 0.046814
0.205597 0.087891 0.058502
0.244537 0.099274 0.070221
0.282745 0.110596 0.081909
0.320190 0.121948 0.093628
0.356934 0.133301 0.105316
0.392944 0.144623 0.117035
0.428223 0.155945 0.128723
0.462738 0.167297 0.140442
0.496552 0.178619 0.152130
0.529633 0.189972 0.163849
0.561981 0.201324 0.175568
0.593597 0.212646 0.187256
0.624481 0.223969 0.198975
0.654633 0.235321 0.210663
0.684052 0.246674 0.222351
0.712738 0.257996 0.234070
0.740692 0.269318 0.245758
0.767944 0.280670 0.257477
0.794464 0.292023 0.269196
0.820190 0.303345 0.280884
0.845215 0.314697 0.292603
0.869507 0.326019 0.304291
0.893127 0.337341 0.316010
0.915924 0.348694 0.327698
0.938080 0.360046 0.339386
0.959442 0.371368 0.351074
0.980072 0.382751 0.362823
1.000000 0.394073 0.374512
0.023407 0.084473 0.023407
0.053894 0.084473 0.023407
0.084473 0.084473 0.023407
0.125549 0.095398 0.035095
0.165955 0.106384 0.046814
0.205597 0.117371 0.058502
0.244537 0.128326 0.070221
0.282745 0.139313 0.081909
0.320190 0.150299 0.093628
0.356934 0.161255 0.105316
0.392944 0.172211 0.117035
0.428223 0.183197 0.128723
0.462738 0.194153 0.140442
0.496552 0.205139 0.152130
0.529633 0.216125 0.163849
0.561981 0.227081 0.175568
0.593597 0.238068 0.187256
0.624481 0.249023 0.198975
0.654633 0.260010 0.210663
0.684052 0.270966 0.222351
0.712738 0.281921 0.234070
0.740692 0.292908 0.245758
0.767944 0.303894 0.257477
0.794464 0.314880 0.269196
0.820190 0.325836 0.280884
0.845215 0.336823 0.292603
0.869507 0.347809 0.304291
0.893127 0.358734 0.316010
0.915924 0.369720 0.327698
0.938080 0.380707 0.339386
0.959442 0.391663 0.351074
0.980072 0.402649 0.362823
1.000000 0.413605 0.374512
0.035095 0.125549 0.035095
0.065247 0.125549 0.035095
0.095398 0.125549 0.035095
0.125549 0.125549 0.035095
0.165955 0.136169 0.046814
0.205597 0.146759 0.058502
0.244537 0.157379 0.070221
0.282745 0.167999 0.081909
0.320190 0.178589 0.093628
0.356934 0.189209 0.105316
0.392944 0.199829 0.117035
0.428223 0.210419 0.128723
0.462738 0.221039 0.140442
0.496552 0.231628 0.152130
0.529633 0.242249 0.163849
0.561981 0.252838 0.175568
0.593597 0.263428 0.187256
0.624481 0.274048 0.198975
0.654633 0.284668 0.210663
0.684052 0.295288 0.222351
0.712738 0.305878 0.234070
0.740692 0.316467 0.245758
0.767944 0.327087 0.257477
0.794464 0.337708 0.269196
0.820190 0.348297 0.280884
0.845215 0.358887 0.292603
0.869507 0.369507 0.304291
0.893127 0.380096 0.316010
0.915924 0.390717 0.327698
0.938080 0.401306 0.339386
0.959442 0.411957 0.351074
0.980072 0.422577 0.362823
1.000000 0.433167 0.374512
0.046814 0.165955 0.046814
0.076599 0.165955 0.046814
0.106384 0.165955 0.046814
0.136169 0.165955 0.046814
0.165955 0.165955 0.046814
0.205597 0.176178 0.058502
0.244537 0.186432 0.070221
0.282745 0.196686 0.081909
0.320190 0.206909 0.093628
0.356934 0.217163 0.105316
0.392944 0.227386 0.117035
0.428223 0.237640 0.128723
0.462738 0.247864 0.140442
0.496552 0.258118 0.152130
0.529633 0.268372 0.163849
0.561981 0.278625 0.175568
0.593597 0.288849 0.187256
0.624481 0.299103 0.198975
0.654633 0.309326 0.210663
0.684052 0.319550 0.222351
0.712738 0.329803 0.234070
0.740692 0.340027 0.245758
0.767944 0.350281 0.257477
0.794464 0.360535 0.269196
0.820190 0.370789 0.280884
0.845215 0.381012 0.292603
0.869507 0.391266 0.304291
0.893127 0.401489 0.316010
0.915924 0.411743 0.327698
0.938080 0.421967 0.339386
0.959442 0.432220 0.351074
0.980072 0.442474 0.362823
1.000000 0.452698 0.374512
0.058502 0.205597 0.058502
0.087891 0.205597 0.058502
0.117371 0.205597 0.058502
0.146759 0.205597 0.058502
0.176178 0.205597 0.058502
0.205597 0.205597 0.058502
0.244537 0.215485 0.070221
0.282745 0.225342 0.081909
0.320190 0.235229 0.093628
0.356934 0.245117 0.105316
0.392944 0.254974 0.117035
0.428223 0.264862 0.128723
0.462738 0.274719 0.140442
0.496552 0.284576 0.152130
0.529633 0.294495 0.163849
0.561981 0.304382 0.175568
0.593597 0.314240 0.187256
0.624481 0.324127 0.198975
0.654633 0.333984 0.210663
0.684052 0.343842 0.222351
0.712738 0.353729 0.234070
0.740692 0.363617 0.245758
0.767944 0.373474 0.257477
0.794464 0.383362 0.269196
0.820190 0.393250 0.280884
0.845215 0.403137 0.292603
0.869507 0.412994 0.304291
0.893127 0.422852 0.316010
0.915924 0.432739 0.327698
0.938080 0.442596 0.339386
0.959442 0.452484 0.351074
0.980072 0.462372 0.362823
1.000000 0.472229 0.374512
0.070221 0.244537 0.070221
0.099274 0.244537 0.070221
0.128326 0.244537 0.070221
0.157379 0.244537 0.070221
0.186432 0.244537 0.070221
0.215485 0.244537 0.070221
0.244537 0.244537 0.070221
0.282745 0.254059 0.081909
0.320190 0.263580 0.093628
0.356934 0.273071 0.105316
0.392944 0.282562 0.117035
0.428223 0.292114 0.128723
0.462738 0.301605 0.140442
0.496552 0.311096 0.152130
0.529633 0.320618 0.163849
0.561981 0.330139 0.175568
0.593597 0.339630 0.187256
0.624481 0.349152 0.198975
0.654633 0.358673 0.210663
0.684052 0.368164 0.222351
0.712738 0.377686 0.234070
0.740692 0.387177 0.245758
0.767944 0.396698 0.257477
0.794464 0.406219 0.269196
0.820190 0.415741 0.280884
0.845215 0.425232 0.292603
0.869507 0.434753 0.304291
0.893127 0.444244 0.316010
0.915924 0.453735 0.327698
0.938080 0.463257 0.339386
0.959442 0.472778 0.351074
0.980072 0.482269 0.362823
1.000000 0.491791 0.374512
0.081909 0.282745 0.081909
0.110596 0.282745 0.081909
0.139313 0.282745 0.081909
0.167999 0.282745 0.081909
0.196686 0.282745 0.081909
0.225342 0.282745 0.081909
0.254059 0.282745 0.081909
0.282745 0.282745 0.081909
0.320190 0.291901 0.093628
0.356934 0.301025 0.105316
0.392944 0.310181 0.117035
0.428223 0.319305 0.128723
0.462738 0.328461 0.140442
0.496552 0.337616 0.152130
0.529633 0.346741 0.163849
0.561981 0.355896 0.175568
0.593597 0.365021 0.187256
0.624481 0.374207 0.198975
0.654633 0.383331 0.210663
0.684052 0.392487 0.222351
0.712738 0.401611 0.234070
0.740692 0.410767 0.245758
0.767944 0.419891 0.257477
0.794464 0.429047 0.269196
0.820190 0.438202 0.280884
0.845215 0.447357 0.292603
0.869507 0.456482 0.304291
0.893127 0.465637 0.316010
0.915924 0.474731 0.327698
0.938080 0.483887 0.339386
0.959442 0.493042 0.351074
0.980072 0.502197 0.362823
1.000000 0.511353 0.374512
0.093628 0.320190 0.093628
0.121948 0.320190 0.093628
0.150299 0.320190 0.093628
0.178589 0.320190 0.093628
0.206909 0.320190 0.093628
0.235229 0.320190 0.093628
0.263580 0.320190 0.093628
0.291901 0.320190 0.093628
0.320190 0.320190 0.093628
0.356934 0.328979 0.105316
0.392944 0.337769 0.117035
0.428223 0.346558 0.128723
0.462738 0.355316 0.140442
0.496552 0.364105 0.152130
0.529633 0.372864 0.163849
0.561981 0.381653 0.175568
0.593597 0.390442 0.187256
0.624481 0.399200 0.198975
0.654633 0.407990 0.210663
0.684052 0.416748 0.222351
0.712738 0.425537 0.234070
0.740692 0.434326 0.245758
0.767944 0.443085 0.257477
0.794464 0.451904 0.269196
0.820190 0.460663 0.280884
0.845215 0.469452 0.292603
0.869507 0.478241 0.304291
0.893127 0.487000 0.316010
0.915924 0.495758 0.327698
0.938080 0.504517 0.339386
0.959442 0.513306 0.351074
0.980072 0.522125 0.362823
1.000000 0.530884 0.374512
0.105316 0.356934 0.105316
0.133301 0.356934 0.105316
0.161255 0.356934 0.105316
0.189209 0.356934 0.105316
0.217163 0.356934 0.105316
0.245117 0.356934 0.105316
0.273071 0.356934 0.105316
0.301025 0.356934 0.105316
0.328979 0.356934 0.105316
0.356934 0.356934 0.105316
0.392944 0.365356 0.117035
0.428223 0.373749 0.128723
0.462738 0.382172 0.140442
0.496552 0.390564 0.152130
0.529633 0.398987 0.163849
0.561981 0.407410 0.175568
0.593597 0.415833 0.187256
0.624481 0.424255 0.198975
0.654633 0.432648 0.210663
0.684052 0.441071 0.222351
0.712738 0.449463 0.234070
0.740692 0.457886 0.245758
0.767944 0.466309 0.257477
0.794464 0.474701 0.269196
0.820190 0.483124 0.280884
0.845215 0.491516 0.292603
0.869507 0.499939 0.304291
0.893127 0.508331 0.316010
0.915924 0.516785 0.327698
0.938080 0.525177 0.339386
0.959442 0.533569 0.351074
0.980072 0.542023 0.362823
1.000000 0.550415 0.374512
0.117035 0.392944 0.117035
0.144623 0.392944 0.117035
0.172211 0.392944 0.117035
0.199829 0.392944 0.117035
0.227386 0.392944 0.117035
0.254974 0.392944 0.117035
0.282562 0.392944 0.117035
0.310181 0.392944 0.117035
0.337769 0.392944 0.117035
0.365356 0.392944 0.117035
0.392944 0.392944 0.117035
0.428223 0.401001 0.128723
0.462738 0.409058 0.140442
0.496552 0.417084 0.152130
0.529633 0.425140 0.163849
0.561981 0.433197 0.175568
0.593597 0.441223 0.187256
0.624481 0.449280 0.198975
0.654633 0.457336 0.210663
0.684052 0.465363 0.222351
0.712738 0.473419 0.234070
0.740692 0.481476 0.245758
0.767944 0.489502 0.257477
0.794464 0.497559 0.269196
0.820190 0.505615 0.280884
0.845215 0.513641 0.292603
0.869507 0.521698 0.304291
0.893127 0.529724 0.316010
0.915924 0.537781 0.327698
0.938080 0.545837 0.339386
0.959442 0.553864 0.351074
0.980072 0.561920 0.362823
1.000000 0.569977 0.374512
0.128723 0.428223 0.128723
0.155945 0.428223 0.128723
0.183197 0.428223 0.128723
0.210419 0.428223 0.128723
0.237640 0.428223 0.128723
0.264862 0.428223 0.128723
0.292114 0.428223 0.128723
0.319305 0.428223 0.128723
0.346558 0.428223 0.128723
0.373749 0.428223 0.128723
0.401001 0.428223 0.128723
0.428223 0.428223 0.128723
0.462738 0.435913 0.140442
0.496552 0.443573 0.152130
0.529633 0.451263 0.163849
0.561981 0.458954 0.175568
0.593597 0.466644 0.187256
0.624481 0.474304 0.198975
0.654633 0.481995 0.210663
0.684052 0.489655 0.222351
0.712738 0.497345 0.234070
0.740692 0.505005 0.245758
0.767944 0.512726 0.257477
0.794464 0.520386 0.269196
0.820190 0.528076 0.280884
0.845215 0.535736 0.292603
0.869507 0.543427 0.304291
0.893127 0.551117 0.316010
0.915924 0.558777 0.327698
0.938080 0.566467 0.339386
0.959442 0.574158 0.351074
0.980072 0.581848 0.362823
1.000000 0.589508 0.374512
0.140442 0.462738 0.140442
0.167297 0.462738 0.140442
0.194153 0.462738 0.140442
0.221039 0.462738 0.140442
0.247864 0.462738 0.140442
0.274719 0.462738 0.140442
0.301605 0.462738 0.140442
0.328461 0.462738 0.140442
0.355316 0.462738 0.140442
0.382172 0.462738 0.140442
0.409058 0.462738 0.140442
0.435913 0.462738 0.140442
0.462738 0.462738 0.140442
0.496552 0.470062 0.152130
0.529633 0.477386 0.163849
0.561981 0.484711 0.175568
0.593597 0.492004 0.187256
0.624481 0.499329 0.198975
0.654633 0.506653 0.210663
0.684052 0.513947 0.222351
0.712738 0.521271 0.234070
0.740692 0.528564 0.245758
0.767944 0.535889 0.257477
0.794464 0.543213 0.269196
0.820190 0.550537 0.280884
0.845215 0.557861 0.292603
0.869507 0.565155 0.304291
0.893127 0.572479 0.316010
0.915924 0.579803 0.327698
0.938080 0.587097 0.339386
0.959442 0.594421 0.351074
0.980072 0.601746 0.362823
1.000000 0.609070 0.374512
0.152130 0.496552 0.152130
0.178619 0.496552 0.152130
0.205139 0.496552 0.152130
0.231628 0.496552 0.152130
0.258118 0.496552 0.152130
0.284576 0.496552 0.152130
0.311096 0.496552 0.152130
0.337616 0.496552 0.152130
0.364105 0.496552 0.152130
0.390564 0.496552 0.152130
0.417084 0.496552 0.152130
0.443573 0.496552 0.152130
0.470062 0.496552 0.152130
0.496552 0.496552 0.152130
0.529633 0.503510 0.163849
0.561981 0.510437 0.175568
0.593597 0.517426 0.187256
0.624481 0.524353 0.198975
0.654633 0.531281 0.210663
0.684052 0.538239 0.222351
0.712738 0.545197 0.234070
0.740692 0.552155 0.245758
0.767944 0.559082 0.257477
0.794464 0.566040 0.269196
0.820190 0.572998 0.280884
0.845215 0.579956 0.292603
0.869507 0.586914 0.304291
0.893127 0.593842 0.316010
0.915924 0.600800 0.327698
0.938080 0.607758 0.339386
0.959442 0.614685 0.351074
0.980072 0.621643 0.362823
1.000000 0.628601 0.374512
0.163849 0.529633 0.163849
0.189972 0.529633 0.163849
0.216125 0.529633 0.163849
0.242249 0.529633 0.163849
0.268372 0.529633 0.163849
0.294495 0.529633 0.163849
0.320618 0.529633 0.163849
0.346741 0.529633 0.163849
0.372864 0.529633 0.163849
0.398987 0.529633 0.163849
0.425140 0.529633 0.163849
0.451263 0.529633 0.163849
0.477386 0.529633 0.163849
0.503510 0.529633 0.163849
0.529633 0.529633 0.163849
0.561981 0.536224 0.175568
0.593597 0.542816 0.187256
0.624481 0.549377 0.198975
0.654633 0.555969 0.210663
0.684052 0.562561 0.222351
0.712738 0.569153 0.234070
0.740692 0.575714 0.245758
0.767944 0.582306 0.257477
0.794464 0.588898 0.269196
0.820190 0.595490 0.280884
0.845215 0.602051 0.292603
0.869507 0.608643 0.304291
0.893127 0.615204 0.316010
0.915924 0.621826 0.327698
0.938080 0.628387 0.339386
0.959442 0.634979 0.351074
0.980072 0.641571 0.362823
1.000000 0.648163 0.374512
0.175568 0.561981 0.175568
0.201324 0.561981 0.175568
0.227081 0.561981 0.175568
0.252838 0.561981 0.175568
0.278625 0.561981 0.175568
0.304382 0.561981 0.175568
0.330139 0.561981 0.175568
0.355896 0.561981 0.175568
0.381653 0.561981 0.175568
0.407410 0.561981 0.175568
0.433197 0.561981 0.175568
0.458954 0.561981 0.175568
0.484711 0.561981 0.175568
0.510437 0.561981 0.175568
0.536224 0.561981 0.175568
0.561981 0.561981 0.175568
0.593597 0.568207 0.187256
0.624481 0.574432 0.198975
0.654633 0.580627 0.210663
0.684052 0.586853 0.222351
0.712738 0.593079 0.234070
0.740692 0.599304 0.245758
0.767944 0.605530 0.257477
0.794464 0.611755 0.269196
0.820190 0.617950 0.280884
0.845215 0.624176 0.292603
0.869507 0.630402 0.304291
0.893127 0.636597 0.316010
0.915924 0.642853 0.327698
0.938080 0.649048 0.339386
0.959442 0.655273 0.351074
0.980072 0.661469 0.362823
1.000000 0.667694 0.374512
0.187256 0.593597 0.187256
0.212646 0.593597 0.187256
0.238068 0.593597 0.187256
0.263428 0.593597 0.187256
0.288849 0.593597 0.187256
0.314240 0.593597 0.187256
0.339630 0.593597 0.187256
0.365021 0.593597 0.187256
0.390442 0.593597 0.187256
0.415833 0.593597 0.187256
0.441223 0.593597 0.187256
0.466644 0.593597 0.187256
0.492004 0.593597 0.187256
0.517426 0.593597 0.187256
0.542816 0.593597 0.187256
0.568207 0.593597 0.187256
0.593597 0.593597 0.187256
0.624481 0.599457 0.198975
0.654633 0.605316 0.210663
0.684052 0.611145 0.222351
0.712738 0.617004 0.234070
0.740692 0.622864 0.245758
0.767944 0.628723 0.257477
0.794464 0.634583 0.269196
0.820190 0.640411 0.280884
0.845215 0.646271 0.292603
0.869507 0.652130 0.304291
0.893127 0.657990 0.316010
0.915924 0.663849 0.327698
0.938080 0.669678 0.339386
0.959442 0.675537 0.351074
0.980072 0.681396 0.362823
1.000000 0.687256 0.374512
0.198975 0.624481 0.198975
0.223969 0.624481 0.198975
0.249023 0.624481 0.198975
0.274048 0.624481 0.198975
0.299103 0.624481 0.198975
0.324127 0.624481 0.198975
0.349152 0.624481 0.198975
0.374207 0.624481 0.198975
0.399200 0.624481 0.198975
0.424255 0.624481 0.198975
0.449280 0.624481 0.198975
0.474304 0.624481 0.198975
0.499329 0.624481 0.198975
0.524353 0.624481 0.198975
0.549377 0.624481 0.198975
0.574432 0.624481 0.198975
0.599457 0.624481 0.198975
0.624481 0.624481 0.198975
0.654633 0.629944 0.210663
0.684052 0.635437 0.222351
0.712738 0.640930 0.234070
0.740692 0.646423 0.245758
0.767944 0.651917 0.257477
0.794464 0.657410 0.269196
0.820190 0.662903 0.280884
0.845215 0.668365 0.292603
0.869507 0.673859 0.304291
0.893127 0.679352 0.316010
0.915924 0.684845 0.327698
0.938080 0.690308 0.339386
0.959442 0.695801 0.351074
0.980072 0.701294 0.362823
1.000000 0.706787 0.374512
0.210663 0.654633 0.210663
0.235321 0.654633 0.210663
0.260010 0.654633 0.210663
0.284668 0.654633 0.210663
0.309326 0.654633 0.210663
0.333984 0.654633 0.210663
0.358673 0.654633 0.210663
0.383331 0.654633 0.210663
0.407990 0.654633 0.210663
0.432648 0.654633 0.210663
0.457336 0.654633 0.210663
0.481995 0.654633 0.210663
0.506653 0.654633 0.210663
0.531281 0.654633 0.210663
0.555969 0.654633 0.210663
0.580627 0.654633 0.210663
0.605316 0.654633 0.210663
0.629944 0.654633 0.210663
0.654633 0.654633 0.210663
0.684052 0.659760 0.222351
0.712738 0.664886 0.234070
0.740692 0.670013 0.245758
0.767944 0.675110 0.257477
0.794464 0.680237 0.269196
0.820190 0.685364 0.280884
0.845215 0.690491 0.292603
0.869507 0.695587 0.304291
0.893127 0.700745 0.316010
0.915924 0.705872 0.327698
0.938080 0.710999 0.339386
0.959442 0.716095 0.351074
0.980072 0.721222 0.362823
1.000000 0.726318 0.374512
0.222351 0.684052 0.222351
0.246674 0.684052 0.222351
0.270966 0.684052 0.222351
0.295288 0.684052 0.222351
0.319550 0.684052 0.222351
0.343842 0.684052 0.222351
0.368164 0.684052 0.222351
0.392487 0.684052 0.222351
0.416748 0.684052 0.222351
0.441071 0.684052 0.222351
0.465363 0.684052 0.222351
0.489655 0.684052 0.222351
0.513947 0.684052 0.222351
0.538239 0.684052 0.222351
0.562561 0.684052 0.222351
0.586853 0.684052 0.222351
0.611145 0.684052 0.222351
0.635437 0.684052 0.222351
0.659760 0.684052 0.222351
0.684052 0.684052 0.222351
0.712738 0.688812 0.234070
0.740692 0.693573 0.245758
0.767944 0.698334 0.257477
0.794464 0.703094 0.269196
0.820190 0.707855 0.280884
0.845215 0.712616 0.292603
0.869507 0.717346 0.304291
0.893127 0.722107 0.316010
0.915924 0.726868 0.327698
0.938080 0.731628 0.339386
0.959442 0.736389 0.351074
0.980072 0.741150 0.362823
1.000000 0.745880 0.374512
0.234070 0.712738 0.234070
0.257996 0.712738 0.234070
0.281921 0.712738 0.234070
0.305878 0.712738 0.234070
0.329803 0.712738 0.234070
0.353729 0.712738 0.234070
0.377686 0.712738 0.234070
0.401611 0.712738 0.234070
0.425537 0.712738 0.234070
0.449463 0.712738 0.234070
0.473419 0.712738 0.234070
0.497345 0.712738 0.234070
0.521271 0.712738 0.234070
0.545197 0.712738 0.234070
0.569153 0.712738 0.234070
0.593079 0.712738 0.234070
0.617004 0.712738 0.234070
0.640930 0.712738 0.234070
0.664886 0.712738 0.234070
0.688812 0.712738 0.234070
0.712738 0.712738 0.234070
0.740692 0.717133 0.245758
0.767944 0.721527 0.257477
0.794464 0.725922 0.269196
0.820190 0.730286 0.280884
0.845215 0.734711 0.292603
0.869507 0.739105 0.304291
0.893127 0.743469 0.316010
0.915924 0.747864 0.327698
0.938080 0.752289 0.339386
0.959442 0.756653 0.351074
0.980072 0.761047 0.362823
1.000000 0.765442 0.374512
0.245758 0.740692 0.245758
0.269318 0.740692 0.245758
0.292908 0.740692 0.245758
0.316467 0.740692 0.245758
0.340027 0.740692 0.245758
0.363617 0.740692 0.245758
0.387177 0.740692 0.245758
0.410767 0.740692 0.245758
0.434326 0.740692 0.245758
0.457886 0.740692 0.245758
0.481476 0.740692 0.245758
0.505005 0.740692 0.245758
0.528564 0.740692 0.245758
0.552155 0.740692 0.245758
0.575714 0.740692 0.245758
0.599304 0.740692 0.245758
0.622864 0.740692 0.245758
0.646423 0.740692 0.245758
0.670013 0.740692 0.245758
0.693573 0.740692 0.245758
0.717133 0.740692 0.245758
0.740692 0.740692 0.245758
0.767944 0.744720 0.257477
0.794464 0.748749 0.269196
0.820190 0.752777 0.280884
0.845215 0.756805 0.292603
0.869507 0.760834 0.304291
0.893127 0.764832 0.316010
0.915924 0.768860 0.327698
0.938080 0.772888 0.339386
0.959442 0.776917 0.351074
0.980072 0.780975 0.362823
1.000000 0.784973 0.374512
0.257477 0.767944 0.257477
0.280670 0.767944 0.257477
0.303894 0.767944 0.257477
0.327087 0.767944 0.257477
0.350281 0.767944 0.257477
0.373474 0.767944 0.257477
0.396698 0.767944 0.257477
0.419891 0.767944 0.257477
0.443085 0.767944 0.257477
0.466309 0.767944 0.257477
0.489502 0.767944 0.257477
0.512726 0.767944 0.257477
0.535889 0.767944 0.257477
0.559082 0.767944 0.257477
0.582306 0.767944 0.257477
0.605530 0.767944 0.257477
0.628723 0.767944 0.257477
0.651917 0.767944 0.257477
0.675110 0.767944 0.257477
0.698334 0.767944 0.257477
0.721527 0.767944 0.257477
0.744720 0.767944 0.257477
0.767944 0.767944 0.257477
0.794464 0.771606 0.269196
0.820190 0.775238 0.280884
0.845215 0.778931 0.292603
0.869507 0.782562 0.304291
0.893127 0.786255 0.316010
0.915924 0.789886 0.327698
0.938080 0.793549 0.339386
0.959442 0.797211 0.351074
0.980072 0.800873 0.362823
1.000000 0.804535 0.374512
0.269196 0.794464 0.269196
0.292023 0.794464 0.269196
0.314880 0.794464 0.269196
0.337708 0.794464 0.269196
0.360535 0.794464 0.269196
0.383362 0.794464 0.269196
0.406219 0.794464 0.269196
0.429047 0.794464 0.269196
0.451904 0.794464 0.269196
0.474701 0.794464 0.269196
0.497559 0.794464 0.269196
0.520386 0.794464 0.269196
0.543213 0.794464 0.269196
0.566040 0.794464 0.269196
0.588898 0.794464 0.269196
0.611755 0.794464 0.269196
0.634583 0.794464 0.269196
0.657410 0.794464 0.269196
0.680237 0.794464 0.269196
0.703094 0.794464 0.269196
0.725922 0.794464 0.269196
0.748749 0.794464 0.269196
0.771606 0.794464 0.269196
0.794464 0.794464 0.269196
0.820190 0.797729 0.280884
0.845215 0.801025 0.292603
0.869507 0.804321 0.304291
0.893127 0.807617 0.316010
0.915924 0.810913 0.327698
0.938080 0.814209 0.339386
0.959442 0.817505 0.351074
0.980072 0.820801 0.362823
1.000000 0.824066 0.374512
0.280884 0.820190 0.280884
0.303345 0.820190 0.280884
0.325836 0.820190 0.280884
0.348297 0.820190 0.280884
0.370789 0.820190 0.280884
0.393250 0.820190 0.280884
0.415741 0.820190 0.280884
0.438202 0.820190 0.280884
0.460663 0.820190 0.280884
0.483124 0.820190 0.280884
0.505615 0.820190 0.280884
0.528076 0.820190 0.280884
0.550537 0.820190 0.280884
0.572998 0.820190 0.280884
0.595490 0.820190 0.280884
0.617950 0.820190 0.280884
0.640411 0.820190 0.280884
0.662903 0.820190 0.280884
0.685364 0.820190 0.280884
0.707855 0.820190 0.280884
0.730286 0.820190 0.280884
0.752777 0.820190 0.280884
0.775238 0.820190 0.280884
0.797729 0.820190 0.280884
0.820190 0.820190 0.280884
0.845215 0.823120 0.292603
0.869507 0.826050 0.304291
0.893127 0.828979 0.316010
0.915924 0.831879 0.327698
0.938080 0.834839 0.339386
0.959442 0.837769 0.351074
0.980072 0.840698 0.362823
1.000000 0.843628 0.374512
0.292603 0.845215 0.292603
0.314697 0.845215 0.292603
0.336823 0.845215 0.292603
0.358887 0.845215 0.292603
0.381012 0.845215 0.292603
0.403137 0.845215 0.292603
0.425232 0.845215 0.292603
0.447357 0.845215 0.292603
0.469452 0.845215 0.292603
0.491516 0.845215 0.292603
0.513641 0.845215 0.292603
0.535736 0.845215 0.292603
0.557861 0.845215 0.292603
0.579956 0.845215 0.292603
0.602051 0.845215 0.292603
0.624176 0.845215 0.292603
0.646271 0.845215 0.292603
0.668365 0.845215 0.292603
0.690491 0.845215 0.292603
0.712616 0.845215 0.292603
0.734711 0.845215 0.292603
0.756805 0.845215 0.292603
0.778931 0.845215 0.292603
0.801025 0.845215 0.292603
0.823120 0.845215 0.292603
0.845215 0.845215 0.292603
0.869507 0.847778 0.304291
0.893127 0.850342 0.316010
0.915924 0.852905 0.327698
0.938080 0.855469 0.339386
0.959442 0.858032 0.351074
0.980072 0.860596 0.362823
1.000000 0.863159 0.374512
0.304291 0.869507 0.304291
0.326019 0.869507 0.304291
0.347809 0.869507 0.304291
0.369507 0.869507 0.304291
0.391266 0.869507 0.304291
0.412994 0.869507 0.304291
0.434753 0.869507 0.304291
0.456482 0.869507 0.304291
0.478241 0.869507 0.304291
0.499939 0.869507 0.304291
0.521698 0.869507 0.304291
0.543427 0.869507 0.304291
0.565155 0.869507 0.304291
0.586914 0.869507 0.304291
0.608643 0.869507 0.304291
0.630402 0.869507 0.304291
0.652130 0.869507 0.304291
0.673859 0.869507 0.304291
0.695587 0.869507 0.304291
0.717346 0.869507 0.304291
0.739105 0.869507 0.304291
0.760834 0.869507 0.304291
0.782562 0.869507 0.304291
0.804321 0.869507 0.304291
0.826050 0.869507 0.304291
