滤镜资源/Professional Luts Collection/Lutify.me Professional/Skintone/Goshenite.cube
# Created by: Lutify.me
# Copyright: (c) Copyright Lutify.me 2015
# Website: https://lutify.me
#LUT size
LUT_3D_SIZE 5
#LUT data points
0.000000 0.000000 0.000000
0.320190 0.093628 0.093628
0.593597 0.187256 0.187256
0.820190 0.280884 0.280884
1.000000 0.374512 0.374512
0.093628 0.320190 0.093628
0.320190 0.320190 0.093628
0.593597 0.390442 0.187256
0.820190 0.460663 0.280884
1.000000 0.530884 0.374512
0.187256 0.593597 0.187256
0.390442 0.593597 0.187256
0.593597 0.593597 0.187256
0.820190 0.640411 0.280884
1.000000 0.687256 0.374512
0.280884 0.820190 0.280884
0.460663 0.820190 0.280884
0.640411 0.820190 0.280884
0.820190 0.820190 0.280884
1.000000 0.843628 0.374512
0.374512 1.000000 0.374512
0.530884 1.000000 0.374512
0.687256 1.000000 0.374512
0.843628 1.000000 0.374512
1.000000 1.000000 0.374512
0.093628 0.093628 0.320190
0.320190 0.093628 0.320190
0.593597 0.187256 0.390442
0.820190 0.280884 0.460663
1.000000 0.374512 0.530884
0.093628 0.320190 0.320190
0.390411 0.390411 0.390411
0.640411 0.460632 0.460632
0.843597 0.530853 0.530853
1.000000 0.601074 0.601074
0.187256 0.593597 0.390442
0.460632 0.640411 0.460632
0.640411 0.640411 0.460632
0.843597 0.687225 0.530853
1.000000 0.734039 0.601074
0.280884 0.820190 0.460663
0.530853 0.843597 0.530853
0.687225 0.843597 0.530853
0.843597 0.843597 0.530853
1.000000 0.867035 0.601074
0.374512 1.000000 0.530884
0.601074 1.000000 0.601074
0.734039 1.000000 0.601074
0.867035 1.000000 0.601074
1.000000 1.000000 0.601074
0.187256 0.187256 0.593597
0.390442 0.187256 0.593597
0.593597 0.187256 0.593597
0.820190 0.280884 0.640411
1.000000 0.374512 0.687256
0.187256 0.390442 0.593597
0.460632 0.460632 0.640411
0.640411 0.460632 0.640411
0.843597 0.530853 0.687225
1.000000 0.601074 0.734039
0.187256 0.593597 0.593597
0.460632 0.640411 0.640411
0.687225 0.687225 0.687225
0.867004 0.734009 0.734009
1.000000 0.780853 0.780853
0.280884 0.820190 0.640411
0.530853 0.843597 0.687225
0.734009 0.867004 0.734009
0.867004 0.867004 0.734009
1.000000 0.890411 0.780853
0.374512 1.000000 0.687256
0.601074 1.000000 0.734039
0.780853 1.000000 0.780853
0.890411 1.000000 0.780853
1.000000 1.000000 0.780853
0.280884 0.280884 0.820190
0.460663 0.280884 0.820190
0.640411 0.280884 0.820190
0.820190 0.280884 0.820190
1.000000 0.374512 0.843628
0.280884 0.460663 0.820190
0.530853 0.530853 0.843597
0.687225 0.530853 0.843597
0.843597 0.530853 0.843597
1.000000 0.601074 0.867035
0.280884 0.640411 0.820190
0.530853 0.687225 0.843597
0.734009 0.734009 0.867004
0.867004 0.734009 0.867004
1.000000 0.780853 0.890411
0.280884 0.820190 0.820190
0.530853 0.843597 0.843597
0.734009 0.867004 0.867004
0.890381 0.890381 0.890381
1.000000 0.913818 0.913818
0.374512 1.000000 0.843628
0.601074 1.000000 0.867035
0.780853 1.000000 0.890411
0.913818 1.000000 0.913818
1.000000 1.000000 0.913818
0.374512 0.374512 1.000000
0.530884 0.374512 1.000000
0.687256 0.374512 1.000000
0.843628 0.374512 1.000000
1.000000 0.374512 1.000000
0.374512 0.530884 1.000000
0.601074 0.601074 1.000000
0.734039 0.601074 1.000000
0.867035 0.601074 1.000000
1.000000 0.601074 1.000000
0.374512 0.687256 1.000000
0.601074 0.734039 1.000000
0.780853 0.780853 1.000000
0.890411 0.780853 1.000000
1.000000 0.780853 1.000000
0.374512 0.843628 1.000000
0.601074 0.867035 1.000000
0.780853 0.890411 1.000000
0.913818 0.913818 1.000000
1.000000 0.913818 1.000000
0.374512 1.000000 1.000000
0.601074 1.000000 1.000000
0.780853 1.000000 1.000000
0.913818 1.000000 1.000000
1.000000 1.000000 1.000000
