滤镜资源/Professional Luts Collection/Lutify.me Professional/Skintone/Goshenite.cube
# Created by: Lutify.me
# Copyright: (c) Copyright Lutify.me 2015
# Website: https://lutify.me
#LUT size
LUT_3D_SIZE 9
#LUT data points
0.000000 0.000000 0.000000
0.165955 0.046814 0.046814
0.320190 0.093628 0.093628
0.462738 0.140442 0.140442
0.593597 0.187256 0.187256
0.712738 0.234070 0.234070
0.820190 0.280884 0.280884
0.915924 0.327698 0.327698
1.000000 0.374512 0.374512
0.046814 0.165955 0.046814
0.165955 0.165955 0.046814
0.320190 0.206909 0.093628
0.462738 0.247864 0.140442
0.593597 0.288849 0.187256
0.712738 0.329803 0.234070
0.820190 0.370789 0.280884
0.915924 0.411743 0.327698
1.000000 0.452698 0.374512
0.093628 0.320190 0.093628
0.206909 0.320190 0.093628
0.320190 0.320190 0.093628
0.462738 0.355316 0.140442
0.593597 0.390442 0.187256
0.712738 0.425537 0.234070
0.820190 0.460663 0.280884
0.915924 0.495758 0.327698
1.000000 0.530884 0.374512
0.140442 0.462738 0.140442
0.247864 0.462738 0.140442
0.355316 0.462738 0.140442
0.462738 0.462738 0.140442
0.593597 0.492004 0.187256
0.712738 0.521271 0.234070
0.820190 0.550537 0.280884
0.915924 0.579803 0.327698
1.000000 0.609070 0.374512
0.187256 0.593597 0.187256
0.288849 0.593597 0.187256
0.390442 0.593597 0.187256
0.492004 0.593597 0.187256
0.593597 0.593597 0.187256
0.712738 0.617004 0.234070
0.820190 0.640411 0.280884
0.915924 0.663849 0.327698
1.000000 0.687256 0.374512
0.234070 0.712738 0.234070
0.329803 0.712738 0.234070
0.425537 0.712738 0.234070
0.521271 0.712738 0.234070
0.617004 0.712738 0.234070
0.712738 0.712738 0.234070
0.820190 0.730286 0.280884
0.915924 0.747864 0.327698
1.000000 0.765442 0.374512
0.280884 0.820190 0.280884
0.370789 0.820190 0.280884
0.460663 0.820190 0.280884
0.550537 0.820190 0.280884
0.640411 0.820190 0.280884
0.730286 0.820190 0.280884
0.820190 0.820190 0.280884
0.915924 0.831879 0.327698
1.000000 0.843628 0.374512
0.327698 0.915924 0.327698
0.411743 0.915924 0.327698
0.495758 0.915924 0.327698
0.579803 0.915924 0.327698
0.663849 0.915924 0.327698
0.747864 0.915924 0.327698
0.831879 0.915924 0.327698
0.915924 0.915924 0.327698
1.000000 0.921814 0.374512
0.374512 1.000000 0.374512
0.452698 1.000000 0.374512
0.530884 1.000000 0.374512
0.609070 1.000000 0.374512
0.687256 1.000000 0.374512
0.765442 1.000000 0.374512
0.843628 1.000000 0.374512
0.921814 1.000000 0.374512
1.000000 1.000000 0.374512
0.046814 0.046814 0.165955
0.165955 0.046814 0.165955
0.320190 0.093628 0.206909
0.462738 0.140442 0.247864
0.593597 0.187256 0.288849
0.712738 0.234070 0.329803
0.820190 0.280884 0.370789
0.915924 0.327698 0.411743
1.000000 0.374512 0.452698
0.046814 0.165955 0.165955
0.206909 0.206909 0.206909
0.355286 0.247864 0.247864
0.492004 0.288849 0.288849
0.616974 0.329803 0.329803
0.730286 0.370758 0.370758
0.831879 0.411713 0.411713
0.921783 0.452667 0.452667
1.000000 0.493652 0.493652
0.093628 0.320190 0.206909
0.247864 0.355286 0.247864
0.355286 0.355286 0.247864
0.492004 0.390411 0.288849
0.616974 0.425507 0.329803
0.730286 0.460663 0.370758
0.831879 0.495758 0.411713
0.921783 0.530853 0.452667
1.000000 0.565979 0.493652
0.140442 0.462738 0.247864
0.288849 0.492004 0.288849
0.390411 0.492004 0.288849
0.492004 0.492004 0.288849
0.616974 0.521240 0.329803
0.730286 0.550537 0.370758
0.831879 0.579773 0.411713
0.921783 0.609039 0.452667
1.000000 0.638306 0.493652
0.187256 0.593597 0.288849
0.329803 0.616974 0.329803
0.425507 0.616974 0.329803
0.521240 0.616974 0.329803
0.616974 0.616974 0.329803
0.730286 0.640411 0.370758
0.831879 0.663818 0.411713
0.921783 0.687256 0.452667
1.000000 0.710632 0.493652
0.234070 0.712738 0.329803
0.370758 0.730286 0.370758
0.460663 0.730286 0.370758
0.550537 0.730286 0.370758
0.640411 0.730286 0.370758
0.730286 0.730286 0.370758
0.831879 0.747864 0.411713
0.921783 0.765411 0.452667
1.000000 0.782990 0.493652
0.280884 0.820190 0.370789
0.411713 0.831879 0.411713
0.495758 0.831879 0.411713
0.579773 0.831879 0.411713
0.663818 0.831879 0.411713
0.747864 0.831879 0.411713
0.831879 0.831879 0.411713
0.921783 0.843628 0.452667
1.000000 0.855316 0.493652
0.327698 0.915924 0.411743
0.452667 0.921783 0.452667
0.530853 0.921783 0.452667
0.609039 0.921783 0.452667
0.687256 0.921783 0.452667
0.765411 0.921783 0.452667
0.843628 0.921783 0.452667
0.921783 0.921783 0.452667
1.000000 0.927673 0.493652
0.374512 1.000000 0.452698
0.493652 1.000000 0.493652
0.565979 1.000000 0.493652
0.638306 1.000000 0.493652
0.710632 1.000000 0.493652
0.782990 1.000000 0.493652
0.855316 1.000000 0.493652
0.927673 1.000000 0.493652
1.000000 1.000000 0.493652
0.093628 0.093628 0.320190
0.206909 0.093628 0.320190
0.320190 0.093628 0.320190
0.462738 0.140442 0.355316
0.593597 0.187256 0.390442
0.712738 0.234070 0.425537
0.820190 0.280884 0.460663
0.915924 0.327698 0.495758
1.000000 0.374512 0.530884
0.093628 0.206909 0.320190
0.247864 0.247864 0.355286
0.355286 0.247864 0.355286
0.492004 0.288849 0.390411
0.616974 0.329803 0.425507
0.730286 0.370758 0.460663
0.831879 0.411713 0.495758
0.921783 0.452667 0.530853
1.000000 0.493652 0.565979
0.093628 0.320190 0.320190
0.247864 0.355286 0.355286
0.390411 0.390411 0.390411
0.521240 0.425507 0.425507
0.640411 0.460632 0.460632
0.747864 0.495728 0.495728
0.843597 0.530853 0.530853
0.927643 0.565979 0.565979
1.000000 0.601074 0.601074
0.140442 0.462738 0.355316
0.288849 0.492004 0.390411
0.425507 0.521240 0.425507
0.521240 0.521240 0.425507
0.640411 0.550507 0.460632
0.747864 0.579773 0.495728
0.843597 0.609039 0.530853
0.927643 0.638275 0.565979
1.000000 0.667572 0.601074
0.187256 0.593597 0.390442
0.329803 0.616974 0.425507
0.460632 0.640411 0.460632
0.550507 0.640411 0.460632
0.640411 0.640411 0.460632
0.747864 0.663818 0.495728
0.843597 0.687225 0.530853
0.927643 0.710632 0.565979
1.000000 0.734039 0.601074
0.234070 0.712738 0.425537
0.370758 0.730286 0.460663
0.495728 0.747864 0.495728
0.579773 0.747864 0.495728
0.663818 0.747864 0.495728
0.747864 0.747864 0.495728
0.843597 0.765411 0.530853
0.927643 0.782990 0.565979
1.000000 0.800537 0.601074
0.280884 0.820190 0.460663
0.411713 0.831879 0.495758
0.530853 0.843597 0.530853
0.609039 0.843597 0.530853
0.687225 0.843597 0.530853
0.765411 0.843597 0.530853
0.843597 0.843597 0.530853
0.927643 0.855316 0.565979
1.000000 0.867035 0.601074
0.327698 0.915924 0.495758
0.452667 0.921783 0.530853
0.565979 0.927643 0.565979
0.638275 0.927643 0.565979
0.710632 0.927643 0.565979
0.782990 0.927643 0.565979
0.855316 0.927643 0.565979
0.927643 0.927643 0.565979
1.000000 0.933502 0.601074
0.374512 1.000000 0.530884
0.493652 1.000000 0.565979
0.601074 1.000000 0.601074
0.667572 1.000000 0.601074
0.734039 1.000000 0.601074
0.800537 1.000000 0.601074
0.867035 1.000000 0.601074
0.933502 1.000000 0.601074
1.000000 1.000000 0.601074
0.140442 0.140442 0.462738
0.247864 0.140442 0.462738
0.355316 0.140442 0.462738
0.462738 0.140442 0.462738
0.593597 0.187256 0.492004
0.712738 0.234070 0.521271
0.820190 0.280884 0.550537
0.915924 0.327698 0.579803
1.000000 0.374512 0.609070
0.140442 0.247864 0.462738
0.288849 0.288849 0.492004
0.390411 0.288849 0.492004
0.492004 0.288849 0.492004
0.616974 0.329803 0.521240
0.730286 0.370758 0.550537
0.831879 0.411713 0.579773
0.921783 0.452667 0.609039
1.000000 0.493652 0.638306
0.140442 0.355316 0.462738
0.288849 0.390411 0.492004
0.425507 0.425507 0.521240
0.521240 0.425507 0.521240
0.640411 0.460632 0.550507
0.747864 0.495728 0.579773
0.843597 0.530853 0.609039
0.927643 0.565979 0.638275
1.000000 0.601074 0.667572
0.140442 0.462738 0.462738
0.288849 0.492004 0.492004
0.425507 0.521240 0.521240
0.550507 0.550507 0.550507
0.663818 0.579742 0.579742
0.765411 0.609009 0.609009
0.855286 0.638275 0.638275
0.933502 0.667542 0.667542
1.000000 0.696808 0.696808
0.187256 0.593597 0.492004
0.329803 0.616974 0.521240
0.460632 0.640411 0.550507
0.579742 0.663818 0.579742
0.663818 0.663818 0.579742
0.765411 0.687225 0.609009
0.855286 0.710602 0.638275
0.933502 0.734039 0.667542
1.000000 0.757446 0.696808
0.234070 0.712738 0.521271
0.370758 0.730286 0.550537
0.495728 0.747864 0.579773
0.609009 0.765411 0.609009
0.687225 0.765411 0.609009
0.765411 0.765411 0.609009
0.855286 0.782959 0.638275
0.933502 0.800537 0.667542
1.000000 0.818085 0.696808
0.280884 0.820190 0.550537
0.411713 0.831879 0.579773
0.530853 0.843597 0.609039
0.638275 0.855286 0.638275
0.710602 0.855286 0.638275
0.782959 0.855286 0.638275
0.855286 0.855286 0.638275
0.933502 0.867004 0.667542
1.000000 0.878723 0.696808
0.327698 0.915924 0.579803
0.452667 0.921783 0.609039
0.565979 0.927643 0.638275
0.667542 0.933502 0.667542
0.734039 0.933502 0.667542
0.800537 0.933502 0.667542
0.867004 0.933502 0.667542
0.933502 0.933502 0.667542
1.000000 0.939362 0.696808
0.374512 1.000000 0.609070
0.493652 1.000000 0.638306
0.601074 1.000000 0.667572
0.696808 1.000000 0.696808
0.757446 1.000000 0.696808
0.818085 1.000000 0.696808
0.878723 1.000000 0.696808
0.939362 1.000000 0.696808
1.000000 1.000000 0.696808
0.187256 0.187256 0.593597
0.288849 0.187256 0.593597
0.390442 0.187256 0.593597
0.492004 0.187256 0.593597
0.593597 0.187256 0.593597
0.712738 0.234070 0.617004
0.820190 0.280884 0.640411
0.915924 0.327698 0.663849
1.000000 0.374512 0.687256
0.187256 0.288849 0.593597
0.329803 0.329803 0.616974
0.425507 0.329803 0.616974
0.521240 0.329803 0.616974
0.616974 0.329803 0.616974
0.730286 0.370758 0.640411
0.831879 0.411713 0.663818
0.921783 0.452667 0.687256
1.000000 0.493652 0.710632
0.187256 0.390442 0.593597
0.329803 0.425507 0.616974
0.460632 0.460632 0.640411
0.550507 0.460632 0.640411
0.640411 0.460632 0.640411
0.747864 0.495728 0.663818
0.843597 0.530853 0.687225
0.927643 0.565979 0.710632
1.000000 0.601074 0.734039
0.187256 0.492004 0.593597
0.329803 0.521240 0.616974
0.460632 0.550507 0.640411
0.579742 0.579742 0.663818
0.663818 0.579742 0.663818
0.765411 0.609009 0.687225
0.855286 0.638275 0.710602
0.933502 0.667542 0.734039
1.000000 0.696808 0.757446
0.187256 0.593597 0.593597
0.329803 0.616974 0.616974
0.460632 0.640411 0.640411
0.579742 0.663818 0.663818
0.687225 0.687225 0.687225
0.782959 0.710602 0.710602
0.867004 0.734009 0.734009
0.939362 0.757446 0.757446
1.000000 0.780853 0.780853
0.234070 0.712738 0.617004
0.370758 0.730286 0.640411
0.495728 0.747864 0.663818
0.609009 0.765411 0.687225
0.710602 0.782959 0.710602
0.782959 0.782959 0.710602
0.867004 0.800537 0.734009
0.939362 0.818085 0.757446
1.000000 0.835663 0.780853
0.280884 0.820190 0.640411
0.411713 0.831879 0.663818
0.530853 0.843597 0.687225
0.638275 0.855286 0.710602
0.734009 0.867004 0.734009
0.800537 0.867004 0.734009
0.867004 0.867004 0.734009
0.939362 0.878693 0.757446
1.000000 0.890411 0.780853
0.327698 0.915924 0.663849
0.452667 0.921783 0.687256
0.565979 0.927643 0.710632
0.667542 0.933502 0.734039
0.757446 0.939362 0.757446
0.818085 0.939362 0.757446
0.878693 0.939362 0.757446
0.939362 0.939362 0.757446
1.000000 0.945221 0.780853
0.374512 1.000000 0.687256
0.493652 1.000000 0.710632
0.601074 1.000000 0.734039
0.696808 1.000000 0.757446
0.780853 1.000000 0.780853
0.835663 1.000000 0.780853
0.890411 1.000000 0.780853
0.945221 1.000000 0.780853
1.000000 1.000000 0.780853
0.234070 0.234070 0.712738
0.329803 0.234070 0.712738
0.425537 0.234070 0.712738
0.521271 0.234070 0.712738
0.617004 0.234070 0.712738
0.712738 0.234070 0.712738
0.820190 0.280884 0.730286
0.915924 0.327698 0.747864
1.000000 0.374512 0.765442
0.234070 0.329803 0.712738
0.370758 0.370758 0.730286
0.460663 0.370758 0.730286
0.550537 0.370758 0.730286
0.640411 0.370758 0.730286
0.730286 0.370758 0.730286
0.831879 0.411713 0.747864
0.921783 0.452667 0.765411
1.000000 0.493652 0.782990
0.234070 0.425537 0.712738
0.370758 0.460663 0.730286
0.495728 0.495728 0.747864
0.579773 0.495728 0.747864
0.663818 0.495728 0.747864
0.747864 0.495728 0.747864
0.843597 0.530853 0.765411
0.927643 0.565979 0.782990
1.000000 0.601074 0.800537
0.234070 0.521271 0.712738
0.370758 0.550537 0.730286
0.495728 0.579773 0.747864
0.609009 0.609009 0.765411
0.687225 0.609009 0.765411
0.765411 0.609009 0.765411
0.855286 0.638275 0.782959
0.933502 0.667542 0.800537
1.000000 0.696808 0.818085
0.234070 0.617004 0.712738
0.370758 0.640411 0.730286
0.495728 0.663818 0.747864
0.609009 0.687225 0.765411
0.710602 0.710602 0.782959
0.782959 0.710602 0.782959
0.867004 0.734009 0.800537
0.939362 0.757446 0.818085
1.000000 0.780853 0.835663
0.234070 0.712738 0.712738
0.370758 0.730286 0.730286
0.495728 0.747864 0.747864
0.609009 0.765411 0.765411
0.710602 0.782959 0.782959
0.800507 0.800507 0.800507
0.878693 0.818085 0.818085
0.945190 0.835632 0.835632
1.000000 0.853180 0.853180
0.280884 0.820190 0.730286
0.411713 0.831879 0.747864
0.530853 0.843597 0.765411
0.638275 0.855286 0.782959
0.734009 0.867004 0.800537
0.818085 0.878693 0.818085
0.878693 0.878693 0.818085
0.945190 0.890411 0.835632
1.000000 0.902130 0.853180
0.327698 0.915924 0.747864
0.452667 0.921783 0.765411
0.565979 0.927643 0.782990
0.667542 0.933502 0.800537
0.757446 0.939362 0.818085
0.835632 0.945190 0.835632
0.890411 0.945190 0.835632
0.945190 0.945190 0.835632
1.000000 0.951050 0.853180
0.374512 1.000000 0.765442
0.493652 1.000000 0.782990
0.601074 1.000000 0.800537
0.696808 1.000000 0.818085
0.780853 1.000000 0.835663
0.853180 1.000000 0.853180
0.902130 1.000000 0.853180
0.951050 1.000000 0.853180
1.000000 1.000000 0.853180
0.280884 0.280884 0.820190
0.370789 0.280884 0.820190
0.460663 0.280884 0.820190
0.550537 0.280884 0.820190
0.640411 0.280884 0.820190
0.730286 0.280884 0.820190
0.820190 0.280884 0.820190
0.915924 0.327698 0.831879
1.000000 0.374512 0.843628
0.280884 0.370789 0.820190
0.411713 0.411713 0.831879
0.495758 0.411713 0.831879
0.579773 0.411713 0.831879
0.663818 0.411713 0.831879
0.747864 0.411713 0.831879
0.831879 0.411713 0.831879
0.921783 0.452667 0.843628
1.000000 0.493652 0.855316
0.280884 0.460663 0.820190
0.411713 0.495758 0.831879
0.530853 0.530853 0.843597
0.609039 0.530853 0.843597
0.687225 0.530853 0.843597
0.765411 0.530853 0.843597
0.843597 0.530853 0.843597
0.927643 0.565979 0.855316
1.000000 0.601074 0.867035
0.280884 0.550537 0.820190
0.411713 0.579773 0.831879
0.530853 0.609039 0.843597
0.638275 0.638275 0.855286
0.710602 0.638275 0.855286
0.782959 0.638275 0.855286
0.855286 0.638275 0.855286
0.933502 0.667542 0.867004
1.000000 0.696808 0.878723
0.280884 0.640411 0.820190
0.411713 0.663818 0.831879
0.530853 0.687225 0.843597
0.638275 0.710602 0.855286
0.734009 0.734009 0.867004
0.800537 0.734009 0.867004
0.867004 0.734009 0.867004
0.939362 0.757446 0.878693
1.000000 0.780853 0.890411
0.280884 0.730286 0.820190
0.411713 0.747864 0.831879
0.530853 0.765411 0.843597
0.638275 0.782959 0.855286
0.734009 0.800537 0.867004
0.818085 0.818085 0.878693
0.878693 0.818085 0.878693
0.945190 0.835632 0.890411
1.000000 0.853180 0.902130
0.280884 0.820190 0.820190
0.411713 0.831879 0.831879
0.530853 0.843597 0.843597
0.638275 0.855286 0.855286
0.734009 0.867004 0.867004
0.818085 0.878693 0.878693
0.890381 0.890381 0.890381
0.951050 0.902130 0.902130
1.000000 0.913818 0.913818
0.327698 0.915924 0.831879
0.452667 0.921783 0.843628
0.565979 0.927643 0.855316
0.667542 0.933502 0.867004
0.757446 0.939362 0.878693
0.835632 0.945190 0.890411
0.902130 0.951050 0.902130
0.951050 0.951050 0.902130
1.000000 0.956909 0.913818
0.374512 1.000000 0.843628
0.493652 1.000000 0.855316
0.601074 1.000000 0.867035
0.696808 1.000000 0.878723
0.780853 1.000000 0.890411
0.853180 1.000000 0.902130
0.913818 1.000000 0.913818
0.956909 1.000000 0.913818
1.000000 1.000000 0.913818
0.327698 0.327698 0.915924
0.411743 0.327698 0.915924
0.495758 0.327698 0.915924
0.579803 0.327698 0.915924
0.663849 0.327698 0.915924
0.747864 0.327698 0.915924
0.831879 0.327698 0.915924
0.915924 0.327698 0.915924
1.000000 0.374512 0.921814
0.327698 0.411743 0.915924
0.452667 0.452667 0.921783
0.530853 0.452667 0.921783
0.609039 0.452667 0.921783
0.687256 0.452667 0.921783
0.765411 0.452667 0.921783
0.843628 0.452667 0.921783
0.921783 0.452667 0.921783
1.000000 0.493652 0.927673
0.327698 0.495758 0.915924
0.452667 0.530853 0.921783
0.565979 0.565979 0.927643
0.638275 0.565979 0.927643
0.710632 0.565979 0.927643
0.782990 0.565979 0.927643
0.855316 0.565979 0.927643
0.927643 0.565979 0.927643
1.000000 0.601074 0.933502
0.327698 0.579803 0.915924
0.452667 0.609039 0.921783
0.565979 0.638275 0.927643
0.667542 0.667542 0.933502
0.734039 0.667542 0.933502
0.800537 0.667542 0.933502
0.867004 0.667542 0.933502
0.933502 0.667542 0.933502
1.000000 0.696808 0.939362
0.327698 0.663849 0.915924
0.452667 0.687256 0.921783
0.565979 0.710632 0.927643
0.667542 0.734039 0.933502
0.757446 0.757446 0.939362
0.818085 0.757446 0.939362
0.878693 0.757446 0.939362
0.939362 0.757446 0.939362
1.000000 0.780853 0.945221
0.327698 0.747864 0.915924
0.452667 0.765411 0.921783
0.565979 0.782990 0.927643
0.667542 0.800537 0.933502
0.757446 0.818085 0.939362
0.835632 0.835632 0.945190
0.890411 0.835632 0.945190
0.945190 0.835632 0.945190
1.000000 0.853180 0.951050
0.327698 0.831879 0.915924
0.452667 0.843628 0.921783
0.565979 0.855316 0.927643
0.667542 0.867004 0.933502
0.757446 0.878693 0.939362
0.835632 0.890411 0.945190
0.902130 0.902130 0.951050
0.951050 0.902130 0.951050
1.000000 0.913818 0.956909
0.327698 0.915924 0.915924
0.452667 0.921783 0.921783
0.565979 0.927643 0.927643
0.667542 0.933502 0.933502
0.757446 0.939362 0.939362
0.835632 0.945190 0.945190
0.902130 0.951050 0.951050
0.956909 0.956909 0.956909
1.000000 0.962769 0.962769
0.374512 1.000000 0.921814
0.493652 1.000000 0.927673
0.601074 1.000000 0.933502
0.696808 1.000000 0.939362
0.780853 1.000000 0.945221
0.853180 1.000000 0.951050
0.913818 1.000000 0.956909
0.962769 1.000000 0.962769
1.000000 1.000000 0.962769
0.374512 0.374512 1.000000
0.452698 0.374512 1.000000
0.530884 0.374512 1.000000
0.609070 0.374512 1.000000
0.687256 0.374512 1.000000
0.765442 0.374512 1.000000
0.843628 0.374512 1.000000
0.921814 0.374512 1.000000
1.000000 0.374512 1.000000
0.374512 0.452698 1.000000
0.493652 0.493652 1.000000
0.565979 0.493652 1.000000
0.638306 0.493652 1.000000
0.710632 0.493652 1.000000
0.782990 0.493652 1.000000
0.855316 0.493652 1.000000
0.927673 0.493652 1.000000
1.000000 0.493652 1.000000
0.374512 0.530884 1.000000
0.493652 0.565979 1.000000
0.601074 0.601074 1.000000
0.667572 0.601074 1.000000
0.734039 0.601074 1.000000
0.800537 0.601074 1.000000
0.867035 0.601074 1.000000
0.933502 0.601074 1.000000
1.000000 0.601074 1.000000
0.374512 0.609070 1.000000
0.493652 0.638306 1.000000
0.601074 0.667572 1.000000
0.696808 0.696808 1.000000
0.757446 0.696808 1.000000
0.818085 0.696808 1.000000
0.878723 0.696808 1.000000
0.939362 0.696808 1.000000
1.000000 0.696808 1.000000
0.374512 0.687256 1.000000
0.493652 0.710632 1.000000
0.601074 0.734039 1.000000
0.696808 0.757446 1.000000
0.780853 0.780853 1.000000
0.835663 0.780853 1.000000
0.890411 0.780853 1.000000
0.945221 0.780853 1.000000
1.000000 0.780853 1.000000
0.374512 0.765442 1.000000
0.493652 0.782990 1.000000
0.601074 0.800537 1.000000
0.696808 0.818085 1.000000
0.780853 0.835663 1.000000
0.853180 0.853180 1.000000
0.902130 0.853180 1.000000
0.951050 0.853180 1.000000
1.000000 0.853180 1.000000
0.374512 0.843628 1.000000
0.493652 0.855316 1.000000
0.601074 0.867035 1.000000
0.696808 0.878723 1.000000
0.780853 0.890411 1.000000
0.853180 0.902130 1.000000
0.913818 0.913818 1.000000
0.956909 0.913818 1.000000
1.000000 0.913818 1.000000
0.374512 0.921814 1.000000
0.493652 0.927673 1.000000
0.601074 0.933502 1.000000
0.696808 0.939362 1.000000
0.780853 0.945221 1.000000
0.853180 0.951050 1.000000
0.913818 0.956909 1.000000
0.962769 0.962769 1.000000
1.000000 0.962769 1.000000
0.374512 1.000000 1.000000
0.493652 1.000000 1.000000
0.601074 1.000000 1.000000
0.696808 1.000000 1.000000
0.780853 1.000000 1.000000
0.853180 1.000000 1.000000
0.913818 1.000000 1.000000
0.962769 1.000000 1.000000
1.000000 1.000000 1.000000
