滤镜资源/Professional Luts Collection/Lutify.me Professional/Skintone/Gypsum.cube
# Created by: Lutify.me
# Copyright: (c) Copyright Lutify.me 2015
# Website: https://lutify.me
#LUT size
LUT_3D_SIZE 33
#LUT data points
0.000000 0.000000 0.000000
0.032593 0.007843 0.007843
0.064880 0.015686 0.015686
0.096710 0.023529 0.023529
0.128174 0.031372 0.031372
0.159241 0.039215 0.039215
0.189941 0.047058 0.047058
0.220215 0.054901 0.054901
0.250061 0.062744 0.062744
0.279602 0.070587 0.070587
0.308685 0.078430 0.078430
0.337402 0.086273 0.086273
0.365723 0.094116 0.094116
0.393646 0.101959 0.101959
0.421173 0.109802 0.109802
0.448334 0.117645 0.117645
0.475067 0.125488 0.125488
0.501404 0.133331 0.133331
0.527374 0.141174 0.141174
0.552948 0.149017 0.149017
0.578156 0.156860 0.156860
0.602936 0.164703 0.164703
0.627350 0.172546 0.172546
0.651367 0.180389 0.180389
0.674957 0.188232 0.188232
0.698181 0.196075 0.196075
0.721008 0.203918 0.203918
0.743500 0.211761 0.211761
0.765533 0.219574 0.219574
0.787170 0.227417 0.227417
0.808441 0.235260 0.235260
0.829315 0.243134 0.243134
0.849792 0.250977 0.250977
0.007843 0.038818 0.007843
0.032593 0.038818 0.007843
0.064880 0.046417 0.015686
0.096710 0.054016 0.023529
0.128174 0.061615 0.031372
0.159241 0.069214 0.039215
0.189941 0.076843 0.047058
0.220215 0.084412 0.054901
0.250061 0.092010 0.062744
0.279602 0.099609 0.070587
0.308685 0.107208 0.078430
0.337402 0.114807 0.086273
0.365723 0.122406 0.094116
0.393646 0.130005 0.101959
0.421173 0.137604 0.109802
0.448334 0.145233 0.117645
0.475067 0.152802 0.125488
0.501404 0.160400 0.133331
0.527374 0.167999 0.141174
0.552948 0.175598 0.149017
0.578156 0.183197 0.156860
0.602936 0.190796 0.164703
0.627350 0.198395 0.172546
0.651367 0.205994 0.180389
0.674957 0.213593 0.188232
0.698181 0.221222 0.196075
0.721008 0.228790 0.203918
0.743500 0.236389 0.211761
0.765533 0.243988 0.219574
0.787170 0.251587 0.227417
0.808441 0.259186 0.235260
0.829315 0.266815 0.243134
0.849792 0.274384 0.250977
0.015656 0.077209 0.015686
0.040253 0.077209 0.015686
0.064880 0.077209 0.015686
0.096710 0.084564 0.023529
0.128174 0.091919 0.031372
0.159241 0.099274 0.039215
0.189941 0.106628 0.047058
0.220215 0.113983 0.054901
0.250061 0.121338 0.062744
0.279602 0.128693 0.070587
0.308685 0.136047 0.078430
0.337402 0.143372 0.086273
0.365723 0.150726 0.094116
0.393646 0.158081 0.101959
0.421173 0.165436 0.109802
0.448334 0.172821 0.117645
0.475067 0.180176 0.125488
0.501404 0.187500 0.133331
0.527374 0.194855 0.141174
0.552948 0.202209 0.149017
0.578156 0.209564 0.156860
0.602936 0.216919 0.164703
0.627350 0.224274 0.172546
0.651367 0.231628 0.180389
0.674957 0.238983 0.188232
0.698181 0.246338 0.196075
0.721008 0.253693 0.203918
0.743500 0.261047 0.211761
0.765533 0.268402 0.219574
0.787170 0.275726 0.227417
0.808441 0.283112 0.235260
0.829315 0.290466 0.243134
0.849792 0.297791 0.250977
0.023499 0.115051 0.023529
0.047882 0.115051 0.023529
0.072327 0.115051 0.023529
0.096710 0.115051 0.023529
0.128174 0.122192 0.031372
0.159241 0.129303 0.039215
0.189941 0.136414 0.047058
0.220215 0.143494 0.054901
0.250061 0.150635 0.062744
0.279602 0.157715 0.070587
0.308685 0.164825 0.078430
0.337402 0.171936 0.086273
0.365723 0.179047 0.094116
0.393646 0.186127 0.101959
0.421173 0.193268 0.109802
0.448334 0.200378 0.117645
0.475067 0.207458 0.125488
0.501404 0.214600 0.133331
0.527374 0.221710 0.141174
0.552948 0.228790 0.149017
0.578156 0.235901 0.156860
0.602936 0.243011 0.164703
0.627350 0.250122 0.172546
0.651367 0.257233 0.180389
0.674957 0.264343 0.188232
0.698181 0.271454 0.196075
0.721008 0.278534 0.203918
0.743500 0.285645 0.211761
0.765533 0.292786 0.219574
0.787170 0.299896 0.227417
0.808441 0.306976 0.235260
0.829315 0.314117 0.243134
0.849792 0.321198 0.250977
0.031342 0.152466 0.031372
0.055542 0.152466 0.031372
0.079773 0.152466 0.031372
0.103973 0.152466 0.031372
0.128174 0.152466 0.031372
0.159241 0.159302 0.039215
0.189941 0.166168 0.047058
0.220215 0.173035 0.054901
0.250061 0.179901 0.062744
0.279602 0.186768 0.070587
0.308685 0.193604 0.078430
0.337402 0.200470 0.086273
0.365723 0.207336 0.094116
0.393646 0.214203 0.101959
0.421173 0.221069 0.109802
0.448334 0.227936 0.117645
0.475067 0.234802 0.125488
0.501404 0.241669 0.133331
0.527374 0.248535 0.141174
0.552948 0.255371 0.149017
0.578156 0.262238 0.156860
0.602936 0.269104 0.164703
0.627350 0.275970 0.172546
0.651367 0.282837 0.180389
0.674957 0.289703 0.188232
0.698181 0.296570 0.196075
0.721008 0.303436 0.203918
0.743500 0.310303 0.211761
0.765533 0.317169 0.219574
0.787170 0.324036 0.227417
0.808441 0.330902 0.235260
0.829315 0.337738 0.243134
0.849792 0.344604 0.250977
0.039185 0.189331 0.039215
0.063171 0.189331 0.039215
0.087219 0.189331 0.039215
0.111237 0.189331 0.039215
0.135223 0.189331 0.039215
0.159241 0.189331 0.039215
0.189941 0.195953 0.047058
0.220215 0.202545 0.054901
0.250061 0.209167 0.062744
0.279602 0.215790 0.070587
0.308685 0.222412 0.078430
0.337402 0.229034 0.086273
0.365723 0.235626 0.094116
0.393646 0.242249 0.101959
0.421173 0.248871 0.109802
0.448334 0.255524 0.117645
0.475067 0.262115 0.125488
0.501404 0.268738 0.133331
0.527374 0.275330 0.141174
0.552948 0.281982 0.149017
0.578156 0.288605 0.156860
0.602936 0.295197 0.164703
0.627350 0.301819 0.172546
0.651367 0.308441 0.180389
0.674957 0.315094 0.188232
0.698181 0.321686 0.196075
0.721008 0.328308 0.203918
0.743500 0.334900 0.211761
0.765533 0.341522 0.219574
0.787170 0.348145 0.227417
0.808441 0.354767 0.235260
0.829315 0.361389 0.243134
0.849792 0.367981 0.250977
0.047028 0.225739 0.047058
0.070831 0.225739 0.047058
0.094666 0.225739 0.047058
0.118469 0.225739 0.047058
0.142273 0.225739 0.047058
0.166107 0.225739 0.047058
0.189941 0.225739 0.047058
0.220215 0.232117 0.054901
0.250061 0.238495 0.062744
0.279602 0.244843 0.070587
0.308685 0.251221 0.078430
0.337402 0.257599 0.086273
0.365723 0.263977 0.094116
0.393646 0.270325 0.101959
0.421173 0.276733 0.109802
0.448334 0.283081 0.117645
0.475067 0.289459 0.125488
0.501404 0.295837 0.133331
0.527374 0.302216 0.141174
0.552948 0.308594 0.149017
0.578156 0.314941 0.156860
0.602936 0.321320 0.164703
0.627350 0.327698 0.172546
0.651367 0.334076 0.180389
0.674957 0.340454 0.188232
0.698181 0.346832 0.196075
0.721008 0.353180 0.203918
0.743500 0.359558 0.211761
0.765533 0.365936 0.219574
0.787170 0.372314 0.227417
0.808441 0.378662 0.235260
0.829315 0.385071 0.243134
0.849792 0.391418 0.250977
0.054840 0.261658 0.054901
0.078461 0.261658 0.054901
0.102112 0.261658 0.054901
0.125702 0.261658 0.054901
0.149353 0.261658 0.054901
0.172943 0.261658 0.054901
0.196564 0.261658 0.054901
0.220215 0.261658 0.054901
0.250061 0.267761 0.062744
0.279602 0.273895 0.070587
0.308685 0.279999 0.078430
0.337402 0.286163 0.086273
0.365723 0.292267 0.094116
0.393646 0.298401 0.101959
0.421173 0.304535 0.109802
0.448334 0.310669 0.117645
0.475067 0.316772 0.125488
0.501404 0.322937 0.133331
0.527374 0.329041 0.141174
0.552948 0.335175 0.149017
0.578156 0.341278 0.156860
0.602936 0.347443 0.164703
0.627350 0.353546 0.172546
0.651367 0.359680 0.180389
0.674957 0.365814 0.188232
0.698181 0.371948 0.196075
0.721008 0.378082 0.203918
0.743500 0.384186 0.211761
0.765533 0.390320 0.219574
0.787170 0.396454 0.227417
0.808441 0.402588 0.235260
0.829315 0.408722 0.243134
0.849792 0.414825 0.250977
0.062683 0.297058 0.062744
0.086090 0.297058 0.062744
0.109558 0.297058 0.062744
0.132965 0.297058 0.062744
0.156403 0.297058 0.062744
0.179810 0.297058 0.062744
0.203247 0.297058 0.062744
0.226654 0.297058 0.062744
0.250061 0.297058 0.062744
0.279602 0.302948 0.070587
0.308685 0.308838 0.078430
0.337402 0.314697 0.086273
0.365723 0.320587 0.094116
0.393646 0.326447 0.101959
0.421173 0.332336 0.109802
0.448334 0.338226 0.117645
0.475067 0.344116 0.125488
0.501404 0.350006 0.133331
0.527374 0.355865 0.141174
0.552948 0.361755 0.149017
0.578156 0.367645 0.156860
0.602936 0.373535 0.164703
0.627350 0.379395 0.172546
0.651367 0.385315 0.180389
0.674957 0.391174 0.188232
0.698181 0.397064 0.196075
0.721008 0.402954 0.203918
0.743500 0.408844 0.211761
0.765533 0.414703 0.219574
0.787170 0.420593 0.227417
0.808441 0.426453 0.235260
0.829315 0.432373 0.243134
0.849792 0.438232 0.250977
0.070526 0.331970 0.070587
0.093750 0.331970 0.070587
0.117004 0.331970 0.070587
0.140228 0.331970 0.070587
0.163452 0.331970 0.070587
0.186646 0.331970 0.070587
0.209900 0.331970 0.070587
0.233124 0.331970 0.070587
0.256348 0.331970 0.070587
0.279602 0.331970 0.070587
0.308685 0.337616 0.078430
0.337402 0.343231 0.086273
0.365723 0.348877 0.094116
0.393646 0.354523 0.101959
0.421173 0.360168 0.109802
0.448334 0.365784 0.117645
0.475067 0.371429 0.125488
0.501404 0.377075 0.133331
0.527374 0.382721 0.141174
0.552948 0.388336 0.149017
0.578156 0.393982 0.156860
0.602936 0.399628 0.164703
0.627350 0.405243 0.172546
0.651367 0.410889 0.180389
0.674957 0.416534 0.188232
0.698181 0.422180 0.196075
0.721008 0.427826 0.203918
0.743500 0.433441 0.211761
0.765533 0.439087 0.219574
0.787170 0.444733 0.227417
0.808441 0.450348 0.235260
0.829315 0.455994 0.243134
0.849792 0.461639 0.250977
0.078339 0.366425 0.078430
0.101379 0.366425 0.078430
0.124420 0.366425 0.078430
0.147430 0.366425 0.078430
0.170502 0.366425 0.078430
0.193512 0.366425 0.078430
0.216553 0.366425 0.078430
0.239563 0.366425 0.078430
0.262634 0.366425 0.078430
0.285645 0.366425 0.078430
0.308685 0.366425 0.078430
0.337402 0.371796 0.086273
0.365723 0.377197 0.094116
0.393646 0.382599 0.101959
0.421173 0.388000 0.109802
0.448334 0.393372 0.117645
0.475067 0.398773 0.125488
0.501404 0.404175 0.133331
0.527374 0.409546 0.141174
0.552948 0.414948 0.149017
0.578156 0.420349 0.156860
0.602936 0.425751 0.164703
0.627350 0.431122 0.172546
0.651367 0.436523 0.180389
0.674957 0.441925 0.188232
0.698181 0.447296 0.196075
0.721008 0.452698 0.203918
0.743500 0.458099 0.211761
0.765533 0.463470 0.219574
0.787170 0.468872 0.227417
0.808441 0.474243 0.235260
0.829315 0.479645 0.243134
0.849792 0.485046 0.250977
0.086182 0.400360 0.086273
0.109009 0.400360 0.086273
0.131866 0.400360 0.086273
0.154694 0.400360 0.086273
0.177521 0.400360 0.086273
0.200348 0.400360 0.086273
0.223236 0.400360 0.086273
0.246063 0.400360 0.086273
0.268860 0.400360 0.086273
0.291687 0.400360 0.086273
0.314545 0.400360 0.086273
0.337402 0.400360 0.086273
0.365723 0.405518 0.094116
0.393646 0.410645 0.101959
0.421173 0.415802 0.109802
0.448334 0.420959 0.117645
0.475067 0.426117 0.125488
0.501404 0.431244 0.133331
0.527374 0.436401 0.141174
0.552948 0.441528 0.149017
0.578156 0.446686 0.156860
0.602936 0.451843 0.164703
0.627350 0.457001 0.172546
0.651367 0.462128 0.180389
0.674957 0.467285 0.188232
0.698181 0.472443 0.196075
0.721008 0.477570 0.203918
0.743500 0.482727 0.211761
0.765533 0.487854 0.219574
0.787170 0.493011 0.227417
0.808441 0.498169 0.235260
0.829315 0.503326 0.243134
0.849792 0.508453 0.250977
0.094025 0.433807 0.094116
0.116669 0.433807 0.094116
0.139313 0.433807 0.094116
0.161957 0.433807 0.094116
0.184601 0.433807 0.094116
0.207214 0.433807 0.094116
0.229889 0.433807 0.094116
0.252502 0.433807 0.094116
0.275146 0.433807 0.094116
0.297791 0.433807 0.094116
0.320435 0.433807 0.094116
0.343079 0.433807 0.094116
0.365723 0.433807 0.094116
0.393646 0.438721 0.101959
0.421173 0.443634 0.109802
0.448334 0.448517 0.117645
0.475067 0.453430 0.125488
0.501404 0.458344 0.133331
0.527374 0.463226 0.141174
0.552948 0.468109 0.149017
0.578156 0.473022 0.156860
0.602936 0.477936 0.164703
0.627350 0.482849 0.172546
0.651367 0.487732 0.180389
0.674957 0.492645 0.188232
0.698181 0.497559 0.196075
0.721008 0.502441 0.203918
0.743500 0.507355 0.211761
0.765533 0.512238 0.219574
0.787170 0.517151 0.227417
0.808441 0.522064 0.235260
0.829315 0.526978 0.243134
0.849792 0.531860 0.250977
0.101868 0.466766 0.101959
0.124298 0.466766 0.101959
0.146759 0.466766 0.101959
0.169189 0.466766 0.101959
0.191650 0.466766 0.101959
0.214050 0.466766 0.101959
0.236542 0.466766 0.101959
0.258972 0.466766 0.101959
0.281403 0.466766 0.101959
0.303864 0.466766 0.101959
0.326324 0.466766 0.101959
0.348755 0.466766 0.101959
0.371216 0.466766 0.101959
0.393646 0.466766 0.101959
0.421173 0.471436 0.109802
0.448334 0.476074 0.117645
0.475067 0.480743 0.125488
0.501404 0.485413 0.133331
0.527374 0.490051 0.141174
0.552948 0.494720 0.149017
0.578156 0.499359 0.156860
0.602936 0.504028 0.164703
0.627350 0.508698 0.172546
0.651367 0.513336 0.180389
0.674957 0.518005 0.188232
0.698181 0.522644 0.196075
0.721008 0.527313 0.203918
0.743500 0.531952 0.211761
0.765533 0.536591 0.219574
0.787170 0.541290 0.227417
0.808441 0.545929 0.235260
0.829315 0.550598 0.243134
0.849792 0.555237 0.250977
0.109680 0.499237 0.109802
0.131927 0.499237 0.109802
0.154205 0.499237 0.109802
0.176422 0.499237 0.109802
0.198669 0.499237 0.109802
0.220917 0.499237 0.109802
0.243195 0.499237 0.109802
0.265442 0.499237 0.109802
0.287689 0.499237 0.109802
0.309937 0.499237 0.109802
0.332184 0.499237 0.109802
0.354431 0.499237 0.109802
0.376678 0.499237 0.109802
0.398926 0.499237 0.109802
0.421173 0.499237 0.109802
0.448334 0.503662 0.117645
0.475067 0.508087 0.125488
0.501404 0.512482 0.133331
0.527374 0.516907 0.141174
0.552948 0.521301 0.149017
0.578156 0.525726 0.156860
0.602936 0.530121 0.164703
0.627350 0.534546 0.172546
0.651367 0.538971 0.180389
0.674957 0.543365 0.188232
0.698181 0.547760 0.196075
0.721008 0.552185 0.203918
0.743500 0.556580 0.211761
0.765533 0.561005 0.219574
0.787170 0.565430 0.227417
0.808441 0.569855 0.235260
0.829315 0.574249 0.243134
0.849792 0.578674 0.250977
0.117523 0.531250 0.117645
0.139587 0.531250 0.117645
0.161652 0.531250 0.117645
0.183685 0.531250 0.117645
0.205750 0.531250 0.117645
0.227783 0.531250 0.117645
0.249847 0.531250 0.117645
0.271912 0.531250 0.117645
0.293945 0.531250 0.117645
0.316010 0.531250 0.117645
0.338074 0.531250 0.117645
0.360107 0.531250 0.117645
0.382172 0.531250 0.117645
0.404205 0.531250 0.117645
0.426270 0.531250 0.117645
0.448334 0.531250 0.117645
0.475067 0.535400 0.125488
0.501404 0.539581 0.133331
0.527374 0.543732 0.141174
0.552948 0.547913 0.149017
0.578156 0.552063 0.156860
0.602936 0.556244 0.164703
0.627350 0.560394 0.172546
0.651367 0.564575 0.180389
0.674957 0.568756 0.188232
0.698181 0.572906 0.196075
0.721008 0.577057 0.203918
0.743500 0.581238 0.211761
0.765533 0.585419 0.219574
0.787170 0.589569 0.227417
0.808441 0.593719 0.235260
0.829315 0.597900 0.243134
0.849792 0.602081 0.250977
0.125366 0.562714 0.125488
0.147217 0.562714 0.125488
0.169098 0.562714 0.125488
0.190948 0.562714 0.125488
0.212799 0.562714 0.125488
0.234650 0.562714 0.125488
0.256531 0.562714 0.125488
0.278381 0.562714 0.125488
0.300201 0.562714 0.125488
0.322083 0.562714 0.125488
0.343933 0.562714 0.125488
0.365814 0.562714 0.125488
0.387634 0.562714 0.125488
0.409515 0.562714 0.125488
0.431366 0.562714 0.125488
0.453217 0.562714 0.125488
0.475067 0.562714 0.125488
0.501404 0.566650 0.133331
0.527374 0.570557 0.141174
0.552948 0.574493 0.149017
0.578156 0.578400 0.156860
0.602936 0.582336 0.164703
0.627350 0.586243 0.172546
0.651367 0.590179 0.180389
0.674957 0.594086 0.188232
0.698181 0.598022 0.196075
0.721008 0.601959 0.203918
0.743500 0.605865 0.211761
0.765533 0.609802 0.219574
0.787170 0.613708 0.227417
0.808441 0.617645 0.235260
0.829315 0.621552 0.243134
0.849792 0.625488 0.250977
0.133209 0.593719 0.133331
0.154846 0.593719 0.133331
0.176544 0.593719 0.133331
0.198212 0.593719 0.133331
0.219849 0.593719 0.133331
0.241516 0.593719 0.133331
0.263184 0.593719 0.133331
0.284851 0.593719 0.133331
0.306488 0.593719 0.133331
0.328125 0.593719 0.133331
0.349823 0.593719 0.133331
0.371460 0.593719 0.133331
0.393127 0.593719 0.133331
0.414795 0.593719 0.133331
0.436462 0.593719 0.133331
0.458130 0.593719 0.133331
0.479767 0.593719 0.133331
0.501404 0.593719 0.133331
0.527374 0.597382 0.141174
0.552948 0.601074 0.149017
0.578156 0.604736 0.156860
0.602936 0.608429 0.164703
0.627350 0.612122 0.172546
0.651367 0.615784 0.180389
0.674957 0.619476 0.188232
0.698181 0.623138 0.196075
0.721008 0.626801 0.203918
0.743500 0.630493 0.211761
0.765533 0.634186 0.219574
0.787170 0.637848 0.227417
0.808441 0.641510 0.235260
0.829315 0.645203 0.243134
0.849792 0.648895 0.250977
0.141052 0.624237 0.141174
0.162476 0.624237 0.141174
0.183960 0.624237 0.141174
0.205444 0.624237 0.141174
0.226898 0.624237 0.141174
0.248352 0.624237 0.141174
0.269836 0.624237 0.141174
0.291290 0.624237 0.141174
0.312744 0.624237 0.141174
0.334229 0.624237 0.141174
0.355682 0.624237 0.141174
0.377167 0.624237 0.141174
0.398621 0.624237 0.141174
0.420074 0.624237 0.141174
0.441559 0.624237 0.141174
0.463013 0.624237 0.141174
0.484467 0.624237 0.141174
0.505920 0.624237 0.141174
0.527374 0.624237 0.141174
0.552948 0.627686 0.149017
0.578156 0.631104 0.156860
0.602936 0.634552 0.164703
0.627350 0.637970 0.172546
0.651367 0.641418 0.180389
0.674957 0.644836 0.188232
0.698181 0.648254 0.196075
0.721008 0.651703 0.203918
0.743500 0.655121 0.211761
0.765533 0.658569 0.219574
0.787170 0.661987 0.227417
0.808441 0.665436 0.235260
0.829315 0.668854 0.243134
0.849792 0.672272 0.250977
0.148865 0.654266 0.149017
0.170135 0.654266 0.149017
0.191406 0.654266 0.149017
0.212677 0.654266 0.149017
0.233917 0.654266 0.149017
0.255219 0.654266 0.149017
0.276520 0.654266 0.149017
0.297760 0.654266 0.149017
0.319031 0.654266 0.149017
0.340302 0.654266 0.149017
0.361572 0.654266 0.149017
0.382843 0.654266 0.149017
0.404083 0.654266 0.149017
0.425354 0.654266 0.149017
0.446625 0.654266 0.149017
0.467926 0.654266 0.149017
0.489166 0.654266 0.149017
0.510437 0.654266 0.149017
0.531708 0.654266 0.149017
0.552948 0.654266 0.149017
0.578156 0.657471 0.156860
0.602936 0.660645 0.164703
0.627350 0.663849 0.172546
0.651367 0.667023 0.180389
0.674957 0.670227 0.188232
0.698181 0.673401 0.196075
0.721008 0.676575 0.203918
0.743500 0.679779 0.211761
0.765533 0.682953 0.219574
0.787170 0.686127 0.227417
0.808441 0.689331 0.235260
0.829315 0.692535 0.243134
0.849792 0.695709 0.250977
0.156708 0.683807 0.156860
0.177765 0.683807 0.156860
0.198883 0.683807 0.156860
0.219940 0.683807 0.156860
0.240997 0.683807 0.156860
0.262085 0.683807 0.156860
0.283142 0.683807 0.156860
0.304199 0.683807 0.156860
0.325287 0.683807 0.156860
0.346344 0.683807 0.156860
0.367432 0.683807 0.156860
0.388519 0.683807 0.156860
0.409576 0.683807 0.156860
0.430634 0.683807 0.156860
0.451752 0.683807 0.156860
0.472809 0.683807 0.156860
0.493866 0.683807 0.156860
0.514923 0.683807 0.156860
0.536011 0.683807 0.156860
0.557068 0.683807 0.156860
0.578156 0.683807 0.156860
0.602936 0.686737 0.164703
0.627350 0.689667 0.172546
0.651367 0.692627 0.180389
0.674957 0.695557 0.188232
0.698181 0.698486 0.196075
0.721008 0.701447 0.203918
0.743500 0.704407 0.211761
0.765533 0.707336 0.219574
0.787170 0.710297 0.227417
0.808441 0.713226 0.235260
0.829315 0.716156 0.243134
0.849792 0.719116 0.250977
0.164551 0.712860 0.164703
0.185425 0.712860 0.164703
0.206299 0.712860 0.164703
0.227173 0.712860 0.164703
0.248047 0.712860 0.164703
0.268921 0.712860 0.164703
0.289795 0.712860 0.164703
0.310699 0.712860 0.164703
0.331543 0.712860 0.164703
0.352448 0.712860 0.164703
0.373322 0.712860 0.164703
0.394196 0.712860 0.164703
0.415070 0.712860 0.164703
0.435944 0.712860 0.164703
0.456818 0.712860 0.164703
0.477692 0.712860 0.164703
0.498566 0.712860 0.164703
0.519440 0.712860 0.164703
0.540314 0.712860 0.164703
0.561188 0.712860 0.164703
0.582062 0.712860 0.164703
0.602936 0.712860 0.164703
0.627350 0.715515 0.172546
0.651367 0.718231 0.180389
0.674957 0.720917 0.188232
0.698181 0.723633 0.196075
0.721008 0.726318 0.203918
0.743500 0.729034 0.211761
0.765533 0.731720 0.219574
0.787170 0.734406 0.227417
0.808441 0.737091 0.235260
0.829315 0.739807 0.243134
0.849792 0.742523 0.250977
0.172394 0.741394 0.172546
0.193054 0.741394 0.172546
0.213745 0.741394 0.172546
0.234436 0.741394 0.172546
0.255096 0.741394 0.172546
0.275787 0.741394 0.172546
0.296478 0.741394 0.172546
0.317139 0.741394 0.172546
0.337830 0.741394 0.172546
0.358490 0.741394 0.172546
0.379181 0.741394 0.172546
0.399872 0.741394 0.172546
0.420563 0.741394 0.172546
0.441223 0.741394 0.172546
0.461914 0.741394 0.172546
0.482605 0.741394 0.172546
0.503265 0.741394 0.172546
0.523956 0.741394 0.172546
0.544617 0.741394 0.172546
0.565308 0.741394 0.172546
0.585968 0.741394 0.172546
0.606659 0.741394 0.172546
0.627350 0.741394 0.172546
0.651367 0.743866 0.180389
0.674957 0.746307 0.188232
0.698181 0.748749 0.196075
0.721008 0.751221 0.203918
0.743500 0.753662 0.211761
0.765533 0.756104 0.219574
0.787170 0.758545 0.227417
0.808441 0.761017 0.235260
0.829315 0.763458 0.243134
0.849792 0.765930 0.250977
0.180206 0.769501 0.180389
0.200684 0.769501 0.180389
0.221191 0.769501 0.180389
0.241669 0.769501 0.180389
0.262146 0.769501 0.180389
0.282654 0.769501 0.180389
0.303131 0.769501 0.180389
0.323608 0.769501 0.180389
0.344116 0.769501 0.180389
0.364563 0.769501 0.180389
0.385071 0.769501 0.180389
0.405548 0.769501 0.180389
0.426056 0.769501 0.180389
0.446503 0.769501 0.180389
0.467010 0.769501 0.180389
0.487488 0.769501 0.180389
0.507996 0.769501 0.180389
0.528442 0.769501 0.180389
0.548920 0.769501 0.180389
0.569427 0.769501 0.180389
0.589905 0.769501 0.180389
0.610382 0.769501 0.180389
0.630859 0.769501 0.180389
0.651367 0.769501 0.180389
0.674957 0.771698 0.188232
0.698181 0.773895 0.196075
0.721008 0.776093 0.203918
0.743500 0.778320 0.211761
0.765533 0.780518 0.219574
0.787170 0.782715 0.227417
0.808441 0.784943 0.235260
0.829315 0.787140 0.243134
0.849792 0.789337 0.250977
0.188049 0.797028 0.188232
0.208344 0.797028 0.188232
0.228638 0.797028 0.188232
0.248932 0.797028 0.188232
0.269196 0.797028 0.188232
0.289520 0.797028 0.188232
0.309784 0.797028 0.188232
0.330078 0.797028 0.188232
0.350372 0.797028 0.188232
0.370667 0.797028 0.188232
0.390961 0.797028 0.188232
0.411255 0.797028 0.188232
0.431519 0.797028 0.188232
0.451813 0.797028 0.188232
0.472107 0.797028 0.188232
0.492401 0.797028 0.188232
0.512665 0.797028 0.188232
0.532959 0.797028 0.188232
0.553223 0.797028 0.188232
0.573547 0.797028 0.188232
0.593811 0.797028 0.188232
0.614105 0.797028 0.188232
0.634399 0.797028 0.188232
0.654694 0.797028 0.188232
0.674957 0.797028 0.188232
0.698181 0.798981 0.196075
0.721008 0.800964 0.203918
0.743500 0.802917 0.211761
0.765533 0.804871 0.219574
0.787170 0.806854 0.227417
0.808441 0.808807 0.235260
0.829315 0.810760 0.243134
0.849792 0.812744 0.250977
0.195892 0.824127 0.196075
0.215973 0.824127 0.196075
0.236053 0.824127 0.196075
0.256165 0.824127 0.196075
0.276245 0.824127 0.196075
0.296356 0.824127 0.196075
0.316467 0.824127 0.196075
0.336517 0.824127 0.196075
0.356628 0.824127 0.196075
0.376709 0.824127 0.196075
0.396820 0.824127 0.196075
0.416931 0.824127 0.196075
0.436981 0.824127 0.196075
0.457092 0.824127 0.196075
0.477173 0.824127 0.196075
0.497284 0.824127 0.196075
0.517365 0.824127 0.196075
0.537445 0.824127 0.196075
0.557556 0.824127 0.196075
0.577637 0.824127 0.196075
0.597717 0.824127 0.196075
0.617828 0.824127 0.196075
0.637909 0.824127 0.196075
0.658020 0.824127 0.196075
0.678101 0.824127 0.196075
0.698181 0.824127 0.196075
0.721008 0.825836 0.203918
0.743500 0.827545 0.211761
0.765533 0.829285 0.219574
0.787170 0.830963 0.227417
0.808441 0.832703 0.235260
0.829315 0.834412 0.243134
0.849792 0.836151 0.250977
0.203705 0.850708 0.203918
0.223633 0.850708 0.203918
0.243530 0.850708 0.203918
0.263428 0.850708 0.203918
0.283325 0.850708 0.203918
0.303223 0.850708 0.203918
0.323120 0.850708 0.203918
0.343018 0.850708 0.203918
0.362885 0.850708 0.203918
0.382812 0.850708 0.203918
0.402710 0.850708 0.203918
0.422577 0.850708 0.203918
0.442474 0.850708 0.203918
0.462372 0.850708 0.203918
0.482269 0.850708 0.203918
0.502167 0.850708 0.203918
0.522064 0.850708 0.203918
0.541931 0.850708 0.203918
0.561829 0.850708 0.203918
0.581757 0.850708 0.203918
0.601654 0.850708 0.203918
0.621552 0.850708 0.203918
0.641449 0.850708 0.203918
0.661346 0.850708 0.203918
0.681244 0.850708 0.203918
