滤镜资源/Professional Luts Collection/Lutify.me Professional/Skintone/Gypsum.cube
# Created by: Lutify.me
# Copyright: (c) Copyright Lutify.me 2015
# Website: https://lutify.me
#LUT size
LUT_3D_SIZE 5
#LUT data points
0.000000 0.000000 0.000000
0.250061 0.062744 0.062744
0.475067 0.125488 0.125488
0.674957 0.188232 0.188232
0.849792 0.250977 0.250977
0.062683 0.297058 0.062744
0.250061 0.297058 0.062744
0.475067 0.344116 0.125488
0.674957 0.391174 0.188232
0.849792 0.438232 0.250977
0.125366 0.562714 0.125488
0.300201 0.562714 0.125488
0.475067 0.562714 0.125488
0.674957 0.594086 0.188232
0.849792 0.625488 0.250977
0.188049 0.797028 0.188232
0.350372 0.797028 0.188232
0.512665 0.797028 0.188232
0.674957 0.797028 0.188232
0.849792 0.812744 0.250977
0.250732 1.000000 0.250977
0.400482 1.000000 0.250977
0.550262 1.000000 0.250977
0.700043 1.000000 0.250977
0.849792 1.000000 0.250977
0.109375 0.062744 0.297058
0.296753 0.062744 0.297058
0.518616 0.125488 0.344116
0.715393 0.188232 0.391174
0.887115 0.250977 0.438232
0.109375 0.297058 0.297058
0.343750 0.344086 0.344086
0.553070 0.391174 0.391174
0.737305 0.438202 0.438202
0.896454 0.485260 0.485260
0.168915 0.562714 0.344116
0.390778 0.594086 0.391174
0.553070 0.594086 0.391174
0.737305 0.625458 0.438202
0.896454 0.656830 0.485260
0.228485 0.797028 0.391174
0.437775 0.812714 0.438202
0.587555 0.812714 0.438202
0.737305 0.812714 0.438202
0.896454 0.828430 0.485260
0.288055 1.000000 0.438232
0.484802 1.000000 0.485260
0.622009 1.000000 0.485260
0.759247 1.000000 0.485260
0.896454 1.000000 0.485260
0.212463 0.125488 0.562714
0.387299 0.125488 0.562714
0.562164 0.125488 0.562714
0.755829 0.188232 0.594086
0.924408 0.250977 0.625488
0.212463 0.344116 0.562714
0.431213 0.391174 0.594086
0.593506 0.391174 0.594086
0.774628 0.438202 0.625458
0.930664 0.485260 0.656830
0.212463 0.562714 0.562714
0.431213 0.594086 0.594086
0.624847 0.625458 0.625458
0.793427 0.656830 0.656830
0.936890 0.688202 0.688202
0.268921 0.797028 0.594086
0.475098 0.812714 0.625458
0.656189 0.828400 0.656830
0.793427 0.828400 0.656830
0.936890 0.844086 0.688202
0.325348 1.000000 0.625488
0.518982 1.000000 0.656830
0.687531 1.000000 0.688202
0.812225 1.000000 0.688202
0.936890 1.000000 0.688202
0.309326 0.188232 0.797028
0.471649 0.188232 0.797028
0.633942 0.188232 0.797028
0.796265 0.188232 0.797028
0.961700 0.250977 0.812744
0.309326 0.391174 0.797028
0.512390 0.438202 0.812714
0.662170 0.438202 0.812714
0.811920 0.438202 0.812714
0.964844 0.485260 0.828430
0.309326 0.594086 0.797028
0.512390 0.625458 0.812714
0.690369 0.656830 0.828400
0.827606 0.656830 0.828400
0.967957 0.688202 0.844086
0.309326 0.797028 0.797028
0.512390 0.812714 0.812714
0.690369 0.828400 0.828400
0.843262 0.844086 0.844086
0.971100 0.859802 0.859802
0.362640 1.000000 0.812744
0.553162 1.000000 0.828430
0.718597 1.000000 0.844086
0.858948 1.000000 0.859802
0.971100 1.000000 0.859802
0.399963 0.250977 1.000000
0.549713 0.250977 1.000000
0.699493 0.250977 1.000000
0.849274 0.250977 1.000000
0.999023 0.250977 1.000000
0.399963 0.438232 1.000000
0.587341 0.485260 1.000000
0.724548 0.485260 1.000000
0.861786 0.485260 1.000000
0.999023 0.485260 1.000000
0.399963 0.625488 1.000000
0.587341 0.656830 1.000000
0.749634 0.688202 1.000000
0.874329 0.688202 1.000000
0.999023 0.688202 1.000000
0.399963 0.812744 1.000000
0.587341 0.828430 1.000000
0.749634 0.844086 1.000000
0.886871 0.859802 1.000000
0.999023 0.859802 1.000000
0.399963 1.000000 1.000000
0.587341 1.000000 1.000000
0.749634 1.000000 1.000000
0.886871 1.000000 1.000000
0.999023 1.000000 1.000000
