滤镜资源/Professional Luts Collection/Lutify.me Professional/Skintone/Gypsum.cube
# Created by: Lutify.me
# Copyright: (c) Copyright Lutify.me 2015
# Website: https://lutify.me
#LUT size
LUT_3D_SIZE 9
#LUT data points
0.000000 0.000000 0.000000
0.128174 0.031372 0.031372
0.250061 0.062744 0.062744
0.365723 0.094116 0.094116
0.475067 0.125488 0.125488
0.578156 0.156860 0.156860
0.674957 0.188232 0.188232
0.765533 0.219574 0.219574
0.849792 0.250977 0.250977
0.031342 0.152466 0.031372
0.128174 0.152466 0.031372
0.250061 0.179901 0.062744
0.365723 0.207336 0.094116
0.475067 0.234802 0.125488
0.578156 0.262238 0.156860
0.674957 0.289703 0.188232
0.765533 0.317169 0.219574
0.849792 0.344604 0.250977
0.062683 0.297058 0.062744
0.156403 0.297058 0.062744
0.250061 0.297058 0.062744
0.365723 0.320587 0.094116
0.475067 0.344116 0.125488
0.578156 0.367645 0.156860
0.674957 0.391174 0.188232
0.765533 0.414703 0.219574
0.849792 0.438232 0.250977
0.094025 0.433807 0.094116
0.184601 0.433807 0.094116
0.275146 0.433807 0.094116
0.365723 0.433807 0.094116
0.475067 0.453430 0.125488
0.578156 0.473022 0.156860
0.674957 0.492645 0.188232
0.765533 0.512238 0.219574
0.849792 0.531860 0.250977
0.125366 0.562714 0.125488
0.212799 0.562714 0.125488
0.300201 0.562714 0.125488
0.387634 0.562714 0.125488
0.475067 0.562714 0.125488
0.578156 0.578400 0.156860
0.674957 0.594086 0.188232
0.765533 0.609802 0.219574
0.849792 0.625488 0.250977
0.156708 0.683807 0.156860
0.240997 0.683807 0.156860
0.325287 0.683807 0.156860
0.409576 0.683807 0.156860
0.493866 0.683807 0.156860
0.578156 0.683807 0.156860
0.674957 0.695557 0.188232
0.765533 0.707336 0.219574
0.849792 0.719116 0.250977
0.188049 0.797028 0.188232
0.269196 0.797028 0.188232
0.350372 0.797028 0.188232
0.431519 0.797028 0.188232
0.512665 0.797028 0.188232
0.593811 0.797028 0.188232
0.674957 0.797028 0.188232
0.765533 0.804871 0.219574
0.849792 0.812744 0.250977
0.219360 0.902435 0.219574
0.297394 0.902435 0.219574
0.375427 0.902435 0.219574
0.453430 0.902435 0.219574
0.531464 0.902435 0.219574
0.609467 0.902435 0.219574
0.687500 0.902435 0.219574
0.765533 0.902435 0.219574
0.849792 0.906372 0.250977
0.250732 1.000000 0.250977
0.325592 1.000000 0.250977
0.400482 1.000000 0.250977
0.475372 1.000000 0.250977
0.550262 1.000000 0.250977
0.625122 1.000000 0.250977
0.700043 1.000000 0.250977
0.774902 1.000000 0.250977
0.849792 1.000000 0.250977
0.055481 0.031372 0.152466
0.152313 0.031372 0.152466
0.273407 0.062744 0.179901
0.388275 0.094116 0.207336
0.496826 0.125488 0.234802
0.599152 0.156860 0.262238
0.695190 0.188232 0.289703
0.784973 0.219574 0.317169
0.868439 0.250977 0.344604
0.055481 0.152466 0.152466
0.179718 0.179901 0.179901
0.297699 0.207336 0.207336
0.409424 0.234802 0.234802
0.514862 0.262238 0.262238
0.614014 0.289703 0.289703
0.706909 0.317139 0.317139
0.793549 0.344574 0.344574
0.873932 0.372040 0.372040
0.086029 0.297058 0.179901
0.207123 0.320557 0.207336
0.297699 0.320557 0.207336
0.409424 0.344086 0.234802
0.514862 0.367615 0.262238
0.614014 0.391174 0.289703
0.706909 0.414673 0.317139
0.793549 0.438232 0.344574
0.873932 0.461761 0.372040
0.116577 0.433807 0.207336
0.234558 0.453430 0.234802
0.321991 0.453430 0.234802
0.409424 0.453430 0.234802
0.514862 0.473022 0.262238
0.614014 0.492645 0.289703
0.706909 0.512238 0.317139
0.793549 0.531830 0.344574
0.873932 0.551453 0.372040
0.147156 0.562714 0.234802
0.261963 0.578400 0.262238
0.346283 0.578400 0.262238
0.430542 0.578400 0.262238
0.514862 0.578400 0.262238
0.614014 0.594086 0.289703
0.706909 0.609772 0.317139
0.793549 0.625488 0.344574
0.873932 0.641144 0.372040
0.177704 0.683807 0.262238
0.289429 0.695557 0.289703
0.370575 0.695557 0.289703
0.451721 0.695557 0.289703
0.532867 0.695557 0.289703
0.614014 0.695557 0.289703
0.706909 0.707336 0.317139
0.793549 0.719086 0.344574
0.873932 0.730865 0.372040
0.208252 0.797028 0.289703
0.316833 0.804871 0.317139
0.394836 0.804871 0.317139
0.472870 0.804871 0.317139
0.550903 0.804871 0.317139
0.628906 0.804871 0.317139
0.706909 0.804871 0.317139
0.793549 0.812744 0.344574
0.873932 0.820587 0.372040
0.238800 0.902435 0.317169
0.344238 0.906342 0.344574
0.419128 0.906342 0.344574
0.494019 0.906342 0.344574
0.568909 0.906342 0.344574
0.643768 0.906342 0.344574
0.718689 0.906342 0.344574
0.793549 0.906342 0.344574
0.873932 0.910309 0.372040
0.269379 1.000000 0.344604
0.371674 1.000000 0.372040
0.443420 1.000000 0.372040
0.515167 1.000000 0.372040
0.586914 1.000000 0.372040
0.658661 1.000000 0.372040
0.730438 1.000000 0.372040
0.802185 1.000000 0.372040
0.873932 1.000000 0.372040
0.109375 0.062744 0.297058
0.203064 0.062744 0.297058
0.296753 0.062744 0.297058
0.410828 0.094116 0.320587
0.518616 0.125488 0.344116
0.620148 0.156860 0.367645
0.715393 0.188232 0.391174
0.804382 0.219574 0.414703
0.887115 0.250977 0.438232
0.109375 0.179901 0.297058
0.229675 0.207336 0.320557
0.320251 0.207336 0.320557
0.431183 0.234802 0.344086
0.535858 0.262238 0.367615
0.634216 0.289703 0.391174
0.726349 0.317139 0.414673
0.812195 0.344574 0.438232
0.891785 0.372040 0.461761
0.109375 0.297058 0.297058
0.229675 0.320557 0.320557
0.343750 0.344086 0.344086
0.451569 0.367615 0.367615
0.553070 0.391174 0.391174
0.648315 0.414673 0.414673
0.737305 0.438202 0.438202
0.820038 0.461731 0.461731
0.896454 0.485260 0.485260
0.139130 0.433807 0.320587
0.256348 0.453430 0.344086
0.367249 0.472992 0.367615
0.451569 0.472992 0.367615
0.553070 0.492645 0.391174
0.648315 0.512207 0.414673
0.737305 0.531830 0.438202
0.820038 0.551453 0.461731
0.896454 0.571045 0.485260
0.168915 0.562714 0.344116
0.282959 0.578400 0.367615
0.390778 0.594086 0.391174
0.471954 0.594086 0.391174
0.553070 0.594086 0.391174
0.648315 0.609772 0.414673
0.737305 0.625458 0.438202
0.820038 0.641144 0.461731
0.896454 0.656830 0.485260
0.198700 0.683807 0.367645
0.309631 0.695557 0.391174
0.414276 0.707336 0.414673
0.492279 0.707336 0.414673
0.570312 0.707336 0.414673
0.648315 0.707336 0.414673
0.737305 0.719086 0.438202
0.820038 0.730865 0.461731
0.896454 0.742645 0.485260
0.228485 0.797028 0.391174
0.336273 0.804871 0.414673
0.437775 0.812714 0.438202
0.512665 0.812714 0.438202
0.587555 0.812714 0.438202
0.662445 0.812714 0.438202
0.737305 0.812714 0.438202
0.820038 0.820587 0.461731
0.896454 0.828430 0.485260
0.258240 0.902435 0.414703
0.362915 0.906342 0.438232
0.461304 0.910278 0.461731
0.533020 0.910278 0.461731
0.604767 0.910278 0.461731
0.676544 0.910278 0.461731
0.748291 0.910278 0.461731
0.820038 0.910278 0.461731
0.896454 0.914215 0.485260
0.288055 1.000000 0.438232
0.389557 1.000000 0.461761
0.484802 1.000000 0.485260
0.553406 1.000000 0.485260
0.622009 1.000000 0.485260
0.690643 1.000000 0.485260
0.759247 1.000000 0.485260
0.827881 1.000000 0.485260
0.896454 1.000000 0.485260
0.161682 0.094116 0.433807
0.252258 0.094116 0.433807
0.342804 0.094116 0.433807
0.433380 0.094116 0.433807
0.540405 0.125488 0.453430
0.641144 0.156860 0.473022
0.735626 0.188232 0.492645
0.823853 0.219574 0.512238
0.905762 0.250977 0.531860
0.161682 0.207336 0.433807
0.278137 0.234802 0.453430
0.365540 0.234802 0.453430
0.452972 0.234802 0.453430
0.556824 0.262238 0.473022
0.654449 0.289703 0.492645
0.745789 0.317139 0.512238
0.830841 0.344574 0.531830
0.909668 0.372040 0.551453
0.161682 0.320587 0.433807
0.278137 0.344086 0.453430
0.388245 0.367615 0.472992
0.472534 0.367615 0.472992
0.573273 0.391174 0.492645
0.667755 0.414673 0.512207
0.755981 0.438202 0.531830
0.837921 0.461731 0.551453
0.913574 0.485260 0.571045
0.161682 0.433807 0.433807
0.278137 0.453430 0.453430
0.388245 0.472992 0.472992
0.492157 0.492615 0.492615
0.589722 0.512207 0.512207
0.681091 0.531830 0.531830
0.766144 0.551422 0.551422
0.844940 0.571045 0.571045
0.917450 0.590668 0.590668
0.190704 0.562714 0.453430
0.303955 0.578400 0.473022
0.411011 0.594086 0.492645
0.511688 0.609772 0.512207
0.589722 0.609772 0.512207
0.681091 0.625458 0.531830
0.766144 0.641144 0.551422
0.844940 0.656830 0.571045
0.917450 0.672516 0.590668
0.219696 0.683807 0.473022
0.329834 0.695557 0.492645
0.433716 0.707336 0.512207
0.531311 0.719086 0.531830
0.606201 0.719086 0.531830
0.681091 0.719086 0.531830
0.766144 0.730865 0.551422
0.844940 0.742645 0.571045
0.917450 0.754395 0.590668
0.248688 0.797028 0.492645
0.355713 0.804871 0.512238
0.456451 0.812714 0.531830
0.550903 0.820587 0.551422
0.622650 0.820587 0.551422
0.694397 0.820587 0.551422
0.766144 0.820587 0.551422
0.844940 0.828430 0.571045
0.917450 0.836273 0.590668
0.277679 0.902435 0.512238
0.381561 0.906342 0.531830
0.479156 0.910278 0.551453
0.570496 0.914215 0.571045
0.639099 0.914215 0.571045
0.707733 0.914215 0.571045
0.776337 0.914215 0.571045
0.844940 0.914215 0.571045
0.917450 0.918121 0.590668
0.306702 1.000000 0.531860
0.407410 1.000000 0.551453
0.501892 1.000000 0.571045
0.590088 1.000000 0.590668
0.655548 1.000000 0.590668
0.721039 1.000000 0.590668
0.786530 1.000000 0.590668
0.852020 1.000000 0.590668
0.917450 1.000000 0.590668
0.212463 0.125488 0.562714
0.299896 0.125488 0.562714
0.387299 0.125488 0.562714
0.474731 0.125488 0.562714
0.562164 0.125488 0.562714
0.662140 0.156860 0.578400
0.755829 0.188232 0.594086
0.843262 0.219574 0.609802
0.924408 0.250977 0.625488
0.212463 0.234802 0.562714
0.324951 0.262238 0.578400
0.409271 0.262238 0.578400
0.493561 0.262238 0.578400
0.577820 0.262238 0.578400
0.674652 0.289703 0.594086
0.765228 0.317139 0.609772
0.849518 0.344574 0.625488
0.927521 0.372040 0.641144
0.212463 0.344116 0.562714
0.324951 0.367615 0.578400
0.431213 0.391174 0.594086
0.512360 0.391174 0.594086
0.593506 0.391174 0.594086
0.687195 0.414673 0.609772
0.774628 0.438202 0.625458
0.855804 0.461731 0.641144
0.930664 0.485260 0.656830
0.212463 0.453430 0.562714
0.324951 0.473022 0.578400
0.431213 0.492645 0.594086
0.531128 0.512207 0.609772
0.609161 0.512207 0.609772
0.699738 0.531830 0.625458
0.784027 0.551422 0.641144
0.862030 0.571045 0.656830
0.933777 0.590668 0.672516
0.212463 0.562714 0.562714
0.324951 0.578400 0.578400
0.431213 0.594086 0.594086
0.531128 0.609772 0.609772
0.624847 0.625458 0.625458
0.712250 0.641113 0.641113
0.793427 0.656830 0.656830
0.868286 0.672516 0.672516
0.936890 0.688202 0.688202
0.240692 0.683807 0.578400
0.350067 0.695557 0.594086
0.453125 0.707336 0.609772
0.549957 0.719086 0.625458
0.640503 0.730835 0.641113
0.712250 0.730835 0.641113
0.793427 0.742615 0.656830
0.868286 0.754395 0.672516
0.936890 0.766174 0.688202
0.268921 0.797028 0.594086
0.375153 0.804871 0.609772
0.475098 0.812714 0.625458
0.568756 0.820587 0.641144
0.656189 0.828400 0.656830
0.724792 0.828400 0.656830
0.793427 0.828400 0.656830
0.868286 0.836243 0.672516
0.936890 0.844086 0.688202
0.297119 0.902435 0.609802
0.400208 0.906342 0.625488
0.497040 0.910278 0.641144
0.587585 0.914215 0.656830
0.671844 0.918121 0.672516
0.737335 0.918121 0.672516
0.802826 0.918121 0.672516
0.868286 0.918121 0.672516
0.936890 0.922058 0.688202
0.325348 1.000000 0.625488
0.425293 1.000000 0.641144
0.518982 1.000000 0.656830
0.606384 1.000000 0.672516
0.687531 1.000000 0.688202
0.749908 1.000000 0.688202
0.812225 1.000000 0.688202
0.874573 1.000000 0.688202
0.936890 1.000000 0.688202
0.261688 0.156860 0.683807
0.345978 0.156860 0.683807
0.430267 0.156860 0.683807
0.514557 0.156860 0.683807
0.598846 0.156860 0.683807
0.683136 0.156860 0.683807
0.776062 0.188232 0.695557
0.862701 0.219574 0.707336
0.943054 0.250977 0.719116
0.261688 0.262238 0.683807
0.370270 0.289703 0.695557
0.451416 0.289703 0.695557
0.532562 0.289703 0.695557
0.613708 0.289703 0.695557
0.694855 0.289703 0.695557
0.784668 0.317139 0.707336
0.868164 0.344574 0.719086
0.945404 0.372040 0.730865
0.261688 0.367645 0.683807
0.370270 0.391174 0.695557
0.472565 0.414673 0.707336
0.550598 0.414673 0.707336
0.628601 0.414673 0.707336
0.706635 0.414673 0.707336
0.793274 0.438202 0.719086
0.873657 0.461731 0.730865
0.947754 0.485260 0.742645
0.261688 0.473022 0.683807
0.370270 0.492645 0.695557
0.472565 0.512207 0.707336
0.568604 0.531830 0.719086
0.643494 0.531830 0.719086
0.718384 0.531830 0.719086
0.801910 0.551422 0.730865
0.879150 0.571045 0.742645
0.950104 0.590668 0.754395
0.261688 0.578400 0.683807
0.370270 0.594086 0.695557
0.472565 0.609772 0.707336
0.568604 0.625458 0.719086
0.658386 0.641113 0.730835
0.730133 0.641113 0.730835
0.810516 0.656830 0.742615
0.884613 0.672516 0.754395
0.952454 0.688202 0.766174
0.261688 0.683807 0.683807
0.370270 0.695557 0.695557
0.472565 0.707336 0.707336
0.568604 0.719086 0.719086
0.658386 0.730835 0.730835
0.741882 0.742615 0.742615
0.819122 0.754395 0.754395
0.890106 0.766174 0.766174
0.954803 0.777924 0.777924
0.289124 0.797028 0.695557
0.394562 0.804871 0.707336
0.493744 0.812714 0.719086
0.586639 0.820587 0.730865
0.673279 0.828400 0.742615
0.753662 0.836243 0.754395
0.819122 0.836243 0.754395
0.890106 0.844086 0.766174
0.954803 0.851959 0.777924
0.316559 0.902435 0.707336
0.418854 0.906342 0.719086
0.514893 0.910278 0.730865
0.604675 0.914215 0.742645
0.688171 0.918121 0.754395
0.765411 0.922028 0.766174
0.827759 0.922028 0.766174
0.890106 0.922028 0.766174
0.954803 0.925964 0.777924
0.343994 1.000000 0.719116
0.443176 1.000000 0.730865
0.536072 1.000000 0.742645
0.622681 1.000000 0.754395
0.703064 1.000000 0.766174
0.777161 1.000000 0.777924
0.836395 1.000000 0.777924
0.895569 1.000000 0.777924
0.954803 1.000000 0.777924
0.309326 0.188232 0.797028
0.390503 0.188232 0.797028
0.471649 0.188232 0.797028
0.552795 0.188232 0.797028
0.633942 0.188232 0.797028
0.715118 0.188232 0.797028
0.796265 0.188232 0.797028
0.882141 0.219574 0.804871
0.961700 0.250977 0.812744
0.309326 0.289703 0.797028
0.414001 0.317139 0.804871
0.492004 0.317139 0.804871
0.570038 0.317139 0.804871
0.648041 0.317139 0.804871
0.726074 0.317139 0.804871
0.804077 0.317139 0.804871
0.886810 0.344574 0.812744
0.963287 0.372040 0.820587
0.309326 0.391174 0.797028
0.414001 0.414673 0.804871
0.512390 0.438202 0.812714
0.587280 0.438202 0.812714
0.662170 0.438202 0.812714
0.737030 0.438202 0.812714
0.811920 0.438202 0.812714
0.891510 0.461731 0.820587
0.964844 0.485260 0.828430
0.309326 0.492645 0.797028
0.414001 0.512238 0.804871
0.512390 0.531830 0.812714
0.604523 0.551422 0.820587
0.676239 0.551422 0.820587
0.748016 0.551422 0.820587
0.819763 0.551422 0.820587
0.896240 0.571045 0.828430
0.966400 0.590668 0.836273
0.309326 0.594086 0.797028
0.414001 0.609772 0.804871
0.512390 0.625458 0.812714
0.604523 0.641144 0.820587
0.690369 0.656830 0.828400
0.759003 0.656830 0.828400
0.827606 0.656830 0.828400
0.900940 0.672516 0.836243
0.967957 0.688202 0.844086
0.309326 0.695557 0.797028
0.414001 0.707336 0.804871
0.512390 0.719086 0.812714
0.604523 0.730865 0.820587
0.690369 0.742615 0.828400
0.769958 0.754395 0.836243
0.835419 0.754395 0.836243
0.905609 0.766174 0.844086
0.969513 0.777924 0.851959
0.309326 0.797028 0.797028
0.414001 0.804871 0.804871
0.512390 0.812714 0.812714
0.604523 0.820587 0.820587
0.690369 0.828400 0.828400
0.769958 0.836243 0.836243
0.843262 0.844086 0.844086
0.910309 0.851959 0.851959
0.971100 0.859802 0.859802
0.335968 0.902435 0.804871
0.437500 0.906342 0.812744
0.532776 0.910278 0.820587
0.621765 0.914215 0.828430
0.704468 0.918121 0.836243
0.780945 0.922028 0.844086
0.851105 0.925964 0.851959
0.910309 0.925964 0.851959
0.971100 0.929901 0.859802
0.362640 1.000000 0.812744
0.461029 1.000000 0.820587
0.553162 1.000000 0.828430
0.639008 1.000000 0.836273
0.718597 1.000000 0.844086
0.791931 1.000000 0.851959
0.858948 1.000000 0.859802
0.915039 1.000000 0.859802
0.971100 1.000000 0.859802
0.355438 0.219574 0.902435
0.433441 0.219574 0.902435
0.511444 0.219574 0.902435
0.589447 0.219574 0.902435
0.667511 0.219574 0.902435
0.745514 0.219574 0.902435
0.823547 0.219574 0.902435
0.901550 0.219574 0.902435
0.980377 0.250977 0.906372
0.355438 0.317169 0.902435
0.456177 0.344574 0.906342
0.531036 0.344574 0.906342
0.605927 0.344574 0.906342
0.680817 0.344574 0.906342
0.755707 0.344574 0.906342
0.830597 0.344574 0.906342
0.905457 0.344574 0.906342
0.981171 0.372040 0.910309
0.355438 0.414703 0.902435
0.456177 0.438232 0.906342
0.550629 0.461731 0.910278
0.622406 0.461731 0.910278
0.694153 0.461731 0.910278
0.765900 0.461731 0.910278
0.837646 0.461731 0.910278
0.909393 0.461731 0.910278
0.981934 0.485260 0.914215
0.355438 0.512238 0.902435
0.456177 0.531830 0.906342
0.550629 0.551453 0.910278
0.638855 0.571045 0.914215
0.707458 0.571045 0.914215
0.776093 0.571045 0.914215
0.844696 0.571045 0.914215
0.913330 0.571045 0.914215
0.982697 0.590668 0.918121
0.355438 0.609802 0.902435
0.456177 0.625488 0.906342
0.550629 0.641144 0.910278
0.638855 0.656830 0.914215
0.720795 0.672516 0.918121
0.786285 0.672516 0.918121
0.851746 0.672516 0.918121
0.917236 0.672516 0.918121
0.983490 0.688202 0.922058
0.355438 0.707336 0.902435
0.456177 0.719086 0.906342
0.550629 0.730865 0.910278
0.638855 0.742645 0.914215
0.720795 0.754395 0.918121
0.796478 0.766174 0.922028
0.858795 0.766174 0.922028
0.921143 0.766174 0.922028
0.984283 0.777924 0.925964
0.355438 0.804871 0.902435
0.456177 0.812744 0.906342
0.550629 0.820587 0.910278
0.638855 0.828430 0.914215
0.720795 0.836243 0.918121
0.796478 0.844086 0.922028
0.865875 0.851959 0.925964
0.925049 0.851959 0.925964
0.985046 0.859802 0.929901
0.355438 0.902435 0.902435
0.456177 0.906342 0.906342
0.550629 0.910278 0.910278
0.638855 0.914215 0.914215
0.720795 0.918121 0.918121
0.796478 0.922028 0.922028
0.865875 0.925964 0.925964
0.928986 0.929901 0.929901
0.985840 0.933807 0.933807
0.381317 1.000000 0.906372
0.478912 1.000000 0.910309
0.570251 1.000000 0.914215
0.655304 1.000000 0.918121
0.734131 1.000000 0.922058
0.806671 1.000000 0.925964
0.872925 1.000000 0.929901
0.932892 1.000000 0.933807
0.985840 1.000000 0.933807
0.399963 0.250977 1.000000
0.474823 0.250977 1.000000
0.549713 0.250977 1.000000
0.624603 0.250977 1.000000
0.699493 0.250977 1.000000
0.774384 0.250977 1.000000
0.849274 0.250977 1.000000
0.924133 0.250977 1.000000
0.999023 0.250977 1.000000
0.399963 0.344604 1.000000
0.496765 0.372040 1.000000
0.568512 0.372040 1.000000
0.640259 0.372040 1.000000
0.712036 0.372040 1.000000
0.783783 0.372040 1.000000
0.855530 0.372040 1.000000
0.927277 0.372040 1.000000
0.999023 0.372040 1.000000
0.399963 0.438232 1.000000
0.496765 0.461761 1.000000
0.587341 0.485260 1.000000
0.655945 0.485260 1.000000
0.724548 0.485260 1.000000
0.793182 0.485260 1.000000
0.861786 0.485260 1.000000
0.930420 0.485260 1.000000
0.999023 0.485260 1.000000
0.399963 0.531860 1.000000
0.496765 0.551453 1.000000
0.587341 0.571045 1.000000
0.671631 0.590668 1.000000
0.737091 0.590668 1.000000
0.802582 0.590668 1.000000
0.868073 0.590668 1.000000
0.933533 0.590668 1.000000
0.999023 0.590668 1.000000
0.399963 0.625488 1.000000
0.496765 0.641144 1.000000
0.587341 0.656830 1.000000
0.671631 0.672516 1.000000
0.749634 0.688202 1.000000
0.812012 0.688202 1.000000
0.874329 0.688202 1.000000
0.936676 0.688202 1.000000
0.999023 0.688202 1.000000
0.399963 0.719116 1.000000
0.496765 0.730865 1.000000
0.587341 0.742645 1.000000
0.671631 0.754395 1.000000
0.749634 0.766174 1.000000
0.821411 0.777924 1.000000
0.880615 0.777924 1.000000
0.939819 0.777924 1.000000
0.999023 0.777924 1.000000
0.399963 0.812744 1.000000
0.496765 0.820587 1.000000
0.587341 0.828430 1.000000
0.671631 0.836273 1.000000
0.749634 0.844086 1.000000
0.821411 0.851959 1.000000
0.886871 0.859802 1.000000
0.942963 0.859802 1.000000
0.999023 0.859802 1.000000
0.399963 0.906372 1.000000
0.496765 0.910309 1.000000
0.587341 0.914215 1.000000
0.671631 0.918121 1.000000
0.749634 0.922058 1.000000
0.821411 0.925964 1.000000
0.886871 0.929901 1.000000
0.946075 0.933807 1.000000
0.999023 0.933807 1.000000
0.399963 1.000000 1.000000
0.496765 1.000000 1.000000
0.587341 1.000000 1.000000
0.671631 1.000000 1.000000
0.749634 1.000000 1.000000
0.821411 1.000000 1.000000
0.886871 1.000000 1.000000
0.946075 1.000000 1.000000
0.999023 1.000000 1.000000
