滤镜资源/Professional Luts Collection/Lutify.me Professional/Utility LUTs/Log Conversions/Arri Log C (Sup 2.x).cube
# Created by: Lutify.me
# Copyright: (c) Copyright Lutify.me 2015
# Website: https://lutify.me
LUT_3D_SIZE 33
-0.024668 -0.025683 -0.020030
-0.008768 -0.025683 -0.020030
0.007132 -0.025683 -0.020030
0.025620 -0.018754 -0.015129
0.048797 -0.000484 -0.003144
0.070939 0.014003 0.006844
0.100959 0.026820 0.016916
0.136862 0.034181 0.026726
0.177596 0.039926 0.036563
0.225083 0.047527 0.047025
0.282774 0.058876 0.059145
0.349067 0.072870 0.073299
0.419166 0.087676 0.088699
0.489572 0.102449 0.104351
0.558956 0.117005 0.118657
0.627202 0.131319 0.132886
0.694483 0.145402 0.147702
0.760378 0.159220 0.162620
0.821987 0.172153 0.176914
0.882323 0.184800 0.191110
0.939519 0.196793 0.204681
0.964193 0.201978 0.211577
0.966453 0.202465 0.213785
0.966432 0.202473 0.215293
0.966445 0.202485 0.216505
0.966445 0.202493 0.217430
0.966446 0.202499 0.218073
0.966447 0.202503 0.218520
0.966447 0.202505 0.218791
0.966447 0.202506 0.218943
0.966447 0.202507 0.219056
0.966447 0.202508 0.219135
0.966447 0.202508 0.219135
-0.024668 -0.009547 -0.020030
-0.008768 -0.009547 -0.020030
0.007132 -0.009547 -0.020030
0.025620 -0.005921 -0.015129
0.048797 0.004945 -0.003144
0.070939 0.014500 0.006844
0.100959 0.024028 0.016916
0.136862 0.031465 0.026726
0.177596 0.038582 0.036563
0.225083 0.047336 0.047025
0.282774 0.059042 0.059145
0.349067 0.072979 0.073299
0.419166 0.087725 0.088699
0.489572 0.102483 0.104351
0.558956 0.117030 0.118657
0.627202 0.131338 0.132886
0.694483 0.145414 0.147702
0.760378 0.159230 0.162620
0.821987 0.172160 0.176914
0.882323 0.184806 0.191110
0.939519 0.196795 0.204681
0.964193 0.201980 0.211577
0.966453 0.202464 0.213785
0.966432 0.202473 0.215293
0.966445 0.202485 0.216505
0.966445 0.202493 0.217430
0.966446 0.202499 0.218073
0.966447 0.202503 0.218520
0.966447 0.202505 0.218791
0.966447 0.202506 0.218943
0.966447 0.202507 0.219056
0.966447 0.202508 0.219135
0.966447 0.202508 0.219135
-0.024668 0.006589 -0.020030
-0.008768 0.006589 -0.020030
0.007132 0.006589 -0.020030
0.025620 0.006912 -0.015129
0.048797 0.010477 -0.003144
0.070939 0.015003 0.006844
0.100959 0.021321 0.016916
0.136862 0.028818 0.026726
0.177596 0.037265 0.036563
0.225083 0.047146 0.047025
0.282774 0.059209 0.059145
0.349067 0.073088 0.073299
0.419166 0.087773 0.088699
0.489572 0.102517 0.104351
0.558956 0.117055 0.118657
0.627202 0.131357 0.132886
0.694483 0.145427 0.147702
0.760378 0.159240 0.162620
0.821987 0.172167 0.176914
0.882323 0.184811 0.191110
0.939519 0.196798 0.204681
0.964193 0.201982 0.211577
0.966453 0.202464 0.213785
0.966432 0.202473 0.215293
0.966445 0.202485 0.216505
0.966445 0.202493 0.217430
0.966446 0.202499 0.218073
0.966447 0.202503 0.218520
0.966447 0.202505 0.218791
0.966447 0.202506 0.218943
0.966447 0.202507 0.219056
0.966447 0.202508 0.219135
0.966447 0.202508 0.219135
-0.003208 0.024778 -0.004861
0.002836 0.024778 -0.004861
0.008902 0.024778 -0.004861
0.021167 0.022904 -0.004450
0.044080 0.021715 0.001681
0.066999 0.022010 0.009263
0.098226 0.024644 0.018352
0.134934 0.029924 0.027475
0.176484 0.037363 0.036701
0.224806 0.047043 0.047054
0.283092 0.059251 0.059162
0.349501 0.073186 0.073257
0.419580 0.087863 0.088649
0.489923 0.102592 0.104461
0.559259 0.117119 0.118828
0.627465 0.131412 0.132959
0.694697 0.145473 0.147749
0.760543 0.159275 0.162660
0.822108 0.172192 0.176938
0.882396 0.184826 0.191125
0.939536 0.196800 0.204686
0.964198 0.201983 0.211578
0.966453 0.202464 0.213786
0.966432 0.202473 0.215295
0.966445 0.202485 0.216507
0.966445 0.202493 0.217431
0.966446 0.202499 0.218074
0.966447 0.202503 0.218520
0.966447 0.202505 0.218791
0.966447 0.202506 0.218944
0.966447 0.202507 0.219056
0.966447 0.202508 0.219135
0.966447 0.202508 0.219135
0.025333 0.047077 0.013908
0.020573 0.047077 0.013908
0.016114 0.047077 0.013908
0.019875 0.044825 0.013166
0.039084 0.042671 0.014070
0.062330 0.041207 0.017192
0.094771 0.040293 0.022934
0.132504 0.040699 0.029913
0.174720 0.043157 0.037905
0.223580 0.048930 0.047527
0.282319 0.059305 0.059315
0.349144 0.073070 0.073200
0.419611 0.087870 0.088510
0.490109 0.102631 0.104533
0.559431 0.117155 0.118978
0.627611 0.131443 0.133007
0.694824 0.145499 0.147775
0.760645 0.159296 0.162688
0.822188 0.172207 0.176955
0.882448 0.184837 0.191136
0.939554 0.196805 0.204694
0.964203 0.201984 0.211579
0.966453 0.202464 0.213786
0.966432 0.202473 0.215295
0.966445 0.202485 0.216507
0.966445 0.202493 0.217432
0.966446 0.202499 0.218074
0.966447 0.202503 0.218520
0.966447 0.202505 0.218791
0.966447 0.202506 0.218944
0.966447 0.202507 0.219056
0.966447 0.202508 0.219135
0.966447 0.202508 0.219135
0.030973 0.069655 0.026336
0.027312 0.069655 0.026336
0.023697 0.069655 0.026336
0.023927 0.067366 0.025709
0.035881 0.065005 0.025513
0.057867 0.063031 0.026346
0.091172 0.060837 0.029037
0.129874 0.058784 0.033737
0.172895 0.057163 0.040212
0.222163 0.057405 0.048740
0.281187 0.062357 0.059810
0.348354 0.073216 0.073192
0.419034 0.087688 0.088231
0.489837 0.102574 0.104439
0.559312 0.117131 0.119048
0.627479 0.131416 0.132996
0.694684 0.145470 0.147747
0.760528 0.159272 0.162657
0.822094 0.172189 0.176939
0.882401 0.184827 0.191129
0.939570 0.196808 0.204698
0.964208 0.201985 0.211580
0.966452 0.202464 0.213786
0.966432 0.202473 0.215294
0.966445 0.202485 0.216506
0.966445 0.202493 0.217430
0.966446 0.202499 0.218073
0.966447 0.202503 0.218520
0.966447 0.202505 0.218791
0.966447 0.202506 0.218943
0.966447 0.202507 0.219056
0.966447 0.202508 0.219135
0.966447 0.202508 0.219135
0.036596 0.101321 0.037974
0.035408 0.101321 0.037974
0.034232 0.101321 0.037974
0.033300 0.099096 0.037355
0.036190 0.096670 0.036784
0.051367 0.094492 0.036671
0.085227 0.091790 0.037710
0.125652 0.088622 0.040471
0.169956 0.084647 0.045002
0.220259 0.080244 0.051826
0.280005 0.077131 0.061534
0.347680 0.078338 0.073807
0.418619 0.087633 0.088095
0.489512 0.102276 0.103947
0.559320 0.117143 0.118973
0.627673 0.131458 0.133073
0.694812 0.145498 0.147772
0.760605 0.159289 0.162676
0.822135 0.172199 0.176950
0.882430 0.184834 0.191136
0.939591 0.196812 0.204703
0.964214 0.201987 0.211579
0.966452 0.202464 0.213787
0.966432 0.202473 0.215294
0.966445 0.202485 0.216506
0.966445 0.202493 0.217431
0.966446 0.202499 0.218073
0.966447 0.202503 0.218520
0.966447 0.202505 0.218791
0.966447 0.202506 0.218944
0.966447 0.202507 0.219056
0.966447 0.202508 0.219135
0.966447 0.202508 0.219135
0.047739 0.137521 0.048764
0.047073 0.137521 0.048764
0.046412 0.137521 0.048764
0.045736 0.135672 0.048154
0.045074 0.133681 0.047570
0.048825 0.131780 0.047061
0.075878 0.129376 0.047301
0.118331 0.126444 0.048992
0.164621 0.122579 0.052285
0.216515 0.117404 0.057659
0.277468 0.111141 0.065885
0.345735 0.104346 0.076510
0.417259 0.098681 0.088858
0.488625 0.102768 0.103340
0.558690 0.116732 0.118485
0.627516 0.131463 0.132909
0.694956 0.145526 0.147795
0.760742 0.159317 0.162711
0.822249 0.172221 0.176969
0.882505 0.184849 0.191152
0.939618 0.196818 0.204710
0.964221 0.201988 0.211579
0.966452 0.202464 0.213788
0.966432 0.202473 0.215295
0.966445 0.202485 0.216506
0.966445 0.202493 0.217431
0.966446 0.202499 0.218074
0.966447 0.202503 0.218520
0.966447 0.202505 0.218791
0.966447 0.202506 0.218944
0.966447 0.202507 0.219056
0.966447 0.202508 0.219135
0.966447 0.202508 0.219135
0.061421 0.178887 0.061299
0.060880 0.178887 0.061299
0.060345 0.178887 0.061299
0.059803 0.177380 0.060812
0.059247 0.175709 0.060266
0.058706 0.174133 0.059695
0.068073 0.172025 0.059240
0.106710 0.169451 0.059916
0.156222 0.166142 0.062111
0.210492 0.161704 0.066112
0.273282 0.155678 0.072758
0.342791 0.148225 0.081971
0.414938 0.138568 0.092734
0.486854 0.125863 0.104440
0.557470 0.120540 0.117931
0.626717 0.130846 0.132250
0.694734 0.145401 0.147517
0.760832 0.159334 0.162719
0.822334 0.172238 0.176990
0.882564 0.184861 0.191166
0.939655 0.196826 0.204713
0.964232 0.201990 0.211587
0.966452 0.202464 0.213788
0.966432 0.202473 0.215295
0.966445 0.202485 0.216507
0.966445 0.202493 0.217431
0.966446 0.202499 0.218074
0.966447 0.202503 0.218520
0.966447 0.202505 0.218791
0.966447 0.202506 0.218944
0.966447 0.202507 0.219056
0.966447 0.202508 0.219135
0.966447 0.202508 0.219135
0.077934 0.228083 0.077367
0.077446 0.228083 0.077367
0.076961 0.228083 0.077367
0.076474 0.226724 0.076953
0.075977 0.225250 0.076462
0.075521 0.223851 0.075990
0.074660 0.221953 0.075341
0.092321 0.219507 0.074993
0.141370 0.216441 0.076043
0.200893 0.212412 0.078759
0.266586 0.206967 0.083580
0.338217 0.199544 0.090768
0.411685 0.190180 0.099791
0.484251 0.177913 0.109745
0.555327 0.160300 0.120369
0.625078 0.143366 0.132150
0.693718 0.144877 0.146400
0.760589 0.158579 0.162220
0.822471 0.172242 0.177036
0.882655 0.184881 0.191186
0.939704 0.196836 0.204729
0.964246 0.201993 0.211592
0.966451 0.202464 0.213789
0.966432 0.202473 0.215296
0.966445 0.202485 0.216508
0.966445 0.202493 0.217432
0.966446 0.202499 0.218074
0.966447 0.202503 0.218520
0.966447 0.202505 0.218791
0.966447 0.202506 0.218944
0.966447 0.202507 0.219056
0.966447 0.202508 0.219135
0.966447 0.202508 0.219135
0.097930 0.287682 0.097310
0.097479 0.287682 0.097310
0.097029 0.287682 0.097310
0.096583 0.286438 0.096903
0.096139 0.285120 0.096457
0.095730 0.283912 0.096067
0.094944 0.282221 0.095478
0.094861 0.280013 0.094722
0.119267 0.277075 0.094453
0.181224 0.273381 0.095927
0.254928 0.268511 0.099373
0.330023 0.261871 0.104722
0.405887 0.252807 0.111681
0.479916 0.241150 0.119654
0.551841 0.225314 0.128145
0.622197 0.202871 0.137324
0.691293 0.173720 0.147369
0.758898 0.161658 0.160478
0.821977 0.170109 0.176035
0.882778 0.184855 0.191318
0.939770 0.196849 0.204742
0.964264 0.201997 0.211597
0.966451 0.202464 0.213790
0.966432 0.202473 0.215297
0.966445 0.202485 0.216507
0.966445 0.202493 0.217432
0.966446 0.202499 0.218074
0.966447 0.202503 0.218520
0.966447 0.202505 0.218791
0.966447 0.202506 0.218944
0.966447 0.202507 0.219056
0.966447 0.202508 0.219135
0.966447 0.202508 0.219135
0.120048 0.353863 0.119526
0.119693 0.353863 0.119526
0.119338 0.353863 0.119526
0.118980 0.352863 0.119189
0.118615 0.351780 0.118836
0.118287 0.350808 0.118542
0.117842 0.349448 0.118037
0.117039 0.347709 0.117464
0.118161 0.345265 0.116650
0.153488 0.342074 0.116668
0.232728 0.338110 0.118897
0.316664 0.332844 0.123029
0.395950 0.325631 0.128470
0.472445 0.315672 0.134786
0.545959 0.302118 0.141490
0.617425 0.282784 0.148598
0.687553 0.255483 0.155963
0.755704 0.215357 0.163631
0.819652 0.185041 0.174061
0.882033 0.180660 0.189496
0.940009 0.196915 0.205036
0.964285 0.201992 0.211595
0.966451 0.202464 0.213792
0.966432 0.202473 0.215298
0.966445 0.202485 0.216508
0.966445 0.202493 0.217432
0.966446 0.202499 0.218074
0.966447 0.202503 0.218520
0.966447 0.202505 0.218791
0.966447 0.202506 0.218944
0.966447 0.202507 0.219056
0.966447 0.202508 0.219135
0.966447 0.202508 0.219135
0.142921 0.422261 0.142552
0.142659 0.422261 0.142552
0.142397 0.422261 0.142552
0.142130 0.421513 0.142310
0.141850 0.420683 0.142045
0.141594 0.419926 0.141774
0.141255 0.418918 0.141424
0.140833 0.417605 0.140991
0.139769 0.415756 0.140349
0.146012 0.413185 0.139629
0.202757 0.409972 0.140359
0.295554 0.406037 0.143524
0.381626 0.400741 0.148035
0.461337 0.393471 0.153337
0.537243 0.383309 0.159020
0.610326 0.368908 0.164776
0.681523 0.347953 0.170707
0.750744 0.317466 0.176250
0.815452 0.269405 0.180824
0.878952 0.217880 0.188138
0.938889 0.189644 0.201944
0.964361 0.202304 0.212034
0.966444 0.202454 0.213764
0.966432 0.202472 0.215301
0.966445 0.202485 0.216509
0.966445 0.202493 0.217433
0.966446 0.202499 0.218075
0.966447 0.202503 0.218521
0.966447 0.202505 0.218791
0.966447 0.202506 0.218944
0.966447 0.202507 0.219056
0.966447 0.202508 0.219135
0.966447 0.202508 0.219135
0.165712 0.490225 0.165439
0.165515 0.490225 0.165439
0.165318 0.490225 0.165439
0.165124 0.489683 0.165259
0.164916 0.489068 0.165082
0.164737 0.488535 0.164928
0.164482 0.487780 0.164660
0.164146 0.486790 0.164300
0.163625 0.485402 0.163848
0.162205 0.483471 0.163168
0.183199 0.480890 0.162782
0.264491 0.477867 0.164657
0.362345 0.474067 0.168533
0.446660 0.468897 0.173159
0.525445 0.461744 0.178263
0.600712 0.451649 0.183447
0.673071 0.437153 0.188687
0.743238 0.416083 0.193632
0.809036 0.384889 0.197354
0.873338 0.333081 0.199578
0.934577 0.261452 0.202900
0.964142 0.191474 0.207171
0.966434 0.201901 0.214421
0.966433 0.202646 0.215248
0.966445 0.202470 0.216513
0.966445 0.202494 0.217433
0.966446 0.202499 0.218075
0.966447 0.202503 0.218521
0.966447 0.202505 0.218791
0.966447 0.202506 0.218944
0.966447 0.202507 0.219056
0.966447 0.202508 0.219135
0.966447 0.202508 0.219135
0.188164 0.557148 0.188011
0.188019 0.557148 0.188011
0.187874 0.557148 0.188011
0.187728 0.556739 0.187871
0.187570 0.556272 0.187706
0.187432 0.555861 0.187614
0.187238 0.555287 0.187413
0.186989 0.554550 0.187141
0.186642 0.553518 0.186794
0.185588 0.552082 0.186273
0.186550 0.550072 0.185640
0.232117 0.547601 0.186068
0.332771 0.544776 0.189068
0.428499 0.541088 0.193299
0.510782 0.536011 0.197927
0.588507 0.528981 0.202825
0.662740 0.519039 0.207684
0.734044 0.504778 0.212507
0.800629 0.484148 0.216351
0.865670 0.453211 0.219091
0.927485 0.401686 0.219349
0.965084 0.311591 0.214411
0.966331 0.204667 0.207852
0.966405 0.198846 0.216053
0.966452 0.203191 0.216457
0.966445 0.202444 0.217436
0.966446 0.202501 0.218076
0.966447 0.202503 0.218521
0.966447 0.202505 0.218791
0.966447 0.202506 0.218944
0.966447 0.202507 0.219056
0.966447 0.202508 0.219135
0.966447 0.202508 0.219135
0.210303 0.622890 0.210213
0.210179 0.622890 0.210213
0.210055 0.622890 0.210213
0.209939 0.622569 0.210059
0.209830 0.622245 0.209976
0.209719 0.621918 0.209870
0.209573 0.621484 0.209727
0.209384 0.620927 0.209512
0.209120 0.620147 0.209210
0.208736 0.619104 0.208902
0.206469 0.617552 0.208351
0.220036 0.615540 0.207947
0.299819 0.613306 0.209727
0.404758 0.610671 0.213469
0.493029 0.607044 0.217675
0.573845 0.602085 0.222267
0.650292 0.595249 0.227053
0.723406 0.585399 0.231660
0.790741 0.571320 0.235693
0.856434 0.551097 0.238992
0.918907 0.520803 0.240738
0.966855 0.470603 0.237760
0.968935 0.371909 0.223013
0.966617 0.237288 0.209276
0.966365 0.194108 0.217094
0.966463 0.203985 0.217428
0.966445 0.202408 0.218074
0.966447 0.202506 0.218521
0.966447 0.202505 0.218791
0.966447 0.202506 0.218944
0.966447 0.202507 0.219056
0.966447 0.202508 0.219135
0.966447 0.202508 0.219135
0.232014 0.687693 0.232034
0.231927 0.687693 0.232034
0.231841 0.687693 0.232034
0.231754 0.687453 0.231943
0.231665 0.687191 0.231838
0.231577 0.686934 0.231712
0.231476 0.686636 0.231639
0.231336 0.686225 0.231524
0.231133 0.685624 0.231299
0.230855 0.684793 0.230985
0.230021 0.683628 0.230577
0.229231 0.682023 0.230029
0.269003 0.680080 0.230365
0.371461 0.678075 0.233297
0.471894 0.675506 0.237348
0.556657 0.671919 0.241656
0.635738 0.667017 0.246270
0.710840 0.660218 0.250834
0.779614 0.650536 0.254938
0.846068 0.636768 0.258617
0.908924 0.616900 0.261212
0.961143 0.587310 0.261104
0.972554 0.537118 0.251718
0.970306 0.439209 0.233432
0.967212 0.281930 0.213309
0.966276 0.188989 0.217448
0.966477 0.204754 0.218162
0.966445 0.202377 0.218514
0.966447 0.202509 0.218792
0.966447 0.202506 0.218944
0.966447 0.202507 0.219056
0.966447 0.202508 0.219135
0.966447 0.202508 0.219135
0.252678 0.748984 0.252724
0.252613 0.748984 0.252724
0.252548 0.748984 0.252724
0.252486 0.748811 0.252677
0.252431 0.748645 0.252600
0.252373 0.748473 0.252521
0.252296 0.748243 0.252449
0.252203 0.747965 0.252370
0.252059 0.747534 0.252238
0.251860 0.746937 0.252072
0.251577 0.746107 0.251829
0.249604 0.744909 0.251360
0.259999 0.743373 0.251025
0.338317 0.741877 0.252798
0.445599 0.740238 0.256463
0.537083 0.737985 0.260611
0.619262 0.734876 0.265095
0.696404 0.730664 0.269751
0.766849 0.724275 0.273922
0.834458 0.714840 0.277838
0.897982 0.701349 0.281002
0.950806 0.681928 0.282125
0.975219 0.651755 0.277861
0.975227 0.602909 0.266390
0.972156 0.508475 0.246143
0.968088 0.332716 0.220471
0.966167 0.184499 0.217251
0.966490 0.205225 0.218707
0.966445 0.202367 0.218780
0.966447 0.202510 0.218944
0.966447 0.202507 0.219057
0.966447 0.202508 0.219135
0.966447 0.202508 0.219135
0.271734 0.805580 0.271801
0.271688 0.805580 0.271801
0.271642 0.805580 0.271801
0.271603 0.805472 0.271771
0.271561 0.805347 0.271722
0.271511 0.805203 0.271679
0.271454 0.805032 0.271628
0.271375 0.804800 0.271556
0.271261 0.804462 0.271451
0.271101 0.803991 0.271305
0.270888 0.803359 0.271116
0.270168 0.802481 0.270836
0.269944 0.801239 0.270396
0.313204 0.799876 0.270968
0.416515 0.798697 0.274040
0.516665 0.797227 0.278060
0.602656 0.795070 0.282253
0.682030 0.792110 0.286743
0.753903 0.787984 0.291080
0.822595 0.781979 0.295228
0.886830 0.773376 0.299003
0.940000 0.761246 0.301247
0.976755 0.743533 0.300740
0.980160 0.715631 0.294000
0.977815 0.668201 0.281978
0.974361 0.577855 0.260485
0.969226 0.384433 0.229264
0.966054 0.181197 0.216830
0.966495 0.205186 0.219033
0.966445 0.202385 0.218931
0.966447 0.202510 0.219057
0.966447 0.202508 0.219135
0.966447 0.202508 0.219135
0.290388 0.860992 0.290487
0.290354 0.860992 0.290487
0.290320 0.860992 0.290487
0.290283 0.860887 0.290442
0.290243 0.860769 0.290411
0.290209 0.860669 0.290379
0.290164 0.860534 0.290348
0.290094 0.860326 0.290282
0.290006 0.860063 0.290204
0.289891 0.859727 0.290101
0.289710 0.859188 0.289932
0.289464 0.858473 0.289689
0.287363 0.857548 0.289359
0.302667 0.856427 0.289316
0.386588 0.855425 0.291338
0.492786 0.854461 0.295129
0.584140 0.853091 0.299210
0.665941 0.851181 0.303557
0.739734 0.848447 0.307807
0.809848 0.844416 0.312150
0.875237 0.838451 0.315940
0.928860 0.829923 0.318624
0.971326 0.817967 0.319650
0.983626 0.800146 0.316187
0.982909 0.773640 0.309147
0.980748 0.731368 0.297998
0.976916 0.646869 0.276020
0.970607 0.433972 0.239147
0.965958 0.179317 0.216382
0.966486 0.204488 0.219154
0.966439 0.202140 0.219012
0.966461 0.202508 0.219135
0.966499 0.202508 0.219135
0.307830 0.912802 0.307961
0.307807 0.912802 0.307961
0.307784 0.912802 0.307961
0.307758 0.912728 0.307938
0.307731 0.912648 0.307914
0.307699 0.912555 0.307886
0.307659 0.912435 0.307857
0.307610 0.912290 0.307812
0.307548 0.912104 0.307759
0.307450 0.911813 0.307675
0.307315 0.911413 0.307554
0.307149 0.910921 0.307395
0.306559 0.910274 0.307178
0.306634 0.909380 0.306877
0.359072 0.908595 0.307951
0.466728 0.908061 0.311212
0.564663 0.907373 0.315282
0.649113 0.906375 0.319504
0.724907 0.904888 0.323832
0.796466 0.902268 0.328067
0.862775 0.898459 0.332149
0.917052 0.892782 0.335088
0.960537 0.884719 0.336820
0.985812 0.873138 0.336069
0.987659 0.856030 0.331572
0.986012 0.830194 0.324418
0.983755 0.789922 0.313455
0.979781 0.714749 0.292305
0.972217 0.480186 0.249637
0.965905 0.178974 0.216107
0.966893 0.223111 0.221460
0.965616 0.202508 0.219135
0.963349 0.202508 0.219135
0.322260 0.955664 0.322424
0.322240 0.955664 0.322424
0.322220 0.955664 0.322424
0.322201 0.955614 0.322409
0.322184 0.955563 0.322394
0.322169 0.955520 0.322387
0.322141 0.955435 0.322364
0.322107 0.955336 0.322342
0.322052 0.955172 0.322299
0.321974 0.954940 0.322236
0.321876 0.954648 0.322142
0.321747 0.954268 0.322017
0.321626 0.953789 0.321879
0.318333 0.953178 0.321600
0.351026 0.952581 0.322162
0.447043 0.952343 0.324999
0.547734 0.952065 0.328656
0.634485 0.951599 0.332825
0.711963 0.950785 0.337015
0.784482 0.949480 0.341415
0.851396 0.947620 0.345722
0.906293 0.944738 0.349181
0.950135 0.940111 0.351468
0.982886 0.933394 0.352517
0.991411 0.923509 0.350531
0.990896 0.909080 0.346461
0.989346 0.885008 0.339654
0.986974 0.846384 0.328921
0.982759 0.779074 0.308198
0.974018 0.522781 0.260397
0.964595 0.114300 0.208753
0.969574 0.200319 0.218815
0.976614 0.200319 0.218815
0.332962 0.987136 0.333120
0.332948 0.987136 0.333120
0.332933 0.987136 0.333120
0.332919 0.987097 0.333106
0.332906 0.987060 0.333098
0.332895 0.987030 0.333089
0.332881 0.986988 0.333074
0.332857 0.986918 0.333055
0.332828 0.986837 0.333028
0.332788 0.986719 0.332986
0.332735 0.986566 0.332938
0.332670 0.986374 0.332878
0.332559 0.986116 0.332799
0.331084 0.985802 0.332675
0.350677 0.985438 0.333008
0.433631 0.985305 0.335301
0.535217 0.985372 0.339043
0.623211 0.985294 0.342889
0.701495 0.985125 0.347153
0.774708 0.984907 0.351555
0.841802 0.984401 0.356072
0.897200 0.983404 0.359883
0.941002 0.981562 0.362725
0.974951 0.978073 0.364509
0.992796 0.972690 0.364561
0.994809 0.965015 0.362542
0.993864 0.953702 0.359251
0.992524 0.934093 0.353591
0.990357 0.900662 0.344174
0.986067 0.843257 0.324823
0.977097 0.624674 0.278497
0.959198 0.227901 0.223503
0.929482 0.227901 0.223503
0.333063 0.987713 0.332623
0.333062 0.987713 0.332623
0.333060 0.987713 0.332623
0.333059 0.987711 0.332599
0.333059 0.987710 0.332575
0.333058 0.987709 0.332545
0.333057 0.987707 0.332518
0.333057 0.987706 0.332474
0.333056 0.987703 0.332428
0.333053 0.987700 0.332365
0.333051 0.987694 0.332282
0.333047 0.987686 0.332181
0.333032 0.987673 0.332047
0.332920 0.987652 0.331877
0.332014 0.987615 0.331659
0.421761 0.988151 0.334102
0.526215 0.988967 0.337973
0.613287 0.989844 0.342515
0.691898 0.990765 0.347098
0.765295 0.991731 0.352245
0.832370 0.992716 0.357413
0.887985 0.993592 0.362052
0.932094 0.994313 0.365688
0.966802 0.994845 0.368697
0.990878 0.994642 0.370703
0.996557 0.993560 0.370965
0.996709 0.992310 0.370662
0.996356 0.988535 0.369303
0.995261 0.972641 0.364765
0.993357 0.946645 0.357460
0.989438 0.887057 0.339759
0.979903 0.814793 0.317382
0.959434 0.814793 0.317382
0.333405 0.987966 0.348139
0.333402 0.987966 0.348139
0.333400 0.987966 0.348139
0.333397 0.987965 0.347950
0.333394 0.987965 0.347744
0.333393 0.987964 0.347560
0.333390 0.987964 0.347325
0.333386 0.987963 0.347020
0.333381 0.987962 0.346689
0.333376 0.987961 0.346295
0.333368 0.987960 0.345773
0.333359 0.987957 0.345145
0.333371 0.987955 0.344362
0.332247 0.987947 0.343332
0.340140 0.987977 0.342206
0.428601 0.988544 0.343216
0.526804 0.989362 0.345117
0.609414 0.990248 0.347325
0.686567 0.991241 0.350464
0.759077 0.992338 0.356684
0.825091 0.993465 0.357164
0.880100 0.994506 0.360249
0.924399 0.995416 0.364467
0.959037 0.996173 0.368138
0.985024 0.996787 0.370785
0.995884 0.997085 0.371758
0.997094 0.997177 0.371898
0.997015 0.997389 0.371948
0.997002 0.997016 0.371870
0.996857 0.993984 0.371305
0.996014 0.984190 0.367787
0.992644 0.957521 0.360590
0.986813 0.957521 0.360590
0.334149 0.988128 0.428232
0.334149 0.988128 0.428232
0.334148 0.988128 0.428232
0.334146 0.988128 0.428112
0.334144 0.988128 0.427980
0.334143 0.988128 0.427861
0.334141 0.988127 0.427701
0.334139 0.988127 0.427495
0.334135 0.988125 0.427194
0.334132 0.988125 0.426794
0.334130 0.988123 0.426252
0.334093 0.988121 0.425501
0.333712 0.988117 0.424490
0.332856 0.988108 0.423090
0.364036 0.988272 0.421754
0.441900 0.988790 0.420886
0.534898 0.989594 0.420004
0.613530 0.990441 0.417937
0.686917 0.991379 0.414409
0.757178 0.992415 0.409283
0.821029 0.993454 0.385550
0.874610 0.994412 0.372945
0.918309 0.995268 0.373465
0.952679 0.995991 0.367195
0.978997 0.996567 0.367757
0.994861 0.996936 0.370924
0.997122 0.996978 0.371882
0.996979 0.996951 0.371820
0.996991 0.996952 0.371823
0.997003 0.997108 0.371869
0.997047 0.997726 0.372038
0.997115 0.997898 0.372211
0.997180 0.997898 0.372211
0.335005 0.988316 0.497888
0.335005 0.988316 0.497888
0.335004 0.988316 0.497888
0.335003 0.988316 0.497794
0.334998 0.988316 0.497699
0.334992 0.988316 0.497609
0.334978 0.988315 0.497495
0.334950 0.988315 0.497345
0.334894 0.988314 0.497133
0.334785 0.988312 0.496844
0.334551 0.988310 0.496466
0.334435 0.988307 0.495966
0.335069 0.988308 0.495270
0.347867 0.988372 0.494475
0.396015 0.988657 0.493911
0.471221 0.989212 0.493563
0.550053 0.989935 0.492995
0.624662 0.990768 0.491749
0.693611 0.991666 0.489376
0.759917 0.992654 0.485434
0.820469 0.993661 0.480169
0.871884 0.994580 0.465016
0.914203 0.995374 0.443024
0.947975 0.996011 0.400173
0.973935 0.996502 0.380698
