滤镜资源/Professional Luts Collection/Lutify.me Professional/Utility LUTs/Log Conversions/Arri Log C (Sup 2.x).cube
# Created by: Lutify.me
# Copyright: (c) Copyright Lutify.me 2015
# Website: https://lutify.me
LUT_3D_SIZE 5
-0.024668 -0.025683 -0.020030
0.177596 0.039926 0.036563
0.694483 0.145402 0.147702
0.966445 0.202485 0.216505
0.966447 0.202508 0.219135
0.061421 0.178887 0.061299
0.156222 0.166142 0.062111
0.694734 0.145401 0.147517
0.966445 0.202485 0.216507
0.966447 0.202508 0.219135
0.232014 0.687693 0.232034
0.231133 0.685624 0.231299
0.635738 0.667017 0.246270
0.967212 0.281930 0.213309
0.966447 0.202508 0.219135
0.333405 0.987966 0.348139
0.333381 0.987962 0.346689
0.526804 0.989362 0.345117
0.985024 0.996787 0.370785
0.986813 0.957521 0.360590
0.570454 0.993040 0.790634
0.596080 0.993089 0.790797
0.721570 0.994751 0.791526
0.962541 0.998120 0.775302
0.996122 0.997004 0.371838
0.027518 0.020262 0.151813
0.172624 0.039921 0.150622
0.694062 0.145578 0.177672
0.966445 0.202485 0.216506
0.966447 0.202508 0.219135
0.057631 0.162378 0.151145
0.147868 0.148548 0.148755
0.692597 0.145225 0.176936
0.966445 0.202485 0.216507
0.966447 0.202508 0.219135
0.230810 0.684060 0.230564
0.229907 0.681999 0.229856
0.633913 0.664344 0.245191
0.967232 0.283194 0.213515
0.966447 0.202508 0.219135
0.333971 0.988080 0.424313
0.333958 0.988079 0.423302
0.524332 0.989458 0.416569
0.984327 0.996775 0.369953
0.986833 0.957570 0.360604
0.569776 0.993068 0.798526
0.595454 0.993108 0.798690
0.721086 0.994773 0.799461
0.962185 0.998136 0.784207
0.995891 0.997004 0.371802
0.082030 0.081946 0.615256
0.083773 0.081911 0.614806
0.680212 0.156470 0.618338
0.967191 0.208971 0.552577
0.966452 0.202508 0.219135
0.081853 0.081736 0.613918
0.081722 0.081691 0.613650
0.679850 0.156460 0.618703
0.967195 0.209011 0.553599
0.966452 0.202508 0.219135
0.221866 0.635650 0.612552
0.220935 0.633352 0.612068
0.612723 0.613023 0.613400
0.966963 0.211063 0.543910
0.966452 0.202508 0.219135
0.337580 0.988650 0.660609
0.337567 0.988637 0.660369
0.505379 0.989636 0.659623
0.975956 0.995275 0.620855
0.987025 0.958051 0.360741
0.564382 0.993258 0.844806
0.590460 0.993187 0.845025
0.717263 0.994896 0.846381
0.959297 0.998285 0.839489
0.997482 0.999018 0.645825
0.127471 0.127383 0.956247
0.127499 0.127377 0.956422
0.647325 0.175289 0.961916
0.969556 0.227957 0.968078
0.969395 0.227152 0.954598
0.127249 0.127094 0.954601
0.127283 0.127122 0.954805
0.638261 0.173509 0.960471
0.969556 0.227958 0.968098
0.969397 0.227153 0.954633
0.212669 0.554999 0.950125
0.211637 0.552092 0.950182
0.560318 0.524301 0.953286
0.969414 0.221304 0.964569
0.969401 0.227175 0.954984
0.335527 0.959951 0.948174
0.335309 0.959413 0.948261
0.455426 0.956203 0.949767
0.955376 0.950552 0.957810
0.983421 0.872626 0.945158
0.551513 0.993894 0.958970
0.577940 0.993950 0.959242
0.707400 0.995377 0.961397
0.951413 0.999040 0.966157
1.002651 0.999702 0.958838
0.208465 0.528312 0.970984
0.207264 0.524710 0.970819
0.575668 0.495549 0.972360
0.969542 0.228361 0.969583
0.969570 0.228044 0.969579
0.215094 0.559988 0.971744
0.214144 0.557234 0.971660
0.571537 0.533711 0.972859
0.969513 0.226113 0.969508
0.969570 0.228044 0.969579
0.257991 0.706741 0.976349
0.257359 0.705071 0.976278
0.534832 0.692490 0.977397
0.976665 0.562712 0.980255
0.969570 0.228044 0.969579
0.335501 0.956153 0.987684
0.335297 0.955644 0.987725
0.477993 0.953080 0.989438
0.951107 0.949176 0.997534
0.987806 0.884429 0.992909
0.572298 0.994562 0.990046
0.592657 0.994721 0.990260
0.715399 0.995494 0.992134
0.949655 0.999409 0.998453
0.999652 0.999049 0.998947
