滤镜资源/Professional Luts Collection/Lutify.me Professional/Utility LUTs/Log Conversions/Arri Log C (Sup 2.x).cube
# Created by: Lutify.me
# Copyright: (c) Copyright Lutify.me 2015
# Website: https://lutify.me
LUT_3D_SIZE 9
-0.024668 -0.025683 -0.020030
0.048797 -0.000484 -0.003144
0.177596 0.039926 0.036563
0.419166 0.087676 0.088699
0.694483 0.145402 0.147702
0.939519 0.196793 0.204681
0.966445 0.202485 0.216505
0.966447 0.202505 0.218791
0.966447 0.202508 0.219135
0.025333 0.047077 0.013908
0.039084 0.042671 0.014070
0.174720 0.043157 0.037905
0.419611 0.087870 0.088510
0.694824 0.145499 0.147775
0.939554 0.196805 0.204694
0.966445 0.202485 0.216507
0.966447 0.202505 0.218791
0.966447 0.202508 0.219135
0.061421 0.178887 0.061299
0.059247 0.175709 0.060266
0.156222 0.166142 0.062111
0.414938 0.138568 0.092734
0.694734 0.145401 0.147517
0.939655 0.196826 0.204713
0.966445 0.202485 0.216507
0.966447 0.202505 0.218791
0.966447 0.202508 0.219135
0.142921 0.422261 0.142552
0.141850 0.420683 0.142045
0.139769 0.415756 0.140349
0.381626 0.400741 0.148035
0.681523 0.347953 0.170707
0.938889 0.189644 0.201944
0.966445 0.202485 0.216509
0.966447 0.202505 0.218791
0.966447 0.202508 0.219135
0.232014 0.687693 0.232034
0.231665 0.687191 0.231838
0.231133 0.685624 0.231299
0.269003 0.680080 0.230365
0.635738 0.667017 0.246270
0.908924 0.616900 0.261212
0.967212 0.281930 0.213309
0.966447 0.202509 0.218792
0.966447 0.202508 0.219135
0.307830 0.912802 0.307961
0.307731 0.912648 0.307914
0.307548 0.912104 0.307759
0.306559 0.910274 0.307178
0.564663 0.907373 0.315282
0.862775 0.898459 0.332149
0.987659 0.856030 0.331572
0.972217 0.480186 0.249637
0.963349 0.202508 0.219135
0.333405 0.987966 0.348139
0.333394 0.987965 0.347744
0.333381 0.987962 0.346689
0.333371 0.987955 0.344362
0.526804 0.989362 0.345117
0.825091 0.993465 0.357164
0.985024 0.996787 0.370785
0.997002 0.997016 0.371870
0.986813 0.957521 0.360590
0.336204 0.988778 0.630570
0.337534 0.988781 0.630488
0.346064 0.988826 0.630298
0.409683 0.989228 0.630121
0.611175 0.991081 0.630383
0.829554 0.994310 0.624476
0.967353 0.996918 0.578728
0.996993 0.997010 0.375380
0.996975 0.997004 0.371748
0.570454 0.993040 0.790634
0.581735 0.992918 0.790680
0.596080 0.993089 0.790797
0.631645 0.993751 0.791039
0.721570 0.994751 0.791526
0.857220 0.996330 0.790126
0.962541 0.998120 0.775302
0.998162 0.998695 0.693507
0.996122 0.997004 0.371838
-0.017540 -0.009038 0.037828
0.046425 0.018030 0.037740
0.176851 0.038586 0.048710
0.419014 0.087670 0.091537
0.694493 0.145402 0.147706
0.939522 0.196789 0.204686
0.966445 0.202485 0.216505
0.966447 0.202505 0.218791
0.966447 0.202508 0.219135
0.025122 0.040686 0.036938
0.036223 0.036197 0.036238
0.173822 0.040190 0.047183
0.419404 0.087856 0.091800
0.694833 0.145501 0.147785
0.939557 0.196805 0.204694
0.966445 0.202485 0.216507
0.966447 0.202505 0.218791
0.966447 0.202508 0.219135
0.060715 0.176696 0.060946
0.058505 0.173490 0.059830
0.155062 0.163883 0.061626
0.415722 0.135916 0.093214
0.694729 0.145400 0.147505
0.939658 0.196826 0.204718
0.966445 0.202485 0.216507
0.966447 0.202505 0.218791
0.966447 0.202508 0.219135
0.142752 0.421558 0.142129
0.141616 0.419989 0.141600
0.139538 0.415022 0.139915
0.381152 0.400109 0.147620
0.681458 0.348123 0.170826
0.938880 0.189621 0.201891
0.966445 0.202485 0.216509
0.966447 0.202505 0.218791
0.966447 0.202508 0.219135
0.231702 0.686920 0.231547
0.231411 0.686443 0.231385
0.230898 0.684931 0.230872
0.268427 0.679469 0.229990
0.635494 0.666647 0.246015
0.908912 0.617019 0.261269
0.967218 0.282255 0.213395
0.966447 0.202509 0.218792
0.966447 0.202508 0.219135
0.307541 0.911929 0.307454
0.307439 0.911781 0.307404
0.307267 0.911273 0.307233
0.306324 0.909499 0.306628
0.564086 0.906665 0.314778
0.862648 0.898206 0.331977
0.987661 0.856062 0.331588
0.972221 0.480290 0.249683
0.963347 0.202508 0.219135
0.333589 0.988004 0.387170
0.333578 0.988003 0.386506
0.333560 0.987999 0.384625
0.333533 0.987989 0.379238
0.526128 0.989380 0.370015
0.824713 0.993471 0.363840
0.984901 0.996784 0.370687
0.997003 0.997017 0.371869
0.986813 0.957534 0.360594
0.336191 0.988794 0.638820
0.337463 0.988797 0.638737
0.345908 0.988842 0.638557
0.409102 0.989241 0.638395
0.610892 0.991095 0.638711
0.829359 0.994324 0.633106
0.967179 0.996933 0.589772
0.996998 0.997014 0.378751
0.996972 0.997004 0.371843
0.570280 0.993046 0.793945
0.581566 0.992924 0.793991
0.595918 0.993092 0.794108
0.631493 0.993755 0.794355
0.721445 0.994756 0.794857
0.857121 0.996335 0.793524
0.962449 0.998124 0.779052
0.998183 0.998701 0.699884
0.996062 0.997004 0.371838
0.027518 0.020262 0.151813
0.036199 0.021193 0.150935
0.172624 0.039921 0.150622
0.417755 0.088238 0.158736
0.694062 0.145578 0.177672
0.939530 0.196796 0.204702
0.966445 0.202485 0.216506
0.966447 0.202505 0.218791
0.966447 0.202508 0.219135
0.021942 0.020517 0.151424
0.027508 0.020159 0.150554
0.169168 0.038737 0.150306
0.418106 0.088453 0.159568
0.694390 0.145686 0.178496
0.939565 0.196807 0.204718
0.966445 0.202485 0.216507
0.966447 0.202505 0.218791
0.966447 0.202508 0.219135
0.057631 0.162378 0.151145
0.055324 0.158897 0.150126
0.147868 0.148548 0.148755
0.411181 0.121558 0.155078
0.692597 0.145225 0.176936
0.939667 0.196829 0.204766
0.966445 0.202485 0.216507
0.966447 0.202505 0.218791
0.966447 0.202508 0.219135
0.141296 0.416873 0.160660
0.140211 0.415348 0.159789
0.138214 0.410378 0.157433
0.376603 0.396033 0.161888
0.668058 0.354815 0.176116
0.938467 0.189525 0.201772
0.966445 0.202485 0.216509
0.966447 0.202505 0.218791
0.966447 0.202508 0.219135
0.230810 0.684060 0.230564
0.230433 0.683557 0.230391
0.229907 0.681999 0.229856
0.265842 0.676594 0.228920
0.633913 0.664344 0.245191
0.908731 0.616940 0.261225
0.967232 0.283194 0.213515
0.966447 0.202509 0.218792
0.966447 0.202508 0.219135
0.306575 0.909038 0.306421
0.306460 0.908881 0.306370
0.306307 0.908424 0.306218
0.305441 0.906591 0.305612
0.562023 0.904074 0.313854
0.861909 0.896444 0.331405
0.987665 0.856151 0.331613
0.972232 0.480594 0.249752
0.963342 0.202508 0.219135
0.333971 0.988080 0.424313
0.333966 0.988080 0.424063
0.333958 0.988079 0.423302
0.333953 0.988075 0.420810
0.524332 0.989458 0.416569
0.823678 0.993511 0.386381
0.984327 0.996775 0.369953
0.997003 0.997020 0.371870
0.986833 0.957570 0.360604
0.336173 0.988841 0.649955
0.337279 0.988844 0.649879
0.345486 0.988887 0.649711
0.407504 0.989278 0.649569
0.610101 0.991133 0.649949
0.828814 0.994363 0.644834
0.966695 0.996979 0.604833
0.997011 0.997025 0.382839
0.996963 0.997004 0.371839
0.569776 0.993068 0.798526
0.581086 0.992939 0.798573
0.595454 0.993108 0.798690
0.631059 0.993770 0.798940
0.721086 0.994773 0.799461
0.856837 0.996348 0.798224
0.962185 0.998136 0.784207
0.998242 0.998714 0.708455
0.995891 0.997004 0.371802
0.049342 0.049215 0.369716
0.049221 0.049123 0.369210
0.145089 0.054874 0.368240
0.409848 0.093936 0.368563
0.690601 0.148350 0.366417
0.938030 0.197999 0.332159
0.966441 0.202444 0.212490
0.966447 0.202505 0.218791
0.966447 0.202508 0.219135
0.049368 0.049231 0.369787
0.049231 0.049163 0.369275
0.140607 0.054140 0.368327
0.409975 0.094158 0.369028
0.690930 0.148476 0.367047
0.938056 0.198032 0.332855
0.966441 0.202446 0.212553
0.966447 0.202505 0.218791
0.966447 0.202508 0.219135
0.049996 0.057948 0.368398
0.049576 0.056551 0.367992
0.104716 0.054338 0.366951
0.403882 0.092721 0.368260
0.690638 0.148456 0.368484
0.938130 0.198079 0.334864
0.966440 0.202448 0.212745
0.966447 0.202505 0.218791
0.966447 0.202508 0.219135
0.136289 0.389617 0.369608
0.135133 0.387945 0.369137
0.133280 0.382659 0.367749
0.365992 0.366512 0.366944
0.673971 0.313181 0.361517
0.935864 0.191222 0.328272
0.966441 0.202447 0.212670
0.966447 0.202505 0.218791
0.966447 0.202508 0.219135
0.227877 0.670284 0.379087
0.227521 0.669778 0.378610
0.226983 0.668194 0.377237
0.255058 0.662624 0.373750
0.627950 0.650545 0.372111
0.895105 0.615755 0.326281
0.968364 0.344269 0.219656
0.966447 0.202509 0.218792
0.966447 0.202508 0.219135
0.304588 0.900075 0.415283
0.304482 0.899931 0.414896
0.304289 0.899387 0.413861
0.303632 0.897492 0.410703
0.554571 0.894703 0.407033
0.857706 0.887392 0.377461
0.988070 0.860228 0.332629
0.972268 0.481553 0.249967
0.963324 0.202508 0.219135
0.335065 0.988295 0.511061
0.335060 0.988295 0.510889
0.335053 0.988295 0.510369
0.335050 0.988295 0.508653
0.518862 0.989635 0.505791
0.820974 0.993754 0.492433
0.981848 0.996908 0.391340
0.997003 0.997028 0.371869
0.986867 0.957685 0.360635
0.335996 0.988975 0.680915
0.336533 0.988976 0.680856
0.343893 0.989015 0.680736
0.402122 0.989380 0.680709
0.607676 0.991245 0.681547
0.827246 0.994480 0.678283
0.965239 0.997111 0.645529
0.997100 0.997112 0.418599
0.996981 0.997004 0.371765
0.568274 0.993128 0.812452
0.579643 0.992983 0.812499
0.594060 0.993146 0.812620
0.629754 0.993817 0.812871
0.720007 0.994812 0.813424
0.855985 0.996385 0.812440
0.961391 0.998177 0.799607
0.998267 0.998773 0.732525
0.996220 0.997756 0.463272
0.082030 0.081946 0.615256
0.082000 0.081895 0.615131
0.083773 0.081911 0.614806
0.387382 0.108154 0.615956
0.680212 0.156470 0.618338
0.931155 0.203862 0.612938
0.967191 0.208971 0.552577
0.966423 0.202297 0.203684
0.966452 0.202508 0.219135
0.082012 0.081892 0.615099
0.081978 0.081874 0.614971
0.083129 0.081861 0.614719
0.386732 0.108066 0.615937
0.680559 0.156580 0.618525
0.931184 0.203890 0.613136
0.967192 0.208986 0.552759
0.966423 0.202297 0.203677
0.966452 0.202508 0.219135
0.081853 0.081736 0.613918
0.081824 0.081724 0.613819
0.081722 0.081691 0.613650
0.378964 0.106911 0.615074
0.679850 0.156460 0.618703
0.931268 0.203927 0.613710
0.967195 0.209011 0.553599
0.966423 0.202293 0.203501
0.966452 0.202508 0.219135
0.123171 0.305507 0.610658
0.121596 0.302514 0.610505
0.119227 0.293117 0.610122
0.327920 0.261874 0.610379
0.660937 0.197237 0.613577
0.929962 0.203807 0.614597
0.967204 0.209087 0.556028
0.966422 0.202282 0.202983
0.966452 0.202508 0.219135
0.221866 0.635650 0.612552
0.221501 0.635097 0.612422
0.220935 0.633352 0.612068
0.228425 0.627067 0.611169
0.612723 0.613023 0.613400
0.895432 0.562769 0.604883
0.966963 0.211063 0.543910
0.966424 0.202308 0.205392
0.966452 0.202508 0.219135
0.300878 0.878935 0.622900
0.300754 0.878764 0.622784
0.300548 0.878155 0.622490
0.299895 0.876119 0.621618
0.536697 0.872590 0.621600
0.848355 0.863888 0.617409
0.986843 0.837300 0.552640
0.972256 0.482232 0.237865
0.963303 0.202508 0.219135
0.337580 0.988650 0.660609
0.337573 0.988646 0.660550
0.337567 0.988637 0.660369
0.337557 0.988598 0.659807
0.505379 0.989636 0.659623
0.814313 0.993082 0.657257
0.975956 0.995275 0.620855
0.997003 0.996796 0.381154
0.987025 0.958051 0.360741
0.335921 0.989338 0.754909
0.335156 0.989335 0.754874
0.339547 0.989356 0.754807
0.387486 0.989654 0.754877
0.601207 0.991538 0.756225
0.823010 0.994781 0.755455
0.961547 0.997451 0.736699
0.997824 0.997776 0.628170
0.997353 0.996993 0.367135
0.564382 0.993258 0.844806
0.575927 0.993075 0.844867
0.590460 0.993187 0.845025
0.626400 0.993869 0.845408
0.717263 0.994896 0.846381
0.853778 0.996455 0.846840
0.959297 0.998285 0.839489
0.998215 0.999023 0.793279
0.997482 0.999018 0.645825
0.111619 0.111541 0.837519
0.111651 0.111536 0.837563
0.111617 0.111561 0.837580
0.346101 0.125857 0.838785
0.663311 0.167911 0.842611
0.920388 0.212299 0.846084
0.968596 0.220506 0.833890
0.968237 0.217640 0.775355
0.966287 0.209625 0.573434
0.111607 0.111466 0.837246
0.111608 0.111466 0.837242
0.111595 0.111475 0.837311
0.343642 0.125384 0.838507
0.663626 0.167996 0.842650
0.920420 0.212315 0.846136
0.968597 0.220510 0.833930
0.968236 0.217638 0.775245
0.966292 0.209641 0.573681
0.111448 0.111305 0.836030
0.111453 0.111311 0.836077
0.111463 0.111321 0.836148
0.330692 0.124016 0.837434
0.660871 0.167520 0.842102
0.920518 0.212341 0.846286
0.968598 0.220519 0.834098
0.968239 0.217654 0.775601
0.966296 0.209665 0.574395
0.113191 0.139999 0.831295
0.112722 0.137992 0.831290
0.112091 0.132013 0.831379
0.243426 0.122922 0.832162
0.638298 0.161302 0.837304
0.917550 0.211760 0.845495
0.968601 0.220544 0.834595
0.968243 0.217684 0.776205
0.966310 0.209738 0.576643
0.212686 0.577807 0.830389
0.212287 0.577163 0.830433
0.211663 0.575065 0.830367
0.207721 0.567517 0.830376
0.585256 0.549896 0.833358
0.880355 0.483586 0.837218
0.968439 0.210471 0.832524
0.968257 0.217800 0.778685
0.966352 0.209968 0.583676
0.294596 0.842862 0.831456
0.294463 0.842671 0.831423
0.294257 0.842024 0.831424
0.293545 0.839738 0.831425
0.504512 0.835181 0.832967
0.832972 0.824820 0.836508
0.984232 0.782272 0.824984
0.971309 0.400786 0.779593
0.964761 0.210674 0.604536
0.339108 0.980782 0.840738
0.339024 0.980660 0.840749
0.338920 0.980338 0.840759
0.338609 0.979372 0.840751
0.478232 0.977916 0.841646
0.801134 0.977438 0.844669
0.964671 0.975068 0.838856
0.996184 0.965145 0.791541
0.986937 0.927386 0.640223
0.338778 0.990022 0.868826
0.337796 0.990019 0.868834
0.339307 0.990025 0.868873
0.370228 0.990220 0.869163
0.589102 0.992074 0.871336
0.815131 0.995335 0.874321
0.954613 0.998061 0.870806
0.998171 0.998855 0.840005
0.998290 0.998332 0.745894
0.557098 0.993596 0.903499
0.569006 0.993458 0.903573
0.583658 0.993503 0.903767
0.620072 0.994153 0.904281
0.712069 0.995095 0.905711
0.849512 0.996659 0.907849
0.955331 0.998498 0.906893
0.995275 0.999205 0.889622
0.997959 0.999215 0.844202
0.127471 0.127383 0.956247
0.127480 0.127383 0.956274
0.127499 0.127377 0.956422
0.284769 0.135359 0.957416
0.647325 0.175289 0.961916
0.912852 0.218030 0.968038
0.969556 0.227957 0.968078
0.969522 0.227676 0.963396
0.969395 0.227152 0.954598
0.127411 0.127255 0.955807
0.127421 0.127259 0.955837
0.127444 0.127282 0.956009
0.275743 0.134084 0.957002
0.645630 0.174671 0.961637
0.912901 0.218051 0.968045
0.969556 0.227957 0.968082
0.969522 0.227676 0.963390
0.969397 0.227152 0.954607
0.127249 0.127094 0.954601
0.127259 0.127098 0.954631
0.127283 0.127122 0.954805
0.247603 0.132315 0.955692
0.638261 0.173509 0.960471
0.912906 0.218052 0.968056
0.969556 0.227958 0.968098
0.969522 0.227677 0.963413
0.969397 0.227153 0.954633
0.127235 0.136914 0.951150
0.127072 0.135960 0.951165
0.126864 0.132868 0.951306
0.167908 0.126060 0.951855
0.612118 0.168899 0.956417
0.902088 0.216009 0.965250
0.969557 0.227960 0.968144
0.969522 0.227680 0.963456
0.969400 0.227158 0.954717
0.212669 0.554999 0.950125
0.212246 0.554275 0.950137
0.211637 0.552092 0.950182
0.207005 0.544102 0.950408
0.560318 0.524301 0.953286
0.865648 0.456832 0.958799
0.969414 0.221304 0.964569
0.969523 0.227690 0.963624
0.969401 0.227175 0.954984
0.290985 0.818451 0.948588
0.290860 0.818216 0.948613
0.290636 0.817490 0.948657
0.289885 0.815028 0.948889
0.477966 0.809851 0.950712
0.820077 0.799502 0.956103
0.981610 0.751750 0.959242
0.971439 0.360665 0.958026
0.968292 0.227212 0.955612
0.335527 0.959951 0.948174
0.335435 0.959818 0.948197
0.335309 0.959413 0.948261
0.334948 0.958258 0.948471
0.455426 0.956203 0.949767
0.789958 0.955027 0.954764
0.955376 0.950552 0.957810
0.995092 0.933265 0.954100
0.983421 0.872626 0.945158
0.341549 0.990640 0.951291
0.340961 0.990634 0.951316
0.342702 0.990631 0.951394
0.370821 0.990778 0.951779
0.580105 0.992449 0.954034
0.808740 0.994978 0.958119
0.948695 0.996175 0.960732
0.992695 0.996216 0.958478
1.000039 0.996565 0.949803
0.551513 0.993894 0.958970
0.563832 0.993882 0.959046
0.577940 0.993950 0.959242
0.614742 0.994543 0.959808
0.707400 0.995377 0.961397
0.845439 0.997029 0.964194
0.951413 0.999040 0.966157
0.990647 1.000143 0.964239
1.002651 0.999702 0.958838
0.133071 0.159870 0.960416
0.132741 0.157954 0.960404
0.132256 0.154093 0.960369
0.181952 0.148683 0.960369
0.606903 0.166342 0.963121
0.895807 0.214210 0.967920
0.969565 0.228043 0.969579
0.969570 0.228044 0.969579
0.969570 0.228044 0.969579
0.134324 0.174346 0.960507
0.134027 0.173267 0.960497
0.133629 0.170472 0.960468
0.179750 0.164837 0.960468
0.604754 0.177831 0.963144
0.894088 0.212330 0.967876
0.969564 0.228043 0.969579
0.969570 0.228044 0.969579
0.969570 0.228044 0.969579
0.142581 0.241788 0.961047
0.141819 0.239074 0.961021
0.140748 0.231116 0.960948
0.169844 0.207588 0.960792
0.598359 0.197160 0.963291
0.889325 0.209499 0.967750
0.969562 0.228042 0.969579
0.969570 0.228044 0.969579
0.969570 0.228044 0.969579
0.177236 0.416308 0.963831
0.176605 0.415024 0.963802
0.175630 0.411032 0.963711
0.168563 0.397145 0.963392
0.581786 0.363928 0.965205
0.876295 0.239428 0.967793
0.969554 0.228056 0.969579
0.969570 0.228044 0.969579
0.969570 0.228044 0.969579
0.231899 0.618757 0.970058
0.231607 0.618261 0.970038
0.231131 0.616629 0.969974
0.228857 0.611107 0.969758
0.544233 0.598559 0.971212
0.852149 0.558614 0.974060
0.970575 0.308236 0.970570
0.969570 0.228041 0.969579
0.969570 0.228044 0.969579
0.295302 0.828407 0.979496
0.295158 0.828184 0.979507
0.294937 0.827469 0.979531
0.294213 0.825125 0.979576
0.474211 0.820237 0.980717
0.813748 0.810603 0.984371
0.979806 0.772958 0.985614
0.973939 0.448788 0.973946
0.967224 0.228044 0.969579
0.334796 0.954502 0.979374
0.334718 0.954383 0.979398
0.334607 0.954025 0.979495
0.334262 0.952912 0.979698
0.462244 0.951107 0.981059
0.787814 0.950293 0.986002
0.952099 0.945645 0.989922
0.994942 0.928136 0.991164
0.985002 0.869735 0.990348
0.341735 0.990200 0.979560
0.342496 0.990142 0.979581
0.345892 0.989992 0.979651
0.379551 0.989679 0.980022
0.582536 0.989923 0.982186
0.807833 0.989978 0.986107
0.946287 0.989762 0.989397
0.989941 0.989013 0.990370
1.001620 0.987678 0.990169
0.558457 0.994131 0.981858
0.569615 0.994156 0.981927
0.581662 0.994225 0.982104
0.618200 0.994733 0.982665
0.709035 0.995573 0.984236
0.844770 0.998595 0.987127
0.949743 1.000490 0.989725
0.988622 1.000110 0.990672
1.000059 0.999627 0.990444
0.208465 0.528312 0.970984
0.207990 0.527406 0.970943
0.207264 0.524710 0.970819
0.206224 0.515941 0.970647
0.575668 0.495549 0.972360
0.865818 0.425663 0.976935
0.969542 0.228361 0.969583
0.969570 0.228044 0.969579
0.969570 0.228044 0.969579
0.210426 0.543210 0.971232
0.210000 0.542398 0.971198
0.209283 0.539814 0.971090
0.208477 0.531395 0.970954
0.574769 0.511756 0.972416
0.864934 0.444622 0.976963
0.969537 0.227754 0.969572
0.969570 0.228044 0.969579
0.969570 0.228044 0.969579
0.215094 0.559988 0.971744
0.214721 0.559286 0.971723
0.214144 0.557234 0.971660
0.212961 0.550266 0.971497
0.571537 0.533711 0.972859
0.862547 0.470238 0.976872
0.969513 0.226113 0.969508
0.969570 0.228044 0.969579
0.969570 0.228044 0.969579
0.227792 0.604466 0.972473
0.227424 0.603842 0.972460
0.226902 0.602035 0.972412
0.224914 0.596118 0.972283
0.561017 0.583419 0.974004
0.856180 0.541827 0.976936
0.969929 0.264249 0.970829
0.969570 0.228044 0.969579
0.969570 0.228044 0.969579
0.257991 0.706741 0.976349
0.257742 0.706347 0.976334
0.257359 0.705071 0.976278
0.255797 0.700975 0.976099
0.534832 0.692490 0.977397
0.840226 0.668025 0.980237
0.976665 0.562712 0.980255
0.969574 0.228415 0.969596
0.969570 0.228044 0.969579
0.303173 0.853480 0.982566
0.303030 0.853262 0.982571
0.302836 0.852644 0.982568
0.302235 0.850714 0.982498
0.486338 0.847188 0.983551
0.810139 0.840596 0.987192
0.975447 0.810951 0.988706
0.978542 0.613143 0.982164
0.973266 0.227983 0.969576
0.335501 0.956153 0.987684
0.335414 0.956022 0.987687
0.335297 0.955644 0.987725
0.334972 0.954603 0.987965
0.477993 0.953080 0.989438
0.790258 0.952337 0.994258
0.951107 0.949176 0.997534
0.995124 0.933219 0.995783
0.987806 0.884429 0.992909
0.342852 0.989334 0.987783
0.345819 0.989279 0.987807
0.351993 0.989142 0.987886
0.400434 0.988863 0.988364
0.593496 0.988962 0.990306
0.810928 0.989018 0.994089
0.946111 0.988780 0.998375
0.989406 0.987999 0.998883
1.001518 0.986606 0.998991
0.572298 0.994562 0.990046
0.580839 0.994589 0.990097
0.592657 0.994721 0.990260
0.628425 0.994853 0.990766
0.715399 0.995494 0.992134
0.846601 0.999439 0.995578
0.949655 0.999409 0.998453
0.988143 0.999229 0.999044
0.999652 0.999049 0.998947
