滤镜资源/Professional Luts Collection/Lutify.me Professional/Utility LUTs/Log Conversions/BMD Film.cube
# Created by: Lutify.me
# Copyright: (c) Copyright Lutify.me 2015
# Website: https://lutify.me
LUT_3D_SIZE 9
0.023485 0.023485 0.023485
0.129750 0.023485 0.023485
0.272476 0.023485 0.023485
0.435886 0.023485 0.023485
0.586172 0.023485 0.023485
0.721133 0.023485 0.023485
0.839461 0.023485 0.023485
0.920846 0.023485 0.023485
0.966072 0.023485 0.023485
0.003528 0.100613 0.020958
0.100613 0.100613 0.020958
0.253283 0.100613 0.020958
0.426576 0.100613 0.020958
0.581837 0.100613 0.020958
0.719273 0.100613 0.020958
0.838662 0.100613 0.020958
0.920601 0.100613 0.020958
0.966010 0.100613 0.020958
-0.028457 0.215216 0.016552
0.040774 0.215216 0.016552
0.215216 0.215216 0.016552
0.408370 0.215216 0.016552
0.573640 0.215216 0.016552
0.715819 0.215216 0.016552
0.837180 0.215216 0.016552
0.920149 0.215216 0.016552
0.965895 0.215216 0.016552
-0.073059 0.367285 0.008955
-0.029661 0.367285 0.008955
0.130194 0.367285 0.008955
0.367285 0.367285 0.008955
0.556557 0.367285 0.008955
0.708845 0.367285 0.008955
0.834211 0.367285 0.008955
0.919254 0.367285 0.008955
0.965669 0.367285 0.008955
-0.073059 0.518169 -0.004245
-0.073059 0.518169 -0.004245
-0.039646 0.518169 -0.004245
0.256363 0.518169 -0.004245
0.518169 0.518169 -0.004245
0.694164 0.518169 -0.004245
0.828113 0.518169 -0.004245
0.917454 0.518169 -0.004245
0.965219 0.518169 -0.004245
-0.073059 0.659694 -0.030005
-0.073059 0.659694 -0.030005
-0.073059 0.659694 -0.030005
-0.059169 0.659694 -0.030005
0.411526 0.659694 -0.030005
0.659694 0.659694 -0.030005
0.814864 0.659694 -0.030005
0.913742 0.659694 -0.030005
0.964312 0.659694 -0.030005
-0.073059 0.783712 -0.073059
-0.073059 0.783712 -0.073059
-0.073059 0.783712 -0.073059
-0.073059 0.783712 -0.073059
-0.073059 0.783712 -0.073059
0.559517 0.783712 -0.073059
0.783712 0.783712 -0.073059
0.905658 0.783712 -0.073059
0.962425 0.783712 -0.073059
-0.073059 0.885737 -0.073059
-0.073059 0.885737 -0.073059
-0.073059 0.885737 -0.073059
-0.073059 0.885737 -0.073059
-0.073059 0.885737 -0.073059
-0.073059 0.885737 -0.073059
0.696712 0.885737 -0.073059
0.885737 0.885737 -0.073059
0.958232 0.885737 -0.073059
-0.073059 0.947458 -0.073059
-0.073059 0.947458 -0.073059
-0.073059 0.947458 -0.073059
-0.073059 0.947458 -0.073059
-0.073059 0.947458 -0.073059
-0.073059 0.947458 -0.073059
-0.073059 0.947458 -0.073059
0.817205 0.947458 -0.073059
0.947458 0.947458 -0.073059
0.023485 0.023485 0.103960
0.129750 0.023485 0.103960
0.272476 0.023485 0.103960
0.435886 0.023485 0.103960
0.586172 0.023485 0.103960
0.721133 0.023485 0.103960
0.839461 0.023485 0.103960
0.920846 0.023485 0.103960
0.966072 0.023485 0.103960
0.003528 0.100613 0.100613
0.100613 0.100613 0.100613
0.253283 0.100613 0.100613
0.426576 0.100613 0.100613
0.581837 0.100613 0.100613
0.719273 0.100613 0.100613
0.838662 0.100613 0.100613
0.920601 0.100613 0.100613
0.966010 0.100613 0.100613
-0.028457 0.215216 0.094362
0.040774 0.215216 0.094362
0.215216 0.215216 0.094362
0.408370 0.215216 0.094362
0.573640 0.215216 0.094362
0.715819 0.215216 0.094362
0.837180 0.215216 0.094362
0.920149 0.215216 0.094362
0.965895 0.215216 0.094362
-0.073059 0.367285 0.081838
-0.029661 0.367285 0.081838
0.130194 0.367285 0.081838
0.367285 0.367285 0.081838
0.556557 0.367285 0.081838
0.708845 0.367285 0.081838
0.834211 0.367285 0.081838
0.919254 0.367285 0.081838
0.965669 0.367285 0.081838
-0.073059 0.518169 0.055619
-0.073059 0.518169 0.055619
-0.039646 0.518169 0.055619
0.256363 0.518169 0.055619
0.518169 0.518169 0.055619
0.694164 0.518169 0.055619
0.828113 0.518169 0.055619
0.917454 0.518169 0.055619
0.965219 0.518169 0.055619
-0.073059 0.659694 0.016635
-0.073059 0.659694 0.016635
-0.073059 0.659694 0.016635
-0.059169 0.659694 0.016635
0.411526 0.659694 0.016635
0.659694 0.659694 0.016635
0.814864 0.659694 0.016635
0.913742 0.659694 0.016635
0.964312 0.659694 0.016635
-0.073059 0.783712 -0.034627
-0.073059 0.783712 -0.034627
-0.073059 0.783712 -0.034627
-0.073059 0.783712 -0.034627
-0.073059 0.783712 -0.034627
0.559517 0.783712 -0.034627
0.783712 0.783712 -0.034627
0.905658 0.783712 -0.034627
0.962425 0.783712 -0.034627
-0.073059 0.885737 -0.073059
-0.073059 0.885737 -0.073059
-0.073059 0.885737 -0.073059
-0.073059 0.885737 -0.073059
-0.073059 0.885737 -0.073059
-0.073059 0.885737 -0.073059
0.696712 0.885737 -0.073059
0.885737 0.885737 -0.073059
0.958232 0.885737 -0.073059
-0.073059 0.947458 -0.073059
-0.073059 0.947458 -0.073059
-0.073059 0.947458 -0.073059
-0.073059 0.947458 -0.073059
-0.073059 0.947458 -0.073059
-0.073059 0.947458 -0.073059
-0.073059 0.947458 -0.073059
0.817205 0.947458 -0.073059
0.947458 0.947458 -0.073059
0.023485 0.023485 0.221771
0.129750 0.023485 0.221771
0.272476 0.023485 0.221771
0.435886 0.023485 0.221771
0.586172 0.023485 0.221771
0.721133 0.023485 0.221771
0.839461 0.023485 0.221771
0.920846 0.023485 0.221771
0.966072 0.023485 0.221771
0.003528 0.100613 0.219465
0.100613 0.100613 0.219465
0.253283 0.100613 0.219465
0.426576 0.100613 0.219465
0.581837 0.100613 0.219465
0.719273 0.100613 0.219465
0.838662 0.100613 0.219465
0.920601 0.100613 0.219465
0.966010 0.100613 0.219465
-0.028457 0.215216 0.215216
0.040774 0.215216 0.215216
0.215216 0.215216 0.215216
0.408370 0.215216 0.215216
0.573640 0.215216 0.215216
0.715819 0.215216 0.215216
0.837180 0.215216 0.215216
0.920149 0.215216 0.215216
0.965895 0.215216 0.215216
-0.073059 0.367285 0.206800
-0.029661 0.367285 0.206800
0.130194 0.367285 0.206800
0.367285 0.367285 0.206800
0.556557 0.367285 0.206800
0.708845 0.367285 0.206800
0.834211 0.367285 0.206800
0.919254 0.367285 0.206800
0.965669 0.367285 0.206800
-0.073059 0.518169 0.189841
-0.073059 0.518169 0.189841
-0.039646 0.518169 0.189841
0.256363 0.518169 0.189841
0.518169 0.518169 0.189841
0.694164 0.518169 0.189841
0.828113 0.518169 0.189841
0.917454 0.518169 0.189841
0.965219 0.518169 0.189841
-0.073059 0.659694 0.155062
-0.073059 0.659694 0.155062
-0.073059 0.659694 0.155062
-0.059169 0.659694 0.155062
0.411526 0.659694 0.155062
0.659694 0.659694 0.155062
0.814864 0.659694 0.155062
0.913742 0.659694 0.155062
0.964312 0.659694 0.155062
-0.073059 0.783712 0.070090
-0.073059 0.783712 0.070090
-0.073059 0.783712 0.070090
-0.073059 0.783712 0.070090
-0.073059 0.783712 0.070090
0.559517 0.783712 0.070090
0.783712 0.783712 0.070090
0.905658 0.783712 0.070090
0.962425 0.783712 0.070090
-0.073059 0.885737 -0.049356
-0.073059 0.885737 -0.049356
-0.073059 0.885737 -0.049356
-0.073059 0.885737 -0.049356
-0.073059 0.885737 -0.049356
-0.073059 0.885737 -0.049356
0.696712 0.885737 -0.049356
0.885737 0.885737 -0.049356
0.958232 0.885737 -0.049356
-0.073059 0.947458 -0.073059
-0.073059 0.947458 -0.073059
-0.073059 0.947458 -0.073059
-0.073059 0.947458 -0.073059
-0.073059 0.947458 -0.073059
-0.073059 0.947458 -0.073059
-0.073059 0.947458 -0.073059
0.817205 0.947458 -0.073059
0.947458 0.947458 -0.073059
0.023485 0.023485 0.375879
0.129750 0.023485 0.375879
0.272476 0.023485 0.375879
0.435886 0.023485 0.375879
0.586172 0.023485 0.375879
0.721133 0.023485 0.375879
0.839461 0.023485 0.375879
0.920846 0.023485 0.375879
0.966072 0.023485 0.375879
0.003528 0.100613 0.374560
0.100613 0.100613 0.374560
0.253283 0.100613 0.374560
0.426576 0.100613 0.374560
0.581837 0.100613 0.374560
0.719273 0.100613 0.374560
0.838662 0.100613 0.374560
0.920601 0.100613 0.374560
0.966010 0.100613 0.374560
-0.028457 0.215216 0.372125
0.040774 0.215216 0.372125
0.215216 0.215216 0.372125
0.408370 0.215216 0.372125
0.573640 0.215216 0.372125
0.715819 0.215216 0.372125
0.837180 0.215216 0.372125
0.920149 0.215216 0.372125
0.965895 0.215216 0.372125
-0.073059 0.367285 0.367285
-0.029661 0.367285 0.367285
0.130194 0.367285 0.367285
0.367285 0.367285 0.367285
0.556557 0.367285 0.367285
0.708845 0.367285 0.367285
0.834211 0.367285 0.367285
0.919254 0.367285 0.367285
0.965669 0.367285 0.367285
-0.073059 0.518169 0.357521
-0.073059 0.518169 0.357521
-0.039646 0.518169 0.357521
0.256363 0.518169 0.357521
0.518169 0.518169 0.357521
0.694164 0.518169 0.357521
0.828113 0.518169 0.357521
0.917454 0.518169 0.357521
0.965219 0.518169 0.357521
-0.073059 0.659694 0.337104
-0.073059 0.659694 0.337104
-0.073059 0.659694 0.337104
-0.059169 0.659694 0.337104
0.411526 0.659694 0.337104
0.659694 0.659694 0.337104
0.814864 0.659694 0.337104
0.913742 0.659694 0.337104
0.964312 0.659694 0.337104
-0.073059 0.783712 0.291251
-0.073059 0.783712 0.291251
-0.073059 0.783712 0.291251
-0.073059 0.783712 0.291251
-0.073059 0.783712 0.291251
0.559517 0.783712 0.291251
0.783712 0.783712 0.291251
0.905658 0.783712 0.291251
0.962425 0.783712 0.291251
-0.073059 0.885737 0.175436
-0.073059 0.885737 0.175436
-0.073059 0.885737 0.175436
-0.073059 0.885737 0.175436
-0.073059 0.885737 0.175436
-0.073059 0.885737 0.175436
0.696712 0.885737 0.175436
0.885737 0.885737 0.175436
0.958232 0.885737 0.175436
-0.073059 0.947458 -0.073059
-0.073059 0.947458 -0.073059
-0.073059 0.947458 -0.073059
-0.073059 0.947458 -0.073059
-0.073059 0.947458 -0.073059
-0.073059 0.947458 -0.073059
-0.073059 0.947458 -0.073059
0.817205 0.947458 -0.073059
0.947458 0.947458 -0.073059
0.023485 0.023485 0.526729
0.129750 0.023485 0.526729
0.272476 0.023485 0.526729
0.435886 0.023485 0.526729
0.586172 0.023485 0.526729
0.721133 0.023485 0.526729
0.839461 0.023485 0.526729
0.920846 0.023485 0.526729
0.966072 0.023485 0.526729
0.003528 0.100613 0.526103
0.100613 0.100613 0.526103
0.253283 0.100613 0.526103
0.426576 0.100613 0.526103
0.581837 0.100613 0.526103
0.719273 0.100613 0.526103
0.838662 0.100613 0.526103
0.920601 0.100613 0.526103
0.966010 0.100613 0.526103
-0.028457 0.215216 0.524952
0.040774 0.215216 0.524952
0.215216 0.215216 0.524952
0.408370 0.215216 0.524952
0.573640 0.215216 0.524952
0.715819 0.215216 0.524952
0.837180 0.215216 0.524952
0.920149 0.215216 0.524952
0.965895 0.215216 0.524952
-0.073059 0.367285 0.522682
-0.029661 0.367285 0.522682
0.130194 0.367285 0.522682
0.367285 0.367285 0.522682
0.556557 0.367285 0.522682
0.708845 0.367285 0.522682
0.834211 0.367285 0.522682
0.919254 0.367285 0.522682
0.965669 0.367285 0.522682
-0.073059 0.518169 0.518169
-0.073059 0.518169 0.518169
-0.039646 0.518169 0.518169
0.256363 0.518169 0.518169
0.518169 0.518169 0.518169
0.694164 0.518169 0.518169
0.828113 0.518169 0.518169
0.917454 0.518169 0.518169
0.965219 0.518169 0.518169
-0.073059 0.659694 0.509039
-0.073059 0.659694 0.509039
-0.073059 0.659694 0.509039
-0.059169 0.659694 0.509039
0.411526 0.659694 0.509039
0.659694 0.659694 0.509039
0.814864 0.659694 0.509039
0.913742 0.659694 0.509039
0.964312 0.659694 0.509039
-0.073059 0.783712 0.489890
-0.073059 0.783712 0.489890
-0.073059 0.783712 0.489890
-0.073059 0.783712 0.489890
-0.073059 0.783712 0.489890
0.559517 0.783712 0.489890
0.783712 0.783712 0.489890
0.905658 0.783712 0.489890
0.962425 0.783712 0.489890
-0.073059 0.885737 0.446213
-0.073059 0.885737 0.446213
-0.073059 0.885737 0.446213
-0.073059 0.885737 0.446213
-0.073059 0.885737 0.446213
-0.073059 0.885737 0.446213
0.696712 0.885737 0.446213
0.885737 0.885737 0.446213
0.958232 0.885737 0.446213
-0.073059 0.947458 0.318779
-0.073059 0.947458 0.318779
-0.073059 0.947458 0.318779
-0.073059 0.947458 0.318779
-0.073059 0.947458 0.318779
-0.073059 0.947458 0.318779
-0.073059 0.947458 0.318779
0.817205 0.947458 0.318779
0.947458 0.947458 0.318779
0.023485 0.023485 0.667898
0.129750 0.023485 0.667898
0.272476 0.023485 0.667898
0.435886 0.023485 0.667898
0.586172 0.023485 0.667898
0.721133 0.023485 0.667898
0.839461 0.023485 0.667898
0.920846 0.023485 0.667898
0.966072 0.023485 0.667898
0.003528 0.100613 0.667604
0.100613 0.100613 0.667604
0.253283 0.100613 0.667604
0.426576 0.100613 0.667604
0.581837 0.100613 0.667604
0.719273 0.100613 0.667604
0.838662 0.100613 0.667604
0.920601 0.100613 0.667604
0.966010 0.100613 0.667604
-0.028457 0.215216 0.667062
0.040774 0.215216 0.667062
0.215216 0.215216 0.667062
0.408370 0.215216 0.667062
0.573640 0.215216 0.667062
0.715819 0.215216 0.667062
0.837180 0.215216 0.667062
0.920149 0.215216 0.667062
0.965895 0.215216 0.667062
-0.073059 0.367285 0.665998
-0.029661 0.367285 0.665998
0.130194 0.367285 0.665998
0.367285 0.367285 0.665998
0.556557 0.367285 0.665998
0.708845 0.367285 0.665998
0.834211 0.367285 0.665998
0.919254 0.367285 0.665998
0.965669 0.367285 0.665998
-0.073059 0.518169 0.663894
-0.073059 0.518169 0.663894
-0.039646 0.518169 0.663894
0.256363 0.518169 0.663894
0.518169 0.518169 0.663894
0.694164 0.518169 0.663894
0.828113 0.518169 0.663894
0.917454 0.518169 0.663894
0.965219 0.518169 0.663894
-0.073059 0.659694 0.659694
-0.073059 0.659694 0.659694
-0.073059 0.659694 0.659694
-0.059169 0.659694 0.659694
0.411526 0.659694 0.659694
0.659694 0.659694 0.659694
0.814864 0.659694 0.659694
0.913742 0.659694 0.659694
0.964312 0.659694 0.659694
-0.073059 0.783712 0.651170
-0.073059 0.783712 0.651170
-0.073059 0.783712 0.651170
-0.073059 0.783712 0.651170
-0.073059 0.783712 0.651170
0.559517 0.783712 0.651170
0.783712 0.783712 0.651170
0.905658 0.783712 0.651170
0.962425 0.783712 0.651170
-0.073059 0.885737 0.633145
-0.073059 0.885737 0.633145
-0.073059 0.885737 0.633145
-0.073059 0.885737 0.633145
-0.073059 0.885737 0.633145
-0.073059 0.885737 0.633145
0.696712 0.885737 0.633145
0.885737 0.885737 0.633145
0.958232 0.885737 0.633145
-0.073059 0.947458 0.592079
-0.073059 0.947458 0.592079
-0.073059 0.947458 0.592079
-0.073059 0.947458 0.592079
-0.073059 0.947458 0.592079
-0.073059 0.947458 0.592079
-0.073059 0.947458 0.592079
0.817205 0.947458 0.592079
0.947458 0.947458 0.592079
0.023485 0.023485 0.791109
0.129750 0.023485 0.791109
0.272476 0.023485 0.791109
0.435886 0.023485 0.791109
0.586172 0.023485 0.791109
0.721133 0.023485 0.791109
0.839461 0.023485 0.791109
0.920846 0.023485 0.791109
0.966072 0.023485 0.791109
0.003528 0.100613 0.790974
0.100613 0.100613 0.790974
0.253283 0.100613 0.790974
0.426576 0.100613 0.790974
0.581837 0.100613 0.790974
0.719273 0.100613 0.790974
0.838662 0.100613 0.790974
0.920601 0.100613 0.790974
0.966010 0.100613 0.790974
-0.028457 0.215216 0.790728
0.040774 0.215216 0.790728
0.215216 0.215216 0.790728
0.408370 0.215216 0.790728
0.573640 0.215216 0.790728
0.715819 0.215216 0.790728
0.837180 0.215216 0.790728
0.920149 0.215216 0.790728
0.965895 0.215216 0.790728
-0.073059 0.367285 0.790246
-0.029661 0.367285 0.790246
0.130194 0.367285 0.790246
0.367285 0.367285 0.790246
0.556557 0.367285 0.790246
0.708845 0.367285 0.790246
0.834211 0.367285 0.790246
0.919254 0.367285 0.790246
0.965669 0.367285 0.790246
-0.073059 0.518169 0.789299
-0.073059 0.518169 0.789299
-0.039646 0.518169 0.789299
0.256363 0.518169 0.789299
0.518169 0.518169 0.789299
0.694164 0.518169 0.789299
0.828113 0.518169 0.789299
0.917454 0.518169 0.789299
0.965219 0.518169 0.789299
-0.073059 0.659694 0.787430
-0.073059 0.659694 0.787430
-0.073059 0.659694 0.787430
-0.059169 0.659694 0.787430
0.411526 0.659694 0.787430
0.659694 0.659694 0.787430
0.814864 0.659694 0.787430
0.913742 0.659694 0.787430
0.964312 0.659694 0.787430
-0.073059 0.783712 0.783712
-0.073059 0.783712 0.783712
-0.073059 0.783712 0.783712
-0.073059 0.783712 0.783712
-0.073059 0.783712 0.783712
0.559517 0.783712 0.783712
0.783712 0.783712 0.783712
0.905658 0.783712 0.783712
0.962425 0.783712 0.783712
-0.073059 0.885737 0.776209
-0.073059 0.885737 0.776209
-0.073059 0.885737 0.776209
-0.073059 0.885737 0.776209
-0.073059 0.885737 0.776209
-0.073059 0.885737 0.776209
0.696712 0.885737 0.776209
0.885737 0.885737 0.776209
0.958232 0.885737 0.776209
-0.073059 0.947458 0.760457
-0.073059 0.947458 0.760457
-0.073059 0.947458 0.760457
-0.073059 0.947458 0.760457
-0.073059 0.947458 0.760457
-0.073059 0.947458 0.760457
-0.073059 0.947458 0.760457
0.817205 0.947458 0.760457
0.947458 0.947458 0.760457
0.023485 0.023485 0.890657
0.129750 0.023485 0.890657
0.272476 0.023485 0.890657
0.435886 0.023485 0.890657
0.586172 0.023485 0.890657
0.721133 0.023485 0.890657
0.839461 0.023485 0.890657
0.920846 0.023485 0.890657
0.966072 0.023485 0.890657
0.003528 0.100613 0.890612
0.100613 0.100613 0.890612
0.253283 0.100613 0.890612
0.426576 0.100613 0.890612
0.581837 0.100613 0.890612
0.719273 0.100613 0.890612
0.838662 0.100613 0.890612
0.920601 0.100613 0.890612
0.966010 0.100613 0.890612
-0.028457 0.215216 0.890530
0.040774 0.215216 0.890530
0.215216 0.215216 0.890530
0.408370 0.215216 0.890530
0.573640 0.215216 0.890530
0.715819 0.215216 0.890530
0.837180 0.215216 0.890530
0.920149 0.215216 0.890530
0.965895 0.215216 0.890530
-0.073059 0.367285 0.890370
-0.029661 0.367285 0.890370
0.130194 0.367285 0.890370
0.367285 0.367285 0.890370
0.556557 0.367285 0.890370
0.708845 0.367285 0.890370
0.834211 0.367285 0.890370
0.919254 0.367285 0.890370
0.965669 0.367285 0.890370
-0.073059 0.518169 0.890055
-0.073059 0.518169 0.890055
-0.039646 0.518169 0.890055
0.256363 0.518169 0.890055
0.518169 0.518169 0.890055
0.694164 0.518169 0.890055
0.828113 0.518169 0.890055
0.917454 0.518169 0.890055
0.965219 0.518169 0.890055
-0.073059 0.659694 0.889436
-0.073059 0.659694 0.889436
-0.073059 0.659694 0.889436
-0.059169 0.659694 0.889436
0.411526 0.659694 0.889436
0.659694 0.659694 0.889436
0.814864 0.659694 0.889436
0.913742 0.659694 0.889436
0.964312 0.659694 0.889436
-0.073059 0.783712 0.888207
-0.073059 0.783712 0.888207
-0.073059 0.783712 0.888207
-0.073059 0.783712 0.888207
-0.073059 0.783712 0.888207
0.559517 0.783712 0.888207
0.783712 0.783712 0.888207
0.905658 0.783712 0.888207
0.962425 0.783712 0.888207
-0.073059 0.885737 0.885737
-0.073059 0.885737 0.885737
-0.073059 0.885737 0.885737
-0.073059 0.885737 0.885737
-0.073059 0.885737 0.885737
-0.073059 0.885737 0.885737
0.696712 0.885737 0.885737
0.885737 0.885737 0.885737
0.958232 0.885737 0.885737
-0.073059 0.947458 0.880639
-0.073059 0.947458 0.880639
-0.073059 0.947458 0.880639
-0.073059 0.947458 0.880639
-0.073059 0.947458 0.880639
-0.073059 0.947458 0.880639
-0.073059 0.947458 0.880639
0.817205 0.947458 0.880639
0.947458 0.947458 0.880639
0.023485 0.023485 0.950186
0.129750 0.023485 0.950186
0.272476 0.023485 0.950186
0.435886 0.023485 0.950186
0.586172 0.023485 0.950186
0.721133 0.023485 0.950186
0.839461 0.023485 0.950186
0.920846 0.023485 0.950186
0.966072 0.023485 0.950186
0.003528 0.100613 0.950174
0.100613 0.100613 0.950174
0.253283 0.100613 0.950174
0.426576 0.100613 0.950174
0.581837 0.100613 0.950174
0.719273 0.100613 0.950174
0.838662 0.100613 0.950174
0.920601 0.100613 0.950174
0.966010 0.100613 0.950174
-0.028457 0.215216 0.950151
0.040774 0.215216 0.950151
0.215216 0.215216 0.950151
0.408370 0.215216 0.950151
0.573640 0.215216 0.950151
0.715819 0.215216 0.950151
0.837180 0.215216 0.950151
0.920149 0.215216 0.950151
0.965895 0.215216 0.950151
-0.073059 0.367285 0.950106
-0.029661 0.367285 0.950106
0.130194 0.367285 0.950106
0.367285 0.367285 0.950106
0.556557 0.367285 0.950106
0.708845 0.367285 0.950106
0.834211 0.367285 0.950106
0.919254 0.367285 0.950106
0.965669 0.367285 0.950106
-0.073059 0.518169 0.950018
-0.073059 0.518169 0.950018
-0.039646 0.518169 0.950018
0.256363 0.518169 0.950018
0.518169 0.518169 0.950018
0.694164 0.518169 0.950018
0.828113 0.518169 0.950018
0.917454 0.518169 0.950018
0.965219 0.518169 0.950018
-0.073059 0.659694 0.949845
-0.073059 0.659694 0.949845
-0.073059 0.659694 0.949845
-0.059169 0.659694 0.949845
0.411526 0.659694 0.949845
0.659694 0.659694 0.949845
0.814864 0.659694 0.949845
0.913742 0.659694 0.949845
0.964312 0.659694 0.949845
-0.073059 0.783712 0.949504
-0.073059 0.783712 0.949504
-0.073059 0.783712 0.949504
-0.073059 0.783712 0.949504
-0.073059 0.783712 0.949504
0.559517 0.783712 0.949504
0.783712 0.783712 0.949504
0.905658 0.783712 0.949504
0.962425 0.783712 0.949504
-0.073059 0.885737 0.948825
-0.073059 0.885737 0.948825
-0.073059 0.885737 0.948825
-0.073059 0.885737 0.948825
-0.073059 0.885737 0.948825
-0.073059 0.885737 0.948825
0.696712 0.885737 0.948825
0.885737 0.885737 0.948825
0.958232 0.885737 0.948825
-0.073059 0.947458 0.947458
-0.073059 0.947458 0.947458
-0.073059 0.947458 0.947458
-0.073059 0.947458 0.947458
-0.073059 0.947458 0.947458
-0.073059 0.947458 0.947458
-0.073059 0.947458 0.947458
0.817205 0.947458 0.947458
0.947458 0.947458 0.947458
