滤镜资源/Professional Luts Collection/Lutify.me Professional/Utility LUTs/Log Conversions/BMD Film.cube
# Created by: Lutify.me
# Copyright: (c) Copyright Lutify.me 2015
# Website: https://lutify.me
LUT_3D_SIZE 33
0.023485 0.023485 0.023485
0.044135 0.023485 0.023485
0.069523 0.023485 0.023485
0.099411 0.023485 0.023485
0.129750 0.023485 0.023485
0.161063 0.023485 0.023485
0.194943 0.023485 0.023485
0.232271 0.023485 0.023485
0.272476 0.023485 0.023485
0.313890 0.023485 0.023485
0.355376 0.023485 0.023485
0.396186 0.023485 0.023485
0.435886 0.023485 0.023485
0.474646 0.023485 0.023485
0.512557 0.023485 0.023485
0.549710 0.023485 0.023485
0.586172 0.023485 0.023485
0.621907 0.023485 0.023485
0.657041 0.023485 0.023485
0.690236 0.023485 0.023485
0.721133 0.023485 0.023485
0.752040 0.023485 0.023485
0.782526 0.023485 0.023485
0.812172 0.023485 0.023485
0.839461 0.023485 0.023485
0.863787 0.023485 0.023485
0.885335 0.023485 0.023485
0.904292 0.023485 0.023485
0.920846 0.023485 0.023485
0.935146 0.023485 0.023485
0.947346 0.023485 0.023485
0.957590 0.023485 0.023485
0.966072 0.023485 0.023485
0.018253 0.037768 0.022903
0.037768 0.037768 0.022903
0.061691 0.037768 0.022903
0.092179 0.037768 0.022903
0.123519 0.037768 0.022903
0.155539 0.037768 0.022903
0.189768 0.037768 0.022903
0.227483 0.037768 0.022903
0.268225 0.037768 0.022903
0.310235 0.037768 0.022903
0.352321 0.037768 0.022903
0.393667 0.037768 0.022903
0.433809 0.037768 0.022903
0.472933 0.037768 0.022903
0.511139 0.037768 0.022903
0.548535 0.037768 0.022903
0.585197 0.037768 0.022903
0.621098 0.037768 0.022903
0.656374 0.037768 0.022903
0.689722 0.037768 0.022903
0.720712 0.037768 0.022903
0.751681 0.037768 0.022903
0.782227 0.037768 0.022903
0.811931 0.037768 0.022903
0.839280 0.037768 0.022903
0.863650 0.037768 0.022903
0.885233 0.037768 0.022903
0.904216 0.037768 0.022903
0.920790 0.037768 0.022903
0.935105 0.037768 0.022903
0.947317 0.037768 0.022903
0.957570 0.037768 0.022903
0.966058 0.037768 0.022903
0.013470 0.054590 0.022327
0.031885 0.054590 0.022327
0.054590 0.054590 0.022327
0.084813 0.054590 0.022327
0.117092 0.054590 0.022327
0.149920 0.054590 0.022327
0.184541 0.054590 0.022327
0.222658 0.054590 0.022327
0.263908 0.054590 0.022327
0.306529 0.054590 0.022327
0.349222 0.054590 0.022327
0.391114 0.054590 0.022327
0.431710 0.054590 0.022327
0.471204 0.054590 0.022327
0.509710 0.054590 0.022327
0.547353 0.054590 0.022327
0.584216 0.054590 0.022327
0.620285 0.054590 0.022327
0.655705 0.054590 0.022327
0.689206 0.054590 0.022327
0.720290 0.054590 0.022327
0.751320 0.054590 0.022327
0.781929 0.054590 0.022327
0.811690 0.054590 0.022327
0.839099 0.054590 0.022327
0.863513 0.054590 0.022327
0.885131 0.054590 0.022327
0.904140 0.054590 0.022327
0.920735 0.054590 0.022327
0.935065 0.054590 0.022327
0.947288 0.054590 0.022327
0.957549 0.054590 0.022327
0.966044 0.054590 0.022327
0.008712 0.076458 0.021698
0.025721 0.076458 0.021698
0.046886 0.076458 0.021698
0.076458 0.076458 0.021698
0.109701 0.076458 0.021698
0.143573 0.076458 0.021698
0.178739 0.076458 0.021698
0.217298 0.076458 0.021698
0.259082 0.076458 0.021698
0.302390 0.076458 0.021698
0.345759 0.076458 0.021698
0.388264 0.076458 0.021698
0.429373 0.076458 0.021698
0.469283 0.076458 0.021698
0.508124 0.076458 0.021698
0.546042 0.076458 0.021698
0.583129 0.076458 0.021698
0.619386 0.076458 0.021698
0.654964 0.076458 0.021698
0.688635 0.076458 0.021698
0.719825 0.076458 0.021698
0.750922 0.076458 0.021698
0.781599 0.076458 0.021698
0.811424 0.076458 0.021698
0.838899 0.076458 0.021698
0.863361 0.076458 0.021698
0.885018 0.076458 0.021698
0.904057 0.076458 0.021698
0.920674 0.076458 0.021698
0.935020 0.076458 0.021698
0.947256 0.076458 0.021698
0.957527 0.076458 0.021698
0.966028 0.076458 0.021698
0.003528 0.100613 0.020958
0.018784 0.100613 0.020958
0.038417 0.100613 0.020958
0.065196 0.100613 0.020958
0.100613 0.100613 0.020958
0.135859 0.100613 0.020958
0.171833 0.100613 0.020958
0.210887 0.100613 0.020958
0.253283 0.100613 0.020958
0.297407 0.100613 0.020958
0.341595 0.100613 0.020958
0.384839 0.100613 0.020958
0.426576 0.100613 0.020958
0.466987 0.100613 0.020958
0.506233 0.100613 0.020958
0.544480 0.100613 0.020958
0.581837 0.100613 0.020958
0.618318 0.100613 0.020958
0.654085 0.100613 0.020958
0.687956 0.100613 0.020958
0.719273 0.100613 0.020958
0.750449 0.100613 0.020958
0.781208 0.100613 0.020958
0.811109 0.100613 0.020958
0.838662 0.100613 0.020958
0.863182 0.100613 0.020958
0.884885 0.100613 0.020958
0.903958 0.100613 0.020958
0.920601 0.100613 0.020958
0.934968 0.100613 0.020958
0.947219 0.100613 0.020958
0.957500 0.100613 0.020958
0.966010 0.100613 0.020958
-0.002583 0.126419 0.020091
0.011528 0.126419 0.020091
0.029441 0.126419 0.020091
0.054043 0.126419 0.020091
0.089453 0.126419 0.020091
0.126419 0.126419 0.020091
0.163527 0.126419 0.020091
0.203185 0.126419 0.020091
0.246301 0.126419 0.020091
0.291382 0.126419 0.020091
0.336573 0.126419 0.020091
0.380710 0.126419 0.020091
0.423218 0.126419 0.020091
0.464238 0.126419 0.020091
0.503974 0.126419 0.020091
0.542618 0.126419 0.020091
0.580297 0.126419 0.020091
0.617047 0.126419 0.020091
0.653040 0.126419 0.020091
0.687149 0.126419 0.020091
0.718618 0.126419 0.020091
0.749889 0.126419 0.020091
0.780745 0.126419 0.020091
0.810735 0.126419 0.020091
0.838380 0.126419 0.020091
0.862969 0.126419 0.020091
0.884727 0.126419 0.020091
0.903841 0.126419 0.020091
0.920515 0.126419 0.020091
0.934905 0.126419 0.020091
0.947174 0.126419 0.020091
0.957469 0.126419 0.020091
0.965988 0.126419 0.020091
-0.009809 0.153460 0.019080
0.004113 0.153460 0.019080
0.019547 0.153460 0.019080
0.041594 0.153460 0.019080
0.075586 0.153460 0.019080
0.114720 0.153460 0.019080
0.153460 0.153460 0.019080
0.193885 0.153460 0.019080
0.237835 0.153460 0.019080
0.284081 0.153460 0.019080
0.330497 0.153460 0.019080
0.375719 0.153460 0.019080
0.419177 0.153460 0.019080
0.460938 0.153460 0.019080
0.501268 0.153460 0.019080
0.540392 0.153460 0.019080
0.578461 0.153460 0.019080
0.615534 0.153460 0.019080
0.651797 0.153460 0.019080
0.686187 0.153460 0.019080
0.717841 0.153460 0.019080
0.749223 0.153460 0.019080
0.780196 0.153460 0.019080
0.810291 0.153460 0.019080
0.838047 0.153460 0.019080
0.862717 0.153460 0.019080
0.884539 0.153460 0.019080
0.903702 0.153460 0.019080
0.920413 0.153460 0.019080
0.934831 0.153460 0.019080
0.947121 0.153460 0.019080
0.957431 0.153460 0.019080
0.965962 0.153460 0.019080
-0.018354 0.182653 0.017905
-0.004432 0.182653 0.017905
0.009545 0.182653 0.017905
0.028837 0.182653 0.017905
0.058226 0.182653 0.017905
0.099840 0.182653 0.017905
0.141085 0.182653 0.017905
0.182653 0.182653 0.017905
0.227580 0.182653 0.017905
0.275212 0.182653 0.017905
0.323089 0.182653 0.017905
0.369665 0.182653 0.017905
0.414295 0.182653 0.017905
0.456966 0.182653 0.017905
0.498021 0.182653 0.017905
0.537728 0.182653 0.017905
0.576267 0.182653 0.017905
0.613730 0.182653 0.017905
0.650317 0.182653 0.017905
0.685040 0.182653 0.017905
0.716918 0.182653 0.017905
0.748433 0.182653 0.017905
0.779545 0.182653 0.017905
0.809765 0.182653 0.017905
0.837651 0.182653 0.017905
0.862417 0.182653 0.017905
0.884317 0.182653 0.017905
0.903537 0.182653 0.017905
0.920292 0.182653 0.017905
0.934744 0.182653 0.017905
0.947058 0.182653 0.017905
0.957387 0.182653 0.017905
0.965932 0.182653 0.017905
-0.028457 0.215216 0.016552
-0.014536 0.215216 0.016552
-0.000607 0.215216 0.016552
0.015421 0.215216 0.016552
0.040774 0.215216 0.016552
0.081181 0.215216 0.016552
0.125618 0.215216 0.016552
0.169149 0.215216 0.016552
0.215216 0.215216 0.016552
0.264364 0.215216 0.016552
0.314014 0.215216 0.016552
0.362291 0.215216 0.016552
0.408370 0.215216 0.016552
0.452167 0.215216 0.016552
0.494112 0.215216 0.016552
0.534531 0.215216 0.016552
0.573640 0.215216 0.016552
0.611575 0.215216 0.016552
0.648549 0.215216 0.016552
0.683669 0.215216 0.016552
0.715819 0.215216 0.016552
0.747492 0.215216 0.016552
0.778772 0.215216 0.016552
0.809140 0.215216 0.016552
0.837180 0.215216 0.016552
0.862062 0.215216 0.016552
0.884053 0.215216 0.016552
0.903342 0.215216 0.016552
0.920149 0.215216 0.016552
0.934640 0.215216 0.016552
0.946984 0.215216 0.016552
0.957335 0.215216 0.016552
0.965895 0.215216 0.016552
-0.040405 0.251021 0.015003
-0.026483 0.251021 0.015003
-0.012555 0.251021 0.015003
0.002786 0.251021 0.015003
0.023385 0.251021 0.015003
0.057166 0.251021 0.015003
0.105723 0.251021 0.015003
0.152609 0.251021 0.015003
0.200177 0.251021 0.015003
0.251021 0.251021 0.015003
0.302860 0.251021 0.015003
0.353253 0.251021 0.015003
0.401137 0.251021 0.015003
0.446340 0.251021 0.015003
0.489390 0.251021 0.015003
0.530682 0.251021 0.015003
0.570488 0.251021 0.015003
0.608995 0.251021 0.015003
0.646431 0.251021 0.015003
0.682026 0.251021 0.015003
0.714511 0.251021 0.015003
0.746374 0.251021 0.015003
0.777854 0.251021 0.015003
0.808397 0.251021 0.015003
0.836620 0.251021 0.015003
0.861639 0.251021 0.015003
0.883739 0.251021 0.015003
0.903110 0.251021 0.015003
0.919979 0.251021 0.015003
0.934517 0.251021 0.015003
0.946896 0.251021 0.015003
0.957273 0.251021 0.015003
0.965852 0.251021 0.015003
-0.054533 0.289021 0.013234
-0.040611 0.289021 0.013234
-0.026683 0.289021 0.013234
-0.011341 0.289021 0.013234
0.006800 0.289021 0.013234
0.033718 0.289021 0.013234
0.079840 0.289021 0.013234
0.131730 0.289021 0.013234
0.181708 0.289021 0.013234
0.234519 0.289021 0.013234
0.289021 0.289021 0.013234
0.342067 0.289021 0.013234
0.392241 0.289021 0.013234
0.439226 0.289021 0.013234
0.483660 0.289021 0.013234
0.526032 0.289021 0.013234
0.566695 0.289021 0.013234
0.605899 0.289021 0.013234
0.643888 0.289021 0.013234
0.680052 0.289021 0.013234
0.712950 0.289021 0.013234
0.745041 0.289021 0.013234
0.776761 0.289021 0.013234
0.807513 0.289021 0.013234
0.835954 0.289021 0.013234
0.861137 0.289021 0.013234
0.883367 0.289021 0.013234
0.902834 0.289021 0.013234
0.919778 0.289021 0.013234
0.934371 0.289021 0.013234
0.946792 0.289021 0.013234
0.957199 0.289021 0.013234
0.965801 0.289021 0.013234
-0.071239 0.328108 0.011222
-0.057317 0.328108 0.011222
-0.043389 0.328108 0.011222
-0.028047 0.328108 0.011222
-0.009906 0.328108 0.011222
0.011756 0.328108 0.011222
0.047511 0.328108 0.011222
0.104246 0.328108 0.011222
0.159106 0.328108 0.011222
0.214174 0.328108 0.011222
0.271724 0.328108 0.011222
0.328108 0.328108 0.011222
0.381179 0.328108 0.011222
0.430480 0.328108 0.011222
0.476667 0.328108 0.011222
0.520389 0.328108 0.011222
0.562115 0.328108 0.011222
0.602172 0.328108 0.011222
0.640828 0.328108 0.011222
0.677670 0.328108 0.011222
0.711084 0.328108 0.011222
0.743451 0.328108 0.011222
0.775458 0.328108 0.011222
0.806461 0.328108 0.011222
0.835160 0.328108 0.011222
0.860539 0.328108 0.011222
0.882924 0.328108 0.011222
0.902507 0.328108 0.011222
0.919538 0.328108 0.011222
0.934198 0.328108 0.011222
0.946668 0.328108 0.011222
0.957112 0.328108 0.011222
0.965741 0.328108 0.011222
-0.073059 0.367285 0.008955
-0.073059 0.367285 0.008955
-0.063143 0.367285 0.008955
-0.047802 0.367285 0.008955
-0.029661 0.367285 0.008955
-0.008209 0.367285 0.008955
0.018409 0.367285 0.008955
0.066042 0.367285 0.008955
0.130194 0.367285 0.008955
0.188948 0.367285 0.008955
0.249887 0.367285 0.008955
0.310429 0.367285 0.008955
0.367285 0.367285 0.008955
0.419636 0.367285 0.008955
0.468074 0.367285 0.008955
0.513503 0.367285 0.008955
0.556557 0.367285 0.008955
0.597669 0.367285 0.008955
0.637137 0.367285 0.008955
0.674783 0.367285 0.008955
0.708845 0.367285 0.008955
0.741552 0.367285 0.008955
0.773904 0.367285 0.008955
0.805207 0.367285 0.008955
0.834211 0.367285 0.008955
0.859826 0.367285 0.008955
0.882397 0.367285 0.008955
0.902118 0.367285 0.008955
0.919254 0.367285 0.008955
0.933992 0.367285 0.008955
0.946521 0.367285 0.008955
0.957009 0.367285 0.008955
0.965669 0.367285 0.008955
-0.073059 0.406039 0.006414
-0.073059 0.406039 0.006414
-0.073059 0.406039 0.006414
-0.071161 0.406039 0.006414
-0.053020 0.406039 0.006414
-0.031568 0.406039 0.006414
-0.006203 0.406039 0.006414
0.027367 0.406039 0.006414
0.090397 0.406039 0.006414
0.157472 0.406039 0.006414
0.222148 0.406039 0.006414
0.287835 0.406039 0.006414
0.349669 0.406039 0.006414
0.406039 0.406039 0.006414
0.457417 0.406039 0.006414
0.505043 0.406039 0.006414
0.549777 0.406039 0.006414
0.592199 0.406039 0.006414
0.632672 0.406039 0.006414
0.671275 0.406039 0.006414
0.706148 0.406039 0.006414
0.739280 0.406039 0.006414
0.772046 0.406039 0.006414
0.803710 0.406039 0.006414
0.833078 0.406039 0.006414
0.858974 0.406039 0.006414
0.881769 0.406039 0.006414
0.901654 0.406039 0.006414
0.918915 0.406039 0.006414
0.933747 0.406039 0.006414
0.946346 0.406039 0.006414
0.956886 0.406039 0.006414
0.965584 0.406039 0.006414
-0.073059 0.444047 0.003437
-0.073059 0.444047 0.003437
-0.073059 0.444047 0.003437
-0.073059 0.444047 0.003437
-0.073059 0.444047 0.003437
-0.059190 0.444047 0.003437
-0.033824 0.444047 0.003437
-0.003830 0.444047 0.003437
0.038820 0.444047 0.003437
0.115729 0.444047 0.003437
0.187123 0.444047 0.003437
0.258532 0.444047 0.003437
0.326906 0.444047 0.003437
0.388705 0.444047 0.003437
0.444047 0.444047 0.003437
0.494556 0.444047 0.003437
0.541446 0.444047 0.003437
0.585519 0.444047 0.003437
0.627256 0.444047 0.003437
0.666997 0.444047 0.003437
0.702886 0.444047 0.003437
0.736559 0.444047 0.003437
0.769821 0.444047 0.003437
0.801917 0.444047 0.003437
0.831718 0.444047 0.003437
0.857956 0.444047 0.003437
0.881018 0.444047 0.003437
0.901101 0.444047 0.003437
0.918511 0.444047 0.003437
0.933456 0.444047 0.003437
0.946138 0.444047 0.003437
0.956740 0.444047 0.003437
0.965483 0.444047 0.003437
-0.073059 0.481406 -0.000083
-0.073059 0.481406 -0.000083
-0.073059 0.481406 -0.000083
-0.073059 0.481406 -0.000083
-0.073059 0.481406 -0.000083
-0.073059 0.481406 -0.000083
-0.066486 0.481406 -0.000083
-0.036492 0.481406 -0.000083
-0.001024 0.481406 -0.000083
0.054590 0.481406 -0.000083
0.142141 0.481406 -0.000083
0.220140 0.481406 -0.000083
0.296837 0.481406 -0.000083
0.366088 0.481406 -0.000083
0.427008 0.481406 -0.000083
0.481406 0.481406 -0.000083
0.531119 0.481406 -0.000083
0.577305 0.481406 -0.000083
0.620668 0.481406 -0.000083
0.661762 0.481406 -0.000083
0.698945 0.481406 -0.000083
0.733295 0.481406 -0.000083
0.767150 0.481406 -0.000083
0.799760 0.481406 -0.000083
0.830084 0.481406 -0.000083
0.856736 0.481406 -0.000083
0.880121 0.481406 -0.000083
0.900440 0.481406 -0.000083
0.918030 0.481406 -0.000083
0.933109 0.481406 -0.000083
0.945891 0.481406 -0.000083
0.956566 0.481406 -0.000083
0.965363 0.481406 -0.000083
-0.073059 0.518169 -0.004245
-0.073059 0.518169 -0.004245
-0.073059 0.518169 -0.004245
-0.073059 0.518169 -0.004245
-0.073059 0.518169 -0.004245
-0.073059 0.518169 -0.004245
-0.073059 0.518169 -0.004245
-0.073059 0.518169 -0.004245
-0.039646 0.518169 -0.004245
0.002294 0.518169 -0.004245
0.076457 0.518169 -0.004245
0.170288 0.518169 -0.004245
0.256363 0.518169 -0.004245
0.335999 0.518169 -0.004245
0.404866 0.518169 -0.004245
0.464663 0.518169 -0.004245
0.518169 0.518169 -0.004245
0.567126 0.518169 -0.004245
0.612595 0.518169 -0.004245
0.655339 0.518169 -0.004245
0.694164 0.518169 -0.004245
0.729372 0.518169 -0.004245
0.763933 0.518169 -0.004245
0.797157 0.518169 -0.004245
0.828113 0.518169 -0.004245
0.855270 0.518169 -0.004245
0.879045 0.518169 -0.004245
0.899650 0.518169 -0.004245
0.917454 0.518169 -0.004245
0.932695 0.518169 -0.004245
0.945596 0.518169 -0.004245
0.956360 0.518169 -0.004245
0.965219 0.518169 -0.004245
-0.073059 0.554371 -0.009166
-0.073059 0.554371 -0.009166
-0.073059 0.554371 -0.009166
-0.073059 0.554371 -0.009166
-0.073059 0.554371 -0.009166
-0.073059 0.554371 -0.009166
-0.073059 0.554371 -0.009166
-0.073059 0.554371 -0.009166
-0.073059 0.554371 -0.009166
-0.043376 0.554371 -0.009166
0.006217 0.554371 -0.009166
0.100612 0.554371 -0.009166
0.201454 0.554371 -0.009166
0.294587 0.554371 -0.009166
0.375148 0.554371 -0.009166
0.442893 0.554371 -0.009166
0.501686 0.554371 -0.009166
0.554371 0.554371 -0.009166
0.602596 0.554371 -0.009166
0.647434 0.554371 -0.009166
0.688300 0.554371 -0.009166
0.724654 0.554371 -0.009166
0.760045 0.554371 -0.009166
0.794008 0.554371 -0.009166
0.825725 0.554371 -0.009166
0.853504 0.554371 -0.009166
0.877751 0.554371 -0.009166
0.898703 0.554371 -0.009166
0.916765 0.554371 -0.009166
0.932199 0.554371 -0.009166
0.945244 0.554371 -0.009166
0.956113 0.554371 -0.009166
0.965049 0.554371 -0.009166
-0.073059 0.590046 -0.014986
-0.073059 0.590046 -0.014986
-0.073059 0.590046 -0.014986
-0.073059 0.590046 -0.014986
-0.073059 0.590046 -0.014986
-0.073059 0.590046 -0.014986
-0.073059 0.590046 -0.014986
-0.073059 0.590046 -0.014986
-0.073059 0.590046 -0.014986
-0.073059 0.590046 -0.014986
-0.047787 0.590046 -0.014986
0.011000 0.590046 -0.014986
0.126418 0.590046 -0.014986
0.235927 0.590046 -0.014986
0.333731 0.590046 -0.014986
0.413736 0.590046 -0.014986
0.480271 0.590046 -0.014986
0.538140 0.590046 -0.014986
0.590046 0.590046 -0.014986
0.637557 0.590046 -0.014986
0.680988 0.590046 -0.014986
0.718949 0.590046 -0.014986
0.755327 0.590046 -0.014986
0.790188 0.590046 -0.014986
0.822813 0.590046 -0.014986
0.851368 0.590046 -0.014986
0.876191 0.590046 -0.014986
0.897563 0.590046 -0.014986
0.915938 0.590046 -0.014986
0.931606 0.590046 -0.014986
0.944823 0.590046 -0.014986
0.955819 0.590046 -0.014986
0.964845 0.590046 -0.014986
-0.073059 0.625129 -0.021868
-0.073059 0.625129 -0.021868
-0.073059 0.625129 -0.021868
-0.073059 0.625129 -0.021868
-0.073059 0.625129 -0.021868
-0.073059 0.625129 -0.021868
-0.073059 0.625129 -0.021868
-0.073059 0.625129 -0.021868
-0.073059 0.625129 -0.021868
-0.073059 0.625129 -0.021868
-0.073059 0.625129 -0.021868
-0.053002 0.625129 -0.021868
0.017382 0.625129 -0.021868
0.153459 0.625129 -0.021868
0.273207 0.625129 -0.021868
0.372888 0.625129 -0.021868
0.451617 0.625129 -0.021868
0.517051 0.625129 -0.021868
0.574046 0.625129 -0.021868
0.625129 0.625129 -0.021868
0.671675 0.625129 -0.021868
0.711968 0.625129 -0.021868
0.749560 0.625129 -0.021868
0.785541 0.625129 -0.021868
0.819247 0.625129 -0.021868
0.848773 0.625129 -0.021868
0.874301 0.625129 -0.021868
0.896189 0.625129 -0.021868
0.914943 0.625129 -0.021868
0.930894 0.625129 -0.021868
0.944319 0.625129 -0.021868
0.955468 0.625129 -0.021868
0.964602 0.625129 -0.021868
-0.073059 0.659694 -0.030005
-0.073059 0.659694 -0.030005
-0.073059 0.659694 -0.030005
-0.073059 0.659694 -0.030005
-0.073059 0.659694 -0.030005
-0.073059 0.659694 -0.030005
-0.073059 0.659694 -0.030005
-0.073059 0.659694 -0.030005
-0.073059 0.659694 -0.030005
-0.073059 0.659694 -0.030005
-0.073059 0.659694 -0.030005
-0.073059 0.659694 -0.030005
-0.059169 0.659694 -0.030005
0.026016 0.659694 -0.030005
0.182652 0.659694 -0.030005
0.311953 0.659694 -0.030005
0.411526 0.659694 -0.030005
0.488850 0.659694 -0.030005
0.553271 0.659694 -0.030005
0.609394 0.659694 -0.030005
0.659694 0.659694 -0.030005
0.703257 0.659694 -0.030005
0.742451 0.659694 -0.030005
0.779874 0.659694 -0.030005
0.814864 0.659694 -0.030005
0.845608 0.659694 -0.030005
0.872002 0.659694 -0.030005
0.894524 0.659694 -0.030005
0.913742 0.659694 -0.030005
0.930036 0.659694 -0.030005
0.943712 0.659694 -0.030005
0.955046 0.659694 -0.030005
0.964312 0.659694 -0.030005
-0.073059 0.692279 -0.039628
-0.073059 0.692279 -0.039628
-0.073059 0.692279 -0.039628
-0.073059 0.692279 -0.039628
-0.073059 0.692279 -0.039628
-0.073059 0.692279 -0.039628
-0.073059 0.692279 -0.039628
-0.073059 0.692279 -0.039628
-0.073059 0.692279 -0.039628
-0.073059 0.692279 -0.039628
-0.073059 0.692279 -0.039628
-0.073059 0.692279 -0.039628
-0.073059 0.692279 -0.039628
-0.066461 0.692279 -0.039628
0.037072 0.692279 -0.039628
0.215215 0.692279 -0.039628
0.351194 0.692279 -0.039628
0.449444 0.692279 -0.039628
0.525499 0.692279 -0.039628
0.588962 0.692279 -0.039628
0.644282 0.692279 -0.039628
0.692279 0.692279 -0.039628
0.733665 0.692279 -0.039628
0.772926 0.692279 -0.039628
0.809456 0.692279 -0.039628
0.841721 0.692279 -0.039628
0.869186 0.692279 -0.039628
0.892498 0.692279 -0.039628
0.912286 0.692279 -0.039628
0.928998 0.692279 -0.039628
0.942982 0.692279 -0.039628
0.954539 0.692279 -0.039628
0.963963 0.692279 -0.039628
-0.073059 0.722810 -0.051006
-0.073059 0.722810 -0.051006
-0.073059 0.722810 -0.051006
-0.073059 0.722810 -0.051006
-0.073059 0.722810 -0.051006
-0.073059 0.722810 -0.051006
-0.073059 0.722810 -0.051006
-0.073059 0.722810 -0.051006
-0.073059 0.722810 -0.051006
-0.073059 0.722810 -0.051006
-0.073059 0.722810 -0.051006
-0.073059 0.722810 -0.051006
-0.073059 0.722810 -0.051006
-0.073059 0.722810 -0.051006
-0.073059 0.722810 -0.051006
0.052191 0.722810 -0.051006
0.251020 0.722810 -0.051006
0.390211 0.722810 -0.051006
0.486712 0.722810 -0.051006
0.561590 0.722810 -0.051006
0.624059 0.722810 -0.051006
0.678039 0.722810 -0.051006
0.722810 0.722810 -0.051006
0.764298 0.722810 -0.051006
0.802767 0.722810 -0.051006
0.836903 0.722810 -0.051006
0.865712 0.722810 -0.051006
0.890017 0.722810 -0.051006
0.910513 0.722810 -0.051006
0.927739 0.722810 -0.051006
0.942098 0.722810 -0.051006
0.953927 0.722810 -0.051006
0.963544 0.722810 -0.051006
-0.073059 0.753471 -0.064461
-0.073059 0.753471 -0.064461
-0.073059 0.753471 -0.064461
-0.073059 0.753471 -0.064461
-0.073059 0.753471 -0.064461
-0.073059 0.753471 -0.064461
-0.073059 0.753471 -0.064461
-0.073059 0.753471 -0.064461
-0.073059 0.753471 -0.064461
-0.073059 0.753471 -0.064461
-0.073059 0.753471 -0.064461
-0.073059 0.753471 -0.064461
-0.073059 0.753471 -0.064461
-0.073059 0.753471 -0.064461
-0.073059 0.753471 -0.064461
-0.073059 0.753471 -0.064461
0.072719 0.753471 -0.064461
0.289020 0.753471 -0.064461
0.428486 0.753471 -0.064461
0.523394 0.753471 -0.064461
0.597153 0.753471 -0.064461
0.658652 0.753471 -0.064461
0.709191 0.753471 -0.064461
0.753471 0.753471 -0.064461
0.794366 0.753471 -0.064461
0.830859 0.753471 -0.064461
0.861391 0.753471 -0.064461
0.886957 0.753471 -0.064461
0.908340 0.753471 -0.064461
0.926203 0.753471 -0.064461
0.941023 0.753471 -0.064461
0.953187 0.753471 -0.064461
0.963038 0.753471 -0.064461
-0.073059 0.783712 -0.073059
-0.073059 0.783712 -0.073059
-0.073059 0.783712 -0.073059
-0.073059 0.783712 -0.073059
-0.073059 0.783712 -0.073059
-0.073059 0.783712 -0.073059
-0.073059 0.783712 -0.073059
-0.073059 0.783712 -0.073059
-0.073059 0.783712 -0.073059
-0.073059 0.783712 -0.073059
-0.073059 0.783712 -0.073059
-0.073059 0.783712 -0.073059
-0.073059 0.783712 -0.073059
-0.073059 0.783712 -0.073059
-0.073059 0.783712 -0.073059
-0.073059 0.783712 -0.073059
-0.073059 0.783712 -0.073059
0.097215 0.783712 -0.073059
0.328107 0.783712 -0.073059
0.466115 0.783712 -0.073059
0.559517 0.783712 -0.073059
0.632161 0.783712 -0.073059
0.691328 0.783712 -0.073059
0.739632 0.783712 -0.073059
0.783712 0.783712 -0.073059
0.823146 0.783712 -0.073059
0.855965 0.783712 -0.073059
0.883148 0.783712 -0.073059
0.905658 0.783712 -0.073059
0.924320 0.783712 -0.073059
0.939710 0.783712 -0.073059
0.952286 0.783712 -0.073059
0.962425 0.783712 -0.073059
-0.073059 0.813126 -0.073059
-0.073059 0.813126 -0.073059
-0.073059 0.813126 -0.073059
-0.073059 0.813126 -0.073059
-0.073059 0.813126 -0.073059
-0.073059 0.813126 -0.073059
-0.073059 0.813126 -0.073059
-0.073059 0.813126 -0.073059
-0.073059 0.813126 -0.073059
-0.073059 0.813126 -0.073059
-0.073059 0.813126 -0.073059
-0.073059 0.813126 -0.073059
-0.073059 0.813126 -0.073059
-0.073059 0.813126 -0.073059
-0.073059 0.813126 -0.073059
-0.073059 0.813126 -0.073059
-0.073059 0.813126 -0.073059
-0.073059 0.813126 -0.073059
0.122893 0.813126 -0.073059
0.367283 0.813126 -0.073059
0.503115 0.813126 -0.073059
0.595113 0.813126 -0.073059
0.666505 0.813126 -0.073059
0.721884 0.813126 -0.073059
0.770165 0.813126 -0.073059
0.813126 0.813126 -0.073059
0.849069 0.813126 -0.073059
0.878365 0.813126 -0.073059
0.902315 0.813126 -0.073059
0.921992 0.813126 -0.073059
0.938097 0.813126 -0.073059
0.951183 0.813126 -0.073059
0.961679 0.813126 -0.073059
-0.073059 0.840177 -0.073059
-0.073059 0.840177 -0.073059
-0.073059 0.840177 -0.073059
-0.073059 0.840177 -0.073059
-0.073059 0.840177 -0.073059
-0.073059 0.840177 -0.073059
