滤镜资源/Professional Luts Collection/Lutify.me Professional/Utility LUTs/Log Conversions/BMD Film.cube
# Created by: Lutify.me
# Copyright: (c) Copyright Lutify.me 2015
# Website: https://lutify.me
LUT_3D_SIZE 5
0.023485 0.023485 0.023485
0.272476 0.023485 0.023485
0.586172 0.023485 0.023485
0.839461 0.023485 0.023485
0.966072 0.023485 0.023485
-0.028457 0.215216 0.016552
0.215216 0.215216 0.016552
0.573640 0.215216 0.016552
0.837180 0.215216 0.016552
0.965895 0.215216 0.016552
-0.073059 0.518169 -0.004245
-0.039646 0.518169 -0.004245
0.518169 0.518169 -0.004245
0.828113 0.518169 -0.004245
0.965219 0.518169 -0.004245
-0.073059 0.783712 -0.073059
-0.073059 0.783712 -0.073059
-0.073059 0.783712 -0.073059
0.783712 0.783712 -0.073059
0.962425 0.783712 -0.073059
-0.073059 0.947458 -0.073059
-0.073059 0.947458 -0.073059
-0.073059 0.947458 -0.073059
-0.073059 0.947458 -0.073059
0.947458 0.947458 -0.073059
0.023485 0.023485 0.221771
0.272476 0.023485 0.221771
0.586172 0.023485 0.221771
0.839461 0.023485 0.221771
0.966072 0.023485 0.221771
-0.028457 0.215216 0.215216
0.215216 0.215216 0.215216
0.573640 0.215216 0.215216
0.837180 0.215216 0.215216
0.965895 0.215216 0.215216
-0.073059 0.518169 0.189841
-0.039646 0.518169 0.189841
0.518169 0.518169 0.189841
0.828113 0.518169 0.189841
0.965219 0.518169 0.189841
-0.073059 0.783712 0.070090
-0.073059 0.783712 0.070090
-0.073059 0.783712 0.070090
0.783712 0.783712 0.070090
0.962425 0.783712 0.070090
-0.073059 0.947458 -0.073059
-0.073059 0.947458 -0.073059
-0.073059 0.947458 -0.073059
-0.073059 0.947458 -0.073059
0.947458 0.947458 -0.073059
0.023485 0.023485 0.526729
0.272476 0.023485 0.526729
0.586172 0.023485 0.526729
0.839461 0.023485 0.526729
0.966072 0.023485 0.526729
-0.028457 0.215216 0.524952
0.215216 0.215216 0.524952
0.573640 0.215216 0.524952
0.837180 0.215216 0.524952
0.965895 0.215216 0.524952
-0.073059 0.518169 0.518169
-0.039646 0.518169 0.518169
0.518169 0.518169 0.518169
0.828113 0.518169 0.518169
0.965219 0.518169 0.518169
-0.073059 0.783712 0.489890
-0.073059 0.783712 0.489890
-0.073059 0.783712 0.489890
0.783712 0.783712 0.489890
0.962425 0.783712 0.489890
-0.073059 0.947458 0.318779
-0.073059 0.947458 0.318779
-0.073059 0.947458 0.318779
-0.073059 0.947458 0.318779
0.947458 0.947458 0.318779
0.023485 0.023485 0.791109
0.272476 0.023485 0.791109
0.586172 0.023485 0.791109
0.839461 0.023485 0.791109
0.966072 0.023485 0.791109
-0.028457 0.215216 0.790728
0.215216 0.215216 0.790728
0.573640 0.215216 0.790728
0.837180 0.215216 0.790728
0.965895 0.215216 0.790728
-0.073059 0.518169 0.789299
-0.039646 0.518169 0.789299
0.518169 0.518169 0.789299
0.828113 0.518169 0.789299
0.965219 0.518169 0.789299
-0.073059 0.783712 0.783712
-0.073059 0.783712 0.783712
-0.073059 0.783712 0.783712
0.783712 0.783712 0.783712
0.962425 0.783712 0.783712
-0.073059 0.947458 0.760457
-0.073059 0.947458 0.760457
-0.073059 0.947458 0.760457
-0.073059 0.947458 0.760457
0.947458 0.947458 0.760457
0.023485 0.023485 0.950186
0.272476 0.023485 0.950186
0.586172 0.023485 0.950186
0.839461 0.023485 0.950186
0.966072 0.023485 0.950186
-0.028457 0.215216 0.950151
0.215216 0.215216 0.950151
0.573640 0.215216 0.950151
0.837180 0.215216 0.950151
0.965895 0.215216 0.950151
-0.073059 0.518169 0.950018
-0.039646 0.518169 0.950018
0.518169 0.518169 0.950018
0.828113 0.518169 0.950018
0.965219 0.518169 0.950018
-0.073059 0.783712 0.949504
-0.073059 0.783712 0.949504
-0.073059 0.783712 0.949504
0.783712 0.783712 0.949504
0.962425 0.783712 0.949504
-0.073059 0.947458 0.947458
-0.073059 0.947458 0.947458
-0.073059 0.947458 0.947458
-0.073059 0.947458 0.947458
0.947458 0.947458 0.947458
