滤镜资源/Professional Luts Collection/Lutify.me Professional/Utility LUTs/Log Conversions/Canon C-Log.cube
# Created by: Lutify.me
# Copyright: (c) Copyright Lutify.me 2015
# Website: https://lutify.me
LUT_3D_SIZE 9
-0.060082 -0.061621 -0.049384
0.053565 -0.005887 -0.014541
0.285050 0.058976 0.059457
0.506512 0.105926 0.109547
0.685492 0.143481 0.145655
0.837773 0.175438 0.180601
0.956495 0.200360 0.209179
0.966473 0.202479 0.215003
0.966445 0.202493 0.217428
0.043204 0.051739 0.016217
0.042826 0.046847 0.016732
0.284171 0.059946 0.060029
0.506849 0.106135 0.110068
0.685645 0.143571 0.145671
0.837846 0.175482 0.180608
0.956518 0.200373 0.209188
0.966473 0.202479 0.215004
0.966445 0.202493 0.217428
0.099708 0.289986 0.098420
0.096835 0.287186 0.097503
0.257051 0.270722 0.100579
0.497164 0.240393 0.122158
0.682039 0.179952 0.146074
0.837994 0.173604 0.180054
0.956650 0.200400 0.209218
0.966472 0.202479 0.215007
0.966445 0.202493 0.217430
0.171575 0.506551 0.171088
0.170404 0.505361 0.170753
0.182778 0.497739 0.168479
0.462038 0.485307 0.179382
0.660812 0.459818 0.192471
0.824058 0.401050 0.202614
0.953910 0.234649 0.205142
0.966478 0.202758 0.215084
0.966445 0.202494 0.217430
0.229327 0.679088 0.229361
0.228733 0.678515 0.229102
0.226792 0.674801 0.227762
0.404000 0.668559 0.231833
0.627553 0.658323 0.243204
0.798704 0.636946 0.253319
0.942664 0.589419 0.259074
0.970384 0.434629 0.232703
0.966257 0.187825 0.217303
0.276697 0.820150 0.276882
0.276428 0.819890 0.276801
0.275791 0.817990 0.276292
0.327063 0.814363 0.276351
0.586955 0.810555 0.286282
0.768648 0.802677 0.296616
0.914611 0.785206 0.304996
0.981171 0.745938 0.301779
0.976104 0.627839 0.271351
0.316167 0.937395 0.316507
0.316031 0.937261 0.316474
0.315672 0.936194 0.316238
0.314769 0.934292 0.315637
0.542729 0.933095 0.322645
0.736641 0.930873 0.332746
0.887874 0.924696 0.341930
0.981134 0.910000 0.345774
0.988778 0.876077 0.337130
0.333159 0.988035 0.333036
0.333142 0.988019 0.332997
0.333116 0.987931 0.332721
0.333372 0.987771 0.332365
0.514155 0.988741 0.338605
0.712916 0.990573 0.349827
0.866241 0.992385 0.360126
0.961761 0.993232 0.367802
0.996429 0.991252 0.369945
0.334149 0.988128 0.415399
0.334142 0.988127 0.415116
0.334127 0.988123 0.413340
0.334988 0.988118 0.409738
0.522365 0.989475 0.407202
0.705390 0.991640 0.400969
0.851730 0.993992 0.359206
0.946030 0.995849 0.363861
0.994847 0.996935 0.371167
-0.041856 -0.018482 0.041472
0.050933 0.036837 0.041376
0.284613 0.059021 0.067475
0.506396 0.105916 0.109603
0.685496 0.143482 0.145821
0.837778 0.175440 0.180601
0.956497 0.200357 0.209182
0.966473 0.202479 0.215003
0.966445 0.202493 0.217428
0.042340 0.044705 0.040503
0.039664 0.039662 0.039666
0.283697 0.059519 0.066856
0.506722 0.106134 0.109966
0.685646 0.143572 0.145900
0.837850 0.175483 0.180618
0.956520 0.200373 0.209188
0.966473 0.202479 0.215004
0.966445 0.202493 0.217428
0.099202 0.288712 0.097322
0.096403 0.285907 0.096378
0.256244 0.269470 0.099377
0.496870 0.239304 0.121820
0.682014 0.180174 0.146267
0.837987 0.173561 0.179986
0.956652 0.200401 0.209221
0.966472 0.202479 0.215007
0.966445 0.202493 0.217430
0.171396 0.505812 0.170537
0.170153 0.504616 0.170134
0.182235 0.497089 0.167894
0.461670 0.484706 0.178828
0.660708 0.459637 0.192601
0.824034 0.401400 0.202806
0.953902 0.234945 0.205160
0.966478 0.202757 0.215085
0.966445 0.202494 0.217430
0.228926 0.678232 0.228611
0.228452 0.677685 0.228426
0.226564 0.674074 0.227193
0.403406 0.667961 0.231298
0.627295 0.657894 0.242792
0.798662 0.637056 0.253408
0.942650 0.589567 0.259172
0.970391 0.434966 0.232840
0.966256 0.187787 0.217284
0.276438 0.819331 0.276210
0.276142 0.819034 0.276110
0.275509 0.817142 0.275480
0.326182 0.813622 0.275571
0.586484 0.809858 0.285673
0.768490 0.802340 0.296378
0.914603 0.785267 0.305044
0.981174 0.746009 0.301834
0.976110 0.627977 0.271453
0.315842 0.936422 0.315710
0.315705 0.936295 0.315668
0.315360 0.935270 0.315326
0.314318 0.933443 0.314697
0.541903 0.932211 0.321851
0.736208 0.930150 0.332048
0.887733 0.924387 0.341644
0.981133 0.910028 0.345792
0.988780 0.876107 0.337156
0.333127 0.987923 0.333582
0.333111 0.987909 0.333550
0.333086 0.987822 0.333822
0.333306 0.987648 0.334165
0.513093 0.988582 0.339600
0.712375 0.990406 0.349025
0.865809 0.992157 0.359969
0.961623 0.993130 0.367686
0.996428 0.991253 0.369943
0.334293 0.988159 0.451606
0.334285 0.988158 0.451338
0.334269 0.988154 0.449698
0.335118 0.988149 0.446377
0.521694 0.989498 0.443793
0.704943 0.991662 0.436851
0.851420 0.994025 0.411362
0.945645 0.995846 0.374737
0.994788 0.996934 0.370437
0.033645 0.033116 0.249362
0.034836 0.033207 0.248498
0.278116 0.063298 0.247189
0.503696 0.107594 0.249243
0.684001 0.144404 0.250215
0.837048 0.175880 0.241858
0.956398 0.200447 0.222575
0.966473 0.202477 0.214798
0.966445 0.202493 0.217428
0.033462 0.033208 0.249438
0.033067 0.033090 0.248574
0.276789 0.063498 0.247574
0.503995 0.107860 0.250387
0.684141 0.144539 0.251140
0.837107 0.175949 0.242712
0.956420 0.200470 0.223085
0.966473 0.202477 0.214786
0.966445 0.202493 0.217428
0.094703 0.266491 0.249755
0.091729 0.263503 0.248834
0.245043 0.245700 0.246389
0.491473 0.215178 0.246174
0.678590 0.163736 0.245610
0.835660 0.174256 0.240552
0.955518 0.200272 0.221972
0.966480 0.202478 0.214723
0.966445 0.202493 0.217429
0.168708 0.495217 0.255126
0.167483 0.494046 0.254239
0.175582 0.486475 0.249857
0.454991 0.474792 0.251126
0.648303 0.456414 0.245069
0.812912 0.406946 0.232485
0.947469 0.258770 0.216237
0.966524 0.202432 0.214815
0.966445 0.202495 0.217430
0.226769 0.670518 0.267191
0.226208 0.669992 0.266493
0.224521 0.666432 0.262928
0.396718 0.660433 0.260927
0.623314 0.651166 0.261354
0.785476 0.637820 0.257299
0.926960 0.604591 0.259224
0.970516 0.435478 0.232942
0.966256 0.187753 0.217279
0.274357 0.812509 0.296646
0.274050 0.812238 0.296093
0.273421 0.810416 0.293218
0.318236 0.806969 0.289171
0.582358 0.803676 0.292644
0.764787 0.797251 0.294274
0.907165 0.785087 0.303801
0.980959 0.745793 0.301757
0.976138 0.628744 0.271628
0.314089 0.930411 0.343566
0.313890 0.930231 0.343113
0.313545 0.929256 0.340753
0.311302 0.927319 0.335610
0.536353 0.926192 0.333298
0.732937 0.924406 0.332309
0.885337 0.919992 0.339142
0.980935 0.909129 0.345531
0.988789 0.876263 0.337201
0.333696 0.987532 0.413384
0.333668 0.987511 0.413123
0.333609 0.987385 0.411494
0.333775 0.987160 0.408224
0.507943 0.987943 0.404336
0.709442 0.989553 0.394529
0.863468 0.990893 0.372390
0.960051 0.991628 0.366820
0.996452 0.991303 0.369953
0.335005 0.988314 0.505834
0.334996 0.988313 0.505651
0.334983 0.988310 0.504508
0.335780 0.988306 0.502116
0.518045 0.989619 0.500708
0.702710 0.991787 0.496544
0.849736 0.994165 0.481508
0.943929 0.995930 0.433050
0.994253 0.996926 0.371566
0.059773 0.059610 0.447629
0.059619 0.059461 0.447247
0.258875 0.075763 0.446648
0.495537 0.113721 0.447786
0.678980 0.148559 0.447138
0.833403 0.178974 0.439969
0.955183 0.203025 0.414993
0.966641 0.203897 0.334708
0.966440 0.202450 0.212923
0.059775 0.059596 0.447631
0.059621 0.059545 0.447259
0.256847 0.075209 0.446699
0.495787 0.113965 0.448239
0.679116 0.148684 0.447628
0.833463 0.179054 0.440480
0.955202 0.203073 0.415567
0.966643 0.203942 0.335488
0.966440 0.202448 0.212854
0.083751 0.190174 0.445085
0.079991 0.184731 0.444668
0.210470 0.152421 0.443506
0.482306 0.132903 0.445507
0.674320 0.143785 0.446987
0.833346 0.179128 0.442943
0.955324 0.203164 0.418720
0.966650 0.204013 0.339936
0.966440 0.202447 0.212943
0.163832 0.467741 0.446751
0.162567 0.466473 0.446363
0.161893 0.458166 0.444505
0.443880 0.444775 0.445118
0.649817 0.419806 0.442545
0.816463 0.357782 0.432810
0.951004 0.214438 0.408500
0.966647 0.204221 0.329614
0.966440 0.202453 0.213119
0.223588 0.652949 0.451304
0.223051 0.652376 0.450936
0.221559 0.648656 0.449117
0.381089 0.642248 0.448127
0.615485 0.632670 0.447842
0.783286 0.618185 0.434172
0.930814 0.578618 0.403176
0.970761 0.445714 0.321765
0.966125 0.182457 0.212893
0.272038 0.799787 0.462319
0.271758 0.799520 0.462014
0.271085 0.797574 0.460268
0.301486 0.793884 0.457452
0.573860 0.790195 0.457066
0.759225 0.783322 0.451172
0.899939 0.773497 0.424460
0.979820 0.748308 0.350193
0.977575 0.666325 0.280428
0.312267 0.920427 0.484059
0.312110 0.920289 0.483793
0.311726 0.919189 0.482443
0.309023 0.917205 0.479801
0.527164 0.915866 0.478629
0.727129 0.913840 0.473694
0.880305 0.908798 0.455142
0.972028 0.902852 0.399075
0.989221 0.882520 0.338484
0.334822 0.987115 0.523635
0.334789 0.987086 0.523475
0.334716 0.986914 0.522524
0.334843 0.986588 0.520416
0.500718 0.987157 0.518626
0.704953 0.988461 0.514843
0.859932 0.989023 0.501124
0.956077 0.987892 0.458972
0.996259 0.986514 0.366520
0.336175 0.988570 0.580850
0.336166 0.988569 0.580725
0.336156 0.988566 0.580001
0.336864 0.988563 0.578476
0.512066 0.989817 0.577934
0.699077 0.991991 0.575825
0.846879 0.994372 0.566825
0.941348 0.996160 0.538927
0.992573 0.997058 0.455405
0.080973 0.080909 0.607221
0.080926 0.080830 0.607072
0.226782 0.089241 0.606949
0.483532 0.121828 0.608659
0.671363 0.154383 0.610149
0.827753 0.183668 0.609095
0.953088 0.207730 0.601076
0.967306 0.209587 0.572103
0.967000 0.207317 0.495555
0.080954 0.080818 0.607032
0.080901 0.080799 0.606895
0.223718 0.088518 0.606828
0.483389 0.121995 0.608768
0.671510 0.154500 0.610364
0.827817 0.183728 0.609313
0.953112 0.207770 0.601307
0.967307 0.209615 0.572370
0.967001 0.207350 0.495962
0.081090 0.090119 0.603705
0.080737 0.088915 0.603591
0.156146 0.085137 0.603446
0.467817 0.116043 0.606103
0.665843 0.153268 0.609136
0.827504 0.183699 0.610141
0.953259 0.207844 0.602574
0.967311 0.209663 0.573865
0.967008 0.207409 0.498163
0.156949 0.425554 0.603011
0.155615 0.424068 0.602860
0.150517 0.414291 0.602093
0.424615 0.397900 0.603223
0.639807 0.366209 0.604974
0.809316 0.284106 0.604420
0.949545 0.202002 0.601205
0.967326 0.209804 0.576665
0.967021 0.207519 0.502536
0.219282 0.627651 0.604601
0.218680 0.627026 0.604452
0.217359 0.622959 0.603703
0.356462 0.615740 0.603657
0.604814 0.604977 0.605321
0.782444 0.584335 0.602316
0.930021 0.536112 0.592864
0.969814 0.373465 0.563166
0.966879 0.197998 0.490411
0.268790 0.781192 0.608873
0.268472 0.780867 0.608709
0.267793 0.778837 0.608031
0.285422 0.774837 0.606958
0.561585 0.770747 0.608288
0.751136 0.763271 0.607333
0.895975 0.751471 0.593625
0.978827 0.719695 0.560642
0.976190 0.620908 0.479413
0.309731 0.906034 0.618882
0.309573 0.905892 0.618765
0.309174 0.904714 0.618132
0.307092 0.902559 0.616907
0.513079 0.900802 0.617065
0.718898 0.898425 0.616413
0.873870 0.892710 0.610009
0.967167 0.885137 0.582358
0.988590 0.864732 0.506230
0.335768 0.984276 0.639846
0.335615 0.984134 0.639759
0.335373 0.983408 0.639290
0.335210 0.982156 0.638318
0.488919 0.981450 0.638061
0.697789 0.981063 0.637510
0.854312 0.979929 0.631750
0.950928 0.978298 0.612793
0.994067 0.977187 0.558460
0.337894 0.988959 0.672078
0.337894 0.988959 0.672019
0.337888 0.988958 0.671667
0.338489 0.988960 0.670885
0.502724 0.990135 0.671171
0.693600 0.992340 0.671155
0.842665 0.994764 0.667115
0.937566 0.996625 0.652555
0.989896 0.997578 0.612905
0.099410 0.099347 0.745669
0.099385 0.099305 0.745605
0.170188 0.102382 0.745628
0.468166 0.131259 0.747669
0.661733 0.161082 0.749846
0.820710 0.189088 0.751222
0.950532 0.213114 0.749613
0.968076 0.215940 0.737755
0.967882 0.214741 0.710386
0.099366 0.099226 0.745354
0.099351 0.099224 0.745343
0.164804 0.101701 0.745406
0.467186 0.130851 0.747534
0.661909 0.161181 0.749950
0.820779 0.189139 0.751322
0.950559 0.213146 0.749717
0.968077 0.215950 0.737866
0.967882 0.214759 0.710511
0.098822 0.097646 0.742328
0.098859 0.097716 0.742305
0.116952 0.098488 0.742478
0.448379 0.127960 0.744866
0.654613 0.159860 0.748334
0.819881 0.188977 0.751369
0.950747 0.213208 0.750302
0.968079 0.215976 0.738491
0.967886 0.214788 0.711184
0.148549 0.366141 0.739651
0.146956 0.364077 0.739554
0.141463 0.350680 0.739235
0.397484 0.326742 0.740325
0.625121 0.286525 0.742726
0.799259 0.193778 0.744788
0.946693 0.212371 0.748246
0.968086 0.216036 0.739681
0.967894 0.214846 0.712557
0.213946 0.594810 0.740029
0.213242 0.594096 0.739953
0.211875 0.589631 0.739693
0.319513 0.581223 0.739904
0.589548 0.569272 0.742195
0.772951 0.544839 0.743820
0.922132 0.485283 0.742846
0.969242 0.310016 0.733816
0.967940 0.216499 0.715753
0.264658 0.757310 0.741554
0.264333 0.756969 0.741482
0.263624 0.754781 0.741239
0.272894 0.750420 0.740889
0.545436 0.745732 0.742762
0.741670 0.737028 0.744162
0.893461 0.719709 0.741028
0.976879 0.681252 0.728984
0.974647 0.553374 0.699705
0.306399 0.886987 0.745751
0.306190 0.886789 0.745696
0.305792 0.885573 0.745502
0.304492 0.883275 0.745060
0.493614 0.881118 0.745948
0.708312 0.878499 0.747349
0.865602 0.872098 0.745884
0.961851 0.862208 0.731061
0.987648 0.835260 0.698225
0.332895 0.967868 0.755806
0.332725 0.967706 0.755788
0.332439 0.966834 0.755593
0.332150 0.965313 0.755151
0.470853 0.964016 0.755523
0.687316 0.963418 0.756763
0.846328 0.962079 0.755658
0.943807 0.959492 0.747882
0.991691 0.957068 0.720213
0.340211 0.989425 0.773723
0.340208 0.989425 0.773718
0.340207 0.989427 0.773640
0.340642 0.989430 0.773380
0.489382 0.990442 0.774071
0.686114 0.992499 0.775350
0.836853 0.994658 0.774465
0.932366 0.996229 0.767627
0.984883 0.997586 0.748985
0.114853 0.114804 0.861731
0.114876 0.114809 0.861759
0.131502 0.115583 0.861986
0.449603 0.139923 0.864046
0.651350 0.167808 0.866860
0.812896 0.194599 0.869520
0.947829 0.218610 0.871188
0.968873 0.222244 0.867020
0.968745 0.221682 0.856605
0.114828 0.114684 0.861421
0.114831 0.114685 0.861428
0.126551 0.114875 0.861609
0.447504 0.139277 0.863766
0.651105 0.167842 0.866823
0.812967 0.194644 0.869555
0.947860 0.218630 0.871233
0.968873 0.222246 0.867064
0.968745 0.221685 0.856652
0.114412 0.114202 0.858454
0.114435 0.114222 0.858498
0.114009 0.114222 0.858783
0.423597 0.136204 0.860989
0.640711 0.166067 0.864665
0.810664 0.194212 0.868974
0.948136 0.218696 0.871515
0.968874 0.222259 0.867313
0.968747 0.221698 0.856907
0.141650 0.295429 0.854681
0.140082 0.292868 0.854651
0.135989 0.276399 0.854656
0.363019 0.239356 0.855641
0.608007 0.189137 0.858449
0.788562 0.186553 0.862885
0.940961 0.217722 0.868641
0.968918 0.222289 0.867785
0.968751 0.221725 0.857425
0.208653 0.559181 0.854280
0.208003 0.558419 0.854296
0.206539 0.553394 0.854292
0.273226 0.543569 0.854626
0.571699 0.530082 0.857277
0.760822 0.502801 0.860091
0.911889 0.427265 0.862130
0.969138 0.253620 0.860693
0.968782 0.223298 0.858884
0.260381 0.730948 0.854193
0.260018 0.730561 0.854191
0.259284 0.728169 0.854218
0.259998 0.723406 0.854305
0.526635 0.718073 0.856407
0.729375 0.708547 0.859119
0.884946 0.688617 0.861204
0.973996 0.644102 0.859564
0.973534 0.482359 0.849988
0.302725 0.865925 0.854919
0.302542 0.865741 0.854930
0.302120 0.864413 0.854953
0.301310 0.861955 0.855017
0.469557 0.859282 0.856276
0.696315 0.856376 0.858922
0.857410 0.848879 0.860778
0.956753 0.833978 0.857876
0.986442 0.800295 0.846743
0.329666 0.949877 0.857934
0.329515 0.949714 0.857959
0.329219 0.948792 0.857969
0.328879 0.947247 0.858042
0.450651 0.945642 0.858885
0.675818 0.944790 0.861376
0.837542 0.942858 0.863120
0.935981 0.939148 0.861887
0.987656 0.934318 0.849224
0.342290 0.988654 0.864875
0.342250 0.988613 0.864892
0.342190 0.988420 0.864947
0.342227 0.988111 0.865010
0.472722 0.988237 0.866082
0.677378 0.988789 0.868316
0.829941 0.989244 0.869949
0.926051 0.989321 0.868924
0.978486 0.988954 0.863088
0.124451 0.124456 0.933666
0.124465 0.124428 0.933690
0.127069 0.124413 0.933971
0.431776 0.145477 0.936045
0.642731 0.172848 0.939276
0.807565 0.198492 0.942591
0.944879 0.222259 0.945502
0.969435 0.226611 0.945169
0.969359 0.226438 0.942429
0.124386 0.124236 0.933159
0.124399 0.124241 0.933196
0.125553 0.124230 0.933568
0.428003 0.144452 0.935640
0.641071 0.172099 0.938934
0.807646 0.198545 0.942592
0.944912 0.222271 0.945515
0.969435 0.226609 0.945181
0.969359 0.226439 0.942442
0.123998 0.123851 0.930202
0.124005 0.123855 0.930238
0.121747 0.123835 0.930622
0.396969 0.140928 0.932587
0.626232 0.169718 0.936230
0.801563 0.197425 0.941029
0.945044 0.222298 0.945579
0.969435 0.226613 0.945255
0.969360 0.226443 0.942515
0.141213 0.258635 0.926336
0.139910 0.256069 0.926388
0.137106 0.239206 0.926493
0.329233 0.209794 0.927574
0.593767 0.182602 0.930736
0.778038 0.192537 0.935280
0.931836 0.219926 0.941512
0.969509 0.226632 0.945367
0.969361 0.226452 0.942662
0.207661 0.541801 0.925984
0.207080 0.541045 0.925971
0.205585 0.535677 0.926112
0.247881 0.524706 0.926456
0.556716 0.510274 0.929070
0.750410 0.481527 0.932227
0.903112 0.393943 0.935166
0.969379 0.224186 0.937231
0.969380 0.227586 0.943057
0.258244 0.714534 0.925185
0.257896 0.714146 0.925254
0.257136 0.711658 0.925345
0.255432 0.706713 0.925624
0.510718 0.700802 0.927699
0.719640 0.690791 0.930798
0.877443 0.670428 0.934007
0.971666 0.622898 0.935312
0.973361 0.454413 0.933068
0.300321 0.850867 0.924601
0.300114 0.850662 0.924638
0.299676 0.849248 0.924764
0.298981 0.846695 0.925004
0.452956 0.843749 0.926386
0.687174 0.840598 0.929433
0.850248 0.833278 0.932473
0.950499 0.816376 0.933970
0.985879 0.779370 0.932520
0.327275 0.936181 0.924776
0.327122 0.936021 0.924794
0.326826 0.935075 0.924982
0.326448 0.933530 0.925202
0.435018 0.931782 0.926200
0.666958 0.930751 0.929049
0.830854 0.928511 0.931968
0.930332 0.923927 0.933456
0.984364 0.915325 0.931324
0.341491 0.980626 0.926615
0.341371 0.980501 0.926642
0.341156 0.979821 0.926755
0.340927 0.978749 0.926962
0.457254 0.977779 0.928021
0.669695 0.977654 0.930707
0.823932 0.977247 0.933343
0.920565 0.976290 0.934725
0.972858 0.974424 0.934048
0.127985 0.127816 0.960072
0.127982 0.127816 0.960071
0.124300 0.127655 0.960054
0.407551 0.146309 0.961165
0.630632 0.173466 0.963373
0.802559 0.199729 0.966046
0.942487 0.223221 0.968940
0.969616 0.228054 0.969613
0.969571 0.228051 0.969700
0.127984 0.127820 0.960081
0.127983 0.127820 0.960079
0.124888 0.127726 0.960063
0.401809 0.144523 0.961133
0.627638 0.172227 0.963329
0.801182 0.199103 0.966014
0.942528 0.223246 0.968941
0.969616 0.228054 0.969613
0.969571 0.228051 0.969700
0.128011 0.127158 0.960133
0.127944 0.127221 0.960130
0.127096 0.127500 0.960115
0.365045 0.141118 0.960939
0.609671 0.169711 0.963125
0.789619 0.197207 0.965781
0.939847 0.222771 0.968846
0.969630 0.228056 0.969611
0.969571 0.228051 0.969697
0.156562 0.318827 0.962149
0.154665 0.315550 0.962094
0.150716 0.294946 0.961767
0.300248 0.261361 0.961722
0.579254 0.219145 0.963239
0.766986 0.191682 0.965384
0.921393 0.219823 0.968338
0.969694 0.228063 0.969604
0.969571 0.228051 0.969693
0.212668 0.551620 0.963111
0.212102 0.550923 0.963168
0.210801 0.546221 0.963262
0.238931 0.536999 0.963598
0.545810 0.524371 0.965990
0.742101 0.495859 0.968764
0.896091 0.431007 0.971077
0.969846 0.270831 0.969658
0.969593 0.229502 0.969654
0.259636 0.713595 0.962833
0.259292 0.713172 0.962872
0.258539 0.710666 0.963021
0.255967 0.705725 0.963297
0.500201 0.699761 0.965241
0.712898 0.689897 0.968334
0.871832 0.670104 0.971624
0.970020 0.624046 0.973723
0.974062 0.473927 0.972317
0.299804 0.844859 0.961938
0.299590 0.844612 0.961950
0.299152 0.843186 0.962106
0.298527 0.840633 0.962386
0.445997 0.837600 0.963710
0.681831 0.834403 0.966776
0.845630 0.827860 0.970011
0.945998 0.811327 0.972358
0.985620 0.774363 0.973189
0.326047 0.928598 0.961363
0.325909 0.928455 0.961391
0.325608 0.927485 0.961540
0.325178 0.925878 0.961825
0.427227 0.924171 0.962874
0.662264 0.923399 0.965823
0.826928 0.921089 0.968900
0.926718 0.916358 0.970990
0.981239 0.906781 0.971881
0.340231 0.973274 0.961469
0.340093 0.973133 0.961501
0.339861 0.972388 0.961647
0.339584 0.971238 0.961830
0.452171 0.970222 0.962991
0.665742 0.970070 0.965703
0.820472 0.969570 0.968635
0.917276 0.968387 0.970759
0.969752 0.966196 0.971543
