滤镜资源/Professional Luts Collection/Lutify.me Professional/Utility LUTs/Log Conversions/Canon C-Log.cube
# Created by: Lutify.me
# Copyright: (c) Copyright Lutify.me 2015
# Website: https://lutify.me
LUT_3D_SIZE 33
-0.060082 -0.061621 -0.049384
-0.039552 -0.061621 -0.049384
-0.016550 -0.061621 -0.049384
0.010501 -0.061035 -0.048986
0.053565 -0.005887 -0.014541
0.112342 0.036799 0.016627
0.170506 0.042596 0.033906
0.226307 0.048140 0.047065
0.285050 0.058976 0.059457
0.344626 0.071665 0.072364
0.401989 0.083936 0.085406
0.455966 0.095318 0.097962
0.506512 0.105926 0.109547
0.554247 0.115959 0.118559
0.599752 0.125502 0.127233
0.643370 0.134654 0.136363
0.685492 0.143481 0.145655
0.726092 0.152039 0.154851
0.765483 0.160274 0.163793
0.802244 0.167984 0.172292
0.837773 0.175438 0.180601
0.872628 0.182757 0.188825
0.907951 0.190157 0.197116
0.938784 0.196629 0.204487
0.956495 0.200360 0.209179
0.965154 0.202184 0.211984
0.966706 0.202512 0.213285
0.966559 0.202490 0.214178
0.966473 0.202479 0.215003
0.966444 0.202479 0.215739
0.966445 0.202484 0.216390
0.966445 0.202489 0.216955
0.966445 0.202493 0.217428
-0.060082 -0.040787 -0.049384
-0.039552 -0.040787 -0.049384
-0.016550 -0.040787 -0.049384
0.010501 -0.040430 -0.048986
0.053565 -0.000655 -0.014541
0.112342 0.032655 0.016627
0.170506 0.040443 0.033906
0.226307 0.047914 0.047065
0.285050 0.059192 0.059457
0.344626 0.071812 0.072364
0.401989 0.084008 0.085406
0.455966 0.095368 0.097962
0.506512 0.105967 0.109547
0.554247 0.115992 0.118559
0.599752 0.125529 0.127233
0.643370 0.134677 0.136363
0.685492 0.143498 0.145655
0.726092 0.152053 0.154851
0.765483 0.160287 0.163793
0.802244 0.167995 0.172292
0.837773 0.175447 0.180601
0.872628 0.182765 0.188825
0.907951 0.190162 0.197116
0.938784 0.196631 0.204487
0.956495 0.200362 0.209179
0.965154 0.202186 0.211984
0.966706 0.202513 0.213285
0.966559 0.202490 0.214178
0.966473 0.202479 0.215003
0.966444 0.202479 0.215739
0.966445 0.202484 0.216390
0.966445 0.202489 0.216955
0.966445 0.202493 0.217428
-0.060082 -0.017445 -0.049384
-0.039552 -0.017445 -0.049384
-0.016550 -0.017445 -0.049384
0.010501 -0.017345 -0.048986
0.053565 0.005207 -0.014541
0.112342 0.028206 0.016627
0.170506 0.038114 0.033906
0.226307 0.047661 0.047065
0.285050 0.059434 0.059457
0.344626 0.071977 0.072364
0.401989 0.084088 0.085406
0.455966 0.095424 0.097962
0.506512 0.106014 0.109547
0.554247 0.116029 0.118559
0.599752 0.125559 0.127233
0.643370 0.134703 0.136363
0.685492 0.143518 0.145655
0.726092 0.152069 0.154851
0.765483 0.160301 0.163793
0.802244 0.168006 0.172292
0.837773 0.175457 0.180601
0.872628 0.182774 0.188825
0.907951 0.190168 0.197116
0.938784 0.196634 0.204487
0.956495 0.200365 0.209179
0.965154 0.202189 0.211984
0.966706 0.202513 0.213285
0.966559 0.202490 0.214178
0.966473 0.202479 0.215003
0.966444 0.202479 0.215739
0.966445 0.202484 0.216390
0.966445 0.202489 0.216955
0.966445 0.202493 0.217428
-0.055231 0.009964 -0.046103
-0.036224 0.009964 -0.046103
-0.014930 0.009964 -0.046103
0.010116 0.009754 -0.045956
0.052831 0.012470 -0.014203
0.111973 0.023229 0.016775
0.170350 0.035524 0.033911
0.226321 0.047369 0.047032
0.285145 0.059716 0.059398
0.344700 0.072170 0.072303
0.402027 0.084182 0.085367
0.455995 0.095490 0.097936
0.506535 0.106069 0.109575
0.554266 0.116073 0.118593
0.599767 0.125595 0.127246
0.643383 0.134733 0.136365
0.685502 0.143541 0.145654
0.726100 0.152087 0.154853
0.765490 0.160317 0.163794
0.802249 0.168020 0.172291
0.837778 0.175468 0.180600
0.872632 0.182784 0.188827
0.907954 0.190175 0.197117
0.938786 0.196638 0.204487
0.956496 0.200369 0.209179
0.965154 0.202192 0.211983
0.966706 0.202514 0.213285
0.966559 0.202490 0.214179
0.966473 0.202479 0.215003
0.966444 0.202479 0.215740
0.966445 0.202484 0.216390
0.966445 0.202489 0.216955
0.966445 0.202493 0.217428
0.043204 0.051739 0.016217
0.034751 0.051739 0.016217
0.026095 0.051739 0.016217
0.016869 0.051373 0.016002
0.042826 0.046847 0.016732
0.106122 0.044146 0.027430
0.166991 0.045050 0.038034
0.224408 0.050195 0.048651
0.284171 0.059946 0.060029
0.344358 0.072070 0.072217
0.402111 0.084199 0.084890
0.456289 0.095551 0.097557
0.506849 0.106135 0.110068
0.554531 0.116128 0.119145
0.599982 0.125640 0.127545
0.643551 0.134769 0.136396
0.685645 0.143571 0.145671
0.726223 0.152112 0.154887
0.765587 0.160337 0.163830
0.802330 0.168037 0.172312
0.837846 0.175482 0.180608
0.872694 0.182797 0.188837
0.908007 0.190186 0.197134
0.938823 0.196646 0.204506
0.956518 0.200373 0.209188
0.965163 0.202193 0.211984
0.966708 0.202514 0.213284
0.966559 0.202490 0.214179
0.966473 0.202479 0.215004
0.966444 0.202479 0.215740
0.966445 0.202484 0.216391
0.966445 0.202489 0.216956
0.966445 0.202493 0.217428
0.041744 0.112834 0.045731
0.040607 0.112834 0.045731
0.039358 0.112834 0.045731
0.037928 0.112512 0.045655
0.039141 0.108049 0.044782
0.095681 0.102795 0.045792
0.160741 0.097151 0.049669
0.220470 0.091052 0.055853
0.281486 0.085919 0.064548
0.342477 0.083478 0.074357
0.400716 0.086656 0.085064
0.455254 0.095252 0.096635
0.506169 0.105986 0.108921
0.554268 0.116075 0.118946
0.600038 0.125650 0.127816
0.643757 0.134812 0.136436
0.685820 0.143608 0.145697
0.726354 0.152140 0.154915
0.765697 0.160361 0.163854
0.802419 0.168055 0.172339
0.837918 0.175497 0.180634
0.872756 0.182809 0.188854
0.908060 0.190197 0.197146
0.938865 0.196655 0.204516
0.956543 0.200378 0.209188
0.965173 0.202195 0.211978
0.966710 0.202515 0.213283
0.966558 0.202490 0.214180
0.966473 0.202479 0.215004
0.966444 0.202479 0.215740
0.966445 0.202484 0.216391
0.966445 0.202489 0.216956
0.966445 0.202493 0.217428
0.060225 0.171628 0.060265
0.059512 0.171628 0.060265
0.058721 0.171628 0.060265
0.057804 0.171388 0.060185
0.056656 0.168025 0.059147
0.079502 0.163785 0.058455
0.149630 0.159189 0.060986
0.213023 0.153909 0.065820
0.276506 0.147675 0.072919
0.338848 0.140901 0.081335
0.397859 0.133329 0.089995
0.452975 0.124994 0.098642
0.504413 0.117873 0.107761
0.552926 0.117627 0.117688
0.599110 0.124264 0.127069
0.643140 0.134827 0.135897
0.685710 0.143674 0.145491
0.726513 0.152181 0.154911
0.765852 0.160393 0.163893
0.802579 0.168088 0.172376
0.838051 0.175524 0.180654
0.872902 0.182839 0.188888
0.908184 0.190221 0.197173
0.938921 0.196666 0.204520
0.956574 0.200384 0.209198
0.965184 0.202197 0.211990
0.966712 0.202515 0.213289
0.966557 0.202489 0.214182
0.966473 0.202479 0.215006
0.966444 0.202479 0.215742
0.966445 0.202484 0.216391
0.966445 0.202489 0.216956
0.966445 0.202493 0.217429
0.079462 0.229368 0.078271
0.078826 0.229368 0.078271
0.078117 0.229368 0.078271
0.077293 0.229154 0.078217
0.076313 0.226247 0.077320
0.076915 0.222519 0.076128
0.131635 0.218295 0.076703
0.202070 0.213607 0.079741
0.268887 0.208053 0.084611
0.333453 0.201406 0.090992
0.393858 0.193916 0.098132
0.449545 0.185625 0.105378
0.501493 0.175636 0.112494
0.550434 0.162933 0.119821
0.597035 0.150466 0.127340
0.641346 0.142310 0.135260
0.684510 0.143764 0.144306
0.725868 0.150506 0.153873
0.765635 0.159703 0.163437
0.802711 0.167900 0.172316
0.838269 0.175602 0.180760
0.873106 0.182896 0.188944
0.908347 0.190251 0.197203
0.938986 0.196679 0.204542
0.956613 0.200393 0.209215
0.965196 0.202200 0.211996
0.966715 0.202516 0.213294
0.966555 0.202489 0.214185
0.966473 0.202479 0.215008
0.966444 0.202479 0.215744
0.966445 0.202484 0.216392
0.966445 0.202489 0.216958
0.966445 0.202493 0.217429
0.099708 0.289986 0.098420
0.099124 0.289986 0.098420
0.098473 0.289986 0.098420
0.097714 0.289790 0.098360
0.096835 0.287186 0.097503
0.095548 0.283922 0.096393
0.112101 0.279967 0.095529
0.181873 0.275662 0.097098
0.257051 0.270722 0.100579
0.324726 0.264821 0.105294
0.387199 0.257771 0.110744
0.444417 0.249613 0.116460
0.497164 0.240393 0.122158
0.546837 0.229149 0.127769
0.593847 0.215329 0.133638
0.638568 0.199064 0.139811
0.682039 0.179952 0.146074
0.723726 0.166916 0.153306
0.763989 0.162004 0.161570
0.801908 0.165764 0.170787
0.837994 0.173604 0.180054
0.873134 0.182420 0.188947
0.908460 0.190424 0.197379
0.939044 0.196694 0.204556
0.956650 0.200400 0.209218
0.965212 0.202204 0.212002
0.966718 0.202517 0.213295
0.966555 0.202489 0.214185
0.966472 0.202479 0.215007
0.966444 0.202479 0.215746
0.966445 0.202484 0.216392
0.966445 0.202489 0.216959
0.966445 0.202493 0.217430
0.119402 0.349482 0.118302
0.118932 0.349482 0.118302
0.118407 0.349482 0.118302
0.117793 0.349323 0.118250
0.117061 0.347156 0.117555
0.116161 0.344477 0.116606
0.115241 0.341206 0.115504
0.156660 0.337437 0.115594
0.237669 0.333339 0.117994
0.312501 0.328548 0.121730
0.377604 0.322810 0.126112
0.436716 0.315946 0.130749
0.490941 0.307710 0.135429
0.541532 0.297994 0.139932
0.589216 0.286068 0.144542
0.634546 0.271525 0.149298
0.678633 0.253912 0.154065
0.720715 0.230901 0.158752
0.761216 0.206355 0.163758
0.799589 0.188915 0.170075
0.836333 0.179824 0.177823
0.872306 0.179677 0.187119
0.908295 0.186980 0.196606
0.939263 0.196690 0.204817
0.956804 0.200672 0.209443
0.965220 0.202187 0.211986
0.966716 0.202516 0.213288
0.966554 0.202489 0.214187
0.966472 0.202479 0.215008
0.966444 0.202479 0.215746
0.966445 0.202484 0.216392
0.966445 0.202489 0.216959
0.966445 0.202493 0.217430
0.137943 0.405604 0.137149
0.137587 0.405604 0.137149
0.137188 0.405604 0.137149
0.136721 0.405482 0.137110
0.136134 0.403742 0.136567
0.135412 0.401607 0.135789
0.134294 0.399006 0.134895
0.145533 0.395830 0.134142
0.213125 0.392393 0.135339
0.296009 0.388608 0.138389
0.365601 0.384116 0.142103
0.426912 0.378755 0.146117
0.482771 0.372315 0.150254
0.534563 0.364472 0.154157
0.583171 0.355019 0.157960
0.629098 0.343492 0.161752
0.673783 0.329002 0.165743
0.716494 0.311216 0.169482
0.757460 0.289282 0.172911
0.796103 0.258428 0.175812
0.833327 0.228221 0.179785
0.869887 0.205042 0.185809
0.906808 0.193497 0.194244
0.938716 0.191505 0.203028
0.956702 0.196993 0.208880
0.965282 0.202553 0.212327
0.966749 0.202699 0.213425
0.966549 0.202478 0.214167
0.966472 0.202479 0.215007
0.966444 0.202479 0.215747
0.966445 0.202484 0.216393
0.966445 0.202489 0.216959
0.966445 0.202493 0.217430
0.155339 0.457809 0.154698
0.155044 0.457809 0.154698
0.154714 0.457809 0.154698
0.154327 0.457708 0.154664
0.153861 0.456325 0.154259
0.153291 0.454631 0.153679
0.152684 0.452552 0.152981
0.152868 0.449974 0.152119
0.192661 0.447059 0.152196
0.274346 0.444019 0.154449
0.351340 0.440547 0.157783
0.415367 0.436404 0.161357
0.473083 0.431446 0.165068
0.526142 0.425478 0.168734
0.575879 0.418165 0.172150
0.622635 0.409228 0.175396
0.667697 0.398232 0.178974
0.710982 0.384692 0.182345
0.752477 0.367753 0.185284
0.791466 0.346795 0.187651
0.829254 0.318211 0.189449
0.866182 0.280755 0.190939
0.903604 0.239968 0.194848
0.936280 0.206659 0.200481
0.955721 0.198578 0.206707
0.965354 0.199379 0.211487
0.966823 0.201042 0.213311
0.966542 0.202374 0.214319
0.966472 0.202472 0.215031
0.966444 0.202506 0.215739
0.966445 0.202483 0.216394
0.966445 0.202489 0.216959
0.966445 0.202493 0.217431
0.171575 0.506551 0.171088
0.171343 0.506551 0.171088
0.171083 0.506551 0.171088
0.170779 0.506473 0.171050
0.170404 0.505361 0.170753
0.169947 0.504005 0.170318
0.169386 0.502304 0.169727
0.167580 0.500222 0.169014
0.182778 0.497739 0.168479
0.249244 0.495162 0.169778
0.334162 0.492410 0.172686
0.402195 0.489160 0.175947
0.462038 0.485307 0.179382
0.516607 0.480660 0.182827
0.567413 0.475051 0.186134
0.615299 0.468215 0.189298
0.660812 0.459818 0.192471
0.704570 0.449524 0.195573
0.746470 0.436793 0.198446
0.785889 0.421155 0.200780
0.824058 0.401050 0.202614
0.861191 0.374920 0.203954
0.898849 0.340345 0.204712
0.932240 0.296691 0.205133
0.953910 0.234649 0.205142
0.965291 0.193806 0.206958
0.966898 0.197573 0.212036
0.966558 0.202995 0.214803
0.966478 0.202758 0.215084
0.966445 0.202641 0.215716
0.966445 0.202478 0.216396
0.966445 0.202475 0.216959
0.966445 0.202494 0.217430
0.186970 0.552604 0.186654
0.186779 0.552604 0.186654
0.186564 0.552604 0.186654
0.186312 0.552539 0.186629
0.186002 0.551619 0.186314
0.185621 0.550488 0.185991
0.185152 0.549102 0.185502
0.183833 0.547398 0.184864
0.186079 0.545307 0.184261
0.228602 0.543054 0.184683
0.309649 0.540761 0.186909
0.387925 0.538210 0.190015
0.450094 0.535132 0.193156
0.506461 0.531455 0.196414
0.558582 0.527045 0.199631
0.607100 0.521760 0.202698
0.653707 0.515242 0.205633
0.698200 0.507293 0.208611
0.740213 0.497618 0.211494
0.780002 0.485671 0.213860
0.818407 0.470873 0.215813
0.855957 0.452098 0.217358
0.893535 0.426995 0.218118
0.927143 0.393263 0.217797
0.952331 0.343249 0.215583
0.966227 0.285640 0.212398
0.967247 0.225342 0.208765
0.966419 0.197454 0.209989
0.966421 0.197484 0.214883
0.966426 0.199837 0.216333
0.966449 0.202863 0.216374
0.966449 0.202848 0.216939
0.966445 0.202456 0.217434
0.201671 0.596465 0.201473
0.201504 0.596465 0.201473
0.201316 0.596465 0.201473
0.201095 0.596408 0.201440
0.200840 0.595651 0.201150
0.200517 0.594693 0.200872
0.200129 0.593543 0.200409
0.199529 0.592152 0.199943
0.197125 0.590386 0.199385
0.218264 0.588404 0.199201
0.285339 0.586416 0.200687
0.370888 0.584364 0.203574
0.436459 0.581891 0.206492
0.495033 0.578942 0.209521
0.548487 0.575433 0.212595
0.598161 0.571253 0.215623
0.645635 0.566187 0.218535
0.690889 0.559999 0.221415
0.733425 0.552450 0.224180
0.773539 0.543174 0.226606
0.812035 0.531877 0.228724
0.849903 0.517900 0.230516
0.887341 0.500472 0.231898
0.921511 0.477600 0.232198
0.950797 0.448117 0.230540
0.967820 0.399212 0.225692
0.968836 0.321544 0.216842
0.967302 0.259518 0.211953
0.966588 0.221018 0.211614
0.966342 0.201484 0.213789
0.966365 0.195617 0.216489
0.966408 0.198798 0.217153
0.966451 0.202999 0.217415
0.215779 0.638448 0.215650
0.215626 0.638448 0.215650
0.215454 0.638448 0.215650
0.215254 0.638397 0.215596
0.215047 0.637784 0.215385
0.214777 0.636982 0.215115
0.214447 0.636006 0.214653
0.214061 0.634870 0.214384
0.212015 0.633376 0.213852
0.218821 0.631653 0.213383
0.266285 0.629884 0.214176
0.349984 0.628166 0.216607
0.421185 0.626200 0.219419
0.482396 0.623818 0.222215
0.537481 0.620995 0.225123
0.588530 0.617652 0.228122
0.636737 0.613672 0.231127
0.682832 0.608794 0.233927
0.726177 0.602808 0.236491
0.766533 0.595549 0.238961
0.805385 0.586680 0.241225
0.843552 0.575828 0.243180
0.880772 0.562566 0.244788
0.915601 0.545720 0.245657
0.948236 0.524499 0.245702
0.968426 0.495980 0.242819
0.970949 0.457726 0.235659
0.969381 0.385574 0.223991
0.967567 0.293418 0.211914
0.966721 0.234690 0.211965
0.966452 0.203225 0.216431
0.966402 0.198791 0.217143
0.966441 0.202245 0.217400
0.229327 0.679088 0.229361
0.229206 0.679088 0.229361
0.229072 0.679088 0.229361
0.228914 0.679047 0.229334
0.228733 0.678515 0.229102
0.228514 0.677870 0.228902
0.228235 0.677047 0.228585
0.227909 0.676049 0.228205
0.226792 0.674801 0.227762
0.226719 0.673305 0.227275
0.254061 0.671687 0.227422
0.322362 0.670131 0.228983
0.404000 0.668559 0.231833
0.469143 0.666627 0.234568
0.526017 0.664311 0.237375
0.578162 0.661583 0.240253
0.627553 0.658323 0.243204
0.674462 0.654420 0.246004
0.718347 0.649743 0.248593
0.759422 0.643969 0.251034
0.798704 0.636946 0.253319
0.837213 0.628383 0.255427
0.874480 0.617966 0.257218
0.909287 0.605236 0.258426
0.942664 0.589419 0.259074
0.965009 0.568956 0.257422
0.971400 0.541844 0.252185
0.972079 0.496797 0.243523
0.970384 0.434629 0.232703
0.968625 0.354761 0.221374
0.967144 0.275766 0.213405
0.966467 0.215905 0.214614
0.966257 0.187825 0.217303
0.242222 0.717437 0.242343
0.242126 0.717437 0.242343
0.242019 0.717437 0.242343
0.241893 0.717404 0.242334
0.241745 0.716968 0.242117
0.241566 0.716445 0.241959
0.241341 0.715782 0.241764
0.241057 0.714944 0.241429
0.240623 0.713930 0.241107
0.238293 0.712676 0.240639
0.250662 0.711265 0.240387
0.299846 0.709895 0.241229
0.384495 0.708661 0.243826
0.453681 0.707177 0.246478
0.513396 0.705394 0.249203
0.567081 0.703269 0.251985
0.617553 0.700737 0.254875
0.665106 0.697763 0.257712
0.709842 0.694206 0.260394
0.751624 0.689727 0.262813
0.791306 0.684216 0.265094
0.830217 0.677403 0.267313
0.867657 0.668999 0.269263
0.902700 0.658832 0.270724
0.935857 0.646553 0.271690
0.959927 0.630867 0.270972
0.971106 0.610395 0.267658
0.974614 0.585759 0.262235
0.973399 0.550521 0.254295
0.971527 0.482776 0.240055
0.969471 0.398716 0.226176
0.967852 0.306221 0.219887
0.966754 0.234726 0.217205
0.254407 0.753698 0.254536
0.254325 0.753698 0.254536
0.254233 0.753698 0.254536
0.254125 0.753669 0.254526
0.254015 0.753342 0.254370
0.253867 0.752902 0.254224
0.253690 0.752378 0.254086
0.253465 0.751707 0.253951
0.253186 0.750885 0.253745
0.251455 0.749845 0.253301
0.255145 0.748648 0.252911
0.286323 0.747464 0.253297
0.363870 0.746458 0.255323
0.436261 0.745351 0.257833
0.499986 0.744037 0.260507
0.555548 0.742447 0.263226
0.607074 0.740550 0.266062
0.655362 0.738332 0.268920
0.701026 0.735630 0.271678
0.743277 0.732142 0.274092
0.783484 0.727761 0.276394
0.822809 0.722349 0.278683
0.860540 0.715812 0.280774
0.896015 0.707826 0.282456
0.928533 0.698141 0.283610
0.954168 0.686070 0.283562
0.970314 0.670804 0.281773
0.976692 0.651250 0.277869
0.976165 0.625117 0.271692
0.974960 0.591714 0.263726
0.973073 0.540401 0.252620
0.970673 0.456799 0.235118
0.968422 0.351170 0.221901
0.265750 0.787487 0.265902
0.265682 0.787487 0.265902
0.265606 0.787487 0.265902
0.265517 0.787465 0.265897
0.265428 0.787197 0.265788
0.265301 0.786820 0.265678
0.265145 0.786355 0.265557
0.264947 0.785767 0.265427
0.264727 0.785065 0.265256
0.263684 0.784194 0.264952
0.263684 0.783145 0.264570
0.282073 0.782044 0.264597
0.343816 0.781093 0.265951
0.418717 0.780216 0.268380
0.487327 0.779206 0.271060
0.544237 0.777966 0.273663
0.597386 0.776430 0.276346
0.646664 0.774628 0.279101
0.692719 0.772482 0.281832
0.735627 0.769778 0.284345
0.776233 0.766430 0.286722
0.815888 0.762276 0.289035
0.854061 0.757223 0.291281
0.889460 0.751179 0.293227
0.921599 0.743763 0.294638
0.948592 0.734711 0.295231
0.969556 0.723451 0.294741
0.978673 0.709171 0.292239
0.978978 0.690601 0.287656
0.978108 0.668188 0.281785
0.976354 0.633768 0.273306
0.974353 0.578183 0.259628
0.972024 0.497237 0.244852
0.276697 0.820150 0.276882
0.276642 0.820150 0.276882
0.276580 0.820150 0.276882
0.276508 0.820131 0.276879
0.276428 0.819890 0.276801
0.276318 0.819561 0.276723
0.276175 0.819132 0.276606
0.276002 0.818616 0.276457
0.275791 0.817990 0.276292
0.275320 0.817240 0.276090
0.273916 0.816318 0.275766
0.283543 0.815300 0.275606
0.327063 0.814363 0.276351
0.400752 0.813616 0.278539
0.472863 0.812809 0.281166
0.532436 0.811813 0.283748
0.586955 0.810555 0.286282
0.637209 0.809063 0.288922
0.684098 0.807306 0.291615
0.727362 0.805222 0.294161
0.768648 0.802677 0.296616
0.808626 0.799530 0.298997
0.847133 0.795645 0.301317
0.882852 0.790914 0.303391
0.914611 0.785206 0.304996
0.942732 0.778353 0.306062
0.967195 0.770074 0.306463
0.979105 0.759639 0.305066
0.981171 0.745938 0.301779
0.980987 0.727414 0.297152
0.979438 0.703747 0.291005
0.978087 0.675540 0.283655
0.976104 0.627839 0.271351
0.287505 0.852158 0.287731
0.287458 0.852158 0.287731
0.287406 0.852158 0.287731
0.287344 0.852142 0.287722
0.287266 0.851909 0.287651
0.287170 0.851624 0.287591
0.287043 0.851246 0.287485
0.286902 0.850831 0.287370
0.286712 0.850264 0.287208
0.286457 0.849599 0.286992
0.284795 0.848827 0.286720
0.288798 0.847981 0.286565
0.315964 0.847125 0.286886
0.383589 0.846449 0.288608
0.456435 0.845799 0.291053
0.519821 0.845056 0.293707
0.575873 0.844101 0.296196
0.627148 0.842964 0.298782
0.674867 0.841612 0.301430
0.718810 0.839969 0.303905
0.760685 0.837948 0.306376
0.801071 0.835447 0.308913
0.840042 0.832324 0.311195
0.876121 0.828495 0.313162
0.907882 0.823794 0.314842
0.936419 0.818118 0.316125
0.962288 0.811333 0.316903
0.977093 0.802928 0.316213
0.982359 0.792317 0.313977
0.983470 0.778998 0.310601
0.982295 0.762275 0.306085
0.981294 0.741398 0.300635
0.979775 0.711817 0.292603
0.297902 0.883105 0.298168
0.297863 0.883105 0.298168
0.297820 0.883105 0.298168
0.297770 0.883091 0.298160
0.297701 0.882888 0.298101
0.297613 0.882627 0.298048
0.297507 0.882312 0.297961
0.297384 0.881950 0.297867
0.297218 0.881457 0.297728
0.297051 0.880901 0.297539
0.295860 0.880269 0.297322
0.296867 0.879556 0.297154
0.310712 0.878772 0.297191
0.367183 0.878173 0.298501
0.438080 0.877662 0.300649
0.506659 0.877133 0.303207
0.564484 0.876445 0.305764
0.616843 0.875621 0.308348
0.665244 0.874629 0.310913
0.710100 0.873401 0.313433
0.752430 0.871836 0.315924
0.793230 0.869815 0.318421
0.832695 0.867295 0.320735
0.869033 0.864214 0.322772
0.901073 0.860377 0.324483
0.929645 0.855806 0.325847
0.955587 0.850341 0.326834
0.973378 0.843626 0.326758
0.983191 0.835370 0.325498
0.985928 0.825149 0.323042
0.985075 0.812447 0.319594
0.984284 0.796731 0.315323
0.983012 0.776484 0.309855
0.307594 0.911948 0.307904
0.307565 0.911948 0.307904
0.307532 0.911948 0.307904
0.307492 0.911937 0.307901
0.307439 0.911776 0.307857
0.307357 0.911534 0.307809
0.307272 0.911283 0.307745
0.307159 0.910946 0.307664
0.307021 0.910536 0.307557
0.306872 0.910093 0.307419
0.306376 0.909583 0.307254
0.306032 0.908976 0.307058
0.310585 0.908277 0.306937
0.353554 0.907764 0.307893
0.420284 0.907386 0.309719
0.493642 0.907043 0.312114
0.552956 0.906593 0.314709
0.606443 0.906047 0.317292
0.655769 0.905372 0.319812
0.701092 0.904545 0.322389
0.744096 0.903402 0.324904
0.785346 0.901829 0.327286
0.825090 0.899917 0.329681
0.861906 0.897559 0.331911
0.894115 0.894598 0.333659
0.922736 0.890980 0.335068
0.948058 0.886618 0.336171
0.968511 0.881326 0.336634
0.983121 0.874830 0.336229
0.987820 0.866843 0.334520
0.987641 0.856849 0.331788
0.987100 0.844461 0.328365
0.985925 0.828721 0.324003
0.316167 0.937395 0.316507
0.316140 0.937395 0.316507
0.316109 0.937395 0.316507
0.316073 0.937385 0.316505
0.316031 0.937261 0.316474
0.315966 0.937070 0.316445
0.315892 0.936848 0.316403
0.315789 0.936542 0.316338
0.315672 0.936194 0.316238
0.315541 0.935809 0.316117
0.315326 0.935371 0.315997
0.314434 0.934870 0.315824
0.314769 0.934292 0.315637
0.348362 0.933841 0.316321
0.409227 0.933566 0.317995
0.481711 0.933386 0.320328
0.542729 0.933095 0.322645
0.597565 0.932736 0.325146
0.647228 0.932288 0.327755
0.693338 0.931692 0.330273
0.736641 0.930873 0.332746
0.778443 0.929759 0.335236
0.818449 0.928419 0.337715
0.855273 0.926786 0.340013
0.887874 0.924696 0.341930
0.916458 0.922081 0.343479
0.941562 0.918791 0.344665
0.963560 0.914812 0.345502
0.981134 0.910000 0.345774
0.988272 0.903978 0.344785
0.989825 0.896609 0.342894
0.989804 0.887588 0.340395
0.988778 0.876077 0.337130
0.323819 0.960166 0.324245
0.323794 0.960166 0.324245
0.323765 0.960166 0.324245
0.323732 0.960158 0.324247
0.323698 0.960058 0.324220
0.323651 0.959916 0.324202
0.323585 0.959724 0.324174
0.323498 0.959467 0.324121
0.323403 0.959184 0.324033
0.323293 0.958860 0.323931
0.323178 0.958496 0.323847
0.322207 0.958095 0.323712
0.321454 0.957649 0.323542
0.347312 0.957258 0.324018
0.401533 0.957043 0.325534
0.471279 0.956952 0.327787
0.533328 0.956780 0.329907
0.589421 0.956553 0.332284
0.639632 0.956249 0.334863
0.686097 0.955826 0.337310
0.729788 0.955271 0.339799
0.772057 0.954569 0.342372
0.812104 0.953729 0.344915
0.849204 0.952686 0.347294
0.881905 0.951360 0.349368
0.910672 0.949607 0.351076
0.935652 0.947296 0.352354
0.958352 0.944446 0.353434
0.977407 0.940937 0.354129
0.987333 0.936533 0.353793
0.991385 0.931160 0.352663
0.992168 0.924830 0.350966
0.991421 0.916526 0.348578
0.330564 0.980804 0.331107
0.330542 0.980804 0.331107
0.330517 0.980804 0.331107
0.330488 0.980796 0.331105
0.330457 0.980697 0.331085
0.330419 0.980579 0.331056
0.330368 0.980422 0.331027
0.330305 0.980227 0.330974
0.330235 0.980008 0.330919
0.330156 0.979766 0.330855
0.330052 0.979487 0.330793
0.329362 0.979174 0.330703
0.329154 0.978845 0.330616
0.349442 0.978510 0.330988
0.397142 0.978291 0.332257
0.462835 0.978191 0.334293
0.525769 0.978124 0.336592
0.582877 0.977986 0.338849
0.633260 0.977759 0.341064
0.680179 0.977479 0.343571
0.723997 0.977152 0.346156
0.766555 0.976772 0.348687
0.806720 0.976272 0.351280
0.843834 0.975613 0.353757
0.876758 0.974756 0.355931
