滤镜资源/Professional Luts Collection/Lutify.me Professional/Utility LUTs/Log Conversions/Canon C-Log.cube
# Created by: Lutify.me
# Copyright: (c) Copyright Lutify.me 2015
# Website: https://lutify.me
LUT_3D_SIZE 5
-0.060082 -0.061621 -0.049384
0.285050 0.058976 0.059457
0.685492 0.143481 0.145655
0.956495 0.200360 0.209179
0.966445 0.202493 0.217428
0.099708 0.289986 0.098420
0.257051 0.270722 0.100579
0.682039 0.179952 0.146074
0.956650 0.200400 0.209218
0.966445 0.202493 0.217430
0.229327 0.679088 0.229361
0.226792 0.674801 0.227762
0.627553 0.658323 0.243204
0.942664 0.589419 0.259074
0.966257 0.187825 0.217303
0.316167 0.937395 0.316507
0.315672 0.936194 0.316238
0.542729 0.933095 0.322645
0.887874 0.924696 0.341930
0.988778 0.876077 0.337130
0.334149 0.988128 0.415399
0.334127 0.988123 0.413340
0.522365 0.989475 0.407202
0.851730 0.993992 0.359206
0.994847 0.996935 0.371167
0.033645 0.033116 0.249362
0.278116 0.063298 0.247189
0.684001 0.144404 0.250215
0.956398 0.200447 0.222575
0.966445 0.202493 0.217428
0.094703 0.266491 0.249755
0.245043 0.245700 0.246389
0.678590 0.163736 0.245610
0.955518 0.200272 0.221972
0.966445 0.202493 0.217429
0.226769 0.670518 0.267191
0.224521 0.666432 0.262928
0.623314 0.651166 0.261354
0.926960 0.604591 0.259224
0.966256 0.187753 0.217279
0.314089 0.930411 0.343566
0.313545 0.929256 0.340753
0.536353 0.926192 0.333298
0.885337 0.919992 0.339142
0.988789 0.876263 0.337201
0.335005 0.988314 0.505834
0.334983 0.988310 0.504508
0.518045 0.989619 0.500708
0.849736 0.994165 0.481508
0.994253 0.996926 0.371566
0.080973 0.080909 0.607221
0.226782 0.089241 0.606949
0.671363 0.154383 0.610149
0.953088 0.207730 0.601076
0.967000 0.207317 0.495555
0.081090 0.090119 0.603705
0.156146 0.085137 0.603446
0.665843 0.153268 0.609136
0.953259 0.207844 0.602574
0.967008 0.207409 0.498163
0.219282 0.627651 0.604601
0.217359 0.622959 0.603703
0.604814 0.604977 0.605321
0.930021 0.536112 0.592864
0.966879 0.197998 0.490411
0.309731 0.906034 0.618882
0.309174 0.904714 0.618132
0.513079 0.900802 0.617065
0.873870 0.892710 0.610009
0.988590 0.864732 0.506230
0.337894 0.988959 0.672078
0.337888 0.988958 0.671667
0.502724 0.990135 0.671171
0.842665 0.994764 0.667115
0.989896 0.997578 0.612905
0.114853 0.114804 0.861731
0.131502 0.115583 0.861986
0.651350 0.167808 0.866860
0.947829 0.218610 0.871188
0.968745 0.221682 0.856605
0.114412 0.114202 0.858454
0.114009 0.114222 0.858783
0.640711 0.166067 0.864665
0.948136 0.218696 0.871515
0.968747 0.221698 0.856907
0.208653 0.559181 0.854280
0.206539 0.553394 0.854292
0.571699 0.530082 0.857277
0.911889 0.427265 0.862130
0.968782 0.223298 0.858884
0.302725 0.865925 0.854919
0.302120 0.864413 0.854953
0.469557 0.859282 0.856276
0.857410 0.848879 0.860778
0.986442 0.800295 0.846743
0.342290 0.988654 0.864875
0.342190 0.988420 0.864947
0.472722 0.988237 0.866082
0.829941 0.989244 0.869949
0.978486 0.988954 0.863088
0.127985 0.127816 0.960072
0.124300 0.127655 0.960054
0.630632 0.173466 0.963373
0.942487 0.223221 0.968940
0.969571 0.228051 0.969700
0.128011 0.127158 0.960133
0.127096 0.127500 0.960115
0.609671 0.169711 0.963125
0.939847 0.222771 0.968846
0.969571 0.228051 0.969697
0.212668 0.551620 0.963111
0.210801 0.546221 0.963262
0.545810 0.524371 0.965990
0.896091 0.431007 0.971077
0.969593 0.229502 0.969654
0.299804 0.844859 0.961938
0.299152 0.843186 0.962106
0.445997 0.837600 0.963710
0.845630 0.827860 0.970011
0.985620 0.774363 0.973189
0.340231 0.973274 0.961469
0.339861 0.972388 0.961647
0.452171 0.970222 0.962991
0.820472 0.969570 0.968635
0.969752 0.966196 0.971543
