滤镜资源/Professional Luts Collection/Lutify.me Professional/Utility LUTs/Log Conversions/Cineon.cube
# Created by: Lutify.me
# Copyright: (c) Copyright Lutify.me 2015
# Website: https://lutify.me
LUT_3D_SIZE 5
0.025244 0.025212 0.025292
0.148258 0.032699 0.036927
0.533806 0.111785 0.113085
0.950128 0.199018 0.207416
0.966447 0.202503 0.218532
0.049909 0.148041 0.050458
0.130719 0.138652 0.051578
0.532614 0.111797 0.112373
0.950196 0.199032 0.207434
0.966447 0.202503 0.218532
0.179219 0.531541 0.179199
0.178330 0.528901 0.178309
0.486985 0.511017 0.188555
0.944047 0.317220 0.210738
0.966447 0.202503 0.218533
0.312250 0.926015 0.312215
0.312116 0.925618 0.312082
0.329321 0.922470 0.311421
0.876909 0.912959 0.337445
0.981958 0.762596 0.303992
0.335344 0.988554 0.577165
0.335208 0.988552 0.576840
0.419538 0.989060 0.575390
0.838720 0.994235 0.564596
0.997046 0.996992 0.367151
0.020924 0.016884 0.126946
0.143988 0.032899 0.126467
0.533182 0.112010 0.149581
0.950134 0.199019 0.207337
0.966447 0.202503 0.218532
0.046884 0.134767 0.126390
0.124188 0.124690 0.124926
0.529982 0.110721 0.146785
0.950203 0.199032 0.207328
0.966447 0.202503 0.218532
0.178219 0.528583 0.177687
0.177356 0.526023 0.176769
0.483735 0.508959 0.187336
0.944658 0.316980 0.210766
0.966447 0.202503 0.218533
0.311402 0.923511 0.311124
0.311284 0.923160 0.311002
0.327051 0.920158 0.310415
0.876325 0.911637 0.337012
0.981967 0.762769 0.304036
0.335628 0.988606 0.590716
0.335473 0.988604 0.590399
0.417943 0.989099 0.589001
0.838150 0.994275 0.578905
0.997075 0.997009 0.375391
0.062852 0.062772 0.471455
0.077247 0.063083 0.470815
0.522381 0.120089 0.472471
0.947528 0.202238 0.448667
0.966448 0.202508 0.218969
0.062745 0.062678 0.470617
0.065228 0.062621 0.470040
0.520539 0.119756 0.472513
0.947579 0.202275 0.449804
0.966448 0.202508 0.218978
0.171192 0.491158 0.470312
0.170275 0.488353 0.469594
0.468426 0.468878 0.469235
0.938979 0.269131 0.440536
0.966448 0.202508 0.218997
0.308106 0.907493 0.500531
0.307957 0.907069 0.500007
0.313865 0.903779 0.496362
0.868648 0.894927 0.477814
0.982304 0.769143 0.305868
0.337385 0.988918 0.664682
0.337141 0.988916 0.664516
0.406939 0.989330 0.663902
0.834735 0.994532 0.659676
0.997410 0.997283 0.483003
0.113441 0.113297 0.850967
0.113445 0.113302 0.851005
0.482656 0.142653 0.853690
0.936213 0.215919 0.860234
0.968509 0.219818 0.820240
0.113312 0.113167 0.850000
0.113319 0.113175 0.850054
0.476841 0.141835 0.852881
0.936286 0.215938 0.860349
0.968510 0.219824 0.820377
0.151621 0.352399 0.844117
0.150255 0.346638 0.844097
0.402520 0.295612 0.845187
0.923420 0.205632 0.855765
0.968516 0.219876 0.821423
0.299026 0.855670 0.844645
0.298857 0.855142 0.844628
0.298049 0.851085 0.844685
0.846762 0.838340 0.850111
0.979670 0.673022 0.811044
0.342809 0.990054 0.869118
0.342617 0.990054 0.869139
0.366382 0.990192 0.869368
0.821841 0.995511 0.874129
0.995367 0.998946 0.852880
0.126946 0.120493 0.960037
0.126966 0.120423 0.960039
0.407775 0.140166 0.961193
0.923439 0.219889 0.968532
0.969570 0.228044 0.969579
0.127967 0.133796 0.960093
0.127796 0.132024 0.960083
0.394938 0.138803 0.961083
0.919411 0.219201 0.968445
0.969570 0.228044 0.969579
0.183934 0.444495 0.964505
0.183172 0.441464 0.964431
0.309868 0.418756 0.964339
0.891852 0.259709 0.968324
0.969570 0.228044 0.969579
0.297660 0.836581 0.977102
0.297484 0.836008 0.977161
0.293047 0.831820 0.977586
0.831014 0.819313 0.984080
0.980256 0.661473 0.980337
0.345127 0.987694 0.976348
0.344708 0.987490 0.976396
0.372905 0.986332 0.976873
0.813328 0.986281 0.983136
0.986245 0.984706 0.986981
