滤镜资源/Professional Luts Collection/Lutify.me Professional/Utility LUTs/Log Conversions/Cineon.cube
# Created by: Lutify.me
# Copyright: (c) Copyright Lutify.me 2015
# Website: https://lutify.me
LUT_3D_SIZE 9
0.025244 0.025212 0.025292
0.058054 0.024061 0.026326
0.148258 0.032699 0.036927
0.308187 0.064569 0.066969
0.533806 0.111785 0.113085
0.757334 0.158598 0.161925
0.950128 0.199018 0.207416
0.966445 0.202482 0.216135
0.966447 0.202503 0.218532
0.023679 0.056949 0.027872
0.051267 0.054050 0.028026
0.145124 0.050094 0.036989
0.307219 0.064826 0.066436
0.534083 0.111844 0.113218
0.757460 0.158624 0.161955
0.950162 0.199024 0.207426
0.966445 0.202482 0.216136
0.966447 0.202503 0.218532
0.049909 0.148041 0.050458
0.049366 0.145446 0.049585
0.130719 0.138652 0.051578
0.302419 0.122232 0.070653
0.532614 0.111797 0.112373
0.757593 0.158654 0.161995
0.950196 0.199032 0.207434
0.966445 0.202482 0.216135
0.966447 0.202503 0.218532
0.104919 0.311159 0.104907
0.104351 0.309474 0.104340
0.103669 0.304704 0.102737
0.277949 0.292683 0.107916
0.523161 0.260377 0.129817
0.754465 0.172774 0.159740
0.950304 0.199028 0.207435
0.966445 0.202482 0.216135
0.966447 0.202503 0.218532
0.179219 0.531541 0.179199
0.178983 0.530842 0.178963
0.178330 0.528901 0.178309
0.195246 0.523308 0.176825
0.486985 0.511017 0.188555
0.733977 0.474298 0.205333
0.944047 0.317220 0.210738
0.966440 0.201866 0.216262
0.966447 0.202503 0.218533
0.251286 0.745242 0.251257
0.251208 0.745010 0.251180
0.250975 0.744308 0.250947
0.250354 0.742105 0.250216
0.409357 0.737319 0.253755
0.693351 0.727254 0.268401
0.916563 0.692289 0.280761
0.973143 0.538880 0.252292
0.966492 0.205306 0.218730
0.312250 0.926015 0.312215
0.312218 0.925920 0.312183
0.312116 0.925618 0.312082
0.311805 0.924695 0.311770
0.329321 0.922470 0.311421
0.640158 0.920613 0.323207
0.876909 0.912959 0.337445
0.988890 0.883523 0.339220
0.981958 0.762596 0.303992
0.333352 0.987981 0.361393
0.333349 0.987981 0.361030
0.333340 0.987981 0.360053
0.333321 0.987981 0.357760
0.331930 0.987963 0.352111
0.605354 0.990232 0.349987
0.844892 0.993842 0.357465
0.980305 0.996723 0.370374
0.996941 0.996214 0.371657
0.335344 0.988554 0.577165
0.335223 0.988553 0.577077
0.335208 0.988552 0.576840
0.337829 0.988561 0.576198
0.419538 0.989060 0.575390
0.637992 0.991176 0.574471
0.838720 0.994235 0.564596
0.962046 0.996559 0.512720
0.997046 0.996992 0.367151
0.023389 0.020418 0.049710
0.056232 0.020087 0.049755
0.147455 0.031704 0.054439
0.307878 0.064588 0.075791
0.533685 0.111792 0.117086
0.757338 0.158599 0.161939
0.950130 0.199019 0.207416
0.966445 0.202482 0.216135
0.966447 0.202503 0.218532
0.021762 0.052174 0.049338
0.049100 0.049063 0.049056
0.143952 0.046097 0.053196
0.306259 0.064387 0.074617
0.534002 0.111860 0.117375
0.757464 0.158625 0.161970
0.950163 0.199024 0.207426
0.966445 0.202482 0.216136
0.966447 0.202503 0.218532
0.049237 0.145848 0.058071
0.048504 0.143253 0.057209
0.129018 0.136496 0.058638
0.294644 0.121985 0.074659
0.533778 0.111502 0.116240
0.757580 0.158651 0.162014
0.950197 0.199032 0.207434
0.966445 0.202482 0.216135
0.966447 0.202503 0.218532
0.104613 0.310255 0.104562
0.104054 0.308591 0.104003
0.103190 0.303836 0.102405
0.276284 0.292107 0.107593
0.524057 0.258957 0.129736
0.754452 0.173033 0.159730
0.950306 0.199029 0.207436
0.966445 0.202482 0.216135
0.966447 0.202503 0.218532
0.179006 0.530909 0.178986
0.178777 0.530227 0.178756
0.178127 0.528297 0.178107
0.194753 0.522787 0.176642
0.486711 0.510610 0.188414
0.733925 0.474194 0.205301
0.944039 0.317488 0.210766
0.966440 0.201860 0.216262
0.966447 0.202503 0.218533
0.251105 0.744698 0.251076
0.251016 0.744433 0.250989
0.250784 0.743736 0.250756
0.250181 0.741588 0.250044
0.408748 0.736798 0.253564
0.693185 0.726979 0.268307
0.916555 0.692346 0.280775
0.973147 0.539011 0.252318
0.966492 0.205308 0.218730
0.312012 0.925312 0.311968
0.311981 0.925219 0.311938
0.311882 0.924926 0.311841
0.311577 0.924020 0.311539
0.328797 0.921942 0.311235
0.639798 0.920093 0.323024
0.876776 0.912709 0.337361
0.988891 0.883540 0.339225
0.981960 0.762643 0.304004
0.333481 0.988023 0.374746
0.333479 0.988023 0.374498
0.333471 0.988022 0.373503
0.333443 0.988018 0.370557
0.331960 0.987994 0.363467
0.604961 0.990249 0.357676
0.844626 0.993829 0.357337
0.980201 0.996718 0.370395
0.996941 0.996216 0.371657
0.335422 0.988568 0.580916
0.335301 0.988568 0.580830
0.335281 0.988566 0.580596
0.337838 0.988575 0.579963
0.419090 0.989071 0.579166
0.637770 0.991187 0.578284
0.838559 0.994245 0.568541
0.961902 0.996572 0.518081
0.997054 0.996996 0.369350
0.020924 0.016884 0.126946
0.049138 0.018547 0.126410
0.143988 0.032899 0.126467
0.306582 0.065156 0.131662
0.533182 0.112010 0.149581
0.757161 0.158654 0.173045
0.950134 0.199019 0.207337
0.966445 0.202482 0.216135
0.966447 0.202503 0.218532
0.018657 0.030151 0.126478
0.040830 0.028057 0.125895
0.140413 0.034264 0.125912
0.305555 0.064922 0.131314
0.533439 0.112070 0.150252
0.757281 0.158682 0.173360
0.950168 0.199025 0.207341
0.966445 0.202482 0.216136
0.966447 0.202503 0.218532
0.046884 0.134767 0.126390
0.045624 0.131984 0.125653
0.124188 0.124690 0.124926
0.298722 0.108558 0.128271
0.529982 0.110721 0.146785
0.755262 0.158258 0.172638
0.950203 0.199032 0.207328
0.966445 0.202482 0.216135
0.966447 0.202503 0.218532
0.103441 0.306006 0.132461
0.102875 0.304330 0.131699
0.101326 0.299506 0.129805
0.274071 0.287673 0.132322
0.511072 0.261832 0.145141
0.742879 0.181964 0.166671
0.950600 0.199080 0.207391
0.966445 0.202482 0.216136
0.966447 0.202503 0.218532
0.178219 0.528583 0.177687
0.177991 0.527907 0.177442
0.177356 0.526023 0.176769
0.192837 0.520525 0.175318
0.483735 0.508959 0.187336
0.716143 0.484216 0.205272
0.944658 0.316980 0.210766
0.966440 0.201844 0.216262
0.966447 0.202503 0.218533
0.250511 0.742915 0.250466
0.250424 0.742655 0.250379
0.250195 0.741967 0.250150
0.249607 0.739868 0.249453
0.406899 0.735198 0.252970
0.692442 0.725670 0.267859
0.916454 0.692348 0.280764
0.973158 0.539361 0.252387
0.966492 0.205313 0.218731
0.311402 0.923511 0.311124
0.311373 0.923425 0.311094
0.311284 0.923160 0.311002
0.310979 0.922257 0.310697
0.327051 0.920158 0.310415
0.638683 0.918472 0.322447
0.876325 0.911637 0.337012
0.988896 0.883595 0.339240
0.981967 0.762769 0.304036
0.333711 0.988106 0.397066
0.333709 0.988105 0.396873
0.333704 0.988105 0.396340
0.333691 0.988104 0.394977
0.332090 0.988082 0.390982
0.604035 0.990314 0.386282
0.843951 0.993812 0.363245
0.979837 0.996691 0.370491
0.996941 0.996220 0.371658
0.335628 0.988606 0.590716
0.335507 0.988605 0.590630
0.335473 0.988604 0.590399
0.337868 0.988612 0.589781
0.417943 0.989099 0.589001
0.637198 0.991216 0.588207
0.838150 0.994275 0.578905
0.961530 0.996606 0.531079
0.997075 0.997009 0.375391
0.035986 0.035938 0.269914
0.037253 0.035896 0.269402
0.128724 0.042107 0.268571
0.300784 0.068946 0.268513
0.530742 0.113751 0.270169
0.755906 0.159531 0.266295
0.949860 0.199232 0.237438
0.966445 0.202483 0.216159
0.966447 0.202503 0.218532
0.035986 0.035932 0.269889
0.036042 0.035874 0.269406
0.124546 0.041647 0.268557
0.299632 0.068740 0.268591
0.530975 0.113813 0.270786
0.756023 0.159564 0.266880
0.949892 0.199243 0.237835
0.966445 0.202483 0.216156
0.966447 0.202503 0.218532
0.040461 0.070453 0.268921
0.039922 0.067603 0.268436
0.100488 0.061319 0.267441
0.293394 0.069589 0.267688
0.529345 0.113299 0.270963
0.756138 0.159613 0.268466
0.949920 0.199260 0.238987
0.966445 0.202482 0.216145
0.966447 0.202503 0.218532
0.099784 0.286641 0.270208
0.099189 0.284836 0.269691
0.096685 0.279672 0.268341
0.265595 0.266664 0.267371
0.517812 0.233475 0.266245
0.751187 0.159312 0.261184
0.948795 0.198972 0.235755
0.966445 0.202482 0.216151
0.966447 0.202503 0.218532
0.176173 0.519353 0.275964
0.175935 0.518656 0.275450
0.175289 0.516763 0.274117
0.186308 0.511190 0.270984
0.479560 0.499734 0.271776
0.721448 0.472140 0.258700
0.935988 0.337087 0.229423
0.966437 0.201488 0.216110
0.966447 0.202503 0.218533
0.248766 0.736505 0.295450
0.248681 0.736259 0.295045
0.248451 0.735592 0.294017
0.247832 0.733496 0.291460
0.399893 0.728999 0.288864
0.689161 0.720113 0.283617
0.901504 0.698384 0.279630
0.973280 0.539096 0.252351
0.966492 0.205327 0.218734
0.310087 0.918638 0.350642
0.310051 0.918535 0.350366
0.309948 0.918249 0.349658
0.309641 0.917376 0.347929
0.322249 0.915183 0.341662
0.635215 0.913462 0.334675
0.873628 0.907633 0.334796
0.988883 0.883654 0.339253
0.981982 0.763103 0.304120
0.334390 0.988336 0.455389
0.334388 0.988334 0.455242
0.334383 0.988335 0.454830
0.334370 0.988332 0.453768
0.332698 0.988302 0.450564
0.601572 0.990477 0.446475
0.842392 0.993887 0.423450
0.978517 0.996484 0.369224
0.996941 0.996231 0.371661
0.336129 0.988697 0.613661
0.336010 0.988696 0.613596
0.335935 0.988695 0.613419
0.337889 0.988701 0.612936
0.414687 0.989167 0.612435
0.635721 0.991291 0.612376
0.837162 0.994353 0.604882
0.960652 0.996696 0.563881
0.997115 0.997029 0.382629
0.062852 0.062772 0.471455
0.062828 0.062748 0.471279
0.077247 0.063083 0.470815
0.281126 0.080654 0.470964
0.522381 0.120089 0.472471
0.751030 0.163600 0.470623
0.947528 0.202238 0.448667
0.966582 0.203697 0.318065
0.966448 0.202508 0.218969
0.062841 0.062761 0.471373
0.062814 0.062735 0.471177
0.074200 0.062976 0.470757
0.279803 0.080475 0.470938
0.522513 0.120123 0.472668
0.751150 0.163632 0.470896
0.947561 0.202250 0.448941
0.966582 0.203704 0.318500
0.966448 0.202508 0.218972
0.062745 0.062678 0.470617
0.062724 0.062661 0.470472
0.065228 0.062621 0.470040
0.272190 0.079413 0.470295
0.520539 0.119756 0.472513
0.751267 0.163681 0.471642
0.947579 0.202275 0.449804
0.966585 0.203724 0.319948
0.966448 0.202508 0.218978
0.088161 0.209999 0.468564
0.087438 0.207037 0.468351
0.085127 0.198563 0.467813
0.232028 0.177046 0.467383
0.507423 0.141379 0.469396
0.747393 0.162762 0.470938
0.947669 0.202347 0.452041
0.966591 0.203777 0.323552
0.966448 0.202508 0.218997
0.171192 0.491158 0.470312
0.170951 0.490424 0.470099
0.170275 0.488353 0.469594
0.171458 0.482188 0.468355
0.468426 0.468878 0.469235
0.723613 0.432027 0.464561
0.938979 0.269131 0.440536
0.966570 0.203235 0.312777
0.966448 0.202508 0.218997
0.245798 0.720056 0.477135
0.245711 0.719804 0.476965
0.245465 0.719095 0.476462
0.244783 0.716899 0.475268
0.378767 0.711848 0.473891
0.681874 0.702462 0.472700
0.901111 0.678321 0.441367
0.973830 0.555065 0.308581
0.966508 0.205920 0.219414
0.308106 0.907493 0.500531
0.308071 0.907395 0.500385
0.307957 0.907069 0.500007
0.307625 0.906110 0.499022
0.313865 0.903779 0.496362
0.627482 0.901749 0.494687
0.868648 0.894927 0.477814
0.987054 0.880826 0.375341
0.982304 0.769143 0.305868
0.335903 0.988890 0.557023
0.335902 0.988890 0.556940
0.335898 0.988888 0.556708
0.335888 0.988883 0.556088
0.334398 0.988843 0.554197
0.595876 0.990841 0.553163
0.838897 0.994040 0.542624
0.974551 0.996116 0.482317
0.996937 0.996274 0.370260
0.337385 0.988918 0.664682
0.337284 0.988917 0.664638
0.337141 0.988916 0.664516
0.338042 0.988917 0.664173
0.406939 0.989330 0.663902
0.632112 0.991464 0.664480
0.834735 0.994532 0.659676
0.958434 0.996900 0.630928
0.997410 0.997283 0.483003
0.089418 0.089304 0.670798
0.089409 0.089296 0.670732
0.089032 0.089273 0.670632
0.238438 0.097158 0.670871
0.506605 0.130483 0.673120
0.741715 0.170749 0.675249
0.942724 0.208328 0.671560
0.967534 0.211869 0.637588
0.966946 0.206877 0.475505
0.089393 0.089280 0.670613
0.089386 0.089272 0.670554
0.089075 0.089253 0.670465
0.235913 0.096954 0.670760
0.506277 0.130429 0.673070
0.741841 0.170777 0.675347
0.942767 0.208339 0.671651
0.967534 0.211872 0.637686
0.966947 0.206879 0.475544
0.089299 0.089186 0.669902
0.089293 0.089179 0.669850
0.089187 0.089166 0.669769
0.223381 0.095953 0.670079
0.503551 0.129974 0.672664
0.741931 0.170806 0.675594
0.942787 0.208355 0.671932
0.967535 0.211885 0.638026
0.966949 0.206901 0.476499
0.088302 0.085455 0.666840
0.088322 0.085386 0.666870
0.088381 0.085458 0.666820
0.165363 0.088847 0.666978
0.488220 0.127210 0.669925
0.736953 0.169914 0.674311
0.942915 0.208410 0.672681
0.967539 0.211917 0.638901
0.966955 0.206955 0.478775
0.162180 0.435526 0.665779
0.161910 0.434607 0.665744
0.161154 0.432056 0.665555
0.157153 0.424527 0.665175
0.443003 0.407580 0.666559
0.711394 0.355085 0.668888
0.933944 0.219324 0.668479
0.967550 0.212099 0.641287
0.966971 0.207091 0.484249
0.240422 0.689245 0.667549
0.240329 0.688963 0.667467
0.240066 0.688161 0.667334
0.239299 0.685742 0.666982
0.344797 0.679854 0.666881
0.668714 0.668816 0.669225
0.899895 0.633558 0.663000
0.972189 0.467630 0.627738
0.966982 0.209163 0.476910
0.304366 0.886367 0.675295
0.304326 0.886249 0.675237
0.304203 0.885881 0.675094
0.303861 0.884851 0.674795
0.307584 0.882262 0.673921
0.612946 0.879610 0.675318
0.859365 0.871680 0.672371
0.984346 0.852725 0.633214
0.981926 0.753143 0.484289
0.338010 0.987601 0.700018
0.338002 0.987578 0.700002
0.337981 0.987518 0.699943
0.337920 0.987358 0.699738
0.336597 0.986945 0.699015
0.584243 0.988144 0.699877
0.831770 0.990174 0.697635
0.967700 0.989905 0.675442
0.997063 0.991900 0.565813
0.339770 0.989375 0.756108
0.339738 0.989374 0.756091
0.339562 0.989373 0.756042
0.338496 0.989366 0.755879
0.389036 0.989660 0.755793
0.624480 0.991821 0.757260
0.829631 0.994903 0.756267
0.953934 0.997307 0.741297
0.997799 0.997989 0.677228
0.113441 0.113297 0.850967
0.113440 0.113296 0.850963
0.113445 0.113302 0.851005
0.156705 0.114563 0.851249
0.482656 0.142653 0.853690
0.728918 0.179668 0.857379
0.936213 0.215919 0.860234
0.968712 0.221422 0.851590
0.968509 0.219818 0.820240
0.113407 0.113263 0.850719
0.113408 0.113264 0.850724
0.113418 0.113274 0.850796
0.151749 0.114332 0.851000
0.481531 0.142492 0.853493
0.729043 0.179690 0.857408
0.936269 0.215928 0.860263
0.968712 0.221423 0.851617
0.968509 0.219818 0.820241
0.113312 0.113167 0.850000
0.113315 0.113171 0.850025
0.113319 0.113175 0.850054
0.136294 0.113683 0.850333
0.476841 0.141835 0.852881
0.728318 0.179565 0.857330
0.936286 0.215938 0.860349
0.968712 0.221428 0.851709
0.968510 0.219824 0.820377
0.112974 0.112875 0.847415
0.112980 0.112889 0.847460
0.112988 0.112911 0.847510
0.117463 0.113008 0.847788
0.457651 0.139217 0.850404
0.721043 0.178229 0.855555
0.936547 0.216002 0.860635
0.968714 0.221441 0.851946
0.968512 0.219840 0.820694
0.151621 0.352399 0.844117
0.151265 0.350910 0.844097
0.150255 0.346638 0.844097
0.147152 0.333678 0.844024
0.402520 0.295612 0.845187
0.691504 0.220737 0.848958
0.923420 0.205632 0.855765
0.968721 0.221475 0.852611
0.968516 0.219876 0.821423
0.233220 0.644823 0.843792
0.233115 0.644480 0.843777
0.232839 0.643575 0.843745
0.231995 0.640784 0.843768
0.295890 0.633597 0.844130
0.648076 0.620758 0.847567
0.886722 0.578966 0.850856
0.971160 0.378716 0.844887
0.968535 0.220498 0.823392
0.299026 0.855670 0.844645
0.298984 0.855536 0.844646
0.298857 0.855142 0.844628
0.298495 0.853999 0.844666
0.298049 0.851085 0.844685
0.591525 0.847587 0.847227
0.846762 0.838340 0.850111
0.980841 0.808540 0.842648
0.979670 0.673022 0.811044
0.336765 0.972839 0.851040
0.336733 0.972741 0.851049
0.336654 0.972492 0.851064
0.336440 0.971818 0.851069
0.335111 0.970236 0.851050
0.564296 0.969034 0.852887
0.819626 0.968004 0.855541
0.957118 0.964892 0.851963
0.996090 0.958757 0.818942
0.342809 0.990054 0.869118
0.342791 0.990054 0.869125
0.342617 0.990054 0.869139
0.341139 0.990046 0.869154
0.366382 0.990192 0.869368
0.612876 0.992377 0.871749
0.821841 0.995511 0.874129
0.947115 0.997945 0.871192
0.995367 0.998946 0.852880
0.126868 0.126706 0.951750
0.126872 0.126711 0.951787
0.126893 0.126731 0.951941
0.129054 0.126791 0.952292
0.456507 0.149548 0.954725
0.718037 0.185374 0.959566
0.930844 0.220945 0.964820
0.969542 0.227732 0.964388
0.969494 0.227468 0.960009
0.126822 0.126662 0.951410
0.126827 0.126665 0.951439
0.126846 0.126685 0.951589
0.126622 0.126696 0.951924
0.453986 0.149235 0.954391
0.717138 0.185217 0.959343
0.930904 0.220954 0.964827
0.969542 0.227732 0.964392
0.969494 0.227469 0.960010
0.126700 0.126540 0.950490
0.126704 0.126543 0.950514
0.126725 0.126565 0.950677
0.124643 0.126557 0.951033
0.445537 0.148206 0.953423
0.713979 0.184669 0.958632
0.931004 0.220975 0.964864
0.969542 0.227733 0.964406
0.969495 0.227470 0.960026
0.126379 0.126177 0.948075
0.126382 0.126191 0.948097
0.126404 0.126238 0.948254
0.125326 0.126302 0.948582
0.421114 0.145329 0.950782
0.702374 0.182679 0.956073
0.929490 0.220680 0.964334
0.969542 0.227735 0.964442
0.969495 0.227472 0.960067
0.152497 0.313980 0.944558
0.152179 0.312301 0.944555
0.151307 0.307633 0.944562
0.148912 0.293506 0.944656
0.358001 0.254784 0.945799
0.673024 0.210333 0.950102
0.909483 0.211693 0.958008
0.969574 0.227749 0.964601
0.969496 0.227478 0.960162
0.231491 0.622659 0.943991
0.231389 0.622309 0.943989
0.231092 0.621293 0.944033
0.230222 0.618297 0.944181
0.270656 0.610454 0.944606
0.630721 0.596559 0.948077
0.874959 0.555931 0.952803
0.971388 0.352241 0.955013
0.969499 0.227731 0.960372
0.295843 0.834965 0.942785
0.295797 0.834814 0.942813
0.295668 0.834401 0.942841
0.295292 0.833188 0.942966
0.292413 0.830102 0.943266
0.574759 0.826090 0.946011
0.836371 0.817023 0.950595
0.976269 0.783288 0.953058
0.978881 0.629080 0.949666
0.333458 0.954164 0.942595
0.333428 0.954070 0.942608
0.333347 0.953813 0.942655
0.333131 0.953121 0.942785
0.332080 0.951577 0.943037
0.549272 0.950185 0.945226
0.810189 0.948629 0.949544
0.949364 0.944073 0.952033
0.994833 0.930954 0.948336
0.345064 0.990318 0.945224
0.345035 0.990313 0.945238
0.344838 0.990297 0.945274
0.343429 0.990246 0.945358
0.367272 0.990195 0.945771
0.604440 0.991731 0.948385
0.815540 0.992772 0.952114
0.941371 0.993001 0.954274
0.989261 0.992458 0.952697
0.126946 0.120493 0.960037
0.126950 0.120453 0.960038
0.126966 0.120423 0.960039
0.126952 0.120801 0.960046
0.407775 0.140166 0.961193
0.692971 0.180868 0.964304
0.923439 0.219889 0.968532
0.969592 0.228048 0.969580
0.969570 0.228044 0.969579
0.127011 0.122100 0.960040
0.127002 0.121903 0.960039
0.126985 0.121450 0.960039
0.127043 0.120754 0.960041
0.404968 0.139012 0.961163
0.691289 0.180086 0.964274
0.922414 0.219708 0.968509
0.969592 0.228048 0.969580
0.969570 0.228044 0.969579
0.127967 0.133796 0.960093
0.127919 0.133307 0.960090
0.127796 0.132024 0.960083
0.127878 0.128830 0.960068
0.394938 0.138803 0.961083
0.686898 0.177692 0.964192
0.919411 0.219201 0.968445
0.969594 0.228048 0.969580
0.969570 0.228044 0.969579
0.136951 0.204588 0.960684
0.136750 0.202928 0.960671
0.136222 0.198529 0.960636
0.135207 0.187343 0.960549
0.371530 0.174146 0.961227
0.675940 0.182281 0.964057
0.910949 0.217202 0.968257
0.969610 0.228051 0.969580
0.969570 0.228044 0.969579
0.183934 0.444495 0.964505
0.183736 0.443706 0.964486
0.183172 0.441464 0.964431
0.181553 0.434975 0.964273
0.309868 0.418756 0.964339
0.655113 0.383583 0.966441
0.891852 0.259709 0.968324
0.969670 0.227948 0.969581
0.969570 0.228044 0.969579
0.240987 0.650234 0.971307
0.240891 0.649913 0.971294
0.240637 0.649057 0.971260
0.239870 0.646470 0.971154
0.261385 0.639859 0.970970
0.620089 0.629029 0.973196
0.865735 0.594734 0.975567
0.973555 0.449650 0.973423
0.969593 0.229705 0.969602
0.297660 0.836581 0.977102
0.297615 0.836434 0.977117
0.297484 0.836008 0.977161
0.297108 0.834787 0.977304
0.293047 0.831820 0.977586
0.568852 0.827914 0.980101
0.831014 0.819313 0.984080
0.972386 0.790602 0.986001
0.980256 0.661473 0.980337
0.332545 0.947863 0.976169
0.332518 0.947776 0.976183
0.332434 0.947504 0.976245
0.332234 0.946855 0.976383
0.331185 0.945376 0.976622
0.548910 0.944134 0.978847
0.807039 0.942857 0.983210
0.945921 0.938056 0.986507
0.993823 0.923919 0.987682
0.345127 0.987694 0.976348
0.345045 0.987637 0.976362
0.344708 0.987490 0.976396
0.343013 0.987127 0.976480
0.372905 0.986332 0.976873
0.603797 0.986311 0.979364
0.813328 0.986281 0.983136
0.938585 0.985865 0.986079
0.986245 0.984706 0.986981
