滤镜资源/Professional Luts Collection/Lutify.me Professional/Utility LUTs/Log Conversions/Cineon.cube
# Created by: Lutify.me
# Copyright: (c) Copyright Lutify.me 2015
# Website: https://lutify.me
LUT_3D_SIZE 33
0.025244 0.025212 0.025292
0.030283 0.024859 0.025338
0.036958 0.024485 0.025469
0.045936 0.024163 0.025752
0.058054 0.024061 0.026326
0.073793 0.024443 0.027420
0.095822 0.025984 0.029630
0.120189 0.028674 0.032720
0.148258 0.032699 0.036927
0.179570 0.038121 0.042225
0.215652 0.045190 0.048819
0.258464 0.054122 0.057087
0.308187 0.064569 0.066969
0.362567 0.075951 0.078015
0.419285 0.087812 0.089572
0.476664 0.099823 0.101316
0.533806 0.111785 0.113085
0.590455 0.123643 0.124919
0.646583 0.135403 0.137040
0.702254 0.147065 0.149464
0.757334 0.158598 0.161925
0.809193 0.169484 0.173923
0.859996 0.180121 0.185825
0.911003 0.190814 0.197843
0.950128 0.199018 0.207416
0.965363 0.202235 0.212081
0.966448 0.202463 0.213755
0.966460 0.202477 0.215056
0.966445 0.202482 0.216135
0.966445 0.202490 0.217014
0.966445 0.202496 0.217681
0.966446 0.202500 0.218175
0.966447 0.202503 0.218532
0.024400 0.030117 0.025387
0.029274 0.029710 0.025414
0.035795 0.029235 0.025518
0.044752 0.028735 0.025769
0.056925 0.028311 0.026302
0.072770 0.028191 0.027356
0.094985 0.028968 0.029533
0.119523 0.030845 0.032600
0.147734 0.034060 0.036787
0.179157 0.038801 0.042074
0.215340 0.045402 0.048675
0.258230 0.054108 0.056961
0.308018 0.064526 0.066879
0.362463 0.075926 0.077973
0.419218 0.087798 0.089566
0.476615 0.099813 0.101323
0.533777 0.111780 0.113093
0.590448 0.123642 0.124927
0.646596 0.135406 0.137042
0.702270 0.147068 0.149467
0.757329 0.158597 0.161924
0.809156 0.169475 0.173913
0.859933 0.180108 0.185809
0.910978 0.190809 0.197836
0.950131 0.199018 0.207416
0.965364 0.202235 0.212081
0.966448 0.202463 0.213755
0.966460 0.202477 0.215056
0.966445 0.202482 0.216134
0.966445 0.202490 0.217013
0.966445 0.202496 0.217681
0.966446 0.202500 0.218174
0.966447 0.202503 0.218532
0.023604 0.036475 0.025676
0.028088 0.036000 0.025673
0.034437 0.035428 0.025738
0.043238 0.034794 0.025936
0.055532 0.034162 0.026424
0.071523 0.033693 0.027419
0.094022 0.033798 0.029525
0.118740 0.034776 0.032539
0.147104 0.036875 0.036685
0.178654 0.040462 0.041932
0.214952 0.046047 0.048520
0.257883 0.054107 0.056800
0.307751 0.064440 0.066754
0.362374 0.075899 0.077899
0.419373 0.087833 0.089584
0.476818 0.099855 0.101383
0.533858 0.111797 0.113132
0.590471 0.123647 0.124944
0.646615 0.135410 0.137044
0.702223 0.147059 0.149457
0.757271 0.158586 0.161912
0.809204 0.169490 0.173930
0.860105 0.180146 0.185852
0.910997 0.190815 0.197845
0.950095 0.199012 0.207410
0.965365 0.202236 0.212080
0.966448 0.202463 0.213755
0.966460 0.202477 0.215054
0.966445 0.202482 0.216133
0.966445 0.202490 0.217014
0.966445 0.202496 0.217682
0.966446 0.202500 0.218175
0.966447 0.202503 0.218532
0.023105 0.045109 0.026361
0.026942 0.044585 0.026315
0.032802 0.043956 0.026322
0.041413 0.043226 0.026452
0.053597 0.042451 0.026859
0.069683 0.041679 0.027743
0.092488 0.041090 0.029706
0.117511 0.041038 0.032614
0.146143 0.041748 0.036671
0.177928 0.043741 0.041835
0.214422 0.047743 0.048376
0.257482 0.054608 0.056631
0.307393 0.064457 0.066584
0.361978 0.075808 0.077724
0.419028 0.087757 0.089470
0.476584 0.099807 0.101343
0.533721 0.111769 0.113126
0.590415 0.123636 0.124948
0.646627 0.135413 0.137045
0.702240 0.147063 0.149461
0.757227 0.158576 0.161901
0.809077 0.169461 0.173898
0.859917 0.180105 0.185806
0.910911 0.190798 0.197822
0.950094 0.199012 0.207406
0.965368 0.202236 0.212079
0.966448 0.202463 0.213755
0.966460 0.202477 0.215054
0.966445 0.202482 0.216132
0.966445 0.202490 0.217012
0.966445 0.202496 0.217680
0.966446 0.202500 0.218174
0.966447 0.202503 0.218531
0.023679 0.056949 0.027872
0.026437 0.056432 0.027783
0.031532 0.055779 0.027725
0.039376 0.054993 0.027756
0.051267 0.054050 0.028026
0.067498 0.052959 0.028727
0.090731 0.051743 0.030456
0.116188 0.050763 0.033152
0.145124 0.050094 0.036989
0.177113 0.050226 0.041955
0.213741 0.051947 0.048335
0.257044 0.056592 0.056504
0.307219 0.064826 0.066436
0.361946 0.075762 0.077604
0.419039 0.087737 0.089386
0.476783 0.099849 0.101350
0.534083 0.111844 0.113218
0.590660 0.123686 0.125020
0.646708 0.135429 0.137058
0.702361 0.147088 0.149487
0.757460 0.158624 0.161955
0.809323 0.169511 0.173953
0.860117 0.180147 0.185853
0.911090 0.190832 0.197864
0.950162 0.199024 0.207426
0.965368 0.202236 0.212084
0.966448 0.202463 0.213756
0.966460 0.202477 0.215057
0.966445 0.202482 0.216136
0.966445 0.202490 0.217015
0.966445 0.202496 0.217682
0.966446 0.202500 0.218175
0.966447 0.202503 0.218532
0.025998 0.072949 0.030597
0.027501 0.072387 0.030460
0.031108 0.071659 0.030322
0.037344 0.070760 0.030232
0.048170 0.069645 0.030310
0.064281 0.068296 0.030759
0.088107 0.066612 0.032144
0.114055 0.064912 0.034468
0.143434 0.063039 0.037908
0.175830 0.061309 0.042524
0.212797 0.060388 0.048595
0.256245 0.061732 0.056494
0.306534 0.066686 0.066248
0.361452 0.075873 0.077369
0.418739 0.087557 0.089194
0.476524 0.099791 0.101211
0.533886 0.111804 0.113163
0.590659 0.123687 0.125061
0.646732 0.135435 0.137058
0.702316 0.147079 0.149478
0.757345 0.158602 0.161930
0.809258 0.169501 0.173942
0.860143 0.180154 0.185861
0.911030 0.190822 0.197853
0.950117 0.199017 0.207415
0.965371 0.202237 0.212082
0.966448 0.202463 0.213756
0.966460 0.202477 0.215055
0.966445 0.202482 0.216133
0.966445 0.202490 0.217014
0.966445 0.202496 0.217682
0.966446 0.202500 0.218175
0.966447 0.202503 0.218532
0.032183 0.095518 0.035602
0.032526 0.094960 0.035434
0.033742 0.094232 0.035230
0.036831 0.093319 0.035026
0.044723 0.092168 0.034890
0.059310 0.090743 0.035028
0.083598 0.088871 0.035942
0.110421 0.086816 0.037709
0.140610 0.084263 0.040516
0.173682 0.081263 0.044484
0.211218 0.078013 0.049894
0.255053 0.075449 0.057172
0.305668 0.074706 0.066402
0.360820 0.078319 0.077176
0.418262 0.087369 0.088905
0.476148 0.099430 0.100966
0.533648 0.111773 0.113017
0.590623 0.123678 0.125033
0.646820 0.135453 0.137085
0.702366 0.147090 0.149490
0.757380 0.158609 0.161937
0.809286 0.169507 0.173949
0.860168 0.180159 0.185867
0.911046 0.190826 0.197857
0.950126 0.199019 0.207417
0.965374 0.202238 0.212083
0.966448 0.202463 0.213756
0.966460 0.202477 0.215054
0.966445 0.202482 0.216133
0.966445 0.202490 0.217014
0.966445 0.202496 0.217682
0.966446 0.202500 0.218175
0.966447 0.202503 0.218532
0.040409 0.119914 0.042089
0.040276 0.119428 0.041926
0.040076 0.118791 0.041714
0.040737 0.117983 0.041469
0.044316 0.116947 0.041206
0.054672 0.115635 0.041085
0.077524 0.113870 0.041541
0.105256 0.111886 0.042776
0.136595 0.109339 0.044944
0.170540 0.106145 0.048169
0.208810 0.102180 0.052770
0.253338 0.097623 0.059208
0.304385 0.093096 0.067618
0.359844 0.090170 0.077642
0.417501 0.091613 0.088787
0.475614 0.099210 0.100632
0.533284 0.111099 0.112739
0.590372 0.123664 0.124851
0.646840 0.135455 0.137039
0.702462 0.147110 0.149519
0.757465 0.158627 0.161960
0.809333 0.169515 0.173958
0.860176 0.180160 0.185868
0.911079 0.190832 0.197864
0.950154 0.199024 0.207424
0.965378 0.202238 0.212085
0.966448 0.202463 0.213756
0.966460 0.202477 0.215055
0.966445 0.202482 0.216134
0.966445 0.202490 0.217014
0.966445 0.202496 0.217682
0.966446 0.202500 0.218175
0.966447 0.202503 0.218532
0.049909 0.148041 0.050458
0.049739 0.147616 0.050313
0.049446 0.147060 0.050123
0.049278 0.146350 0.049885
0.049366 0.145446 0.049585
0.053484 0.144277 0.049284
0.070553 0.142681 0.049301
0.097719 0.140907 0.050016
0.130719 0.138652 0.051578
0.165907 0.135806 0.054083
0.205148 0.132172 0.057810
0.250670 0.127526 0.063267
0.302419 0.122232 0.070653
0.358243 0.115749 0.079607
0.416191 0.108865 0.089678
0.474638 0.106575 0.100676
0.532614 0.111797 0.112373
0.589932 0.122626 0.124466
0.646613 0.135396 0.136795
0.702526 0.147124 0.149500
0.757593 0.158654 0.161995
0.809399 0.169527 0.173974
0.860168 0.180158 0.185865
0.911125 0.190840 0.197872
0.950196 0.199032 0.207434
0.965383 0.202239 0.212087
0.966448 0.202463 0.213757
0.966459 0.202477 0.215057
0.966445 0.202482 0.216135
0.966445 0.202490 0.217014
0.966445 0.202496 0.217682
0.966446 0.202500 0.218175
0.966447 0.202503 0.218532
0.060570 0.179664 0.060624
0.060444 0.179293 0.060496
0.060285 0.178809 0.060330
0.060075 0.178188 0.060118
0.059653 0.177394 0.059843
0.059395 0.176358 0.059485
0.066808 0.174908 0.059168
0.088472 0.173291 0.059366
0.121994 0.171276 0.060343
0.159321 0.168752 0.062211
0.200031 0.165481 0.065095
0.246737 0.161270 0.069522
0.299603 0.155833 0.075791
0.356031 0.149585 0.083624
0.414297 0.141679 0.092593
0.473069 0.131416 0.102274
0.531423 0.123491 0.112702
0.589063 0.124453 0.124067
0.646004 0.134552 0.136239
0.702330 0.146930 0.149215
0.757654 0.158661 0.161970
0.809456 0.169543 0.173995
0.860158 0.180155 0.185864
0.911157 0.190846 0.197878
0.950232 0.199039 0.207441
0.965389 0.202241 0.212089
0.966447 0.202463 0.213757
0.966459 0.202477 0.215058
0.966445 0.202482 0.216135
0.966445 0.202490 0.217014
0.966445 0.202496 0.217681
0.966446 0.202500 0.218175
0.966447 0.202503 0.218532
0.073083 0.216712 0.073072
0.072971 0.216379 0.072960
0.072825 0.215947 0.072815
0.072636 0.215387 0.072626
0.072396 0.214649 0.072378
0.071875 0.213705 0.072054
0.071757 0.212376 0.071603
0.081631 0.210816 0.071319
0.109224 0.208858 0.071614
0.149096 0.206481 0.072813
0.192394 0.203445 0.074946
0.240936 0.199533 0.078379
0.295117 0.194523 0.083436
0.352759 0.187971 0.089980
0.411774 0.180440 0.097779
0.470903 0.170985 0.106356
0.529512 0.158178 0.115370
0.587472 0.144126 0.124934
0.644855 0.136786 0.135661
0.701590 0.146786 0.148456
0.757368 0.158443 0.161615
0.809418 0.169507 0.173942
0.860173 0.180164 0.185880
0.911146 0.190845 0.197876
0.950239 0.199041 0.207441
0.965397 0.202243 0.212091
0.966447 0.202463 0.213758
0.966459 0.202477 0.215057
0.966445 0.202482 0.216135
0.966445 0.202490 0.217014
0.966445 0.202496 0.217681
0.966446 0.202500 0.218174
0.966447 0.202503 0.218532
0.087995 0.260964 0.087985
0.087888 0.260647 0.087878
0.087750 0.260237 0.087740
0.087572 0.259711 0.087562
0.087346 0.259037 0.087335
0.087039 0.258178 0.087045
0.086362 0.256959 0.086628
0.086661 0.255485 0.086137
0.097969 0.253564 0.085784
0.131441 0.251223 0.086140
0.180153 0.248356 0.087617
0.231767 0.244681 0.090172
0.288227 0.239959 0.094118
0.347541 0.233809 0.099402
0.407961 0.225924 0.105805
0.467882 0.216626 0.113086
0.526879 0.204828 0.120915
0.585324 0.189024 0.129055
0.642995 0.170069 0.137697
0.699933 0.151297 0.147544
0.756330 0.157957 0.160416
0.809166 0.169330 0.173545
0.860244 0.180233 0.185895
0.911152 0.190842 0.197882
0.950243 0.199044 0.207442
0.965408 0.202245 0.212092
0.966447 0.202463 0.213758
0.966459 0.202477 0.215056
0.966445 0.202482 0.216133
0.966445 0.202490 0.217014
0.966445 0.202496 0.217681
0.966446 0.202500 0.218174
0.966447 0.202503 0.218531
0.104919 0.311159 0.104907
0.104825 0.310880 0.104812
0.104703 0.310519 0.104691
0.104548 0.310060 0.104536
0.104351 0.309474 0.104340
0.104108 0.308740 0.104093
0.103694 0.307690 0.103738
0.102846 0.306406 0.103294
0.103669 0.304704 0.102737
0.116680 0.302566 0.102368
0.157602 0.299954 0.102881
0.217502 0.296782 0.104837
0.277949 0.292683 0.107916
0.339717 0.287346 0.112150
0.401825 0.280389 0.117369
0.463147 0.271561 0.123331
0.523161 0.260377 0.129817
0.582114 0.245609 0.136625
0.640397 0.225410 0.143615
0.697812 0.200230 0.151042
0.754465 0.172774 0.159740
0.807993 0.168593 0.171674
0.860039 0.178994 0.185261
0.911379 0.191202 0.198075
0.950304 0.199028 0.207435
0.965422 0.202249 0.212100
0.966446 0.202463 0.213759
0.966459 0.202477 0.215058
0.966445 0.202482 0.216135
0.966445 0.202490 0.217014
0.966445 0.202496 0.217682
0.966446 0.202500 0.218175
0.966447 0.202503 0.218532
0.123108 0.365103 0.123094
0.123030 0.364873 0.123017
0.122931 0.364579 0.122918
0.122807 0.364209 0.122794
0.122646 0.363732 0.122633
0.122442 0.363123 0.122428
0.122155 0.362243 0.122132
0.121690 0.361175 0.121771
0.120548 0.359766 0.121278
0.122088 0.357957 0.120699
0.139538 0.355660 0.120398
0.193181 0.352910 0.121349
0.261898 0.349570 0.123859
0.328578 0.345238 0.127341
0.392954 0.339587 0.131661
0.456060 0.332172 0.136630
0.517493 0.322559 0.142050
0.577366 0.309963 0.147752
0.636227 0.292905 0.153533
0.694473 0.269540 0.159323
0.751700 0.236571 0.165193
0.805670 0.201609 0.172032
0.858499 0.182465 0.182830
0.911037 0.187172 0.196844
0.950583 0.199737 0.207871
0.965423 0.202209 0.212058
0.966446 0.202464 0.213762
0.966459 0.202477 0.215060
0.966445 0.202482 0.216137
0.966445 0.202490 0.217016
0.966445 0.202496 0.217683
0.966446 0.202500 0.218176
0.966447 0.202503 0.218532
0.141821 0.420596 0.141805
0.141759 0.420413 0.141743
0.141679 0.420177 0.141664
0.141580 0.419882 0.141565
0.141452 0.419503 0.141437
0.141289 0.419019 0.141273
0.141055 0.418323 0.141038
0.140783 0.417477 0.140753
0.140237 0.416352 0.140371
0.139118 0.414892 0.139859
0.141805 0.412991 0.139281
0.171215 0.410635 0.139261
0.239373 0.407930 0.140983
0.312358 0.404549 0.143916
0.381136 0.400159 0.147634
0.446427 0.394411 0.151912
0.509501 0.386887 0.156612
0.570684 0.376963 0.161560
0.630432 0.363595 0.166569
0.689352 0.345049 0.171455
0.747329 0.319346 0.176064
0.801965 0.280498 0.179839
0.855445 0.236032 0.184894
0.909038 0.200762 0.194318
0.949901 0.191633 0.205646
0.965529 0.202919 0.212615
0.966441 0.202457 0.213738
0.966459 0.202477 0.215058
0.966445 0.202482 0.216138
0.966445 0.202490 0.217017
0.966445 0.202496 0.217683
0.966446 0.202500 0.218176
0.966447 0.202503 0.218533
0.160584 0.476254 0.160566
0.160535 0.476109 0.160517
0.160469 0.475915 0.160451
0.160387 0.475670 0.160369
0.160286 0.475370 0.160268
0.160158 0.474992 0.160141
0.159977 0.474454 0.159960
0.159757 0.473799 0.159739
0.159473 0.472917 0.159441
0.158814 0.471771 0.159050
0.158236 0.470269 0.158539
0.165095 0.468320 0.158034
0.213223 0.466045 0.158662
0.290162 0.463414 0.161035
0.365958 0.460065 0.164337
0.434184 0.455718 0.168141
0.499211 0.450048 0.172348
0.561993 0.442555 0.176824
0.623059 0.432530 0.181403
0.682669 0.418877 0.185872
0.741181 0.399806 0.190036
0.796650 0.373213 0.193327
0.850762 0.331267 0.195380
0.904951 0.274809 0.198504
0.947557 0.219926 0.203670
0.965501 0.191351 0.209367
0.966426 0.201376 0.214234
0.966459 0.202456 0.215101
0.966445 0.202522 0.216128
0.966445 0.202490 0.217017
0.966445 0.202496 0.217684
0.966446 0.202500 0.218176
0.966447 0.202503 0.218532
0.179219 0.531541 0.179199
0.179182 0.531430 0.179162
0.179130 0.531276 0.179110
0.179064 0.531080 0.179043
0.178983 0.530842 0.178963
0.178881 0.530538 0.178861
0.178736 0.530107 0.178716
0.178562 0.529591 0.178542
0.178330 0.528901 0.178309
0.178032 0.528013 0.178011
0.177492 0.526850 0.177616
0.176636 0.525273 0.177079
0.195246 0.523308 0.176825
0.262177 0.521153 0.178314
0.344370 0.518589 0.181194
0.419480 0.515306 0.184722
0.486985 0.511017 0.188555
0.551601 0.505410 0.192687
0.614088 0.498013 0.196996
0.674852 0.488035 0.201288
0.733977 0.474298 0.205333
0.790001 0.455407 0.208645
0.844595 0.428829 0.211143
0.899081 0.387878 0.212109
0.944047 0.317220 0.210738
0.965980 0.234191 0.208921
0.966326 0.199632 0.210857
0.966419 0.198643 0.215154
0.966440 0.201866 0.216262
0.966447 0.202655 0.217006
0.966445 0.202496 0.217683
0.966446 0.202500 0.218176
0.966447 0.202503 0.218533
0.197711 0.586364 0.197688
0.197683 0.586280 0.197660
0.197645 0.586167 0.197622
0.197595 0.586019 0.197573
0.197530 0.585828 0.197509
0.197448 0.585582 0.197426
0.197331 0.585237 0.197310
0.197194 0.584828 0.197172
0.197010 0.584283 0.196988
0.196777 0.583588 0.196754
0.196451 0.582690 0.196451
0.196074 0.581426 0.196028
0.196219 0.579791 0.195478
0.235932 0.577905 0.195842
0.316586 0.575882 0.198121
0.401306 0.573411 0.201437
0.472463 0.570152 0.204979
0.539380 0.565910 0.208820
0.603456 0.560375 0.212880
0.665658 0.553059 0.217051
0.725832 0.543080 0.221072
0.782231 0.529391 0.224456
0.837270 0.510714 0.227280
0.891744 0.484443 0.229289
0.939922 0.445528 0.228601
0.967672 0.372823 0.221842
0.967065 0.253500 0.210217
0.966498 0.210910 0.213110
0.966388 0.199015 0.215898
0.966429 0.200875 0.217101
0.966448 0.202718 0.217683
0.966446 0.202497 0.218176
0.966447 0.202503 0.218533
0.216006 0.640634 0.215982
0.215983 0.640567 0.215959
0.215950 0.640468 0.215926
0.215906 0.640337 0.215882
0.215853 0.640180 0.215829
0.215790 0.639993 0.215766
0.215703 0.639736 0.215679
0.215596 0.639416 0.215571
0.215449 0.638983 0.215425
0.215260 0.638424 0.215236
0.215016 0.637699 0.214992
0.214750 0.636697 0.214656
0.213237 0.635411 0.214201
0.226069 0.633798 0.213915
0.289845 0.632103 0.215275
0.377037 0.630189 0.218085
0.455259 0.627741 0.221459
0.525079 0.624537 0.225066
0.591249 0.620365 0.228917
0.654815 0.614896 0.232917
0.716403 0.607620 0.236923
0.773510 0.597671 0.240418
0.829024 0.584134 0.243470
0.883431 0.565584 0.245901
0.934590 0.539414 0.246997
0.968702 0.500426 0.243762
0.970047 0.433218 0.231493
0.967600 0.296611 0.212400
0.966575 0.217020 0.214716
0.966399 0.199291 0.217017
0.966431 0.201334 0.217669
0.966448 0.202603 0.218180
0.966447 0.202498 0.218532
0.234027 0.694104 0.234001
0.234007 0.694044 0.233981
0.233980 0.693966 0.233954
0.233947 0.693867 0.233920
0.233909 0.693754 0.233882
0.233859 0.693607 0.233832
0.233788 0.693397 0.233761
0.233704 0.693149 0.233678
0.233590 0.692813 0.233564
0.233442 0.692372 0.233416
0.233247 0.691794 0.233221
0.233001 0.691025 0.232961
0.232596 0.689980 0.232609
0.232112 0.688647 0.232143
0.265808 0.687136 0.232452
0.344502 0.685603 0.234552
0.435038 0.683829 0.237865
0.508490 0.681434 0.241270
0.577264 0.678296 0.244935
0.642560 0.674185 0.248779
0.705397 0.668806 0.252703
0.763733 0.661598 0.256316
0.820058 0.651763 0.259586
0.874607 0.638334 0.262343
0.926073 0.620077 0.264156
0.963718 0.593905 0.262975
0.972884 0.553314 0.255328
0.971542 0.488166 0.242072
0.968498 0.356406 0.219037
0.966686 0.229439 0.215422
0.966339 0.193434 0.217725
0.966457 0.203253 0.218210
0.966446 0.202447 0.218530
0.251286 0.745242 0.251257
0.251273 0.745202 0.251244
0.251257 0.745156 0.251229
0.251238 0.745097 0.251209
0.251208 0.745010 0.251180
0.251169 0.744892 0.251141
0.251116 0.744731 0.251087
0.251056 0.744553 0.251028
0.250975 0.744308 0.250947
0.250860 0.743962 0.250831
0.250707 0.743503 0.250679
0.250505 0.742896 0.250477
0.250354 0.742105 0.250216
0.248446 0.741092 0.249844
0.259639 0.739826 0.249642
0.318365 0.738566 0.250903
0.409357 0.737319 0.253755
0.490172 0.735761 0.257144
0.561703 0.733658 0.260704
0.629052 0.730863 0.264478
0.693351 0.727254 0.268401
0.752825 0.722200 0.272076
0.810002 0.715142 0.275502
0.865301 0.705409 0.278545
0.916563 0.692289 0.280761
0.956494 0.674042 0.280878
0.974966 0.647389 0.276807
0.975426 0.607880 0.267560
0.973143 0.538880 0.252292
0.969719 0.414140 0.229460
0.966989 0.253911 0.217668
0.966187 0.184757 0.217370
0.966492 0.205306 0.218730
0.267411 0.793073 0.267381
0.267401 0.793044 0.267371
0.267386 0.793000 0.267357
0.267367 0.792942 0.267337
0.267342 0.792867 0.267312
0.267310 0.792772 0.267280
0.267269 0.792650 0.267239
0.267220 0.792506 0.267191
0.267151 0.792300 0.267121
0.267057 0.792020 0.267028
0.266933 0.791651 0.266904
0.266773 0.791175 0.266744
0.266619 0.790561 0.266539
0.265761 0.789735 0.266251
0.266638 0.788660 0.265894
0.302092 0.787539 0.266400
0.380926 0.786519 0.268538
0.471017 0.785431 0.271843
0.545776 0.783947 0.275265
0.615495 0.781958 0.278928
0.681455 0.779343 0.282761
0.741859 0.775806 0.286475
0.799924 0.770962 0.290093
0.855893 0.764269 0.293473
0.906884 0.755209 0.296142
0.948869 0.742940 0.297423
0.976517 0.725680 0.296225
0.979396 0.700634 0.290229
0.977735 0.663480 0.280695
0.974882 0.592691 0.263334
0.971113 0.462358 0.240072
0.967504 0.281948 0.221746
0.965975 0.176664 0.216378
0.283143 0.839715 0.283111
0.283134 0.839689 0.283103
0.283121 0.839650 0.283090
0.283104 0.839600 0.283073
0.283084 0.839540 0.283053
0.283060 0.839468 0.283028
0.283025 0.839366 0.282994
0.282980 0.839232 0.282949
0.282919 0.839052 0.282888
0.282845 0.838833 0.282814
0.282752 0.838557 0.282721
0.282618 0.838158 0.282586
0.282453 0.837653 0.282416
0.282251 0.836991 0.282193
0.280208 0.836109 0.281850
0.296183 0.835107 0.281853
0.355701 0.834198 0.283225
0.448079 0.833374 0.286163
0.528445 0.832316 0.289496
0.600720 0.830902 0.293029
0.668229 0.829023 0.296748
0.729981 0.826584 0.300445
0.789193 0.823218 0.304124
0.845955 0.818526 0.307677
0.897136 0.812068 0.310624
0.940322 0.803393 0.312525
0.973765 0.791778 0.312920
0.982107 0.774965 0.309402
0.981874 0.750216 0.302941
0.979966 0.715406 0.293872
0.977000 0.650863 0.275932
0.972619 0.507567 0.250230
0.968135 0.307337 0.226569
0.298423 0.885030 0.298389
0.298416 0.885008 0.298382
0.298407 0.884982 0.298373
0.298395 0.884948 0.298361
0.298378 0.884897 0.298345
0.298358 0.884837 0.298324
0.298328 0.884749 0.298295
0.298290 0.884638 0.298257
0.298243 0.884498 0.298210
0.298187 0.884334 0.298154
0.298115 0.884118 0.298081
0.298003 0.883787 0.297970
0.297864 0.883379 0.297833
0.297769 0.882873 0.297663
0.296246 0.882197 0.297406
0.299591 0.881358 0.297175
0.337193 0.880551 0.297861
0.420319 0.879915 0.300180
0.509621 0.879274 0.303509
0.584670 0.878387 0.306932
0.653876 0.877168 0.310553
0.717232 0.875556 0.314209
0.777528 0.873161 0.317870
0.835197 0.869811 0.321477
0.886957 0.865161 0.324589
0.930548 0.858725 0.326772
0.966119 0.850133 0.327839
0.983646 0.838303 0.326364
0.985788 0.821989 0.322215
0.984403 0.799193 0.316000
0.982422 0.765773 0.306965
0.979335 0.708037 0.289499
0.974393 0.560885 0.261201
0.312250 0.926015 0.312215
0.312245 0.926000 0.312210
0.312239 0.925983 0.312204
0.312231 0.925959 0.312196
0.312218 0.925920 0.312183
0.312200 0.925867 0.312165
0.312177 0.925797 0.312142
0.312151 0.925721 0.312116
0.312116 0.925618 0.312082
0.312069 0.925477 0.312034
0.312000 0.925273 0.311965
0.311911 0.925010 0.311876
0.311805 0.924695 0.311770
0.311676 0.924290 0.311634
0.311351 0.923781 0.311459
0.308965 0.923137 0.311181
0.329321 0.922470 0.311421
0.397030 0.921987 0.313124
0.490964 0.921702 0.316314
0.569140 0.921275 0.319666
0.640158 0.920613 0.323207
0.704801 0.919643 0.326800
0.766024 0.918109 0.330455
0.824469 0.915946 0.334129
0.876909 0.912959 0.337445
0.920599 0.908715 0.339955
0.956613 0.902776 0.341512
0.982926 0.894711 0.341723
0.988890 0.883523 0.339220
0.988532 0.868048 0.334934
0.986948 0.845702 0.328701
0.985079 0.814410 0.320171
0.981958 0.762596 0.303992
0.323945 0.960772 0.323868
0.323941 0.960762 0.323864
0.323937 0.960750 0.323860
0.323932 0.960734 0.323854
0.323925 0.960715 0.323848
0.323914 0.960682 0.323837
0.323897 0.960629 0.323818
0.323877 0.960572 0.323799
0.323849 0.960490 0.323771
0.323805 0.960359 0.323726
0.323744 0.960180 0.323664
0.323673 0.959971 0.323593
0.323592 0.959732 0.323511
0.323481 0.959407 0.323401
0.323389 0.959011 0.323267
0.320352 0.958546 0.323042
0.332728 0.958055 0.323145
0.386216 0.957680 0.324416
0.474748 0.957529 0.327199
0.555974 0.957363 0.330480
0.628339 0.957075 0.333944
0.694019 0.956495 0.337462
0.755981 0.955656 0.341116
0.814900 0.954518 0.344872
0.867803 0.952958 0.348387
0.911732 0.950694 0.351261
0.948040 0.947251 0.353343
0.978104 0.942237 0.354573
0.990277 0.935136 0.353687
0.992223 0.925832 0.351266
0.991184 0.911903 0.347281
0.989720 0.890729 0.341274
0.987755 0.859411 0.332634
0.332672 0.986421 0.332501
0.332668 0.986412 0.332498
0.332664 0.986401 0.332495
0.332660 0.986387 0.332491
0.332654 0.986370 0.332487
0.332648 0.986351 0.332482
0.332636 0.986316 0.332473
0.332619 0.986268 0.332459
0.332600 0.986211 0.332443
0.332577 0.986144 0.332424
0.332546 0.986051 0.332397
0.332505 0.985932 0.332362
0.332456 0.985788 0.332320
0.332400 0.985615 0.332268
0.332295 0.985383 0.332195
0.330644 0.985103 0.332070
0.338250 0.984798 0.332127
0.379043 0.984548 0.333076
0.462623 0.984478 0.335547
0.545770 0.984491 0.338735
0.618753 0.984495 0.342105
0.685156 0.984379 0.345604
0.747538 0.984179 0.349304
0.806665 0.983870 0.353139
0.859746 0.983331 0.356789
0.904047 0.982447 0.359928
