滤镜资源/Professional Luts Collection/Lutify.me Professional/Utility LUTs/Log Conversions/Panasonic Cine-D.cube
# Created by: Lutify.me
# Copyright: (c) Copyright Lutify.me 2015
# Website: https://lutify.me
#LUT size
LUT_3D_SIZE 5
#LUT data points
0.000397 0.000397 0.000397
0.438904 0.000488 0.000488
0.868805 0.000488 0.000488
0.994385 0.000397 0.000397
0.994385 0.000397 0.000397
0.000275 0.354523 0.000580
0.307373 0.297150 0.000183
0.699860 0.273315 0.000183
0.989624 0.255035 0.000092
0.989624 0.241028 0.000092
0.000183 0.684601 0.000275
0.213226 0.621185 0.000183
0.605927 0.592438 0.000092
0.941254 0.570496 0.000092
0.991272 0.552063 0.000061
0.000092 0.961182 0.000092
0.125549 0.900269 0.000092
0.525360 0.870422 0.000092
0.861664 0.847168 0.000000
0.994629 0.826263 0.000000
0.000092 0.976196 0.000092
0.046570 0.975891 0.000031
0.447601 0.979340 0.000000
0.785797 0.981812 0.000000
0.995331 0.982208 0.000000
0.000397 0.000397 0.460114
0.429352 0.000458 0.427490
0.850220 0.000366 0.439362
0.990601 0.000244 0.435730
0.990631 0.000244 0.431244
0.000183 0.333282 0.342804
0.282013 0.274628 0.283508
0.677246 0.249847 0.258057
0.988342 0.231049 0.239960
0.990387 0.215851 0.224731
0.000153 0.661316 0.257965
0.181641 0.597351 0.187012
0.581635 0.568665 0.151398
0.918243 0.546478 0.122467
0.993927 0.527466 0.100464
0.000092 0.941742 0.178314
0.095520 0.875427 0.098846
0.498962 0.845734 0.053284
0.836273 0.821777 0.029449
0.995453 0.800079 0.010071
0.000000 0.977081 0.098480
0.019928 0.976196 0.018066
0.418579 0.979309 0.002991
0.757782 0.981689 0.000427
0.995331 0.982208 0.000000
0.000458 0.000580 0.877655
0.435303 0.000427 0.857666
0.839844 0.000183 0.851685
0.983643 0.000000 0.841919
0.983673 0.000000 0.836426
0.000183 0.324127 0.757172
0.264618 0.264648 0.701172
0.663361 0.239502 0.677277
0.984283 0.220367 0.659790
0.989105 0.204468 0.645294
0.000092 0.649750 0.674622
0.165924 0.585785 0.610321
0.564575 0.557648 0.580505
0.903229 0.535919 0.558167
0.994141 0.517212 0.539368
0.000061 0.929413 0.600739
0.077972 0.863190 0.531494
0.478149 0.835449 0.498688
0.821747 0.812714 0.472198
0.998322 0.792542 0.449951
0.000000 0.979218 0.530090
0.005798 0.978851 0.456238
0.390991 0.985565 0.421539
0.744568 0.989899 0.392426
0.999817 0.992096 0.367676
0.000397 0.000702 0.994598
0.432861 0.000458 0.989929
0.830200 0.000000 0.984100
0.983429 0.000000 0.984192
0.983429 0.000000 0.984192
0.000092 0.317535 0.986237
0.253815 0.258331 0.987366
0.650513 0.232727 0.989075
0.980591 0.212494 0.988464
0.988495 0.195953 0.985107
0.000000 0.640228 0.986847
0.153473 0.576935 0.966248
0.547943 0.549713 0.941528
0.890778 0.527649 0.920105
0.993317 0.508362 0.901611
0.000000 0.918427 0.957245
0.063690 0.852631 0.891663
0.452942 0.826263 0.861877
0.806885 0.803589 0.837433
0.996796 0.783264 0.816650
0.000000 0.979584 0.889404
0.003693 0.979614 0.818939
0.373627 0.988464 0.788208
0.728027 0.993347 0.762268
0.998993 0.996094 0.740143
0.000397 0.000702 0.994598
0.432831 0.000458 0.989929
0.826599 0.000000 0.984100
0.983429 0.000000 0.984192
0.983429 0.000000 0.984192
0.000092 0.311218 0.986267
0.246643 0.250580 0.987305
0.642548 0.224274 0.988892
0.974915 0.203186 0.989929
0.988342 0.185974 0.989655
0.000000 0.631805 0.986786
0.143585 0.567810 0.988525
0.535706 0.540619 0.992340
0.880402 0.518585 0.993683
0.992798 0.499054 0.993713
0.000000 0.908661 0.987549
0.051941 0.842773 0.988983
0.438446 0.817169 0.994415
0.794617 0.794525 0.995972
0.995819 0.774139 0.996338
0.000000 0.979218 0.987183
0.002686 0.979340 0.987335
0.362366 0.989563 0.994171
0.713562 0.994995 0.996643
0.997742 0.997955 0.998108
