滤镜资源/Professional Luts Collection/Lutify.me Professional/Utility LUTs/Log Conversions/Panasonic Cine-D.cube
# Created by: Lutify.me
# Copyright: (c) Copyright Lutify.me 2015
# Website: https://lutify.me
#LUT size
LUT_3D_SIZE 33
#LUT data points
0.000397 0.000397 0.000397
0.000488 0.000397 0.000397
0.006317 0.000397 0.000397
0.106445 0.000397 0.000397
0.186646 0.000397 0.000397
0.255554 0.000397 0.000397
0.319366 0.000458 0.000458
0.380249 0.000488 0.000488
0.438904 0.000488 0.000488
0.496033 0.000488 0.000488
0.552887 0.000488 0.000488
0.610718 0.000488 0.000488
0.667633 0.000488 0.000488
0.721191 0.000488 0.000488
0.772003 0.000488 0.000488
0.821075 0.000488 0.000488
0.868805 0.000488 0.000488
0.915375 0.000458 0.000488
0.957947 0.000397 0.000458
0.986053 0.000397 0.000397
0.994385 0.000397 0.000397
0.994385 0.000397 0.000397
0.994385 0.000397 0.000397
0.994385 0.000397 0.000397
0.994385 0.000397 0.000397
0.994385 0.000397 0.000397
0.994385 0.000397 0.000397
0.994385 0.000397 0.000397
0.994385 0.000397 0.000397
0.994385 0.000397 0.000397
0.994385 0.000397 0.000397
0.994385 0.000397 0.000397
0.994385 0.000397 0.000397
0.000397 0.000397 0.000397
0.000397 0.000397 0.000397
0.002777 0.000397 0.000397
0.091949 0.000397 0.000397
0.173004 0.000397 0.000397
0.243805 0.000397 0.000397
0.309723 0.000458 0.000458
0.373962 0.000488 0.000488
0.438293 0.000488 0.000488
0.498657 0.000488 0.000488
0.555267 0.000488 0.000488
0.609375 0.000488 0.000488
0.661407 0.000488 0.000488
0.711670 0.000488 0.000488
0.760651 0.000488 0.000488
0.808472 0.000488 0.000488
0.855225 0.000488 0.000488
0.901001 0.000458 0.000488
0.945801 0.000427 0.000458
0.980164 0.000397 0.000397
0.993347 0.000397 0.000397
0.994385 0.000397 0.000397
0.994385 0.000397 0.000397
0.994385 0.000397 0.000397
0.994385 0.000397 0.000397
0.994385 0.000397 0.000397
0.994385 0.000397 0.000397
0.994385 0.000397 0.000397
0.994385 0.000397 0.000397
0.994385 0.000397 0.000397
0.994385 0.000397 0.000397
0.994385 0.000397 0.000397
0.994385 0.000397 0.000397
0.000397 0.002045 0.000397
0.000397 0.002106 0.000397
0.001953 0.001831 0.000397
0.074585 0.001709 0.000397
0.158508 0.001648 0.000397
0.235840 0.001587 0.000397
0.303772 0.001556 0.000458
0.366394 0.001526 0.000488
0.425690 0.001465 0.000488
0.482269 0.001434 0.000488
0.536652 0.001404 0.000488
0.589508 0.001343 0.000488
0.640350 0.001312 0.000488
0.689636 0.001251 0.000488
0.737915 0.001221 0.000488
0.785187 0.001160 0.000488
0.831360 0.001129 0.000488
0.876678 0.001099 0.000488
0.921173 0.001007 0.000488
0.961609 0.000916 0.000427
0.987091 0.000916 0.000397
0.994324 0.000885 0.000397
0.994324 0.000854 0.000397
0.994324 0.000824 0.000397
0.994324 0.000763 0.000397
0.994324 0.000732 0.000397
0.994354 0.000702 0.000397
0.994354 0.000671 0.000397
0.994354 0.000641 0.000397
0.994354 0.000610 0.000397
0.994354 0.000610 0.000397
0.994354 0.000580 0.000397
0.994385 0.000549 0.000397
0.000305 0.058960 0.000397
0.000305 0.060059 0.000397
0.001434 0.059296 0.000397
0.052795 0.049011 0.000397
0.133850 0.044647 0.000397
0.205597 0.041504 0.000397
0.271301 0.038910 0.000458
0.332367 0.036591 0.000427
0.390228 0.034363 0.000397
0.445679 0.032440 0.000366
0.499146 0.030426 0.000366
0.551086 0.028320 0.000366
0.601654 0.026428 0.000397
0.650604 0.024750 0.000397
0.698486 0.023163 0.000397
0.745514 0.021484 0.000397
0.791565 0.019836 0.000397
0.836731 0.018250 0.000397
0.881042 0.016541 0.000427
0.924591 0.014923 0.000397
0.963531 0.013397 0.000366
0.987091 0.011871 0.000336
0.992950 0.010284 0.000336
0.993042 0.008942 0.000336
0.993103 0.008331 0.000336
0.993164 0.007843 0.000336
0.993225 0.007355 0.000336
0.993317 0.006897 0.000336
0.993408 0.006439 0.000336
0.993469 0.005951 0.000366
0.993530 0.005493 0.000366
0.993591 0.005127 0.000366
0.993652 0.004700 0.000366
0.000305 0.137482 0.000488
0.000305 0.134247 0.000488
0.001007 0.127899 0.000488
0.037109 0.115723 0.000488
0.115356 0.109009 0.000488
0.186188 0.104462 0.000397
0.250397 0.100830 0.000336
0.310394 0.097443 0.000336
0.367554 0.094666 0.000305
0.422363 0.092072 0.000305
0.475311 0.089630 0.000305
0.526733 0.087189 0.000305
0.576874 0.084808 0.000305
0.625702 0.082642 0.000305
0.673279 0.080475 0.000305
0.719910 0.078400 0.000305
0.765747 0.076324 0.000305
0.810699 0.074310 0.000305
0.854736 0.072388 0.000305
0.898102 0.070435 0.000336
0.940857 0.068542 0.000305
0.975067 0.066895 0.000244
0.989441 0.065186 0.000275
0.990997 0.063599 0.000275
0.991028 0.062225 0.000275
0.991058 0.060822 0.000275
0.991119 0.059448 0.000275
0.991180 0.058105 0.000275
0.991211 0.056915 0.000275
0.991211 0.055511 0.000275
0.991241 0.054260 0.000305
0.991272 0.053192 0.000305
0.991333 0.052155 0.000305
0.000305 0.200775 0.000488
0.000305 0.196075 0.000488
0.000671 0.188080 0.000488
0.022003 0.175049 0.000488
0.099579 0.167633 0.000488
0.169952 0.162262 0.000458
0.233734 0.157837 0.000366
0.293335 0.154236 0.000305
0.350037 0.150787 0.000275
0.404541 0.147888 0.000244
0.457062 0.145111 0.000244
0.508301 0.142548 0.000244
0.558105 0.140045 0.000244
0.606659 0.137573 0.000244
0.653961 0.135193 0.000275
0.700256 0.132935 0.000275
0.745850 0.130768 0.000275
0.790771 0.128662 0.000214
0.834717 0.126526 0.000214
0.877869 0.124146 0.000214
0.920471 0.121582 0.000214
0.959991 0.119354 0.000183
0.984589 0.117432 0.000183
0.990143 0.115692 0.000183
0.990143 0.114105 0.000183
0.990143 0.112518 0.000183
0.990173 0.110901 0.000183
0.990173 0.109375 0.000183
0.990173 0.107941 0.000183
0.990204 0.106445 0.000183
0.990204 0.104980 0.000214
0.990234 0.103760 0.000214
0.990234 0.102417 0.000214
0.000305 0.255890 0.000549
0.000305 0.250244 0.000549
0.000366 0.241882 0.000549
0.008820 0.228302 0.000488
0.084686 0.220490 0.000488
0.155365 0.214844 0.000427
0.219208 0.210144 0.000275
0.278473 0.206024 0.000244
0.334900 0.202423 0.000214
0.389130 0.199127 0.000214
0.441528 0.196198 0.000183
0.492340 0.193329 0.000183
0.541931 0.190704 0.000183
0.590332 0.188141 0.000183
0.637665 0.185638 0.000183
0.683868 0.183289 0.000214
0.729279 0.181030 0.000214
0.773926 0.178833 0.000183
0.817810 0.176605 0.000183
0.860901 0.174347 0.000183
0.903381 0.172058 0.000183
0.945221 0.169739 0.000183
0.977814 0.167450 0.000153
0.989258 0.165466 0.000153
0.989807 0.163635 0.000153
0.989807 0.161865 0.000183
0.989838 0.160187 0.000183
0.989838 0.158508 0.000183
0.989838 0.156891 0.000183
0.989868 0.155304 0.000183
0.989868 0.153687 0.000183
0.989868 0.152313 0.000183
0.989868 0.150848 0.000183
0.000305 0.306580 0.000580
0.000305 0.300476 0.000580
0.000305 0.291748 0.000580
0.003387 0.278046 0.000580
0.070251 0.269806 0.000488
0.141296 0.263885 0.000427
0.205261 0.259033 0.000275
0.264557 0.254852 0.000183
0.320892 0.250885 0.000183
0.374786 0.247498 0.000183
0.427155 0.244324 0.000183
0.477875 0.241272 0.000183
0.527161 0.238342 0.000183
0.575378 0.235657 0.000183
0.622589 0.233032 0.000183
0.668732 0.230530 0.000183
0.714050 0.228088 0.000183
0.758606 0.225739 0.000183
0.802368 0.223511 0.000183
0.845398 0.221283 0.000183
0.887726 0.219116 0.000183
0.929535 0.216949 0.000183
0.966980 0.214630 0.000153
0.986694 0.212402 0.000122
0.989655 0.210449 0.000092
0.989655 0.208618 0.000122
0.989655 0.206879 0.000122
0.989655 0.205139 0.000122
0.989655 0.203430 0.000122
0.989655 0.201721 0.000122
0.989655 0.200012 0.000122
0.989685 0.198517 0.000122
0.989685 0.196960 0.000122
0.000275 0.354523 0.000580
0.000275 0.348236 0.000580
0.000305 0.339081 0.000580
0.002350 0.325317 0.000580
0.057434 0.316864 0.000488
0.127563 0.310577 0.000397
0.191833 0.305573 0.000244
0.251129 0.301086 0.000183
0.307373 0.297150 0.000183
0.361328 0.293549 0.000183
0.413483 0.290070 0.000183
0.464172 0.286926 0.000183
0.513397 0.283966 0.000183
0.561493 0.281158 0.000183
0.608582 0.278412 0.000183
0.654633 0.275787 0.000183
0.699860 0.273315 0.000183
0.744324 0.270844 0.000183
0.788025 0.268524 0.000183
0.830933 0.266266 0.000183
0.873230 0.263977 0.000183
0.914978 0.261627 0.000183
0.955109 0.259338 0.000153
0.982880 0.257050 0.000092
0.989624 0.255035 0.000092
0.989624 0.253082 0.000092
0.989624 0.251160 0.000092
0.989624 0.249420 0.000092
0.989624 0.247681 0.000092
0.989624 0.245941 0.000092
0.989624 0.244202 0.000092
0.989624 0.242645 0.000092
0.989624 0.241028 0.000092
0.000214 0.400360 0.000580
0.000214 0.393829 0.000580
0.000214 0.384521 0.000580
0.001831 0.370636 0.000580
0.046021 0.361877 0.000488
0.114410 0.355560 0.000397
0.178986 0.350220 0.000214
0.238464 0.345673 0.000183
0.294769 0.341583 0.000183
0.348480 0.337799 0.000183
0.400635 0.334320 0.000183
0.451294 0.330963 0.000183
0.500458 0.327911 0.000183
0.548431 0.324890 0.000183
0.595459 0.322052 0.000183
0.641571 0.319397 0.000183
0.686646 0.316833 0.000183
0.731079 0.314240 0.000183
0.774658 0.311798 0.000183
0.817566 0.309479 0.000183
0.859741 0.307159 0.000153
0.901489 0.304810 0.000153
0.942566 0.302429 0.000122
0.976288 0.299988 0.000092
0.988892 0.297821 0.000092
0.989685 0.295807 0.000092
0.989655 0.293823 0.000092
0.989655 0.291931 0.000092
0.989655 0.290131 0.000092
0.989655 0.288330 0.000092
0.989655 0.286591 0.000092
0.989624 0.284973 0.000092
0.989624 0.283295 0.000092
0.000183 0.444336 0.000580
0.000183 0.437744 0.000580
0.000183 0.428345 0.000580
0.001343 0.414307 0.000580
0.034363 0.405334 0.000488
0.101562 0.398804 0.000397
0.166412 0.393463 0.000214
0.226044 0.388794 0.000183
0.282379 0.384491 0.000183
0.336273 0.380615 0.000183
0.388275 0.376984 0.000183
0.438873 0.373505 0.000183
0.487976 0.370331 0.000183
0.535858 0.367310 0.000183
0.582825 0.364349 0.000183
0.628906 0.361481 0.000183
0.674072 0.358917 0.000183
0.718353 0.356384 0.000183
0.761902 0.353821 0.000153
0.804749 0.351379 0.000153
0.846985 0.348969 0.000153
0.888580 0.346588 0.000092
0.929688 0.344238 0.000092
0.967072 0.341736 0.000092
0.987061 0.339386 0.000092
0.989777 0.337219 0.000092
0.989777 0.335205 0.000092
0.989777 0.333191 0.000092
0.989746 0.331268 0.000092
0.989746 0.329437 0.000092
0.989746 0.327667 0.000092
0.989746 0.326019 0.000092
0.989746 0.324158 0.000092
0.000183 0.486969 0.000549
0.000183 0.480164 0.000549
0.000183 0.470673 0.000580
0.000885 0.456573 0.000580
0.022552 0.447601 0.000488
0.088776 0.440918 0.000336
0.153931 0.435364 0.000214
0.213959 0.430634 0.000183
0.270416 0.426331 0.000183
0.324280 0.422211 0.000183
0.376312 0.418518 0.000183
0.426849 0.415039 0.000183
0.475891 0.411621 0.000183
0.523804 0.408478 0.000183
0.570679 0.405518 0.000183
0.616730 0.402618 0.000183
0.661804 0.399750 0.000153
0.705994 0.397156 0.000153
0.749542 0.394623 0.000122
0.792419 0.392181 0.000122
0.834717 0.389801 0.000122
0.876251 0.387360 0.000092
0.917297 0.384888 0.000092
0.956970 0.382355 0.000092
0.984283 0.379883 0.000092
0.989929 0.377625 0.000092
0.989929 0.375488 0.000092
0.989929 0.373352 0.000092
0.989929 0.371368 0.000092
0.989929 0.369446 0.000092
0.989899 0.367676 0.000092
0.989899 0.365967 0.000092
0.989899 0.364105 0.000092
0.000183 0.528290 0.000488
0.000183 0.521454 0.000519
0.000183 0.511871 0.000519
0.000458 0.497711 0.000519
0.011017 0.488678 0.000519
0.076324 0.481781 0.000305
0.141571 0.476257 0.000214
0.202148 0.471313 0.000183
0.258728 0.466980 0.000183
0.312683 0.462860 0.000183
0.364746 0.458984 0.000183
0.415253 0.455414 0.000183
0.464355 0.452057 0.000183
0.512085 0.448822 0.000153
0.559021 0.445648 0.000122
0.604980 0.442719 0.000122
0.650055 0.439850 0.000122
0.694122 0.437134 0.000092
0.737579 0.434448 0.000092
0.780548 0.431885 0.000092
0.822845 0.429443 0.000092
0.864410 0.427124 0.000092
0.905396 0.424591 0.000092
0.945953 0.422028 0.000092
0.979156 0.419373 0.000092
0.989777 0.417023 0.000092
0.990143 0.414886 0.000092
0.990143 0.412659 0.000092
0.990143 0.410614 0.000092
0.990112 0.408539 0.000092
0.990112 0.406647 0.000092
0.990112 0.404907 0.000092
0.990082 0.403046 0.000092
0.000183 0.568726 0.000458
0.000183 0.561737 0.000458
0.000183 0.552032 0.000488
0.000244 0.537811 0.000488
0.005066 0.528656 0.000488
0.064056 0.521698 0.000305
0.129181 0.515961 0.000214
0.190369 0.511078 0.000183
0.247162 0.506622 0.000183
0.301178 0.502472 0.000183
0.353363 0.498688 0.000183
0.403900 0.494873 0.000183
0.452972 0.491486 0.000122
0.500793 0.488220 0.000122
0.547516 0.485107 0.000122
0.593567 0.481934 0.000092
0.638611 0.478973 0.000092
0.682739 0.476227 0.000092
0.726074 0.473572 0.000092
0.768890 0.470856 0.000092
0.811218 0.468353 0.000092
0.852844 0.465973 0.000092
0.893799 0.463501 0.000092
0.934326 0.460907 0.000092
0.971069 0.458191 0.000092
0.988678 0.455658 0.000092
0.990387 0.453430 0.000092
0.990387 0.451233 0.000092
0.990356 0.449127 0.000092
0.990356 0.447052 0.000092
0.990356 0.445038 0.000092
0.990356 0.443237 0.000092
0.990326 0.441284 0.000092
0.000183 0.608276 0.000366
0.000183 0.601166 0.000397
0.000183 0.591431 0.000427
0.000183 0.577118 0.000427
0.003021 0.567963 0.000458
0.053314 0.560852 0.000275
0.117065 0.555023 0.000214
0.178436 0.549988 0.000183
0.235687 0.545502 0.000183
0.289764 0.541199 0.000183
0.342010 0.537354 0.000153
0.392670 0.533752 0.000122
0.441833 0.530060 0.000122
0.489624 0.526825 0.000092
0.536407 0.523621 0.000092
0.582306 0.520569 0.000092
0.627411 0.517456 0.000092
0.671600 0.514557 0.000092
0.714905 0.511841 0.000092
0.757660 0.509186 0.000092
0.799896 0.506561 0.000092
0.841522 0.504120 0.000092
0.882507 0.501617 0.000092
0.923004 0.499023 0.000092
0.961975 0.496307 0.000092
0.987030 0.493591 0.000092
0.990723 0.491272 0.000092
0.990723 0.489014 0.000092
0.990692 0.486877 0.000092
0.990662 0.484863 0.000092
0.990662 0.482758 0.000092
0.990631 0.480804 0.000092
0.990601 0.478821 0.000092
0.000183 0.646881 0.000275
0.000183 0.639771 0.000305
0.000183 0.630005 0.000336
0.000183 0.615692 0.000336
0.002258 0.606506 0.000366
0.043121 0.599274 0.000275
0.105530 0.593353 0.000183
0.166809 0.588257 0.000183
0.224365 0.583679 0.000183
0.278748 0.579376 0.000153
0.330933 0.575348 0.000122
0.381622 0.571686 0.000122
0.430847 0.568207 0.000092
0.478699 0.564697 0.000092
0.525513 0.561462 0.000092
0.571442 0.558350 0.000092
0.616486 0.555359 0.000092
0.660675 0.552307 0.000092
0.704041 0.549469 0.000092
0.746674 0.546783 0.000092
0.788940 0.544189 0.000092
0.830566 0.541595 0.000092
0.871460 0.539001 0.000092
0.912018 0.536438 0.000092
0.951904 0.533691 0.000092
0.983765 0.530975 0.000061
0.991058 0.528534 0.000092
0.991058 0.526245 0.000092
0.991028 0.524017 0.000092
0.990997 0.521942 0.000092
0.990967 0.519806 0.000092
0.990936 0.517822 0.000092
0.990906 0.515717 0.000092
0.000183 0.684601 0.000275
0.000183 0.677490 0.000244
0.000183 0.667603 0.000244
0.000183 0.653381 0.000275
0.001740 0.644165 0.000305
0.033020 0.636932 0.000214
0.094177 0.630829 0.000183
0.155365 0.625824 0.000183
0.213226 0.621185 0.000183
0.267883 0.616852 0.000122
0.320251 0.612854 0.000092
0.370941 0.609100 0.000092
0.420166 0.605499 0.000092
0.468079 0.602051 0.000092
0.514923 0.598694 0.000092
0.560791 0.595490 0.000092
0.605927 0.592438 0.000092
0.650024 0.589447 0.000092
0.693420 0.586487 0.000092
0.736145 0.583740 0.000092
0.778229 0.581116 0.000092
0.819855 0.578552 0.000092
0.860809 0.575897 0.000092
0.901306 0.573151 0.000092
0.941254 0.570496 0.000092
0.976868 0.567749 0.000061
0.990753 0.565216 0.000031
0.991364 0.562836 0.000061
0.991333 0.560638 0.000061
0.991333 0.558411 0.000061
0.991302 0.556244 0.000061
0.991302 0.554230 0.000061
0.991272 0.552063 0.000061
0.000183 0.721680 0.000275
0.000183 0.714417 0.000244
0.000183 0.704559 0.000244
0.000183 0.690277 0.000244
0.001221 0.681000 0.000244
0.022766 0.673798 0.000183
0.082855 0.667664 0.000183
0.143890 0.662567 0.000183
0.202057 0.657928 0.000153
0.257111 0.653625 0.000122
0.309631 0.649628 0.000092
0.360504 0.645782 0.000092
0.409790 0.642212 0.000092
0.457642 0.638702 0.000092
0.504517 0.635284 0.000092
0.550476 0.632080 0.000092
0.595490 0.628906 0.000092
0.639740 0.625854 0.000092
0.683105 0.622894 0.000092
0.725739 0.620178 0.000092
0.767944 0.617432 0.000092
0.809418 0.614838 0.000092
0.850403 0.612122 0.000092
0.890869 0.609406 0.000092
0.930847 0.606659 0.000092
0.968445 0.603943 0.000061
0.989502 0.601257 0.000000
0.991730 0.598846 0.000000
0.991699 0.596527 0.000000
0.991669 0.594238 0.000000
0.991638 0.592041 0.000000
0.991638 0.589996 0.000000
0.991608 0.587860 0.000000
0.000183 0.758087 0.000305
0.000183 0.750763 0.000305
0.000183 0.740967 0.000305
0.000183 0.726654 0.000305
0.000702 0.717316 0.000275
0.012512 0.710083 0.000214
0.071594 0.703918 0.000183
0.132507 0.698761 0.000183
0.190857 0.694031 0.000122
0.246338 0.689697 0.000092
0.299103 0.685699 0.000092
0.350098 0.681885 0.000092
0.399475 0.678192 0.000092
0.447418 0.674713 0.000092
0.494232 0.671326 0.000092
0.540161 0.667969 0.000092
0.585297 0.664825 0.000092
0.629486 0.661804 0.000092
0.672852 0.658813 0.000092
0.715607 0.655945 0.000092
0.757629 0.653229 0.000092
0.799194 0.650543 0.000092
0.840118 0.647797 0.000092
0.880615 0.645050 0.000092
0.920624 0.642334 0.000092
0.959686 0.639557 0.000061
0.987732 0.636871 0.000000
0.992096 0.634369 0.000000
0.992035 0.631927 0.000000
0.992004 0.629608 0.000000
0.991974 0.627350 0.000000
0.991974 0.625336 0.000000
0.991943 0.623199 0.000000
0.000183 0.793915 0.000275
0.000183 0.786560 0.000305
0.000183 0.776764 0.000305
0.000183 0.762482 0.000305
0.000305 0.753174 0.000305
0.005859 0.745911 0.000275
0.060333 0.739655 0.000183
0.121338 0.734467 0.000153
0.179474 0.729706 0.000122
0.235504 0.725342 0.000092
0.288513 0.721313 0.000092
0.339661 0.717468 0.000092
0.389130 0.713745 0.000092
0.437164 0.710205 0.000092
0.484039 0.706787 0.000092
0.529968 0.703430 0.000092
0.574982 0.700195 0.000092
0.619354 0.697144 0.000092
0.662781 0.694244 0.000092
0.705353 0.691345 0.000092
0.747437 0.688446 0.000092
0.788971 0.685760 0.000092
0.829895 0.683044 0.000092
0.870392 0.680298 0.000092
0.910492 0.677551 0.000092
0.949951 0.674774 0.000061
0.983734 0.671997 0.000000
0.992371 0.669434 0.000000
0.992493 0.666901 0.000000
0.992462 0.664551 0.000000
0.992432 0.662323 0.000000
0.992401 0.660278 0.000000
0.992371 0.658081 0.000000
0.000183 0.829224 0.000214
0.000183 0.821930 0.000244
0.000183 0.812012 0.000244
0.000183 0.797699 0.000275
0.000183 0.788422 0.000305
0.003632 0.781128 0.000275
0.050598 0.774811 0.000214
0.110382 0.769531 0.000153
0.168060 0.764893 0.000122
0.224457 0.760498 0.000092
0.277924 0.756531 0.000092
0.329254 0.752655 0.000092
0.378815 0.748810 0.000092
0.426880 0.745239 0.000092
0.473846 0.741821 0.000092
0.519867 0.738464 0.000092
0.564911 0.735229 0.000092
0.609161 0.732056 0.000092
0.652679 0.729095 0.000092
0.695404 0.726227 0.000092
0.737305 0.723358 0.000092
0.778839 0.720490 0.000092
0.819824 0.717896 0.000092
0.860260 0.715118 0.000092
0.900452 0.712372 0.000092
0.939972 0.709595 0.000031
0.976349 0.706757 0.000000
0.992126 0.704010 0.000000
0.992920 0.701508 0.000000
0.992920 0.699127 0.000000
0.992889 0.696899 0.000000
0.992859 0.694733 0.000000
0.992828 0.692535 0.000000
0.000153 0.864014 0.000153
0.000153 0.856628 0.000153
0.000183 0.846802 0.000183
0.000183 0.832428 0.000214
0.000183 0.823120 0.000244
0.002686 0.815826 0.000244
0.041199 0.809479 0.000183
0.099609 0.804108 0.000122
0.156860 0.799469 0.000092
0.213440 0.795105 0.000092
0.267334 0.791077 0.000092
0.318848 0.787201 0.000092
0.368561 0.783386 0.000092
0.416656 0.779694 0.000092
0.463684 0.776276 0.000092
0.509766 0.772980 0.000092
0.554993 0.769745 0.000092
0.599182 0.766632 0.000092
0.642670 0.763550 0.000092
0.685394 0.760559 0.000092
0.727478 0.757721 0.000092
0.768951 0.754944 0.000092
0.809937 0.752167 0.000092
0.850433 0.749512 0.000092
0.890564 0.746704 0.000092
0.930084 0.743988 0.000031
0.968170 0.741150 0.000000
0.991180 0.738281 0.000000
0.993378 0.735687 0.000000
0.993347 0.733337 0.000000
0.993317 0.731018 0.000000
0.993286 0.728790 0.000000
0.993256 0.726562 0.000000
0.000092 0.898285 0.000092
0.000122 0.890900 0.000122
0.000122 0.881042 0.000122
0.000153 0.866608 0.000153
0.000153 0.857300 0.000153
0.002075 0.849976 0.000183
0.031921 0.843597 0.000153
0.088928 0.838196 0.000092
0.146057 0.833527 0.000092
0.202515 0.829224 0.000092
0.256805 0.825104 0.000092
0.308563 0.821198 0.000092
0.358337 0.817383 0.000092
0.406555 0.813782 0.000092
0.453674 0.810303 0.000092
0.499817 0.806976 0.000092
0.545044 0.803741 0.000092
0.589386 0.800598 0.000092
0.632843 0.797577 0.000092
0.675568 0.794525 0.000092
0.717651 0.791565 0.000092
0.759155 0.788818 0.000092
0.800293 0.786163 0.000092
0.840759 0.783325 0.000061
0.880859 0.780548 0.000061
0.920410 0.777863 0.000031
0.959381 0.775024 0.000000
0.989716 0.772156 0.000000
0.993835 0.769531 0.000000
0.993774 0.767059 0.000000
0.993744 0.764709 0.000000
0.993713 0.762451 0.000000
0.993683 0.760162 0.000000
0.000092 0.932068 0.000092
0.000092 0.924774 0.000092
0.000092 0.914825 0.000092
0.000092 0.900391 0.000092
0.000122 0.891022 0.000122
0.001434 0.883636 0.000122
0.022522 0.877197 0.000092
0.078308 0.871826 0.000092
0.135742 0.867188 0.000092
0.191681 0.862823 0.000092
0.246124 0.858673 0.000092
0.298126 0.854767 0.000092
0.348114 0.850952 0.000092
0.396393 0.847382 0.000092
0.443726 0.843964 0.000092
0.489960 0.840576 0.000092
0.535187 0.837311 0.000092
0.579559 0.834167 0.000092
0.623077 0.831085 0.000092
0.665833 0.828094 0.000092
0.707977 0.825134 0.000092
0.749512 0.822357 0.000092
0.790466 0.819550 0.000092
0.831207 0.816895 0.000061
0.871185 0.814026 0.000031
0.910767 0.811279 0.000000
0.949921 0.808502 0.000000
0.985107 0.805573 0.000000
0.994171 0.802887 0.000000
0.994263 0.800385 0.000000
0.994232 0.797974 0.000000
0.994202 0.795746 0.000000
0.994171 0.793396 0.000000
0.000092 0.961182 0.000092
0.000092 0.955353 0.000092
0.000092 0.947174 0.000092
0.000092 0.933685 0.000092
0.000092 0.924347 0.000092
0.000824 0.916992 0.000092
0.013184 0.910461 0.000092
0.067596 0.904968 0.000092
0.125549 0.900269 0.000092
0.180908 0.895905 0.000092
0.235291 0.891754 0.000092
0.287659 0.887848 0.000092
0.337891 0.884094 0.000092
0.386353 0.880493 0.000092
0.433685 0.877075 0.000092
0.480103 0.873718 0.000092
0.525360 0.870422 0.000092
0.569824 0.867310 0.000092
0.613403 0.864197 0.000092
0.656219 0.861206 0.000092
0.698334 0.858337 0.000092
0.739868 0.855469 0.000092
0.780884 0.852692 0.000061
0.821472 0.849823 0.000061
0.861664 0.847168 0.000000
0.901367 0.844452 0.000000
0.940399 0.841705 0.000000
0.977417 0.838684 0.000000
0.993896 0.835907 0.000000
0.994720 0.833374 0.000000
0.994690 0.830994 0.000000
0.994659 0.828674 0.000000
0.994629 0.826263 0.000000
0.000092 0.974365 0.000092
0.000092 0.973145 0.000092
0.000092 0.970978 0.000092
0.000092 0.962463 0.000092
0.000092 0.955078 0.000092
0.000336 0.949005 0.000092
0.006134 0.943390 0.000092
0.056976 0.937653 0.000092
0.115234 0.932739 0.000092
0.170074 0.928436 0.000092
0.224091 0.924377 0.000061
0.276886 0.920502 0.000061
0.327423 0.916809 0.000092
0.376099 0.913239 0.000092
0.423431 0.909790 0.000092
0.469910 0.906464 0.000092
0.515442 0.903259 0.000061
0.559967 0.900146 0.000061
0.603668 0.897095 0.000061
0.646454 0.893982 0.000061
0.688599 0.891113 0.000031
0.730225 0.888275 0.000031
0.771240 0.885437 0.000031
0.811981 0.882629 0.000000
0.852173 0.879852 0.000000
0.891846 0.877289 0.000000
0.931091 0.874542 0.000000
0.969391 0.871582 0.000000
0.993256 0.868774 0.000000
0.995148 0.866180 0.000000
0.995117 0.863708 0.000000
0.995087 0.861298 0.000000
0.995056 0.858917 0.000000
0.000092 0.976196 0.000092
0.000092 0.976196 0.000092
0.000092 0.976196 0.000092
0.000092 0.974823 0.000092
0.000092 0.973450 0.000092
0.000092 0.972260 0.000092
0.003937 0.970398 0.000061
0.048004 0.966095 0.000031
0.104980 0.961884 0.000031
0.159485 0.958313 0.000061
0.212799 0.954987 0.000031
0.265686 0.951904 0.000000
0.316620 0.948853 0.000000
0.365417 0.945465 0.000031
0.412933 0.941986 0.000031
0.459412 0.938751 0.000061
0.505096 0.935638 0.000031
0.549835 0.932495 0.000000
0.593567 0.929474 0.000000
0.636414 0.926483 0.000000
0.678558 0.923553 0.000000
0.720306 0.920654 0.000000
0.761536 0.917908 0.000000
0.802155 0.915131 0.000000
0.842438 0.912384 0.000000
