滤镜资源/Professional Luts Collection/Lutify.me Professional/Utility LUTs/Log Conversions/Panasonic Cine-D.cube
# Created by: Lutify.me
# Copyright: (c) Copyright Lutify.me 2015
# Website: https://lutify.me
#LUT size
LUT_3D_SIZE 9
#LUT data points
0.000397 0.000397 0.000397
0.186646 0.000397 0.000397
0.438904 0.000488 0.000488
0.667633 0.000488 0.000488
0.868805 0.000488 0.000488
0.994385 0.000397 0.000397
0.994385 0.000397 0.000397
0.994385 0.000397 0.000397
0.994385 0.000397 0.000397
0.000305 0.137482 0.000488
0.115356 0.109009 0.000488
0.367554 0.094666 0.000305
0.576874 0.084808 0.000305
0.765747 0.076324 0.000305
0.940857 0.068542 0.000305
0.991028 0.062225 0.000275
0.991211 0.056915 0.000275
0.991333 0.052155 0.000305
0.000275 0.354523 0.000580
0.057434 0.316864 0.000488
0.307373 0.297150 0.000183
0.513397 0.283966 0.000183
0.699860 0.273315 0.000183
0.873230 0.263977 0.000183
0.989624 0.255035 0.000092
0.989624 0.247681 0.000092
0.989624 0.241028 0.000092
0.000183 0.528290 0.000488
0.011017 0.488678 0.000519
0.258728 0.466980 0.000183
0.464355 0.452057 0.000183
0.650055 0.439850 0.000122
0.822845 0.429443 0.000092
0.979156 0.419373 0.000092
0.990143 0.410614 0.000092
0.990082 0.403046 0.000092
0.000183 0.684601 0.000275
0.001740 0.644165 0.000305
0.213226 0.621185 0.000183
0.420166 0.605499 0.000092
0.605927 0.592438 0.000092
0.778229 0.581116 0.000092
0.941254 0.570496 0.000092
0.991333 0.560638 0.000061
0.991272 0.552063 0.000061
0.000183 0.829224 0.000214
0.000183 0.788422 0.000305
0.168060 0.764893 0.000122
0.378815 0.748810 0.000092
0.564911 0.735229 0.000092
0.737305 0.723358 0.000092
0.900452 0.712372 0.000092
0.992920 0.701508 0.000000
0.992828 0.692535 0.000000
0.000092 0.961182 0.000092
0.000092 0.924347 0.000092
0.125549 0.900269 0.000092
0.337891 0.884094 0.000092
0.525360 0.870422 0.000092
0.698334 0.858337 0.000092
0.861664 0.847168 0.000000
0.993896 0.835907 0.000000
0.994629 0.826263 0.000000
0.000092 0.976196 0.000092
0.000092 0.976196 0.000092
0.084747 0.976013 0.000000
0.295776 0.977936 0.000000
0.485107 0.978638 0.000000
0.658813 0.978424 0.000000
0.822754 0.973419 0.000000
0.978271 0.963867 0.000000
0.995361 0.954651 0.000000
0.000092 0.976196 0.000092
0.000092 0.976196 0.000092
0.046570 0.975891 0.000031
0.256927 0.977478 0.000000
0.447601 0.979340 0.000000
0.622040 0.980804 0.000000
0.785797 0.981812 0.000000
0.942780 0.982422 0.000000
0.995331 0.982208 0.000000
0.000397 0.000397 0.202942
0.174042 0.000397 0.168976
0.429596 0.000488 0.161591
0.660645 0.000397 0.177734
0.857117 0.000397 0.181274
0.992767 0.000305 0.181091
0.992920 0.000305 0.179779
0.992950 0.000305 0.178009
0.992950 0.000305 0.176147
0.000305 0.127411 0.129333
0.101776 0.096222 0.097961
0.354645 0.080353 0.081726
0.563782 0.069489 0.071014
0.752380 0.059998 0.061951
0.927429 0.052429 0.054382
0.991364 0.046234 0.047760
0.991577 0.040558 0.042145
0.991730 0.035645 0.037231
0.000214 0.340820 0.079346
0.042572 0.302460 0.039124
0.292572 0.282410 0.016144
0.498779 0.268768 0.006561
0.685303 0.257782 0.003235
0.858704 0.248108 0.002289
0.988708 0.238831 0.001740
0.989685 0.231140 0.001312
0.989655 0.224335 0.000977
0.000183 0.513763 0.035858
0.003601 0.473755 0.003448
0.242554 0.451630 0.001556
0.448639 0.436584 0.000732
0.634552 0.424164 0.000275
0.807343 0.413513 0.000092
0.968109 0.403473 0.000092
0.990021 0.394409 0.000092
0.989990 0.386749 0.000092
0.000183 0.669525 0.003754
0.000671 0.628998 0.000580
0.196136 0.605682 0.000183
0.403687 0.589722 0.000092
0.589905 0.576538 0.000092
0.762268 0.565063 0.000092
0.925537 0.554535 0.000092
0.991211 0.544403 0.000061
0.991150 0.535797 0.000092
0.000183 0.814209 0.001282
0.000183 0.773071 0.000305
0.149933 0.749237 0.000122
0.361816 0.733032 0.000092
0.548340 0.719330 0.000092
0.720978 0.707367 0.000092
0.884247 0.696320 0.000092
0.992706 0.685394 0.000000
0.992615 0.676270 0.000000
0.000092 0.949036 0.000092
0.000092 0.908936 0.000092
0.107635 0.884583 0.000092
0.320618 0.868347 0.000092
0.508514 0.854584 0.000092
0.681793 0.842316 0.000092
0.845245 0.831085 0.000031
0.991608 0.819763 0.000000
0.994415 0.810089 0.000000
0.000092 0.976196 0.000092
0.000092 0.976196 0.000092
0.065674 0.975922 0.000000
0.277618 0.976532 0.000000
0.467773 0.976562 0.000000
0.642181 0.968903 0.000000
0.806366 0.959290 0.000000
0.963348 0.949249 0.000000
0.995453 0.938873 0.000000
0.000092 0.976196 0.000092
0.000092 0.976196 0.000092
0.030823 0.975922 0.000031
0.238190 0.977295 0.000000
0.430023 0.979156 0.000000
0.605042 0.980713 0.000000
0.768890 0.981720 0.000000
0.926025 0.982422 0.000000
0.995331 0.982208 0.000000
0.000397 0.000397 0.460114
0.168335 0.000488 0.429474
0.429352 0.000458 0.427490
0.656494 0.000397 0.438690
0.850220 0.000366 0.439362
0.989044 0.000214 0.437653
0.990601 0.000244 0.435730
0.990601 0.000244 0.433533
0.990631 0.000244 0.431244
0.000305 0.123566 0.392273
0.094666 0.089935 0.361359
0.346741 0.072754 0.346130
0.555664 0.061127 0.336121
0.743958 0.051270 0.328339
0.918243 0.043060 0.321564
0.989838 0.036682 0.315186
0.989990 0.030884 0.309357
0.990112 0.025482 0.304291
0.000183 0.333282 0.342804
0.033813 0.294708 0.303925
0.282013 0.274628 0.283508
0.490204 0.261047 0.269501
0.677246 0.249847 0.258057
0.850555 0.240265 0.248566
0.988342 0.231049 0.239960
0.990417 0.223053 0.231964
0.990387 0.215851 0.224731
0.000183 0.505585 0.299042
0.002502 0.465271 0.256531
0.228821 0.443604 0.233246
0.439606 0.428741 0.216461
0.626740 0.416382 0.202789
0.799622 0.405518 0.190704
0.962128 0.395599 0.179596
0.992218 0.386505 0.169556
0.992096 0.378387 0.160583
0.000153 0.661316 0.257965
0.000336 0.620056 0.212646
0.181641 0.597351 0.187012
0.393829 0.581726 0.167847
0.581635 0.568665 0.151398
0.754608 0.557007 0.136353
0.918243 0.546478 0.122467
0.994110 0.536255 0.110046
0.993927 0.527466 0.100464
0.000092 0.805756 0.218414
0.000122 0.764069 0.170990
0.137970 0.740601 0.142914
0.350677 0.724579 0.120697
0.539551 0.711121 0.101166
0.712952 0.699036 0.084808
0.876373 0.687866 0.070801
0.995392 0.676880 0.058197
0.995026 0.667389 0.049042
0.000092 0.941742 0.178314
0.000092 0.899994 0.129395
0.095520 0.875427 0.098846
0.308563 0.859467 0.073364
0.498962 0.845734 0.053284
0.672821 0.833252 0.040649
0.836273 0.821777 0.029449
0.988739 0.810211 0.018677
0.995453 0.800079 0.010071
0.000000 0.977356 0.138092
0.000000 0.977020 0.085815
0.052765 0.976196 0.052917
0.264954 0.976318 0.032990
0.457397 0.970917 0.017548
0.631989 0.960052 0.006012
0.796021 0.949646 0.003906
0.953003 0.938873 0.002777
0.995819 0.928284 0.001831
0.000000 0.977081 0.098480
0.000031 0.976654 0.046295
0.019928 0.976196 0.018066
0.225891 0.977417 0.004547
0.418579 0.979309 0.002991
0.593872 0.980774 0.001648
0.757782 0.981689 0.000427
0.914856 0.982422 0.000000
0.995331 0.982208 0.000000
0.000397 0.000488 0.678802
0.166077 0.000519 0.650482
0.433777 0.000427 0.654694
0.653473 0.000366 0.658020
0.845154 0.000305 0.656311
0.985138 0.000122 0.652435
0.987640 0.000122 0.649933
0.987701 0.000122 0.647430
0.987732 0.000122 0.644958
0.000305 0.121063 0.611816
0.089844 0.085693 0.580719
0.339935 0.067352 0.565155
0.549438 0.055634 0.555023
0.737396 0.045654 0.546906
0.911072 0.036743 0.539673
0.987946 0.029266 0.532928
0.988068 0.023102 0.527222
0.988342 0.017395 0.522125
0.000183 0.328186 0.560242
0.027130 0.289001 0.522522
0.271210 0.269165 0.503143
0.482635 0.255463 0.489655
0.669983 0.244171 0.478851
0.843231 0.234406 0.469696
0.986359 0.225342 0.461548
0.989655 0.217194 0.453827
0.989532 0.209808 0.446991
0.000122 0.499725 0.517059
0.002075 0.459076 0.476196
0.219452 0.437592 0.454498
0.430695 0.422821 0.439117
0.618805 0.410370 0.426392
0.792114 0.399872 0.415588
0.955353 0.390198 0.405914
0.992218 0.381134 0.396912
0.992065 0.372803 0.388672
0.000092 0.654968 0.477142
0.000092 0.613586 0.434082
0.173065 0.591187 0.410583
0.383240 0.575958 0.393738
0.573059 0.562775 0.379425
0.746857 0.551392 0.367157
0.910614 0.541077 0.356262
0.994659 0.531128 0.345764
0.994507 0.522247 0.336609
0.000092 0.799377 0.439270
0.000092 0.757538 0.394623
0.129120 0.734314 0.369629
0.336517 0.718811 0.351196
0.530518 0.705627 0.335785
0.705109 0.693726 0.322083
0.869080 0.682892 0.309723
0.996582 0.672638 0.297974
0.996735 0.663116 0.287811
0.000061 0.935272 0.401794
0.000092 0.893433 0.356415
0.086029 0.869080 0.329895
0.291534 0.853973 0.310608
0.489166 0.840698 0.293915
0.665161 0.828552 0.278839
0.829712 0.817444 0.265228
0.984680 0.807159 0.252045
0.998627 0.797119 0.240631
0.000000 0.978546 0.364777
0.000000 0.978363 0.318054
0.044769 0.977020 0.290131
0.251129 0.977539 0.270355
0.447083 0.967834 0.252289
0.625549 0.957306 0.235901
0.790833 0.946442 0.220551
0.948242 0.936127 0.206085
0.999878 0.925842 0.192993
0.000000 0.978363 0.329071
0.000000 0.978180 0.281128
0.011108 0.977905 0.251862
0.213989 0.980804 0.231018
0.407898 0.983429 0.211639
0.587402 0.985260 0.193298
0.753174 0.986786 0.176056
0.910797 0.988098 0.160980
0.999817 0.988525 0.147400
0.000458 0.000580 0.877655
0.166382 0.000641 0.852051
0.435303 0.000427 0.857666
0.650482 0.000305 0.855804
0.839844 0.000183 0.851685
0.980347 0.000000 0.845001
0.983643 0.000000 0.841919
0.983673 0.000000 0.839081
0.983673 0.000000 0.836426
0.000214 0.119263 0.810333
0.086029 0.082336 0.779144
0.333130 0.063416 0.763306
0.543884 0.051270 0.752716
0.731537 0.040588 0.744202
0.904358 0.031097 0.736206
0.985260 0.023132 0.728333
0.985443 0.016357 0.722595
0.985687 0.009644 0.717499
0.000183 0.324127 0.757172
0.021515 0.284607 0.720184
0.264618 0.264648 0.701172
0.475220 0.250793 0.687988
0.663361 0.239502 0.677277
0.836548 0.229736 0.668091
0.984283 0.220367 0.659790
0.989227 0.211914 0.652130
0.989105 0.204468 0.645294
0.000092 0.494751 0.713928
0.001678 0.453918 0.674072
0.212860 0.432678 0.653351
0.420929 0.418030 0.638672
0.611206 0.405579 0.626160
0.784912 0.394989 0.615631
0.948883 0.385223 0.606110
0.992004 0.376038 0.597168
0.991882 0.367706 0.589203
0.000092 0.649750 0.674622
0.000092 0.608124 0.632751
0.165924 0.585785 0.610321
0.369873 0.570801 0.594330
0.564575 0.557648 0.580505
0.739136 0.546356 0.568848
0.903229 0.535919 0.558167
0.994263 0.526062 0.548309
0.994141 0.517212 0.539368
0.000092 0.793671 0.637421
0.000092 0.751831 0.594269
0.121429 0.728668 0.570282
0.323700 0.713440 0.553101
0.521057 0.700470 0.538635
0.696808 0.688477 0.525543
0.861420 0.677795 0.513916
0.995667 0.667725 0.503021
0.996429 0.658142 0.493256
0.000061 0.929413 0.600739
0.000092 0.887482 0.556824
0.077972 0.863190 0.531494
0.282562 0.848480 0.514038
0.478149 0.835449 0.498688
0.656555 0.823639 0.484741
0.821747 0.812714 0.472198
0.977936 0.802490 0.460602
0.998322 0.792542 0.449951
0.000000 0.979309 0.564636
0.000000 0.979156 0.519653
0.038177 0.977203 0.492950
0.243195 0.974335 0.475555
0.432373 0.963623 0.459595
0.616058 0.952850 0.444916
0.782593 0.942017 0.431702
0.940399 0.931702 0.419495
0.999725 0.921600 0.408203
0.000000 0.979218 0.530090
0.000000 0.979004 0.484100
0.005798 0.978851 0.456238
0.205780 0.982269 0.438080
0.390991 0.985565 0.421539
0.577240 0.988037 0.406219
0.744568 0.989899 0.392426
0.902924 0.991394 0.379944
0.999817 0.992096 0.367676
0.000397 0.000702 0.994598
0.170593 0.000793 0.992432
0.432526 0.000458 0.989929
0.645142 0.000122 0.987091
0.832458 0.000000 0.984070
0.979187 0.000000 0.984070
0.983429 0.000000 0.983185
0.983429 0.000000 0.982361
0.983429 0.000000 0.981567
0.000214 0.118073 0.978760
0.082550 0.080261 0.959442
0.327301 0.060913 0.946655
0.537994 0.048248 0.936005
0.725250 0.036530 0.926514
0.897644 0.025879 0.917755
0.984467 0.017731 0.910553
0.984222 0.010162 0.904358
0.984039 0.006683 0.898895
0.000092 0.320801 0.940308
0.016327 0.280975 0.903748
0.259186 0.261078 0.884796
0.466919 0.247284 0.871582
0.656769 0.235870 0.860779
0.830475 0.225830 0.851562
0.982361 0.216003 0.843414
0.988922 0.207367 0.835724
0.988800 0.199677 0.828918
0.000092 0.490601 0.896942
0.001373 0.449554 0.857788
0.206879 0.428467 0.837219
0.409241 0.413940 0.822723
0.604218 0.401672 0.810577
0.778595 0.390808 0.800140
0.942993 0.380920 0.790955
0.991669 0.371338 0.782074
0.991547 0.363037 0.774261
0.000092 0.644897 0.857605
0.000092 0.603302 0.816681
0.159485 0.581055 0.794678
0.359253 0.566315 0.779266
0.556427 0.553375 0.765900
0.732208 0.541962 0.754517
0.896698 0.531433 0.744049
0.993774 0.521606 0.734436
0.993713 0.512390 0.725616
0.000092 0.788452 0.820465
0.000092 0.746582 0.778473
0.114532 0.723450 0.755127
0.316284 0.708740 0.738861
0.511261 0.695709 0.724792
0.688965 0.683868 0.712280
0.854248 0.673218 0.701111
0.994354 0.663239 0.690796
0.995911 0.653534 0.681213
0.000000 0.924011 0.784363
0.000031 0.881989 0.741486
0.070557 0.857819 0.717010
0.275543 0.843506 0.700592
0.465271 0.830719 0.685883
0.647858 0.818939 0.672668
0.814026 0.808105 0.660797
0.971252 0.797821 0.649658
0.997559 0.787811 0.639435
0.000000 0.979584 0.748779
0.000000 0.979523 0.704926
0.032043 0.977051 0.679291
0.236237 0.970032 0.663177
0.418304 0.959534 0.648132
0.606689 0.948151 0.634186
0.774506 0.937317 0.621704
0.932861 0.927094 0.610229
0.999054 0.916962 0.599457
0.000000 0.979584 0.714996
0.000000 0.979462 0.670319
0.004242 0.979431 0.643372
0.198517 0.983276 0.626648
0.379913 0.987274 0.611084
0.566803 0.989929 0.596802
0.736084 0.991882 0.583923
0.895233 0.993561 0.572296
0.999756 0.994446 0.560730
0.000397 0.000702 0.994598
0.179474 0.000793 0.992371
0.432861 0.000458 0.989929
0.643860 0.000122 0.987091
0.830200 0.000000 0.984100
0.978546 0.000000 0.984192
0.983429 0.000000 0.984192
0.983429 0.000000 0.984192
0.983429 0.000000 0.984192
0.000214 0.116272 0.987549
0.079681 0.077667 0.987854
0.323395 0.058228 0.987793
0.532867 0.045471 0.987061
0.719452 0.033630 0.985504
0.892853 0.021210 0.985565
0.984314 0.012451 0.985321
0.984070 0.007111 0.984985
0.983856 0.004700 0.984711
0.000092 0.317535 0.986237
0.011292 0.277496 0.986053
0.253815 0.258331 0.987366
0.457458 0.244568 0.988098
0.650513 0.232727 0.989075
0.825226 0.222076 0.989197
0.980591 0.212494 0.988464
0.988617 0.203735 0.986847
0.988495 0.195953 0.985107
0.000092 0.486511 0.986267
0.001129 0.445374 0.986176
0.200897 0.424988 0.985626
0.399780 0.410736 0.983551
0.596741 0.398285 0.978821
0.772491 0.387207 0.972076
0.937286 0.377258 0.964874
0.991211 0.367523 0.956848
0.991150 0.359009 0.949585
0.000000 0.640228 0.986847
0.000031 0.598602 0.979492
0.153473 0.576935 0.966248
0.353027 0.562408 0.953827
0.547943 0.549713 0.941528
0.725677 0.538147 0.930267
0.890778 0.527649 0.920105
0.993378 0.517670 0.910492
0.993317 0.508362 0.901611
0.000000 0.783203 0.981628
0.000000 0.741638 0.952026
0.108215 0.718781 0.929565
0.310211 0.704681 0.914246
0.500153 0.691650 0.900513
0.681702 0.679810 0.888336
0.847656 0.669189 0.877472
0.992828 0.658875 0.867218
0.995270 0.649109 0.857727
0.000000 0.918427 0.957245
0.000000 0.876617 0.915741
0.063690 0.852631 0.891663
0.269531 0.838989 0.876099
0.452942 0.826263 0.861877
0.639832 0.814453 0.849030
0.806885 0.803589 0.837433
0.964813 0.793335 0.826691
0.996796 0.783264 0.816650
0.000000 0.979584 0.922516
0.000000 0.979095 0.879639
0.026550 0.975830 0.854248
0.229980 0.965973 0.838776
0.410706 0.955048 0.824463
0.597595 0.943512 0.811127
0.766907 0.932648 0.799072
0.925781 0.922485 0.787994
0.998138 0.912292 0.777527
0.000000 0.979584 0.889404
0.000000 0.979584 0.845581
0.003693 0.979614 0.818939
0.191986 0.984314 0.802856
0.373627 0.988464 0.788208
0.555573 0.991241 0.774506
0.728027 0.993347 0.762268
0.887878 0.995178 0.751160
0.998993 0.996094 0.740143
0.000397 0.000702 0.994598
0.183716 0.000793 0.992340
0.432892 0.000458 0.989929
0.642609 0.000122 0.987091
0.828217 0.000000 0.984100
0.977905 0.000000 0.984192
0.983429 0.000000 0.984192
0.983429 0.000000 0.984192
0.983429 0.000000 0.984192
0.000214 0.114532 0.987579
0.077301 0.075134 0.987915
0.320770 0.054993 0.987915
0.529755 0.041840 0.987122
0.716003 0.029510 0.985413
0.889221 0.016876 0.985382
0.984161 0.008179 0.985138
0.983917 0.005341 0.984802
0.983704 0.002838 0.984497
0.000092 0.314148 0.986267
0.009308 0.273804 0.986053
0.250000 0.254272 0.987335
0.453186 0.240387 0.988037
0.646301 0.228271 0.988983
0.820892 0.217438 0.989685
0.977783 0.207611 0.989990
0.988525 0.198730 0.989838
0.988434 0.190765 0.989716
0.000092 0.482422 0.986267
0.000916 0.441223 0.986176
0.196472 0.420502 0.987946
0.394928 0.406250 0.989929
0.591675 0.393616 0.990967
0.767517 0.382599 0.991760
0.932281 0.372406 0.992188
0.991089 0.362885 0.992188
0.990936 0.354340 0.992065
0.000000 0.635803 0.986816
0.000000 0.594025 0.986664
0.148224 0.572266 0.988678
0.348022 0.557892 0.991211
0.540710 0.545258 0.992432
0.719757 0.533813 0.993256
0.885162 0.523315 0.993744
0.992950 0.513275 0.993896
0.992828 0.503998 0.993774
0.000000 0.778503 0.987427
0.000000 0.736481 0.987274
0.102539 0.713867 0.989258
0.305023 0.700104 0.992249
0.487549 0.687286 0.993591
0.674835 0.675751 0.994476
0.841461 0.665131 0.995117
0.990967 0.655060 0.995392
0.994690 0.645355 0.994965
0.000000 0.913269 0.987549
0.000000 0.871124 0.987579
0.057159 0.847626 0.989136
0.263824 0.834595 0.992859
0.443512 0.822113 0.994385
0.631439 0.810455 0.994507
0.799866 0.799622 0.993530
0.958160 0.789368 0.991913
0.995972 0.779114 0.983643
0.000000 0.979218 0.987183
0.000000 0.978241 0.987213
0.021088 0.972229 0.988037
0.224152 0.962128 0.990845
0.404663 0.950714 0.989624
0.587738 0.939240 0.978790
0.759338 0.928314 0.968414
0.919037 0.918182 0.957642
0.997345 0.907990 0.947235
0.000000 0.979218 0.987183
0.000000 0.979248 0.985565
0.003174 0.979431 0.981323
0.185883 0.985168 0.969177
0.367767 0.989502 0.956970
0.543762 0.992401 0.943909
0.720093 0.994507 0.931885
0.880493 0.996368 0.920502
0.998291 0.997375 0.910065
0.000397 0.000702 0.994598
0.186096 0.000793 0.992310
0.432831 0.000458 0.989929
0.641510 0.000122 0.987122
0.826599 0.000000 0.984100
0.977386 0.000000 0.984192
0.983429 0.000000 0.984192
0.983429 0.000000 0.984192
0.983429 0.000000 0.984192
0.000214 0.113159 0.987610
0.075012 0.072662 0.988007
0.318573 0.052277 0.988007
0.527100 0.038696 0.987183
0.713043 0.025787 0.985352
0.885956 0.012848 0.985229
0.984039 0.006683 0.984924
0.983765 0.003723 0.984619
0.983643 0.002258 0.984467
0.000092 0.311218 0.986267
0.007782 0.270538 0.986115
0.246643 0.250580 0.987305
0.449219 0.236450 0.987976
0.642548 0.224274 0.988892
0.817047 0.213257 0.989624
0.974915 0.203186 0.989929
0.988464 0.194214 0.989777
0.988342 0.185974 0.989655
0.000092 0.478821 0.986267
0.000671 0.437256 0.986176
0.192444 0.416504 0.987885
0.390778 0.402161 0.989807
0.587189 0.389252 0.990875
0.763245 0.378174 0.991669
0.927826 0.367767 0.992096
0.990997 0.358185 0.992126
0.990875 0.349396 0.992004
0.000000 0.631805 0.986786
0.000000 0.589813 0.986633
0.143585 0.567810 0.988525
0.343658 0.553406 0.991119
0.535706 0.540619 0.992340
0.715057 0.529083 0.993195
0.880402 0.518585 0.993683
0.992889 0.508362 0.993866
0.992798 0.499054 0.993713
0.000000 0.774231 0.987396
0.000000 0.731995 0.987244
0.097351 0.709198 0.989105
0.300110 0.695374 0.992157
0.482208 0.682556 0.993530
0.669861 0.670898 0.994415
0.836456 0.660217 0.995087
0.989258 0.650024 0.995331
0.994629 0.640228 0.995239
0.000000 0.908661 0.987549
0.000000 0.866577 0.987579
0.051941 0.842773 0.988983
0.258728 0.829651 0.992767
0.438446 0.817169 0.994415
0.626007 0.805389 0.995361
0.794617 0.794525 0.995972
0.952972 0.784302 0.996307
0.995819 0.774139 0.996338
0.000000 0.979218 0.987183
0.000000 0.977570 0.987213
0.016083 0.967773 0.987915
0.218781 0.957367 0.992584
0.399445 0.945648 0.994720
0.581421 0.934143 0.995789
0.753510 0.923370 0.996613
0.913239 0.913269 0.997253
0.996979 0.903076 0.997314
0.000000 0.979218 0.987183
0.000000 0.979218 0.987183
0.002686 0.979340 0.987335
0.180237 0.985138 0.991821
0.362366 0.989563 0.994171
0.536163 0.992584 0.995575
0.713562 0.994995 0.996643
0.874359 0.996857 0.997742
0.997742 0.997955 0.998108
