滤镜资源/Professional Luts Collection/Lutify.me Professional/Utility LUTs/Log Conversions/REDLogFilm-REDColor.cube
# Created by: Lutify.me
# Copyright: (c) Copyright Lutify.me 2015
# Website: https://lutify.me
LUT_3D_SIZE 9
0.025327 0.025327 0.025327
0.051226 0.024558 0.024529
0.131664 0.022539 0.022435
0.280662 0.017402 0.017118
0.484485 0.005831 0.005202
0.683386 -0.022258 -0.023958
0.852250 -0.073059 -0.073059
0.950823 -0.073059 -0.073059
0.986537 -0.073059 -0.073059
0.024281 0.050998 0.024593
0.049888 0.050016 0.023801
0.130496 0.047435 0.021727
0.279880 0.040849 0.016468
0.484176 0.025410 0.004673
0.683283 -0.005695 -0.024487
0.852220 -0.073059 -0.073059
0.950818 -0.073059 -0.073059
0.986536 -0.073059 -0.073059
0.021552 0.130935 0.022662
0.046392 0.130076 0.021891
0.127356 0.127773 0.019864
0.277783 0.121524 0.014774
0.483347 0.103694 0.003261
0.683006 0.050297 -0.025899
0.852140 -0.036450 -0.073059
0.950805 -0.073059 -0.073059
0.986535 -0.073059 -0.073059
0.014773 0.279225 0.017739
0.037652 0.278648 0.017021
0.118771 0.277105 0.015162
0.272116 0.272950 0.010529
0.481119 0.261546 -0.000506
0.682266 0.229012 -0.029666
0.851926 0.128435 -0.073059
0.950770 -0.073059 -0.073059
0.986532 -0.073059 -0.073059
-0.000160 0.482911 0.006574
0.017619 0.482682 0.005999
0.093737 0.482070 0.004464
0.256421 0.480427 0.000369
0.475051 0.475978 -0.010559
0.680264 0.463603 -0.039719
0.851353 0.426321 -0.073059
0.950676 0.274146 -0.073059
0.986523 -0.073059 -0.073059
-0.038446 0.681962 -0.020251
-0.021754 0.681885 -0.020826
0.025957 0.681680 -0.022361
0.210847 0.681130 -0.026456
0.457908 0.679650 -0.037384
0.674736 0.675599 -0.066544
0.849807 0.664063 -0.073059
0.950424 0.628388 -0.073059
0.986498 0.477262 -0.073059
-0.073059 0.851144 -0.073059
-0.073059 0.851121 -0.073059
-0.073059 0.851062 -0.073059
0.052026 0.850903 -0.073059
0.403525 0.850479 -0.073059
0.658659 0.849335 -0.073059
0.845547 0.846213 -0.073059
0.949741 0.837329 -0.073059
0.986433 0.808377 -0.073059
-0.073059 0.950336 -0.073059
-0.073059 0.950332 -0.073059
-0.073059 0.950322 -0.073059
-0.073059 0.950296 -0.073059
0.132348 0.950226 -0.073059
0.606380 0.950039 -0.073059
0.833117 0.949533 -0.073059
0.947843 0.948142 -0.073059
0.986255 0.944117 -0.073059
-0.073059 0.986410 -0.073059
-0.073059 0.986410 -0.073059
-0.073059 0.986409 -0.073059
-0.073059 0.986407 -0.073059
-0.073059 0.986400 -0.073059
0.281106 0.986381 -0.073059
0.789483 0.986333 -0.073059
0.942179 0.986200 -0.073059
0.985753 0.985832 -0.073059
0.024653 0.024552 0.050983
0.050364 0.023789 0.049964
0.130913 0.021791 0.047287
0.280159 0.016710 0.040470
0.484286 0.005273 0.024525
0.683319 -0.022817 -0.007403
0.852230 -0.073059 -0.073059
0.950820 -0.073059 -0.073059
0.986537 -0.073059 -0.073059
0.023613 0.050008 0.050046
0.049033 0.049033 0.049033
0.129741 0.046479 0.046383
0.279375 0.039957 0.039631
0.483976 0.024634 0.023797
0.683216 -0.006253 -0.007932
0.852200 -0.073059 -0.073059
0.950815 -0.073059 -0.073059
0.986536 -0.073059 -0.073059
0.020908 0.130069 0.047578
0.045566 0.129208 0.046592
0.126594 0.126898 0.043997
0.277275 0.120623 0.037444
0.483147 0.102705 0.021887
0.682939 0.049312 -0.009344
0.852120 -0.037009 -0.073059
0.950801 -0.073059 -0.073059
0.986535 -0.073059 -0.073059
0.014204 0.278643 0.041269
0.036912 0.278066 0.040345
0.117975 0.276520 0.037946
0.271598 0.272356 0.031869
0.480917 0.260929 0.017018
0.682198 0.228336 -0.013111
0.851907 0.127562 -0.073059
0.950766 -0.073059 -0.073059
0.986531 -0.073059 -0.073059
-0.000646 0.482680 0.026437
0.017014 0.482451 0.025632
0.092844 0.481838 0.023511
0.255876 0.480194 0.018113
0.474843 0.475739 0.005996
0.680196 0.463349 -0.023164
0.851334 0.426016 -0.073059
0.950673 0.273555 -0.073059
0.986522 -0.073059 -0.073059
-0.038932 0.681884 -0.003696
-0.022240 0.681807 -0.004271
0.025279 0.681602 -0.005806
0.210239 0.681052 -0.009901
0.457680 0.679571 -0.020829
0.674664 0.675516 -0.049989
0.849787 0.663974 -0.073059
0.950421 0.628277 -0.073059
0.986498 0.477025 -0.073059
-0.073059 0.851121 -0.073059
-0.073059 0.851099 -0.073059
-0.073059 0.851039 -0.073059
0.051161 0.850881 -0.073059
0.403228 0.850456 -0.073059
0.658579 0.849312 -0.073059
0.845526 0.846189 -0.073059
0.949738 0.837303 -0.073059
0.986433 0.808342 -0.073059
-0.073059 0.950332 -0.073059
-0.073059 0.950328 -0.073059
-0.073059 0.950319 -0.073059
-0.073059 0.950292 -0.073059
0.131599 0.950222 -0.073059
0.606273 0.950035 -0.073059
0.833093 0.949529 -0.073059
0.947840 0.948138 -0.073059
0.986254 0.944113 -0.073059
-0.073059 0.986410 -0.073059
-0.073059 0.986410 -0.073059
-0.073059 0.986409 -0.073059
-0.073059 0.986406 -0.073059
-0.073059 0.986399 -0.073059
0.280604 0.986381 -0.073059
0.789448 0.986332 -0.073059
0.942174 0.986199 -0.073059
0.985752 0.985832 -0.073059
0.022876 0.022516 0.130887
0.048088 0.021775 0.129996
0.128898 0.019823 0.127604
0.278812 0.014915 0.121107
0.483753 0.003782 0.102525
0.683142 -0.024308 0.047274
0.852179 -0.073059 -0.041038
0.950811 -0.073059 -0.073059
0.986536 -0.073059 -0.073059
0.021862 0.047406 0.130067
0.046789 0.046458 0.129173
0.127720 0.043960 0.126775
0.278025 0.037639 0.120253
0.483443 0.022596 0.101583
0.683038 -0.007744 0.046369
0.852149 -0.073059 -0.041567
0.950806 -0.073059 -0.073059
0.986535 -0.073059 -0.073059
0.019211 0.127747 0.127868
0.043388 0.126879 0.126967
0.124549 0.124549 0.124549
0.275916 0.118197 0.117950
0.482611 0.100044 0.099051
0.682761 0.046728 0.043984
0.852069 -0.038500 -0.042979
0.950793 -0.073059 -0.073059
0.986534 -0.073059 -0.073059
0.012717 0.277088 0.121906
0.034969 0.276507 0.120981
0.115829 0.274954 0.118488
0.270211 0.270765 0.111632
0.480375 0.259275 0.092177
0.682019 0.226529 0.037934
0.851855 0.125218 -0.046746
0.950758 -0.073059 -0.073059
0.986531 -0.073059 -0.073059
-0.001943 0.482063 0.104950
0.015439 0.481833 0.103936
0.090453 0.481218 0.101211
0.254416 0.479569 0.093786
0.474285 0.475100 0.072439
0.680013 0.462669 0.023500
0.851282 0.425200 -0.056799
0.950664 0.271971 -0.073059
0.986522 -0.073059 -0.073059
-0.040229 0.681677 0.053814
-0.023537 0.681600 0.052789
0.023489 0.681395 0.050061
0.208614 0.680844 0.043057
0.457073 0.679360 0.026742
0.674472 0.675297 -0.005813
0.849734 0.663734 -0.073059
0.950412 0.627982 -0.073059
0.986497 0.476390 -0.073059
-0.073059 0.851061 -0.031100
-0.073059 0.851039 -0.031675
-0.073059 0.850980 -0.033210
0.048871 0.850821 -0.037305
0.402436 0.850396 -0.048233
0.658363 0.849251 -0.073059
0.845470 0.846126 -0.073059
0.949729 0.837233 -0.073059
0.986432 0.808249 -0.073059
-0.073059 0.950322 -0.073059
-0.073059 0.950318 -0.073059
-0.073059 0.950309 -0.073059
-0.073059 0.950283 -0.073059
0.129589 0.950213 -0.073059
0.605987 0.950025 -0.073059
0.833030 0.949519 -0.073059
0.947830 0.948127 -0.073059
0.986253 0.944101 -0.073059
-0.073059 0.986409 -0.073059
-0.073059 0.986409 -0.073059
-0.073059 0.986408 -0.073059
-0.073059 0.986405 -0.073059
-0.073059 0.986398 -0.073059
0.279259 0.986380 -0.073059
0.789355 0.986331 -0.073059
0.942163 0.986198 -0.073059
0.985751 0.985831 -0.073059
0.018326 0.017339 0.279130
0.042249 0.016655 0.278531
0.123452 0.014876 0.276929
0.275191 0.010431 0.272611
0.482325 -0.000196 0.260750
0.682666 -0.028286 0.226843
0.852041 -0.073059 0.121074
0.950789 -0.073059 -0.073059
0.986534 -0.073059 -0.073059
0.017375 0.040769 0.278579
0.041021 0.039886 0.277980
0.122246 0.037589 0.276375
0.274395 0.031750 0.272048
0.482012 0.017414 0.260164
0.682562 -0.011722 0.226201
0.852011 -0.073059 0.120219
0.950784 -0.073059 -0.073059
0.986533 -0.073059 -0.073059
0.014930 0.121444 0.277106
0.037856 0.120550 0.276503
0.118989 0.118143 0.274891
0.272258 0.111530 0.270540
0.481175 0.092805 0.258594
0.682284 0.040137 0.224485
0.851931 -0.042477 0.117916
0.950770 -0.073059 -0.073059
0.986532 -0.073059 -0.073059
0.008969 0.272897 0.273138
0.029962 0.272308 0.272528
0.109958 0.270730 0.270891
0.266475 0.266475 0.266475
0.478923 0.254822 0.254370
0.681538 0.221685 0.219883
0.851717 0.118836 0.111597
0.950735 -0.073059 -0.073059
0.986528 -0.073059 -0.073059
-0.005404 0.480406 0.262265
0.011472 0.480175 0.261631
0.084010 0.479555 0.259932
0.250492 0.477892 0.255356
0.472788 0.473386 0.242838
0.679524 0.460846 0.207398
0.851143 0.423006 0.093748
0.950641 0.267700 -0.073059
0.986519 -0.073059 -0.073059
-0.043690 0.681123 0.231325
-0.026998 0.681046 0.230632
0.018903 0.680839 0.228778
0.204246 0.680285 0.223807
0.455443 0.678794 0.210328
0.673958 0.674710 0.172353
0.849593 0.663092 0.043023
0.950389 0.627193 -0.073059
0.986495 0.474686 -0.073059
-0.073059 0.850901 0.136564
-0.073059 0.850879 0.135694
-0.073059 0.850819 0.133354
0.042989 0.850660 0.127003
0.400306 0.850234 0.109038
0.657785 0.849088 0.053823
0.845323 0.845957 -0.037326
0.949706 0.837047 -0.073059
0.986430 0.808001 -0.073059
-0.073059 0.950296 -0.073059
-0.073059 0.950292 -0.073059
-0.073059 0.950282 -0.073059
-0.073059 0.950256 -0.073059
0.124158 0.950186 -0.073059
0.605221 0.949998 -0.073059
0.832861 0.949492 -0.073059
0.947805 0.948099 -0.073059
0.986251 0.944069 -0.073059
-0.073059 0.986406 -0.073059
-0.073059 0.986406 -0.073059
-0.073059 0.986405 -0.073059
-0.073059 0.986403 -0.073059
-0.073059 0.986396 -0.073059
0.275642 0.986378 -0.073059
0.789105 0.986329 -0.073059
0.942134 0.986196 -0.073059
0.985749 0.985828 -0.073059
0.007858 0.005694 0.482807
0.028431 0.005140 0.482569
0.108075 0.003661 0.481933
0.265292 -0.000284 0.480227
0.478464 -0.010811 0.475601
0.681387 -0.038900 0.462714
0.851674 -0.073059 0.423680
0.950728 -0.073059 0.260689
0.986528 -0.073059 -0.073059
0.007102 0.025219 0.482588
0.027370 0.024450 0.482350
0.106758 0.022434 0.481714
0.264467 0.017304 0.480005
0.478145 0.005753 0.475375
0.681282 -0.022336 0.462473
0.851644 -0.073059 0.423388
0.950723 -0.073059 0.260103
0.986527 -0.073059 -0.073059
0.005087 0.103451 0.482003
0.024555 0.102469 0.481765
0.103211 0.099827 0.481126
0.262254 0.092643 0.479413
0.477291 0.071941 0.474769
0.681000 0.024670 0.461827
0.851563 -0.053092 0.422605
0.950710 -0.073059 0.258533
0.986526 -0.073059 -0.073059
-0.000290 0.261394 0.480435
0.017456 0.260782 0.480194
0.093498 0.259141 0.479551
0.256275 0.254723 0.477824
0.474996 0.242650 0.473143
0.680246 0.208542 0.460093
0.851348 0.100587 0.420502
0.950675 -0.073059 0.254308
0.986523 -0.073059 -0.073059
-0.014638 0.475919 0.476188
0.002054 0.475682 0.475942
0.064954 0.475049 0.475285
0.239782 0.473348 0.473521
0.468738 0.468738 0.468738
0.678207 0.455897 0.455391
0.850772 0.417036 0.414783
0.950581 0.255994 0.242774
0.986513 -0.073059 -0.073059
-0.052925 0.679631 0.464399
-0.036233 0.679552 0.464138
0.008315 0.679343 0.463442
0.192356 0.678781 0.461571
0.451027 0.677268 0.456493
0.672573 0.673127 0.442284
0.849215 0.661366 0.398703
0.950328 0.625073 0.210259
0.986489 0.470069 -0.073059
-0.073059 0.850473 0.429102
-0.073059 0.850451 0.428792
-0.073059 0.850391 0.427962
0.029063 0.850231 0.425733
0.394511 0.849803 0.419666
0.656235 0.848651 0.402552
0.844927 0.845505 0.348440
0.949643 0.836550 0.108943
0.986424 0.807335 -0.073059
-0.073059 0.950225 0.288727
-0.073059 0.950222 0.288147
-0.073059 0.950212 0.286594
-0.073059 0.950186 0.282410
0.108846 0.950115 0.270956
0.603163 0.949927 0.238101
0.832407 0.949420 0.135714
0.947739 0.948024 -0.073059
0.986245 0.943984 -0.073059
-0.073059 0.986400 -0.073059
-0.073059 0.986399 -0.073059
-0.073059 0.986398 -0.073059
-0.073059 0.986396 -0.073059
-0.073059 0.986389 -0.073059
0.265760 0.986371 -0.073059
0.788437 0.986322 -0.073059
0.942056 0.986189 -0.073059
0.985742 0.985820 -0.073059
-0.016784 -0.022630 0.681868
-0.000092 -0.023184 0.681788
0.060879 -0.024662 0.681574
0.237240 -0.028607 0.681003
0.467785 -0.039134 0.679465
0.677899 -0.067224 0.675248
0.850685 -0.073059 0.663220
0.950567 -0.073059 0.625831
0.986512 -0.073059 0.462647
-0.017540 -0.006066 0.681794
-0.000847 -0.006620 0.681714
0.059502 -0.008099 0.681501
0.236342 -0.012044 0.680929
0.467449 -0.022571 0.679390
0.677790 -0.050660 0.675170
0.850655 -0.073059 0.663134
0.950562 -0.073059 0.625725
0.986512 -0.073059 0.462406
-0.019555 0.049641 0.681598
-0.002863 0.048669 0.681518
0.055935 0.046123 0.681304
0.233935 0.039628 0.680732
0.466549 0.024346 0.679189
0.677499 -0.006462 0.674962
0.850573 -0.073059 0.662906
0.950548 -0.073059 0.625442
0.986510 -0.073059 0.461759
-0.024932 0.228563 0.681073
-0.008240 0.227892 0.680993
0.046468 0.226099 0.680778
0.227454 0.221292 0.680203
0.464126 0.208248 0.678652
0.676720 0.171562 0.674404
0.850356 0.046846 0.662295
0.950513 -0.073059 0.624686
0.986507 -0.073059 0.460025
-0.039280 0.463434 0.679659
-0.022588 0.463182 0.679578
0.024797 0.462507 0.679360
0.209804 0.460697 0.678777
0.457518 0.455787 0.677206
0.674613 0.442068 0.672902
0.849773 0.400212 0.660652
0.950418 0.222672 0.622656
0.986498 -0.073059 0.455322
-0.073059 0.675544 0.675794
-0.060874 0.675462 0.675709
-0.016333 0.675245 0.675484
0.159310 0.674662 0.674880
0.438749 0.673092 0.673253
0.668802 0.668802 0.668802
0.848198 0.656668 0.656187
0.950164 0.619313 0.617140
0.986473 0.457205 0.442210
-0.073059 0.849320 0.664817
-0.073059 0.849297 0.664725
-0.073059 0.849237 0.664479
0.000357 0.849075 0.663822
0.378169 0.848641 0.662053
0.652034 0.847475 0.657234
0.843863 0.844288 0.643684
0.949476 0.835208 0.601613
0.986408 0.805545 0.402462
-0.073059 0.950036 0.631078
-0.073059 0.950033 0.630966
-0.073059 0.950023 0.630666
-0.073059 0.949996 0.629864
0.061707 0.949926 0.627709
0.597558 0.949736 0.621850
0.831187 0.949225 0.605333
0.947561 0.947821 0.552693
0.986228 0.943756 0.237927
-0.073059 0.986381 0.492680
-0.073059 0.986381 0.492453
-0.073059 0.986380 0.491848
-0.073059 0.986377 0.490223
-0.073059 0.986370 0.485824
0.237750 0.986352 0.473592
0.786640 0.986303 0.436791
0.941846 0.986170 0.286630
0.985724 0.985800 -0.073059
-0.073059 -0.073059 0.851070
-0.065845 -0.073059 0.851047
-0.021304 -0.073059 0.850986
0.152339 -0.073059 0.850821
0.436179 -0.073059 0.850379
0.668027 -0.073059 0.849191
0.847992 -0.073059 0.845942
0.950131 -0.073059 0.836674
0.986470 -0.073059 0.806219
-0.073059 -0.073059 0.851049
-0.066601 -0.073059 0.851026
-0.022060 -0.073059 0.850964
0.151266 -0.073059 0.850799
0.435786 -0.073059 0.850358
0.667909 -0.073059 0.849169
0.847960 -0.073059 0.845920
0.950126 -0.073059 0.836649
0.986470 -0.073059 0.806185
-0.073059 -0.037447 0.850992
-0.068616 -0.038001 0.850969
-0.024075 -0.039479 0.850907
0.148380 -0.043424 0.850742
0.434733 -0.053951 0.850301
0.667594 -0.073059 0.849111
0.847877 -0.073059 0.845860
0.950113 -0.073059 0.836582
0.986468 -0.073059 0.806096
-0.073059 0.126876 0.850841
-0.073059 0.126005 0.850818
-0.029452 0.123666 0.850756
0.140498 0.117282 0.850590
0.431896 0.099043 0.850148
0.666749 0.045781 0.848956
0.847653 -0.039056 0.845699
0.950077 -0.073059 0.836405
0.986465 -0.073059 0.805857
-0.073059 0.425776 0.850435
-0.073059 0.425473 0.850412
-0.043800 0.424661 0.850349
0.118169 0.422480 0.850183
0.424130 0.416545 0.849739
0.664468 0.399825 0.848542
0.847052 0.347198 0.845270
0.949981 0.119134 0.835930
0.986456 -0.073059 0.805217
-0.073059 0.663903 0.849343
-0.073059 0.663814 0.849319
-0.073059 0.663576 0.849256
0.047264 0.662939 0.849088
0.401867 0.661225 0.848638
0.658208 0.656563 0.847427
0.845431 0.643476 0.844115
0.949723 0.603072 0.834651
0.986431 0.418262 0.803498
-0.073059 0.846171 0.846363
-0.073059 0.846147 0.846339
-0.073059 0.846084 0.846274
-0.065396 0.845917 0.846101
0.327419 0.845468 0.845636
0.640283 0.844261 0.844385
0.840961 0.840961 0.840961
0.949024 0.831528 0.831148
0.986365 0.800648 0.798783
-0.073059 0.949526 0.837913
-0.073059 0.949522 0.837886
-0.073059 0.949512 0.837815
-0.073059 0.949486 0.837625
-0.020860 0.949414 0.837115
0.581727 0.949221 0.835742
0.827847 0.948702 0.831974
0.947082 0.947274 0.821070
0.986184 0.943139 0.785286
-0.073059 0.986332 0.810640
-0.073059 0.986332 0.810605
-0.073059 0.986331 0.810510
-0.073059 0.986328 0.810259
-0.073059 0.986321 0.809585
0.152947 0.986303 0.807770
0.781747 0.986253 0.802812
0.941280 0.986118 0.788535
0.985677 0.985746 0.742515
-0.073059 -0.073059 0.950303
-0.073059 -0.073059 0.950300
-0.073059 -0.073059 0.950289
-0.073059 -0.073059 0.950262
0.316338 -0.073059 0.950190
0.637947 -0.073059 0.949995
0.840399 -0.073059 0.949469
0.948938 -0.073059 0.948021
0.986357 -0.073059 0.943817
-0.073059 -0.073059 0.950300
-0.073059 -0.073059 0.950296
-0.073059 -0.073059 0.950286
-0.073059 -0.073059 0.950259
0.315653 -0.073059 0.950186
0.637805 -0.073059 0.949991
0.840365 -0.073059 0.949465
0.948932 -0.073059 0.948017
0.986356 -0.073059 0.943812
-0.073059 -0.073059 0.950291
-0.073059 -0.073059 0.950287
-0.073059 -0.073059 0.950277
-0.073059 -0.073059 0.950249
0.313815 -0.073059 0.950177
0.637425 -0.073059 0.949982
0.840274 -0.073059 0.949456
0.948918 -0.073059 0.948007
0.986355 -0.073059 0.943801
-0.073059 -0.073059 0.950266
-0.073059 -0.073059 0.950262
-0.073059 -0.073059 0.950252
-0.073059 -0.073059 0.950224
0.308846 -0.073059 0.950152
0.636409 -0.073059 0.949957
0.840031 -0.073059 0.949430
0.948881 -0.073059 0.947980
0.986351 -0.073059 0.943771
-0.073059 0.271316 0.950199
-0.073059 0.270724 0.950195
-0.073059 0.269137 0.950185
-0.073059 0.264858 0.950157
0.295121 0.253146 0.950085
0.633668 0.219868 0.949889
0.839379 0.116392 0.949361
0.948781 -0.073059 0.947908
0.986342 -0.073059 0.943689
-0.073059 0.627861 0.950020
-0.073059 0.627751 0.950016
-0.073059 0.627458 0.950006
-0.073059 0.626673 0.949978
0.254771 0.624566 0.949905
0.626160 0.618840 0.949708
0.837616 0.602698 0.949177
0.948513 0.551470 0.947716
0.986317 0.256541 0.943471
-0.073059 0.837205 0.949537
-0.073059 0.837179 0.949533
-0.073059 0.837110 0.949522
-0.073059 0.836925 0.949494
0.120194 0.836431 0.949420
0.604672 0.835098 0.949220
0.832740 0.831445 0.948681
0.947788 0.820900 0.947196
0.986249 0.786561 0.942883
-0.073059 0.948123 0.948210
-0.073059 0.948119 0.948206
-0.073059 0.948109 0.948195
-0.073059 0.948081 0.948166
-0.073059 0.948006 0.948088
0.531855 0.947805 0.947880
0.818271 0.947262 0.947318
0.945770 0.945770 0.945770
0.986065 0.941439 0.941262
-0.073059 0.986198 0.944385
-0.073059 0.986198 0.944380
-0.073059 0.986197 0.944368
-0.073059 0.986194 0.944335
-0.073059 0.986187 0.944248
-0.073059 0.986168 0.944015
0.767959 0.986117 0.943385
0.939726 0.985980 0.941645
0.985549 0.985600 0.936558
-0.073059 -0.073059 0.986402
-0.073059 -0.073059 0.986402
-0.073059 -0.073059 0.986401
-0.073059 -0.073059 0.986398
-0.073059 -0.073059 0.986391
0.521012 -0.073059 0.986372
0.816382 -0.073059 0.986321
0.945520 -0.073059 0.986183
0.986043 -0.073059 0.985800
-0.073059 -0.073059 0.986402
-0.073059 -0.073059 0.986401
-0.073059 -0.073059 0.986400
-0.073059 -0.073059 0.986398
-0.073059 -0.073059 0.986391
0.520754 -0.073059 0.986372
0.816337 -0.073059 0.986321
0.945514 -0.073059 0.986183
0.986042 -0.073059 0.985799
-0.073059 -0.073059 0.986401
-0.073059 -0.073059 0.986400
-0.073059 -0.073059 0.986399
-0.073059 -0.073059 0.986397
-0.073059 -0.073059 0.986390
0.520064 -0.073059 0.986371
0.816220 -0.073059 0.986320
0.945499 -0.073059 0.986182
0.986041 -0.073059 0.985798
-0.073059 -0.073059 0.986398
-0.073059 -0.073059 0.986398
-0.073059 -0.073059 0.986397
-0.073059 -0.073059 0.986394
-0.073059 -0.073059 0.986387
0.518210 -0.073059 0.986368
0.815905 -0.073059 0.986317
0.945457 -0.073059 0.986179
0.986037 -0.073059 0.985796
-0.073059 -0.073059 0.986392
-0.073059 -0.073059 0.986391
-0.073059 -0.073059 0.986390
-0.073059 -0.073059 0.986388
-0.073059 -0.073059 0.986381
0.513177 -0.073059 0.986362
0.815059 -0.073059 0.986311
0.945347 -0.073059 0.986172
0.986028 -0.073059 0.985789
-0.073059 0.474219 0.986374
-0.073059 0.473980 0.986374
-0.073059 0.473341 0.986373
-0.073059 0.471626 0.986370
-0.073059 0.466976 0.986363
0.499095 0.454019 0.986344
0.812774 0.414764 0.986293
0.945050 0.251519 0.986154
0.986001 -0.073059 0.985770
-0.073059 0.807933 0.986328
-0.073059 0.807898 0.986327
-0.073059 0.807806 0.986326
-0.073059 0.807558 0.986323
-0.073059 0.806896 0.986316
0.455840 0.805115 0.986297
0.806463 0.800243 0.986245
0.944244 0.786234 0.986106
0.985930 0.741437 0.985718
-0.073059 0.944060 0.986201
-0.073059 0.944056 0.986200
-0.073059 0.944044 0.986199
-0.073059 0.944012 0.986197
-0.073059 0.943928 0.986189
0.258487 0.943701 0.986170
0.787958 0.943088 0.986117
0.942000 0.941400 0.985975
0.985737 0.936478 0.985579
-0.073059 0.985827 0.985850
-0.073059 0.985827 0.985850
-0.073059 0.985826 0.985849
-0.073059 0.985823 0.985846
-0.073059 0.985815 0.985838
-0.073059 0.985795 0.985817
0.724297 0.985742 0.985762
0.935243 0.985597 0.985612
0.985195 0.985195 0.985195
