滤镜资源/Professional Luts Collection/Lutify.me Professional/Utility LUTs/Log Conversions/REDLogFilm-REDColor2.cube
# Created by: Lutify.me
# Copyright: (c) Copyright Lutify.me 2015
# Website: https://lutify.me
LUT_3D_SIZE 5
0.025327 0.025327 0.025327
0.147478 0.015825 0.015709
0.516939 -0.036650 -0.037435
0.873819 -0.073059 -0.073059
0.988784 -0.073059 -0.073059
0.014727 0.146622 0.015963
0.135336 0.135842 0.007826
0.514065 0.043563 -0.044584
0.873572 -0.073059 -0.073059
0.988781 -0.073059 -0.073059
-0.044140 0.515263 -0.035720
0.032882 0.512693 -0.043081
0.492314 0.493376 -0.073059
0.871785 0.249122 -0.073059
0.988757 -0.073059 -0.073059
-0.073059 0.872765 -0.073059
-0.073059 0.872543 -0.073059
0.188234 0.870937 -0.073059
0.857670 0.858395 -0.073059
0.988586 0.651817 -0.073059
-0.073059 0.988683 -0.073059
-0.073059 0.988680 -0.073059
-0.073059 0.988659 -0.073059
0.577809 0.988503 -0.073059
0.987138 0.987217 -0.073059
0.016202 0.015800 0.146565
0.137204 0.007787 0.135636
0.514500 -0.043935 0.042202
0.873609 -0.073059 -0.073059
0.988781 -0.073059 -0.073059
0.007197 0.135809 0.135956
0.124549 0.124549 0.124549
0.511591 0.032325 0.031338
0.873361 -0.073059 -0.073059
0.988778 -0.073059 -0.073059
-0.051092 0.512686 0.045056
0.023112 0.510082 0.033510
0.489555 0.490500 -0.024300
0.871569 0.240665 -0.073059
0.988754 -0.073059 -0.073059
-0.073059 0.872542 -0.073059
-0.073059 0.872319 -0.073059
0.179029 0.870708 -0.073059
0.857411 0.858126 -0.073059
0.988583 0.650556 -0.073059
-0.073059 0.988680 -0.073059
-0.073059 0.988677 -0.073059
-0.073059 0.988656 -0.073059
0.576020 0.988500 -0.073059
0.987134 0.987213 -0.073059
-0.034119 -0.036822 0.515152
0.048881 -0.044086 0.512546
0.496225 -0.073059 0.492944
0.872096 -0.073059 0.242170
0.988761 -0.073059 -0.073059
-0.042306 0.043276 0.512621
0.035588 0.032107 0.509982
0.493035 -0.024578 0.490115
0.871842 -0.073059 0.233693
0.988758 -0.073059 -0.073059
-0.073059 0.493309 0.493616
-0.028776 0.490439 0.490713
0.468738 0.468738 0.468738
0.870012 0.175379 0.168792
0.988734 -0.073059 -0.073059
-0.073059 0.870931 0.256388
-0.073059 0.870703 0.248037
0.105400 0.869056 0.183099
0.855542 0.856184 -0.073059
0.988562 0.641269 -0.073059
-0.073059 0.988659 -0.073059
-0.073059 0.988656 -0.073059
-0.073059 0.988634 -0.073059
0.562787 0.988478 -0.073059
0.987106 0.987184 -0.073059
-0.073059 -0.073059 0.872695
-0.073059 -0.073059 0.872469
0.274577 -0.073059 0.870840
0.860328 -0.073059 0.858100
0.988616 -0.073059 0.644243
-0.073059 -0.073059 0.872476
-0.073059 -0.073059 0.872249
0.265800 -0.073059 0.870615
0.860032 -0.073059 0.857835
0.988613 -0.073059 0.642943
-0.073059 0.247685 0.870894
-0.073059 0.239212 0.870662
0.196202 0.173935 0.868992
0.857897 -0.073059 0.855923
0.988588 -0.073059 0.633391
-0.073059 0.858349 0.858559
-0.073059 0.858080 0.858287
-0.073059 0.856143 0.856329
0.840961 0.840961 0.840961
0.988409 0.557321 0.547143
-0.073059 0.988503 0.659549
-0.073059 0.988500 0.658328
-0.073059 0.988477 0.649381
0.428948 0.988314 0.568726
0.986902 0.986973 -0.073059
-0.073059 -0.073059 0.988677
-0.073059 -0.073059 0.988673
-0.073059 -0.073059 0.988652
0.678082 -0.073059 0.988494
0.987423 -0.073059 0.987185
-0.073059 -0.073059 0.988674
-0.073059 -0.073059 0.988671
-0.073059 -0.073059 0.988649
0.676899 -0.073059 0.988491
0.987419 -0.073059 0.987181
-0.073059 -0.073059 0.988653
-0.073059 -0.073059 0.988649
-0.073059 -0.073059 0.988628
0.668113 -0.073059 0.988469
0.987387 -0.073059 0.987152
-0.073059 0.650268 0.988499
-0.073059 0.648999 0.988496
-0.073059 0.639645 0.988473
0.586947 0.555123 0.988308
0.987159 -0.073059 0.986944
-0.073059 0.987212 0.987234
-0.073059 0.987208 0.987230
-0.073059 0.987179 0.987201
-0.073059 0.986968 0.986989
0.985195 0.985195 0.985195
