滤镜资源/Professional Luts Collection/Lutify.me Professional/Utility LUTs/Log Conversions/REDLogFilm-REDColor2.cube
# Created by: Lutify.me
# Copyright: (c) Copyright Lutify.me 2015
# Website: https://lutify.me
LUT_3D_SIZE 9
0.025327 0.025327 0.025327
0.056347 0.022609 0.022574
0.147478 0.015825 0.015709
0.311130 0.000972 0.000688
0.516939 -0.036650 -0.037435
0.711968 -0.073059 -0.073059
0.873819 -0.073059 -0.073059
0.960004 -0.073059 -0.073059
0.988784 -0.073059 -0.073059
0.022271 0.056065 0.022651
0.052391 0.052552 0.019988
0.144223 0.043412 0.013423
0.309059 0.022655 -0.001261
0.516159 -0.017233 -0.039383
0.711719 -0.073059 -0.073059
0.873752 -0.073059 -0.073059
0.959994 -0.073059 -0.073059
0.988783 -0.073059 -0.073059
0.014727 0.146622 0.015963
0.042155 0.143726 0.013599
0.135336 0.135842 0.007826
0.303456 0.113416 -0.006461
0.514065 0.043563 -0.044584
0.711050 -0.065811 -0.073059
0.873572 -0.073059 -0.073059
0.959966 -0.073059 -0.073059
0.988781 -0.073059 -0.073059
-0.001740 0.309522 0.001309
0.019283 0.307674 -0.000697
0.109787 0.302683 -0.006052
0.287877 0.288864 -0.020338
0.508365 0.248380 -0.058461
0.709252 0.113827 -0.073059
0.873089 -0.073059 -0.073059
0.959892 -0.073059 -0.073059
0.988774 -0.073059 -0.073059
-0.044140 0.515263 -0.035720
-0.024562 0.514566 -0.037727
0.032882 0.512693 -0.043081
0.241700 0.507609 -0.057367
0.492314 0.493376 -0.073059
0.704331 0.449598 -0.073059
0.871785 0.249122 -0.073059
0.959692 -0.073059 -0.073059
0.988757 -0.073059 -0.073059
-0.073059 0.710515 -0.073059
-0.073059 0.710292 -0.073059
-0.073059 0.709693 -0.073059
0.080452 0.708082 -0.073059
0.441932 0.703685 -0.073059
0.690379 0.691320 -0.073059
0.868188 0.651019 -0.073059
0.959152 0.450438 -0.073059
0.988711 -0.073059 -0.073059
-0.073059 0.872765 -0.073059
-0.073059 0.872705 -0.073059
-0.073059 0.872543 -0.073059
-0.073059 0.872108 -0.073059
0.188234 0.870937 -0.073059
0.643690 0.867716 -0.073059
0.857670 0.858395 -0.073059
0.957651 0.827136 -0.073059
0.988586 0.651817 -0.073059
-0.073059 0.959568 -0.073059
-0.073059 0.959559 -0.073059
-0.073059 0.959534 -0.073059
-0.073059 0.959467 -0.073059
-0.073059 0.959287 -0.073059
0.373631 0.958800 -0.073059
0.821181 0.957453 -0.073059
0.953183 0.953496 -0.073059
0.988231 0.939412 -0.073059
-0.073059 0.988683 -0.073059
-0.073059 0.988682 -0.073059
-0.073059 0.988680 -0.073059
-0.073059 0.988674 -0.073059
-0.073059 0.988659 -0.073059
-0.073059 0.988617 -0.073059
0.577809 0.988503 -0.073059
0.936628 0.988183 -0.073059
0.987138 0.987217 -0.073059
0.022724 0.022602 0.056046
0.052990 0.019974 0.052487
0.144716 0.013492 0.043234
0.309372 -0.001014 0.022259
0.516277 -0.038635 -0.018028
0.711756 -0.073059 -0.073059
0.873762 -0.073059 -0.073059
0.959995 -0.073059 -0.073059
0.988783 -0.073059 -0.073059
0.019765 0.052542 0.052589
0.049033 0.049033 0.049033
0.141427 0.040179 0.040067
0.307287 0.020019 0.019683
0.515495 -0.019219 -0.019977
0.711506 -0.073059 -0.073059
0.873695 -0.073059 -0.073059
0.959985 -0.073059 -0.073059
0.988782 -0.073059 -0.073059
0.012547 0.143718 0.043585
0.039121 0.140791 0.040311
0.132440 0.132812 0.032235
0.301648 0.110024 0.013331
0.513393 0.040324 -0.025178
0.710837 -0.067797 -0.073059
0.873515 -0.073059 -0.073059
0.959957 -0.073059 -0.073059
0.988780 -0.073059 -0.073059
-0.003635 0.307669 0.023096
0.016886 0.305808 0.020419
0.106492 0.300783 0.013801
0.285956 0.286858 -0.000932
0.507675 0.246092 -0.039055
0.709036 0.110442 -0.073059
0.873031 -0.073059 -0.073059
0.959883 -0.073059 -0.073059
0.988773 -0.073059 -0.073059
-0.046035 0.514564 -0.016314
-0.026457 0.513864 -0.018320
0.030170 0.511985 -0.023674
0.239469 0.506883 -0.037961
0.491565 0.492596 -0.073059
0.704107 0.448629 -0.073059
0.871726 0.246841 -0.073059
0.959683 -0.073059 -0.073059
0.988756 -0.073059 -0.073059
-0.073059 0.710291 -0.073059
-0.073059 0.710067 -0.073059
-0.073059 0.709467 -0.073059
0.076838 0.707854 -0.073059
0.440971 0.703449 -0.073059
0.690134 0.691065 -0.073059
0.868126 0.650675 -0.073059
0.959143 0.449473 -0.073059
0.988710 -0.073059 -0.073059
-0.073059 0.872705 -0.073059
-0.073059 0.872644 -0.073059
-0.073059 0.872482 -0.073059
-0.073059 0.872047 -0.073059
0.185737 0.870874 -0.073059
0.643345 0.867651 -0.073059
0.857599 0.858322 -0.073059
0.957641 0.827032 -0.073059
0.988585 0.651474 -0.073059
-0.073059 0.959559 -0.073059
-0.073059 0.959549 -0.073059
-0.073059 0.959524 -0.073059
-0.073059 0.959457 -0.073059
-0.073059 0.959277 -0.073059
0.372289 0.958791 -0.073059
0.821075 0.957443 -0.073059
0.953171 0.953484 -0.073059
0.988230 0.939394 -0.073059
-0.073059 0.988682 -0.073059
-0.073059 0.988682 -0.073059
-0.073059 0.988679 -0.073059
-0.073059 0.988674 -0.073059
-0.073059 0.988658 -0.073059
-0.073059 0.988616 -0.073059
0.577323 0.988503 -0.073059
0.936610 0.988182 -0.073059
0.987137 0.987216 -0.073059
0.016202 0.015800 0.146565
0.044200 0.013474 0.143630
0.137204 0.007787 0.135636
0.304625 -0.006313 0.112868
0.514500 -0.043935 0.042202
0.711189 -0.073059 -0.067971
0.873609 -0.073059 -0.073059
0.959972 -0.073059 -0.073059
0.988781 -0.073059 -0.073059
0.013567 0.043377 0.143715
0.040540 0.040154 0.140748
0.133816 0.032194 0.132660
0.302506 0.013513 0.109529
0.513711 -0.024518 0.039082
0.710938 -0.073059 -0.069920
0.873542 -0.073059 -0.073059
0.959961 -0.073059 -0.073059
0.988780 -0.073059 -0.073059
0.007197 0.135809 0.135956
0.031579 0.132788 0.132896
0.124549 0.124549 0.124549
0.296757 0.100712 0.100376
0.511591 0.032325 0.031338
0.710266 -0.073059 -0.073059
0.873361 -0.073059 -0.073059
0.959933 -0.073059 -0.073059
0.988778 -0.073059 -0.073059
-0.008693 0.302663 0.113919
0.011031 0.300768 0.110500
0.097484 0.295637 0.101109
0.280769 0.281437 0.074003
0.505820 0.239901 0.013084
0.708458 0.101146 -0.073059
0.872877 -0.073059 -0.073059
0.959859 -0.073059 -0.073059
0.988771 -0.073059 -0.073059
-0.051092 0.512686 0.045056
-0.031514 0.511979 0.041725
0.023112 0.510082 0.033510
0.233449 0.504931 0.014344
0.489555 0.490500 -0.024300
0.703506 0.446020 -0.073059
0.871569 0.240665 -0.073059
0.959660 -0.073059 -0.073059
0.988754 -0.073059 -0.073059
-0.073059 0.709691 -0.063339
-0.073059 0.709465 -0.065345
-0.073059 0.708863 -0.070699
0.065721 0.707243 -0.073059
0.438385 0.702817 -0.073059
0.689478 0.690382 -0.073059
0.867961 0.649753 -0.073059
0.959119 0.446875 -0.073059
0.988708 -0.073059 -0.073059
-0.073059 0.872542 -0.073059
-0.073059 0.872481 -0.073059
-0.073059 0.872319 -0.073059
-0.073059 0.871883 -0.073059
0.179029 0.870708 -0.073059
0.642422 0.867476 -0.073059
0.857411 0.858126 -0.073059
0.957615 0.826755 -0.073059
0.988583 0.650556 -0.073059
-0.073059 0.959534 -0.073059
-0.073059 0.959524 -0.073059
-0.073059 0.959499 -0.073059
-0.073059 0.959432 -0.073059
-0.073059 0.959252 -0.073059
0.368670 0.958765 -0.073059
0.820792 0.957415 -0.073059
0.953141 0.953452 -0.073059
0.988227 0.939345 -0.073059
-0.073059 0.988680 -0.073059
-0.073059 0.988679 -0.073059
-0.073059 0.988677 -0.073059
-0.073059 0.988671 -0.073059
-0.073059 0.988656 -0.073059
-0.073059 0.988614 -0.073059
0.576020 0.988500 -0.073059
0.936560 0.988180 -0.073059
0.987134 0.987213 -0.073059
0.001889 0.000910 0.309415
0.024124 -0.001070 0.307542
0.115944 -0.006354 0.302482
0.291519 -0.020453 0.288462
0.509681 -0.058075 0.247346
0.709665 -0.073059 0.110011
0.873200 -0.073059 -0.073059
0.959909 -0.073059 -0.073059
0.988776 -0.073059 -0.073059
-0.000343 0.022571 0.307596
0.021114 0.019945 0.305710
0.112184 0.013466 0.300615
0.289285 -0.001036 0.286491
0.508873 -0.038658 0.245093
0.709411 -0.073059 0.106625
0.873132 -0.073059 -0.073059
0.959898 -0.073059 -0.073059
0.988775 -0.073059 -0.073059
-0.006297 0.113310 0.302683
0.013715 0.109926 0.300763
0.101792 0.100638 0.295563
0.283237 0.073826 0.281165
0.506701 0.013570 0.238998
0.708732 -0.073059 0.097363
0.872950 -0.073059 -0.073059
0.959870 -0.073059 -0.073059
0.988772 -0.073059 -0.073059
-0.022187 0.288801 0.289087
-0.002609 0.286801 0.287062
0.071227 0.281394 0.281588
0.266475 0.266475 0.266475
0.500785 0.222900 0.222289
0.706902 0.074393 0.070238
0.872463 -0.073059 -0.073059
0.959796 -0.073059 -0.073059
0.988766 -0.073059 -0.073059
-0.064586 0.507586 0.249312
-0.045008 0.506862 0.247009
0.007232 0.504916 0.240772
0.217041 0.499628 0.223622
0.484089 0.484796 0.174783
0.701893 0.438888 0.012433
0.871148 0.223690 -0.073059
0.959596 -0.073059 -0.073059
0.988749 -0.073059 -0.073059
-0.073059 0.708075 0.117819
-0.073059 0.707847 0.114483
-0.073059 0.707238 0.105258
0.041775 0.705597 0.079036
0.431320 0.701121 0.015824
0.687710 0.688542 -0.073059
0.867518 0.647263 -0.073059
0.959054 0.439773 -0.073059
0.988703 -0.073059 -0.073059
-0.073059 0.872106 -0.073059
-0.073059 0.872045 -0.073059
-0.073059 0.871882 -0.073059
-0.073059 0.871443 -0.073059
0.160766 0.870261 -0.073059
0.639932 0.867010 -0.073059
0.856905 0.857601 -0.073059
0.957546 0.826011 -0.073059
0.988577 0.648080 -0.073059
-0.073059 0.959466 -0.073059
-0.073059 0.959457 -0.073059
-0.073059 0.959432 -0.073059
-0.073059 0.959364 -0.073059
-0.073059 0.959184 -0.073059
0.358726 0.958695 -0.073059
0.820034 0.957342 -0.073059
0.953060 0.953368 -0.073059
0.988221 0.939216 -0.073059
-0.073059 0.988674 -0.073059
-0.073059 0.988674 -0.073059
-0.073059 0.988671 -0.073059
-0.073059 0.988666 -0.073059
-0.073059 0.988650 -0.073059
-0.073059 0.988608 -0.073059
0.572499 0.988494 -0.073059
0.936428 0.988173 -0.073059
0.987127 0.987205 -0.073059
-0.034119 -0.036822 0.515152
-0.014542 -0.038803 0.514445
0.048881 -0.044086 0.512546
0.253235 -0.058185 0.507390
0.496225 -0.073059 0.492944
0.705511 -0.073059 0.448407
0.872096 -0.073059 0.242170
0.959740 -0.073059 -0.073059
0.988761 -0.073059 -0.073059
-0.036351 -0.017406 0.514465
-0.016773 -0.019386 0.513755
0.045052 -0.024669 0.511850
0.250702 -0.038768 0.506676
0.495360 -0.073059 0.492176
0.705249 -0.073059 0.447451
0.872027 -0.073059 0.239878
0.959729 -0.073059 -0.073059
0.988760 -0.073059 -0.073059
-0.042306 0.043276 0.512621
-0.022728 0.040058 0.511905
0.035588 0.032107 0.509982
0.243844 0.013443 0.504759
0.493035 -0.024578 0.490115
0.704548 -0.073059 0.444875
0.871842 -0.073059 0.233693
0.959701 -0.073059 -0.073059
0.988758 -0.073059 -0.073059
-0.058195 0.248181 0.507616
-0.038617 0.245899 0.506882
0.014112 0.239722 0.504910
0.224865 0.222765 0.499551
0.486696 0.174512 0.484508
0.702658 0.013723 0.437838
0.871348 -0.073059 0.216820
0.959626 -0.073059 -0.073059
0.988751 -0.073059 -0.073059
-0.073059 0.493309 0.493616
-0.073059 0.492530 0.492829
-0.028776 0.490439 0.490713
0.170413 0.484751 0.484956
0.468738 0.468738 0.468738
0.697519 0.418544 0.417786
0.870012 0.175379 0.168792
0.959424 -0.073059 -0.073059
0.988734 -0.073059 -0.073059
-0.073059 0.703665 0.450663
-0.073059 0.703429 0.449689
-0.073059 0.702799 0.447067
-0.002514 0.701107 0.439897
0.411196 0.696514 0.419438
0.682862 0.683493 0.352229
0.866325 0.640416 0.010738
0.958878 0.419521 -0.073059
0.988688 -0.073059 -0.073059
-0.073059 0.870931 0.256388
-0.073059 0.870869 0.254130
-0.073059 0.870703 0.248037
-0.073059 0.870258 0.231194
0.105400 0.869056 0.183099
0.633111 0.865751 0.020015
0.855542 0.856184 -0.073059
0.957360 0.823993 -0.073059
0.988562 0.641269 -0.073059
-0.073059 0.959286 -0.073059
-0.073059 0.959277 -0.073059
-0.073059 0.959251 -0.073059
-0.073059 0.959183 -0.073059
-0.073059 0.959001 -0.073059
0.329826 0.958509 -0.073059
0.817982 0.957146 -0.073059
0.952842 0.953142 -0.073059
0.988205 0.938868 -0.073059
-0.073059 0.988659 -0.073059
-0.073059 0.988658 -0.073059
-0.073059 0.988656 -0.073059
-0.073059 0.988650 -0.073059
-0.073059 0.988634 -0.073059
-0.073059 0.988592 -0.073059
0.562787 0.988478 -0.073059
0.936072 0.988156 -0.073059
0.987106 0.987184 -0.073059
-0.073059 -0.073059 0.710419
-0.073059 -0.073059 0.710192
-0.058385 -0.073059 0.709585
0.127694 -0.073059 0.707951
0.455179 -0.073059 0.703490
0.693833 -0.073059 0.690937
0.869065 -0.073059 0.649882
0.959283 -0.073059 0.442499
0.988722 -0.073059 -0.073059
-0.073059 -0.073059 0.710198
-0.073059 -0.073059 0.709971
-0.060616 -0.073059 0.709363
0.124180 -0.073059 0.707727
0.454119 -0.073059 0.703258
0.693552 -0.073059 0.690686
0.868993 -0.073059 0.649542
0.959272 -0.073059 0.441514
0.988721 -0.073059 -0.073059
-0.073059 -0.066278 0.709609
-0.073059 -0.068258 0.709380
-0.066571 -0.073059 0.708770
0.114473 -0.073059 0.707126
0.451264 -0.073059 0.702637
0.692798 -0.073059 0.690014
0.868801 -0.073059 0.648629
0.959243 -0.073059 0.438861
0.988719 -0.073059 -0.073059
-0.073059 0.113036 0.708023
-0.073059 0.109647 0.707792
-0.073059 0.100348 0.707174
0.086085 0.073452 0.705510
0.443442 0.013385 0.700971
0.690766 -0.073059 0.688203
0.868285 -0.073059 0.646168
0.959167 -0.073059 0.431609
0.988712 -0.073059 -0.073059
-0.073059 0.449370 0.703694
-0.073059 0.448403 0.703455
-0.073059 0.445799 0.702817
0.015189 0.438680 0.701103
0.420969 0.418377 0.696447
0.685183 0.351810 0.683236
0.866893 0.014132 0.639405
0.958962 -0.073059 0.410915
0.988695 -0.073059 -0.073059
-0.073059 0.691260 0.691532
-0.073059 0.691005 0.691275
-0.073059 0.690324 0.690586
-0.073059 0.688489 0.688729
0.345385 0.683453 0.683635
0.668802 0.668802 0.668802
0.863048 0.620768 0.620037
0.958405 0.353150 0.342809
0.988648 -0.073059 -0.073059
-0.073059 0.867700 0.652034
-0.073059 0.867635 0.651688
-0.073059 0.867462 0.650762
-0.073059 0.866996 0.648263
-0.028523 0.865741 0.641389
0.613679 0.862287 0.621630
0.851795 0.852283 0.556416
0.956858 0.818382 0.006512
0.988521 0.621711 -0.073059
-0.073059 0.958798 0.458580
-0.073059 0.958788 0.457643
-0.073059 0.958762 0.455123
-0.073059 0.958693 0.448239
-0.073059 0.958508 0.428635
0.231455 0.958005 0.364799
0.812308 0.956615 0.032314
0.952251 0.952529 -0.073059
0.988160 0.937926 -0.073059
-0.073059 0.988617 -0.073059
-0.073059 0.988616 -0.073059
-0.073059 0.988614 -0.073059
-0.073059 0.988608 -0.073059
-0.073059 0.988592 -0.073059
-0.073059 0.988550 -0.073059
0.534256 0.988434 -0.073059
0.935107 0.988109 -0.073059
0.987051 0.987127 -0.073059
-0.073059 -0.073059 0.872695
-0.073059 -0.073059 0.872634
-0.073059 -0.073059 0.872469
-0.073059 -0.073059 0.872029
0.274577 -0.073059 0.870840
0.656361 -0.073059 0.867571
0.860328 -0.073059 0.858100
0.958020 -0.073059 0.826218
0.988616 -0.073059 0.644243
-0.073059 -0.073059 0.872635
-0.073059 -0.073059 0.872574
-0.073059 -0.073059 0.872409
-0.073059 -0.073059 0.871968
0.272212 -0.073059 0.870779
0.655985 -0.073059 0.867507
0.860247 -0.073059 0.858028
0.958009 -0.073059 0.826115
0.988615 -0.073059 0.643890
-0.073059 -0.073059 0.872476
-0.073059 -0.073059 0.872414
-0.073059 -0.073059 0.872249
-0.073059 -0.073059 0.871807
0.265800 -0.073059 0.870615
0.654977 -0.073059 0.867335
0.860032 -0.073059 0.857835
0.957979 -0.073059 0.825840
0.988613 -0.073059 0.642943
-0.073059 -0.073059 0.872048
-0.073059 -0.073059 0.871986
-0.073059 -0.073059 0.871820
-0.073059 -0.073059 0.871375
0.248019 -0.073059 0.870176
0.652260 -0.073059 0.866877
0.859455 -0.073059 0.857318
0.957898 -0.073059 0.825102
0.988606 -0.073059 0.640391
-0.073059 0.247685 0.870894
-0.073059 0.245399 0.870831
-0.073059 0.239212 0.870662
-0.073059 0.222238 0.870211
0.196202 0.173935 0.868992
0.644795 0.013228 0.865639
0.857897 -0.073059 0.855923
0.957682 -0.073059 0.823102
0.988588 -0.073059 0.633391
-0.073059 0.650802 0.867723
-0.073059 0.650458 0.867657
-0.073059 0.649537 0.867481
-0.073059 0.647051 0.867010
0.018189 0.640216 0.865737
0.623107 0.620607 0.862236
0.853590 0.556005 0.852085
0.957097 0.015242 0.817546
0.988540 -0.073059 0.613409
-0.073059 0.858349 0.858559
-0.073059 0.858276 0.858485
-0.073059 0.858080 0.858287
-0.073059 0.857557 0.857758
-0.073059 0.856143 0.856329
0.549684 0.852252 0.852393
0.840961 0.840961 0.840961
0.955472 0.801891 0.801267
0.988409 0.557321 0.547143
-0.073059 0.957447 0.827951
-0.073059 0.957436 0.827847
-0.073059 0.957409 0.827569
-0.073059 0.957336 0.826825
-0.073059 0.957140 0.824805
-0.073059 0.956611 0.819184
0.795795 0.955148 0.802626
0.950615 0.950829 0.745797
0.988039 0.935295 -0.004438
-0.073059 0.988503 0.659549
-0.073059 0.988502 0.659217
-0.073059 0.988500 0.658328
-0.073059 0.988494 0.655931
-0.073059 0.988477 0.649381
-0.073059 0.988434 0.630515
0.428948 0.988314 0.568726
0.932414 0.987981 0.074346
0.986902 0.986973 -0.073059
-0.073059 -0.073059 0.959539
-0.073059 -0.073059 0.959530
-0.073059 -0.073059 0.959504
-0.073059 -0.073059 0.959436
-0.073059 -0.073059 0.959254
0.478432 -0.073059 0.958760
0.831397 -0.073059 0.957392
0.954325 -0.073059 0.953368
0.988319 -0.073059 0.938983
-0.073059 -0.073059 0.959530
-0.073059 -0.073059 0.959520
-0.073059 -0.073059 0.959495
-0.073059 -0.073059 0.959427
-0.073059 -0.073059 0.959244
0.477488 -0.073059 0.958750
0.831286 -0.073059 0.957382
0.954312 -0.073059 0.953357
0.988318 -0.073059 0.938965
-0.073059 -0.073059 0.959505
-0.073059 -0.073059 0.959496
-0.073059 -0.073059 0.959470
-0.073059 -0.073059 0.959402
-0.073059 -0.073059 0.959219
0.474946 -0.073059 0.958725
0.830989 -0.073059 0.957355
0.954278 -0.073059 0.953326
0.988315 -0.073059 0.938917
-0.073059 -0.073059 0.959439
-0.073059 -0.073059 0.959430
-0.073059 -0.073059 0.959404
-0.073059 -0.073059 0.959336
-0.073059 -0.073059 0.959152
0.468003 -0.073059 0.958657
0.830191 -0.073059 0.957283
0.954186 -0.073059 0.953243
0.988308 -0.073059 0.938789
-0.073059 -0.073059 0.959262
-0.073059 -0.073059 0.959252
-0.073059 -0.073059 0.959226
-0.073059 -0.073059 0.959158
-0.073059 -0.073059 0.958973
0.448219 -0.073059 0.958473
0.828028 -0.073059 0.957090
0.953939 -0.073059 0.953020
0.988289 -0.073059 0.938444
-0.073059 0.448808 0.958783
-0.073059 0.447838 0.958773
-0.073059 0.445226 0.958746
-0.073059 0.438087 0.958676
-0.073059 0.417724 0.958488
0.383554 0.350912 0.957978
0.821980 0.012812 0.956568
0.953269 -0.073059 0.952416
0.988237 -0.073059 0.937509
-0.073059 0.826961 0.957456
-0.073059 0.826857 0.957446
-0.073059 0.826581 0.957418
-0.073059 0.825837 0.957344
-0.073059 0.823821 0.957146
0.026964 0.818216 0.956610
0.803880 0.801754 0.955127
0.951401 0.745434 0.950742
0.988097 0.018341 0.934901
-0.073059 0.953476 0.953566
-0.073059 0.953464 0.953554
-0.073059 0.953432 0.953522
-0.073059 0.953348 0.953437
-0.073059 0.953123 0.953209
-0.073059 0.952512 0.952592
0.739863 0.950816 0.950878
0.945770 0.945770 0.945770
0.987704 0.927326 0.927015
-0.073059 0.988182 0.939792
-0.073059 0.988181 0.939774
-0.073059 0.988178 0.939726
-0.073059 0.988172 0.939596
-0.073059 0.988154 0.939248
-0.073059 0.988107 0.938305
-0.073059 0.987980 0.935672
0.924272 0.987624 0.927691
0.986482 0.986538 0.896281
-0.073059 -0.073059 0.988677
-0.073059 -0.073059 0.988676
-0.073059 -0.073059 0.988673
-0.073059 -0.073059 0.988668
-0.073059 -0.073059 0.988652
-0.073059 -0.073059 0.988609
0.678082 -0.073059 0.988494
0.941397 -0.073059 0.988169
0.987423 -0.073059 0.987185
-0.073059 -0.073059 0.988676
-0.073059 -0.073059 0.988675
-0.073059 -0.073059 0.988673
-0.073059 -0.073059 0.988667
-0.073059 -0.073059 0.988651
-0.073059 -0.073059 0.988609
0.677761 -0.073059 0.988493
0.941378 -0.073059 0.988168
0.987422 -0.073059 0.987184
-0.073059 -0.073059 0.988674
-0.073059 -0.073059 0.988673
-0.073059 -0.073059 0.988671
-0.073059 -0.073059 0.988665
-0.073059 -0.073059 0.988649
-0.073059 -0.073059 0.988606
0.676899 -0.073059 0.988491
0.941326 -0.073059 0.988165
0.987419 -0.073059 0.987181
-0.073059 -0.073059 0.988668
-0.073059 -0.073059 0.988667
-0.073059 -0.073059 0.988665
-0.073059 -0.073059 0.988659
-0.073059 -0.073059 0.988643
-0.073059 -0.073059 0.988601
0.674567 -0.073059 0.988485
0.941188 -0.073059 0.988159
0.987410 -0.073059 0.987173
-0.073059 -0.073059 0.988653
-0.073059 -0.073059 0.988652
-0.073059 -0.073059 0.988649
-0.073059 -0.073059 0.988644
-0.073059 -0.073059 0.988628
-0.073059 -0.073059 0.988585
0.668113 -0.073059 0.988469
0.940818 -0.073059 0.988142
0.987387 -0.073059 0.987152
-0.073059 -0.073059 0.988611
-0.073059 -0.073059 0.988610
-0.073059 -0.073059 0.988608
-0.073059 -0.073059 0.988602
-0.073059 -0.073059 0.988586
-0.073059 -0.073059 0.988543
0.649362 -0.073059 0.988426
0.939810 -0.073059 0.988095
0.987326 -0.073059 0.987096
-0.073059 0.650268 0.988499
-0.073059 0.649923 0.988498
-0.073059 0.648999 0.988496
-0.073059 0.646504 0.988490
-0.073059 0.639645 0.988473
-0.073059 0.619977 0.988429
0.586947 0.555123 0.988308
0.936984 0.011718 0.987970
0.987159 -0.073059 0.986944
-0.073059 0.939330 0.988184
-0.073059 0.939312 0.988183
-0.073059 0.939264 0.988181
-0.073059 0.939134 0.988174
-0.073059 0.938787 0.988156
-0.073059 0.937845 0.988109
0.054576 0.935217 0.987980
0.928313 0.927257 0.987619
0.986685 0.896058 0.986515
-0.073059 0.987212 0.987234
-0.073059 0.987211 0.987233
-0.073059 0.987208 0.987230
-0.073059 0.987200 0.987222
-0.073059 0.987179 0.987201
-0.073059 0.987122 0.987144
-0.073059 0.986968 0.986989
0.892590 0.986534 0.986550
0.985195 0.985195 0.985195
