滤镜资源/Professional Luts Collection/Lutify.me Professional/Utility LUTs/Log Conversions/REDLogFilm-REDColor.cube
# Created by: Lutify.me
# Copyright: (c) Copyright Lutify.me 2015
# Website: https://lutify.me
LUT_3D_SIZE 5
0.025327 0.025327 0.025327
0.131664 0.022539 0.022435
0.484485 0.005831 0.005202
0.852250 -0.073059 -0.073059
0.986537 -0.073059 -0.073059
0.021552 0.130935 0.022662
0.127356 0.127773 0.019864
0.483347 0.103694 0.003261
0.852140 -0.036450 -0.073059
0.986535 -0.073059 -0.073059
-0.000160 0.482911 0.006574
0.093737 0.482070 0.004464
0.475051 0.475978 -0.010559
0.851353 0.426321 -0.073059
0.986523 -0.073059 -0.073059
-0.073059 0.851144 -0.073059
-0.073059 0.851062 -0.073059
0.403525 0.850479 -0.073059
0.845547 0.846213 -0.073059
0.986433 0.808377 -0.073059
-0.073059 0.986410 -0.073059
-0.073059 0.986409 -0.073059
-0.073059 0.986400 -0.073059
0.789483 0.986333 -0.073059
0.985753 0.985832 -0.073059
0.022876 0.022516 0.130887
0.128898 0.019823 0.127604
0.483753 0.003782 0.102525
0.852179 -0.073059 -0.041038
0.986536 -0.073059 -0.073059
0.019211 0.127747 0.127868
0.124549 0.124549 0.124549
0.482611 0.100044 0.099051
0.852069 -0.038500 -0.042979
0.986534 -0.073059 -0.073059
-0.001943 0.482063 0.104950
0.090453 0.481218 0.101211
0.474285 0.475100 0.072439
0.851282 0.425200 -0.056799
0.986522 -0.073059 -0.073059
-0.073059 0.851061 -0.031100
-0.073059 0.850980 -0.033210
0.402436 0.850396 -0.048233
0.845470 0.846126 -0.073059
0.986432 0.808249 -0.073059
-0.073059 0.986409 -0.073059
-0.073059 0.986408 -0.073059
-0.073059 0.986398 -0.073059
0.789355 0.986331 -0.073059
0.985751 0.985831 -0.073059
0.007858 0.005694 0.482807
0.108075 0.003661 0.481933
0.478464 -0.010811 0.475601
0.851674 -0.073059 0.423680
0.986528 -0.073059 -0.073059
0.005087 0.103451 0.482003
0.103211 0.099827 0.481126
0.477291 0.071941 0.474769
0.851563 -0.053092 0.422605
0.986526 -0.073059 -0.073059
-0.014638 0.475919 0.476188
0.064954 0.475049 0.475285
0.468738 0.468738 0.468738
0.850772 0.417036 0.414783
0.986513 -0.073059 -0.073059
-0.073059 0.850473 0.429102
-0.073059 0.850391 0.427962
0.394511 0.849803 0.419666
0.844927 0.845505 0.348440
0.986424 0.807335 -0.073059
-0.073059 0.986400 -0.073059
-0.073059 0.986398 -0.073059
-0.073059 0.986389 -0.073059
0.788437 0.986322 -0.073059
0.985742 0.985820 -0.073059
-0.073059 -0.073059 0.851070
-0.021304 -0.073059 0.850986
0.436179 -0.073059 0.850379
0.847992 -0.073059 0.845942
0.986470 -0.073059 0.806219
-0.073059 -0.037447 0.850992
-0.024075 -0.039479 0.850907
0.434733 -0.053951 0.850301
0.847877 -0.073059 0.845860
0.986468 -0.073059 0.806096
-0.073059 0.425776 0.850435
-0.043800 0.424661 0.850349
0.424130 0.416545 0.849739
0.847052 0.347198 0.845270
0.986456 -0.073059 0.805217
-0.073059 0.846171 0.846363
-0.073059 0.846084 0.846274
0.327419 0.845468 0.845636
0.840961 0.840961 0.840961
0.986365 0.800648 0.798783
-0.073059 0.986332 0.810640
-0.073059 0.986331 0.810510
-0.073059 0.986321 0.809585
0.781747 0.986253 0.802812
0.985677 0.985746 0.742515
-0.073059 -0.073059 0.986402
-0.073059 -0.073059 0.986401
-0.073059 -0.073059 0.986391
0.816382 -0.073059 0.986321
0.986043 -0.073059 0.985800
-0.073059 -0.073059 0.986401
-0.073059 -0.073059 0.986399
-0.073059 -0.073059 0.986390
0.816220 -0.073059 0.986320
0.986041 -0.073059 0.985798
-0.073059 -0.073059 0.986392
-0.073059 -0.073059 0.986390
-0.073059 -0.073059 0.986381
0.815059 -0.073059 0.986311
0.986028 -0.073059 0.985789
-0.073059 0.807933 0.986328
-0.073059 0.807806 0.986326
-0.073059 0.806896 0.986316
0.806463 0.800243 0.986245
0.985930 0.741437 0.985718
-0.073059 0.985827 0.985850
-0.073059 0.985826 0.985849
-0.073059 0.985815 0.985838
0.724297 0.985742 0.985762
0.985195 0.985195 0.985195
