滤镜资源/Professional Luts Collection/Lutify.me Professional/Utility LUTs/Log Conversions/REDLogFilm-REDColor.cube
# Created by: Lutify.me
# Copyright: (c) Copyright Lutify.me 2015
# Website: https://lutify.me
LUT_3D_SIZE 33
0.025327 0.025327 0.025327
0.029231 0.025199 0.025194
0.034342 0.025035 0.025024
0.041328 0.024825 0.024806
0.051226 0.024558 0.024529
0.064676 0.024218 0.024176
0.084218 0.023785 0.023727
0.106291 0.023235 0.023157
0.131664 0.022539 0.022435
0.160503 0.021659 0.021523
0.194358 0.020546 0.020369
0.234569 0.019145 0.018919
0.280662 0.017402 0.017118
0.330453 0.015265 0.014915
0.381829 0.012667 0.012240
0.433301 0.009543 0.009032
0.484485 0.005831 0.005202
0.535276 0.001149 0.000342
0.585581 -0.004835 -0.005871
0.635262 -0.012483 -0.013810
0.683386 -0.022258 -0.023958
0.727380 -0.034752 -0.036928
0.771418 -0.050720 -0.053504
0.814179 -0.071128 -0.073059
0.852250 -0.073059 -0.073059
0.884507 -0.073059 -0.073059
0.911356 -0.073059 -0.073059
0.933320 -0.073059 -0.073059
0.950823 -0.073059 -0.073059
0.964317 -0.073059 -0.073059
0.974400 -0.073059 -0.073059
0.981612 -0.073059 -0.073059
0.986537 -0.073059 -0.073059
0.025152 0.029200 0.025205
0.029053 0.029070 0.025071
0.034156 0.028904 0.024901
0.041124 0.028692 0.024684
0.051003 0.028421 0.024407
0.064433 0.028075 0.024055
0.083982 0.027632 0.023606
0.106070 0.027067 0.023037
0.131470 0.026345 0.022316
0.160328 0.025426 0.021405
0.194194 0.024261 0.020253
0.234418 0.022793 0.018806
0.280532 0.020960 0.017009
0.330345 0.018674 0.014811
0.381743 0.015886 0.012142
0.433234 0.012549 0.008940
0.484434 0.008605 0.005114
0.535236 0.003910 0.000253
0.585550 -0.002074 -0.005959
0.635238 -0.009722 -0.013898
0.683369 -0.019497 -0.024046
0.727367 -0.031991 -0.037016
0.771408 -0.047959 -0.053592
0.814171 -0.068367 -0.073059
0.852245 -0.073059 -0.073059
0.884504 -0.073059 -0.073059
0.911354 -0.073059 -0.073059
0.933318 -0.073059 -0.073059
0.950822 -0.073059 -0.073059
0.964317 -0.073059 -0.073059
0.974400 -0.073059 -0.073059
0.981612 -0.073059 -0.073059
0.986537 -0.073059 -0.073059
0.024929 0.034269 0.025048
0.028827 0.034133 0.024915
0.033918 0.033959 0.024745
0.040865 0.033737 0.024528
0.050717 0.033454 0.024252
0.064124 0.033094 0.023900
0.083680 0.032636 0.023452
0.105788 0.032055 0.022884
0.131221 0.031319 0.022165
0.160105 0.030384 0.021256
0.193985 0.029198 0.020105
0.234225 0.027688 0.018661
0.280366 0.025763 0.016870
0.330208 0.023338 0.014678
0.381634 0.020343 0.012016
0.433149 0.016692 0.008824
0.484368 0.012397 0.005001
0.535185 0.007439 0.000141
0.585510 0.001455 -0.006071
0.635208 -0.006194 -0.014011
0.683347 -0.015969 -0.024159
0.727351 -0.028462 -0.037129
0.771395 -0.044430 -0.053705
0.814161 -0.064839 -0.073059
0.852238 -0.073059 -0.073059
0.884500 -0.073059 -0.073059
0.911351 -0.073059 -0.073059
0.933316 -0.073059 -0.073059
0.950821 -0.073059 -0.073059
0.964316 -0.073059 -0.073059
0.974400 -0.073059 -0.073059
0.981611 -0.073059 -0.073059
0.986537 -0.073059 -0.073059
0.024644 0.041192 0.024848
0.028538 0.041043 0.024715
0.033616 0.040853 0.024546
0.040536 0.040611 0.024329
0.050353 0.040303 0.024053
0.063730 0.039912 0.023702
0.083294 0.039415 0.023256
0.105426 0.038787 0.022689
0.130903 0.037992 0.021973
0.159820 0.036989 0.021065
0.193718 0.035725 0.019917
0.233979 0.034130 0.018477
0.280153 0.032128 0.016693
0.330032 0.029632 0.014509
0.381494 0.026480 0.011856
0.433041 0.022527 0.008675
0.484283 0.017743 0.004857
0.535120 0.012205 -0.000003
0.585460 0.005965 -0.006216
0.635168 -0.001684 -0.014155
0.683319 -0.011459 -0.024303
0.727329 -0.023952 -0.037273
0.771379 -0.039920 -0.053849
0.814149 -0.060329 -0.073059
0.852230 -0.073059 -0.073059
0.884494 -0.073059 -0.073059
0.911347 -0.073059 -0.073059
0.933314 -0.073059 -0.073059
0.950820 -0.073059 -0.073059
0.964315 -0.073059 -0.073059
0.974399 -0.073059 -0.073059
0.981611 -0.073059 -0.073059
0.986537 -0.073059 -0.073059
0.024281 0.050998 0.024593
0.028169 0.050834 0.024460
0.033231 0.050625 0.024291
0.040117 0.050357 0.024075
0.049888 0.050016 0.023801
0.063229 0.049582 0.023451
0.082800 0.049028 0.023006
0.104964 0.048325 0.022441
0.130496 0.047435 0.021727
0.159455 0.046310 0.020821
0.193376 0.044885 0.019677
0.233664 0.043090 0.018243
0.279880 0.040849 0.016468
0.329808 0.038091 0.014294
0.381316 0.034713 0.011652
0.432902 0.030559 0.008486
0.484176 0.025410 0.004673
0.535036 0.019122 -0.000187
0.585395 0.011959 -0.006400
0.635118 0.004080 -0.014339
0.683283 -0.005695 -0.024487
0.727302 -0.018188 -0.037457
0.771357 -0.034156 -0.054033
0.814134 -0.054565 -0.073059
0.852220 -0.073059 -0.073059
0.884487 -0.073059 -0.073059
0.911343 -0.073059 -0.073059
0.933312 -0.073059 -0.073059
0.950818 -0.073059 -0.073059
0.964314 -0.073059 -0.073059
0.974399 -0.073059 -0.073059
0.981611 -0.073059 -0.073059
0.986536 -0.073059 -0.073059
0.023819 0.064318 0.024268
0.027697 0.064141 0.024136
0.032742 0.063914 0.023967
0.039585 0.063626 0.023752
0.049297 0.063258 0.023478
0.062591 0.062790 0.023130
0.082168 0.062194 0.022687
0.104372 0.061435 0.022126
0.129974 0.060482 0.021414
0.158988 0.059290 0.020511
0.192938 0.057795 0.019372
0.233262 0.055905 0.017945
0.279531 0.053473 0.016181
0.329520 0.050351 0.014020
0.381087 0.046451 0.011393
0.432724 0.041663 0.008246
0.484038 0.035960 0.004438
0.534929 0.029177 -0.000423
0.585312 0.020930 -0.006635
0.635054 0.011648 -0.014575
0.683237 0.001672 -0.024722
0.727268 -0.010821 -0.037692
0.771330 -0.026789 -0.054269
0.814114 -0.047197 -0.073059
0.852206 -0.073059 -0.073059
0.884479 -0.073059 -0.073059
0.911337 -0.073059 -0.073059
0.933308 -0.073059 -0.073059
0.950816 -0.073059 -0.073059
0.964313 -0.073059 -0.073059
0.974398 -0.073059 -0.073059
0.981610 -0.073059 -0.073059
0.986536 -0.073059 -0.073059
0.023232 0.083733 0.023854
0.027093 0.083559 0.023723
0.032122 0.083338 0.023555
0.038913 0.083054 0.023341
0.048545 0.082692 0.023069
0.061779 0.082228 0.022723
0.081358 0.081634 0.022283
0.103614 0.080874 0.021724
0.129307 0.079901 0.021015
0.158390 0.078654 0.020116
0.192378 0.077051 0.018983
0.232747 0.074530 0.017567
0.279085 0.071389 0.015817
0.329153 0.067645 0.013673
0.380794 0.063249 0.011064
0.432497 0.057982 0.007941
0.483861 0.051494 0.004137
0.534792 0.043424 -0.000724
0.585206 0.034102 -0.006936
0.634972 0.023298 -0.014875
0.683178 0.011253 -0.025023
0.727223 -0.001405 -0.037993
0.771296 -0.017373 -0.054569
0.814088 -0.037782 -0.073059
0.852189 -0.063866 -0.073059
0.884468 -0.073059 -0.073059
0.911330 -0.073059 -0.073059
0.933303 -0.073059 -0.073059
0.950813 -0.073059 -0.073059
0.964311 -0.073059 -0.073059
0.974397 -0.073059 -0.073059
0.981610 -0.073059 -0.073059
0.986536 -0.073059 -0.073059
0.022490 0.105673 0.023328
0.026324 0.105511 0.023198
0.031336 0.105303 0.023031
0.038065 0.105038 0.022819
0.047593 0.104698 0.022549
0.060757 0.104264 0.022206
0.080322 0.103708 0.021769
0.102643 0.102995 0.021213
0.128453 0.102082 0.020508
0.157626 0.100909 0.019615
0.191662 0.099400 0.018491
0.232087 0.097458 0.017088
0.278514 0.094957 0.015357
0.328681 0.091734 0.013232
0.380420 0.087582 0.010647
0.432206 0.082216 0.007555
0.483636 0.074847 0.003752
0.534617 0.064828 -0.001108
0.585071 0.053931 -0.007320
0.634867 0.040810 -0.015260
0.683102 0.026427 -0.025408
0.727167 0.010753 -0.038377
0.771252 -0.005339 -0.054954
0.814055 -0.025747 -0.073059
0.852167 -0.051831 -0.073059
0.884453 -0.073059 -0.073059
0.911321 -0.073059 -0.073059
0.933298 -0.073059 -0.073059
0.950809 -0.073059 -0.073059
0.964309 -0.073059 -0.073059
0.974396 -0.073059 -0.073059
0.981609 -0.073059 -0.073059
0.986536 -0.073059 -0.073059
0.021552 0.130935 0.022662
0.025344 0.130792 0.022533
0.030339 0.130609 0.022368
0.036994 0.130375 0.022159
0.046392 0.130076 0.021891
0.059480 0.129694 0.021550
0.078993 0.129204 0.021116
0.101395 0.128577 0.020564
0.127356 0.127773 0.019864
0.156646 0.126743 0.018979
0.190745 0.125420 0.017867
0.231243 0.123719 0.016484
0.277783 0.121524 0.014774
0.328078 0.118680 0.012675
0.379940 0.114967 0.010120
0.431834 0.110094 0.007064
0.483347 0.103694 0.003261
0.534394 0.095272 -0.001599
0.584898 0.084192 -0.007811
0.634733 0.068321 -0.015751
0.683006 0.050297 -0.025899
0.727094 0.030490 -0.038869
0.771195 0.010123 -0.055445
0.814013 -0.010366 -0.073059
0.852140 -0.036450 -0.073059
0.884435 -0.069788 -0.073059
0.911309 -0.073059 -0.073059
0.933290 -0.073059 -0.073059
0.950805 -0.073059 -0.073059
0.964307 -0.073059 -0.073059
0.974394 -0.073059 -0.073059
0.981608 -0.073059 -0.073059
0.986535 -0.073059 -0.073059
0.020367 0.159637 0.021821
0.024103 0.159509 0.021693
0.029075 0.159345 0.021530
0.035646 0.159135 0.021321
0.044873 0.158867 0.021056
0.057883 0.158524 0.020718
0.077286 0.158085 0.020288
0.099789 0.157524 0.019741
0.125949 0.156806 0.019049
0.155391 0.155885 0.018177
0.189570 0.154706 0.017083
0.230163 0.153191 0.015723
0.276846 0.151244 0.014040
0.327304 0.148733 0.011972
0.379325 0.145480 0.009456
0.431357 0.141260 0.006436
0.482977 0.135767 0.002633
0.534107 0.128561 -0.002227
0.584676 0.119039 -0.008439
0.634561 0.106060 -0.016379
0.682883 0.088363 -0.026527
0.727002 0.063175 -0.039497
0.771123 0.035868 -0.056073
0.813960 0.009331 -0.073059
0.852104 -0.016792 -0.073059
0.884412 -0.050130 -0.073059
0.911294 -0.073059 -0.073059
0.933281 -0.073059 -0.073059
0.950799 -0.073059 -0.073059
0.964303 -0.073059 -0.073059
0.974392 -0.073059 -0.073059
0.981607 -0.073059 -0.073059
0.986535 -0.073059 -0.073059
0.018878 0.193293 0.020755
0.022543 0.193173 0.020629
0.027465 0.193019 0.020468
0.033947 0.192822 0.020262
0.042959 0.192571 0.020000
0.055867 0.192249 0.019666
0.074651 0.191838 0.019242
0.097721 0.191312 0.018704
0.124138 0.190639 0.018025
0.153779 0.189777 0.017169
0.188066 0.188674 0.016100
0.228779 0.187261 0.014768
0.275645 0.185450 0.013118
0.326311 0.183127 0.011088
0.378536 0.180149 0.008623
0.430746 0.176333 0.005634
0.482504 0.171428 0.001831
0.533741 0.165077 -0.003030
0.584393 0.156788 -0.009242
0.634342 0.145891 -0.017182
0.682726 0.131229 -0.027329
0.726883 0.111017 -0.040299
0.771031 0.082123 -0.056876
0.813892 0.043294 -0.073059
0.852059 0.008340 -0.073059
0.884382 -0.025004 -0.073059
0.911275 -0.067613 -0.073059
0.933268 -0.073059 -0.073059
0.950791 -0.073059 -0.073059
0.964299 -0.073059 -0.073059
0.974390 -0.073059 -0.073059
0.981606 -0.073059 -0.073059
0.986534 -0.073059 -0.073059
0.017031 0.233289 0.019413
0.020594 0.233179 0.019289
0.025414 0.233037 0.019131
0.031819 0.232856 0.018929
0.040576 0.232624 0.018672
0.053272 0.232328 0.018346
0.071300 0.231950 0.017931
0.095054 0.231465 0.017407
0.121801 0.230846 0.016746
0.151707 0.230052 0.015915
0.186136 0.229037 0.014873
0.227005 0.227737 0.013575
0.274102 0.226072 0.011964
0.325035 0.223938 0.009983
0.377524 0.221201 0.007583
0.429962 0.217682 0.004608
0.481897 0.213150 0.000805
0.533271 0.207293 -0.004056
0.584030 0.199684 -0.010268
0.634061 0.189756 -0.018208
0.682524 0.176813 -0.028355
0.726732 0.159846 -0.041325
0.770913 0.136806 -0.057901
0.813804 0.103581 -0.073059
0.852000 0.053753 -0.073059
0.884344 0.007108 -0.073059
0.911250 -0.035501 -0.073059
0.933253 -0.073059 -0.073059
0.950782 -0.073059 -0.073059
0.964293 -0.073059 -0.073059
0.974386 -0.073059 -0.073059
0.981604 -0.073059 -0.073059
0.986533 -0.073059 -0.073059
0.014773 0.279225 0.017739
0.018172 0.279129 0.017618
0.022840 0.279006 0.017465
0.029165 0.278849 0.017270
0.037652 0.278648 0.017021
0.049945 0.278392 0.016706
0.067326 0.278063 0.016307
0.091617 0.277643 0.015801
0.118771 0.277105 0.015162
0.149033 0.276417 0.014358
0.183662 0.275535 0.013350
0.224733 0.274403 0.012091
0.272116 0.272950 0.010529
0.323394 0.271080 0.008614
0.376223 0.268673 0.006272
0.428957 0.265565 0.003297
0.481119 0.261546 -0.000506
0.532670 0.256335 -0.005367
0.583565 0.249559 -0.011579
0.633701 0.240688 -0.019519
0.682266 0.229012 -0.029666
0.726538 0.213721 -0.042636
0.770762 0.193423 -0.059213
0.813692 0.166276 -0.073059
0.851926 0.128435 -0.073059
0.884295 0.068056 -0.073059
0.911219 0.005542 -0.073059
0.933233 -0.048916 -0.073059
0.950770 -0.073059 -0.073059
0.964286 -0.073059 -0.073059
0.974382 -0.073059 -0.073059
0.981602 -0.073059 -0.073059
0.986532 -0.073059 -0.073059
0.012035 0.328918 0.015681
0.015235 0.328839 0.015566
0.019669 0.328738 0.015419
0.025808 0.328608 0.015233
0.034068 0.328442 0.014995
0.045806 0.328230 0.014693
0.062669 0.327958 0.014310
0.087187 0.327611 0.013825
0.114812 0.327166 0.013212
0.145567 0.326596 0.012440
0.180488 0.325866 0.011470
0.221817 0.324928 0.010261
0.269558 0.323725 0.008764
0.321279 0.322178 0.006925
0.374549 0.320185 0.004597
0.427664 0.317613 0.001621
0.480120 0.314288 -0.002182
0.531898 0.309974 -0.007042
0.582969 0.304361 -0.013255
0.633241 0.297010 -0.021194
0.681934 0.287291 -0.031342
0.726291 0.274375 -0.044312
0.770570 0.256993 -0.060888
0.813549 0.233332 -0.073059
0.851831 0.201121 -0.073059
0.884232 0.156643 -0.073059
0.911178 0.088058 -0.073059
0.933207 0.003540 -0.073059
0.950754 -0.066062 -0.073059
0.964276 -0.073059 -0.073059
0.974377 -0.073059 -0.073059
0.981599 -0.073059 -0.073059
0.986530 -0.073059 -0.073059
0.008757 0.380252 0.013176
0.011730 0.380189 0.013067
0.015833 0.380108 0.012928
0.021629 0.380005 0.012751
0.029673 0.379873 0.012525
0.040744 0.379704 0.012238
0.057107 0.379488 0.011874
0.081457 0.379212 0.011413
0.109605 0.378858 0.010830
0.141066 0.378404 0.010096
0.176419 0.377823 0.009177
0.218068 0.377079 0.008032
0.266253 0.376123 0.006604
0.318548 0.374896 0.004783
0.372391 0.373317 0.002455
0.426000 0.371282 -0.000521
0.478837 0.368654 -0.004324
0.530907 0.365251 -0.009184
0.582205 0.360829 -0.015396
0.632650 0.355048 -0.023336
0.681510 0.347430 -0.033484
0.725974 0.337308 -0.046453
0.770323 0.323695 -0.063030
0.813366 0.305071 -0.073059
0.851709 0.279175 -0.073059
0.884153 0.242370 -0.073059
0.911127 0.189582 -0.073059
0.933175 0.110658 -0.073059
0.950734 0.000982 -0.073059
0.964265 -0.073059 -0.073059
0.974370 -0.073059 -0.073059
0.981595 -0.073059 -0.073059
0.986528 -0.073059 -0.073059
0.004833 0.431723 0.010155
0.007615 0.431674 0.010053
0.011344 0.431611 0.009923
0.016609 0.431531 0.009757
0.024205 0.431428 0.009546
0.034750 0.431297 0.009278
0.050181 0.431129 0.008938
0.073341 0.430915 0.008507
0.102762 0.430640 0.007964
0.135199 0.430288 0.007280
0.171186 0.429838 0.006408
0.213237 0.429261 0.005292
0.261975 0.428521 0.003867
0.315013 0.427571 0.002046
0.369601 0.426351 -0.000282
0.423854 0.424781 -0.003258
0.477184 0.422758 -0.007061
0.529634 0.420142 -0.011921
0.581224 0.416751 -0.018133
0.631893 0.412335 -0.026073
0.680965 0.406551 -0.036221
0.725569 0.398913 -0.049191
0.770006 0.388713 -0.065767
0.813131 0.374865 -0.073059
0.851553 0.355782 -0.073059
0.884050 0.328787 -0.073059
0.911061 0.289139 -0.073059
0.933133 0.228807 -0.073059
0.950708 0.136401 -0.073059
0.964249 -0.002288 -0.073059
0.974361 -0.073059 -0.073059
0.981591 -0.073059 -0.073059
0.986526 -0.073059 -0.073059
-0.000160 0.482911 0.006574
0.002622 0.482873 0.006478
0.006178 0.482824 0.006356
0.010855 0.482762 0.006199
0.017619 0.482682 0.005999
0.027598 0.482580 0.005743
0.041696 0.482450 0.005416
0.062994 0.482283 0.004998
0.093737 0.482070 0.004464
0.127491 0.481797 0.003782
0.164404 0.481448 0.002909
0.206989 0.481000 0.001794
0.256421 0.480427 0.000369
0.310423 0.479692 -0.001453
0.365985 0.478749 -0.003781
0.421078 0.477538 -0.006756
0.475051 0.475978 -0.010559
0.527994 0.473967 -0.015420
0.579963 0.471368 -0.021632
0.630921 0.467996 -0.029572
0.680264 0.463603 -0.039719
0.725049 0.457845 -0.052689
0.769601 0.450241 -0.069265
0.812831 0.440085 -0.073059
0.851353 0.426321 -0.073059
0.883920 0.407285 -0.073059
0.910976 0.380055 -0.073059
0.933080 0.339238 -0.073059
0.950676 0.274146 -0.073059
0.964230 0.165809 -0.073059
0.974350 -0.006467 -0.073059
0.981585 -0.073059 -0.073059
0.986523 -0.073059 -0.073059
-0.006542 0.533708 0.002103
-0.003759 0.533679 0.002007
-0.000203 0.533641 0.001884
0.004341 0.533592 0.001728
0.010238 0.533531 0.001528
0.018944 0.533452 0.001272
0.031993 0.533351 0.000945
0.051517 0.533221 0.000527
0.081870 0.533056 -0.000007
0.117262 0.532845 -0.000690
0.155545 0.532574 -0.001562
0.198863 0.532228 -0.002677
0.249193 0.531784 -0.004102
0.304443 0.531215 -0.005924
0.361281 0.530487 -0.008252
0.417476 0.529551 -0.011227
0.472293 0.528349 -0.015030
0.525878 0.526802 -0.019891
0.578340 0.524806 -0.026103
0.629671 0.522227 -0.034043
0.679363 0.518880 -0.044190
0.724384 0.514520 -0.057160
0.769082 0.508805 -0.073059
0.812446 0.501256 -0.073059
0.851097 0.491174 -0.073059
0.883752 0.477508 -0.073059
0.910868 0.458577 -0.073059
0.933012 0.431478 -0.073059
0.950634 0.390665 -0.073059
0.964205 0.323451 -0.073059
0.974336 0.200561 -0.073059
0.981577 -0.011808 -0.073059
0.986519 -0.073059 -0.073059
-0.014698 0.584024 -0.003612
-0.011916 0.584001 -0.003708
-0.008360 0.583971 -0.003830
-0.003815 0.583934 -0.003987
0.001994 0.583886 -0.004187
0.009463 0.583825 -0.004443
0.020680 0.583747 -0.004770
0.037888 0.583647 -0.005188
0.064838 0.583519 -0.005722
0.103257 0.583355 -0.006404
0.143846 0.583146 -0.007277
0.188250 0.582878 -0.008392
0.239711 0.582535 -0.009817
0.296598 0.582096 -0.011639
0.355123 0.581533 -0.013967
0.412780 0.580811 -0.016942
0.468712 0.579885 -0.020745
0.523141 0.578694 -0.025606
0.576244 0.577162 -0.031818
0.628063 0.575186 -0.039758
0.678198 0.572631 -0.049905
0.723531 0.569317 -0.062875
0.768416 0.564999 -0.073059
0.811952 0.559340 -0.073059
0.850769 0.551861 -0.073059
0.883537 0.541871 -0.073059
0.910730 0.528319 -0.073059
0.932924 0.509531 -0.073059
0.950580 0.482630 -0.073059
0.964173 0.442028 -0.073059
0.974318 0.374617 -0.073059
0.981567 0.241715 -0.073059
0.986513 -0.018635 -0.073059
-0.025123 0.633715 -0.010916
-0.022340 0.633697 -0.011012
-0.018784 0.633675 -0.011134
-0.014240 0.633646 -0.011291
-0.008431 0.633609 -0.011491
-0.001006 0.633561 -0.011747
0.008493 0.633500 -0.012074
0.022954 0.633423 -0.012492
0.046142 0.633324 -0.013026
0.084182 0.633197 -0.013708
0.128049 0.633035 -0.014581
0.174414 0.632827 -0.015696
0.227222 0.632562 -0.017121
0.286205 0.632222 -0.018943
0.346992 0.631787 -0.021271
0.406619 0.631229 -0.024246
0.464040 0.630514 -0.028049
0.519586 0.629596 -0.032910
0.573533 0.628417 -0.039122
0.625990 0.626900 -0.047061
0.676692 0.624946 -0.057209
0.722437 0.622423 -0.070179
0.767561 0.619154 -0.073059
0.811317 0.614897 -0.073059
0.850348 0.609317 -0.073059
0.883262 0.601942 -0.073059
0.910552 0.592077 -0.073059
0.932813 0.578665 -0.073059
0.950512 0.560059 -0.073059
0.964133 0.533400 -0.073059
0.974295 0.493103 -0.073059
0.981554 0.426074 -0.073059
0.986507 0.288420 -0.073059
-0.038446 0.681962 -0.020251
-0.035664 0.681949 -0.020347
-0.032108 0.681933 -0.020469
-0.027563 0.681912 -0.020626
-0.021754 0.681885 -0.020826
-0.014330 0.681851 -0.021082
-0.004841 0.681807 -0.021409
0.007286 0.681751 -0.021827
0.025957 0.681680 -0.022361
0.057552 0.681588 -0.023044
0.106027 0.681471 -0.023916
0.156185 0.681322 -0.025031
0.210847 0.681130 -0.026456
0.272360 0.680885 -0.028278
0.336161 0.680571 -0.030606
0.398466 0.680168 -0.033581
0.457908 0.679650 -0.037384
0.514950 0.678985 -0.042245
0.570013 0.678130 -0.048457
0.623311 0.677026 -0.056397
0.674736 0.675599 -0.066544
0.721029 0.673748 -0.073059
0.766461 0.671340 -0.073059
0.810502 0.668194 -0.073059
0.849807 0.664063 -0.073059
0.882909 0.658612 -0.073059
0.910324 0.651383 -0.073059
0.932669 0.641672 -0.073059
0.950424 0.628388 -0.073059
0.964081 0.610026 -0.073059
0.974265 0.583695 -0.073059
0.981538 0.543782 -0.073059
0.986498 0.477262 -0.073059
-0.055475 0.726011 -0.032182
-0.052693 0.726001 -0.032278
-0.049137 0.725989 -0.032401
-0.044592 0.725973 -0.032557
-0.038783 0.725953 -0.032757
-0.031359 0.725928 -0.033013
-0.021870 0.725895 -0.033340
-0.009742 0.725853 -0.033758
0.005758 0.725800 -0.034292
0.029866 0.725732 -0.034975
0.074089 0.725645 -0.035847
0.131172 0.725533 -0.036962
0.189017 0.725390 -0.038387
0.253660 0.725208 -0.040209
0.321538 0.724975 -0.042537
0.387545 0.724676 -0.045512
0.449790 0.724294 -0.049315
0.508863 0.723804 -0.054176
0.565421 0.723177 -0.060388
0.619838 0.722373 -0.068328
0.672188 0.721341 -0.073059
0.719216 0.720015 -0.073059
0.765045 0.718306 -0.073059
0.809453 0.716098 -0.073059
0.849110 0.713233 -0.073059
0.882454 0.709491 -0.073059
0.910032 0.704555 -0.073059
0.932485 0.697997 -0.073059
0.950311 0.689208 -0.073059
0.964014 0.676998 -0.073059
0.974227 0.659306 -0.073059
0.981518 0.633372 -0.073059
0.986487 0.593966 -0.073059
-0.073059 0.770052 -0.047431
-0.073059 0.770044 -0.047527
-0.070901 0.770035 -0.047650
-0.066357 0.770022 -0.047806
-0.060548 0.770007 -0.048006
-0.053123 0.769987 -0.048262
-0.043635 0.769961 -0.048589
-0.031507 0.769929 -0.049007
-0.016007 0.769887 -0.049541
0.003804 0.769834 -0.050224
0.035009 0.769765 -0.051096
0.094493 0.769678 -0.052211
0.159763 0.769567 -0.053637
0.228126 0.769424 -0.055458
0.301459 0.769242 -0.057786
0.372656 0.769008 -0.060762
0.438916 0.768709 -0.064564
0.500804 0.768326 -0.069425
0.559393 0.767836 -0.073059
0.615310 0.767206 -0.073059
0.668852 0.766398 -0.073059
0.716872 0.765360 -0.073059
0.763216 0.764023 -0.073059
0.808099 0.762298 -0.073059
0.848212 0.760067 -0.073059
0.881870 0.757170 -0.073059
0.909656 0.753393 -0.073059
0.932249 0.748424 -0.073059
0.950167 0.741836 -0.073059
0.963928 0.733055 -0.073059
0.974178 0.721316 -0.073059
0.981491 0.705185 -0.073059
0.986474 0.681633 -0.073059
-0.073059 0.812880 -0.066921
-0.073059 0.812875 -0.067017
-0.073059 0.812867 -0.067139
-0.073059 0.812858 -0.067296
-0.073059 0.812847 -0.067496
-0.073059 0.812832 -0.067752
-0.071452 0.812813 -0.068079
-0.059324 0.812789 -0.068497
-0.043824 0.812758 -0.069031
-0.024013 0.812718 -0.069714
0.001307 0.812667 -0.070586
0.042060 0.812602 -0.071701
0.118130 0.812520 -0.073059
0.193309 0.812414 -0.073059
0.273372 0.812278 -0.073059
0.352034 0.812104 -0.073059
0.424117 0.811882 -0.073059
0.490009 0.811597 -0.073059
0.551410 0.811233 -0.073059
0.609367 0.810765 -0.073059
0.664464 0.810165 -0.073059
0.713830 0.809394 -0.073059
0.760849 0.808402 -0.073059
0.806350 0.807123 -0.073059
0.847051 0.805472 -0.073059
0.881115 0.803336 -0.073059
0.909172 0.800548 -0.073059
0.931944 0.796887 -0.073059
0.949981 0.792048 -0.073059
0.963818 0.785615 -0.073059
0.974116 0.777018 -0.073059
0.981457 0.765334 -0.073059
0.986456 0.749056 -0.073059
-0.073059 0.851144 -0.073059
-0.073059 0.851140 -0.073059
-0.073059 0.851135 -0.073059
-0.073059 0.851129 -0.073059
-0.073059 0.851121 -0.073059
-0.073059 0.851111 -0.073059
-0.073059 0.851099 -0.073059
-0.073059 0.851083 -0.073059
-0.073059 0.851062 -0.073059
-0.059566 0.851035 -0.073059
-0.034245 0.851002 -0.073059
-0.001884 0.850958 -0.073059
0.052026 0.850903 -0.073059
0.144835 0.850833 -0.073059
0.233183 0.850742 -0.073059
0.322617 0.850627 -0.073059
0.403525 0.850479 -0.073059
0.475313 0.850289 -0.073059
0.540712 0.850046 -0.073059
0.601494 0.849735 -0.073059
0.658659 0.849335 -0.073059
0.709852 0.848822 -0.073059
0.757773 0.848162 -0.073059
0.804084 0.847311 -0.073059
0.845547 0.846213 -0.073059
0.880139 0.844790 -0.073059
0.908547 0.842939 -0.073059
0.931552 0.840518 -0.073059
0.949741 0.837329 -0.073059
0.963677 0.833084 -0.073059
0.974035 0.827354 -0.073059
0.981413 0.819449 -0.073059
0.986433 0.808377 -0.073059
-0.073059 0.883579 -0.073059
-0.073059 0.883577 -0.073059
-0.073059 0.883573 -0.073059
-0.073059 0.883569 -0.073059
-0.073059 0.883564 -0.073059
-0.073059 0.883558 -0.073059
-0.073059 0.883550 -0.073059
-0.073059 0.883539 -0.073059
-0.073059 0.883525 -0.073059
-0.073059 0.883508 -0.073059
-0.073059 0.883486 -0.073059
-0.047324 0.883458 -0.073059
-0.005963 0.883421 -0.073059
0.065549 0.883375 -0.073059
0.175565 0.883316 -0.073059
0.278998 0.883240 -0.073059
0.373757 0.883143 -0.073059
0.454827 0.883019 -0.073059
0.526138 0.882860 -0.073059
0.590928 0.882656 -0.073059
0.650942 0.882394 -0.073059
0.704596 0.882059 -0.073059
0.753756 0.881628 -0.073059
0.801129 0.881073 -0.073059
0.843588 0.880358 -0.073059
0.878871 0.879433 -0.073059
0.907738 0.878233 -0.073059
0.931046 0.876671 -0.073059
0.949433 0.874622 -0.073059
0.963495 0.871918 -0.073059
