滤镜资源/Professional Luts Collection/Lutify.me Professional/Utility LUTs/Log Conversions/REDLogFilm-REDColor2.cube
# Created by: Lutify.me
# Copyright: (c) Copyright Lutify.me 2015
# Website: https://lutify.me
LUT_3D_SIZE 33
0.025327 0.025327 0.025327
0.029909 0.024869 0.024863
0.035971 0.024285 0.024271
0.044434 0.023545 0.023521
0.056347 0.022609 0.022574
0.073467 0.021432 0.021381
0.094977 0.019948 0.019879
0.119672 0.018096 0.018005
0.147478 0.015825 0.015709
0.179462 0.013076 0.012930
0.217602 0.009778 0.009601
0.262110 0.005879 0.005660
0.311130 0.000972 0.000688
0.362457 -0.005299 -0.005666
0.414306 -0.013313 -0.013788
0.465831 -0.023557 -0.024168
0.516939 -0.036650 -0.037435
0.567555 -0.053383 -0.054391
0.617540 -0.073059 -0.073059
0.666726 -0.073059 -0.073059
0.711968 -0.073059 -0.073059
0.755945 -0.073059 -0.073059
0.799403 -0.073059 -0.073059
0.839549 -0.073059 -0.073059
0.873819 -0.073059 -0.073059
0.902499 -0.073059 -0.073059
0.926136 -0.073059 -0.073059
0.945160 -0.073059 -0.073059
0.960004 -0.073059 -0.073059
0.971221 -0.073059 -0.073059
0.979373 -0.073059 -0.073059
0.985032 -0.073059 -0.073059
0.988784 -0.073059 -0.073059
0.024811 0.029871 0.024876
0.029384 0.029405 0.024413
0.035416 0.028812 0.023825
0.043811 0.028054 0.023079
0.055693 0.027085 0.022138
0.072614 0.025851 0.020951
0.094296 0.024288 0.019456
0.119067 0.022329 0.017596
0.146938 0.019894 0.015320
0.178968 0.016905 0.012563
0.217143 0.013341 0.009261
0.261700 0.009146 0.005335
0.310786 0.004209 0.000363
0.362181 -0.002062 -0.005991
0.414091 -0.010077 -0.014113
0.465664 -0.020321 -0.024493
0.516809 -0.033413 -0.037759
0.567455 -0.050146 -0.054715
0.617463 -0.071533 -0.073059
0.666667 -0.073059 -0.073059
0.711927 -0.073059 -0.073059
0.755912 -0.073059 -0.073059
0.799378 -0.073059 -0.073059
0.839532 -0.073059 -0.073059
0.873808 -0.073059 -0.073059
0.902491 -0.073059 -0.073059
0.926132 -0.073059 -0.073059
0.945157 -0.073059 -0.073059
0.960002 -0.073059 -0.073059
0.971220 -0.073059 -0.073059
0.979373 -0.073059 -0.073059
0.985032 -0.073059 -0.073059
0.988784 -0.073059 -0.073059
0.024154 0.035880 0.024302
0.028715 0.035387 0.023841
0.034709 0.034760 0.023257
0.043021 0.033963 0.022518
0.054855 0.032954 0.021584
0.071542 0.031683 0.020403
0.093424 0.030083 0.018920
0.118289 0.028057 0.017079
0.146247 0.025479 0.014828
0.178335 0.022259 0.012098
0.216557 0.018325 0.008829
0.261174 0.013683 0.004920
0.310345 0.008353 -0.000052
0.361828 0.002074 -0.006406
0.413816 -0.005940 -0.014528
0.465450 -0.016184 -0.024908
0.516643 -0.029277 -0.038175
0.567326 -0.046010 -0.055131
0.617364 -0.067397 -0.073059
0.666592 -0.073059 -0.073059
0.711874 -0.073059 -0.073059
0.755870 -0.073059 -0.073059
0.799347 -0.073059 -0.073059
0.839511 -0.073059 -0.073059
0.873794 -0.073059 -0.073059
0.902482 -0.073059 -0.073059
0.926126 -0.073059 -0.073059
0.945153 -0.073059 -0.073059
0.960000 -0.073059 -0.073059
0.971219 -0.073059 -0.073059
0.979372 -0.073059 -0.073059
0.985032 -0.073059 -0.073059
0.988783 -0.073059 -0.073059
0.023321 0.044258 0.023573
0.027861 0.043706 0.023117
0.033811 0.043006 0.022539
0.042022 0.042118 0.021807
0.053775 0.040999 0.020880
0.070203 0.039596 0.019709
0.092306 0.037848 0.018242
0.117290 0.035673 0.016426
0.145360 0.032958 0.014206
0.177526 0.029602 0.011510
0.215806 0.025386 0.008285
0.260502 0.020196 0.004389
0.309781 0.014123 -0.000583
0.361376 0.007361 -0.006937
0.413463 -0.000654 -0.015059
0.465176 -0.010897 -0.025439
0.516431 -0.023990 -0.038705
0.567162 -0.040723 -0.055661
0.617237 -0.062110 -0.073059
0.666496 -0.073059 -0.073059
0.711806 -0.073059 -0.073059
0.755816 -0.073059 -0.073059
0.799306 -0.073059 -0.073059
0.839483 -0.073059 -0.073059
0.873776 -0.073059 -0.073059
0.902470 -0.073059 -0.073059
0.926118 -0.073059 -0.073059
0.945148 -0.073059 -0.073059
0.959997 -0.073059 -0.073059
0.971217 -0.073059 -0.073059
0.979371 -0.073059 -0.073059
0.985031 -0.073059 -0.073059
0.988783 -0.073059 -0.073059
0.022271 0.056065 0.022651
0.026770 0.055484 0.022202
0.032677 0.054739 0.021631
0.040763 0.053781 0.020906
0.052391 0.052552 0.019988
0.068550 0.050985 0.018832
0.090874 0.048997 0.017388
0.116003 0.046512 0.015606
0.144223 0.043412 0.013423
0.176491 0.039603 0.010770
0.214845 0.035025 0.007601
0.259640 0.029481 0.003711
0.309059 0.022655 -0.001261
0.360798 0.014691 -0.007615
0.413012 0.006104 -0.015737
0.464826 -0.004140 -0.026117
0.516159 -0.017233 -0.039383
0.566952 -0.033966 -0.056339
0.617076 -0.055353 -0.073059
0.666374 -0.073059 -0.073059
0.711719 -0.073059 -0.073059
0.755748 -0.073059 -0.073059
0.799254 -0.073059 -0.073059
0.839448 -0.073059 -0.073059
0.873752 -0.073059 -0.073059
0.902455 -0.073059 -0.073059
0.926108 -0.073059 -0.073059
0.945142 -0.073059 -0.073059
0.959994 -0.073059 -0.073059
0.971215 -0.073059 -0.073059
0.979370 -0.073059 -0.073059
0.985031 -0.073059 -0.073059
0.988783 -0.073059 -0.073059
0.020950 0.072933 0.021492
0.025382 0.072182 0.021048
0.031251 0.071238 0.020484
0.039191 0.070055 0.019768
0.050625 0.068591 0.018865
0.066529 0.066791 0.017731
0.089038 0.064580 0.016320
0.114342 0.061840 0.014578
0.142762 0.058484 0.012440
0.175166 0.054338 0.009842
0.213614 0.049006 0.006734
0.258536 0.042492 0.002844
0.308132 0.034863 -0.002128
0.360056 0.025912 -0.008482
0.412434 0.015427 -0.016604
0.464377 0.004496 -0.026984
0.515812 -0.008596 -0.040250
0.566683 -0.025330 -0.057206
0.616868 -0.046716 -0.073059
0.666217 -0.073059 -0.073059
0.711607 -0.073059 -0.073059
0.755660 -0.073059 -0.073059
0.799187 -0.073059 -0.073059
0.839402 -0.073059 -0.073059
0.873722 -0.073059 -0.073059
0.902435 -0.073059 -0.073059
0.926096 -0.073059 -0.073059
0.945135 -0.073059 -0.073059
0.959989 -0.073059 -0.073059
0.971212 -0.073059 -0.073059
0.979368 -0.073059 -0.073059
0.985030 -0.073059 -0.073059
0.988783 -0.073059 -0.073059
0.019290 0.094385 0.020030
0.023629 0.093779 0.019594
0.029455 0.093005 0.019041
0.037236 0.092012 0.018341
0.048394 0.090741 0.017461
0.064053 0.089112 0.016360
0.086680 0.087020 0.014990
0.112193 0.084332 0.013296
0.140884 0.080872 0.011212
0.173468 0.076277 0.008685
0.212036 0.069435 0.005626
0.257119 0.061852 0.001736
0.306944 0.053072 -0.003236
0.359105 0.042263 -0.009590
0.411693 0.030162 -0.017711
0.463802 0.016386 -0.028092
0.515366 0.002441 -0.041358
0.566339 -0.014292 -0.058314
0.616603 -0.035679 -0.073059
0.666016 -0.063013 -0.073059
0.711465 -0.073059 -0.073059
0.755548 -0.073059 -0.073059
0.799102 -0.073059 -0.073059
0.839345 -0.073059 -0.073059
0.873684 -0.073059 -0.073059
0.902410 -0.073059 -0.073059
0.926080 -0.073059 -0.073059
0.945125 -0.073059 -0.073059
0.959983 -0.073059 -0.073059
0.971209 -0.073059 -0.073059
0.979366 -0.073059 -0.073059
0.985029 -0.073059 -0.073059
0.988782 -0.073059 -0.073059
0.017232 0.118955 0.018204
0.021445 0.118415 0.017782
0.027175 0.117723 0.017247
0.034804 0.116833 0.016573
0.045613 0.115688 0.015726
0.060986 0.114212 0.014666
0.083646 0.112306 0.013343
0.109410 0.109839 0.011704
0.138464 0.106644 0.009691
0.171292 0.102502 0.007254
0.210012 0.097104 0.004210
0.255300 0.090059 0.000320
0.305418 0.080887 -0.004652
0.357882 0.067543 -0.011006
0.410741 0.052754 -0.019127
0.463065 0.035780 -0.029508
0.514796 0.017640 -0.042774
0.565898 -0.000184 -0.059730
0.616264 -0.021571 -0.073059
0.665759 -0.048906 -0.073059
0.711283 -0.073059 -0.073059
0.755404 -0.073059 -0.073059
0.798994 -0.073059 -0.073059
0.839271 -0.073059 -0.073059
0.873635 -0.073059 -0.073059
0.902379 -0.073059 -0.073059
0.926060 -0.073059 -0.073059
0.945112 -0.073059 -0.073059
0.959976 -0.073059 -0.073059
0.971204 -0.073059 -0.073059
0.979364 -0.073059 -0.073059
0.985027 -0.073059 -0.073059
0.988781 -0.073059 -0.073059
0.014727 0.146622 0.015963
0.018736 0.146141 0.015561
0.024285 0.145526 0.015052
0.031778 0.144737 0.014409
0.042155 0.143726 0.013599
0.057264 0.142428 0.012584
0.079739 0.140760 0.011317
0.105799 0.138613 0.009747
0.135336 0.135842 0.007826
0.168494 0.132252 0.005444
0.207411 0.127589 0.002400
0.252961 0.121505 -0.001490
0.303456 0.113416 -0.006461
0.356309 0.102521 -0.012816
0.409519 0.087905 -0.020937
0.462118 0.067081 -0.031317
0.514065 0.043563 -0.044584
0.565333 0.019294 -0.061540
0.615830 -0.003541 -0.073059
0.665429 -0.030875 -0.073059
0.711050 -0.065811 -0.073059
0.755220 -0.073059 -0.073059
0.798855 -0.073059 -0.073059
0.839176 -0.073059 -0.073059
0.873572 -0.073059 -0.073059
0.902338 -0.073059 -0.073059
0.926034 -0.073059 -0.073059
0.945096 -0.073059 -0.073059
0.959966 -0.073059 -0.073059
0.971199 -0.073059 -0.073059
0.979361 -0.073059 -0.073059
0.985026 -0.073059 -0.073059
0.988781 -0.073059 -0.073059
0.011707 0.178424 0.013248
0.015456 0.177985 0.012868
0.020717 0.177423 0.012386
0.028032 0.176704 0.011777
0.037955 0.175785 0.011011
0.052577 0.174608 0.010050
0.074151 0.173101 0.008854
0.101111 0.171169 0.007376
0.131279 0.168686 0.005512
0.164885 0.165488 0.003131
0.204062 0.161351 0.000087
0.249950 0.156008 -0.003803
0.300926 0.149053 -0.008774
0.354283 0.139863 -0.015129
0.407946 0.127610 -0.023250
0.460903 0.110886 -0.033630
0.513126 0.087363 -0.046897
0.564609 0.054545 -0.063853
0.615273 0.021471 -0.073059
0.665007 -0.007830 -0.073059
0.710752 -0.042766 -0.073059
0.754985 -0.073059 -0.073059
0.798676 -0.073059 -0.073059
0.839055 -0.073059 -0.073059
0.873492 -0.073059 -0.073059
0.902286 -0.073059 -0.073059
0.926000 -0.073059 -0.073059
0.945075 -0.073059 -0.073059
0.959954 -0.073059 -0.073059
0.971191 -0.073059 -0.073059
0.979357 -0.073059 -0.073059
0.985024 -0.073059 -0.073059
0.988779 -0.073059 -0.073059
0.008119 0.216339 0.009989
0.011572 0.215931 0.009635
0.016405 0.215409 0.009187
0.023321 0.214742 0.008622
0.032903 0.213887 0.007911
0.046638 0.212793 0.007018
0.066796 0.211391 0.005877
0.094985 0.209592 0.004419
0.125999 0.207283 0.002556
0.160212 0.204312 0.000175
0.199741 0.200482 -0.002869
0.246062 0.195534 -0.006759
0.297653 0.189133 -0.011731
0.351665 0.180844 -0.018085
0.405919 0.170131 -0.026207
0.459338 0.156032 -0.036587
0.511919 0.137017 -0.049853
0.563680 0.110245 -0.066809
0.614559 0.069753 -0.073059
0.664466 0.024340 -0.073059
0.710370 -0.013313 -0.073059
0.754685 -0.057964 -0.073059
0.798449 -0.073059 -0.073059
0.838900 -0.073059 -0.073059
0.873389 -0.073059 -0.073059
0.902219 -0.073059 -0.073059
0.925958 -0.073059 -0.073059
0.945049 -0.073059 -0.073059
0.959938 -0.073059 -0.073059
0.971182 -0.073059 -0.073059
0.979352 -0.073059 -0.073059
0.985021 -0.073059 -0.073059
0.988778 -0.073059 -0.073059
0.003789 0.260634 0.006138
0.007052 0.260268 0.005804
0.011401 0.259800 0.005376
0.017647 0.259201 0.004830
0.026770 0.258434 0.004132
0.039502 0.257451 0.003239
0.058625 0.256190 0.002099
0.086998 0.254571 0.000641
0.119076 0.252493 -0.001222
0.154168 0.249819 -0.003604
0.194151 0.246370 -0.006647
0.241016 0.241901 -0.010537
0.293406 0.236100 -0.015509
0.348274 0.228566 -0.021863
0.403298 0.218797 -0.029985
0.457321 0.206041 -0.040365
0.510367 0.189162 -0.053632
0.562486 0.166844 -0.070588
0.613643 0.136298 -0.073059
0.663771 0.090411 -0.073059
0.709880 0.028125 -0.073059
0.754299 -0.020320 -0.073059
0.798157 -0.073059 -0.073059
0.838701 -0.073059 -0.073059
0.873258 -0.073059 -0.073059
0.902133 -0.073059 -0.073059
0.925903 -0.073059 -0.073059
0.945015 -0.073059 -0.073059
0.959917 -0.073059 -0.073059
0.971170 -0.073059 -0.073059
0.979345 -0.073059 -0.073059
0.985018 -0.073059 -0.073059
0.988776 -0.073059 -0.073059
-0.001740 0.309522 0.001309
0.001523 0.309215 0.000975
0.005694 0.308822 0.000547
0.011183 0.308319 0.000001
0.019283 0.307674 -0.000697
0.031251 0.306848 -0.001590
0.048837 0.305789 -0.002731
0.076484 0.304430 -0.004188
0.109787 0.302683 -0.006052
0.146257 0.300433 -0.008433
0.186911 0.297525 -0.011476
0.234456 0.293758 -0.015366
0.287877 0.288864 -0.020338
0.343864 0.282482 -0.026693
0.399898 0.274128 -0.034814
0.454713 0.263084 -0.045194
0.508365 0.248380 -0.058461
0.560949 0.228600 -0.073059
0.612466 0.202105 -0.073059
0.662878 0.166014 -0.073059
0.709252 0.113827 -0.073059
0.753805 0.033048 -0.073059
0.797782 -0.029275 -0.073059
0.838447 -0.073059 -0.073059
0.873089 -0.073059 -0.073059
0.902024 -0.073059 -0.073059
0.925834 -0.073059 -0.073059
0.944972 -0.073059 -0.073059
0.959892 -0.073059 -0.073059
0.971155 -0.073059 -0.073059
0.979337 -0.073059 -0.073059
0.985013 -0.073059 -0.073059
0.988774 -0.073059 -0.073059
-0.008808 0.360790 -0.004863
-0.005544 0.360543 -0.005198
-0.001374 0.360228 -0.005625
0.003957 0.359824 -0.006171
0.010906 0.359307 -0.006870
0.021436 0.358645 -0.007762
0.037235 0.357795 -0.008903
0.061591 0.356704 -0.010360
0.097276 0.355301 -0.012224
0.135760 0.353496 -0.014605
0.177538 0.351166 -0.017649
0.225931 0.348153 -0.021539
0.280650 0.344242 -0.026510
0.338104 0.339146 -0.032865
0.395469 0.332470 -0.040986
0.451330 0.323642 -0.051366
0.505778 0.311845 -0.064633
0.558967 0.295954 -0.073059
0.610951 0.274166 -0.073059
0.661729 0.243798 -0.073059
0.708444 0.201112 -0.073059
0.753172 0.140326 -0.073059
0.797303 0.039727 -0.073059
0.838121 -0.040721 -0.073059
0.872873 -0.073059 -0.073059
0.901884 -0.073059 -0.073059
0.925745 -0.073059 -0.073059
0.944917 -0.073059 -0.073059
0.959859 -0.073059 -0.073059
0.971136 -0.073059 -0.073059
0.979326 -0.073059 -0.073059
0.985008 -0.073059 -0.073059
0.988771 -0.073059 -0.073059
-0.017840 0.412627 -0.012752
-0.014577 0.412434 -0.013086
-0.010406 0.412188 -0.013514
-0.005075 0.411873 -0.014060
0.001738 0.411470 -0.014758
0.010555 0.410953 -0.015651
0.024273 0.410291 -0.016791
0.045612 0.409441 -0.018249
0.080524 0.408350 -0.020112
0.121675 0.406947 -0.022494
0.165373 0.405140 -0.025537
0.214860 0.402807 -0.029427
0.271160 0.399786 -0.034399
0.330533 0.395859 -0.040753
0.389664 0.390726 -0.048875
0.446922 0.383965 -0.059255
0.502421 0.374978 -0.072522
0.556404 0.362924 -0.073059
0.608998 0.346523 -0.073059
0.660249 0.323682 -0.073059
0.707405 0.290944 -0.073059
0.752358 0.242638 -0.073059
0.796687 0.170666 -0.073059
0.837702 0.049183 -0.073059
0.872597 -0.055351 -0.073059
0.901704 -0.073059 -0.073059
0.925630 -0.073059 -0.073059
0.944846 -0.073059 -0.073059
0.959816 -0.073059 -0.073059
0.971111 -0.073059 -0.073059
0.979313 -0.073059 -0.073059
0.985000 -0.073059 -0.073059
0.988768 -0.073059 -0.073059
-0.029385 0.464150 -0.022834
-0.026121 0.464001 -0.023169
-0.021951 0.463809 -0.023596
-0.016620 0.463564 -0.024142
-0.009807 0.463251 -0.024841
-0.001099 0.462850 -0.025733
0.010110 0.462336 -0.026874
0.028016 0.461677 -0.028331
0.057263 0.460832 -0.030195
0.102056 0.459747 -0.032576
0.149226 0.458351 -0.035620
0.200325 0.456553 -0.039510
0.258553 0.454232 -0.044481
0.320468 0.451226 -0.050836
0.381984 0.447318 -0.058957
0.441145 0.442210 -0.069337
0.498047 0.435488 -0.073059
0.553080 0.426562 -0.073059
0.606472 0.414567 -0.073059
0.658337 0.398150 -0.073059
0.706065 0.375019 -0.073059
0.751311 0.341314 -0.073059
0.795895 0.289672 -0.073059
0.837165 0.206681 -0.073059
0.872242 0.062096 -0.073059
0.901474 -0.073059 -0.073059
0.925484 -0.073059 -0.073059
0.944756 -0.073059 -0.073059
0.959762 -0.073059 -0.073059
0.971080 -0.073059 -0.073059
0.979295 -0.073059 -0.073059
0.984991 -0.073059 -0.073059
0.988763 -0.073059 -0.073059
-0.044140 0.515263 -0.035720
-0.040876 0.515147 -0.036055
-0.036705 0.514999 -0.036482
-0.031375 0.514809 -0.037028
-0.024562 0.514566 -0.037727
-0.015854 0.514255 -0.038619
-0.004725 0.513857 -0.039760
0.009548 0.513347 -0.041218
0.032882 0.512693 -0.043081
0.074149 0.511855 -0.045462
0.127064 0.510778 -0.048506
0.181028 0.509393 -0.052396
0.241700 0.507609 -0.057367
0.306962 0.505306 -0.063722
0.371730 0.502323 -0.071843
0.433513 0.498445 -0.073059
0.492314 0.493376 -0.073059
0.548748 0.486706 -0.073059
0.603194 0.477848 -0.073059
0.655862 0.465930 -0.073059
0.704331 0.449598 -0.073059
0.749962 0.426603 -0.073059
0.794876 0.392911 -0.073059
0.836473 0.339988 -0.073059
0.871785 0.249122 -0.073059
0.901178 0.081199 -0.073059
0.925296 -0.073059 -0.073059
0.944639 -0.073059 -0.073059
0.959692 -0.073059 -0.073059
0.971039 -0.073059 -0.073059
0.979273 -0.073059 -0.073059
0.984979 -0.073059 -0.073059
0.988757 -0.073059 -0.073059
-0.062998 0.565890 -0.052190
-0.059734 0.565800 -0.052524
-0.055564 0.565685 -0.052952
-0.050233 0.565538 -0.053498
-0.043420 0.565350 -0.054196
-0.034712 0.565110 -0.055089
-0.023583 0.564802 -0.056229
-0.009359 0.564408 -0.057687
0.008841 0.563903 -0.059550
0.039473 0.563256 -0.061932
0.094983 0.562426 -0.064975
0.155386 0.561360 -0.068865
0.218996 0.559989 -0.073059
0.288628 0.558223 -0.073059
0.357901 0.555942 -0.073059
0.423326 0.552988 -0.073059
0.484740 0.549146 -0.073059
0.543068 0.544126 -0.073059
0.598921 0.537517 -0.073059
0.652648 0.528735 -0.073059
0.702084 0.516912 -0.073059
0.748220 0.500708 -0.073059
0.793562 0.477889 -0.073059
0.835581 0.444384 -0.073059
0.871198 0.391576 -0.073059
0.900798 0.296764 -0.073059
0.925055 0.102894 -0.073059
0.944490 -0.073059 -0.073059
0.959603 -0.073059 -0.073059
0.970988 -0.073059 -0.073059
0.979244 -0.073059 -0.073059
0.984964 -0.073059 -0.073059
0.988749 -0.073059 -0.073059
-0.073059 0.615894 -0.073059
-0.073059 0.615825 -0.073059
-0.073059 0.615736 -0.073059
-0.073059 0.615623 -0.073059
-0.067523 0.615478 -0.073059
-0.058815 0.615293 -0.073059
-0.047686 0.615056 -0.073059
-0.033461 0.614752 -0.073059
-0.015282 0.614364 -0.073059
0.007955 0.613866 -0.073059
0.048796 0.613229 -0.073059
0.119074 0.612410 -0.073059
0.188368 0.611360 -0.073059
0.263295 0.610008 -0.073059
0.338887 0.608267 -0.073059
0.409538 0.606019 -0.073059
0.474628 0.603107 -0.073059
0.535564 0.599318 -0.073059
0.593313 0.594361 -0.073059
0.648459 0.587828 -0.073059
0.699171 0.579137 -0.073059
0.745965 0.567432 -0.073059
0.791864 0.551388 -0.073059
0.834428 0.528776 -0.073059
0.870440 0.495534 -0.073059
0.900309 0.443055 -0.073059
0.924745 0.347364 -0.073059
0.944299 0.128031 -0.073059
0.959489 -0.073059 -0.073059
0.970921 -0.073059 -0.073059
0.979208 -0.073059 -0.073059
0.984945 -0.073059 -0.073059
0.988740 -0.073059 -0.073059
-0.073059 0.665124 -0.073059
-0.073059 0.665072 -0.073059
-0.073059 0.665004 -0.073059
-0.073059 0.664918 -0.073059
-0.073059 0.664808 -0.073059
-0.073059 0.664667 -0.073059
-0.073059 0.664487 -0.073059
-0.064267 0.664257 -0.073059
-0.046087 0.663961 -0.073059
-0.022851 0.663583 -0.073059
0.006846 0.663098 -0.073059
0.061535 0.662476 -0.073059
0.146255 0.661677 -0.073059
0.227647 0.660651 -0.073059
0.312057 0.659329 -0.073059
0.390455 0.657624 -0.073059
0.460921 0.655420 -0.073059
0.525537 0.652565 -0.073059
0.585892 0.648852 -0.073059
0.642935 0.643972 -0.073059
0.695375 0.637512 -0.073059
0.743038 0.628902 -0.073059
0.789665 0.617345 -0.073059
0.832933 0.601529 -0.073059
0.869460 0.579177 -0.073059
0.899678 0.546263 -0.073059
0.924346 0.494215 -0.073059
0.944053 0.398995 -0.073059
0.959342 0.156514 -0.073059
0.970836 -0.073059 -0.073059
0.979161 -0.073059 -0.073059
0.984920 -0.073059 -0.073059
0.988727 -0.073059 -0.073059
-0.073059 0.710515 -0.073059
-0.073059 0.710478 -0.073059
-0.073059 0.710430 -0.073059
-0.073059 0.710370 -0.073059
-0.073059 0.710292 -0.073059
-0.073059 0.710192 -0.073059
-0.073059 0.710065 -0.073059
-0.073059 0.709902 -0.073059
-0.073059 0.709693 -0.073059
-0.062223 0.709426 -0.073059
-0.032526 0.709084 -0.073059
0.005429 0.708645 -0.073059
0.080452 0.708082 -0.073059
0.177536 0.707360 -0.073059
0.273085 0.706431 -0.073059
0.363131 0.705233 -0.073059
0.441932 0.703685 -0.073059
0.511938 0.701685 -0.073059
0.575967 0.699098 -0.073059
0.635592 0.695732 -0.073059
0.690379 0.691320 -0.073059
0.739224 0.685459 -0.073059
0.786806 0.677515 -0.073059
0.830986 0.666481 -0.073059
0.868188 0.651019 -0.073059
0.898862 0.628942 -0.073059
0.923832 0.596472 -0.073059
0.943736 0.544957 -0.073059
0.959152 0.450438 -0.073059
0.970726 0.189739 -0.073059
0.979100 -0.073059 -0.073059
0.984888 -0.073059 -0.073059
0.988711 -0.073059 -0.073059
-0.073059 0.754476 -0.073059
-0.073059 0.754447 -0.073059
-0.073059 0.754409 -0.073059
-0.073059 0.754361 -0.073059
-0.073059 0.754300 -0.073059
-0.073059 0.754221 -0.073059
-0.073059 0.754121 -0.073059
-0.073059 0.753992 -0.073059
-0.073059 0.753828 -0.073059
-0.073059 0.753618 -0.073059
-0.073059 0.753348 -0.073059
-0.044892 0.753003 -0.073059
0.003619 0.752561 -0.073059
0.101970 0.751994 -0.073059
0.214857 0.751266 -0.073059
0.322518 0.750331 -0.073059
0.414764 0.749126 -0.073059
0.493095 0.747573 -0.073059
0.562504 0.745566 -0.073059
0.625763 0.742965 -0.073059
0.683702 0.739584 -0.073059
0.734238 0.735174 -0.073059
0.783078 0.729402 -0.073059
0.828436 0.721823 -0.073059
0.866530 0.711706 -0.073059
0.897804 0.697696 -0.073059
0.923165 0.677553 -0.073059
0.943326 0.646053 -0.073059
0.958908 0.595182 -0.073059
0.970585 0.501542 -0.073059
0.979023 0.229280 -0.073059
0.984847 -0.073059 -0.073059
0.988690 -0.073059 -0.073059
-0.073059 0.797978 -0.073059
-0.073059 0.797956 -0.073059
-0.073059 0.797927 -0.073059
-0.073059 0.797890 -0.073059
-0.073059 0.797844 -0.073059
-0.073059 0.797784 -0.073059
-0.073059 0.797708 -0.073059
-0.073059 0.797610 -0.073059
-0.073059 0.797485 -0.073059
-0.073059 0.797326 -0.073059
-0.073059 0.797121 -0.073059
-0.073059 0.796859 -0.073059
-0.060696 0.796524 -0.073059
0.001306 0.796094 -0.073059
0.126966 0.795542 -0.073059
0.258549 0.794834 -0.073059
0.373822 0.793923 -0.073059
0.466119 0.792749 -0.073059
0.543842 0.791235 -0.073059
0.612484 0.789277 -0.073059
0.674556 0.786736 -0.073059
0.727697 0.783431 -0.073059
0.778196 0.779114 -0.073059
0.825066 0.773434 -0.073059
0.864357 0.765865 -0.073059
0.896425 0.755649 -0.073059
0.922300 0.741556 -0.073059
0.942795 0.721858 -0.073059
0.958593 0.693201 -0.073059
0.970403 0.644782 -0.073059
0.978923 0.552213 -0.073059
0.984795 0.274925 -0.073059
0.988664 -0.073059 -0.073059
-0.073059 0.838307 -0.073059
-0.073059 0.838292 -0.073059
-0.073059 0.838272 -0.073059
-0.073059 0.838248 -0.073059
-0.073059 0.838216 -0.073059
-0.073059 0.838175 -0.073059
-0.073059 0.838123 -0.073059
-0.073059 0.838056 -0.073059
-0.073059 0.837971 -0.073059
-0.073059 0.837862 -0.073059
-0.073059 0.837723 -0.073059
-0.073059 0.837545 -0.073059
-0.073059 0.837316 -0.073059
-0.073059 0.837023 -0.073059
-0.001651 0.836648 -0.073059
0.155274 0.836165 -0.073059
0.306958 0.835545 -0.073059
0.425406 0.834746 -0.073059
0.517095 0.833714 -0.073059
0.594077 0.832378 -0.073059
0.661747 0.830642 -0.073059
0.719074 0.828374 -0.073059
0.771742 0.825388 -0.073059
0.820562 0.821417 -0.073059
0.861490 0.816093 -0.073059
0.894618 0.808899 -0.073059
0.921171 0.799093 -0.073059
0.942105 0.785359 -0.073059
0.958184 0.765900 -0.073059
0.970168 0.737049 -0.073059
0.978794 0.692052 -0.073059
0.984727 0.602343 -0.073059
0.988630 0.324488 -0.073059
-0.073059 0.872765 -0.073059
-0.073059 0.872755 -0.073059
-0.073059 0.872742 -0.073059
-0.073059 0.872726 -0.073059
-0.073059 0.872705 -0.073059
-0.073059 0.872678 -0.073059
-0.073059 0.872643 -0.073059
-0.073059 0.872599 -0.073059
-0.073059 0.872543 -0.073059
-0.073059 0.872470 -0.073059
-0.073059 0.872378 -0.073059
-0.073059 0.872260 -0.073059
-0.073059 0.872108 -0.073059
-0.073059 0.871914 -0.073059
-0.073059 0.871666 -0.073059
-0.005430 0.871347 -0.073059
0.188234 0.870937 -0.073059
0.357897 0.870410 -0.073059
0.476693 0.869730 -0.073059
0.567609 0.868853 -0.073059
0.643690 0.867716 -0.073059
0.707421 0.866237 -0.073059
0.763093 0.864305 -0.073059
0.814492 0.861764 -0.073059
0.857670 0.858395 -0.073059
0.892231 0.853881 -0.073059
0.919688 0.847748 -0.073059
0.941204 0.839263 -0.073059
0.957651 0.827136 -0.073059
0.969863 0.808933 -0.073059
0.978627 0.780951 -0.073059
0.984639 0.735903 -0.073059
0.988586 0.651817 -0.073059
-0.073059 0.901621 -0.073059
-0.073059 0.901614 -0.073059
-0.073059 0.901606 -0.073059
-0.073059 0.901595 -0.073059
-0.073059 0.901581 -0.073059
-0.073059 0.901564 -0.073059
-0.073059 0.901541 -0.073059
-0.073059 0.901513 -0.073059
-0.073059 0.901476 -0.073059
-0.073059 0.901429 -0.073059
-0.073059 0.901369 -0.073059
-0.073059 0.901292 -0.073059
-0.073059 0.901193 -0.073059
-0.073059 0.901067 -0.073059
-0.073059 0.900906 -0.073059
-0.073059 0.900699 -0.073059
-0.010260 0.900433 -0.073059
0.227489 0.900092 -0.073059
0.409534 0.899653 -0.073059
