滤镜资源/Professional Luts Collection/Lutify.me Professional/Utility LUTs/Log Conversions/Sony S-Log.cube
# Created by: Lutify.me
# Copyright: (c) Copyright Lutify.me 2015
# Website: https://lutify.me
LUT_3D_SIZE 5
-0.013019 -0.013019 -0.013019
0.339091 -0.039252 -0.016907
0.688488 -0.073059 -0.032789
0.924301 -0.073059 -0.073059
0.989536 -0.073059 -0.073059
-0.073059 0.264732 -0.035041
0.218453 0.234733 -0.038928
0.671898 0.080608 -0.054811
0.922742 -0.073059 -0.073059
0.989497 -0.073059 -0.073059
-0.073059 0.622462 -0.073059
-0.073059 0.617064 -0.073059
0.576459 0.593307 -0.073059
0.915795 0.409265 -0.073059
0.989332 -0.073059 -0.073059
-0.073059 0.890721 -0.073059
-0.073059 0.890097 -0.073059
-0.073059 0.887482 -0.073059
0.862927 0.873574 -0.073059
0.988445 0.737482 -0.073059
-0.073059 0.984690 -0.073059
-0.073059 0.984668 -0.073059
-0.073059 0.984578 -0.073059
-0.073059 0.984136 -0.073059
0.979558 0.981635 -0.073059
-0.025445 -0.038864 0.234809
0.328655 -0.065098 0.230139
0.686848 -0.073059 0.210662
0.924139 -0.073059 0.103339
0.989532 -0.073059 -0.073059
-0.073059 0.235196 0.207839
0.202919 0.202919 0.202919
0.670000 0.033610 0.182228
0.922574 -0.073059 0.060735
0.989493 -0.073059 -0.073059
-0.073059 0.617145 0.070433
-0.073059 0.611598 0.062635
0.573227 0.587100 0.035570
0.915602 0.393356 -0.045598
0.989328 -0.073059 -0.073059
-0.073059 0.890106 -0.073059
-0.073059 0.889476 -0.073059
-0.073059 0.886835 -0.073059
0.862492 0.872787 -0.073059
0.988439 0.734914 -0.073059
-0.073059 0.984669 -0.073059
-0.073059 0.984647 -0.073059
-0.073059 0.984556 -0.073059
-0.073059 0.984112 -0.073059
0.979540 0.981604 -0.073059
-0.073059 -0.073059 0.593383
0.280661 -0.073059 0.592463
0.679899 -0.073059 0.588656
0.923471 -0.073059 0.569554
0.989515 -0.073059 0.440610
-0.073059 0.084321 0.588110
0.133232 0.035961 0.587164
0.661956 -0.073059 0.583248
0.921884 -0.073059 0.563582
0.989476 -0.073059 0.429081
-0.073059 0.593772 0.564927
-0.073059 0.587487 0.563861
0.559445 0.559445 0.559445
0.914808 0.312231 0.537110
0.989310 -0.073059 0.373849
-0.073059 0.887531 0.390478
-0.073059 0.886875 0.387937
-0.073059 0.884127 0.377199
0.860691 0.869481 0.317932
0.988417 0.724115 -0.073059
-0.073059 0.984580 -0.073059
-0.073059 0.984557 -0.073059
-0.073059 0.984466 -0.073059
-0.073059 0.984016 -0.073059
0.979464 0.981476 -0.073059
-0.073059 -0.073059 0.873621
-0.037620 -0.073059 0.873503
0.640782 -0.073059 0.873020
0.920181 -0.073059 0.870692
0.989434 -0.073059 0.858593
-0.073059 -0.073059 0.872951
-0.073059 -0.073059 0.872833
0.617637 -0.073059 0.872345
0.918481 -0.073059 0.869995
0.989394 -0.073059 0.857779
-0.073059 0.414797 0.870151
-0.073059 0.399086 0.870027
0.476936 0.319042 0.869521
0.910883 -0.073059 0.867077
0.989225 -0.073059 0.854367
-0.073059 0.873860 0.855312
-0.073059 0.873064 0.855163
-0.073059 0.869721 0.854552
0.851604 0.851604 0.851604
0.988310 0.660084 0.836200
-0.073059 0.984144 0.722046
-0.073059 0.984120 0.721635
-0.073059 0.984023 0.719950
-0.073059 0.983544 0.711757
0.979101 0.980844 0.664888
-0.073059 -0.073059 0.981644
-0.073059 -0.073059 0.981639
-0.034313 -0.073059 0.981620
0.900979 -0.073059 0.981529
0.989028 -0.073059 0.981087
-0.073059 -0.073059 0.981617
-0.073059 -0.073059 0.981613
-0.073059 -0.073059 0.981594
0.898558 -0.073059 0.981502
0.988983 -0.073059 0.981059
-0.073059 -0.073059 0.981508
-0.073059 -0.073059 0.981504
-0.073059 -0.073059 0.981484
0.887576 -0.073059 0.981392
0.988795 -0.073059 0.980943
-0.073059 0.741864 0.980975
-0.073059 0.739316 0.980970
-0.073059 0.728561 0.980949
0.790326 0.665817 0.980852
0.987770 -0.073059 0.980376
-0.073059 0.981689 0.977998
-0.073059 0.981657 0.977992
-0.073059 0.981528 0.977965
-0.073059 0.980890 0.977837
0.977214 0.977214 0.977214
