滤镜资源/Professional Luts Collection/Lutify.me Professional/Utility LUTs/Log Conversions/Sony S-Log.cube
# Created by: Lutify.me
# Copyright: (c) Copyright Lutify.me 2015
# Website: https://lutify.me
LUT_3D_SIZE 33
-0.013019 -0.013019 -0.013019
0.018337 -0.015855 -0.013439
0.066179 -0.018691 -0.013860
0.119591 -0.021393 -0.014260
0.156782 -0.023726 -0.014606
0.197080 -0.026560 -0.015026
0.242012 -0.030000 -0.015536
0.290135 -0.034179 -0.016155
0.339091 -0.039252 -0.016907
0.387320 -0.045413 -0.017820
0.433993 -0.052895 -0.018928
0.479275 -0.061981 -0.020275
0.523344 -0.073013 -0.021910
0.566344 -0.073059 -0.023895
0.608355 -0.073059 -0.026306
0.649493 -0.073059 -0.029234
0.688488 -0.073059 -0.032789
0.724385 -0.073059 -0.037106
0.760265 -0.073059 -0.042349
0.795436 -0.073059 -0.048715
0.828667 -0.073059 -0.056446
0.857939 -0.073059 -0.065834
0.883487 -0.073059 -0.073059
0.905505 -0.073059 -0.073059
0.924301 -0.073059 -0.073059
0.940115 -0.073059 -0.073059
0.953180 -0.073059 -0.073059
0.963745 -0.073059 -0.073059
0.972135 -0.073059 -0.073059
0.978614 -0.073059 -0.073059
0.983477 -0.073059 -0.073059
0.987027 -0.073059 -0.073059
0.989536 -0.073059 -0.073059
-0.025757 0.008664 -0.015400
0.004363 0.005814 -0.015820
0.043402 0.002978 -0.016240
0.097594 0.000275 -0.016641
0.138357 -0.002058 -0.016986
0.180358 -0.004891 -0.017406
0.226790 -0.008332 -0.017916
0.277086 -0.012510 -0.018535
0.328387 -0.017584 -0.019287
0.378727 -0.023745 -0.020200
0.427184 -0.031227 -0.021309
0.473848 -0.040312 -0.022655
0.518997 -0.051345 -0.024290
0.562856 -0.064743 -0.026276
0.605557 -0.073059 -0.028687
0.647248 -0.073059 -0.031614
0.686807 -0.073059 -0.035169
0.723052 -0.073059 -0.039487
0.759166 -0.073059 -0.044729
0.794554 -0.073059 -0.051096
0.828011 -0.073059 -0.058827
0.857465 -0.073059 -0.068215
0.883150 -0.073059 -0.073059
0.905267 -0.073059 -0.073059
0.924135 -0.073059 -0.073059
0.940001 -0.073059 -0.073059
0.953103 -0.073059 -0.073059
0.963695 -0.073059 -0.073059
0.972103 -0.073059 -0.073059
0.978594 -0.073059 -0.073059
0.983464 -0.073059 -0.073059
0.987020 -0.073059 -0.073059
0.989532 -0.073059 -0.073059
-0.038494 0.036797 -0.017780
-0.008375 0.032597 -0.018200
0.024508 0.028568 -0.018621
0.073072 0.024783 -0.019021
0.118460 0.021613 -0.019367
0.163194 0.017928 -0.019787
0.211133 0.013780 -0.020297
0.263435 0.009191 -0.020916
0.317149 0.004085 -0.021668
0.369765 -0.002076 -0.022581
0.420144 -0.009558 -0.023689
0.468270 -0.018644 -0.025036
0.514553 -0.029676 -0.026671
0.559304 -0.043074 -0.028656
0.602717 -0.059343 -0.031067
0.644970 -0.073059 -0.033995
0.685101 -0.073059 -0.037550
0.721711 -0.073059 -0.041867
0.758059 -0.073059 -0.047110
0.793666 -0.073059 -0.053476
0.827351 -0.073059 -0.061207
0.856989 -0.073059 -0.070595
0.882812 -0.073059 -0.073059
0.905028 -0.073059 -0.073059
0.923968 -0.073059 -0.073059
0.939886 -0.073059 -0.073059
0.953026 -0.073059 -0.073059
0.963644 -0.073059 -0.073059
0.972070 -0.073059 -0.073059
0.978573 -0.073059 -0.073059
0.983452 -0.073059 -0.073059
0.987012 -0.073059 -0.073059
0.989528 -0.073059 -0.073059
-0.050633 0.074274 -0.020049
-0.020513 0.068018 -0.020469
0.009660 0.062470 -0.020889
0.049955 0.057545 -0.021290
0.097423 0.053423 -0.021636
0.146071 0.048406 -0.022055
0.195696 0.042582 -0.022565
0.249836 0.036030 -0.023184
0.305944 0.028692 -0.023936
0.360883 0.020242 -0.024849
0.413207 0.011257 -0.025958
0.462808 0.002006 -0.027304
0.510225 -0.009026 -0.028939
0.555858 -0.022424 -0.030925
0.599971 -0.038693 -0.033336
0.642767 -0.058450 -0.036263
0.683453 -0.073059 -0.039819
0.720424 -0.073059 -0.044136
0.756997 -0.073059 -0.049379
0.792814 -0.073059 -0.055745
0.826717 -0.073059 -0.063476
0.856532 -0.073059 -0.072864
0.882488 -0.073059 -0.073059
0.904799 -0.073059 -0.073059
0.923809 -0.073059 -0.073059
0.939777 -0.073059 -0.073059
0.952953 -0.073059 -0.073059
0.963595 -0.073059 -0.073059
0.972039 -0.073059 -0.073059
0.978554 -0.073059 -0.073059
0.983440 -0.073059 -0.073059
0.987005 -0.073059 -0.073059
0.989524 -0.073059 -0.073059
-0.061113 0.107564 -0.022007
-0.030994 0.102574 -0.022428
-0.000874 0.097483 -0.022848
0.033101 0.092541 -0.023248
0.077930 0.088228 -0.023594
0.130329 0.082933 -0.024014
0.181936 0.076284 -0.024524
0.237627 0.067011 -0.025143
0.295878 0.057492 -0.025895
0.352923 0.046640 -0.026808
0.407026 0.034707 -0.027917
0.457970 0.021912 -0.029263
0.506411 0.008822 -0.030898
0.552834 -0.004595 -0.032883
0.597566 -0.020865 -0.035294
0.640841 -0.040621 -0.038222
0.682011 -0.064612 -0.041777
0.719307 -0.073059 -0.046095
0.756075 -0.073059 -0.051337
0.792075 -0.073059 -0.057704
0.826166 -0.073059 -0.065434
0.856136 -0.073059 -0.073059
0.882207 -0.073059 -0.073059
0.904601 -0.073059 -0.073059
0.923671 -0.073059 -0.073059
0.939682 -0.073059 -0.073059
0.952889 -0.073059 -0.073059
0.963553 -0.073059 -0.073059
0.972011 -0.073059 -0.073059
0.978537 -0.073059 -0.073059
0.983430 -0.073059 -0.073059
0.986999 -0.073059 -0.073059
0.989520 -0.073059 -0.073059
-0.073059 0.142049 -0.024386
-0.043721 0.137820 -0.024806
-0.013601 0.133518 -0.025226
0.015863 0.129345 -0.025627
0.052754 0.125693 -0.025973
0.109616 0.121180 -0.026393
0.164842 0.115541 -0.026902
0.222280 0.108417 -0.027522
0.283103 0.099450 -0.028273
0.342856 0.088159 -0.029186
0.399261 0.073351 -0.030295
0.451936 0.055595 -0.031642
0.501680 0.037000 -0.033277
0.549098 0.018279 -0.035262
0.594605 0.000785 -0.037673
0.638472 -0.018971 -0.040601
0.680234 -0.042962 -0.044156
0.717941 -0.072095 -0.048473
0.754949 -0.073059 -0.053716
0.791171 -0.073059 -0.060082
0.825492 -0.073059 -0.067813
0.855652 -0.073059 -0.073059
0.881864 -0.073059 -0.073059
0.904359 -0.073059 -0.073059
0.923503 -0.073059 -0.073059
0.939567 -0.073059 -0.073059
0.952812 -0.073059 -0.073059
0.963502 -0.073059 -0.073059
0.971979 -0.073059 -0.073059
0.978516 -0.073059 -0.073059
0.983417 -0.073059 -0.073059
0.986992 -0.073059 -0.073059
0.989516 -0.073059 -0.073059
-0.073059 0.178595 -0.027274
-0.059175 0.174813 -0.027694
-0.029055 0.171009 -0.028115
-0.000352 0.167354 -0.028515
0.028264 0.164164 -0.028861
0.081555 0.160249 -0.029281
0.142968 0.155451 -0.029791
0.203038 0.149529 -0.030410
0.266806 0.142133 -0.031162
0.330017 0.132855 -0.032075
0.389415 0.121107 -0.033184
0.444359 0.105777 -0.034530
0.495781 0.085720 -0.036165
0.544464 0.058877 -0.038150
0.590944 0.032011 -0.040561
0.635552 0.007320 -0.043489
0.678035 -0.016671 -0.047044
0.716268 -0.045804 -0.051361
0.753570 -0.073059 -0.056604
0.790066 -0.073059 -0.062970
0.824666 -0.073059 -0.070701
0.855061 -0.073059 -0.073059
0.881446 -0.073059 -0.073059
0.904064 -0.073059 -0.073059
0.923298 -0.073059 -0.073059
0.939426 -0.073059 -0.073059
0.952718 -0.073059 -0.073059
0.963440 -0.073059 -0.073059
0.971938 -0.073059 -0.073059
0.978492 -0.073059 -0.073059
0.983402 -0.073059 -0.073059
0.986983 -0.073059 -0.073059
0.989511 -0.073059 -0.073059
-0.073059 0.219540 -0.030782
-0.073059 0.216048 -0.031202
-0.047823 0.212531 -0.031622
-0.019119 0.209155 -0.032023
0.005664 0.206219 -0.032368
0.045543 0.202625 -0.032788
0.113586 0.198216 -0.033298
0.178517 0.192801 -0.033917
0.245768 0.186145 -0.034669
0.313391 0.177971 -0.035582
0.376761 0.167929 -0.036691
0.434757 0.155375 -0.038037
0.488375 0.139405 -0.039672
0.538687 0.118525 -0.041658
0.586400 0.089919 -0.044069
0.631942 0.051614 -0.046996
0.675304 0.016046 -0.050552
0.714214 -0.013879 -0.054869
0.751878 -0.049256 -0.060111
0.788714 -0.073059 -0.066478
0.823653 -0.073059 -0.073059
0.854338 -0.073059 -0.073059
0.880935 -0.073059 -0.073059
0.903704 -0.073059 -0.073059
0.923047 -0.073059 -0.073059
0.939254 -0.073059 -0.073059
0.952603 -0.073059 -0.073059
0.963365 -0.073059 -0.073059
0.971890 -0.073059 -0.073059
0.978461 -0.073059 -0.073059
0.983383 -0.073059 -0.073059
0.986972 -0.073059 -0.073059
0.989505 -0.073059 -0.073059
-0.073059 0.264732 -0.035041
-0.073059 0.261617 -0.035461
-0.070612 0.258471 -0.035881
-0.041908 0.255445 -0.036282
-0.017126 0.252811 -0.036628
0.013357 0.249589 -0.037047
0.070962 0.245631 -0.037557
0.147094 0.240752 -0.038176
0.218453 0.234733 -0.038928
0.291630 0.227311 -0.039841
0.360321 0.218179 -0.040950
0.422459 0.206868 -0.042296
0.479002 0.192715 -0.043931
0.531437 0.174997 -0.045917
0.580733 0.152653 -0.048328
0.627468 0.122956 -0.051255
0.671898 0.080608 -0.054811
0.711684 0.028910 -0.059128
0.749797 -0.010488 -0.064371
0.787055 -0.053448 -0.070737
0.822407 -0.073059 -0.073059
0.853451 -0.073059 -0.073059
0.880309 -0.073059 -0.073059
0.903264 -0.073059 -0.073059
0.922742 -0.073059 -0.073059
0.939045 -0.073059 -0.073059
0.952463 -0.073059 -0.073059
0.963272 -0.073059 -0.073059
0.971830 -0.073059 -0.073059
0.978424 -0.073059 -0.073059
0.983360 -0.073059 -0.073059
0.986959 -0.073059 -0.073059
0.989497 -0.073059 -0.073059
-0.073059 0.312014 -0.040213
-0.073059 0.309387 -0.040633
-0.073059 0.306735 -0.041053
-0.069583 0.304185 -0.041454
-0.044800 0.301965 -0.041800
-0.014707 0.299240 -0.042219
0.024637 0.295890 -0.042729
0.103025 0.291762 -0.043349
0.183069 0.286662 -0.044100
0.262662 0.280345 -0.045013
0.338597 0.272498 -0.046122
0.406478 0.262667 -0.047469
0.467001 0.250301 -0.049103
0.522259 0.234636 -0.051089
0.573620 0.214837 -0.053500
0.621905 0.189648 -0.056428
0.667632 0.157334 -0.059983
0.708550 0.113021 -0.064300
0.747232 0.046961 -0.069543
0.785018 -0.006370 -0.073059
0.820871 -0.058539 -0.073059
0.852362 -0.073059 -0.073059
0.879541 -0.073059 -0.073059
0.902724 -0.073059 -0.073059
0.922368 -0.073059 -0.073059
0.938789 -0.073059 -0.073059
0.952292 -0.073059 -0.073059
0.963160 -0.073059 -0.073059
0.971758 -0.073059 -0.073059
0.978379 -0.073059 -0.073059
0.983333 -0.073059 -0.073059
0.986942 -0.073059 -0.073059
0.989488 -0.073059 -0.073059
-0.073059 0.359568 -0.046494
-0.073059 0.357430 -0.046914
-0.073059 0.355270 -0.047334
-0.073059 0.353192 -0.047734
-0.073059 0.351382 -0.048080
-0.048313 0.349164 -0.048500
-0.011768 0.346441 -0.049010
0.040348 0.343090 -0.049629
0.136141 0.338955 -0.050381
0.223545 0.333836 -0.051294
0.309135 0.327463 -0.052403
0.385230 0.319470 -0.053749
0.451402 0.309397 -0.055384
0.510513 0.296632 -0.057370
0.564623 0.280244 -0.059780
0.614943 0.259029 -0.062708
0.662267 0.231219 -0.066263
0.704644 0.194926 -0.070581
0.744060 0.146906 -0.073059
0.782511 0.073880 -0.073059
0.818973 -0.001370 -0.073059
0.851022 -0.064720 -0.073059
0.878598 -0.073059 -0.073059
0.902063 -0.073059 -0.073059
0.921910 -0.073059 -0.073059
0.938476 -0.073059 -0.073059
0.952083 -0.073059 -0.073059
0.963023 -0.073059 -0.073059
0.971669 -0.073059 -0.073059
0.978324 -0.073059 -0.073059
0.983299 -0.073059 -0.073059
0.986923 -0.073059 -0.073059
0.989476 -0.073059 -0.073059
-0.073059 0.406233 -0.054120
-0.073059 0.404522 -0.054541
-0.073059 0.402796 -0.054961
-0.073059 0.401137 -0.055361
-0.073059 0.399695 -0.055707
-0.073059 0.397929 -0.056127
-0.052578 0.395763 -0.056637
-0.008200 0.393103 -0.057256
0.063214 0.389824 -0.058008
0.171094 0.385766 -0.058921
0.268169 0.380724 -0.060030
0.356100 0.374430 -0.061376
0.430685 0.366534 -0.063011
0.495258 0.356569 -0.064996
0.553116 0.343833 -0.067407
0.606143 0.327360 -0.070335
0.655493 0.305657 -0.073059
0.699755 0.276641 -0.073059
0.740128 0.237098 -0.073059
0.779419 0.183224 -0.073059
0.816620 0.106264 -0.073059
0.849366 0.004703 -0.073059
0.877436 -0.072226 -0.073059
0.901250 -0.073059 -0.073059
0.921348 -0.073059 -0.073059
0.938093 -0.073059 -0.073059
0.951827 -0.073059 -0.073059
0.962855 -0.073059 -0.073059
0.971561 -0.073059 -0.073059
0.978257 -0.073059 -0.073059
0.983258 -0.073059 -0.073059
0.986899 -0.073059 -0.073059
0.989463 -0.073059 -0.073059
-0.073059 0.451556 -0.063382
-0.073059 0.450184 -0.063802
-0.073059 0.448803 -0.064222
-0.073059 0.447477 -0.064623
-0.073059 0.446326 -0.064969
-0.073059 0.444919 -0.065389
-0.073059 0.443197 -0.065898
-0.057757 0.441087 -0.066518
-0.003868 0.438494 -0.067269
0.094652 0.435300 -0.068182
0.210094 0.431353 -0.069291
0.314789 0.426457 -0.070638
0.402361 0.420351 -0.072273
0.475028 0.412689 -0.073059
0.538175 0.402987 -0.073059
0.594882 0.390551 -0.073059
0.646906 0.374328 -0.073059
0.693625 0.352850 -0.073059
0.735241 0.323699 -0.073059
0.775589 0.282831 -0.073059
0.813693 0.224054 -0.073059
0.847314 0.139908 -0.073059
0.876000 0.012348 -0.073059
0.900247 -0.073059 -0.073059
0.920657 -0.073059 -0.073059
0.937623 -0.073059 -0.073059
0.951513 -0.073059 -0.073059
0.962649 -0.073059 -0.073059
0.971429 -0.073059 -0.073059
0.978175 -0.073059 -0.073059
0.983208 -0.073059 -0.073059
0.986869 -0.073059 -0.073059
0.989446 -0.073059 -0.073059
-0.073059 0.495724 -0.073059
-0.073059 0.494622 -0.073059
-0.073059 0.493514 -0.073059
-0.073059 0.492452 -0.073059
-0.073059 0.491531 -0.073059
-0.073059 0.490407 -0.073059
-0.073059 0.489033 -0.073059
-0.073059 0.487353 -0.073059
-0.064046 0.485293 -0.073059
0.001394 0.482762 -0.073059
0.127453 0.479647 -0.073059
0.253530 0.475797 -0.073059
0.361705 0.471022 -0.073059
0.447384 0.465068 -0.073059
0.518368 0.457593 -0.073059
0.580231 0.448130 -0.073059
0.635825 0.436008 -0.073059
0.685807 0.420253 -0.073059
0.729152 0.399361 -0.073059
0.770811 0.370712 -0.073059
0.810039 0.329977 -0.073059
0.844760 0.269014 -0.073059
0.874215 0.175544 -0.073059
0.899008 0.023526 -0.073059
0.919805 -0.073059 -0.073059
0.937044 -0.073059 -0.073059
0.951128 -0.073059 -0.073059
0.962397 -0.073059 -0.073059
0.971267 -0.073059 -0.073059
0.978074 -0.073059 -0.073059
0.983147 -0.073059 -0.073059
0.986833 -0.073059 -0.073059
0.989425 -0.073059 -0.073059
-0.073059 0.538886 -0.073059
-0.073059 0.537999 -0.073059
-0.073059 0.537108 -0.073059
-0.073059 0.536255 -0.073059
-0.073059 0.535516 -0.073059
-0.073059 0.534614 -0.073059
-0.073059 0.533514 -0.073059
-0.073059 0.532170 -0.073059
-0.073059 0.530525 -0.073059
-0.071683 0.528509 -0.073059
0.007783 0.526032 -0.073059
0.161752 0.522983 -0.073059
0.299718 0.519217 -0.073059
0.407827 0.514545 -0.073059
0.491331 0.508722 -0.073059
0.560811 0.501415 -0.073059
0.621413 0.492169 -0.073059
0.675560 0.480338 -0.073059
0.721552 0.464972 -0.073059
0.764809 0.444594 -0.073059
0.805462 0.416745 -0.073059
0.841562 0.376913 -0.073059
0.871988 0.315905 -0.073059
0.897469 0.215452 -0.073059
0.918749 0.039235 -0.073059
0.936330 -0.073059 -0.073059
0.950653 -0.073059 -0.073059
0.962087 -0.073059 -0.073059
0.971068 -0.073059 -0.073059
0.977951 -0.073059 -0.073059
0.983072 -0.073059 -0.073059
0.986790 -0.073059 -0.073059
0.989400 -0.073059 -0.073059
-0.073059 0.581133 -0.073059
-0.073059 0.580418 -0.073059
-0.073059 0.579699 -0.073059
-0.073059 0.579013 -0.073059
-0.073059 0.578418 -0.073059
-0.073059 0.577693 -0.073059
-0.073059 0.576808 -0.073059
-0.073059 0.575729 -0.073059
-0.073059 0.574411 -0.073059
-0.073059 0.572798 -0.073059
-0.073059 0.570822 -0.073059
0.016395 0.568395 -0.073059
0.199557 0.565408 -0.073059
0.346700 0.561719 -0.073059
0.452719 0.557144 -0.073059
0.534331 0.551442 -0.073059
0.602414 0.544289 -0.073059
0.661790 0.535238 -0.073059
0.711920 0.523659 -0.073059
0.757211 0.508628 -0.073059
0.799687 0.488716 -0.073059
0.837523 0.461550 -0.073059
0.869190 0.422760 -0.073059
0.895548 0.363012 -0.073059
0.917437 0.259700 -0.073059
0.935445 0.062114 -0.073059
0.950065 -0.073059 -0.073059
0.961705 -0.073059 -0.073059
0.970823 -0.073059 -0.073059
0.977800 -0.073059 -0.073059
0.982981 -0.073059 -0.073059
0.986736 -0.073059 -0.073059
0.989370 -0.073059 -0.073059
-0.073059 0.622462 -0.073059
-0.073059 0.621885 -0.073059
-0.073059 0.621307 -0.073059
-0.073059 0.620754 -0.073059
-0.073059 0.620276 -0.073059
-0.073059 0.619694 -0.073059
-0.073059 0.618984 -0.073059
-0.073059 0.618119 -0.073059
-0.073059 0.617064 -0.073059
-0.073059 0.615775 -0.073059
-0.073059 0.614198 -0.073059
-0.073059 0.612265 -0.073059
0.029013 0.609893 -0.073059
0.241916 0.606972 -0.073059
0.393180 0.603364 -0.073059
0.496545 0.598889 -0.073059
0.576459 0.593307 -0.073059
0.643246 0.586296 -0.073059
0.699323 0.577420 -0.073059
0.747471 0.566070 -0.073059
0.792284 0.551350 -0.073059
0.832366 0.531859 -0.073059
0.865642 0.505283 -0.073059
0.893134 0.467417 -0.073059
0.915795 0.409265 -0.073059
0.934344 0.306347 -0.073059
0.949336 0.093865 -0.073059
0.961233 -0.073059 -0.073059
0.970521 -0.073059 -0.073059
0.977613 -0.073059 -0.073059
0.982868 -0.073059 -0.073059
0.986670 -0.073059 -0.073059
0.989332 -0.073059 -0.073059
-0.073059 0.662939 -0.073059
-0.073059 0.662479 -0.073059
-0.073059 0.662018 -0.073059
-0.073059 0.661577 -0.073059
-0.073059 0.661196 -0.073059
-0.073059 0.660731 -0.073059
-0.073059 0.660165 -0.073059
-0.073059 0.659475 -0.073059
-0.073059 0.658634 -0.073059
-0.073059 0.657606 -0.073059
-0.073059 0.656350 -0.073059
-0.073059 0.654813 -0.073059
-0.073059 0.652929 -0.073059
0.046643 0.650617 -0.073059
0.287601 0.647766 -0.073059
0.438427 0.644229 -0.073059
0.539436 0.639827 -0.073059
0.617720 0.634324 -0.073059
0.682451 0.627419 -0.073059
0.734810 0.618718 -0.073059
0.782745 0.607620 -0.073059
0.825683 0.593217 -0.073059
0.861104 0.574107 -0.073059
0.890076 0.548075 -0.073059
0.913730 0.511019 -0.073059
0.932966 0.454253 -0.073059
0.948427 0.353538 -0.073059
0.960647 0.127068 -0.073059
0.970148 -0.073059 -0.073059
0.977383 -0.073059 -0.073059
0.982729 -0.073059 -0.073059
0.986588 -0.073059 -0.073059
0.989286 -0.073059 -0.073059
-0.073059 0.700463 -0.073059
-0.073059 0.700120 -0.073059
-0.073059 0.699776 -0.073059
-0.073059 0.699447 -0.073059
-0.073059 0.699163 -0.073059
-0.073059 0.698818 -0.073059
-0.073059 0.698397 -0.073059
-0.073059 0.697885 -0.073059
-0.073059 0.697261 -0.073059
-0.073059 0.696500 -0.073059
-0.073059 0.695571 -0.073059
-0.073059 0.694435 -0.073059
-0.073059 0.693044 -0.073059
-0.073059 0.691336 -0.073059
0.072725 0.689232 -0.073059
0.334549 0.686630 -0.073059
0.482584 0.683393 -0.073059
0.581468 0.679333 -0.073059
0.658200 0.674190 -0.073059
0.718357 0.667629 -0.073059
0.770387 0.659216 -0.073059
0.816840 0.648399 -0.073059
0.855228 0.634236 -0.073059
0.886159 0.615477 -0.073059
0.911111 0.590007 -0.073059
0.931228 0.553692 -0.073059
0.947288 0.498150 -0.073059
0.959915 0.400032 -0.073059
0.969684 0.161720 -0.073059
0.977098 -0.073059 -0.073059
0.982558 -0.073059 -0.073059
0.986488 -0.073059 -0.073059
0.989230 -0.073059 -0.073059
-0.073059 0.736029 -0.073059
-0.073059 0.735747 -0.073059
-0.073059 0.735465 -0.073059
-0.073059 0.735195 -0.073059
-0.073059 0.734962 -0.073059
-0.073059 0.734679 -0.073059
-0.073059 0.734334 -0.073059
-0.073059 0.733915 -0.073059
-0.073059 0.733405 -0.073059
-0.073059 0.732783 -0.073059
-0.073059 0.732027 -0.073059
-0.073059 0.731105 -0.073059
-0.073059 0.729980 -0.073059
-0.073059 0.728608 -0.073059
-0.073059 0.726932 -0.073059
0.104710 0.724883 -0.073059
0.381240 0.722370 -0.073059
0.525766 0.719279 -0.073059
0.622624 0.715455 -0.073059
0.696073 0.710688 -0.073059
0.753991 0.704674 -0.073059
0.805056 0.697027 -0.073059
0.847506 0.687208 -0.073059
0.881079 0.674107 -0.073059
0.907753 0.656060 -0.073059
0.929018 0.631073 -0.073059
0.945851 0.595509 -0.073059
0.958996 0.541093 -0.073059
0.969105 0.445248 -0.073059
0.976742 0.199875 -0.073059
0.982346 -0.073059 -0.073059
0.986364 -0.073059 -0.073059
0.989160 -0.073059 -0.073059
-0.073059 0.771648 -0.073059
-0.073059 0.771421 -0.073059
-0.073059 0.771193 -0.073059
-0.073059 0.770975 -0.073059
-0.073059 0.770787 -0.073059
-0.073059 0.770559 -0.073059
-0.073059 0.770281 -0.073059
-0.073059 0.769942 -0.073059
-0.073059 0.769531 -0.073059
-0.073059 0.769029 -0.073059
-0.073059 0.768418 -0.073059
-0.073059 0.767673 -0.073059
-0.073059 0.766764 -0.073059
-0.073059 0.765652 -0.073059
-0.073059 0.764292 -0.073059
-0.073059 0.762626 -0.073059
0.137888 0.760579 -0.073059
0.426808 0.758058 -0.073059
0.568060 0.754945 -0.073059
0.662964 0.751080 -0.073059
0.731575 0.746249 -0.073059
0.789127 0.740185 -0.073059
0.837162 0.732550 -0.073059
0.874383 0.722926 -0.073059
0.903388 0.710611 -0.073059
0.926175 0.694173 -0.073059
0.944019 0.671115 -0.073059
0.957831 0.636496 -0.073059
0.968377 0.583162 -0.073059
0.976295 0.489354 -0.073059
0.982081 0.242590 -0.073059
0.986209 -0.073059 -0.073059
0.989073 -0.073059 -0.073059
-0.073059 0.806316 -0.073059
-0.073059 0.806137 -0.073059
-0.073059 0.805957 -0.073059
-0.073059 0.805785 -0.073059
-0.073059 0.805637 -0.073059
-0.073059 0.805457 -0.073059
-0.073059 0.805238 -0.073059
-0.073059 0.804971 -0.073059
-0.073059 0.804647 -0.073059
-0.073059 0.804252 -0.073059
-0.073059 0.803771 -0.073059
-0.073059 0.803185 -0.073059
-0.073059 0.802469 -0.073059
-0.073059 0.801593 -0.073059
-0.073059 0.800521 -0.073059
-0.073059 0.799205 -0.073059
-0.073059 0.797587 -0.073059
0.172983 0.795594 -0.073059
0.471245 0.793132 -0.073059
0.609505 0.790083 -0.073059
0.700388 0.786294 -0.073059
0.767205 0.781572 -0.073059
0.822788 0.775666 -0.073059
0.865325 0.768189 -0.073059
0.897613 0.758617 -0.073059
0.922474 0.746171 -0.073059
0.941657 0.729721 -0.073059
0.956342 0.707864 -0.073059
0.967454 0.676230 -0.073059
0.975731 0.624341 -0.073059
0.981750 0.532484 -0.073059
0.986015 0.288584 -0.073059
0.988966 -0.073059 -0.073059
-0.073059 0.838318 -0.073059
-0.073059 0.838187 -0.073059
-0.073059 0.838056 -0.073059
-0.073059 0.837931 -0.073059
-0.073059 0.837823 -0.073059
-0.073059 0.837691 -0.073059
-0.073059 0.837531 -0.073059
-0.073059 0.837337 -0.073059
-0.073059 0.837100 -0.073059
-0.073059 0.836811 -0.073059
-0.073059 0.836460 -0.073059
-0.073059 0.836031 -0.073059
-0.073059 0.835508 -0.073059
-0.073059 0.834868 -0.073059
-0.073059 0.834086 -0.073059
-0.073059 0.833126 -0.073059
-0.073059 0.831947 -0.073059
-0.073059 0.830495 -0.073059
0.212226 0.828699 -0.073059
0.514665 0.826470 -0.073059
0.650192 0.823683 -0.073059
0.735873 0.820178 -0.073059
0.802001 0.815751 -0.073059
0.852695 0.810129 -0.073059
0.889802 0.802965 -0.073059
0.917560 0.793679 -0.073059
0.938565 0.781497 -0.073059
0.954422 0.765395 -0.073059
0.966271 0.743393 -0.073059
0.975016 0.712570 -0.073059
0.981330 0.664668 -0.073059
0.985773 0.574719 -0.073059
0.988831 0.335767 -0.073059
-0.073059 0.866369 -0.073059
-0.073059 0.866274 -0.073059
-0.073059 0.866179 -0.073059
-0.073059 0.866089 -0.073059
-0.073059 0.866011 -0.073059
-0.073059 0.865915 -0.073059
-0.073059 0.865800 -0.073059
-0.073059 0.865659 -0.073059
-0.073059 0.865488 -0.073059
-0.073059 0.865280 -0.073059
-0.073059 0.865026 -0.073059
-0.073059 0.864717 -0.073059
-0.073059 0.864340 -0.073059
-0.073059 0.863879 -0.073059
-0.073059 0.863317 -0.073059
-0.073059 0.862628 -0.073059
-0.073059 0.861783 -0.073059
-0.073059 0.860745 -0.073059
-0.073059 0.859467 -0.073059
0.255867 0.857888 -0.073059
0.557184 0.855929 -0.073059
0.688808 0.853488 -0.073059
0.771430 0.850428 -0.073059
0.834436 0.846567 -0.073059
0.878887 0.841653 -0.073059
0.910876 0.835311 -0.073059
0.934447 0.826966 -0.073059
0.951899 0.815679 -0.073059
0.964733 0.800273 -0.073059
0.974097 0.778791 -0.073059
0.980793 0.748156 -0.073059
0.985467 0.701970 -0.073059
0.988661 0.616076 -0.073059
-0.073059 0.890721 -0.073059
-0.073059 0.890654 -0.073059
-0.073059 0.890587 -0.073059
-0.073059 0.890523 -0.073059
-0.073059 0.890467 -0.073059
-0.073059 0.890400 -0.073059
-0.073059 0.890318 -0.073059
-0.073059 0.890218 -0.073059
-0.073059 0.890097 -0.073059
-0.073059 0.889949 -0.073059
-0.073059 0.889770 -0.073059
-0.073059 0.889551 -0.073059
-0.073059 0.889284 -0.073059
-0.073059 0.888959 -0.073059
-0.073059 0.888562 -0.073059
-0.073059 0.888076 -0.073059
-0.073059 0.887482 -0.073059
-0.073059 0.886752 -0.073059
-0.073059 0.885856 -0.073059
-0.073059 0.884751 -0.073059
0.302137 0.883386 -0.073059
0.598864 0.881693 -0.073059
0.724443 0.879581 -0.073059
0.806056 0.876930 -0.073059
0.862927 0.873574 -0.073059
0.901498 0.869279 -0.073059
0.928820 0.863706 -0.073059
0.948512 0.856365 -0.073059
0.962707 0.846505 -0.073059
0.972901 0.832904 -0.073059
0.980099 0.813112 -0.073059
0.985076 0.783434 -0.073059
0.988445 0.737482 -0.073059
-0.073059 0.911677 -0.073059
-0.073059 0.911630 -0.073059
-0.073059 0.911582 -0.073059
-0.073059 0.911537 -0.073059
-0.073059 0.911498 -0.073059
-0.073059 0.911451 -0.073059
-0.073059 0.911393 -0.073059
-0.073059 0.911323 -0.073059
-0.073059 0.911237 -0.073059
