滤镜资源/Professional Luts Collection/Lutify.me Professional/Utility LUTs/Log Conversions/Sony S-Log.cube
# Created by: Lutify.me
# Copyright: (c) Copyright Lutify.me 2015
# Website: https://lutify.me
LUT_3D_SIZE 9
-0.013019 -0.013019 -0.013019
0.156782 -0.023726 -0.014606
0.339091 -0.039252 -0.016907
0.523344 -0.073013 -0.021910
0.688488 -0.073059 -0.032789
0.828667 -0.073059 -0.056446
0.924301 -0.073059 -0.073059
0.972135 -0.073059 -0.073059
0.989536 -0.073059 -0.073059
-0.061113 0.107564 -0.022007
0.077930 0.088228 -0.023594
0.295878 0.057492 -0.025895
0.506411 0.008822 -0.030898
0.682011 -0.064612 -0.041777
0.826166 -0.073059 -0.065434
0.923671 -0.073059 -0.073059
0.972011 -0.073059 -0.073059
0.989520 -0.073059 -0.073059
-0.073059 0.264732 -0.035041
-0.017126 0.252811 -0.036628
0.218453 0.234733 -0.038928
0.479002 0.192715 -0.043931
0.671898 0.080608 -0.054811
0.822407 -0.073059 -0.073059
0.922742 -0.073059 -0.073059
0.971830 -0.073059 -0.073059
0.989497 -0.073059 -0.073059
-0.073059 0.451556 -0.063382
-0.073059 0.446326 -0.064969
-0.003868 0.438494 -0.067269
0.402361 0.420351 -0.072273
0.646906 0.374328 -0.073059
0.813693 0.224054 -0.073059
0.920657 -0.073059 -0.073059
0.971429 -0.073059 -0.073059
0.989446 -0.073059 -0.073059
-0.073059 0.622462 -0.073059
-0.073059 0.620276 -0.073059
-0.073059 0.617064 -0.073059
0.029013 0.609893 -0.073059
0.576459 0.593307 -0.073059
0.792284 0.551350 -0.073059
0.915795 0.409265 -0.073059
0.970521 -0.073059 -0.073059
0.989332 -0.073059 -0.073059
-0.073059 0.771648 -0.073059
-0.073059 0.770787 -0.073059
-0.073059 0.769531 -0.073059
-0.073059 0.766764 -0.073059
0.137888 0.760579 -0.073059
0.731575 0.746249 -0.073059
0.903388 0.710611 -0.073059
0.968377 0.583162 -0.073059
0.989073 -0.073059 -0.073059
-0.073059 0.890721 -0.073059
-0.073059 0.890467 -0.073059
-0.073059 0.890097 -0.073059
-0.073059 0.889284 -0.073059
-0.073059 0.887482 -0.073059
0.302137 0.883386 -0.073059
0.862927 0.873574 -0.073059
0.962707 0.846505 -0.073059
0.988445 0.737482 -0.073059
-0.073059 0.956681 -0.073059
-0.073059 0.956624 -0.073059
-0.073059 0.956542 -0.073059
-0.073059 0.956361 -0.073059
-0.073059 0.955964 -0.073059
-0.073059 0.955081 -0.073059
0.484836 0.953059 -0.073059
0.942609 0.948110 -0.073059
0.986688 0.933924 -0.073059
-0.073059 0.984690 -0.073059
-0.073059 0.984681 -0.073059
-0.073059 0.984668 -0.073059
-0.073059 0.984640 -0.073059
-0.073059 0.984578 -0.073059
-0.073059 0.984442 -0.073059
-0.073059 0.984136 -0.073059
0.652252 0.983422 -0.073059
0.979558 0.981635 -0.073059
-0.018091 -0.023568 0.088276
0.149611 -0.034275 0.085319
0.334887 -0.049801 0.080995
0.521625 -0.073059 0.070332
0.687821 -0.073059 0.050017
0.828406 -0.073059 0.015366
0.924235 -0.073059 -0.036754
0.972122 -0.073059 -0.073059
0.989535 -0.073059 -0.073059
-0.066185 0.088522 0.070119
0.066816 0.066816 0.066816
0.290859 0.039408 0.062362
0.504539 -0.001747 0.053380
0.681306 -0.073059 0.035356
0.825898 -0.073059 0.005700
0.923604 -0.073059 -0.045743
0.971998 -0.073059 -0.073059
0.989519 -0.073059 -0.073059
-0.073059 0.252991 0.046114
-0.022198 0.240638 0.043443
0.212177 0.221972 0.039709
0.476855 0.178795 0.032194
0.671127 0.059107 0.017359
0.822127 -0.073059 -0.007333
0.922674 -0.073059 -0.058776
0.971817 -0.073059 -0.073059
0.989495 -0.073059 -0.073059
-0.073059 0.446404 0.007753
-0.073059 0.441037 0.006166
-0.008939 0.432994 0.003865
0.399231 0.414342 -0.001138
0.646001 0.366782 -0.012017
0.813389 0.211055 -0.035674
0.920586 -0.073059 -0.073059
0.971415 -0.073059 -0.073059
0.989444 -0.073059 -0.073059
-0.073059 0.620309 -0.053876
-0.073059 0.618099 -0.055462
-0.073059 0.614851 -0.057763
0.021988 0.607597 -0.062766
0.575146 0.590798 -0.073059
0.791925 0.548235 -0.073059
0.915716 0.402920 -0.073059
0.970507 -0.073059 -0.073059
0.989330 -0.073059 -0.073059
-0.073059 0.770800 -0.073059
-0.073059 0.769935 -0.073059
-0.073059 0.768671 -0.073059
-0.073059 0.765889 -0.073059
0.130140 0.759670 -0.073059
0.731060 0.745254 -0.073059
0.903290 0.709416 -0.073059
0.968361 0.580515 -0.073059
0.989072 -0.073059 -0.073059
-0.073059 0.890471 -0.073059
-0.073059 0.890216 -0.073059
-0.073059 0.889844 -0.073059
-0.073059 0.889028 -0.073059
-0.073059 0.887218 -0.073059
0.297241 0.883107 -0.073059
0.862750 0.873253 -0.073059
0.962686 0.846058 -0.073059
0.988442 0.736438 -0.073059
-0.073059 0.956625 -0.073059
-0.073059 0.956568 -0.073059
-0.073059 0.956485 -0.073059
-0.073059 0.956304 -0.073059
-0.073059 0.955906 -0.073059
-0.073059 0.955021 -0.073059
0.482751 0.952995 -0.073059
0.942566 0.948035 -0.073059
0.986685 0.933813 -0.073059
-0.073059 0.984681 -0.073059
-0.073059 0.984672 -0.073059
-0.073059 0.984659 -0.073059
-0.073059 0.984631 -0.073059
-0.073059 0.984569 -0.073059
-0.073059 0.984432 -0.073059
-0.073059 0.984126 -0.073059
0.651377 0.983412 -0.073059
0.979551 0.981622 -0.073059
-0.025445 -0.038864 0.234809
0.138825 -0.049572 0.232908
0.328655 -0.065098 0.230139
0.519105 -0.073059 0.224073
0.686848 -0.073059 0.210662
0.828027 -0.073059 0.180055
0.924139 -0.073059 0.103339
0.972103 -0.073059 -0.045470
0.989532 -0.073059 -0.073059
-0.073059 0.058177 0.223954
0.053291 0.039769 0.222018
0.283412 0.017853 0.219200
0.501793 -0.017043 0.213019
0.680276 -0.073059 0.199275
0.825508 -0.073059 0.168011
0.923507 -0.073059 0.086953
0.971979 -0.073059 -0.054458
0.989516 -0.073059 -0.073059
-0.073059 0.235196 0.207839
-0.029552 0.222253 0.205838
0.202919 0.202919 0.202919
0.473701 0.158018 0.196498
0.670000 0.033610 0.182228
0.821720 -0.073059 0.149867
0.922574 -0.073059 0.060735
0.971798 -0.073059 -0.067492
0.989493 -0.073059 -0.073059
-0.073059 0.438693 0.170785
-0.073059 0.433116 0.168642
-0.016293 0.424750 0.165511
0.394605 0.405307 0.158599
0.644679 0.355380 0.143057
0.812947 0.191505 0.105244
0.920483 -0.073059 0.016994
0.971396 -0.073059 -0.073059
0.989442 -0.073059 -0.073059
-0.073059 0.617145 0.070433
-0.073059 0.614900 0.067106
-0.073059 0.611598 0.062635
0.012867 0.604218 0.053637
0.573227 0.587100 0.035570
0.791403 0.543629 0.005844
0.915602 0.393356 -0.045598
0.970486 -0.073059 -0.073059
0.989328 -0.073059 -0.073059
-0.073059 0.769562 -0.073059
-0.073059 0.768690 -0.073059
-0.073059 0.767417 -0.073059
-0.073059 0.764613 -0.073059
0.118459 0.758344 -0.073059
0.730311 0.743800 -0.073059
0.903147 0.707664 -0.073059
0.968338 0.576611 -0.073059
0.989069 -0.073059 -0.073059
-0.073059 0.890106 -0.073059
-0.073059 0.889850 -0.073059
-0.073059 0.889476 -0.073059
-0.073059 0.888655 -0.073059
-0.073059 0.886835 -0.073059
0.289970 0.882700 -0.073059
0.862492 0.872787 -0.073059
0.962656 0.845407 -0.073059
0.988439 0.734914 -0.073059
-0.073059 0.956544 -0.073059
-0.073059 0.956486 -0.073059
-0.073059 0.956403 -0.073059
-0.073059 0.956222 -0.073059
-0.073059 0.955823 -0.073059
-0.073059 0.954935 -0.073059
0.479688 0.952903 -0.073059
0.942505 0.947926 -0.073059
0.986681 0.933652 -0.073059
-0.073059 0.984669 -0.073059
-0.073059 0.984660 -0.073059
-0.073059 0.984647 -0.073059
-0.073059 0.984618 -0.073059
-0.073059 0.984556 -0.073059
-0.073059 0.984419 -0.073059
-0.073059 0.984112 -0.073059
0.650101 0.983397 -0.073059
0.979540 0.981604 -0.073059
-0.041436 -0.072126 0.420433
0.113565 -0.073059 0.419541
0.314476 -0.073059 0.418240
0.513513 -0.073059 0.415382
0.684704 -0.073059 0.409030
0.827198 -0.073059 0.394500
0.923930 -0.073059 0.358822
0.972062 -0.073059 0.255182
0.989527 -0.073059 -0.064423
-0.073059 0.009748 0.415326
0.027933 -0.001018 0.414412
0.266550 -0.016544 0.413078
0.495689 -0.050305 0.410148
0.678001 -0.073059 0.403630
0.824654 -0.073059 0.388695
0.923294 -0.073059 0.351947
0.971938 -0.073059 0.244918
0.989511 -0.073059 -0.073059
-0.073059 0.193870 0.407690
-0.045543 0.179765 0.406741
0.182083 0.158713 0.405357
0.466669 0.106748 0.402315
0.667516 -0.005084 0.395538
0.820829 -0.073059 0.379959
0.922358 -0.073059 0.341587
0.971756 -0.073059 0.229447
0.989487 -0.073059 -0.073059
-0.073059 0.420849 0.390035
-0.073059 0.414763 0.389000
-0.032285 0.405609 0.387488
0.384159 0.384159 0.384159
0.641765 0.328400 0.376726
0.811981 0.146162 0.359633
0.920257 -0.073059 0.317318
0.971353 -0.073059 0.194048
0.989436 -0.073059 -0.073059
-0.073059 0.610085 0.345538
-0.073059 0.607756 0.344266
-0.073059 0.604329 0.342409
-0.003454 0.596656 0.338320
0.568988 0.578803 0.329179
0.790262 0.533226 0.307954
0.915353 0.370839 0.255038
0.970441 -0.073059 0.104117
0.989322 -0.073059 -0.073059
-0.073059 0.766837 0.208233
-0.073059 0.765950 0.206234
-0.073059 0.764655 0.203318
-0.073059 0.761802 0.196903
0.090358 0.755424 0.182644
0.728674 0.740597 0.150315
0.902836 0.703771 0.061315
0.968287 0.567844 -0.067178
0.989063 -0.073059 -0.073059
-0.073059 0.889306 -0.073059
-0.073059 0.889046 -0.073059
-0.073059 0.888667 -0.073059
-0.073059 0.887837 -0.073059
-0.073059 0.885994 -0.073059
0.273488 0.881808 -0.073059
0.861929 0.871761 -0.073059
0.962589 0.843975 -0.073059
0.988432 0.731563 -0.073059
-0.073059 0.956366 -0.073059
-0.073059 0.956308 -0.073059
-0.073059 0.956224 -0.073059
-0.073059 0.956042 -0.073059
-0.073059 0.955640 -0.073059
-0.073059 0.954746 -0.073059
0.472865 0.952700 -0.073059
0.942370 0.947687 -0.073059
0.986671 0.933301 -0.073059
-0.073059 0.984641 -0.073059
-0.073059 0.984632 -0.073059
-0.073059 0.984619 -0.073059
-0.073059 0.984590 -0.073059
-0.073059 0.984528 -0.073059
-0.073059 0.984390 -0.073059
-0.073059 0.984082 -0.073059
0.647289 0.983364 -0.073059
0.979516 0.981564 -0.073059
-0.073059 -0.073059 0.593383
0.048561 -0.073059 0.593008
0.280661 -0.073059 0.592463
0.500787 -0.073059 0.591272
0.679899 -0.073059 0.588656
0.825366 -0.073059 0.582840
0.923471 -0.073059 0.569554
0.971972 -0.073059 0.537150
0.989515 -0.073059 0.440610
-0.073059 -0.062639 0.591249
-0.010578 -0.073059 0.590870
0.226449 -0.073059 0.590318
0.481740 -0.073059 0.589113
0.672887 -0.073059 0.586467
0.822767 -0.073059 0.580583
0.922830 -0.073059 0.567138
0.971847 -0.073059 0.534300
0.989499 -0.073059 0.435982
-0.073059 0.084321 0.588110
-0.073059 0.062454 0.587724
0.133232 0.035961 0.587164
0.450478 -0.003999 0.585939
0.661956 -0.073059 0.583248
0.818864 -0.073059 0.577263
0.921884 -0.073059 0.563582
0.971664 -0.073059 0.530092
0.989476 -0.073059 0.429081
-0.073059 0.375711 0.581101
-0.073059 0.368098 0.580701
-0.067058 0.356589 0.580119
0.359456 0.329332 0.578848
0.635251 0.257131 0.576056
0.809853 0.023375 0.569843
0.919762 -0.073059 0.555620
0.971259 -0.073059 0.520622
0.989424 -0.073059 0.413231
-0.073059 0.593772 0.564927
-0.073059 0.591232 0.564492
-0.073059 0.587487 0.563861
-0.038227 0.579079 0.562480
0.559445 0.559445 0.559445
0.787749 0.508524 0.552678
0.914808 0.312231 0.537110
0.970342 -0.073059 0.498336
0.989310 -0.073059 0.373849
-0.073059 0.760748 0.524383
-0.073059 0.759827 0.523849
-0.073059 0.758482 0.523073
-0.073059 0.755520 0.521375
0.028314 0.748879 0.517631
0.725080 0.733442 0.509239
0.902152 0.694965 0.489681
0.968176 0.547323 0.439202
0.989050 -0.073059 0.253468
-0.073059 0.887531 0.390478
-0.073059 0.887264 0.389445
-0.073059 0.886875 0.387937
-0.073059 0.886021 0.384616
-0.073059 0.884127 0.377199
0.234247 0.879827 0.360144
0.860691 0.869481 0.317932
0.962443 0.840782 0.194933
0.988417 0.724115 -0.073059
-0.073059 0.955975 -0.073059
-0.073059 0.955916 -0.073059
-0.073059 0.955831 -0.073059
-0.073059 0.955646 -0.073059
-0.073059 0.955239 -0.073059
-0.073059 0.954332 -0.073059
0.457181 0.952255 -0.073059
0.942077 0.947162 -0.073059
0.986650 0.932525 -0.073059
-0.073059 0.984580 -0.073059
-0.073059 0.984571 -0.073059
-0.073059 0.984557 -0.073059
-0.073059 0.984529 -0.073059
-0.073059 0.984466 -0.073059
-0.073059 0.984327 -0.073059
-0.073059 0.984016 -0.073059
0.640991 0.983292 -0.073059
0.979464 0.981476 -0.073059
-0.073059 -0.073059 0.746316
-0.038099 -0.073059 0.746166
0.191891 -0.073059 0.745950
0.469973 -0.073059 0.745478
0.668678 -0.073059 0.744447
0.821245 -0.073059 0.742183
0.922459 -0.073059 0.737162
0.971775 -0.073059 0.725816
0.989490 -0.073059 0.698588
-0.073059 -0.073059 0.745469
-0.073059 -0.073059 0.745319
0.124066 -0.073059 0.745101
0.447609 -0.073059 0.744626
0.660996 -0.073059 0.743590
0.818528 -0.073059 0.741316
0.921804 -0.073059 0.736271
0.971649 -0.073059 0.724881
0.989474 -0.073059 0.697486
-0.073059 -0.073059 0.744233
-0.073059 -0.073059 0.744082
0.008999 -0.073059 0.743862
0.410079 -0.073059 0.743384
0.649174 -0.073059 0.742341
0.814458 -0.073059 0.740050
0.920837 -0.073059 0.734973
0.971463 -0.073059 0.723520
0.989450 -0.073059 0.695874
-0.073059 0.229311 0.741514
-0.073059 0.216239 0.741361
-0.073059 0.196635 0.741138
0.294303 0.151125 0.740653
0.620277 0.026649 0.739593
0.805108 -0.073059 0.737269
0.918668 -0.073059 0.732122
0.971053 -0.073059 0.720530
0.989398 -0.073059 0.692308
-0.073059 0.552616 0.735462
-0.073059 0.549474 0.735303
-0.073059 0.544828 0.735074
-0.073059 0.534330 0.734573
0.536947 0.509380 0.733481
0.782148 0.441270 0.731088
0.913602 0.122081 0.725803
0.970125 -0.073059 0.713861
0.989283 -0.073059 0.684210
-0.073059 0.746656 0.721705
-0.073059 0.745648 0.721538
-0.073059 0.744176 0.721294
-0.073059 0.740932 0.720764
-0.051149 0.733680 0.719606
0.717063 0.717063 0.717063
0.900639 0.673580 0.711396
0.967933 0.493643 0.698251
0.989021 -0.073059 0.664372
-0.073059 0.883501 0.687500
-0.073059 0.883218 0.687291
-0.073059 0.882805 0.686986
-0.073059 0.881901 0.686320
-0.073059 0.879892 0.684859
0.134133 0.875321 0.681617
0.857933 0.864268 0.674219
0.962123 0.833433 0.656454
0.988384 0.706895 0.609913
-0.073059 0.955105 0.565331
-0.073059 0.955045 0.564898
-0.073059 0.954957 0.564268
-0.073059 0.954766 0.562890
-0.073059 0.954346 0.559861
-0.073059 0.953410 0.553109
0.418212 0.951262 0.537575
0.941429 0.945990 0.498902
0.986603 0.930787 0.374891
-0.073059 0.984445 -0.073059
-0.073059 0.984436 -0.073059
-0.073059 0.984423 -0.073059
-0.073059 0.984393 -0.073059
-0.073059 0.984329 -0.073059
-0.073059 0.984188 -0.073059
-0.073059 0.983871 -0.073059
0.626460 0.983132 -0.073059
0.979351 0.981281 -0.073059
-0.073059 -0.073059 0.873621
-0.073059 -0.073059 0.873573
-0.037620 -0.073059 0.873503
0.380547 -0.073059 0.873351
0.640782 -0.073059 0.873020
0.811657 -0.073059 0.872295
0.920181 -0.073059 0.870692
0.971338 -0.073059 0.867082
0.989434 -0.073059 0.858593
-0.073059 -0.073059 0.873348
-0.073059 -0.073059 0.873300
-0.073059 -0.073059 0.873230
0.344984 -0.073059 0.873078
0.631657 -0.073059 0.872745
0.808697 -0.073059 0.872017
0.919494 -0.073059 0.870408
0.971208 -0.073059 0.866784
0.989418 -0.073059 0.858262
-0.073059 -0.073059 0.872951
-0.073059 -0.073059 0.872903
-0.073059 -0.073059 0.872833
0.281399 -0.073059 0.872679
0.617637 -0.073059 0.872345
0.804291 -0.073059 0.871613
0.918481 -0.073059 0.869995
0.971018 -0.073059 0.866350
0.989394 -0.073059 0.857779
-0.073059 -0.073059 0.872081
-0.073059 -0.073059 0.872032
-0.073059 -0.073059 0.871960
0.075502 -0.073059 0.871805
0.583185 -0.073059 0.871467
0.794145 -0.073059 0.870726
0.916204 -0.073059 0.869088
0.970596 -0.073059 0.865398
0.989341 -0.073059 0.856719
-0.073059 0.414797 0.870151
-0.073059 0.408528 0.870100
-0.073059 0.399086 0.870027
-0.073059 0.376886 0.869868
0.476936 0.319042 0.869521
0.769295 0.130164 0.868760
0.910883 -0.073059 0.867077
0.969644 -0.073059 0.863286
0.989225 -0.073059 0.854367
-0.073059 0.711675 0.865772
-0.073059 0.710471 0.865718
-0.073059 0.708706 0.865641
-0.073059 0.704787 0.865472
-0.073059 0.695899 0.865104
0.698114 0.674345 0.864297
0.897214 0.611811 0.862513
0.967392 0.278593 0.858492
0.988959 -0.073059 0.849023
-0.073059 0.873860 0.855312
-0.073059 0.873536 0.855252
-0.073059 0.873064 0.855163
-0.073059 0.872027 0.854971
-0.073059 0.869721 0.854552
-0.073059 0.864444 0.853634
0.851604 0.851604 0.851604
0.961412 0.815055 0.847022
0.988310 0.660084 0.836200
-0.073059 0.953116 0.827088
-0.073059 0.953052 0.827005
-0.073059 0.952958 0.826885
-0.073059 0.952753 0.826623
-0.073059 0.952301 0.826050
-0.073059 0.951295 0.824791
0.295563 0.948981 0.821990
0.939981 0.943295 0.815605
0.986499 0.926747 0.800417
-0.073059 0.984144 0.722046
-0.073059 0.984134 0.721878
-0.073059 0.984120 0.721635
-0.073059 0.984090 0.721106
-0.073059 0.984023 0.719950
-0.073059 0.983876 0.717411
-0.073059 0.983544 0.711757
0.590655 0.982776 0.698645
0.979101 0.980844 0.664888
-0.073059 -0.073059 0.948134
-0.073059 -0.073059 0.948123
-0.073059 -0.073059 0.948106
-0.036578 -0.073059 0.948071
0.559908 -0.073059 0.947993
0.787869 -0.073059 0.947824
0.914834 -0.073059 0.947453
0.970347 -0.073059 0.946631
0.989311 -0.073059 0.944772
-0.073059 -0.073059 0.948070
-0.073059 -0.073059 0.948059
-0.073059 -0.073059 0.948042
-0.073059 -0.073059 0.948007
0.545932 -0.073059 0.947929
0.784330 -0.073059 0.947759
0.914070 -0.073059 0.947388
0.970209 -0.073059 0.946564
0.989294 -0.073059 0.944702
-0.073059 -0.073059 0.947977
-0.073059 -0.073059 0.947966
-0.073059 -0.073059 0.947949
-0.073059 -0.073059 0.947914
0.523730 -0.073059 0.947836
0.779068 -0.073059 0.947666
0.912943 -0.073059 0.947293
0.970008 -0.073059 0.946467
0.989269 -0.073059 0.944599
-0.073059 -0.073059 0.947774
-0.073059 -0.073059 0.947763
-0.073059 -0.073059 0.947746
-0.073059 -0.073059 0.947710
0.464757 -0.073059 0.947632
0.767018 -0.073059 0.947461
0.910410 -0.073059 0.947085
0.969562 -0.073059 0.946255
0.989215 -0.073059 0.944374
-0.073059 -0.073059 0.947328
-0.073059 -0.073059 0.947317
-0.073059 -0.073059 0.947300
-0.073059 -0.073059 0.947264
0.213709 -0.073059 0.947184
0.737214 -0.073059 0.947011
0.904467 -0.073059 0.946630
0.968555 -0.073059 0.945788
0.989094 -0.073059 0.943881
-0.073059 0.588235 0.946338
-0.073059 0.585618 0.946326
-0.073059 0.581760 0.946309
-0.073059 0.573094 0.946271
-0.073059 0.552824 0.946189
0.644753 0.499924 0.946011
0.889061 0.290003 0.945619
0.966162 -0.073059 0.944751
0.988819 -0.073059 0.942784
-0.073059 0.847372 0.944079
-0.073059 0.846923 0.944066
-0.073059 0.846268 0.944047
-0.073059 0.844828 0.944007
-0.073059 0.841616 0.943920
-0.073059 0.834222 0.943729
0.836085 0.815713 0.943310
0.959787 0.761987 0.942381
0.988146 0.462080 0.940275
-0.073059 0.948256 0.938601
-0.073059 0.948180 0.938586
-0.073059 0.948070 0.938564
-0.073059 0.947829 0.938518
-0.073059 0.947298 0.938416
-0.073059 0.946114 0.938194
-0.073059 0.943386 0.937707
0.936626 0.936626 0.936626
0.986267 0.916539 0.934172
-0.073059 0.983443 0.923240
-0.073059 0.983432 0.923219
-0.073059 0.983417 0.923188
-0.073059 0.983383 0.923122
-0.073059 0.983310 0.922976
-0.073059 0.983149 0.922659
-0.073059 0.982788 0.921960
0.478117 0.981951 0.920406
0.978538 0.979820 0.916847
-0.073059 -0.073059 0.981644
-0.073059 -0.073059 0.981642
-0.073059 -0.073059 0.981639
-0.073059 -0.073059 0.981633
-0.034313 -0.073059 0.981620
0.718876 -0.073059 0.981592
0.900979 -0.073059 0.981529
0.967987 -0.073059 0.981392
0.989028 -0.073059 0.981087
-0.073059 -0.073059 0.981633
-0.073059 -0.073059 0.981631
-0.073059 -0.073059 0.981628
-0.073059 -0.073059 0.981622
-0.073059 -0.073059 0.981609
0.713644 -0.073059 0.981581
0.900002 -0.073059 0.981518
0.967831 -0.073059 0.981381
0.989010 -0.073059 0.981075
-0.073059 -0.073059 0.981617
-0.073059 -0.073059 0.981615
-0.073059 -0.073059 0.981613
-0.073059 -0.073059 0.981607
-0.073059 -0.073059 0.981594
0.705721 -0.073059 0.981565
0.898558 -0.073059 0.981502
0.967602 -0.073059 0.981365
0.988983 -0.073059 0.981059
-0.073059 -0.073059 0.981583
-0.073059 -0.073059 0.981581
-0.073059 -0.073059 0.981578
-0.073059 -0.073059 0.981572
-0.073059 -0.073059 0.981559
0.686883 -0.073059 0.981530
0.895297 -0.073059 0.981468
0.967096 -0.073059 0.981330
0.988925 -0.073059 0.981022
-0.073059 -0.073059 0.981508
-0.073059 -0.073059 0.981506
-0.073059 -0.073059 0.981504
-0.073059 -0.073059 0.981497
-0.073059 -0.073059 0.981484
0.633478 -0.073059 0.981455
0.887576 -0.073059 0.981392
0.965947 -0.073059 0.981253
0.988795 -0.073059 0.980943
-0.073059 -0.073059 0.981344
-0.073059 -0.073059 0.981342
-0.073059 -0.073059 0.981339
-0.073059 -0.073059 0.981332
-0.073059 -0.073059 0.981319
0.396302 -0.073059 0.981289
0.867038 -0.073059 0.981225
0.963205 -0.073059 0.981083
0.988497 -0.073059 0.980768
-0.073059 0.741864 0.980975
-0.073059 0.740828 0.980973
-0.073059 0.739316 0.980970
-0.073059 0.735986 0.980963
-0.073059 0.728561 0.980949
-0.073059 0.711518 0.980919
0.790326 0.665817 0.980852
0.955839 0.472896 0.980704
0.987770 -0.073059 0.980376
-0.073059 0.934391 0.980120
-0.073059 0.934280 0.980118
-0.073059 0.934119 0.980115
-0.073059 0.933766 0.980108
-0.073059 0.932987 0.980092
-0.073059 0.931242 0.980059
-0.073059 0.927183 0.979986
0.928210 0.916908 0.979825
0.985730 0.884250 0.979469
-0.073059 0.981689 0.977998
-0.073059 0.981676 0.977996
-0.073059 0.981657 0.977992
-0.073059 0.981617 0.977983
-0.073059 0.981528 0.977965
-0.073059 0.981332 0.977925
-0.073059 0.980890 0.977837
-0.073059 0.979855 0.977644
0.977214 0.977214 0.977214
