滤镜资源/vsco 18-8月新增16个/VSCO 201808更新包 3DL/VSCOX SUM2.3dl
#Generated by Picture Instruments - Look Converter
3DMESH
Mesh 4 10
0 64 128 192 256 320 384 448 512 576 640 704 768 832 896 960 1023
172 24 8
184 20 16
188 20 16
184 24 44
188 20 64
184 16 112
196 12 168
196 20 212
192 52 248
208 88 284
212 136 300
244 180 340
276 212 372
284 248 380
312 260 404
312 280 412
328 288 428
172 40 8
180 36 12
188 32 28
188 36 48
192 32 84
184 32 124
196 24 188
200 32 232
196 72 264
216 112 292
232 168 324
268 212 364
300 244 388
304 268 400
328 276 424
328 296 432
336 296 440
172 56 16
180 56 16
192 52 28
184 56 48
192 56 80
184 56 124
200 56 184
196 64 228
196 104 264
224 140 288
240 196 316
284 236 356
308 264 388
316 284 412
340 296 436
340 308 436
340 312 448
180 88 4
188 84 8
192 84 20
188 92 40
196 88 76
188 92 132
196 84 184
204 104 224
204 140 252
236 176 288
260 232 316
288 256 364
316 288 404
332 308 428
352 316 440
360 332 452
360 336 464
192 136 4
196 132 4
200 128 16
196 132 36
196 128 80
192 140 132
196 136 188
208 164 216
228 192 248
256 224 296
284 264 336
312 296 384
336 316 420
352 340 444
368 348 464
376 364 472
380 364 476
192 192 0
196 188 0
200 184 12
200 184 36
196 184 68
200 188 136
204 188 188
224 204 224
252 232 268
276 256 316
304 300 352
328 328 408
364 348 440
380 376 460
396 380 480
400 396 500
400 396 500
200 248 8
200 244 4
204 244 12
200 248 32
204 248 72
188 256 128
192 244 180
212 240 236
240 248 260
272 272 308
312 312 356
332 344 404
364 364 436
376 384 464
392 392 480
400 408 496
404 408 504
192 320 0
200 312 4
200 316 12
200 316 32
200 312 68
200 316 140
200 312 184
204 312 244
220 296 296
272 292 312
300 332 360
340 360 404
372 384 444
380 404 468
396 408 488
396 420 500
404 424 504
200 380 8
200 380 0
208 380 16
204 384 32
208 380 68
192 384 132
196 380 180
200 384 240
200 380 304
236 356 356
304 348 376
336 372 408
364 396 440
384 416 468
400 428 492
400 440 492
408 440 508
192 464 4
196 460 4
204 456 16
200 460 32
204 460 64
200 460 140
204 460 180
204 452 240
200 456 312
208 456 376
232 428 424
312 404 436
356 420 448
376 428 468
396 440 484
400 448 500
408 456 512
204 536 8
200 540 4
212 536 16
204 544 36
208 536 64
192 544 132
196 540 180
204 540 240
196 540 312
200 544 384
204 536 468
248 496 492
312 468 492
344 468 504
372 472 504
384 472 512
400 472 512
196 624 8
196 624 4
200 620 20
200 620 32
204 620 72
204 620 144
204 616 188
204 620 240
200 620 316
204 620 384
196 624 472
200 620 544
252 576 556
288 548 560
312 540 568
332 536 568
348 532 568
204 680 12
200 684 4
204 684 16
200 684 36
208 680 72
196 688 140
200 688 188
196 688 240
200 684 316
200 684 384
196 684 480
200 688 548
216 676 600
240 648 616
268 620 616
276 612 620
296 600 620
196 732 8
200 736 0
200 736 16
196 736 32
204 732 68
200 728 140
196 732 180
208 732 244
204 732 312
204 732 388
196 736 472
200 732 544
204 732 600
208 724 640
232 704 648
260 680 656
264 668 656
200 760 12
204 764 0
200 764 16
200 768 32
204 764 68
200 764 148
196 764 180
200 764 236
200 768 312
200 764 380
204 764 480
200 764 544
204 764 604
200 764 648
216 752 668
228 736 680
236 720 680
200 788 12
200 792 0
204 792 12
200 792 36
204 788 68
200 784 148
200 792 184
204 792 244
204 792 320
204 788 380
200 788 480
200 792 548
204 792 600
200 792 652
208 788 676
216 776 688
224 768 700
204 800 16
204 804 8
204 804 24
204 804 52
208 800 96
204 800 180
208 800 216
208 800 276
208 800 344
208 800 416
200 804 496
208 804 560
208 804 600
208 808 652
208 804 676
216 800 688
216 792 700
188 20 12
188 20 16
192 24 24
196 24 48
196 20 72
200 16 116
204 12 172
204 12 228
196 44 264
204 84 296
216 132 324
240 176 356
272 216 380
288 248 396
304 268 412
320 280 428
324 288 428
192 40 16
188 40 16
192 36 24
196 40 56
196 36 84
204 28 132
208 24 192
208 28 248
204 68 284
220 112 312
240 168 348
264 212 364
296 248 392
312 272 408
328 288 420
336 300 436
336 304 440
192 60 16
192 60 20
196 60 28
196 60 56
200 64 88
200 60 132
204 52 192
208 60 252
204 100 276
220 144 308
248 192 344
284 244 368
316 276 396
328 296 412
344 304 432
344 316 448
352 320 452
196 92 8
200 92 12
196 92 20
200 96 52
200 96 88
204 96 144
208 92 196
208 100 248
208 144 272
236 192 308
268 236 328
300 276 368
324 308 408
344 324 432
352 336 444
364 336 460
368 340 464
212 140 4
208 136 4
208 136 20
208 140 40
204 140 84
204 144 140
204 140 192
208 160 232
224 200 264
252 240 296
292 280 344
320 312 388
348 332 424
364 348 444
372 364 460
384 368 476
384 368 484
204 196 0
204 196 0
208 196 8
208 192 36
208 196 76
208 192 140
208 196 192
224 216 240
252 244 276
280 272 316
312 312 364
344 340 408
372 364 448
388 384 468
396 388 488
404 400 496
408 404 508
208 252 0
208 252 4
212 256 12
212 256 44
212 252 84
204 256 132
208 256 196
212 256 256
256 268 284
284 296 324
320 328 376
352 356 416
372 380 452
392 400 480
404 408 492
412 420 504
412 424 512
212 324 0
208 328 0
208 320 12
208 324 36
208 324 76
208 320 136
212 324 200
212 320 252
228 308 308
284 308 324
316 340 376
348 372 420
376 396 452
388 412 476
400 420 492
412 432 508
412 436 512
212 388 0
208 396 0
208 392 12
212 392 40
208 392 76
208 396 128
208 392 192
204 396 252
208 392 320
240 368 376
316 352 380
348 384 424
376 408 452
392 424 476
400 436 492
408 440 504
412 444 508
204 468 0
208 468 0
204 472 12
208 468 40
204 472 76
208 472 136
208 464 196
212 468 256
212 468 328
212 468 396
260 436 432
328 412 444
368 428 456
392 440 480
400 448 496
412 460 508
416 460 512
212 556 4
208 556 4
212 556 12
212 548 40
208 552 80
204 556 132
204 556 188
208 556 252
208 552 320
204 556 388
208 552 476
256 512 504
320 484 512
356 480 516
376 476 512
400 480 512
412 484 516
204 636 0
208 636 0
208 632 12
208 632 36
208 640 80
212 632 132
212 628 192
208 632 260
212 632 324
208 632 400
204 636 480
208 628 552
252 588 576
292 564 572
308 552 576
336 544 576
356 540 580
212 696 0
212 696 0
208 696 16
212 692 40
212 692 84
208 696 132
208 696 196
208 692 256
208 700 324
208 696 400
208 696 484
208 696 556
216 688 612
248 656 624
272 636 628
288 620 632
300 612 628
212 740 0
204 744 0
208 740 12
204 744 36
204 736 76
208 736 136
204 740 196
208 740 260
204 740 328
208 740 400
204 740 480
208 740 556
208 740 612
216 736 648
236 712 660
260 688 664
268 676 664
208 768 0
208 768 0
212 768 12
204 772 36
208 772 76
204 772 136
204 772 188
208 768 256
208 772 320
208 768 392
212 768 484
204 772 556
208 768 616
208 772 656
220 756 672
236 740 684
248 728 688
208 796 0
208 796 0
208 796 8
204 796 36
208 796 72
208 796 132
208 796 196
212 792 256
208 796 324
212 792 396
208 792 476
208 796 556
208 796 620
208 796 656
208 792 680
220 780 696
228 768 700
212 808 0
212 808 8
212 804 24
212 808 56
212 808 100
220 804 164
212 804 228
220 804 288
216 804 352
220 804 428
212 808 500
212 808 568
216 808 620
212 808 652
212 808 680
220 804 696
228 800 708
212 24 20
212 20 20
208 24 32
212 24 44
212 24 80
220 16 120
220 12 176
224 12 232
216 32 280
216 72 312
224 120 340
252 164 372
272 208 392
292 232 412
308 252 420
316 268 436
328 276 444
208 40 16
212 40 16
216 40 28
216 40 52
216 40 88
224 36 132
232 24 192
232 28 252
224 48 300
224 100 324
240 148 356
268 196 384
296 236 408
316 260 428
324 272 432
336 292 448
344 292 448
212 64 20
212 64 20
212 60 32
220 64 56
220 64 92
224 60 136
228 52 192
228 56 248
224 80 292
232 128 320
252 180 356
280 228 388
308 260 404
328 284 424
340 304 440
352 312 444
356 320 456
216 92 12
220 88 12
216 96 28
216 96 48
220 96 92
224 96 140
232 92 192
232 96 260
228 124 296
240 168 316
264 224 344
304 268 380
328 304 408
348 320 428
352 332 444
364 336 456
372 340 468
228 136 8
228 140 12
228 140 20
224 140 48
224 144 88
224 148 140
228 140 196
228 144 252
236 184 280
260 232 308
300 280 344
324 308 388
352 332 424
368 348 448
376 360 464
388 372 480
388 372 480
228 196 0
232 196 4
228 196 8
232 196 36
232 196 76
228 196 140
232 200 200
228 200 248
252 240 276
284 272 320
316 312 364
352 344 408
372 368 452
388 380 468
396 392 484
408 404 500
408 404 504
232 256 4
232 256 4
236 256 16
236 256 40
232 252 80
228 256 136
232 256 196
232 256 256
268 272 292
300 304 336
332 340 380
364 368 424
384 392 464
404 412 488
416 424 504
420 428 512
424 428 520
228 324 0
232 324 0
228 320 12
232 324 36
228 328 76
232 324 140
232 320 192
232 320 252
248 308 308
300 316 336
328 348 384
364 384 428
388 404 464
404 420 488
412 428 500
428 440 516
428 440 524
236 392 4
232 396 4
232 392 16
232 388 36
232 392 80
232 396 128
232 392 188
228 396 252
232 388 320
260 368 368
328 360 384
360 392 432
388 416 460
404 432 488
412 444 496
424 452 516
424 456 520
228 472 0
232 468 0
228 472 12
232 472 36
232 472 80
232 468 136
236 464 192
232 468 256
236 468 320
232 468 396
276 436 436
348 416 444
384 436 464
400 448 488
416 460 500
428 468 516
428 472 520
232 556 4
232 548 4
232 552 12
236 552 40
232 552 80
228 556 132
228 560 192
228 552 256
232 552 320
232 552 396
236 548 476
280 512 512
332 488 516
372 484 516
400 480 520
416 488 520
424 492 528
228 636 4
232 636 0
228 632 12
236 636 36
232 632 72
232 632 132
236 628 192
232 632 252
236 632 324
232 628 392
228 636 476
232 632 552
272 592 576
308 568 580
332 560 584
360 544 580
368 544 576
232 692 0
232 696 0
232 696 12
236 696 36
232 696 80
232 696 136
232 692 192
228 696 252
232 696 320
228 696 396
232 696 484
232 696 560
232 692 620
264 660 624
288 640 636
308 624 632
320 616 632
232 744 0
232 740 0
232 740 12
232 736 32
228 740 80
232 736 140
232 740 196
232 740 260
232 736 324
232 740 396
228 740 484
232 736 556
228 740 620
240 736 656
256 712 664
276 696 668
284 684 668
232 772 0
232 772 0
232 768 12
232 772 40
232 772 84
232 772 132
228 768 196
232 772 256
232 768 328
228 772 404
228 768 484
236 768 560
232 768 620
236 768 656
240 760 676
256 748 688
264 728 688
232 796 0
232 792 0
228 796 12
228 792 36
232 796 72
232 796 132
232 796 192
232 792 256
236 792 324
232 796 392
232 796 476
232 796 556
232 796 616
232 792 656
232 796 684
236 784 696
252 772 700
236 808 0
240 808 8
236 808 28
240 808 56
236 812 104
236 804 164
240 804 220
240 808 288
248 804 352
240 808 432
236 808 504
240 808 572
236 808 616
240 808 652
236 812 684
240 808 700
248 796 708
240 28 16
236 28 20
240 24 28
236 28 52
240 28 80
244 24 124
252 12 172
248 16 224
248 16 288
244 52 328
244 100 360
260 148 388
276 180 420
288 212 424
308 232 448
324 244 460
328 260 464
236 44 20
236 44 20
244 44 36
240 44 56
240 48 88
252 36 140
260 24 192
260 24 260
260 32 328
252 72 356
252 128 380
280 176 408
304 208 436
316 236 444
324 252 460
336 268 472
