滤镜资源/vsco 18-8月新增16个/VSCO 201808更新包 3DL/VSCOX AGA1.3dl
#Generated by Picture Instruments - Look Converter
3DMESH
Mesh 4 10
0 64 128 192 256 320 384 448 512 576 640 704 768 832 896 960 1023
56 68 12
68 72 16
68 68 36
64 72 48
68 72 72
56 80 108
56 80 148
56 88 200
56 88 264
48 92 328
36 104 356
40 100 444
52 100 496
36 108 548
44 108 588
32 116 608
24 116 652
60 80 12
68 84 20
68 84 32
64 88 56
72 88 84
60 88 132
56 88 188
60 92 244
52 96 304
52 96 368
40 108 416
40 108 488
48 108 536
32 112 580
36 112 620
24 124 628
20 120 672
64 96 20
68 100 32
72 100 40
68 108 60
72 104 96
52 112 144
56 108 216
56 108 276
52 112 344
52 112 404
40 116 436
36 116 504
44 120 552
32 124 604
36 124 636
24 136 652
20 136 680
64 124 36
72 120 44
72 124 52
68 128 80
68 132 108
60 136 164
52 136 224
64 132 288
56 136 360
52 136 424
36 148 464
40 140 540
40 140 580
28 148 616
36 144 644
32 160 664
24 156 692
72 164 64
76 164 68
76 164 76
72 172 100
68 172 128
56 176 188
56 176 244
60 180 312
52 176 376
56 176 436
48 184 492
44 180 552
40 184 596
32 184 628
40 188 656
28 196 672
20 196 704
72 224 92
76 224 92
80 224 108
72 232 128
80 232 160
64 240 220
64 232 272
68 232 328
56 244 400
60 236 456
44 248 504
40 244 564
40 244 608
32 244 640
36 244 676
36 256 696
28 248 720
88 296 132
88 292 136
88 296 140
84 300 168
88 300 204
68 308 260
68 304 296
68 304 360
60 312 420
64 312 476
56 316 536
52 316 588
52 308 620
40 308 660
44 304 684
32 324 704
28 316 728
88 368 180
92 364 184
92 368 196
84 360 216
88 364 252
80 372 304
80 372 344
80 372 400
72 380 456
68 376 500
56 388 552
52 384 600
52 380 644
44 380 672
48 372 700
48 380 720
36 376 736
96 420 228
96 424 240
100 420 248
92 424 272
92 428 300
80 432 344
80 432 384
80 436 420
72 444 476
72 444 520
64 452 580
60 444 620
60 436 652
52 440 684
56 440 712
40 448 724
40 436 736
92 480 288
96 476 296
96 472 296
96 476 320
92 480 340
88 484 380
88 488 416
88 488 440
80 496 488
80 500 528
68 508 580
64 508 624
64 500 660
52 496 684
52 492 708
52 500 732
60 496 740
100 516 328
96 520 332
100 524 332
92 524 356
96 524 368
88 528 408
80 536 436
84 540 464
80 544 516
80 544 540
76 548 592
68 548 628
64 544 660
56 548 688
56 544 712
56 544 736
64 544 740
92 552 364
96 556 360
96 556 364
92 556 384
96 564 408
92 568 436
88 568 452
92 572 488
80 576 524
80 580 556
72 588 596
68 588 632
72 584 664
64 588 692
60 580 712
60 584 732
76 584 744
96 584 388
96 588 392
96 584 400
96 592 412
96 588 424
88 596 460
88 596 480
80 600 504
80 608 536
80 608 568
76 612 604
72 616 636
68 612 668
68 612 692
68 608 716
64 612 736
84 612 744
96 612 416
92 612 420
96 612 416
96 612 436
92 612 444
92 616 472
92 620 496
92 624 516
84 628 544
84 632 576
76 636 608
72 636 640
68 636 664
64 636 696
60 632 716
72 636 740
88 640 752
96 628 436
96 632 436
96 628 436
92 628 444
96 632 460
88 640 488
84 640 504
80 644 524
80 652 556
80 656 576
80 652 620
72 656 644
80 652 668
68 656 696
72 656 720
72 656 736
96 656 748
104 648 456
104 652 464
104 652 460
108 656 472
108 652 476
104 656 504
104 660 516
100 664 540
108 672 572
96 672 596
92 676 628
104 680 652
100 680 672
100 680 704
116 688 720
92 680 744
120 684 756
204 684 524
216 688 532
220 688 536
208 688 540
224 696 560
224 692 584
236 704 596
260 716 620
272 724 648
296 732 668
320 744 704
344 752 724
356 760 736
376 764 764
376 760 780
372 764 788
356 756 804
72 64 8
76 72 20
72 76 40
68 72 60
64 72 100
56 76 144
52 80 204
44 80 280
40 84 316
40 92 364
40 100 412
40 104 456
36 108 512
32 112 548
32 116 596
28 120 624
24 120 652
72 80 8
72 84 24
76 88 32
72 92 64
72 88 108
60 84 164
52 88 240
48 92 300
40 100 348
36 100 408
40 108 448
36 108 492
36 108 540
28 112 584
24 120 620
28 120 656
20 124 672
72 96 24
76 104 36
76 104 48
72 108 72
68 112 112
56 112 176
52 108 244
52 112 308
40 116 364
36 116 420
40 116 468
36 124 516
36 124 560
28 124 604
28 128 632
24 132 668
20 136 680
76 128 36
76 132 48
76 132 64
68 140 92
64 136 128
64 136 192
52 140 260
48 136 324
44 136 392
40 140 448
36 144 492
36 148 540
32 148 588
24 152 620
28 156 652
24 160 680
24 160 692
76 172 60
76 172 68
80 176 84
76 184 108
68 188 144
60 184 200
52 184 268
48 180 336
48 184 400
40 184 456
40 184 516
40 188 568
36 188 608
32 192 636
28 192 668
24 196 692
20 196 708
80 240 92
80 244 100
84 244 116
76 244 136
72 252 176
64 248 232
64 248 300
60 244 364
52 248 424
48 248 480
44 248 532
40 252 584
36 252 620
36 252 656
32 252 680
32 252 708
28 252 720
88 308 132
88 308 140
88 316 156
80 320 180
80 320 220
68 316 268
68 320 332
64 316 392
56 320 448
52 328 508
56 324 564
48 316 604
44 316 644
44 316 672
36 316 700
36 324 720
32 320 728
92 376 184
88 376 192
84 376 200
84 384 232
80 388 264
80 388 316
76 388 364
72 384 416
68 388 468
60 388 524
56 396 572
52 396 616
48 388 660
40 388 680
40 388 704
40 388 728
40 384 744
92 432 240
96 440 248
92 436 256
92 440 280
88 436 312
80 440 352
80 448 392
72 452 440
72 452 484
64 460 544
60 456 588
60 452 636
52 452 668
52 448 696
48 452 716
40 444 736
44 444 740
92 484 288
92 484 292
92 488 304
88 492 324
88 492 356
84 496 388
84 496 420
80 500 464
76 508 500
68 512 552
64 516 592
64 512 632
56 512 668
56 504 696
48 500 720
52 508 744
68 508 744
96 528 328
96 528 332
96 528 340
88 532 360
92 532 384
84 540 412
80 544 448
84 548 480
80 552 516
76 556 552
72 560 600
68 556 636
64 556 668
64 556 696
56 548 720
52 548 744
76 548 744
92 560 364
92 564 368
92 564 376
96 568 392
88 572 416
92 572 432
88 572 464
84 580 496
80 584 528
76 592 568
68 592 608
68 588 640
64 592 672
60 592 700
56 592 720
60 588 744
84 588 744
96 588 392
96 588 392
96 588 400
96 596 416
92 596 432
88 600 460
88 604 484
80 608 512
80 612 540
72 620 580
76 620 612
76 616 648
64 620 676
64 616 696
60 616 724
64 620 740
88 624 744
92 620 420
92 616 420
92 616 432
96 616 440
88 620 456
96 624 476
88 624 496
84 628 528
84 632 552
80 640 588
72 644 620
68 644 648
68 644 676
64 640 704
60 636 724
72 636 744
104 644 752
96 632 432
96 636 436
92 636 444
96 636 452
92 640 468
84 644 488
88 644 512
80 652 536
80 656 560
80 656 592
76 664 624
72 664 660
72 660 676
64 656 700
72 660 724
68 660 740
100 664 752
108 652 456
116 660 464
112 656 468
104 656 472
108 660 488
112 664 504
108 668 532
108 676 548
100 672 576
104 680 604
104 684 628
112 688 664
116 688 688
112 688 712
104 684 728
104 688 752
148 696 772
232 692 544
232 696 548
232 696 552
240 704 564
244 704 576
264 712 596
272 720 620
288 724 636
300 732 664
336 744 692
356 756 716
384 768 740
416 776 752
408 780 768
420 784 788
420 780 804
408 780 816
80 68 12
88 72 20
84 76 40
84 72 64
80 76 108
76 76 156
72 80 224
64 84 292
60 84 360
48 88 428
40 88 488
28 92 552
32 96 572
28 104 604
24 108 624
24 116 656
20 116 676
88 80 4
88 84 24
88 92 44
92 92 76
80 92 124
72 88 216
64 84 328
56 84 392
48 84 456
36 88 512
36 92 532
36 100 568
24 108 596
28 108 636
24 112 656
24 116 684
20 116 692
92 100 24
88 104 32
92 108 48
92 112 72
92 112 116
76 116 176
68 116 240
64 116 324
48 112 408
40 112 480
40 112 532
28 116 568
32 120 592
28 120 628
28 124 656
24 132 680
16 132 692
88 132 36
92 128 56
88 140 68
88 144 88
84 140 128
80 140 184
76 140 268
64 144 340
56 140 416
40 140 480
36 140 528
32 140 580
28 144 604
28 148 644
24 148 664
20 152 688
20 152 708
92 176 68
96 176 76
92 180 96
92 188 112
88 188 156
76 188 204
72 188 276
64 188 352
48 184 428
44 180 492
40 184 544
36 180 588
28 184 620
28 188 656
24 188 680
24 192 704
20 192 716
96 240 100
96 240 112
92 244 120
92 252 144
84 256 180
88 252 240
84 252 304
72 248 364
60 248 436
48 244 500
48 248 556
36 252 596
36 248 640
32 248 668
32 248 688
28 244 712
24 248 732
104 308 140
100 308 148
100 320 160
100 320 188
88 316 220
84 328 276
84 324 332
72 324 396
60 328 460
56 328 520
56 320 572
48 316 612
44 320 652
40 320 680
40 316 708
28 316 724
28 316 728
96 380 184
92 380 196
88 380 204
88 384 232
84 392 268
88 388 320
80 388 368
80 388 416
68 392 480
64 392 540
56 392 584
52 392 628
44 384 660
40 388 692
40 384 716
40 380 736
48 388 736
100 436 240
92 440 248
92 440 256
92 440 280
88 448 308
84 448 352
80 452 400
76 456 448
68 452 492
68 456 544
60 460 592
56 456 636
56 456 676
44 448 700
44 444 720
44 448 744
60 448 740
96 488 292
96 484 292
96 492 308
92 492 324
92 496 356
92 496 388
84 500 420
80 504 468
80 508 508
72 512 552
68 516 600
60 508 640
60 512 668
52 508 700
48 504 728
52 504 748
76 504 748
96 528 328
96 528 332
96 528 340
96 532 360
92 532 380
88 540 420
84 544 444
80 548 484
80 548 516
76 556 556
72 560 604
68 560 644
64 556 684
60 556 704
56 552 724
52 548 744
84 552 744
100 564 360
92 564 364
96 568 372
92 568 388
88 568 408
92 576 432
88 580 464
84 584 496
76 592 532
76 588 568
72 596 604
68 588 640
68 588 672
64 592 704
60 596 724
60 588 744
88 588 748
100 588 384
104 588 392
96 588 396
92 596 408
96 596 428
88 604 452
84 604 480
88 604 512
80 616 540
72 620 580
76 620 612
72 620 644
64 616 676
64 616 700
60 620 724
64 620 744
104 620 752
92 616 416
92 616 416
92 616 424
92 620 432
88 624 452
96 620 468
92 628 496
84 632 528
84 632 552
80 640 588
72 644 620
68 644 648
68 644 676
68 644 704
60 640 720
72 640 748
112 648 748
96 632 432
100 636 436
92 636 436
96 636 444
92 640 464
84 644 480
88 644 504
80 652 532
84 656 564
80 660 588
76 664 624
72 664 656
72 664 676
72 660 704
68 656 728
76 660 744
120 668 748
116 656 456
108 652 452
108 652 464
104 656 468
112 664 488
112 664 500
112 668 520
100 672 540
108 676 572
104 684 604
108 692 628
124 692 660
120 692 692
100 684 708
108 688 732
112 688 756
168 700 768
248 700 544
248 700 552
248 700 556
248 700 560
264 708 580
280 716 596
280 720 612
304 732 644
332 736 668
352 752 700
376 764 724
412 772 744
420 780 748
432 788 772
440 788 796
440 788 812
424 784 820
96 76 8
108 72 16
112 72 40
104 76 72
108 72 116
104 80 160
92 80 224
88 84 304
84 88 372
72 84 444
72 92 508
60 92 564
52 96 604
40 96 640
24 92 676
24 96 700
20 104 700
112 84 12
104 92 20
120 92 48
112 92 84
108 92 140
104 84 228
96 84 328
92 84 400
84 88 472
72 84 520
60 92 580
52 88 628
40 88 668
32 88 696
20 92 704
16 104 716
