滤镜资源/vsco 18-8月新增16个/VSCO 201808更新包 3DL/VSCOX AL6.3dl
#Generated by Picture Instruments - Look Converter
3DMESH
Mesh 4 10
0 64 128 192 256 320 384 448 512 576 640 704 768 832 896 960 1023
12 4 56
32 4 104
36 4 140
20 4 196
32 8 244
4 12 296
16 8 360
32 12 428
20 8 516
32 12 616
20 20 684
32 20 784
44 20 844
28 20 904
36 20 936
4 12 968
16 8 996
8 40 76
20 32 108
36 28 156
20 32 220
32 32 272
4 36 340
16 32 416
32 32 488
16 28 584
28 28 688
4 36 772
20 32 860
28 28 908
20 32 952
28 28 972
8 32 988
16 28 1012
12 76 84
24 76 124
36 72 168
20 68 228
32 68 280
0 80 348
16 68 420
32 72 508
20 72 608
28 68 700
8 76 788
16 68 868
28 64 916
20 68 956
28 68 984
0 80 984
12 72 1012
4 124 84
24 120 128
36 120 172
16 124 232
32 120 292
4 124 360
12 116 428
28 116 508
16 116 616
28 116 712
4 132 804
16 116 876
24 112 916
16 116 956
24 116 984
4 128 996
12 116 1012
8 188 100
24 184 140
36 172 180
20 172 244
32 172 304
4 184 372
8 176 448
24 172 532
12 176 632
24 172 732
4 184 812
16 172 884
24 172 924
12 176 960
24 172 984
0 188 992
8 180 1008
4 252 108
20 252 148
32 248 196
20 248 256
28 244 316
4 252 392
12 244 468
28 244 548
12 244 656
24 244 752
0 256 820
8 248 888
20 244 928
8 248 960
20 248 988
8 260 996
8 244 1008
12 336 128
20 324 160
32 324 204
12 332 268
28 324 320
0 340 404
8 328 468
28 328 552
8 328 660
24 328 752
8 340 836
16 332 896
24 328 932
12 332 968
20 332 984
4 352 1000
4 340 1008
4 428 132
20 424 168
32 424 216
16 420 272
28 420 328
8 424 416
8 428 488
28 428 576
8 428 684
28 420 768
4 432 840
8 428 896
24 424 932
8 432 968
20 420 984
8 432 1004
8 424 1008
8 508 152
20 512 180
28 512 228
12 516 284
28 520 340
4 520 424
8 516 496
28 516 584
4 524 688
24 524 776
8 528 860
12 520 904
24 516 936
8 520 972
20 520 992
8 536 1000
8 524 1008
8 612 144
20 608 188
28 604 224
8 612 288
24 608 344
8 612 440
4 616 500
28 608 584
8 616 688
24 612 772
8 620 848
8 616 904
24 620 936
8 616 964
20 616 984
12 624 1004
8 620 1008
8 688 168
16 692 192
28 692 232
12 700 300
28 692 352
8 700 436
4 704 500
24 700 584
8 704 692
24 708 780
8 704 860
8 700 904
24 696 944
12 704 972
24 700 992
12 708 1000
8 708 1008
8 768 164
16 772 196
28 772 236
4 776 296
24 772 356
12 772 456
8 772 508
32 772 596
8 776 696
28 772 780
8 784 856
8 784 908
24 772 936
4 780 968
24 780 988
12 784 1008
12 780 1012
12 828 176
12 836 200
32 832 244
8 832 304
28 832 360
8 836 448
4 840 512
28 840 592
4 844 696
28 836 780
16 832 860
8 840 908
24 840 940
8 844 972
24 836 992
12 848 1004
8 844 1008
12 884 168
12 888 192
32 888 240
4 892 300
28 892 352
12 880 448
8 888 500
28 888 588
4 892 692
28 888 780
12 896 860
8 892 904
28 892 928
4 896 968
28 892 988
20 892 1008
8 892 1012
12 924 176
12 932 200
32 928 240
4 936 304
28 932 360
12 932 448
4 936 508
24 932 592
4 936 692
24 932 780
16 932 868
8 936 908
28 936 940
8 936 964
28 936 992
16 940 1008
8 940 1012
16 964 180
12 972 200
32 972 244
4 972 304
28 968 356
16 968 456
4 976 516
28 972 596
8 976 700
28 968 780
16 968 864
4 976 904
28 972 936
8 976 972
28 972 992
20 968 1012
8 972 1012
16 988 200
12 992 224
32 988 280
4 992 336
28 988 400
32 984 504
28 988 556
44 984 636
24 988 724
40 980 800
16 992 876
12 996 916
28 992 940
12 1000 972
28 992 988
28 992 1008
20 996 1008
52 4 68
44 4 112
44 0 168
32 0 228
32 0 284
32 8 328
32 8 392
36 8 468
32 8 556
28 12 656
40 20 748
36 20 816
40 20 880
36 24 924
40 24 956
32 12 988
32 12 1004
40 44 72
40 44 120
32 36 180
24 32 244
16 28 292
16 24 352
24 24 424
20 28 504
24 24 604
24 24 708
16 28 808
16 28 868
24 24 920
20 24 952
16 24 980
20 24 1004
20 24 1012
40 84 84
28 88 128
24 84 192
20 84 248
16 76 308
12 76 368
12 80 436
16 76 528
8 76 616
12 76 724
16 76 816
12 76 884
12 76 932
16 76 960
12 72 988
12 76 1008
12 76 1012
24 140 88
16 140 128
12 144 196
12 144 264
8 136 316
8 132 380
12 132 448
16 128 544
16 128 644
8 132 752
8 132 828
8 132 896
8 132 936
12 132 968
12 132 992
16 128 1008
12 128 1012
20 208 100
12 200 136
8 200 200
8 204 268
8 204 328
12 200 388
8 192 460
8 196 552
4 196 652
8 196 760
12 196 840
8 196 892
8 192 936
12 192 972
8 196 992
8 192 1012
8 192 1012
16 280 112
8 280 148
4 280 212
8 276 272
8 276 332
8 276 404
12 272 484
8 272 580
12 276 684
12 268 776
4 272 844
8 276 904
8 272 944
8 276 972
8 272 996
12 264 1012
12 268 1012
20 364 124
12 356 164
8 360 228
8 364 288
8 364 356
8 360 412
8 360 488
4 360 592
8 360 692
4 364 788
8 360 860
8 356 908
4 356 948
12 360 976
12 356 1000
8 364 1012
8 360 1012
16 464 140
8 460 168
4 452 228
8 456 288
4 456 356
8 452 424
8 456 508
8 456 596
12 452 700
8 452 792
8 452 864
8 460 908
8 460 948
8 456 972
8 460 992
8 456 1016
8 456 1016
12 552 144
8 548 176
8 548 244
8 548 304
8 544 356
8 548 428
8 548 508
4 556 608
8 552 712
8 556 800
8 548 868
12 548 916
12 548 952
12 552 980
8 556 1000
8 548 1012
8 548 1012
8 644 148
8 636 184
4 640 244
8 636 300
4 640 368
8 644 444
8 636 524
8 636 616
8 640 716
8 644 804
8 644 864
12 644 912
4 644 944
8 640 972
8 644 996
12 644 1012
12 644 1012
16 724 160
8 720 192
12 724 252
8 720 308
8 720 364
4 724 432
8 728 516
8 732 612
8 724 708
4 728 796
8 728 864
8 728 912
12 728 952
8 728 980
16 724 996
8 732 1008
8 732 1008
12 800 156
8 796 196
8 796 248
4 796 308
8 800 368
8 792 440
12 796 520
8 796 620
12 796 716
8 796 800
4 808 868
4 800 908
8 804 948
8 800 976
8 804 996
12 800 1016
8 800 1016
12 860 156
12 848 196
8 852 252
8 852 312
8 852 376
4 856 440
4 860 524
4 856 616
8 856 712
8 860 796
8 856 868
8 856 912
8 864 952
8 860 976
8 856 996
8 860 1012
8 860 1012
12 904 164
8 900 192
8 904 256
8 900 308
4 904 372
8 904 444
8 904 528
8 908 624
8 904 724
8 904 800
8 908 868
4 908 912
8 912 948
8 908 980
8 912 1004
8 908 1012
8 908 1012
12 948 160
8 944 196
8 944 256
8 944 312
8 944 376
8 944 444
8 944 516
4 948 616
8 948 712
8 948 800
8 948 868
8 948 912
8 948 948
8 948 976
12 948 996
8 956 1012
8 952 1012
12 988 164
8 984 200
8 980 256
4 980 308
4 984 376
4 984 444
12 984 528
8 984 624
4 980 716
8 980 804
8 984 864
8 984 912
12 988 948
8 988 980
8 988 992
12 988 1016
4 988 1016
12 1004 188
8 1000 220
8 1004 284
8 1004 344
8 1004 412
28 992 488
28 992 572
28 992 648
28 992 740
28 992 824
12 1004 876
12 1004 920
12 1008 948
12 1008 976
16 1008 992
24 1004 1008
24 1004 1012
96 4 80
96 4 120
80 4 180
72 4 244
60 8 316
60 12 352
64 12 416
72 12 488
72 12 576
72 12 672
76 20 760
84 20 832
80 20 888
80 20 928
80 20 960
76 12 996
72 12 1000
92 44 76
88 40 120
80 40 188
68 36 264
56 28 320
56 24 380
68 24 452
68 28 524
72 24 628
76 24 728
72 24 812
72 24 880
72 28 924
72 24 960
72 28 988
76 28 1008
76 24 1012
92 88 92
80 84 132
72 84 200
52 76 268
48 72 324
40 72 384
44 64 448
48 64 532
44 64 632
44 64 736
52 64 824
52 68 888
48 64 932
52 64 964
52 60 996
52 64 1012
52 64 1012
76 140 96
72 140 132
44 152 204
44 144 284
32 140 336
40 128 400
40 128 468
44 128 556
44 124 668
40 124 752
36 124 836
40 124 896
40 128 940
44 124 968
44 124 992
44 120 1012
44 120 1012
64 204 104
56 208 144
40 216 212
28 220 288
32 220 356
28 204 408
40 196 488
24 200 576
32 196 684
32 196 776
32 196 852
40 188 908
40 188 944
40 188 976
44 188 1000
40 188 1012
40 188 1012
60 292 116
40 300 156
20 304 204
24 296 280
24 300 348
24 300 424
28 292 508
28 284 592
32 280 696
32 280 784
28 280 856
32 280 908
28 280 948
32 272 968
32 280 996
36 272 1016
36 268 1016
52 380 132
44 384 160
20 392 224
16 392 292
20 388 356
20 392 428
16 392 512
24 384 608
24 380 708
24 380 796
24 372 868
32 368 920
28 368 956
32 368 980
36 368 1004
32 368 1012
32 368 1012
40 476 128
28 484 168
20 480 228
12 488 292
12 488 364
20 488 440
20 480 520
24 484 616
24 480 720
24 476 804
24 476 872
24 476 916
28 468 948
24 468 976
32 468 1000
36 460 1016
36 460 1016
40 580 140
24 588 184
24 580 236
20 572 300
16 576 368
24 576 436
24 580 520
16 588 620
16 580 720
20 576 804
24 568 876
24 572 920
28 568 956
36 564 984
28 560 1004
28 560 1012
32 560 1012
28 676 148
24 668 192
16 664 244
12 668 304
16 668 372
20 668 448
20 668 532
24 668 628
24 668 720
24 668 812
24 668 872
20 660 916
20 660 952
24 660 972
28 656 1000
32 660 1012
32 648 1012
32 756 156
24 748 200
16 740 244
16 744 308
20 744 380
20 748 448
16 752 528
20 748 620
16 748 724
20 748 808
24 748 876
28 744 924
32 744 956
28 740 980
28 740 1004
32 736 1012
32 736 1012
24 828 152
20 820 196
20 812 244
12 816 308
12 812 364
24 812 436
24 816 528
24 816 624
20 816 716
16 812 804
20 816 868
16 820 916
24 816 952
28 816 976
28 812 1000
32 804 1016
32 804 1016
24 872 156
24 872 200
16 868 248
12 868 312
16 868 376
16 872 444
16 868 524
16 868 620
20 872 720
16 872 804
24 872 872
20 872 920
24 872 952
28 868 976
28 868 996
28 868 1016
32 864 1016
28 924 160
24 920 204
20 916 248
12 916 304
12 912 372
16 916 444
16 916 532
16 916 628
20 916 720
16 916 808
20 920 872
24 920 916
20 920 952
24 920 976
24 916 996
32 916 1016
32 912 1016
28 960 168
20 960 208
16 956 248
16 956 316
20 956 380
16 952 444
16 956 528
16 956 624
20 960 724
20 960 808
20 956 872
20 960 920
28 952 952
28 956 980
32 956 1008
36 956 1012
36 952 1012
24 996 172
20 992 200
16 992 248
12 992 312
16 992 372
12 992 444
20 992 524
20 992 620
16 992 716
20 996 804
24 996 872
24 992 908
28 992 948
32 992 972
32 992 1000
40 992 1016
40 988 1016
28 1008 196
28 1004 228
20 1004 276
16 1004 340
20 1004 408
36 996 480
36 996 556
36 996 652
36 992 740
40 996 820
32 1004 876
40 1004 920
40 1008 948
40 1008 972
40 1008 1000
52 1004 1016
56 1004 1016
160 4 76
144 4 120
144 4 172
116 4 248
116 4 328
104 12 376
104 12 428
116 12 504
120 8 596
116 12 700
120 20 772
124 16 844
124 20 888
120 20 928
116 20 964
124 12 996
120 12 1004
148 44 84
144 36 128
136 36 188
120 32 264
104 32 348
108 32 412
120 28 472
120 24 556
120 28 652
120 20 748
120 28 824
124 28 892
128 32 932
128 32 964
124 28 988
132 28 1008
