滤镜资源/vsco 18-8月新增16个/VSCO 201808更新包 3DL/VSCOX KG1 Lodak Gold 100.3dl
#Generated by Picture Instruments - Look Converter
3DMESH
Mesh 4 10
0 64 128 192 256 320 384 448 512 576 640 704 768 832 896 960 1023
96 20 24
120 20 52
132 28 108
144 44 220
160 60 320
152 84 404
180 100 480
188 116 540
192 144 600
200 160 632
192 180 660
200 208 692
208 240 716
204 284 744
216 340 772
212 392 804
228 452 828
96 32 20
124 32 44
132 40 108
148 56 224
164 76 344
164 96 460
188 108 532
196 124 580
200 148 628
204 168 648
192 188 680
204 224 708
208 252 728
208 300 760
220 356 788
216 416 816
232 484 844
104 72 32
124 72 56
136 80 112
140 88 216
156 104 336
152 132 452
176 144 532
192 156 576
192 172 628
200 180 648
192 204 684
204 224 708
212 256 728
208 300 764
220 360 792
216 420 816
232 484 840
104 156 44
120 144 52
132 152 108
136 160 200
152 172 316
156 192 448
176 204 520
188 216 584
188 232 636
200 244 668
184 276 692
200 272 720
204 296 740
208 332 772
216 376 792
220 428 824
232 488 840
108 260 80
124 256 84
136 248 120
136 256 204
148 268 316
136 296 444
168 292 528
176 308 588
180 316 640
188 324 676
184 352 716
196 356 740
208 372 764
208 400 788
220 440 812
212 492 832
236 528 852
112 372 100
120 364 108
132 360 136
136 364 212
144 368 308
148 384 452
164 384 532
180 396 604
180 412 664
196 412 696
180 436 728
192 436 756
204 452 780
204 480 808
224 508 832
232 552 856
244 580 864
132 460 132
136 444 128
144 440 148
144 448 212
160 452 312
152 476 444
160 472 516
176 476 596
180 488 664
192 496 704
192 504 748
200 508 772
212 520 800
216 540 824
236 564 844
244 600 860
272 624 876
148 532 152
152 516 148
156 512 156
156 516 212
164 524 300
164 532 440
176 540 532
192 548 612
188 552 672
196 556 716
196 572 748
204 572 776
224 580 808
228 596 836
248 608 852
264 636 872
284 656 888
168 576 164
172 564 156
172 560 160
176 568 220
184 576 304
176 588 436
188 596 520
200 600 604
204 608 676
216 612 720
216 616 768
224 620 792
236 624 816
244 636 844
268 652 864
284 676 876
304 684 888
196 616 164
204 600 156
200 596 160
196 600 208
204 612 288
200 624 436
208 636 520
220 640 596
224 648 676
236 652 720
232 660 764
244 660 796
256 664 824
264 672 848
288 680 864
304 696 888
332 712 896
220 644 164
224 640 160
224 628 168
228 640 212
228 644 288
232 660 424
232 672 504
248 676 588
248 688 668
260 692 716
256 696 772
264 696 796
280 700 824
292 704 852
316 712 872
332 724 880
356 732 892
256 668 152
260 664 152
260 656 156
260 668 204
272 680 280
268 692 424
268 700 500
276 708 592
280 716 668
288 720 716
292 728 772
304 732 804
316 728 828
324 736 856
352 740 872
368 748 892
392 756 896
300 696 156
296 692 144
300 692 160
300 696 196
308 708 276
312 724 408
316 736 492
328 740 576
320 744 664
336 752 708
332 756 776
340 760 804
352 764 836
364 768 864
388 768 880
408 772 892
436 780 904
360 724 136
360 720 128
368 716 136
364 732 184
376 740 260
364 756 400
376 764 472
376 772 568
380 780 648
388 788 708
400 788 756
396 788 792
416 792 824
420 796 860
448 792 880
460 800 896
480 800 908
432 752 128
432 752 116
432 756 136
436 768 180
440 776 260
452 784 392
452 796 464
456 800 552
456 808 636
464 812 700
460 820 768
472 824 796
480 824 836
488 828 864
500 824 884
524 824 900
544 824 908
516 776 100
524 780 100
528 788 120
528 796 172
532 808 248
524 820 400
532 824 468
536 832 556
540 836 644
540 840 696
544 844 756
552 844 792
564 844 828
568 848 860
588 848 884
588 848 904
604 848 912
556 792 108
568 800 116
572 804 164
572 812 216
576 820 300
576 828 444
584 836 500
588 836 588
588 844 664
592 848 716
588 856 772
600 856 804
608 860 828
616 856 860
620 860 888
648 856 900
660 856 908
120 20 16
124 20 44
136 32 116
148 44 228
164 64 348
168 84 420
180 104 496
192 124 552
196 148 604
200 164 640
200 188 664
200 216 696
208 248 720
208 292 752
208 348 780
220 408 816
224 468 836
120 36 16
124 40 48
136 48 124
152 56 244
164 80 368
184 92 468
188 112 544
200 128 596
200 148 632
208 172 660
204 196 688
204 220 712
208 260 740
208 304 768
212 368 796
216 444 828
228 500 848
128 76 20
124 80 60
136 84 120
148 96 240
160 116 364
172 136 464
184 152 540
192 172 596
196 180 632
200 196 660
208 204 692
208 228 716
208 260 740
208 308 772
212 368 796
220 444 828
228 500 844
120 160 40
124 160 68
132 172 120
140 180 232
152 188 348
168 200 464
176 220 548
188 232 608
196 244 648
200 260 680
196 272 704
200 288 728
200 312 752
208 348 780
212 392 804
224 452 832
232 500 844
128 280 72
124 268 92
132 272 136
140 280 224
152 288 340
160 304 452
168 308 540
176 324 604
180 336 656
192 344 692
196 356 724
196 372 752
204 384 772
208 416 800
216 456 820
228 508 840
244 544 860
132 384 104
132 380 108
140 380 148
140 380 216
148 388 332
164 396 456
168 404 552
180 412 620
184 424 676
192 428 708
192 436 736
200 452 768
204 468 784
216 492 816
228 524 836
240 560 860
256 596 872
152 472 132
144 456 128
152 456 156
152 464 232
164 472 340
164 480 448
168 488 544
180 492 620
188 496 680
192 512 716
204 516 756
208 520 780
216 532 808
228 552 832
244 580 852
260 612 872
272 636 880
168 540 148
164 524 144
160 516 164
164 532 224
172 536 320
180 544 444
180 556 544
192 556 620
204 564 684
208 568 728
212 580 764
220 584 788
228 596 820
236 604 844
252 628 860
276 644 880
296 668 888
192 584 152
180 572 152
184 568 168
188 576 228
192 580 320
192 596 428
200 608 536
208 612 620
212 616 688
216 624 732
228 624 768
232 628 800
244 636 824
256 648 852
276 664 872
296 676 880
324 696 892
212 620 160
204 612 152
204 604 168
208 612 224
216 620 312
220 636 428
220 640 532
228 648 616
232 656 688
240 660 728
248 668 772
256 672 800
260 676 832
280 680 860
300 692 872
324 708 892
348 720 896
240 652 160
236 644 156
236 636 168
232 644 212
240 656 304
244 668 412
252 680 520
252 688 612
256 692 680
268 696 728
272 700 772
280 704 804
288 708 836
308 716 860
320 720 880
348 728 896
376 740 896
276 680 148
272 668 148
268 668 160
280 672 208
280 688 296
280 700 404
284 708 512
284 716 600
292 724 680
300 732 724
308 732 776
312 732 800
324 740 836
340 740 860
356 748 876
388 752 896
408 760 904
328 704 140
308 700 144
308 696 156
320 704 204
324 716 288
328 728 396
328 740 508
332 748 592
340 756 668
340 760 724
352 764 772
356 772 808
368 768 840
376 772 864
400 776 880
432 780 900
448 780 912
380 732 124
376 728 128
376 728 144
388 736 192
384 744 276
384 760 388
388 772 496
392 784 588
400 788 668
400 792 720
408 792 768
416 796 804
428 800 840
440 800 864
460 804 888
476 804 900
496 808 904
452 760 112
444 756 116
444 760 132
460 772 188
460 784 268
472 792 376
468 800 476
468 812 568
472 816 648
480 820 704
480 828 760
492 824 804
488 828 840
504 828 868
520 832 888
544 832 908
564 832 908
536 784 88
536 788 100
544 796 124
540 800 176
548 812 264
548 820 376
552 832 488
552 840 576
556 844 652
556 844 704
560 848 760
568 848 796
576 856 832
584 852 868
596 852 888
608 852 908
624 852 912
576 800 92
576 800 116
584 812 156
588 820 220
592 824 312
596 836 428
600 840 520
600 844 600
600 848 668
608 856 724
608 856 768
612 860 804
620 860 832
628 860 868
640 860 888
660 856 904
672 856 912
152 20 12
168 24 40
168 40 112
184 48 224
192 68 352
200 88 420
204 104 492
216 128 556
216 148 604
220 168 644
224 192 668
228 216 700
224 252 720
228 292 744
232 352 784
240 420 816
244 476 832
152 40 12
164 36 36
172 52 108
188 60 232
196 76 356
212 92 464
220 116 536
220 128 596
228 148 628
228 172 660
228 192 684
232 224 712
232 260 740
236 308 768
236 372 796
240 444 824
256 504 844
164 88 20
164 84 40
176 88 116
184 100 220
196 116 352
204 136 456
212 152 536
216 168 588
224 180 636
224 196 664
228 204 688
232 228 712
232 260 740
232 304 764
236 376 800
244 444 824
256 504 844
156 168 40
164 168 56
164 176 120
176 176 216
184 192 344
200 204 460
208 220 540
220 236 608
224 248 648
220 256 680
224 276 704
228 292 728
224 316 748
232 348 772
232 392 800
244 448 828
256 504 844
156 280 64
156 276 80
164 276 132
176 284 224
184 292 348
188 300 452
200 312 540
204 328 612
208 336 660
216 348 692
224 360 724
228 368 748
232 388 772
240 420 796
244 460 824
256 512 840
268 544 860
172 396 96
168 384 100
168 384 136
176 384 212
180 392 328
192 400 448
204 408 540
208 412 612
216 424 668
220 432 708
224 440 740
228 456 764
236 472 792
240 488 812
248 524 836
268 564 860
284 596 868
184 480 120
184 464 116
184 464 152
192 468 220
192 472 328
192 480 440
204 492 536
212 500 624
224 504 676
224 512 716
232 512 752
240 520 776
244 536 804
256 556 832
268 580 852
284 612 868
304 640 876
196 544 132
196 528 136
196 524 160
200 532 216
204 540 320
216 548 452
216 552 540
220 560 624
232 564 680
240 572 728
240 580 764
252 584 788
256 592 816
268 604 836
280 628 860
308 648 880
332 668 884
228 592 144
216 580 140
220 572 160
224 576 212
224 588 320
232 596 428
240 608 532
236 616 616
248 620 680
248 620 728
256 624 764
268 632 796
276 636 820
288 644 848
300 664 868
328 684 880
352 696 888
248 628 148
244 612 144
240 604 164
248 616 212
256 624 308
252 632 424
256 644 528
256 652 616
268 660 680
276 660 728
280 668 768
288 668 796
292 676 828
308 684 852
332 692 872
352 712 888
372 716 900
276 660 148
268 644 144
268 636 160
272 648 208
280 660 304
280 672 412
288 684 520
288 688 608
288 700 676
296 700 724
304 700 768
312 704 804
324 708 836
332 712 856
352 720 880
384 728 892
404 740 892
312 684 136
308 676 136
308 668 152
312 680 200
312 688 284
312 700 400
320 712 508
324 720 600
328 728 672
328 732 724
336 732 768
344 736 796
356 736 836
372 744 856
388 748 880
408 756 892
436 760 900
352 712 136
348 704 132
340 700 144
352 712 192
360 724 276
360 736 392
364 740 488
364 752 592
372 760 664
376 764 720
376 768 768
392 772 804
392 768 836
412 768 864
428 772 884
452 780 900
476 780 900
420 736 120
412 732 116
408 732 140
412 740 184
416 752 268
416 764 384
420 776 492
424 784 584
424 788 660
428 792 716
436 800 760
444 800 800
452 804 840
472 804 864
480 800 884
500 808 900
520 808 908
476 764 104
476 764 108
476 764 128
488 776 184
488 792 268
492 796 376
492 804 480
496 816 568
500 816 652
504 824 708
500 828 764
508 824 800
516 832 840
532 832 868
544 832 888
564 832 908
580 828 912
560 792 88
560 792 88
560 800 120
568 804 176
572 820 264
572 828 376
572 836 480
568 840 568
576 844 644
580 848 704
580 852 756
592 852 800
592 856 832
600 852 860
616 856 888
624 852 908
640 852 912
596 808 88
604 808 108
612 816 152
612 820 216
612 832 312
616 836 416
616 840 508
620 848 600
624 852 668
624 856 724
624 860 764
636 860 804
640 864 832
648 864 860
660 864 888
680 864 908
688 864 908
224 28 4
224 36 32
236 40 84
244 52 216
256 68 336
256 88 404
252 104 484
260 124 548
260 144 600
264 168 636
264 192 656
260 220 692
264 248 716
264 292 748
268 356 772
272 420 808
284 476 832
224 44 4
232 52 28
240 52 96
248 64 212
256 80 344
268 92 452
276 112 536
280 128 588
276 148 628
280 172 652
276 196 680
272 224 708
276 264 732
276 312 768
280 376 792
284 448 824
