滤镜资源/vsco 18-8月新增16个/VSCO 201808更新包 3DL/VSCOX AL4.3dl
#Generated by Picture Instruments - Look Converter
3DMESH
Mesh 4 10
0 64 128 192 256 320 384 448 512 576 640 704 768 832 896 960 1023
68 0 4
76 0 28
84 8 52
80 8 104
88 12 176
68 24 264
76 32 392
80 36 508
68 36 612
64 36 704
52 44 760
48 44 836
60 56 888
44 60 932
56 72 952
48 84 968
68 92 1000
68 24 0
72 20 24
80 28 60
80 28 120
88 36 208
76 40 324
76 44 460
80 44 568
68 44 676
64 48 752
44 60 816
48 52 884
52 64 920
40 64 972
48 76 984
52 92 976
72 92 1008
80 56 8
84 56 28
80 52 56
80 56 120
88 60 212
72 84 336
76 80 468
72 80 580
60 84 688
60 80 752
48 88 820
44 80 888
52 84 924
40 84 968
48 88 984
48 104 980
72 104 1008
92 132 0
88 120 20
84 120 40
80 116 100
80 136 204
76 148 332
80 144 464
80 140 580
64 140 684
60 136 752
40 152 808
40 124 876
48 128 908
36 124 960
44 124 972
52 140 980
72 132 1008
132 240 20
120 232 24
96 212 24
84 208 72
88 204 180
60 264 328
68 260 464
68 260 572
52 248 672
52 244 744
40 264 800
44 240 864
48 232 904
36 232 940
40 228 964
44 252 972
68 232 1000
164 368 20
164 368 24
144 352 20
104 344 56
84 332 128
72 348 288
64 392 452
60 388 564
44 388 652
52 380 732
32 388 776
40 364 836
40 356 868
32 356 912
36 356 936
48 380 960
68 352 984
212 496 40
208 484 40
204 480 48
156 472 48
116 468 100
72 500 224
68 480 376
60 524 520
44 520 628
44 512 688
32 524 752
28 496 808
36 484 844
32 484 884
36 472 912
36 504 924
72 472 956
236 588 48
232 588 48
228 588 56
200 584 56
144 576 60
76 596 180
88 604 320
76 600 484
60 640 608
44 628 676
24 640 732
24 616 784
36 604 820
24 604 856
36 588 884
44 596 908
72 576 932
260 656 56
256 660 56
256 664 60
228 660 60
184 660 76
60 680 120
80 696 256
88 696 416
68 696 556
56 732 656
32 732 724
20 708 772
36 696 808
16 696 844
36 688 876
36 696 888
60 676 912
276 724 52
276 728 52
272 728 56
252 732 60
224 724 72
100 740 92
80 772 220
92 772 344
96 768 484
68 772 608
44 816 696
20 804 748
36 792 784
8 780 816
32 768 848
32 772 872
56 756 900
300 772 60
292 776 52
296 780 60
276 788 60
244 780 72
136 792 80
72 828 176
88 848 312
80 840 440
108 836 556
60 840 660
52 872 732
44 860 776
16 852 808
36 840 840
28 840 860
52 828 884
312 816 56
308 816 48
312 816 52
288 828 64
260 828 68
164 836 88
72 860 152
88 892 296
84 892 412
104 888 508
92 888 612
64 896 688
64 920 760
20 916 796
36 900 824
40 892 860
60 884 876
332 844 56
324 852 44
324 852 52
308 860 56
280 860 68
184 880 80
84 900 132
80 932 268
84 940 384
100 928 472
104 928 584
88 932 656
72 936 724
60 964 788
44 956 820
44 948 840
68 936 860
340 876 44
336 876 44
340 880 40
316 892 48
296 896 60
212 904 80
108 924 96
76 960 244
84 976 368
100 976 448
108 972 532
104 964 612
88 968 680
64 972 740
72 996 792
64 992 828
84 984 852
348 904 48
344 904 36
352 904 36
332 916 44
312 920 52
220 940 72
132 952 104
80 984 220
84 1004 340
104 1000 436
104 1000 516
116 1000 580
108 992 664
80 996 716
68 996 768
80 1008 816
92 1012 840
356 924 36
352 932 28
352 928 24
332 936 28
312 940 32
224 956 56
192 984 128
136 1000 248
136 1012 356
132 1004 440
140 1004 512
136 1016 560
144 1008 620
116 1016 692
92 1004 740
76 1008 788
76 1012 820
356 940 36
352 940 28
344 940 36
320 948 44
280 956 68
200 976 116
212 992 228
216 992 328
204 1000 408
216 996 476
204 1008 536
200 1012 580
212 1008 608
180 1016 668
120 1004 720
100 1004 760
80 1004 792
84 0 0
88 0 32
96 4 68
84 4 116
80 4 200
76 12 296
72 20 420
64 20 544
64 24 648
56 28 724
48 32 788
44 40 852
48 40 908
40 52 940
40 68 964
48 80 1004
68 100 1004
92 24 0
92 24 32
96 28 72
96 28 140
92 36 256
84 40 380
80 36 520
68 36 636
56 32 736
48 32 812
40 40 872
40 48 908
40 52 952
40 64 984
36 76 1008
56 92 1016
80 104 1016
100 60 4
104 64 40
96 64 76
92 68 148
92 76 264
80 84 404
68 84 536
64 76 652
52 76 728
40 72 816
44 72 864
40 80 904
40 84 952
40 84 980
40 96 1008
56 104 1016
76 116 1016
112 144 8
112 136 40
96 148 64
84 144 140
80 156 264
80 156 412
68 160 544
64 152 648
56 144 736
44 140 804
36 136 856
36 136 904
40 136 944
36 132 972
36 136 1000
64 140 1016
76 144 1016
148 252 20
140 244 36
112 248 52
92 256 88
84 260 224
64 300 388
56 292 516
48 292 628
40 280 716
36 268 788
36 264 836
36 264 880
28 248 912
32 252 944
32 252 976
52 256 996
72 256 1004
180 384 20
184 388 52
160 396 60
104 388 64
88 396 156
80 404 336
56 448 508
40 444 612
28 432 700
32 412 764
28 396 812
28 392 856
24 384 888
24 384 924
28 380 944
52 376 968
72 376 980
224 500 44
224 504 68
204 512 72
160 516 72
92 532 120
80 544 260
60 548 444
40 584 592
24 568 664
20 556 736
28 540 784
24 520 828
20 516 864
20 508 896
24 500 924
48 504 944
72 492 956
244 600 48
244 600 72
232 600 72
204 612 68
128 620 76
76 648 192
80 664 360
64 652 520
36 692 648
24 676 712
16 664 756
16 648 796
16 636 832
20 620 864
16 616 892
48 604 924
80 596 936
264 668 52
264 672 72
256 676 76
232 688 84
176 688 80
76 720 136
80 748 292
80 748 456
60 748 588
48 780 692
20 760 752
12 744 784
16 724 824
16 716 856
20 708 884
32 700 900
64 688 916
284 728 52
288 732 68
276 740 72
256 752 76
196 756 80
100 776 108
68 812 248
84 820 388
84 816 532
60 820 644
48 844 724
8 828 760
8 812 800
12 800 828
12 788 860
32 780 888
60 768 904
304 780 52
304 784 72
300 788 76
284 792 72
236 800 80
148 816 88
60 860 200
80 880 340
80 872 460
84 868 580
64 868 676
52 892 752
16 884 792
16 868 820
8 852 844
32 844 868
56 836 884
312 820 52
320 824 60
312 828 68
296 840 76
252 844 76
176 852 88
56 888 156
76 920 312
84 924 428
100 920 532
84 916 632
60 912 704
52 940 776
16 928 804
8 920 832
40 904 860
60 892 872
328 852 48
332 852 64
324 856 64
308 864 64
268 880 72
192 892 80
72 924 148
68 948 284
84 964 404
88 960 488
100 952 588
80 948 668
60 956 732
56 980 796
24 964 824
44 952 844
76 944 864
340 880 40
336 884 48
340 892 52
324 896 52
280 904 64
208 920 76
80 944 116
64 980 268
80 1000 384
92 996 472
100 988 540
100 980 632
76 984 700
60 992 756
60 1016 808
76 1000 844
88 988 852
352 908 36
352 908 40
348 908 48
336 916 44
296 928 56
220 948 68
124 968 112
80 1000 244
92 1016 364
100 1016 452
108 1012 520
116 1012 588
100 1008 664
72 1012 728
60 1008 772
72 1016 820
92 1016 844
356 928 24
356 932 28
356 936 28
340 936 32
300 948 32
228 964 40
188 1000 148
164 1016 284
164 1016 380
180 1016 464
180 1016 516
172 1016 564
168 1016 628
124 1016 700
76 1016 748
64 1016 792
72 1016 824
368 944 28
356 944 28
344 948 28
316 956 48
272 964 64
216 984 132
216 1000 276
224 1000 368
224 1000 440
240 1000 516
240 1016 548
240 1016 588
236 1016 620
200 1016 676
116 1016 732
96 1008 768
76 1008 796
96 4 4
112 4 28
128 0 72
128 0 140
116 8 228
104 12 320
88 16 444
84 20 552
84 16 648
64 20 736
48 24 796
44 28 868
44 32 912
40 36 944
40 48 964
48 64 1004
72 88 1004
112 28 0
116 28 28
136 24 76
132 24 148
112 28 256
96 28 396
96 20 540
76 24 648
60 12 748
48 12 824
44 24 876
44 24 924
40 32 956
40 44 992
40 56 1016
60 80 1016
76 100 1016
128 72 12
132 68 36
128 68 76
132 68 144
120 72 272
104 80 420
88 76 556
76 64 656
60 60 752
48 52 824
44 48 880
40 60 928
44 60 964
40 68 996
40 76 1016
60 96 1016
76 108 1016
140 148 8
140 140 36
136 144 80
124 132 140
116 148 272
104 156 420
92 160 564
80 148 664
68 136 748
48 128 816
40 128 876
44 120 920
40 120 956
40 120 988
36 120 1008
68 132 1016
84 144 1016
168 248 28
168 244 52
172 248 92
144 256 140
120 264 252
88 288 408
80 288 544
64 284 644
56 272 728
44 264 800
40 256 856
36 244 896
36 236 932
36 240 964
36 244 992
64 244 1008
80 244 1008
204 388 28
208 392 56
196 384 88
156 392 112
128 408 188
112 404 352
80 448 516
60 428 612
44 424 700
40 408 768
36 396 820
24 396 864
32 384 904
28 372 940
28 376 952
56 372 972
84 372 988
240 504 48
236 504 72
236 512 108
204 524 120
128 532 144
112 552 276
88 552 464
60 576 588
40 568 672
32 556 736
28 536 792
28 524 836
24 520 880
24 508 912
28 504 936
60 496 948
80 496 952
252 596 52
256 596 72
256 600 108
224 616 116
152 632 128
112 656 236
108 656 392
88 660 540
60 684 648
32 672 720
20 664 764
16 648 808
20 632 848
16 628 880
24 612 908
64 604 932
88 600 936
276 668 60
276 672 72
280 676 112
260 684 120
192 700 116
104 732 168
108 752 324
100 752 476
92 740 592
56 776 688
24 764 752
24 748 796
20 732 832
20 724 864
20 712 892
48 704 904
76 696 916
292 728 52
296 732 72
296 744 104
280 748 116
224 768 116
104 780 128
100 812 276
104 820 416
112 816 540
88 820 652
60 848 732
16 832 772
12 828 808
8 808 844
20 796 872
48 784 896
76 768 904
312 784 56
312 780 76
316 788 104
300 796 112
244 808 112
148 832 120
96 864 240
100 876 368
100 876 484
100 876 592
76 880 688
64 904 768
20 892 808
12 880 832
20 864 856
52 852 876
76 840 888
324 820 56
328 824 64
332 832 92
320 836 104
272 848 100
176 868 116
92 896 200
100 920 344
100 928 456
112 920 540
96 920 636
76 924 712
60 952 780
28 940 816
24 932 840
52 908 864
92 888 876
336 848 48
336 852 56
340 860 88
328 868 100
288 880 108
196 904 112
96 928 168
92 952 308
100 968 424
104 964 500
116 964 600
92 964 676
68 964 736
60 996 804
44 976 836
68 964 856
108 944 856
344 880 44
348 888 52
348 892 76
336 892 88
300 912 96
216 932 108
96 956 152
92 984 296
96 996 404
100 996 480
108 1000 544
112 996 640
88 996 712
68 1000 764
68 1016 816
88 1008 844
124 992 848
352 904 32
352 908 44
360 916 76
348 924 76
316 932 84
232 952 92
120 980 148
104 1008 276
112 1016 392
116 1016 472
116 1016 528
128 1016 596
112 1016 680
80 1016 740
64 1016 784
88 1016 832
124 1016 836
364 928 24
364 932 28
360 932 36
348 936 32
308 944 32
232 968 48
184 1008 188
180 1016 296
188 1016 400
196 1016 472
212 1016 524
228 1016 576
212 1016 644
136 1016 704
88 1016 752
72 1023 800
128 1016 824
372 940 28
368 944 36
360 944 40
344 952 52
292 964 64
232 984 124
244 1004 296
240 1000 384
256 1000 464
260 1004 520
272 1012 556
272 1016 604
268 1016 628
224 1016 688
144 1016 740
128 1012 776
132 1012 792
112 8 8
128 4 28
164 4 64
180 4 144
188 4 260
160 12 364
128 20 476
124 16 572
112 20 656
96 16 740
80 20 804
72 24 864
60 24 912
52 28 948
48 28 968
60 36 1004
72 64 1004
140 28 8
148 28 28
172 32 68
196 28 152
184 28 280
160 32 432
136 28 576
120 20 668
100 12 756
80 0 824
64 4 880
56 8 928
56 8 964
48 12 1000
48 20 1016
64 48 1016
