滤镜资源/vsco 18-8月新增16个/VSCO 201808更新包 3DL/VSCOX AL3.3dl
#Generated by Picture Instruments - Look Converter
3DMESH
Mesh 4 10
0 64 128 192 256 320 384 448 512 576 640 704 768 832 896 960 1023
0 0 0
28 4 44
40 8 116
32 8 176
44 12 244
12 32 304
32 44 380
40 52 448
28 60 524
36 68 584
24 80 636
24 88 700
40 92 756
24 104 812
40 104 852
24 112 900
24 112 948
4 56 8
32 48 52
36 52 112
32 60 188
40 68 260
16 84 344
36 84 424
40 88 488
32 96 560
36 100 624
16 120 672
24 120 744
36 116 788
24 124 844
36 124 892
20 140 924
20 140 972
8 108 12
32 108 60
44 108 116
32 116 188
44 128 268
8 148 344
36 148 420
40 152 492
32 160 564
36 160 620
20 164 684
24 164 744
36 164 796
24 168 852
40 168 900
20 188 928
20 176 980
4 180 4
32 176 56
36 184 116
32 184 180
40 192 260
12 208 344
36 208 420
40 212 492
40 216 564
36 220 620
20 232 676
28 224 744
36 224 792
24 228 848
36 224 892
28 236 932
28 228 984
12 252 16
36 248 60
40 248 120
32 252 192
40 256 260
8 276 344
36 280 420
40 284 496
36 288 560
36 284 620
28 292 684
32 284 748
40 280 800
24 284 848
40 280 896
24 292 928
24 280 984
12 320 16
32 324 60
36 328 128
32 328 200
36 336 260
16 340 356
32 340 424
36 344 492
32 352 568
36 352 628
24 360 684
24 352 748
36 348 800
28 344 856
36 340 904
28 348 940
28 336 984
16 392 28
32 392 60
40 392 120
36 400 204
44 404 268
16 420 356
28 412 408
36 412 484
24 416 556
36 416 620
28 424 684
28 416 752
40 404 796
28 404 856
36 396 896
28 412 940
28 400 988
12 468 20
32 464 60
36 472 120
32 472 200
36 476 268
20 480 360
32 488 424
32 484 488
24 488 564
40 476 624
20 492 680
24 480 744
40 472 796
28 476 856
36 464 904
28 464 948
28 456 992
20 528 32
32 528 64
36 532 128
32 536 204
36 540 276
20 552 352
20 544 416
32 556 484
16 556 556
36 548 616
32 552 692
24 540 744
40 532 800
32 528 864
40 524 908
28 528 944
28 516 992
16 596 32
20 596 60
36 592 120
20 600 192
36 604 260
24 608 352
24 612 404
36 612 480
20 620 560
36 616 620
20 616 676
24 608 740
36 600 788
28 596 848
36 584 896
32 588 956
32 580 996
24 652 52
24 652 68
40 652 132
28 656 204
36 656 268
28 668 348
24 672 404
36 676 472
24 684 544
32 680 612
24 676 692
24 668 748
36 660 796
28 656 848
36 648 904
28 644 944
28 636 992
20 716 56
24 716 72
36 716 132
24 720 196
36 716 268
28 720 352
28 724 404
36 728 468
24 736 544
36 732 612
24 744 684
16 744 744
32 724 796
24 720 852
36 712 904
32 704 956
32 696 996
32 768 76
28 768 88
40 772 148
28 772 204
36 772 272
28 780 344
28 784 400
40 788 464
24 788 532
36 788 596
32 792 680
20 796 740
36 792 804
24 784 860
40 764 904
24 764 944
24 760 992
28 828 72
24 828 80
36 828 136
28 832 208
40 832 264
36 824 348
28 836 392
40 836 460
28 840 528
36 844 592
32 848 664
28 852 724
32 852 784
20 852 852
36 836 900
32 824 956
28 816 992
36 876 88
28 884 88
40 880 148
32 884 208
40 880 264
32 884 344
28 888 388
36 888 448
28 896 516
40 896 576
36 896 660
28 900 720
36 904 788
24 904 848
36 896 904
28 892 952
24 880 992
32 932 88
28 932 88
40 936 144
32 936 204
40 936 260
36 932 348
32 940 388
40 936 452
32 944 516
40 940 572
36 944 652
28 948 704
36 952 764
28 952 840
36 956 896
32 948 960
24 940 1000
40 964 112
32 968 116
40 968 172
32 968 228
44 964 288
48 960 380
40 968 416
52 968 472
40 972 536
48 968 608
40 976 672
28 980 728
40 980 764
28 988 828
36 984 892
40 980 952
28 984 992
68 0 0
64 4 56
64 4 112
44 12 184
40 20 256
32 36 308
24 48 384
28 60 468
24 68 536
24 72 592
28 84 656
36 92 708
32 100 768
32 104 816
32 108 864
32 112 916
32 116 956
60 56 0
52 56 56
56 60 120
36 72 196
40 80 272
36 80 352
32 92 432
28 104 504
32 108 572
32 112 632
32 120 692
32 124 748
32 124 804
36 132 848
36 140 896
36 140 948
36 144 984
64 116 4
48 120 68
40 120 128
40 128 204
44 140 280
36 152 352
32 160 436
32 164 508
28 168 572
32 168 636
36 172 700
36 176 756
36 180 808
36 176 856
36 180 904
32 188 952
32 188 988
40 184 4
32 188 64
28 196 128
28 196 200
36 204 272
40 216 360
40 224 436
40 228 512
36 228 576
40 232 644
36 232 692
32 236 748
36 232 808
36 236 852
36 236 904
40 236 960
40 236 992
40 256 12
28 256 64
32 260 140
32 268 212
36 272 276
36 284 352
32 292 428
32 296 504
28 300 576
36 296 640
40 300 696
40 296 756
44 292 808
40 292 860
40 288 912
40 292 956
40 292 992
36 324 8
20 336 68
28 340 140
32 340 204
28 348 280
32 348 356
32 356 436
40 360 508
32 364 584
36 360 640
36 360 696
36 360 756
36 360 808
36 356 864
36 352 908
40 348 960
40 348 996
32 400 8
32 400 64
28 408 148
28 416 220
36 420 292
28 428 360
24 424 432
24 428 508
32 428 568
32 428 636
40 428 704
40 420 760
40 420 812
40 416 868
40 412 916
40 412 964
36 404 996
24 476 12
24 476 64
32 476 136
28 484 208
32 488 280
32 496 360
32 504 436
28 496 500
32 492 572
32 492 636
32 492 696
36 492 752
40 488 812
36 476 860
40 476 912
44 468 968
44 464 1000
32 536 16
24 544 68
32 544 144
32 548 216
36 552 284
32 556 356
28 560 428
32 568 500
28 568 568
28 560 632
36 552 692
36 552 752
40 548 812
36 540 860
40 536 916
40 528 964
40 528 1000
20 604 16
28 604 72
28 608 136
36 612 212
32 616 280
36 620 360
36 616 424
32 624 496
32 628 568
28 628 636
32 628 692
36 616 752
32 608 808
36 604 864
40 596 920
40 592 972
40 588 1000
28 664 28
32 664 72
40 668 144
36 668 208
36 672 276
32 676 340
32 684 412
36 688 488
32 688 552
28 692 628
28 688 692
32 680 760
36 672 804
36 664 864
40 656 908
36 652 960
36 648 1004
24 724 40
36 724 76
32 728 148
36 728 208
36 732 276
36 736 344
40 736 416
40 740 484
40 744 552
36 748 624
32 752 692
32 748 752
32 740 812
36 728 860
36 720 912
44 716 968
36 704 1000
32 780 52
36 776 92
36 784 152
40 784 216
40 788 284
36 792 340
36 796 400
40 796 472
36 800 540
36 800 612
36 804 684
32 804 748
36 804 816
32 788 864
36 776 916
36 772 968
36 768 1004
32 836 60
36 840 88
36 840 152
36 840 216
40 840 276
40 840 344
40 844 408
40 848 476
40 848 536
40 852 604
36 856 672
36 860 736
32 860 804
32 860 864
36 844 916
36 828 968
36 824 1004
40 888 68
40 888 96
44 892 156
44 892 216
44 892 276
40 896 336
40 896 396
36 900 460
36 904 524
40 904 596
40 908 660
36 908 732
36 912 792
32 912 856
32 908 920
32 896 968
32 888 1000
36 944 64
40 944 88
44 948 148
44 944 212
40 948 272
40 948 336
44 948 400
44 948 456
40 952 520
40 952 588
40 956 648
36 960 708
36 960 780
36 960 848
32 960 904
28 960 968
28 948 1008
40 976 88
40 976 116
44 972 172
44 976 236
40 976 300
48 976 364
44 980 424
48 980 484
44 980 548
52 980 608
40 984 676
36 988 736
40 992 772
36 996 832
36 996 896
44 996 956
40 996 996
128 12 8
140 8 64
128 8 124
128 12 188
116 24 268
92 40 320
48 48 396
48 60 472
44 64 536
40 72 600
44 84 660
48 92 716
48 100 772
48 100 820
48 108 868
48 112 924
44 120 956
132 64 8
136 60 60
128 68 124
136 76 192
116 84 264
100 88 352
64 92 432
48 104 504
52 108 576
52 116 636
48 116 688
52 124 752
52 128 804
52 132 852
52 136 900
52 144 948
52 144 980
136 124 12
128 120 68
124 124 128
132 132 196
124 144 276
88 160 356
64 156 428
56 164 504
52 168 568
48 172 632
56 172 700
52 176 752
52 176 808
56 180 856
52 180 908
48 188 952
48 188 984
128 188 12
128 184 68
120 196 140
108 196 200
100 208 276
76 216 356
68 228 436
68 228 512
60 232 576
56 232 640
52 232 692
52 236 752
56 236 812
52 240 856
56 236 908
56 240 956
56 236 992
116 252 8
112 256 64
116 260 148
100 268 216
76 272 284
60 284 352
68 292 428
60 296 512
56 300 572
56 300 644
56 300 700
56 296 760
60 292 812
56 292 864
56 296 916
56 296 956
56 292 992
92 336 12
72 336 60
64 336 132
60 344 212
60 348 284
60 348 360
64 356 432
56 360 500
60 364 576
56 364 640
56 360 696
56 364 756
52 364 808
52 356 860
52 352 908
56 348 960
56 348 992
56 400 8
56 404 60
48 408 140
56 416 216
60 416 288
56 432 360
52 428 432
48 432 504
56 432 572
52 432 640
56 424 704
60 424 760
56 424 812
56 416 868
56 412 916
52 412 960
52 408 996
48 476 16
44 476 56
48 480 140
52 484 212
48 488 288
56 496 368
52 496 436
48 496 504
52 492 576
56 492 644
52 496 696
56 492 760
52 484 812
52 480 860
52 476 916
56 468 968
56 464 1000
44 540 12
48 544 64
48 544 136
52 544 208
52 552 280
48 560 352
48 564 428
52 572 500
44 564 564
48 560 632
52 552 696
52 552 756
56 548 812
60 544 864
56 532 916
56 532 960
56 528 1004
40 604 12
44 604 60
48 612 136
48 612 208
48 616 280
52 616 352
52 624 420
52 624 496
48 628 568
48 628 636
52 628 696
52 612 752
52 612 812
56 600 860
56 592 916
60 592 972
60 584 1004
44 664 28
48 660 72
56 664 140
56 668 212
56 672 280
52 676 344
56 684 420
48 684 492
52 688 564
48 696 628
48 688 696
52 680 760
52 672 816
56 660 864
60 652 920
52 648 964
52 648 1000
36 728 40
48 728 76
48 728 144
56 732 212
52 736 272
56 732 344
56 736 416
56 740 480
56 748 552
52 744 620
48 748 688
44 748 752
48 744 812
52 728 864
52 720 912
56 708 964
56 700 1000
40 776 48
52 780 84
52 784 148
56 784 212
56 788 280
56 792 344
56 792 404
52 796 472
56 804 540
52 804 616
52 804 684
52 808 748
48 804 812
52 792 864
56 780 916
52 776 964
52 768 1004
40 840 60
52 840 84
52 844 152
52 840 212
56 840 276
56 844 344
56 844 408
56 852 472
56 844 536
56 852 604
56 860 668
56 860 740
48 864 808
48 860 864
52 844 916
52 832 964
52 824 1004
44 888 64
52 888 88
56 892 156
60 892 220
60 892 284
56 896 336
60 896 404
52 900 464
56 900 528
56 908 596
56 904 660
56 908 732
52 912 792
52 912 860
52 908 924
52 900 972
52 888 1004
44 944 64
48 944 80
56 944 144
60 944 212
56 944 272
60 944 336
60 948 396
56 948 456
56 952 520
56 952 588
56 960 652
60 960 712
56 964 776
52 960 840
48 964 904
48 960 972
48 948 1008
48 976 88
52 980 116
60 976 176
60 976 236
56 980 300
60 976 364
60 980 424
64 980 484
64 980 548
64 980 612
56 988 676
60 988 736
56 992 768
56 996 832
52 1000 896
60 996 956
52 996 996
216 4 8
204 8 60
212 12 132
196 16 196
204 24 268
188 40 316
160 52 396
140 60 468
80 64 532
60 72 596
64 88 656
64 92 716
64 100 768
64 104 820
64 108 872
64 112 920
60 116 960
216 68 8
216 76 72
220 76 140
204 72 200
212 84 272
208 92 360
192 96 436
148 108 508
92 112 576
72 112 628
68 120 692
64 124 752
68 124 808
68 132 856
64 136 900
68 140 952
