滤镜资源/vsco 18-8月新增16个/VSCO 201808更新包 3DL/VSCOX AL5.3dl
#Generated by Picture Instruments - Look Converter
3DMESH
Mesh 4 10
0 64 128 192 256 320 384 448 512 576 640 704 768 832 896 960 1023
4 0 0
32 4 60
40 4 132
36 8 212
44 4 276
8 20 336
40 32 388
48 52 440
48 80 504
56 96 560
36 112 592
64 128 660
76 144 708
76 164 764
92 172 800
76 188 840
96 196 888
4 72 4
28 48 60
44 40 132
36 44 212
40 52 284
16 68 372
48 80 420
48 100 468
40 120 520
56 132 580
28 156 628
56 164 688
68 172 732
68 192 780
80 200 820
72 224 852
84 228 892
16 144 12
36 128 76
40 104 128
32 96 204
44 96 284
8 116 360
40 124 416
48 136 468
40 152 532
44 160 580
28 176 632
48 192 692
56 208 736
60 216 784
72 232 824
52 256 848
76 256 900
8 228 8
32 212 80
36 200 152
32 172 200
44 160 272
16 152 352
36 160 412
40 168 472
40 180 536
44 196 588
16 216 636
40 216 692
48 228 736
48 248 784
64 256 816
52 276 848
60 276 896
16 308 16
36 296 80
40 272 160
32 272 240
44 232 272
16 220 352
40 212 416
48 212 480
36 220 548
48 228 596
20 240 648
40 256 700
48 268 744
48 272 784
56 284 824
36 304 852
60 308 896
16 392 16
32 380 76
40 360 164
40 352 252
44 344 316
20 292 360
40 280 416
48 264 484
44 264 552
44 268 608
24 272 652
36 288 704
40 296 744
44 312 796
48 320 828
36 332 860
52 336 900
28 464 24
36 456 72
44 440 152
40 432 248
52 420 328
20 424 416
40 356 416
44 336 480
40 332 544
44 316 596
28 312 660
40 320 712
40 328 752
36 336 800
40 352 836
28 364 864
40 368 904
24 540 20
44 532 76
60 520 160
40 508 244
48 492 332
32 484 436
44 476 472
52 416 488
40 400 548
48 380 608
20 372 660
36 364 716
44 364 764
36 376 804
44 380 844
28 384 876
36 396 916
44 596 32
56 596 76
64 584 156
60 576 244
60 564 340
28 552 432
40 548 492
48 528 536
40 472 548
44 452 604
32 440 668
36 420 712
44 412 760
40 408 812
40 416 852
28 424 880
28 428 916
48 668 36
68 660 72
72 644 140
60 644 236
64 632 324
44 616 440
52 612 492
52 608 560
40 580 604
44 524 608
28 508 656
36 496 712
40 480 748
32 464 808
40 452 848
28 456 888
32 460 924
76 716 64
92 716 80
100 708 144
88 704 236
84 688 324
64 676 428
60 672 496
64 664 560
56 660 624
56 628 652
36 572 668
40 552 708
44 540 760
36 528 812
44 512 856
28 500 884
28 500 924
112 772 88
120 772 92
128 764 140
124 760 216
124 748 308
96 732 436
88 724 488
88 716 564
80 716 628
80 708 684
56 668 704
48 624 712
44 600 756
40 584 804
44 576 848
40 560 896
40 552 928
200 828 156
204 832 148
208 824 164
188 812 208
184 804 288
164 788 400
148 776 472
132 768 544
120 760 620
120 760 676
112 752 736
80 712 756
68 660 760
56 648 808
64 628 848
56 620 884
60 608 920
292 872 224
296 876 224
292 868 224
272 864 232
268 856 268
264 844 356
248 840 412
228 820 504
208 816 588
208 812 660
204 808 724
180 800 764
124 756 784
88 708 800
88 692 840
92 672 888
84 664 916
388 916 308
392 916 312
376 908 308
352 908 304
336 904 304
328 892 344
328 888 388
308 872 460
284 860 556
276 860 624
264 856 712
260 856 756
240 836 808
184 796 824
132 744 836
132 728 876
128 720 908
504 944 400
508 948 400
500 948 400
468 940 408
440 936 396
408 936 396
404 928 416
408 920 452
380 912 524
356 896 604
348 892 684
348 896 736
348 892 788
296 872 832
248 828 848
188 780 868
192 772 908
576 968 456
584 972 456
564 968 460
540 960 468
508 960 460
484 944 492
472 944 484
468 940 508
460 932 536
452 924 604
424 912 684
420 912 720
440 920 764
428 916 812
368 888 848
292 840 868
256 812 876
72 0 4
84 4 68
84 4 128
76 8 204
88 12 272
76 28 328
64 44 400
68 52 472
68 64 536
68 76 588
72 88 640
80 96 696
88 112 748
96 124 792
108 136 840
112 140 892
112 156 924
72 72 4
76 76 84
92 72 144
96 76 220
96 80 296
88 84 360
88 92 428
88 108 488
88 124 548
96 132 608
96 148 652
96 156 700
104 168 756
112 180 796
112 196 840
124 212 884
124 216 916
84 152 8
84 156 84
92 132 144
96 128 216
104 132 296
88 144 364
80 156 428
88 164 500
72 172 548
80 180 604
84 196 656
84 212 708
88 220 748
92 232 788
100 240 824
104 256 872
104 268 896
84 232 4
84 232 80
88 216 152
96 200 212
96 180 284
100 180 368
88 188 440
84 200 508
84 212 564
80 224 612
76 232 660
80 244 704
80 260 752
80 276 800
88 288 836
92 296 880
92 304 904
96 316 8
88 312 80
92 304 156
92 296 244
104 256 288
96 244 356
96 228 424
84 236 500
80 248 564
80 256 616
76 268 668
76 280 708
76 288 756
80 300 800
80 308 840
88 324 880
84 332 908
104 392 12
92 396 80
92 392 160
96 372 248
88 364 324
100 316 356
96 300 432
96 288 492
88 292 572
84 292 624
80 300 676
72 308 720
76 320 768
76 332 808
72 336 844
80 348 880
84 356 916
96 468 8
92 468 80
88 468 160
100 456 260
108 440 340
92 432 404
88 372 428
96 364 496
92 348 560
84 336 620
88 336 680
80 340 728
76 348 772
76 364 816
84 372 856
76 384 896
76 388 916
96 544 8
96 544 84
96 540 148
96 532 244
104 520 336
104 504 420
92 504 492
92 432 500
92 416 552
96 400 612
84 388 672
84 388 728
84 388 776
72 396 812
72 400 860
80 412 900
76 420 928
104 604 16
96 612 84
100 608 148
112 600 240
104 588 328
104 568 424
92 560 500
92 552 548
92 496 560
88 472 616
88 456 668
80 444 724
84 432 776
84 432 824
80 436 864
72 444 900
72 448 932
108 668 20
100 672 88
108 672 144
116 668 232
120 652 324
108 636 424
100 620 508
100 616 572
88 596 612
92 540 620
92 528 672
88 512 728
80 496 768
80 484 820
80 476 868
80 476 908
72 480 940
128 728 40
128 732 100
136 728 140
136 720 224
140 712 312
128 696 408
112 688 500
112 676 568
104 672 632
96 648 668
88 588 672
92 572 724
92 560 772
80 544 820
84 528 860
76 520 904
72 520 940
152 780 68
148 784 108
156 780 144
164 776 212
168 768 292
148 752 396
136 740 488
124 728 568
128 728 636
124 720 688
116 692 712
88 636 720
92 620 764
92 608 820
92 596 856
92 580 904
84 568 936
248 836 144
228 836 172
224 836 192
228 828 212
224 824 284
216 812 360
192 796 460
172 776 552
160 772 624
164 768 680
160 768 736
120 728 764
116 680 772
104 660 812
108 648 860
104 636 896
104 628 928
328 880 208
312 884 244
308 884 268
296 880 268
288 864 280
288 860 336
280 852 416
264 840 504
244 828 592
228 816 664
228 816 716
216 812 768
168 768 792
124 720 808
128 704 856
124 688 896
124 680 928
428 924 288
408 924 328
392 924 348
388 920 348
360 912 336
352 908 352
352 896 384
336 888 456
316 872 552
304 864 632
292 868 700
288 864 756
268 852 812
220 808 832
172 764 844
180 744 880
180 736 916
544 948 380
528 956 420
520 956 436
496 952 440
468 948 436
448 944 424
432 944 420
432 932 456
416 916 520
392 908 600
384 904 676
380 908 736
380 904 788
344 888 836
268 844 856
228 796 876
228 784 908
620 980 440
604 976 476
596 976 492
568 976 492
548 968 496
520 956 504
500 956 508
492 948 516
484 940 548
492 932 600
460 924 664
452 920 720
472 932 756
460 924 804
408 900 852
328 860 872
280 828 884
144 4 16
168 4 80
168 8 132
176 8 200
172 24 272
144 44 324
136 56 396
128 68 464
124 80 528
120 88 596
120 104 644
124 116 696
124 128 748
128 132 792
136 140 836
144 152 892
144 152 928
152 76 0
164 80 68
160 88 140
180 92 188
172 96 260
172 100 336
164 104 420
152 116 492
156 116 556
156 128 620
148 128 676
152 136 728
156 144 780
164 152 828
164 164 868
172 168 916
172 168 952
164 156 4
164 152 72
176 152 152
192 160 212
192 160 272
180 164 352
172 160 416
168 168 492
160 176 556
160 184 612
160 188 668
160 200 712
160 208 760
168 220 800
168 228 848
168 244 884
172 248 916
148 240 4
164 240 72
180 244 144
192 220 208
192 216 276
188 212 360
180 220 436
168 228 508
172 236 568
148 244 628
148 256 668
152 256 712
148 276 760
156 284 800
148 288 844
152 300 884
152 304 908
172 316 8
188 316 80
188 320 156
196 308 220
200 284 276
188 264 340
188 268 432
172 268 508
168 276 572
160 288 624
156 292 680
152 296 720
152 308 772
148 320 808
148 332 852
148 348 888
148 348 920
192 400 12
196 404 84
180 400 144
196 388 220
200 380 300
196 340 348
192 324 424
180 312 496
172 312 564
168 320 632
160 328 680
156 336 724
152 348 772
148 352 808
148 364 856
148 372 896
148 376 920
196 468 20
204 468 84
180 476 148
200 472 228
200 456 312
188 444 392
188 400 416
180 384 492
184 368 556
172 368 620
168 364 680
168 368 732
156 380 780
156 388 820
156 396 864
140 404 896
140 408 924
184 540 28
188 544 84
184 544 144
192 548 220
200 536 320
200 516 408
176 504 468
176 452 492
180 436 556
176 420 616
164 412 668
168 412 728
160 416 784
156 420 824
152 432 868
152 440 908
152 440 936
192 608 28
184 612 80
192 616 148
192 612 212
204 600 308
192 584 396
192 572 480
176 576 544
176 508 552
172 492 612
172 480 672
164 468 720
164 460 772
168 460 824
156 464 872
152 472 908
152 472 940
180 672 24
188 676 84
184 680 148
200 676 212
212 668 300
196 652 400
188 632 484
184 628 560
184 616 608
176 560 616
172 548 672
176 524 716
164 512 772
160 500 816
164 500 868
156 504 916
152 504 952
196 728 44
196 724 96
196 728 156
204 736 212
216 728 300
212 712 384
196 696 476
188 684 556
188 680 620
172 664 660
168 608 672
176 592 724
172 576 772
164 556 816
160 548 868
160 544 908
160 544 940
208 780 68
216 784 108
216 788 168
224 788 208
228 780 280
232 768 372
224 752 460
204 740 548
204 732 620
192 728 676
184 704 704
172 648 716
172 640 768
180 624 816
168 612 860
164 596 900
168 584 936
284 832 128
284 836 164
268 840 220
268 836 240
272 832 280
280 820 344
268 804 424
248 792 520
236 780 604
228 780 668
232 780 724
204 744 752
188 692 764
180 676 808
184 664 856
176 652 900
184 640 928
372 880 200
372 880 228
344 884 284
328 884 296
324 876 300
328 868 340
336 860 396
324 848 480
308 832 564
292 828 644
292 824 700
288 820 756
240 784 792
200 740 812
188 720 848
196 704 900
196 692 928
468 916 280
460 916 296
428 924 348
416 924 372
408 920 376
388 908 368
388 900 396
388 896 448
376 880 528
356 872 616
336 868 684
344 864 744
332 864 800
288 820 824
244 772 840
252 760 880
252 748 908
564 952 364
552 952 380
536 956 428
528 956 460
512 952 468
492 952 460
472 944 456
456 936 460
464 928 512
448 924 576
436 908 656
436 908 720
432 908 772
408 896 816
324 860 848
288 812 872
288 800 896
644 976 424
636 976 440
616 976 488
604 980 512
588 976 516
564 968 528
540 960 532
528 952 532
524 948 544
520 940 592
512 932 644
496 924 696
512 936 736
516 932 784
468 920 832
392 876 868
344 836 876
232 8 20
228 12 88
240 8 148
244 12 212
256 20 276
252 40 312
224 60 384
216 76 456
204 92 524
192 104 576
196 120 632
184 132 692
188 136 736
180 148 788
188 160 828
192 168 884
188 172 924
240 72 4
236 84 88
244 96 152
232 100 200
248 100 264
260 104 332
256 112 404
236 128 476
228 136 552
224 140 612
212 144 672
208 152 728
212 160 772
216 168 824
208 172 864
212 180 908
