滤镜资源/vsco 18-8月新增16个/VSCO 201808更新包 3DL/VSCOX KCP2 Kodak Color Plus 200.3dl
#Generated by Picture Instruments - Look Converter
3DMESH
Mesh 4 10
0 64 128 192 256 320 384 448 512 576 640 704 768 832 896 960 1023
64 12 32
88 16 68
96 24 136
96 44 256
112 60 360
92 80 436
116 96 508
120 112 568
124 132 616
136 152 648
132 172 676
152 208 700
172 244 728
184 292 760
220 356 788
236 424 820
288 496 844
56 20 20
80 20 56
88 28 128
96 44 248
104 64 376
92 88 492
120 104 560
128 120 608
132 140 640
144 160 668
136 180 692
164 216 728
180 252 744
192 308 772
228 380 804
252 452 832
308 532 860
64 52 28
80 48 52
88 52 116
84 64 228
96 80 356
84 108 476
116 124 552
128 140 608
136 164 652
144 172 668
144 188 696
164 216 724
180 256 744
196 312 776
232 380 808
252 452 832
308 532 856
64 136 40
88 120 56
88 124 104
84 132 208
100 140 340
92 160 472
108 172 548
128 188 608
128 212 656
148 232 688
132 260 716
156 264 736
176 296 760
192 340 780
228 400 808
256 464 836
308 532 856
80 268 100
92 240 88
96 224 124
92 224 216
96 232 336
84 260 476
108 264 556
116 284 628
128 292 676
144 308 708
140 340 744
164 348 764
180 372 784
196 408 812
228 456 832
248 528 848
308 576 868
72 392 132
88 360 128
92 344 156
92 336 232
88 336 340
88 356 484
104 356 572
120 368 640
124 384 696
144 400 732
132 424 756
156 436 784
176 456 800
196 488 828
232 532 852
272 584 880
320 624 888
84 496 176
96 460 160
100 432 168
92 424 244
100 428 340
84 448 488
96 448 568
108 456 644
116 468 708
132 484 744
136 496 780
156 512 804
180 524 824
200 552 848
236 584 860
264 636 884
328 668 892
84 568 196
96 544 184
100 512 184
88 504 244
92 508 340
88 512 492
104 524 572
116 532 660
124 540 720
136 548 760
128 568 788
156 576 820
176 588 836
196 612 860
240 636 872
276 672 896
336 700 904
92 616 216
96 596 200
104 568 200
96 564 256
100 568 348
88 580 480
100 580 568
112 592 648
120 604 724
136 612 760
144 620 808
160 624 832
184 644 852
212 656 876
252 680 892
296 712 900
348 728 904
104 652 216
112 644 212
112 612 208
96 604 248
112 608 336
100 616 480
108 632 564
120 636 648
124 648 716
144 652 764
148 668 804
164 672 832
196 684 856
212 692 876
260 712 892
304 736 912
364 756 912
116 684 228
120 672 216
120 648 212
116 644 252
116 648 328
104 660 468
116 672 552
128 684 636
136 688 720
156 700 764
160 704 812
180 712 840
208 716 864
232 728 888
280 744 904
324 764 904
384 776 916
132 708 220
136 704 216
132 676 212
128 676 248
132 680 328
124 696 468
136 700 544
144 716 636
156 724 712
176 732 768
180 740 812
200 748 840
220 748 860
252 760 888
304 772 904
348 788 916
404 796 920
152 728 224
156 728 212
152 708 208
148 704 244
148 712 316
144 728 452
156 736 536
168 748 624
172 756 704
196 764 748
200 768 812
220 780 840
244 784 864
280 792 888
320 796 904
376 812 912
432 816 916
188 752 204
188 752 204
192 736 196
184 732 236
188 740 292
176 752 436
184 768 504
196 776 604
204 788 684
224 796 744
236 804 796
252 808 824
280 812 856
308 820 884
360 824 900
408 836 920
460 836 920
232 772 204
236 776 196
220 760 196
224 760 224
228 768 288
232 780 416
240 792 484
248 796 572
252 812 660
272 820 712
276 836 792
300 840 816
328 844 856
356 848 880
400 852 904
456 856 916
504 860 924
288 788 176
288 792 176
288 784 172
284 788 208
288 792 268
284 808 408
296 812 476
304 824 564
312 836 644
320 840 708
344 848 772
364 856 804
388 860 840
416 868 872
468 872 892
504 880 920
552 880 920
324 800 176
328 800 180
324 792 192
320 800 236
328 804 308
336 816 428
344 820 496
356 832 580
364 840 652
380 848 708
392 856 772
416 864 804
432 872 832
460 880 872
500 880 892
552 884 916
580 888 920
96 8 24
96 16 68
108 28 148
108 44 264
116 68 392
116 84 452
120 100 520
128 120 580
128 132 628
136 152 656
144 180 688
152 212 708
168 248 732
188 300 768
216 368 792
248 444 832
296 512 852
76 16 20
80 24 60
88 28 136
96 44 268
108 68 400
116 88 496
128 108 572
136 124 620
136 140 652
148 168 676
156 188 704
160 220 728
176 264 748
196 316 780
228 392 812
272 480 848
316 548 868
88 56 20
88 56 56
80 60 124
88 68 252
100 88 384
104 112 492
116 132 568
128 152 624
136 168 656
144 184 676
156 196 700
164 224 728
176 264 752
196 316 780
228 392 812
268 480 840
316 548 868
92 140 36
92 136 64
92 136 124
92 144 236
100 148 368
112 168 484
112 196 572
124 208 624
136 228 672
144 248 704
152 260 720
160 284 744
172 316 764
192 356 788
228 420 820
280 492 848
316 552 868
100 284 96
92 256 92
92 244 140
92 252 236
96 252 364
104 264 484
108 276 568
120 296 636
124 312 684
140 324 716
156 348 744
164 364 772
176 388 788
196 428 820
232 480 832
276 544 856
324 596 872
100 416 140
88 384 136
96 360 164
92 352 240
88 356 364
100 364 492
112 376 592
124 392 652
128 408 708
144 412 740
152 432 768
160 452 792
180 476 812
200 508 836
236 548 856
284 596 876
332 640 888
104 512 176
100 472 160
100 448 184
96 448 260
100 448 376
96 456 492
104 468 588
120 476 664
124 488 724
132 500 756
152 508 788
164 520 808
184 544 836
208 572 860
248 608 872
296 652 896
340 684 896
100 588 200
100 556 184
100 524 188
96 520 256
96 520 360
100 528 488
108 540 592
120 544 668
124 556 728
140 568 768
148 580 804
168 588 824
188 604 848
208 624 864
252 648 888
304 684 896
360 716 908
112 632 208
104 608 204
104 572 200
100 572 264
100 576 364
100 588 484
116 592 596
116 604 668
132 616 732
140 624 772
160 628 808
172 640 836
192 652 856
224 668 884
264 692 892
316 716 908
372 740 912
120 664 212
116 644 208
112 612 212
108 612 256
104 620 360
112 628 480
116 636 584
128 648 668
136 656 740
148 664 780
164 676 816
180 684 836
200 692 864
232 704 884
280 720 900
336 748 912
384 764 920
132 700 212
128 680 220
124 648 208
120 644 252
120 656 348
124 668 460
128 680 568
136 692 660
144 700 732
156 708 776
172 712 812
196 720 844
216 728 864
248 740 892
288 748 904
348 768 912
404 784 920
148 720 212
144 708 212
144 680 208
140 676 248
140 692 336
140 696 452
148 708 564
152 720 652
164 732 724
180 740 772
192 748 812
208 752 840
236 756 868
268 764 892
312 780 908
372 792 916
424 800 920
172 748 212
168 732 212
156 708 204
164 708 244
164 720 328
168 732 436
172 744 548
176 752 636
188 760 712
204 768 760
220 780 808
236 788 844
260 792 868
292 796 892
336 808 908
396 816 916
452 824 920
212 764 200
200 756 200
192 736 200
196 740 236
192 748 316
196 760 424
200 772 532
208 784 620
224 796 696
232 804 752
252 808 796
272 816 832
300 820 864
332 824 892
380 832 908
428 840 916
480 844 928
252 784 192
240 776 188
236 764 192
236 768 224
240 776 296
244 784 392
248 796 496
256 808 592
268 820 668
284 828 728
300 836 788
316 844 820
336 848 852
372 852 888
420 856 908
476 864 920
520 864 924
308 800 172
304 796 168
296 788 172
288 792 208
300 800 280
304 812 376
308 824 480
324 832 572
328 836 648
340 848 708
356 856 768
384 860 808
404 868 844
436 876 880
476 876 900
520 884 916
568 884 924
348 808 168
340 800 176
336 796 196
340 804 240
344 808 308
352 820 408
364 828 512
368 836 588
380 848 660
396 852 720
408 864 768
432 868 808
448 876 836
472 880 872
520 884 900
568 892 908
604 892 920
140 16 16
156 20 56
152 32 136
160 48 260
164 76 396
164 88 456
164 108 524
164 124 584
168 136 624
168 160 660
180 184 688
188 216 708
204 252 732
220 300 764
248 372 796
292 452 828
324 512 852
120 16 4
132 24 40
140 32 128
148 48 252
152 72 388
168 92 500
176 116 568
172 136 616
180 148 648
188 164 680
188 188 700
200 220 720
216 260 752
240 316 776
264 396 808
308 480 840
348 548 856
136 60 8
132 60 36
132 64 120
132 76 236
144 88 372
148 112 488
156 128 556
168 148 616
172 164 652
184 184 676
192 200 704
204 224 724
216 260 752
236 320 780
264 392 808
308 480 840
348 548 860
140 156 32
144 144 52
140 144 124
136 144 224
136 156 364
148 176 484
156 196 564
168 212 628
176 228 668
180 244 700
188 264 720
200 288 744
216 320 764
240 360 792
264 412 816
312 488 840
348 548 860
144 292 88
148 264 92
140 256 140
136 256 240
136 264 376
140 268 480
156 284 568
160 304 636
168 316 684
180 332 720
192 352 744
204 364 768
220 392 792
240 432 812
268 488 840
316 548 860
360 596 872
152 436 136
144 396 124
132 372 148
136 364 232
132 368 360
140 376 492
156 384 580
160 396 652
172 404 708
184 416 740
188 432 768
196 452 788
216 480 812
240 504 828
268 552 856
324 600 880
368 644 884
152 528 164
152 488 156
144 464 176
144 456 248
136 452 368
140 460 488
148 472 584
156 484 664
172 492 716
180 508 760
192 508 784
204 524 808
220 548 836
248 572 848
284 608 872
328 648 888
380 684 892
148 600 184
148 564 172
144 532 184
140 528 252
136 532 364
144 532 496
144 540 592
156 552 668
168 560 728
180 568 764
188 580 800
208 592 820
224 600 844
252 624 868
288 656 884
344 688 900
396 716 908
160 648 192
152 620 180
152 588 200
148 580 252
140 584 356
144 592 476
152 600 584
160 612 668
164 620 720
176 628 764
200 628 808
212 640 828
232 652 856
268 668 876
296 688 892
352 720 908
408 740 908
168 676 200
164 656 196
148 624 200
156 620 244
152 628 352
152 632 468
160 644 576
168 652 672
176 660 728
188 672 772
204 676 816
220 680 836
240 692 864
272 704 876
316 724 896
368 748 912
420 764 912
176 708 200
172 688 200
160 660 196
164 656 248
164 664 348
160 676 464
172 684 568
176 692 656
188 700 728
196 708 776
212 712 812
236 720 844
256 728 864
288 740 884
324 752 904
384 768 916
436 784 916
196 732 200
192 716 200
184 688 196
184 688 240
176 696 324
176 708 444
188 716 548
196 724 652
208 732 720
216 740 768
228 748 808
248 752 832
276 760 864
308 768 880
352 780 900
396 796 916
452 800 916
212 756 196
208 740 192
200 716 192
204 716 236
200 728 324
204 736 428
212 748 532
216 756 632
228 768 704
236 776 756
256 780 804
276 788 836
296 792 864
324 796 888
372 804 904
424 816 916
484 824 916
252 768 184
248 760 184
232 744 188
232 744 220
232 752 304
232 764 416
240 776 524
252 792 616
256 796 688
268 804 748
288 808 792
312 816 828
332 820 856
368 828 884
408 832 904
456 840 916
504 848 924
288 792 176
284 780 176
276 768 180
272 772 216
280 780 296
276 792 388
288 800 496
292 816 588
308 824 668
324 832 728
324 840 784
352 844 824
372 852 860
408 852 880
448 860 908
508 868 920
544 868 920
348 808 160
336 800 164
324 792 160
332 792 196
336 804 272
336 816 372
348 824 476
344 836 564
360 840 644
376 848 708
392 856 764
408 868 800
432 868 844
460 872 876
500 876 904
548 884 916
588 888 924
380 812 152
376 808 168
368 804 188
376 804 228
380 816 304
388 824 408
392 832 496
404 840 588
412 848 656
428 856 720
440 864 764
468 872 804
472 876 832
500 884 868
540 884 892
584 892 916
624 892 916
224 16 4
228 20 36
240 32 108
244 52 248
256 80 364
244 96 436
228 116 512
236 132 568
232 152 616
232 164 652
236 188 676
244 220 700
260 252 716
272 308 756
300 372 792
340 452 828
372 520 848
204 24 0
212 24 24
228 36 108
236 56 236
240 80 380
252 100 484
256 128 560
252 144 616
256 160 644
256 172 668
256 196 692
264 228 716
280 268 744
300 328 772
324 396 804
364 484 836
