滤镜资源/Professional Luts Collection/Triune-Digital-Cinematic-LUTs/3D LUTs (CUBE)/ALEXA/Alien - Alexa.cube
#Created by Benjamin (IWLTBAP) : http://luts.iwltbap.com
#Copyright: (C) Copyright 2016 Triune Films and IWLTBAP
TITLE "Blockbuster LUTs Pack (Alexa Log-C)"
#LUT size
LUT_3D_SIZE 32
#LUT data points
0.001434 0.002991 0.012695
0.009308 0.003387 0.013214
0.017761 0.003784 0.013794
0.027222 0.004333 0.014465
0.036743 0.004944 0.015289
0.048187 0.005676 0.016266
0.062286 0.006744 0.017578
0.078888 0.008362 0.019623
0.100586 0.012085 0.024628
0.129669 0.017578 0.032562
0.166931 0.024414 0.043335
0.209503 0.031219 0.054749
0.255737 0.038757 0.067444
0.303925 0.047241 0.081055
0.355927 0.057434 0.096436
0.414581 0.068604 0.113953
0.474243 0.079681 0.131561
0.531921 0.091003 0.148102
0.587067 0.101074 0.164001
0.639343 0.108185 0.178894
0.673309 0.113525 0.189758
0.685211 0.115112 0.194763
0.691132 0.116180 0.197998
0.697357 0.117218 0.200867
0.703644 0.118256 0.203369
0.710419 0.119141 0.205566
0.717316 0.119843 0.207520
0.724487 0.120636 0.209290
0.731659 0.121490 0.211029
0.738739 0.122498 0.212524
0.745819 0.123718 0.214233
0.752869 0.124969 0.216034
0.001587 0.013336 0.014954
0.007996 0.013336 0.014618
0.016510 0.013519 0.015045
0.026184 0.013550 0.014984
0.036011 0.013794 0.015625
0.047913 0.014069 0.016510
0.062134 0.014465 0.017609
0.078796 0.015442 0.019775
0.100403 0.017822 0.024689
0.129608 0.021759 0.032593
0.166931 0.027283 0.042938
0.209564 0.033997 0.054291
0.255798 0.041534 0.067017
0.303925 0.050110 0.080566
0.355957 0.060303 0.095917
0.414612 0.071472 0.113464
0.474060 0.082489 0.131073
0.531677 0.093811 0.147552
0.587189 0.104156 0.163544
0.639587 0.111298 0.178497
0.673798 0.116821 0.189423
0.685730 0.118378 0.194489
0.691650 0.119476 0.197754
0.697754 0.120544 0.200592
0.704071 0.121552 0.203125
0.710693 0.122375 0.205292
0.717651 0.123016 0.207123
0.724823 0.123779 0.208954
0.732056 0.124603 0.210602
0.739288 0.125519 0.212311
0.746338 0.126709 0.213989
0.753387 0.127960 0.215729
0.001678 0.024445 0.017426
0.006470 0.024445 0.017181
0.015076 0.024475 0.016724
0.024780 0.024475 0.016479
0.035126 0.024445 0.016418
0.047607 0.024475 0.017212
0.062195 0.024719 0.018280
0.079041 0.025940 0.020782
0.100830 0.028107 0.025635
0.130341 0.031158 0.033020
0.167664 0.034485 0.042664
0.209839 0.038239 0.053864
0.255829 0.044250 0.066498
0.303894 0.052979 0.080048
0.355804 0.063110 0.095306
0.414612 0.074341 0.112946
0.473877 0.085297 0.130463
0.531494 0.096588 0.146973
0.587280 0.107269 0.163055
0.639923 0.114502 0.178101
0.674255 0.120117 0.189087
0.686279 0.121765 0.194214
0.692230 0.122894 0.197510
0.698181 0.123993 0.200348
0.704529 0.125031 0.202789
0.711029 0.125885 0.204956
0.717987 0.126434 0.206787
0.725220 0.127136 0.208557
0.732422 0.127869 0.210175
0.739716 0.128754 0.211853
0.746887 0.129913 0.213593
0.753967 0.131134 0.215332
0.001831 0.036804 0.020325
0.004578 0.036774 0.020386
0.012756 0.036926 0.020294
0.022736 0.036835 0.019501
0.033569 0.036713 0.018951
0.046631 0.036621 0.018341
0.061890 0.036407 0.019257
0.079163 0.037476 0.022156
0.101288 0.039062 0.026489
0.131195 0.041595 0.033142
0.168823 0.044678 0.042511
0.210938 0.047455 0.053619
0.256439 0.050385 0.066010
0.303955 0.055847 0.079437
0.355682 0.065918 0.094635
0.414612 0.077240 0.112305
0.473938 0.088196 0.129822
0.531311 0.099426 0.146301
0.587372 0.110382 0.162445
0.640106 0.117645 0.177582
0.674835 0.123596 0.188812
0.686890 0.125244 0.193939
0.692810 0.126343 0.197205
0.698700 0.127411 0.199982
0.704956 0.128510 0.202515
0.711487 0.129333 0.204590
0.718292 0.129913 0.206360
0.725555 0.130493 0.208160
0.732849 0.131226 0.209747
0.740143 0.132080 0.211517
0.747406 0.133118 0.213196
0.754456 0.134308 0.214905
0.001953 0.049896 0.023468
0.004211 0.049866 0.023529
0.010437 0.050110 0.023682
0.019684 0.050385 0.023621
0.031281 0.050079 0.022430
0.044708 0.049866 0.020966
0.060913 0.049622 0.020569
0.079346 0.049316 0.021820
0.101624 0.049316 0.025513
0.131958 0.052917 0.032990
0.170013 0.056763 0.042725
0.212524 0.059479 0.053436
0.257812 0.061951 0.065674
0.304565 0.064270 0.078766
0.355713 0.069275 0.093872
0.414673 0.080078 0.111572
0.473907 0.091064 0.129120
0.531281 0.102386 0.145569
0.587433 0.113495 0.161743
0.640289 0.121002 0.176971
0.675201 0.126984 0.188171
0.687500 0.128693 0.193451
0.693420 0.129822 0.196777
0.699310 0.130890 0.199554
0.705444 0.131989 0.202087
0.711945 0.132812 0.204193
0.718567 0.133392 0.205872
0.725891 0.134033 0.207672
0.733215 0.134613 0.209320
0.740540 0.135406 0.210968
0.747864 0.136383 0.212677
0.755005 0.137604 0.214478
0.001984 0.065155 0.026947
0.004150 0.065155 0.027008
0.007690 0.065216 0.027130
0.016205 0.065613 0.027435
0.027313 0.065796 0.027405
0.041443 0.065521 0.025848
0.059082 0.065247 0.023895
0.078613 0.065033 0.023529
0.102081 0.064453 0.025482
0.132538 0.064087 0.031311
0.171234 0.067474 0.040131
0.214172 0.072327 0.051758
0.259552 0.077087 0.065216
0.305908 0.079285 0.078125
0.356689 0.081512 0.092987
0.415253 0.086060 0.110718
0.473846 0.093903 0.128052
0.531067 0.105286 0.144501
0.587555 0.116699 0.160797
0.640411 0.124359 0.176025
0.675629 0.130341 0.187469
0.688049 0.132141 0.192810
0.694000 0.133240 0.196136
0.699951 0.134369 0.198944
0.706024 0.135437 0.201447
0.712433 0.136322 0.203552
0.719025 0.136932 0.205292
0.726166 0.137512 0.207031
0.733429 0.138123 0.208649
0.740875 0.138824 0.210205
0.748352 0.139679 0.211975
0.755524 0.140808 0.213745
0.001831 0.082550 0.031189
0.003998 0.082520 0.031250
0.006256 0.082550 0.031342
0.011932 0.082794 0.031555
0.021667 0.083252 0.031952
0.035736 0.083374 0.031830
0.055023 0.083069 0.029846
0.076294 0.082825 0.027069
0.101471 0.082550 0.026947
0.132996 0.081299 0.030975
0.172729 0.081268 0.039276
0.216034 0.083710 0.048065
0.261536 0.088867 0.060150
0.307983 0.093933 0.073822
0.358429 0.099121 0.090057
0.417572 0.104614 0.109772
0.475433 0.105774 0.126923
0.531067 0.110107 0.142944
0.587463 0.119934 0.159241
0.640472 0.127899 0.174622
0.675934 0.133698 0.186218
0.688629 0.135590 0.191711
0.694580 0.136719 0.195190
0.700531 0.137787 0.198029
0.706635 0.138885 0.200531
0.712860 0.139801 0.202576
0.719452 0.140381 0.204285
0.726410 0.140961 0.206024
0.733734 0.141632 0.207611
0.741150 0.142334 0.209259
0.748657 0.143097 0.210968
0.755951 0.144104 0.212708
0.001526 0.102509 0.036194
0.003693 0.102539 0.036255
0.005890 0.102509 0.036316
0.008087 0.102570 0.036407
0.015350 0.102722 0.036652
0.027679 0.103394 0.037109
0.045807 0.103607 0.037079
0.070679 0.103363 0.034882
0.099030 0.102966 0.030365
0.132599 0.103180 0.031708
0.174316 0.100739 0.039337
0.218414 0.100403 0.048096
0.263824 0.101868 0.055756
0.310547 0.107361 0.067749
0.361481 0.113525 0.082489
0.420441 0.120911 0.101410
0.479706 0.126404 0.119965
0.534454 0.128265 0.135834
0.589844 0.129242 0.151672
0.641174 0.132202 0.168945
0.676453 0.136414 0.182343
0.689148 0.138062 0.189117
0.695099 0.139526 0.192963
0.701141 0.140839 0.196106
0.707275 0.142029 0.198730
0.713379 0.142853 0.200745
0.720001 0.143555 0.202545
0.726837 0.144287 0.204376
0.734131 0.145020 0.206055
0.741516 0.145752 0.207703
0.749023 0.146515 0.209381
0.756439 0.147278 0.211029
0.001465 0.126770 0.042358
0.003632 0.126801 0.042450
0.005829 0.126923 0.042572
0.007996 0.126953 0.042633
0.010193 0.127014 0.042664
0.018707 0.127380 0.042999
0.035309 0.128418 0.043488
0.058350 0.128876 0.043457
0.090912 0.128082 0.040985
0.130157 0.127686 0.034668
0.173248 0.127533 0.038788
0.221466 0.123962 0.048706
0.267059 0.123779 0.057434
0.314636 0.125336 0.065002
0.367004 0.129700 0.075836
0.425079 0.137451 0.091400
0.485107 0.144318 0.108124
0.541687 0.149017 0.122498
0.597504 0.152283 0.136078
0.648834 0.153564 0.153442
0.681702 0.151306 0.169037
0.693146 0.148041 0.179382
0.698730 0.147400 0.185059
0.704620 0.147949 0.188904
0.710297 0.148438 0.192017
0.716034 0.148712 0.194489
0.721893 0.148804 0.196320
0.728333 0.149017 0.198029
0.735229 0.149414 0.199493
0.742645 0.150055 0.201233
0.750092 0.150665 0.202911
0.757507 0.151215 0.204773
0.001465 0.158447 0.051025
0.003632 0.158539 0.051056
0.005829 0.158661 0.051147
0.007965 0.158813 0.051208
0.010193 0.158875 0.051300
0.012360 0.158905 0.051361
0.022003 0.159546 0.051666
0.042603 0.161407 0.052582
0.072266 0.163483 0.052643
0.117462 0.160583 0.049286
0.170380 0.160126 0.042664
0.220947 0.158752 0.048462
0.271240 0.153809 0.057861
0.320160 0.154297 0.067474
0.374725 0.157562 0.078125
0.433655 0.161499 0.087433
0.492004 0.164948 0.096191
0.550690 0.168457 0.105225
0.608704 0.173553 0.116821
0.664490 0.178711 0.133179
0.701202 0.180206 0.147278
0.712494 0.178711 0.156403
0.716034 0.176544 0.162964
0.720001 0.174561 0.168152
0.724304 0.172974 0.172363
0.728912 0.171631 0.175781
0.733917 0.170593 0.178375
0.739716 0.169952 0.180511
0.745941 0.169739 0.182404
0.752197 0.169769 0.184082
0.758789 0.169739 0.185822
0.765411 0.169434 0.187775
0.001404 0.199341 0.062805
0.003571 0.199554 0.062836
0.005768 0.199738 0.062866
0.007904 0.199921 0.062866
0.010101 0.200134 0.062897
0.012238 0.200256 0.062927
0.014435 0.200378 0.062988
0.024292 0.201172 0.063416
0.050873 0.204987 0.064575
0.090027 0.209930 0.063995
0.155884 0.204254 0.060516
0.217926 0.202942 0.053223
0.273102 0.201416 0.057983
0.326508 0.195312 0.067993
0.384674 0.196838 0.079254
0.444000 0.200806 0.089661
0.502533 0.204376 0.098389
0.562225 0.208862 0.106354
0.622406 0.212799 0.114075
0.682159 0.214447 0.123108
0.724060 0.211731 0.129700
0.736023 0.207520 0.133209
0.740326 0.204041 0.136322
0.744629 0.202148 0.139709
0.749298 0.201904 0.143616
0.754242 0.202362 0.147095
0.759094 0.203522 0.150208
0.764130 0.204803 0.152832
0.769470 0.206238 0.155151
0.775116 0.207245 0.156830
0.780823 0.207886 0.158356
0.786499 0.208435 0.160217
0.001160 0.247528 0.077271
0.003326 0.247742 0.077362
0.005524 0.247925 0.077362
0.007690 0.248077 0.077423
0.009857 0.248199 0.077454
0.012024 0.248383 0.077454
0.014191 0.248505 0.077515
0.016388 0.248566 0.077484
0.027832 0.249878 0.077667
0.063141 0.257080 0.078583
0.116516 0.265167 0.076538
0.203308 0.259521 0.072052
0.268524 0.258514 0.064087
0.329346 0.261230 0.064545
0.391418 0.250549 0.076660
0.454529 0.250854 0.086670
0.514709 0.253937 0.094879
0.577484 0.257812 0.102814
0.638153 0.259674 0.111877
0.695435 0.259003 0.119690
0.735901 0.256470 0.124420
0.750122 0.255035 0.127930
0.755341 0.253082 0.130219
0.760681 0.251495 0.132294
0.765869 0.249908 0.133545
0.770874 0.249756 0.135559
0.775543 0.251099 0.138641
0.780182 0.252869 0.141693
0.784882 0.254791 0.144836
0.789734 0.256714 0.147491
0.794678 0.258514 0.150085
0.799561 0.260162 0.152863
0.001190 0.302795 0.094208
0.003326 0.302856 0.094208
0.005524 0.303040 0.094238
0.007721 0.303101 0.094208
0.009888 0.303314 0.094238
0.012085 0.303406 0.094238
0.014252 0.303467 0.094208
0.016449 0.303558 0.094208
0.018585 0.303558 0.094208
0.038879 0.305847 0.094635
0.085175 0.315063 0.095825
0.151215 0.321777 0.091827
0.251984 0.320496 0.084351
0.325928 0.320190 0.073792
0.395233 0.324738 0.072845
0.461151 0.315460 0.081879
0.525299 0.313263 0.090576
0.588898 0.312531 0.098297
0.648895 0.312134 0.106506
0.705719 0.309875 0.112976
0.749878 0.307617 0.113251
0.764465 0.309784 0.124237
0.768738 0.308990 0.127777
0.773743 0.308075 0.129486
0.778748 0.307617 0.131287
0.783478 0.308014 0.133575
0.787994 0.309204 0.136169
0.792511 0.310822 0.138977
0.797119 0.312866 0.141937
0.801727 0.314789 0.144928
0.805634 0.317444 0.148743
0.810059 0.319214 0.152069
0.001770 0.361237 0.114502
0.003937 0.361420 0.114471
0.006104 0.361572 0.114471
0.008301 0.361725 0.114471
0.010468 0.361908 0.114471
0.012665 0.362061 0.114441
0.014832 0.362152 0.114410
0.017029 0.362183 0.114380
0.019196 0.362183 0.114380
0.021362 0.362030 0.114258
0.061432 0.366150 0.115662
0.112640 0.375275 0.117920
0.194946 0.380249 0.109589
0.302277 0.382050 0.096985
0.386810 0.383759 0.085724
0.466400 0.387024 0.079590
0.532959 0.380890 0.086304
0.596832 0.375397 0.093323
0.659454 0.371368 0.101013
0.716644 0.367310 0.104828
0.762665 0.364685 0.104950
0.778320 0.367218 0.117706
0.782257 0.367310 0.123138
0.786835 0.367432 0.128113
0.791260 0.367859 0.133270
0.794983 0.369080 0.137878
0.799347 0.370239 0.140411
0.803711 0.371643 0.143158
0.807953 0.372894 0.146088
0.812164 0.374237 0.149078
0.816437 0.375732 0.152069
0.820648 0.376984 0.155090
0.002197 0.420959 0.135895
0.004364 0.421143 0.135925
0.006561 0.421295 0.135895
0.008698 0.421478 0.135925
0.010895 0.421661 0.135895
0.013062 0.421783 0.135895
0.015228 0.421936 0.135864
0.017426 0.421936 0.135895
0.019592 0.421997 0.135803
0.021790 0.421906 0.135681
0.028351 0.422150 0.135620
0.091034 0.429932 0.137482
0.143738 0.438477 0.141785
0.248779 0.445251 0.127686
0.358704 0.448547 0.108795
0.455322 0.450226 0.095917
0.537415 0.451996 0.084137
0.605347 0.445496 0.090057
0.668701 0.437225 0.097534
0.725647 0.430695 0.103180
0.771088 0.428131 0.112396
0.789276 0.429626 0.123871
0.794098 0.429291 0.127686
0.797577 0.429535 0.132294
0.801849 0.429871 0.136810
0.806000 0.430298 0.140625
0.810120 0.430847 0.143372
0.814240 0.431702 0.146179
0.817596 0.432770 0.149902
0.821716 0.434204 0.153076
0.825928 0.435669 0.156403
0.830048 0.437439 0.160065
0.003693 0.481079 0.156860
0.005890 0.481171 0.156860
0.008118 0.481293 0.156830
0.010284 0.481323 0.156769
0.012482 0.481476 0.156769
0.014679 0.481628 0.156708
0.016876 0.481781 0.156616
0.019073 0.481842 0.156433
0.021240 0.481873 0.156403
0.023682 0.481812 0.156311
0.026398 0.481628 0.156128
0.059570 0.483734 0.156311
0.127686 0.491852 0.158264
0.176514 0.499756 0.166840
0.308258 0.517395 0.140900
0.422821 0.517090 0.119629
0.530457 0.514740 0.104950
0.606506 0.512421 0.089813
0.672546 0.506287 0.095825
0.728394 0.498383 0.105835
0.773804 0.492035 0.111267
0.797394 0.492889 0.125031
0.803772 0.493011 0.131195
0.807190 0.492950 0.136169
0.811462 0.493195 0.140533
0.815674 0.494232 0.144653
0.819855 0.495361 0.147919
0.824036 0.496857 0.151337
0.827515 0.498749 0.155609
0.831726 0.500519 0.159149
0.835968 0.502380 0.162720
0.840179 0.503998 0.166504
0.006287 0.538849 0.178009
0.009125 0.539001 0.177856
0.011932 0.539124 0.177734
0.014709 0.539246 0.177551
0.017517 0.539276 0.177429
0.020325 0.539429 0.177399
0.023132 0.539490 0.177155
0.025909 0.539581 0.177155
0.028625 0.539551 0.177002
0.031311 0.539520 0.176910
0.033936 0.539337 0.176819
0.036530 0.539001 0.176575
0.103119 0.544586 0.177277
0.161560 0.553528 0.181458
0.220428 0.562592 0.196747
0.367645 0.586090 0.152252
0.493774 0.577576 0.131287
0.601105 0.572723 0.116974
0.671478 0.570648 0.099304
0.728821 0.567352 0.104614
0.774414 0.561523 0.113159
0.803802 0.560364 0.125397
0.812225 0.561340 0.132751
0.816528 0.562012 0.137329
0.820007 0.563507 0.143829
0.824280 0.565125 0.148590
0.828522 0.566345 0.152191
0.832794 0.567871 0.156006
0.837067 0.568787 0.160522
0.840454 0.569275 0.166290
0.844574 0.569763 0.171570
0.848663 0.569824 0.177063
0.012756 0.597809 0.199310
0.015472 0.597961 0.199249
0.018250 0.598114 0.199219
0.020874 0.598236 0.199066
0.023529 0.598389 0.199005
0.026154 0.598480 0.198944
0.028809 0.598572 0.198853
0.031464 0.598633 0.198730
0.034088 0.598724 0.198608
0.036743 0.598663 0.198425
0.039368 0.598602 0.198273
0.041992 0.598297 0.198090
0.064850 0.599548 0.197632
0.142426 0.609253 0.200500
0.192993 0.617981 0.209351
0.285980 0.634033 0.222168
0.430054 0.651794 0.168274
0.566742 0.637878 0.145111
0.661804 0.631836 0.131134
0.724243 0.630707 0.115021
0.773041 0.631775 0.114716
0.809326 0.631439 0.125214
0.820160 0.637817 0.139679
0.824524 0.639832 0.145233
0.828857 0.640686 0.151611
0.833038 0.640839 0.157654
0.837311 0.641083 0.162354
0.840851 0.641235 0.167877
0.845154 0.641785 0.172791
0.849396 0.642120 0.177826
0.853668 0.642487 0.182892
0.857208 0.642120 0.188995
0.015839 0.659210 0.221436
0.018494 0.659271 0.221436
0.021179 0.659454 0.221283
0.023834 0.659576 0.221252
0.026489 0.659698 0.221161
0.029144 0.659882 0.221130
0.031799 0.660004 0.220978
0.034424 0.660095 0.220886
0.037109 0.660217 0.220764
0.039764 0.660248 0.220673
0.042389 0.660065 0.220490
0.045074 0.659943 0.220398
0.047729 0.659546 0.220245
0.110504 0.665375 0.223755
0.177551 0.674896 0.234161
0.226471 0.682251 0.242249
0.362396 0.697479 0.235199
0.497955 0.709991 0.188293
0.630249 0.703186 0.165955
0.709259 0.701172 0.154236
0.765320 0.701935 0.139801
0.806793 0.702271 0.138397
0.825745 0.711426 0.159760
0.830933 0.712128 0.166565
0.835419 0.712799 0.172546
0.839874 0.713379 0.177826
0.844330 0.714020 0.182098
0.848724 0.714294 0.186707
0.853088 0.714478 0.191528
0.857391 0.714630 0.196594
0.861786 0.714783 0.201721
0.866150 0.714722 0.206909
0.018951 0.719635 0.246643
0.021667 0.719788 0.246582
0.024384 0.719940 0.246735
0.027069 0.720093 0.246857
0.029755 0.720276 0.246887
0.032471 0.720367 0.247009
0.035156 0.720490 0.247131
0.037872 0.720612 0.247162
0.040558 0.720612 0.247223
0.043243 0.720673 0.247345
0.045929 0.720520 0.247345
0.048584 0.720337 0.247162
0.051239 0.720032 0.247009
0.073517 0.721008 0.248138
0.155090 0.729401 0.258301
0.215363 0.737793 0.269379
0.274719 0.747284 0.276917
0.432129 0.757751 0.250824
0.576935 0.767700 0.205811
0.685730 0.764954 0.197021
0.747284 0.764618 0.189087
0.793732 0.769409 0.191223
0.825653 0.771667 0.198792
0.834839 0.771729 0.201477
0.840179 0.771759 0.203918
0.844543 0.771942 0.209930
0.848938 0.772125 0.214783
0.853851 0.772644 0.219543
0.858856 0.773285 0.224426
0.863861 0.773956 0.229553
0.869019 0.774933 0.234802
0.874084 0.775757 0.239929
0.023407 0.772949 0.272064
0.026093 0.773071 0.272125
0.028809 0.773224 0.272369
0.031494 0.773376 0.272461
0.034180 0.773407 0.272522
0.036896 0.773499 0.272614
0.039581 0.773590 0.272675
0.042267 0.773651 0.272736
0.044952 0.773743 0.272827
0.047699 0.773743 0.273010
0.050323 0.773560 0.272949
0.053040 0.773438 0.272949
0.055695 0.773132 0.272888
0.058380 0.772705 0.272797
0.123047 0.777283 0.278748
0.201843 0.787537 0.291504
0.256256 0.797729 0.301880
0.359283 0.814789 0.310211
0.517181 0.812256 0.256500
0.666168 0.817230 0.227905
0.734741 0.814270 0.238892
0.781006 0.818634 0.245575
0.817566 0.823059 0.249451
0.836731 0.824921 0.254211
0.842865 0.825470 0.255707
0.848938 0.826263 0.258026
0.854736 0.827332 0.260834
0.860657 0.828430 0.263824
0.866699 0.829712 0.267181
0.872711 0.831085 0.270630
0.878662 0.832458 0.274048
0.884613 0.833527 0.277344
0.027435 0.814484 0.292297
0.030151 0.814636 0.292267
0.032867 0.814789 0.292358
0.035583 0.814941 0.292450
0.038300 0.815002 0.292633
0.040985 0.815125 0.292694
0.043701 0.815247 0.292877
0.046417 0.815308 0.293060
0.049133 0.815430 0.293121
0.051819 0.815521 0.293304
0.054535 0.815643 0.293396
0.057281 0.815704 0.293457
0.059967 0.815735 0.293640
0.062653 0.815735 0.293793
0.099152 0.818115 0.296997
0.186646 0.829193 0.310577
0.249969 0.842072 0.323547
0.309143 0.855286 0.331787
0.479462 0.857239 0.312775
0.657776 0.861206 0.250275
0.731567 0.859894 0.256775
0.778778 0.866394 0.278900
0.814728 0.870819 0.290344
0.841980 0.874237 0.298431
0.850555 0.875092 0.300690
0.856384 0.876099 0.302917
0.862305 0.877197 0.305939
0.868317 0.878479 0.309143
0.874329 0.879791 0.312469
0.880341 0.881287 0.316284
0.886505 0.882629 0.319672
0.892578 0.883881 0.323090
0.029236 0.831055 0.300598
0.031982 0.831207 0.300690
0.034729 0.831360 0.300781
0.037415 0.831512 0.300720
0.040161 0.831635 0.300812
0.042877 0.831757 0.300873
0.045593 0.831909 0.301056
0.048309 0.832031 0.301270
0.050995 0.832153 0.301453
0.053741 0.832306 0.301544
0.056458 0.832428 0.301758
0.059174 0.832611 0.301971
0.061890 0.832764 0.302063
0.064636 0.832916 0.302277
0.084717 0.834320 0.304077
0.163818 0.843475 0.315521
0.240173 0.858459 0.330383
0.294830 0.872253 0.340912
0.436462 0.880768 0.340820
0.644806 0.880829 0.266724
0.726074 0.882385 0.267944
0.774353 0.888550 0.287048
0.811554 0.895447 0.306580
0.840637 0.899536 0.315643
0.855133 0.901276 0.319977
0.861328 0.902374 0.322845
0.867218 0.903412 0.325714
0.873199 0.904510 0.328674
0.879059 0.905731 0.331940
0.884857 0.907288 0.335999
0.890900 0.908813 0.340179
0.896851 0.910278 0.344269
0.030121 0.838257 0.304169
0.032867 0.838409 0.304230
0.035614 0.838593 0.304352
0.038361 0.838715 0.304565
0.041077 0.838837 0.304596
0.043793 0.839020 0.304596
0.046509 0.839111 0.304657
0.049225 0.839264 0.304840
0.051941 0.839386 0.305023
0.054688 0.839539 0.305237
0.057373 0.839691 0.305298
0.060089 0.839844 0.305511
0.062866 0.840027 0.305786
0.065552 0.840179 0.305878
0.068298 0.840363 0.306091
0.138123 0.847168 0.314789
0.230255 0.863739 0.331818
0.288116 0.878296 0.343811
0.401733 0.892273 0.352905
0.622009 0.888306 0.277740
0.720093 0.890717 0.270142
0.768982 0.896667 0.288910
0.807129 0.904236 0.310455
0.836365 0.909088 0.321472
0.855865 0.911621 0.327271
0.863159 0.912842 0.330750
0.869202 0.913940 0.333710
0.875153 0.915009 0.336700
0.881012 0.916321 0.340271
0.886719 0.917725 0.344086
0.892609 0.919067 0.348389
0.898407 0.920685 0.352936
0.031006 0.845459 0.307739
0.033752 0.845581 0.307800
0.036530 0.845764 0.307892
0.039246 0.845886 0.307953
0.041992 0.846039 0.308167
0.044739 0.846191 0.308258
0.047424 0.846344 0.308319
0.050171 0.846466 0.308411
0.052917 0.846588 0.308624
0.055603 0.846741 0.308807
0.058350 0.846893 0.308899
0.061066 0.847046 0.309113
0.063782 0.847198 0.309326
0.066498 0.847412 0.309570
0.069244 0.847565 0.309784
0.124786 0.853027 0.316376
0.222351 0.869507 0.333984
0.283295 0.884491 0.346588
0.377502 0.899750 0.356903
0.610168 0.895447 0.285461
0.715698 0.897949 0.272736
0.765747 0.903687 0.291565
0.804169 0.911255 0.312653
0.833710 0.916595 0.326050
0.855988 0.919678 0.332977
0.864532 0.921021 0.336914
0.870514 0.922089 0.340149
0.876526 0.923126 0.343414
0.882263 0.924438 0.347198
0.887817 0.925842 0.351257
0.893494 0.927216 0.355255
0.899292 0.928619 0.359589
0.031921 0.852722 0.311340
0.034637 0.852844 0.311401
0.037384 0.853027 0.311493
0.040161 0.853149 0.311707
0.042877 0.853271 0.311768
0.045624 0.853455 0.311859
0.048370 0.853607 0.312073
0.051086 0.853729 0.312134
0.053802 0.853882 0.312347
0.056549 0.854034 0.312408
0.059296 0.854187 0.312622
0.062042 0.854309 0.312836
0.064758 0.854523 0.313080
0.067474 0.854675 0.313293
0.070221 0.854858 0.313385
0.122314 0.860077 0.319702
0.216614 0.875854 0.336487
0.281372 0.891449 0.350311
0.364716 0.905945 0.360260
0.603210 0.902985 0.293518
0.713257 0.905487 0.276703
0.763977 0.911194 0.295715
0.802521 0.918640 0.316162
0.832458 0.924347 0.331238
0.855743 0.927673 0.338684
0.865875 0.929443 0.344025
0.871887 0.930511 0.347351
0.877930 0.931549 0.350525
0.883606 0.932831 0.354523
0.889313 0.934174 0.358704
0.894775 0.935608 0.362823
0.900299 0.936981 0.366852
0.032806 0.859894 0.315033
0.035583 0.860046 0.315094
0.038330 0.860168 0.315308
0.041046 0.860352 0.315399
0.043793 0.860535 0.315491
0.046539 0.860687 0.315582
0.049286 0.860809 0.315643
0.052032 0.860962 0.315857
0.054749 0.861115 0.315918
0.057495 0.861298 0.316162
0.060211 0.861389 0.316345
0.062958 0.861603 0.316589
0.065674 0.861786 0.316803
0.068420 0.861938 0.317017
0.071136 0.862152 0.317230
0.120911 0.867249 0.323395
0.212982 0.882812 0.339661
0.278412 0.898071 0.353485
0.364807 0.912628 0.364807
0.599731 0.910919 0.301697
0.712891 0.913544 0.282440
0.763824 0.918762 0.300812
0.802277 0.926392 0.320801
0.832520 0.932037 0.336273
0.855927 0.935791 0.344727
0.867523 0.937927 0.350952
0.873505 0.939056 0.354614
0.879395 0.940125 0.358093
0.885010 0.941467 0.362366
0.890656 0.942780 0.366547
0.896271 0.944122 0.370850
0.901489 0.945618 0.375092
0.033752 0.867371 0.318909
0.036469 0.867554 0.319000
0.039246 0.867706 0.319214
0.041962 0.867920 0.319305
0.044708 0.868042 0.319397
0.047455 0.868195 0.319458
0.050201 0.868347 0.319672
0.052948 0.868530 0.319763
0.055664 0.868683 0.319977
0.058441 0.868835 0.320038
0.061157 0.868988 0.320251
0.063934 0.869202 0.320526
0.066681 0.869354 0.320709
0.069366 0.869537 0.320923
0.072113 0.869781 0.321198
0.120361 0.874817 0.327148
0.211151 0.890137 0.343262
