滤镜资源/Professional Luts Collection/Triune-Digital-Cinematic-LUTs/3D LUTs (CUBE)/ALEXA/Alien - Alexa.cube
#Created by Benjamin (IWLTBAP) : http://luts.iwltbap.com
#Copyright: (C) Copyright 2016 Triune Films and IWLTBAP
TITLE "Blockbuster LUTs Pack (Alexa Log-C)"
#LUT size
LUT_3D_SIZE 5
#LUT data points
DOMAIN_MIN 0.000000 0.000000 0.000000
DOMAIN_MAX 0.903226 0.903226 0.903226
0.001434 0.002991 0.012695
0.078888 0.008362 0.019623
0.355927 0.057434 0.096436
0.685211 0.115112 0.194763
0.731659 0.121490 0.211029
0.001526 0.102509 0.036194
0.070679 0.103363 0.034882
0.361481 0.113525 0.082489
0.689148 0.138062 0.189117
0.734131 0.145020 0.206055
0.002197 0.420959 0.135895
0.017426 0.421936 0.135895
0.358704 0.448547 0.108795
0.789276 0.429626 0.123871
0.817596 0.432770 0.149902
0.027435 0.814484 0.292297
0.046417 0.815308 0.293060
0.099152 0.818115 0.296997
0.778778 0.866394 0.278900
0.874329 0.879791 0.312469
0.034668 0.875000 0.322906
0.053894 0.876221 0.323730
0.073120 0.877472 0.325195
0.766418 0.935120 0.313049
0.888153 0.958160 0.376862
0.002045 0.006805 0.088989
0.075226 0.012421 0.099274
0.358185 0.058502 0.161835
0.690002 0.117767 0.250244
0.733978 0.124237 0.264008
0.001465 0.095306 0.104095
0.064026 0.096924 0.110992
0.360352 0.114319 0.160919
0.695770 0.142090 0.249023
0.736938 0.147736 0.261627
0.002228 0.418976 0.160156
0.017456 0.420349 0.160095
0.358429 0.446777 0.129608
0.789215 0.427826 0.152222
0.817047 0.432709 0.192230
0.028442 0.815796 0.321838
0.047516 0.816864 0.321716
0.099487 0.819641 0.324768
0.779633 0.868134 0.309784
0.878052 0.881439 0.343506
0.035767 0.877045 0.352814
0.055084 0.878510 0.353333
0.074341 0.879913 0.354340
0.767090 0.938843 0.347076
0.890656 0.961060 0.410187
0.001984 0.034882 0.307892
0.033813 0.035339 0.320862
0.334045 0.058167 0.356720
0.695496 0.122314 0.432129
0.736359 0.128021 0.448914
0.001923 0.059204 0.310822
0.018982 0.059052 0.314667
0.334076 0.080048 0.360107
0.701996 0.148010 0.439209
0.741547 0.151703 0.453888
0.004059 0.417023 0.427338
0.019318 0.417328 0.428528
0.305634 0.443787 0.487518
0.781158 0.462921 0.530182
0.820312 0.468628 0.546326
0.036041 0.821686 0.585388
0.055359 0.822998 0.586639
0.095184 0.824493 0.590271
0.783081 0.877472 0.611328
0.885956 0.896637 0.640198
0.045319 0.902130 0.605469
0.064667 0.903900 0.606812
0.083954 0.906006 0.610046
0.769073 0.964447 0.640381
0.900269 0.985077 0.690277
0.004456 0.074829 0.613312
0.020172 0.073730 0.617554
0.306488 0.082184 0.743866
0.708313 0.137573 0.727631
0.753510 0.140961 0.739502
0.003906 0.102417 0.614349
0.019836 0.100189 0.618561
0.305237 0.105621 0.746979
0.711700 0.161560 0.731995
0.757172 0.165100 0.745789
0.005280 0.322693 0.682861
0.021912 0.322571 0.684998
0.269623 0.305450 0.771515
0.734467 0.298798 0.768616
0.785675 0.285126 0.791443
0.049225 0.813904 0.866943
0.068268 0.815002 0.868408
0.087006 0.814056 0.869720
0.754944 0.865692 0.931183
0.901154 0.871338 0.934631
0.067444 0.945038 0.911102
0.086334 0.946075 0.912384
0.106354 0.947327 0.914246
0.675720 0.990845 0.944824
0.914856 0.989410 0.943054
0.004639 0.093903 0.697418
0.020386 0.093170 0.700623
0.300568 0.094086 0.814453
0.712524 0.144592 0.821411
0.762115 0.148743 0.832001
0.004608 0.122314 0.701294
0.020233 0.120819 0.703796
0.298401 0.117706 0.817810
0.715210 0.168182 0.827087
0.765076 0.172791 0.838104
0.005005 0.225464 0.734772
0.020905 0.223816 0.738464
0.245087 0.203979 0.822632
0.719574 0.234100 0.846710
0.775848 0.235657 0.859131
0.057373 0.809998 0.962372
0.076324 0.810822 0.963715
0.094971 0.809479 0.964874
0.752380 0.864502 0.991119
0.893860 0.856262 0.987885
0.111023 0.957764 0.987671
0.132904 0.959229 0.987701
0.155487 0.960907 0.988007
0.744537 0.988922 0.990173
0.908142 0.987976 0.989899
