滤镜资源/Professional Luts Collection/Triune-Digital-Cinematic-LUTs/3D LUTs (CUBE)/ALEXA/Alien - Alexa.cube
#Created by Benjamin (IWLTBAP) : http://luts.iwltbap.com
#Copyright: (C) Copyright 2016 Triune Films and IWLTBAP
TITLE "Blockbuster LUTs Pack (Alexa Log-C)"
#LUT size
LUT_3D_SIZE 8
#LUT data points
DOMAIN_MIN 0.000000 0.000000 0.000000
DOMAIN_MAX 0.903226 0.903226 0.903226
0.001434 0.002991 0.012695
0.036743 0.004944 0.015289
0.100586 0.012085 0.024628
0.255737 0.038757 0.067444
0.474243 0.079681 0.131561
0.673309 0.113525 0.189758
0.703644 0.118256 0.203369
0.731659 0.121490 0.211029
0.001953 0.049896 0.023468
0.031281 0.050079 0.022430
0.101624 0.049316 0.025513
0.257812 0.061951 0.065674
0.473907 0.091064 0.129120
0.675201 0.126984 0.188171
0.705444 0.131989 0.202087
0.733215 0.134613 0.209320
0.001465 0.126770 0.042358
0.010193 0.127014 0.042664
0.090912 0.128082 0.040985
0.267059 0.123779 0.057434
0.485107 0.144318 0.108124
0.681702 0.151306 0.169037
0.710297 0.148438 0.192017
0.735229 0.149414 0.199493
0.001190 0.302795 0.094208
0.009888 0.303314 0.094238
0.018585 0.303558 0.094208
0.251984 0.320496 0.084351
0.525299 0.313263 0.090576
0.749878 0.307617 0.113251
0.778748 0.307617 0.131287
0.797119 0.312866 0.141937
0.006287 0.538849 0.178009
0.017517 0.539276 0.177429
0.028625 0.539551 0.177002
0.103119 0.544586 0.177277
0.493774 0.577576 0.131287
0.774414 0.561523 0.113159
0.820007 0.563507 0.143829
0.837067 0.568787 0.160522
0.023407 0.772949 0.272064
0.034180 0.773407 0.272522
0.044952 0.773743 0.272827
0.055695 0.773132 0.272888
0.256256 0.797729 0.301880
0.734741 0.814270 0.238892
0.842865 0.825470 0.255707
0.866699 0.829712 0.267181
0.031006 0.845459 0.307739
0.041992 0.846039 0.308167
0.052917 0.846588 0.308624
0.063782 0.847198 0.309326
0.222351 0.869507 0.333984
0.715698 0.897949 0.272736
0.855988 0.919678 0.332977
0.882263 0.924438 0.347198
0.034668 0.875000 0.322906
0.045685 0.875763 0.323395
0.056641 0.876434 0.323853
0.067657 0.877106 0.324738
0.210510 0.897827 0.346985
0.714905 0.930023 0.295319
0.858185 0.952057 0.357452
0.888153 0.958160 0.376862
0.001709 0.004272 0.047729
0.035095 0.006348 0.052826
0.100739 0.011047 0.058624
0.256622 0.038788 0.099823
0.479706 0.081238 0.162781
0.676025 0.114594 0.216278
0.705444 0.119354 0.228302
0.732605 0.122742 0.235504
0.001984 0.044952 0.054871
0.029388 0.044983 0.057983
0.100586 0.044495 0.058807
0.257172 0.057129 0.099091
0.479034 0.092438 0.160980
0.677917 0.127991 0.215393
0.707275 0.133087 0.227417
0.734222 0.135895 0.234344
0.001465 0.124817 0.065460
0.010193 0.125061 0.066193
0.089813 0.126251 0.066803
0.267731 0.124481 0.086823
0.487244 0.152466 0.151093
0.682556 0.158142 0.208038
0.711945 0.153473 0.223938
0.736359 0.152893 0.229828
0.001160 0.302277 0.106934
0.009888 0.302734 0.107117
0.018585 0.302948 0.106995
0.251984 0.319977 0.096252
0.526917 0.311798 0.103180
0.751251 0.307373 0.129883
0.779266 0.307770 0.155334
0.797516 0.312744 0.168579
0.006348 0.539154 0.192963
0.017578 0.539551 0.192261
0.028839 0.539825 0.191589
0.102966 0.544922 0.191223
0.494019 0.578613 0.144073
0.774445 0.561890 0.126465
0.820038 0.564941 0.158325
0.836212 0.567108 0.178375
0.023834 0.773376 0.288147
0.034637 0.773865 0.288483
0.045380 0.774139 0.288849
0.056122 0.773682 0.288696
0.256866 0.798706 0.317719
0.735107 0.815308 0.255707
0.844940 0.826630 0.274597
0.869141 0.831268 0.286102
0.031677 0.846466 0.324554
0.042633 0.847137 0.324982
0.053558 0.847717 0.325287
0.064484 0.848419 0.325623
0.222961 0.871124 0.350067
0.714172 0.900543 0.292877
0.857880 0.921326 0.351379
0.883942 0.926270 0.366821
0.035339 0.876190 0.339691
0.046356 0.876953 0.340179
0.057312 0.877625 0.340576
0.068329 0.878357 0.341187
0.211029 0.899475 0.363281
0.713745 0.932495 0.315582
0.859558 0.953705 0.376099
0.889801 0.959839 0.395660
0.002106 0.008362 0.107239
0.029846 0.010254 0.115540
0.095764 0.015442 0.120453
0.258118 0.034241 0.144562
0.482819 0.083008 0.210602
0.679535 0.117340 0.260864
0.708252 0.121826 0.270966
0.734589 0.125305 0.278198
0.001923 0.027100 0.111267
0.023682 0.027496 0.114685
0.093445 0.029602 0.120911
0.257751 0.046417 0.144836
0.482788 0.094452 0.209869
0.682648 0.131165 0.260956
0.710754 0.135834 0.270874
0.736664 0.138428 0.277649
0.001465 0.119354 0.127838
0.010193 0.119537 0.128601
0.080444 0.123413 0.137360
0.265961 0.128845 0.154358
0.487854 0.150818 0.209198
0.688660 0.153290 0.259979
0.714630 0.149689 0.269257
0.738434 0.151764 0.275269
0.000916 0.302399 0.166656
0.009674 0.302704 0.167358
0.018372 0.302704 0.168274
0.249054 0.317902 0.161621
0.537231 0.311615 0.170258
0.753906 0.309296 0.215515
0.779388 0.310974 0.235077
0.796844 0.316528 0.247498
0.006012 0.537689 0.207642
0.017273 0.538177 0.207031
0.028503 0.538483 0.206268
0.101532 0.543396 0.205017
0.493805 0.578461 0.156738
0.773407 0.560425 0.140564
0.819885 0.563232 0.174377
0.834930 0.562927 0.197144
0.024200 0.772491 0.304779
0.034973 0.773102 0.304626
0.045715 0.773407 0.304810
0.056458 0.772888 0.304596
0.256989 0.798615 0.333069
0.734558 0.815063 0.271881
0.846802 0.826508 0.292511
0.871063 0.831177 0.304321
0.032227 0.847473 0.341858
0.043243 0.848145 0.342163
0.054169 0.848785 0.342407
0.065125 0.849548 0.342529
0.222961 0.872650 0.366150
0.712402 0.903046 0.312988
0.859558 0.923157 0.370148
0.885284 0.928131 0.385864
0.035889 0.877319 0.357239
0.046967 0.878326 0.357269
0.057953 0.879059 0.357697
0.068970 0.879791 0.358276
0.210846 0.901062 0.379852
0.713165 0.934479 0.335907
0.860657 0.955353 0.394836
0.890900 0.961487 0.415131
0.001831 0.020966 0.227325
0.010559 0.021484 0.230194
0.074829 0.030609 0.264252
0.232758 0.040222 0.265350
0.475739 0.076874 0.299286
0.681793 0.125061 0.364410
0.711426 0.129608 0.375549
0.736206 0.133667 0.384857
0.001801 0.033630 0.229584
0.010681 0.034180 0.231445
0.071869 0.043335 0.264252
0.232941 0.052765 0.267639
0.476685 0.089355 0.300751
0.684753 0.140503 0.367523
0.715149 0.144653 0.378632
0.739166 0.147156 0.386780
0.001709 0.056671 0.233429
0.010681 0.056305 0.234863
0.059570 0.059479 0.256775
0.229309 0.065369 0.269775
0.474335 0.102020 0.300659
0.688995 0.154388 0.368225
0.719116 0.158478 0.379578
0.742157 0.160156 0.386749
0.000000 0.297424 0.305725
0.008698 0.297516 0.306488
0.017426 0.297363 0.307281
0.190216 0.314148 0.345001
0.519196 0.325226 0.352173
0.743164 0.352356 0.411591
0.770782 0.353302 0.425964
0.791199 0.355896 0.434235
0.009796 0.540710 0.385712
0.020813 0.541077 0.386200
0.031525 0.541199 0.386627
0.095276 0.544708 0.392609
0.477966 0.572540 0.391632
0.764862 0.553955 0.394653
0.816864 0.565582 0.434204
0.838440 0.570709 0.447968
0.027771 0.772278 0.445831
0.038635 0.772797 0.446136
0.049500 0.773193 0.446625
0.060364 0.772827 0.448151
0.261475 0.804962 0.475403
0.734650 0.822540 0.437286
0.858063 0.838287 0.473846
0.879791 0.843201 0.484192
0.034302 0.851349 0.410370
0.045319 0.852356 0.410461
0.056335 0.853149 0.410614
0.067383 0.854095 0.411713
0.222260 0.879608 0.435120
0.712006 0.913055 0.411713
0.864258 0.933319 0.477570
0.889130 0.939270 0.496002
0.037781 0.881378 0.421783
0.048828 0.882416 0.421967
0.059906 0.883453 0.422119
0.070984 0.884735 0.423035
0.208832 0.906738 0.441010
0.710999 0.942596 0.416351
0.862152 0.961578 0.470673
0.893799 0.968292 0.492126
0.002869 0.045135 0.395660
0.011688 0.044495 0.398560
0.036072 0.042358 0.410339
0.210938 0.050354 0.489716
0.444061 0.076813 0.449158
0.681580 0.109924 0.499695
0.718475 0.113892 0.516937
0.745056 0.116486 0.527924
0.002838 0.059570 0.397156
0.011841 0.058258 0.399597
0.031891 0.056122 0.407684
0.210938 0.062714 0.493225
0.445129 0.089355 0.451935
0.684174 0.124298 0.501770
0.720612 0.128937 0.519196
0.748169 0.130829 0.530304
0.002777 0.074615 0.398193
0.011780 0.072845 0.400757
0.021240 0.071289 0.403687
0.206268 0.074921 0.495819
0.444244 0.102142 0.454803
0.685822 0.139343 0.503265
0.723633 0.143524 0.520844
0.750610 0.145996 0.532074
0.000000 0.256226 0.458252
0.008698 0.256073 0.459503
0.017426 0.255310 0.460785
0.181122 0.237061 0.505920
0.467224 0.255432 0.501495
0.728699 0.267517 0.542236
0.764526 0.253632 0.552185
0.785217 0.249756 0.558319
0.013916 0.529633 0.559814
0.024567 0.529999 0.560486
0.035095 0.530243 0.561157
0.066589 0.530579 0.563904
0.419678 0.568970 0.636200
0.766327 0.564270 0.626740
0.828369 0.576935 0.654968
0.849243 0.583771 0.666046
0.034027 0.774292 0.663025
0.045074 0.775085 0.663635
0.056061 0.775726 0.664307
0.066925 0.775391 0.664825
0.266357 0.809082 0.704041
0.725739 0.824280 0.688782
0.862854 0.841187 0.711945
0.886078 0.845093 0.721283
0.047882 0.886963 0.703796
0.059052 0.887909 0.704529
0.070007 0.888947 0.705383
0.081055 0.890137 0.706604
0.229980 0.910889 0.727600
0.684875 0.949585 0.747131
0.869232 0.959259 0.767242
0.899597 0.965576 0.777313
0.052277 0.918640 0.715332
0.063324 0.919525 0.716003
0.074310 0.920471 0.716766
0.085358 0.921509 0.718079
0.212524 0.936615 0.733124
0.666656 0.982483 0.767700
0.869446 0.985596 0.779510
0.905487 0.986450 0.796448
0.004425 0.068298 0.578522
0.013275 0.066986 0.580994
0.022186 0.066010 0.583557
0.190582 0.066956 0.657410
0.432220 0.090698 0.676025
0.685272 0.132629 0.686066
0.724670 0.135834 0.695740
0.751312 0.137268 0.705719
0.004120 0.084045 0.579620
0.013153 0.082336 0.581879
0.022095 0.081512 0.584442
0.189148 0.079620 0.659332
0.432373 0.103851 0.679260
0.687073 0.146271 0.688477
0.726501 0.149567 0.698151
0.753479 0.150970 0.708649
0.003815 0.100037 0.580048
0.012909 0.098297 0.582794
0.022064 0.097198 0.585052
0.183105 0.092163 0.658630
0.430237 0.117188 0.683014
0.687592 0.159973 0.690338
0.728607 0.163422 0.700623
0.755676 0.164734 0.711670
0.003601 0.116180 0.577820
0.012695 0.114258 0.580750
0.021790 0.112823 0.583466
0.144958 0.102325 0.641510
0.412750 0.128754 0.688629
0.677673 0.172150 0.686798
0.730652 0.177094 0.699921
0.757996 0.178223 0.711914
0.016418 0.499084 0.731873
0.027100 0.499512 0.732605
0.037781 0.499786 0.733337
0.048340 0.498444 0.733765
0.407806 0.519714 0.814148
0.733673 0.506958 0.790222
0.817474 0.507568 0.813782
0.841827 0.511597 0.819122
0.040985 0.765106 0.821594
0.052002 0.766083 0.822449
0.062897 0.766785 0.823212
0.073578 0.766510 0.823944
0.262604 0.793793 0.860413
0.704742 0.819550 0.890320
0.874512 0.819946 0.885742
0.895050 0.823944 0.894531
0.060547 0.911041 0.871490
0.071442 0.911621 0.872192
0.082336 0.912262 0.872986
0.093231 0.912811 0.873993
0.217804 0.925232 0.889435
0.526550 0.973969 0.930847
0.866516 0.970154 0.924957
0.909027 0.974365 0.925781
0.064972 0.941040 0.882050
0.075806 0.941650 0.882660
0.086639 0.942322 0.883392
0.097595 0.943024 0.884521
0.181610 0.950592 0.892670
0.591675 0.990234 0.929779
0.864838 0.988220 0.926636
0.914062 0.988953 0.928223
0.004547 0.088226 0.674164
0.013519 0.087799 0.676117
0.022552 0.087463 0.678101
0.175781 0.075592 0.741943
0.433197 0.104095 0.830719
0.686279 0.140442 0.790802
0.733337 0.143921 0.798767
0.759735 0.146057 0.805267
0.004333 0.104462 0.674957
0.013428 0.103333 0.676941
0.022400 0.102905 0.678955
0.174103 0.088776 0.743469
0.433655 0.117523 0.834198
0.687286 0.153992 0.793396
0.734894 0.157776 0.801849
0.761597 0.159851 0.809113
0.004303 0.120789 0.677185
0.013367 0.119659 0.679108
0.022461 0.118713 0.680634
0.167450 0.101898 0.743286
0.431763 0.130707 0.838379
0.686829 0.167389 0.795959
0.736633 0.171570 0.805115
0.763550 0.173676 0.813049
0.004456 0.137329 0.680389
0.013428 0.136139 0.682068
0.022522 0.135223 0.683441
0.125397 0.122589 0.722900
0.414124 0.142578 0.844818
0.676056 0.179962 0.797089
0.738556 0.185272 0.807404
0.765625 0.187592 0.816650
0.017639 0.468231 0.817444
0.028351 0.468994 0.817902
0.039001 0.469330 0.818298
0.049500 0.467773 0.818298
0.374359 0.506104 0.929230
0.719543 0.469299 0.915955
0.809448 0.469391 0.916077
0.836609 0.474243 0.926331
0.047150 0.758667 0.910889
0.057983 0.759338 0.911682
0.068817 0.759918 0.912659
0.079529 0.759369 0.913391
0.259796 0.780670 0.948242
0.702423 0.811646 0.972656
0.864624 0.802216 0.969482
0.889221 0.807312 0.970551
0.066742 0.907227 0.954712
0.077454 0.907593 0.955475
0.088196 0.907990 0.956207
0.099426 0.907562 0.956970
0.203766 0.914368 0.968231
0.637085 0.965332 0.974396
0.850616 0.962128 0.971313
0.912476 0.966461 0.970428
0.078491 0.952881 0.968048
0.090240 0.953522 0.968811
0.102478 0.954132 0.969696
0.115326 0.954956 0.970398
0.208862 0.963409 0.971100
0.651581 0.990692 0.973602
0.843628 0.990448 0.973358
0.912201 0.989563 0.972290
0.004639 0.093903 0.697418
0.013641 0.093475 0.699219
0.022614 0.093048 0.701080
0.171753 0.077850 0.761810
0.433167 0.107422 0.865570
0.686523 0.142212 0.819366
0.734741 0.146454 0.825531
0.762115 0.148743 0.832001
0.004578 0.110229 0.699219
0.013489 0.109314 0.700714
0.022430 0.108887 0.702576
0.169739 0.091125 0.763855
0.433716 0.120819 0.870422
0.687805 0.155670 0.822632
0.736572 0.160126 0.829102
0.763885 0.162415 0.835480
0.004639 0.126465 0.702484
0.013519 0.125610 0.703888
0.022491 0.124817 0.705170
0.163239 0.105988 0.764130
0.431732 0.134003 0.875122
0.687500 0.169098 0.825653
0.738464 0.173706 0.832489
0.765625 0.176239 0.839172
0.004852 0.142761 0.706879
0.013672 0.142059 0.708221
0.022644 0.141235 0.709503
0.116547 0.134857 0.738800
0.412933 0.145721 0.879272
0.677063 0.181671 0.828339
0.740479 0.187469 0.836060
0.767578 0.190247 0.843079
0.017975 0.459473 0.839874
0.028656 0.460083 0.840424
0.039307 0.460449 0.840881
0.049835 0.458893 0.840698
0.367737 0.497101 0.952911
0.716553 0.461670 0.951874
0.808319 0.462585 0.941986
0.833191 0.466003 0.944305
0.050415 0.758820 0.945648
0.061218 0.759583 0.946503
0.072021 0.759918 0.947266
0.082703 0.759430 0.947784
0.260559 0.778595 0.980896
0.699463 0.810486 0.990784
0.859558 0.797577 0.986816
0.885376 0.801270 0.986725
0.082764 0.907074 0.987335
0.094849 0.907562 0.987366
0.106903 0.908020 0.987396
0.119141 0.907776 0.987488
0.213776 0.913666 0.988403
0.663483 0.962433 0.991028
0.847839 0.965240 0.990021
0.906555 0.964935 0.988953
0.111023 0.957764 0.987671
0.123627 0.958618 0.987671
0.136108 0.959442 0.987732
0.148926 0.960480 0.987854
0.239990 0.969086 0.988403
0.687164 0.989044 0.990143
0.850250 0.988647 0.990631
0.908142 0.987976 0.989899
