滤镜资源/Professional Luts Collection/Triune-Digital-Cinematic-LUTs/3D LUTs (CUBE)/ALEXA/Batman vs Superman - Alexa.cube
#Created by Benjamin (IWLTBAP) : http://luts.iwltbap.com
#Copyright: (C) Copyright 2016 Triune Films and IWLTBAP
TITLE "Blockbuster LUTs Pack (Alexa Log-C)"
#LUT size
LUT_3D_SIZE 8
#LUT data points
DOMAIN_MIN 0.000000 0.000000 0.000000
DOMAIN_MAX 0.903226 0.903226 0.903226
0.005524 0.009979 0.012573
0.067993 0.016693 0.013123
0.164032 0.030731 0.015259
0.352234 0.058319 0.016846
0.579987 0.092621 0.050842
0.753632 0.115173 0.070801
0.776031 0.118286 0.079742
0.792999 0.120636 0.082703
0.012482 0.061188 0.023438
0.042755 0.061340 0.023743
0.150726 0.079132 0.017761
0.356049 0.087646 0.010742
0.582977 0.109894 0.048218
0.756866 0.132172 0.068604
0.779266 0.135040 0.077850
0.796417 0.137390 0.080688
0.021423 0.138214 0.034729
0.030792 0.138550 0.034668
0.109192 0.138550 0.035522
0.330902 0.177582 0.020020
0.600098 0.199280 0.023590
0.765198 0.178192 0.059906
0.784851 0.162659 0.070984
0.801666 0.162872 0.074951
0.031525 0.271088 0.051727
0.041473 0.272675 0.049988
0.051697 0.273834 0.047424
0.265137 0.281647 0.038757
0.558197 0.332001 0.036804
0.769470 0.376770 0.032318
0.792480 0.378815 0.031891
0.807434 0.383179 0.031860
0.048431 0.424835 0.064697
0.059692 0.425415 0.064392
0.071167 0.426361 0.064056
0.161957 0.433228 0.074890
0.491547 0.472900 0.048584
0.725525 0.510498 0.048981
0.775757 0.521667 0.049896
0.792999 0.528748 0.051117
0.067535 0.567627 0.087280
0.079651 0.568970 0.086365
0.091309 0.570190 0.086639
0.103668 0.571075 0.088562
0.446686 0.642975 0.065094
0.689606 0.672882 0.061890
0.779663 0.675293 0.063385
0.794769 0.677216 0.064056
0.072418 0.610626 0.096039
0.086426 0.612732 0.095154
0.098541 0.613983 0.095490
0.111237 0.615723 0.096924
0.340210 0.670868 0.081818
0.675476 0.731201 0.068726
0.780334 0.733612 0.067322
0.797150 0.734558 0.068298
0.074463 0.626892 0.098938
0.088623 0.628998 0.098206
0.102966 0.630188 0.098694
0.115906 0.632080 0.099884
0.314331 0.682556 0.084839
0.669708 0.746368 0.070587
0.777008 0.755524 0.071106
0.798309 0.753448 0.070190
0.011230 0.023224 0.056305
0.050720 0.025818 0.058502
0.156097 0.033386 0.063385
0.350128 0.056335 0.060211
0.581055 0.090790 0.083252
0.754181 0.113525 0.098694
0.777649 0.116852 0.105774
0.795227 0.119415 0.108429
0.010864 0.055725 0.054596
0.045654 0.066803 0.063721
0.158264 0.075775 0.062561
0.358429 0.082214 0.056519
0.585358 0.107483 0.083069
0.757843 0.130066 0.097595
0.780670 0.133118 0.104706
0.797760 0.135193 0.107025
0.020050 0.135223 0.056854
0.031158 0.141449 0.060577
0.114166 0.146576 0.065887
0.361206 0.184509 0.044128
0.611023 0.197388 0.069153
0.765533 0.169006 0.092499
0.784729 0.156860 0.100250
0.801025 0.156311 0.103088
0.029785 0.270203 0.063568
0.041992 0.277466 0.065338
0.053101 0.279266 0.062592
0.272186 0.287750 0.050751
0.571594 0.339355 0.048859
0.778534 0.383484 0.044098
0.803009 0.387115 0.049622
0.817566 0.390747 0.051422
0.047119 0.425232 0.075165
0.061768 0.430878 0.077789
0.073395 0.431793 0.077423
0.166229 0.439514 0.089355
0.500000 0.481567 0.062286
0.732971 0.518585 0.061249
0.784058 0.531647 0.060974
0.800476 0.538849 0.061737
0.065002 0.568237 0.099609
0.081635 0.575256 0.102295
0.093384 0.576874 0.101746
0.105469 0.577728 0.103149
0.455170 0.651672 0.080750
0.697754 0.681671 0.076569
0.785370 0.683533 0.076843
0.800568 0.685944 0.077728
0.072510 0.610901 0.108368
0.089935 0.618988 0.110809
0.103302 0.620636 0.110626
0.116211 0.622314 0.111725
0.346191 0.679260 0.100098
0.682739 0.738892 0.083801
0.786530 0.741058 0.082947
0.802582 0.742218 0.084229
0.073486 0.627075 0.111176
0.091919 0.635681 0.113892
0.107208 0.637482 0.113983
0.121338 0.639404 0.115417
0.320190 0.691376 0.101837
0.678253 0.755157 0.085693
0.783813 0.763123 0.086914
0.803680 0.760895 0.086151
0.017731 0.040344 0.121979
0.049164 0.040894 0.121338
0.132599 0.047699 0.123566
0.337860 0.069000 0.119446
0.570190 0.099121 0.133881
0.749573 0.117218 0.145325
0.773254 0.120605 0.150482
0.790894 0.122894 0.152435
0.017548 0.056091 0.120911
0.043091 0.062286 0.126556
0.132141 0.065155 0.126801
0.348114 0.083435 0.119507
0.581512 0.112976 0.134186
0.758575 0.130951 0.144501
0.781494 0.134094 0.149170
0.799377 0.136200 0.151062
0.015808 0.128906 0.121124
0.026520 0.133636 0.125336
0.111053 0.158844 0.144592
0.376587 0.172882 0.118164
0.611572 0.181671 0.135834
0.768158 0.153198 0.141205
0.788147 0.147736 0.146240
0.805145 0.150208 0.148315
0.027557 0.271423 0.115906
0.038116 0.276794 0.119476
0.048737 0.280701 0.122406
0.293549 0.313080 0.117462
0.619598 0.364716 0.105591
0.803192 0.397675 0.102142
0.825195 0.396484 0.105560
0.839172 0.398254 0.107391
0.045837 0.425537 0.089142
0.060028 0.430389 0.089294
0.074860 0.435883 0.091888
0.168396 0.444061 0.103394
0.506531 0.488068 0.075470
0.740173 0.524872 0.072845
0.790802 0.539307 0.071136
0.806824 0.546234 0.071960
0.062866 0.568054 0.112183
0.078949 0.574982 0.114899
0.094513 0.582520 0.116943
0.107025 0.583282 0.117279
0.460632 0.658783 0.101288
0.704224 0.688354 0.090851
0.790314 0.690186 0.090637
0.805298 0.692444 0.092194
0.070953 0.611389 0.121094
0.087830 0.619324 0.123688
0.106201 0.627106 0.126099
0.119476 0.628876 0.126984
0.350189 0.686615 0.117157
0.688873 0.745850 0.098663
0.791748 0.747589 0.098083
0.807312 0.748779 0.099518
0.072266 0.627563 0.123993
0.089600 0.636108 0.126831
0.108398 0.643921 0.129669
0.124481 0.645813 0.130707
0.323059 0.698914 0.117981
0.685028 0.762299 0.100555
0.788879 0.769165 0.102386
0.808014 0.766907 0.101685
0.030334 0.069214 0.234711
0.039581 0.069458 0.235107
0.110901 0.072784 0.239990
0.307831 0.089905 0.239258
0.547058 0.123322 0.239716
0.738800 0.136230 0.248291
0.764099 0.137634 0.250610
0.783569 0.138367 0.251923
0.029907 0.080872 0.234711
0.041168 0.086273 0.240173
0.106445 0.089539 0.245728
0.312408 0.106018 0.243286
0.557892 0.138245 0.243103
0.749481 0.150360 0.250336
0.774811 0.151886 0.252899
0.792908 0.152130 0.253815
0.028900 0.099976 0.233673
0.040222 0.105072 0.239166
0.091766 0.111786 0.250916
0.311127 0.121368 0.246490
0.564575 0.152466 0.245239
0.757751 0.164185 0.250885
0.783936 0.165009 0.253601
0.800781 0.165009 0.254089
0.021484 0.263184 0.241821
0.032166 0.269653 0.247711
0.042542 0.274872 0.252625
0.270050 0.340118 0.300751
0.630310 0.367249 0.277283
0.820984 0.369507 0.273193
0.839844 0.360260 0.272644
0.853790 0.362152 0.274841
0.029572 0.437988 0.258270
0.040039 0.443634 0.262390
0.051605 0.448792 0.266144
0.122589 0.481171 0.286285
0.556030 0.567719 0.284149
0.813660 0.613892 0.280090
0.856537 0.624451 0.273163
0.871307 0.627869 0.271667
0.039459 0.564392 0.234711
0.050659 0.570190 0.238525
0.063171 0.581390 0.240356
0.080444 0.587524 0.243439
0.473480 0.705811 0.260498
0.743683 0.741272 0.260193
0.825348 0.744873 0.267181
0.841248 0.747498 0.270477
0.061188 0.613831 0.175812
0.076019 0.620880 0.176544
0.093323 0.628082 0.177399
0.112427 0.636078 0.179321
0.352844 0.713165 0.183655
0.712036 0.776459 0.196106
0.809662 0.776367 0.178986
0.826080 0.778290 0.182220
0.063873 0.629425 0.174408
0.079193 0.636810 0.175629
0.097504 0.644501 0.176514
0.116455 0.653107 0.178741
0.325256 0.722473 0.179382
0.704895 0.787048 0.178101
0.802460 0.789612 0.160187
0.820953 0.787018 0.159332
0.041046 0.105133 0.366608
0.050507 0.105225 0.366882
0.076965 0.106293 0.368988
0.292206 0.119598 0.377960
0.539978 0.138580 0.361298
0.709015 0.165314 0.369019
0.736847 0.167786 0.369751
0.757599 0.167969 0.369324
0.040680 0.117371 0.367432
0.052307 0.122467 0.372406
0.073883 0.123413 0.374146
0.294891 0.135986 0.383942
0.547394 0.155762 0.366699
0.717316 0.181091 0.374634
0.746735 0.183197 0.375824
0.766907 0.183228 0.376740
0.040131 0.129181 0.367310
0.051697 0.134460 0.372589
0.063751 0.139587 0.377869
0.292267 0.151672 0.389648
0.550293 0.171906 0.370972
0.725220 0.196350 0.378754
0.755280 0.198547 0.382233
0.774261 0.199005 0.384552
0.031403 0.253143 0.375793
0.043365 0.259186 0.381897
0.055756 0.264343 0.387451
0.230377 0.314819 0.447693
0.572174 0.327728 0.429291
0.772919 0.324646 0.429443
0.798920 0.307037 0.428070
0.815674 0.304596 0.429596
0.026581 0.421356 0.390350
0.037323 0.428558 0.396881
0.048462 0.435303 0.402832
0.083252 0.454254 0.420685
0.520660 0.601013 0.508942
0.829742 0.625641 0.480377
0.874939 0.628479 0.481812
0.888092 0.632385 0.486176
0.036346 0.604523 0.425385
0.049530 0.612366 0.432892
0.062500 0.619293 0.439697
0.075134 0.624695 0.445312
0.346405 0.719971 0.481995
0.769592 0.791779 0.478333
0.856903 0.799042 0.496429
0.872803 0.801788 0.493713
0.043396 0.662750 0.423096
0.055511 0.668121 0.427307
0.067078 0.672485 0.431610
0.078674 0.676697 0.435181
0.255981 0.748535 0.460114
0.737793 0.850830 0.492920
0.844147 0.853149 0.474854
0.862122 0.853516 0.479767
0.043945 0.675720 0.421143
0.055817 0.681000 0.425629
0.067322 0.685852 0.429657
0.078979 0.691040 0.433899
0.221832 0.753265 0.456451
0.727325 0.864563 0.496887
0.841675 0.871399 0.479065
0.862366 0.867371 0.473022
0.056641 0.138092 0.486450
0.066406 0.138031 0.486389
0.076172 0.138092 0.486420
0.244659 0.142609 0.505707
0.526825 0.163727 0.491150
0.715851 0.178406 0.507996
0.743652 0.181854 0.513672
0.760712 0.183838 0.516266
0.056519 0.149933 0.487427
0.069305 0.155457 0.492950
0.079193 0.155609 0.493073
0.246185 0.161682 0.510315
0.532349 0.181915 0.499634
0.722382 0.196472 0.518829
0.750153 0.199890 0.525085
0.767059 0.202545 0.528381
0.056244 0.161804 0.488251
0.069153 0.167328 0.493744
0.081635 0.172150 0.498566
0.241058 0.181274 0.513000
0.533569 0.200439 0.510406
0.726624 0.213562 0.528137
0.755585 0.216858 0.534149
0.772369 0.219818 0.537750
0.055573 0.173126 0.486664
0.068787 0.178680 0.492584
0.081421 0.183533 0.497467
0.189850 0.196167 0.515961
0.519318 0.217377 0.520233
0.723999 0.228760 0.533020
0.761047 0.233612 0.540771
0.777557 0.236755 0.544098
0.033417 0.419678 0.516449
0.045898 0.427734 0.524139
0.057922 0.434052 0.530334
0.069885 0.439606 0.536682
0.473846 0.570038 0.662964
0.766144 0.602234 0.669800
0.830536 0.608459 0.673737
0.850250 0.608307 0.675476
0.033264 0.575867 0.535980
0.044922 0.584351 0.543976
0.056152 0.591492 0.550720
0.067322 0.597809 0.557343
0.252441 0.686829 0.644958
0.743805 0.806061 0.682556
0.868317 0.811157 0.680237
0.884521 0.812195 0.681458
0.039429 0.671387 0.559570
0.052460 0.679077 0.565918
0.065216 0.685852 0.571686
0.076965 0.692230 0.577179
0.187531 0.744263 0.624023
0.719604 0.878296 0.676971
0.849854 0.887177 0.669525
0.874634 0.889557 0.678009
0.040588 0.690186 0.561859
0.053802 0.698120 0.568420
0.066559 0.704834 0.573975
0.077850 0.711151 0.579681
0.152344 0.747528 0.613251
0.711121 0.894775 0.675751
0.845734 0.905426 0.674896
0.872955 0.905914 0.672211
0.066223 0.155396 0.548523
0.076202 0.155670 0.548798
0.086060 0.155487 0.548401
0.217957 0.164032 0.563141
0.517792 0.182648 0.575470
0.709045 0.190277 0.581085
0.739258 0.188965 0.583008
0.758301 0.191376 0.589966
0.066376 0.167633 0.549652
0.079132 0.172760 0.554626
0.089142 0.173187 0.555023
0.214661 0.180908 0.570404
0.520721 0.200745 0.587036
0.714020 0.207825 0.592377
0.744995 0.206665 0.594238
0.764069 0.209290 0.602448
0.066376 0.179718 0.550842
0.079102 0.184998 0.555878
0.091766 0.189697 0.560303
0.208099 0.196930 0.575867
0.521790 0.218109 0.597565
0.716858 0.224457 0.604645
0.749634 0.223907 0.606384
0.768829 0.226654 0.614502
0.065735 0.191589 0.551422
0.078857 0.196777 0.556641
0.091766 0.201630 0.561340
0.181671 0.212280 0.576172
0.509399 0.233978 0.606567
0.713013 0.240631 0.615540
0.754547 0.240509 0.617676
0.773895 0.244019 0.624695
0.049255 0.414551 0.584686
0.061310 0.421844 0.591827
0.073517 0.428101 0.597992
0.085999 0.432953 0.604065
0.421753 0.536926 0.724243
0.754150 0.563690 0.740204
0.816284 0.562714 0.739563
0.833649 0.566010 0.741943
0.039246 0.580536 0.609802
0.051178 0.588440 0.617004
0.062744 0.595215 0.623230
0.074677 0.600952 0.628845
0.251740 0.676025 0.704193
0.745422 0.802094 0.766937
0.846619 0.806335 0.768768
0.863129 0.807800 0.769379
0.038788 0.659637 0.617493
0.051819 0.667023 0.623657
0.064575 0.673798 0.629333
0.076416 0.679596 0.634827
0.164215 0.716858 0.669098
0.692352 0.864807 0.762146
0.842316 0.890289 0.763123
0.881500 0.892578 0.763947
0.039185 0.688751 0.624054
0.049957 0.696167 0.630310
0.060577 0.702789 0.635773
0.071289 0.708771 0.640991
0.143951 0.739899 0.669434
0.671631 0.891144 0.765289
0.841522 0.918121 0.765228
0.877075 0.920227 0.763123
0.068268 0.159302 0.563293
0.078247 0.159637 0.563629
0.088104 0.159454 0.563263
0.209106 0.167419 0.577911
0.514557 0.186340 0.595917
0.705566 0.195374 0.601532
0.739471 0.193573 0.603699
0.755951 0.192993 0.605286
0.068420 0.171600 0.564484
0.081512 0.177216 0.569824
0.091461 0.177643 0.570374
0.208649 0.184296 0.584564
0.519135 0.204559 0.607758
0.710968 0.212006 0.615387
0.745056 0.211426 0.617554
0.761932 0.210724 0.618713
0.068329 0.183685 0.565796
0.081543 0.189301 0.571106
0.094086 0.194061 0.575928
0.206665 0.200958 0.590302
0.520996 0.221680 0.617249
0.714661 0.228485 0.626801
0.749878 0.228241 0.628662
0.767090 0.227509 0.629883
0.067780 0.195526 0.566620
0.081207 0.201447 0.572449
0.093903 0.206146 0.577301
0.177979 0.215942 0.590820
0.508545 0.236511 0.626526
0.711395 0.245209 0.636444
0.755737 0.244476 0.639038
0.772217 0.244873 0.640015
0.054016 0.412140 0.602722
0.066223 0.419861 0.610199
0.078674 0.426086 0.616241
0.091034 0.430664 0.621857
0.407501 0.525818 0.735840
0.750000 0.552368 0.756256
0.814178 0.549561 0.754669
0.829651 0.549347 0.754517
0.042450 0.582855 0.635742
0.054443 0.590668 0.642822
0.066010 0.597351 0.648834
0.078247 0.602936 0.654083
0.251099 0.673553 0.725006
0.741821 0.799408 0.793060
0.846008 0.801819 0.794617
0.861511 0.801727 0.794678
0.040375 0.662445 0.645020
0.053406 0.670013 0.651459
0.066132 0.676666 0.656982
0.077332 0.682037 0.662170
0.161011 0.715515 0.693024
0.689819 0.862610 0.791870
0.841156 0.890564 0.795044
0.872864 0.891083 0.795868
0.039734 0.688690 0.647064
0.050537 0.696075 0.653290
0.061249 0.702423 0.658752
0.071960 0.708282 0.663910
0.142609 0.737518 0.690430
0.656921 0.884735 0.794250
0.834869 0.914185 0.789520
0.873932 0.921570 0.793121
