滤镜资源/Professional Luts Collection/Triune-Digital-Cinematic-LUTs/3D LUTs (CUBE)/ALEXA/Batman vs Superman - Alexa.cube
#Created by Benjamin (IWLTBAP) : http://luts.iwltbap.com
#Copyright: (C) Copyright 2016 Triune Films and IWLTBAP
TITLE "Blockbuster LUTs Pack (Alexa Log-C)"
#LUT size
LUT_3D_SIZE 5
#LUT data points
DOMAIN_MIN 0.000000 0.000000 0.000000
DOMAIN_MAX 0.903226 0.903226 0.903226
0.005524 0.009979 0.012573
0.135345 0.026062 0.015991
0.468475 0.076050 0.030884
0.763397 0.116608 0.073944
0.792999 0.120636 0.082703
0.018799 0.115051 0.031586
0.087494 0.115143 0.031982
0.477020 0.164124 0.013336
0.769165 0.146942 0.067780
0.799286 0.151031 0.077576
0.038116 0.346222 0.059235
0.055939 0.349487 0.053192
0.375336 0.372711 0.035126
0.774048 0.454590 0.038879
0.802277 0.464600 0.040955
0.070312 0.592712 0.092499
0.090515 0.595490 0.091553
0.155060 0.605408 0.098053
0.722687 0.707764 0.064514
0.795807 0.707794 0.064728
0.074463 0.626892 0.098938
0.099396 0.629822 0.098511
0.122314 0.632935 0.100647
0.710358 0.755188 0.070312
0.798309 0.753448 0.070190
0.015045 0.035400 0.102112
0.107117 0.040985 0.103973
0.462067 0.079865 0.105316
0.761505 0.116394 0.132782
0.792938 0.120636 0.138031
0.013824 0.106720 0.101196
0.091644 0.130432 0.119812
0.494446 0.151062 0.106293
0.773773 0.141907 0.128998
0.803741 0.145966 0.134796
0.035126 0.344421 0.083130
0.059235 0.359009 0.078003
0.389221 0.384460 0.059784
0.788818 0.470520 0.063568
0.817932 0.482208 0.072632
0.069214 0.593262 0.114258
0.097656 0.606720 0.118652
0.163544 0.617188 0.124756
0.735199 0.720673 0.091492
0.804779 0.720337 0.092957
0.072571 0.627411 0.120758
0.104065 0.641968 0.125641
0.130493 0.645386 0.127625
0.722595 0.767273 0.097900
0.807037 0.765533 0.097839
0.035156 0.086700 0.300323
0.069946 0.088135 0.303009
0.431458 0.113831 0.294342
0.738556 0.150146 0.307251
0.772156 0.150787 0.308441
0.034180 0.107819 0.300629
0.055481 0.116852 0.309723
0.440247 0.143280 0.302185
0.755280 0.174286 0.312317
0.787537 0.174805 0.314270
0.023163 0.341583 0.314301
0.041779 0.352692 0.324097
0.394104 0.462616 0.405853
0.850952 0.500214 0.375275
0.874115 0.499207 0.380310
0.042297 0.611786 0.338165
0.062225 0.620331 0.344574
0.101044 0.636017 0.358459
0.790009 0.799622 0.376923
0.856232 0.799774 0.384766
0.042633 0.644989 0.325134
0.062378 0.655121 0.333099
0.081604 0.667297 0.341797
0.773834 0.844940 0.367462
0.854156 0.839325 0.343262
0.060333 0.144440 0.508728
0.077637 0.144348 0.508575
0.399750 0.163177 0.533020
0.729858 0.183472 0.538635
0.760986 0.187378 0.545929
0.060059 0.165161 0.510437
0.082123 0.173706 0.518829
0.404419 0.192993 0.545715
0.739716 0.213959 0.557129
0.770782 0.218079 0.564026
0.052734 0.312164 0.525452
0.075745 0.321960 0.535706
0.291321 0.379547 0.618195
0.772827 0.386078 0.639771
0.804932 0.373993 0.636780
0.034668 0.604248 0.563751
0.056824 0.617706 0.576050
0.078613 0.628235 0.586792
0.780731 0.835876 0.710785
0.883545 0.840057 0.710419
0.039856 0.689362 0.583710
0.059631 0.702179 0.594330
0.079407 0.713196 0.604248
0.766937 0.905121 0.708588
0.875977 0.911102 0.703491
0.068268 0.159302 0.563293
0.085724 0.159485 0.563354
0.390686 0.174744 0.593689
0.724304 0.194397 0.602722
0.755951 0.192993 0.605286
0.068390 0.180786 0.565491
0.091003 0.189880 0.574310
0.396332 0.203613 0.611084
0.732971 0.224548 0.625397
0.765686 0.223328 0.627380
0.067047 0.250916 0.571564
0.090027 0.259796 0.581146
0.272919 0.292633 0.636963
0.750366 0.307251 0.669189
0.785980 0.301758 0.669098
0.043121 0.610992 0.640747
0.065521 0.623352 0.651581
0.086853 0.632751 0.660614
0.780701 0.832306 0.795685
0.863983 0.833618 0.796631
0.039734 0.688690 0.647064
0.058563 0.700897 0.657440
0.077301 0.711151 0.666595
0.738739 0.897614 0.790375
0.873932 0.921570 0.793121
