滤镜资源/Professional Luts Collection/Triune-Digital-Cinematic-LUTs/3D LUTs (CUBE)/ALEXA/Batman vs Superman - Alexa.cube
#Created by Benjamin (IWLTBAP) : http://luts.iwltbap.com
#Copyright: (C) Copyright 2016 Triune Films and IWLTBAP
TITLE "Blockbuster LUTs Pack (Alexa Log-C)"
#LUT size
LUT_3D_SIZE 32
#LUT data points
0.005524 0.009979 0.012573
0.016510 0.010834 0.012817
0.030914 0.011841 0.012634
0.048950 0.014221 0.013000
0.067993 0.016693 0.013123
0.087585 0.019287 0.013611
0.110168 0.022583 0.013855
0.135345 0.026062 0.015991
0.164032 0.030731 0.015259
0.200928 0.035400 0.012878
0.245361 0.040955 0.010254
0.297577 0.049500 0.013550
0.352234 0.058319 0.016846
0.410431 0.066986 0.021484
0.468475 0.076050 0.030884
0.526062 0.085663 0.042450
0.579987 0.092621 0.050842
0.632324 0.099854 0.056244
0.681854 0.106995 0.065643
0.726166 0.112152 0.068207
0.753632 0.115173 0.070801
0.763397 0.116608 0.073944
0.767670 0.117188 0.076385
0.771881 0.117767 0.078308
0.776031 0.118286 0.079742
0.780243 0.118744 0.080780
0.784393 0.119263 0.081635
0.788696 0.119965 0.082245
0.792999 0.120636 0.082703
0.797272 0.121307 0.083099
0.801605 0.121918 0.083496
0.805908 0.122467 0.083984
0.006989 0.020996 0.015137
0.013153 0.020935 0.015167
0.025146 0.022430 0.015167
0.041992 0.024811 0.014984
0.063385 0.027710 0.014465
0.084259 0.029480 0.013550
0.108704 0.032013 0.012848
0.134583 0.034332 0.014709
0.164001 0.037415 0.013855
0.200897 0.040375 0.011566
0.245087 0.044739 0.009369
0.297913 0.053192 0.012299
0.352509 0.062012 0.015656
0.410797 0.070862 0.020294
0.468689 0.079926 0.029816
0.526672 0.089966 0.041809
0.581055 0.097046 0.050598
0.633331 0.104218 0.055878
0.682892 0.111359 0.065277
0.727173 0.116272 0.067383
0.754425 0.119293 0.070282
0.764130 0.120697 0.073425
0.768402 0.121277 0.075928
0.772705 0.121887 0.077881
0.776825 0.122406 0.079315
0.780975 0.122864 0.080414
0.785156 0.123352 0.081177
0.789459 0.123962 0.081726
0.793854 0.124725 0.082275
0.798187 0.125397 0.082672
0.802521 0.126007 0.083038
0.806763 0.126556 0.083496
0.008911 0.032928 0.017853
0.013428 0.032928 0.017883
0.021545 0.033020 0.017944
0.035645 0.036316 0.018341
0.055542 0.039886 0.017670
0.078735 0.042633 0.015594
0.105164 0.045410 0.013336
0.133118 0.047394 0.013611
0.163574 0.049774 0.012482
0.200500 0.052338 0.010406
0.245178 0.054443 0.008179
0.298096 0.058807 0.010590
0.352631 0.065491 0.014526
0.411285 0.074615 0.019165
0.468689 0.083801 0.029175
0.526764 0.093903 0.041046
0.582153 0.101562 0.050171
0.634430 0.108612 0.055420
0.683838 0.115692 0.064880
0.728149 0.120392 0.066681
0.755157 0.123413 0.069794
0.764954 0.124817 0.072968
0.769226 0.125397 0.075470
0.773438 0.126007 0.077393
0.777618 0.126617 0.078888
0.781860 0.127045 0.079956
0.786011 0.127563 0.080719
0.790344 0.128143 0.081299
0.794739 0.128784 0.081696
0.799103 0.129517 0.082184
0.803436 0.130127 0.082550
0.807678 0.130707 0.082977
0.010620 0.046478 0.020538
0.013367 0.046417 0.020569
0.021576 0.046387 0.020660
0.031128 0.046448 0.020782
0.046967 0.049683 0.021942
0.069000 0.054443 0.020721
0.095459 0.058167 0.018951
0.125641 0.062500 0.016815
0.158295 0.064362 0.014038
0.197662 0.066315 0.010620
0.244751 0.067841 0.007233
0.299225 0.070984 0.008636
0.353821 0.073090 0.012848
0.411621 0.078308 0.018219
0.468628 0.087646 0.028351
0.526764 0.097778 0.040070
0.582977 0.105957 0.049286
0.635590 0.112976 0.054688
0.685120 0.119995 0.063721
0.729065 0.124756 0.065948
0.755920 0.127777 0.069305
0.765686 0.129059 0.072479
0.769989 0.129578 0.074951
0.774292 0.130127 0.076813
0.778534 0.130768 0.078308
0.782745 0.131287 0.079437
0.786926 0.131775 0.080200
0.791290 0.132355 0.080750
0.795624 0.132965 0.081146
0.799988 0.133667 0.081543
0.804413 0.134277 0.081970
0.808685 0.134827 0.082397
0.012482 0.061188 0.023438
0.014832 0.061066 0.023438
0.021332 0.061035 0.023499
0.031067 0.061096 0.023651
0.042755 0.061340 0.023743
0.059692 0.064423 0.025055
0.085541 0.069458 0.024139
0.115570 0.075043 0.022430
0.150726 0.079132 0.017761
0.191742 0.082123 0.012482
0.241608 0.083984 0.007904
0.299652 0.087097 0.007843
0.356049 0.087646 0.010742
0.413818 0.089050 0.016907
0.469147 0.091919 0.027252
0.526672 0.101593 0.038910
0.582977 0.109894 0.048218
0.636566 0.117279 0.053711
0.686188 0.124207 0.062286
0.729950 0.129120 0.065094
0.756866 0.132172 0.068604
0.766510 0.133484 0.071930
0.770782 0.133911 0.074432
0.775024 0.134521 0.076385
0.779266 0.135040 0.077850
0.783539 0.135559 0.078888
0.787720 0.136078 0.079712
0.792084 0.136719 0.080292
0.796417 0.137390 0.080688
0.800781 0.137970 0.081116
0.805145 0.138672 0.081726
0.809540 0.139313 0.082275
0.013977 0.077026 0.026459
0.016205 0.077209 0.026520
0.019897 0.077148 0.026611
0.029388 0.077301 0.026611
0.041016 0.077301 0.026642
0.055084 0.077423 0.026642
0.075165 0.080383 0.027740
0.104523 0.085907 0.028015
0.140472 0.092285 0.024231
0.184540 0.097870 0.015533
0.232208 0.103180 0.011078
0.292786 0.108093 0.010223
0.356384 0.108887 0.009705
0.417999 0.108185 0.014191
0.472412 0.107635 0.025574
0.527618 0.109314 0.037048
0.582794 0.113831 0.046783
0.636688 0.121368 0.052307
0.687134 0.128387 0.060608
0.730927 0.133575 0.063904
0.757843 0.136749 0.067657
0.767456 0.138062 0.071198
0.771698 0.138489 0.073730
0.775940 0.139038 0.075684
0.780182 0.139557 0.077209
0.784393 0.140015 0.078247
0.788635 0.140594 0.079041
0.793030 0.141266 0.079620
0.797424 0.141907 0.080078
0.801727 0.142548 0.080627
0.806122 0.143219 0.081238
0.810455 0.143890 0.081940
0.015625 0.095032 0.029602
0.017914 0.095154 0.029602
0.020172 0.095276 0.029633
0.026459 0.095215 0.029694
0.037598 0.095337 0.029785
0.052246 0.095276 0.029724
0.069427 0.095337 0.029480
0.095459 0.098206 0.030426
0.128387 0.103485 0.029938
0.175018 0.112488 0.022034
0.224396 0.120026 0.014862
0.284576 0.129120 0.014130
0.348969 0.133789 0.011871
0.418640 0.134766 0.008057
0.480621 0.134918 0.021606
0.535156 0.133148 0.032043
0.585083 0.128937 0.043396
0.636841 0.127655 0.050018
0.687164 0.132050 0.058258
0.731323 0.137543 0.061951
0.758606 0.141113 0.066223
0.768311 0.142456 0.069885
0.772583 0.142883 0.072540
0.776825 0.143372 0.074554
0.781097 0.143860 0.076080
0.785339 0.144379 0.077148
0.789612 0.144928 0.077972
0.793945 0.145660 0.078613
0.798340 0.146332 0.079071
0.802673 0.147064 0.079651
0.807037 0.147705 0.080353
0.811310 0.148407 0.080994
0.018799 0.115051 0.031586
0.021149 0.115112 0.031586
0.023499 0.115082 0.031586
0.025879 0.115204 0.031586
0.034088 0.115234 0.031616
0.048523 0.115356 0.031860
0.066803 0.115234 0.032013
0.087494 0.115143 0.031982
0.119080 0.118225 0.032440
0.160767 0.126404 0.030212
0.214783 0.136169 0.019501
0.275970 0.147644 0.017883
0.340454 0.156494 0.015930
0.408722 0.161499 0.009735
0.477020 0.164124 0.013336
0.543823 0.165161 0.021881
0.596649 0.163513 0.033142
0.644043 0.158508 0.043732
0.689911 0.149872 0.052887
0.732178 0.146393 0.058380
0.759399 0.146973 0.063751
0.769165 0.146942 0.067780
0.773529 0.147461 0.070618
0.777771 0.147919 0.072723
0.781982 0.148407 0.074341
0.786255 0.148956 0.075470
0.790466 0.149567 0.076263
0.794891 0.150269 0.076935
0.799286 0.151031 0.077576
0.803589 0.151703 0.078217
0.807831 0.152374 0.078827
0.812103 0.153046 0.079529
0.021423 0.138214 0.034729
0.023712 0.138336 0.034698
0.026031 0.138580 0.034668
0.028412 0.138519 0.034668
0.030792 0.138550 0.034668
0.040344 0.138489 0.034729
0.059875 0.138458 0.034943
0.082977 0.138397 0.035278
0.109192 0.138550 0.035522
0.150238 0.142609 0.033539
0.200806 0.151215 0.027100
0.263641 0.166016 0.023041
0.330902 0.177582 0.020020
0.400604 0.185699 0.014252
0.468781 0.191315 0.013611
0.537262 0.196899 0.018005
0.600098 0.199280 0.023590
0.655731 0.199188 0.034637
0.701965 0.195129 0.043213
0.740845 0.188690 0.053284
0.765198 0.178192 0.059906
0.773193 0.168060 0.063599
0.776733 0.164398 0.066833
0.780792 0.163391 0.069214
0.784851 0.162659 0.070984
0.788940 0.162262 0.072296
0.792999 0.162201 0.073334
0.797272 0.162415 0.074219
0.801666 0.162872 0.074951
0.805725 0.163361 0.075592
0.809662 0.163696 0.076202
0.813507 0.163818 0.076843
0.023987 0.166565 0.038452
0.026367 0.166718 0.038391
0.028748 0.166931 0.038300
0.031097 0.167084 0.038239
0.033539 0.167114 0.038208
0.035980 0.166992 0.038116
0.047089 0.166992 0.038055
0.072998 0.166779 0.038116
0.102692 0.167084 0.039368
0.138428 0.167358 0.037445
0.187561 0.171753 0.032776
0.244629 0.182800 0.030060
0.314941 0.199005 0.026215
0.389709 0.210785 0.019806
0.461334 0.219055 0.018341
0.530243 0.228027 0.020996
0.592712 0.233704 0.022339
0.652496 0.238708 0.026703
0.705872 0.241730 0.032776
0.752380 0.240845 0.037872
0.780457 0.236786 0.044006
0.787872 0.229584 0.050110
0.790131 0.222626 0.054779
0.792633 0.216858 0.058411
0.795441 0.212250 0.061249
0.798615 0.208954 0.063263
0.801880 0.206726 0.064667
0.805176 0.205627 0.065613
0.808624 0.205200 0.066345
0.812073 0.205109 0.066956
0.815369 0.204895 0.067474
0.818634 0.204132 0.068268
0.026245 0.198669 0.042389
0.028564 0.198883 0.042236
0.030884 0.199097 0.042053
0.033203 0.199402 0.041901
0.035522 0.199585 0.041748
0.037933 0.199615 0.041626
0.040344 0.199585 0.041565
0.051971 0.199402 0.041290
0.086273 0.200287 0.041687
0.125519 0.199921 0.044220
0.175537 0.201355 0.035522
0.231049 0.206329 0.033569
0.292725 0.219116 0.034119
0.370117 0.234772 0.027191
0.450134 0.247620 0.021759
0.522125 0.259918 0.024445
0.587616 0.269409 0.025391
0.646790 0.276642 0.027985
0.698975 0.282440 0.031830
0.745361 0.287506 0.034790
0.778717 0.291443 0.036896
0.790161 0.289856 0.038116
0.794983 0.286591 0.040009
0.799225 0.283447 0.041626
0.803253 0.281128 0.042725
0.807220 0.279816 0.043457
0.810974 0.279144 0.043976
0.814697 0.279175 0.044312
0.818237 0.279663 0.044769
0.821747 0.280151 0.045074
0.825165 0.280334 0.045624
0.828583 0.280090 0.046448
0.028442 0.234009 0.046753
0.030792 0.234253 0.046539
0.033203 0.234558 0.046356
0.035583 0.234894 0.046112
0.038025 0.235199 0.045868
0.040375 0.235413 0.045624
0.042786 0.235535 0.045380
0.045319 0.235535 0.045197
0.058685 0.235565 0.044617
0.104736 0.236542 0.046295
0.162018 0.237701 0.044922
0.218384 0.239319 0.035370
0.279388 0.245789 0.036591
0.344940 0.258667 0.033936
0.426239 0.272919 0.028137
0.507538 0.289551 0.029266
0.577850 0.302155 0.028656
0.638702 0.312103 0.030426
0.692047 0.321014 0.034027
0.739166 0.329041 0.031799
0.774109 0.335144 0.032013
0.784515 0.335358 0.033081
0.788910 0.334686 0.034637
0.793518 0.334625 0.036438
0.797729 0.334747 0.037750
0.801483 0.335205 0.038574
0.805145 0.335876 0.039093
0.808746 0.336456 0.039429
0.812225 0.337128 0.039612
0.815826 0.338104 0.039673
0.819458 0.339081 0.039856
0.823120 0.339752 0.039856
0.031525 0.271088 0.051727
0.033997 0.271423 0.051270
0.036469 0.271790 0.050995
0.038940 0.272156 0.050598
0.041473 0.272675 0.049988
0.044037 0.273041 0.049225
0.046753 0.273468 0.048584
0.049316 0.273773 0.048035
0.051697 0.273834 0.047424
0.077240 0.274658 0.048737
0.135040 0.275482 0.052246
0.210022 0.280090 0.039032
0.265137 0.281647 0.038757
0.331421 0.289490 0.035706
0.402466 0.300140 0.032043
0.477844 0.313965 0.033203
0.558197 0.332001 0.036804
0.625885 0.345551 0.032959
0.682373 0.357574 0.034515
0.731506 0.367523 0.033356
0.769470 0.376770 0.032318
0.781677 0.379181 0.032135
0.785278 0.378693 0.032043
0.788940 0.378601 0.031952
0.792480 0.378815 0.031891
0.796112 0.379517 0.031799
0.799927 0.380798 0.031677
0.803680 0.381989 0.031799
0.807434 0.383179 0.031860
0.811096 0.384460 0.031982
0.814575 0.385590 0.032074
0.818024 0.386688 0.032135
0.035034 0.308624 0.056641
0.037506 0.308990 0.055756
0.040131 0.309357 0.054932
0.042755 0.309753 0.054230
0.045380 0.310150 0.053436
0.048065 0.310577 0.052582
0.050476 0.310944 0.051697
0.052887 0.311279 0.050659
0.055298 0.311646 0.049713
0.057983 0.311676 0.049469
0.111603 0.314056 0.055084
0.174896 0.317688 0.056152
0.258026 0.324921 0.041748
0.317200 0.326538 0.039429
0.390167 0.334290 0.031342
0.463440 0.345337 0.034302
0.531799 0.358215 0.042542
0.603973 0.373657 0.041382
0.669495 0.389374 0.035583
0.721832 0.403015 0.035278
0.763428 0.414795 0.034973
0.778442 0.418854 0.034424
0.782410 0.419312 0.034180
0.786194 0.419891 0.034088
0.789764 0.420380 0.033875
0.793335 0.421143 0.033691
0.796936 0.422119 0.033752
0.800568 0.423309 0.033813
0.804077 0.424469 0.033661
0.807648 0.425751 0.033539
0.811188 0.426941 0.033417
0.814941 0.428223 0.033325
0.038116 0.346222 0.059235
0.040802 0.346710 0.058258
0.043549 0.347229 0.056976
0.046143 0.347870 0.055634
0.048248 0.348602 0.054260
0.050629 0.349091 0.053467
0.053223 0.349304 0.053253
0.055939 0.349487 0.053192
0.058533 0.349762 0.052917
0.061188 0.349884 0.052795
0.069489 0.350494 0.052979
0.150085 0.354492 0.062775
0.236298 0.364624 0.047302
0.312347 0.372589 0.040131
0.375336 0.372711 0.035126
0.449860 0.380829 0.034973
0.521606 0.392639 0.043152
0.584564 0.404022 0.046814
0.647125 0.418182 0.044250
0.707306 0.433472 0.038757
0.752625 0.446930 0.038086
0.774048 0.454590 0.038879
0.778687 0.455688 0.039124
0.782654 0.456726 0.039337
0.786713 0.458130 0.039673
0.790802 0.459778 0.040009
0.794678 0.461426 0.040283
0.798492 0.463013 0.040619
0.802277 0.464600 0.040955
0.805969 0.466003 0.040802
0.809601 0.467255 0.040771
0.813171 0.468414 0.040588
0.042236 0.386383 0.059296
0.044891 0.386810 0.059052
0.047516 0.387299 0.058746
0.050232 0.387421 0.058594
0.052948 0.387543 0.058533
0.055695 0.387756 0.058472
0.058472 0.387970 0.058411
0.061279 0.388062 0.058289
0.064087 0.388245 0.058258
0.066864 0.388336 0.058136
0.069519 0.388428 0.057983
0.106842 0.390778 0.063019
0.194672 0.399933 0.067810
0.302032 0.414246 0.042755
0.373291 0.423553 0.042206
0.434570 0.422180 0.041840
0.507385 0.429352 0.044586
0.574646 0.439728 0.047485
0.634003 0.451111 0.048401
0.688019 0.463348 0.047241
0.737000 0.476562 0.044128
0.765961 0.486694 0.045502
0.773560 0.488708 0.045990
0.777618 0.489746 0.046173
0.781616 0.490906 0.046356
0.785583 0.492249 0.046509
0.789459 0.493896 0.046875
0.793549 0.495880 0.047241
0.797577 0.497772 0.047272
0.801575 0.499603 0.047241
0.805481 0.501495 0.047577
0.809448 0.503418 0.048126
0.048431 0.424835 0.064697
0.051208 0.424957 0.064606
0.054016 0.425110 0.064514
0.056824 0.425262 0.064423
0.059692 0.425415 0.064392
0.062592 0.425659 0.064301
0.065460 0.425903 0.064209
0.068329 0.426147 0.064117
0.071167 0.426361 0.064056
0.074097 0.426483 0.063904
0.076843 0.426483 0.063751
0.079590 0.426483 0.063568
0.161957 0.433228 0.074890
0.259827 0.451599 0.060913
0.362579 0.465118 0.048950
0.431824 0.475250 0.049561
0.491547 0.472900 0.048584
0.559875 0.476959 0.049133
0.624512 0.489746 0.049774
0.680420 0.501068 0.050018
0.725525 0.510498 0.048981
0.755920 0.517517 0.049133
0.765320 0.519073 0.049561
0.770416 0.520111 0.049591
0.775757 0.521667 0.049896
0.780823 0.523346 0.050354
0.784851 0.524963 0.050690
0.788940 0.526886 0.050995
0.792999 0.528748 0.051117
0.796967 0.530640 0.051208
0.800934 0.532593 0.051239
0.804962 0.534607 0.051453
0.053436 0.461792 0.069397
0.056183 0.461975 0.069305
0.059052 0.462250 0.069214
0.061890 0.462524 0.069122
0.064697 0.462708 0.069031
0.067474 0.462952 0.068909
0.070282 0.463165 0.068848
0.073181 0.463440 0.068756
0.076080 0.463684 0.068634
0.079132 0.463867 0.068634
0.082184 0.463959 0.068817
0.085236 0.463867 0.069244
0.114349 0.465881 0.074158
0.211670 0.481750 0.078339
0.336792 0.504517 0.053589
0.419373 0.516205 0.053589
0.487915 0.527405 0.051544
0.545197 0.524384 0.050446
0.610138 0.527832 0.052399
0.670227 0.539886 0.051727
0.719086 0.549561 0.050018
0.754517 0.556702 0.048981
0.767181 0.559387 0.049347
0.771729 0.559875 0.049438
0.775879 0.560364 0.049591
0.779877 0.560974 0.049835
0.783905 0.561676 0.050140
0.787659 0.562592 0.050629
0.791260 0.563477 0.051147
0.794830 0.564423 0.051666
0.798340 0.565308 0.052216
0.801849 0.566223 0.052643
0.057098 0.499207 0.074615
0.060211 0.499451 0.074554
0.063263 0.499664 0.074463
0.066101 0.499908 0.074402
0.069031 0.500183 0.074249
0.071991 0.500397 0.074249
0.074921 0.500610 0.074158
0.077942 0.500885 0.074127
0.080994 0.501099 0.074371
0.084045 0.501312 0.074677
0.087341 0.501373 0.074951
0.090729 0.501556 0.075256
0.094025 0.501526 0.075806
0.173218 0.512390 0.086426
0.275482 0.536469 0.069580
0.403412 0.558533 0.058380
0.476257 0.569183 0.056610
0.543335 0.580353 0.055298
0.598297 0.577484 0.054108
0.658112 0.579529 0.054230
0.708008 0.588165 0.053162
0.747345 0.595154 0.052338
0.768463 0.599579 0.052551
0.773712 0.600250 0.052612
0.777679 0.600708 0.052673
0.781464 0.601257 0.052887
0.785309 0.601929 0.053040
0.788971 0.602661 0.053314
0.792603 0.603424 0.053589
0.796265 0.604340 0.054047
0.799957 0.605347 0.054504
0.803619 0.606201 0.054871
0.060608 0.535309 0.080872
0.063843 0.535553 0.080719
0.067108 0.535858 0.080505
0.070343 0.536133 0.080322
0.073669 0.536469 0.080139
0.076813 0.536591 0.080109
0.080017 0.536743 0.080139
0.083160 0.536957 0.080231
0.086121 0.537262 0.080353
0.089111 0.537567 0.080719
0.092041 0.537781 0.081207
0.094971 0.537933 0.081726
0.098267 0.537994 0.082275
0.127014 0.541321 0.087158
0.234497 0.563904 0.085602
0.365784 0.592194 0.061249
0.468201 0.611023 0.061340
0.532959 0.619446 0.060333
0.597076 0.630737 0.058899
0.646820 0.628143 0.057404
0.698090 0.627380 0.057465
0.736115 0.632507 0.057434
0.766205 0.638214 0.060028
0.774445 0.639221 0.059937
0.778687 0.639709 0.059906
0.782684 0.640198 0.059845
0.786591 0.640808 0.059937
0.790405 0.641388 0.060059
0.794006 0.642090 0.060242
0.797607 0.642853 0.060455
0.801239 0.643616 0.060760
0.804810 0.644257 0.060974
0.067535 0.567627 0.087280
0.070587 0.567932 0.087036
0.073669 0.568268 0.086853
0.076752 0.568604 0.086609
0.079651 0.568970 0.086365
0.082367 0.569244 0.086273
0.085205 0.569580 0.086212
0.088226 0.569885 0.086334
0.091309 0.570190 0.086639
0.094421 0.570465 0.087097
0.097473 0.570679 0.087463
0.100586 0.570892 0.087982
0.103668 0.571075 0.088562
0.106812 0.571106 0.089081
0.189178 0.586212 0.096466
0.312378 0.617554 0.074829
0.446686 0.642975 0.065094
0.530365 0.657593 0.065857
0.589447 0.665405 0.063110
0.646942 0.675415 0.063049
0.689606 0.672882 0.061890
0.728455 0.670288 0.060242
0.760956 0.673584 0.061981
0.775757 0.674957 0.063202
0.779663 0.675293 0.063385
0.783508 0.675751 0.063568
0.787384 0.676239 0.063690
0.791168 0.676758 0.063873
0.794769 0.677216 0.064056
0.798370 0.677856 0.064056
0.802032 0.678589 0.064117
0.805634 0.679138 0.064270
0.070312 0.592712 0.092499
0.073364 0.593048 0.092255
0.076202 0.593475 0.091980
0.078888 0.593964 0.091675
0.081604 0.594452 0.091400
0.084534 0.594879 0.091370
0.087494 0.595215 0.091461
0.090515 0.595490 0.091553
0.093506 0.595825 0.091644
0.096497 0.596191 0.091949
0.099457 0.596558 0.092346
0.102509 0.597015 0.092743
0.105621 0.597351 0.093109
0.108734 0.597656 0.093567
0.155060 0.605408 0.098053
0.279877 0.637665 0.081299
0.418457 0.666168 0.072479
0.519745 0.686218 0.069916
0.587036 0.695648 0.066376
0.642395 0.703857 0.065887
0.689240 0.709991 0.065155
0.722687 0.707764 0.064514
0.752777 0.704895 0.061920
0.776093 0.706024 0.062408
0.781586 0.706390 0.063019
0.785156 0.706726 0.063477
0.788696 0.707153 0.063873
0.792236 0.707520 0.064301
0.795807 0.707794 0.064728
0.799347 0.708099 0.065216
0.802887 0.708405 0.065613
0.806427 0.708710 0.066040
0.071747 0.602448 0.094543
0.074768 0.602936 0.094269
0.078217 0.603394 0.094025
0.081085 0.603912 0.093719
0.084045 0.604431 0.093445
0.087006 0.604767 0.093475
0.089996 0.605103 0.093597
0.093018 0.605438 0.093628
0.096069 0.605774 0.093750
0.099182 0.606140 0.094116
0.102295 0.606598 0.094482
0.105499 0.606995 0.094879
0.108673 0.607452 0.095306
0.111877 0.607880 0.095642
0.136261 0.611389 0.098297
0.244995 0.637146 0.092499
0.381653 0.670990 0.078522
0.504913 0.694916 0.070496
0.581635 0.708313 0.067657
0.635498 0.714447 0.067108
0.685486 0.724365 0.067383
0.719971 0.725861 0.066986
0.747528 0.723297 0.066589
0.771240 0.721771 0.065094
0.781738 0.722198 0.065308
0.785706 0.722443 0.065582
0.789520 0.722717 0.065887
0.792999 0.723114 0.066284
0.796478 0.723602 0.066772
0.799927 0.723969 0.067230
0.803436 0.724426 0.067657
0.806946 0.724792 0.068024
0.071960 0.606537 0.095306
0.075348 0.607025 0.095032
0.078766 0.607544 0.094757
0.082275 0.608063 0.094543
0.085297 0.608582 0.094299
0.088257 0.608887 0.094360
0.091278 0.609222 0.094421
0.094299 0.609558 0.094513
0.097290 0.609894 0.094574
0.100433 0.610260 0.094971
0.103577 0.610718 0.095337
0.106781 0.611145 0.095764
0.109955 0.611603 0.096161
0.113190 0.612000 0.096497
0.116333 0.612427 0.096893
0.207275 0.630920 0.101410
0.356049 0.670197 0.080841
0.490601 0.696442 0.070587
0.573090 0.711609 0.068451
0.630524 0.718964 0.067444
0.679962 0.728210 0.068176
0.716431 0.732117 0.067780
0.742920 0.731110 0.068329
0.766693 0.728973 0.066864
0.780975 0.728516 0.066406
0.785583 0.728882 0.066711
0.789642 0.729187 0.066956
0.793365 0.729431 0.067230
0.796814 0.729767 0.067535
0.800262 0.730133 0.067902
0.803741 0.730591 0.068359
0.807281 0.731079 0.068756
0.072418 0.610626 0.096039
0.075897 0.611145 0.095825
0.079315 0.611664 0.095551
0.082855 0.612213 0.095306
0.086426 0.612732 0.095154
0.089508 0.613068 0.095184
0.092499 0.613342 0.095276
0.095551 0.613678 0.095337
0.098541 0.613983 0.095490
0.101624 0.614441 0.095795
0.104797 0.614838 0.096161
0.108032 0.615295 0.096588
0.111237 0.615723 0.096924
0.114441 0.616150 0.097290
0.117615 0.616547 0.097656
0.188782 0.630798 0.101929
0.340210 0.670868 0.081818
0.479004 0.698456 0.070984
0.566254 0.715088 0.068909
0.626984 0.723297 0.067780
0.675476 0.731201 0.068726
0.713593 0.737061 0.068359
0.740021 0.736847 0.069061
0.762970 0.734680 0.068146
0.780334 0.733612 0.067322
0.785919 0.733795 0.067505
0.789917 0.734070 0.067749
0.793701 0.734344 0.067993
0.797150 0.734558 0.068298
0.800568 0.734863 0.068604
0.804016 0.735260 0.068909
0.807495 0.735779 0.069305
0.072937 0.614746 0.096802
0.076385 0.615265 0.096588
0.079865 0.615784 0.096344
0.083435 0.616333 0.096100
0.087036 0.616791 0.095947
0.090607 0.617096 0.096039
0.093628 0.617462 0.096130
0.096680 0.617767 0.096161
0.099701 0.618103 0.096313
0.102814 0.618561 0.096588
0.106018 0.618958 0.096924
0.109253 0.619446 0.097321
0.112457 0.619873 0.097687
0.115662 0.620300 0.098022
0.118835 0.620697 0.098389
0.185059 0.633972 0.102448
0.328644 0.672516 0.082581
0.469849 0.700806 0.073456
0.561371 0.718811 0.069061
0.624756 0.727753 0.068146
0.672394 0.734558 0.069183
0.711731 0.741760 0.068817
0.738708 0.742126 0.069550
0.760681 0.740509 0.069244
0.779083 0.739227 0.068359
0.786224 0.738739 0.068176
0.790283 0.739014 0.068451
0.794037 0.739288 0.068726
0.797455 0.739471 0.068970
0.800842 0.739624 0.069244
0.804321 0.739960 0.069580
0.807770 0.740417 0.069855
0.073395 0.618805 0.097534
0.076874 0.619324 0.097260
0.080383 0.619843 0.097046
0.083923 0.620361 0.096802
0.087555 0.620880 0.096710
0.091125 0.621155 0.096802
0.094696 0.621429 0.096924
0.097748 0.621765 0.096954
0.100769 0.622101 0.097137
0.103943 0.622559 0.097382
0.107178 0.623047 0.097687
0.110413 0.623505 0.098053
0.113617 0.623962 0.098358
0.116821 0.624390 0.098724
0.119995 0.624847 0.099121
0.182739 0.637512 0.102936
0.320923 0.674988 0.083557
0.463623 0.703644 0.075684
0.558136 0.722687 0.069183
0.623840 0.732239 0.068512
0.670441 0.738098 0.069519
0.710693 0.746277 0.069305
0.738190 0.747406 0.070129
0.759308 0.746216 0.070190
0.777832 0.744598 0.069214
0.786255 0.743988 0.069000
0.790497 0.743683 0.068848
0.794250 0.743927 0.069092
0.797729 0.744141 0.069397
0.801117 0.744293 0.069672
0.804565 0.744446 0.069946
0.808014 0.744843 0.070282
0.073944 0.622864 0.098206
0.077393 0.623383 0.097992
0.080933 0.623901 0.097748
0.084442 0.624451 0.097534
0.088074 0.624878 0.097443
0.091675 0.625244 0.097534
0.095245 0.625488 0.097626
0.098785 0.625763 0.097778
0.101837 0.626129 0.097900
0.105103 0.626587 0.098175
0.108337 0.627106 0.098511
0.111542 0.627563 0.098816
0.114746 0.627991 0.099091
0.117950 0.628448 0.099457
0.121155 0.628876 0.099854
0.181580 0.641357 0.103485
0.316528 0.678436 0.084351
