滤镜资源/Professional Luts Collection/Triune-Digital-Cinematic-LUTs/3D LUTs (CUBE)/ALEXA/Breaking Bad - Alexa.cube
#Created by Benjamin (IWLTBAP) : http://luts.iwltbap.com
#Copyright: (C) Copyright 2016 Triune Films and IWLTBAP
TITLE "Blockbuster LUTs Pack (Alexa Log-C)"
#LUT size
LUT_3D_SIZE 32
#LUT data points
0.007263 0.011139 0.010956
0.015015 0.012146 0.011505
0.024719 0.013824 0.012756
0.036102 0.015961 0.014404
0.049194 0.018341 0.016418
0.064850 0.021454 0.018921
0.085236 0.025238 0.020630
0.111664 0.030762 0.024078
0.150543 0.039124 0.034454
0.207214 0.049377 0.047119
0.277191 0.059875 0.058716
0.353760 0.077057 0.072906
0.431061 0.094696 0.089539
0.495453 0.109619 0.104431
0.557861 0.122772 0.120636
0.617004 0.134460 0.136169
0.672699 0.146942 0.150330
0.715942 0.156250 0.162506
0.753326 0.164215 0.174377
0.786011 0.171143 0.186218
0.805481 0.174927 0.193848
0.811523 0.175934 0.197449
0.813385 0.176086 0.199249
0.815460 0.176361 0.200775
0.817780 0.176697 0.201965
0.820343 0.177094 0.202942
0.823029 0.177551 0.203766
0.825684 0.178009 0.204376
0.828400 0.178467 0.204834
0.831146 0.178955 0.205353
0.833893 0.179443 0.205841
0.836609 0.179901 0.206451
0.008270 0.018921 0.012421
0.014252 0.019409 0.012665
0.022461 0.021484 0.013062
0.033447 0.023315 0.014374
0.046875 0.025513 0.016266
0.062286 0.028320 0.018677
0.082367 0.031921 0.020569
0.108704 0.036896 0.023254
0.147797 0.043854 0.033783
0.204651 0.052734 0.046478
0.276550 0.063141 0.058685
0.355133 0.080994 0.073669
0.432953 0.098633 0.090454
0.497833 0.113434 0.105377
0.560425 0.126953 0.121735
0.619690 0.138733 0.137268
0.674622 0.150848 0.151215
0.719635 0.159851 0.163544
0.757477 0.167816 0.175201
0.790009 0.174713 0.186523
0.809479 0.178497 0.194183
0.815552 0.179565 0.197815
0.817810 0.179840 0.199829
0.819916 0.180054 0.201355
0.822205 0.180359 0.202606
0.824768 0.180786 0.203583
0.827423 0.181244 0.204346
0.830200 0.181763 0.204956
0.832947 0.182251 0.205475
0.835663 0.182709 0.205963
0.838440 0.183167 0.206482
0.841125 0.183685 0.207062
0.009399 0.027252 0.014008
0.013763 0.027618 0.014130
0.021667 0.029297 0.014404
0.030884 0.031860 0.014679
0.044037 0.034119 0.016357
0.059540 0.036957 0.018829
0.079346 0.040680 0.020905
0.105011 0.045441 0.023071
0.142700 0.051453 0.032654
0.197479 0.059479 0.045105
0.266296 0.068176 0.056885
0.346100 0.083130 0.072021
0.430420 0.101257 0.090179
0.500092 0.117279 0.106323
0.562866 0.131104 0.122803
0.622375 0.142944 0.138336
0.676483 0.154816 0.152008
0.722137 0.163788 0.164276
0.761658 0.171448 0.176025
0.794006 0.178253 0.186829
0.813599 0.182037 0.194489
0.819672 0.183167 0.198181
0.821808 0.183441 0.200256
0.824432 0.183838 0.201935
0.826691 0.184174 0.203156
0.829224 0.184570 0.204163
0.831909 0.185059 0.204926
0.834656 0.185547 0.205566
0.837524 0.186035 0.206055
0.840240 0.186523 0.206573
0.842987 0.187012 0.207092
0.845734 0.187500 0.207672
0.010590 0.036530 0.015869
0.013367 0.036652 0.015900
0.021057 0.037811 0.015991
0.029816 0.040100 0.016022
0.040771 0.043488 0.016602
0.056183 0.046539 0.018890
0.075897 0.050079 0.021210
0.101837 0.054779 0.023193
0.138245 0.060883 0.031952
0.190308 0.068268 0.043762
0.254517 0.076233 0.055145
0.328278 0.088623 0.069275
0.417908 0.104401 0.087921
0.494720 0.119049 0.104980
0.563232 0.134613 0.123169
0.625000 0.147308 0.139313
0.678284 0.158783 0.152802
0.724335 0.167908 0.164856
0.764709 0.175293 0.176422
0.798126 0.181824 0.187286
0.817749 0.185669 0.194824
0.823792 0.186798 0.198517
0.825958 0.187073 0.200592
0.828461 0.187439 0.202271
0.831085 0.187897 0.203735
0.833679 0.188354 0.204712
0.836395 0.188812 0.205444
0.839111 0.189331 0.206146
0.841980 0.189850 0.206665
0.844849 0.190338 0.207184
0.847595 0.190826 0.207703
0.850342 0.191284 0.208313
0.011810 0.046478 0.017792
0.014099 0.046600 0.017761
0.020233 0.047119 0.017731
0.029083 0.049561 0.017761
0.039581 0.052582 0.017944
0.052551 0.056885 0.018890
0.072083 0.060577 0.021484
0.097809 0.065338 0.023254
0.133942 0.071411 0.031433
0.184692 0.078796 0.043091
0.245483 0.086426 0.053925
0.316895 0.097534 0.067200
0.399933 0.112000 0.085327
0.480927 0.124817 0.102448
0.556549 0.136444 0.121399
0.623627 0.150452 0.139069
0.680084 0.162872 0.153534
0.726410 0.172119 0.165314
0.766541 0.179413 0.176605
0.801605 0.185669 0.187531
0.821838 0.189301 0.195038
0.828003 0.190460 0.198822
0.830170 0.190735 0.200867
0.832611 0.191101 0.202576
0.835205 0.191498 0.204010
0.837921 0.191986 0.205231
0.840668 0.192505 0.206055
0.843445 0.192993 0.206696
0.846313 0.193542 0.207214
0.849182 0.194061 0.207703
0.851959 0.194672 0.208405
0.854736 0.195190 0.208954
0.013336 0.057373 0.019958
0.015503 0.057495 0.019989
0.018951 0.057739 0.019958
0.027588 0.059479 0.019928
0.038025 0.062469 0.020050
0.050659 0.066559 0.020447
0.067474 0.072174 0.021698
0.092743 0.077087 0.023621
0.128204 0.083313 0.030731
0.180542 0.091461 0.043091
0.239105 0.099579 0.053558
0.307831 0.110443 0.066040
0.383484 0.124115 0.083130
0.467041 0.138397 0.101471
0.543427 0.148071 0.119904
0.614288 0.155090 0.136688
0.677521 0.165558 0.152618
0.728455 0.176361 0.165619
0.768280 0.183594 0.176636
0.803589 0.190063 0.187225
0.825439 0.193268 0.195038
0.832245 0.194122 0.198944
0.834442 0.194397 0.201050
0.836823 0.194763 0.202759
0.839386 0.195190 0.204224
0.842194 0.195679 0.205444
0.845032 0.196198 0.206451
0.847809 0.196686 0.207092
0.850647 0.197174 0.207642
0.853516 0.197754 0.208191
0.856354 0.198395 0.208893
0.859100 0.199036 0.209656
0.015381 0.070099 0.022858
0.017578 0.070129 0.022827
0.019684 0.070221 0.022827
0.025421 0.070618 0.022858
0.035400 0.073639 0.022888
0.048218 0.077972 0.023285
0.063843 0.083923 0.024170
0.087067 0.090942 0.024200
0.121460 0.097351 0.030273
0.177124 0.106689 0.043518
0.234436 0.115143 0.054352
0.301361 0.126312 0.066254
0.373230 0.139038 0.081940
0.451477 0.152710 0.099609
0.524506 0.169006 0.118469
0.595551 0.177856 0.134216
0.664001 0.177307 0.148712
0.723511 0.181732 0.163147
0.769379 0.189087 0.176025
0.805267 0.196014 0.187073
0.827118 0.199402 0.195038
0.834991 0.199707 0.199188
0.838257 0.199493 0.201721
0.841034 0.199677 0.203552
0.843536 0.200043 0.205048
0.846344 0.200531 0.206268
0.849152 0.201080 0.207275
0.852051 0.201691 0.208069
0.854919 0.202209 0.208618
0.857758 0.202789 0.209229
0.860596 0.203430 0.209961
0.863312 0.204041 0.210754
0.018005 0.085144 0.026672
0.020081 0.085297 0.026672
0.022247 0.085480 0.026703
0.024475 0.085510 0.026672
0.031738 0.086212 0.026703
0.044220 0.090912 0.027008
0.060333 0.097687 0.028198
0.080933 0.105164 0.027679
0.114655 0.113739 0.030212
0.169617 0.123444 0.043732
0.234192 0.134552 0.056488
0.300964 0.144775 0.067871
0.367828 0.156128 0.082062
0.439178 0.169342 0.099060
0.506317 0.187714 0.115295
0.579102 0.205994 0.133514
0.643585 0.215759 0.149506
0.703156 0.208649 0.161102
0.762695 0.205139 0.174408
0.806976 0.207031 0.187164
0.829559 0.208221 0.195038
0.836761 0.206146 0.198761
0.839844 0.205841 0.201355
0.843109 0.205811 0.203522
0.846313 0.205841 0.205170
0.849518 0.206116 0.206512
0.852722 0.206451 0.207581
0.855682 0.207031 0.208405
0.858704 0.207672 0.209137
0.861542 0.208282 0.209869
0.864410 0.208862 0.210602
0.867279 0.209412 0.211395
0.020508 0.103119 0.031494
0.022736 0.103424 0.031555
0.024841 0.103790 0.031616
0.027039 0.104004 0.031708
0.029266 0.104156 0.031708
0.038025 0.105499 0.031830
0.053925 0.112396 0.032501
0.076782 0.122040 0.033173
0.103790 0.132202 0.032104
0.156982 0.143707 0.043762
0.227142 0.155609 0.056824
0.297760 0.166962 0.069519
0.364838 0.177490 0.083588
0.430359 0.191437 0.099152
0.493195 0.206299 0.115204
0.559052 0.224548 0.130493
0.622681 0.241486 0.146088
0.680695 0.251434 0.162781
0.734436 0.254364 0.176422
0.786407 0.248291 0.187592
0.824371 0.234222 0.194916
0.837463 0.228058 0.198975
0.842712 0.225922 0.201874
0.846985 0.225739 0.204407
0.851074 0.225800 0.206635
0.854218 0.224915 0.208008
0.857178 0.224243 0.209045
0.860077 0.224060 0.209747
0.863037 0.224304 0.210541
0.866119 0.224548 0.211365
0.869141 0.224701 0.212189
0.871918 0.224579 0.212952
0.023193 0.125946 0.037384
0.025421 0.126282 0.037476
0.027710 0.126617 0.037506
0.029877 0.126953 0.037567
0.032135 0.127228 0.037628
0.034363 0.127533 0.037720
0.044586 0.129639 0.038269
0.066650 0.140869 0.040131
0.097290 0.154572 0.042389
0.136810 0.169220 0.044556
0.210114 0.180725 0.056915
0.286499 0.193756 0.070587
0.355957 0.207581 0.085175
0.423676 0.222076 0.100281
0.481628 0.233032 0.114929
0.542969 0.246033 0.129822
0.599915 0.263824 0.140808
0.653809 0.276306 0.154144
0.706207 0.286377 0.169220
0.751892 0.293182 0.182404
0.786804 0.295166 0.191895
0.802124 0.290344 0.196594
0.811676 0.284637 0.199677
0.820862 0.279236 0.202118
0.829163 0.274658 0.204132
0.835846 0.270538 0.205414
0.841553 0.267792 0.206421
0.846283 0.266418 0.207336
0.850403 0.265747 0.208130
0.854340 0.265472 0.208832
0.858459 0.264923 0.209625
0.862854 0.263763 0.210510
0.030792 0.156219 0.046448
0.033203 0.156708 0.046661
0.035492 0.157227 0.046783
0.037903 0.157745 0.046967
0.040100 0.157990 0.047028
0.042267 0.158264 0.047119
0.044495 0.158661 0.047302
0.054535 0.161072 0.048065
0.083527 0.176453 0.050751
0.126343 0.193451 0.052704
0.186829 0.209930 0.058197
0.271545 0.225861 0.072876
0.347809 0.243835 0.089081
0.415100 0.257172 0.103363
0.475403 0.267548 0.118042
0.535461 0.280212 0.132416
0.591431 0.295380 0.143311
0.640747 0.306366 0.153229
0.687195 0.315186 0.164978
0.730286 0.324280 0.176544
0.760559 0.328979 0.184509
0.773346 0.328918 0.188446
0.780792 0.328186 0.191589
0.788055 0.328064 0.194550
0.794739 0.328430 0.197144
0.800842 0.329224 0.199371
0.806366 0.330261 0.201233
0.811279 0.331696 0.202789
0.815918 0.333038 0.204163
0.820404 0.334320 0.205383
0.824982 0.335602 0.206665
0.829681 0.336761 0.208069
0.040558 0.192413 0.057526
0.042816 0.192963 0.057678
0.045105 0.193512 0.057800
0.047272 0.193970 0.057922
0.049530 0.194397 0.058014
0.051636 0.194885 0.058105
0.053772 0.195374 0.058197
0.055878 0.195862 0.058258
0.067230 0.198975 0.058777
0.106628 0.218536 0.061432
0.168152 0.241425 0.064758
0.250641 0.260956 0.076263
0.343384 0.284485 0.097015
0.412445 0.297028 0.111755
0.468872 0.305847 0.123810
0.529144 0.318176 0.136536
0.584839 0.331635 0.147461
0.632050 0.341522 0.156769
0.674957 0.349823 0.166901
0.715088 0.358307 0.176514
0.744110 0.363281 0.182343
0.755432 0.364502 0.184784
0.760925 0.364075 0.186554
0.766357 0.364197 0.188538
0.771454 0.364502 0.190216
0.776215 0.365112 0.191620
0.780853 0.365967 0.192871
0.785736 0.366974 0.194275
0.790649 0.368134 0.195557
0.795227 0.369324 0.196747
0.799927 0.370514 0.197998
0.804749 0.371857 0.199402
0.047943 0.228271 0.066711
0.050262 0.229156 0.066956
0.052490 0.229980 0.067200
0.054657 0.230652 0.067383
0.056824 0.231415 0.067535
0.058929 0.232117 0.067749
0.061249 0.232880 0.068024
0.063446 0.233612 0.068207
0.065521 0.234192 0.068268
0.084656 0.243622 0.069397
0.142120 0.267761 0.072052
0.225586 0.301666 0.080811
0.322144 0.322815 0.101807
0.407104 0.340454 0.120178
0.461578 0.345520 0.130280
0.520111 0.354797 0.141327
0.576447 0.368134 0.152740
0.622772 0.378906 0.162140
0.663330 0.388123 0.170532
0.700104 0.394806 0.178223
0.730713 0.400085 0.184387
0.742279 0.401062 0.186523
0.746857 0.400513 0.187347
0.751251 0.400360 0.188141
0.755554 0.400513 0.188965
0.759796 0.400879 0.189850
0.763947 0.401489 0.190704
0.768066 0.402313 0.191589
0.772278 0.403259 0.192505
0.776398 0.404266 0.193420
0.780609 0.405182 0.194366
0.784790 0.406067 0.195251
0.054596 0.266174 0.076569
0.056885 0.266937 0.076813
0.059143 0.267731 0.077240
0.061340 0.268524 0.077576
0.063599 0.269348 0.077972
0.065826 0.270142 0.078369
0.068054 0.270966 0.078522
0.070312 0.271759 0.078735
0.072479 0.272552 0.078949
0.074677 0.273224 0.079132
0.112549 0.291931 0.080322
0.198578 0.326141 0.081757
0.289490 0.356049 0.101990
0.378937 0.376221 0.121796
0.452240 0.388702 0.136627
0.508545 0.395447 0.146545
0.564331 0.403412 0.157349
0.608978 0.415192 0.166321
0.650604 0.426117 0.174530
0.687317 0.432587 0.181396
0.719543 0.437592 0.187836
0.733032 0.439240 0.190460
0.737244 0.438751 0.191132
0.741455 0.438507 0.191864
0.745636 0.438660 0.192657
0.749786 0.439087 0.193481
0.753876 0.439636 0.194275
0.757660 0.440460 0.195099
0.761566 0.441406 0.195953
0.765472 0.442322 0.196808
0.769379 0.443237 0.197662
0.773254 0.444153 0.198486
0.063843 0.305023 0.089661
0.066162 0.305908 0.089874
0.068420 0.306702 0.090057
0.070679 0.307495 0.090271
0.072937 0.308319 0.090515
0.075134 0.309113 0.090729
0.077301 0.310089 0.090698
0.079376 0.311035 0.090698
0.081512 0.312073 0.090729
0.083618 0.312958 0.090698
0.089600 0.315063 0.090607
0.156708 0.343109 0.089478
0.252350 0.384369 0.101105
0.343384 0.403381 0.120026
0.422577 0.422089 0.137909
0.492920 0.435303 0.150909
0.548218 0.442841 0.161102
0.595093 0.452026 0.169464
0.637695 0.463715 0.177826
0.675049 0.471375 0.185028
0.707367 0.475616 0.191406
0.723816 0.477417 0.194672
0.728485 0.477173 0.195465
0.732635 0.477081 0.196167
0.736694 0.477142 0.196930
0.740692 0.477478 0.197662
0.744720 0.477875 0.198425
0.748444 0.478516 0.199188
0.752228 0.479340 0.200012
0.755920 0.480194 0.200806
0.759705 0.481018 0.201599
0.763428 0.481842 0.202393
0.075256 0.345978 0.101898
0.077454 0.346832 0.102051
0.079651 0.347656 0.102142
0.081818 0.348450 0.102295
0.083954 0.349304 0.102417
0.086029 0.350159 0.102570
0.087952 0.350647 0.102386
0.089844 0.351135 0.102203
0.091675 0.351624 0.101959
0.093597 0.352020 0.101746
0.095520 0.352509 0.101562
0.120239 0.360443 0.101105
0.229889 0.408813 0.104614
0.308197 0.438873 0.119995
0.394958 0.455597 0.139465
0.467651 0.471344 0.153290
0.530792 0.482147 0.165039
0.579407 0.490265 0.173187
0.622803 0.499542 0.181000
0.660919 0.507782 0.188263
0.692444 0.512604 0.194458
0.711548 0.514801 0.198120
0.717621 0.514954 0.199249
0.721741 0.514954 0.200012
0.725861 0.515076 0.200775
0.729889 0.515442 0.201538
0.733887 0.515839 0.202301
0.737823 0.516449 0.203094
0.741791 0.516998 0.203888
0.745667 0.517609 0.204681
0.749573 0.518219 0.205444
0.753448 0.518829 0.206238
0.085999 0.383789 0.112061
0.088013 0.384552 0.112152
0.090027 0.385376 0.112305
0.092041 0.386108 0.112427
0.093964 0.386841 0.112518
0.095978 0.387482 0.112579
0.097809 0.388336 0.112610
0.099792 0.389252 0.112671
0.101654 0.390015 0.112671
0.103577 0.390778 0.112640
0.105377 0.391113 0.112396
0.107300 0.391693 0.112396
0.179382 0.423157 0.112152
0.286865 0.473755 0.123718
0.365082 0.488739 0.140503
0.439545 0.505463 0.155426
0.506561 0.516632 0.167175
0.560608 0.526001 0.176483
0.605469 0.535339 0.184875
0.644043 0.543488 0.191772
0.676270 0.549316 0.197571
0.698853 0.552246 0.201904
0.706451 0.552856 0.203339
0.710571 0.553040 0.204102
0.714691 0.553284 0.204865
0.718719 0.553802 0.205688
0.722748 0.554321 0.206482
0.726776 0.554901 0.207306
0.730804 0.555664 0.208130
0.734802 0.556335 0.208984
0.738800 0.557068 0.209778
0.742767 0.557709 0.210602
0.095947 0.419922 0.122253
0.097870 0.420807 0.122375
0.099762 0.421783 0.122498
0.101654 0.422699 0.122620
0.103607 0.423584 0.122803
0.105530 0.424469 0.123016
0.107361 0.425568 0.123108
0.109222 0.426697 0.123230
0.111084 0.427765 0.123383
0.112885 0.428741 0.123413
0.114777 0.429718 0.123505
0.116577 0.430511 0.123657
0.136993 0.438629 0.125000
0.262939 0.495331 0.127106
0.330048 0.524292 0.141418
0.415924 0.543091 0.160278
0.486694 0.555481 0.172607
0.539734 0.560516 0.180176
0.586182 0.570038 0.188629
0.626678 0.579712 0.195953
0.659454 0.586182 0.201904
0.685699 0.590088 0.206177
0.696045 0.590912 0.207825
0.700012 0.590881 0.208466
0.703918 0.590942 0.209167
0.707794 0.591187 0.209839
0.711670 0.591461 0.210541
0.715668 0.592010 0.211304
0.719635 0.592712 0.212128
0.723663 0.593414 0.212982
0.727600 0.594177 0.213776
0.731567 0.594849 0.214600
0.105682 0.455750 0.132446
0.107452 0.457001 0.132599
0.109314 0.458252 0.132721
0.111053 0.459259 0.132812
0.112854 0.460236 0.132904
0.114655 0.461243 0.132965
0.116516 0.462402 0.133209
0.118378 0.463593 0.133423
0.120239 0.464874 0.133575
0.122131 0.466125 0.133759
0.123962 0.467316 0.133911
0.125824 0.467926 0.133881
0.127563 0.468414 0.133942
0.206604 0.500854 0.133728
0.313660 0.548340 0.144196
0.383514 0.575836 0.162933
0.465729 0.595428 0.178894
0.521271 0.600677 0.186523
0.567688 0.604797 0.193146
0.608490 0.613373 0.200073
0.644348 0.622406 0.207245
0.671417 0.626526 0.211578
0.686432 0.627960 0.213593
0.690796 0.627747 0.214020
0.694489 0.627625 0.214325
0.698212 0.627594 0.214722
0.701965 0.627747 0.215179
0.705780 0.627991 0.215790
0.709625 0.628357 0.216431
0.713440 0.628662 0.217041
0.717224 0.629059 0.217682
0.721100 0.629333 0.218384
0.115051 0.491882 0.142487
0.116821 0.492950 0.142578
0.118591 0.493988 0.142670
0.120422 0.495056 0.142761
0.122253 0.496124 0.142853
0.124023 0.497162 0.143005
0.125824 0.498199 0.143097
0.127625 0.499359 0.143250
0.129486 0.500488 0.143402
0.131317 0.501587 0.143555
0.133148 0.502625 0.143677
0.134949 0.503113 0.143616
0.136719 0.503571 0.143555
0.157013 0.509155 0.143555
0.284485 0.563934 0.145782
0.350250 0.601807 0.163483
0.438873 0.628815 0.182587
0.502075 0.639587 0.192444
0.550018 0.643646 0.199188
0.591553 0.646851 0.205139
0.626862 0.652557 0.210724
0.656738 0.660156 0.216522
0.676636 0.662872 0.219269
0.682800 0.662689 0.219849
0.686493 0.662567 0.220184
0.690155 0.662445 0.220490
0.693787 0.662445 0.220825
0.697449 0.662445 0.221161
0.701050 0.662567 0.221527
0.704620 0.662659 0.221893
0.708313 0.662781 0.222260
0.711945 0.662903 0.222687
0.123993 0.524445 0.152222
0.125641 0.525269 0.152222
0.127380 0.526123 0.152161
0.128998 0.527008 0.152130
0.130768 0.528076 0.152222
0.132568 0.529114 0.152283
0.134277 0.529938 0.152130
0.135986 0.530762 0.152008
0.137665 0.531616 0.151917
0.139374 0.532471 0.151855
0.141113 0.533203 0.151794
0.142822 0.533661 0.151733
0.144531 0.534058 0.151611
0.146271 0.534393 0.151489
0.233704 0.567688 0.151520
0.339752 0.615814 0.165497
0.408051 0.653107 0.183289
0.480011 0.669739 0.195831
0.531616 0.676666 0.203796
0.575500 0.679840 0.210114
0.612518 0.682251 0.215271
0.640808 0.685669 0.219299
0.663757 0.691528 0.223328
0.675781 0.693726 0.225159
0.679504 0.693695 0.225494
0.683228 0.693634 0.225861
0.686890 0.693817 0.226257
0.690521 0.693939 0.226654
0.694183 0.694031 0.227020
0.697754 0.694122 0.227386
0.701324 0.694305 0.227753
0.704956 0.694336 0.228088
0.131042 0.550415 0.160431
0.132660 0.551056 0.160217
0.134277 0.551666 0.160004
0.135895 0.552307 0.159790
0.137543 0.552979 0.159576
0.139221 0.553833 0.159576
0.140808 0.554535 0.159363
0.142426 0.555145 0.159149
0.144012 0.555786 0.158905
0.145691 0.556458 0.158722
0.147369 0.557281 0.158569
0.149353 0.558014 0.158508
0.151367 0.558655 0.158478
0.153351 0.559265 0.158417
0.200592 0.576935 0.158508
0.326263 0.629578 0.168304
0.383667 0.668304 0.183441
0.458527 0.690796 0.197327
0.514954 0.700989 0.206635
0.560669 0.705963 0.213593
0.598419 0.708710 0.218964
0.628754 0.710815 0.223145
0.650665 0.713745 0.226105
0.667297 0.718048 0.228973
0.672729 0.719147 0.229858
0.676636 0.719971 0.230469
0.680511 0.720764 0.231110
0.684326 0.721527 0.231689
0.688049 0.722229 0.232239
0.691681 0.722656 0.232697
0.695374 0.722778 0.233093
0.698975 0.722900 0.233459
0.133942 0.560822 0.163666
0.135437 0.561554 0.163513
0.137085 0.562195 0.163239
0.138702 0.562805 0.163025
0.140289 0.563446 0.162811
0.141937 0.564087 0.162628
0.143494 0.564819 0.162415
0.145050 0.565521 0.162201
0.146637 0.566162 0.162018
0.148285 0.566803 0.161804
0.149902 0.567444 0.161560
0.152649 0.568024 0.161255
0.154663 0.568787 0.161224
0.156708 0.569489 0.161194
0.181702 0.577271 0.161438
0.299896 0.626526 0.166534
0.371429 0.669128 0.182678
0.442688 0.697906 0.196716
0.502960 0.710388 0.207001
0.551117 0.717224 0.214844
0.588928 0.720978 0.220367
0.620087 0.723358 0.224701
0.642944 0.726501 0.227875
0.660126 0.729553 0.230377
0.668915 0.731812 0.231873
0.672852 0.732758 0.232544
0.676758 0.733795 0.233185
0.680573 0.734772 0.233856
0.684357 0.735535 0.234406
0.688110 0.736298 0.234985
0.691864 0.737030 0.235565
0.695618 0.737823 0.236115
0.135193 0.565277 0.164978
0.136719 0.566040 0.164825
0.138275 0.566772 0.164642
0.139862 0.567383 0.164398
0.141479 0.568024 0.164185
0.143097 0.568695 0.164001
0.144653 0.569458 0.163818
0.146210 0.570221 0.163635
0.147797 0.570862 0.163422
0.149414 0.571533 0.163239
0.151031 0.572144 0.162994
0.153717 0.572693 0.162689
0.156433 0.573212 0.162384
0.158508 0.573975 0.162354
0.160583 0.574738 0.162323
0.260437 0.614655 0.164032
0.360352 0.665924 0.180908
0.428772 0.699188 0.195190
0.494171 0.713074 0.206329
0.543976 0.721191 0.214722
0.582550 0.725555 0.220490
0.614075 0.728210 0.224915
0.638062 0.731110 0.228302
0.655396 0.734161 0.230774
0.666595 0.736908 0.232635
0.671143 0.738098 0.233429
0.675018 0.739136 0.234100
0.678894 0.740234 0.234772
0.682831 0.741364 0.235443
0.686554 0.742126 0.235992
0.690308 0.742950 0.236572
0.694031 0.743683 0.237152
0.136475 0.569733 0.166321
0.137970 0.570465 0.166138
0.139496 0.571228 0.165985
0.141052 0.571960 0.165802
0.142670 0.572601 0.165558
0.144257 0.573212 0.165375
0.145813 0.573975 0.165192
0.147400 0.574738 0.165039
0.148956 0.575500 0.164886
0.150574 0.576202 0.164642
0.152191 0.576843 0.164429
0.154846 0.577393 0.164093
0.157562 0.577911 0.163788
0.160339 0.578461 0.163513
0.162415 0.579193 0.163513
0.239716 0.609802 0.164764
0.354980 0.664398 0.179932
0.417084 0.700928 0.194061
0.487152 0.715912 0.205933
0.538086 0.724823 0.214691
0.577698 0.729523 0.220703
0.609436 0.732300 0.225189
0.634247 0.735046 0.228668
0.651764 0.738037 0.231171
0.664673 0.740814 0.233215
0.669830 0.742188 0.234070
0.673706 0.743286 0.234772
0.677612 0.744354 0.235443
0.681549 0.745453 0.236145
0.685394 0.746552 0.236786
0.689117 0.747375 0.237366
0.692902 0.748108 0.237946
0.137695 0.574188 0.167694
0.139191 0.574951 0.167480
0.140747 0.575714 0.167297
0.142273 0.576447 0.167175
0.143860 0.577148 0.166992
0.145477 0.577789 0.166779
0.147034 0.578552 0.166595
0.148590 0.579346 0.166443
0.150116 0.580139 0.166290
0.151672 0.580872 0.166107
0.153290 0.581512 0.165863
0.155945 0.582062 0.165558
0.158661 0.582642 0.165253
0.161469 0.583160 0.164978
0.164307 0.583679 0.164703
0.236176 0.612183 0.165924
0.350861 0.664429 0.179504
0.410583 0.702362 0.193604
0.481842 0.719025 0.205902
0.533600 0.728516 0.214844
0.573944 0.733551 0.221069
0.605927 0.736511 0.225677
0.630981 0.739136 0.229156
0.648895 0.742065 0.231689
0.662476 0.744934 0.233765
0.668518 0.746368 0.234802
0.672424 0.747345 0.235474
0.676300 0.748474 0.236145
0.680206 0.749573 0.236816
0.684052 0.750702 0.237488
0.687988 0.751770 0.238190
0.691711 0.752563 0.238739
0.138916 0.578674 0.169006
0.140472 0.579376 0.168823
0.141998 0.580139 0.168640
0.143555 0.580902 0.168457
0.145111 0.581604 0.168304
0.146667 0.582367 0.168152
0.148193 0.583130 0.167969
0.149719 0.583862 0.167786
0.151306 0.584656 0.167664
0.152832 0.585449 0.167480
0.154388 0.586182 0.167328
0.157074 0.586731 0.166992
0.159790 0.587280 0.166687
0.162537 0.587830 0.166412
0.165375 0.588379 0.166138
0.234192 0.615112 0.167084
0.348236 0.666199 0.179840
0.408020 0.703979 0.193848
0.477722 0.722351 0.206085
0.530396 0.732269 0.215210
0.571045 0.737671 0.221558
0.603241 0.740723 0.226227
0.628326 0.743408 0.229706
0.646729 0.746185 0.232300
0.660370 0.748993 0.234375
0.667389 0.750641 0.235535
0.671112 0.751465 0.236176
0.675018 0.752594 0.236816
0.678864 0.753693 0.237488
0.682739 0.754822 0.238190
0.686646 0.755951 0.238861
0.690582 0.757019 0.239563
0.140076 0.583313 0.170410
0.141632 0.584076 0.170227
0.143158 0.584808 0.170044
0.144684 0.585541 0.169891
0.146240 0.586334 0.169708
0.147797 0.587036 0.169556
0.149994 0.587830 0.169189
0.151550 0.588593 0.169006
0.153046 0.589355 0.168854
0.154633 0.590118 0.168701
0.156158 0.590881 0.168549
0.158905 0.591370 0.168274
0.161591 0.591919 0.167969
0.164368 0.592438 0.167694
0.167175 0.592987 0.167389
0.233459 0.618652 0.168304
0.346832 0.668976 0.180603
