滤镜资源/Professional Luts Collection/Triune-Digital-Cinematic-LUTs/3D LUTs (CUBE)/ALEXA/Breaking Bad - Alexa.cube
#Created by Benjamin (IWLTBAP) : http://luts.iwltbap.com
#Copyright: (C) Copyright 2016 Triune Films and IWLTBAP
TITLE "Blockbuster LUTs Pack (Alexa Log-C)"
#LUT size
LUT_3D_SIZE 5
#LUT data points
DOMAIN_MIN 0.000000 0.000000 0.000000
DOMAIN_MAX 0.903226 0.903226 0.903226
0.007263 0.011139 0.010956
0.111664 0.030762 0.024078
0.557861 0.122772 0.120636
0.811523 0.175934 0.197449
0.828400 0.178467 0.204834
0.018005 0.085144 0.026672
0.080933 0.105164 0.027679
0.506317 0.187714 0.115295
0.836761 0.206146 0.198761
0.858704 0.207672 0.209137
0.063843 0.305023 0.089661
0.079376 0.311035 0.090698
0.422577 0.422089 0.137909
0.723816 0.477417 0.194672
0.752228 0.479340 0.200012
0.131042 0.550415 0.160431
0.142426 0.555145 0.159149
0.200592 0.576935 0.158508
0.628754 0.710815 0.223145
0.688049 0.722229 0.232239
0.141266 0.588043 0.171844
0.153320 0.593323 0.170227
0.169006 0.597626 0.168640
0.599365 0.749481 0.227570
0.676239 0.761841 0.238831
0.016693 0.022675 0.082520
0.089172 0.025208 0.088470
0.534729 0.113800 0.174774
0.784790 0.166290 0.241791
0.805328 0.169983 0.246948
0.019135 0.080170 0.082214
0.092957 0.102844 0.105042
0.607971 0.200592 0.207611
0.816345 0.191681 0.246948
0.839020 0.196075 0.254486
0.063202 0.303802 0.102966
0.082184 0.318146 0.106049
0.436920 0.425781 0.152405
0.737671 0.481720 0.212158
0.768433 0.486908 0.223022
0.130951 0.549774 0.172180
0.149048 0.565155 0.172058
0.215179 0.587158 0.172546
0.633575 0.714508 0.235931
0.693542 0.727112 0.245300
0.141327 0.588104 0.183685
0.159851 0.602722 0.182922
0.185120 0.606781 0.182434
0.604919 0.753693 0.240540
0.681305 0.767883 0.252258
0.028961 0.051849 0.277313
0.059784 0.047913 0.273071
0.433380 0.083679 0.304993
0.701721 0.140808 0.356018
0.724213 0.145416 0.361938
0.030731 0.071625 0.280090
0.055634 0.078979 0.307007
0.447113 0.100159 0.312744
0.733551 0.164154 0.376038
0.755859 0.167969 0.379333
0.077087 0.318726 0.354706
0.092651 0.331207 0.368134
0.531738 0.524536 0.527802
0.867126 0.594666 0.563141
0.893524 0.596588 0.568115
0.138794 0.575012 0.396271
0.154297 0.589691 0.404968
0.185333 0.617645 0.417206
0.703217 0.791412 0.448364
0.781586 0.806610 0.479858
0.139313 0.588898 0.349548
0.156738 0.609436 0.364471
0.173584 0.629395 0.379028
0.647339 0.816925 0.409515
0.751495 0.842621 0.450073
0.047424 0.066559 0.421753
0.058044 0.063293 0.412567
0.394287 0.093597 0.514954
0.697357 0.142426 0.528351
0.715485 0.145111 0.531494
0.051758 0.087830 0.435944
0.067413 0.093201 0.450226
0.390839 0.106201 0.515442
0.698242 0.153809 0.530457
0.716797 0.156525 0.534119
0.086212 0.269470 0.531403
0.102692 0.286163 0.550079
0.438812 0.344849 0.687653
0.799042 0.284027 0.630615
0.821350 0.277252 0.630524
0.151031 0.587524 0.633545
0.163757 0.595428 0.642395
0.177307 0.603485 0.651642
0.849609 0.856964 0.845245
0.921906 0.867523 0.857513
0.170715 0.672028 0.669708
0.183411 0.679565 0.677124
0.197998 0.692169 0.688049
0.833740 0.914948 0.854004
0.897949 0.916870 0.841431
0.049957 0.069122 0.453400
0.060516 0.065674 0.445007
0.346100 0.094299 0.547638
0.696777 0.142761 0.566772
0.715485 0.145538 0.567993
0.055084 0.090668 0.469604
0.073456 0.102203 0.497742
0.351654 0.108734 0.553955
0.697998 0.154297 0.567871
0.718323 0.157410 0.570038
0.073273 0.179779 0.533112
0.091248 0.196106 0.557404
0.307983 0.175232 0.610504
0.742371 0.204559 0.607788
0.765472 0.205627 0.610840
0.154266 0.583649 0.693085
0.167084 0.591034 0.700714
0.181976 0.601624 0.712830
0.862091 0.865417 0.909332
0.918915 0.863098 0.909973
0.176636 0.677612 0.727844
0.189240 0.685547 0.735657
0.202820 0.695801 0.745148
0.828918 0.919312 0.908569
0.929810 0.938080 0.927368
