滤镜资源/Professional Luts Collection/Triune-Digital-Cinematic-LUTs/3D LUTs (CUBE)/ALEXA/Breaking Bad - Alexa.cube
#Created by Benjamin (IWLTBAP) : http://luts.iwltbap.com
#Copyright: (C) Copyright 2016 Triune Films and IWLTBAP
TITLE "Blockbuster LUTs Pack (Alexa Log-C)"
#LUT size
LUT_3D_SIZE 8
#LUT data points
DOMAIN_MIN 0.000000 0.000000 0.000000
DOMAIN_MAX 0.903226 0.903226 0.903226
0.007263 0.011139 0.010956
0.049194 0.018341 0.016418
0.150543 0.039124 0.034454
0.431061 0.094696 0.089539
0.672699 0.146942 0.150330
0.805481 0.174927 0.193848
0.817780 0.176697 0.201965
0.828400 0.178467 0.204834
0.011810 0.046478 0.017792
0.039581 0.052582 0.017944
0.133942 0.071411 0.031433
0.399933 0.112000 0.085327
0.680084 0.162872 0.153534
0.821838 0.189301 0.195038
0.835205 0.191498 0.204010
0.846313 0.193542 0.207214
0.020508 0.103119 0.031494
0.029266 0.104156 0.031708
0.103790 0.132202 0.032104
0.364838 0.177490 0.083588
0.622681 0.241486 0.146088
0.824371 0.234222 0.194916
0.851074 0.225800 0.206635
0.863037 0.224304 0.210541
0.047943 0.228271 0.066711
0.056824 0.231415 0.067535
0.065521 0.234192 0.068268
0.322144 0.322815 0.101807
0.576447 0.368134 0.152740
0.730713 0.400085 0.184387
0.755554 0.400513 0.188965
0.772278 0.403259 0.192505
0.085999 0.383789 0.112061
0.093964 0.386841 0.112518
0.101654 0.390015 0.112671
0.179382 0.423157 0.112152
0.506561 0.516632 0.167175
0.676270 0.549316 0.197571
0.714691 0.553284 0.204865
0.730804 0.555664 0.208130
0.123993 0.524445 0.152222
0.130768 0.528076 0.152222
0.137665 0.531616 0.151917
0.144531 0.534058 0.151611
0.408051 0.653107 0.183289
0.612518 0.682251 0.215271
0.679504 0.693695 0.225494
0.694183 0.694031 0.227020
0.136475 0.569733 0.166321
0.142670 0.572601 0.165558
0.148956 0.575500 0.164886
0.157562 0.577911 0.163788
0.354980 0.664398 0.179932
0.577698 0.729523 0.220703
0.664673 0.740814 0.233215
0.681549 0.745453 0.236145
0.141266 0.588043 0.171844
0.147400 0.591034 0.171112
0.154846 0.594086 0.170044
0.163422 0.596558 0.169220
0.346313 0.672333 0.181519
0.567139 0.746216 0.222931
0.657379 0.757446 0.235748
0.676239 0.761841 0.238831
0.010864 0.014771 0.042053
0.043854 0.016724 0.044678
0.145844 0.036804 0.059662
0.427582 0.091858 0.113678
0.660645 0.142761 0.172089
0.790771 0.169495 0.211670
0.806000 0.172272 0.219849
0.817596 0.174316 0.222778
0.011627 0.041779 0.041748
0.040741 0.047943 0.047455
0.161743 0.070435 0.066193
0.453064 0.117371 0.121796
0.678467 0.157379 0.176941
0.806122 0.183411 0.214203
0.822357 0.186401 0.222504
0.834381 0.188660 0.225616
0.021240 0.100830 0.049469
0.030426 0.104004 0.051147
0.111237 0.133301 0.052124
0.402496 0.189545 0.113800
0.661591 0.253815 0.183563
0.839203 0.229736 0.224213
0.847015 0.212891 0.226501
0.856415 0.211487 0.228577
0.047791 0.227509 0.074738
0.057526 0.234009 0.076141
0.066254 0.236786 0.076904
0.327606 0.320892 0.109222
0.583832 0.370544 0.160980
0.739410 0.402344 0.194061
0.769196 0.405029 0.204590
0.787689 0.408417 0.210022
0.085785 0.383942 0.119507
0.095245 0.390106 0.120514
0.102783 0.393646 0.120544
0.185089 0.424042 0.118622
0.513245 0.520721 0.175659
0.679596 0.550140 0.204529
0.718567 0.554108 0.211975
0.734772 0.556458 0.215240
0.123871 0.523743 0.158905
0.132446 0.532928 0.159668
0.139099 0.536316 0.159302
0.149719 0.538818 0.159088
0.410614 0.654114 0.190460
0.615845 0.683838 0.222565
0.682648 0.695740 0.232727
0.697418 0.695892 0.234161
0.136475 0.569763 0.173126
0.144043 0.578369 0.173096
0.153137 0.580872 0.171600
0.163727 0.583344 0.171112
0.358490 0.667328 0.187927
0.581696 0.730957 0.228027
0.667419 0.744263 0.240784
0.684357 0.748932 0.243683
0.141296 0.588074 0.178619
0.149628 0.596924 0.178284
0.158997 0.599365 0.176971
0.170074 0.601868 0.176483
0.350433 0.675842 0.189636
0.571259 0.747681 0.230225
0.660034 0.760864 0.243286
0.679077 0.765381 0.246429
0.020416 0.026550 0.100861
0.047577 0.025757 0.103516
0.114563 0.030396 0.108032
0.380707 0.079590 0.153748
0.637360 0.135498 0.208435
0.766815 0.161835 0.246307
0.781799 0.164337 0.251648
0.795532 0.166962 0.255096
0.020294 0.040253 0.099884
0.044495 0.042419 0.106873
0.120483 0.044403 0.114807
0.409851 0.097809 0.165863
0.660400 0.151398 0.220032
0.793671 0.177551 0.258972
0.806946 0.179565 0.262329
0.819794 0.182098 0.264648
0.022369 0.099213 0.102875
0.031891 0.102173 0.105865
0.126221 0.138031 0.140991
0.474426 0.219025 0.214203
0.711761 0.242462 0.253479
0.820190 0.201630 0.263031
0.826935 0.195496 0.265656
0.839752 0.198059 0.268036
0.047363 0.223846 0.115479
0.056793 0.229248 0.117981
0.065857 0.234833 0.120270
0.353149 0.323395 0.149017
0.605042 0.393616 0.211090
0.775665 0.436951 0.255402
0.804596 0.442261 0.268768
0.821136 0.446289 0.274658
0.085327 0.382996 0.126984
0.094940 0.389130 0.128021
0.103607 0.396149 0.128387
0.188629 0.423645 0.125122
0.519989 0.523346 0.184143
0.683441 0.550018 0.211578
0.723450 0.554047 0.219299
0.739960 0.556519 0.222717
0.123322 0.521851 0.165619
0.131958 0.531006 0.166473
0.141846 0.539368 0.166565
0.153320 0.541962 0.166351
0.414398 0.654358 0.197662
0.619446 0.684296 0.229706
0.685944 0.697052 0.239868
0.700928 0.696716 0.241119
0.136536 0.569824 0.179962
0.144135 0.578308 0.179901
0.159271 0.586670 0.179016
0.172607 0.589417 0.179016
0.361664 0.670044 0.195984
0.585297 0.732361 0.235413
0.670105 0.747406 0.248352
0.687317 0.752106 0.251343
0.141327 0.588165 0.185364
0.149353 0.596924 0.185272
0.164307 0.604797 0.184326
0.179718 0.607178 0.184235
0.354248 0.679230 0.197876
0.574890 0.749207 0.237610
0.662598 0.764099 0.250977
0.681976 0.768707 0.254150
0.024200 0.047028 0.221436
0.034058 0.045044 0.220520
0.095123 0.042847 0.220917
0.297638 0.053986 0.221924
0.586975 0.120361 0.283813
0.708069 0.142548 0.303864
0.723358 0.145264 0.307526
0.738770 0.148682 0.311401
0.026550 0.058411 0.217438
0.038422 0.061340 0.236115
0.095886 0.054321 0.236176
0.315948 0.066345 0.232727
0.602081 0.132050 0.291992
0.727844 0.156372 0.316803
0.743500 0.159241 0.319824
0.759094 0.162628 0.323761
0.029053 0.077393 0.224091
0.038635 0.079712 0.231750
0.090088 0.076508 0.267426
0.332458 0.079285 0.246948
0.616821 0.144745 0.301392
0.750854 0.172180 0.330353
0.766724 0.175140 0.333008
0.782196 0.178497 0.335785
0.053192 0.231781 0.253845
0.063538 0.239685 0.262695
0.073425 0.247650 0.272797
0.400208 0.397125 0.407135
0.691376 0.471680 0.450867
0.851746 0.488464 0.459961
0.875854 0.482300 0.459747
0.889587 0.482056 0.460602
0.092712 0.398468 0.287170
0.100922 0.405060 0.293274
0.109161 0.410919 0.298218
0.174377 0.461517 0.324768
0.551880 0.577301 0.341522
0.746735 0.624207 0.396118
0.792908 0.625885 0.395081
0.812622 0.630707 0.403442
0.118866 0.511322 0.246216
0.128418 0.523010 0.248627
0.138306 0.534454 0.250610
0.148529 0.545044 0.253265
0.426300 0.666748 0.268646
0.641998 0.710266 0.304504
0.724945 0.729309 0.326172
0.743317 0.733948 0.333466
0.135315 0.569275 0.208984
0.144287 0.576874 0.209534
0.152496 0.585815 0.210022
0.163177 0.593628 0.209442
0.377808 0.679382 0.229218
0.599762 0.744141 0.273315
0.686493 0.761505 0.290924
0.707733 0.769897 0.298340
0.140747 0.587830 0.211243
0.149139 0.596100 0.212341
0.158905 0.605164 0.212280
0.170990 0.612518 0.212036
0.367310 0.687286 0.227509
0.586273 0.761139 0.268341
0.674255 0.776672 0.281921
0.694946 0.780518 0.285706
0.036011 0.057678 0.326019
0.043793 0.056458 0.323334
0.065155 0.054810 0.319885
0.266418 0.065613 0.372070
0.571411 0.117584 0.389435
0.690125 0.140167 0.408356
0.705536 0.142761 0.411652
0.717346 0.144958 0.414154
0.037781 0.069061 0.329163
0.050598 0.074524 0.345886
0.067200 0.071442 0.342438
0.267090 0.074188 0.374512
0.571625 0.124512 0.390930
0.695953 0.148926 0.413086
0.711761 0.151672 0.416290
0.723938 0.153687 0.418854
0.041565 0.082062 0.337830
0.052185 0.086517 0.347992
0.063812 0.092133 0.368134
0.261475 0.082916 0.378052
0.571106 0.131561 0.391998
0.703278 0.157959 0.418427
0.720520 0.160950 0.422302
0.733643 0.163391 0.425293
0.063385 0.216034 0.384979
0.074097 0.225616 0.398651
0.084747 0.235474 0.412933
0.361328 0.343231 0.551941
0.675995 0.311615 0.523682
0.831207 0.315521 0.530762
0.842743 0.289307 0.521301
0.854553 0.288849 0.522491
0.100189 0.404907 0.444092
0.108704 0.411224 0.451294
0.117249 0.417419 0.458435
0.144714 0.440796 0.482819
0.630280 0.631561 0.631348
0.841919 0.679596 0.654327
0.885956 0.684479 0.657776
0.898529 0.687958 0.661804
0.139771 0.566345 0.500244
0.147766 0.572571 0.505402
0.156128 0.579865 0.511261
0.164856 0.587830 0.518585
0.477661 0.742188 0.613403
0.737305 0.795197 0.611206
0.827118 0.804504 0.614044
0.846252 0.808746 0.622223
0.154541 0.624847 0.508545
0.162964 0.633667 0.514832
0.171539 0.642578 0.520782
0.180359 0.652100 0.527710
0.345581 0.775085 0.597412
0.692047 0.841522 0.595459
0.791595 0.854706 0.605255
0.819702 0.859558 0.617493
0.158569 0.641235 0.510620
0.167023 0.650391 0.516907
0.175842 0.660370 0.523529
0.184814 0.670380 0.530396
0.308899 0.779266 0.587677
0.696411 0.855225 0.612610
0.780792 0.867981 0.611267
0.811951 0.871277 0.618439
0.046539 0.065948 0.409271
0.052704 0.063965 0.403778
0.058899 0.062469 0.399048
0.189697 0.080780 0.472717
0.569672 0.119995 0.511414
0.689636 0.141174 0.510925
0.704865 0.143372 0.512604
0.715302 0.144928 0.514709
0.048920 0.078003 0.417145
0.057892 0.080566 0.423615
0.064209 0.078217 0.418213
0.194214 0.089691 0.475952
0.572205 0.127502 0.511780
0.690063 0.147614 0.512543
0.705536 0.149841 0.514404
0.715881 0.151337 0.516571
0.050934 0.089996 0.423645
0.059753 0.092438 0.429443
0.068207 0.095001 0.436523
0.193237 0.098633 0.479187
0.572662 0.134674 0.512360
0.690826 0.154419 0.514038
0.707275 0.156769 0.516388
0.717773 0.158295 0.518677
0.053131 0.104279 0.431152
0.061646 0.106689 0.435486
0.069702 0.108582 0.439606
0.158905 0.104889 0.475067
0.562073 0.139862 0.512543
0.691650 0.162109 0.516022
0.715912 0.166138 0.520538
0.726929 0.167786 0.523224
0.107269 0.390839 0.548920
0.115356 0.397369 0.555756
0.123993 0.404602 0.563660
0.133301 0.412567 0.573761
0.607086 0.614044 0.747650
0.837463 0.627716 0.748108
0.884033 0.644165 0.759827
0.895935 0.649597 0.763367
0.143311 0.559296 0.604828
0.150726 0.563843 0.609467
0.158386 0.568970 0.614838
0.166138 0.573669 0.620209
0.441589 0.724213 0.729645
0.817444 0.826263 0.811493
0.904694 0.836212 0.824524
0.916504 0.838715 0.827332
0.164429 0.651123 0.643524
0.171661 0.655579 0.648041
0.179352 0.660706 0.653107
0.187592 0.667511 0.659424
0.296448 0.768066 0.732086
0.793213 0.888092 0.822357
0.866882 0.895142 0.812317
0.894409 0.896240 0.813995
0.169037 0.670074 0.650635
0.176239 0.674530 0.654877
0.183807 0.679565 0.659821
0.192261 0.686707 0.666046
0.262909 0.758759 0.719147
0.787018 0.903320 0.825348
0.863739 0.913818 0.820557
0.888763 0.911499 0.814697
0.048981 0.068054 0.443939
0.055023 0.066040 0.438904
0.060913 0.064087 0.433868
0.168579 0.080444 0.503693
0.548492 0.116241 0.549408
0.687866 0.141357 0.556915
0.705322 0.143860 0.557861
0.715790 0.145477 0.558838
0.052002 0.079712 0.452484
0.062164 0.085754 0.466736
0.068237 0.083221 0.461182
0.170349 0.090790 0.512207
0.551788 0.123627 0.550049
0.688202 0.147797 0.557373
0.706512 0.150482 0.558807
0.716980 0.152069 0.559753
0.054565 0.092590 0.461548
0.064209 0.098419 0.474030
0.074280 0.102539 0.488647
0.169067 0.099731 0.514679
0.551575 0.130646 0.550385
0.687988 0.154358 0.558136
0.707611 0.157227 0.559753
0.718140 0.158844 0.560760
0.056854 0.106476 0.470886
0.065979 0.111237 0.479523
0.075378 0.114899 0.491333
0.145050 0.108459 0.510895
0.529999 0.133911 0.551636
0.689178 0.162201 0.562317
0.714142 0.165863 0.564636
0.725220 0.167572 0.566040
0.112915 0.386932 0.613220
0.121887 0.394989 0.621765
0.131622 0.404724 0.632172
0.141022 0.412781 0.642181
0.583130 0.590790 0.805084
0.823975 0.574829 0.790497
0.870178 0.579346 0.789673
0.883026 0.589722 0.795410
0.145569 0.552948 0.660278
0.153168 0.558319 0.665710
0.160950 0.563660 0.671265
0.169067 0.568909 0.677155
0.407684 0.719604 0.798889
0.825500 0.829559 0.877075
0.902954 0.834137 0.881134
0.914948 0.837128 0.885101
0.167023 0.644989 0.693024
0.174286 0.649414 0.697784
0.181671 0.653900 0.702606
0.189362 0.658569 0.707825
0.264099 0.724335 0.762573
0.780914 0.881012 0.871704
0.906158 0.914642 0.903381
0.927917 0.917511 0.907562
0.174377 0.675476 0.706207
0.181488 0.679535 0.710358
0.188690 0.683807 0.714569
0.196625 0.690002 0.720123
0.257324 0.748108 0.768524
0.776764 0.908020 0.879669
0.907257 0.934662 0.906250
0.918182 0.932648 0.901550
0.049957 0.069122 0.453400
0.056000 0.067078 0.448547
0.061951 0.065186 0.443787
0.165192 0.080109 0.509308
0.544922 0.115662 0.558502
0.686951 0.141327 0.566284
0.705170 0.144012 0.567322
0.715485 0.145538 0.567993
0.053070 0.080688 0.461884
0.063354 0.087402 0.477448
0.069458 0.084869 0.472412
0.167175 0.090790 0.518921
0.547699 0.122955 0.559143
0.687256 0.147797 0.566681
0.706390 0.150604 0.568176
0.716919 0.152191 0.568970
0.055695 0.094025 0.471893
0.065430 0.100311 0.484802
0.076477 0.106476 0.503448
0.166443 0.100952 0.526093
0.546509 0.129730 0.559631
0.687042 0.154358 0.567322
0.707581 0.157379 0.569122
0.718658 0.159119 0.570343
0.058136 0.108276 0.482117
0.067444 0.113708 0.491974
0.077423 0.119019 0.506348
0.142456 0.112488 0.526367
0.524292 0.133148 0.561401
0.688477 0.162292 0.571899
0.714630 0.166199 0.574585
0.725677 0.167938 0.575775
0.114227 0.384125 0.629150
0.123260 0.392426 0.637756
0.132660 0.401184 0.647125
0.141846 0.408813 0.656616
0.575226 0.584076 0.818542
0.820892 0.564545 0.801636
0.868622 0.569366 0.801331
0.879761 0.569458 0.801392
0.147491 0.552948 0.682953
0.154816 0.557617 0.687653
0.162445 0.562592 0.692780
0.170959 0.568817 0.699646
0.403534 0.722565 0.826324
0.830139 0.835297 0.898743
0.902069 0.835022 0.899292
0.912567 0.834320 0.899261
0.168671 0.644379 0.714447
0.175720 0.648315 0.718689
0.183105 0.652649 0.723328
0.191040 0.658081 0.729340
0.261017 0.722076 0.785797
0.790039 0.887604 0.898743
0.911804 0.915863 0.923920
0.931732 0.915283 0.924652
0.176636 0.677612 0.727844
0.183807 0.682220 0.732391
0.191101 0.686768 0.736816
0.198822 0.692444 0.742126
0.256409 0.744781 0.787567
0.774170 0.908051 0.900696
0.907532 0.933258 0.922852
0.929810 0.938080 0.927368
