滤镜资源/Professional Luts Collection/Triune-Digital-Cinematic-LUTs/3D LUTs (CUBE)/ALEXA/Captain America Civil War - Alexa.cube
#Created by Benjamin (IWLTBAP) : http://luts.iwltbap.com
#Copyright: (C) Copyright 2016 Triune Films and IWLTBAP
TITLE "Blockbuster LUTs Pack (Alexa Log-C)"
#LUT size
LUT_3D_SIZE 32
#LUT data points
0.001221 0.001709 0.000366
0.015503 0.005859 0.003174
0.031586 0.009979 0.006195
0.050110 0.013824 0.009735
0.069733 0.017792 0.013031
0.090973 0.022583 0.016785
0.115509 0.027924 0.021393
0.143799 0.033722 0.026215
0.177856 0.041412 0.031952
0.217499 0.049255 0.038177
0.264435 0.058838 0.045288
0.326233 0.071381 0.056030
0.395630 0.092896 0.070404
0.461609 0.116943 0.085785
0.528046 0.140869 0.101959
0.586273 0.163269 0.116577
0.637085 0.184479 0.128967
0.678009 0.200104 0.135406
0.707275 0.210999 0.138794
0.737061 0.223846 0.149628
0.757355 0.234528 0.158997
0.764496 0.238220 0.163483
0.767731 0.239716 0.166321
0.770966 0.241333 0.169006
0.774323 0.243103 0.171814
0.777863 0.245026 0.174347
0.781342 0.246979 0.176636
0.784851 0.248932 0.178650
0.788452 0.250916 0.180420
0.792023 0.252899 0.182190
0.795685 0.254944 0.184082
0.799377 0.256989 0.186249
0.002563 0.013916 0.001892
0.012238 0.015747 0.003815
0.028381 0.019775 0.006958
0.047180 0.023651 0.010254
0.067474 0.027039 0.013855
0.089172 0.031219 0.017426
0.113800 0.036041 0.021637
0.142242 0.040924 0.026154
0.176575 0.047333 0.031799
0.216583 0.054199 0.037964
0.262970 0.062012 0.044708
0.324982 0.074310 0.055450
0.394806 0.095703 0.069824
0.460999 0.119843 0.085358
0.528107 0.144043 0.101776
0.586151 0.166473 0.116211
0.636841 0.187714 0.128632
0.678253 0.203644 0.135132
0.707428 0.214600 0.138519
0.737427 0.227264 0.149536
0.757843 0.237946 0.158966
0.765228 0.241699 0.163696
0.768616 0.243378 0.166534
0.771912 0.245087 0.169312
0.775238 0.246796 0.172150
0.778778 0.248749 0.174713
0.782288 0.250702 0.177002
0.785950 0.252686 0.179047
0.789612 0.254730 0.181000
0.793243 0.256714 0.182983
0.796967 0.258759 0.184967
0.800690 0.260834 0.187073
0.003937 0.027039 0.003571
0.011017 0.028442 0.004944
0.023926 0.031219 0.007538
0.042572 0.035248 0.011108
0.064148 0.039062 0.014832
0.087158 0.042877 0.018860
0.112152 0.046844 0.022705
0.140839 0.052032 0.027130
0.174896 0.057739 0.032013
0.214996 0.064941 0.037933
0.261108 0.070587 0.044403
0.322784 0.079071 0.054779
0.393646 0.098511 0.069244
0.460388 0.122742 0.084900
0.528076 0.147217 0.101471
0.585938 0.169678 0.115875
0.636658 0.190979 0.128235
0.678406 0.207245 0.134827
0.707611 0.218109 0.138153
0.737762 0.230743 0.149384
0.758209 0.241364 0.158844
0.765747 0.245209 0.163727
0.769348 0.246857 0.166687
0.772797 0.248749 0.169586
0.776276 0.250549 0.172485
0.779907 0.252533 0.175293
0.783569 0.254578 0.177673
0.787231 0.256592 0.179779
0.790955 0.258636 0.181763
0.794617 0.260651 0.183746
0.798340 0.262665 0.185730
0.802032 0.264709 0.187866
0.005402 0.041718 0.005463
0.009705 0.042480 0.006287
0.022064 0.045197 0.008728
0.038300 0.048523 0.011810
0.061371 0.052002 0.015839
0.085205 0.055420 0.020020
0.110626 0.058929 0.024017
0.139130 0.063904 0.028198
0.173157 0.069397 0.032776
0.213196 0.076508 0.038147
0.258850 0.082916 0.044159
0.318237 0.089661 0.054016
0.391388 0.104553 0.068542
0.459290 0.125397 0.084229
0.527954 0.150482 0.101135
0.585754 0.172882 0.115387
0.636383 0.194183 0.127808
0.678711 0.210876 0.134491
0.707825 0.221680 0.137726
0.738007 0.234222 0.149017
0.758575 0.244843 0.158691
0.766327 0.248749 0.163757
0.770081 0.250458 0.166870
0.773743 0.252380 0.170044
0.777466 0.254303 0.173157
0.781189 0.256378 0.175995
0.784882 0.258423 0.178345
0.788544 0.260437 0.180511
0.792267 0.262482 0.182495
0.795959 0.264526 0.184479
0.799713 0.266541 0.186462
0.803375 0.268585 0.188538
0.005188 0.058624 0.006439
0.008362 0.059296 0.006775
0.017395 0.061157 0.008148
0.031738 0.064362 0.010620
0.053589 0.067749 0.013947
0.081421 0.070435 0.019562
0.108398 0.072937 0.025635
0.137299 0.077301 0.029510
0.171051 0.082703 0.034058
0.211273 0.089233 0.039093
0.256317 0.096924 0.044464
0.312958 0.103577 0.053314
0.386536 0.116180 0.067688
0.456940 0.133575 0.083588
0.527435 0.154266 0.100616
0.585541 0.176117 0.114807
0.635956 0.197357 0.127197
0.678833 0.214539 0.134003
0.708069 0.225281 0.137207
0.738281 0.237732 0.148529
0.759247 0.248444 0.158691
0.767242 0.252533 0.164062
0.771057 0.254211 0.167175
0.774750 0.256134 0.170288
0.778412 0.258026 0.173431
0.782104 0.259918 0.176147
0.785858 0.261963 0.178650
0.789581 0.264008 0.180817
0.793274 0.266052 0.182831
0.796997 0.268097 0.184753
0.800751 0.270203 0.186768
0.804474 0.272247 0.188934
0.003845 0.077332 0.006592
0.006866 0.077972 0.006897
0.011902 0.079041 0.007538
0.023926 0.081665 0.009247
0.042450 0.084900 0.012024
0.071991 0.087616 0.017029
0.104462 0.089813 0.024384
0.135132 0.092773 0.031311
0.168762 0.097443 0.035522
0.208618 0.103912 0.040436
0.253571 0.112579 0.045776
0.307709 0.121490 0.053497
0.379486 0.133026 0.066803
0.451782 0.148712 0.082611
0.524933 0.167419 0.100586
0.585052 0.182739 0.114258
0.635559 0.200562 0.126434
0.678833 0.218231 0.133301
0.708252 0.228851 0.136414
0.738373 0.241241 0.147736
0.760101 0.252197 0.158691
0.768188 0.256317 0.164185
0.771973 0.257996 0.167328
0.775665 0.259796 0.170258
0.779358 0.261719 0.173462
0.783081 0.263641 0.176086
0.786774 0.265503 0.178436
0.790497 0.267578 0.180695
0.794220 0.269592 0.182800
0.797974 0.271637 0.184723
0.801727 0.273712 0.186737
0.805420 0.275787 0.188873
0.002136 0.099182 0.006927
0.004883 0.099670 0.007233
0.007721 0.100342 0.007538
0.015747 0.102112 0.008484
0.029694 0.105042 0.010315
0.053864 0.108032 0.012665
0.090729 0.110291 0.017273
0.130646 0.111359 0.030182
0.166290 0.115265 0.037842
0.206207 0.120880 0.042511
0.251007 0.129425 0.047729
0.303802 0.141357 0.054871
0.369019 0.154663 0.066315
0.442871 0.170532 0.081085
0.518677 0.189423 0.100464
0.583740 0.204254 0.114777
0.635864 0.214142 0.126404
0.678864 0.223877 0.132385
0.708160 0.232361 0.135040
0.738495 0.244843 0.146515
0.760864 0.256012 0.158173
0.769073 0.260132 0.163879
0.772858 0.261749 0.167053
0.776611 0.263489 0.169800
0.780304 0.265381 0.172974
0.784027 0.267334 0.175629
0.787689 0.269226 0.177917
0.791412 0.271088 0.179993
0.795197 0.273132 0.182098
0.798889 0.275208 0.184174
0.802704 0.277283 0.186249
0.806427 0.279358 0.188416
0.001251 0.125214 0.008728
0.004028 0.125671 0.009064
0.006775 0.126160 0.009369
0.009521 0.126770 0.009674
0.018585 0.128754 0.010681
0.036407 0.132416 0.011475
0.063690 0.135376 0.011627
0.114349 0.134033 0.018372
0.159454 0.137360 0.036407
0.203369 0.142761 0.045624
0.249298 0.149445 0.050446
0.300354 0.162140 0.057495
0.360229 0.177490 0.067566
0.431885 0.194794 0.080444
0.508698 0.213257 0.099274
0.577484 0.231293 0.115387
0.634186 0.244781 0.127625
0.679535 0.249817 0.133209
0.710602 0.249115 0.134552
0.740387 0.253784 0.145203
0.762024 0.261322 0.157013
0.770020 0.263855 0.162903
0.773712 0.265564 0.166107
0.777466 0.267242 0.168823
0.781250 0.269104 0.171753
0.784943 0.270996 0.174438
0.788666 0.272919 0.176788
0.792358 0.274811 0.178864
0.796082 0.276703 0.180756
0.799835 0.278748 0.182831
0.803619 0.280823 0.184967
0.807373 0.282928 0.187225
0.000183 0.155334 0.010773
0.002960 0.155609 0.011047
0.005737 0.155945 0.011383
0.008453 0.156250 0.011688
0.011230 0.156769 0.012024
0.022034 0.159119 0.013275
0.044739 0.164795 0.013702
0.076813 0.167847 0.013062
0.142029 0.162994 0.020905
0.195740 0.169647 0.044891
0.248047 0.176056 0.054779
0.299255 0.185547 0.061127
0.358276 0.202667 0.070770
0.424103 0.220306 0.082794
0.498230 0.239685 0.099640
0.567902 0.257660 0.115601
0.629181 0.273285 0.127472
0.680725 0.284302 0.134583
0.715332 0.288483 0.135620
0.751862 0.292450 0.147797
0.771332 0.289825 0.158417
0.775848 0.283356 0.163422
0.778137 0.280975 0.166382
0.781250 0.281128 0.169189
0.784393 0.281555 0.171906
0.787842 0.282471 0.174469
0.791382 0.283630 0.176727
0.794891 0.285095 0.178802
0.798492 0.286713 0.180786
0.802124 0.288391 0.182709
0.805695 0.289978 0.184631
0.809296 0.291534 0.186890
0.000000 0.191681 0.014496
0.002777 0.192047 0.014801
0.005554 0.192322 0.015167
0.008301 0.192657 0.015533
0.011078 0.192932 0.015839
0.013885 0.193176 0.016205
0.026215 0.195068 0.017853
0.052795 0.204620 0.018402
0.092957 0.208984 0.015076
0.177704 0.200012 0.022827
0.241608 0.210571 0.058167
0.300201 0.217712 0.066742
0.362946 0.234619 0.076477
0.427338 0.252716 0.088989
0.494690 0.269806 0.103790
0.563782 0.288177 0.118744
0.626923 0.304565 0.128601
0.681152 0.318298 0.134460
0.716522 0.324463 0.134552
0.754974 0.335358 0.147614
0.781555 0.341125 0.162201
0.790375 0.339386 0.169861
0.793762 0.335571 0.173950
0.796844 0.332336 0.177429
0.799408 0.329590 0.180664
0.802002 0.327637 0.183167
0.804688 0.326630 0.185181
0.807587 0.326630 0.187256
0.810760 0.327393 0.189301
0.814087 0.328461 0.191223
0.817444 0.329407 0.193176
0.820709 0.329742 0.195007
0.000000 0.236572 0.024597
0.002777 0.236847 0.024841
0.005554 0.237152 0.025116
0.008301 0.237457 0.025391
0.011078 0.237701 0.025696
0.013885 0.237946 0.025970
0.016663 0.238190 0.026215
0.029205 0.240051 0.027618
0.063171 0.250427 0.028076
0.108215 0.258118 0.018280
0.224426 0.247467 0.024933
0.295685 0.259979 0.069977
0.364777 0.272339 0.083801
0.431885 0.290039 0.096954
0.499207 0.306702 0.110870
0.564941 0.324158 0.124512
0.629944 0.342255 0.134979
0.685547 0.357391 0.138885
0.720947 0.365112 0.136688
0.757446 0.375977 0.145844
0.784119 0.385040 0.161499
0.793884 0.386292 0.169373
0.798126 0.385040 0.173981
0.802307 0.384399 0.178223
0.805573 0.384247 0.183136
0.808777 0.384705 0.187378
0.812134 0.385559 0.190887
0.815460 0.386810 0.193939
0.818878 0.388367 0.197083
0.822296 0.390076 0.200165
0.825684 0.391693 0.203278
0.829010 0.393097 0.206726
0.000000 0.283417 0.036163
0.002777 0.283691 0.036499
0.005554 0.283966 0.036804
0.008301 0.284302 0.037079
0.011078 0.284637 0.037323
0.013885 0.285004 0.037598
0.016663 0.285370 0.037842
0.019440 0.285675 0.038086
0.034027 0.288300 0.039246
0.078308 0.306244 0.034058
0.139374 0.315979 0.020233
0.276886 0.301971 0.026489
0.362854 0.317017 0.086548
0.434235 0.332550 0.106110
0.502594 0.349152 0.120148
0.570892 0.367493 0.133301
0.633575 0.385834 0.142883
0.690155 0.400787 0.148071
0.728699 0.408661 0.144714
0.762878 0.419006 0.149628
0.791321 0.430328 0.162384
0.800903 0.432831 0.168854
0.804413 0.432251 0.172211
0.807892 0.431976 0.176117
0.810974 0.432037 0.180023
0.814178 0.432556 0.183594
0.817413 0.433411 0.186859
0.820618 0.434540 0.189911
0.823883 0.435791 0.192841
0.827148 0.437164 0.195648
0.830414 0.438538 0.198578
0.833954 0.440002 0.201324
0.000000 0.334930 0.050507
0.002777 0.334991 0.050812
0.005554 0.335144 0.051117
0.008301 0.335236 0.051453
0.011078 0.335358 0.051788
0.013885 0.335449 0.052063
0.016663 0.335480 0.052368
0.019440 0.335663 0.052612
0.022217 0.335785 0.052795
0.047974 0.343933 0.055084
0.106537 0.369110 0.040466
0.211761 0.370239 0.022583
0.344971 0.363403 0.037231
0.435577 0.379852 0.114838
0.508087 0.396423 0.131165
0.576202 0.414856 0.143616
0.638153 0.432251 0.152710
0.694519 0.446106 0.156891
0.735474 0.453247 0.152191
0.768890 0.463135 0.155853
0.798248 0.475250 0.168915
0.808289 0.478455 0.175690
0.811615 0.478271 0.177429
0.814911 0.478302 0.179230
0.817566 0.478149 0.181763
0.820404 0.478424 0.184296
0.823425 0.479065 0.186646
0.826538 0.479950 0.188965
0.829651 0.480927 0.191315
0.832825 0.482056 0.193604
0.836212 0.483337 0.195862
0.839600 0.484558 0.198090
0.001984 0.390533 0.068695
0.004944 0.390686 0.069000
0.007904 0.390869 0.069336
0.010864 0.391052 0.069672
0.013733 0.391205 0.070038
0.016541 0.391418 0.070374
0.019348 0.391541 0.070709
0.022186 0.391663 0.071014
0.024994 0.391754 0.071259
0.027893 0.391693 0.071503
0.081635 0.408630 0.073883
0.144867 0.431915 0.047485
0.284790 0.424133 0.029419
0.417542 0.426758 0.047729
0.504486 0.442261 0.140900
0.579529 0.462769 0.153412
0.641235 0.479553 0.161407
0.698425 0.493927 0.166412
0.742767 0.500214 0.160950
0.776886 0.508331 0.161285
0.805817 0.518341 0.175903
0.816162 0.521301 0.183563
0.819244 0.521179 0.185425
0.822601 0.521515 0.187225
0.825287 0.521576 0.189819
0.827972 0.521820 0.192657
0.830597 0.522186 0.195648
0.833221 0.522736 0.198608
0.836090 0.523529 0.201416
0.838959 0.524414 0.204224
0.841797 0.525208 0.206940
0.844666 0.525970 0.209717
0.009583 0.445984 0.088257
0.012451 0.446014 0.088623
0.015320 0.446045 0.088989
0.018219 0.446106 0.089386
0.021149 0.446136 0.089752
0.024017 0.446259 0.090210
0.026947 0.446320 0.090546
0.029877 0.446350 0.090881
0.032776 0.446411 0.091248
0.035675 0.446350 0.091522
0.044800 0.447571 0.091949
0.120026 0.473175 0.095367
0.188263 0.490906 0.047638
0.353729 0.479492 0.038818
0.483276 0.489197 0.051910
0.572845 0.507111 0.161163
0.640991 0.527252 0.170074
0.698303 0.539978 0.176178
0.745850 0.546783 0.174164
0.784363 0.553314 0.170471
0.814270 0.562744 0.180573
0.826782 0.565918 0.190979
0.829895 0.565826 0.193024
0.832672 0.565796 0.194946
0.834961 0.565369 0.197876
0.837372 0.565308 0.200867
0.839752 0.565430 0.203857
0.842133 0.565704 0.206818
0.844635 0.566101 0.209991
0.847229 0.566620 0.213074
0.849854 0.567108 0.216156
0.852478 0.567566 0.219238
0.016083 0.500977 0.108826
0.018860 0.500793 0.109131
0.021667 0.500641 0.109497
0.024475 0.500427 0.109772
0.027283 0.500275 0.110107
0.030090 0.500092 0.110413
0.032898 0.499969 0.110748
0.035675 0.499786 0.111023
0.038544 0.499664 0.111328
0.041351 0.499420 0.111633
0.044159 0.499176 0.111938
0.080017 0.508087 0.115265
0.158661 0.536316 0.117157
0.260773 0.548004 0.048218
0.443176 0.536957 0.045685
0.554016 0.557587 0.054047
0.634705 0.571564 0.167725
0.693756 0.585236 0.185181
0.744446 0.591644 0.185120
0.788483 0.600098 0.184998
0.818756 0.606720 0.194214
0.833893 0.609802 0.205627
0.837799 0.609772 0.207977
0.840332 0.609589 0.209290
0.842743 0.609344 0.211182
0.845184 0.609192 0.213196
0.847595 0.609192 0.215271
0.849976 0.609283 0.217377
0.852478 0.609406 0.219818
0.854919 0.609619 0.222382
0.857422 0.609802 0.224884
0.859924 0.609985 0.227356
0.026062 0.559113 0.130432
0.028778 0.558838 0.130890
0.031525 0.558594 0.131317
0.034149 0.558319 0.131775
0.036896 0.558014 0.132202
0.039581 0.557770 0.132599
0.042328 0.557495 0.132965
0.045044 0.557281 0.133301
0.047821 0.556946 0.133636
0.050507 0.556610 0.134003
0.053192 0.556152 0.134247
0.055939 0.555878 0.134033
0.132141 0.573303 0.140076
0.205048 0.593018 0.133057
0.347260 0.599548 0.049988
0.524872 0.601746 0.051514
0.618225 0.620972 0.057831
0.689117 0.629608 0.171631
0.738800 0.636719 0.202759
0.787506 0.643311 0.205139
0.819946 0.648315 0.214050
0.837280 0.649261 0.228516
0.842499 0.649139 0.232605
0.845154 0.648926 0.234314
0.847992 0.648987 0.235535
0.851044 0.649261 0.236603
0.854034 0.649689 0.237762
0.857056 0.650116 0.238953
0.859863 0.650604 0.240021
0.862701 0.651123 0.241058
0.865570 0.651642 0.242126
0.868317 0.652008 0.243256
0.042114 0.610565 0.147491
0.044861 0.610443 0.148163
0.047638 0.610291 0.148834
0.050354 0.610138 0.149506
0.053101 0.609924 0.150024
0.055817 0.609802 0.150543
0.058502 0.609528 0.151031
0.061249 0.609344 0.151489
0.063904 0.609100 0.151978
0.066620 0.608856 0.152405
0.069244 0.608521 0.152863
0.072021 0.608307 0.152740
0.096771 0.609253 0.152618
0.192719 0.632874 0.159637
0.256775 0.644684 0.143127
0.439056 0.651947 0.052063
0.593658 0.662201 0.056000
0.673340 0.676239 0.066711
0.735016 0.678802 0.175690
0.780426 0.683411 0.230286
0.818298 0.686920 0.236603
0.839417 0.689453 0.248413
0.847382 0.690125 0.252319
0.850250 0.689941 0.253601
0.853088 0.689941 0.254974
0.855988 0.690094 0.256378
0.859009 0.690613 0.257599
0.862122 0.691284 0.258881
0.865234 0.691956 0.260162
0.868347 0.692657 0.261475
0.871460 0.693268 0.262787
0.874573 0.693817 0.264069
0.058350 0.656006 0.162506
0.061157 0.655731 0.163208
0.063995 0.655487 0.163879
0.066833 0.655304 0.164551
0.069672 0.655060 0.165192
0.072479 0.654846 0.165894
0.075287 0.654633 0.166504
0.078033 0.654388 0.167145
0.080780 0.654236 0.167725
0.083527 0.654083 0.168304
0.086273 0.653778 0.168884
0.089020 0.653687 0.168884
0.091705 0.653442 0.168854
0.161102 0.663605 0.172668
0.240936 0.689941 0.187561
0.319031 0.702881 0.144409
0.529388 0.707428 0.064056
0.648346 0.715607 0.067902
0.718781 0.727905 0.092377
0.774994 0.721924 0.190399
0.814056 0.726044 0.255585
0.837952 0.728668 0.266266
0.850922 0.731140 0.271454
0.854462 0.731415 0.272705
0.857544 0.731750 0.273834
0.860657 0.732147 0.274994
0.863708 0.732727 0.276184
0.866730 0.733307 0.277283
0.869904 0.734161 0.278198
0.872986 0.734863 0.279144
0.876068 0.735687 0.280182
0.879150 0.736389 0.281158
0.067108 0.699890 0.176361
0.069794 0.699554 0.176971
0.072540 0.699249 0.177612
0.075256 0.698944 0.178253
0.077972 0.698639 0.178925
0.080719 0.698273 0.179535
0.083527 0.697998 0.180176
0.086395 0.697784 0.180847
0.089203 0.697479 0.181458
0.092041 0.697235 0.182037
0.094788 0.696930 0.182678
0.097595 0.696930 0.182678
0.100342 0.696899 0.182648
0.123566 0.698608 0.183441
0.216187 0.720428 0.198578
0.287018 0.739685 0.212860
0.398773 0.756561 0.140961
0.605743 0.761414 0.089905
0.694458 0.766876 0.103485
0.758118 0.768280 0.124573
0.811096 0.764984 0.185608
0.839447 0.767303 0.238098
0.855469 0.770477 0.265472
0.860138 0.771271 0.272583
0.862915 0.771759 0.276886
0.865784 0.772308 0.281158
0.868713 0.773041 0.285309
0.871643 0.773804 0.289520
0.874695 0.774536 0.291687
0.877930 0.775208 0.292755
0.881409 0.776215 0.293549
0.884857 0.777069 0.294342
0.072723 0.739319 0.187286
0.075470 0.738983 0.188080
0.078247 0.738647 0.188812
0.080994 0.738342 0.189575
0.083771 0.737946 0.190277
0.086487 0.737610 0.190948
0.089203 0.737274 0.191589
0.091980 0.736969 0.192230
0.094727 0.736633 0.192841
0.097504 0.736298 0.193512
0.100281 0.735840 0.194153
0.103088 0.735931 0.194092
0.105865 0.735901 0.194031
0.108643 0.735779 0.193939
0.179596 0.746277 0.203674
0.274506 0.773102 0.230499
0.332916 0.776093 0.228424
0.516296 0.801147 0.149384
0.667053 0.801361 0.131012
0.737610 0.804901 0.140228
0.795074 0.805603 0.139130
0.836884 0.803345 0.159637
0.858154 0.804443 0.200104
0.868744 0.805634 0.218811
0.871948 0.805969 0.224182
0.875244 0.806488 0.229309
0.878540 0.807098 0.234222
0.881775 0.807800 0.238770
0.884796 0.808594 0.242645
0.887817 0.809479 0.246735
0.890778 0.810394 0.250824
0.893738 0.811157 0.255188
0.075592 0.771667 0.196350
0.078461 0.771271 0.197205
0.081268 0.770874 0.198090
0.084076 0.770508 0.199005
0.086945 0.770142 0.199951
0.089874 0.769745 0.201019
0.092804 0.769348 0.202057
0.095795 0.768982 0.203064
0.098694 0.768524 0.204010
0.101624 0.768188 0.204926
0.104614 0.767822 0.205872
0.107605 0.767975 0.206085
0.110596 0.768097 0.206268
0.113586 0.768250 0.206482
0.154175 0.771240 0.212311
0.256409 0.792114 0.236847
0.329895 0.813751 0.252380
0.435883 0.813293 0.220673
0.626404 0.827545 0.174622
0.718628 0.832489 0.157349
0.777435 0.839386 0.145264
0.822601 0.838593 0.142853
0.851837 0.838928 0.154541
0.870148 0.838867 0.163513
0.875458 0.838898 0.165894
0.879364 0.838989 0.167511
0.882843 0.839447 0.173065
0.886322 0.839996 0.178833
0.889709 0.840698 0.183807
0.893066 0.841370 0.188873
0.896454 0.841980 0.193909
0.899811 0.842529 0.199158
0.078400 0.783173 0.202209
0.081238 0.782623 0.203003
0.084167 0.782288 0.203918
0.087097 0.781891 0.204865
0.089996 0.781494 0.205719
0.092865 0.781128 0.206696
0.095734 0.780792 0.207581
0.098633 0.780426 0.208466
0.101440 0.780090 0.209351
0.104370 0.779816 0.210327
0.107330 0.779541 0.211243
0.110352 0.779694 0.211639
0.113373 0.779877 0.211945
0.116394 0.780090 0.212219
0.138763 0.781952 0.214783
0.230927 0.796448 0.234833
0.319641 0.824036 0.258667
0.394928 0.821991 0.244568
0.594208 0.840759 0.189697
0.702850 0.843750 0.169586
0.765686 0.853912 0.150909
0.812317 0.854645 0.144409
0.842987 0.854797 0.148102
0.865479 0.855591 0.156281
0.873749 0.856781 0.159576
0.877594 0.857025 0.161285
0.881531 0.857330 0.162872
0.885437 0.857788 0.164429
0.889374 0.858215 0.165985
0.893280 0.858643 0.167480
0.897247 0.859009 0.168915
0.901184 0.859406 0.169952
0.079529 0.787903 0.204437
0.082367 0.787384 0.205200
0.085266 0.786865 0.206085
0.088196 0.786499 0.207001
0.091156 0.786102 0.207916
0.094055 0.785706 0.208832
0.096954 0.785400 0.209778
0.099762 0.785034 0.210632
0.102661 0.784698 0.211517
0.105621 0.784393 0.212433
0.108521 0.784119 0.213409
0.111572 0.784241 0.213776
0.114594 0.784393 0.214172
0.117645 0.784607 0.214478
0.120667 0.784882 0.214783
0.200897 0.794586 0.229706
0.307739 0.823639 0.257690
0.373260 0.826416 0.251556
0.565613 0.843597 0.201141
0.691345 0.846680 0.180664
0.757263 0.858887 0.151031
0.804626 0.860657 0.145966
0.837555 0.860107 0.148254
0.861145 0.860931 0.153229
0.873138 0.862061 0.158417
0.877380 0.862793 0.159943
0.881134 0.863373 0.161407
0.885040 0.863770 0.162933
0.889008 0.864197 0.164520
0.892914 0.864624 0.166107
0.896851 0.865082 0.167664
0.900757 0.865448 0.168640
0.080658 0.792572 0.206604
0.083496 0.792084 0.207428
0.086426 0.791595 0.208282
0.089325 0.791107 0.209167
0.092255 0.790680 0.210083
0.095184 0.790314 0.210999
0.098083 0.789948 0.211853
0.100983 0.789642 0.212769
0.103882 0.789307 0.213684
0.106812 0.788971 0.214600
0.109711 0.788666 0.215546
0.112762 0.788818 0.215942
0.115784 0.788971 0.216309
0.118805 0.789124 0.216705
0.121857 0.789337 0.216980
0.185150 0.795776 0.228088
0.298126 0.824097 0.256958
0.363861 0.832611 0.257721
0.539062 0.845551 0.212524
0.681580 0.850525 0.185516
0.750122 0.862610 0.152893
0.798492 0.865509 0.148132
0.833466 0.864410 0.148346
0.857300 0.865326 0.151825
0.872345 0.866302 0.157104
0.877411 0.867035 0.159027
0.881134 0.867645 0.160431
0.884766 0.868286 0.162018
0.888611 0.868805 0.163574
0.892517 0.869202 0.165161
0.896454 0.869629 0.166718
0.900391 0.870026 0.167755
0.081757 0.797363 0.208801
0.084625 0.796814 0.209656
0.087524 0.796356 0.210541
0.090454 0.795837 0.211365
0.093323 0.795319 0.212250
0.096283 0.794952 0.213165
0.099213 0.794586 0.214050
0.102173 0.794220 0.214935
0.105072 0.793854 0.215851
0.107971 0.793579 0.216766
0.110931 0.793304 0.217682
0.113953 0.793427 0.218079
0.116974 0.793579 0.218475
0.119965 0.793732 0.218872
0.123016 0.793854 0.219238
0.182312 0.799622 0.229431
0.291138 0.825562 0.256683
0.361115 0.839600 0.262726
0.517609 0.848938 0.221344
0.673798 0.855255 0.188904
0.744690 0.866669 0.154572
0.794037 0.870575 0.149506
0.830109 0.869232 0.148773
0.854431 0.869720 0.152069
0.870911 0.870728 0.155396
0.877441 0.871277 0.158173
0.881134 0.871887 0.159515
0.884766 0.872528 0.161072
0.888458 0.873199 0.162659
0.892151 0.873810 0.164185
0.896088 0.874207 0.165741
0.899994 0.874634 0.166931
0.083160 0.801971 0.211212
0.085999 0.801544 0.211975
0.088837 0.801086 0.212799
0.091675 0.800568 0.213654
0.094574 0.800079 0.214508
0.097443 0.799591 0.215363
0.100342 0.799225 0.216217
0.103271 0.798859 0.217072
0.106232 0.798492 0.217957
0.109161 0.798187 0.218903
0.112091 0.797852 0.219879
0.115173 0.798035 0.220245
0.118134 0.798187 0.220673
0.121155 0.798340 0.221039
0.124176 0.798462 0.221405
0.180939 0.803894 0.230988
0.286865 0.828094 0.257080
0.359863 0.845367 0.266663
0.500397 0.852753 0.228424
0.668091 0.860199 0.192047
0.740692 0.870850 0.157318
0.790985 0.875305 0.151031
0.827423 0.874390 0.149506
0.852478 0.874176 0.152405
0.869507 0.875214 0.154694
0.877136 0.875763 0.157043
0.881104 0.876099 0.158569
0.884766 0.876709 0.160156
0.888458 0.877411 0.161682
0.892090 0.878052 0.163239
0.895782 0.878723 0.164795
0.899628 0.879181 0.166077
0.084534 0.806580 0.213562
0.087402 0.806183 0.214355
0.090240 0.805756 0.215179
0.093079 0.805298 0.216003
0.095947 0.804810 0.216827
0.098816 0.804321 0.217651
0.101715 0.803864 0.218475
0.104614 0.803497 0.219360
0.107544 0.803101 0.220215
0.110474 0.802826 0.221100
0.113373 0.802521 0.222015
0.116425 0.802643 0.222443
0.119415 0.802795 0.222809
0.122467 0.802948 0.223236
0.125519 0.803101 0.223633
0.180542 0.808258 0.232819
0.284637 0.831451 0.258118
