滤镜资源/Professional Luts Collection/Triune-Digital-Cinematic-LUTs/3D LUTs (CUBE)/ALEXA/Captain America Civil War - Alexa.cube
#Created by Benjamin (IWLTBAP) : http://luts.iwltbap.com
#Copyright: (C) Copyright 2016 Triune Films and IWLTBAP
TITLE "Blockbuster LUTs Pack (Alexa Log-C)"
#LUT size
LUT_3D_SIZE 8
#LUT data points
DOMAIN_MIN 0.000000 0.000000 0.000000
DOMAIN_MAX 0.903226 0.903226 0.903226
0.001221 0.001709 0.000366
0.069733 0.017792 0.013031
0.177856 0.041412 0.031952
0.395630 0.092896 0.070404
0.637085 0.184479 0.128967
0.757355 0.234528 0.158997
0.774323 0.243103 0.171814
0.788452 0.250916 0.180420
0.005188 0.058624 0.006439
0.053589 0.067749 0.013947
0.171051 0.082703 0.034058
0.386536 0.116180 0.067688
0.635956 0.197357 0.127197
0.759247 0.248444 0.158691
0.778412 0.258026 0.173431
0.793274 0.266052 0.182831
0.000183 0.155334 0.010773
0.011230 0.156769 0.012024
0.142029 0.162994 0.020905
0.358276 0.202667 0.070770
0.629181 0.273285 0.127472
0.771332 0.289825 0.158417
0.784393 0.281555 0.171906
0.798492 0.286713 0.180786
0.000000 0.334930 0.050507
0.011078 0.335358 0.051788
0.022217 0.335785 0.052795
0.344971 0.363403 0.037231
0.638153 0.432251 0.152710
0.798248 0.475250 0.168915
0.817566 0.478149 0.181763
0.829651 0.480927 0.191315
0.026062 0.559113 0.130432
0.036896 0.558014 0.132202
0.047821 0.556946 0.133636
0.132141 0.573303 0.140076
0.618225 0.620972 0.057831
0.819946 0.648315 0.214050
0.847992 0.648987 0.235535
0.859863 0.650604 0.240021
0.072723 0.739319 0.187286
0.083771 0.737946 0.190277
0.094727 0.736633 0.192841
0.105865 0.735901 0.194031
0.332916 0.776093 0.228424
0.795074 0.805603 0.139130
0.871948 0.805969 0.224182
0.884796 0.808594 0.242645
0.080658 0.792572 0.206604
0.092255 0.790680 0.210083
0.103882 0.789307 0.213684
0.115784 0.788971 0.216309
0.298126 0.824097 0.256958
0.750122 0.862610 0.152893
0.872345 0.866302 0.157104
0.888611 0.868805 0.163574
0.085968 0.811249 0.215973
0.097351 0.809540 0.219147
0.108887 0.807770 0.222473
0.120789 0.807495 0.225067
0.283905 0.835236 0.259491
0.735992 0.880096 0.160583
0.868011 0.884064 0.155762
0.888458 0.885773 0.160004
0.002441 0.003113 0.035980
0.068604 0.010529 0.043671
0.178772 0.037445 0.063202
0.400269 0.091034 0.103455
0.641052 0.183319 0.157867
0.758301 0.234467 0.185913
0.774628 0.244080 0.199554
0.787781 0.250702 0.208405
0.005859 0.051697 0.038696
0.046387 0.057434 0.044678
0.175751 0.073456 0.063629
0.394379 0.105194 0.101013
0.640015 0.194733 0.156494
0.760681 0.248291 0.185944
0.778473 0.258545 0.201996
0.791870 0.265411 0.211761
0.000702 0.151123 0.038788
0.011627 0.153076 0.039429
0.138306 0.164093 0.044891
0.368439 0.198486 0.097534
0.638977 0.269958 0.157867
0.769836 0.282990 0.188507
0.784607 0.279602 0.202148
0.797882 0.284698 0.212341
0.000000 0.333282 0.065918
0.011078 0.335236 0.065948
0.022217 0.335754 0.067139
0.345398 0.363251 0.049469
0.642120 0.433289 0.162811
0.799194 0.474884 0.187317
0.817474 0.476990 0.211060
0.827209 0.478516 0.226288
0.025696 0.557068 0.145203
0.037231 0.557465 0.144867
0.048187 0.556549 0.146393
0.132141 0.573517 0.153229
0.623199 0.624054 0.072296
0.817841 0.645996 0.225739
0.846252 0.647339 0.246857
0.858215 0.649078 0.251373
0.072693 0.737671 0.201874
0.084137 0.738800 0.202759
0.095123 0.737488 0.205353
0.106201 0.736389 0.206604
0.332153 0.775085 0.241058
0.794373 0.804535 0.152924
0.871704 0.805725 0.237061
0.884613 0.808380 0.255615
0.080994 0.790955 0.221710
0.093231 0.791687 0.223114
0.104797 0.790253 0.226746
0.116577 0.789642 0.229370
0.298981 0.825134 0.270172
0.749237 0.861664 0.173492
0.872650 0.866211 0.170013
0.889008 0.868652 0.177216
0.086151 0.809723 0.231232
0.098358 0.810577 0.232239
0.109894 0.808716 0.235565
0.121735 0.808136 0.238129
0.284668 0.836395 0.272858
0.735168 0.879456 0.182739
0.868530 0.884155 0.168549
0.889099 0.885834 0.173370
0.004425 0.009003 0.113434
0.047699 0.008362 0.121185
0.171844 0.022583 0.121796
0.400818 0.091431 0.156830
0.644257 0.182190 0.202423
0.758636 0.239319 0.245300
0.772705 0.245056 0.258270
0.783508 0.247894 0.266907
0.005005 0.034393 0.108093
0.031372 0.029175 0.121155
0.165955 0.038971 0.119934
0.398743 0.101105 0.155304
0.644653 0.195557 0.202637
0.761261 0.252747 0.247681
0.775970 0.259094 0.262238
0.786896 0.262329 0.271301
0.002380 0.143127 0.117584
0.013428 0.145508 0.121429
0.108978 0.161072 0.151733
0.376740 0.180054 0.152557
0.635529 0.254730 0.215881
0.765167 0.273438 0.249420
0.778931 0.272400 0.262665
0.789886 0.276581 0.272919
0.000153 0.328064 0.142181
0.011261 0.329834 0.141541
0.022278 0.331207 0.140991
0.337952 0.358917 0.103699
0.655334 0.439819 0.222626
0.799469 0.473816 0.297760
0.815186 0.473816 0.316437
0.827576 0.476410 0.324738
0.025116 0.554108 0.160217
0.036621 0.554596 0.159821
0.048248 0.555115 0.159515
0.130798 0.572144 0.165985
0.626740 0.625732 0.086151
0.815674 0.643005 0.237030
0.843597 0.644226 0.257324
0.856110 0.646149 0.262360
0.072693 0.736053 0.216492
0.084137 0.737091 0.217285
0.095428 0.737518 0.217712
0.106506 0.736450 0.218964
0.330933 0.774384 0.254517
0.792938 0.802429 0.168610
0.871246 0.804565 0.251740
0.884216 0.807373 0.269775
0.081146 0.789429 0.236298
0.093445 0.790222 0.237732
0.105865 0.791351 0.240021
0.117645 0.790802 0.242737
0.299377 0.826050 0.283569
0.748779 0.860596 0.188721
0.872375 0.866028 0.182526
0.888763 0.868469 0.189728
0.086456 0.808380 0.246460
0.098694 0.809204 0.247498
0.110962 0.809875 0.248871
0.122864 0.809296 0.251495
0.284668 0.837219 0.286163
0.734772 0.878571 0.201660
0.868591 0.884094 0.181152
0.889404 0.885773 0.186310
0.007629 0.033508 0.285614
0.020355 0.033203 0.287842
0.120636 0.033783 0.292511
0.355011 0.038818 0.272858
0.613556 0.177216 0.332733
0.753906 0.242523 0.392761
0.771149 0.251770 0.401978
0.784302 0.258453 0.407623
0.006165 0.048401 0.284058
0.018646 0.046997 0.287262
0.112213 0.044922 0.295044
0.352509 0.051819 0.272736
0.617981 0.190735 0.335907
0.756897 0.256042 0.395752
0.774445 0.265747 0.405609
0.787628 0.272675 0.411377
0.005280 0.085388 0.277588
0.016846 0.075836 0.281647
0.088806 0.060455 0.297424
0.346527 0.062378 0.272552
0.618530 0.203552 0.337891
0.759949 0.269623 0.398224
0.777893 0.279633 0.407990
0.791077 0.286713 0.413574
0.000000 0.309387 0.298523
0.011078 0.310364 0.299500
0.022217 0.310913 0.300354
0.231598 0.324341 0.329620
0.630005 0.414398 0.403229
0.795929 0.457458 0.446228
0.814697 0.457184 0.451691
0.828094 0.459839 0.454865
0.031647 0.541779 0.346100
0.043152 0.542816 0.346100
0.053986 0.542664 0.345612
0.126404 0.560455 0.347443
0.609070 0.616852 0.340881
0.817444 0.640137 0.448883
0.851135 0.647247 0.459686
0.864655 0.650421 0.464233
0.076508 0.733124 0.325317
0.087799 0.732574 0.325775
0.098785 0.732758 0.326172
0.110321 0.732727 0.327881
0.331818 0.772766 0.371307
0.795532 0.802094 0.310242
0.872498 0.801910 0.378479
0.884979 0.804810 0.390900
0.084351 0.790466 0.287292
0.096405 0.791138 0.288727
0.108490 0.791809 0.290039
0.120636 0.792664 0.291962
0.297333 0.826721 0.336853
0.747223 0.860474 0.267670
0.871887 0.866425 0.254242
0.889526 0.869812 0.266022
0.089691 0.809448 0.293488
0.101685 0.809875 0.294891
0.113739 0.810120 0.296265
0.125977 0.811066 0.298218
0.282257 0.838287 0.333740
0.733124 0.877197 0.260712
0.866852 0.884888 0.231232
0.889282 0.886383 0.237000
0.036591 0.030762 0.512848
0.050629 0.030945 0.510376
0.087097 0.031342 0.500336
0.308502 0.035492 0.486267
0.648499 0.100067 0.504425
0.835632 0.187469 0.568970
0.852997 0.201355 0.575500
0.866425 0.208649 0.578766
0.033051 0.043427 0.513641
0.048401 0.042511 0.512390
0.079651 0.042389 0.504578
0.304016 0.046234 0.487579
0.646301 0.113495 0.504944
0.831604 0.204193 0.569397
0.848999 0.218079 0.574890
0.862793 0.224945 0.577606
0.030365 0.059906 0.512085
0.044678 0.055481 0.511871
0.061035 0.053864 0.508118
0.293823 0.056793 0.489410
0.640900 0.126678 0.504120
0.831024 0.217102 0.568848
0.847961 0.231781 0.574371
0.860107 0.240326 0.576202
0.009277 0.280518 0.465576
0.018982 0.278503 0.463531
0.028381 0.274994 0.460144
0.207489 0.221985 0.539581
0.625549 0.289215 0.525604
0.798615 0.360413 0.564789
0.816315 0.357391 0.567780
0.824036 0.364136 0.569702
0.043884 0.535034 0.511841
0.054321 0.532196 0.508667
0.064972 0.530548 0.506622
0.098907 0.531860 0.507935
0.527008 0.578918 0.574219
0.823151 0.632141 0.622437
0.863800 0.638580 0.633057
0.877930 0.641418 0.637573
0.085083 0.725128 0.553680
0.096222 0.724030 0.552338
0.107880 0.724243 0.552155
0.119781 0.724701 0.552765
0.351959 0.782471 0.590424
0.793457 0.819183 0.588898
0.896698 0.832764 0.646027
0.910461 0.835175 0.653931
0.106598 0.801147 0.561737
0.118286 0.801086 0.560944
0.130585 0.802460 0.561218
0.143005 0.803711 0.561890
0.312927 0.838989 0.584900
0.733459 0.894379 0.601135
0.895599 0.910889 0.542297
0.921112 0.910950 0.551849
0.113251 0.821167 0.563965
0.125061 0.821381 0.563263
0.137299 0.822449 0.563171
0.149841 0.823669 0.563904
0.293610 0.850555 0.581757
0.715027 0.911682 0.603333
0.888428 0.926605 0.527618
0.919098 0.926270 0.523254
0.057800 0.041962 0.711456
0.071716 0.042053 0.710571
0.085663 0.042053 0.708984
0.304779 0.050873 0.714844
0.680878 0.131348 0.716644
0.871796 0.169037 0.751312
0.893433 0.179413 0.757935
0.908661 0.191956 0.764038
0.055084 0.054077 0.711456
0.069061 0.054138 0.711975
0.082855 0.053284 0.711426
0.301117 0.063171 0.715973
0.679504 0.142853 0.716278
0.872772 0.182220 0.752045
0.894257 0.193878 0.758911
0.909210 0.206909 0.765106
0.052124 0.066467 0.711212
0.066193 0.065491 0.712097
0.080261 0.064667 0.712616
0.291504 0.074249 0.716614
0.675232 0.153778 0.714417
0.872589 0.195465 0.751801
0.895050 0.208710 0.759369
0.909485 0.222412 0.765198
0.050873 0.083466 0.707672
0.064697 0.081604 0.708221
0.077911 0.077850 0.709564
0.244476 0.082153 0.714233
0.652100 0.157928 0.705048
0.865417 0.208130 0.746704
0.894318 0.225311 0.755829
0.908295 0.238983 0.760986
0.048889 0.502350 0.658081
0.060181 0.502869 0.658234
0.071594 0.503937 0.658447
0.083008 0.503662 0.659363
0.491333 0.517059 0.738220
0.859253 0.570618 0.772919
0.909393 0.579529 0.782135
0.922180 0.584229 0.783478
0.100891 0.711609 0.707855
0.112976 0.712524 0.708130
0.124908 0.713531 0.708466
0.137268 0.713989 0.709076
0.363220 0.769684 0.762451
0.775391 0.823029 0.826538
0.909027 0.832306 0.821686
0.923157 0.834503 0.825287
0.138214 0.817688 0.735901
0.150269 0.818390 0.735168
0.162720 0.819366 0.735321
0.175201 0.820160 0.736206
0.311768 0.846680 0.758789
0.689728 0.925201 0.841858
0.896240 0.926147 0.823059
0.936127 0.931335 0.827545
0.146210 0.839783 0.741730
0.158051 0.840240 0.740631
0.170105 0.840942 0.740021
0.182465 0.841827 0.740997
0.272491 0.855896 0.752350
0.667603 0.943634 0.842804
0.881348 0.950287 0.824371
0.935730 0.953796 0.817535
0.085205 0.069580 0.828125
0.099884 0.067474 0.826355
0.114777 0.064240 0.821411
0.341400 0.085266 0.828827
0.680145 0.144653 0.821747
0.889557 0.186005 0.862457
0.914703 0.197205 0.868713
0.929688 0.213989 0.872955
0.084290 0.086273 0.827484
0.098877 0.082733 0.826355
0.113617 0.078918 0.821655
0.337982 0.098083 0.830322
0.678802 0.156250 0.823059
0.889557 0.199585 0.863312
0.915253 0.210815 0.869629
0.930542 0.228088 0.874176
0.083801 0.105408 0.826111
0.097717 0.100006 0.825592
0.112305 0.093475 0.821533
0.327637 0.109894 0.830353
0.674408 0.167419 0.823059
0.888580 0.212006 0.863190
0.915283 0.223480 0.870453
0.931244 0.242065 0.875610
0.084076 0.126709 0.822601
0.097046 0.118652 0.823578
0.110962 0.110260 0.820435
0.266449 0.115173 0.821625
0.652191 0.176575 0.820312
0.882263 0.223999 0.861176
0.915680 0.237030 0.870392
0.931641 0.255249 0.875885
0.067505 0.499481 0.775604
0.077606 0.497589 0.772491
0.086792 0.493683 0.767303
0.098053 0.490509 0.765839
0.472839 0.472015 0.875977
0.870880 0.541138 0.876068
0.927643 0.554108 0.887177
0.941193 0.558868 0.889252
0.127930 0.721344 0.806213
0.136780 0.716980 0.801514
0.145905 0.712952 0.797180
0.156921 0.711182 0.795654
0.362579 0.759216 0.845398
0.776001 0.823334 0.921051
0.934998 0.818909 0.924713
0.949097 0.821289 0.926422
0.160065 0.831665 0.832642
0.169495 0.827271 0.828217
0.179291 0.823181 0.824188
0.191010 0.822693 0.824310
0.292358 0.839935 0.841888
0.704620 0.925385 0.931885
0.902252 0.929108 0.939240
0.946228 0.930908 0.936676
0.167633 0.863281 0.840851
0.177490 0.859283 0.836090
0.187347 0.855713 0.832062
0.199432 0.856750 0.833405
0.279907 0.869690 0.847748
0.684998 0.955872 0.934570
0.885864 0.963776 0.942993
0.942780 0.965759 0.941956
0.097015 0.075989 0.845764
0.112579 0.074738 0.845123
0.127777 0.073303 0.843506
0.352692 0.093628 0.858795
0.680908 0.147339 0.846649
0.893585 0.196442 0.889191
0.920013 0.212402 0.895844
0.935089 0.223969 0.899536
0.096588 0.092773 0.845367
0.111938 0.090210 0.845551
0.127106 0.088715 0.843994
0.348694 0.105499 0.858612
0.679565 0.159119 0.848389
0.894012 0.210052 0.890228
0.920776 0.226410 0.896942
0.935944 0.237885 0.900787
0.095825 0.109558 0.844788
0.111176 0.106934 0.845001
0.126038 0.103485 0.844299
0.338531 0.117554 0.857819
0.675354 0.170502 0.849396
0.893341 0.221802 0.890747
0.921539 0.240143 0.898163
0.936676 0.251556 0.902008
0.095367 0.130463 0.841675
0.109955 0.124420 0.844330
0.124756 0.120758 0.843811
0.275757 0.124207 0.846893
0.652832 0.180511 0.850647
0.886597 0.228027 0.889252
0.921936 0.253265 0.899261
0.937164 0.264465 0.903259
0.075439 0.490662 0.797760
0.086090 0.491241 0.797394
0.096252 0.490509 0.796021
0.107666 0.486725 0.794373
0.480927 0.458588 0.914459
0.875336 0.531128 0.902954
0.932068 0.548157 0.910492
0.945679 0.554016 0.912140
0.132355 0.715363 0.831909
0.144287 0.715851 0.831726
0.155548 0.714966 0.830536
0.166351 0.712494 0.828400
0.365601 0.760742 0.880615
0.778961 0.823853 0.951202
0.944031 0.816040 0.957794
0.958893 0.817413 0.959473
0.165619 0.831879 0.865814
0.177124 0.831818 0.865570
0.187805 0.829620 0.863129
0.198517 0.827362 0.861389
0.290802 0.842804 0.878479
0.710419 0.926331 0.963562
0.902832 0.930511 0.967896
0.950165 0.932220 0.968964
0.173248 0.868561 0.876984
0.184753 0.868927 0.876984
0.195251 0.866577 0.874359
0.206421 0.865295 0.873657
0.285156 0.877594 0.886810
0.694794 0.957153 0.965332
0.895905 0.963226 0.972565
0.945679 0.965454 0.974731
