滤镜资源/Professional Luts Collection/Triune-Digital-Cinematic-LUTs/3D LUTs (CUBE)/ALEXA/Captain America Civil War - Alexa.cube
#Created by Benjamin (IWLTBAP) : http://luts.iwltbap.com
#Copyright: (C) Copyright 2016 Triune Films and IWLTBAP
TITLE "Blockbuster LUTs Pack (Alexa Log-C)"
#LUT size
LUT_3D_SIZE 5
#LUT data points
DOMAIN_MIN 0.000000 0.000000 0.000000
DOMAIN_MAX 0.903226 0.903226 0.903226
0.001221 0.001709 0.000366
0.143799 0.033722 0.026215
0.528046 0.140869 0.101959
0.764496 0.238220 0.163483
0.788452 0.250916 0.180420
0.001251 0.125214 0.008728
0.114349 0.134033 0.018372
0.508698 0.213257 0.099274
0.770020 0.263855 0.162903
0.796082 0.276703 0.180756
0.009583 0.445984 0.088257
0.029877 0.446350 0.090881
0.483276 0.489197 0.051910
0.826782 0.565918 0.190979
0.844635 0.566101 0.209991
0.075592 0.771667 0.196350
0.095795 0.768982 0.203064
0.154175 0.771240 0.212311
0.822601 0.838593 0.142853
0.889709 0.840698 0.183807
0.085968 0.811249 0.215973
0.105957 0.808105 0.221619
0.126892 0.807800 0.225861
0.787628 0.884430 0.152435
0.888458 0.885773 0.160004
0.003784 0.007172 0.083008
0.139587 0.020447 0.094757
0.533997 0.133392 0.164520
0.765045 0.241272 0.228210
0.785431 0.250183 0.247559
0.003754 0.113983 0.088745
0.092102 0.127533 0.117554
0.524017 0.191681 0.167572
0.769989 0.264771 0.231750
0.791199 0.275391 0.252747
0.007233 0.441742 0.119293
0.028442 0.444214 0.116333
0.490295 0.493256 0.075836
0.820770 0.560089 0.222565
0.837372 0.558777 0.254181
0.075928 0.768372 0.222137
0.097046 0.770538 0.225647
0.154724 0.772430 0.235016
0.822388 0.836914 0.165192
0.888916 0.839294 0.208069
0.086395 0.808716 0.242828
0.107788 0.809967 0.244629
0.128510 0.808960 0.248840
0.785492 0.884125 0.178101
0.889465 0.885834 0.183197
0.024323 0.034058 0.393982
0.072662 0.034607 0.392853
0.488464 0.055145 0.372101
0.762817 0.252472 0.474365
0.787598 0.261658 0.483734
0.020477 0.060760 0.390533
0.046906 0.054535 0.395203
0.475769 0.078186 0.372375
0.768036 0.274902 0.475403
0.793091 0.284698 0.485199
0.018860 0.412903 0.404663
0.039459 0.415802 0.405334
0.359253 0.438446 0.449677
0.826538 0.541046 0.537292
0.851288 0.545898 0.543701
0.087402 0.761658 0.452698
0.108185 0.762787 0.451355
0.152374 0.765564 0.453217
0.829590 0.852386 0.441864
0.901611 0.843445 0.458923
0.102234 0.814850 0.445038
0.123779 0.817078 0.445618
0.145660 0.818878 0.449371
0.788452 0.901306 0.426514
0.898529 0.900269 0.375519
0.061707 0.045441 0.755432
0.087189 0.045349 0.751068
0.514191 0.094299 0.746521
0.889252 0.175659 0.792389
0.915375 0.199158 0.803192
0.059082 0.071686 0.754150
0.084412 0.067963 0.752686
0.509521 0.116028 0.749512
0.890411 0.198395 0.793762
0.916626 0.225067 0.804871
0.045471 0.315918 0.699005
0.062103 0.308624 0.701477
0.360474 0.276733 0.785461
0.888519 0.364899 0.796844
0.917603 0.361816 0.803711
0.118896 0.747894 0.745483
0.140198 0.748566 0.745544
0.162292 0.749054 0.746765
0.815094 0.862549 0.870117
0.931732 0.867615 0.862305
0.151581 0.843597 0.771301
0.172394 0.844604 0.770599
0.194061 0.846497 0.772095
0.753021 0.954407 0.882599
0.939178 0.957397 0.867676
0.097015 0.075989 0.845764
0.124146 0.074036 0.844635
0.516693 0.126434 0.872742
0.907745 0.203461 0.892853
0.935089 0.223969 0.899536
0.096100 0.105133 0.844940
0.122772 0.100739 0.845398
0.506653 0.145966 0.874969
0.908813 0.228088 0.894867
0.936646 0.248352 0.901764
0.080139 0.225006 0.813416
0.110107 0.217621 0.819489
0.418854 0.200958 0.888855
0.909088 0.301483 0.903931
0.939758 0.315735 0.907684
0.144836 0.755188 0.843994
0.165466 0.755737 0.843262
0.184509 0.751892 0.840668
0.823486 0.864716 0.960724
0.954895 0.860321 0.964142
0.173248 0.868561 0.876984
0.192749 0.867615 0.875366
0.212585 0.865967 0.874878
0.775177 0.960663 0.969879
0.945679 0.965454 0.974731
