滤镜资源/Professional Luts Collection/Triune-Digital-Cinematic-LUTs/3D LUTs (CUBE)/ALEXA/Drive - Alexa.cube
#Created by Benjamin (IWLTBAP) : http://luts.iwltbap.com
#Copyright: (C) Copyright 2016 Triune Films and IWLTBAP
TITLE "Blockbuster LUTs Pack (Alexa Log-C)"
#LUT size
LUT_3D_SIZE 8
#LUT data points
DOMAIN_MIN 0.000000 0.000000 0.000000
DOMAIN_MAX 0.903226 0.903226 0.903226
0.000000 0.000000 0.000854
0.050476 0.000000 0.000214
0.152924 0.001801 0.000977
0.369385 0.020233 0.004822
0.632874 0.062653 0.028992
0.804993 0.091248 0.059967
0.828674 0.096283 0.071045
0.847168 0.099884 0.074951
0.000000 0.061584 0.007172
0.041412 0.059021 0.003479
0.158356 0.058350 0.000000
0.369568 0.053741 0.002350
0.632141 0.077820 0.025482
0.806915 0.107483 0.057648
0.830750 0.112335 0.069489
0.849091 0.115753 0.073608
0.007080 0.148560 0.013824
0.020050 0.148071 0.012970
0.142914 0.147644 0.000244
0.369568 0.155426 0.000000
0.637421 0.176605 0.025238
0.813812 0.153961 0.048950
0.834015 0.138123 0.061920
0.852081 0.139069 0.066864
0.024933 0.303497 0.034973
0.037842 0.303864 0.034760
0.050995 0.303802 0.033478
0.375427 0.316071 0.015991
0.660370 0.342712 0.028931
0.850006 0.376892 0.044403
0.875244 0.377808 0.050964
0.892761 0.379974 0.053223
0.048309 0.489136 0.074738
0.063446 0.490814 0.075043
0.078156 0.492432 0.075378
0.196075 0.511444 0.066223
0.665649 0.543030 0.053864
0.858154 0.563538 0.068390
0.899139 0.566650 0.079132
0.914459 0.567993 0.081329
0.087738 0.668610 0.122223
0.103577 0.670563 0.122253
0.120514 0.672821 0.122406
0.137604 0.674194 0.122223
0.589844 0.726135 0.086487
0.824127 0.734589 0.104095
0.898590 0.730835 0.109161
0.913086 0.730865 0.110138
0.108887 0.718048 0.131866
0.125519 0.720398 0.132019
0.143555 0.722809 0.132111
0.161469 0.724976 0.131622
0.511902 0.775085 0.102783
0.794617 0.792175 0.112244
0.893616 0.789032 0.117584
0.909607 0.788605 0.117645
0.117065 0.737244 0.135468
0.134033 0.739532 0.135468
0.151764 0.742004 0.135559
0.169586 0.744171 0.135162
0.481201 0.793365 0.113617
0.786102 0.810791 0.114349
0.888275 0.808167 0.119720
0.908508 0.807037 0.119690
0.000000 0.000000 0.048035
0.046722 0.000000 0.050293
0.154694 0.000000 0.048584
0.372742 0.022400 0.048798
0.637421 0.063293 0.070374
0.807526 0.092194 0.092987
0.830902 0.097656 0.102356
0.848877 0.101562 0.106232
0.000000 0.051575 0.052704
0.033875 0.051910 0.056030
0.150665 0.053528 0.054779
0.375732 0.046417 0.045227
0.635773 0.077728 0.067932
0.809082 0.108215 0.091705
0.832184 0.113556 0.101257
0.850098 0.117340 0.105225
0.003784 0.148560 0.052399
0.016449 0.148346 0.052429
0.138489 0.147614 0.034607
0.367157 0.156006 0.045654
0.643860 0.171051 0.063202
0.813873 0.147278 0.086761
0.834778 0.137054 0.096222
0.852295 0.137665 0.100433
0.023743 0.303772 0.051453
0.036743 0.303894 0.051422
0.049591 0.303864 0.051025
0.376373 0.316986 0.031097
0.662537 0.344116 0.043640
0.851868 0.379517 0.062866
0.876099 0.381439 0.080780
0.893219 0.383911 0.086090
0.046967 0.490723 0.091034
0.062439 0.491211 0.090668
0.077240 0.492401 0.090729
0.192780 0.511047 0.085785
0.667816 0.546295 0.069092
0.858337 0.565033 0.084473
0.899109 0.568176 0.095093
0.914307 0.569336 0.097260
0.086670 0.669434 0.138245
0.101990 0.670776 0.138123
0.117950 0.672699 0.138214
0.135071 0.674347 0.138275
0.590607 0.727631 0.100922
0.823822 0.735718 0.119415
0.898804 0.732544 0.124817
0.913208 0.732452 0.125854
0.107941 0.719147 0.148041
0.124146 0.721130 0.148285
0.140747 0.723755 0.148560
0.158722 0.725739 0.148224
0.509613 0.776855 0.120117
0.794098 0.793304 0.127289
0.893433 0.790436 0.132355
0.909424 0.790131 0.132477
0.115967 0.737915 0.151520
0.132324 0.740143 0.151794
0.149109 0.742859 0.151978
0.166687 0.744995 0.151917
0.475555 0.793823 0.132874
0.785797 0.811920 0.129181
0.887848 0.809662 0.134674
0.908295 0.808441 0.134521
0.000000 0.000000 0.125488
0.036377 0.000000 0.127380
0.152893 0.001953 0.126923
0.378082 0.024872 0.124084
0.643585 0.065308 0.132874
0.811035 0.095367 0.148529
0.832794 0.100677 0.155670
0.849915 0.104584 0.159729
0.000000 0.028717 0.129578
0.027191 0.023895 0.131195
0.146942 0.025970 0.130310
0.377594 0.040771 0.123535
0.642639 0.080109 0.131836
0.812592 0.111969 0.148712
0.834167 0.116852 0.155884
0.851593 0.120728 0.160339
0.000000 0.141968 0.146851
0.010773 0.142365 0.148315
0.098511 0.147461 0.158661
0.365875 0.151520 0.140411
0.648956 0.154846 0.130890
0.815338 0.137604 0.146851
0.836365 0.133423 0.154144
0.853699 0.136871 0.158539
0.015686 0.310425 0.140533
0.028687 0.310516 0.139374
0.041473 0.310364 0.138733
0.376740 0.323639 0.103485
0.670837 0.352844 0.120300
0.854095 0.394318 0.161102
0.874939 0.397797 0.180206
0.888763 0.402008 0.189575
0.045624 0.490875 0.107605
0.060486 0.491669 0.107330
0.075592 0.492188 0.107178
0.187012 0.509277 0.105225
0.668732 0.547516 0.083923
0.858002 0.565582 0.100525
0.898621 0.568359 0.110962
0.913940 0.569702 0.113373
0.085327 0.670166 0.154236
0.100647 0.671265 0.154175
0.116302 0.672516 0.154175
0.132294 0.673645 0.154175
0.590210 0.728424 0.115723
0.823364 0.735992 0.134491
0.899048 0.733612 0.140930
0.913452 0.733429 0.141724
0.106812 0.720001 0.163971
0.122894 0.721954 0.164307
0.139252 0.724243 0.164703
0.155701 0.726410 0.164642
0.505280 0.779053 0.137634
0.793396 0.794525 0.142151
0.893280 0.791901 0.147308
0.909332 0.791565 0.147430
0.114380 0.738464 0.167511
0.131439 0.741241 0.167969
0.147583 0.743378 0.168152
0.163879 0.745758 0.168030
0.469177 0.794159 0.152008
0.785126 0.813171 0.144348
0.887329 0.811035 0.149445
0.908081 0.809814 0.149353
0.000000 0.024353 0.269745
0.010773 0.020386 0.268311
0.100555 0.018738 0.271606
0.347015 0.026825 0.260559
0.645844 0.070038 0.252167
0.811768 0.108154 0.273804
0.833771 0.113586 0.281830
0.850311 0.117767 0.288147
0.000000 0.044769 0.273834
0.010773 0.043518 0.274048
0.094177 0.035797 0.274841
0.343719 0.043915 0.263214
0.644867 0.086243 0.254364
0.813873 0.126068 0.278900
0.836182 0.131592 0.287018
0.852386 0.135223 0.292328
0.000000 0.073395 0.277496
0.010773 0.072723 0.278290
0.074158 0.059540 0.276459
0.330078 0.060242 0.266724
0.643158 0.102264 0.255219
0.816315 0.144928 0.282990
0.838928 0.150360 0.291229
0.855133 0.153717 0.295502
0.000000 0.296021 0.318939
0.010773 0.296783 0.319977
0.021484 0.297241 0.321320
0.216583 0.322388 0.351379
0.650665 0.396637 0.364929
0.834808 0.417786 0.381195
0.862152 0.411469 0.379333
0.879303 0.410828 0.378998
0.033936 0.526611 0.356567
0.048035 0.527740 0.356903
0.062012 0.528748 0.357208
0.147614 0.535217 0.355865
0.664276 0.593536 0.308044
0.839417 0.612427 0.380127
0.882507 0.615967 0.387634
0.898499 0.617279 0.389374
0.085846 0.686951 0.302216
0.100555 0.687500 0.301636
0.115326 0.688141 0.301300
0.130035 0.688202 0.302185
0.580872 0.750641 0.290802
0.822754 0.751404 0.292053
0.901245 0.751373 0.301483
0.915955 0.751556 0.303802
0.105560 0.728180 0.228485
0.120850 0.728790 0.228363
0.136169 0.729370 0.228088
0.151489 0.729980 0.228302
0.465454 0.780609 0.238892
0.791260 0.801178 0.216003
0.892334 0.801483 0.234467
0.909515 0.801361 0.237610
0.112823 0.745667 0.227051
0.127930 0.746185 0.226746
0.143280 0.746796 0.226410
0.158417 0.747375 0.226624
0.411560 0.784882 0.243805
0.783142 0.818970 0.203979
0.885315 0.816925 0.208252
0.907806 0.815765 0.208923
0.000977 0.054291 0.429871
0.013397 0.051575 0.429321
0.045837 0.039459 0.428253
0.239288 0.040680 0.430786
0.601837 0.077209 0.401367
0.803192 0.123199 0.429901
0.827393 0.128662 0.436066
0.844482 0.132111 0.439880
0.000397 0.072754 0.433533
0.012909 0.070923 0.433380
0.040283 0.063507 0.432312
0.236694 0.056671 0.433929
0.602203 0.094849 0.404449
0.805603 0.142212 0.435394
0.829926 0.147736 0.441559
0.846985 0.151276 0.445557
0.000000 0.090302 0.435852
0.012390 0.089264 0.436798
0.025269 0.086884 0.436432
0.231293 0.072296 0.436798
0.600586 0.112579 0.407867
0.808075 0.162842 0.441528
0.833221 0.168854 0.448273
0.850220 0.172577 0.452240
0.000000 0.255646 0.471497
0.010773 0.256287 0.472656
0.021820 0.256500 0.473755
0.184845 0.260864 0.496948
0.628235 0.315063 0.488037
0.822968 0.330688 0.506195
0.851013 0.312134 0.501068
0.868530 0.310547 0.502502
0.005615 0.499084 0.524597
0.017487 0.501465 0.526672
0.030579 0.503845 0.529053
0.072723 0.509186 0.535522
0.607727 0.604004 0.591034
0.833282 0.635559 0.610443
0.884277 0.637970 0.617065
0.901367 0.638306 0.618469
0.080780 0.705048 0.564789
0.095703 0.706787 0.566406
0.110413 0.708252 0.567627
0.124512 0.708801 0.568817
0.483002 0.753326 0.582489
0.822266 0.790131 0.552795
0.912140 0.791016 0.567139
0.927734 0.791412 0.570282
0.115540 0.773682 0.561768
0.130402 0.774994 0.562439
0.145630 0.776306 0.562744
0.160797 0.777710 0.563690
0.354187 0.797974 0.566650
0.797729 0.858826 0.549133
0.902130 0.856812 0.539825
0.922974 0.854767 0.538940
0.124146 0.791626 0.559479
0.138855 0.792999 0.559937
0.153687 0.794312 0.560455
0.168518 0.795776 0.561493
0.332611 0.813507 0.564484
0.792755 0.874420 0.547668
0.896271 0.875549 0.539948
0.921722 0.869995 0.530548
0.002563 0.072235 0.584045
0.014984 0.070312 0.584106
0.027222 0.067841 0.583588
0.221039 0.055450 0.580566
0.499695 0.070190 0.572052
0.797882 0.137787 0.567352
0.825806 0.144226 0.573578
0.843597 0.148010 0.576874
0.002167 0.089264 0.585999
0.014679 0.087921 0.586334
0.026947 0.086304 0.586609
0.216949 0.071869 0.584839
0.498810 0.087616 0.576080
0.799561 0.158203 0.574524
0.827698 0.165558 0.581604
0.845856 0.169586 0.585052
0.001892 0.105621 0.587738
0.014435 0.104950 0.588745
0.026703 0.104218 0.589447
0.209320 0.087952 0.589478
0.494019 0.105469 0.581451
0.799500 0.179657 0.582520
0.829498 0.187653 0.590027
0.847412 0.191742 0.593384
0.001587 0.121460 0.587006
0.014130 0.121063 0.588593
0.026398 0.120697 0.589722
0.173859 0.102539 0.591827
0.451080 0.118774 0.587769
0.792114 0.198853 0.586731
0.831207 0.208862 0.596283
0.849152 0.213043 0.599762
0.008331 0.476013 0.667114
0.021332 0.477570 0.668671
0.035492 0.479034 0.670441
0.049377 0.479187 0.672150
0.429932 0.540833 0.725983
0.817566 0.596161 0.739197
0.882263 0.595459 0.741119
0.899719 0.595337 0.741760
0.041412 0.674225 0.708557
0.056458 0.675934 0.710266
0.071747 0.677643 0.711884
0.087097 0.679047 0.713898
0.360687 0.717285 0.740814
0.807098 0.797119 0.774353
0.909393 0.801727 0.775208
0.925507 0.803162 0.779205
0.085022 0.773407 0.725739
0.100159 0.774994 0.726746
0.115356 0.776642 0.727844
0.130463 0.778198 0.729279
0.290039 0.796448 0.739044
0.784668 0.881073 0.770721
0.904755 0.883606 0.751343
0.935669 0.883301 0.754089
0.093475 0.791565 0.725586
0.108734 0.793091 0.726532
0.123840 0.794922 0.727692
0.139008 0.796814 0.729065
0.247467 0.810822 0.735840
0.778900 0.900116 0.770081
0.899689 0.904053 0.749237
0.934448 0.903870 0.747742
0.003510 0.087189 0.661255
0.015686 0.085968 0.661469
0.027710 0.084961 0.662201
0.205780 0.070801 0.662964
0.456543 0.081299 0.655273
0.784882 0.149750 0.643921
0.819885 0.157654 0.651215
0.838806 0.161652 0.655182
0.003265 0.104004 0.663116
0.015533 0.103394 0.663605
0.027588 0.102722 0.664337
0.202393 0.086914 0.666382
0.451752 0.099487 0.660217
0.785492 0.171906 0.653961
0.820679 0.179321 0.660980
0.839508 0.182892 0.664398
0.003387 0.120697 0.665649
0.015350 0.120239 0.666046
0.027466 0.119934 0.666718
0.194916 0.103119 0.669861
0.444305 0.118805 0.666534
0.784637 0.194122 0.664642
0.821503 0.200867 0.670685
0.840637 0.203918 0.673401
0.003937 0.137299 0.668121
0.015869 0.137268 0.669189
0.027496 0.136719 0.669891
0.152893 0.126709 0.673096
0.410645 0.136200 0.673767
0.776062 0.214661 0.673035
0.823212 0.222473 0.679230
0.842255 0.225250 0.681671
0.011017 0.456299 0.738953
0.025330 0.457947 0.740631
0.039337 0.459656 0.742828
0.053375 0.459534 0.744354
0.374817 0.502258 0.792267
0.798706 0.548065 0.796600
0.866821 0.550568 0.796997
0.885040 0.550781 0.797882
0.036896 0.659454 0.779663
0.051544 0.661743 0.781830
0.066315 0.663757 0.783875
0.081085 0.665009 0.785919
0.332977 0.698364 0.811859
0.786987 0.786682 0.861511
0.901245 0.791290 0.861481
0.918854 0.792084 0.862549
0.075043 0.762054 0.798004
0.090515 0.764374 0.800201
0.106171 0.766785 0.802338
0.121521 0.767975 0.803955
0.243286 0.779419 0.812714
0.754852 0.875153 0.870026
0.895142 0.882874 0.864929
0.931824 0.883728 0.864594
0.085815 0.792725 0.803436
0.101135 0.795044 0.805420
0.116486 0.797211 0.807251
0.131805 0.798889 0.808655
0.230560 0.809479 0.815918
0.745575 0.906677 0.871765
0.893066 0.913849 0.863007
0.932312 0.914124 0.859222
0.003479 0.090820 0.679535
0.015717 0.089691 0.679565
0.027832 0.088837 0.679504
0.202118 0.074615 0.681549
0.447906 0.084747 0.673920
0.780457 0.152710 0.663574
0.817352 0.160431 0.669800
0.836090 0.164093 0.673645
0.003296 0.107147 0.681458
0.015594 0.106598 0.681702
0.027740 0.106293 0.682007
0.199036 0.091034 0.684875
0.441864 0.103485 0.679596
0.780914 0.176025 0.674927
0.818024 0.182129 0.679626
0.836884 0.185333 0.682953
0.003540 0.123871 0.684082
0.015472 0.123352 0.684204
0.027618 0.123108 0.684418
0.191620 0.108185 0.688110
0.435333 0.123199 0.686005
0.780609 0.197815 0.684723
0.819122 0.204193 0.689392
0.838196 0.206543 0.691711
0.004150 0.140808 0.686981
0.016113 0.140717 0.687714
0.027893 0.140442 0.687988
0.144501 0.134247 0.691071
0.406891 0.141937 0.694336
0.772339 0.217560 0.692596
0.821075 0.225464 0.697815
0.839996 0.227905 0.700134
0.012024 0.450348 0.758026
0.026306 0.451813 0.759583
0.040283 0.453156 0.761261
0.054321 0.453064 0.762604
0.366760 0.492767 0.809265
0.790527 0.535950 0.812073
0.862701 0.537933 0.811157
0.881073 0.538605 0.811920
0.039276 0.658813 0.807861
0.053986 0.660461 0.809387
0.068787 0.662445 0.811188
0.083649 0.663757 0.813080
0.325500 0.695282 0.838623
0.780457 0.783112 0.887207
0.898193 0.786560 0.885895
0.916229 0.787292 0.886841
0.072235 0.759247 0.825958
0.087769 0.761322 0.827789
0.103302 0.763306 0.829803
0.118652 0.764832 0.831573
0.233887 0.775909 0.840363
0.751282 0.870239 0.896790
0.892761 0.882019 0.898895
0.930115 0.883514 0.899994
0.085266 0.793701 0.832214
0.100525 0.795441 0.833588
0.115936 0.797485 0.835175
0.131470 0.799408 0.836914
0.227997 0.809357 0.844208
0.740601 0.902618 0.900574
0.890686 0.913544 0.898895
0.929321 0.914673 0.897064
