滤镜资源/Professional Luts Collection/Triune-Digital-Cinematic-LUTs/3D LUTs (CUBE)/ALEXA/Drive - Alexa.cube
#Created by Benjamin (IWLTBAP) : http://luts.iwltbap.com
#Copyright: (C) Copyright 2016 Triune Films and IWLTBAP
TITLE "Blockbuster LUTs Pack (Alexa Log-C)"
#LUT size
LUT_3D_SIZE 5
#LUT data points
DOMAIN_MIN 0.000000 0.000000 0.000000
DOMAIN_MAX 0.903226 0.903226 0.903226
0.000000 0.000000 0.000854
0.120087 0.000000 0.000641
0.510956 0.043701 0.012329
0.814880 0.093262 0.063965
0.847168 0.099884 0.074951
0.004639 0.122498 0.011383
0.109894 0.121094 0.000000
0.507782 0.134735 0.008942
0.818359 0.121796 0.057159
0.850433 0.127899 0.069641
0.038208 0.392426 0.051208
0.061188 0.394165 0.050995
0.544891 0.426727 0.034668
0.876801 0.476227 0.061218
0.905212 0.478058 0.067841
0.099670 0.697449 0.127930
0.130066 0.701416 0.128113
0.217590 0.711487 0.127411
0.847107 0.764923 0.112183
0.911011 0.761719 0.114685
0.117065 0.737244 0.135468
0.147430 0.741486 0.135559
0.178467 0.745117 0.135254
0.822113 0.810577 0.116913
0.908508 0.807037 0.119690
0.000000 0.000000 0.102356
0.117676 0.000000 0.104462
0.517670 0.044250 0.103088
0.819244 0.096436 0.133087
0.849976 0.103546 0.141937
0.000000 0.115265 0.117798
0.081696 0.118622 0.126160
0.523987 0.117737 0.101227
0.822174 0.125031 0.131256
0.852783 0.131622 0.140869
0.036530 0.392639 0.079163
0.058929 0.393494 0.079224
0.547791 0.429657 0.061523
0.877472 0.479431 0.095062
0.905426 0.482544 0.113373
0.098022 0.698883 0.155884
0.126678 0.702423 0.156342
0.212677 0.713531 0.155487
0.846497 0.766541 0.138336
0.911072 0.763763 0.141266
0.114807 0.738342 0.163513
0.143860 0.742676 0.164093
0.173706 0.746643 0.164246
0.821259 0.812897 0.142731
0.908142 0.809448 0.145691
0.000000 0.043365 0.350342
0.041962 0.028931 0.347931
0.475616 0.049255 0.330750
0.817596 0.119446 0.358154
0.846466 0.126801 0.366180
0.000000 0.073669 0.355469
0.021393 0.072632 0.355957
0.468597 0.078430 0.334290
0.821411 0.152863 0.367615
0.850433 0.160980 0.376007
0.000000 0.388855 0.416992
0.019897 0.390839 0.419525
0.327087 0.453735 0.479034
0.860870 0.525909 0.499420
0.894470 0.522888 0.497375
0.103668 0.734863 0.457947
0.128571 0.735870 0.456543
0.181580 0.736877 0.454651
0.850525 0.802948 0.430237
0.918549 0.799805 0.435760
0.116821 0.775940 0.431793
0.142059 0.776733 0.429199
0.167603 0.778107 0.429474
0.824768 0.856537 0.414856
0.914276 0.848022 0.406708
0.002930 0.077728 0.612366
0.024384 0.074646 0.612915
0.317535 0.059540 0.604614
0.811035 0.146484 0.599182
0.843262 0.153870 0.606079
0.002441 0.106628 0.615662
0.023926 0.105560 0.617035
0.312195 0.090210 0.612000
0.813171 0.184662 0.615204
0.845428 0.191650 0.621399
0.006866 0.319031 0.657349
0.028015 0.320496 0.659973
0.258179 0.329163 0.686646
0.825958 0.374756 0.684387
0.860840 0.359985 0.680389
0.053375 0.704956 0.740234
0.080597 0.708099 0.743042
0.107178 0.710022 0.746063
0.836426 0.827515 0.806824
0.928375 0.829803 0.805847
0.088867 0.792969 0.754791
0.115509 0.796112 0.756866
0.142151 0.799133 0.758942
0.819885 0.905182 0.802002
0.936096 0.907928 0.785095
0.003479 0.090820 0.679535
0.024841 0.089142 0.679413
0.310608 0.073151 0.671997
0.801025 0.156952 0.666412
0.836090 0.164093 0.673645
0.003418 0.119690 0.683441
0.024597 0.119049 0.683533
0.306854 0.107483 0.683014
0.802063 0.195709 0.684479
0.837799 0.201172 0.689423
0.007294 0.223389 0.703522
0.028259 0.223053 0.704773
0.253632 0.219116 0.717896
0.805420 0.290924 0.719666
0.845947 0.290009 0.722443
0.047028 0.692902 0.814575
0.073303 0.696045 0.817535
0.099487 0.698090 0.820892
0.822144 0.819122 0.893494
0.920776 0.821686 0.893616
0.085266 0.793701 0.832214
0.112091 0.796906 0.834686
0.139038 0.800140 0.837677
0.800140 0.908234 0.901367
0.929321 0.914673 0.897064
