滤镜资源/Professional Luts Collection/Triune-Digital-Cinematic-LUTs/3D LUTs (CUBE)/ALEXA/Drive - Alexa.cube
#Created by Benjamin (IWLTBAP) : http://luts.iwltbap.com
#Copyright: (C) Copyright 2016 Triune Films and IWLTBAP
TITLE "Blockbuster LUTs Pack (Alexa Log-C)"
#LUT size
LUT_3D_SIZE 32
#LUT data points
0.000000 0.000000 0.000854
0.008789 0.000000 0.000916
0.019684 0.000000 0.000641
0.032501 0.000000 0.000153
0.050476 0.000000 0.000214
0.068817 0.000000 0.000336
0.091125 0.000000 0.000427
0.120087 0.000000 0.000641
0.152924 0.001801 0.000977
0.194702 0.007141 0.001434
0.247589 0.010376 0.002228
0.305267 0.013702 0.003357
0.369385 0.020233 0.004822
0.440399 0.031219 0.006805
0.510956 0.043701 0.012329
0.573456 0.053833 0.021210
0.632874 0.062653 0.028992
0.688751 0.072266 0.039429
0.736542 0.080109 0.047729
0.778290 0.086639 0.054535
0.804993 0.091248 0.059967
0.814880 0.093262 0.063965
0.819580 0.094299 0.066925
0.824219 0.095276 0.069366
0.828674 0.096283 0.071045
0.833282 0.097107 0.072266
0.837799 0.097992 0.073212
0.842438 0.098877 0.073975
0.847168 0.099884 0.074951
0.851837 0.101013 0.075928
0.856415 0.102081 0.076782
0.860962 0.103058 0.077789
0.000000 0.008636 0.001678
0.007172 0.008209 0.001526
0.017609 0.007874 0.001068
0.029694 0.007721 0.000214
0.049194 0.007263 0.000000
0.067993 0.006989 0.000000
0.090576 0.006561 0.000000
0.120575 0.008453 0.000153
0.153809 0.011139 0.000427
0.195312 0.013824 0.000946
0.247681 0.015533 0.001740
0.305695 0.018097 0.002838
0.369781 0.024353 0.004303
0.440704 0.035248 0.006195
0.511383 0.047638 0.011627
0.573517 0.057770 0.020569
0.632660 0.066589 0.028259
0.688599 0.075928 0.038635
0.736481 0.084076 0.047089
0.778503 0.090546 0.054016
0.805634 0.095306 0.059509
0.815338 0.097260 0.063660
0.820099 0.098511 0.066772
0.824738 0.099457 0.069122
0.829193 0.100220 0.070801
0.833710 0.101013 0.071991
0.838165 0.101776 0.072876
0.842865 0.102722 0.073761
0.847534 0.103821 0.074707
0.852295 0.104858 0.075714
0.856903 0.105865 0.076569
0.861389 0.106842 0.077484
0.000000 0.023163 0.002930
0.005280 0.022400 0.002716
0.015289 0.021271 0.002197
0.027283 0.021240 0.001190
0.047119 0.021759 0.000000
0.068207 0.021820 0.000000
0.091125 0.022125 0.000000
0.121674 0.024109 0.000000
0.156372 0.025940 0.000031
0.199097 0.027527 0.000366
0.247772 0.027924 0.001160
0.305725 0.025146 0.002258
0.369934 0.028381 0.003784
0.441193 0.039520 0.005615
0.511536 0.051514 0.010895
0.573547 0.061646 0.019836
0.632629 0.070343 0.027466
0.688293 0.079712 0.037933
0.736389 0.087982 0.046417
0.778870 0.094574 0.053467
0.806030 0.099304 0.058960
0.815796 0.101501 0.063263
0.820526 0.102570 0.066498
0.825256 0.103485 0.068756
0.829834 0.104279 0.070465
0.834229 0.105011 0.071686
0.838745 0.105896 0.072540
0.843323 0.106812 0.073486
0.848083 0.107849 0.074402
0.852753 0.108765 0.075409
0.857361 0.109772 0.076202
0.861816 0.110748 0.077057
0.000000 0.042572 0.004913
0.003265 0.042053 0.004669
0.012817 0.041077 0.004333
0.025665 0.040039 0.003448
0.044128 0.039886 0.000702
0.067078 0.039429 0.000000
0.091339 0.038971 0.000000
0.121460 0.039978 0.000000
0.157379 0.041534 0.000000
0.201447 0.042297 0.000031
0.248413 0.043396 0.000519
0.304108 0.040894 0.001617
0.370483 0.037262 0.003082
0.441162 0.043427 0.004974
0.511169 0.055420 0.009979
0.573456 0.065399 0.019012
0.632446 0.074127 0.026611
0.688049 0.083374 0.036957
0.736725 0.091980 0.045624
0.779236 0.098663 0.052765
0.806519 0.103424 0.058380
0.816254 0.105530 0.062836
0.821106 0.106628 0.066071
0.825684 0.107422 0.068329
0.830322 0.108307 0.070068
0.834808 0.109100 0.071259
0.839264 0.109833 0.072113
0.843781 0.110809 0.073151
0.848572 0.111786 0.074097
0.853210 0.112732 0.075043
0.857880 0.113647 0.075836
0.862366 0.114777 0.076660
0.000000 0.061584 0.007172
0.002747 0.061279 0.007019
0.010193 0.060699 0.006683
0.024078 0.059875 0.005646
0.041412 0.059021 0.003479
0.064484 0.058472 0.000000
0.091431 0.056915 0.000000
0.122162 0.057098 0.000000
0.158356 0.058350 0.000000
0.202118 0.059204 0.000000
0.251221 0.059143 0.000092
0.301575 0.059052 0.001923
0.369568 0.053741 0.002350
0.440155 0.054382 0.004181
0.510529 0.059753 0.008881
0.573181 0.069183 0.017914
0.632141 0.077820 0.025482
0.688110 0.087250 0.035980
0.736938 0.096008 0.044678
0.779541 0.102844 0.051971
0.806915 0.107483 0.057648
0.816772 0.109619 0.062134
0.821564 0.110565 0.065399
0.826141 0.111572 0.067719
0.830750 0.112335 0.069489
0.835266 0.113129 0.070740
0.839844 0.113861 0.071716
0.844330 0.114746 0.072693
0.849091 0.115753 0.073608
0.853729 0.116852 0.074524
0.858429 0.117798 0.075287
0.862854 0.118774 0.076111
0.000000 0.079956 0.008545
0.002930 0.079742 0.008423
0.008392 0.079376 0.008270
0.021393 0.078857 0.007690
0.037476 0.078491 0.006348
0.060699 0.077881 0.002350
0.088470 0.076630 0.000000
0.122070 0.075867 0.000000
0.158447 0.076263 0.000000
0.202972 0.077362 0.000000
0.253143 0.077911 0.000000
0.302551 0.079498 0.000153
0.365021 0.078400 0.002625
0.438324 0.074493 0.003143
0.509827 0.075714 0.007751
0.572540 0.076904 0.016632
0.631866 0.081573 0.024048
0.688019 0.091125 0.034546
0.737061 0.100067 0.043304
0.779724 0.106873 0.050751
0.807251 0.111572 0.056671
0.817261 0.113770 0.061127
0.822083 0.114685 0.064453
0.826660 0.115509 0.066833
0.831299 0.116333 0.068634
0.835754 0.117065 0.069855
0.840393 0.117920 0.071014
0.845062 0.118774 0.071991
0.849548 0.119843 0.072845
0.854218 0.120819 0.073700
0.858765 0.121765 0.074432
0.863342 0.122681 0.075317
0.002014 0.100067 0.009827
0.005524 0.099915 0.009735
0.008850 0.099792 0.009674
0.017365 0.099426 0.009399
0.032654 0.099030 0.008484
0.054474 0.099304 0.005981
0.082855 0.098358 0.001617
0.118195 0.096649 0.000000
0.158020 0.096100 0.000000
0.203583 0.097168 0.000000
0.254089 0.098541 0.000000
0.307068 0.100555 0.000000
0.361664 0.103790 0.004242
0.434875 0.101898 0.001587
0.509918 0.102234 0.006470
0.574097 0.100891 0.015076
0.632416 0.097412 0.022339
0.687683 0.097748 0.032471
0.736877 0.103973 0.041290
0.779724 0.110809 0.048920
0.807617 0.115631 0.055084
0.817841 0.117737 0.059662
0.822632 0.118713 0.062836
0.827271 0.119476 0.065460
0.831757 0.120270 0.067291
0.836334 0.121033 0.068573
0.840881 0.122040 0.069794
0.845520 0.122955 0.070770
0.849976 0.123840 0.071594
0.854584 0.124756 0.072449
0.859100 0.125702 0.073212
0.863647 0.126678 0.074005
0.004639 0.122498 0.011383
0.007904 0.122467 0.011292
0.011108 0.122314 0.011200
0.014343 0.122192 0.011078
0.025085 0.122070 0.010651
0.045227 0.122070 0.009155
0.072906 0.122803 0.005981
0.109894 0.121094 0.000000
0.153198 0.119598 0.000000
0.202087 0.119110 0.000000
0.254028 0.121033 0.000000
0.308014 0.124207 0.000000
0.366272 0.128021 0.000519
0.426147 0.133209 0.008240
0.507782 0.134735 0.008942
0.576782 0.134430 0.013550
0.636353 0.134460 0.021362
0.691223 0.130615 0.030701
0.738495 0.123932 0.038635
0.780396 0.120758 0.046051
0.808105 0.121490 0.052521
0.818359 0.121796 0.057159
0.823090 0.122681 0.060516
0.827728 0.123505 0.063202
0.832245 0.124420 0.065216
0.836792 0.125153 0.066620
0.841278 0.126099 0.067902
0.845917 0.126984 0.068909
0.850433 0.127899 0.069641
0.855011 0.128754 0.070343
0.859436 0.129822 0.071198
0.863953 0.130707 0.072021
0.007080 0.148560 0.013824
0.010345 0.148468 0.013611
0.013580 0.148407 0.013397
0.016785 0.148254 0.013184
0.020050 0.148071 0.012970
0.032959 0.147980 0.012024
0.060364 0.148865 0.009613
0.095276 0.149506 0.005768
0.142914 0.147644 0.000244
0.197083 0.145905 0.000000
0.252258 0.146606 0.000000
0.308990 0.150635 0.000000
0.369568 0.155426 0.000000
0.435425 0.161774 0.002533
0.499725 0.170227 0.015533
0.571716 0.174805 0.021393
0.637421 0.176605 0.025238
0.695892 0.175415 0.028412
0.745178 0.174316 0.036285
0.786713 0.165955 0.042816
0.813812 0.153961 0.048950
0.821533 0.143982 0.053375
0.825348 0.140045 0.056946
0.829651 0.138916 0.059692
0.834015 0.138123 0.061920
0.838379 0.137878 0.063782
0.842957 0.138031 0.065155
0.847443 0.138489 0.066071
0.852081 0.139069 0.066864
0.856476 0.139771 0.067566
0.860962 0.140289 0.068329
0.865326 0.140686 0.069244
0.009003 0.179779 0.018524
0.012268 0.179749 0.018311
0.015564 0.179718 0.018127
0.018921 0.179626 0.017944
0.022156 0.179504 0.017670
0.025360 0.179352 0.017426
0.040192 0.179321 0.015869
0.075226 0.181366 0.011383
0.122559 0.181458 0.005646
0.183624 0.180756 0.000885
0.246399 0.178345 0.000000
0.309052 0.182037 0.000000
0.372375 0.187134 0.000519
0.439362 0.194794 0.004791
0.507385 0.201141 0.009674
0.572052 0.210571 0.022125
0.630737 0.219513 0.030365
0.687866 0.226166 0.038208
0.740234 0.230194 0.045410
0.787354 0.231415 0.052643
0.818054 0.229675 0.059875
0.829620 0.221954 0.062775
0.835114 0.212402 0.063354
0.840332 0.204010 0.062958
0.844727 0.197327 0.061981
0.848602 0.192657 0.061951
0.852509 0.189972 0.062592
0.856689 0.188782 0.063629
0.860840 0.188416 0.064514
0.865112 0.188385 0.065277
0.869263 0.188080 0.065948
0.873077 0.186768 0.066559
0.012543 0.217163 0.023926
0.015717 0.217163 0.023895
0.018951 0.217133 0.023529
0.022339 0.217102 0.023193
0.025665 0.217010 0.022949
0.028870 0.216888 0.022675
0.032043 0.216766 0.022400
0.046783 0.216736 0.020966
0.093292 0.220886 0.013123
0.161774 0.221375 0.006927
0.234863 0.219330 0.003296
0.305328 0.219757 0.002716
0.376831 0.225189 0.005096
0.445526 0.232544 0.008759
0.512787 0.238922 0.011658
0.580048 0.246124 0.016144
0.641235 0.256989 0.028076
0.694427 0.267029 0.037018
0.744324 0.275177 0.042786
0.789948 0.281525 0.048370
0.821930 0.286041 0.056793
0.832153 0.284912 0.062378
0.835754 0.282684 0.067078
0.839539 0.280945 0.070984
0.843445 0.279877 0.074219
0.847839 0.279205 0.076538
0.852325 0.279144 0.078339
0.856689 0.279388 0.079590
0.861206 0.280121 0.080933
0.865234 0.281006 0.082062
0.869202 0.281433 0.082886
0.873413 0.281464 0.083862
0.017609 0.259277 0.028809
0.020874 0.259369 0.028778
0.024017 0.259460 0.028748
0.027191 0.259460 0.028656
0.030457 0.259491 0.028320
0.033752 0.259460 0.027954
0.037048 0.259399 0.027679
0.040405 0.259308 0.027405
0.057159 0.259613 0.025787
0.121552 0.265930 0.016113
0.212036 0.267731 0.011230
0.296997 0.265411 0.008362
0.378418 0.269012 0.010193
0.455658 0.274261 0.012421
0.525360 0.281281 0.015686
0.590759 0.289429 0.020477
0.652405 0.297699 0.024750
0.708191 0.307587 0.032990
0.757629 0.317749 0.040314
0.803040 0.326111 0.045349
0.835571 0.332245 0.051178
0.846436 0.332703 0.054321
0.850433 0.332062 0.057587
0.854767 0.331726 0.060638
0.859009 0.331879 0.063232
0.863464 0.332428 0.065552
0.867920 0.333221 0.067291
0.872528 0.334106 0.068542
0.876648 0.334808 0.069519
0.880859 0.335754 0.070374
0.885040 0.336487 0.071411
0.889130 0.336975 0.072357
0.024933 0.303497 0.034973
0.028198 0.303528 0.034912
0.031372 0.303680 0.034851
0.034607 0.303741 0.034851
0.037842 0.303864 0.034760
0.041077 0.303925 0.034607
0.044434 0.303925 0.034241
0.047852 0.303925 0.033905
0.050995 0.303802 0.033478
0.083832 0.305664 0.028503
0.169586 0.314758 0.019348
0.276398 0.317932 0.018524
0.375427 0.316071 0.015991
0.463348 0.319794 0.017792
0.536102 0.326263 0.020844
0.600647 0.333832 0.025116
0.660370 0.342712 0.028931
0.716797 0.352448 0.033325
0.767670 0.360748 0.035431
0.813599 0.368591 0.038757
0.850006 0.376892 0.044403
0.862427 0.377930 0.047058
0.866730 0.377228 0.047729
0.871094 0.377289 0.049103
0.875244 0.377808 0.050964
0.879669 0.378571 0.052551
0.884277 0.379120 0.052887
0.888672 0.379517 0.053070
0.892761 0.379974 0.053223
0.896881 0.380432 0.053436
0.900909 0.380981 0.053955
0.904785 0.381531 0.054779
0.031189 0.347076 0.043060
0.034546 0.347260 0.043060
0.037811 0.347443 0.042999
0.041077 0.347595 0.042999
0.044373 0.347778 0.042938
0.047607 0.347961 0.042816
0.050903 0.348053 0.042664
0.054260 0.348145 0.042542
0.057526 0.348114 0.042328
0.060822 0.347961 0.041962
0.125946 0.355072 0.028778
0.238739 0.368317 0.028717
0.359772 0.370483 0.026459
0.465820 0.369263 0.024109
0.540680 0.372894 0.026062
0.607086 0.380524 0.030304
0.667114 0.388275 0.032959
0.722656 0.399017 0.037476
0.773102 0.408295 0.040161
0.817902 0.417236 0.043457
0.856384 0.426758 0.050385
0.870331 0.428192 0.054199
0.874603 0.427734 0.055084
0.878937 0.427643 0.055878
0.883240 0.428009 0.056793
0.887543 0.428497 0.057709
0.891754 0.429016 0.058533
0.895660 0.429474 0.059204
0.899719 0.430084 0.059875
0.903717 0.430756 0.060486
0.907654 0.431274 0.061157
0.911682 0.431702 0.061859
0.038208 0.392426 0.051208
0.041565 0.392792 0.051239
0.044800 0.393005 0.051239
0.048035 0.393280 0.051239
0.051331 0.393555 0.051239
0.054565 0.393799 0.051239
0.057800 0.394043 0.051147
0.061188 0.394165 0.050995
0.064392 0.394409 0.050964
0.067749 0.394470 0.050903
0.079651 0.395172 0.050690
0.182953 0.408783 0.033905
0.328674 0.428497 0.043518
0.455566 0.430603 0.039062
0.544891 0.426727 0.034668
0.610809 0.430573 0.036346
0.671326 0.436920 0.038513
0.725372 0.445831 0.041748
0.775574 0.455109 0.043610
0.821014 0.465668 0.048248
0.859924 0.473969 0.055695
0.876801 0.476227 0.061218
0.881165 0.475922 0.062531
0.885254 0.475861 0.063629
0.889221 0.476105 0.064697
0.893372 0.476685 0.065765
0.897308 0.477081 0.066650
0.901215 0.477539 0.067200
0.905212 0.478058 0.067841
0.909058 0.478638 0.068604
0.912872 0.479218 0.069183
0.916718 0.479523 0.069702
0.044250 0.440063 0.061127
0.047516 0.440399 0.061096
0.050873 0.440796 0.061157
0.054108 0.441071 0.061127
0.057648 0.441437 0.061157
0.061340 0.441803 0.061157
0.065216 0.442139 0.061096
0.069153 0.442505 0.061066
0.072937 0.442810 0.061066
0.076691 0.443054 0.061005
0.080475 0.443207 0.060883
0.128723 0.449707 0.058655
0.270325 0.468903 0.049988
0.428406 0.489441 0.055908
0.534698 0.488708 0.050568
0.610870 0.486694 0.046570
0.670593 0.487701 0.045593
0.725677 0.494843 0.047028
0.776276 0.503510 0.048462
0.822540 0.511688 0.052734
0.860870 0.519623 0.061157
0.881042 0.522064 0.067596
0.886810 0.522186 0.069489
0.890778 0.522156 0.070801
0.894684 0.522308 0.072235
0.898560 0.522583 0.073303
0.902557 0.522888 0.073792
0.906403 0.523315 0.074249
0.910309 0.523834 0.074738
0.914215 0.524475 0.075256
0.918121 0.524963 0.075836
0.921814 0.525421 0.076324
0.048309 0.489136 0.074738
0.052124 0.489380 0.074677
0.056000 0.489838 0.074799
0.059692 0.490295 0.074921
0.063446 0.490814 0.075043
0.067230 0.491364 0.075195
0.070953 0.491760 0.075287
0.074554 0.492096 0.075378
0.078156 0.492432 0.075378
0.081848 0.492737 0.075378
0.085419 0.492767 0.075287
0.089203 0.492828 0.075256
0.196075 0.511444 0.066223
0.390503 0.531067 0.065704
0.507050 0.544434 0.064484
0.597076 0.544891 0.058044
0.665649 0.543030 0.053864
0.722443 0.544434 0.052338
0.774078 0.551239 0.054169
0.820923 0.558197 0.058472
0.858154 0.563538 0.068390
0.883362 0.566589 0.074860
0.891113 0.566803 0.076965
0.895081 0.566681 0.078003
0.899139 0.566650 0.079132
0.903046 0.566864 0.079742
0.906830 0.567200 0.080231
0.910614 0.567505 0.080719
0.914459 0.567993 0.081329
0.918243 0.568634 0.081818
0.922119 0.569061 0.082428
0.925812 0.569427 0.083008
0.055420 0.538208 0.088715
0.059265 0.538513 0.088684
0.063202 0.538971 0.088776
0.066925 0.539398 0.088837
0.070648 0.539795 0.088867
0.074371 0.540283 0.089020
0.078033 0.540741 0.089172
0.081848 0.541290 0.089417
0.085541 0.541748 0.089569
0.089264 0.542175 0.089691
0.092834 0.542358 0.089722
0.096680 0.542542 0.089813
0.133087 0.547089 0.090057
0.309723 0.571960 0.074432
0.480560 0.587738 0.071869
0.569855 0.598114 0.070496
0.648773 0.599762 0.064392
0.713684 0.597900 0.059540
0.768066 0.599701 0.059082
0.815308 0.604156 0.065125
0.853485 0.608337 0.074646
0.882629 0.610931 0.082397
0.893616 0.611298 0.084656
0.897583 0.611145 0.085632
0.901611 0.611053 0.086517
0.905579 0.611115 0.087067
0.909363 0.611206 0.087646
0.912872 0.611511 0.088196
0.916473 0.611755 0.088776
0.920135 0.612000 0.089355
0.923706 0.612274 0.089996
0.927246 0.612457 0.090546
0.064545 0.585358 0.102722
0.068542 0.585693 0.102661
0.072357 0.586151 0.102722
0.076233 0.586670 0.102875
0.080292 0.587341 0.102875
0.084045 0.587830 0.103027
0.087891 0.588318 0.103119
0.091766 0.588837 0.103210
0.095795 0.589294 0.103333
0.099609 0.589722 0.103363
0.103394 0.589966 0.103424
0.107483 0.590302 0.103516
0.111450 0.590424 0.103485
0.225220 0.607483 0.087311
0.434814 0.627289 0.080292
0.547302 0.641663 0.077698
0.626099 0.650452 0.074554
0.698700 0.653351 0.070953
0.758789 0.653046 0.070465
0.807220 0.651215 0.074066
0.845673 0.651947 0.082123
0.876160 0.653015 0.089966
0.893097 0.654114 0.093964
0.897644 0.653961 0.094910
0.901459 0.653839 0.095642
0.905212 0.653809 0.096222
0.908875 0.653870 0.096741
0.912384 0.653931 0.097290
0.915924 0.654114 0.097870
0.919342 0.654358 0.098572
0.922974 0.654602 0.099121
0.926422 0.654724 0.099579
0.077820 0.630524 0.114685
0.081635 0.630798 0.114624
0.085480 0.631165 0.114563
0.089600 0.631927 0.114685
0.093597 0.632477 0.114777
0.097534 0.632996 0.114868
0.101715 0.633514 0.114868
0.105743 0.634003 0.114868
0.109863 0.634399 0.114838
0.113983 0.634949 0.114899
0.118103 0.635437 0.114960
0.122040 0.635895 0.114990
0.125916 0.636139 0.114990
0.163422 0.640533 0.113678
0.343536 0.669159 0.090302
0.520691 0.681396 0.083923
0.606903 0.691650 0.081512
0.678528 0.699921 0.080139
0.743195 0.702057 0.085266
0.795776 0.697052 0.089508
0.835785 0.694672 0.093262
0.866760 0.693878 0.098328
0.889771 0.694550 0.102692
0.896362 0.694580 0.103760
0.900238 0.694489 0.104309
0.903900 0.694397 0.104645
0.907532 0.694427 0.104950
0.911072 0.694519 0.105286
0.914703 0.694702 0.105682
0.918304 0.694916 0.106018
0.921844 0.695129 0.106354
0.925323 0.695282 0.106689
0.087738 0.668610 0.122223
0.091553 0.668945 0.122162
0.095490 0.669373 0.122162
0.099548 0.669952 0.122223
0.103577 0.670563 0.122253
0.107635 0.671051 0.122284
0.111816 0.671600 0.122284
0.116150 0.672180 0.122375
0.120514 0.672821 0.122406
0.124939 0.673370 0.122406
0.129120 0.673706 0.122406
0.133301 0.674011 0.122345
0.137604 0.674194 0.122223
0.142059 0.674438 0.122009
0.258270 0.691345 0.115448
0.477081 0.716980 0.092346
0.589844 0.726135 0.086487
0.663177 0.736298 0.086945
0.727478 0.740540 0.092804
0.782379 0.739532 0.099792
0.824127 0.734589 0.104095
0.856689 0.731842 0.105865
0.881622 0.730835 0.107819
0.894623 0.731018 0.108917
0.898590 0.730835 0.109161
0.902283 0.730713 0.109375
0.905853 0.730743 0.109650
0.909515 0.730835 0.109894
0.913086 0.730865 0.110138
0.916595 0.730988 0.110352
0.920166 0.731079 0.110535
0.923615 0.731110 0.110657
0.099670 0.697449 0.127930
0.103851 0.698029 0.128021
0.107941 0.698578 0.128052
0.112274 0.699127 0.128021
0.116821 0.699615 0.128052
0.121277 0.700165 0.128052
0.125580 0.700836 0.128052
0.130066 0.701416 0.128113
0.134369 0.701996 0.128143
0.138672 0.702606 0.128174
0.143005 0.703125 0.128174
0.147217 0.703552 0.128113
0.151581 0.703949 0.128021
0.156006 0.704498 0.127869
0.217590 0.711487 0.127411
0.432709 0.749023 0.105560
0.573334 0.754730 0.091888
0.652039 0.764862 0.092926
0.714325 0.771027 0.099365
0.770386 0.769653 0.104828
0.813385 0.767487 0.110260
0.847107 0.764923 0.112183
0.873138 0.763153 0.113586
0.891144 0.762543 0.114227
0.896545 0.762299 0.114441
0.900299 0.762146 0.114532
0.903870 0.761963 0.114563
0.907532 0.761841 0.114624
0.911011 0.761719 0.114685
0.914520 0.761627 0.114685
0.917999 0.761505 0.114746
0.921631 0.761475 0.114929
0.104767 0.708649 0.130035
0.108765 0.709198 0.130096
0.112915 0.709900 0.130096
0.117188 0.710388 0.130127
0.121521 0.710876 0.130127
0.125946 0.711548 0.130188
0.130524 0.712128 0.130219
0.134949 0.712738 0.130310
0.139496 0.713379 0.130371
0.144012 0.713928 0.130341
0.148376 0.714630 0.130280
0.152802 0.715118 0.130127
0.157104 0.715546 0.130005
0.161652 0.716125 0.129883
0.195282 0.720306 0.128632
0.365845 0.753754 0.116150
0.551636 0.766449 0.096527
0.641174 0.775543 0.094513
0.704987 0.783142 0.102386
0.761169 0.783234 0.106262
0.805298 0.782166 0.111725
0.839569 0.780151 0.114166
0.866608 0.779022 0.115417
0.886932 0.778320 0.116241
0.895538 0.778015 0.116364
0.899414 0.777924 0.116486
0.903046 0.777863 0.116547
0.906677 0.777832 0.116638
0.910156 0.777710 0.116638
0.913727 0.777649 0.116638
0.917267 0.777557 0.116638
0.920685 0.777405 0.116638
0.106873 0.713470 0.130859
0.110931 0.714020 0.130951
0.114929 0.714569 0.130981
0.119141 0.715088 0.130981
0.123596 0.715607 0.131012
0.128082 0.716248 0.131042
0.132446 0.716949 0.131134
0.137024 0.717560 0.131195
0.141571 0.718201 0.131256
0.146088 0.718781 0.131195
0.150513 0.719269 0.131012
0.155029 0.719788 0.130890
0.159393 0.720245 0.130768
0.163788 0.720795 0.130676
0.168579 0.721558 0.130524
0.290771 0.738770 0.127716
0.529816 0.770691 0.099243
0.630585 0.778687 0.094635
0.697021 0.787537 0.102936
0.754211 0.788849 0.107178
0.799316 0.787323 0.111877
0.834076 0.786224 0.114685
0.861572 0.785156 0.115784
0.882385 0.784607 0.116791
0.894653 0.784210 0.117035
0.899048 0.784088 0.117096
0.902710 0.784058 0.117188
0.906342 0.784027 0.117218
0.909821 0.783966 0.117218
0.913452 0.783905 0.117249
0.916962 0.783813 0.117249
0.920410 0.783722 0.117249
0.108887 0.718048 0.131866
0.112885 0.718781 0.131958
0.116821 0.719330 0.131958
0.121246 0.719879 0.132019
0.125519 0.720398 0.132019
0.130096 0.721008 0.132080
0.134552 0.721710 0.132111
0.139008 0.722260 0.132172
0.143555 0.722809 0.132111
0.148041 0.723511 0.132080
0.152496 0.723999 0.131958
0.157043 0.724518 0.131775
0.161469 0.724976 0.131622
0.165985 0.725555 0.131531
0.170593 0.726196 0.131439
0.262390 0.736755 0.133514
0.511902 0.775085 0.102783
0.622253 0.782318 0.095642
0.690765 0.791168 0.102905
0.748444 0.793915 0.108246
0.794617 0.792175 0.112244
0.829742 0.791443 0.114990
0.857788 0.790100 0.116089
0.878845 0.789520 0.117096
0.893616 0.789032 0.117584
0.898712 0.788788 0.117584
0.902435 0.788696 0.117584
0.906067 0.788696 0.117645
0.909607 0.788605 0.117645
0.913116 0.788574 0.117676
0.916718 0.788483 0.117676
0.920197 0.788391 0.117676
0.110809 0.722870 0.132751
0.114929 0.723419 0.132812
0.118927 0.724060 0.132812
0.123199 0.724548 0.132843
0.127625 0.725189 0.132874
0.132050 0.725891 0.132935
0.136597 0.726471 0.133026
0.141022 0.727081 0.133057
0.145416 0.727570 0.132965
0.149963 0.728088 0.132904
0.154449 0.728668 0.132690
0.159058 0.729126 0.132538
0.163574 0.729645 0.132355
0.168060 0.730286 0.132263
0.172729 0.730927 0.132233
0.258087 0.740356 0.134949
0.497589 0.779816 0.106384
0.616425 0.786469 0.097046
0.687073 0.795258 0.103119
0.744324 0.798859 0.109375
0.791199 0.797028 0.112701
0.826599 0.796600 0.115479
0.854919 0.794952 0.116516
0.876099 0.794342 0.117645
0.891998 0.793884 0.118042
0.898499 0.793610 0.118042
0.902222 0.793365 0.118011
0.905823 0.793335 0.118042
0.909393 0.793335 0.118073
0.912933 0.793274 0.118042
0.916504 0.793213 0.118042
0.919983 0.793121 0.118042
0.112946 0.727692 0.133575
0.116852 0.728210 0.133636
0.120941 0.728821 0.133698
0.125214 0.729340 0.133667
0.129578 0.729889 0.133698
0.134186 0.730621 0.133759
0.138702 0.731232 0.133820
0.143280 0.731934 0.133850
0.147675 0.732452 0.133820
0.152100 0.732941 0.133728
0.156708 0.733551 0.133606
0.161133 0.734039 0.133484
0.165710 0.734528 0.133301
0.170197 0.735046 0.133209
0.174744 0.735535 0.133179
0.255585 0.744110 0.136353
0.488861 0.784607 0.109344
0.612793 0.790924 0.098206
0.684875 0.799377 0.103668
0.741913 0.803345 0.110260
0.788849 0.801697 0.113281
0.824432 0.801422 0.115936
0.852997 0.799835 0.116974
0.874268 0.799164 0.118164
0.890289 0.798767 0.118652
0.897980 0.798309 0.118652
0.901794 0.798035 0.118591
0.905548 0.797852 0.118561
0.909119 0.797882 0.118591
0.912659 0.797821 0.118591
0.916199 0.797760 0.118591
0.919769 0.797729 0.118500
0.115021 0.732330 0.134430
0.119019 0.733002 0.134552
0.123047 0.733582 0.134583
0.127411 0.734253 0.134552
0.131836 0.734802 0.134552
0.136353 0.735474 0.134613
0.140869 0.736053 0.134674
0.145325 0.736603 0.134644
0.149841 0.737122 0.134613
0.154175 0.737671 0.134613
0.158691 0.738342 0.134521
0.163330 0.738953 0.134399
0.167694 0.739441 0.134277
0.172302 0.740021 0.134186
0.176788 0.740417 0.134216
0.254639 0.748322 0.137817
0.483887 0.789032 0.111603
