滤镜资源/Professional Luts Collection/Triune-Digital-Cinematic-LUTs/3D LUTs (CUBE)/ALEXA/Game of Thrones - Alexa.cube
#Created by Benjamin (IWLTBAP) : http://luts.iwltbap.com
#Copyright: (C) Copyright 2016 Triune Films and IWLTBAP
TITLE "Blockbuster LUTs Pack (Alexa Log-C)"
#LUT size
LUT_3D_SIZE 5
#LUT data points
DOMAIN_MIN 0.000000 0.000000 0.000000
DOMAIN_MAX 0.903226 0.903226 0.903226
0.000000 0.000000 0.000000
0.113495 0.006287 0.001038
0.422852 0.023895 0.010223
0.691986 0.037720 0.057587
0.731812 0.035950 0.069641
0.015442 0.107361 0.000702
0.113129 0.112793 0.004395
0.451050 0.107574 0.012909
0.700165 0.063049 0.054443
0.736298 0.063568 0.068268
0.068207 0.434448 0.032135
0.090485 0.440155 0.038330
0.503937 0.490143 0.101837
0.853760 0.508179 0.104767
0.888550 0.504608 0.104095
0.119446 0.761688 0.080109
0.152496 0.769135 0.087128
0.253723 0.790192 0.114563
0.868134 0.838989 0.155609
0.943176 0.840057 0.159698
0.123657 0.807404 0.084961
0.157990 0.813904 0.090393
0.194519 0.821350 0.100311
0.847137 0.882019 0.158997
0.942749 0.885986 0.170624
0.002136 0.001770 0.089203
0.126160 0.008850 0.098938
0.446014 0.027344 0.123779
0.719482 0.038422 0.156403
0.753540 0.039856 0.164368
0.018768 0.115387 0.104187
0.122467 0.122223 0.129272
0.481171 0.111511 0.140137
0.733124 0.066895 0.161530
0.765045 0.070129 0.169983
0.070160 0.441284 0.065765
0.093689 0.446899 0.072906
0.510559 0.497742 0.142822
0.861694 0.516846 0.153931
0.899384 0.516357 0.169647
0.122040 0.773163 0.115997
0.159515 0.779694 0.124481
0.259735 0.798798 0.152435
0.871124 0.844574 0.196136
0.946838 0.845306 0.199158
0.129272 0.817413 0.120911
0.164856 0.824341 0.128082
0.202057 0.830933 0.138885
0.849457 0.888702 0.198578
0.945801 0.891876 0.209625
0.013184 0.009735 0.327606
0.082611 0.015320 0.338684
0.497162 0.042358 0.380493
0.786407 0.068634 0.413422
0.818573 0.072876 0.418274
0.020233 0.051025 0.337891
0.056702 0.053772 0.342621
0.504791 0.089111 0.390656
0.802582 0.116150 0.425690
0.836761 0.119812 0.430664
0.109344 0.498260 0.437469
0.147491 0.505859 0.450500
0.555847 0.558777 0.571198
0.917114 0.560822 0.576874
0.953888 0.555298 0.576324
0.165192 0.854736 0.452271
0.203705 0.858368 0.464478
0.278503 0.868225 0.484955
0.883636 0.886047 0.575562
0.966248 0.881866 0.573578
0.166290 0.902039 0.429047
0.203735 0.906219 0.440002
0.240021 0.911438 0.451233
0.861084 0.934479 0.545349
0.960388 0.933136 0.553955
0.035034 0.039703 0.546875
0.074158 0.041962 0.552338
0.510101 0.078186 0.610474
0.842377 0.112427 0.658020
0.878235 0.116089 0.663483
0.043701 0.081635 0.558228
0.085388 0.085052 0.563751
0.522919 0.125000 0.623871
0.861664 0.162262 0.673859
0.898224 0.165771 0.679413
0.124725 0.381287 0.636505
0.167542 0.386963 0.643555
0.543396 0.433899 0.750977
0.929138 0.412872 0.783417
0.962708 0.388489 0.775146
0.187866 0.881073 0.756775
0.223358 0.885132 0.765381
0.259308 0.886597 0.774658
0.874573 0.883423 0.896271
0.966766 0.876190 0.894012
0.177917 0.938965 0.762177
0.214020 0.940643 0.773987
0.250946 0.943634 0.779327
0.845245 0.965698 0.881256
0.952637 0.958557 0.891327
0.042236 0.047119 0.601776
0.079102 0.050537 0.606689
0.504578 0.086853 0.665253
0.853363 0.122528 0.716400
0.888702 0.127319 0.721954
0.051636 0.088715 0.612762
0.089233 0.094391 0.618408
0.521454 0.132019 0.679504
0.875427 0.171417 0.733185
0.912750 0.176025 0.738922
0.096954 0.238251 0.655396
0.139191 0.242889 0.661896
0.498566 0.283569 0.732697
0.912109 0.306580 0.800507
0.953461 0.299622 0.799194
0.191711 0.875732 0.836090
0.228516 0.878082 0.847076
0.268768 0.880219 0.854950
0.876984 0.875366 0.963928
0.972198 0.867035 0.966980
0.177277 0.939941 0.852081
0.213623 0.943054 0.855316
0.250153 0.945435 0.862091
0.841125 0.969025 0.959473
0.949158 0.959198 0.972321
