滤镜资源/Professional Luts Collection/Triune-Digital-Cinematic-LUTs/3D LUTs (CUBE)/ALEXA/Game of Thrones - Alexa.cube
#Created by Benjamin (IWLTBAP) : http://luts.iwltbap.com
#Copyright: (C) Copyright 2016 Triune Films and IWLTBAP
TITLE "Blockbuster LUTs Pack (Alexa Log-C)"
#LUT size
LUT_3D_SIZE 32
#LUT data points
0.000000 0.000000 0.000000
0.012970 0.000153 0.000183
0.025787 0.000916 0.000305
0.042389 0.000397 0.000458
0.057678 0.000427 0.000580
0.073730 0.000549 0.000732
0.089417 0.003387 0.000793
0.113495 0.006287 0.001038
0.145172 0.008148 0.001343
0.184296 0.009521 0.001831
0.231812 0.010406 0.002594
0.277374 0.014465 0.003845
0.326752 0.017365 0.005554
0.376923 0.019714 0.007660
0.422852 0.023895 0.010223
0.470459 0.026855 0.014648
0.520599 0.028198 0.020691
0.566101 0.031097 0.029022
0.611694 0.033264 0.037689
0.656158 0.034668 0.046082
0.682526 0.036896 0.052917
0.691986 0.037720 0.057587
0.697845 0.037476 0.061066
0.703888 0.037109 0.063751
0.709656 0.036804 0.065735
0.715363 0.036560 0.067200
0.720886 0.036255 0.068298
0.726349 0.036072 0.069092
0.731812 0.035950 0.069641
0.735840 0.036438 0.070099
0.739471 0.037201 0.070648
0.743164 0.037842 0.071381
0.001617 0.011200 0.000153
0.011200 0.011536 0.000610
0.024567 0.011841 0.000336
0.039978 0.011688 0.000336
0.052460 0.013123 0.000366
0.067566 0.013550 0.000366
0.086823 0.013977 0.000397
0.115784 0.013489 0.000519
0.145966 0.014801 0.000793
0.184113 0.014832 0.001282
0.231537 0.014465 0.002045
0.277679 0.018219 0.003296
0.327271 0.021057 0.004944
0.377350 0.023499 0.007050
0.423676 0.027557 0.009613
0.471802 0.030334 0.014557
0.521484 0.031830 0.020599
0.567688 0.034363 0.028900
0.612854 0.036865 0.037689
0.657745 0.038025 0.046234
0.683899 0.040466 0.053131
0.693298 0.041260 0.057892
0.698639 0.041382 0.061371
0.704712 0.040924 0.064087
0.710480 0.040649 0.066132
0.716156 0.040436 0.067627
0.721680 0.040253 0.068695
0.727142 0.039978 0.069489
0.732544 0.039856 0.070007
0.737305 0.039978 0.070526
0.740906 0.040710 0.071106
0.744537 0.041412 0.071777
0.002930 0.023468 0.000244
0.010315 0.023499 0.000702
0.022949 0.024048 0.001129
0.037994 0.024200 0.000977
0.051697 0.025360 0.000458
0.067169 0.025787 0.000488
0.086914 0.026215 0.000488
0.114624 0.026520 0.000458
0.148499 0.026184 0.000488
0.185028 0.026794 0.000763
0.231903 0.024506 0.001495
0.278442 0.023926 0.002625
0.328064 0.024597 0.004333
0.377533 0.027405 0.006439
0.424927 0.030975 0.008972
0.473022 0.033813 0.014038
0.522552 0.035461 0.020447
0.569427 0.037720 0.028870
0.614044 0.040466 0.037720
0.659332 0.041473 0.046356
0.685059 0.044128 0.053253
0.694611 0.044952 0.058136
0.699524 0.045258 0.061707
0.705597 0.044800 0.064392
0.711365 0.044525 0.066437
0.717041 0.044281 0.067963
0.722534 0.044098 0.069061
0.727966 0.043945 0.069855
0.733337 0.043793 0.070404
0.738708 0.043640 0.070923
0.742371 0.044312 0.071442
0.745972 0.045013 0.072144
0.005157 0.036377 0.000397
0.009766 0.036255 0.000946
0.022278 0.036804 0.001495
0.036072 0.037537 0.001770
0.050842 0.038574 0.000610
0.066681 0.039124 0.000610
0.086731 0.039612 0.000641
0.114532 0.040100 0.000610
0.151245 0.038666 0.000549
0.188049 0.039398 0.000549
0.233307 0.038177 0.000977
0.280792 0.036224 0.002045
0.330200 0.032532 0.003601
0.377655 0.031372 0.005737
0.426239 0.034363 0.008942
0.473724 0.037537 0.014069
0.523438 0.039093 0.020355
0.571014 0.041077 0.028625
0.615295 0.044006 0.037537
0.660828 0.044830 0.046295
0.686310 0.047729 0.053345
0.695862 0.048553 0.058228
0.700714 0.048950 0.061859
0.706451 0.048676 0.064606
0.712219 0.048401 0.066711
0.717865 0.048187 0.068207
0.723358 0.048035 0.069305
0.728790 0.047852 0.070099
0.734161 0.047668 0.070679
0.739502 0.047516 0.071228
0.743744 0.047882 0.071747
0.747375 0.048584 0.072449
0.004852 0.051331 0.000397
0.008942 0.051178 0.000519
0.020325 0.050812 0.001007
0.034424 0.051361 0.001709
0.050415 0.051727 0.002380
0.067139 0.052521 0.001343
0.087799 0.053223 0.000702
0.115265 0.054382 0.000702
0.151123 0.053864 0.000702
0.190735 0.053711 0.000702
0.235291 0.053314 0.000732
0.283905 0.051147 0.001465
0.334015 0.046844 0.003174
0.379486 0.042603 0.004944
0.427826 0.038391 0.008850
0.474457 0.041168 0.013794
0.524323 0.042725 0.020050
0.572296 0.044464 0.028107
0.616333 0.047577 0.037109
0.662292 0.048218 0.046051
0.687408 0.051361 0.053192
0.697113 0.052185 0.058197
0.701935 0.052521 0.061829
0.707214 0.052582 0.064606
0.712982 0.052277 0.066742
0.718597 0.052063 0.068329
0.724121 0.051880 0.069427
0.729492 0.051788 0.070251
0.734863 0.051636 0.070831
0.740112 0.051514 0.071320
0.745117 0.051483 0.071869
0.748810 0.052155 0.072571
0.006226 0.066315 0.000427
0.009979 0.066254 0.000610
0.016602 0.066101 0.000671
0.031525 0.066040 0.001495
0.047943 0.066376 0.002380
0.066010 0.066895 0.003113
0.087463 0.067444 0.002350
0.117004 0.068756 0.000854
0.151245 0.069763 0.000854
0.192108 0.069946 0.000854
0.237976 0.070038 0.000916
0.286285 0.069305 0.001099
0.337921 0.065521 0.002808
0.384521 0.061432 0.005096
0.434906 0.052612 0.008728
0.476624 0.048523 0.012665
0.524780 0.046295 0.019287
0.573303 0.047882 0.027161
0.617096 0.051178 0.036224
0.663605 0.051544 0.045258
0.688477 0.054932 0.052673
0.698273 0.055817 0.057770
0.703094 0.056091 0.061493
0.707886 0.056488 0.064301
0.713654 0.056183 0.066528
0.719238 0.055969 0.068054
0.724701 0.055786 0.069183
0.730103 0.055634 0.070038
0.735504 0.055542 0.070618
0.740692 0.055389 0.071106
0.746002 0.055267 0.071686
0.750153 0.055695 0.072418
0.008972 0.083710 0.000549
0.012390 0.083954 0.000702
0.015900 0.084137 0.000824
0.026428 0.084045 0.000854
0.043549 0.083954 0.002197
0.062988 0.084686 0.002808
0.083832 0.085297 0.003693
0.117035 0.086182 0.002808
0.151855 0.088165 0.001007
0.192200 0.089630 0.001343
0.241028 0.089264 0.001648
0.289886 0.088989 0.001770
0.340790 0.086914 0.002441
0.389618 0.084473 0.005768
0.441498 0.077545 0.010132
0.485474 0.070679 0.014435
0.529327 0.061005 0.019379
0.575378 0.053467 0.025848
0.617523 0.054657 0.034424
0.664673 0.054901 0.043732
0.689362 0.058563 0.051392
0.699341 0.059418 0.056671
0.704285 0.059784 0.060547
0.709015 0.060181 0.063538
0.714325 0.060089 0.065704
0.719818 0.059875 0.067291
0.725311 0.059784 0.068451
0.730682 0.059631 0.069305
0.735992 0.059509 0.069885
0.741180 0.059387 0.070374
0.746490 0.059204 0.070984
0.751343 0.059296 0.071686
0.015442 0.107361 0.000702
0.018768 0.107697 0.000977
0.022156 0.108002 0.001251
0.025604 0.108307 0.001495
0.037598 0.108795 0.002106
0.057892 0.109680 0.002716
0.081116 0.111267 0.002716
0.113129 0.112793 0.004395
0.152069 0.114197 0.002502
0.196472 0.115112 0.002045
0.246216 0.115479 0.003052
0.296417 0.116302 0.004486
0.348511 0.114990 0.006744
0.397583 0.112946 0.009094
0.451050 0.107574 0.012909
0.497772 0.102325 0.018524
0.542877 0.093048 0.023895
0.588928 0.080139 0.028687
0.622925 0.071747 0.034576
0.667389 0.062897 0.041962
0.690674 0.063507 0.049286
0.700165 0.063049 0.054443
0.705170 0.063446 0.058502
0.709900 0.063812 0.061646
0.714661 0.064117 0.063965
0.720154 0.063904 0.065613
0.725616 0.063812 0.066833
0.730957 0.063660 0.067688
0.736298 0.063568 0.068268
0.741486 0.063416 0.068787
0.746735 0.063263 0.069366
0.752075 0.063080 0.070068
0.017853 0.141113 0.000732
0.021179 0.141541 0.000885
0.024323 0.142120 0.001007
0.027557 0.142609 0.001190
0.030762 0.143036 0.001282
0.043701 0.144592 0.001495
0.072479 0.145081 0.001648
0.108765 0.146027 0.004333
0.150391 0.147827 0.007446
0.195984 0.150574 0.005524
0.249664 0.151398 0.007111
0.302551 0.153076 0.009674
0.359161 0.151794 0.012451
0.411774 0.150574 0.014893
0.465912 0.146362 0.017273
0.508759 0.145660 0.020599
0.557892 0.139862 0.026672
0.600983 0.133698 0.033447
0.645447 0.121979 0.040039
0.679962 0.107635 0.045868
0.704376 0.091522 0.050476
0.709045 0.080536 0.054108
0.712006 0.077393 0.057587
0.716003 0.076355 0.060516
0.719940 0.075684 0.062683
0.724091 0.075409 0.064240
0.729034 0.074860 0.065338
0.734253 0.074280 0.066040
0.739380 0.073883 0.066620
0.744568 0.073547 0.067139
0.749725 0.073120 0.067627
0.754333 0.072784 0.068329
0.024628 0.179657 0.001190
0.027771 0.180267 0.001404
0.030823 0.180939 0.001617
0.033875 0.181580 0.001831
0.036957 0.182190 0.002014
0.040497 0.182495 0.002472
0.056976 0.183563 0.002960
0.096741 0.184814 0.005981
0.144226 0.188416 0.010254
0.195038 0.190796 0.017365
0.250916 0.193512 0.018646
0.308502 0.195709 0.019348
0.368622 0.194855 0.023315
0.422913 0.195923 0.023163
0.474579 0.195923 0.024719
0.523193 0.195068 0.027069
0.572174 0.191986 0.029816
0.615021 0.190399 0.034698
0.658142 0.186554 0.041626
0.701843 0.179565 0.049683
0.729004 0.172241 0.056396
0.736389 0.163696 0.061066
0.738983 0.154663 0.064362
0.741638 0.146362 0.066528
0.743378 0.139862 0.067871
0.745728 0.134918 0.068787
0.748352 0.131622 0.069336
0.751923 0.129517 0.069763
0.756104 0.128265 0.070068
0.760315 0.127472 0.070404
0.764465 0.126343 0.070648
0.768250 0.124329 0.071014
0.028870 0.227417 0.002899
0.032135 0.228058 0.003448
0.035553 0.228577 0.004028
0.039185 0.229004 0.004333
0.042877 0.229340 0.004639
0.046417 0.229797 0.005219
0.049927 0.230194 0.005829
0.067383 0.231354 0.007690
0.125183 0.235107 0.014130
0.188904 0.238586 0.023499
0.249329 0.242279 0.032013
0.311401 0.245514 0.034149
0.371216 0.248413 0.035156
0.429718 0.249542 0.037476
0.484009 0.251312 0.037720
0.536163 0.252106 0.037964
0.588745 0.250183 0.040466
0.637207 0.248413 0.041351
0.679291 0.247589 0.044128
0.719696 0.246155 0.049225
0.750885 0.242462 0.054993
0.759552 0.239166 0.059814
0.764191 0.235046 0.064301
0.768768 0.231720 0.067902
0.773102 0.229279 0.070587
0.777618 0.227600 0.072601
0.782043 0.226654 0.073944
0.786469 0.226166 0.074890
0.791016 0.226074 0.075562
0.795807 0.225922 0.076111
0.800293 0.225830 0.076660
0.804626 0.225403 0.077515
0.037201 0.278290 0.009033
0.040344 0.278992 0.009644
0.043640 0.279785 0.010284
0.046753 0.280457 0.010895
0.049988 0.281097 0.011505
0.053345 0.281738 0.012207
0.056580 0.282318 0.012787
0.059906 0.282867 0.013397
0.080872 0.284058 0.016754
0.171387 0.287262 0.031738
0.243774 0.294800 0.039734
0.310394 0.299591 0.049347
0.373016 0.304932 0.049957
0.434814 0.307587 0.052887
0.492950 0.309906 0.054810
0.548523 0.311462 0.056732
0.599274 0.313904 0.056061
0.648651 0.314545 0.056671
0.697144 0.314423 0.057556
0.741241 0.314392 0.057251
0.773621 0.313049 0.058624
0.783203 0.310608 0.059540
0.786804 0.308197 0.061798
0.791229 0.306366 0.064423
0.796387 0.304840 0.066498
0.801666 0.303772 0.068024
0.806580 0.303284 0.069153
0.811493 0.303162 0.069916
0.816559 0.303131 0.070496
0.821899 0.303192 0.071014
0.827087 0.303162 0.071564
0.831879 0.303101 0.072266
0.051666 0.328339 0.016510
0.055298 0.328674 0.017914
0.058960 0.329102 0.019318
0.062378 0.329590 0.020508
0.065674 0.330231 0.021545
0.068878 0.330902 0.022583
0.071960 0.331665 0.023438
0.075073 0.332336 0.024323
0.078094 0.332977 0.025116
0.117004 0.338806 0.031982
0.225372 0.348114 0.045654
0.303864 0.356049 0.055878
0.373718 0.361053 0.067047
0.437042 0.366852 0.068268
0.498383 0.370605 0.070709
0.556580 0.374237 0.072632
0.612274 0.377014 0.074524
0.663818 0.381134 0.073395
0.715424 0.382263 0.074921
0.762512 0.382721 0.075531
0.801453 0.381592 0.076508
0.813446 0.380005 0.075165
0.817261 0.377777 0.074432
0.821320 0.376129 0.073792
0.825531 0.374969 0.073334
0.830078 0.374176 0.073120
0.834930 0.373657 0.073151
0.839905 0.373474 0.073273
0.845062 0.373505 0.073486
0.850006 0.373688 0.073547
0.854950 0.373749 0.073608
0.859772 0.373749 0.073608
0.058655 0.382202 0.024261
0.062469 0.382690 0.024902
0.066284 0.383179 0.025696
0.069702 0.383728 0.026947
0.072937 0.384430 0.027954
0.076233 0.385132 0.029114
0.079529 0.385803 0.030182
0.082794 0.386414 0.031219
0.085999 0.386993 0.032288
0.089752 0.387451 0.033417
0.181244 0.398315 0.048706
0.291229 0.408447 0.064819
0.369415 0.417603 0.074890
0.437317 0.424866 0.084320
0.502777 0.430634 0.087280
0.564117 0.436615 0.088379
0.623291 0.440491 0.090240
0.679413 0.443268 0.091553
0.730927 0.445679 0.091705
0.779419 0.446899 0.091797
0.819153 0.448059 0.090820
0.834839 0.446747 0.090302
0.839325 0.444977 0.089966
0.844116 0.443451 0.089966
0.848877 0.442444 0.089966
0.853882 0.441711 0.090088
0.858948 0.441345 0.090240
0.863770 0.441406 0.090118
0.868622 0.441681 0.089844
0.873352 0.442017 0.089600
0.878082 0.442322 0.089355
0.882690 0.442596 0.089050
0.068207 0.434448 0.032135
0.071442 0.435272 0.032867
0.074738 0.436066 0.033539
0.077881 0.436890 0.034454
0.081024 0.437714 0.035461
0.084137 0.438599 0.036377
0.087311 0.439423 0.037354
0.090485 0.440155 0.038330
0.093567 0.440887 0.039215
0.097870 0.441681 0.040466
0.110931 0.444031 0.044495
0.255554 0.459076 0.068909
0.358704 0.471405 0.083008
0.435394 0.482056 0.092651
0.503937 0.490143 0.101837
0.570007 0.495605 0.104492
0.631226 0.500214 0.105408
0.688049 0.503693 0.105835
0.741608 0.506317 0.105682
0.790955 0.508179 0.105011
0.833008 0.509125 0.104858
0.853760 0.508179 0.104767
0.859070 0.506805 0.104431
0.863556 0.506073 0.103882
0.867981 0.505646 0.103485
0.872986 0.505188 0.103485
0.878082 0.504822 0.103668
0.883301 0.504639 0.103851
0.888550 0.504608 0.104095
0.893555 0.504730 0.104126
0.898315 0.504974 0.103943
0.903076 0.505219 0.103790
0.074982 0.487518 0.040100
0.078857 0.488068 0.040833
0.082825 0.488647 0.041565
0.086548 0.489227 0.042603
0.090485 0.489868 0.044098
0.094299 0.490570 0.045502
0.097748 0.491241 0.046722
0.101166 0.491852 0.047974
0.104584 0.492493 0.049164
0.109406 0.493256 0.050720
0.114594 0.493896 0.052368
0.177429 0.506287 0.067902
0.332886 0.524048 0.087524
0.427246 0.536743 0.100372
0.502411 0.546082 0.109344
0.570557 0.552002 0.118408
0.632721 0.557983 0.118042
0.692596 0.561432 0.118011
0.749084 0.563293 0.118744
0.798584 0.566040 0.117096
0.842102 0.566925 0.116730
0.866852 0.566986 0.116119
0.873993 0.566223 0.115540
0.878845 0.565399 0.115295
0.883698 0.564972 0.115112
0.888580 0.564728 0.114899
0.893433 0.564636 0.114746
0.898285 0.564728 0.114624
0.903503 0.564667 0.114868
0.908691 0.564697 0.115143
0.913849 0.564606 0.115448
0.918732 0.564758 0.115417
0.086853 0.537109 0.049011
0.089783 0.538239 0.049835
0.092773 0.539337 0.050659
0.095673 0.540405 0.051422
0.099091 0.541595 0.052185
0.103058 0.543030 0.053070
0.106567 0.544098 0.053986
0.110138 0.545197 0.054932
0.113403 0.546112 0.055786
0.118317 0.547058 0.057281
0.123566 0.547791 0.058899
0.128967 0.548218 0.060760
0.276123 0.571014 0.087860
0.406952 0.588654 0.104828
0.493500 0.599182 0.114624
0.565948 0.606842 0.122559
0.631531 0.611908 0.129852
0.692139 0.616516 0.128998
0.751434 0.618073 0.129761
0.803101 0.620331 0.128418
0.846893 0.622040 0.126404
0.877197 0.622650 0.125671
0.886963 0.621826 0.125671
0.891937 0.621185 0.125519
0.896912 0.620697 0.125427
0.901947 0.620514 0.125214
0.906860 0.620422 0.125031
0.911774 0.620422 0.124817
0.916779 0.620605 0.124725
0.921661 0.620819 0.124603
0.926514 0.621033 0.124420
0.930939 0.621399 0.123901
0.091461 0.589569 0.056152
0.095154 0.590424 0.056946
0.098724 0.591309 0.057709
0.102325 0.592072 0.058533
0.107208 0.593079 0.059479
0.112488 0.594177 0.061218
0.117035 0.595062 0.062683
0.121399 0.595917 0.064148
0.125580 0.596893 0.065399
0.131165 0.597717 0.067261
0.136719 0.598511 0.069153
0.142151 0.599030 0.070953
0.186462 0.609619 0.083618
0.367737 0.636017 0.106476
0.476044 0.648651 0.118835
0.558105 0.656342 0.127960
0.627533 0.662781 0.134186
0.689270 0.667664 0.139099
0.748566 0.670502 0.138519
0.802643 0.672699 0.136658
0.848297 0.673950 0.135193
0.883820 0.674866 0.133789
0.896149 0.675171 0.132538
0.901062 0.674652 0.132355
0.905914 0.674316 0.132141
0.910919 0.674133 0.132019
0.915833 0.674042 0.131866
0.921173 0.673889 0.132111
0.926514 0.673737 0.132324
0.931183 0.674042 0.131866
0.935883 0.674438 0.131439
0.940552 0.674652 0.131012
0.101105 0.638062 0.063934
0.104523 0.639069 0.064697
0.107727 0.640228 0.065552
0.110992 0.641327 0.066345
0.115509 0.642731 0.067139
0.120422 0.644287 0.068237
0.125244 0.645813 0.069397
0.130310 0.647125 0.070831
0.135345 0.648346 0.072296
0.140564 0.649445 0.073883
0.145844 0.650421 0.075439
0.151093 0.651398 0.077057
0.156311 0.652130 0.078644
0.294098 0.676208 0.105896
0.446838 0.694275 0.121307
0.541229 0.704498 0.129761
0.619019 0.710144 0.137787
0.683411 0.716217 0.141235
0.743744 0.719147 0.146667
0.800201 0.721008 0.145172
0.845795 0.723083 0.142548
0.882355 0.724426 0.140289
0.903137 0.724792 0.138824
0.908966 0.724274 0.138733
0.914093 0.723907 0.138672
0.919098 0.723602 0.138550
0.924164 0.723450 0.138458
0.929169 0.723419 0.138397
0.934082 0.723511 0.138184
0.938904 0.723724 0.137848
0.943604 0.724030 0.137482
0.948303 0.724274 0.137115
0.105072 0.688385 0.070892
0.109009 0.689453 0.071625
0.112915 0.690552 0.072388
0.116760 0.691711 0.073120
0.122528 0.692596 0.073853
0.128784 0.693420 0.074554
0.134521 0.694305 0.076477
0.140015 0.695374 0.078278
0.145660 0.696228 0.080170
0.151276 0.697052 0.082062
0.156860 0.697784 0.083893
0.162384 0.698547 0.085754
0.167450 0.699463 0.087158
0.209686 0.709320 0.098633
0.395355 0.734894 0.120758
0.516510 0.748138 0.130676
0.603333 0.755188 0.138397
0.675018 0.760040 0.144135
0.737518 0.764099 0.147766
0.792511 0.766876 0.151123
0.840485 0.768768 0.148071
0.879608 0.769043 0.147095
0.907654 0.769867 0.144745
0.915405 0.770020 0.143860
0.920013 0.769989 0.143402
0.925110 0.769745 0.143280
0.930237 0.769562 0.143188
0.935120 0.769592 0.142914
0.940063 0.769653 0.142670
0.944977 0.769714 0.142456
0.949921 0.769806 0.142242
0.954742 0.769867 0.141968
0.115479 0.729065 0.076324
0.119141 0.730194 0.076996
0.122833 0.731323 0.077728
0.126495 0.732513 0.078461
0.131561 0.733765 0.079132
0.136658 0.735046 0.080200
0.141632 0.736389 0.081512
0.146912 0.737518 0.083069
0.152130 0.738647 0.084595
0.157379 0.739685 0.086060
0.162628 0.740601 0.087555
0.167908 0.741486 0.089081
0.173584 0.741974 0.091064
0.179199 0.742401 0.092926
0.314301 0.766418 0.118958
0.485321 0.784271 0.131531
0.584412 0.793091 0.138855
0.662201 0.798523 0.144012
0.728302 0.802795 0.147797
0.786224 0.805542 0.150879
0.834412 0.807037 0.153778
0.872528 0.808655 0.150665
0.904053 0.808716 0.149017
0.920471 0.808350 0.148682
0.925201 0.808075 0.149353
0.929657 0.808044 0.149933
0.934082 0.808197 0.149872
0.938477 0.808319 0.150513
0.942902 0.808411 0.151123
0.947296 0.808624 0.151733
0.951660 0.808807 0.152435
0.956024 0.808899 0.152985
0.119446 0.761688 0.080109
0.123932 0.762360 0.080811
0.127869 0.763306 0.081512
0.131805 0.764282 0.082184
0.137238 0.765381 0.082947
0.142365 0.766571 0.084351
0.147430 0.767853 0.085724
0.152496 0.769135 0.087128
0.157379 0.770477 0.088348
0.162292 0.771759 0.089508
0.167603 0.772797 0.091095
0.173065 0.773712 0.092712
0.178162 0.774872 0.093994
0.183289 0.775970 0.095276
0.253723 0.790192 0.114563
0.448975 0.811188 0.132263
0.565613 0.822662 0.139526
0.648865 0.829742 0.143677
0.718964 0.833893 0.147400
0.780609 0.835815 0.151672
0.828217 0.838745 0.152832
0.868134 0.838989 0.155609
0.898895 0.839447 0.154114
0.919128 0.839874 0.156677
0.925354 0.839783 0.157471
0.929901 0.839722 0.158325
0.934357 0.839691 0.159088
0.938751 0.839874 0.159424
0.943176 0.840057 0.159698
0.947601 0.840271 0.160095
0.951996 0.840454 0.160370
0.956329 0.840607 0.160706
0.120544 0.774750 0.081543
0.124969 0.775360 0.082214
0.129425 0.776001 0.082916
0.133942 0.776703 0.083557
0.139984 0.777344 0.085114
0.145569 0.778198 0.086884
0.150604 0.779480 0.088287
0.155640 0.780731 0.089630
0.160614 0.782043 0.090942
0.165436 0.783417 0.092041
0.170197 0.784821 0.093109
0.174988 0.786255 0.094055
0.180023 0.787506 0.095245
0.185059 0.788788 0.096436
0.224060 0.796082 0.107666
0.397949 0.819550 0.128357
0.542542 0.834747 0.136841
0.636078 0.840973 0.144226
0.709595 0.846313 0.147827
0.772034 0.849762 0.150879
0.822083 0.852478 0.152618
0.862518 0.853516 0.154999
0.892670 0.854523 0.157227
0.914978 0.855133 0.160156
0.925171 0.855469 0.161591
0.929657 0.855530 0.162231
0.934174 0.855652 0.162842
0.938629 0.855804 0.163422
0.943085 0.855957 0.163849
0.947510 0.856171 0.164154
0.951874 0.856384 0.164581
0.956238 0.856628 0.164825
0.121033 0.780304 0.082123
0.125458 0.780945 0.082825
0.129852 0.781586 0.083496
0.134338 0.782257 0.084167
0.140564 0.782898 0.085419
0.146423 0.783569 0.087463
0.151794 0.784576 0.089172
0.156586 0.785980 0.090302
0.161499 0.787354 0.091522
0.166138 0.788818 0.092438
0.170807 0.790283 0.093353
0.175568 0.791718 0.094360
0.180664 0.792969 0.095581
0.185730 0.794128 0.096832
0.190765 0.795380 0.098022
0.336121 0.818878 0.125641
0.524658 0.836853 0.137604
0.623535 0.845093 0.143555
0.700592 0.850708 0.147614
0.764496 0.854950 0.150269
0.816650 0.857544 0.152618
0.857422 0.858978 0.154572
0.887604 0.860291 0.157776
0.910400 0.861084 0.160950
0.924500 0.861603 0.162842
0.929688 0.861816 0.163513
0.934204 0.862000 0.164124
0.938660 0.862152 0.164734
0.943146 0.862335 0.165436
0.947571 0.862457 0.165924
0.951996 0.862701 0.166260
0.956299 0.862946 0.166534
0.121460 0.785889 0.082764
0.125824 0.786560 0.083435
0.130127 0.787262 0.084106
0.134491 0.787933 0.084778
0.140961 0.788544 0.085480
0.146667 0.789246 0.087463
0.152100 0.790222 0.089203
0.157135 0.791504 0.090546
0.162018 0.792816 0.091766
0.166718 0.794281 0.092773
0.171326 0.795776 0.093628
0.176117 0.797211 0.094574
0.181183 0.798370 0.095825
0.186310 0.799561 0.097107
0.191467 0.800781 0.098389
0.301544 0.819977 0.124817
0.509033 0.840027 0.137146
0.613373 0.849670 0.142609
0.693604 0.855164 0.147308
0.759003 0.859650 0.149841
0.812653 0.861877 0.152679
0.853943 0.863464 0.154572
0.883820 0.864899 0.158844
0.906860 0.865845 0.161469
0.923553 0.866455 0.163666
0.929718 0.866699 0.164490
0.934204 0.866852 0.165161
0.938660 0.866974 0.165802
0.943176 0.867126 0.166351
0.947571 0.867310 0.167023
0.951996 0.867462 0.167511
0.956360 0.867676 0.167786
0.121277 0.791656 0.083313
0.125580 0.792358 0.083984
0.129913 0.793030 0.084625
0.134216 0.793701 0.085297
0.140869 0.794281 0.085938
0.146912 0.794952 0.087433
0.152313 0.795898 0.089203
0.157349 0.797119 0.090546
0.162384 0.798340 0.091888
0.167236 0.799713 0.092987
0.171844 0.801147 0.093872
0.176636 0.802551 0.094818
0.181671 0.803833 0.096008
0.186768 0.804993 0.097260
0.191956 0.806122 0.098602
0.295135 0.824066 0.124023
0.496155 0.844116 0.136230
0.605530 0.854614 0.141418
0.688599 0.859741 0.146942
0.755157 0.864410 0.149414
0.810150 0.866180 0.152863
0.851105 0.868011 0.155365
0.881012 0.869507 0.159821
0.904205 0.870544 0.162048
0.921875 0.871185 0.164368
0.929626 0.871460 0.165405
0.934113 0.871613 0.166046
0.938599 0.871796 0.166595
0.943024 0.871948 0.167267
0.947479 0.872101 0.167969
0.951874 0.872253 0.168549
0.956299 0.872437 0.169006
0.121979 0.796936 0.083862
0.125793 0.797821 0.084534
0.129791 0.798706 0.085205
0.133972 0.799438 0.085846
0.140686 0.799957 0.086487
0.147095 0.800537 0.087402
0.152527 0.801483 0.089142
0.157562 0.802704 0.090515
0.162628 0.803925 0.091888
0.167755 0.804993 0.093201
0.172546 0.806396 0.094299
0.177307 0.807800 0.095245
0.182343 0.809052 0.096436
0.187500 0.810181 0.097717
0.192657 0.811310 0.098969
0.291901 0.828918 0.124908
0.487183 0.848450 0.135712
0.601135 0.859039 0.141449
0.685516 0.864380 0.146729
0.752686 0.869202 0.149017
0.808319 0.870880 0.152679
0.849152 0.872559 0.156830
0.879181 0.874115 0.160919
0.902435 0.875244 0.162811
0.920258 0.875854 0.165039
0.929291 0.876221 0.166321
0.934021 0.876373 0.166901
0.938477 0.876526 0.167450
0.942932 0.876678 0.168121
0.947388 0.876831 0.168823
0.951813 0.876984 0.169403
0.956207 0.877136 0.169983
0.122772 0.802155 0.084412
0.126434 0.803070 0.085052
0.130402 0.803955 0.085754
0.134308 0.804840 0.086365
0.140442 0.805634 0.087006
0.147095 0.806183 0.087646
0.152740 0.807037 0.089081
0.157776 0.808289 0.090454
0.162811 0.809479 0.091766
0.167969 0.810608 0.093170
0.173035 0.811676 0.094513
0.178070 0.812958 0.095673
0.183105 0.814209 0.096863
0.188171 0.815369 0.098145
0.193359 0.816498 0.099426
0.291077 0.833923 0.126831
0.481750 0.852905 0.135498
