滤镜资源/Professional Luts Collection/Triune-Digital-Cinematic-LUTs/3D LUTs (CUBE)/ALEXA/Game of Thrones - Alexa.cube
#Created by Benjamin (IWLTBAP) : http://luts.iwltbap.com
#Copyright: (C) Copyright 2016 Triune Films and IWLTBAP
TITLE "Blockbuster LUTs Pack (Alexa Log-C)"
#LUT size
LUT_3D_SIZE 8
#LUT data points
DOMAIN_MIN 0.000000 0.000000 0.000000
DOMAIN_MAX 0.903226 0.903226 0.903226
0.000000 0.000000 0.000000
0.057678 0.000427 0.000580
0.145172 0.008148 0.001343
0.326752 0.017365 0.005554
0.520599 0.028198 0.020691
0.682526 0.036896 0.052917
0.709656 0.036804 0.065735
0.731812 0.035950 0.069641
0.004852 0.051331 0.000397
0.050415 0.051727 0.002380
0.151123 0.053864 0.000702
0.334015 0.046844 0.003174
0.524323 0.042725 0.020050
0.687408 0.051361 0.053192
0.712982 0.052277 0.066742
0.734863 0.051636 0.070831
0.017853 0.141113 0.000732
0.030762 0.143036 0.001282
0.150391 0.147827 0.007446
0.359161 0.151794 0.012451
0.557892 0.139862 0.026672
0.704376 0.091522 0.050476
0.719940 0.075684 0.062683
0.739380 0.073883 0.066620
0.051666 0.328339 0.016510
0.065674 0.330231 0.021545
0.078094 0.332977 0.025116
0.373718 0.361053 0.067047
0.612274 0.377014 0.074524
0.801453 0.381592 0.076508
0.825531 0.374969 0.073334
0.845062 0.373505 0.073486
0.086853 0.537109 0.049011
0.099091 0.541595 0.052185
0.113403 0.546112 0.055786
0.276123 0.571014 0.087860
0.631531 0.611908 0.129852
0.846893 0.622040 0.126404
0.896912 0.620697 0.125427
0.916779 0.620605 0.124725
0.115479 0.729065 0.076324
0.131561 0.733765 0.079132
0.152130 0.738647 0.084595
0.173584 0.741974 0.091064
0.584412 0.793091 0.138855
0.834412 0.807037 0.153778
0.925201 0.808075 0.149353
0.942902 0.808411 0.151123
0.121460 0.785889 0.082764
0.140961 0.788544 0.085480
0.162018 0.792816 0.091766
0.181183 0.798370 0.095825
0.509033 0.840027 0.137146
0.812653 0.861877 0.152679
0.923553 0.866455 0.163666
0.943176 0.867126 0.166351
0.123657 0.807404 0.084961
0.140961 0.811005 0.087555
0.162994 0.815063 0.091736
0.184052 0.819214 0.097565
0.478729 0.857635 0.135437
0.807007 0.880310 0.152557
0.918579 0.885162 0.167603
0.942749 0.885986 0.170624
0.002533 0.000092 0.042175
0.052307 0.003571 0.042664
0.157684 0.006836 0.043884
0.340607 0.017273 0.054138
0.534546 0.028503 0.075897
0.699097 0.034668 0.100342
0.721222 0.037750 0.111359
0.738495 0.039398 0.114655
0.005768 0.045654 0.039642
0.046295 0.046600 0.045776
0.155518 0.049591 0.044250
0.341431 0.042511 0.056122
0.540527 0.042633 0.077332
0.704620 0.049652 0.103027
0.728699 0.052002 0.114563
0.746429 0.053345 0.117920
0.019653 0.145508 0.031586
0.033569 0.146973 0.034180
0.153656 0.154541 0.054260
0.369171 0.159668 0.068024
0.575958 0.148407 0.089966
0.718353 0.089813 0.105713
0.737152 0.074493 0.113983
0.754028 0.072113 0.116791
0.053802 0.330994 0.036469
0.065918 0.334229 0.039703
0.078339 0.336914 0.043274
0.376709 0.365509 0.089233
0.616394 0.382019 0.097198
0.806580 0.387024 0.103027
0.835114 0.383392 0.115753
0.854492 0.383636 0.119354
0.087982 0.542542 0.068878
0.101501 0.546570 0.072876
0.117432 0.551483 0.076782
0.278687 0.576843 0.110901
0.635742 0.616333 0.153992
0.849854 0.626465 0.150146
0.899780 0.625305 0.148163
0.919678 0.624939 0.147858
0.117340 0.735382 0.096771
0.135162 0.740234 0.099792
0.155640 0.744995 0.105499
0.177582 0.747955 0.112457
0.587463 0.797150 0.162750
0.835419 0.811432 0.176025
0.927338 0.811584 0.172150
0.945251 0.811676 0.174683
0.123138 0.792358 0.103333
0.144226 0.795227 0.106445
0.165436 0.799316 0.112610
0.185394 0.804199 0.117706
0.510254 0.845490 0.159973
0.814667 0.865662 0.176025
0.925385 0.869965 0.186462
0.945068 0.870514 0.188721
0.128021 0.812500 0.105560
0.145508 0.816986 0.108093
0.167023 0.821075 0.113281
0.188324 0.824890 0.119568
0.480103 0.862885 0.158173
0.808533 0.884094 0.176331
0.920135 0.888550 0.190826
0.944397 0.889191 0.193634
0.002930 0.002258 0.114594
0.049011 0.004578 0.119232
0.165710 0.009460 0.127258
0.350586 0.022064 0.141388
0.552368 0.031067 0.159485
0.715454 0.038757 0.178314
0.742462 0.038879 0.185364
0.760040 0.040375 0.187988
0.007233 0.023102 0.117859
0.043121 0.023376 0.121429
0.162384 0.028351 0.129852
0.354462 0.036743 0.144196
0.560211 0.044769 0.163269
0.723663 0.053009 0.182800
0.749054 0.054901 0.190033
0.766022 0.057343 0.192719
0.025085 0.151978 0.135132
0.037811 0.153778 0.138214
0.162506 0.162720 0.169983
0.383606 0.167816 0.178772
0.592407 0.149902 0.182434
0.732513 0.089844 0.187225
0.754974 0.077728 0.191467
0.772186 0.080292 0.194275
0.058136 0.349792 0.130646
0.071411 0.352814 0.135162
0.087036 0.355438 0.141266
0.392792 0.390808 0.208344
0.642029 0.410645 0.232910
0.835205 0.415863 0.250702
0.863434 0.409790 0.258453
0.883209 0.408691 0.260498
0.088837 0.546417 0.088379
0.103271 0.550018 0.093201
0.122192 0.554718 0.098389
0.279510 0.580017 0.134338
0.637970 0.619598 0.176880
0.852203 0.629303 0.172821
0.902710 0.627930 0.170959
0.922668 0.627472 0.170837
0.119202 0.740601 0.117157
0.138306 0.745789 0.120514
0.159515 0.750000 0.126587
0.180359 0.753571 0.132629
0.588654 0.800873 0.185699
0.837067 0.814362 0.199310
0.928986 0.814270 0.194946
0.946991 0.814270 0.197418
0.125610 0.798462 0.123840
0.146790 0.802063 0.126709
0.168304 0.806061 0.132812
0.188477 0.810608 0.138275
0.510132 0.850952 0.182007
0.815704 0.869568 0.199219
0.927277 0.873383 0.209137
0.946991 0.874390 0.208649
0.129272 0.819183 0.126038
0.149292 0.823212 0.128540
0.171234 0.826691 0.135040
0.192139 0.830688 0.140869
0.481537 0.867035 0.182434
0.809357 0.887787 0.200806
0.921875 0.891632 0.213989
0.946167 0.892639 0.215302
0.008728 0.004639 0.253693
0.024139 0.004822 0.256989
0.163147 0.013733 0.270844
0.371216 0.027588 0.289917
0.584076 0.040283 0.310211
0.751160 0.054260 0.328400
0.776978 0.056427 0.332825
0.796967 0.057648 0.335114
0.010712 0.023560 0.259369
0.024902 0.024750 0.261414
0.163177 0.032501 0.274658
0.381897 0.046661 0.294739
0.591339 0.064606 0.316010
0.761902 0.079529 0.334839
0.789673 0.080994 0.339294
0.809998 0.082214 0.341614
0.018402 0.061829 0.264954
0.032745 0.062286 0.266968
0.143372 0.066498 0.277557
0.381744 0.071716 0.298218
0.600189 0.088257 0.320404
0.773285 0.104187 0.339905
0.798706 0.107422 0.344635
0.817871 0.109283 0.347046
0.069733 0.369629 0.323730
0.090515 0.373596 0.330353
0.112854 0.376343 0.337555
0.413910 0.415375 0.426331
0.671906 0.431732 0.445312
0.867859 0.428467 0.449097
0.896942 0.418121 0.448822
0.916260 0.416046 0.448273
0.123657 0.609131 0.349274
0.146729 0.613007 0.358032
0.168335 0.617798 0.365173
0.306305 0.640228 0.406006
0.668030 0.671906 0.478210
0.884247 0.674316 0.479645
0.935181 0.672546 0.480225
0.954803 0.671722 0.480225
0.145935 0.790375 0.306122
0.167145 0.794159 0.312500
0.188293 0.797668 0.319214
0.209930 0.800781 0.327454
0.599762 0.838593 0.404694
0.850342 0.844513 0.427856
0.943420 0.842529 0.429047
0.963104 0.841888 0.429138
0.137970 0.821106 0.200592
0.160156 0.824402 0.206665
0.181732 0.827911 0.213257
0.203247 0.831482 0.220398
0.510254 0.869507 0.275604
0.821228 0.887054 0.311798
0.933868 0.891144 0.340729
0.954681 0.891418 0.349152
0.138733 0.840576 0.197266
0.162292 0.843079 0.203430
0.183960 0.846375 0.210114
0.204559 0.850555 0.216370
0.478210 0.884918 0.266937
0.812744 0.902130 0.288300
0.926270 0.904968 0.308319
0.952301 0.905853 0.313324
0.018677 0.019226 0.398865
0.037384 0.020447 0.402435
0.099060 0.024475 0.411102
0.384979 0.046509 0.443115
0.611755 0.065399 0.469482
0.790283 0.083252 0.491669
0.818756 0.085602 0.495880
0.838165 0.087616 0.498383
0.023956 0.041962 0.406555
0.041931 0.044586 0.409180
0.091858 0.049622 0.415222
0.392914 0.071442 0.449310
0.619141 0.092560 0.476593
0.801544 0.109894 0.499420
0.829498 0.112701 0.503693
0.849426 0.114655 0.506348
0.024109 0.068878 0.411224
0.046783 0.069580 0.413971
0.070343 0.071899 0.416901
0.392334 0.097534 0.454498
0.628662 0.117432 0.483032
0.811066 0.137329 0.506653
0.840179 0.139923 0.511047
0.860748 0.141693 0.513763
0.086731 0.315491 0.466675
0.110138 0.318817 0.470123
0.133667 0.320984 0.474182
0.411102 0.354950 0.553864
0.678314 0.369232 0.592743
0.875000 0.350403 0.591125
0.902191 0.323181 0.581757
0.920013 0.317719 0.579926
0.147339 0.630676 0.550079
0.171478 0.634094 0.559723
0.193329 0.638519 0.567383
0.263031 0.647858 0.588501
0.675110 0.680450 0.692871
0.894196 0.677582 0.691925
0.952087 0.673187 0.690033
0.969696 0.671692 0.689240
0.174164 0.837463 0.566711
0.195007 0.840363 0.572296
0.215057 0.843597 0.577393
0.236359 0.844971 0.583862
0.604309 0.866730 0.666718
0.852417 0.863281 0.699341
0.949493 0.857635 0.696136
0.968048 0.856567 0.694489
0.174469 0.912598 0.554932
0.198334 0.912994 0.563080
0.217377 0.916473 0.567047
0.238678 0.918274 0.573395
0.515900 0.934631 0.634583
0.823395 0.933502 0.678711
0.936890 0.928589 0.683624
0.963013 0.927460 0.681885
0.174377 0.928864 0.551971
0.197449 0.929321 0.559265
0.216461 0.932068 0.563293
0.237610 0.933350 0.569641
0.475586 0.949646 0.621765
0.814514 0.950043 0.672760
0.930328 0.945068 0.677429
0.961517 0.943329 0.679901
0.031311 0.037140 0.524414
0.053680 0.038330 0.527618
0.077698 0.038757 0.530853
0.380310 0.061371 0.569824
0.627380 0.086212 0.603546
0.823151 0.105591 0.630859
0.850250 0.110748 0.635681
0.871826 0.112091 0.638641
0.036224 0.059723 0.531403
0.057404 0.062683 0.534424
0.080170 0.064941 0.537476
0.386139 0.087891 0.576935
0.638824 0.112366 0.611725
0.832306 0.134521 0.639740
0.859833 0.139648 0.644592
0.880585 0.141602 0.647583
0.041870 0.085114 0.537354
0.065582 0.087006 0.540375
0.091248 0.087982 0.543579
0.385193 0.114166 0.582947
0.642365 0.141144 0.619232
0.842285 0.162354 0.648163
0.875671 0.165680 0.653351
0.895905 0.167969 0.656403
0.045502 0.111328 0.541443
0.070374 0.112885 0.544556
0.097015 0.113495 0.547760
0.338013 0.137299 0.580933
0.633057 0.166992 0.626923
0.842957 0.189484 0.654816
0.887451 0.193359 0.660858
0.907074 0.196259 0.663086
0.167694 0.605591 0.681274
0.192688 0.610291 0.690186
0.215912 0.614380 0.697693
0.239319 0.615875 0.704926
0.680176 0.650024 0.820099
0.901093 0.644958 0.833588
0.964508 0.638672 0.830780
0.975891 0.636627 0.830444
0.185242 0.845184 0.728699
0.205658 0.847931 0.734039
0.226440 0.850006 0.739563
0.247162 0.851227 0.745178
0.591675 0.864777 0.824493
0.848206 0.856873 0.869415
0.951782 0.849579 0.867126
0.971588 0.847443 0.865387
0.180664 0.926880 0.731262
0.201202 0.927704 0.738861
0.222626 0.929932 0.739441
0.243042 0.930939 0.745789
0.476288 0.946106 0.794189
0.815491 0.946533 0.853516
0.925049 0.938873 0.865387
0.957489 0.935974 0.864471
0.177887 0.938690 0.731049
0.198486 0.939392 0.739166
0.219818 0.941223 0.741730
0.240356 0.942596 0.746246
0.399750 0.952728 0.780518
0.806274 0.966278 0.848053
0.917938 0.959167 0.861481
0.954651 0.956665 0.862000
0.040283 0.045166 0.586823
0.060791 0.047394 0.589722
0.082458 0.048981 0.592560
0.364990 0.068481 0.629852
0.632690 0.094910 0.668030
0.830078 0.118347 0.697540
0.865967 0.121796 0.702759
0.884155 0.125061 0.705688
0.045990 0.066895 0.592865
0.066467 0.070435 0.595978
0.090210 0.072357 0.599182
0.366089 0.097412 0.637299
0.640625 0.123291 0.676666
0.840088 0.147095 0.706787
0.878418 0.149902 0.712219
0.899017 0.152069 0.715302
0.049316 0.094055 0.599579
0.071289 0.096985 0.602814
0.095764 0.098785 0.606079
0.367279 0.122162 0.643829
0.646576 0.151428 0.684998
0.854218 0.173096 0.716431
0.892670 0.177277 0.721832
0.911835 0.180328 0.724945
0.060120 0.117584 0.606110
0.080750 0.121368 0.609406
0.103546 0.124207 0.612854
0.309906 0.143372 0.642120
0.638275 0.177765 0.691895
0.851837 0.202301 0.728302
0.900818 0.207825 0.733734
0.921875 0.210144 0.736328
0.176147 0.570801 0.737885
0.200531 0.575439 0.746735
0.224213 0.580048 0.755310
0.247803 0.581818 0.763062
0.679260 0.615906 0.877594
0.903900 0.610138 0.894714
0.964386 0.602356 0.896179
0.975647 0.599884 0.895630
0.188599 0.842072 0.802887
0.211365 0.843018 0.810181
0.231079 0.845856 0.814240
0.254883 0.846497 0.820526
0.583588 0.856171 0.892639
0.850708 0.846619 0.938446
0.957031 0.838806 0.941864
0.976013 0.836823 0.941498
0.181854 0.921722 0.814117
0.202850 0.923553 0.816315
0.223663 0.924225 0.824707
0.244690 0.925232 0.829010
0.428589 0.936432 0.865234
0.812439 0.940918 0.931366
0.922791 0.931915 0.945435
0.957306 0.929138 0.946808
0.177338 0.939545 0.820007
0.198334 0.941803 0.819885
0.219330 0.942719 0.826996
0.240234 0.943817 0.832855
0.388519 0.953857 0.861115
0.801636 0.972260 0.926849
0.913177 0.963470 0.941925
0.948090 0.960907 0.945648
0.042236 0.047119 0.601776
0.062592 0.049469 0.604584
0.084808 0.050781 0.607391
0.360931 0.069519 0.643921
0.634216 0.096710 0.683350
0.831512 0.121185 0.713348
0.869385 0.124664 0.718872
0.888702 0.127319 0.721954
0.048340 0.068634 0.607574
0.067871 0.072632 0.610718
0.091034 0.074921 0.613922
0.360657 0.099152 0.651459
0.640869 0.125793 0.692139
0.842194 0.149719 0.722809
0.881744 0.152771 0.728424
0.903351 0.154633 0.731598
0.053589 0.094910 0.614471
0.073517 0.098907 0.617706
0.097168 0.101135 0.620941
0.362671 0.123138 0.658051
0.647247 0.153748 0.700653
0.856079 0.175842 0.733307
0.894867 0.180878 0.738159
0.915192 0.183441 0.741333
0.060272 0.120697 0.621460
0.082794 0.123596 0.624817
0.105927 0.126221 0.628204
0.300690 0.143768 0.655914
0.639099 0.180298 0.707245
0.854675 0.204590 0.746613
0.904510 0.210663 0.751862
0.925690 0.213165 0.754028
0.177277 0.559784 0.752289
0.201324 0.564484 0.760590
0.225311 0.568665 0.769135
0.248749 0.570557 0.776550
0.677826 0.605347 0.890442
0.904297 0.599182 0.907898
0.964020 0.590881 0.910675
0.975220 0.588196 0.909607
0.191650 0.842010 0.829041
0.215607 0.842651 0.836761
0.237732 0.845306 0.841675
0.262634 0.845093 0.848602
0.581421 0.854706 0.913696
0.851440 0.844147 0.958099
0.958557 0.836029 0.960724
0.977112 0.834229 0.961090
0.182526 0.919495 0.848450
0.203094 0.921783 0.847717
0.224304 0.922150 0.857330
0.244934 0.923645 0.858337
0.417572 0.934052 0.889648
0.813385 0.939301 0.956451
0.923615 0.930328 0.971008
0.959503 0.927277 0.972717
0.177277 0.939941 0.852081
0.197754 0.941895 0.852386
0.218842 0.943237 0.856842
0.239685 0.944611 0.860901
0.385284 0.953674 0.890228
0.800140 0.972321 0.954590
0.912720 0.962738 0.968384
0.949158 0.959198 0.972321
