滤镜资源/Professional Luts Collection/Triune-Digital-Cinematic-LUTs/3D LUTs (CUBE)/ALEXA/Guardians of the Galaxy - Alexa.cube
#Created by Benjamin (IWLTBAP) : http://luts.iwltbap.com
#Copyright: (C) Copyright 2016 Triune Films and IWLTBAP
TITLE "Blockbuster LUTs Pack (Alexa Log-C)"
#LUT size
LUT_3D_SIZE 5
#LUT data points
DOMAIN_MIN 0.000000 0.000000 0.000000
DOMAIN_MAX 0.903226 0.903226 0.903226
0.000000 0.000000 0.000000
0.149231 0.033173 0.015900
0.480469 0.103790 0.019928
0.807861 0.189301 0.072327
0.847168 0.202209 0.082672
0.000000 0.132141 0.025665
0.142700 0.157623 0.053314
0.508301 0.192749 0.036804
0.811005 0.214294 0.059540
0.850586 0.227509 0.071228
0.029053 0.400085 0.064423
0.039215 0.402039 0.066956
0.572662 0.494934 0.089478
0.926819 0.549988 0.091644
0.958374 0.561157 0.094940
0.098358 0.674988 0.132935
0.114349 0.682343 0.138855
0.154663 0.692444 0.154633
0.912292 0.906403 0.211700
0.972870 0.895538 0.286682
0.114197 0.712524 0.153839
0.129974 0.719055 0.161224
0.143311 0.724396 0.167328
0.886200 0.946503 0.304596
0.973175 0.949463 0.314911
0.000000 0.019958 0.119507
0.154266 0.044067 0.131653
0.492401 0.100525 0.109406
0.817261 0.185669 0.144501
0.855103 0.198822 0.150604
0.000000 0.123352 0.130676
0.109070 0.151886 0.148590
0.510925 0.171875 0.106079
0.817719 0.207367 0.137054
0.856049 0.221436 0.143494
0.029907 0.399200 0.089111
0.040405 0.401031 0.092194
0.568604 0.496368 0.106812
0.926392 0.551392 0.112946
0.956329 0.565094 0.131561
0.088684 0.677338 0.172424
0.104736 0.685913 0.181824
0.142517 0.693848 0.194275
0.912445 0.909668 0.271484
0.973053 0.898438 0.321136
0.105255 0.713623 0.191833
0.118378 0.721924 0.201111
0.130615 0.727325 0.206512
0.886383 0.949188 0.341034
0.973419 0.951874 0.344452
0.000000 0.080505 0.353546
0.034119 0.095428 0.364807
0.537903 0.145844 0.358002
0.850372 0.210785 0.362976
0.882141 0.220978 0.368073
0.000000 0.102936 0.355957
0.004791 0.110962 0.359253
0.536011 0.167542 0.362946
0.850281 0.229675 0.366272
0.883545 0.241241 0.372894
0.036102 0.413086 0.417969
0.046875 0.417145 0.421600
0.437897 0.531555 0.501892
0.903717 0.565826 0.480255
0.941193 0.590179 0.507599
0.082123 0.726746 0.454742
0.093536 0.738342 0.470093
0.114288 0.746246 0.486816
0.908722 0.927216 0.559143
0.973328 0.920807 0.563782
0.088226 0.772491 0.441711
0.099121 0.783203 0.451843
0.108978 0.786804 0.460449
0.885529 0.970123 0.579407
0.973236 0.981903 0.577393
0.000000 0.148773 0.594513
0.004425 0.154572 0.598969
0.465485 0.210297 0.616791
0.846252 0.265930 0.609467
0.872803 0.274109 0.612885
0.000000 0.167664 0.593964
0.004425 0.174713 0.599365
0.450684 0.223022 0.628540
0.845337 0.286713 0.618958
0.872772 0.296021 0.623840
0.024567 0.328979 0.614471
0.035095 0.331055 0.619171
0.254211 0.380127 0.677612
0.859772 0.429199 0.698639
0.896088 0.436615 0.707581
0.089081 0.743835 0.758087
0.100891 0.754211 0.770050
0.112213 0.758362 0.777161
0.848389 0.908875 0.849548
0.958588 0.903595 0.840515
0.102875 0.846893 0.787842
0.115112 0.852844 0.795044
0.127960 0.859283 0.803375
0.773834 0.994965 0.842590
0.957336 0.993073 0.870392
0.000000 0.166016 0.659790
0.004425 0.172211 0.664795
0.416046 0.214203 0.684631
0.849792 0.286652 0.691071
0.875000 0.292664 0.690552
0.000000 0.184509 0.658447
0.004425 0.191254 0.665649
0.388428 0.232910 0.689423
0.849854 0.306183 0.701080
0.876923 0.314270 0.703156
0.006653 0.256439 0.661194
0.017395 0.262604 0.666656
0.247131 0.307190 0.711853
0.854309 0.368347 0.739594
0.892395 0.381134 0.750793
0.087585 0.724426 0.836212
0.099091 0.729401 0.842682
0.110626 0.731476 0.846863
0.833710 0.881104 0.927460
0.949646 0.902161 0.929932
0.105774 0.837158 0.863525
0.118408 0.843262 0.870544
0.131104 0.849731 0.879059
0.777985 0.981415 0.952148
0.945496 0.995483 0.944275
