滤镜资源/Professional Luts Collection/Triune-Digital-Cinematic-LUTs/3D LUTs (CUBE)/ALEXA/Guardians of the Galaxy - Alexa.cube
#Created by Benjamin (IWLTBAP) : http://luts.iwltbap.com
#Copyright: (C) Copyright 2016 Triune Films and IWLTBAP
TITLE "Blockbuster LUTs Pack (Alexa Log-C)"
#LUT size
LUT_3D_SIZE 8
#LUT data points
DOMAIN_MIN 0.000000 0.000000 0.000000
DOMAIN_MAX 0.903226 0.903226 0.903226
0.000000 0.000000 0.000000
0.065216 0.016205 0.010162
0.184021 0.040710 0.017242
0.376068 0.078918 0.012573
0.595581 0.130341 0.034180
0.795715 0.185608 0.068237
0.825470 0.194855 0.079376
0.847168 0.202209 0.082672
0.000000 0.064178 0.016357
0.051331 0.075500 0.032745
0.190613 0.093475 0.033875
0.384827 0.111664 0.021210
0.596710 0.143311 0.034393
0.797394 0.199463 0.063080
0.826904 0.208679 0.074615
0.848602 0.215942 0.077942
0.000000 0.161011 0.029755
0.003845 0.163330 0.033905
0.187775 0.191742 0.060028
0.417938 0.208740 0.038239
0.622711 0.229431 0.051453
0.804535 0.238922 0.058105
0.830994 0.232208 0.061981
0.852509 0.237976 0.065033
0.018250 0.316528 0.049927
0.024109 0.318146 0.052887
0.030243 0.319611 0.055725
0.436462 0.380035 0.086151
0.688171 0.395020 0.075745
0.874115 0.437134 0.073639
0.902344 0.440948 0.071716
0.923370 0.449432 0.070404
0.039948 0.487762 0.081299
0.045807 0.490570 0.080170
0.051270 0.493256 0.078522
0.135162 0.508179 0.086761
0.696991 0.628357 0.110229
0.915924 0.641052 0.118591
0.954132 0.654327 0.126282
0.965668 0.661865 0.131531
0.087646 0.648468 0.120941
0.097076 0.652618 0.124207
0.105988 0.655853 0.126862
0.114349 0.657501 0.127869
0.518250 0.752075 0.191681
0.886414 0.867065 0.178680
0.961670 0.862640 0.234192
0.972137 0.860443 0.265656
0.106689 0.694855 0.142975
0.115784 0.699280 0.147217
0.124664 0.702728 0.150665
0.132935 0.705719 0.154236
0.375641 0.760956 0.210693
0.853821 0.920776 0.278931
0.961365 0.932251 0.260986
0.973083 0.926056 0.303162
0.114197 0.712524 0.153839
0.123535 0.716858 0.158173
0.132294 0.719788 0.162079
0.139404 0.722717 0.165771
0.334259 0.774017 0.211945
0.848114 0.937500 0.293549
0.956146 0.956451 0.285065
0.973175 0.949463 0.314911
0.000000 0.006470 0.059082
0.061066 0.021088 0.066681
0.182922 0.041504 0.057770
0.378326 0.084778 0.050568
0.601349 0.130035 0.076996
0.801178 0.185486 0.102875
0.830048 0.194275 0.111389
0.851532 0.201721 0.114166
0.000000 0.057159 0.062683
0.039673 0.067413 0.066772
0.184387 0.087097 0.066315
0.383453 0.103821 0.049500
0.602295 0.143280 0.072876
0.801300 0.198547 0.098633
0.830536 0.207245 0.107452
0.851959 0.214905 0.110199
0.000000 0.158844 0.057037
0.005371 0.160889 0.061890
0.176025 0.192169 0.089752
0.413300 0.208221 0.067413
0.620300 0.225281 0.076508
0.806061 0.232910 0.084473
0.833160 0.229004 0.096741
0.854523 0.233887 0.100433
0.018921 0.315033 0.062347
0.025116 0.317017 0.065826
0.031189 0.318176 0.068054
0.433014 0.380920 0.100891
0.687347 0.394745 0.082764
0.874542 0.436768 0.078613
0.903717 0.441589 0.081055
0.924561 0.451111 0.082458
0.040619 0.484100 0.102020
0.046478 0.488556 0.100922
0.052307 0.492218 0.098969
0.127045 0.507782 0.097260
0.696014 0.630707 0.120483
0.916321 0.642609 0.131287
0.954620 0.656921 0.141052
0.966125 0.664490 0.146576
0.082367 0.649994 0.143463
0.092072 0.655487 0.148621
0.100708 0.658661 0.151428
0.109131 0.660339 0.152130
0.514099 0.754608 0.207031
0.886353 0.869629 0.194336
0.961884 0.864563 0.256805
0.972107 0.862823 0.288635
0.101868 0.696136 0.166199
0.111145 0.701355 0.172180
0.119537 0.704498 0.175812
0.127960 0.707306 0.179047
0.371796 0.768250 0.227264
0.854462 0.923218 0.301880
0.961334 0.933929 0.284790
0.973206 0.927948 0.321411
0.109528 0.713379 0.176270
0.118317 0.718689 0.182068
0.125641 0.722107 0.185791
0.132843 0.725128 0.188904
0.328278 0.782928 0.227417
0.848663 0.939636 0.316223
0.956116 0.958069 0.308777
0.973358 0.950653 0.332214
0.000000 0.025665 0.143768
0.041260 0.038208 0.154694
0.190979 0.054993 0.155304
0.393250 0.079865 0.134216
0.610840 0.124725 0.144196
0.807617 0.181671 0.160126
0.835663 0.190796 0.165131
0.856720 0.198517 0.167084
0.000000 0.044983 0.144470
0.022247 0.056427 0.152161
0.188202 0.072906 0.159088
0.394379 0.091583 0.132446
0.610809 0.135803 0.141876
0.807861 0.193604 0.157135
0.836151 0.203064 0.162262
0.857483 0.210663 0.164459
0.000000 0.152374 0.159363
0.007233 0.154541 0.161591
0.137085 0.190125 0.184448
0.407806 0.204346 0.155182
0.620148 0.203949 0.130798
0.808136 0.213348 0.149841
0.836884 0.215973 0.156708
0.858429 0.224396 0.158600
0.020905 0.321991 0.134827
0.027313 0.324341 0.140472
0.033600 0.325409 0.145294
0.418121 0.393494 0.185791
0.684845 0.399506 0.133057
0.870544 0.436096 0.133240
0.900085 0.444702 0.139740
0.921844 0.457245 0.146149
0.041107 0.479919 0.120239
0.046997 0.482941 0.120361
0.052795 0.486450 0.119690
0.114227 0.506042 0.109070
0.695160 0.631165 0.131531
0.915833 0.642792 0.144684
0.955170 0.658295 0.154480
0.966095 0.665955 0.160614
0.074921 0.650330 0.164856
0.084869 0.655701 0.169983
0.093628 0.659821 0.174255
0.102234 0.661285 0.175354
0.508362 0.755219 0.225067
0.886139 0.870850 0.221954
0.962067 0.865967 0.280151
0.972290 0.864319 0.309265
0.095764 0.696808 0.187592
0.104980 0.701843 0.193695
0.113037 0.705048 0.198547
0.121338 0.707703 0.201935
0.364777 0.774017 0.243103
0.855042 0.925415 0.323975
0.961456 0.935333 0.304810
0.973267 0.929657 0.338867
0.103546 0.713715 0.197296
0.111511 0.719818 0.202576
0.118317 0.723053 0.207214
0.125122 0.726013 0.210571
0.318665 0.790192 0.242645
0.848907 0.941498 0.336761
0.956024 0.959747 0.330231
0.973419 0.952209 0.348572
0.000000 0.059570 0.278748
0.002533 0.063934 0.282379
0.134338 0.086884 0.301758
0.409546 0.113556 0.289001
0.648621 0.148926 0.278748
0.834320 0.188477 0.280945
0.860229 0.195709 0.283783
0.879333 0.201508 0.286285
0.000000 0.072296 0.280273
0.002533 0.076935 0.282166
0.126099 0.101318 0.304321
0.411041 0.126465 0.291382
0.648102 0.159332 0.279297
0.833801 0.198883 0.281647
0.860382 0.206177 0.284821
0.879425 0.212219 0.287079
0.000000 0.094666 0.281494
0.002533 0.098511 0.283447
0.092834 0.121033 0.303345
0.407593 0.140564 0.294220
0.645264 0.169739 0.279205
0.833466 0.209473 0.281372
0.860992 0.217499 0.285065
0.880310 0.223389 0.287201
0.023163 0.318848 0.323639
0.029602 0.321381 0.326080
0.036072 0.322876 0.327393
0.306396 0.408752 0.386353
0.666260 0.411438 0.343811
0.863617 0.432953 0.326447
0.896393 0.445618 0.341827
0.918823 0.459839 0.356201
0.048126 0.523773 0.333069
0.054382 0.525574 0.333038
0.060364 0.527557 0.337341
0.093689 0.527039 0.352997
0.672424 0.655640 0.366272
0.904572 0.661865 0.386383
0.949707 0.681213 0.414520
0.965790 0.691864 0.428619
0.072021 0.657867 0.326080
0.078796 0.665131 0.334442
0.084991 0.669617 0.340515
0.090851 0.672516 0.345764
0.442993 0.787384 0.376617
0.884674 0.888031 0.428711
0.963196 0.881927 0.446259
0.972809 0.881439 0.471619
0.076935 0.685181 0.262817
0.084534 0.691467 0.269653
0.091309 0.695587 0.275085
0.098206 0.699493 0.279755
0.317566 0.792511 0.310852
0.856140 0.935425 0.419006
0.961212 0.946655 0.405945
0.973541 0.941071 0.430328
0.080139 0.706818 0.264740
0.086151 0.712708 0.270477
0.092133 0.716003 0.274994
0.098206 0.718964 0.279938
0.264771 0.796753 0.310059
0.847412 0.949097 0.412384
0.954773 0.965881 0.407684
0.973572 0.958771 0.409912
0.000000 0.102783 0.429749
0.002533 0.106262 0.431915
0.034576 0.116882 0.439880
0.372803 0.155914 0.461029
0.656921 0.178101 0.424347
0.839752 0.224854 0.436401
0.865631 0.234131 0.441467
0.883087 0.241272 0.445465
0.000000 0.114899 0.430695
0.002533 0.118774 0.432007
0.026642 0.127960 0.438385
0.366272 0.166168 0.468292
0.655365 0.189423 0.427124
0.838593 0.235840 0.438965
0.865631 0.245178 0.444427
0.882965 0.252563 0.448547
0.000000 0.126984 0.431213
0.002533 0.130890 0.432678
0.005493 0.135498 0.434448
0.346954 0.175751 0.474609
0.652649 0.200775 0.429413
0.838013 0.246979 0.441772
0.865692 0.257355 0.447906
0.883911 0.265198 0.452454
0.017914 0.275452 0.453308
0.023956 0.276459 0.454926
0.030121 0.276917 0.455994
0.226593 0.332642 0.504608
0.651855 0.352875 0.489716
0.843536 0.357361 0.483032
0.876740 0.354889 0.486969
0.897369 0.363312 0.495270
0.051605 0.514740 0.518372
0.058228 0.518463 0.521942
0.064545 0.520905 0.524109
0.081879 0.521240 0.525482
0.596069 0.653809 0.614197
0.879272 0.668365 0.601593
0.932434 0.687775 0.618195
0.949982 0.700104 0.629700
0.081512 0.748566 0.587311
0.088898 0.757324 0.595032
0.095612 0.762970 0.599579
0.101746 0.764984 0.601593
0.280396 0.815918 0.652466
0.865051 0.880096 0.621796
0.960175 0.878693 0.626068
0.971283 0.880341 0.640778
0.091492 0.801941 0.566803
0.097809 0.809052 0.575195
0.104187 0.814392 0.583740
0.110382 0.818573 0.591736
0.247223 0.889740 0.675415
0.830200 0.952332 0.651062
0.949005 0.972839 0.670532
0.970215 0.975739 0.671417
0.094025 0.821045 0.564880
0.100342 0.826965 0.572357
0.106689 0.831665 0.581055
0.112946 0.835266 0.589630
0.226837 0.896301 0.673401
0.822784 0.973267 0.656555
0.942200 0.986084 0.683716
0.970551 0.992249 0.683136
0.000000 0.141754 0.569153
0.002533 0.145264 0.571289
0.005066 0.148651 0.573029
0.271484 0.181885 0.592499
0.646973 0.219696 0.563934
0.833069 0.252075 0.573792
0.856995 0.259094 0.577423
0.872955 0.265778 0.582458
0.000000 0.152649 0.568817
0.002533 0.156433 0.571625
0.005066 0.160126 0.573456
0.262512 0.194153 0.595032
0.642334 0.231171 0.569122
0.832001 0.264160 0.578918
0.856720 0.271637 0.583466
0.872833 0.278778 0.588837
0.000000 0.163849 0.568420
0.002533 0.167603 0.571075
0.005066 0.171722 0.573212
0.246399 0.206085 0.597107
0.634338 0.243500 0.575623
0.830811 0.276550 0.584503
0.856964 0.285065 0.590088
0.873413 0.292847 0.596375
0.000000 0.175385 0.566376
0.002533 0.179138 0.568512
0.005066 0.182709 0.570312
0.177612 0.221558 0.597076
0.607330 0.255829 0.583954
0.822998 0.286957 0.587219
0.857147 0.297913 0.593903
0.874207 0.306580 0.601685
0.048706 0.480347 0.641937
0.054993 0.483307 0.646545
0.061035 0.484924 0.649811
0.066650 0.483917 0.651306
0.477051 0.577576 0.754242
0.858093 0.621613 0.761322
0.919708 0.655914 0.782867
0.936951 0.668213 0.790558
0.083801 0.710114 0.720734
0.090790 0.717407 0.729156
0.097565 0.723236 0.735748
0.103973 0.725983 0.740082
0.290100 0.825745 0.825592
0.818726 0.871521 0.816956
0.940918 0.868408 0.806824
0.957397 0.872314 0.809021
0.098694 0.828278 0.755341
0.105347 0.831879 0.759399
0.112396 0.835999 0.764008
0.119629 0.839722 0.768158
0.239075 0.908051 0.843262
0.718628 0.967255 0.802704
0.927368 0.974152 0.821136
0.959900 0.977051 0.824310
0.101562 0.850525 0.760834
0.108215 0.853638 0.764374
0.115417 0.857666 0.769043
0.122681 0.861481 0.773743
0.195282 0.900208 0.825592
0.709320 0.990295 0.811523
0.917450 0.992706 0.828491
0.960632 0.992310 0.840210
0.000000 0.160950 0.641602
0.002533 0.164673 0.644592
0.005066 0.168060 0.646790
0.227600 0.207886 0.663147
0.616730 0.242676 0.652039
0.834412 0.278412 0.667755
0.859131 0.283264 0.667114
0.873779 0.287842 0.668671
0.000000 0.171326 0.640625
0.002533 0.175232 0.645050
0.005066 0.178833 0.647552
0.216034 0.220215 0.665863
0.610321 0.253357 0.656921
0.833771 0.289276 0.672913
0.859253 0.294830 0.673035
0.873962 0.299316 0.674530
0.000000 0.182678 0.640686
0.002533 0.186523 0.644928
0.005066 0.190369 0.647552
0.193665 0.233002 0.669220
0.601257 0.263947 0.662292
0.832794 0.300537 0.678711
0.860107 0.307312 0.680084
0.875244 0.312836 0.682678
0.000000 0.194275 0.640228
0.002533 0.198029 0.644470
0.005066 0.201691 0.646912
0.127380 0.231201 0.666199
0.572357 0.272369 0.667877
0.824066 0.309265 0.681213
0.861237 0.319885 0.686859
0.876678 0.326141 0.690369
0.044922 0.459167 0.705109
0.051208 0.462372 0.711121
0.057068 0.463531 0.714661
0.062439 0.461914 0.716553
0.465271 0.567261 0.844055
0.863983 0.597687 0.852570
0.932526 0.625519 0.862396
0.947083 0.637024 0.865234
0.081329 0.689636 0.796997
0.087738 0.693481 0.802582
0.094147 0.696136 0.806488
0.100281 0.696716 0.808929
0.278412 0.794281 0.870880
0.793427 0.839752 0.895081
0.930145 0.862152 0.895874
0.947418 0.867035 0.897034
0.100037 0.806580 0.826782
0.106812 0.810944 0.831726
0.114075 0.814758 0.836426
0.121033 0.817627 0.840820
0.200043 0.863525 0.875702
0.714203 0.954254 0.925415
0.907562 0.976440 0.911163
0.953888 0.972778 0.912201
0.104919 0.840546 0.836884
0.111908 0.843567 0.840668
0.119263 0.847290 0.845398
0.126556 0.851105 0.850159
0.189362 0.889435 0.880371
0.703705 0.983276 0.931519
0.895233 0.996613 0.912872
0.951691 0.994965 0.922455
0.000000 0.166016 0.659790
0.002533 0.169586 0.662933
0.005066 0.172882 0.665497
0.214874 0.216980 0.682281
0.609497 0.247314 0.672272
0.833344 0.281616 0.685852
0.861511 0.289368 0.691101
0.875000 0.292664 0.690552
0.000000 0.176453 0.658783
0.002533 0.180450 0.663513
0.005066 0.183746 0.666046
0.202209 0.227722 0.685059
0.603455 0.257385 0.676758
0.832520 0.292023 0.690186
0.861786 0.300751 0.697205
0.875366 0.304199 0.696289
0.000000 0.187439 0.658508
0.002533 0.191254 0.663055
0.005066 0.194855 0.666046
0.178467 0.235565 0.686646
0.594879 0.267517 0.682129
0.831085 0.303162 0.695862
0.863068 0.313354 0.704803
0.877289 0.317535 0.705017
0.000000 0.199219 0.658264
0.002533 0.203033 0.662720
0.005066 0.206421 0.665680
0.119080 0.233856 0.682709
0.566559 0.274811 0.687469
0.822998 0.312469 0.700165
0.864563 0.325928 0.712524
0.879486 0.331146 0.714111
0.043915 0.453552 0.722595
0.050140 0.456665 0.728729
0.055725 0.457458 0.732452
0.061127 0.455688 0.734253
0.462097 0.564667 0.864075
0.863007 0.598053 0.875977
0.935883 0.618469 0.884064
0.950745 0.624329 0.885223
0.080872 0.683594 0.822052
0.087219 0.686432 0.826355
0.093933 0.689087 0.829956
0.100372 0.690186 0.832031
0.285858 0.799347 0.897888
0.794556 0.841949 0.921844
0.928802 0.862396 0.923798
0.947327 0.866302 0.925659
0.100281 0.804993 0.860107
0.107208 0.807953 0.863495
0.114319 0.811127 0.867340
0.121338 0.813721 0.871307
0.194641 0.853363 0.898621
0.717499 0.943512 0.946350
0.901062 0.968048 0.945984
0.951385 0.973389 0.942749
0.105774 0.837158 0.863525
0.112793 0.840210 0.867157
0.120148 0.844086 0.871826
0.127655 0.847961 0.876556
0.187195 0.884857 0.904541
0.704803 0.976105 0.953583
0.893799 0.994507 0.950165
0.945496 0.995483 0.944275
