滤镜资源/Professional Luts Collection/Triune-Digital-Cinematic-LUTs/3D LUTs (CUBE)/ALEXA/Guardians of the Galaxy - Alexa.cube
#Created by Benjamin (IWLTBAP) : http://luts.iwltbap.com
#Copyright: (C) Copyright 2016 Triune Films and IWLTBAP
TITLE "Blockbuster LUTs Pack (Alexa Log-C)"
#LUT size
LUT_3D_SIZE 32
#LUT data points
0.000000 0.000000 0.000000
0.002075 0.000000 0.002258
0.015869 0.005646 0.005676
0.041046 0.011230 0.008759
0.065216 0.016205 0.010162
0.090454 0.020844 0.011932
0.118317 0.026703 0.014130
0.149231 0.033173 0.015900
0.184021 0.040710 0.017242
0.225128 0.049194 0.016937
0.272034 0.058533 0.015778
0.323212 0.068451 0.013153
0.376068 0.078918 0.012573
0.425873 0.091583 0.014160
0.480469 0.103790 0.019928
0.537537 0.116943 0.025574
0.595581 0.130341 0.034180
0.651886 0.144012 0.044464
0.707642 0.159515 0.053711
0.761383 0.175293 0.062103
0.795715 0.185608 0.068237
0.807861 0.189301 0.072327
0.813873 0.191071 0.075348
0.819672 0.192993 0.077484
0.825470 0.194855 0.079376
0.831177 0.196533 0.080536
0.836700 0.198425 0.081390
0.842041 0.200226 0.082092
0.847168 0.202209 0.082672
0.852478 0.203766 0.083466
0.857605 0.205841 0.083984
0.862885 0.207520 0.084656
0.000000 0.009583 0.004456
0.001678 0.013336 0.008514
0.012390 0.017700 0.011627
0.038177 0.023010 0.014221
0.063293 0.027191 0.015594
0.089325 0.031219 0.016449
0.117981 0.036621 0.017853
0.149597 0.042206 0.019135
0.184662 0.047821 0.019989
0.225769 0.054077 0.018524
0.272675 0.062225 0.016693
0.323853 0.071869 0.014343
0.376770 0.082306 0.013519
0.426636 0.095276 0.015198
0.481140 0.107635 0.020203
0.538025 0.120270 0.026245
0.595856 0.133636 0.032776
0.652161 0.147247 0.043396
0.708038 0.162720 0.052612
0.761810 0.178619 0.061066
0.796204 0.189087 0.067200
0.808197 0.192810 0.071228
0.814178 0.194427 0.074188
0.819946 0.196442 0.076447
0.825806 0.198120 0.078125
0.831543 0.199982 0.079559
0.837006 0.201691 0.080383
0.842346 0.203644 0.081085
0.847443 0.205383 0.081665
0.852783 0.207306 0.082275
0.857910 0.209045 0.082977
0.863190 0.210968 0.083649
0.000000 0.027100 0.009857
0.001251 0.027802 0.012360
0.007416 0.032013 0.017609
0.034576 0.035797 0.019501
0.061188 0.040527 0.020905
0.088257 0.044800 0.021362
0.117767 0.049744 0.023285
0.150299 0.055634 0.024139
0.186401 0.061066 0.024231
0.228027 0.066559 0.023224
0.275208 0.071564 0.020355
0.325439 0.077332 0.016174
0.377563 0.086121 0.014771
0.427643 0.098877 0.016266
0.481598 0.111023 0.021210
0.538452 0.123657 0.026917
0.596222 0.136871 0.033691
0.652466 0.150604 0.041992
0.708344 0.166107 0.051239
0.762177 0.182037 0.059662
0.796722 0.192596 0.066010
0.808594 0.196289 0.070160
0.814545 0.197937 0.072968
0.820343 0.199951 0.075409
0.826111 0.201599 0.077026
0.831848 0.203491 0.078247
0.837280 0.205109 0.079315
0.842621 0.207062 0.080078
0.847748 0.208862 0.080597
0.853058 0.210846 0.081177
0.858215 0.212555 0.081696
0.863495 0.214569 0.082275
0.000000 0.045380 0.013611
0.000763 0.045776 0.015259
0.002991 0.047211 0.020386
0.028839 0.052582 0.025391
0.058136 0.055664 0.025635
0.086823 0.060089 0.025360
0.117889 0.064758 0.027161
0.150940 0.070496 0.029266
0.188141 0.076447 0.029175
0.230347 0.081604 0.028351
0.278656 0.086304 0.024719
0.329132 0.090485 0.020142
0.380219 0.094452 0.017059
0.428772 0.102600 0.016663
0.482239 0.114716 0.021790
0.538879 0.127197 0.027435
0.596497 0.140137 0.034149
0.652771 0.153656 0.040863
0.708679 0.169403 0.050018
0.762451 0.185242 0.058441
0.797089 0.195953 0.064514
0.809021 0.199524 0.068665
0.814941 0.201508 0.071808
0.820831 0.203156 0.074005
0.826447 0.205048 0.075958
0.832184 0.206757 0.077087
0.837738 0.208649 0.077911
0.842926 0.210541 0.078796
0.848267 0.212402 0.079468
0.853333 0.214386 0.080017
0.858734 0.216217 0.080505
0.863770 0.218018 0.081085
0.000000 0.064178 0.016357
0.000641 0.064484 0.017822
0.002411 0.065613 0.021942
0.019226 0.068909 0.027832
0.051331 0.075500 0.032745
0.084656 0.078308 0.030792
0.119507 0.081085 0.030884
0.153320 0.087158 0.032928
0.190613 0.093475 0.033875
0.233368 0.099670 0.032837
0.282135 0.104095 0.029633
0.333527 0.108246 0.024261
0.384827 0.111664 0.021210
0.432892 0.114319 0.019592
0.483551 0.119324 0.022461
0.539429 0.130707 0.028015
0.596710 0.143311 0.034393
0.652985 0.157013 0.041199
0.708893 0.172913 0.048492
0.762726 0.188721 0.056976
0.797394 0.199463 0.063080
0.809540 0.203156 0.067291
0.815399 0.205109 0.070465
0.821259 0.206726 0.072723
0.826904 0.208679 0.074615
0.832581 0.210388 0.075836
0.838196 0.212341 0.076630
0.843231 0.213867 0.077393
0.848602 0.215942 0.077942
0.853729 0.217682 0.078461
0.859161 0.219696 0.079224
0.864258 0.221741 0.079834
0.000000 0.084106 0.018799
0.000641 0.084442 0.020081
0.001648 0.084930 0.022308
0.004700 0.087341 0.028931
0.036346 0.092316 0.035461
0.075378 0.099792 0.039948
0.119141 0.100403 0.035156
0.155609 0.104675 0.036926
0.194153 0.111053 0.037811
0.237854 0.117981 0.037109
0.286774 0.124786 0.033630
0.338715 0.129761 0.028442
0.390656 0.133728 0.025238
0.440918 0.136047 0.023895
0.488983 0.136841 0.026154
0.541443 0.138580 0.029572
0.597260 0.146606 0.035004
0.653107 0.160278 0.041412
0.709015 0.176147 0.046661
0.762848 0.192139 0.054901
0.797638 0.203033 0.061340
0.810120 0.206848 0.065613
0.815826 0.208679 0.068634
0.821716 0.210358 0.071136
0.827515 0.212311 0.072815
0.833008 0.214020 0.074005
0.838654 0.215942 0.075043
0.843689 0.217651 0.075836
0.849091 0.219696 0.076385
0.854156 0.221497 0.076904
0.859619 0.223511 0.077393
0.864716 0.225159 0.078064
0.000000 0.106598 0.022461
0.000641 0.107025 0.023285
0.001251 0.107513 0.024506
0.002899 0.108398 0.027710
0.017975 0.112061 0.036255
0.056458 0.120361 0.043274
0.104645 0.127625 0.045410
0.156342 0.126740 0.041656
0.197388 0.131287 0.042114
0.242706 0.138062 0.041107
0.292969 0.144989 0.037079
0.345154 0.151794 0.032074
0.398102 0.157837 0.029327
0.449493 0.161682 0.028717
0.497772 0.163849 0.031555
0.548370 0.162750 0.034973
0.601074 0.161133 0.038361
0.654175 0.165955 0.042084
0.708771 0.179321 0.046509
0.762848 0.195862 0.052246
0.797943 0.206696 0.058655
0.810608 0.210449 0.063080
0.816376 0.212372 0.066376
0.822266 0.214111 0.068695
0.828094 0.216064 0.070679
0.833618 0.217773 0.071869
0.839294 0.219757 0.072693
0.844696 0.221588 0.073425
0.849854 0.223572 0.074036
0.855225 0.225311 0.074829
0.860443 0.227295 0.075378
0.865662 0.229004 0.075958
0.000000 0.132141 0.025665
0.000641 0.132538 0.026947
0.001251 0.133148 0.028015
0.001892 0.133575 0.029053
0.004608 0.134949 0.033264
0.032043 0.140808 0.044373
0.080658 0.152130 0.050110
0.142700 0.157623 0.053314
0.198608 0.156494 0.048950
0.247253 0.160858 0.045898
0.299591 0.167877 0.040955
0.353668 0.175232 0.036255
0.407562 0.182617 0.033630
0.458221 0.188324 0.032867
0.508301 0.192749 0.036804
0.559448 0.194458 0.042084
0.610596 0.194366 0.045715
0.661102 0.194916 0.047455
0.712250 0.196442 0.049011
0.763672 0.204102 0.051605
0.798401 0.211731 0.054718
0.811005 0.214294 0.059540
0.817108 0.215973 0.062988
0.822784 0.217987 0.065735
0.828644 0.219727 0.067505
0.834381 0.221649 0.068756
0.839844 0.223572 0.069611
0.845306 0.225464 0.070618
0.850586 0.227509 0.071228
0.855927 0.229279 0.071716
0.861145 0.231445 0.072144
0.866455 0.233215 0.072723
0.000000 0.161011 0.029755
0.000641 0.161621 0.030701
0.001251 0.162415 0.031799
0.001892 0.162903 0.032745
0.003845 0.163330 0.033905
0.011139 0.165741 0.038300
0.048615 0.176392 0.052338
0.111176 0.185455 0.056091
0.187775 0.191742 0.060028
0.249420 0.189697 0.053741
0.306091 0.194275 0.045502
0.362427 0.201416 0.040558
0.417938 0.208740 0.038239
0.468811 0.215576 0.039703
0.521606 0.220734 0.044647
0.572754 0.225586 0.048370
0.622711 0.229431 0.051453
0.672821 0.233215 0.053741
0.722900 0.237244 0.055817
0.772125 0.240784 0.057770
0.804535 0.238922 0.058105
0.814911 0.233063 0.058167
0.820038 0.231415 0.059326
0.825470 0.231720 0.060669
0.830994 0.232208 0.061981
0.836304 0.233368 0.062744
0.841888 0.234589 0.063721
0.847046 0.236176 0.064575
0.852509 0.237976 0.065033
0.857880 0.240051 0.065430
0.863251 0.241699 0.066193
0.868561 0.243408 0.066864
0.001221 0.195312 0.033966
0.003021 0.195770 0.035217
0.005127 0.196259 0.036255
0.006805 0.196777 0.037201
0.008514 0.197235 0.038177
0.010223 0.197632 0.039459
0.017822 0.200287 0.044067
0.064880 0.216675 0.059692
0.149811 0.225525 0.064758
0.239868 0.231354 0.064178
0.309509 0.228546 0.055573
0.371765 0.232849 0.046906
0.429291 0.240143 0.042938
0.482330 0.246979 0.047974
0.536072 0.253754 0.052887
0.588348 0.259583 0.056274
0.638336 0.265839 0.058044
0.688171 0.271362 0.060394
0.737396 0.277710 0.062256
0.786285 0.285126 0.063965
0.819641 0.290405 0.064880
0.830170 0.288208 0.065674
0.833771 0.283783 0.066742
0.837799 0.280121 0.067322
0.841980 0.277435 0.067596
0.846741 0.275726 0.067627
0.851471 0.274933 0.067871
0.856628 0.275360 0.067993
0.861847 0.276703 0.068054
0.867096 0.278137 0.068054
0.872223 0.279388 0.068420
0.877319 0.280182 0.068390
0.006958 0.233673 0.039429
0.008759 0.234070 0.040436
0.010406 0.234497 0.041199
0.011932 0.234924 0.042023
0.013611 0.235596 0.043030
0.015076 0.235962 0.044159
0.016968 0.236450 0.044830
0.024658 0.239014 0.049561
0.082184 0.260773 0.064484
0.203979 0.269165 0.078735
0.300140 0.275635 0.075958
0.376251 0.272949 0.060486
0.440094 0.276825 0.048706
0.497559 0.284637 0.055389
0.552917 0.291656 0.060577
0.605103 0.298462 0.063812
0.655334 0.305603 0.065796
0.704254 0.312836 0.067352
0.752228 0.320221 0.068390
0.800232 0.329254 0.069275
0.835175 0.336151 0.069733
0.847046 0.336700 0.069977
0.851440 0.335388 0.070282
0.856171 0.334625 0.070801
0.861084 0.334534 0.071594
0.866058 0.335175 0.071716
0.871338 0.336243 0.071991
0.876892 0.338440 0.072144
0.882385 0.340637 0.072449
0.887726 0.342743 0.072540
0.893311 0.345123 0.072540
0.898560 0.347229 0.072571
0.012482 0.274567 0.044830
0.014313 0.275055 0.045715
0.015839 0.275543 0.046570
0.017334 0.276184 0.047333
0.018860 0.276642 0.048126
0.020569 0.277069 0.049011
0.022125 0.277313 0.049835
0.023682 0.277649 0.050476
0.032257 0.280518 0.055420
0.116852 0.312683 0.069489
0.272186 0.321472 0.080902
0.366211 0.326111 0.084534
0.444916 0.324249 0.061188
0.510040 0.327026 0.059052
0.568542 0.333893 0.066833
0.621857 0.341461 0.069916
0.672821 0.349426 0.071899
0.722443 0.357635 0.072998
0.770752 0.366608 0.074066
0.817413 0.376678 0.073822
0.853699 0.385468 0.072784
0.866669 0.387268 0.072357
0.871155 0.386810 0.072418
0.875946 0.387054 0.072266
0.880737 0.387604 0.072235
0.885712 0.388855 0.072174
0.890686 0.390076 0.071838
0.896149 0.392487 0.071625
0.901733 0.395020 0.071442
0.907501 0.397766 0.071198
0.912964 0.400360 0.070862
0.918610 0.402893 0.070557
0.018250 0.316528 0.049927
0.019653 0.316864 0.050720
0.021149 0.317352 0.051361
0.022614 0.317688 0.052185
0.024109 0.318146 0.052887
0.025787 0.318573 0.053436
0.027252 0.318787 0.054230
0.028778 0.319397 0.055206
0.030243 0.319611 0.055725
0.045715 0.325256 0.063385
0.194550 0.364410 0.080627
0.340210 0.376282 0.081451
0.436462 0.380035 0.086151
0.513000 0.379272 0.068054
0.576843 0.380432 0.067963
0.634888 0.386841 0.072845
0.688171 0.395020 0.075745
0.738525 0.404449 0.076202
0.787384 0.414642 0.076477
0.835083 0.425903 0.075836
0.874115 0.437134 0.073639
0.888397 0.440063 0.072693
0.892822 0.440094 0.072357
0.897675 0.440338 0.072021
0.902344 0.440948 0.071716
0.907349 0.442230 0.071350
0.912170 0.443695 0.070770
0.917816 0.446503 0.070343
0.923370 0.449432 0.070404
0.929108 0.452515 0.070770
0.934570 0.455475 0.070190
0.939697 0.458221 0.070587
0.023712 0.358246 0.056580
0.025116 0.358795 0.057037
0.026489 0.359192 0.057678
0.028107 0.359558 0.058044
0.029602 0.360046 0.058502
0.031006 0.360352 0.059509
0.032349 0.360504 0.059601
0.033783 0.360657 0.060150
0.035309 0.360779 0.060760
0.036896 0.360870 0.061066
0.077576 0.380737 0.068298
0.280609 0.408813 0.103180
0.409210 0.432617 0.086884
0.505737 0.435822 0.082123
0.580780 0.437744 0.078125
0.641876 0.439758 0.077850
0.698914 0.444489 0.077362
0.754028 0.453613 0.077698
0.804688 0.464844 0.077148
0.852020 0.477600 0.078583
0.892944 0.491058 0.079865
0.909576 0.495758 0.080292
0.913940 0.496124 0.080200
0.918640 0.497131 0.080231
0.923553 0.498230 0.080292
0.928650 0.499725 0.080414
0.933563 0.501373 0.080627
0.938110 0.503998 0.081024
0.943176 0.506836 0.081543
0.948120 0.509888 0.082336
0.953278 0.512787 0.082794
0.958221 0.515564 0.083252
0.029053 0.400085 0.064423
0.030396 0.400391 0.064789
0.032135 0.400726 0.064941
0.033508 0.401154 0.065308
0.034912 0.401459 0.066223
0.036285 0.401825 0.066193
0.037598 0.401917 0.066833
0.039215 0.402039 0.066956
0.040619 0.402191 0.067169
0.041962 0.402191 0.067322
0.046448 0.402985 0.068542
0.165894 0.443542 0.082336
0.360413 0.464783 0.109467
0.480438 0.492950 0.089355
0.572662 0.494934 0.089478
0.644867 0.499481 0.088745
0.705017 0.501282 0.088226
0.762543 0.506165 0.087982
0.817108 0.516205 0.087585
0.865875 0.529266 0.088806
0.907257 0.543152 0.090759
0.926819 0.549988 0.091644
0.931732 0.550690 0.091705
0.936432 0.551849 0.091766
0.941071 0.553009 0.091919
0.945709 0.554657 0.092072
0.950470 0.556213 0.092316
0.954529 0.558624 0.093414
0.958374 0.561157 0.094940
0.961548 0.563538 0.096130
0.964569 0.565918 0.097687
0.967712 0.568359 0.099091
0.034485 0.441559 0.075104
0.036041 0.442261 0.075073
0.037445 0.442902 0.074982
0.038818 0.443756 0.074921
0.040192 0.444336 0.075256
0.041718 0.445038 0.074799
0.043243 0.445374 0.074921
0.044586 0.445679 0.074860
0.045990 0.446014 0.074768
0.047272 0.446167 0.075134
0.048645 0.446472 0.074860
0.066833 0.452240 0.078064
0.264679 0.502625 0.119446
0.435730 0.523132 0.102325
0.547241 0.555603 0.094269
0.636597 0.559753 0.101135
0.706543 0.564178 0.100464
0.767883 0.567230 0.098969
0.823669 0.570984 0.099304
0.874146 0.581024 0.100586
0.914673 0.592407 0.103394
0.936249 0.600616 0.107147
0.942474 0.602478 0.107727
0.946594 0.603394 0.108582
0.949921 0.604523 0.108917
0.953278 0.606079 0.109619
0.956787 0.607666 0.110229
0.959473 0.609894 0.111359
0.962372 0.612213 0.113220
0.965210 0.614532 0.114746
0.968079 0.616547 0.116516
0.970734 0.618713 0.118103
0.039948 0.487762 0.081299
0.041351 0.488678 0.080658
0.042786 0.489349 0.080475
0.044098 0.490021 0.080170
0.045807 0.490570 0.080170
0.047180 0.491425 0.079803
0.048553 0.492126 0.078979
0.049957 0.492767 0.078766
0.051270 0.493256 0.078522
0.052948 0.493835 0.077576
0.054260 0.494202 0.076904
0.055573 0.494354 0.076630
0.135162 0.508179 0.086761
0.342896 0.552368 0.143524
0.503265 0.583160 0.099030
0.608704 0.620819 0.105072
0.696991 0.628357 0.110229
0.765076 0.629639 0.114777
0.823578 0.630005 0.114563
0.874603 0.633026 0.115967
0.915924 0.641052 0.118591
0.941833 0.649597 0.123535
0.948273 0.651764 0.124878
0.951202 0.653076 0.125641
0.954132 0.654327 0.126282
0.957184 0.655975 0.127319
0.960205 0.657562 0.128021
0.963043 0.659607 0.129608
0.965668 0.661865 0.131531
0.968384 0.663605 0.133453
0.971069 0.665497 0.135498
0.973572 0.667145 0.137909
0.046173 0.534149 0.084869
0.048218 0.535065 0.083832
0.049896 0.535950 0.083984
0.051514 0.536713 0.083527
0.053406 0.537476 0.083038
0.055023 0.538330 0.082520
0.056732 0.539185 0.081543
0.058228 0.539673 0.081665
0.060272 0.540131 0.080963
0.061829 0.540497 0.080963
0.063477 0.540802 0.080444
0.065155 0.540619 0.080048
0.083435 0.539856 0.081665
0.237732 0.559113 0.118683
0.414001 0.602448 0.154999
0.568451 0.647522 0.108917
0.669769 0.688110 0.115967
0.753235 0.692505 0.123199
0.817902 0.689484 0.130402
0.870483 0.690704 0.132751
0.912506 0.694397 0.135406
0.941925 0.700104 0.140869
0.949951 0.702972 0.144348
0.952881 0.703735 0.145447
0.955811 0.705017 0.146545
0.958710 0.706360 0.147675
0.961426 0.707947 0.149200
0.964142 0.709503 0.150879
0.966919 0.710968 0.152863
0.969482 0.712311 0.154541
0.972260 0.713623 0.156464
0.975037 0.715088 0.158081
0.058228 0.576721 0.091583
0.060486 0.577362 0.092163
0.062714 0.578033 0.092255
0.065125 0.578552 0.092010
0.067200 0.579102 0.092255
0.069305 0.579803 0.092468
0.071747 0.580292 0.092316
0.073853 0.580719 0.092224
0.076111 0.581024 0.092316
0.078156 0.581299 0.092346
0.079987 0.581421 0.092499
0.082214 0.581360 0.092712
0.084290 0.581177 0.092621
0.134338 0.583282 0.105927
0.324005 0.620636 0.152863
0.491608 0.663147 0.161804
0.638123 0.716583 0.120667
0.728638 0.751404 0.132385
0.805725 0.752441 0.140137
0.866974 0.752777 0.146149
0.907532 0.753479 0.153687
0.936768 0.755585 0.160461
0.948822 0.757904 0.165466
0.952209 0.758453 0.166595
0.955353 0.759003 0.167572
0.958313 0.759796 0.168457
0.961395 0.760834 0.169342
0.964142 0.761292 0.171082
0.966888 0.761871 0.174072
0.969452 0.762482 0.178223
0.972290 0.763519 0.183441
0.975067 0.764771 0.188965
0.073669 0.614777 0.107971
0.076080 0.615540 0.108582
0.078369 0.616302 0.108612
0.080750 0.617249 0.109070
0.082886 0.618011 0.109467
0.085358 0.618713 0.109558
0.087524 0.619324 0.109619
0.089447 0.620056 0.110138
0.091919 0.620667 0.109863
0.093964 0.621246 0.110504
0.096497 0.621735 0.110229
0.098297 0.621796 0.110718
0.100189 0.621765 0.110535
0.117767 0.623444 0.112915
0.234497 0.634369 0.139099
0.412933 0.687012 0.185974
0.581360 0.733429 0.160950
0.706635 0.785797 0.138336
0.784027 0.810242 0.151550
0.850525 0.815094 0.159668
0.904236 0.814484 0.165588
0.936493 0.815430 0.171387
0.952148 0.815247 0.178131
0.956665 0.814941 0.189301
0.959290 0.814362 0.195221
0.962006 0.814240 0.200714
0.964478 0.814117 0.210144
0.966888 0.813782 0.219086
0.969147 0.813782 0.227997
0.971619 0.813904 0.237610
0.974335 0.815002 0.241730
0.976837 0.815887 0.245667
0.087646 0.648468 0.120941
0.089966 0.649475 0.121429
0.092346 0.650696 0.122375
0.094574 0.651703 0.123596
0.097076 0.652618 0.124207
0.099365 0.653748 0.124878
0.101715 0.654480 0.125305
0.103973 0.655151 0.125824
0.105988 0.655853 0.126862
0.108154 0.656616 0.127228
0.110199 0.657104 0.127563
0.112457 0.657349 0.127594
0.114349 0.657501 0.127869
0.116364 0.657623 0.127777
0.165039 0.663391 0.143951
0.344696 0.692596 0.181183
0.518250 0.752075 0.191681
0.672577 0.811829 0.183472
0.769226 0.842529 0.183746
0.835236 0.864197 0.200714
0.886414 0.867065 0.178680
0.932129 0.866455 0.184692
0.950073 0.864655 0.190277
0.958801 0.863098 0.220306
0.961670 0.862640 0.234192
0.964294 0.861847 0.244354
0.967102 0.861298 0.251862
0.969757 0.860779 0.258423
0.972137 0.860443 0.265656
0.974792 0.860779 0.269745
0.977417 0.861267 0.272705
0.979858 0.861664 0.275726
0.098358 0.674988 0.132935
0.100555 0.676239 0.133759
0.103088 0.677307 0.134735
0.105286 0.678375 0.135468
0.107697 0.679596 0.136261
0.109955 0.680603 0.137115
0.112183 0.681396 0.138092
0.114349 0.682343 0.138855
0.116333 0.683075 0.139648
0.118774 0.683868 0.140472
0.120850 0.684601 0.141388
0.123016 0.685333 0.142212
0.125000 0.685852 0.142914
0.126953 0.686340 0.143616
0.154663 0.692444 0.154633
0.291870 0.709045 0.184235
0.470825 0.786316 0.209686
0.638184 0.834351 0.202515
0.749939 0.868958 0.231323
0.822235 0.888336 0.240936
0.875671 0.905457 0.251282
0.912292 0.906403 0.211700
0.946259 0.904785 0.200012
0.958466 0.900543 0.234924
0.962250 0.899139 0.257629
0.965057 0.898071 0.267365
0.967621 0.897095 0.274384
0.970245 0.896149 0.280670
0.972870 0.895538 0.286682
0.975311 0.895599 0.289185
0.977936 0.895752 0.291595
0.980560 0.895874 0.293945
0.102875 0.685638 0.138123
0.104980 0.686920 0.139282
0.107422 0.687988 0.140106
0.109467 0.688965 0.141388
0.112000 0.690247 0.142181
0.114136 0.691315 0.142944
0.116333 0.691986 0.143860
0.118439 0.692993 0.144440
0.120514 0.693817 0.145325
0.122864 0.694611 0.146057
0.124939 0.695404 0.146820
0.127045 0.696167 0.147797
0.129120 0.696747 0.148560
0.130981 0.697327 0.149597
0.146301 0.701660 0.156311
0.232880 0.714142 0.182556
0.432281 0.778473 0.211517
0.606720 0.840698 0.204498
0.732697 0.878326 0.240662
0.814911 0.900757 0.252625
0.866425 0.915924 0.269135
0.904846 0.924500 0.270477
0.934235 0.923065 0.230957
0.956146 0.920929 0.228271
0.962341 0.917847 0.265381
0.965149 0.916077 0.276306
0.967743 0.915131 0.283936
0.970367 0.914246 0.290161
0.972992 0.913269 0.296692
0.975403 0.913239 0.298767
0.978027 0.913208 0.301025
0.980682 0.913300 0.302643
0.104675 0.690277 0.140564
0.107086 0.691467 0.141602
0.109192 0.692535 0.142609
0.111542 0.693756 0.143768
0.113647 0.694794 0.144562
0.116119 0.695862 0.145538
0.118103 0.696747 0.146393
0.120331 0.697510 0.147186
0.122498 0.698303 0.147949
0.124634 0.699066 0.148926
0.127045 0.700104 0.149475
0.128906 0.700684 0.150482
0.131042 0.701233 0.151550
0.133087 0.701874 0.152283
0.134918 0.702423 0.153198
0.185730 0.711334 0.178650
0.400421 0.766815 0.211212
0.580750 0.839355 0.207031
0.718689 0.879852 0.240051
0.806702 0.904205 0.257935
0.859314 0.918427 0.274536
0.899689 0.929993 0.279816
0.928040 0.931274 0.262268
0.952271 0.929230 0.228638
0.961975 0.925842 0.263031
0.965210 0.924316 0.276337
0.967804 0.922699 0.286011
0.970398 0.921417 0.294189
0.973053 0.920380 0.300049
0.975433 0.920258 0.302246
0.978058 0.920197 0.304443
0.980713 0.920197 0.306366
0.106689 0.694855 0.142975
0.109039 0.695923 0.144073
0.111267 0.697021 0.145355
0.113312 0.698242 0.146393
0.115784 0.699280 0.147217
0.118073 0.700562 0.147949
0.120300 0.701263 0.149048
0.122406 0.702026 0.149811
0.124664 0.702728 0.150665
0.126678 0.703735 0.151733
0.128723 0.704529 0.152679
0.131042 0.705139 0.153259
0.132935 0.705719 0.154236
0.135223 0.706299 0.154877
0.137115 0.707092 0.156036
0.176941 0.714752 0.177277
0.375641 0.760956 0.210693
0.559845 0.841095 0.210938
0.707428 0.881866 0.240448
0.798218 0.907043 0.264587
0.853821 0.920776 0.278931
0.895660 0.934509 0.284882
0.923798 0.937378 0.281525
0.947876 0.935394 0.244354
0.961365 0.932251 0.260986
0.965240 0.930359 0.276123
0.967834 0.928955 0.285919
0.970428 0.927399 0.294739
0.973083 0.926056 0.303162
0.975464 0.925751 0.304932
0.978119 0.925720 0.306854
0.980743 0.925629 0.309052
0.108765 0.699310 0.145752
0.110901 0.700378 0.146667
0.112976 0.701691 0.147797
0.115479 0.702728 0.148651
0.117676 0.703796 0.149811
0.120178 0.705078 0.150482
0.122253 0.705841 0.151337
0.124542 0.706543 0.152374
0.126404 0.707428 0.153564
0.128540 0.708221 0.154388
0.130890 0.709015 0.155090
0.132782 0.709564 0.156281
0.134888 0.710175 0.157349
0.137054 0.710938 0.157898
0.138824 0.711487 0.158844
0.176392 0.719055 0.179047
0.356812 0.758789 0.210114
0.545288 0.849426 0.214050
0.699310 0.885040 0.241425
0.792297 0.910675 0.269073
0.850891 0.924957 0.281982
0.892029 0.937897 0.290649
0.921600 0.942505 0.290527
0.944397 0.941742 0.265930
0.959747 0.938904 0.265747
0.965271 0.936737 0.279663
0.967896 0.935272 0.289856
0.970459 0.933777 0.298492
0.973114 0.932526 0.306763
0.975525 0.931793 0.307953
0.978149 0.931091 0.309357
0.980774 0.930939 0.311523
0.110535 0.703766 0.148071
0.113037 0.705078 0.148987
0.114990 0.706085 0.150391
0.117310 0.707184 0.151123
0.119751 0.708496 0.152405
0.121979 0.709564 0.153412
0.124329 0.710297 0.154266
0.126373 0.711243 0.155090
0.128754 0.711945 0.156158
0.130798 0.712677 0.157013
0.132751 0.713348 0.158142
0.135010 0.714081 0.158783
0.136902 0.714691 0.159973
0.139008 0.715240 0.160919
0.140991 0.715820 0.161499
0.176483 0.723724 0.181519
0.344269 0.760986 0.210022
0.535553 0.861206 0.218781
0.693237 0.888824 0.243561
0.788666 0.915192 0.272156
0.849304 0.929688 0.286102
0.888916 0.940460 0.296661
0.920197 0.947876 0.299255
0.941620 0.948090 0.285187
0.958588 0.945801 0.265991
0.965057 0.943420 0.280945
0.967896 0.941772 0.293121
0.970520 0.940186 0.302307
0.973145 0.938843 0.310394
0.975555 0.938141 0.311737
0.978180 0.937225 0.312622
0.980774 0.936584 0.313904
0.112549 0.708130 0.150848
0.114563 0.709229 0.152130
0.116699 0.710297 0.153320
0.119354 0.711487 0.153961
0.121613 0.712708 0.155090
0.124084 0.713776 0.156342
0.126068 0.714203 0.157166
0.128387 0.715179 0.158081
0.130402 0.715851 0.158875
0.132568 0.716553 0.160217
0.134644 0.717285 0.161041
0.136536 0.717743 0.161865
0.138519 0.718414 0.163025
0.140411 0.718964 0.164032
0.142487 0.719604 0.164642
0.175629 0.729462 0.182892
0.337769 0.766602 0.210815
