滤镜资源/Professional Luts Collection/Triune-Digital-Cinematic-LUTs/3D LUTs (CUBE)/ALEXA/House of Cards - Alexa.cube
#Created by Benjamin (IWLTBAP) : http://luts.iwltbap.com
#Copyright: (C) Copyright 2016 Triune Films and IWLTBAP
TITLE "Blockbuster LUTs Pack (Alexa Log-C)"
#LUT size
LUT_3D_SIZE 32
#LUT data points
0.000000 0.000000 0.000000
0.016998 0.002045 0.001709
0.035400 0.004211 0.003479
0.058746 0.006836 0.005676
0.082092 0.009766 0.008270
0.106964 0.013214 0.010986
0.133728 0.017456 0.014252
0.163239 0.022736 0.017761
0.198029 0.028351 0.021301
0.241058 0.035187 0.025421
0.294342 0.044617 0.033234
0.349670 0.055603 0.043274
0.407959 0.068451 0.055450
0.466492 0.080902 0.067871
0.524750 0.092590 0.081085
0.582092 0.107361 0.093475
0.636658 0.120636 0.107697
0.690979 0.133270 0.120331
0.741455 0.146332 0.132721
0.790924 0.159058 0.145203
0.822510 0.168732 0.153625
0.834442 0.172119 0.158173
0.840363 0.174103 0.161041
0.846252 0.175842 0.163483
0.851959 0.177429 0.165588
0.857666 0.179047 0.167511
0.863220 0.180695 0.169189
0.868744 0.182281 0.170624
0.874237 0.183777 0.171906
0.879700 0.185272 0.173096
0.885193 0.186798 0.174316
0.890717 0.188354 0.175751
0.002319 0.013672 0.001343
0.016357 0.014313 0.002380
0.034973 0.016296 0.004272
0.056213 0.018494 0.005981
0.080048 0.021149 0.008392
0.104553 0.024261 0.011017
0.132355 0.028229 0.013947
0.162231 0.032318 0.017273
0.197174 0.036224 0.020813
0.240662 0.040161 0.024902
0.293671 0.047821 0.032654
0.349091 0.058655 0.042847
0.407410 0.071381 0.054840
0.465973 0.083954 0.067383
0.524414 0.095154 0.080566
0.581573 0.110046 0.092987
0.636230 0.123291 0.107147
0.690582 0.135895 0.119720
0.741241 0.148895 0.132385
0.790588 0.161865 0.144836
0.822388 0.171448 0.153320
0.834351 0.174896 0.157898
0.840302 0.176849 0.160797
0.846100 0.178619 0.163208
0.851837 0.180237 0.165283
0.857574 0.181824 0.167175
0.863159 0.183441 0.168854
0.868683 0.184967 0.170227
0.874146 0.186493 0.171539
0.879639 0.187958 0.172729
0.885132 0.189484 0.173981
0.890656 0.191010 0.175354
0.005188 0.028503 0.002960
0.015137 0.029022 0.003723
0.034027 0.029938 0.005096
0.055176 0.032074 0.006805
0.077942 0.034729 0.008850
0.102448 0.038300 0.011322
0.130310 0.042023 0.014343
0.161469 0.045837 0.017487
0.195953 0.048920 0.020599
0.239777 0.051605 0.024292
0.292694 0.055725 0.031860
0.348541 0.063293 0.042297
0.406860 0.074341 0.054230
0.465454 0.086914 0.066925
0.524017 0.097778 0.079987
0.581116 0.112671 0.092438
0.635895 0.126007 0.106598
0.690125 0.138519 0.119110
0.740967 0.151489 0.132019
0.790253 0.164642 0.144379
0.822235 0.174194 0.152954
0.834229 0.177673 0.157562
0.840179 0.179657 0.160492
0.845978 0.181427 0.162933
0.851685 0.183014 0.164978
0.857391 0.184570 0.166809
0.863098 0.186096 0.168396
0.868591 0.187653 0.169800
0.874115 0.189148 0.171082
0.879578 0.190643 0.172333
0.885071 0.192139 0.173584
0.890594 0.193695 0.174957
0.007172 0.046875 0.004822
0.013367 0.047729 0.005890
0.031281 0.048096 0.006714
0.051666 0.048157 0.007538
0.074921 0.049957 0.009674
0.100037 0.052460 0.011963
0.128387 0.056030 0.015015
0.160370 0.059662 0.018311
0.195190 0.062103 0.020966
0.238251 0.064392 0.024078
0.291504 0.066803 0.031097
0.348053 0.074005 0.041931
0.406036 0.080902 0.053619
0.464874 0.089874 0.066315
0.523529 0.100342 0.079346
0.580719 0.115112 0.091827
0.635590 0.128754 0.105957
0.689728 0.141113 0.118469
0.740753 0.154022 0.131561
0.789886 0.167419 0.143860
0.822052 0.176880 0.152557
0.834045 0.180420 0.157196
0.839966 0.182404 0.160126
0.845795 0.184174 0.162598
0.851532 0.185791 0.164673
0.857239 0.187347 0.166382
0.862946 0.188782 0.167908
0.868500 0.190277 0.169342
0.874023 0.191833 0.170624
0.879486 0.193268 0.171844
0.885010 0.194794 0.173096
0.890472 0.196350 0.174469
0.009766 0.066681 0.007172
0.014832 0.067230 0.007965
0.029816 0.068176 0.009369
0.048920 0.068390 0.009735
0.071411 0.067139 0.010529
0.097076 0.068542 0.012726
0.125702 0.071320 0.015808
0.158722 0.075043 0.019135
0.194794 0.078156 0.022247
0.236694 0.079224 0.024811
0.290497 0.081665 0.030670
0.347534 0.087372 0.041626
0.405914 0.092468 0.053436
0.464386 0.098480 0.065704
0.522858 0.103638 0.078705
0.580261 0.117523 0.091064
0.635345 0.131317 0.105103
0.689209 0.143677 0.117645
0.740356 0.156494 0.130951
0.789398 0.170105 0.143158
0.821747 0.179596 0.152008
0.833862 0.183136 0.156708
0.839783 0.185120 0.159637
0.845642 0.186920 0.162140
0.851379 0.188568 0.164246
0.857056 0.190155 0.165955
0.862762 0.191498 0.167450
0.868408 0.192932 0.168762
0.873901 0.194397 0.170044
0.879395 0.195892 0.171265
0.884888 0.197418 0.172546
0.890381 0.198944 0.173920
0.013458 0.086792 0.010803
0.018524 0.087311 0.011597
0.028870 0.089142 0.013062
0.049652 0.090179 0.013885
0.067474 0.088806 0.013062
0.093475 0.087891 0.013824
0.124390 0.089539 0.017120
0.155609 0.092712 0.020050
0.193634 0.095062 0.023438
0.235840 0.097839 0.026398
0.289459 0.099731 0.031158
0.346100 0.103333 0.041443
0.406372 0.107880 0.053650
0.463654 0.113983 0.064941
0.521820 0.116302 0.078094
0.579620 0.122864 0.090118
0.634949 0.133728 0.103912
0.688660 0.146179 0.116730
0.739868 0.158783 0.130127
0.788849 0.172729 0.142212
0.821503 0.182098 0.151337
0.833618 0.185730 0.156006
0.839569 0.187744 0.158997
0.845428 0.189575 0.161499
0.851105 0.191254 0.163605
0.856812 0.192780 0.165314
0.862549 0.194183 0.166809
0.868195 0.195557 0.168091
0.873779 0.196991 0.169342
0.879242 0.198456 0.170502
0.884766 0.199951 0.171722
0.890259 0.201508 0.173126
0.019928 0.110992 0.015289
0.024536 0.111298 0.016052
0.030579 0.112244 0.017059
0.045715 0.115448 0.019745
0.066010 0.115479 0.019104
0.088257 0.111176 0.016693
0.120483 0.111023 0.018921
0.153076 0.112061 0.021942
0.190521 0.115295 0.024841
0.234497 0.118073 0.027954
0.287903 0.119354 0.032867
0.345520 0.122955 0.041962
0.404022 0.128448 0.053284
0.462189 0.133972 0.064270
0.521393 0.137970 0.076843
0.579346 0.141174 0.089478
0.634918 0.144958 0.102112
0.687836 0.150513 0.115387
0.739105 0.160889 0.128693
0.788055 0.174957 0.140808
0.821167 0.184357 0.150177
0.833313 0.188202 0.154907
0.839264 0.190216 0.157959
0.845093 0.192078 0.160553
0.850800 0.193787 0.162567
0.856506 0.195374 0.164307
0.862213 0.196777 0.165833
0.867889 0.198151 0.167114
0.873535 0.199432 0.168335
0.878998 0.200928 0.169525
0.884491 0.202423 0.170746
0.890045 0.203918 0.172058
0.029816 0.139435 0.020508
0.033386 0.139557 0.021454
0.038635 0.140381 0.022522
0.043762 0.141235 0.023621
0.061005 0.144318 0.026947
0.084595 0.142029 0.024841
0.113251 0.138062 0.022339
0.148071 0.136871 0.024628
0.185394 0.138794 0.026245
0.231567 0.140442 0.029205
0.285767 0.143463 0.033966
0.344635 0.146606 0.043121
0.402649 0.151306 0.053406
0.460449 0.156067 0.064087
0.519684 0.161560 0.075073
0.577423 0.167633 0.088440
0.633728 0.171234 0.100800
0.686432 0.173035 0.113434
0.737671 0.173950 0.126495
0.787201 0.180847 0.138641
0.820679 0.187622 0.148285
0.832855 0.190430 0.153168
0.838776 0.192505 0.156281
0.844635 0.194427 0.158905
0.850311 0.196198 0.161041
0.856049 0.197754 0.162811
0.861786 0.199219 0.164337
0.867432 0.200592 0.165649
0.873077 0.201904 0.166809
0.878662 0.203247 0.167999
0.884155 0.204742 0.169250
0.889709 0.206146 0.170502
0.040253 0.170624 0.026550
0.043518 0.170746 0.027405
0.047699 0.171478 0.028595
0.051880 0.172241 0.029663
0.056122 0.172943 0.030731
0.072784 0.176758 0.034088
0.103973 0.173431 0.030640
0.140076 0.170044 0.027588
0.180206 0.167786 0.029449
0.226624 0.167145 0.031128
0.282349 0.170807 0.036072
0.341217 0.174774 0.044739
0.401337 0.178497 0.054871
0.459991 0.183563 0.064758
0.517853 0.187195 0.074615
0.575195 0.194214 0.086121
0.631714 0.200165 0.098145
0.684479 0.205322 0.110809
0.736481 0.208618 0.123474
0.785950 0.210754 0.135895
0.820465 0.209076 0.145142
0.832520 0.204559 0.150421
0.838196 0.203552 0.153778
0.843842 0.204254 0.156494
0.849579 0.205048 0.158661
0.855286 0.205933 0.160461
0.860992 0.206818 0.162018
0.866699 0.207825 0.163330
0.872375 0.208893 0.164520
0.878021 0.209991 0.165680
0.883698 0.211304 0.166992
0.889282 0.212372 0.168304
0.050385 0.208282 0.032990
0.053467 0.208496 0.033752
0.057465 0.209320 0.034668
0.061584 0.210419 0.035553
0.065704 0.211426 0.036530
0.069824 0.212433 0.037506
0.089355 0.216095 0.040619
0.128967 0.211456 0.038574
0.173004 0.204742 0.034424
0.219910 0.201202 0.036194
0.275513 0.203125 0.037964
0.337677 0.207825 0.047577
0.397339 0.211761 0.056580
0.457062 0.215179 0.066376
0.516205 0.220520 0.076294
0.572784 0.224396 0.085968
0.629425 0.230682 0.096161
0.681946 0.234497 0.107544
0.733734 0.241455 0.118958
0.783386 0.247955 0.131378
0.818298 0.251129 0.140930
0.831390 0.249115 0.146667
0.837524 0.245911 0.150177
0.843231 0.243164 0.153137
0.848755 0.240906 0.155457
0.854431 0.239380 0.157318
0.860291 0.238739 0.158875
0.866150 0.238892 0.160217
0.872009 0.239441 0.161530
0.877869 0.240143 0.162781
0.883606 0.240936 0.164093
0.889313 0.241333 0.165497
0.060516 0.253387 0.042236
0.063751 0.253571 0.042877
0.068329 0.253937 0.043335
0.073059 0.254883 0.043945
0.077332 0.255676 0.044830
0.081573 0.256592 0.045746
0.085724 0.257355 0.046692
0.103210 0.262573 0.048706
0.154633 0.257751 0.045654
0.207550 0.249786 0.042633
0.266327 0.245056 0.043091
0.329376 0.246155 0.050995
0.390961 0.251709 0.059357
0.453186 0.254608 0.069397
0.513458 0.258942 0.078339
0.570923 0.263947 0.088593
0.625854 0.269440 0.097565
0.678101 0.274109 0.106537
0.730286 0.277649 0.115814
0.779785 0.283997 0.126221
0.815826 0.288605 0.134827
0.829803 0.288971 0.140350
0.835846 0.288361 0.144104
0.841339 0.287933 0.147186
0.846863 0.287811 0.149719
0.852417 0.288208 0.151672
0.857941 0.289001 0.153046
0.863525 0.290039 0.154175
0.869354 0.290894 0.155365
0.875305 0.291687 0.156555
0.881317 0.292419 0.157745
0.887360 0.292969 0.159241
0.072845 0.303497 0.050934
0.075836 0.303741 0.051666
0.079285 0.303772 0.052490
0.083130 0.304474 0.053497
0.087006 0.305145 0.054504
0.090973 0.305817 0.055450
0.094727 0.306427 0.056519
0.098816 0.307251 0.057251
0.121796 0.312927 0.060394
0.187683 0.306396 0.054108
0.253021 0.296509 0.050537
0.320251 0.292297 0.056824
0.382812 0.293213 0.062469
0.446869 0.297607 0.072388
0.507080 0.301331 0.081360
0.565277 0.305969 0.090851
0.622467 0.310730 0.099976
0.675873 0.316010 0.109131
0.726685 0.320862 0.117126
0.775024 0.326050 0.125275
0.813568 0.329010 0.131470
0.827759 0.328949 0.134460
0.833466 0.328278 0.136810
0.839325 0.328308 0.139374
0.845093 0.328583 0.141541
0.850830 0.329163 0.143341
0.856476 0.330048 0.144867
0.862152 0.331055 0.146210
0.867950 0.331940 0.147491
0.873749 0.332916 0.148743
0.879517 0.333801 0.149963
0.885315 0.334656 0.151306
0.087952 0.354523 0.063110
0.090759 0.354797 0.063660
0.093842 0.355011 0.064087
0.097321 0.355957 0.065033
0.100922 0.356934 0.065918
0.104370 0.357880 0.066864
0.107880 0.358826 0.067719
0.111572 0.359711 0.068359
0.115234 0.360474 0.068878
0.154755 0.368408 0.074127
0.232880 0.353943 0.063263
0.302826 0.346588 0.062347
0.372437 0.340729 0.068329
0.438324 0.341339 0.076752
0.500488 0.346008 0.085266
0.558716 0.350159 0.093903
0.616699 0.354950 0.102875
0.671265 0.360657 0.111755
0.722992 0.365448 0.120239
0.772278 0.369934 0.128510
0.813477 0.374115 0.135254
0.828400 0.374359 0.137146
0.833710 0.373413 0.137665
0.839081 0.372894 0.138428
0.844543 0.372650 0.139313
0.850159 0.372833 0.140259
0.855835 0.373230 0.141357
0.861450 0.373901 0.142517
0.867096 0.374664 0.143646
0.872681 0.375397 0.144653
0.878235 0.376068 0.145538
0.883759 0.376648 0.146393
0.101715 0.406189 0.076324
0.104431 0.406494 0.076782
0.107300 0.406738 0.077026
0.110596 0.407471 0.077484
0.114014 0.408539 0.078033
0.117401 0.409485 0.078613
0.120789 0.410461 0.079224
0.124481 0.411255 0.079865
0.128387 0.411865 0.080475
0.132294 0.412262 0.080963
0.206360 0.427429 0.089386
0.285278 0.402954 0.073700
0.357819 0.394470 0.074677
0.425659 0.390594 0.080994
0.489838 0.390320 0.088287
0.550934 0.394623 0.097443
0.610352 0.399567 0.106323
0.664490 0.404297 0.115082
0.718262 0.408630 0.123016
0.768158 0.413910 0.131348
0.811462 0.417908 0.138184
0.829041 0.418732 0.140503
0.834198 0.418060 0.141113
0.839386 0.417755 0.141754
0.844543 0.417664 0.142395
0.850006 0.417755 0.143311
0.855835 0.417938 0.144470
0.861603 0.418457 0.145630
0.867462 0.419067 0.146820
0.873260 0.419739 0.147949
0.879120 0.420319 0.149109
0.884888 0.420837 0.150269
0.115479 0.455963 0.089172
0.118317 0.456299 0.089630
0.121094 0.456635 0.089935
0.124390 0.457275 0.090271
0.128113 0.458374 0.090820
0.131744 0.459442 0.091370
0.135406 0.460480 0.091919
0.139160 0.461365 0.092377
0.142944 0.462128 0.092743
0.146667 0.462738 0.093048
0.158661 0.464783 0.094482
0.257416 0.468292 0.094940
0.339233 0.450867 0.086365
0.411957 0.442963 0.088257
0.478455 0.439148 0.094666
0.541534 0.438751 0.101776
0.602325 0.442688 0.110748
0.657196 0.447357 0.118286
0.710297 0.453003 0.126251
0.761993 0.456085 0.133575
0.806915 0.460297 0.140625
0.828705 0.461639 0.144348
0.834717 0.461273 0.145294
0.840118 0.461090 0.146118
0.845398 0.461182 0.146912
0.850983 0.461395 0.147766
0.856812 0.461609 0.148712
0.862671 0.461975 0.149719
0.868408 0.462677 0.150604
0.874115 0.463470 0.151489
0.879730 0.464294 0.152466
0.885345 0.465179 0.153412
0.131470 0.507812 0.101166
0.134277 0.508087 0.101624
0.137207 0.508240 0.101990
0.140656 0.508057 0.102264
0.144409 0.508636 0.102875
0.148132 0.509277 0.103485
0.151398 0.509949 0.104095
0.154968 0.510681 0.104584
0.158844 0.511505 0.104950
0.162628 0.512238 0.105316
0.166443 0.512878 0.105652
0.214722 0.522247 0.112061
0.317108 0.509827 0.101868
0.395905 0.497681 0.098846
0.464661 0.491089 0.101288
0.529236 0.487640 0.106567
0.590576 0.486420 0.114380
0.648590 0.490540 0.121979
0.703156 0.494751 0.130219
0.755798 0.498444 0.137787
0.800629 0.502563 0.144440
0.827026 0.504456 0.148895
0.834930 0.504272 0.149994
0.840210 0.504059 0.150726
0.845490 0.504089 0.151520
0.850983 0.504150 0.152435
0.856720 0.504272 0.153473
0.862549 0.504761 0.154541
0.868378 0.505310 0.155579
0.874115 0.506042 0.156525
0.879913 0.506775 0.157471
0.885651 0.507507 0.158417
0.150604 0.555023 0.113037
0.153320 0.555420 0.113464
0.156036 0.555756 0.113861
0.158936 0.555908 0.114288
0.162445 0.556763 0.115234
0.166016 0.557678 0.116150
0.169556 0.558594 0.117126
0.172760 0.559418 0.117798
0.175659 0.560089 0.118225
0.178864 0.560760 0.118713
0.182495 0.561249 0.119263
0.186096 0.561615 0.119751
0.290894 0.581146 0.131714
0.375519 0.554413 0.112305
0.449005 0.543671 0.111664
0.516968 0.538269 0.114899
0.579254 0.534576 0.120239
0.638306 0.533691 0.126770
0.695465 0.536957 0.134155
0.747498 0.540741 0.141876
0.793854 0.544861 0.148621
0.826111 0.546783 0.153198
0.836334 0.547058 0.154663
0.841858 0.546936 0.155457
0.847443 0.546997 0.156464
0.852997 0.547089 0.157410
0.858521 0.547272 0.158356
0.864044 0.547577 0.159302
0.869629 0.547913 0.160309
0.875153 0.548340 0.161285
0.880920 0.548950 0.162140
0.886688 0.549469 0.163025
0.169617 0.601440 0.127808
0.172302 0.601776 0.128204
0.174988 0.602112 0.128601
0.177368 0.602051 0.128571
0.180359 0.602631 0.128784
0.183533 0.603516 0.129181
0.186676 0.604370 0.129517
0.189880 0.605042 0.129913
0.193115 0.605621 0.130371
0.196320 0.606110 0.130798
0.199493 0.606598 0.131226
0.202606 0.606903 0.131561
0.234680 0.613922 0.135590
0.352844 0.614594 0.133575
0.432251 0.595001 0.124054
0.502472 0.587372 0.123718
0.566010 0.582275 0.127930
0.627533 0.579681 0.132935
0.684631 0.577454 0.139404
0.738403 0.581268 0.146027
0.785797 0.583832 0.153015
0.824280 0.586731 0.158478
0.838470 0.587585 0.160675
0.843811 0.587616 0.161407
0.848907 0.587891 0.162048
0.854218 0.588196 0.162811
0.859711 0.588531 0.163605
0.865112 0.589111 0.164398
0.870514 0.589630 0.165192
0.875916 0.590210 0.165985
0.881561 0.590698 0.166840
0.887238 0.591095 0.167694
0.183685 0.648132 0.138977
0.186340 0.648285 0.139313
0.189087 0.648438 0.139679
0.192078 0.648071 0.140045
0.195312 0.647949 0.140564
0.198761 0.648315 0.141357
0.202179 0.648651 0.142090
0.205688 0.649292 0.142609
0.209290 0.650177 0.142975
0.212891 0.651001 0.143311
0.216461 0.651642 0.143585
0.220001 0.652344 0.143860
0.223022 0.652893 0.144012
0.315277 0.671722 0.156250
0.409912 0.649384 0.140594
0.485474 0.637512 0.136017
0.551697 0.629303 0.136841
0.616211 0.625824 0.140991
0.674530 0.622864 0.145538
0.729370 0.620605 0.151245
0.776764 0.623383 0.157990
0.816620 0.625824 0.163269
0.838898 0.627350 0.166626
0.844940 0.627319 0.167542
0.850281 0.627258 0.168213
0.855652 0.627411 0.168793
0.860962 0.627960 0.169373
0.866272 0.628571 0.170013
0.871613 0.629242 0.170654
0.877167 0.629608 0.171539
0.882812 0.630035 0.172424
0.888519 0.630493 0.173187
0.198669 0.690552 0.152039
0.201416 0.690826 0.152344
0.204224 0.691132 0.152679
0.207275 0.691162 0.152740
0.210663 0.691284 0.152802
0.214508 0.691956 0.153137
0.218292 0.692719 0.153503
0.221649 0.693390 0.153931
0.224518 0.693970 0.154297
0.227386 0.694550 0.154724
0.230774 0.695129 0.155151
0.234253 0.695648 0.155579
0.237396 0.696075 0.155945
0.265808 0.703217 0.159027
0.392090 0.727020 0.176300
0.466736 0.687714 0.149719
0.537079 0.676514 0.147247
0.600586 0.671082 0.148346
0.662323 0.667206 0.152527
0.717682 0.664581 0.157898
0.767029 0.662415 0.162415
0.806915 0.663422 0.166809
0.837280 0.665527 0.171112
0.846344 0.665955 0.172485
0.851685 0.666168 0.173309
0.856964 0.666473 0.174103
0.862335 0.666809 0.174957
0.867737 0.667236 0.175842
0.873169 0.667755 0.176697
0.878571 0.668274 0.177582
0.883942 0.668793 0.178497
0.889587 0.669159 0.179382
0.213257 0.729919 0.161163
0.215912 0.730286 0.161499
0.218597 0.730652 0.161835
0.221375 0.730713 0.162170
0.224213 0.730560 0.162537
0.227509 0.731293 0.163269
0.230774 0.732025 0.164001
0.233948 0.732635 0.164642
0.237000 0.733215 0.165100
0.240021 0.733765 0.165527
0.243011 0.734161 0.166016
0.246002 0.734619 0.166412
0.248962 0.735016 0.166840
0.252167 0.735382 0.167358
0.342682 0.754150 0.179626
0.446899 0.736481 0.166107
0.521698 0.719879 0.158112
0.587494 0.712067 0.157166
0.650879 0.705719 0.158875
0.708466 0.702393 0.164124
0.758545 0.700287 0.168854
0.798798 0.699463 0.172455
0.829712 0.699707 0.176178
0.847076 0.700623 0.178467
0.852509 0.700714 0.179169
0.858002 0.701019 0.179932
0.863464 0.701263 0.180634
0.868958 0.701477 0.181335
0.874420 0.701691 0.182037
0.879944 0.701996 0.182739
0.885406 0.702301 0.183441
0.890930 0.702515 0.184204
0.223938 0.758942 0.170624
0.226593 0.759277 0.170959
0.229279 0.759674 0.171326
0.231720 0.759949 0.171478
0.233978 0.760040 0.171448
0.236572 0.760742 0.171753
0.239258 0.761536 0.172089
0.242310 0.762268 0.172485
0.245697 0.762970 0.172974
0.249115 0.763611 0.173431
0.252441 0.764252 0.173920
0.255585 0.764679 0.174347
0.258881 0.765076 0.174805
0.262604 0.765686 0.175446
0.310028 0.776367 0.182709
0.435883 0.793213 0.198700
0.506378 0.758759 0.169739
0.576416 0.747528 0.166107
0.641022 0.739868 0.165680
0.699829 0.736298 0.169952
0.750854 0.734131 0.174438
0.791626 0.731171 0.178619
0.824066 0.730438 0.181213
0.846741 0.729279 0.183228
0.853790 0.728699 0.183868
0.858978 0.728271 0.184387
0.864594 0.728455 0.185211
0.870209 0.728912 0.186066
0.875854 0.729401 0.186920
0.881470 0.729950 0.187805
0.887146 0.730408 0.188690
0.892731 0.730865 0.189545
0.228088 0.770752 0.173706
0.230621 0.770966 0.174042
0.233154 0.771179 0.174377
0.235535 0.771271 0.174622
0.237732 0.771118 0.174805
0.240295 0.771759 0.175079
0.242950 0.772552 0.175415
0.246033 0.773315 0.175842
0.249420 0.773987 0.176300
0.252838 0.774689 0.176758
0.256226 0.775391 0.177246
0.259674 0.776123 0.177734
0.263062 0.776825 0.178162
0.266510 0.777710 0.178650
0.292511 0.784424 0.183228
0.405334 0.805573 0.206909
0.491760 0.777069 0.176178
0.566132 0.764282 0.170898
0.631775 0.755981 0.169983
0.692230 0.751953 0.172699
0.743988 0.750153 0.176880
0.783997 0.748199 0.180328
0.817505 0.747284 0.183838
0.843231 0.746735 0.185974
0.854767 0.746246 0.187073
0.859863 0.745941 0.187531
0.865417 0.745667 0.188324
0.871002 0.745392 0.189178
0.876587 0.745148 0.190002
0.882172 0.745148 0.190887
0.887817 0.745667 0.191742
0.893463 0.746155 0.192596
0.229950 0.775909 0.175079
0.232483 0.776154 0.175385
0.234985 0.776337 0.175690
0.237366 0.776428 0.175964
0.239594 0.776245 0.176178
0.242249 0.776764 0.176727
0.244904 0.777557 0.177155
0.247986 0.778290 0.177551
0.251373 0.778992 0.178040
0.254791 0.779694 0.178497
0.258118 0.780457 0.178955
0.261444 0.781311 0.179504
0.264740 0.782196 0.179932
0.268127 0.783173 0.180389
0.271729 0.783966 0.180969
0.365417 0.803680 0.198883
0.479828 0.786102 0.181763
0.555786 0.771606 0.172913
0.623016 0.762878 0.171600
0.685059 0.758148 0.173248
0.737152 0.756317 0.177551
0.778442 0.754913 0.180908
0.811768 0.753876 0.184479
0.838074 0.753448 0.186829
0.854309 0.753174 0.188232
0.860260 0.752991 0.188782
0.865753 0.752716 0.189606
0.871307 0.752472 0.190430
0.876923 0.752258 0.191284
0.882507 0.752014 0.192139
0.888092 0.751770 0.192993
0.893738 0.752289 0.193848
0.231781 0.781036 0.176422
0.234283 0.781250 0.176727
0.236847 0.781494 0.177002
0.239227 0.781525 0.177277
0.241455 0.781403 0.177551
0.244080 0.781891 0.178070
0.246796 0.782562 0.178680
0.249847 0.783386 0.179321
0.253113 0.784241 0.179810
0.256409 0.785095 0.180267
0.259705 0.785919 0.180725
0.263031 0.786804 0.181213
0.266296 0.787628 0.181702
0.269684 0.788605 0.182129
0.273315 0.789368 0.182739
0.346222 0.805695 0.195801
0.472992 0.796356 0.187927
0.547455 0.778656 0.175018
0.617096 0.769409 0.173370
0.679779 0.763672 0.174377
0.732025 0.761749 0.178223
0.774811 0.760376 0.181763
0.807343 0.759460 0.184845
0.834167 0.758881 0.187531
0.853455 0.758545 0.189148
0.860535 0.758392 0.189789
0.865997 0.758179 0.190552
0.871582 0.757904 0.191345
0.877197 0.757721 0.192261
0.882782 0.757599 0.193146
0.888428 0.757507 0.194061
0.894012 0.757385 0.194916
0.233826 0.786285 0.177856
0.236328 0.786560 0.178192
0.238861 0.786743 0.178497
0.241272 0.786835 0.178802
0.243500 0.786682 0.179016
0.246185 0.787201 0.179596
0.249084 0.787933 0.180328
0.251923 0.788788 0.180939
0.254730 0.789642 0.181519
0.258026 0.790527 0.182037
0.261292 0.791351 0.182526
0.264587 0.792206 0.183014
0.267883 0.793091 0.183502
0.271240 0.794037 0.183929
0.274872 0.794830 0.184540
0.343109 0.809540 0.197906
0.466553 0.805756 0.198669
0.542725 0.785156 0.178925
0.614166 0.776581 0.175446
0.677277 0.770355 0.176544
0.729645 0.768707 0.179749
0.773834 0.767914 0.183502
0.806671 0.767761 0.187073
0.834045 0.767975 0.190552
0.854828 0.767822 0.192841
0.863953 0.767883 0.193848
0.869232 0.767944 0.194458
0.874451 0.767914 0.195099
0.879730 0.767944 0.195770
0.885040 0.767944 0.196411
0.890381 0.768036 0.197113
0.895660 0.768036 0.197754
0.236084 0.791687 0.179504
0.238617 0.791870 0.179810
0.241150 0.792145 0.180115
0.243561 0.792206 0.180389
0.245758 0.792053 0.180634
0.248444 0.792542 0.181213
0.251343 0.793304 0.181946
0.254181 0.794128 0.182617
0.257019 0.795044 0.183167
0.259796 0.795929 0.183746
0.262848 0.796814 0.184296
0.266174 0.797638 0.184784
0.269470 0.798492 0.185242
0.272827 0.799469 0.185699
0.276428 0.800262 0.186249
0.341461 0.813477 0.200409
0.465485 0.814850 0.209961
0.542450 0.792725 0.182648
0.613159 0.783508 0.178101
0.677582 0.778137 0.179230
0.729767 0.776825 0.182037
0.773834 0.776459 0.185669
0.808136 0.776001 0.189026
0.835327 0.776520 0.193085
0.856445 0.777283 0.196716
0.867249 0.777405 0.198029
0.872925 0.777405 0.198700
0.878326 0.777466 0.199371
0.883728 0.777496 0.200012
0.889099 0.777527 0.200684
0.894562 0.777618 0.201385
0.899963 0.777679 0.202026
0.237854 0.796906 0.181213
0.240662 0.797180 0.181488
0.243439 0.797485 0.181763
0.245819 0.797577 0.182037
0.248047 0.797455 0.182281
0.250702 0.797882 0.182831
0.253601 0.798645 0.183563
0.256439 0.799500 0.184235
0.259216 0.800354 0.184814
0.262054 0.801300 0.185394
0.264862 0.802185 0.185974
0.267731 0.803070 0.186523
0.271027 0.803955 0.187012
0.274414 0.804932 0.187439
0.278015 0.805695 0.188080
0.341003 0.817413 0.203369
0.465607 0.822052 0.221008
