滤镜资源/Professional Luts Collection/Triune-Digital-Cinematic-LUTs/3D LUTs (CUBE)/ALEXA/House of Cards - Alexa.cube
#Created by Benjamin (IWLTBAP) : http://luts.iwltbap.com
#Copyright: (C) Copyright 2016 Triune Films and IWLTBAP
TITLE "Blockbuster LUTs Pack (Alexa Log-C)"
#LUT size
LUT_3D_SIZE 8
#LUT data points
DOMAIN_MIN 0.000000 0.000000 0.000000
DOMAIN_MAX 0.903226 0.903226 0.903226
0.000000 0.000000 0.000000
0.082092 0.009766 0.008270
0.198029 0.028351 0.021301
0.407959 0.068451 0.055450
0.636658 0.120636 0.107697
0.822510 0.168732 0.153625
0.851959 0.177429 0.165588
0.874237 0.183777 0.171906
0.009766 0.066681 0.007172
0.071411 0.067139 0.010529
0.194794 0.078156 0.022247
0.405914 0.092468 0.053436
0.635345 0.131317 0.105103
0.821747 0.179596 0.152008
0.851379 0.188568 0.164246
0.873901 0.194397 0.170044
0.040253 0.170624 0.026550
0.056122 0.172943 0.030731
0.180206 0.167786 0.029449
0.401337 0.178497 0.054871
0.631714 0.200165 0.098145
0.820465 0.209076 0.145142
0.849579 0.205048 0.158661
0.872375 0.208893 0.164520
0.087952 0.354523 0.063110
0.100922 0.356934 0.065918
0.115234 0.360474 0.068878
0.372437 0.340729 0.068329
0.616699 0.354950 0.102875
0.813477 0.374115 0.135254
0.844543 0.372650 0.139313
0.867096 0.374664 0.143646
0.150604 0.555023 0.113037
0.162445 0.556763 0.115234
0.175659 0.560089 0.118225
0.290894 0.581146 0.131714
0.579254 0.534576 0.120239
0.793854 0.544861 0.148621
0.847443 0.546997 0.156464
0.869629 0.547913 0.160309
0.213257 0.729919 0.161163
0.224213 0.730560 0.162537
0.237000 0.733215 0.165100
0.248962 0.735016 0.166840
0.521698 0.719879 0.158112
0.758545 0.700287 0.168854
0.852509 0.700714 0.179169
0.874420 0.701691 0.182037
0.231781 0.781036 0.176422
0.241455 0.781403 0.177551
0.253113 0.784241 0.179810
0.266296 0.787628 0.181702
0.472992 0.796356 0.187927
0.732025 0.761749 0.178223
0.853455 0.758545 0.189148
0.877197 0.757721 0.192261
0.239258 0.802032 0.183044
0.250153 0.802795 0.183899
0.261414 0.805725 0.186432
0.272675 0.809326 0.188751
0.467316 0.830078 0.232452
0.734009 0.791687 0.188477
0.860046 0.796326 0.203796
0.889832 0.798309 0.207672
0.006042 0.003601 0.055359
0.066315 0.011108 0.047180
0.187103 0.032349 0.062805
0.405365 0.072540 0.093536
0.643860 0.133240 0.143372
0.826874 0.178467 0.183075
0.855927 0.186890 0.195251
0.878693 0.193420 0.200409
0.015076 0.054749 0.047943
0.082520 0.076263 0.067352
0.201141 0.086914 0.073730
0.412781 0.100220 0.098022
0.643005 0.143646 0.141113
0.826416 0.189819 0.181396
0.855377 0.198242 0.193573
0.878479 0.204742 0.198883
0.039734 0.163696 0.056061
0.058380 0.172333 0.061615
0.184052 0.176819 0.062408
0.405823 0.191376 0.087097
0.638306 0.212738 0.132751
0.825745 0.215546 0.176361
0.854828 0.213531 0.188141
0.877686 0.218079 0.193787
0.086334 0.351746 0.075104
0.103516 0.359955 0.079742
0.116394 0.361725 0.080048
0.372375 0.341614 0.077911
0.617554 0.357086 0.112823
0.814636 0.378357 0.147430
0.847748 0.380646 0.159393
0.870667 0.384186 0.165558
0.150269 0.553619 0.124573
0.164490 0.559509 0.127258
0.176758 0.561340 0.128876
0.291199 0.582458 0.142426
0.579529 0.535675 0.130249
0.794006 0.545807 0.158508
0.847687 0.547943 0.166290
0.869873 0.548859 0.170166
0.212585 0.728241 0.171295
0.226166 0.733246 0.174225
0.238129 0.734863 0.175812
0.250031 0.736633 0.177521
0.522064 0.721191 0.168457
0.758789 0.701630 0.178955
0.852814 0.701874 0.189087
0.874756 0.702911 0.192017
0.231140 0.779846 0.186279
0.243073 0.783661 0.188629
0.254242 0.786163 0.190521
0.267426 0.789551 0.192505
0.473358 0.798340 0.199738
0.732147 0.763489 0.188385
0.854889 0.761810 0.200378
0.877838 0.761719 0.203033
0.238739 0.801300 0.192444
0.251984 0.805023 0.195007
0.262817 0.807587 0.197144
0.274048 0.811218 0.199463
0.468231 0.831726 0.245361
0.734863 0.794098 0.200378
0.861633 0.800201 0.217224
0.891693 0.802551 0.221436
0.018280 0.010315 0.149994
0.060059 0.012421 0.137939
0.163330 0.029236 0.126038
0.378571 0.069794 0.149261
0.619141 0.121521 0.187164
0.810089 0.166260 0.223450
0.837616 0.175049 0.231750
0.861237 0.181427 0.236481
0.026764 0.044739 0.158203
0.062103 0.044891 0.150513
0.167053 0.055084 0.134277
0.383789 0.088654 0.154877
0.624176 0.139099 0.191162
0.815491 0.183990 0.227203
0.842682 0.191956 0.235046
0.865814 0.198425 0.239990
0.040283 0.138702 0.130035
0.061584 0.145508 0.136047
0.202209 0.198578 0.179810
0.419952 0.214203 0.189606
0.648804 0.226929 0.215027
0.824371 0.212891 0.231995
0.848938 0.209473 0.237091
0.871826 0.215576 0.241730
0.090240 0.338684 0.134521
0.103973 0.344666 0.137421
0.122375 0.355621 0.144257
0.386719 0.374237 0.156555
0.628784 0.391205 0.185577
0.827179 0.411438 0.220093
0.859711 0.411133 0.230713
0.882782 0.413971 0.234955
0.149292 0.549591 0.136780
0.163208 0.556000 0.139221
0.181427 0.566467 0.144470
0.289429 0.582184 0.152557
0.580139 0.538849 0.141296
0.795319 0.548859 0.169678
0.849396 0.552094 0.177734
0.871490 0.553253 0.181427
0.210388 0.723785 0.181580
0.223907 0.729248 0.184662
0.242920 0.740234 0.191406
0.253326 0.740021 0.191223
0.521667 0.721771 0.178589
0.758942 0.702667 0.189026
0.853729 0.703430 0.199280
0.875458 0.704681 0.202301
0.229553 0.777374 0.196228
0.242004 0.781708 0.198761
0.257660 0.792267 0.205719
0.269653 0.794128 0.206207
0.472565 0.800201 0.212494
0.732819 0.766479 0.198975
0.856628 0.765503 0.211975
0.879730 0.765594 0.214722
0.237030 0.798889 0.202484
0.250061 0.803192 0.205170
0.266632 0.813721 0.212219
0.276306 0.815216 0.212860
0.468994 0.833984 0.260376
0.735382 0.796509 0.212341
0.862671 0.804077 0.230499
0.893494 0.806274 0.236023
0.036835 0.014282 0.320648
0.045532 0.013763 0.317322
0.139374 0.025085 0.295715
0.334625 0.061493 0.268524
0.576813 0.113831 0.293579
0.772797 0.161285 0.320679
0.801239 0.169189 0.327301
0.825043 0.175201 0.331146
0.040894 0.038513 0.326324
0.053223 0.038300 0.323151
0.143677 0.047638 0.304291
0.339325 0.082062 0.275391
0.581757 0.131500 0.299164
0.777649 0.178986 0.326202
0.806610 0.186554 0.332123
0.830383 0.192993 0.335968
0.051056 0.076508 0.339813
0.062927 0.075073 0.336426
0.138092 0.077118 0.316803
0.339630 0.101685 0.280945
0.584808 0.149902 0.304199
0.782349 0.196869 0.330811
0.812256 0.204132 0.336273
0.836182 0.210144 0.339874
0.078033 0.285980 0.278748
0.097260 0.292938 0.283752
0.119263 0.300171 0.290833
0.413910 0.416473 0.394043
0.651337 0.433197 0.401398
0.851196 0.447174 0.414948
0.883209 0.445190 0.419739
0.905609 0.445831 0.422211
0.137024 0.509827 0.285370
0.151947 0.514893 0.289062
0.168854 0.522064 0.295074
0.302490 0.584717 0.351471
0.608612 0.603729 0.371338
0.824738 0.616150 0.381042
0.881104 0.619324 0.387939
0.903137 0.621490 0.389923
0.208069 0.703003 0.282135
0.221741 0.708862 0.285736
0.235413 0.714661 0.289551
0.251709 0.723785 0.298279
0.547119 0.772797 0.337585
0.781403 0.757660 0.327911
0.877625 0.756439 0.333771
0.897827 0.759277 0.337891
0.226257 0.771606 0.238007
0.239624 0.777008 0.241089
0.255585 0.784851 0.246368
0.274017 0.795563 0.255249
0.472839 0.808990 0.265625
0.742493 0.789337 0.261139
0.865326 0.790741 0.278534
0.890594 0.790497 0.281342
0.232513 0.792297 0.240601
0.245941 0.797852 0.243896
0.261292 0.804504 0.248627
0.277832 0.812042 0.255707
0.470947 0.845917 0.322571
0.737549 0.807495 0.261749
0.867920 0.816864 0.287354
0.901154 0.821777 0.295837
0.048248 0.038300 0.523102
0.057129 0.037476 0.519379
0.084320 0.035156 0.508606
0.297089 0.056274 0.468933
0.526459 0.102478 0.437256
0.731445 0.151947 0.454346
0.762573 0.159119 0.457947
0.786224 0.164917 0.460419
0.052368 0.054047 0.526825
0.061340 0.053406 0.523132
0.089142 0.052582 0.517059
0.301819 0.076904 0.476868
0.531525 0.122253 0.443665
0.736328 0.170197 0.461304
0.767120 0.177612 0.464752
0.791321 0.183411 0.467346
0.056976 0.072784 0.531799
0.068848 0.072723 0.529266
0.081665 0.072510 0.527100
0.301697 0.097351 0.485077
0.534515 0.141815 0.449005
0.740906 0.188782 0.467041
0.772552 0.196198 0.471191
0.796204 0.202148 0.473999
0.110809 0.271271 0.543304
0.125183 0.274658 0.546448
0.139893 0.278442 0.549713
0.362610 0.332581 0.568207
0.582031 0.344849 0.523926
0.780548 0.353973 0.528015
0.811096 0.334808 0.522614
0.832489 0.333954 0.521942
0.119019 0.451233 0.454407
0.137482 0.459137 0.460663
0.155884 0.467102 0.467133
0.216187 0.489380 0.486481
0.632111 0.641937 0.623108
0.847229 0.655121 0.626892
0.907501 0.659576 0.631378
0.928284 0.661530 0.631744
0.178009 0.649170 0.457092
0.192413 0.654175 0.460480
0.206512 0.659424 0.463837
0.226105 0.668915 0.472595
0.571869 0.797394 0.603058
0.807709 0.809296 0.606842
0.907440 0.811829 0.606354
0.927979 0.813782 0.607513
0.209076 0.727783 0.459473
0.223206 0.733582 0.463043
0.237396 0.739380 0.466736
0.254822 0.749176 0.475525
0.498077 0.841278 0.571594
0.785004 0.878998 0.600739
0.899017 0.874298 0.593750
0.927002 0.874420 0.592102
0.217621 0.750214 0.461487
0.233124 0.756226 0.467896
0.247559 0.762177 0.474701
0.263489 0.768463 0.480988
0.462158 0.837921 0.555145
0.776520 0.887695 0.596130
0.892731 0.886169 0.596313
0.931580 0.893524 0.614594
0.073883 0.060120 0.696503
0.083344 0.059296 0.692841
0.092072 0.058502 0.689117
0.260315 0.060150 0.658844
0.489319 0.095032 0.613373
0.693542 0.138092 0.592682
0.727783 0.148376 0.595123
0.751434 0.154480 0.596832
0.074005 0.070648 0.700012
0.083282 0.070007 0.696411
0.095581 0.069458 0.692902
0.268036 0.079590 0.664276
0.495056 0.114807 0.620239
0.698334 0.157288 0.598785
0.732086 0.167145 0.601593
0.755707 0.172943 0.603241
0.077789 0.084869 0.703094
0.090942 0.084503 0.700470
0.103821 0.084198 0.698334
0.271210 0.099213 0.669708
0.498657 0.134552 0.626862
0.702148 0.176178 0.605072
0.736603 0.185913 0.607727
0.760071 0.191864 0.609253
0.087006 0.106049 0.707611
0.097229 0.105530 0.705505
0.107849 0.105011 0.703400
0.243164 0.113129 0.677917
0.488953 0.153961 0.633606
0.697784 0.194336 0.607971
0.742249 0.205780 0.611664
0.765472 0.211945 0.613129
0.171631 0.462799 0.694153
0.186523 0.466278 0.697052
0.201355 0.469543 0.700165
0.216492 0.471863 0.704071
0.597900 0.592712 0.789459
0.796448 0.604065 0.751373
0.864685 0.608948 0.753204
0.886169 0.611023 0.754578
0.161285 0.601685 0.613800
0.181610 0.608582 0.619354
0.201111 0.615143 0.624847
0.220245 0.621582 0.630707
0.538757 0.735138 0.727356
0.827820 0.837860 0.821503
0.929993 0.842377 0.820618
0.950958 0.844330 0.821533
0.188354 0.704834 0.611786
0.202393 0.710632 0.614502
0.216492 0.716522 0.617249
0.233765 0.725677 0.623199
0.444244 0.802399 0.695251
0.809937 0.923157 0.817902
0.918457 0.924164 0.815277
0.951996 0.924286 0.813568
0.198120 0.727844 0.613953
0.213776 0.734650 0.619568
0.230621 0.740814 0.624969
0.248260 0.746429 0.630981
0.384918 0.795227 0.677185
0.805969 0.934906 0.816162
0.912445 0.936005 0.813141
0.951630 0.936127 0.810669
0.090271 0.071350 0.785278
0.099213 0.070587 0.781830
0.108521 0.069855 0.778503
0.247375 0.065979 0.748627
0.472839 0.097198 0.709412
0.671967 0.134186 0.670502
0.708313 0.142609 0.664490
0.731720 0.148560 0.666138
0.091339 0.081451 0.788086
0.100067 0.080750 0.785004
0.108917 0.080048 0.781799
0.254913 0.081543 0.754486
0.478394 0.115723 0.715271
0.677094 0.152588 0.676819
0.713837 0.161011 0.670380
0.737000 0.166870 0.671997
0.094299 0.094574 0.791779
0.104492 0.094147 0.788422
0.114502 0.093811 0.786316
0.258240 0.098267 0.760742
0.481903 0.134613 0.721649
0.680908 0.171326 0.683197
0.718750 0.179901 0.676483
0.742554 0.186279 0.678162
0.102386 0.112274 0.797272
0.112793 0.112091 0.795166
0.123138 0.111877 0.793152
0.222382 0.112823 0.770905
0.471741 0.152527 0.732239
0.676086 0.189301 0.689545
0.723450 0.199951 0.682526
0.748199 0.206482 0.684204
0.187500 0.449524 0.814789
0.201538 0.452698 0.817108
0.215393 0.455719 0.819733
0.229492 0.457642 0.822937
0.572235 0.548126 0.867401
0.764435 0.555237 0.819611
0.830017 0.556763 0.806580
0.852875 0.558594 0.807159
0.206818 0.619202 0.747742
0.221069 0.622589 0.750793
0.235535 0.625916 0.753784
0.250732 0.629242 0.757568
0.526794 0.720123 0.825348
0.816315 0.817810 0.904022
0.920532 0.832642 0.900146
0.941498 0.834198 0.901001
0.188873 0.681854 0.699554
0.205750 0.688721 0.705444
0.224731 0.695068 0.710114
0.244598 0.701080 0.715240
0.396515 0.757660 0.761902
0.800659 0.897614 0.883728
0.928741 0.941681 0.924438
0.964783 0.940704 0.921051
0.196289 0.713928 0.696960
0.211243 0.720856 0.702576
0.229370 0.727631 0.708496
0.248718 0.734375 0.714355
0.380829 0.783936 0.759613
0.806335 0.925873 0.888275
0.924042 0.962128 0.921906
0.961517 0.961700 0.919312
0.096649 0.074127 0.806793
0.104340 0.073364 0.803528
0.111542 0.072571 0.800385
0.243896 0.068298 0.771881
0.468842 0.096619 0.733368
0.668945 0.132660 0.692139
0.705658 0.141479 0.687103
0.727692 0.147583 0.683807
0.096375 0.084412 0.810699
0.105255 0.083679 0.807373
0.114594 0.082977 0.804169
0.251190 0.082428 0.777191
0.474091 0.116364 0.739807
0.673431 0.151581 0.698364
0.710785 0.160492 0.692841
0.732849 0.166321 0.689606
0.098694 0.096558 0.813751
0.108429 0.096466 0.811035
0.118164 0.096039 0.808624
0.254120 0.098450 0.782684
0.477356 0.135193 0.746552
0.677002 0.170654 0.704865
0.716156 0.179443 0.698822
0.737579 0.184753 0.695374
0.106018 0.113800 0.819855
0.115845 0.113953 0.818329
0.126251 0.113770 0.816315
0.217529 0.112488 0.794281
0.467255 0.152222 0.757629
0.672516 0.189453 0.713135
0.721283 0.199280 0.704987
0.742035 0.204010 0.701508
0.191132 0.444611 0.847656
0.204224 0.447845 0.849579
0.217712 0.450867 0.851776
0.231445 0.452759 0.854675
0.564270 0.534637 0.888123
0.756134 0.541840 0.840271
0.821625 0.540985 0.823212
0.841492 0.543213 0.819244
0.215576 0.625153 0.795532
0.229553 0.628387 0.798431
0.244354 0.631165 0.801239
0.259613 0.633759 0.804352
0.524933 0.718964 0.864899
0.811707 0.814514 0.939270
0.913452 0.826813 0.926941
0.932648 0.828033 0.923615
0.214600 0.690979 0.755493
0.229767 0.694946 0.758667
0.245239 0.698975 0.762177
0.261414 0.703796 0.766327
0.395874 0.751404 0.801025
0.797882 0.888489 0.912811
0.928223 0.933411 0.951324
0.969299 0.947388 0.963898
0.204834 0.712616 0.736816
0.222137 0.719604 0.742126
0.237732 0.725922 0.746918
0.256775 0.733185 0.753113
0.383026 0.779877 0.793335
0.804291 0.920380 0.916779
0.924957 0.957062 0.950775
0.966858 0.970490 0.963684
