滤镜资源/Professional Luts Collection/Triune-Digital-Cinematic-LUTs/3D LUTs (CUBE)/ALEXA/House of Cards - Alexa.cube
#Created by Benjamin (IWLTBAP) : http://luts.iwltbap.com
#Copyright: (C) Copyright 2016 Triune Films and IWLTBAP
TITLE "Blockbuster LUTs Pack (Alexa Log-C)"
#LUT size
LUT_3D_SIZE 5
#LUT data points
DOMAIN_MIN 0.000000 0.000000 0.000000
DOMAIN_MAX 0.903226 0.903226 0.903226
0.000000 0.000000 0.000000
0.163239 0.022736 0.017761
0.524750 0.092590 0.081085
0.834442 0.172119 0.158173
0.874237 0.183777 0.171906
0.029816 0.139435 0.020508
0.148071 0.136871 0.024628
0.519684 0.161560 0.075073
0.832855 0.190430 0.153168
0.873077 0.201904 0.166809
0.115479 0.455963 0.089172
0.139160 0.461365 0.092377
0.478455 0.439148 0.094666
0.828705 0.461639 0.144348
0.868408 0.462677 0.150604
0.223938 0.758942 0.170624
0.242310 0.762268 0.172485
0.310028 0.776367 0.182709
0.791626 0.731171 0.178619
0.875854 0.729401 0.186920
0.239258 0.802032 0.183044
0.258606 0.804840 0.185852
0.279663 0.811035 0.189789
0.777466 0.792755 0.193024
0.889832 0.798309 0.207672
0.012817 0.008209 0.121338
0.133301 0.022919 0.102234
0.508545 0.095795 0.150757
0.830994 0.177277 0.216492
0.870514 0.189697 0.226990
0.032410 0.112885 0.104767
0.165253 0.161987 0.145447
0.536926 0.184784 0.172913
0.839264 0.206268 0.219666
0.879211 0.217651 0.230865
0.113708 0.451172 0.106659
0.142761 0.468231 0.116730
0.479370 0.443420 0.112427
0.831665 0.469299 0.166870
0.872711 0.474701 0.181396
0.221191 0.756378 0.187958
0.247742 0.768799 0.195251
0.310822 0.779205 0.201691
0.791809 0.733429 0.196014
0.876099 0.731171 0.204315
0.237701 0.799347 0.199951
0.263275 0.811249 0.207581
0.280884 0.813934 0.209198
0.778992 0.797699 0.213623
0.893036 0.805328 0.232330
0.040222 0.025574 0.423553
0.077454 0.022552 0.408539
0.429016 0.080933 0.350739
0.765137 0.159332 0.386230
0.805176 0.170135 0.392273
0.049103 0.061035 0.432709
0.072998 0.061340 0.427063
0.437561 0.115173 0.363464
0.773102 0.191467 0.397827
0.813477 0.202148 0.403137
0.101135 0.367920 0.364838
0.131927 0.382263 0.376587
0.527069 0.529999 0.511414
0.877075 0.554779 0.525238
0.917084 0.555481 0.527618
0.209076 0.708435 0.380341
0.234009 0.717163 0.386230
0.300964 0.751617 0.417847
0.828278 0.818024 0.475708
0.913879 0.818054 0.474670
0.238434 0.773163 0.382935
0.263153 0.783783 0.392365
0.289307 0.792816 0.403625
0.799805 0.850433 0.450592
0.917847 0.861694 0.479980
0.079071 0.063965 0.727692
0.097961 0.062653 0.721283
0.366241 0.076782 0.673248
0.704498 0.139679 0.620667
0.744995 0.151306 0.621857
0.083771 0.083466 0.734314
0.102173 0.082642 0.728363
0.374268 0.110718 0.685669
0.712952 0.174072 0.630371
0.752838 0.185150 0.632507
0.157257 0.329285 0.773315
0.181091 0.334381 0.777771
0.436188 0.373322 0.769714
0.763000 0.379181 0.692932
0.802246 0.365143 0.688202
0.173187 0.628387 0.642273
0.204163 0.640503 0.651245
0.239532 0.650391 0.662109
0.861420 0.872131 0.856415
0.955139 0.876495 0.855621
0.197205 0.723114 0.642365
0.225281 0.734589 0.652039
0.257690 0.745026 0.661377
0.848663 0.945435 0.853485
0.956085 0.945038 0.847839
0.096649 0.074127 0.806793
0.109589 0.072784 0.801178
0.350006 0.079315 0.758636
0.688629 0.137451 0.689606
0.727692 0.147583 0.683807
0.097412 0.092712 0.812927
0.113800 0.091797 0.807709
0.362976 0.111115 0.767731
0.697510 0.170563 0.700409
0.736511 0.180115 0.693939
0.145294 0.220520 0.857269
0.164001 0.220276 0.853363
0.370392 0.228790 0.810120
0.717224 0.269135 0.731628
0.758972 0.271362 0.723602
0.218536 0.648926 0.784515
0.243134 0.654938 0.789001
0.268311 0.660614 0.795197
0.850800 0.855621 0.943390
0.947296 0.869415 0.939056
0.204834 0.712616 0.736816
0.233856 0.724396 0.745758
0.267426 0.736572 0.756104
0.848572 0.934113 0.929077
0.966858 0.970490 0.963684
