滤镜资源/Professional Luts Collection/Triune-Digital-Cinematic-LUTs/3D LUTs (CUBE)/ALEXA/Inglourious Basterds - Alexa.cube
#Created by Benjamin (IWLTBAP) : http://luts.iwltbap.com
#Copyright: (C) Copyright 2016 Triune Films and IWLTBAP
TITLE "Blockbuster LUTs Pack (Alexa Log-C)"
#LUT size
LUT_3D_SIZE 32
#LUT data points
0.010803 0.010284 0.010773
0.022766 0.010529 0.012024
0.035919 0.010742 0.013336
0.050140 0.011475 0.014954
0.065155 0.012115 0.016602
0.084015 0.013702 0.019318
0.108704 0.016754 0.023560
0.140717 0.022614 0.030609
0.180573 0.030426 0.038757
0.232086 0.037384 0.046265
0.293915 0.043732 0.055359
0.359589 0.052917 0.068207
0.426819 0.062592 0.082031
0.491119 0.073059 0.095093
0.552521 0.082947 0.109161
0.615662 0.093536 0.125763
0.682281 0.106201 0.144562
0.739410 0.118591 0.161499
0.786163 0.128967 0.176270
0.829742 0.138672 0.189392
0.858124 0.144562 0.198792
0.867645 0.146698 0.203491
0.872101 0.147736 0.206512
0.876587 0.148743 0.209076
0.881104 0.149719 0.211121
0.885620 0.150665 0.212799
0.890106 0.151672 0.214203
0.894592 0.152588 0.215393
0.899109 0.153595 0.216522
0.903564 0.154602 0.217529
0.908081 0.155548 0.218689
0.912567 0.156555 0.219971
0.011475 0.021759 0.011658
0.019531 0.021332 0.011444
0.032135 0.021210 0.012268
0.046234 0.022278 0.013641
0.061340 0.022919 0.015259
0.080963 0.024231 0.017822
0.105896 0.026703 0.022095
0.138641 0.031799 0.029205
0.178772 0.037872 0.037689
0.230835 0.042603 0.045349
0.293518 0.047791 0.054626
0.359924 0.056793 0.067688
0.427338 0.066376 0.081482
0.491974 0.076660 0.094696
0.553711 0.086578 0.108917
0.617432 0.097778 0.125763
0.684082 0.110199 0.144653
0.741089 0.122620 0.161530
0.787659 0.133118 0.176178
0.831299 0.142822 0.189240
0.859711 0.148743 0.198669
0.869263 0.150909 0.203400
0.873749 0.151978 0.206451
0.878265 0.152924 0.209045
0.882812 0.153931 0.211182
0.887299 0.154938 0.212860
0.891815 0.155914 0.214294
0.896271 0.156891 0.215546
0.900787 0.157898 0.216705
0.905243 0.158844 0.217773
0.909698 0.159821 0.218903
0.914062 0.160797 0.220093
0.012482 0.034180 0.012634
0.018372 0.033875 0.012573
0.029022 0.033417 0.012146
0.041962 0.033752 0.012390
0.056915 0.035370 0.013855
0.076996 0.036987 0.016357
0.102814 0.039703 0.020874
0.136200 0.044434 0.027985
0.176361 0.049622 0.036377
0.228790 0.054260 0.044037
0.291046 0.057404 0.053375
0.357788 0.062286 0.066559
0.426666 0.069885 0.080719
0.492737 0.080292 0.094330
0.554596 0.090515 0.108612
0.618958 0.101990 0.125671
0.685394 0.114288 0.144470
0.742584 0.126740 0.161438
0.789124 0.137360 0.176086
0.832977 0.147034 0.189117
0.861237 0.152985 0.198456
0.870819 0.155121 0.203308
0.875366 0.156219 0.206482
0.879974 0.157257 0.209076
0.884460 0.158203 0.211151
0.888977 0.159210 0.212891
0.893494 0.160187 0.214325
0.897980 0.161224 0.215668
0.902435 0.162140 0.216797
0.906860 0.163147 0.217926
0.911255 0.164062 0.219025
0.915527 0.165039 0.220154
0.014008 0.050415 0.015015
0.017670 0.050293 0.015076
0.028168 0.049927 0.014648
0.039978 0.049500 0.014038
0.053284 0.049896 0.013580
0.072021 0.051147 0.015137
0.098969 0.053253 0.019531
0.133514 0.057709 0.026917
0.174225 0.062805 0.035400
0.226562 0.067444 0.042694
0.288452 0.070282 0.051239
0.354034 0.074341 0.065216
0.423920 0.076935 0.079346
0.491638 0.083466 0.093201
0.554840 0.094513 0.108063
0.620270 0.106232 0.125458
0.686462 0.118408 0.144165
0.743866 0.130920 0.161163
0.790375 0.141602 0.175781
0.834442 0.151276 0.188873
0.862640 0.157196 0.198120
0.872284 0.159332 0.203156
0.876801 0.160370 0.206299
0.881348 0.161469 0.208923
0.885864 0.162476 0.211060
0.890411 0.163452 0.212769
0.894897 0.164490 0.214294
0.899384 0.165466 0.215607
0.903839 0.166412 0.216766
0.908264 0.167389 0.217896
0.912567 0.168365 0.219025
0.916840 0.169373 0.220123
0.016022 0.068268 0.017944
0.019104 0.068207 0.018005
0.027496 0.068024 0.017548
0.039459 0.067810 0.016815
0.052612 0.067505 0.016022
0.068634 0.067505 0.015564
0.094299 0.068665 0.017822
0.130249 0.072693 0.025543
0.171814 0.077728 0.034363
0.224579 0.082642 0.041779
0.286652 0.085510 0.049286
0.352234 0.088837 0.062866
0.420135 0.090881 0.077576
0.488892 0.094116 0.091583
0.553375 0.098724 0.106689
0.620392 0.110168 0.124664
0.687500 0.122528 0.143768
0.744629 0.135223 0.160645
0.791412 0.145844 0.175232
0.835602 0.155792 0.188324
0.863831 0.161621 0.197723
0.873657 0.163605 0.202820
0.878143 0.164612 0.205994
0.882690 0.165649 0.208649
0.887268 0.166687 0.210846
0.891785 0.167694 0.212646
0.896240 0.168701 0.214142
0.900696 0.169678 0.215485
0.905182 0.170654 0.216675
0.909607 0.171661 0.217773
0.913971 0.172638 0.218903
0.918182 0.173615 0.220032
0.018311 0.087494 0.021240
0.021423 0.087402 0.021179
0.026306 0.087311 0.021057
0.038086 0.087280 0.020477
0.051453 0.087128 0.019531
0.067566 0.086792 0.018341
0.090210 0.085999 0.016632
0.126068 0.089386 0.023224
0.169891 0.094269 0.032928
0.223907 0.099640 0.040833
0.286041 0.103455 0.048431
0.351257 0.107941 0.060577
0.417206 0.110535 0.074005
0.486237 0.114105 0.089111
0.551636 0.115265 0.105042
0.618805 0.117706 0.122986
0.686981 0.126343 0.142517
0.745087 0.139526 0.159637
0.792175 0.150177 0.174225
0.836731 0.160248 0.187469
0.865051 0.166138 0.197021
0.875000 0.168060 0.202271
0.879547 0.168976 0.205536
0.884094 0.169952 0.208191
0.888611 0.170868 0.210358
0.893097 0.171906 0.212219
0.897583 0.172913 0.213806
0.902039 0.173920 0.215118
0.906494 0.174896 0.216278
0.910950 0.175873 0.217438
0.915222 0.176849 0.218506
0.919556 0.177856 0.219757
0.021118 0.109070 0.024872
0.024261 0.108917 0.024719
0.027374 0.108826 0.024628
0.035431 0.108826 0.024384
0.048553 0.108948 0.023712
0.064819 0.108887 0.022705
0.086761 0.107819 0.020081
0.120514 0.108582 0.020538
0.166626 0.112885 0.030884
0.223602 0.118591 0.039734
0.285980 0.123291 0.047577
0.351257 0.128632 0.059265
0.416077 0.132965 0.070953
0.484131 0.138306 0.085297
0.549713 0.141541 0.101257
0.618103 0.143433 0.120850
0.684937 0.142120 0.140259
0.744385 0.146088 0.157562
0.792816 0.155060 0.172607
0.837738 0.165192 0.186005
0.866364 0.171021 0.195892
0.876373 0.172943 0.201202
0.880981 0.173706 0.204620
0.885590 0.174652 0.207458
0.890045 0.175568 0.209625
0.894562 0.176544 0.211517
0.899017 0.177521 0.213104
0.903564 0.178589 0.214508
0.908051 0.179596 0.215729
0.912476 0.180664 0.216919
0.916779 0.181732 0.218048
0.921112 0.182800 0.219299
0.024384 0.132965 0.028778
0.027527 0.132843 0.028656
0.030579 0.132782 0.028534
0.033630 0.132782 0.028503
0.043488 0.133087 0.028351
0.059906 0.133698 0.027863
0.081268 0.133911 0.026245
0.114258 0.133118 0.023529
0.160248 0.134430 0.027466
0.221619 0.139923 0.038452
0.286804 0.145477 0.047058
0.352356 0.151733 0.058258
0.416168 0.157349 0.069153
0.482574 0.163910 0.081940
0.547607 0.169525 0.096527
0.617981 0.176636 0.116699
0.684631 0.181915 0.136414
0.742706 0.181580 0.153503
0.793365 0.177948 0.169861
0.839355 0.176727 0.183899
0.868011 0.178131 0.194061
0.877594 0.177979 0.199432
0.882294 0.178650 0.203094
0.887024 0.179504 0.206055
0.891541 0.180420 0.208435
0.896057 0.181427 0.210388
0.900543 0.182526 0.212036
0.905090 0.183563 0.213409
0.909668 0.184601 0.214630
0.914001 0.185699 0.215820
0.918335 0.186768 0.216980
0.922729 0.187866 0.218262
0.028107 0.159729 0.032410
0.031158 0.159576 0.032288
0.034149 0.159546 0.032166
0.037170 0.159729 0.032257
0.040100 0.159882 0.032318
0.051300 0.160919 0.032562
0.072510 0.162476 0.032410
0.103973 0.164001 0.030548
0.149261 0.160980 0.026154
0.215515 0.164520 0.036072
0.285492 0.170074 0.045593
0.352753 0.177612 0.057129
0.417023 0.185089 0.067902
0.482239 0.191467 0.080322
0.546204 0.198151 0.093445
0.614166 0.207550 0.110474
0.681335 0.218170 0.129028
0.740814 0.226227 0.145996
0.793182 0.228180 0.162964
0.842133 0.224274 0.180023
0.873322 0.212646 0.192963
0.883087 0.202881 0.198792
0.887329 0.199158 0.202271
0.891815 0.198334 0.205261
0.896332 0.197906 0.207733
0.900635 0.197479 0.209625
0.904999 0.197357 0.211212
0.909393 0.197815 0.212494
0.913727 0.198517 0.213715
0.918121 0.199402 0.214874
0.922424 0.200195 0.216034
0.926697 0.200745 0.217346
0.030334 0.193359 0.037567
0.033539 0.193268 0.037476
0.036682 0.193207 0.037415
0.039703 0.193420 0.037476
0.042603 0.193512 0.037476
0.045532 0.193665 0.037659
0.057983 0.195068 0.038025
0.086090 0.198303 0.037354
0.130219 0.200897 0.033691
0.200165 0.195679 0.032135
0.280304 0.198792 0.043304
0.351349 0.207489 0.055511
0.417419 0.216461 0.066864
0.483154 0.223694 0.079498
0.545471 0.231232 0.092102
0.610870 0.240723 0.107117
0.677063 0.252228 0.122284
0.737000 0.262207 0.137421
0.791107 0.269562 0.154205
0.840698 0.275574 0.171204
0.874329 0.279266 0.183899
0.885956 0.275330 0.190857
0.891083 0.269470 0.195496
0.896149 0.264252 0.199310
0.901062 0.259827 0.202454
0.905853 0.256317 0.204956
0.910553 0.254120 0.206909
0.915192 0.253113 0.208466
0.919739 0.252960 0.209839
0.924255 0.253357 0.211060
0.928711 0.253571 0.212341
0.933075 0.253052 0.213806
0.030731 0.232666 0.041718
0.034027 0.232574 0.041656
0.037354 0.232483 0.041504
0.040497 0.232697 0.041687
0.043640 0.232910 0.041779
0.046509 0.233032 0.041779
0.049438 0.233307 0.041901
0.062408 0.234711 0.042053
0.102295 0.240417 0.039185
0.172821 0.240265 0.035065
0.266357 0.237122 0.039734
0.347229 0.242737 0.053375
0.418610 0.252472 0.066132
0.483734 0.260406 0.079010
0.546204 0.268585 0.092102
0.610870 0.278076 0.106140
0.676300 0.290680 0.120514
0.737000 0.301544 0.133850
0.790741 0.310150 0.147522
0.840454 0.319183 0.161743
0.875275 0.325897 0.173065
0.887299 0.326294 0.179230
0.892487 0.325226 0.183838
0.897797 0.324646 0.187775
0.902954 0.324524 0.190979
0.908173 0.324860 0.193665
0.913269 0.325470 0.195740
0.918182 0.326416 0.197418
0.923035 0.327576 0.198944
0.927887 0.328888 0.200378
0.932404 0.330078 0.201721
0.936432 0.331177 0.203094
0.032501 0.274628 0.043701
0.035858 0.274567 0.043640
0.039154 0.274506 0.043579
0.042358 0.274567 0.043640
0.045380 0.274658 0.043640
0.048279 0.274780 0.043610
0.051147 0.274841 0.043549
0.054016 0.275024 0.043640
0.069000 0.276733 0.043640
0.126282 0.286743 0.041656
0.240814 0.285767 0.037994
0.337494 0.282532 0.051056
0.419159 0.291840 0.066681
0.485901 0.300659 0.079773
0.547180 0.307953 0.092438
0.612305 0.317932 0.105957
0.678833 0.331207 0.120636
0.738831 0.342438 0.133942
0.792023 0.352203 0.146667
0.841278 0.362610 0.158295
0.877350 0.370270 0.166840
0.889862 0.371521 0.170227
0.894806 0.371155 0.173004
0.899811 0.371368 0.175964
0.904816 0.371826 0.178467
0.909790 0.372620 0.180573
0.914612 0.373535 0.182281
0.919434 0.374664 0.183716
0.924286 0.375885 0.185089
0.928833 0.377258 0.186279
0.932953 0.378540 0.187378
0.937103 0.379852 0.188599
0.033661 0.317322 0.046967
0.036987 0.317291 0.046997
0.040283 0.317352 0.047028
0.043457 0.317352 0.047089
0.046692 0.317596 0.047302
0.049713 0.317780 0.047455
0.052612 0.317932 0.047516
0.055634 0.318115 0.047577
0.058533 0.318207 0.047791
0.086121 0.321899 0.048187
0.182556 0.334625 0.047577
0.319397 0.330414 0.047577
0.411835 0.331512 0.065308
0.486755 0.340576 0.080719
0.548767 0.347290 0.093018
0.613373 0.357727 0.106293
0.679840 0.371277 0.120605
0.738495 0.383575 0.133789
0.791992 0.394135 0.146088
0.840576 0.405518 0.157501
0.878723 0.414795 0.166321
0.892273 0.416748 0.169373
0.897064 0.416504 0.170441
0.901917 0.416595 0.171600
0.906708 0.417023 0.172699
0.911469 0.417633 0.173767
0.916199 0.418488 0.174774
0.920959 0.419617 0.175812
0.925385 0.420837 0.176849
0.929535 0.422150 0.177795
0.933685 0.423370 0.178741
0.937897 0.424652 0.179749
0.037811 0.358887 0.053467
0.041077 0.358887 0.053467
0.044250 0.358917 0.053467
0.047394 0.358948 0.053528
0.050598 0.359192 0.053741
0.053589 0.359436 0.053986
0.056671 0.359589 0.054108
0.059631 0.359741 0.054260
0.062592 0.359802 0.054321
0.065521 0.359863 0.054504
0.124634 0.370300 0.053436
0.280029 0.380981 0.052155
0.395233 0.374268 0.062866
0.478394 0.378174 0.078949
0.548798 0.386993 0.093079
0.613281 0.397308 0.106445
0.678497 0.410553 0.120514
0.735840 0.423340 0.133392
0.790344 0.435486 0.145599
0.838959 0.448059 0.157135
0.879395 0.458557 0.166443
0.895203 0.461670 0.170105
0.900024 0.461731 0.171234
0.904755 0.461914 0.172302
0.909485 0.462341 0.173370
0.914154 0.462952 0.174438
0.918762 0.463776 0.175446
0.922913 0.464844 0.176422
0.927094 0.466003 0.177490
0.931274 0.467163 0.178467
0.935486 0.468414 0.179504
0.939606 0.469635 0.180969
0.042542 0.399811 0.060486
0.045685 0.399902 0.060516
0.048828 0.399902 0.060608
0.051849 0.399994 0.060669
0.054871 0.400208 0.060791
0.057953 0.400513 0.061035
0.061005 0.400726 0.061188
0.064148 0.400970 0.061371
0.067291 0.401184 0.061554
0.070221 0.401184 0.061523
0.079254 0.401886 0.061707
0.192657 0.420929 0.059631
0.362152 0.426361 0.060913
0.462311 0.417358 0.074982
0.539978 0.424347 0.090790
0.610077 0.435974 0.105682
0.674927 0.449554 0.120422
0.731995 0.462646 0.132843
0.786987 0.476593 0.145050
0.836792 0.490326 0.157166
0.878235 0.500610 0.167236
0.897949 0.504730 0.171997
0.903198 0.504944 0.173370
0.907837 0.505310 0.174622
0.912354 0.505798 0.175812
0.916443 0.506531 0.176941
0.920593 0.507416 0.178070
0.924652 0.508392 0.179199
0.928772 0.509460 0.180389
0.932861 0.510559 0.181610
0.936890 0.511627 0.183044
0.940918 0.512726 0.184631
0.047638 0.440643 0.068054
0.050751 0.440887 0.068115
0.053741 0.440979 0.068207
0.056763 0.441132 0.068298
0.059784 0.441345 0.068420
0.062775 0.441711 0.068634
0.065857 0.442017 0.068848
0.069031 0.442230 0.068970
0.072235 0.442535 0.069183
0.075562 0.442719 0.069305
0.078613 0.442780 0.069305
0.119843 0.449799 0.068542
0.314056 0.474030 0.069641
0.440735 0.469971 0.074524
0.527466 0.464233 0.088226
0.601349 0.474609 0.104309
0.668945 0.488342 0.119934
0.727173 0.502014 0.131927
0.782593 0.517242 0.144592
0.834229 0.531281 0.157898
0.875214 0.540283 0.167755
0.898987 0.544769 0.173737
0.905792 0.545715 0.175903
0.910004 0.546204 0.177246
0.914154 0.546875 0.178650
0.918243 0.547699 0.180054
0.922333 0.548645 0.181458
0.926453 0.549652 0.182892
0.930542 0.550751 0.184357
0.934631 0.551849 0.185852
0.938782 0.552826 0.187286
0.942902 0.553864 0.188782
0.053009 0.481140 0.075439
0.055847 0.481323 0.075470
0.058838 0.481445 0.075592
0.061798 0.481598 0.075653
0.064850 0.481781 0.075684
0.067871 0.482117 0.075928
0.071014 0.482513 0.076111
0.074219 0.482941 0.076294
0.077545 0.483276 0.076538
0.080811 0.483551 0.076752
0.084076 0.483765 0.076813
0.087128 0.483978 0.076904
0.206482 0.507782 0.074951
0.408325 0.525238 0.081116
0.510864 0.515228 0.088501
0.587524 0.515106 0.102783
0.657593 0.527069 0.117981
0.719574 0.541260 0.130646
0.778107 0.556641 0.145203
0.830505 0.570099 0.158722
0.872101 0.579254 0.168945
0.900055 0.584686 0.177002
0.908020 0.586121 0.179993
0.912170 0.586731 0.181488
0.916260 0.587433 0.183044
0.920410 0.588379 0.184570
0.924500 0.589325 0.186127
0.928406 0.590271 0.187561
0.932495 0.591370 0.188965
0.936676 0.592438 0.190277
0.940796 0.593536 0.191650
0.944916 0.594513 0.192993
0.058533 0.521515 0.083282
0.061493 0.521729 0.083282
0.064514 0.521973 0.083344
0.067505 0.522125 0.083435
0.070587 0.522278 0.083496
0.073700 0.522827 0.083740
0.076904 0.523254 0.083984
0.080109 0.523743 0.084198
0.083405 0.524231 0.084473
0.086639 0.524628 0.084717
0.089905 0.524963 0.084900
0.093201 0.525177 0.085052
0.124390 0.532013 0.087219
0.350403 0.562531 0.086060
0.479584 0.574341 0.095215
0.571411 0.567871 0.105438
0.644562 0.570160 0.117432
0.710693 0.580780 0.130249
0.772034 0.595673 0.145782
0.824219 0.608673 0.158630
0.865967 0.618103 0.169312
0.898041 0.625244 0.180328
0.909515 0.627411 0.184235
0.913696 0.627838 0.185669
0.917816 0.628448 0.187103
0.921936 0.629211 0.188538
0.925903 0.630005 0.189911
0.929901 0.630951 0.191071
0.933990 0.632019 0.192261
0.938049 0.633087 0.193451
0.942078 0.634094 0.194611
0.946106 0.635071 0.195801
0.064789 0.561951 0.092468
0.067780 0.562134 0.092499
0.070831 0.562378 0.092529
0.073944 0.562653 0.092529
0.077057 0.562805 0.092560
0.080261 0.563263 0.092773
0.083466 0.563782 0.093048
0.086792 0.564392 0.093353
0.090027 0.564972 0.093658
0.093353 0.565430 0.093964
0.096619 0.565796 0.094177
0.099945 0.566101 0.094330
0.103210 0.566193 0.094482
0.231628 0.597931 0.094910
0.449921 0.620361 0.103027
0.540466 0.631470 0.112427
0.626953 0.626495 0.121857
0.699036 0.627747 0.131287
0.761261 0.636536 0.144592
0.815460 0.648926 0.157623
0.858124 0.657776 0.170654
0.891266 0.665100 0.182037
0.909515 0.668640 0.187653
0.914429 0.669159 0.189178
0.918762 0.669617 0.190552
0.923126 0.670227 0.191864
0.927063 0.670898 0.192871
0.931061 0.671692 0.193909
0.935028 0.672577 0.194977
0.939026 0.673462 0.196075
0.943054 0.674408 0.197144
0.946991 0.675293 0.198212
0.072052 0.601837 0.102509
0.075134 0.602051 0.102509
0.078247 0.602295 0.102509
0.081451 0.602478 0.102539
0.084656 0.602753 0.102600
0.087921 0.603149 0.102783
0.091278 0.603760 0.103058
0.094635 0.604401 0.103394
0.098022 0.604950 0.103699
0.101410 0.605469 0.104004
0.104797 0.605988 0.104279
0.108124 0.606262 0.104431
0.111481 0.606506 0.104553
0.144867 0.614899 0.107758
0.388275 0.654816 0.107147
0.517303 0.679352 0.122528
0.599915 0.687622 0.129059
0.680481 0.681122 0.134338
0.747345 0.682526 0.143860
0.803802 0.688904 0.156830
0.848297 0.696442 0.172089
0.883362 0.703644 0.183716
0.908356 0.708557 0.190735
0.915649 0.709534 0.192719
0.920074 0.710144 0.194000
0.924377 0.710815 0.195129
0.928375 0.711517 0.196136
0.932281 0.712280 0.197113
0.936279 0.713074 0.198090
0.940247 0.713959 0.199097
0.944244 0.714752 0.200134
0.948151 0.715546 0.201141
0.079926 0.638702 0.112427
0.083038 0.638947 0.112427
0.086243 0.639252 0.112427
0.089447 0.639526 0.112427
0.092712 0.639801 0.112457
0.095978 0.640289 0.112640
0.099426 0.640991 0.112946
0.102844 0.641632 0.113220
0.106262 0.642365 0.113495
0.109802 0.643097 0.113831
0.113251 0.643677 0.114105
0.116730 0.644135 0.114380
0.120209 0.644470 0.114624
0.124054 0.645386 0.114899
0.277161 0.686920 0.115997
0.489441 0.713989 0.127045
0.581787 0.732025 0.139099
0.657562 0.733826 0.138824
0.730896 0.727295 0.144745
0.790314 0.728638 0.159363
0.838135 0.732941 0.173218
0.875458 0.738586 0.184296
0.903229 0.743958 0.192139
0.917297 0.746735 0.196014
0.921631 0.747284 0.197235
0.925751 0.747864 0.198334
0.929779 0.748627 0.199341
0.933777 0.749390 0.200378
0.937775 0.750183 0.201355
0.941742 0.751007 0.202362
0.945709 0.751831 0.203369
0.949677 0.752472 0.204407
0.087219 0.669403 0.120789
0.090424 0.669830 0.120728
0.093658 0.670197 0.120667
0.096954 0.670441 0.120636
0.100159 0.670715 0.120605
0.103485 0.671265 0.120728
0.106995 0.672058 0.121063
0.110443 0.672821 0.121368
0.113953 0.673615 0.121674
0.117462 0.674469 0.122009
0.121002 0.675201 0.122284
0.124542 0.675934 0.122589
0.128204 0.676697 0.122833
0.132294 0.678070 0.123230
0.202057 0.699982 0.120728
0.453705 0.740723 0.129639
0.563232 0.762299 0.144257
0.643005 0.773682 0.148956
0.713135 0.767944 0.150299
0.777344 0.763947 0.163330
0.828217 0.766022 0.175201
0.868011 0.770020 0.185547
0.896698 0.774384 0.193237
0.916016 0.778015 0.198334
0.922058 0.778900 0.199860
0.926208 0.779541 0.200867
0.930359 0.780365 0.201965
0.934479 0.781250 0.203033
0.938629 0.782104 0.204132
0.942657 0.782959 0.205139
0.946777 0.783722 0.206146
0.950745 0.784393 0.207214
0.090240 0.681763 0.124115
0.093475 0.682159 0.124023
0.096710 0.682556 0.123993
0.099976 0.682922 0.123932
0.103271 0.683258 0.123901
0.106567 0.683746 0.123932
0.109985 0.684540 0.124207
0.113464 0.685333 0.124481
0.116943 0.686127 0.124786
0.120483 0.686890 0.125061
0.123993 0.687714 0.125336
0.127747 0.688568 0.125610
0.131470 0.689545 0.125916
0.135651 0.691101 0.126373
0.170227 0.703003 0.128967
0.399292 0.744659 0.128479
0.544739 0.771454 0.144592
0.630035 0.786896 0.151581
0.700562 0.788757 0.155731
0.766174 0.781036 0.164551
0.819672 0.780884 0.174927
0.860565 0.785400 0.185333
0.890900 0.789337 0.193054
0.912262 0.793091 0.198547
0.922119 0.795166 0.201111
0.926361 0.795898 0.202118
0.930542 0.796661 0.203156
0.934723 0.797455 0.204193
0.938873 0.798157 0.205231
0.942993 0.798950 0.206207
0.947113 0.799896 0.207306
0.951233 0.800690 0.208344
0.091522 0.687073 0.125427
0.094727 0.687469 0.125366
0.097992 0.687866 0.125336
0.101196 0.688293 0.125336
0.104523 0.688629 0.125244
0.107849 0.689148 0.125275
0.111359 0.690033 0.125580
0.114899 0.690826 0.125885
0.118378 0.691650 0.126160
0.121887 0.692413 0.126465
0.125397 0.693207 0.126678
0.129089 0.694153 0.126984
0.133087 0.695221 0.127228
0.137329 0.696869 0.127747
0.141571 0.698425 0.128235
0.325226 0.743225 0.129822
0.527313 0.773224 0.143036
0.618164 0.790649 0.152008
0.691986 0.796387 0.157349
0.758118 0.788269 0.163147
0.812378 0.787354 0.174347
0.854553 0.791046 0.184540
0.885925 0.794983 0.192322
0.908112 0.798706 0.197968
0.921600 0.801453 0.201416
0.926483 0.802399 0.202606
0.930695 0.803223 0.203644
0.934845 0.804047 0.204681
0.939087 0.804871 0.205688
0.943207 0.805634 0.206726
0.947388 0.806335 0.207733
0.951508 0.807190 0.208771
0.092773 0.692444 0.126740
0.096069 0.692810 0.126709
0.099274 0.693268 0.126678
0.102539 0.693634 0.126617
0.105804 0.694031 0.126556
0.109131 0.694550 0.126587
0.112671 0.695435 0.126892
0.116272 0.696350 0.127197
0.119720 0.697144 0.127441
0.123291 0.697937 0.127777
0.126770 0.698792 0.128052
0.130493 0.699646 0.128296
0.134460 0.700684 0.128540
0.138977 0.702576 0.128998
0.143188 0.704102 0.129456
0.280487 0.743042 0.129822
0.512695 0.775696 0.141907
0.609253 0.794464 0.152435
0.685242 0.801697 0.157257
0.752014 0.794861 0.161896
0.806915 0.793396 0.174225
0.849884 0.795929 0.183990
0.882111 0.799927 0.191925
0.904907 0.803253 0.197571
0.920807 0.806366 0.201569
0.926575 0.807465 0.202942
0.930725 0.808228 0.203979
0.934937 0.809082 0.205017
0.939178 0.809906 0.206055
0.943359 0.810699 0.207092
0.947479 0.811432 0.208099
0.951599 0.812134 0.209076
0.094116 0.697815 0.128113
0.097321 0.698181 0.128021
0.100555 0.698669 0.127991
0.103760 0.699036 0.127899
0.107086 0.699463 0.127899
0.110443 0.699982 0.127930
0.113983 0.700897 0.128204
0.117584 0.701782 0.128540
0.121124 0.702698 0.128845
0.124695 0.703552 0.129120
0.128204 0.704376 0.129395
0.131927 0.705261 0.129669
0.135834 0.706268 0.129852
0.140198 0.707825 0.130219
0.144623 0.709473 0.130646
0.272339 0.747253 0.130646
0.501678 0.778961 0.141510
0.602783 0.798889 0.153076
0.680603 0.807129 0.158264
0.747040 0.801941 0.162628
0.803131 0.799652 0.174469
0.846588 0.801086 0.183746
0.879303 0.805023 0.191772
0.902557 0.808105 0.197388
0.919434 0.811249 0.201630
0.926636 0.812592 0.203369
0.930817 0.813385 0.204376
0.935028 0.814209 0.205353
0.939301 0.815094 0.206421
0.943451 0.815857 0.207458
0.947662 0.816650 0.208466
0.951752 0.817352 0.209503
0.095367 0.703156 0.129364
0.098572 0.703613 0.129333
0.101807 0.704041 0.129303
0.105103 0.704498 0.129272
0.108337 0.704895 0.129211
0.111664 0.705383 0.129272
0.115234 0.706299 0.129547
0.118866 0.707214 0.129822
0.122467 0.708221 0.130127
0.125946 0.708984 0.130402
0.129486 0.709747 0.130676
0.133148 0.710541 0.130859
0.137054 0.711487 0.131073
0.141388 0.713074 0.131409
0.145874 0.714691 0.131805
0.267456 0.751770 0.131531
0.493927 0.782928 0.141724
0.598938 0.803772 0.153961
0.677765 0.812775 0.159698
0.743713 0.809204 0.163605
0.800537 0.805908 0.174896
0.844421 0.806366 0.183838
0.877441 0.810364 0.191925
0.901062 0.813202 0.197540
0.918060 0.816254 0.201691
0.926575 0.817780 0.203705
0.930939 0.818542 0.204773
0.935150 0.819366 0.205780
0.939362 0.820221 0.206818
0.943542 0.821045 0.207855
0.947754 0.821808 0.208893
0.951935 0.822571 0.209930
0.096680 0.708618 0.130737
0.099854 0.709076 0.130707
0.103149 0.709503 0.130646
0.106354 0.709991 0.130615
0.109650 0.710419 0.130554
0.112976 0.710907 0.130585
0.116608 0.711761 0.130798
0.120148 0.712555 0.131042
0.123627 0.713379 0.131287
0.127197 0.714203 0.131531
0.130768 0.714996 0.131805
0.134460 0.715851 0.132019
0.138458 0.716858 0.132202
0.142822 0.718506 0.132629
0.147278 0.720154 0.133026
0.264343 0.756683 0.132477
0.489319 0.787537 0.142517
