滤镜资源/Professional Luts Collection/Triune-Digital-Cinematic-LUTs/3D LUTs (CUBE)/ALEXA/Inglourious Basterds - Alexa.cube
#Created by Benjamin (IWLTBAP) : http://luts.iwltbap.com
#Copyright: (C) Copyright 2016 Triune Films and IWLTBAP
TITLE "Blockbuster LUTs Pack (Alexa Log-C)"
#LUT size
LUT_3D_SIZE 8
#LUT data points
DOMAIN_MIN 0.000000 0.000000 0.000000
DOMAIN_MAX 0.903226 0.903226 0.903226
0.010803 0.010284 0.010773
0.065155 0.012115 0.016602
0.180573 0.030426 0.038757
0.426819 0.062592 0.082031
0.682281 0.106201 0.144562
0.858124 0.144562 0.198792
0.881104 0.149719 0.211121
0.899109 0.153595 0.216522
0.016022 0.068268 0.017944
0.052612 0.067505 0.016022
0.171814 0.077728 0.034363
0.420135 0.090881 0.077576
0.687500 0.122528 0.143768
0.863831 0.161621 0.197723
0.887268 0.166687 0.210846
0.905182 0.170654 0.216675
0.028107 0.159729 0.032410
0.040100 0.159882 0.032318
0.149261 0.160980 0.026154
0.417023 0.185089 0.067902
0.681335 0.218170 0.129028
0.873322 0.212646 0.192963
0.896332 0.197906 0.207733
0.913727 0.198517 0.213715
0.033661 0.317322 0.046967
0.046692 0.317596 0.047302
0.058533 0.318207 0.047791
0.411835 0.331512 0.065308
0.679840 0.371277 0.120605
0.878723 0.414795 0.166321
0.906708 0.417023 0.172699
0.925385 0.420837 0.176849
0.053009 0.481140 0.075439
0.064850 0.481781 0.075684
0.077545 0.483276 0.076538
0.206482 0.507782 0.074951
0.657593 0.527069 0.117981
0.872101 0.579254 0.168945
0.916260 0.587433 0.183044
0.932495 0.591370 0.188965
0.079926 0.638702 0.112427
0.092712 0.639801 0.112457
0.106262 0.642365 0.113495
0.120209 0.644470 0.114624
0.581787 0.732025 0.139099
0.838135 0.732941 0.173218
0.921631 0.747284 0.197235
0.937775 0.750183 0.201355
0.092773 0.692444 0.126740
0.105804 0.694031 0.126556
0.119720 0.697144 0.127441
0.134460 0.700684 0.128540
0.512695 0.775696 0.141907
0.806915 0.793396 0.174225
0.920807 0.806366 0.201569
0.939178 0.809906 0.206055
0.097870 0.714111 0.132080
0.110779 0.715637 0.131805
0.124878 0.718597 0.132446
0.139984 0.722382 0.133484
0.486816 0.792603 0.143524
0.798187 0.818359 0.175507
0.916870 0.826569 0.202240
0.939636 0.830444 0.207611
0.010559 0.011169 0.060883
0.058319 0.011658 0.062775
0.169495 0.028625 0.080261
0.414917 0.061646 0.125366
0.678253 0.105286 0.179871
0.856964 0.144775 0.227692
0.881134 0.150787 0.238586
0.899445 0.155090 0.243774
0.012329 0.057007 0.059570
0.050232 0.060059 0.063843
0.173706 0.075134 0.082672
0.429321 0.088348 0.127228
0.688019 0.122223 0.181458
0.862793 0.161560 0.227448
0.886841 0.167267 0.238647
0.905182 0.171478 0.244110
0.025696 0.159210 0.066681
0.038696 0.159637 0.066986
0.147736 0.162781 0.063995
0.423950 0.189728 0.107971
0.693481 0.225616 0.172760
0.876953 0.206451 0.227264
0.895935 0.194000 0.236908
0.912994 0.194794 0.242188
0.032715 0.318939 0.064026
0.045959 0.319244 0.063965
0.058411 0.319031 0.063782
0.412231 0.331909 0.078827
0.682556 0.373566 0.134003
0.880768 0.419250 0.181854
0.909546 0.424408 0.197357
0.927643 0.429413 0.204895
0.053223 0.483673 0.092163
0.065186 0.484467 0.092163
0.077637 0.484924 0.092194
0.205658 0.511414 0.091187
0.659424 0.531555 0.132263
0.871826 0.582733 0.182892
0.916229 0.590607 0.197754
0.932587 0.594513 0.203644
0.080750 0.641357 0.128876
0.093842 0.643097 0.129028
0.106903 0.644073 0.128967
0.121216 0.646210 0.129852
0.582001 0.734436 0.153381
0.838043 0.736237 0.188171
0.922028 0.750916 0.211578
0.938324 0.753967 0.215668
0.093903 0.695312 0.143188
0.107086 0.697662 0.143158
0.120667 0.699158 0.142792
0.135681 0.702820 0.143799
0.512238 0.778168 0.155975
0.807587 0.797302 0.189484
0.921265 0.810425 0.215881
0.939575 0.813904 0.220276
0.098755 0.716644 0.148041
0.112122 0.718964 0.147980
0.125641 0.720551 0.147644
0.141235 0.724487 0.148621
0.486176 0.794891 0.157898
0.798889 0.821716 0.190125
0.917297 0.830200 0.216370
0.940155 0.834076 0.221893
0.016663 0.020142 0.143951
0.058807 0.021088 0.144928
0.142151 0.027802 0.147888
0.380371 0.057861 0.183655
0.657135 0.103943 0.235260
0.853271 0.148926 0.276703
0.878082 0.154816 0.285645
0.897827 0.159576 0.290894
0.016907 0.045227 0.143921
0.049652 0.045258 0.147064
0.138977 0.048309 0.150604
0.388153 0.076721 0.187683
0.671631 0.122559 0.239838
0.863312 0.167999 0.281250
0.887329 0.173401 0.290466
0.906586 0.178040 0.296021
0.023621 0.146332 0.148590
0.037415 0.148224 0.150909
0.128174 0.165314 0.169220
0.431458 0.202332 0.207550
0.705414 0.222626 0.250824
0.873779 0.195770 0.281982
0.894714 0.191376 0.290466
0.913666 0.195587 0.296112
0.034821 0.332062 0.160522
0.047974 0.332886 0.160034
0.060455 0.333496 0.160095
0.412201 0.337891 0.152588
0.690582 0.392426 0.210541
0.890503 0.449066 0.270264
0.916779 0.453461 0.286621
0.932495 0.457458 0.293701
0.053986 0.485565 0.109619
0.065826 0.486420 0.109589
0.078247 0.486969 0.109344
0.200439 0.512634 0.107178
0.660645 0.534454 0.146667
0.871246 0.584717 0.196655
0.916199 0.593170 0.212372
0.932831 0.596893 0.218262
0.081818 0.643860 0.146240
0.094788 0.645416 0.145966
0.108368 0.646851 0.145782
0.122040 0.646942 0.145233
0.581665 0.735840 0.167480
0.838104 0.738586 0.202484
0.922394 0.753448 0.225739
0.938690 0.756378 0.229736
0.095184 0.698761 0.159912
0.108368 0.700928 0.159668
0.122833 0.703400 0.159119
0.137360 0.705353 0.158997
0.510345 0.780182 0.170013
0.807922 0.800995 0.204834
0.921661 0.814056 0.230286
0.940002 0.817505 0.234772
0.099915 0.719604 0.164703
0.113068 0.721680 0.164368
0.127533 0.724091 0.163818
0.142761 0.727051 0.163849
0.484039 0.797180 0.172211
0.799011 0.824982 0.205139
0.917786 0.833893 0.231262
0.940582 0.837555 0.236450
0.024689 0.049957 0.287292
0.038910 0.049927 0.287750
0.122864 0.048218 0.289062
0.323578 0.050720 0.288025
0.611206 0.095276 0.328888
0.825928 0.148285 0.378235
0.855560 0.156036 0.386963
0.878204 0.162750 0.393982
0.023865 0.066833 0.288971
0.039093 0.069366 0.291992
0.120270 0.067200 0.292419
0.327972 0.069336 0.292175
0.620056 0.111572 0.333038
0.834930 0.170441 0.386566
0.864288 0.178986 0.396973
0.886169 0.185852 0.404602
0.023071 0.095428 0.291748
0.037445 0.096771 0.294006
0.107452 0.097504 0.299133
0.324677 0.089508 0.295135
0.627838 0.131195 0.337616
0.843506 0.196198 0.397430
0.872772 0.206635 0.408447
0.894623 0.213623 0.415283
0.032867 0.308624 0.306488
0.046265 0.310944 0.309296
0.059052 0.312988 0.312378
0.298218 0.364136 0.365356
0.691742 0.454285 0.433502
0.896149 0.486328 0.489655
0.922455 0.483673 0.496582
0.939209 0.484955 0.500732
0.069214 0.519470 0.352356
0.082245 0.523682 0.355469
0.096375 0.527466 0.358765
0.185181 0.552643 0.379700
0.654999 0.596069 0.369293
0.876984 0.648651 0.448090
0.925964 0.655182 0.460449
0.944275 0.659088 0.466797
0.108093 0.693451 0.335175
0.120483 0.694458 0.332764
0.132812 0.695038 0.329987
0.145416 0.695557 0.329315
0.575439 0.755981 0.307251
0.836975 0.762939 0.347717
0.926666 0.780548 0.375061
0.943756 0.784454 0.380768
0.102417 0.716980 0.231293
0.114990 0.717590 0.229553
0.127960 0.718750 0.228882
0.141571 0.719604 0.228180
0.505432 0.790741 0.239014
0.806854 0.816467 0.280487
0.923004 0.829681 0.315735
0.942719 0.834442 0.323242
0.106018 0.735565 0.229431
0.118683 0.736572 0.228424
0.131927 0.737640 0.227539
0.145782 0.738525 0.226990
0.476288 0.808380 0.237823
0.797821 0.837311 0.263428
0.917786 0.845520 0.291840
0.942230 0.848694 0.297913
0.042999 0.086517 0.439087
0.056152 0.086334 0.439240
0.090271 0.082672 0.435303
0.269531 0.077240 0.435822
0.550751 0.093567 0.442047
0.797943 0.151215 0.495972
0.831116 0.160706 0.506714
0.854889 0.167847 0.514587
0.043243 0.103546 0.440796
0.056061 0.105896 0.444061
0.083832 0.105530 0.444092
0.269623 0.094574 0.438019
0.555664 0.113251 0.445770
0.803589 0.172211 0.502655
0.837280 0.181488 0.514099
0.861328 0.189362 0.522858
0.043610 0.120636 0.442413
0.056244 0.122589 0.444977
0.069183 0.125305 0.449005
0.265961 0.112030 0.440277
0.559418 0.133179 0.448700
0.809753 0.194275 0.509979
0.844116 0.205750 0.522675
0.868073 0.215027 0.532135
0.048706 0.281219 0.460175
0.061432 0.284302 0.463959
0.074341 0.287140 0.467957
0.283020 0.327698 0.519745
0.624023 0.370758 0.541473
0.864899 0.398743 0.600067
0.894409 0.383179 0.601044
0.914856 0.384247 0.606293
0.062256 0.481232 0.483276
0.075745 0.484497 0.486481
0.089264 0.487640 0.489594
0.131744 0.497620 0.500977
0.615417 0.641998 0.628662
0.883179 0.681946 0.670685
0.939453 0.687469 0.683258
0.957184 0.689178 0.687256
0.119781 0.689972 0.548431
0.135742 0.694611 0.553406
0.150513 0.698853 0.558044
0.164825 0.702209 0.562714
0.482971 0.789978 0.642578
0.842896 0.821320 0.612518
0.941345 0.833435 0.642639
0.958130 0.835480 0.647583
0.153107 0.786102 0.583313
0.168152 0.790558 0.587616
0.183533 0.795135 0.591858
0.198822 0.799469 0.595978
0.410065 0.851105 0.639282
0.813202 0.895355 0.605774
0.935059 0.893829 0.600464
0.958038 0.896729 0.610535
0.161804 0.811249 0.590240
0.177155 0.815765 0.594086
0.192688 0.820709 0.598206
0.207642 0.824799 0.602081
0.377380 0.865295 0.635864
0.805450 0.913971 0.612915
0.929199 0.909668 0.589905
0.957489 0.911469 0.599457
0.062897 0.108673 0.570984
0.073883 0.108795 0.572937
0.084656 0.108582 0.574036
0.250061 0.098053 0.577606
0.477234 0.105499 0.572937
0.763977 0.156586 0.605103
0.803680 0.162903 0.615753
0.830444 0.168182 0.622681
0.062103 0.127686 0.575562
0.076050 0.128693 0.576782
0.090210 0.128418 0.575897
0.251068 0.116058 0.583862
0.481201 0.123596 0.577942
0.768463 0.177002 0.612183
0.809113 0.183533 0.623047
0.835541 0.188812 0.629333
0.061035 0.145782 0.579559
0.074493 0.146881 0.580902
0.088318 0.148010 0.582428
0.248322 0.134033 0.588623
0.483093 0.144135 0.582611
0.771454 0.199310 0.619354
0.814056 0.207123 0.630707
0.840759 0.211365 0.636444
0.060181 0.163025 0.580597
0.072357 0.164948 0.583008
0.085907 0.166107 0.584351
0.222809 0.160950 0.591766
0.468048 0.163391 0.587006
0.766205 0.220795 0.622925
0.822205 0.231598 0.637543
0.850372 0.237061 0.645142
0.085938 0.480072 0.639313
0.099487 0.483704 0.643860
0.113312 0.487396 0.648804
0.127472 0.490326 0.654266
0.539185 0.596191 0.758850
0.857513 0.645142 0.779694
0.924408 0.654144 0.793884
0.942932 0.656281 0.798279
0.111389 0.657013 0.672821
0.125183 0.659943 0.676544
0.139038 0.662933 0.680389
0.152802 0.665253 0.684204
0.450165 0.737000 0.750153
0.832886 0.830597 0.799805
0.941223 0.840668 0.812347
0.957245 0.841553 0.814331
0.134033 0.760040 0.700623
0.148132 0.763336 0.703644
0.162750 0.766937 0.706940
0.178650 0.770844 0.710724
0.352448 0.810608 0.746460
0.806854 0.917908 0.804443
0.933624 0.917725 0.794556
0.963165 0.918274 0.798492
0.143402 0.784821 0.707642
0.158569 0.788544 0.710846
0.174530 0.792389 0.714478
0.190704 0.796112 0.718353
0.301697 0.823700 0.742828
0.799774 0.937744 0.804565
0.926727 0.938629 0.793640
0.962708 0.938385 0.793457
0.071045 0.121582 0.644684
0.082001 0.121674 0.646240
0.092926 0.121399 0.647095
0.242920 0.112213 0.657410
0.455811 0.114380 0.656830
0.747711 0.162842 0.668732
0.794281 0.175140 0.682648
0.820587 0.181732 0.690491
0.072632 0.139801 0.646851
0.084625 0.142456 0.652222
0.095795 0.142578 0.654022
0.244781 0.132874 0.664459
0.459442 0.135406 0.663910
0.751160 0.186737 0.677429
0.798004 0.199585 0.691650
0.824158 0.204926 0.699402
0.073853 0.158356 0.650665
0.085449 0.160767 0.655426
0.097351 0.163086 0.660553
0.244690 0.158752 0.669525
0.459778 0.157440 0.671997
0.752594 0.211304 0.684967
0.802032 0.223480 0.699493
0.827881 0.227753 0.707031
0.074860 0.176880 0.654175
0.087128 0.179016 0.658234
0.100006 0.181183 0.662720
0.212036 0.183167 0.675720
0.443542 0.179443 0.681458
0.746002 0.234497 0.690521
0.807678 0.247589 0.707794
0.833618 0.252441 0.715210
0.101471 0.477631 0.730927
0.114868 0.481262 0.735260
0.128632 0.485077 0.740112
0.142303 0.487427 0.744598
0.519562 0.568451 0.829865
0.837097 0.604004 0.835754
0.911194 0.613037 0.847504
0.930267 0.616089 0.851715
0.123657 0.657318 0.758606
0.137512 0.660553 0.761932
0.151459 0.663757 0.765381
0.165558 0.666412 0.768860
0.442108 0.728516 0.827698
0.824097 0.822968 0.877869
0.937866 0.829590 0.883881
0.955475 0.831268 0.886383
0.146606 0.757172 0.777374
0.161621 0.760468 0.780701
0.176819 0.763794 0.783936
0.191864 0.766418 0.786926
0.313263 0.791382 0.811035
0.792816 0.906189 0.886200
0.925842 0.917511 0.886658
0.961945 0.921448 0.890350
0.155701 0.790039 0.784393
0.170624 0.793121 0.787354
0.185760 0.796387 0.790222
0.200989 0.799805 0.793152
0.298584 0.821320 0.813019
0.782623 0.939087 0.892914
0.923096 0.947113 0.885529
0.961243 0.948822 0.886475
0.073364 0.124847 0.663544
0.085205 0.124939 0.665222
0.096802 0.124756 0.666260
0.240753 0.115326 0.676422
0.452515 0.118713 0.679291
0.739990 0.164459 0.683197
0.791046 0.178131 0.698334
0.817261 0.184937 0.706299
0.075043 0.143585 0.666229
0.086304 0.146118 0.672058
0.098358 0.146118 0.673859
0.244141 0.138977 0.684174
0.455658 0.141052 0.687195
0.743896 0.189911 0.692047
0.794830 0.202728 0.706818
0.820801 0.208160 0.714600
0.078156 0.162384 0.669464
0.089539 0.165039 0.675049
0.101868 0.167816 0.681763
0.244415 0.166718 0.690735
0.456329 0.163086 0.695374
0.746552 0.215179 0.700531
0.798767 0.226562 0.715149
0.824982 0.231567 0.722961
0.080994 0.181091 0.673157
0.091766 0.183533 0.678497
0.103271 0.186371 0.684814
0.208496 0.189575 0.698120
0.440674 0.185486 0.704407
0.740540 0.238495 0.707031
0.804932 0.250885 0.723969
0.830963 0.256317 0.731323
0.105316 0.476135 0.754364
0.118591 0.479767 0.758636
0.132263 0.483276 0.763214
0.145782 0.485382 0.767456
0.517181 0.561646 0.849243
0.833191 0.592377 0.850830
0.909027 0.600189 0.860779
0.927612 0.602203 0.863739
0.131531 0.661224 0.792236
0.146179 0.664642 0.795532
0.160980 0.668091 0.798981
0.176056 0.671204 0.802551
0.442566 0.729034 0.857727
0.824188 0.822083 0.906494
0.936798 0.825592 0.908478
0.954773 0.826721 0.910065
0.156097 0.760437 0.811493
0.170532 0.763336 0.814087
0.185089 0.766327 0.816895
0.199677 0.769043 0.819763
0.312836 0.791382 0.842926
0.791779 0.902161 0.914368
0.924103 0.915894 0.917053
0.961426 0.919342 0.919647
0.165100 0.796021 0.818542
0.179443 0.798981 0.820984
0.193878 0.801971 0.823456
0.208282 0.804932 0.826019
0.303345 0.824768 0.845093
0.782410 0.933289 0.917450
0.920258 0.945190 0.916626
0.958832 0.948639 0.919403
