滤镜资源/Professional Luts Collection/Triune-Digital-Cinematic-LUTs/3D LUTs (CUBE)/ALEXA/Inglourious Basterds - Alexa.cube
#Created by Benjamin (IWLTBAP) : http://luts.iwltbap.com
#Copyright: (C) Copyright 2016 Triune Films and IWLTBAP
TITLE "Blockbuster LUTs Pack (Alexa Log-C)"
#LUT size
LUT_3D_SIZE 5
#LUT data points
DOMAIN_MIN 0.000000 0.000000 0.000000
DOMAIN_MAX 0.903226 0.903226 0.903226
0.010803 0.010284 0.010773
0.140717 0.022614 0.030609
0.552521 0.082947 0.109161
0.867645 0.146698 0.203491
0.899109 0.153595 0.216522
0.024384 0.132965 0.028778
0.114258 0.133118 0.023529
0.547607 0.169525 0.096527
0.877594 0.177979 0.199432
0.909668 0.184601 0.214630
0.042542 0.399811 0.060486
0.064148 0.400970 0.061371
0.539978 0.424347 0.090790
0.897949 0.504730 0.171997
0.928772 0.509460 0.180389
0.087219 0.669403 0.120789
0.110443 0.672821 0.121368
0.202057 0.699982 0.120728
0.868011 0.770020 0.185547
0.938629 0.782104 0.204132
0.097870 0.714111 0.132080
0.121368 0.717804 0.132202
0.148865 0.725861 0.134369
0.842377 0.818542 0.185120
0.939636 0.830444 0.207611
0.013580 0.015045 0.117920
0.113251 0.021637 0.121582
0.525269 0.081604 0.192566
0.866211 0.150055 0.264771
0.900085 0.158478 0.276062
0.019135 0.117493 0.119751
0.102448 0.130829 0.134155
0.573212 0.168427 0.202911
0.878510 0.180206 0.265991
0.911804 0.188446 0.278229
0.041840 0.402283 0.090210
0.063385 0.403259 0.090240
0.543457 0.426544 0.114716
0.899658 0.511475 0.201721
0.930176 0.519775 0.223389
0.089233 0.674713 0.149933
0.112946 0.678284 0.149445
0.199799 0.703796 0.153503
0.869019 0.775787 0.211029
0.939240 0.787781 0.228851
0.099579 0.718750 0.160370
0.123505 0.722778 0.159821
0.151886 0.730164 0.160828
0.843842 0.825348 0.211456
0.940521 0.836731 0.232849
0.034485 0.069580 0.365753
0.077820 0.065674 0.363464
0.429443 0.065643 0.365326
0.823486 0.152252 0.442047
0.864014 0.165192 0.457245
0.034851 0.100342 0.369110
0.059387 0.104614 0.374603
0.437073 0.102173 0.372101
0.837006 0.195923 0.459564
0.878082 0.210876 0.474091
0.047729 0.394379 0.395599
0.068726 0.398132 0.399841
0.441437 0.505554 0.505585
0.916992 0.593842 0.594513
0.949066 0.595886 0.604675
0.142334 0.757294 0.496307
0.168091 0.764099 0.502411
0.220215 0.774628 0.512939
0.871063 0.826111 0.473236
0.950195 0.839386 0.507233
0.155243 0.808289 0.488037
0.180542 0.814728 0.493011
0.205719 0.820862 0.499115
0.843994 0.874878 0.439056
0.947479 0.883148 0.464508
0.067108 0.112762 0.595734
0.085968 0.113037 0.598907
0.349701 0.104462 0.607208
0.780487 0.164093 0.634674
0.826477 0.172577 0.647736
0.066162 0.145233 0.602722
0.087708 0.147797 0.607666
0.346497 0.135193 0.620209
0.788757 0.202850 0.649353
0.834778 0.212036 0.661194
0.076843 0.349365 0.644348
0.099884 0.356384 0.653656
0.385864 0.406952 0.723602
0.847198 0.423126 0.732727
0.891602 0.413422 0.739716
0.120270 0.688385 0.708038
0.144470 0.694092 0.714111
0.168793 0.698364 0.720215
0.866364 0.860199 0.829071
0.958069 0.868530 0.839478
0.143524 0.784271 0.731476
0.170776 0.790558 0.737305
0.199188 0.797211 0.744324
0.847046 0.940216 0.830505
0.962463 0.940765 0.823242
0.073364 0.124847 0.663544
0.094177 0.125061 0.666382
0.340088 0.117676 0.679840
0.768768 0.171753 0.691345
0.817261 0.184937 0.706299
0.077393 0.157806 0.668701
0.097931 0.162506 0.679504
0.342010 0.152008 0.693359
0.775269 0.215302 0.706482
0.824005 0.225677 0.720886
0.083984 0.269592 0.701843
0.112122 0.277039 0.712036
0.328217 0.282715 0.734558
0.801971 0.329895 0.749908
0.854431 0.332733 0.761200
0.139008 0.694611 0.798950
0.165466 0.700500 0.804779
0.191559 0.705078 0.810730
0.859528 0.854034 0.910431
0.956970 0.859314 0.914673
0.165100 0.796021 0.818542
0.190216 0.801239 0.822845
0.215607 0.806458 0.827484
0.837189 0.940247 0.919250
0.958832 0.948639 0.919403
