滤镜资源/Professional Luts Collection/Triune-Digital-Cinematic-LUTs/3D LUTs (CUBE)/ALEXA/Interstellar - Alexa.cube
#Created by Benjamin (IWLTBAP) : http://luts.iwltbap.com
#Copyright: (C) Copyright 2016 Triune Films and IWLTBAP
TITLE "Blockbuster LUTs Pack (Alexa Log-C)"
#LUT size
LUT_3D_SIZE 5
#LUT data points
DOMAIN_MIN 0.000000 0.000000 0.000000
DOMAIN_MAX 0.903226 0.903226 0.903226
0.000000 0.000000 0.018158
0.087158 0.054260 0.041595
0.433136 0.205292 0.158875
0.742584 0.339447 0.304962
0.775360 0.356171 0.317780
0.000000 0.122192 0.014954
0.077271 0.127686 0.035095
0.451599 0.238068 0.153412
0.745972 0.346527 0.300140
0.778229 0.362671 0.313416
0.000000 0.365234 0.022400
0.000000 0.377136 0.000000
0.525665 0.488220 0.139008
0.824982 0.591339 0.206757
0.824829 0.596680 0.206940
0.000000 0.664429 0.000000
0.037537 0.666443 0.000000
0.174622 0.703705 0.000000
0.736633 0.920044 0.000000
0.824677 0.858429 0.233826
0.000000 0.781219 0.000000
0.000000 0.785156 0.000000
0.000000 0.794830 0.000000
0.683319 0.945160 0.000000
0.783844 0.935486 0.000000
0.000000 0.057861 0.097290
0.140350 0.083771 0.110870
0.465881 0.207581 0.183990
0.747864 0.341736 0.307800
0.779449 0.358551 0.319305
0.000000 0.109100 0.118286
0.069031 0.117676 0.134644
0.465271 0.211487 0.179413
0.747620 0.341522 0.307526
0.779633 0.358582 0.319397
0.000000 0.364410 0.033752
0.000000 0.374420 0.009247
0.525299 0.487518 0.139130
0.824951 0.593201 0.206818
0.824707 0.600708 0.207123
0.000000 0.670868 0.000000
0.030670 0.670197 0.000000
0.171265 0.701508 0.000000
0.738708 0.917938 0.000000
0.824677 0.858826 0.233856
0.000000 0.786957 0.000000
0.000000 0.789185 0.000000
0.000000 0.796936 0.000000
0.681366 0.942596 0.000000
0.783661 0.935791 0.000000
0.000000 0.215790 0.311523
0.000000 0.213013 0.306610
0.613647 0.329407 0.310577
0.817780 0.428192 0.375732
0.838348 0.445374 0.396088
0.000000 0.216003 0.313721
0.000000 0.215607 0.314911
0.609619 0.328888 0.311951
0.819122 0.429962 0.379364
0.838623 0.447205 0.399628
0.000000 0.416138 0.426788
0.000000 0.427673 0.431030
0.522186 0.523712 0.531799
0.849548 0.574280 0.525940
0.866760 0.577148 0.528381
0.000000 0.727783 0.428528
0.000000 0.723450 0.417084
0.000000 0.716919 0.394958
0.794281 0.896576 0.221191
0.874603 0.854126 0.466003
0.000000 0.832184 0.363647
0.000000 0.830536 0.342804
0.000000 0.831970 0.326141
0.755554 0.954529 0.165314
0.848297 0.937897 0.287781
0.000000 0.354767 0.511780
0.000000 0.355347 0.507904
0.524811 0.439606 0.453705
0.860504 0.560333 0.640320
0.862671 0.571686 0.646912
0.000000 0.355560 0.515930
0.000000 0.357208 0.515839
0.517517 0.437927 0.455811
0.861420 0.560669 0.643097
0.863586 0.572968 0.650879
0.000000 0.382751 0.551666
0.000000 0.391327 0.565002
0.236969 0.400848 0.651367
0.890106 0.559296 0.685211
0.880249 0.581726 0.683014
0.000000 0.694824 0.815765
0.000000 0.700836 0.817169
0.000000 0.706390 0.817932
0.899536 0.890442 0.873871
0.964142 0.900177 0.882660
0.000000 0.810730 0.876556
0.000000 0.821747 0.877319
0.000000 0.831665 0.878815
0.812592 0.999146 0.768066
0.962250 0.983307 0.811798
0.000000 0.400269 0.579590
0.000000 0.400970 0.575226
0.493042 0.432770 0.548859
0.907776 0.551697 0.697845
0.937256 0.564819 0.729370
0.000000 0.401245 0.584869
0.000000 0.401581 0.585205
0.457642 0.418091 0.564941
0.916138 0.546600 0.702759
0.944122 0.562195 0.734924
0.000000 0.405670 0.617584
0.000000 0.407043 0.621002
0.235748 0.407806 0.592834
0.953003 0.522095 0.730743
0.976562 0.549072 0.764038
0.000000 0.654480 0.859589
0.000000 0.665070 0.866180
0.000000 0.671997 0.871399
0.872223 0.847351 0.918274
0.989410 0.854370 0.934631
0.000000 0.764862 0.915375
0.000000 0.773529 0.918030
0.000000 0.780884 0.920197
0.797882 0.942688 0.952667
0.980316 0.985352 0.953552
