滤镜资源/Professional Luts Collection/Triune-Digital-Cinematic-LUTs/3D LUTs (CUBE)/ALEXA/Interstellar - Alexa.cube
#Created by Benjamin (IWLTBAP) : http://luts.iwltbap.com
#Copyright: (C) Copyright 2016 Triune Films and IWLTBAP
TITLE "Blockbuster LUTs Pack (Alexa Log-C)"
#LUT size
LUT_3D_SIZE 32
#LUT data points
0.000000 0.000000 0.018158
0.000000 0.000488 0.019653
0.000000 0.006866 0.021301
0.000000 0.013306 0.022919
0.013031 0.020264 0.025208
0.035980 0.028656 0.028076
0.059814 0.040222 0.034180
0.087158 0.054260 0.041595
0.119354 0.071167 0.050903
0.158112 0.089050 0.059296
0.205444 0.108978 0.069031
0.258972 0.131226 0.081848
0.307831 0.159241 0.099792
0.369354 0.182495 0.127960
0.433136 0.205292 0.158875
0.496521 0.228302 0.190735
0.554565 0.251160 0.220703
0.606750 0.273224 0.247498
0.657837 0.297821 0.269958
0.703979 0.320221 0.289093
0.732849 0.334869 0.300812
0.742584 0.339447 0.304962
0.747406 0.341675 0.307098
0.752075 0.343964 0.309204
0.756866 0.346283 0.311157
0.761383 0.348938 0.312958
0.766235 0.351410 0.314697
0.770752 0.353790 0.316223
0.775360 0.356171 0.317780
0.779755 0.358521 0.319519
0.784302 0.360901 0.321198
0.788849 0.363464 0.322754
0.000000 0.008972 0.015961
0.000000 0.008850 0.019012
0.000000 0.011108 0.019318
0.000000 0.017487 0.022247
0.010742 0.022980 0.024872
0.034271 0.029144 0.028076
0.058167 0.038940 0.033783
0.085999 0.052124 0.040833
0.118134 0.069397 0.050446
0.157532 0.088928 0.059631
0.205231 0.109314 0.069336
0.258850 0.131683 0.081909
0.307648 0.159973 0.099426
0.369141 0.183014 0.127594
0.433014 0.206482 0.158142
0.496460 0.229431 0.189758
0.554596 0.252289 0.219452
0.607086 0.274078 0.246582
0.658020 0.298370 0.269379
0.704193 0.320770 0.288391
0.733124 0.335388 0.300476
0.743073 0.340118 0.304657
0.747681 0.342407 0.306732
0.752441 0.344788 0.308746
0.757172 0.347076 0.310760
0.762024 0.349518 0.312500
0.766663 0.351959 0.314178
0.771179 0.354340 0.315887
0.775696 0.356750 0.317535
0.780029 0.359192 0.319183
0.784637 0.361725 0.320587
0.789124 0.364166 0.322357
0.000000 0.021759 0.016144
0.000000 0.021759 0.018066
0.000000 0.021790 0.020020
0.000000 0.021759 0.019501
0.009064 0.028320 0.023285
0.033936 0.036591 0.027527
0.057922 0.045776 0.034637
0.085541 0.055511 0.041046
0.117737 0.068451 0.049896
0.157471 0.087006 0.059143
0.205231 0.109131 0.069122
0.258606 0.131378 0.081879
0.307587 0.159973 0.099396
0.368958 0.183777 0.127197
0.432800 0.206879 0.157745
0.496185 0.230042 0.189056
0.554657 0.253113 0.218719
0.607361 0.274689 0.245911
0.658173 0.298889 0.268494
0.704407 0.321594 0.287903
0.733459 0.336212 0.300018
0.743439 0.340820 0.304260
0.748047 0.343018 0.306366
0.752869 0.345367 0.308319
0.757477 0.347717 0.310272
0.762329 0.350098 0.311951
0.766937 0.352509 0.313721
0.771545 0.355042 0.315491
0.775940 0.357605 0.317078
0.780396 0.359924 0.318481
0.784912 0.362366 0.320099
0.789368 0.364777 0.321838
0.000000 0.036072 0.018463
0.000000 0.035828 0.019348
0.000000 0.035645 0.022217
0.000000 0.035889 0.024963
0.007843 0.035889 0.022034
0.036163 0.040405 0.024261
0.059082 0.050903 0.033081
0.086151 0.063751 0.040619
0.118347 0.076172 0.050995
0.158295 0.089417 0.059265
0.206543 0.108215 0.069244
0.259644 0.131409 0.082153
0.308319 0.158295 0.100342
0.368835 0.182953 0.127441
0.432648 0.207153 0.157318
0.496124 0.230499 0.188660
0.554657 0.253906 0.218048
0.607666 0.275452 0.245178
0.658417 0.299835 0.267792
0.704681 0.322266 0.287323
0.733948 0.336914 0.299225
0.743744 0.341553 0.303436
0.748322 0.343719 0.305603
0.753174 0.346039 0.307678
0.757751 0.348389 0.309631
0.762604 0.350891 0.311493
0.767273 0.353363 0.313293
0.771820 0.355774 0.315002
0.776184 0.358185 0.316406
0.780823 0.360657 0.317963
0.785217 0.363098 0.319580
0.789734 0.365784 0.321259
0.000000 0.053253 0.019867
0.000000 0.052917 0.020844
0.000000 0.052917 0.022675
0.000000 0.056915 0.026306
0.000000 0.056671 0.029694
0.031738 0.053436 0.023193
0.062408 0.055389 0.028961
0.089386 0.068695 0.038361
0.120270 0.084503 0.049622
0.160248 0.099182 0.059662
0.209229 0.112305 0.069336
0.262878 0.131500 0.083435
0.310883 0.156952 0.102570
0.370209 0.182098 0.128937
0.432648 0.206757 0.157806
0.496063 0.230713 0.188416
0.554596 0.254303 0.217346
0.607910 0.276428 0.244263
0.658752 0.300659 0.266846
0.704926 0.323090 0.286621
0.734375 0.337830 0.298523
0.744171 0.342682 0.302765
0.748962 0.344757 0.304962
0.753540 0.347015 0.307098
0.758423 0.349396 0.309082
0.762970 0.351807 0.310944
0.767792 0.354187 0.312683
0.772217 0.356506 0.314209
0.776581 0.358948 0.315918
0.781219 0.361664 0.317505
0.785553 0.364166 0.319061
0.790253 0.366577 0.320496
0.000000 0.073639 0.021210
0.000000 0.073486 0.021606
0.000000 0.073425 0.022217
0.000000 0.078674 0.024445
0.000000 0.081635 0.026611
0.016052 0.079834 0.029785
0.060608 0.070343 0.029053
0.093628 0.074280 0.036346
0.126160 0.089722 0.046295
0.164734 0.109070 0.056793
0.211761 0.125641 0.068542
0.266907 0.140656 0.082458
0.316223 0.161926 0.103973
0.374603 0.184326 0.130402
0.434723 0.207520 0.158569
0.496033 0.230804 0.188354
0.554016 0.254425 0.216980
0.608002 0.277008 0.243652
0.658966 0.301514 0.266022
0.705231 0.324097 0.285614
0.734802 0.339020 0.297791
0.744843 0.343719 0.302094
0.749451 0.345734 0.304291
0.754059 0.347931 0.306458
0.758789 0.350189 0.308502
0.763428 0.352661 0.310150
0.768280 0.355347 0.311859
0.772614 0.357697 0.313599
0.777252 0.360077 0.315338
0.781647 0.362518 0.316956
0.786011 0.364990 0.318359
0.790466 0.367462 0.319946
0.000000 0.097015 0.018738
0.000000 0.096893 0.019012
0.000000 0.096863 0.019257
0.000000 0.100586 0.018646
0.000000 0.109650 0.014771
0.003571 0.107208 0.019165
0.041168 0.103302 0.028015
0.092957 0.091705 0.033447
0.130066 0.097046 0.044373
0.172089 0.115936 0.052521
0.218140 0.139160 0.063812
0.269806 0.160675 0.078522
0.322083 0.180695 0.098969
0.382599 0.197723 0.129120
0.441711 0.216095 0.158508
0.499756 0.234894 0.188263
0.555023 0.256073 0.216339
0.607849 0.278381 0.242035
0.658966 0.302490 0.265167
0.705353 0.325012 0.284546
0.735199 0.340424 0.296753
0.745483 0.345184 0.301025
0.749847 0.347137 0.303253
0.754639 0.349304 0.305389
0.759247 0.351562 0.307434
0.764160 0.354004 0.309296
0.768768 0.356476 0.311066
0.773315 0.358856 0.312775
0.777740 0.361481 0.314301
0.782104 0.363922 0.315918
0.786652 0.366425 0.317505
0.790924 0.368805 0.319183
0.000000 0.122192 0.014954
0.000000 0.122894 0.014771
0.000000 0.123749 0.014618
0.000000 0.124939 0.013824
0.000000 0.132294 0.008820
0.000000 0.137695 0.004211
0.031616 0.134674 0.012909
0.077271 0.127686 0.035095
0.129089 0.116394 0.040955
0.176483 0.125061 0.051636
0.227875 0.148499 0.058899
0.279022 0.173615 0.074738
0.328552 0.198792 0.094299
0.390076 0.220520 0.122711
0.451599 0.238068 0.153412
0.509827 0.254211 0.183075
0.562683 0.271057 0.210510
0.611755 0.287781 0.236847
0.659912 0.306458 0.261780
0.705658 0.326935 0.282837
0.735901 0.341858 0.295746
0.745972 0.346527 0.300140
0.750732 0.348755 0.302307
0.755219 0.350677 0.304474
0.759918 0.353119 0.306458
0.764679 0.355530 0.308319
0.769348 0.357941 0.310028
0.773865 0.360291 0.311676
0.778229 0.362671 0.313416
0.782776 0.365173 0.314941
0.787109 0.367981 0.316315
0.791443 0.370514 0.317871
0.000000 0.151062 0.011292
0.000000 0.152252 0.009979
0.000000 0.153839 0.008972
0.000000 0.155487 0.007751
0.000000 0.157257 0.005646
0.000000 0.165802 0.000000
0.000885 0.168640 0.000000
0.067841 0.163879 0.015411
0.119629 0.156281 0.049316
0.174805 0.144501 0.058105
0.233032 0.159393 0.058044
0.288239 0.186249 0.073486
0.347290 0.212952 0.099091
0.404449 0.236969 0.123474
0.462219 0.259430 0.149048
0.520447 0.280701 0.175262
0.574615 0.298950 0.201965
0.623718 0.314880 0.227600
0.669373 0.329315 0.251709
0.710541 0.342682 0.273987
0.738403 0.351105 0.289703
0.747528 0.352295 0.296112
0.752045 0.353668 0.298798
0.756775 0.355713 0.301025
0.761353 0.357819 0.303162
0.766174 0.359894 0.305298
0.770660 0.362122 0.307343
0.775208 0.364441 0.309021
0.779480 0.366760 0.310760
0.783813 0.369232 0.312195
0.788483 0.371826 0.313873
0.792816 0.374329 0.315582
0.000000 0.184998 0.008820
0.000000 0.186279 0.007843
0.000000 0.187317 0.006653
0.000000 0.188904 0.004944
0.000000 0.190643 0.003174
0.000000 0.192078 0.000824
0.000000 0.201080 0.000000
0.027985 0.207611 0.000000
0.106354 0.196228 0.023651
0.169495 0.195129 0.054657
0.231110 0.179932 0.066315
0.294556 0.199280 0.071259
0.368469 0.228333 0.104797
0.431213 0.254272 0.131927
0.488861 0.278992 0.155731
0.540894 0.304688 0.175446
0.589905 0.330292 0.194244
0.637634 0.354370 0.213928
0.684113 0.374329 0.234863
0.725159 0.386749 0.256531
0.751343 0.391876 0.271973
0.758698 0.389130 0.278839
0.761139 0.385071 0.283264
0.764435 0.382477 0.287292
0.767731 0.380768 0.290619
0.771515 0.380676 0.293762
0.775726 0.381439 0.296295
0.779846 0.383087 0.298370
0.784119 0.385223 0.300201
0.788452 0.387299 0.302002
0.792755 0.389221 0.303955
0.796906 0.390930 0.306152
0.000000 0.221069 0.008636
0.000000 0.221863 0.007629
0.000000 0.223022 0.006042
0.000000 0.224182 0.004395
0.000000 0.225769 0.001892
0.000000 0.227325 0.000000
0.000000 0.228760 0.000000
0.000000 0.238434 0.000000
0.057159 0.251862 0.000000
0.151917 0.230255 0.034180
0.225403 0.236023 0.073059
0.294739 0.223267 0.076477
0.374146 0.242767 0.100311
0.454926 0.274811 0.136292
0.519470 0.304016 0.161896
0.571045 0.330902 0.180450
0.618134 0.356445 0.198822
0.662140 0.382874 0.214142
0.705078 0.410217 0.228210
0.741638 0.437103 0.237671
0.766876 0.453064 0.246307
0.774872 0.455780 0.250366
0.776642 0.453400 0.252991
0.779877 0.450867 0.256866
0.783203 0.448883 0.260529
0.786835 0.448456 0.263336
0.790527 0.448944 0.265656
0.794281 0.450104 0.267700
0.798126 0.451782 0.269501
0.801819 0.453644 0.270844
0.805206 0.455139 0.272400
0.809143 0.456512 0.274414
0.000000 0.259003 0.005890
0.000000 0.259064 0.005646
0.000000 0.259186 0.005371
0.000000 0.259644 0.004578
0.000000 0.260986 0.002411
0.000000 0.262085 0.000000
0.000000 0.263763 0.000000
0.000000 0.265442 0.000000
0.000000 0.277832 0.000000
0.104309 0.294403 0.000000
0.208130 0.281372 0.021637
0.292633 0.285889 0.100677
0.371552 0.276367 0.094330
0.458374 0.296844 0.125488
0.533478 0.326660 0.158112
0.594788 0.357758 0.181396
0.642914 0.384705 0.199066
0.684113 0.411194 0.212341
0.724884 0.439056 0.224579
0.761261 0.467224 0.233154
0.787781 0.490082 0.237854
0.795746 0.497070 0.239258
0.798584 0.498688 0.240387
0.800842 0.500854 0.240936
0.803650 0.503143 0.241333
0.806610 0.506073 0.241486
0.809662 0.509308 0.241547
0.810669 0.509766 0.241882
0.811340 0.510071 0.242188
0.811768 0.510864 0.242096
0.811249 0.510468 0.241760
0.811005 0.510101 0.241821
0.000000 0.298096 0.003510
0.000000 0.298187 0.003113
0.000000 0.298309 0.002777
0.000000 0.298401 0.001740
0.000000 0.298553 0.000885
0.000000 0.298706 0.000000
0.000000 0.299225 0.000000
0.000000 0.300018 0.000000
0.000000 0.301239 0.000000
0.009491 0.319183 0.000000
0.173920 0.334930 0.000000
0.273041 0.345093 0.017181
0.370300 0.349457 0.108337
0.458038 0.342163 0.115692
0.535492 0.355652 0.141327
0.600037 0.381622 0.168915
0.654419 0.409912 0.191284
0.702301 0.439423 0.207520
0.740173 0.467285 0.217346
0.775269 0.497498 0.223328
0.802368 0.522339 0.226532
0.812042 0.530792 0.228271
0.815063 0.532898 0.229095
0.818024 0.535278 0.229614
0.820740 0.537903 0.229797
0.823242 0.539978 0.230103
0.825714 0.542603 0.230164
0.825775 0.542786 0.230072
0.825653 0.542877 0.229919
0.825592 0.542877 0.229919
0.825562 0.542542 0.230133
0.825531 0.542023 0.230347
0.000000 0.333038 0.012909
0.000000 0.333130 0.012634
0.000000 0.333252 0.012329
0.000000 0.333405 0.011810
0.000000 0.333679 0.011047
0.000000 0.334106 0.009979
0.000000 0.334442 0.008759
0.000000 0.334747 0.007690
0.000000 0.336304 0.003967
0.000000 0.338409 0.000000
0.110779 0.372864 0.000000
0.238342 0.379028 0.000000
0.362823 0.410431 0.066498
0.454529 0.416992 0.123962
0.535645 0.410278 0.133881
0.598450 0.416901 0.145874
0.655365 0.439087 0.170685
0.705200 0.463470 0.192902
0.748047 0.494141 0.203888
0.785278 0.525452 0.210297
0.812347 0.552307 0.211456
0.823151 0.563019 0.211639
0.823883 0.565277 0.210785
0.825531 0.568207 0.209259
0.826355 0.570343 0.207825
0.826202 0.571320 0.207336
0.825989 0.572571 0.206543
0.825989 0.572540 0.206543
0.825989 0.572479 0.206604
0.825989 0.572449 0.206635
0.825989 0.572357 0.206696
0.826050 0.572174 0.206909
0.000000 0.365234 0.022400
0.000000 0.366211 0.021179
0.000000 0.366760 0.019684
0.000000 0.368134 0.016907
0.000000 0.370270 0.012177
0.000000 0.372223 0.008148
0.000000 0.374695 0.000824
0.000000 0.377136 0.000000
0.000000 0.380005 0.000000
0.000000 0.383240 0.000000
0.000000 0.388336 0.000000
0.201538 0.422546 0.000000
0.313171 0.446869 0.000000
0.444916 0.484222 0.100830
0.525665 0.488220 0.139008
0.598907 0.479340 0.148315
0.654114 0.482239 0.160583
0.702850 0.496094 0.172607
0.747345 0.520660 0.184723
0.785889 0.548920 0.195251
0.819183 0.578827 0.204620
0.824982 0.591339 0.206757
0.824951 0.593201 0.206818
0.824890 0.595581 0.206879
0.824860 0.596649 0.206940
0.824829 0.596680 0.206940
0.824860 0.596771 0.206970
0.824860 0.596741 0.206970
0.824829 0.596680 0.206940
0.824860 0.596649 0.206940
0.824860 0.596619 0.206970
0.824829 0.596558 0.206940
0.000000 0.411011 0.000000
0.000000 0.411987 0.000000
0.000000 0.412903 0.000000
0.000000 0.414673 0.000000
0.000000 0.416962 0.000000
0.000000 0.419006 0.000000
0.000000 0.419769 0.000000
0.000000 0.421326 0.000000
0.000000 0.422546 0.000000
0.000336 0.423126 0.000000
0.011353 0.423981 0.000000
0.115540 0.440979 0.000000
0.277557 0.463837 0.000000
0.400513 0.515717 0.000000
0.515198 0.560913 0.122528
0.580627 0.562866 0.155884
0.651794 0.549866 0.166870
0.702057 0.549072 0.175873
0.746521 0.553680 0.186249
0.786987 0.577576 0.196960
0.820648 0.600128 0.205963
0.824310 0.614105 0.207764
0.824280 0.616150 0.207916
0.824249 0.616699 0.207916
0.824249 0.617126 0.207947
0.824280 0.616791 0.207947
0.824280 0.616608 0.207916
0.824249 0.616516 0.207916
0.824280 0.616455 0.207916
0.824249 0.616364 0.207916
0.824280 0.616211 0.207916
0.824280 0.616028 0.207916
0.000000 0.456299 0.000000
0.000000 0.457123 0.000000
0.000000 0.457855 0.000000
0.000000 0.459534 0.000000
0.000000 0.461945 0.000000
0.000000 0.464539 0.000000
0.000000 0.465210 0.000000
0.000000 0.465881 0.000000
0.000000 0.466797 0.000000
0.007965 0.467529 0.000000
0.018097 0.468353 0.000000
0.027679 0.469208 0.000000
0.221039 0.494354 0.000000
0.345917 0.529053 0.000000
0.474457 0.585175 0.006409
0.562714 0.631561 0.092438
0.628906 0.640808 0.172455
0.696167 0.619690 0.186890
0.744476 0.614838 0.190430
0.785187 0.611267 0.198853
0.818756 0.630554 0.207642
0.823578 0.641144 0.209473
0.823578 0.641724 0.209503
0.823578 0.640656 0.209442
0.823608 0.639709 0.209381
0.823608 0.639648 0.209351
0.823608 0.639648 0.209351
0.823669 0.639404 0.209381
0.823669 0.639252 0.209381
0.823669 0.639099 0.209381
0.823669 0.639069 0.209351
0.823669 0.639008 0.209320
0.000000 0.491241 0.011353
0.000000 0.491333 0.010529
0.000000 0.491425 0.009338
0.000000 0.491577 0.007111
0.000000 0.491791 0.002991
0.000000 0.492096 0.000000
0.006653 0.493134 0.000000
0.014526 0.493927 0.000000
0.022247 0.494995 0.000000
0.030334 0.495880 0.000000
0.037720 0.497009 0.000000
0.045990 0.498077 0.000000
0.115570 0.513031 0.000000
0.311127 0.539948 0.000000
0.413940 0.600647 0.000000
0.528046 0.652802 0.000000
0.597290 0.697021 0.048676
0.671082 0.719513 0.167908
0.736786 0.687225 0.203186
0.779205 0.676483 0.207092
0.815735 0.669220 0.209991
0.822968 0.673645 0.211914
0.822937 0.675537 0.212036
0.822937 0.673950 0.211914
0.822998 0.672974 0.211884
0.822998 0.672363 0.211853
0.822968 0.672089 0.211761
0.822998 0.672058 0.211792
0.822998 0.671997 0.211792
0.822998 0.672028 0.211792
0.822998 0.672119 0.211792
0.822998 0.672119 0.211792
0.030182 0.510315 0.043091
0.030731 0.510529 0.042358
0.031311 0.510681 0.041595
0.033264 0.511017 0.040497
0.036163 0.511383 0.038452
0.038757 0.511841 0.036255
0.044189 0.512939 0.035187
0.049957 0.513794 0.034668
0.056061 0.515015 0.034088
0.062256 0.515961 0.033356
0.068268 0.517120 0.032013
0.075317 0.518311 0.030945
0.081726 0.519684 0.029419
0.242188 0.552490 0.022980
0.384857 0.607666 0.000000
0.475830 0.670074 0.000000
0.568298 0.718719 0.000000
0.619476 0.758820 0.000000
0.694122 0.785583 0.081696
0.775269 0.752014 0.213684
0.807251 0.734711 0.223083
0.818756 0.723633 0.221741
0.819977 0.716980 0.219482
0.820007 0.712677 0.219055
0.820038 0.710449 0.218842
0.820068 0.710175 0.218811
0.820068 0.709930 0.218750
0.820068 0.709564 0.218689
0.820068 0.709198 0.218658
0.820099 0.708923 0.218658
0.820099 0.709320 0.218658
0.820068 0.709534 0.218658
0.069092 0.526520 0.073029
0.069916 0.526733 0.072083
0.070465 0.526886 0.071442
0.072479 0.527252 0.070923
0.075714 0.527863 0.070374
0.078827 0.528687 0.069641
0.082977 0.529449 0.068726
0.087097 0.530182 0.068054
0.091949 0.531433 0.067169
0.096985 0.532867 0.066071
0.101929 0.534149 0.065033
0.106903 0.536652 0.062775
0.111786 0.538849 0.060577
0.156769 0.564850 0.037292
0.326172 0.648254 0.000000
0.444763 0.707367 0.000000
0.518951 0.747681 0.000000
0.588470 0.788361 0.000000
0.636993 0.815399 0.000000
0.709259 0.841461 0.000000
0.804626 0.814728 0.224945
0.821075 0.793182 0.227905
0.819580 0.777405 0.227509
0.818939 0.770111 0.227509
0.818604 0.766876 0.227631
0.818542 0.766388 0.227661
0.818512 0.766052 0.227600
0.818512 0.765869 0.227661
0.818512 0.765930 0.227661
0.818512 0.766174 0.227692
0.818481 0.766235 0.227722
0.818451 0.766235 0.227722
0.000000 0.639313 0.000000
0.000000 0.639648 0.000000
0.000000 0.640106 0.000000
0.001892 0.640869 0.000000
0.007904 0.641937 0.000000
0.013031 0.642944 0.000000
0.018921 0.644684 0.000000
0.024506 0.646362 0.000000
0.031189 0.647888 0.000000
0.038361 0.649200 0.000000
0.046265 0.650146 0.000000
0.055878 0.650330 0.000000
0.065460 0.650177 0.000000
0.074097 0.650116 0.000000
0.231415 0.663879 0.000000
0.409302 0.760712 0.000000
0.500031 0.796417 0.000000
0.561279 0.821136 0.000000
0.614319 0.847107 0.000000
0.659668 0.870789 0.000000
0.725006 0.885376 0.000000
0.824341 0.867126 0.233917
0.824005 0.836792 0.230743
0.823608 0.823761 0.229218
0.823517 0.820557 0.228668
0.823456 0.819946 0.228546
0.823517 0.819336 0.228516
0.823456 0.818909 0.228485
0.823395 0.818512 0.228424
0.823456 0.818604 0.228424
0.823456 0.819397 0.228516
0.823456 0.820282 0.228577
0.000000 0.664429 0.000000
0.000000 0.664642 0.000000
0.000610 0.664917 0.000000
0.006744 0.665497 0.000000
0.014008 0.665771 0.000000
0.020752 0.665833 0.000000
0.029144 0.666687 0.000000
0.037537 0.666443 0.000000
0.047607 0.667480 0.000000
0.057312 0.667938 0.000000
0.066193 0.668121 0.000000
0.075470 0.669647 0.000000
0.083221 0.669922 0.000000
0.090881 0.671234 0.000000
0.174622 0.703705 0.000000
0.363373 0.801849 0.000000
0.481354 0.844086 0.000000
0.549500 0.863434 0.000000
0.600403 0.877808 0.000000
0.644104 0.891388 0.000000
0.686798 0.917725 0.000000
0.736633 0.920044 0.000000
0.820343 0.899170 0.199036
0.824890 0.868195 0.234070
0.824768 0.861023 0.234100
0.824707 0.859833 0.233978
0.824677 0.859070 0.233887
0.824677 0.858795 0.233856
0.824677 0.858429 0.233826
0.824677 0.858582 0.233856
0.824677 0.859161 0.233887
0.824707 0.859619 0.233978
0.000000 0.691284 0.000000
0.000000 0.691467 0.000000
0.000000 0.691803 0.000000
0.000000 0.692261 0.000000
0.000000 0.692871 0.000000
0.000000 0.693604 0.000000
0.000000 0.694794 0.000000
0.000000 0.695953 0.000000
0.007446 0.697174 0.000000
0.019562 0.698853 0.000000
0.032471 0.700623 0.000000
0.046387 0.702515 0.000000
0.056549 0.704376 0.000000
0.068146 0.706268 0.000000
0.127838 0.721649 0.000000
0.304871 0.802277 0.000000
0.461975 0.862061 0.000000
0.537903 0.881226 0.000000
0.592316 0.894409 0.000000
0.636597 0.902374 0.000000
0.668640 0.914917 0.000000
0.713837 0.942230 0.000000
0.771912 0.929382 0.000000
0.818329 0.902802 0.180695
0.823517 0.886810 0.219269
0.823730 0.884827 0.221039
0.823883 0.882843 0.222717
0.823944 0.882294 0.223022
0.823914 0.882294 0.223053
0.823883 0.882812 0.222809
0.823792 0.883484 0.221954
0.823792 0.884094 0.221405
0.000000 0.706818 0.000000
0.000000 0.707092 0.000000
0.000000 0.707306 0.000000
0.000000 0.707672 0.000000
0.000000 0.708221 0.000000
0.000000 0.708984 0.000000
0.000000 0.710083 0.000000
0.000000 0.711243 0.000000
0.000000 0.712463 0.000000
0.000000 0.714020 0.000000
0.008270 0.715729 0.000000
0.026062 0.717590 0.000000
0.040405 0.719452 0.000000
0.052765 0.721313 0.000000
0.065674 0.723236 0.000000
0.237274 0.785522 0.000000
0.443298 0.865601 0.000000
0.528015 0.886963 0.000000
0.585510 0.900696 0.000000
0.631012 0.908417 0.000000
0.661804 0.915131 0.000000
0.705444 0.946442 0.000000
0.742920 0.944275 0.000000
0.801270 0.919586 0.059174
0.822205 0.898529 0.207214
0.822632 0.896606 0.211212
0.822754 0.894806 0.212555
0.822784 0.894409 0.212830
0.822815 0.894165 0.213104
0.822784 0.894470 0.212769
0.822723 0.895172 0.212280
0.822693 0.896088 0.211670
0.000000 0.721924 0.000000
0.000000 0.722198 0.000000
0.000000 0.722473 0.000000
0.000000 0.722931 0.000000
0.000000 0.723419 0.000000
0.000000 0.724060 0.000000
0.000000 0.725220 0.000000
0.000000 0.726410 0.000000
0.000000 0.727539 0.000000
0.000000 0.729095 0.000000
0.000000 0.730682 0.000000
0.000000 0.732483 0.000000
0.019653 0.734375 0.000000
0.035889 0.736176 0.000000
0.049561 0.738068 0.000000
0.209595 0.783844 0.000000
0.426605 0.869934 0.000000
0.520172 0.893097 0.000000
0.580292 0.906281 0.000000
0.627045 0.914215 0.000000
0.660797 0.920227 0.000000
0.697937 0.946198 0.000000
0.731750 0.952759 0.000000
0.786469 0.932709 0.000000
0.813721 0.907318 0.150360
0.815948 0.905182 0.165283
0.817444 0.903534 0.175507
0.817932 0.903229 0.177979
0.818176 0.902985 0.179871
0.818115 0.903046 0.179169
0.817291 0.903656 0.174652
0.816742 0.904297 0.170044
0.000000 0.736816 0.000000
0.000000 0.736969 0.000000
0.000000 0.737183 0.000000
0.000000 0.737854 0.000000
0.000000 0.738617 0.000000
0.000000 0.739288 0.000000
0.000000 0.740387 0.000000
0.000000 0.741638 0.000000
0.000000 0.742676 0.000000
0.000000 0.744080 0.000000
0.000000 0.745667 0.000000
0.000000 0.747375 0.000000
0.000000 0.749176 0.000000
0.013916 0.750946 0.000000
0.030945 0.752716 0.000000
0.201691 0.793335 0.000000
0.414093 0.875671 0.000000
0.514465 0.898712 0.000000
0.576416 0.910400 0.000000
0.623993 0.918762 0.000000
0.660889 0.925995 0.000000
0.691437 0.944794 0.000000
0.727173 0.959839 0.000000
0.769104 0.946350 0.000000
0.802368 0.918335 0.068542
0.807373 0.913513 0.105011
0.809052 0.912048 0.116760
0.809418 0.911499 0.119690
0.809662 0.911255 0.121826
0.809570 0.911377 0.120850
0.809052 0.912048 0.116760
0.808167 0.912720 0.111450
0.000000 0.751587 0.000000
0.000000 0.751740 0.000000
0.000000 0.751892 0.000000
0.000000 0.752625 0.000000
0.000000 0.753418 0.000000
0.000000 0.754333 0.000000
0.000000 0.755463 0.000000
0.000000 0.756683 0.000000
0.000000 0.757751 0.000000
0.000000 0.759155 0.000000
0.000000 0.760559 0.000000
0.000000 0.762238 0.000000
0.000000 0.763947 0.000000
0.000000 0.765442 0.000000
0.008148 0.767120 0.000000
0.194702 0.804108 0.000000
0.404724 0.882294 0.000000
0.511047 0.905670 0.000000
0.573669 0.915070 0.000000
0.622040 0.923462 0.000000
0.661560 0.931976 0.000000
0.686890 0.945618 0.000000
0.723602 0.965515 0.000000
0.753021 0.958374 0.000000
0.790802 0.929474 0.000000
0.798401 0.922180 0.036682
0.800232 0.920380 0.051727
0.800598 0.920013 0.054901
0.800873 0.919769 0.057312
0.800781 0.919861 0.056610
0.800232 0.920380 0.051727
0.799713 0.921021 0.046600
0.000000 0.766449 0.000000
0.000000 0.766602 0.000000
0.000000 0.766754 0.000000
0.000000 0.767090 0.000000
0.000000 0.768005 0.000000
0.000000 0.768799 0.000000
0.000000 0.769867 0.000000
0.000000 0.770844 0.000000
0.000000 0.772064 0.000000
0.000000 0.773315 0.000000
0.000000 0.774506 0.000000
0.000000 0.776062 0.000000
0.000000 0.777740 0.000000
0.000000 0.779449 0.000000
0.000000 0.781097 0.000000
0.189972 0.815338 0.000000
0.398438 0.884705 0.000000
