滤镜资源/Professional Luts Collection/Triune-Digital-Cinematic-LUTs/3D LUTs (CUBE)/ALEXA/Interstellar - Alexa.cube
#Created by Benjamin (IWLTBAP) : http://luts.iwltbap.com
#Copyright: (C) Copyright 2016 Triune Films and IWLTBAP
TITLE "Blockbuster LUTs Pack (Alexa Log-C)"
#LUT size
LUT_3D_SIZE 8
#LUT data points
DOMAIN_MIN 0.000000 0.000000 0.000000
DOMAIN_MAX 0.903226 0.903226 0.903226
0.000000 0.000000 0.018158
0.013031 0.020264 0.025208
0.119354 0.071167 0.050903
0.307831 0.159241 0.099792
0.554565 0.251160 0.220703
0.732849 0.334869 0.300812
0.756866 0.346283 0.311157
0.775360 0.356171 0.317780
0.000000 0.053253 0.019867
0.000000 0.056671 0.029694
0.120270 0.084503 0.049622
0.310883 0.156952 0.102570
0.554596 0.254303 0.217346
0.734375 0.337830 0.298523
0.758423 0.349396 0.309082
0.776581 0.358948 0.315918
0.000000 0.151062 0.011292
0.000000 0.157257 0.005646
0.119629 0.156281 0.049316
0.347290 0.212952 0.099091
0.574615 0.298950 0.201965
0.738403 0.351105 0.289703
0.761353 0.357819 0.303162
0.779480 0.366760 0.310760
0.000000 0.298096 0.003510
0.000000 0.298553 0.000885
0.000000 0.301239 0.000000
0.370300 0.349457 0.108337
0.654419 0.409912 0.191284
0.802368 0.522339 0.226532
0.820740 0.537903 0.229797
0.825653 0.542877 0.229919
0.000000 0.456299 0.000000
0.000000 0.461945 0.000000
0.000000 0.466797 0.000000
0.221039 0.494354 0.000000
0.628906 0.640808 0.172455
0.818756 0.630554 0.207642
0.823608 0.639709 0.209381
0.823669 0.639252 0.209381
0.000000 0.639313 0.000000
0.007904 0.641937 0.000000
0.031189 0.647888 0.000000
0.065460 0.650177 0.000000
0.500031 0.796417 0.000000
0.725006 0.885376 0.000000
0.823517 0.820557 0.228668
0.823395 0.818512 0.228424
0.000000 0.721924 0.000000
0.000000 0.723419 0.000000
0.000000 0.727539 0.000000
0.019653 0.734375 0.000000
0.426605 0.869934 0.000000
0.660797 0.920227 0.000000
0.813721 0.907318 0.150360
0.818176 0.902985 0.179871
0.000000 0.781219 0.000000
0.000000 0.782593 0.000000
0.000000 0.786316 0.000000
0.000000 0.791504 0.000000
0.395142 0.889496 0.000000
0.659576 0.931366 0.000000
0.769104 0.948792 0.000000
0.783844 0.935486 0.000000
0.000000 0.022217 0.047943
0.026123 0.029388 0.065308
0.136200 0.064209 0.070984
0.311890 0.137299 0.114532
0.554932 0.245758 0.230103
0.732147 0.331482 0.305359
0.756927 0.344269 0.314301
0.775208 0.353729 0.321198
0.000000 0.045105 0.060303
0.000000 0.045746 0.063354
0.122131 0.087463 0.075531
0.314026 0.154938 0.105621
0.553589 0.245514 0.228577
0.732391 0.332092 0.304779
0.756805 0.344360 0.314148
0.775269 0.353973 0.320770
0.000000 0.147034 0.021118
0.000000 0.148468 0.025238
0.117950 0.157318 0.065308
0.344910 0.215790 0.096222
0.572632 0.289246 0.206329
0.737946 0.343018 0.296478
0.759583 0.349335 0.310608
0.777405 0.358124 0.317810
0.000000 0.297791 0.007965
0.000000 0.298035 0.004089
0.000000 0.300232 0.000000
0.372101 0.350037 0.110077
0.660370 0.413605 0.193390
0.800751 0.523346 0.224915
0.817291 0.539673 0.225647
0.822083 0.544586 0.225769
0.000000 0.457794 0.000000
0.000000 0.462677 0.000000
0.000000 0.466888 0.000000
0.219208 0.494385 0.000000
0.628510 0.640991 0.172424
0.822723 0.635468 0.208954
0.823578 0.640747 0.209473
0.823669 0.639557 0.209381
0.000000 0.642181 0.000000
0.008636 0.643707 0.000000
0.031250 0.648132 0.000000
0.065460 0.649963 0.000000
0.499847 0.797089 0.000000
0.723846 0.884857 0.000000
0.823578 0.820984 0.228699
0.823456 0.818939 0.228455
0.000000 0.724731 0.000000
0.000000 0.725586 0.000000
0.000000 0.728851 0.000000
0.017090 0.734863 0.000000
0.425415 0.869141 0.000000
0.660828 0.920135 0.000000
0.814301 0.907013 0.152618
0.818512 0.902405 0.182281
0.000000 0.783417 0.000000
0.000000 0.784668 0.000000
0.000000 0.787323 0.000000
0.000000 0.792542 0.000000
0.392853 0.890503 0.000000
0.659058 0.932251 0.000000
0.768158 0.949677 0.000000
0.783691 0.935730 0.000000
0.000000 0.073486 0.118317
0.000000 0.071625 0.117798
0.182526 0.106537 0.132782
0.379761 0.172607 0.163055
0.583008 0.262482 0.236084
0.742004 0.340424 0.303284
0.765015 0.352936 0.311554
0.782318 0.362213 0.317902
0.000000 0.075623 0.119843
0.000000 0.078766 0.122528
0.176300 0.107788 0.134369
0.377319 0.172180 0.161713
0.582336 0.262360 0.235229
0.742004 0.340485 0.303284
0.765015 0.352997 0.311523
0.782471 0.362244 0.317871
0.000000 0.138947 0.143921
0.000000 0.142914 0.145172
0.103455 0.153076 0.170685
0.364349 0.197418 0.156189
0.581207 0.266327 0.229828
0.741089 0.339844 0.302917
0.764893 0.352509 0.311676
0.782104 0.361938 0.318054
0.000000 0.296600 0.056061
0.000000 0.294128 0.042877
0.000000 0.294678 0.040955
0.375549 0.360016 0.148834
0.642273 0.419952 0.174774
0.775482 0.526337 0.201080
0.791321 0.541077 0.202942
0.803802 0.552704 0.203247
0.000000 0.455933 0.012787
0.000000 0.461212 0.000000
0.000000 0.469147 0.000000
0.213531 0.493469 0.000000
0.628632 0.639252 0.172333
0.823761 0.635315 0.209167
0.823578 0.640533 0.209442
0.823669 0.639740 0.209381
0.000000 0.644409 0.000000
0.000000 0.645142 0.000000
0.025299 0.648895 0.000000
0.059296 0.650055 0.000000
0.499054 0.796844 0.000000
0.725220 0.881897 0.000000
0.823456 0.819519 0.228516
0.823456 0.817780 0.228363
0.000000 0.730072 0.000000
0.000000 0.730316 0.000000
0.000000 0.732880 0.000000
0.004822 0.737671 0.000000
0.421173 0.866028 0.000000
0.660492 0.919800 0.000000
0.814270 0.907043 0.152283
0.818726 0.902191 0.183899
0.000000 0.788452 0.000000
0.000000 0.788788 0.000000
0.000000 0.791046 0.000000
0.000000 0.794952 0.000000
0.387238 0.889496 0.000000
0.658356 0.932678 0.000000
0.766296 0.951355 0.000000
0.783508 0.935913 0.000000
0.000000 0.165314 0.243347
0.000000 0.164856 0.242401
0.092102 0.163757 0.256104
0.468048 0.257782 0.265228
0.663666 0.322205 0.305176
0.797485 0.388245 0.348022
0.818573 0.399292 0.354492
0.833099 0.407227 0.359436
0.000000 0.165314 0.243988
0.000000 0.165649 0.244385
0.082977 0.163300 0.253113
0.465942 0.258209 0.265594
0.663727 0.322876 0.306244
0.798920 0.388916 0.348877
0.818878 0.399719 0.355438
0.833221 0.407898 0.360016
0.000000 0.166199 0.246490
0.000000 0.167358 0.248230
0.049103 0.167633 0.251801
0.455902 0.256561 0.265381
0.661469 0.322571 0.306458
0.798920 0.388916 0.349121
0.819183 0.400055 0.355957
0.833527 0.408020 0.360352
0.000000 0.317261 0.316528
0.000000 0.323944 0.320557
0.000000 0.328918 0.323792
0.344025 0.389343 0.401794
0.648132 0.420197 0.392731
0.808167 0.448975 0.388245
0.831940 0.446747 0.385742
0.841522 0.455536 0.391083
0.000000 0.521698 0.357208
0.000000 0.513000 0.344757
0.000000 0.504486 0.332642
0.000000 0.471985 0.285248
0.646088 0.663940 0.302429
0.821167 0.662750 0.326355
0.852142 0.688995 0.350098
0.852722 0.691986 0.353455
0.000000 0.543182 0.232971
0.000000 0.539948 0.223511
0.000000 0.539734 0.214172
0.000000 0.542847 0.210449
0.505157 0.788666 0.023193
0.728333 0.865265 0.000000
0.824310 0.816803 0.234558
0.824890 0.813782 0.237915
0.000000 0.739594 0.000000
0.000000 0.742279 0.000000
0.000000 0.746460 0.000000
0.000000 0.753479 0.000000
0.399445 0.846405 0.000000
0.659943 0.919098 0.000000
0.811523 0.909485 0.134552
0.818970 0.901917 0.186066
0.000000 0.799500 0.000000
0.000000 0.801270 0.000000
0.000000 0.804779 0.000000
0.000000 0.810669 0.000000
0.361725 0.870026 0.000000
0.655762 0.936981 0.000000
0.761108 0.956085 0.000000
0.782990 0.936340 0.000000
0.000000 0.259003 0.372772
0.000000 0.258942 0.371124
0.000000 0.257080 0.365814
0.403442 0.321930 0.343018
0.712555 0.399780 0.341827
0.817932 0.445770 0.412659
0.835602 0.458221 0.431976
0.840210 0.469757 0.448700
0.000000 0.259338 0.373383
0.000000 0.258636 0.373108
0.000000 0.257172 0.368622
0.400513 0.320923 0.344086
0.711823 0.399902 0.343750
0.818329 0.447144 0.415771
0.835999 0.458893 0.433716
0.840332 0.470886 0.450836
0.000000 0.259277 0.375732
0.000000 0.259125 0.377106
0.000000 0.260254 0.376770
0.392975 0.317047 0.345856
0.710480 0.400024 0.346466
0.818451 0.447693 0.417999
0.835999 0.459930 0.436646
0.840424 0.472687 0.454315
0.000000 0.292633 0.398071
0.000000 0.298981 0.404602
0.000000 0.304138 0.410370
0.192841 0.337158 0.491089
0.697723 0.431396 0.433167
0.822601 0.476593 0.476715
0.841583 0.485626 0.485474
0.844360 0.500824 0.502380
0.000000 0.511078 0.542847
0.000000 0.516571 0.543182
0.000000 0.521667 0.544189
0.000000 0.537903 0.553619
0.668549 0.658417 0.654175
0.853638 0.688721 0.664490
0.891266 0.687225 0.656708
0.898773 0.692566 0.661743
0.000000 0.782257 0.705994
0.000000 0.786896 0.707520
0.000000 0.791077 0.705933
0.000000 0.792297 0.701447
0.333527 0.798645 0.461914
0.822418 0.870667 0.503113
0.905823 0.830292 0.591797
0.911499 0.833862 0.615051
0.000000 0.866058 0.651917
0.000000 0.862732 0.637390
0.000000 0.860046 0.621490
0.000000 0.859253 0.609253
0.000000 0.864960 0.453430
0.764954 0.939331 0.424622
0.881714 0.935272 0.450043
0.900391 0.918243 0.554688
0.000000 0.891998 0.622375
0.000000 0.890472 0.606659
0.000000 0.889557 0.591705
0.000000 0.888702 0.577057
0.000000 0.898773 0.458832
0.750214 0.961578 0.411011
0.859528 0.977509 0.375031
0.887360 0.947113 0.475311
0.000000 0.338531 0.486267
0.000000 0.337585 0.485291
0.000000 0.337646 0.482269
0.254211 0.350006 0.460571
0.676086 0.459686 0.470062
0.845215 0.533844 0.587006
0.849731 0.543121 0.594421
0.851562 0.550781 0.601196
0.000000 0.337982 0.487885
0.000000 0.338440 0.487488
0.000000 0.338348 0.484650
0.246063 0.348114 0.461609
0.674957 0.460541 0.472809
0.845490 0.534546 0.589081
0.850311 0.544189 0.597809
0.852081 0.551636 0.603424
0.000000 0.338104 0.491516
0.000000 0.338959 0.491699
0.000000 0.339813 0.491852
0.225372 0.343109 0.462341
0.670471 0.460419 0.474854
0.845245 0.534851 0.590820
0.850311 0.544342 0.598450
0.852264 0.552216 0.604645
0.000000 0.337708 0.493866
0.000000 0.338440 0.494110
0.000000 0.338959 0.495239
0.146423 0.337402 0.460907
0.650635 0.455048 0.470062
0.841125 0.532990 0.588959
0.850220 0.543884 0.598846
0.851959 0.551392 0.603973
0.000000 0.463043 0.635101
0.000000 0.470886 0.645264
0.000000 0.478485 0.652832
0.000000 0.483734 0.660431
0.463165 0.531250 0.819977
0.903137 0.635651 0.753479
0.911285 0.667572 0.751099
0.911987 0.684265 0.760162
0.000000 0.668182 0.776642
0.000000 0.672516 0.777222
0.000000 0.676971 0.778137
0.000000 0.680664 0.778137
0.064758 0.761353 0.837708
0.870300 0.859039 0.845276
0.944122 0.868469 0.854095
0.955231 0.869598 0.854431
0.000000 0.801819 0.847809
0.000000 0.808014 0.847931
0.000000 0.814850 0.848389
0.000000 0.820709 0.849030
0.000000 0.894836 0.869720
0.762329 0.967529 0.722382
0.934570 0.964050 0.774139
0.960175 0.945557 0.815247
0.000000 0.835419 0.859680
0.000000 0.841339 0.860016
0.000000 0.849792 0.860443
0.000000 0.856445 0.861267
0.000000 0.905365 0.875580
0.726898 1.000000 0.691376
0.923309 0.984406 0.759918
0.953461 0.973053 0.769806
0.000000 0.388184 0.560028
0.000000 0.388214 0.558716
0.000000 0.387756 0.555237
0.186829 0.389130 0.498596
0.662781 0.497559 0.545441
0.864166 0.556702 0.661469
0.890106 0.568695 0.688232
0.919403 0.574982 0.716980
0.000000 0.388000 0.561768
0.000000 0.387939 0.561554
0.000000 0.388062 0.557739
0.181030 0.389587 0.501953
0.664307 0.496704 0.547943
0.864960 0.555664 0.663177
0.893616 0.567383 0.691132
0.924103 0.572693 0.720032
0.000000 0.388245 0.567108
0.000000 0.388702 0.567108
0.000000 0.390106 0.567017
0.161621 0.390137 0.510101
0.663269 0.493561 0.549652
0.867340 0.553741 0.665588
0.897858 0.565918 0.694733
0.929321 0.570526 0.723877
0.000000 0.388458 0.572876
0.000000 0.388855 0.573151
0.000000 0.389740 0.573700
0.059967 0.391083 0.533356
0.650116 0.483734 0.546783
0.863373 0.549469 0.662842
0.904510 0.562927 0.699188
0.935028 0.568756 0.728943
0.000000 0.477570 0.696320
0.000000 0.484589 0.704681
0.000000 0.490967 0.713135
0.000000 0.495026 0.718018
0.349243 0.501343 0.857941
0.930725 0.572968 0.836823
1.000000 0.595581 0.851929
1.000000 0.622803 0.857056
0.000000 0.627930 0.825592
0.000000 0.633362 0.829559
0.000000 0.639435 0.833496
0.000000 0.644989 0.837006
0.000000 0.688812 0.877319
0.834137 0.807892 0.894501
0.969574 0.826416 0.900146
0.967987 0.836273 0.894348
0.000000 0.742462 0.883514
0.000000 0.746124 0.884430
0.000000 0.751434 0.885468
0.000000 0.753174 0.885468
0.000000 0.787231 0.898163
0.740021 0.906677 0.927032
0.951050 0.949677 0.923889
0.978882 0.957855 0.932220
0.000000 0.779572 0.903351
0.000000 0.783661 0.903870
0.000000 0.788086 0.904755
0.000000 0.792725 0.906006
0.000000 0.825500 0.914856
0.681091 0.965393 0.936157
0.940613 0.988800 0.901489
0.976196 0.988647 0.910065
0.000000 0.400269 0.579590
0.000000 0.400513 0.578125
0.000000 0.401031 0.574402
0.168915 0.402740 0.515198
0.671509 0.499725 0.564056
0.883118 0.551697 0.681549
0.923676 0.557648 0.713531
0.937256 0.564819 0.729370
0.000000 0.401093 0.581329
0.000000 0.401215 0.580933
0.000000 0.401489 0.577026
0.163116 0.403107 0.519073
0.673309 0.497986 0.567200
0.886993 0.549438 0.684387
0.926941 0.555511 0.715393
0.940796 0.563324 0.732422
0.000000 0.401337 0.586517
0.000000 0.401642 0.586426
0.000000 0.401855 0.586914
0.142731 0.403992 0.527985
0.675568 0.492950 0.570923
0.890808 0.545959 0.686646
0.932861 0.552795 0.719360
0.945526 0.561615 0.736176
0.000000 0.402374 0.592957
0.000000 0.402527 0.593781
0.000000 0.402985 0.594116
0.015961 0.405182 0.554779
0.664520 0.481293 0.574188
0.886658 0.541199 0.683899
0.940826 0.549133 0.724945
0.952576 0.558441 0.741943
0.000000 0.482971 0.711700
0.000000 0.489380 0.720428
0.000000 0.495819 0.728302
0.000000 0.499359 0.733459
0.324738 0.497986 0.865356
0.919525 0.569580 0.853943
1.000000 0.583313 0.869995
1.000000 0.608032 0.871338
0.000000 0.627014 0.841492
0.000000 0.631134 0.845764
0.000000 0.637421 0.849945
0.000000 0.643646 0.854126
0.000000 0.682373 0.890747
0.808197 0.786469 0.918732
0.987946 0.801849 0.931183
1.000000 0.807739 0.931976
0.000000 0.720337 0.893677
0.000000 0.727173 0.896881
0.000000 0.732727 0.899567
0.000000 0.738586 0.902832
0.000000 0.770477 0.920654
0.725098 0.862335 0.941711
0.950592 0.945038 0.937866
0.976471 0.947113 0.949249
0.000000 0.764862 0.915375
0.000000 0.769531 0.916779
0.000000 0.774323 0.918549
0.000000 0.778351 0.919586
0.000000 0.805817 0.928558
0.677216 0.921661 0.955109
0.942230 0.973328 0.948975
0.980316 0.985352 0.953552
