滤镜资源/Professional Luts Collection/Triune-Digital-Cinematic-LUTs/3D LUTs (CUBE)/ALEXA/Mad Max Fury Road - Alexa.cube
#Created by Benjamin (IWLTBAP) : http://luts.iwltbap.com
#Copyright: (C) Copyright 2016 Triune Films and IWLTBAP
TITLE "Blockbuster LUTs Pack (Alexa Log-C)"
#LUT size
LUT_3D_SIZE 5
#LUT data points
DOMAIN_MIN 0.000000 0.000000 0.000000
DOMAIN_MAX 0.903226 0.903226 0.903226
0.023407 0.044312 0.050140
0.136810 0.074310 0.068451
0.519318 0.156769 0.080200
0.851318 0.226349 0.219940
0.884277 0.232819 0.229492
0.040405 0.148804 0.049377
0.162048 0.141663 0.034119
0.546600 0.198303 0.065796
0.861023 0.240967 0.211548
0.894165 0.247314 0.221405
0.092743 0.397583 0.012329
0.114899 0.407074 0.000000
0.712585 0.428192 0.057007
0.956665 0.477844 0.104034
0.965210 0.481598 0.103180
0.192719 0.706024 0.000000
0.223114 0.713348 0.000000
0.340363 0.746063 0.000000
0.974762 0.836334 0.035248
0.995728 0.799408 0.039551
0.215820 0.796722 0.000000
0.231445 0.803741 0.000000
0.271271 0.811798 0.000000
0.967957 0.918610 0.035065
0.995911 0.892914 0.035126
0.002075 0.072845 0.129059
0.166595 0.081238 0.132843
0.525177 0.149719 0.131500
0.859436 0.228485 0.242188
0.892792 0.235596 0.249115
0.000000 0.129730 0.132141
0.101624 0.134369 0.133148
0.531219 0.175659 0.125793
0.859711 0.236481 0.240479
0.893677 0.243805 0.247742
0.090607 0.393311 0.029358
0.110443 0.404785 0.009369
0.716827 0.429871 0.067230
0.956696 0.480652 0.112946
0.966187 0.484589 0.113922
0.192047 0.705566 0.009308
0.222778 0.713715 0.009308
0.335266 0.742279 0.009308
0.974640 0.835297 0.044525
0.995697 0.797241 0.048950
0.216370 0.798065 0.009308
0.230865 0.804504 0.009308
0.268890 0.811951 0.009308
0.967896 0.918365 0.044373
0.995941 0.891632 0.044403
0.007111 0.159943 0.300598
0.025024 0.158478 0.301178
0.670319 0.224518 0.315125
0.935883 0.281372 0.358856
0.950714 0.292786 0.366425
0.006592 0.168701 0.298431
0.016052 0.167297 0.297729
0.665710 0.233246 0.314758
0.932556 0.292297 0.361877
0.948395 0.304016 0.370148
0.000000 0.381470 0.336609
0.009186 0.385284 0.338959
0.514832 0.466522 0.448578
0.934052 0.497314 0.448120
0.964386 0.477905 0.446228
0.027618 0.674438 0.257904
0.052704 0.670929 0.255371
0.101929 0.662750 0.243378
0.973450 0.796967 0.126129
0.989105 0.765228 0.315826
0.159668 0.791595 0.208557
0.178436 0.790649 0.189514
0.199158 0.790833 0.168701
0.966553 0.905945 0.203857
0.995972 0.851593 0.207397
0.011566 0.251984 0.477905
0.020111 0.251617 0.477448
0.533844 0.298706 0.517731
0.948883 0.372955 0.614136
0.959747 0.382629 0.618378
0.011322 0.262207 0.478363
0.019836 0.261658 0.477936
0.524628 0.307037 0.519562
0.948242 0.382996 0.616760
0.959747 0.392609 0.621368
0.005920 0.325104 0.468414
0.014771 0.326508 0.471191
0.096191 0.350006 0.551910
0.942688 0.433960 0.636169
0.959625 0.441040 0.636749
0.000000 0.651154 0.588074
0.009094 0.655670 0.591492
0.018158 0.656860 0.593323
0.895782 0.807312 0.754639
0.984650 0.825684 0.758301
0.000000 0.768524 0.629059
0.009247 0.773712 0.633118
0.018463 0.779694 0.637939
0.886322 0.899567 0.689789
0.992310 0.880737 0.683594
0.014404 0.277222 0.522186
0.022797 0.276337 0.520905
0.444977 0.312714 0.614899
0.951324 0.376251 0.692810
0.967194 0.394470 0.723328
0.014069 0.287109 0.522675
0.022491 0.286163 0.521362
0.411072 0.318878 0.622894
0.951874 0.385101 0.696106
0.967957 0.403595 0.727356
0.011353 0.327332 0.535461
0.019867 0.327942 0.536896
0.093323 0.341125 0.587341
0.947266 0.407135 0.708618
0.968719 0.427521 0.740295
0.000000 0.624786 0.620300
0.008942 0.630676 0.625122
0.017822 0.634552 0.629486
0.828613 0.770874 0.846863
0.957001 0.785706 0.851379
0.000000 0.735535 0.657806
0.009094 0.738831 0.660400
0.018158 0.742920 0.663544
0.725128 0.905975 0.844604
0.989136 0.902283 0.829865
