滤镜资源/Professional Luts Collection/Triune-Digital-Cinematic-LUTs/3D LUTs (CUBE)/ALEXA/Mad Max Fury Road - Alexa.cube
#Created by Benjamin (IWLTBAP) : http://luts.iwltbap.com
#Copyright: (C) Copyright 2016 Triune Films and IWLTBAP
TITLE "Blockbuster LUTs Pack (Alexa Log-C)"
#LUT size
LUT_3D_SIZE 32
#LUT data points
0.023407 0.044312 0.050140
0.027832 0.046326 0.051544
0.033295 0.048920 0.052917
0.048187 0.051605 0.054840
0.065674 0.054657 0.056915
0.085632 0.059723 0.059967
0.109161 0.066315 0.063934
0.136810 0.074310 0.068451
0.169861 0.083893 0.073578
0.213379 0.093842 0.071381
0.268707 0.103760 0.056335
0.331268 0.113190 0.033691
0.393372 0.129822 0.041534
0.453094 0.142639 0.050446
0.519318 0.156769 0.080200
0.585968 0.170959 0.120087
0.649780 0.184357 0.155121
0.709351 0.197296 0.182983
0.766968 0.209320 0.198425
0.813202 0.218811 0.209503
0.841766 0.224548 0.216766
0.851318 0.226349 0.219940
0.855835 0.227051 0.221985
0.860474 0.227875 0.223755
0.865204 0.228821 0.225281
0.870056 0.229797 0.226624
0.874817 0.230743 0.227722
0.879547 0.231750 0.228638
0.884277 0.232819 0.229492
0.889038 0.233795 0.230286
0.894012 0.234924 0.231140
0.898895 0.235931 0.232147
0.024231 0.053192 0.050476
0.027374 0.052948 0.052124
0.032684 0.054657 0.053192
0.046631 0.057007 0.055450
0.064728 0.059509 0.057526
0.085022 0.063507 0.060425
0.108826 0.069275 0.064056
0.136505 0.076691 0.068481
0.169678 0.085785 0.073639
0.213348 0.095612 0.071503
0.269012 0.105255 0.056702
0.331879 0.114624 0.033081
0.394440 0.131683 0.041321
0.453644 0.144409 0.050171
0.520233 0.158722 0.079193
0.586914 0.172913 0.119415
0.651733 0.186676 0.153687
0.710724 0.199127 0.182159
0.768555 0.211212 0.197540
0.814423 0.220520 0.208649
0.842957 0.226288 0.215973
0.852539 0.228027 0.219177
0.856995 0.228760 0.221161
0.861725 0.229614 0.222931
0.866425 0.230530 0.224426
0.871277 0.231476 0.225769
0.876099 0.232452 0.226929
0.880829 0.233459 0.227875
0.885620 0.234558 0.228729
0.890381 0.235596 0.229553
0.895386 0.236664 0.230377
0.900269 0.237701 0.231262
0.024963 0.063446 0.051361
0.027191 0.063141 0.052643
0.032440 0.062500 0.054016
0.047394 0.063293 0.055450
0.064575 0.065887 0.058136
0.084900 0.069519 0.060333
0.108978 0.074493 0.064667
0.137024 0.081207 0.069061
0.170654 0.089355 0.073761
0.214783 0.098999 0.070984
0.270294 0.107971 0.055359
0.332581 0.116364 0.032867
0.395172 0.132782 0.041168
0.454620 0.146149 0.049377
0.520935 0.160675 0.078064
0.587769 0.174774 0.118713
0.652679 0.188446 0.152832
0.712128 0.200989 0.181396
0.770020 0.213165 0.196564
0.815674 0.222382 0.207764
0.844147 0.228058 0.215088
0.853729 0.229828 0.218353
0.858185 0.230621 0.220398
0.863007 0.231476 0.222046
0.867798 0.232422 0.223511
0.872589 0.233398 0.224884
0.877441 0.234344 0.226013
0.882172 0.235382 0.226990
0.886932 0.236420 0.227844
0.891724 0.237457 0.228668
0.896698 0.238525 0.229492
0.901611 0.239594 0.230377
0.026337 0.075958 0.051086
0.027771 0.075500 0.051971
0.032837 0.074585 0.054321
0.046204 0.073639 0.056061
0.067535 0.073822 0.056885
0.087494 0.077637 0.058533
0.110657 0.081940 0.064209
0.137878 0.088165 0.069763
0.171997 0.094879 0.074341
0.216766 0.103027 0.070648
0.272675 0.111664 0.053284
0.334747 0.120117 0.032715
0.396423 0.134277 0.041077
0.455170 0.147034 0.049194
0.521667 0.162384 0.077332
0.588806 0.176819 0.117828
0.653564 0.190186 0.151947
0.713470 0.202911 0.180511
0.771576 0.215118 0.195587
0.816925 0.224274 0.206757
0.845612 0.230164 0.213989
0.855011 0.231750 0.217468
0.859406 0.232513 0.219543
0.864288 0.233368 0.221222
0.869110 0.234253 0.222626
0.873993 0.235291 0.223938
0.878784 0.236237 0.225067
0.883484 0.237213 0.226074
0.888275 0.238281 0.226959
0.893036 0.239349 0.227783
0.898010 0.240417 0.228607
0.902954 0.241486 0.229492
0.027496 0.090607 0.051575
0.028870 0.090210 0.052063
0.032501 0.089508 0.053772
0.044098 0.089813 0.056763
0.063477 0.088348 0.057861
0.093933 0.086182 0.056152
0.114990 0.089569 0.062347
0.140717 0.096161 0.068329
0.174194 0.103607 0.073212
0.219482 0.110077 0.069397
0.276215 0.116455 0.050476
0.338379 0.124542 0.032837
0.398712 0.137848 0.041077
0.457611 0.149780 0.049225
0.522339 0.163666 0.078033
0.589539 0.178436 0.117371
0.654419 0.191986 0.151001
0.714844 0.204926 0.179382
0.772644 0.217102 0.194458
0.818146 0.226318 0.205597
0.847107 0.232361 0.212799
0.856476 0.233917 0.216278
0.860748 0.234467 0.218506
0.865509 0.235229 0.220306
0.870361 0.236084 0.221741
0.875305 0.237122 0.222992
0.880188 0.238159 0.224091
0.884827 0.239227 0.225067
0.889618 0.240204 0.225952
0.894379 0.241364 0.226746
0.899384 0.242462 0.227600
0.904297 0.243561 0.228485
0.026764 0.107330 0.054932
0.028137 0.106995 0.055206
0.030487 0.106964 0.055664
0.037750 0.109772 0.057831
0.057404 0.109192 0.058960
0.086609 0.104828 0.057281
0.123047 0.100006 0.058105
0.148590 0.105164 0.064850
0.180817 0.112244 0.066254
0.224030 0.119446 0.064117
0.281189 0.124390 0.044373
0.343384 0.132812 0.032349
0.403015 0.145050 0.040344
0.463531 0.156738 0.049194
0.525879 0.169312 0.079895
0.590851 0.181122 0.117706
0.654968 0.193542 0.150116
0.716217 0.206970 0.178162
0.773590 0.219055 0.193237
0.819153 0.228333 0.204315
0.848602 0.234467 0.211456
0.858002 0.236084 0.214996
0.862274 0.236694 0.217224
0.866974 0.237427 0.218994
0.871796 0.238342 0.220551
0.876770 0.239319 0.221802
0.881622 0.240387 0.222870
0.886292 0.241394 0.223846
0.891083 0.242401 0.224731
0.895813 0.243500 0.225586
0.900848 0.244690 0.226410
0.905731 0.245758 0.227356
0.034515 0.126343 0.051025
0.035980 0.126190 0.051239
0.037811 0.126648 0.051270
0.043854 0.129425 0.050323
0.057648 0.131775 0.050049
0.082764 0.128815 0.052399
0.119629 0.121887 0.054871
0.159271 0.115906 0.053009
0.192017 0.122162 0.054108
0.235229 0.130402 0.046692
0.287445 0.135895 0.032379
0.348724 0.146637 0.030701
0.409607 0.159149 0.038696
0.471924 0.169281 0.047668
0.533905 0.181763 0.078186
0.597137 0.191498 0.116852
0.658417 0.199951 0.148987
0.717804 0.210144 0.176422
0.774353 0.221130 0.191650
0.820068 0.230438 0.202698
0.849823 0.236725 0.210022
0.859711 0.238495 0.213348
0.863983 0.239075 0.215576
0.868530 0.239777 0.217468
0.873352 0.240723 0.218994
0.878296 0.241699 0.220306
0.883087 0.242676 0.221375
0.887756 0.243744 0.222351
0.892517 0.244751 0.223267
0.897339 0.245880 0.224121
0.902344 0.247101 0.224945
0.907227 0.248138 0.225891
0.040405 0.148804 0.049377
0.042206 0.149170 0.049347
0.044373 0.150116 0.048981
0.046692 0.151337 0.048523
0.055573 0.156067 0.045959
0.075500 0.154846 0.046295
0.113403 0.151367 0.052979
0.162048 0.141663 0.034119
0.204224 0.135559 0.034882
0.249512 0.142120 0.023376
0.298309 0.150848 0.021851
0.353607 0.163330 0.028748
0.417542 0.176971 0.036652
0.479431 0.189301 0.044556
0.546600 0.198303 0.065796
0.609192 0.209595 0.109192
0.670746 0.218872 0.142548
0.726166 0.225647 0.170868
0.778778 0.230164 0.188171
0.822357 0.235443 0.199951
0.851410 0.239960 0.207855
0.861023 0.240967 0.211548
0.865479 0.241577 0.213715
0.870270 0.242371 0.215576
0.875061 0.243225 0.217072
0.879944 0.244232 0.218445
0.884735 0.245178 0.219604
0.889404 0.246277 0.220520
0.894165 0.247314 0.221405
0.898926 0.248444 0.222260
0.903900 0.249603 0.223175
0.908875 0.250671 0.224091
0.047028 0.175110 0.047943
0.049103 0.175903 0.047546
0.051453 0.177063 0.046844
0.053772 0.178223 0.046143
0.056274 0.179413 0.045410
0.066223 0.184326 0.041687
0.098969 0.182434 0.044281
0.146179 0.174713 0.058289
0.213654 0.164307 0.003510
0.260925 0.159698 0.015015
0.312927 0.170563 0.021179
0.368744 0.182861 0.027924
0.426270 0.194427 0.035522
0.488922 0.207153 0.043243
0.560852 0.214752 0.054749
0.623505 0.230133 0.096741
0.685333 0.241577 0.131653
0.742004 0.250916 0.160706
0.793030 0.256805 0.179016
0.833618 0.258301 0.191559
0.859161 0.256012 0.201263
0.866272 0.252014 0.206543
0.869965 0.250610 0.209259
0.874725 0.250793 0.211365
0.879425 0.251068 0.213104
0.884064 0.251556 0.214630
0.888641 0.252197 0.215912
0.893311 0.253052 0.216888
0.897980 0.253998 0.217804
0.902771 0.254974 0.218658
0.907593 0.256012 0.219574
0.912292 0.256927 0.220612
0.055328 0.206238 0.048279
0.057404 0.207092 0.047729
0.059479 0.208191 0.046753
0.061737 0.209290 0.046021
0.063995 0.210388 0.044891
0.066162 0.211609 0.043640
0.077118 0.217529 0.037170
0.126770 0.216522 0.043182
0.188507 0.203613 0.059845
0.266327 0.192047 0.005432
0.328888 0.192261 0.020355
0.387939 0.205933 0.027740
0.446014 0.216675 0.034943
0.510712 0.224823 0.045044
0.576843 0.233490 0.054779
0.640503 0.249084 0.080505
0.701752 0.266724 0.117584
0.760651 0.280396 0.145172
0.810242 0.289459 0.166351
0.851776 0.294312 0.177643
0.878937 0.295441 0.186523
0.886230 0.291504 0.191895
0.887970 0.287140 0.195770
0.890686 0.283600 0.198883
0.893829 0.281067 0.201569
0.897491 0.279358 0.203796
0.901428 0.278687 0.205414
0.905701 0.278778 0.206696
0.910156 0.279327 0.207794
0.914673 0.280182 0.208740
0.919312 0.280853 0.209747
0.923798 0.281067 0.210907
0.062469 0.240906 0.046844
0.064636 0.241791 0.046021
0.066772 0.242676 0.045197
0.068970 0.243652 0.044342
0.071259 0.244659 0.043365
0.073608 0.245819 0.042358
0.076080 0.247192 0.041077
0.088867 0.253571 0.034363
0.160492 0.253418 0.044434
0.251648 0.242188 0.029785
0.334137 0.226654 0.009094
0.406952 0.231049 0.026428
0.481384 0.240997 0.037842
0.552856 0.250061 0.048218
0.610992 0.258881 0.062927
0.665588 0.272156 0.088867
0.723450 0.290771 0.118042
0.780853 0.307983 0.143219
0.828888 0.321716 0.156403
0.869720 0.332214 0.163940
0.897675 0.339783 0.169098
0.906464 0.340027 0.172455
0.909210 0.338013 0.175201
0.912323 0.336517 0.177612
0.915863 0.335327 0.179993
0.919617 0.334839 0.181885
0.923645 0.335052 0.183319
0.927948 0.335754 0.184448
0.932373 0.336945 0.185333
0.936859 0.338135 0.186157
0.941223 0.339233 0.187073
0.945435 0.339996 0.188141
0.071411 0.278168 0.046173
0.073151 0.278534 0.045776
0.075226 0.279175 0.045044
0.077332 0.280029 0.044037
0.079559 0.280945 0.042999
0.081818 0.282104 0.041229
0.084015 0.283325 0.039215
0.086456 0.284668 0.037415
0.103668 0.291321 0.028564
0.211975 0.292999 0.046997
0.328705 0.288086 0.000000
0.416199 0.269592 0.013550
0.512421 0.270844 0.036438
0.593964 0.280304 0.051422
0.654816 0.295654 0.080963
0.709839 0.309631 0.110107
0.753601 0.318512 0.130798
0.805573 0.334656 0.146240
0.852081 0.349945 0.151459
0.890686 0.363464 0.154175
0.920837 0.373779 0.154877
0.930206 0.376465 0.155670
0.932831 0.376648 0.156433
0.936188 0.376770 0.157959
0.939911 0.377167 0.159393
0.943787 0.378021 0.160400
0.947784 0.379150 0.161072
0.951385 0.380463 0.161530
0.953278 0.381775 0.161621
0.954651 0.383179 0.161285
0.957336 0.384613 0.161346
0.958862 0.385834 0.161438
0.079407 0.317688 0.038818
0.080963 0.317749 0.038422
0.082520 0.317932 0.037842
0.084198 0.318146 0.037140
0.086029 0.318634 0.035980
0.088135 0.319855 0.033478
0.090240 0.321136 0.030792
0.092590 0.322876 0.027222
0.095062 0.324707 0.023224
0.141296 0.333801 0.019196
0.287354 0.334442 0.054962
0.420929 0.346558 0.000000
0.521362 0.317841 0.020599
0.620697 0.316406 0.050842
0.688599 0.331848 0.093903
0.747314 0.346710 0.120087
0.797180 0.360138 0.128937
0.843140 0.372009 0.136810
0.877197 0.377563 0.143097
0.914703 0.391083 0.144470
0.944519 0.403503 0.144257
0.948700 0.406219 0.141998
0.950562 0.406647 0.142212
0.951752 0.407257 0.142120
0.952942 0.408081 0.141998
0.954132 0.409149 0.141663
0.955292 0.410431 0.141174
0.957367 0.411713 0.139648
0.958527 0.413361 0.139008
0.959717 0.415009 0.138550
0.960938 0.416595 0.137726
0.962067 0.418152 0.136932
0.084747 0.355316 0.033722
0.086456 0.355652 0.032562
0.088257 0.356110 0.031036
0.089783 0.356262 0.030273
0.092072 0.357880 0.026245
0.094269 0.359314 0.022888
0.096497 0.361023 0.019073
0.099152 0.363403 0.013458
0.101776 0.365723 0.007996
0.106171 0.366760 0.006561
0.229156 0.386383 0.018524
0.392090 0.391876 0.035522
0.523712 0.407806 0.004059
0.624420 0.370728 0.041168
0.709930 0.371399 0.078461
0.769012 0.383087 0.096283
0.827393 0.396454 0.112701
0.875671 0.411102 0.118927
0.913544 0.421906 0.121979
0.938416 0.428925 0.124268
0.948334 0.430359 0.126831
0.952148 0.434814 0.125061
0.953308 0.435699 0.124878
0.955383 0.436340 0.123566
0.956573 0.437256 0.123291
0.957733 0.438232 0.122284
0.958893 0.439728 0.121063
0.960052 0.441437 0.120087
0.961212 0.442993 0.119324
0.962402 0.444763 0.118317
0.964508 0.446228 0.116394
0.965668 0.447906 0.115479
0.092743 0.397583 0.012329
0.095245 0.399261 0.009399
0.097412 0.400757 0.005615
0.100067 0.402161 0.003418
0.103088 0.403961 0.002106
0.105865 0.406036 0.000336
0.110229 0.406708 0.000000
0.114899 0.407074 0.000000
0.119720 0.407593 0.000000
0.125336 0.408234 0.000000
0.143158 0.410706 0.000000
0.332092 0.425446 0.049255
0.503479 0.450714 0.007568
0.613007 0.465668 0.039032
0.712585 0.428192 0.057007
0.788879 0.426788 0.078217
0.841095 0.434601 0.092560
0.897736 0.447144 0.099213
0.929504 0.458984 0.102234
0.940857 0.468475 0.103088
0.951813 0.476166 0.103455
0.956665 0.477844 0.104034
0.958038 0.477173 0.104004
0.959229 0.477386 0.104248
0.960388 0.477692 0.103912
0.961609 0.478302 0.104034
0.962830 0.478973 0.104126
0.963989 0.480194 0.103729
0.965210 0.481598 0.103180
0.967316 0.482880 0.101715
0.968536 0.483276 0.101654
0.969757 0.483612 0.102051
0.107635 0.444183 0.000000
0.111145 0.444519 0.000000
0.114685 0.444824 0.000000
0.118927 0.445221 0.000000
0.123169 0.445587 0.000000
0.127563 0.446106 0.000000
0.132111 0.446655 0.000000
0.136658 0.447235 0.000000
0.141846 0.447906 0.000000
0.147125 0.448547 0.000000
0.152313 0.449066 0.000000
0.235291 0.463531 0.000000
0.440796 0.478943 0.047241
0.596741 0.512268 0.033264
0.693329 0.529968 0.038788
0.790649 0.489471 0.056122
0.863037 0.483490 0.074677
0.906647 0.487732 0.092072
0.931122 0.496918 0.097076
0.943573 0.504486 0.095062
0.953705 0.514282 0.095917
0.960571 0.519684 0.094666
0.962341 0.520294 0.093842
0.963531 0.520782 0.093506
0.964752 0.521576 0.094208
0.965942 0.522461 0.094757
0.967133 0.523468 0.094452
0.968353 0.524567 0.093964
0.969543 0.525726 0.093536
0.970734 0.526886 0.093323
0.972900 0.528168 0.091827
0.974060 0.529419 0.091919
0.120575 0.490021 0.000000
0.124359 0.490509 0.000000
0.127869 0.491150 0.000000
0.131287 0.491791 0.000000
0.134949 0.492432 0.000000
0.139954 0.493134 0.000000
0.144806 0.493805 0.000000
0.149719 0.494629 0.000000
0.154968 0.495331 0.000000
0.160156 0.496033 0.000000
0.165588 0.496765 0.000000
0.171021 0.497406 0.000000
0.361603 0.507782 0.050201
0.549774 0.546478 0.033112
0.672607 0.575226 0.033722
0.767639 0.596375 0.037689
0.857330 0.552429 0.056580
0.921265 0.540985 0.069489
0.933533 0.538971 0.087494
0.945221 0.543945 0.089417
0.956360 0.550293 0.087341
0.963654 0.556091 0.086517
0.965942 0.558014 0.087646
0.967133 0.558838 0.087677
0.968353 0.559479 0.087067
0.969513 0.560120 0.086212
0.970703 0.561371 0.086700
0.972870 0.562653 0.085876
0.973175 0.563080 0.087799
0.975311 0.563690 0.086792
0.976532 0.564117 0.086639
0.977722 0.564209 0.086914
0.132751 0.521240 0.000000
0.136292 0.521790 0.000000
0.140320 0.522430 0.000000
0.144104 0.522949 0.000000
0.148285 0.523651 0.000000
0.152802 0.524445 0.000000
0.157257 0.525208 0.000000
0.162537 0.526215 0.000000
0.167877 0.527222 0.000000
0.173309 0.528198 0.000000
0.178955 0.529327 0.000000
0.184814 0.530426 0.000000
0.243530 0.537323 0.000000
0.480591 0.563141 0.052124
0.647095 0.613098 0.033722
0.745270 0.639984 0.034302
0.835632 0.661804 0.035095
0.915466 0.615295 0.055603
0.937439 0.598511 0.057709
0.948669 0.590210 0.074097
0.958008 0.590393 0.079773
0.967346 0.595825 0.077332
0.970581 0.597351 0.077423
0.971741 0.596863 0.077576
0.971985 0.596466 0.079010
0.973206 0.596375 0.079529
0.974396 0.595856 0.079834
0.975616 0.595642 0.080017
0.976868 0.595612 0.080170
0.978058 0.595459 0.080353
0.979279 0.595428 0.080536
0.980469 0.595215 0.080658
0.147339 0.548492 0.008423
0.151276 0.549255 0.008087
0.155365 0.550079 0.007782
0.159576 0.550934 0.007385
0.164337 0.551880 0.006866
0.168945 0.552856 0.006348
0.173828 0.553864 0.005646
0.178986 0.554901 0.004944
0.184357 0.556000 0.004303
0.189880 0.557251 0.003387
0.195374 0.558350 0.002380
0.201111 0.559601 0.001282
0.207153 0.560852 0.000793
0.386505 0.580872 0.054504
0.593262 0.630402 0.033569
0.728394 0.676361 0.034363
0.811493 0.703186 0.034973
0.894470 0.724670 0.035156
0.940918 0.679291 0.048676
0.951843 0.655304 0.056000
0.961823 0.646179 0.066223
0.969208 0.641907 0.075653
0.974213 0.640045 0.076019
0.975586 0.639587 0.076538
0.976807 0.638855 0.076508
0.977997 0.638062 0.076263
0.979156 0.637329 0.075989
0.980377 0.636719 0.075745
0.980621 0.636505 0.076721
0.981842 0.636505 0.076874
0.983032 0.636719 0.077057
0.984253 0.636505 0.077148
0.164093 0.587433 0.012299
0.167847 0.588593 0.011047
0.171967 0.589722 0.010284
0.176270 0.591675 0.009979
0.180634 0.593597 0.009247
0.185333 0.595398 0.008118
0.190369 0.597626 0.008026
0.195374 0.599579 0.006989
0.200348 0.601135 0.006195
0.205475 0.602783 0.006439
0.210602 0.604309 0.004761
0.216064 0.605743 0.004517
0.221619 0.607086 0.004150
0.277679 0.622528 0.000000
0.520569 0.670868 0.014069
0.686005 0.714325 0.034424
0.797394 0.745209 0.035126
0.872253 0.765472 0.035156
0.940033 0.782532 0.035156
0.956360 0.742645 0.037537
0.965637 0.713684 0.049133
0.973175 0.703278 0.061768
0.978790 0.694733 0.072113
0.980682 0.691528 0.075439
0.981781 0.689850 0.076569
0.981995 0.687592 0.077332
0.983185 0.687073 0.077667
0.984344 0.686920 0.078033
0.985535 0.687042 0.078491
0.986694 0.687286 0.078888
0.987885 0.687225 0.079346
0.989075 0.687073 0.079468
0.189026 0.672363 0.000000
0.193054 0.672638 0.000000
0.196075 0.673157 0.000000
0.199097 0.673340 0.000000
0.202972 0.673615 0.000000
0.208038 0.673584 0.000000
0.213165 0.673401 0.000000
0.217102 0.673859 0.000000
0.222382 0.673828 0.000000
0.227692 0.673798 0.000000
0.233032 0.674072 0.000000
0.238464 0.673920 0.000000
0.243591 0.673950 0.000000
0.248566 0.674042 0.000000
0.412720 0.705994 0.000000
0.646881 0.765350 0.023163
0.767853 0.785767 0.035156
0.862091 0.804291 0.035126
0.924561 0.818298 0.035034
0.954193 0.828064 0.035095
0.966827 0.795166 0.035278
0.977051 0.767151 0.035431
0.983917 0.751282 0.041260
0.986847 0.744629 0.048981
0.987061 0.743469 0.051819
0.988312 0.742523 0.053619
0.989441 0.742004 0.055573
0.990570 0.742615 0.057251
0.991699 0.743042 0.059082
0.992828 0.744476 0.060608
0.993958 0.745453 0.062256
0.995056 0.745178 0.064209
0.192719 0.706024 0.000000
0.196228 0.707153 0.000000
0.201538 0.708160 0.000000
0.207001 0.709076 0.000000
0.212311 0.709961 0.000000
0.215607 0.711060 0.000000
0.218872 0.712158 0.000000
0.223114 0.713348 0.000000
0.228851 0.714844 0.000000
0.234680 0.716583 0.000000
0.239868 0.718262 0.000000
0.244476 0.719818 0.000000
0.249054 0.721252 0.000000
0.254669 0.722809 0.000000
0.340363 0.746063 0.000000
0.598175 0.810303 0.020355
0.746460 0.830353 0.035278
0.842682 0.839752 0.035126
0.918945 0.847443 0.035004
0.951233 0.861298 0.035004
0.964233 0.861816 0.035126
0.974762 0.836334 0.035248
0.983002 0.805725 0.035278
0.988861 0.796692 0.035278
0.990662 0.796387 0.035278
0.992004 0.796417 0.035309
0.993256 0.797089 0.036743
0.994507 0.798218 0.038147
0.995728 0.799408 0.039551
0.996979 0.800232 0.040924
0.998199 0.801178 0.042328
0.999451 0.802002 0.043732
0.191864 0.733215 0.000000
0.195099 0.734253 0.000000
0.200134 0.735413 0.000000
0.205048 0.736511 0.000000
0.210022 0.737701 0.000000
0.214905 0.738708 0.000000
0.219696 0.739716 0.000000
0.224487 0.740845 0.000000
0.229797 0.742065 0.000000
0.235046 0.743286 0.000000
0.240662 0.744720 0.000000
0.246460 0.746368 0.000000
0.252014 0.748047 0.000000
0.257538 0.749603 0.000000
0.302582 0.760620 0.000000
0.529846 0.817993 0.012268
0.722382 0.847626 0.035278
0.828247 0.857635 0.035156
0.907684 0.860596 0.035065
0.948761 0.865295 0.035004
0.962067 0.885010 0.035034
0.972717 0.867706 0.035156
0.981171 0.846039 0.035217
0.987701 0.825134 0.035278
0.990662 0.824066 0.035278
0.992004 0.823792 0.035278
0.993347 0.824310 0.035278
0.994659 0.824707 0.035278
0.995972 0.825043 0.035278
0.997253 0.827026 0.036438
0.998474 0.829285 0.037842
0.999725 0.830841 0.039215
0.195435 0.744812 0.000000
0.197784 0.745850 0.000000
0.200836 0.746948 0.000000
0.205811 0.748077 0.000000
0.210449 0.749176 0.000000
0.214966 0.750275 0.000000
0.219788 0.751282 0.000000
0.225311 0.752411 0.000000
0.230713 0.753632 0.000000
0.235931 0.754852 0.000000
0.241516 0.756042 0.000000
0.247192 0.757507 0.000000
0.252838 0.759094 0.000000
0.258728 0.760590 0.000000
0.264343 0.761993 0.000000
0.448883 0.807953 0.001251
0.700989 0.854767 0.034271
0.814301 0.864319 0.035217
0.898712 0.867401 0.035065
0.946686 0.870300 0.035004
0.960297 0.889832 0.034973
0.971100 0.882690 0.035126
0.979645 0.864716 0.035187
0.986359 0.841766 0.035248
0.990448 0.836609 0.035248
0.992004 0.835968 0.035248
0.993347 0.836731 0.035248
0.994659 0.837372 0.035248
0.995972 0.838104 0.035248
0.997345 0.839325 0.035248
0.998596 0.841309 0.036041
0.999847 0.843872 0.037384
0.199341 0.756287 0.000000
0.201691 0.757324 0.000000
0.203613 0.758362 0.000000
0.206726 0.759460 0.000000
0.211304 0.760559 0.000000
0.215637 0.761597 0.000000
0.220123 0.762756 0.000000
0.225677 0.763885 0.000000
0.231476 0.765137 0.000000
0.236969 0.766357 0.000000
0.242432 0.767548 0.000000
0.248108 0.768768 0.000000
0.253723 0.770172 0.000000
0.259613 0.771484 0.000000
0.265533 0.772797 0.000000
0.407898 0.807037 0.000000
0.682190 0.861725 0.034241
0.803345 0.869965 0.035248
0.891235 0.874481 0.035065
0.944916 0.876007 0.034973
0.958954 0.891266 0.034943
0.969910 0.892883 0.035095
0.978516 0.876923 0.035156
0.985260 0.856964 0.035217
0.990204 0.848602 0.035217
0.992004 0.848145 0.035217
0.993347 0.848572 0.035217
0.994659 0.849152 0.035217
0.995972 0.849884 0.035217
0.997314 0.851105 0.035217
0.998627 0.852295 0.035217
0.999878 0.854248 0.036041
0.203735 0.767303 0.000000
0.205505 0.768250 0.000000
0.207428 0.769318 0.000000
0.209259 0.770355 0.000000
0.212341 0.771423 0.000000
0.216614 0.772522 0.000000
0.220886 0.773560 0.000000
0.226196 0.774750 0.000000
0.232056 0.775940 0.000000
0.237915 0.777191 0.000000
0.243469 0.778381 0.000000
0.249084 0.779602 0.000000
0.254822 0.780792 0.000000
0.260559 0.782013 0.000000
0.266541 0.783234 0.000000
0.400177 0.814423 0.000275
0.667633 0.869049 0.034241
0.795624 0.875183 0.035248
0.886169 0.880066 0.035095
0.944031 0.881836 0.034973
0.958008 0.892090 0.034943
0.969055 0.901642 0.035095
0.977692 0.888275 0.035126
0.984497 0.869995 0.035187
0.989685 0.859772 0.035217
0.992004 0.859802 0.035217
0.993317 0.860321 0.035217
0.994629 0.860687 0.035217
0.995941 0.861267 0.035217
0.997314 0.862366 0.035217
0.998627 0.863556 0.035217
0.999939 0.864777 0.035187
0.207703 0.777100 0.000000
0.209595 0.778046 0.000000
0.211426 0.779022 0.000000
0.213348 0.780090 0.000000
0.215302 0.781189 0.000000
0.218628 0.782227 0.000000
0.222961 0.783264 0.000000
0.227325 0.784332 0.000000
0.233032 0.785583 0.000000
0.238800 0.786804 0.000000
0.244751 0.787903 0.000000
0.250366 0.789093 0.000000
0.256134 0.790283 0.000000
0.262177 0.791565 0.000000
0.268158 0.792786 0.000000
0.394897 0.821259 0.000916
0.656311 0.869904 0.034241
0.790680 0.879883 0.035278
0.882843 0.885345 0.035095
0.943298 0.887421 0.034973
0.957397 0.894226 0.034943
0.968506 0.908691 0.035095
0.977173 0.899902 0.035095
0.983978 0.882385 0.035126
0.989227 0.870667 0.035187
0.991882 0.870667 0.035187
0.993286 0.871246 0.035187
0.994598 0.871643 0.035187
0.995941 0.872101 0.035187
0.997284 0.873291 0.035156
0.998596 0.874451 0.035156
0.999908 0.875702 0.035156
0.211792 0.786865 0.000000
0.213593 0.787781 0.000000
0.215485 0.788757 0.000000
0.217316 0.789764 0.000000
0.219299 0.790833 0.000000
0.221130 0.791870 0.000000
0.224945 0.792938 0.000000
0.229401 0.794037 0.000000
0.233917 0.795105 0.000000
0.239777 0.796356 0.000000
0.245728 0.797455 0.000000
0.251678 0.798584 0.000000
0.257416 0.799774 0.000000
0.263641 0.800995 0.000000
0.269745 0.802246 0.000000
0.392242 0.828522 0.001678
0.649536 0.871033 0.034271
