滤镜资源/Professional Luts Collection/Triune-Digital-Cinematic-LUTs/3D LUTs (CUBE)/ALEXA/Mad Max Fury Road - Alexa.cube
#Created by Benjamin (IWLTBAP) : http://luts.iwltbap.com
#Copyright: (C) Copyright 2016 Triune Films and IWLTBAP
TITLE "Blockbuster LUTs Pack (Alexa Log-C)"
#LUT size
LUT_3D_SIZE 8
#LUT data points
DOMAIN_MIN 0.000000 0.000000 0.000000
DOMAIN_MAX 0.903226 0.903226 0.903226
0.023407 0.044312 0.050140
0.065674 0.054657 0.056915
0.169861 0.083893 0.073578
0.393372 0.129822 0.041534
0.649780 0.184357 0.155121
0.841766 0.224548 0.216766
0.865204 0.228821 0.225281
0.884277 0.232819 0.229492
0.027496 0.090607 0.051575
0.063477 0.088348 0.057861
0.174194 0.103607 0.073212
0.398712 0.137848 0.041077
0.654419 0.191986 0.151001
0.847107 0.232361 0.212799
0.870361 0.236084 0.221741
0.889618 0.240204 0.225952
0.047028 0.175110 0.047943
0.056274 0.179413 0.045410
0.213654 0.164307 0.003510
0.426270 0.194427 0.035522
0.685333 0.241577 0.131653
0.859161 0.256012 0.201263
0.879425 0.251068 0.213104
0.897980 0.253998 0.217804
0.079407 0.317688 0.038818
0.086029 0.318634 0.035980
0.095062 0.324707 0.023224
0.521362 0.317841 0.020599
0.797180 0.360138 0.128937
0.944519 0.403503 0.144257
0.952942 0.408081 0.141998
0.958527 0.413361 0.139008
0.120575 0.490021 0.000000
0.134949 0.492432 0.000000
0.154968 0.495331 0.000000
0.361603 0.507782 0.050201
0.857330 0.552429 0.056580
0.956360 0.550293 0.087341
0.968353 0.559479 0.087067
0.973175 0.563080 0.087799
0.189026 0.672363 0.000000
0.202972 0.673615 0.000000
0.222382 0.673828 0.000000
0.243591 0.673950 0.000000
0.767853 0.785767 0.035156
0.966827 0.795166 0.035278
0.987061 0.743469 0.051819
0.991699 0.743042 0.059082
0.199341 0.756287 0.000000
0.211304 0.760559 0.000000
0.231476 0.765137 0.000000
0.253723 0.770172 0.000000
0.682190 0.861725 0.034241
0.958954 0.891266 0.034943
0.990204 0.848602 0.035217
0.995972 0.849884 0.035217
0.215820 0.796722 0.000000
0.223328 0.800568 0.000000
0.235901 0.804810 0.000000
0.258820 0.809265 0.000000
0.645599 0.873138 0.034271
0.956787 0.900024 0.034943
0.988739 0.891907 0.035126
0.995911 0.892914 0.035126
0.014160 0.056091 0.083282
0.062073 0.057129 0.086761
0.168365 0.076752 0.094635
0.383972 0.115265 0.064392
0.642181 0.179230 0.173187
0.841461 0.223480 0.229767
0.866760 0.228882 0.236145
0.885773 0.232788 0.240051
0.013519 0.081329 0.082886
0.042969 0.081146 0.083099
0.162323 0.101959 0.096893
0.394806 0.132599 0.057037
0.642517 0.184021 0.171753
0.842560 0.228455 0.228485
0.867126 0.233398 0.235443
0.886475 0.237366 0.239349
0.042572 0.167725 0.061615
0.047852 0.170532 0.065186
0.200409 0.162628 0.042297
0.423004 0.189178 0.047882
0.671570 0.229034 0.153168
0.854492 0.246918 0.218811
0.873657 0.243805 0.229614
0.892151 0.246765 0.234009
0.078735 0.316040 0.045197
0.085358 0.317078 0.042816
0.094055 0.322357 0.031219
0.525665 0.318787 0.026947
0.793213 0.359711 0.131409
0.941803 0.402863 0.145905
0.952789 0.408478 0.147278
0.958557 0.413513 0.144775
0.120056 0.489410 0.005310
0.133972 0.491364 0.005310
0.153564 0.494110 0.005310
0.358002 0.507629 0.054871
0.861633 0.555786 0.061768
0.955444 0.550385 0.091980
0.968353 0.560364 0.091217
0.974121 0.564453 0.091187
0.188446 0.671844 0.005310
0.202820 0.673340 0.005310
0.222351 0.673645 0.005310
0.241791 0.674164 0.005310
0.767029 0.785370 0.040466
0.966827 0.795868 0.040588
0.987091 0.741699 0.057526
0.991669 0.742401 0.064331
0.199280 0.756683 0.005310
0.211304 0.760742 0.005310
0.231537 0.765259 0.005310
0.253296 0.770081 0.005310
0.679474 0.861694 0.039551
0.958923 0.891541 0.040283
0.990204 0.847015 0.040558
0.995972 0.849365 0.040558
0.216003 0.797119 0.005310
0.223389 0.800690 0.005310
0.235229 0.804932 0.005310
0.257996 0.809204 0.005310
0.642944 0.873840 0.039581
0.956757 0.899994 0.040283
0.988708 0.890961 0.040466
0.995911 0.893036 0.040436
0.002594 0.079895 0.146545
0.021179 0.080109 0.147980
0.207733 0.094269 0.153564
0.411133 0.127228 0.125061
0.655945 0.185425 0.193207
0.852905 0.227844 0.244476
0.878296 0.233398 0.249969
0.896484 0.237335 0.253418
0.001434 0.087311 0.144043
0.014191 0.087921 0.146027
0.199738 0.100311 0.153107
0.410767 0.131989 0.123962
0.656769 0.190338 0.192444
0.853424 0.232574 0.243866
0.878601 0.238037 0.249359
0.897430 0.242035 0.252899
0.000000 0.152130 0.151428
0.005280 0.152557 0.151886
0.132599 0.161591 0.158081
0.412109 0.181335 0.116394
0.661133 0.213715 0.187195
0.853516 0.239807 0.242126
0.878845 0.242615 0.248108
0.897461 0.246582 0.251709
0.071716 0.307800 0.083862
0.077942 0.308960 0.084808
0.083893 0.310638 0.087708
0.504181 0.319611 0.048584
0.768585 0.360413 0.135681
0.927948 0.401215 0.168762
0.951294 0.405243 0.180573
0.957764 0.410400 0.183258
0.116913 0.487488 0.010620
0.131409 0.489410 0.010620
0.150665 0.492065 0.010620
0.349731 0.505829 0.058472
0.859741 0.553406 0.066895
0.955383 0.549530 0.097137
0.968384 0.560028 0.096252
0.974091 0.564606 0.094879
0.184662 0.672455 0.010620
0.200562 0.673981 0.010620
0.217926 0.675293 0.010620
0.238037 0.676178 0.010620
0.765289 0.783722 0.045776
0.966705 0.792755 0.045898
0.987061 0.738434 0.063782
0.991577 0.739685 0.070435
0.199493 0.757385 0.010620
0.210419 0.761810 0.010620
0.230042 0.766327 0.010620
0.252228 0.770813 0.010620
0.675751 0.860382 0.044891
0.958801 0.890717 0.045563
0.990173 0.844971 0.045837
0.995972 0.847229 0.045837
0.216553 0.798615 0.010620
0.223877 0.801971 0.010620
0.234558 0.805756 0.010620
0.256592 0.809906 0.010620
0.638428 0.874176 0.044891
0.956635 0.899231 0.045563
0.988617 0.890198 0.045746
0.995941 0.891449 0.045715
0.005585 0.129517 0.245544
0.010620 0.128815 0.245270
0.043762 0.136932 0.268829
0.507355 0.179962 0.247009
0.742432 0.218811 0.288879
0.892639 0.258301 0.316681
0.920380 0.263672 0.320923
0.942322 0.267670 0.323883
0.005188 0.134338 0.244293
0.010284 0.133820 0.243988
0.042236 0.140778 0.265045
0.504700 0.185059 0.247467
0.739716 0.224243 0.289276
0.892273 0.263611 0.317444
0.921021 0.269318 0.321991
0.942505 0.273102 0.324554
0.004364 0.143005 0.241974
0.009583 0.142273 0.242126
0.036377 0.145172 0.254211
0.494629 0.189423 0.248077
0.733765 0.229309 0.289032
0.893158 0.268158 0.317200
0.922394 0.273895 0.321747
0.943298 0.278290 0.324677
0.000000 0.295990 0.260223
0.005280 0.297974 0.261414
0.010529 0.299591 0.262665
0.364197 0.346588 0.334747
0.701874 0.371552 0.315155
0.909515 0.355988 0.330231
0.940796 0.356903 0.332153
0.956909 0.358826 0.331329
0.000000 0.465912 0.225677
0.005310 0.463531 0.222168
0.012543 0.460876 0.218414
0.144318 0.491699 0.177094
0.809479 0.556671 0.158722
0.954742 0.577454 0.266602
0.967621 0.589417 0.280457
0.972534 0.594269 0.284790
0.095703 0.592957 0.165253
0.105438 0.598572 0.161896
0.123474 0.614838 0.153229
0.144928 0.636475 0.135590
0.738708 0.770233 0.093750
0.966095 0.772522 0.093323
0.984863 0.727509 0.118195
0.987976 0.728394 0.186371
0.202911 0.766235 0.030579
0.210175 0.769928 0.030579
0.218170 0.771912 0.030640
0.237549 0.773834 0.030853
0.651733 0.848053 0.066589
0.958160 0.884857 0.071167
0.989838 0.833649 0.074768
0.995972 0.836151 0.075592
0.220886 0.808136 0.029114
0.227417 0.810059 0.029144
0.234283 0.812531 0.029205
0.244598 0.814606 0.029480
0.610870 0.870697 0.064301
0.955963 0.895752 0.065796
0.988098 0.883209 0.066406
0.995941 0.884277 0.066498
0.008575 0.187531 0.356750
0.013519 0.186920 0.356567
0.027130 0.185425 0.356140
0.410797 0.220184 0.387024
0.799164 0.268372 0.368225
0.955505 0.300598 0.405823
0.964264 0.309448 0.417572
0.970093 0.318420 0.428131
0.008362 0.192688 0.355530
0.013336 0.191895 0.355255
0.024567 0.190399 0.354553
0.406219 0.224335 0.387787
0.797821 0.273712 0.369232
0.955566 0.306183 0.406860
0.964294 0.314819 0.418518
0.970215 0.324036 0.429169
0.008118 0.198212 0.355255
0.013092 0.197571 0.354675
0.018280 0.196777 0.354218
0.394073 0.227661 0.389862
0.794281 0.278870 0.370087
0.955536 0.311676 0.407745
0.964508 0.320648 0.419708
0.970398 0.330505 0.431000
0.000885 0.258759 0.341949
0.006134 0.261566 0.345398
0.011536 0.262878 0.347809
0.078552 0.296387 0.417084
0.764160 0.336151 0.391510
0.954102 0.366455 0.434448
0.966095 0.368927 0.442383
0.971252 0.376068 0.450775
0.000000 0.466553 0.415771
0.005219 0.469086 0.417542
0.010468 0.471649 0.419464
0.026062 0.479095 0.426208
0.649689 0.582489 0.555908
0.909393 0.621063 0.541473
0.963318 0.618530 0.538269
0.971161 0.620697 0.544891
0.000000 0.678741 0.443054
0.005310 0.675293 0.440186
0.010620 0.672028 0.437866
0.015900 0.668884 0.435730
0.583557 0.734406 0.373932
0.957428 0.748749 0.355682
0.979767 0.746002 0.447327
0.984711 0.750427 0.455597
0.000000 0.775024 0.336761
0.005310 0.775269 0.331757
0.010620 0.774506 0.328400
0.015900 0.773560 0.325653
0.401642 0.873688 0.244904
0.954865 0.872650 0.368866
0.987152 0.828125 0.352844
0.993134 0.823334 0.384277
0.000000 0.815521 0.320099
0.013458 0.813812 0.319000
0.031403 0.812927 0.318970
0.046936 0.812805 0.318695
0.316742 0.896820 0.237610
0.952057 0.893219 0.369049
0.986847 0.861786 0.331787
0.995972 0.852112 0.349426
0.011017 0.242462 0.460571
0.015930 0.242279 0.460602
0.020844 0.242035 0.460480
0.197815 0.265533 0.518402
0.732819 0.319122 0.480194
0.937134 0.362000 0.566742
0.954987 0.367432 0.571930
0.961212 0.373505 0.576385
0.010925 0.247894 0.460297
0.015778 0.247681 0.459991
0.020691 0.247406 0.459930
0.185699 0.270081 0.517883
0.730347 0.324799 0.482758
0.936951 0.367950 0.569336
0.954834 0.372925 0.572693
0.961121 0.379303 0.578033
0.010803 0.254120 0.461029
0.015656 0.253754 0.460571
0.020569 0.253571 0.460358
0.149567 0.273193 0.512604
0.724457 0.330261 0.485565
0.936035 0.373169 0.570038
0.954834 0.378204 0.573608
0.960541 0.385376 0.579285
0.010529 0.259674 0.459930
0.015472 0.258911 0.459778
0.020355 0.258636 0.459473
0.070435 0.265442 0.480499
0.699890 0.332092 0.481598
0.928955 0.376648 0.567047
0.954773 0.383118 0.571228
0.961090 0.389587 0.576630
0.000000 0.424591 0.480194
0.005096 0.427887 0.483856
0.010162 0.431854 0.488251
0.015198 0.434509 0.491669
0.318604 0.502167 0.695404
0.888733 0.550568 0.674713
0.952728 0.554077 0.680939
0.959656 0.559204 0.684692
0.000000 0.623383 0.565247
0.005188 0.625732 0.566559
0.010376 0.627441 0.568176
0.015533 0.628967 0.569672
0.105682 0.690125 0.618896
0.861969 0.775757 0.727570
0.970642 0.795807 0.730865
0.981781 0.798218 0.734131
0.000000 0.755310 0.612244
0.005280 0.758240 0.614624
0.010590 0.761688 0.616943
0.015839 0.765961 0.620148
0.070496 0.803467 0.646393
0.845978 0.868835 0.655060
0.982391 0.850464 0.604431
0.990143 0.851868 0.657990
0.000000 0.787689 0.626099
0.005310 0.791351 0.628723
0.010620 0.794922 0.631104
0.015900 0.798187 0.633606
0.053101 0.823395 0.649414
0.840210 0.899536 0.628235
0.984772 0.887512 0.549408
0.992981 0.872498 0.615845
0.013641 0.270142 0.509766
0.018372 0.269531 0.509094
0.023132 0.269348 0.508881
0.078949 0.285065 0.541077
0.680878 0.335266 0.591705
0.932373 0.373505 0.660217
0.958252 0.384491 0.687378
0.965271 0.395325 0.702728
0.013489 0.275787 0.509644
0.018250 0.275330 0.509033
0.023010 0.274902 0.508636
0.078369 0.289764 0.539429
0.680450 0.340179 0.593140
0.932068 0.378815 0.661835
0.958527 0.390198 0.689606
0.965576 0.400696 0.704407
0.013153 0.281952 0.510803
0.017975 0.281616 0.510345
0.022797 0.281006 0.509888
0.076355 0.293701 0.536896
0.675415 0.343964 0.594269
0.930267 0.383453 0.662415
0.958710 0.395905 0.691711
0.965637 0.406281 0.707611
0.012787 0.288666 0.512665
0.017578 0.288208 0.512177
0.022461 0.287628 0.511566
0.063202 0.292175 0.522552
0.652283 0.343719 0.593384
0.920258 0.386688 0.659698
0.958923 0.401245 0.694031
0.965424 0.411896 0.707458
0.000000 0.423096 0.530273
0.005005 0.427765 0.535126
0.010010 0.430634 0.538940
0.014954 0.431915 0.541718
0.118225 0.468201 0.683197
0.890411 0.482300 0.741699
0.963898 0.504456 0.757294
0.967957 0.517151 0.753265
0.000000 0.595184 0.593811
0.005096 0.598633 0.596588
0.010193 0.602173 0.599609
0.015289 0.604004 0.601929
0.096466 0.635284 0.636292
0.793518 0.735535 0.814941
0.941620 0.754578 0.819122
0.957825 0.758209 0.822388
0.000000 0.706482 0.633026
0.005188 0.708893 0.634796
0.010376 0.710938 0.636536
0.015533 0.711792 0.637573
0.056732 0.729523 0.652039
0.683838 0.863525 0.819794
0.959198 0.867340 0.802704
0.988831 0.875854 0.804596
0.000000 0.743500 0.646057
0.005188 0.745911 0.647766
0.010437 0.748474 0.649567
0.015625 0.750946 0.651398
0.049408 0.769928 0.664185
0.645508 0.911682 0.767883
0.978943 0.903748 0.737640
0.990784 0.893768 0.770508
0.014404 0.277222 0.522186
0.019226 0.276184 0.520966
0.023987 0.276123 0.520691
0.077850 0.290344 0.549377
0.677704 0.336761 0.616302
0.929535 0.373962 0.682831
0.960022 0.382446 0.702026
0.967194 0.394470 0.723328
0.014221 0.282227 0.521545
0.019043 0.282013 0.520905
0.023804 0.281799 0.520691
0.077240 0.295258 0.548157
0.675446 0.341309 0.617981
0.928864 0.379150 0.684479
0.960724 0.387207 0.704254
0.967224 0.399933 0.725403
0.014008 0.288879 0.523254
0.018860 0.288361 0.522369
0.023651 0.287781 0.521820
0.075195 0.299347 0.545959
0.670807 0.344269 0.619629
0.927277 0.383942 0.685669
0.960876 0.392609 0.706482
0.967987 0.404999 0.727875
0.013733 0.295624 0.525116
0.018585 0.295197 0.524597
0.023407 0.294617 0.524078
0.061401 0.298157 0.532440
0.646912 0.344421 0.620819
0.915619 0.387451 0.683350
0.961243 0.397614 0.708557
0.968109 0.410461 0.729889
0.000916 0.423004 0.545105
0.005829 0.427307 0.549438
0.011047 0.430573 0.553680
0.016479 0.431427 0.556244
0.117554 0.457794 0.681000
0.881500 0.467621 0.758179
0.966400 0.492340 0.784576
0.970673 0.508759 0.787659
0.000000 0.593140 0.609406
0.005096 0.596069 0.612000
0.010162 0.599243 0.614990
0.015228 0.601044 0.617157
0.093872 0.629669 0.648804
0.738434 0.723389 0.843506
0.945343 0.736298 0.840607
0.960205 0.742554 0.839874
0.000000 0.697327 0.644226
0.005157 0.698151 0.645233
0.010315 0.700836 0.647064
0.015442 0.701813 0.648682
0.053589 0.716125 0.661682
0.635834 0.830688 0.856659
0.922394 0.865387 0.862244
0.966156 0.868073 0.863403
0.000000 0.735535 0.657806
0.005188 0.737701 0.659393
0.010376 0.739624 0.660980
0.015533 0.742126 0.662842
0.048279 0.756500 0.673889
0.588959 0.887329 0.850189
0.947113 0.900604 0.821045
0.989136 0.902283 0.829865
