滤镜资源/Professional Luts Collection/Triune-Digital-Cinematic-LUTs/3D LUTs (CUBE)/ALEXA/Saving Private Ryan - Alexa.cube
#Created by Benjamin (IWLTBAP) : http://luts.iwltbap.com
#Copyright: (C) Copyright 2016 Triune Films and IWLTBAP
TITLE "Blockbuster LUTs Pack (Alexa Log-C)"
#LUT size
LUT_3D_SIZE 5
#LUT data points
DOMAIN_MIN 0.000000 0.000000 0.000000
DOMAIN_MAX 0.903226 0.903226 0.903226
0.001099 0.003937 0.003723
0.086578 0.007599 0.006561
0.397491 0.054169 0.059967
0.688843 0.105988 0.132965
0.725281 0.112244 0.145538
0.022308 0.129669 0.028198
0.091949 0.126282 0.024231
0.437653 0.151245 0.072449
0.706451 0.130157 0.134430
0.739624 0.135315 0.147034
0.097412 0.425781 0.100159
0.118164 0.428619 0.101685
0.454437 0.467255 0.133026
0.797852 0.493561 0.178589
0.832733 0.492249 0.181854
0.192413 0.752869 0.202209
0.212952 0.756104 0.204773
0.275574 0.766144 0.211090
0.812134 0.801331 0.248962
0.899078 0.802795 0.254578
0.206757 0.800018 0.216827
0.227142 0.802460 0.219513
0.247864 0.805115 0.221771
0.799255 0.849731 0.261200
0.897675 0.853699 0.268555
0.004395 0.004913 0.088348
0.090851 0.010529 0.098694
0.399109 0.053833 0.139587
0.702118 0.108582 0.193329
0.738586 0.114899 0.202148
0.017792 0.110321 0.113281
0.090698 0.116394 0.120056
0.435333 0.131775 0.155701
0.713348 0.130402 0.195312
0.747894 0.136139 0.203583
0.093445 0.421875 0.120972
0.117920 0.428253 0.125519
0.458435 0.468567 0.157867
0.798706 0.497894 0.210602
0.835114 0.498260 0.224487
0.188507 0.747894 0.220673
0.211823 0.755707 0.227203
0.275055 0.766052 0.235840
0.813629 0.804047 0.273499
0.898834 0.806061 0.279877
0.203247 0.795868 0.235626
0.226227 0.802673 0.242371
0.246948 0.805817 0.245392
0.800293 0.853302 0.286163
0.897369 0.857208 0.293243
0.015228 0.018097 0.328156
0.056793 0.018951 0.325256
0.374664 0.051239 0.352692
0.679596 0.105103 0.387695
0.722992 0.112823 0.390015
0.017578 0.042236 0.333740
0.039276 0.044312 0.336792
0.382874 0.074066 0.357666
0.694824 0.128418 0.393860
0.739105 0.136261 0.395142
0.084229 0.398376 0.404419
0.102448 0.401215 0.406281
0.427704 0.460266 0.452209
0.814972 0.493042 0.489349
0.858734 0.485901 0.487518
0.161072 0.715393 0.427216
0.181580 0.720337 0.429047
0.227112 0.730835 0.435364
0.808777 0.817291 0.520905
0.897339 0.828918 0.536774
0.177826 0.770050 0.414154
0.199310 0.775482 0.416931
0.221313 0.781586 0.422455
0.797943 0.873657 0.514069
0.904083 0.882263 0.524292
0.046600 0.045471 0.571411
0.065338 0.043884 0.567505
0.371216 0.068359 0.588928
0.665192 0.103363 0.605957
0.701691 0.109558 0.610168
0.048492 0.067627 0.577728
0.069458 0.069427 0.580200
0.370422 0.090210 0.594543
0.677673 0.126373 0.613525
0.715454 0.132782 0.617401
0.075775 0.286835 0.620239
0.093658 0.288513 0.622498
0.347839 0.321289 0.645081
0.727814 0.317780 0.661011
0.767151 0.298157 0.658356
0.154816 0.684021 0.678833
0.174164 0.688263 0.681580
0.193634 0.691559 0.685242
0.792572 0.813782 0.781158
0.894928 0.824738 0.793457
0.178406 0.777710 0.693207
0.197693 0.781952 0.695465
0.217499 0.786804 0.698669
0.787079 0.905273 0.787903
0.912964 0.916229 0.802521
0.054504 0.052521 0.634094
0.073792 0.051056 0.630737
0.361725 0.071442 0.646545
0.662384 0.104279 0.666656
0.695648 0.109100 0.666626
0.056396 0.074463 0.641174
0.077972 0.076233 0.643646
0.357788 0.092834 0.652191
0.672089 0.127289 0.675812
0.707184 0.131775 0.674683
0.066223 0.178558 0.665741
0.087738 0.180695 0.667267
0.309174 0.197693 0.678314
0.690369 0.213257 0.700500
0.733215 0.204193 0.699829
0.156433 0.673462 0.755585
0.175385 0.676880 0.758484
0.194366 0.678925 0.761902
0.778046 0.800995 0.853180
0.883484 0.808380 0.860260
0.179596 0.779510 0.774353
0.198883 0.783630 0.776978
0.218750 0.788544 0.780884
0.774597 0.903503 0.867462
0.908813 0.919250 0.881409
