滤镜资源/Professional Luts Collection/Triune-Digital-Cinematic-LUTs/3D LUTs (CUBE)/ALEXA/Saving Private Ryan - Alexa.cube
#Created by Benjamin (IWLTBAP) : http://luts.iwltbap.com
#Copyright: (C) Copyright 2016 Triune Films and IWLTBAP
TITLE "Blockbuster LUTs Pack (Alexa Log-C)"
#LUT size
LUT_3D_SIZE 32
#LUT data points
0.001099 0.003937 0.003723
0.009216 0.003662 0.003387
0.018005 0.003235 0.002899
0.027863 0.002808 0.002441
0.039337 0.003235 0.002686
0.052399 0.004272 0.003662
0.067932 0.005707 0.004852
0.086578 0.007599 0.006561
0.115234 0.011078 0.010010
0.149323 0.016144 0.014862
0.190735 0.023041 0.022034
0.240936 0.031006 0.031097
0.295624 0.037750 0.039978
0.346527 0.045166 0.049255
0.397491 0.054169 0.059967
0.450500 0.063873 0.072357
0.501526 0.072937 0.085419
0.550995 0.081665 0.097717
0.599854 0.090302 0.109039
0.647034 0.098602 0.119720
0.677582 0.103973 0.128204
0.688843 0.105988 0.132965
0.694183 0.106903 0.136017
0.699585 0.107819 0.138611
0.704834 0.108734 0.140686
0.709991 0.109619 0.142334
0.715179 0.110535 0.143616
0.720184 0.111420 0.144623
0.725281 0.112244 0.145538
0.730255 0.113098 0.146515
0.735321 0.113983 0.147583
0.740356 0.114838 0.148743
0.002808 0.016937 0.005768
0.009155 0.015564 0.004974
0.017792 0.014343 0.004272
0.027405 0.013397 0.003479
0.039154 0.012207 0.003204
0.052490 0.012970 0.004059
0.068176 0.013885 0.005127
0.087311 0.014923 0.006775
0.115448 0.017120 0.009979
0.150269 0.020813 0.014954
0.191559 0.026672 0.022095
0.242004 0.034637 0.031128
0.297333 0.041168 0.040131
0.348663 0.048889 0.049652
0.400208 0.057953 0.060577
0.453369 0.067688 0.073029
0.504028 0.076569 0.086029
0.553223 0.085114 0.098083
0.602234 0.093719 0.109406
0.649353 0.101990 0.120178
0.679688 0.107239 0.128662
0.690491 0.109070 0.133270
0.695801 0.109985 0.136322
0.701172 0.110901 0.138916
0.706390 0.111816 0.141052
0.711609 0.112701 0.142639
0.716766 0.113617 0.143890
0.721832 0.114502 0.144897
0.726868 0.115326 0.145874
0.731873 0.116150 0.146912
0.736908 0.117065 0.147980
0.741943 0.117920 0.149109
0.004700 0.031250 0.008301
0.009491 0.030396 0.007843
0.017883 0.027863 0.006195
0.027435 0.026093 0.005188
0.039246 0.024597 0.004395
0.052704 0.023529 0.004913
0.068878 0.024658 0.006073
0.088928 0.025970 0.007721
0.116730 0.028412 0.010651
0.152039 0.032440 0.015656
0.194550 0.036591 0.023163
0.243805 0.039948 0.031311
0.298798 0.044586 0.040222
0.350708 0.052551 0.049957
0.402863 0.061798 0.061127
0.456055 0.071381 0.073669
0.506683 0.080231 0.086395
0.555573 0.088654 0.098450
0.604462 0.097229 0.109741
0.651703 0.105377 0.120667
0.682159 0.110657 0.129242
0.692810 0.112427 0.133850
0.697601 0.113159 0.136749
0.702759 0.113983 0.139252
0.708008 0.114929 0.141266
0.713257 0.115784 0.142853
0.718353 0.116699 0.144135
0.723419 0.117554 0.145142
0.728424 0.118439 0.146210
0.733490 0.119293 0.147247
0.738525 0.120148 0.148315
0.743561 0.121063 0.149475
0.006836 0.047150 0.010834
0.009888 0.046753 0.010712
0.018158 0.044281 0.009125
0.027557 0.041656 0.007446
0.039703 0.039551 0.006348
0.053345 0.038361 0.006500
0.069244 0.039032 0.007385
0.091370 0.040649 0.009277
0.119537 0.043274 0.012329
0.154968 0.046875 0.017334
0.199799 0.050323 0.024933
0.248657 0.051453 0.032440
0.302155 0.051819 0.040802
0.352417 0.056061 0.050110
0.405304 0.065521 0.061584
0.458710 0.075043 0.074219
0.509277 0.083832 0.086731
0.558197 0.092255 0.098694
0.607056 0.100708 0.110016
0.654053 0.108795 0.121033
0.684570 0.114044 0.129761
0.695343 0.115845 0.134430
0.700104 0.116577 0.137329
0.704956 0.117340 0.139709
0.709869 0.118103 0.141571
0.714905 0.118958 0.143036
0.719971 0.119781 0.144257
0.725006 0.120636 0.145447
0.730072 0.121490 0.146484
0.735107 0.122375 0.147522
0.740112 0.123230 0.148560
0.745148 0.124084 0.149719
0.009399 0.064514 0.013855
0.011932 0.064392 0.013885
0.018402 0.062347 0.012573
0.027710 0.059570 0.010468
0.039673 0.056702 0.008606
0.053802 0.054718 0.008575
0.070007 0.055206 0.009155
0.092834 0.056915 0.010834
0.121796 0.059540 0.014252
0.157593 0.063019 0.019653
0.205292 0.067200 0.027344
0.256104 0.068054 0.034607
0.308746 0.067413 0.043060
0.358215 0.067657 0.052155
0.407471 0.069794 0.061768
0.460938 0.078583 0.074432
0.511688 0.087402 0.087006
0.560760 0.095856 0.098785
0.609985 0.104340 0.110199
0.656586 0.112244 0.121307
0.686951 0.117462 0.130157
0.697815 0.119263 0.134888
0.702637 0.119995 0.137848
0.707489 0.120758 0.140137
0.712433 0.121552 0.141937
0.717346 0.122345 0.143463
0.722321 0.123169 0.144745
0.727356 0.124023 0.145935
0.732361 0.124847 0.146973
0.737335 0.125702 0.147949
0.742279 0.126526 0.149017
0.747131 0.127289 0.150024
0.012665 0.083832 0.017670
0.015198 0.083771 0.017700
0.018951 0.082550 0.016815
0.027924 0.079956 0.014771
0.039917 0.077118 0.012054
0.054382 0.074738 0.011627
0.071594 0.076202 0.012451
0.092255 0.077087 0.013458
0.122345 0.079437 0.016693
0.160309 0.083496 0.022888
0.208649 0.088013 0.030518
0.261932 0.090729 0.037872
0.316467 0.091187 0.046417
0.368683 0.089996 0.055786
0.416748 0.085938 0.064514
0.464325 0.085388 0.074921
0.513275 0.090698 0.086639
0.563263 0.099365 0.098663
0.612762 0.107910 0.110107
0.659424 0.115814 0.121460
0.689575 0.120941 0.130463
0.700348 0.122711 0.135223
0.705139 0.123413 0.138031
0.710052 0.124176 0.140320
0.714935 0.124939 0.142181
0.719879 0.125763 0.143707
0.724792 0.126556 0.145050
0.729767 0.127411 0.146240
0.734772 0.128235 0.147308
0.739746 0.129059 0.148315
0.744598 0.129883 0.149231
0.749268 0.130646 0.150208
0.016998 0.105743 0.022583
0.019531 0.105774 0.022644
0.021912 0.105072 0.022125
0.027954 0.103333 0.020508
0.039520 0.100525 0.017731
0.055115 0.098053 0.016144
0.072479 0.099182 0.017029
0.093079 0.100922 0.018341
0.121429 0.102631 0.020355
0.162506 0.106842 0.027374
0.211914 0.111786 0.034698
0.267670 0.116791 0.042389
0.324707 0.120087 0.050293
0.377472 0.121185 0.059509
0.427460 0.117432 0.068542
0.474701 0.111481 0.078400
0.520142 0.105408 0.087738
0.566193 0.104919 0.098145
0.615570 0.111664 0.109741
0.662354 0.119507 0.121246
0.692657 0.124664 0.130524
0.703339 0.126404 0.135223
0.707825 0.126984 0.137970
0.712646 0.127716 0.140320
0.717499 0.128479 0.142212
0.722382 0.129272 0.143829
0.727325 0.130096 0.145233
0.732117 0.130920 0.146332
0.737122 0.131744 0.147400
0.742035 0.132568 0.148407
0.746735 0.133331 0.149200
0.751434 0.134094 0.150116
0.022308 0.129669 0.028198
0.024841 0.129608 0.028198
0.027161 0.128845 0.027649
0.029480 0.128204 0.027039
0.037811 0.126221 0.025055
0.053162 0.122955 0.021759
0.072754 0.124939 0.023010
0.091949 0.126282 0.024231
0.119232 0.129120 0.026398
0.159821 0.131958 0.031250
0.212616 0.137726 0.039307
0.270660 0.143799 0.046814
0.330780 0.148865 0.054657
0.385376 0.151215 0.062988
0.437653 0.151245 0.072449
0.487976 0.149506 0.083191
0.535034 0.144775 0.092163
0.579834 0.135529 0.101135
0.624268 0.127716 0.110687
0.667755 0.127594 0.121216
0.696777 0.129883 0.130280
0.706451 0.130157 0.134430
0.710907 0.130829 0.137451
0.715546 0.131500 0.139862
0.720276 0.132202 0.141876
0.725159 0.132935 0.143524
0.730072 0.133728 0.144928
0.734833 0.134521 0.146027
0.739624 0.135315 0.147034
0.744293 0.136047 0.147827
0.748962 0.136841 0.148651
0.753693 0.137634 0.149597
0.028625 0.157440 0.034637
0.031067 0.157104 0.034241
0.033417 0.156525 0.033600
0.035919 0.155853 0.032990
0.038513 0.155121 0.032410
0.048767 0.152863 0.030212
0.069855 0.153473 0.029938
0.092407 0.156219 0.031708
0.116821 0.157959 0.033569
0.156982 0.162109 0.037598
0.212097 0.168365 0.044830
0.273010 0.174652 0.052094
0.335724 0.180359 0.059937
0.391937 0.183228 0.068176
0.447205 0.185181 0.077332
0.498199 0.184845 0.085632
0.547272 0.184875 0.095215
0.596069 0.183075 0.105286
0.641907 0.178558 0.115814
0.682892 0.168915 0.126038
0.708740 0.155823 0.132599
0.716522 0.147919 0.136108
0.720093 0.144989 0.138763
0.724548 0.144531 0.141296
0.729004 0.144257 0.143372
0.733215 0.144135 0.144775
0.737366 0.144165 0.145782
0.741669 0.144501 0.146637
0.746094 0.144989 0.147400
0.750519 0.145538 0.148132
0.754883 0.146027 0.148865
0.759216 0.146332 0.149719
0.036102 0.190704 0.041962
0.038666 0.190155 0.041382
0.041229 0.189545 0.040833
0.043823 0.188965 0.040283
0.046417 0.188324 0.039703
0.048950 0.187653 0.039093
0.060883 0.186951 0.037872
0.087769 0.190399 0.039673
0.115326 0.193909 0.041901
0.150757 0.196655 0.044495
0.207275 0.204407 0.051025
0.272980 0.211121 0.058533
0.340332 0.217255 0.066742
0.398376 0.220337 0.074951
0.455994 0.222504 0.083588
0.508545 0.223969 0.091370
0.557648 0.226227 0.098541
0.605865 0.229187 0.107849
0.651947 0.231384 0.119446
0.694489 0.229706 0.130859
0.723877 0.225189 0.139008
0.734283 0.218201 0.143219
0.737427 0.210114 0.145386
0.740509 0.203064 0.147064
0.743683 0.197113 0.148163
0.747223 0.192383 0.149017
0.751099 0.189148 0.149658
0.755127 0.187347 0.150391
0.759430 0.186523 0.151062
0.763733 0.186188 0.151642
0.768005 0.185547 0.152222
0.772186 0.184174 0.152832
0.045258 0.230286 0.049835
0.047852 0.229858 0.049347
0.050446 0.229431 0.048859
0.053040 0.229065 0.048401
0.055756 0.228973 0.048279
0.058502 0.229156 0.048431
0.061279 0.229370 0.048584
0.073792 0.230621 0.049286
0.108948 0.234375 0.050842
0.145538 0.238403 0.052795
0.198517 0.243835 0.057037
0.264984 0.253296 0.065521
0.339783 0.259857 0.074860
0.403137 0.264130 0.082947
0.461609 0.266968 0.091370
0.515839 0.270142 0.098938
0.567291 0.274933 0.106659
0.615631 0.279785 0.114990
0.661682 0.283295 0.124420
0.704132 0.284637 0.133514
0.733215 0.283905 0.140381
0.743256 0.280670 0.144470
0.746948 0.277191 0.147614
0.750824 0.274353 0.150360
0.755310 0.272308 0.152557
0.759918 0.270844 0.154266
0.764404 0.269958 0.155518
0.768860 0.269592 0.156464
0.773438 0.269562 0.157349
0.777954 0.269714 0.158081
0.782501 0.269775 0.158875
0.787048 0.269592 0.159912
0.055695 0.275452 0.059662
0.058411 0.275665 0.059753
0.061188 0.275940 0.059906
0.063904 0.276123 0.060028
0.066620 0.276276 0.060181
0.069336 0.276550 0.060303
0.072083 0.276703 0.060455
0.074768 0.276886 0.060608
0.089722 0.278625 0.061279
0.136108 0.283630 0.062225
0.193085 0.289795 0.065826
0.258667 0.298004 0.073730
0.328674 0.303955 0.081604
0.404480 0.312805 0.092560
0.466705 0.316040 0.100128
0.522034 0.321106 0.108337
0.574524 0.325714 0.116852
0.624329 0.330780 0.125732
0.671783 0.334930 0.133911
0.714172 0.337524 0.140350
0.745728 0.338196 0.144440
0.756470 0.336426 0.146301
0.760193 0.334351 0.148193
0.764069 0.332764 0.150238
0.768005 0.331665 0.151978
0.772156 0.331116 0.153412
0.776459 0.330811 0.154602
0.780914 0.330811 0.155609
0.785492 0.330902 0.156464
0.790161 0.331268 0.157318
0.794739 0.331482 0.158081
0.799347 0.331573 0.158966
0.068512 0.325226 0.072388
0.071198 0.325531 0.072540
0.073975 0.325836 0.072662
0.076752 0.326050 0.072754
0.079590 0.326324 0.072876
0.082489 0.326599 0.072998
0.085358 0.326904 0.073181
0.088257 0.327148 0.073364
0.091034 0.327301 0.073456
0.118408 0.330841 0.075348
0.181458 0.337311 0.077545
0.257507 0.347504 0.086304
0.323303 0.354126 0.093903
0.398163 0.361359 0.102142
0.466309 0.366882 0.110535
0.525818 0.371918 0.118744
0.581116 0.376465 0.128296
0.632355 0.381256 0.136902
0.680939 0.385651 0.144165
0.723785 0.389221 0.150299
0.757629 0.391205 0.154877
0.770172 0.390137 0.156433
0.774200 0.388458 0.156677
0.778534 0.387146 0.156982
0.782898 0.386322 0.157379
0.787476 0.385864 0.157898
0.792084 0.385742 0.158478
0.796722 0.385834 0.159058
0.801422 0.386047 0.159698
0.806152 0.386322 0.160309
0.810944 0.386475 0.160980
0.815674 0.386627 0.161560
0.082764 0.375946 0.086243
0.085693 0.376312 0.086456
0.088593 0.376740 0.086700
0.091522 0.376984 0.086853
0.094391 0.377167 0.086945
0.097229 0.377350 0.087097
0.100159 0.377563 0.087189
0.103058 0.377838 0.087372
0.105927 0.378082 0.087524
0.108795 0.378143 0.087677
0.160797 0.386017 0.091461
0.245667 0.396118 0.098419
0.321411 0.405151 0.107635
0.391296 0.410309 0.113068
0.460785 0.417480 0.121887
0.524414 0.423218 0.130188
0.584229 0.426819 0.138702
0.638306 0.431488 0.147766
0.687378 0.436096 0.155029
0.731079 0.440186 0.160797
0.769196 0.442841 0.165894
0.784515 0.442688 0.167755
0.788818 0.441437 0.168030
0.793274 0.440491 0.168304
0.797791 0.439911 0.168640
0.802460 0.439575 0.169098
0.807129 0.439484 0.169617
0.811859 0.439575 0.170135
0.816620 0.439819 0.170685
0.821381 0.440033 0.171234
0.826172 0.440308 0.171967
0.830994 0.440582 0.172791
0.097412 0.425781 0.100159
0.100342 0.426056 0.100311
0.103271 0.426392 0.100464
0.106262 0.426788 0.100677
0.109314 0.427246 0.100922
0.112213 0.427673 0.101166
0.115204 0.428192 0.101440
0.118164 0.428619 0.101685
0.121124 0.429047 0.101929
0.124084 0.429413 0.102142
0.133118 0.430969 0.102966
0.220551 0.444305 0.112152
0.312256 0.455292 0.120728
0.389496 0.460358 0.126709
0.454437 0.467255 0.133026
0.518524 0.473846 0.141846
0.582214 0.477081 0.149078
0.640472 0.481628 0.157349
0.692261 0.486328 0.165649
0.737122 0.489960 0.171234
0.777740 0.492767 0.176270
0.797852 0.493561 0.178589
0.803131 0.492645 0.178894
0.807892 0.491974 0.179169
0.812408 0.491608 0.179535
0.817169 0.491455 0.180023
0.822296 0.491577 0.180603
0.827484 0.491852 0.181244
0.832733 0.492249 0.181854
0.837952 0.492645 0.182495
0.843231 0.493011 0.183167
0.848480 0.493225 0.183777
0.112000 0.476624 0.114655
0.114960 0.477234 0.114960
0.118042 0.477875 0.115295
0.121002 0.478455 0.115631
0.124054 0.479034 0.115997
0.127075 0.479736 0.116333
0.130066 0.480377 0.116669
0.133118 0.480988 0.117096
0.136047 0.481537 0.117462
0.139038 0.481995 0.117767
0.141937 0.482330 0.118011
0.178986 0.489655 0.123322
0.297913 0.504303 0.134674
0.383698 0.512695 0.140930
0.454742 0.521484 0.149384
0.513123 0.524109 0.153717
0.578766 0.527008 0.160065
0.640076 0.531586 0.167664
0.694031 0.536194 0.175262
0.742737 0.539948 0.182159
0.785583 0.542511 0.187134
0.810913 0.543518 0.189636
0.818573 0.543091 0.190247
0.823639 0.542603 0.190674
0.828918 0.542480 0.191162
0.834198 0.542480 0.191681
0.839569 0.542664 0.192261
0.844940 0.542969 0.192871
0.850403 0.543335 0.193512
0.855865 0.543732 0.194153
0.861359 0.544128 0.194824
0.866852 0.544495 0.195465
0.126678 0.528931 0.130646
0.129669 0.529663 0.131165
0.132721 0.530426 0.131744
0.135712 0.531158 0.132324
0.138763 0.531799 0.132843
0.141785 0.532410 0.133209
0.144775 0.532928 0.133636
0.147766 0.533447 0.134033
0.150757 0.533875 0.134430
0.153748 0.534363 0.134918
0.156738 0.534821 0.135345
0.159668 0.535065 0.135620
0.252960 0.549988 0.145935
0.372650 0.563019 0.154907
0.451172 0.573883 0.164612
0.515045 0.576782 0.169708
0.573212 0.577576 0.173309
0.637299 0.579987 0.178314
0.693726 0.583740 0.184814
0.745026 0.587616 0.191650
0.790741 0.590332 0.197205
0.824341 0.591797 0.200317
0.834625 0.591705 0.201141
0.839844 0.591492 0.201599
0.845062 0.591339 0.202118
0.850433 0.591431 0.202637
0.855865 0.591644 0.203186
0.861450 0.591919 0.203705
0.867004 0.592224 0.204071
0.872559 0.592560 0.204437
0.878082 0.592804 0.204803
0.883575 0.593048 0.205139
0.140717 0.579437 0.147003
0.143738 0.580017 0.147369
0.146759 0.580536 0.147766
0.149750 0.581116 0.148102
0.152802 0.581757 0.148651
0.155853 0.582489 0.149170
0.158905 0.583099 0.149567
0.162018 0.583710 0.149994
0.165161 0.584320 0.150421
0.168182 0.584747 0.150818
0.171234 0.585236 0.151184
0.174286 0.585510 0.151611
0.201630 0.592041 0.155731
0.345184 0.608063 0.167114
0.440948 0.621490 0.177368
0.513550 0.628326 0.185272
0.575439 0.629761 0.189117
0.631195 0.630585 0.192139
0.687134 0.630554 0.195862
0.746674 0.633301 0.201080
0.795258 0.635925 0.206024
0.835114 0.638367 0.210327
0.849670 0.638885 0.211823
0.854889 0.638672 0.212311
0.860138 0.638641 0.212799
0.865570 0.638794 0.213196
0.871033 0.639008 0.213531
0.876434 0.639282 0.214020
0.881561 0.639557 0.214600
0.886688 0.639893 0.215210
0.891785 0.640198 0.215851
0.896851 0.640411 0.216431
0.154724 0.627930 0.162170
0.157776 0.628632 0.162628
0.160858 0.629333 0.163025
0.163940 0.630066 0.163483
0.167023 0.630676 0.163849
0.170135 0.631348 0.164337
0.173157 0.631958 0.164764
0.176270 0.632599 0.165222
0.179443 0.633331 0.165771
0.182587 0.634003 0.166290
0.185760 0.634705 0.166809
0.188873 0.635223 0.167267
0.191925 0.635620 0.167694
0.289459 0.649353 0.176666
0.421204 0.665649 0.189423
0.504822 0.675690 0.198212
0.573608 0.679993 0.204468
0.630798 0.680328 0.206726
0.681152 0.679779 0.209290
0.738861 0.679352 0.212311
0.796661 0.681335 0.215912
0.839386 0.683563 0.219910
0.862671 0.685150 0.222565
0.868530 0.684998 0.223145
0.873322 0.684906 0.223602
0.878265 0.684967 0.224121
0.883118 0.685120 0.224640
0.887878 0.685242 0.225128
0.892700 0.685516 0.225647
0.897522 0.685730 0.226196
0.902496 0.686035 0.226807
0.907471 0.686249 0.227386
0.169159 0.676178 0.177643
0.172180 0.676788 0.178070
0.175201 0.677490 0.178497
0.178253 0.678192 0.178955
0.181366 0.678925 0.179413
0.184418 0.679596 0.179840
0.187531 0.680328 0.180359
0.190674 0.681061 0.180878
0.193787 0.681702 0.181396
0.196899 0.682343 0.181885
0.199982 0.682922 0.182343
0.203064 0.683350 0.182709
0.206116 0.683685 0.183044
0.232178 0.689026 0.186371
0.385529 0.706482 0.199066
0.490326 0.719452 0.210358
0.567047 0.725098 0.216827
0.628632 0.727509 0.221283
0.680786 0.726440 0.222443
0.731598 0.726166 0.225067
0.784393 0.726685 0.227356
0.834778 0.728333 0.230286
0.869812 0.728638 0.232330
0.878571 0.728363 0.233002
0.883331 0.728333 0.233521
0.888092 0.728394 0.234009
0.892883 0.728577 0.234528
0.897614 0.728729 0.235046
0.902405 0.728973 0.235565
0.907166 0.729279 0.236115
0.911926 0.729523 0.236633
0.916626 0.729706 0.237122
0.182373 0.719635 0.191559
0.185303 0.720123 0.191925
0.188232 0.720673 0.192352
0.191254 0.721252 0.192810
0.194275 0.721863 0.193268
0.197266 0.722473 0.193756
0.200317 0.723053 0.194183
0.203339 0.723572 0.194672
0.206390 0.724121 0.195129
0.209442 0.724701 0.195557
0.212402 0.725098 0.195984
0.215424 0.725372 0.196289
0.218445 0.725525 0.196533
0.221405 0.725647 0.196838
0.326385 0.739777 0.205658
0.469391 0.756256 0.219391
0.557037 0.763458 0.226440
0.623596 0.767059 0.231293
0.679047 0.767548 0.234070
0.730957 0.766693 0.235260
0.775604 0.767395 0.238007
0.817657 0.767456 0.240143
0.857361 0.768707 0.242371
0.876129 0.768829 0.243469
0.882050 0.768555 0.243683
0.888153 0.768311 0.243927
0.894104 0.768158 0.244080
0.900055 0.768005 0.244293
0.905945 0.767822 0.244537
0.911896 0.767731 0.244843
0.917786 0.767639 0.245117
0.922668 0.767761 0.245575
0.192413 0.752869 0.202209
0.195312 0.753357 0.202576
0.198242 0.753845 0.202942
0.201141 0.754272 0.203369
0.204102 0.754730 0.203735
0.207031 0.755249 0.204102
0.210022 0.755676 0.204437
0.212952 0.756104 0.204773
0.215942 0.756500 0.205170
0.218903 0.756897 0.205536
0.221893 0.757355 0.205902
0.224945 0.757751 0.206360
0.227966 0.758087 0.206726
0.230957 0.758514 0.207123
0.275574 0.766144 0.211090
0.443054 0.785156 0.226074
0.545258 0.795258 0.234467
0.618317 0.798492 0.238586
0.676666 0.800598 0.242554
0.729553 0.800934 0.244751
0.774384 0.800873 0.246399
0.812134 0.801331 0.248962
0.844116 0.801422 0.250732
0.869995 0.802368 0.252777
0.877319 0.802460 0.253326
0.882507 0.802551 0.253693
0.887665 0.802643 0.254028
0.893066 0.802765 0.254364
0.899078 0.802795 0.254578
0.905029 0.802765 0.254761
0.910980 0.802673 0.254913
0.917023 0.802521 0.255066
0.196350 0.766022 0.206207
0.199280 0.766418 0.206635
0.202209 0.766846 0.207031
0.205109 0.767334 0.207397
0.208099 0.767792 0.207794
0.210968 0.768250 0.208130
0.213928 0.768616 0.208527
0.216858 0.769012 0.208862
0.219818 0.769379 0.209198
0.222748 0.769775 0.209564
0.225739 0.770203 0.209930
0.228668 0.770477 0.210205
0.231720 0.770996 0.210663
0.234772 0.771454 0.211090
0.257904 0.775116 0.213287
0.403870 0.793274 0.225677
0.529541 0.807007 0.237152
0.609283 0.811707 0.241760
0.670593 0.814423 0.245605
0.724792 0.815887 0.248871
0.770233 0.816467 0.250397
0.808990 0.817505 0.252991
0.839844 0.818237 0.255066
0.865234 0.818848 0.256775
0.876984 0.819458 0.257935
0.882233 0.819702 0.258392
0.887390 0.819946 0.258820
0.892548 0.820251 0.259216
0.897400 0.820496 0.259613
0.902252 0.820862 0.260101
0.907104 0.821136 0.260559
0.912689 0.821259 0.260864
0.198090 0.771667 0.207947
0.201019 0.772125 0.208405
0.203949 0.772491 0.208771
0.206848 0.773010 0.209198
0.209808 0.773438 0.209564
0.212708 0.773895 0.209900
0.215637 0.774200 0.210266
0.218536 0.774597 0.210693
0.221497 0.774933 0.210999
0.224457 0.775330 0.211365
0.227448 0.775757 0.211761
0.230377 0.776062 0.212067
0.233307 0.776337 0.212311
0.236359 0.776855 0.212708
0.239471 0.777405 0.213165
0.353882 0.792694 0.222260
0.513245 0.810364 0.237396
0.599792 0.816528 0.242676
0.663757 0.819489 0.246521
0.719299 0.821442 0.250214
0.765472 0.822479 0.252014
0.804840 0.823639 0.254303
0.835938 0.824554 0.256592
0.860504 0.825592 0.258423
0.876221 0.826111 0.259613
0.882263 0.826477 0.260193
0.887390 0.826752 0.260651
0.892456 0.827087 0.261108
0.897339 0.827423 0.261536
0.902191 0.827789 0.262054
0.907013 0.828094 0.262482
0.911804 0.828400 0.262909
0.199829 0.777344 0.209686
0.202759 0.777802 0.210114
0.205658 0.778198 0.210541
0.208588 0.778625 0.210938
0.211517 0.779083 0.211304
0.214417 0.779449 0.211670
0.217346 0.779816 0.212067
0.220245 0.780151 0.212433
0.223206 0.780548 0.212799
0.226135 0.780914 0.213165
0.229126 0.781342 0.213531
0.232056 0.781647 0.213867
0.235046 0.781952 0.214142
0.237976 0.782288 0.214386
0.241058 0.782867 0.214874
0.325073 0.795258 0.221771
0.500000 0.814148 0.237854
0.592377 0.821350 0.243744
0.658813 0.824249 0.247345
0.715271 0.826569 0.251434
0.762146 0.827820 0.253510
0.801544 0.828674 0.255402
0.833099 0.829773 0.257843
0.857788 0.830811 0.259674
0.875183 0.831390 0.261017
0.882263 0.831726 0.261597
0.887390 0.832001 0.262024
0.892456 0.832336 0.262512
0.897308 0.832703 0.262970
0.902161 0.833069 0.263489
0.906982 0.833405 0.263916
0.911804 0.833710 0.264374
0.201599 0.783051 0.211487
0.204498 0.783478 0.211914
0.207397 0.783905 0.212341
0.210327 0.784332 0.212708
0.213226 0.784729 0.213104
0.216156 0.785126 0.213501
0.219055 0.785431 0.213837
0.221985 0.785828 0.214233
0.224945 0.786224 0.214630
0.227875 0.786560 0.215027
0.230835 0.787018 0.215424
0.233856 0.787323 0.215729
0.236755 0.787689 0.216003
0.239716 0.787994 0.216278
0.242706 0.788361 0.216553
0.318909 0.800079 0.222961
0.490326 0.818298 0.238617
0.587158 0.826263 0.244934
0.655701 0.829102 0.248291
0.712860 0.831757 0.252655
0.760132 0.833099 0.255035
0.799591 0.833801 0.256653
0.831512 0.835144 0.259155
0.856293 0.836121 0.260986
0.873688 0.836884 0.262543
0.882294 0.837006 0.263000
0.887451 0.837311 0.263458
0.892426 0.837646 0.263916
0.897339 0.838013 0.264404
0.902191 0.838318 0.264893
0.907013 0.838684 0.265381
0.911804 0.839050 0.265869
0.203339 0.788727 0.213226
0.206207 0.789093 0.213654
0.209137 0.789551 0.214050
0.212067 0.789948 0.214478
0.214966 0.790375 0.214905
0.217896 0.790741 0.215302
0.220764 0.791077 0.215668
0.223724 0.791473 0.216034
0.226654 0.791840 0.216431
0.229645 0.792206 0.216858
0.232544 0.792633 0.217224
0.235565 0.792999 0.217560
0.238464 0.793335 0.217865
0.241486 0.793701 0.218170
0.244446 0.794067 0.218445
0.315094 0.805115 0.224335
0.484100 0.822754 0.239655
0.584198 0.831238 0.246216
0.654083 0.834045 0.249420
0.711670 0.836853 0.253937
0.759216 0.838318 0.256592
0.798737 0.839020 0.258026
0.831024 0.840485 0.260529
0.855804 0.841522 0.262421
0.873199 0.842224 0.263916
0.882263 0.842529 0.264618
0.887543 0.842590 0.264862
0.892456 0.842926 0.265320
0.897369 0.843231 0.265839
0.902161 0.843597 0.266327
0.907043 0.843933 0.266785
0.911804 0.844299 0.267273
0.205048 0.794373 0.214996
0.207947 0.794800 0.215454
0.210846 0.795166 0.215881
0.213745 0.795532 0.216278
0.216675 0.795959 0.216736
0.219604 0.796356 0.217133
0.222473 0.796600 0.217407
0.225433 0.796936 0.217804
0.228333 0.797333 0.218170
0.231323 0.797760 0.218536
0.234283 0.798187 0.218964
0.237244 0.798492 0.219208
0.240204 0.798859 0.219513
0.243164 0.799164 0.219818
0.246185 0.799561 0.220093
0.313232 0.810364 0.225830
0.480774 0.827515 0.240936
