滤镜资源/Professional Luts Collection/Triune-Digital-Cinematic-LUTs/3D LUTs (CUBE)/ALEXA/Saving Private Ryan - Alexa.cube
#Created by Benjamin (IWLTBAP) : http://luts.iwltbap.com
#Copyright: (C) Copyright 2016 Triune Films and IWLTBAP
TITLE "Blockbuster LUTs Pack (Alexa Log-C)"
#LUT size
LUT_3D_SIZE 8
#LUT data points
DOMAIN_MIN 0.000000 0.000000 0.000000
DOMAIN_MAX 0.903226 0.903226 0.903226
0.001099 0.003937 0.003723
0.039337 0.003235 0.002686
0.115234 0.011078 0.010010
0.295624 0.037750 0.039978
0.501526 0.072937 0.085419
0.677582 0.103973 0.128204
0.704834 0.108734 0.140686
0.725281 0.112244 0.145538
0.009399 0.064514 0.013855
0.039673 0.056702 0.008606
0.121796 0.059540 0.014252
0.308746 0.067413 0.043060
0.511688 0.087402 0.087006
0.686951 0.117462 0.130157
0.712433 0.121552 0.141937
0.732361 0.124847 0.146973
0.028625 0.157440 0.034637
0.038513 0.155121 0.032410
0.116821 0.157959 0.033569
0.335724 0.180359 0.059937
0.547272 0.184875 0.095215
0.708740 0.155823 0.132599
0.729004 0.144257 0.143372
0.746094 0.144989 0.147400
0.068512 0.325226 0.072388
0.079590 0.326324 0.072876
0.091034 0.327301 0.073456
0.323303 0.354126 0.093903
0.581116 0.376465 0.128296
0.757629 0.391205 0.154877
0.782898 0.386322 0.157379
0.801422 0.386047 0.159698
0.126678 0.528931 0.130646
0.138763 0.531799 0.132843
0.150757 0.533875 0.134430
0.252960 0.549988 0.145935
0.573212 0.577576 0.173309
0.790741 0.590332 0.197205
0.845062 0.591339 0.202118
0.867004 0.592224 0.204071
0.182373 0.719635 0.191559
0.194275 0.721863 0.193268
0.206390 0.724121 0.195129
0.218445 0.725525 0.196533
0.557037 0.763458 0.226440
0.775604 0.767395 0.238007
0.882050 0.768555 0.243683
0.905945 0.767822 0.244537
0.199829 0.777344 0.209686
0.211517 0.779083 0.211304
0.223206 0.780548 0.212799
0.235046 0.781952 0.214142
0.500000 0.814148 0.237854
0.762146 0.827820 0.253510
0.875183 0.831390 0.261017
0.897308 0.832703 0.262970
0.206757 0.800018 0.216827
0.218414 0.801575 0.218536
0.230072 0.802856 0.219910
0.241913 0.804382 0.221161
0.479370 0.832520 0.242401
0.759583 0.848846 0.259613
0.873779 0.852875 0.266754
0.897675 0.853699 0.268555
0.002106 0.002441 0.040955
0.039764 0.004517 0.043732
0.120422 0.012451 0.052155
0.294434 0.037262 0.079376
0.502380 0.072510 0.118713
0.682373 0.104919 0.157379
0.709717 0.109680 0.167084
0.730225 0.113220 0.171387
0.006470 0.047882 0.047241
0.036774 0.047913 0.049408
0.123383 0.052948 0.057953
0.303925 0.058289 0.081329
0.509003 0.085693 0.119690
0.689117 0.117462 0.158875
0.716248 0.122040 0.168396
0.736603 0.125549 0.172577
0.025482 0.148071 0.056976
0.036224 0.148773 0.057831
0.120422 0.158325 0.065216
0.338898 0.182373 0.097321
0.548645 0.185303 0.136749
0.709259 0.149475 0.163147
0.726257 0.140747 0.168243
0.743866 0.141510 0.171692
0.066620 0.322876 0.084900
0.079926 0.326965 0.087402
0.091400 0.327911 0.087921
0.325836 0.354553 0.107849
0.581421 0.377686 0.142578
0.758209 0.393494 0.171509
0.784271 0.390747 0.184113
0.803009 0.391388 0.189636
0.124268 0.525269 0.141266
0.138306 0.530548 0.144806
0.150421 0.533173 0.146942
0.253113 0.551239 0.160370
0.574524 0.579254 0.187286
0.790588 0.592346 0.211792
0.845123 0.593353 0.216583
0.867126 0.594208 0.218689
0.179932 0.716339 0.201965
0.193542 0.721191 0.205872
0.205597 0.723602 0.207733
0.217651 0.725220 0.209229
0.558167 0.764496 0.240112
0.776520 0.768951 0.251678
0.881866 0.770569 0.257843
0.904724 0.770538 0.259155
0.197754 0.774963 0.220398
0.210968 0.779083 0.224152
0.222595 0.780609 0.225739
0.234467 0.782288 0.227356
0.500641 0.815552 0.252045
0.763306 0.829926 0.267853
0.875275 0.833282 0.275085
0.897858 0.834839 0.277283
0.204803 0.797760 0.227600
0.217926 0.801514 0.231384
0.229523 0.803009 0.233002
0.241272 0.804504 0.234436
0.479523 0.833893 0.256622
0.760925 0.851013 0.274017
0.873993 0.854736 0.280701
0.897827 0.855682 0.282593
0.006042 0.006622 0.112854
0.038483 0.008392 0.115875
0.118134 0.014191 0.124542
0.292053 0.037415 0.147766
0.509460 0.073578 0.175964
0.694489 0.107086 0.205750
0.722290 0.112030 0.213287
0.742767 0.115540 0.217010
0.008026 0.025421 0.116974
0.032379 0.026184 0.119659
0.116821 0.029938 0.127045
0.296265 0.050537 0.148895
0.516754 0.086761 0.178192
0.701508 0.119690 0.207947
0.729126 0.124512 0.215240
0.748901 0.127838 0.218964
0.024353 0.138214 0.142365
0.035126 0.139191 0.143860
0.117950 0.149231 0.152832
0.329865 0.166473 0.172272
0.549255 0.165741 0.195770
0.711823 0.139771 0.209991
0.734741 0.136993 0.215393
0.753967 0.140137 0.218872
0.062469 0.317871 0.147430
0.074005 0.320587 0.149414
0.085693 0.322998 0.152496
0.335815 0.358948 0.181152
0.587219 0.385498 0.223206
0.770294 0.405212 0.263031
0.796509 0.401276 0.272003
0.815460 0.400909 0.275574
0.121582 0.520813 0.152100
0.135437 0.525696 0.155182
0.149719 0.530945 0.158844
0.250641 0.550415 0.174286
0.575256 0.579742 0.201355
0.790619 0.593262 0.226318
0.845673 0.594299 0.231323
0.867523 0.595367 0.233368
0.177246 0.712036 0.212311
0.190643 0.716736 0.216003
0.204590 0.722046 0.220215
0.216614 0.723755 0.221741
0.558228 0.765045 0.254059
0.777222 0.769470 0.265381
0.881805 0.771881 0.272278
0.904388 0.772034 0.273682
0.195557 0.772186 0.231140
0.208801 0.776459 0.234924
0.222015 0.780487 0.238678
0.233826 0.782257 0.240356
0.500336 0.817078 0.266724
0.763794 0.832184 0.282532
0.874756 0.835388 0.289459
0.897125 0.837006 0.291687
0.202698 0.795135 0.238342
0.215851 0.799255 0.242157
0.229004 0.803009 0.246002
0.240784 0.804779 0.247681
0.478424 0.834991 0.271240
0.761078 0.853149 0.288605
0.873413 0.856628 0.294922
0.897308 0.857727 0.296875
0.014008 0.015930 0.249695
0.024567 0.016266 0.249329
0.113068 0.021423 0.256592
0.280304 0.037415 0.270630
0.494232 0.072083 0.294952
0.692810 0.107300 0.312439
0.725647 0.113159 0.316772
0.750305 0.117249 0.319000
0.015167 0.029236 0.252991
0.025848 0.030060 0.254913
0.109924 0.034790 0.258911
0.284302 0.050354 0.272949
0.499023 0.084625 0.298126
0.700745 0.120026 0.315308
0.734344 0.125916 0.319580
0.758911 0.129883 0.321594
0.017029 0.051270 0.258087
0.027740 0.051453 0.260162
0.092957 0.052124 0.261139
0.284119 0.063538 0.273987
0.502228 0.097504 0.300903
0.710083 0.133301 0.317444
0.743866 0.139038 0.321747
0.768341 0.142975 0.323547
0.060760 0.303375 0.309113
0.071442 0.304840 0.310333
0.082123 0.306152 0.311768
0.307678 0.347046 0.344849
0.582855 0.379578 0.373962
0.789124 0.378326 0.385834
0.820221 0.366516 0.384430
0.840729 0.363556 0.384552
0.107910 0.507965 0.328705
0.119019 0.510712 0.330048
0.130524 0.513550 0.331726
0.206635 0.533447 0.342712
0.570709 0.585876 0.389923
0.782776 0.618988 0.433716
0.838684 0.622223 0.443634
0.859467 0.623169 0.446472
0.158234 0.686584 0.309845
0.170685 0.689758 0.311859
0.183502 0.692688 0.313995
0.196533 0.695099 0.317230
0.547455 0.764282 0.384003
0.772583 0.781799 0.409149
0.870483 0.790497 0.427460
0.890106 0.792206 0.431366
0.187012 0.759918 0.271423
0.200409 0.765442 0.276184
0.213806 0.770416 0.280518
0.227203 0.775330 0.285248
0.487091 0.817230 0.326538
0.764038 0.842072 0.359558
0.876495 0.847443 0.376770
0.897583 0.849792 0.382050
0.195068 0.785126 0.277435
0.208374 0.789886 0.281372
0.221710 0.794617 0.285492
0.235107 0.799164 0.290100
0.462311 0.834595 0.323517
0.760773 0.860352 0.348602
0.873718 0.863434 0.355286
0.898804 0.864716 0.357208
0.027161 0.026978 0.407288
0.037933 0.026398 0.405334
0.066498 0.025757 0.400330
0.278229 0.045959 0.420563
0.474731 0.069183 0.433624
0.660522 0.101959 0.455719
0.690704 0.107483 0.459900
0.711884 0.111328 0.462097
0.027374 0.040253 0.410156
0.039246 0.041321 0.410919
0.063049 0.040344 0.406067
0.279083 0.058838 0.424103
0.479950 0.081909 0.436493
0.668182 0.115082 0.459778
0.698181 0.120514 0.463867
0.719299 0.124298 0.465942
0.027893 0.053986 0.412994
0.039429 0.054535 0.413818
0.051544 0.055573 0.414795
0.275940 0.071442 0.426575
0.484039 0.094940 0.439453
0.676025 0.128693 0.464081
0.706024 0.134094 0.468048
0.726715 0.137726 0.469849
0.056946 0.243835 0.451508
0.067566 0.244965 0.453003
0.078094 0.245758 0.454620
0.261475 0.274078 0.473877
0.517975 0.286926 0.484772
0.725220 0.285980 0.504822
0.752808 0.264862 0.502655
0.769958 0.261383 0.503082
0.105927 0.488983 0.494293
0.116638 0.490997 0.495605
0.127380 0.492981 0.496979
0.160919 0.500458 0.502686
0.551422 0.576660 0.558044
0.778748 0.602966 0.586060
0.845306 0.603027 0.590637
0.868896 0.602081 0.591003
0.151672 0.678040 0.518555
0.162567 0.680145 0.519562
0.173584 0.682343 0.520782
0.184784 0.684265 0.522430
0.510986 0.754150 0.569458
0.767242 0.786438 0.602600
0.871033 0.799896 0.618073
0.891144 0.802582 0.621552
0.169739 0.751465 0.519562
0.181030 0.754181 0.520874
0.192505 0.757080 0.522278
0.204193 0.760254 0.524109
0.427185 0.808899 0.550751
0.760132 0.865112 0.606567
0.877197 0.873047 0.614990
0.903931 0.876556 0.618774
0.174927 0.771576 0.520142
0.186218 0.774170 0.521271
0.197906 0.777313 0.522614
0.209778 0.780640 0.524170
0.385834 0.819763 0.543091
0.757202 0.883575 0.606567
0.875854 0.891144 0.614929
0.906952 0.893768 0.617493
0.043579 0.042664 0.545898
0.054108 0.041656 0.543732
0.065033 0.040863 0.541656
0.258759 0.053772 0.551086
0.474945 0.077850 0.572235
0.649780 0.100342 0.580719
0.682312 0.105988 0.584686
0.703217 0.109619 0.587219
0.044739 0.055450 0.549530
0.056458 0.056427 0.550964
0.067596 0.055420 0.548706
0.257324 0.066254 0.554688
0.479462 0.091095 0.576996
0.656067 0.113098 0.584625
0.689606 0.118988 0.588806
0.710724 0.122742 0.591248
0.045624 0.068146 0.553070
0.057220 0.069092 0.554382
0.069733 0.070190 0.555969
0.250580 0.078583 0.558350
0.482056 0.104492 0.581726
0.662781 0.126465 0.589081
0.697510 0.132568 0.593384
0.718628 0.136353 0.595459
0.046234 0.081604 0.554077
0.057861 0.082855 0.555573
0.070282 0.083984 0.557098
0.210388 0.089111 0.558105
0.470978 0.116577 0.583527
0.661102 0.138763 0.591125
0.705475 0.146484 0.596039
0.726501 0.150269 0.597900
0.104767 0.449951 0.624420
0.115448 0.451904 0.625183
0.126129 0.453522 0.626007
0.136780 0.454071 0.626892
0.500885 0.524414 0.675690
0.727875 0.540955 0.686859
0.801422 0.543365 0.694885
0.822906 0.543121 0.696472
0.147156 0.653748 0.650848
0.158020 0.656036 0.652313
0.169128 0.658539 0.654022
0.180206 0.660400 0.655853
0.445374 0.720978 0.699524
0.754028 0.777924 0.746796
0.869873 0.790253 0.760223
0.888428 0.791901 0.762299
0.172546 0.755676 0.665039
0.183411 0.757874 0.666168
0.194641 0.760712 0.667725
0.205933 0.763275 0.669464
0.332855 0.801117 0.695618
0.747375 0.876740 0.755646
0.875397 0.887787 0.771179
0.908173 0.890228 0.773621
0.177887 0.776947 0.667877
0.188812 0.779236 0.668884
0.199951 0.781799 0.670197
0.211365 0.784698 0.671936
0.296936 0.811493 0.689362
0.741669 0.897736 0.755768
0.875366 0.911469 0.773102
0.912476 0.912994 0.773926
0.052216 0.050659 0.617096
0.062958 0.049744 0.615021
0.074097 0.048859 0.612793
0.240723 0.057404 0.618225
0.470154 0.082184 0.640625
0.645538 0.101318 0.649506
0.677399 0.105957 0.649353
0.698425 0.109467 0.650391
0.053253 0.063202 0.620789
0.065125 0.064056 0.622162
0.076263 0.063019 0.619568
0.238525 0.069763 0.621887
0.472107 0.094971 0.645081
0.650940 0.114258 0.654297
0.683624 0.118652 0.653259
0.705170 0.122284 0.654541
0.054260 0.075684 0.624695
0.066284 0.076752 0.626129
0.078918 0.077820 0.627502
0.231842 0.082275 0.626465
0.472290 0.108002 0.649780
0.656158 0.127838 0.660004
0.690552 0.132141 0.658813
0.712921 0.135834 0.660004
0.055420 0.088531 0.628510
0.067444 0.089447 0.629761
0.080292 0.090637 0.631073
0.191315 0.093018 0.629547
0.458588 0.119385 0.652039
0.652710 0.140320 0.664673
0.697144 0.145905 0.664337
0.720001 0.149506 0.665558
0.103516 0.418915 0.692535
0.114258 0.420837 0.693359
0.125092 0.422760 0.694427
0.135681 0.423035 0.695068
0.481049 0.485016 0.737762
0.693085 0.491608 0.749908
0.768463 0.492035 0.753906
0.793060 0.494171 0.756348
0.147888 0.640106 0.721558
0.158630 0.641998 0.723022
0.169525 0.644043 0.724762
0.180450 0.645386 0.726776
0.415405 0.700256 0.767761
0.732849 0.758881 0.814362
0.852753 0.769440 0.823883
0.876862 0.772217 0.826782
0.170807 0.745514 0.737213
0.181732 0.747711 0.738678
0.192841 0.750122 0.740448
0.203979 0.752258 0.742615
0.301117 0.781189 0.767090
0.726990 0.861328 0.829041
0.868103 0.880554 0.844940
0.905975 0.884216 0.848969
0.179291 0.779175 0.744202
0.190216 0.781464 0.745483
0.201447 0.784119 0.747375
0.212769 0.786835 0.749481
0.290863 0.810944 0.767212
0.722870 0.894714 0.830475
0.870819 0.917419 0.849731
0.910278 0.919983 0.853088
0.054504 0.052521 0.634094
0.065399 0.051605 0.632141
0.076630 0.050842 0.630249
0.235992 0.058319 0.634583
0.467987 0.083069 0.656555
0.643921 0.101532 0.666718
0.677429 0.106476 0.666626
0.695648 0.109100 0.666626
0.055603 0.065033 0.638062
0.067566 0.065918 0.639435
0.078827 0.064911 0.637024
0.233765 0.070679 0.638489
0.469330 0.095642 0.660736
0.649231 0.114655 0.671997
0.684021 0.119446 0.671173
0.702209 0.121887 0.670898
0.056671 0.077606 0.642242
0.068817 0.078705 0.643585
0.081421 0.079712 0.644958
0.227509 0.083313 0.643311
0.468628 0.108429 0.665161
0.653290 0.128052 0.677429
0.690002 0.132812 0.676788
0.708862 0.135193 0.676178
0.057800 0.090363 0.646454
0.069885 0.091309 0.647461
0.082672 0.092590 0.648804
0.185944 0.094360 0.646942
0.454376 0.119843 0.667847
0.649597 0.140991 0.682678
0.695862 0.146545 0.682800
0.715118 0.148865 0.682190
0.103149 0.410004 0.710602
0.113831 0.411804 0.711548
0.124756 0.413696 0.712769
0.135406 0.413910 0.713623
0.473480 0.472290 0.754120
0.684357 0.478271 0.765717
0.759827 0.476868 0.769318
0.782166 0.477692 0.770630
0.148560 0.636292 0.750153
0.159332 0.638336 0.751648
0.170197 0.640228 0.753418
0.181061 0.641388 0.755371
0.410675 0.695557 0.795624
0.729980 0.754883 0.839874
0.846985 0.764038 0.847107
0.869507 0.765564 0.848755
0.171265 0.742676 0.766846
0.182159 0.744873 0.768402
0.193207 0.747192 0.770203
0.204254 0.749146 0.772125
0.293121 0.774261 0.793884
0.723846 0.857269 0.856445
0.868134 0.880096 0.873352
0.904572 0.881714 0.874634
0.179596 0.779510 0.774353
0.190552 0.781738 0.775635
0.201721 0.784363 0.777496
0.213074 0.787140 0.779694
0.289124 0.810089 0.796997
0.721954 0.893097 0.860382
0.867920 0.915863 0.877899
0.908813 0.919250 0.881409
