滤镜资源/Professional Luts Collection/Triune-Digital-Cinematic-LUTs/3D LUTs (CUBE)/ALEXA/Skyfall - Alexa.cube
#Created by Benjamin (IWLTBAP) : http://luts.iwltbap.com
#Copyright: (C) Copyright 2016 Triune Films and IWLTBAP
TITLE "Blockbuster LUTs Pack (Alexa Log-C)"
#LUT size
LUT_3D_SIZE 32
#LUT data points
0.009430 0.011505 0.014374
0.017761 0.011810 0.014496
0.027527 0.012207 0.014709
0.038849 0.012848 0.014923
0.052490 0.014191 0.015106
0.071503 0.017120 0.015839
0.098572 0.021790 0.017273
0.131317 0.027130 0.019379
0.170715 0.032990 0.022186
0.222412 0.041931 0.025574
0.284454 0.053680 0.031555
0.346985 0.066620 0.038086
0.409882 0.079651 0.045654
0.469696 0.094666 0.053040
0.529144 0.114227 0.059509
0.579987 0.133240 0.068542
0.628571 0.148163 0.077576
0.674561 0.160156 0.085541
0.714783 0.168793 0.094299
0.751465 0.176361 0.101959
0.774445 0.180481 0.107910
0.782043 0.181244 0.111115
0.785461 0.181549 0.113342
0.789093 0.181885 0.115021
0.792633 0.182220 0.116302
0.796326 0.182587 0.117279
0.799835 0.182892 0.118011
0.803162 0.183044 0.118500
0.806549 0.183319 0.118958
0.809906 0.183685 0.119324
0.813324 0.183990 0.119812
0.816620 0.184204 0.120483
0.009644 0.018799 0.014465
0.016296 0.019104 0.014557
0.025909 0.019348 0.014648
0.037476 0.019806 0.014801
0.051178 0.021118 0.014984
0.070312 0.023987 0.015594
0.097473 0.028961 0.016876
0.131226 0.033478 0.019043
0.170929 0.038513 0.021698
0.222992 0.046173 0.025238
0.285278 0.056976 0.031433
0.348022 0.069794 0.037964
0.411072 0.083130 0.045441
0.470947 0.098358 0.052917
0.530640 0.118347 0.059174
0.581543 0.137451 0.068207
0.630432 0.152222 0.077148
0.676239 0.163940 0.085327
0.716217 0.172485 0.094238
0.752930 0.180054 0.101990
0.776001 0.184296 0.108032
0.783539 0.185181 0.111267
0.786957 0.185394 0.113434
0.790497 0.185822 0.115204
0.794067 0.186157 0.116547
0.797729 0.186554 0.117523
0.801270 0.186920 0.118286
0.804596 0.187073 0.118835
0.807953 0.187347 0.119263
0.811310 0.187683 0.119659
0.814697 0.187958 0.120209
0.817993 0.188171 0.120789
0.009857 0.027252 0.014618
0.014801 0.027466 0.014679
0.024353 0.028137 0.014771
0.035736 0.028778 0.014923
0.049713 0.030060 0.015015
0.069122 0.032990 0.015625
0.096802 0.038391 0.016876
0.131439 0.042694 0.018921
0.171906 0.048218 0.021515
0.224823 0.056000 0.025055
0.287415 0.065094 0.031311
0.349396 0.074799 0.037903
0.412140 0.086639 0.045227
0.472046 0.101868 0.052673
0.531738 0.122162 0.058746
0.582672 0.141083 0.067596
0.632172 0.156189 0.076630
0.677795 0.167786 0.085266
0.717621 0.176239 0.094055
0.754486 0.183868 0.101990
0.777527 0.188232 0.108063
0.785065 0.189148 0.111389
0.788483 0.189362 0.113586
0.791992 0.189667 0.115295
0.795532 0.190002 0.116608
0.799194 0.190460 0.117676
0.802673 0.190826 0.118469
0.806061 0.191162 0.119110
0.809387 0.191315 0.119476
0.812744 0.191681 0.119995
0.816132 0.192017 0.120544
0.819519 0.192322 0.121246
0.010193 0.037201 0.014801
0.013245 0.037323 0.014862
0.022827 0.038086 0.014984
0.033966 0.038910 0.015137
0.048004 0.040405 0.015259
0.067596 0.043518 0.015656
0.095337 0.048584 0.016846
0.131012 0.052887 0.019012
0.173096 0.058868 0.022034
0.226837 0.067169 0.025421
0.291016 0.076599 0.031219
0.353333 0.085571 0.038208
0.414948 0.094360 0.045258
0.473236 0.105804 0.052368
0.532928 0.125885 0.058258
0.583893 0.144623 0.066895
0.633514 0.159760 0.076019
0.679138 0.171448 0.084961
0.719147 0.180054 0.093811
0.755951 0.187653 0.101929
0.779053 0.192139 0.108063
0.786591 0.193085 0.111389
0.789917 0.193298 0.113647
0.793488 0.193573 0.115326
0.797028 0.193909 0.116730
0.800690 0.194397 0.117767
0.804199 0.194824 0.118652
0.807617 0.195312 0.119446
0.810944 0.195618 0.119934
0.814301 0.195892 0.120453
0.817688 0.196228 0.121033
0.821014 0.196442 0.121643
0.012390 0.049255 0.015045
0.015320 0.049408 0.015106
0.023224 0.050201 0.015167
0.034668 0.051270 0.015289
0.047974 0.052734 0.015472
0.066650 0.055145 0.015778
0.093384 0.059235 0.016785
0.129761 0.064667 0.019104
0.173248 0.071106 0.022827
0.228577 0.079773 0.026276
0.293793 0.089905 0.031342
0.357574 0.098694 0.038239
0.420105 0.108643 0.045349
0.477539 0.117188 0.052124
0.534271 0.130493 0.057739
0.584961 0.148254 0.066132
0.634766 0.163361 0.075287
0.680176 0.174927 0.084351
0.720215 0.183533 0.093323
0.757416 0.191345 0.101746
0.780609 0.196075 0.107910
0.788116 0.197083 0.111328
0.791473 0.197266 0.113617
0.795013 0.197601 0.115387
0.798553 0.197906 0.116730
0.802216 0.198364 0.117889
0.805664 0.198914 0.118866
0.809204 0.199615 0.119751
0.812561 0.199921 0.120331
0.815826 0.200134 0.120850
0.819305 0.200531 0.121399
0.822571 0.200684 0.122101
0.016388 0.063202 0.015350
0.019226 0.063507 0.015411
0.023956 0.063965 0.015472
0.035004 0.065033 0.015594
0.048340 0.066803 0.015778
0.065857 0.068542 0.016022
0.090576 0.072296 0.016876
0.127472 0.078339 0.019196
0.173462 0.085388 0.023071
0.231445 0.094818 0.027374
0.298187 0.105835 0.032715
0.363434 0.116333 0.039001
0.427216 0.127686 0.045410
0.485596 0.137390 0.051880
0.540161 0.147308 0.057556
0.587372 0.155914 0.065552
0.635834 0.167053 0.074371
0.681122 0.178253 0.083466
0.721161 0.186951 0.092529
0.758362 0.194733 0.101105
0.781952 0.199982 0.107544
0.789734 0.201141 0.111145
0.793091 0.201355 0.113464
0.796570 0.201599 0.115234
0.800140 0.201965 0.116669
0.803741 0.202423 0.117798
0.807220 0.203064 0.118866
0.810760 0.203766 0.119812
0.814117 0.204163 0.120544
0.817444 0.204407 0.121063
0.820862 0.204773 0.121643
0.824127 0.204926 0.122253
0.020081 0.079529 0.016724
0.023010 0.079742 0.016693
0.025909 0.079926 0.016693
0.033234 0.080658 0.016907
0.046021 0.082062 0.016998
0.064148 0.084290 0.017120
0.087158 0.087433 0.017548
0.122864 0.093201 0.020020
0.172058 0.102081 0.023499
0.233521 0.111481 0.028015
0.301361 0.123291 0.034088
0.369446 0.136871 0.040833
0.434937 0.151062 0.045563
0.495331 0.164368 0.051392
0.549042 0.174866 0.057251
0.595734 0.179962 0.065308
0.640625 0.181488 0.073425
0.682770 0.183929 0.082184
0.722076 0.190369 0.091248
0.759277 0.198273 0.099823
0.782990 0.203552 0.106506
0.791016 0.204987 0.110382
0.794678 0.205353 0.112915
0.798218 0.205658 0.114807
0.801727 0.205994 0.116180
0.805359 0.206635 0.117493
0.808807 0.207245 0.118591
0.812378 0.207977 0.119537
0.815765 0.208435 0.120331
0.819153 0.208862 0.120911
0.822479 0.209106 0.121521
0.825745 0.209290 0.122131
0.023193 0.098846 0.019226
0.026093 0.098999 0.019165
0.029083 0.099091 0.019043
0.031952 0.099304 0.019043
0.041809 0.100128 0.018951
0.059601 0.102173 0.018860
0.086975 0.107025 0.019836
0.117706 0.112183 0.021271
0.167084 0.120667 0.024719
0.233368 0.132233 0.029907
0.304932 0.144653 0.035950
0.377075 0.161652 0.042236
0.443726 0.177032 0.046875
0.505646 0.192596 0.051239
0.558990 0.204071 0.056519
0.607819 0.212158 0.064941
0.651947 0.214111 0.072968
0.692322 0.211731 0.081696
0.727631 0.207336 0.090057
0.761780 0.206726 0.098022
0.784393 0.208618 0.104858
0.792145 0.208618 0.108887
0.795776 0.209015 0.111481
0.799469 0.209442 0.113525
0.803162 0.210022 0.115234
0.806793 0.210754 0.116638
0.810303 0.211456 0.117767
0.813904 0.212189 0.118744
0.817413 0.212952 0.119659
0.820770 0.213226 0.120209
0.824066 0.213470 0.120789
0.827332 0.213806 0.121429
0.025879 0.122528 0.022797
0.028625 0.122620 0.022797
0.031586 0.122620 0.022705
0.034424 0.122620 0.022583
0.037415 0.122559 0.022522
0.050537 0.123871 0.022308
0.079163 0.128235 0.022949
0.115143 0.135223 0.024292
0.157928 0.143799 0.026062
0.229736 0.158295 0.031860
0.308441 0.171844 0.038177
0.386902 0.189484 0.043335
0.454651 0.206726 0.047882
0.516968 0.223938 0.052643
0.570282 0.235901 0.058228
0.619598 0.244537 0.064697
0.663605 0.248657 0.072144
0.704651 0.250885 0.081024
0.741730 0.250427 0.088745
0.773926 0.246033 0.097321
0.792786 0.236786 0.103882
0.797882 0.227692 0.107361
0.800354 0.224396 0.110107
0.803619 0.223663 0.112457
0.806824 0.222870 0.114258
0.810181 0.222656 0.115601
0.813416 0.222626 0.116669
0.816803 0.222870 0.117615
0.820251 0.223450 0.118561
0.823761 0.223969 0.119415
0.827087 0.224121 0.120087
0.830292 0.223969 0.120667
0.029022 0.155060 0.030182
0.031708 0.155304 0.030182
0.034790 0.155518 0.030060
0.038025 0.155823 0.029907
0.041290 0.156006 0.029602
0.044464 0.156372 0.029449
0.059845 0.157562 0.028778
0.101074 0.163116 0.029663
0.153534 0.174225 0.030182
0.221436 0.195312 0.034729
0.312439 0.207336 0.040222
0.397919 0.227295 0.046173
0.468262 0.245087 0.050476
0.528412 0.260590 0.055817
0.581635 0.271606 0.060455
0.630493 0.280182 0.066284
0.675293 0.285889 0.072021
0.716339 0.291260 0.079590
0.754669 0.295776 0.088013
0.789246 0.297668 0.097809
0.810303 0.295105 0.105988
0.816528 0.289032 0.109711
0.817871 0.282654 0.112091
0.819580 0.277130 0.114014
0.821625 0.272644 0.115814
0.823883 0.269257 0.117188
0.826416 0.267303 0.118317
0.829498 0.266541 0.119415
0.832825 0.266571 0.120422
0.835846 0.266724 0.121246
0.838745 0.266693 0.122131
0.841553 0.265991 0.122986
0.031860 0.202148 0.041901
0.034943 0.202759 0.041687
0.038055 0.203430 0.041595
0.041107 0.204193 0.041565
0.044281 0.204803 0.041626
0.047699 0.205292 0.041565
0.050812 0.205963 0.041748
0.066833 0.207611 0.041473
0.131104 0.215057 0.040466
0.215424 0.237122 0.041382
0.306183 0.260742 0.045135
0.403198 0.275574 0.051361
0.477753 0.293243 0.058868
0.539948 0.306183 0.061768
0.594543 0.314789 0.065430
0.642792 0.321960 0.070435
0.687073 0.328461 0.075134
0.727692 0.334625 0.081116
0.766235 0.340179 0.087555
0.801117 0.344574 0.095459
0.823700 0.345154 0.101990
0.830627 0.342682 0.106384
0.832977 0.339691 0.109375
0.835541 0.337372 0.112122
0.838196 0.335663 0.114319
0.840851 0.334686 0.116272
0.843536 0.334473 0.118011
0.846405 0.334869 0.119415
0.849396 0.335480 0.120544
0.852386 0.336243 0.121643
0.855438 0.337006 0.122772
0.858459 0.337494 0.124115
0.028381 0.266266 0.062347
0.031342 0.266968 0.062134
0.034363 0.267761 0.061859
0.037109 0.268585 0.061737
0.040039 0.269470 0.061768
0.042816 0.270386 0.062042
0.046204 0.271179 0.062195
0.050171 0.271942 0.062469
0.073669 0.276062 0.062744
0.200623 0.288055 0.054626
0.304230 0.315155 0.058838
0.394196 0.331879 0.064087
0.479279 0.345459 0.072632
0.547394 0.355713 0.074219
0.605194 0.362610 0.073181
0.653717 0.367462 0.074707
0.697327 0.373505 0.080597
0.738556 0.379730 0.085724
0.776947 0.385895 0.091949
0.810669 0.390686 0.098083
0.833405 0.392487 0.102905
0.841064 0.391632 0.105255
0.843781 0.390106 0.107452
0.846588 0.389099 0.110046
0.849365 0.388336 0.112366
0.852203 0.388092 0.114105
0.854980 0.388336 0.115723
0.857819 0.388855 0.117035
0.860687 0.389526 0.118256
0.863617 0.390442 0.119568
0.866516 0.391174 0.120819
0.869354 0.391846 0.122253
0.035797 0.333832 0.085449
0.039185 0.334808 0.085663
0.042816 0.335754 0.085938
0.046295 0.336700 0.086151
0.050049 0.337646 0.086334
0.053833 0.338745 0.086884
0.057953 0.339569 0.087250
0.062164 0.340271 0.087524
0.066437 0.340851 0.087738
0.131927 0.348938 0.088287
0.291290 0.365265 0.076721
0.394379 0.389099 0.083801
0.469940 0.400024 0.090454
0.547516 0.407806 0.091766
0.611176 0.411865 0.083710
0.661560 0.414795 0.081482
0.705566 0.419128 0.085449
0.747467 0.425140 0.089905
0.785278 0.431152 0.096130
0.817535 0.436401 0.102905
0.841797 0.439789 0.109528
0.850128 0.439972 0.112305
0.852844 0.438995 0.113678
0.855591 0.438538 0.115448
0.858337 0.438354 0.117218
0.861176 0.438446 0.118500
0.863983 0.438873 0.119690
0.866821 0.439545 0.121002
0.869690 0.440430 0.122375
0.872620 0.441437 0.123779
0.875519 0.442322 0.125214
0.878326 0.443207 0.126740
0.055206 0.392731 0.108795
0.058929 0.393738 0.109375
0.063080 0.394775 0.109955
0.067505 0.395996 0.110626
0.072113 0.397186 0.111298
0.076721 0.398315 0.112061
0.081268 0.399353 0.112793
0.085876 0.400391 0.113525
0.090363 0.401306 0.114166
0.095367 0.402252 0.114655
0.243744 0.420929 0.106232
0.382233 0.437805 0.099701
0.469818 0.455872 0.108978
0.538422 0.459808 0.110565
0.612274 0.461517 0.096588
0.666809 0.464752 0.091675
0.713074 0.468506 0.092102
0.755188 0.473907 0.096161
0.793243 0.479523 0.102234
0.824890 0.484283 0.108276
0.849792 0.488586 0.118317
0.858887 0.490143 0.123962
0.861420 0.489838 0.126343
0.863983 0.489746 0.128479
0.866547 0.489868 0.130737
0.869202 0.490295 0.132843
0.871887 0.490967 0.134979
0.874634 0.491699 0.136475
0.877441 0.492462 0.137970
0.880188 0.493225 0.139526
0.882843 0.494110 0.141571
0.885468 0.495087 0.144165
0.085510 0.453583 0.139191
0.089966 0.454803 0.139893
0.094330 0.455933 0.140594
0.099152 0.457123 0.141113
0.105469 0.458282 0.140839
0.111298 0.459381 0.140717
0.117523 0.460541 0.140503
0.124725 0.461517 0.140076
0.132202 0.462433 0.139496
0.139374 0.463226 0.139008
0.163422 0.466034 0.137360
0.344543 0.487640 0.123077
0.458405 0.504791 0.121399
0.539886 0.511749 0.117859
0.607330 0.509705 0.104340
0.667389 0.511902 0.098938
0.716400 0.514404 0.097839
0.759308 0.518188 0.102417
0.797119 0.522369 0.106293
0.828064 0.527130 0.115906
0.853607 0.532288 0.129364
0.864807 0.534943 0.137787
0.867645 0.534912 0.140045
0.870178 0.535004 0.142120
0.872742 0.535431 0.144440
0.875305 0.535919 0.146606
0.877838 0.536438 0.148590
0.880402 0.537109 0.150604
0.882935 0.538025 0.153168
0.885406 0.539215 0.156342
0.887878 0.540466 0.159821
0.890289 0.541687 0.163116
0.109161 0.510345 0.171387
0.115051 0.511139 0.170898
0.120911 0.511932 0.170502
0.126526 0.512634 0.170044
0.132446 0.513336 0.169525
0.138428 0.514069 0.169006
0.144745 0.514679 0.168396
0.151062 0.515198 0.167877
0.158234 0.515747 0.167053
0.166473 0.516235 0.165894
0.174133 0.516479 0.164673
0.265381 0.524139 0.150055
0.430145 0.544464 0.135284
0.530548 0.554199 0.126160
0.606384 0.554138 0.105560
0.661987 0.552307 0.100739
0.714478 0.554749 0.102295
0.759399 0.557922 0.105316
0.798248 0.562714 0.112732
0.828552 0.568787 0.127899
0.853943 0.575012 0.145355
0.867645 0.578705 0.157318
0.871185 0.579590 0.162109
0.873627 0.580139 0.165253
0.876038 0.580841 0.168549
0.878448 0.581635 0.171814
0.880859 0.582489 0.174744
0.883301 0.583496 0.178070
0.885773 0.584778 0.181519
0.888245 0.586090 0.185120
0.890686 0.587341 0.188751
0.893188 0.588562 0.192352
0.121918 0.554596 0.193787
0.127014 0.555237 0.193542
0.132416 0.556030 0.193298
0.137543 0.556702 0.193115
0.142914 0.557343 0.192871
0.148132 0.558075 0.192688
0.154236 0.558624 0.192078
0.161377 0.559174 0.191315
0.169128 0.559723 0.190491
0.177795 0.560242 0.189484
0.186768 0.560608 0.188232
0.195770 0.560852 0.186890
0.373413 0.574829 0.151886
0.507538 0.588928 0.134094
0.602936 0.593842 0.107239
0.661011 0.594116 0.099976
0.710022 0.592987 0.100922
0.757477 0.595734 0.105927
0.797089 0.601013 0.117462
0.828064 0.607941 0.136749
0.852448 0.615936 0.161560
0.867920 0.622772 0.184631
0.872406 0.624634 0.191833
0.874756 0.625397 0.195557
0.877167 0.626251 0.199097
0.879608 0.627289 0.202728
0.882019 0.628296 0.205902
0.884521 0.629425 0.209290
0.887024 0.630615 0.212646
0.889465 0.631897 0.216156
0.891937 0.633179 0.219788
0.894348 0.634338 0.223236
0.131226 0.595673 0.214142
0.135864 0.596375 0.214569
0.140503 0.597076 0.214966
0.145081 0.597717 0.215393
0.149902 0.598389 0.215729
0.155060 0.599091 0.215912
0.160339 0.599731 0.215973
0.165649 0.600372 0.216064
0.170898 0.601044 0.216217
0.177734 0.601715 0.215912
0.185486 0.602325 0.215393
0.193146 0.602783 0.214752
0.266388 0.608093 0.205811
0.470856 0.620728 0.148468
0.593750 0.628784 0.110352
0.659576 0.634155 0.101135
0.709686 0.633606 0.102539
0.752960 0.633087 0.107849
0.794159 0.638062 0.121429
0.825775 0.644897 0.143158
0.849609 0.654053 0.175446
0.867249 0.662781 0.204346
0.873718 0.665527 0.214386
0.876099 0.666321 0.218384
0.878387 0.667267 0.222382
0.880737 0.668335 0.226471
0.883118 0.669525 0.230347
0.885681 0.670685 0.234070
0.888184 0.671844 0.237854
0.890686 0.672913 0.241089
0.893219 0.674072 0.244690
0.895721 0.675140 0.248138
0.142639 0.634644 0.230743
0.146606 0.635315 0.231445
0.150574 0.636108 0.232147
0.155060 0.636871 0.232666
0.159454 0.637543 0.233093
0.163849 0.638214 0.233429
0.168365 0.638916 0.233765
0.172882 0.639496 0.234100
0.177429 0.640198 0.234467
0.182007 0.640778 0.234772
0.187469 0.641205 0.234833
0.193115 0.641663 0.234863
0.199890 0.642120 0.234894
0.396912 0.657593 0.206299
0.571625 0.662720 0.125122
0.655823 0.670258 0.104248
0.708069 0.673431 0.106628
0.751862 0.674072 0.113892
0.789520 0.675873 0.128937
0.820557 0.684021 0.159576
0.844849 0.693695 0.195496
0.863068 0.702576 0.226624
0.873566 0.707458 0.243347
0.876434 0.708344 0.247375
0.879028 0.709106 0.250580
0.881714 0.709991 0.253479
0.884491 0.710938 0.256287
0.887238 0.711914 0.259094
0.889862 0.712982 0.261841
0.892517 0.713959 0.264557
0.895172 0.715027 0.267242
0.897858 0.715973 0.269897
0.155945 0.675232 0.248627
0.159912 0.675995 0.249268
0.164215 0.676666 0.249847
0.168457 0.677368 0.250397
0.172852 0.678009 0.250977
0.178131 0.678558 0.251373
0.183563 0.679169 0.251770
0.188904 0.679749 0.252228
0.194275 0.680298 0.252594
0.199707 0.680847 0.253021
0.205566 0.681396 0.253387
0.211884 0.681824 0.253479
0.218597 0.682159 0.253387
0.280975 0.688843 0.253326
0.530273 0.700897 0.175323
0.644653 0.704559 0.113678
0.705963 0.709778 0.112030
0.751099 0.712677 0.119446
0.785950 0.716400 0.142517
0.813965 0.724457 0.183441
0.838287 0.734344 0.223816
0.858063 0.742676 0.252930
0.873779 0.748230 0.270355
0.878326 0.749451 0.274872
0.880951 0.750153 0.277557
0.883667 0.750885 0.280060
0.886505 0.751678 0.282379
0.889313 0.752533 0.284668
0.892090 0.753418 0.287048
0.894958 0.754333 0.289490
0.897766 0.755219 0.291809
0.900543 0.756134 0.294220
0.171936 0.711151 0.265045
0.176941 0.711914 0.265656
0.181854 0.712646 0.266266
0.186737 0.713348 0.266815
0.191681 0.714050 0.267365
0.196655 0.714752 0.267914
0.201508 0.715454 0.268494
0.207001 0.716125 0.269104
0.212891 0.716766 0.269745
0.219360 0.717468 0.270111
0.226471 0.718140 0.270203
0.233673 0.718842 0.270264
0.240570 0.719360 0.270294
0.247345 0.719879 0.270325
0.444519 0.736298 0.248444
0.626068 0.735901 0.134033
0.698395 0.739655 0.119904
0.746796 0.743774 0.132355
0.780670 0.751465 0.166718
0.807678 0.760162 0.209900
0.832367 0.767456 0.244537
0.853760 0.774200 0.271210
0.870972 0.779236 0.288391
0.879852 0.781525 0.296600
0.882507 0.782013 0.298950
0.885345 0.782593 0.301056
0.888123 0.783234 0.302979
0.890961 0.783936 0.304993
0.893799 0.784698 0.307037
0.896637 0.785431 0.309113
0.899475 0.786224 0.311188
0.902344 0.786957 0.313354
0.186584 0.738953 0.277771
0.191315 0.739563 0.278412
0.197327 0.740326 0.279022
0.203369 0.741089 0.279602
0.209381 0.741821 0.280182
0.215302 0.742462 0.280792
0.221161 0.743103 0.281433
0.226959 0.743774 0.282013
0.233917 0.744568 0.282257
0.240784 0.745361 0.282532
0.248016 0.746216 0.282806
0.255554 0.746918 0.283112
0.262848 0.747650 0.283386
0.270172 0.748413 0.283661
0.382843 0.759003 0.277527
0.591888 0.764252 0.194061
0.689148 0.762360 0.131531
0.739868 0.767456 0.148651
0.774200 0.777222 0.191071
0.802490 0.786255 0.233612
0.828583 0.792633 0.261414
0.850708 0.797394 0.282074
0.868195 0.802002 0.299957
0.880646 0.805328 0.310852
0.884491 0.806122 0.313995
0.887299 0.806519 0.315521
0.890076 0.806946 0.317017
0.892883 0.807465 0.318542
0.895691 0.807983 0.320099
0.898468 0.808533 0.321625
0.901276 0.809052 0.323151
0.904053 0.809540 0.324677
0.194122 0.749298 0.283356
0.200195 0.750092 0.283936
0.206635 0.750946 0.284546
0.212830 0.751740 0.285187
0.218903 0.752594 0.285767
0.224854 0.753357 0.286316
0.230560 0.753998 0.286957
0.237000 0.754730 0.287354
0.244080 0.755493 0.287598
0.251526 0.756256 0.287933
0.258972 0.757050 0.288269
0.266235 0.757812 0.288605
0.273529 0.758575 0.288971
0.280853 0.759399 0.289307
0.342560 0.765533 0.287933
0.551514 0.776062 0.233917
0.676880 0.771149 0.141327
0.732269 0.777100 0.159027
0.768066 0.787598 0.203156
0.798096 0.797455 0.244446
0.824982 0.804321 0.271088
0.847595 0.808685 0.287964
0.865356 0.812958 0.304169
0.879272 0.816528 0.316010
0.885559 0.817902 0.320312
0.888336 0.818359 0.321838
0.891144 0.818848 0.323395
0.893860 0.819366 0.324860
0.896637 0.819885 0.326355
0.899445 0.820435 0.327881
0.902191 0.820953 0.329407
0.904968 0.821411 0.330841
0.198059 0.753906 0.285736
0.204315 0.754700 0.286346
0.210693 0.755585 0.286987
0.216766 0.756378 0.287598
0.222717 0.757141 0.288147
0.228607 0.757935 0.288727
0.234589 0.758728 0.289307
0.241394 0.759430 0.289703
0.248718 0.760162 0.290009
0.256195 0.760956 0.290344
0.263519 0.761719 0.290680
0.270935 0.762512 0.291016
0.278412 0.763367 0.291351
0.285919 0.764130 0.291687
0.293457 0.764954 0.292023
0.502991 0.780212 0.258362
0.663239 0.775574 0.152649
0.725067 0.780182 0.161560
0.763062 0.790894 0.205383
0.794098 0.801239 0.247040
0.821808 0.808350 0.273621
0.844727 0.812775 0.289276
0.862518 0.816803 0.304443
0.876587 0.820251 0.316071
0.885284 0.822266 0.322083
0.888519 0.822784 0.323822
0.891296 0.823334 0.325317
0.894073 0.823822 0.326782
0.896820 0.824371 0.328308
0.899628 0.824890 0.329803
0.902405 0.825378 0.331329
0.905151 0.825897 0.332855
0.202057 0.758453 0.288086
0.208344 0.759277 0.288727
0.214905 0.760162 0.289368
0.220978 0.760925 0.289948
0.226898 0.761658 0.290527
0.232941 0.762482 0.291107
0.238983 0.763306 0.291687
0.246246 0.764038 0.291992
0.253815 0.764771 0.292328
0.261261 0.765533 0.292664
0.268616 0.766327 0.292999
0.275879 0.767059 0.293335
0.283234 0.767822 0.293671
0.290649 0.768616 0.294006
0.298187 0.769470 0.294342
0.469971 0.783264 0.272186
0.651031 0.780396 0.168304
0.719421 0.783539 0.165802
0.759003 0.794525 0.209412
0.791016 0.804932 0.250610
0.819336 0.811890 0.276154
0.842346 0.816376 0.291779
0.860443 0.820129 0.305481
0.874573 0.823303 0.316406
0.884857 0.825653 0.323517
0.888702 0.826294 0.325439
0.891479 0.826752 0.326843
0.894196 0.827271 0.328308
0.896973 0.827820 0.329803
0.899750 0.828339 0.331329
0.902527 0.828827 0.332886
0.905273 0.829407 0.334412
0.206909 0.762970 0.290466
0.213348 0.763824 0.291107
0.219635 0.764648 0.291779
0.225555 0.765411 0.292328
0.231628 0.766205 0.292908
0.237854 0.767059 0.293488
0.244049 0.767822 0.294037
0.251007 0.768616 0.294495
0.258331 0.769379 0.294800
0.265747 0.770142 0.295166
0.273163 0.770905 0.295532
0.280579 0.771667 0.295837
0.287872 0.772461 0.296173
0.295166 0.773254 0.296509
0.302185 0.774109 0.296844
0.464844 0.787170 0.277344
0.641418 0.785034 0.182037
0.715240 0.787506 0.171326
0.756104 0.798309 0.213959
0.788757 0.808746 0.255066
0.817413 0.815643 0.279785
0.840729 0.820221 0.294983
0.859070 0.823730 0.307312
0.873169 0.826630 0.317230
0.884033 0.829041 0.324768
0.888824 0.829834 0.327240
0.891602 0.830322 0.328644
0.894379 0.830780 0.330017
0.897125 0.831207 0.331451
0.899933 0.831757 0.333038
0.902679 0.832306 0.334534
0.905457 0.832825 0.336060
0.211823 0.767456 0.292786
0.217987 0.768280 0.293457
0.224335 0.769104 0.294067
0.230347 0.769867 0.294647
0.236450 0.770691 0.295197
0.242584 0.771515 0.295746
0.249054 0.772278 0.296295
0.255890 0.773132 0.296844
0.263092 0.773895 0.297180
0.270569 0.774658 0.297577
0.277924 0.775391 0.297882
0.285248 0.776154 0.298218
0.292358 0.776917 0.298523
0.299347 0.777740 0.298828
0.306366 0.778534 0.299194
0.463135 0.791077 0.281067
0.634583 0.789551 0.193909
0.712372 0.791565 0.177551
0.753937 0.802460 0.219971
0.787292 0.812714 0.260071
0.816284 0.819489 0.283875
0.839783 0.824097 0.298462
0.858307 0.827362 0.309601
0.872406 0.830048 0.318756
0.883270 0.832458 0.326233
0.888885 0.833374 0.329132
0.891785 0.833832 0.330566
0.894531 0.834290 0.332031
0.897339 0.834808 0.333466
0.900085 0.835266 0.334839
0.902863 0.835785 0.336334
0.905609 0.836334 0.337921
0.216919 0.771881 0.295135
0.223145 0.772644 0.295746
0.229279 0.773438 0.296326
0.235352 0.774231 0.296906
0.241669 0.775055 0.297516
0.247864 0.775848 0.298065
0.254333 0.776642 0.298584
0.261078 0.777435 0.299103
0.268097 0.778198 0.299530
0.275635 0.778992 0.299896
0.283020 0.779785 0.300232
0.290192 0.780518 0.300507
0.296967 0.781311 0.300842
0.303802 0.782074 0.301147
0.310791 0.782898 0.301483
0.463837 0.795074 0.283966
0.630676 0.794037 0.203522
