滤镜资源/Professional Luts Collection/Triune-Digital-Cinematic-LUTs/3D LUTs (CUBE)/ALEXA/Skyfall - Alexa.cube
#Created by Benjamin (IWLTBAP) : http://luts.iwltbap.com
#Copyright: (C) Copyright 2016 Triune Films and IWLTBAP
TITLE "Blockbuster LUTs Pack (Alexa Log-C)"
#LUT size
LUT_3D_SIZE 5
#LUT data points
DOMAIN_MIN 0.000000 0.000000 0.000000
DOMAIN_MAX 0.903226 0.903226 0.903226
0.009430 0.011505 0.014374
0.131317 0.027130 0.019379
0.529144 0.114227 0.059509
0.782043 0.181244 0.111115
0.806549 0.183319 0.118958
0.023193 0.098846 0.019226
0.117706 0.112183 0.021271
0.558990 0.204071 0.056519
0.792145 0.208618 0.108887
0.817413 0.212952 0.119659
0.085510 0.453583 0.139191
0.124725 0.461517 0.140076
0.607330 0.509705 0.104340
0.864807 0.534943 0.137787
0.882935 0.538025 0.153168
0.186584 0.738953 0.277771
0.226959 0.743774 0.282013
0.382843 0.759003 0.277527
0.850708 0.797394 0.282074
0.895691 0.807983 0.320099
0.221985 0.776276 0.297485
0.266510 0.781891 0.301361
0.315308 0.787292 0.303802
0.839264 0.831848 0.305573
0.897675 0.841888 0.337463
0.013611 0.014130 0.078278
0.119995 0.024384 0.084564
0.517609 0.108032 0.125244
0.777100 0.181335 0.165466
0.802551 0.184021 0.171021
0.018250 0.097595 0.089020
0.108154 0.106628 0.095001
0.546173 0.191010 0.129486
0.785461 0.206116 0.165588
0.811096 0.209747 0.172241
0.078064 0.452301 0.163879
0.108734 0.460663 0.169189
0.602020 0.512482 0.138855
0.863586 0.539673 0.176392
0.880676 0.546570 0.211273
0.174286 0.736420 0.295654
0.210571 0.741913 0.300415
0.350739 0.756958 0.306519
0.850067 0.800018 0.309204
0.895416 0.809601 0.342621
0.204865 0.773621 0.315582
0.248932 0.779236 0.320251
0.295685 0.785126 0.324585
0.838562 0.835266 0.333893
0.897369 0.844025 0.360840
0.019226 0.048248 0.293060
0.056854 0.051147 0.302032
0.442352 0.096527 0.338348
0.746307 0.189636 0.399414
0.774811 0.196442 0.404694
0.020874 0.077576 0.303864
0.040131 0.076965 0.303711
0.448792 0.123474 0.344635
0.753906 0.218781 0.406067
0.783417 0.226654 0.412140
0.041565 0.435028 0.427979
0.062134 0.436981 0.431458
0.512207 0.498718 0.467102
0.841705 0.563202 0.521210
0.864990 0.563599 0.529236
0.112518 0.711456 0.460022
0.136932 0.716553 0.463501
0.192810 0.729858 0.476410
0.835449 0.812897 0.551392
0.889313 0.817749 0.564728
0.134888 0.758789 0.463806
0.159607 0.764069 0.468414
0.188599 0.769897 0.474365
0.826477 0.851776 0.549988
0.892395 0.856384 0.562775
0.033203 0.087280 0.548676
0.054047 0.084930 0.547943
0.359009 0.082397 0.564209
0.683533 0.151184 0.601562
0.718964 0.165802 0.611053
0.032135 0.123444 0.562103
0.053101 0.118683 0.560486
0.364471 0.110229 0.574066
0.690460 0.180939 0.609802
0.727325 0.197083 0.619843
0.039337 0.362701 0.630463
0.057281 0.363342 0.632538
0.367493 0.354858 0.658356
0.747650 0.374390 0.663635
0.782135 0.368988 0.666046
0.098663 0.699310 0.686218
0.119690 0.702606 0.688080
0.141174 0.704742 0.690399
0.809662 0.793030 0.753204
0.883667 0.798798 0.761780
0.122559 0.775482 0.698730
0.144043 0.778778 0.700470
0.167938 0.783020 0.703064
0.804291 0.858154 0.757935
0.887390 0.864258 0.767944
0.040924 0.105042 0.609497
0.062866 0.102020 0.608704
0.355988 0.091156 0.621216
0.672791 0.144287 0.648773
0.708893 0.158813 0.658539
0.037720 0.143829 0.622314
0.059296 0.138306 0.621460
0.361511 0.118561 0.631134
0.678131 0.172028 0.656158
0.715637 0.187805 0.666992
0.038025 0.271576 0.664978
0.057922 0.270630 0.666382
0.339996 0.250275 0.679840
0.692200 0.252441 0.678680
0.736603 0.267212 0.690247
0.101013 0.694885 0.753235
0.121429 0.698059 0.755188
0.142242 0.700531 0.757629
0.798187 0.784058 0.819122
0.877502 0.788361 0.824249
0.134460 0.785736 0.769409
0.160645 0.789581 0.771851
0.190674 0.793640 0.774811
0.794250 0.858337 0.821960
0.882935 0.863861 0.829224
