滤镜资源/Professional Luts Collection/Triune-Digital-Cinematic-LUTs/3D LUTs (CUBE)/ALEXA/Skyfall - Alexa.cube
#Created by Benjamin (IWLTBAP) : http://luts.iwltbap.com
#Copyright: (C) Copyright 2016 Triune Films and IWLTBAP
TITLE "Blockbuster LUTs Pack (Alexa Log-C)"
#LUT size
LUT_3D_SIZE 8
#LUT data points
DOMAIN_MIN 0.000000 0.000000 0.000000
DOMAIN_MAX 0.903226 0.903226 0.903226
0.009430 0.011505 0.014374
0.052490 0.014191 0.015106
0.170715 0.032990 0.022186
0.409882 0.079651 0.045654
0.628571 0.148163 0.077576
0.774445 0.180481 0.107910
0.792633 0.182220 0.116302
0.806549 0.183319 0.118958
0.012390 0.049255 0.015045
0.047974 0.052734 0.015472
0.173248 0.071106 0.022827
0.420105 0.108643 0.045349
0.634766 0.163361 0.075287
0.780609 0.196075 0.107910
0.798553 0.197906 0.116730
0.812561 0.199921 0.120331
0.025879 0.122528 0.022797
0.037415 0.122559 0.022522
0.157928 0.143799 0.026062
0.454651 0.206726 0.047882
0.663605 0.248657 0.072144
0.792786 0.236786 0.103882
0.806824 0.222870 0.114258
0.820251 0.223450 0.118561
0.035797 0.333832 0.085449
0.050049 0.337646 0.086334
0.066437 0.340851 0.087738
0.469940 0.400024 0.090454
0.705566 0.419128 0.085449
0.841797 0.439789 0.109528
0.858337 0.438354 0.117218
0.869690 0.440430 0.122375
0.121918 0.554596 0.193787
0.142914 0.557343 0.192871
0.169128 0.559723 0.190491
0.373413 0.574829 0.151886
0.710022 0.592987 0.100922
0.852448 0.615936 0.161560
0.877167 0.626251 0.199097
0.887024 0.630615 0.212646
0.171936 0.711151 0.265045
0.191681 0.714050 0.267365
0.212891 0.716766 0.269745
0.240570 0.719360 0.270294
0.698395 0.739655 0.119904
0.832367 0.767456 0.244537
0.882507 0.782013 0.298950
0.893799 0.784698 0.307037
0.202057 0.758453 0.288086
0.226898 0.761658 0.290527
0.253815 0.764771 0.292328
0.283234 0.767822 0.293671
0.651031 0.780396 0.168304
0.819336 0.811890 0.276154
0.884857 0.825653 0.323517
0.896973 0.827820 0.329803
0.221985 0.776276 0.297485
0.246918 0.779510 0.299835
0.273468 0.782684 0.301910
0.301788 0.785828 0.303192
0.628571 0.798523 0.212097
0.815552 0.827454 0.292664
0.882751 0.839569 0.329956
0.897675 0.841888 0.337463
0.009369 0.011322 0.043823
0.049957 0.012482 0.044739
0.164368 0.029907 0.051910
0.400818 0.074554 0.073639
0.621674 0.147034 0.110199
0.771545 0.179199 0.132599
0.790039 0.181152 0.139709
0.804047 0.182373 0.142548
0.012054 0.044464 0.044525
0.045624 0.048004 0.045105
0.167114 0.064056 0.051056
0.410126 0.097137 0.074188
0.628418 0.163269 0.109314
0.776611 0.194092 0.133209
0.795288 0.196228 0.140747
0.809479 0.197845 0.143799
0.025055 0.121857 0.045807
0.036499 0.122528 0.046173
0.156189 0.142548 0.048950
0.450897 0.202179 0.074402
0.662262 0.246948 0.105682
0.790497 0.231201 0.132874
0.804260 0.219849 0.139893
0.817230 0.218781 0.143097
0.034302 0.333740 0.098541
0.048401 0.337646 0.099548
0.063141 0.340607 0.101868
0.468353 0.399841 0.103882
0.705444 0.418915 0.096344
0.841949 0.440186 0.123962
0.858673 0.439819 0.140289
0.869904 0.442810 0.149872
0.115540 0.554596 0.209351
0.136902 0.557251 0.208069
0.158966 0.559723 0.206726
0.367523 0.576141 0.173279
0.708771 0.594391 0.115173
0.851105 0.619293 0.182922
0.875885 0.629791 0.220612
0.885742 0.634186 0.234283
0.166107 0.709839 0.275238
0.184784 0.712738 0.278046
0.205261 0.715515 0.280365
0.228699 0.717896 0.282257
0.697235 0.740479 0.135193
0.831482 0.769409 0.261536
0.882538 0.783752 0.313843
0.893799 0.786163 0.321075
0.191864 0.756866 0.298431
0.216980 0.760223 0.301147
0.242432 0.763519 0.303619
0.270691 0.766815 0.305878
0.645660 0.783356 0.199310
0.818420 0.814178 0.294678
0.884674 0.826965 0.336761
0.896851 0.829132 0.343079
0.212799 0.774750 0.308044
0.237823 0.777985 0.310547
0.263184 0.781219 0.312866
0.291168 0.784515 0.314758
0.622498 0.801941 0.243774
0.815155 0.829407 0.309082
0.882507 0.840912 0.343262
0.897522 0.843231 0.350739
0.015259 0.016815 0.096313
0.050018 0.018341 0.096863
0.154816 0.028534 0.107086
0.395996 0.072113 0.123962
0.613892 0.146057 0.164948
0.767548 0.181244 0.180481
0.786743 0.184418 0.186554
0.801422 0.185883 0.187805
0.015808 0.033783 0.098175
0.042328 0.035034 0.098236
0.149597 0.043549 0.108002
0.399231 0.085266 0.124176
0.619141 0.161621 0.165497
0.772125 0.195465 0.181610
0.791626 0.198608 0.186981
0.806396 0.200439 0.188721
0.018524 0.126282 0.116547
0.028412 0.126892 0.117676
0.142853 0.139252 0.125580
0.433319 0.191071 0.139069
0.649506 0.234589 0.166718
0.779419 0.217499 0.180756
0.796692 0.212708 0.185791
0.811279 0.214966 0.187866
0.029053 0.331177 0.154541
0.042358 0.334961 0.156799
0.055725 0.338379 0.160645
0.457214 0.400024 0.175171
0.704224 0.421753 0.161133
0.841156 0.445801 0.205475
0.856049 0.447479 0.226685
0.866577 0.450897 0.238831
0.111877 0.553345 0.222961
0.128082 0.556213 0.224518
0.149261 0.558563 0.223083
0.357361 0.575653 0.194916
0.707092 0.594635 0.129944
0.849487 0.621307 0.203308
0.874512 0.632080 0.241211
0.884857 0.636017 0.253235
0.159271 0.707458 0.284607
0.177673 0.710358 0.287537
0.196533 0.713287 0.290466
0.219177 0.715607 0.292542
0.694031 0.740692 0.152802
0.830719 0.770538 0.276398
0.882507 0.784607 0.327545
0.893677 0.786713 0.334015
0.182190 0.755402 0.308502
0.206299 0.758636 0.311462
0.231445 0.762024 0.314301
0.258789 0.765381 0.316986
0.636658 0.786865 0.236755
0.817871 0.815979 0.310883
0.884491 0.828369 0.350433
0.896698 0.830414 0.356415
0.202148 0.773193 0.318024
0.227020 0.776398 0.320892
0.252625 0.779602 0.323486
0.279419 0.783081 0.326141
0.614197 0.805450 0.278717
0.814331 0.831390 0.327423
0.882111 0.842102 0.357391
0.897308 0.844299 0.364319
0.016846 0.036377 0.220734
0.026978 0.036713 0.221100
0.110443 0.048920 0.237000
0.350037 0.075806 0.253967
0.589844 0.143860 0.293823
0.747650 0.188141 0.319611
0.769287 0.193481 0.324921
0.784851 0.196350 0.325958
0.017090 0.051849 0.225189
0.027191 0.052460 0.225403
0.104248 0.064514 0.240845
0.355713 0.092377 0.258392
0.594208 0.160522 0.297516
0.752777 0.205505 0.323273
0.774506 0.211121 0.329102
0.789825 0.213898 0.330475
0.016998 0.077240 0.230927
0.027740 0.077179 0.231689
0.089600 0.083160 0.239899
0.356537 0.107849 0.260742
0.597015 0.177277 0.300201
0.757355 0.222198 0.325714
0.779572 0.227936 0.332123
0.794769 0.230896 0.334167
0.024445 0.334473 0.313812
0.035339 0.336334 0.315582
0.046143 0.338165 0.317505
0.399231 0.385529 0.353973
0.670135 0.420929 0.350952
0.820496 0.452606 0.401764
0.837219 0.449829 0.408997
0.849335 0.450165 0.412323
0.078094 0.532959 0.366791
0.092743 0.537323 0.370087
0.106812 0.541565 0.373383
0.200409 0.563141 0.392670
0.661499 0.617737 0.405029
0.837189 0.650665 0.449615
0.869049 0.656891 0.464355
0.881134 0.658569 0.468414
0.122101 0.689484 0.367218
0.137390 0.693176 0.370972
0.153748 0.697662 0.375458
0.169952 0.701691 0.380829
0.639008 0.760162 0.401062
0.822845 0.785065 0.436157
0.879608 0.793884 0.467804
0.891510 0.795166 0.471771
0.160248 0.748657 0.344452
0.176392 0.752625 0.348480
0.197998 0.756622 0.352631
0.221313 0.760223 0.356567
0.606628 0.798645 0.354492
0.813263 0.825195 0.396332
0.882019 0.834747 0.431671
0.895081 0.836700 0.438721
0.171387 0.767456 0.351898
0.195251 0.771423 0.355957
0.220734 0.775299 0.359985
0.246918 0.778595 0.363617
0.588440 0.813446 0.364685
0.810547 0.837921 0.391174
0.879822 0.846680 0.415283
0.896118 0.848572 0.422272
0.020844 0.056000 0.375275
0.030914 0.054718 0.374664
0.061340 0.057251 0.381958
0.282196 0.059937 0.405731
0.522522 0.112457 0.425995
0.700378 0.161926 0.457611
0.727386 0.169495 0.463837
0.747223 0.176025 0.467346
0.021912 0.072113 0.382324
0.031982 0.071136 0.381134
0.056183 0.070160 0.382385
0.284973 0.075317 0.411560
0.527039 0.127716 0.430176
0.705780 0.178375 0.463013
0.733215 0.187042 0.469330
0.753693 0.194885 0.473541
0.021637 0.089294 0.388885
0.033386 0.088623 0.388580
0.044189 0.087555 0.387573
0.283142 0.090973 0.417450
0.529999 0.144287 0.434357
0.710388 0.195038 0.466766
0.740509 0.205505 0.473938
0.761932 0.215149 0.479736
0.025146 0.299438 0.462708
0.035187 0.298981 0.464264
0.045380 0.298157 0.466003
0.277374 0.301666 0.490051
0.580017 0.325897 0.493927
0.769012 0.356995 0.517792
0.793243 0.344513 0.517914
0.809265 0.347107 0.521301
0.066437 0.523132 0.519928
0.078400 0.524414 0.521545
0.090637 0.526123 0.523407
0.128937 0.532776 0.529572
0.617828 0.604187 0.568726
0.821167 0.641510 0.598999
0.860168 0.645752 0.608429
0.872986 0.646759 0.611053
0.096741 0.680817 0.539856
0.109222 0.682678 0.541046
0.122314 0.684967 0.542175
0.135590 0.686707 0.543640
0.558563 0.755280 0.592682
0.803986 0.784271 0.611389
0.872620 0.791138 0.626770
0.885773 0.792206 0.629028
0.116638 0.743988 0.544220
0.129974 0.746399 0.545441
0.142975 0.749084 0.547150
0.156433 0.751892 0.549133
0.507416 0.804993 0.593109
0.795898 0.839447 0.618805
0.872223 0.844940 0.630402
0.889648 0.846436 0.633972
0.123993 0.761200 0.547485
0.136841 0.763733 0.548950
0.149719 0.766479 0.550720
0.163971 0.769226 0.552795
0.475494 0.814941 0.591125
0.793640 0.852142 0.620392
0.870026 0.857941 0.630859
0.890411 0.859161 0.635864
0.028961 0.079651 0.521301
0.040894 0.078522 0.520935
0.052765 0.078064 0.520905
0.258667 0.073517 0.537506
0.464783 0.094025 0.549194
0.672485 0.148682 0.578522
0.703217 0.160889 0.586517
0.723206 0.169067 0.591431
0.030151 0.099182 0.530518
0.041992 0.097717 0.529785
0.054077 0.096741 0.529755
0.262634 0.090790 0.544128
0.469360 0.109772 0.554474
0.676483 0.165955 0.583191
0.707947 0.178680 0.591339
0.728271 0.187073 0.596436
0.029602 0.121399 0.539062
0.041412 0.118286 0.537750
0.053528 0.116241 0.536957
0.262787 0.111755 0.552155
0.472534 0.125946 0.559784
0.679718 0.182831 0.587494
0.712708 0.196655 0.596100
0.733673 0.205017 0.601166
0.028229 0.140167 0.541901
0.040070 0.139740 0.542969
0.052155 0.136810 0.541962
0.221710 0.137817 0.557190
0.463440 0.140991 0.563141
0.674896 0.196838 0.588440
0.718109 0.215302 0.599457
0.739502 0.223724 0.604492
0.061340 0.500305 0.635803
0.072540 0.501831 0.636810
0.084137 0.503265 0.638123
0.095947 0.503754 0.639465
0.562561 0.567657 0.682159
0.785706 0.594299 0.701416
0.837341 0.599243 0.708252
0.852386 0.600342 0.710510
0.094513 0.672150 0.661530
0.106720 0.673889 0.662598
0.119232 0.675720 0.663727
0.132019 0.677521 0.665131
0.467743 0.730499 0.698669
0.784210 0.768280 0.726105
0.868805 0.777130 0.737518
0.881897 0.778015 0.739227
0.114777 0.755249 0.673370
0.126862 0.757294 0.674469
0.139069 0.759338 0.675690
0.151642 0.761505 0.677155
0.389252 0.794891 0.697479
0.777405 0.839325 0.731812
0.863068 0.845123 0.741394
0.887238 0.846893 0.744965
0.121704 0.772491 0.676544
0.133820 0.774750 0.677734
0.147186 0.776947 0.678864
0.160583 0.779236 0.680328
0.311798 0.800568 0.692871
0.775818 0.855194 0.734131
0.861176 0.861664 0.743622
0.888306 0.863770 0.748352
0.038727 0.100037 0.593384
0.051025 0.098175 0.592773
0.063782 0.096710 0.592651
0.250275 0.089783 0.604797
0.461365 0.102020 0.613617
0.655945 0.139008 0.631042
0.691559 0.152863 0.639923
0.711548 0.160370 0.644836
0.037201 0.120819 0.600769
0.049164 0.118896 0.600128
0.062042 0.116821 0.599609
0.254181 0.111237 0.612549
0.463776 0.116486 0.617554
0.658783 0.154053 0.634827
0.695343 0.169464 0.644409
0.715515 0.177368 0.649658
0.035522 0.144043 0.607697
0.047363 0.140228 0.606781
0.059998 0.136932 0.605896
0.250214 0.133423 0.619293
0.465118 0.131470 0.622101
0.660675 0.169922 0.638397
0.698822 0.185913 0.648743
0.719574 0.194366 0.654541
0.033356 0.165894 0.613068
0.045258 0.163696 0.613373
0.057770 0.159790 0.612549
0.194000 0.153870 0.621155
0.455627 0.146027 0.627228
0.654541 0.182983 0.639984
0.702881 0.203094 0.653137
0.723969 0.211914 0.659180
0.059723 0.479645 0.694672
0.070465 0.481262 0.695770
0.081329 0.482727 0.696991
0.092285 0.482941 0.698120
0.527863 0.536133 0.740997
0.743195 0.541046 0.743591
0.810822 0.554474 0.753052
0.827881 0.556458 0.756256
0.092438 0.663879 0.723572
0.104004 0.665863 0.724640
0.115723 0.667786 0.725952
0.127502 0.669067 0.727173
0.447876 0.719086 0.760956
0.768707 0.755554 0.789795
0.860779 0.763123 0.798126
0.875732 0.764648 0.799927
0.116272 0.755066 0.738556
0.128479 0.756989 0.739655
0.141235 0.758789 0.740601
0.153503 0.760101 0.741791
0.323975 0.782227 0.755524
0.763153 0.830627 0.792755
0.856812 0.838074 0.801941
0.885345 0.840057 0.803955
0.129089 0.781708 0.742981
0.142090 0.783661 0.743896
0.155365 0.785736 0.745117
0.169342 0.788116 0.746704
0.322479 0.807068 0.758636
0.763062 0.856140 0.795013
0.855225 0.863647 0.803619
0.884277 0.865479 0.806702
0.040924 0.105042 0.609497
0.053192 0.103333 0.608917
0.066162 0.101685 0.608826
0.248627 0.095856 0.621368
0.461670 0.104340 0.629608
0.652557 0.136993 0.643494
0.689362 0.151215 0.653198
0.708893 0.158813 0.658539
0.039001 0.126587 0.617188
0.051208 0.124329 0.616791
0.064331 0.122223 0.616272
0.250916 0.117371 0.628784
0.464081 0.118683 0.633820
0.655365 0.152039 0.647614
0.692963 0.167358 0.657593
0.712738 0.175293 0.663330
0.037170 0.149719 0.623993
0.049225 0.146332 0.623718
0.061890 0.143158 0.623108
0.246124 0.140076 0.635498
0.465393 0.133850 0.638702
0.657043 0.167480 0.651306
0.696442 0.183685 0.661926
0.716644 0.191956 0.668243
0.035217 0.172180 0.630188
0.047363 0.169800 0.630463
0.059937 0.165955 0.629761
0.185638 0.157837 0.637115
0.454681 0.148315 0.643372
0.650757 0.180298 0.653320
0.700134 0.200348 0.666504
0.720520 0.208893 0.672974
0.059662 0.474060 0.710510
0.070190 0.475708 0.711853
0.081268 0.477295 0.713104
0.092438 0.477814 0.714233
0.524048 0.528290 0.757538
0.736206 0.527557 0.757660
0.799652 0.534821 0.762970
0.818420 0.540283 0.765808
0.093201 0.663055 0.747314
0.104553 0.664764 0.748505
0.116028 0.666534 0.749664
0.127686 0.667786 0.750732
0.437958 0.716370 0.784515
0.765015 0.753845 0.812592
0.853821 0.758392 0.818237
0.870819 0.760345 0.819733
0.122284 0.755798 0.763977
0.135284 0.757935 0.765320
0.148041 0.759827 0.766693
0.161407 0.761414 0.768250
0.335602 0.782654 0.782410
0.759644 0.829407 0.818024
0.855743 0.836670 0.827484
0.884155 0.838196 0.829132
0.134460 0.785736 0.769409
0.147400 0.787842 0.770752
0.164856 0.790100 0.772217
0.183014 0.792511 0.773895
0.337830 0.810486 0.786133
0.758545 0.855194 0.818634
0.854462 0.862152 0.826965
0.882935 0.863861 0.829224
