滤镜资源/Professional Luts Collection/Triune-Digital-Cinematic-LUTs/3D LUTs (CUBE)/ALEXA/Star Wars The Force Awakens - Alexa.cube
#Created by Benjamin (IWLTBAP) : http://luts.iwltbap.com
#Copyright: (C) Copyright 2016 Triune Films and IWLTBAP
TITLE "Blockbuster LUTs Pack (Alexa Log-C)"
#LUT size
LUT_3D_SIZE 8
#LUT data points
DOMAIN_MIN 0.000000 0.000000 0.000000
DOMAIN_MAX 0.903226 0.903226 0.903226
0.010071 0.002747 0.001923
0.069794 0.013184 0.007141
0.163361 0.033997 0.018616
0.354034 0.053772 0.039948
0.606354 0.121948 0.093964
0.766541 0.164825 0.125793
0.793701 0.175293 0.135437
0.813690 0.187927 0.142456
0.014648 0.061584 0.008911
0.056915 0.063629 0.010803
0.149353 0.075134 0.022247
0.351868 0.077606 0.036377
0.603607 0.133087 0.091278
0.766754 0.178864 0.124329
0.792664 0.188873 0.134735
0.813049 0.200958 0.141449
0.028229 0.150818 0.024841
0.039917 0.151398 0.024963
0.143890 0.152191 0.018860
0.326721 0.172272 0.042206
0.577728 0.215424 0.086670
0.769836 0.222656 0.119019
0.792175 0.212769 0.130219
0.813263 0.221497 0.136414
0.021423 0.318939 0.045197
0.033966 0.319122 0.043732
0.047546 0.319489 0.041138
0.340454 0.336334 0.038269
0.592896 0.374237 0.080048
0.793274 0.458038 0.140747
0.825409 0.463623 0.158722
0.847626 0.470673 0.166748
0.067261 0.524872 0.102722
0.079041 0.526154 0.101868
0.091736 0.527527 0.100952
0.194763 0.549225 0.059387
0.598053 0.565979 0.081238
0.828644 0.637482 0.127899
0.863129 0.636383 0.163239
0.875610 0.636200 0.169159
0.126740 0.714478 0.162750
0.138977 0.714905 0.162384
0.152344 0.715607 0.162323
0.165955 0.715912 0.162048
0.564514 0.773682 0.084564
0.800507 0.802521 0.193268
0.880157 0.803986 0.221832
0.894287 0.805115 0.224365
0.146667 0.768951 0.180084
0.158417 0.769257 0.179504
0.170532 0.770203 0.180267
0.184052 0.771790 0.180786
0.500275 0.854095 0.133148
0.775665 0.856659 0.199432
0.890747 0.869659 0.234528
0.906921 0.871582 0.237061
0.154144 0.794189 0.188049
0.166016 0.794556 0.189484
0.178467 0.795135 0.191437
0.191406 0.796387 0.194031
0.463867 0.868225 0.162689
0.771179 0.874481 0.205902
0.890350 0.893494 0.238647
0.911835 0.894348 0.242432
0.015076 0.007629 0.044159
0.070923 0.015289 0.048981
0.169220 0.030304 0.057373
0.356323 0.054443 0.076660
0.616608 0.125061 0.124878
0.767059 0.165497 0.150543
0.794037 0.178345 0.159943
0.812653 0.190887 0.167877
0.016479 0.057922 0.044922
0.053741 0.055847 0.049866
0.162811 0.069183 0.054840
0.356842 0.073120 0.074463
0.613434 0.135712 0.123077
0.767548 0.178558 0.149750
0.792877 0.190979 0.159363
0.811768 0.203217 0.167084
0.028503 0.148651 0.049774
0.040558 0.148621 0.050140
0.142731 0.150146 0.046661
0.325897 0.168671 0.072723
0.605225 0.210358 0.117188
0.770844 0.213867 0.146484
0.793060 0.211761 0.156342
0.813110 0.220337 0.163177
0.020752 0.319031 0.058289
0.034332 0.318634 0.056885
0.048065 0.318726 0.054626
0.341278 0.337006 0.050507
0.598969 0.375763 0.092590
0.793488 0.458771 0.157196
0.827820 0.465485 0.182831
0.842224 0.473297 0.202087
0.067535 0.523712 0.114563
0.078827 0.524628 0.114227
0.091095 0.525909 0.113159
0.188751 0.550354 0.074890
0.602173 0.568665 0.093323
0.826416 0.635071 0.144989
0.860260 0.633942 0.179840
0.873138 0.633820 0.185425
0.127106 0.714478 0.174530
0.139374 0.714600 0.174072
0.152222 0.715271 0.173950
0.165894 0.715454 0.173767
0.564362 0.773621 0.096558
0.799591 0.801056 0.206909
0.879730 0.803040 0.235107
0.893860 0.804413 0.237518
0.147034 0.769135 0.191925
0.158752 0.769379 0.191376
0.170654 0.770203 0.191956
0.184174 0.771667 0.192444
0.498688 0.853058 0.151215
0.775024 0.855469 0.213226
0.890045 0.869110 0.247620
0.906464 0.870972 0.250183
0.154480 0.794525 0.199768
0.166382 0.794678 0.201233
0.178619 0.795197 0.203003
0.191620 0.796356 0.205536
0.461243 0.866150 0.181091
0.770691 0.873901 0.219147
0.889740 0.893127 0.251526
0.911438 0.893982 0.255646
0.030090 0.031036 0.123260
0.069946 0.026917 0.129913
0.174225 0.037750 0.126312
0.377502 0.062592 0.136749
0.631470 0.127594 0.168152
0.771240 0.171326 0.193207
0.795532 0.187378 0.205841
0.814026 0.200012 0.215698
0.029907 0.057739 0.121643
0.059509 0.044861 0.129761
0.170227 0.053711 0.125397
0.376007 0.073883 0.135925
0.631409 0.140961 0.168762
0.771851 0.185120 0.193787
0.794434 0.199921 0.205933
0.813202 0.212585 0.215729
0.033813 0.152679 0.129883
0.046387 0.152924 0.131470
0.131531 0.160278 0.148621
0.359955 0.151794 0.127502
0.617920 0.195404 0.168365
0.772858 0.208679 0.193542
0.794373 0.213074 0.204041
0.813263 0.225220 0.213623
0.023193 0.320618 0.122223
0.036743 0.320068 0.119873
0.050140 0.319977 0.119080
0.338196 0.342316 0.108643
0.611481 0.402130 0.183899
0.781036 0.474579 0.276917
0.803314 0.478973 0.299500
0.820801 0.484528 0.308990
0.066986 0.520935 0.126373
0.078369 0.521973 0.125763
0.090515 0.523285 0.125458
0.185120 0.542816 0.098663
0.606171 0.570801 0.105194
0.824036 0.631989 0.160339
0.858154 0.630859 0.195618
0.871002 0.631073 0.200806
0.126984 0.713684 0.186371
0.139069 0.713898 0.185883
0.152008 0.714417 0.185791
0.165161 0.714264 0.185638
0.563293 0.772552 0.108795
0.798218 0.798462 0.220459
0.879120 0.801208 0.248108
0.893219 0.802551 0.250488
0.147705 0.769928 0.204193
0.159363 0.770081 0.203735
0.171356 0.770660 0.204376
0.184326 0.771912 0.204742
0.494110 0.849548 0.172516
0.774323 0.854248 0.226654
0.889557 0.868713 0.261261
0.905975 0.870667 0.263733
0.155182 0.795135 0.212250
0.166992 0.795227 0.213470
0.179352 0.795868 0.215393
0.192108 0.796692 0.217560
0.456360 0.861908 0.203613
0.770020 0.872955 0.232269
0.888977 0.892792 0.265228
0.910797 0.893707 0.269226
0.045105 0.078979 0.275360
0.057251 0.065857 0.277466
0.152649 0.065277 0.278992
0.354065 0.068390 0.260864
0.651031 0.146606 0.275818
0.775543 0.206085 0.330231
0.798462 0.220795 0.346283
0.815765 0.230621 0.355988
0.044312 0.100525 0.273712
0.056488 0.093414 0.275696
0.146088 0.078308 0.281555
0.353882 0.078674 0.258820
0.654938 0.163177 0.279938
0.776245 0.221039 0.332001
0.798431 0.234436 0.346893
0.816071 0.244629 0.357025
0.043518 0.128387 0.270599
0.055847 0.124725 0.272858
0.125793 0.095825 0.286530
0.349060 0.088318 0.254944
0.651520 0.175262 0.281219
0.777802 0.236725 0.333282
0.798981 0.248535 0.347107
0.816559 0.258362 0.357117
0.042236 0.324585 0.294189
0.050507 0.325958 0.294250
0.062378 0.326874 0.294586
0.288849 0.340118 0.316650
0.627899 0.395935 0.355988
0.812836 0.456024 0.399414
0.840179 0.456482 0.404083
0.857880 0.460266 0.408325
0.082275 0.530975 0.321045
0.093079 0.532196 0.317535
0.103210 0.532349 0.315308
0.172546 0.545410 0.307800
0.631287 0.626190 0.309814
0.812744 0.657104 0.437744
0.857178 0.669189 0.454071
0.878510 0.672058 0.454590
0.127350 0.704681 0.291962
0.138733 0.704285 0.290802
0.150391 0.704254 0.290405
0.162567 0.704224 0.291626
0.568420 0.779205 0.282227
0.795166 0.789429 0.344971
0.878204 0.798767 0.372467
0.892578 0.800323 0.375366
0.150360 0.772369 0.249512
0.161957 0.772766 0.249847
0.174103 0.773560 0.251099
0.186646 0.774963 0.252808
0.466309 0.820190 0.272675
0.772125 0.851379 0.291840
0.888214 0.868713 0.336121
0.905945 0.870514 0.340576
0.158112 0.797516 0.255585
0.170349 0.798035 0.257599
0.182892 0.798676 0.259827
0.196014 0.799896 0.263123
0.433258 0.836700 0.285919
0.768951 0.871521 0.282104
0.885651 0.892700 0.320129
0.909515 0.893494 0.325134
0.085175 0.127380 0.440186
0.098083 0.117493 0.445526
0.132751 0.088715 0.455750
0.317535 0.099701 0.445770
0.597382 0.179443 0.429291
0.789825 0.250763 0.501373
0.818939 0.262238 0.512329
0.838409 0.270325 0.518951
0.082184 0.146545 0.436157
0.095978 0.139923 0.441681
0.125610 0.107178 0.454559
0.314880 0.111664 0.452362
0.598480 0.193115 0.430725
0.790741 0.264038 0.501068
0.820343 0.275391 0.510498
0.839874 0.283325 0.516815
0.077789 0.165466 0.430634
0.092407 0.160614 0.435852
0.107117 0.153595 0.442535
0.312164 0.123291 0.457916
0.597565 0.206024 0.431854
0.791229 0.277222 0.499146
0.821320 0.288910 0.509064
0.840424 0.297211 0.517761
0.070099 0.312988 0.433136
0.081879 0.313660 0.434143
0.093201 0.313660 0.435028
0.307098 0.280670 0.510132
0.605225 0.346130 0.472076
0.827576 0.412415 0.535706
0.851440 0.402313 0.537811
0.865997 0.402893 0.541412
0.114746 0.556061 0.486206
0.125854 0.556610 0.486755
0.136749 0.557343 0.487366
0.171509 0.560699 0.490662
0.606262 0.604370 0.546082
0.831329 0.658661 0.592896
0.889862 0.665863 0.608276
0.907379 0.671539 0.613647
0.183014 0.752045 0.538544
0.195221 0.753510 0.538574
0.207672 0.754486 0.538483
0.219879 0.754883 0.538330
0.496521 0.776215 0.557404
0.813416 0.828125 0.573151
0.914825 0.842285 0.607361
0.930511 0.845947 0.613464
0.211212 0.826172 0.543335
0.222687 0.826019 0.541229
0.234161 0.826019 0.539429
0.246552 0.826599 0.538727
0.414520 0.837769 0.544891
0.797852 0.905273 0.578583
0.915192 0.914215 0.600922
0.938171 0.918060 0.610657
0.219330 0.846313 0.544037
0.230927 0.846252 0.541870
0.242798 0.846313 0.540222
0.255341 0.847137 0.538483
0.398438 0.856323 0.546143
0.793060 0.922180 0.577423
0.909393 0.936157 0.602936
0.941772 0.936340 0.611389
0.128876 0.151978 0.618622
0.142059 0.147614 0.624359
0.154724 0.139008 0.629425
0.340515 0.119812 0.614746
0.630371 0.213257 0.607697
0.825562 0.295929 0.668182
0.851288 0.303314 0.676147
0.868500 0.308411 0.681335
0.125793 0.168640 0.614258
0.138550 0.164948 0.619629
0.152191 0.159851 0.625610
0.340271 0.133301 0.616791
0.628204 0.226776 0.608887
0.825287 0.309235 0.668976
0.851318 0.316925 0.677216
0.868408 0.322144 0.682098
0.123383 0.184906 0.609985
0.135773 0.181763 0.614960
0.148926 0.177948 0.620819
0.334381 0.143768 0.621704
0.623474 0.239014 0.609222
0.823975 0.322388 0.669189
0.851196 0.330505 0.677582
0.868347 0.335815 0.682495
0.119720 0.201752 0.602081
0.132202 0.198151 0.607666
0.145294 0.194794 0.613312
0.295288 0.157898 0.633545
0.602448 0.242004 0.604492
0.815216 0.332947 0.664948
0.850555 0.343414 0.675873
0.867615 0.348877 0.680603
0.144440 0.553711 0.631561
0.156036 0.555298 0.633057
0.167877 0.556793 0.634369
0.179688 0.557068 0.635834
0.612732 0.589325 0.695801
0.831909 0.629608 0.713379
0.893768 0.639862 0.723358
0.913086 0.645111 0.727936
0.211578 0.751526 0.683746
0.224426 0.752289 0.683289
0.237396 0.753418 0.683228
0.250519 0.753723 0.683075
0.492828 0.787781 0.712524
0.818695 0.836304 0.751678
0.926758 0.861969 0.778168
0.944763 0.865234 0.782135
0.260925 0.851898 0.711853
0.273834 0.852997 0.711884
0.287170 0.854218 0.712219
0.300690 0.855652 0.712891
0.446564 0.880280 0.732605
0.799866 0.930511 0.764526
0.923492 0.947723 0.775452
0.955261 0.948334 0.783966
0.270905 0.873749 0.718750
0.284149 0.874969 0.718903
0.297516 0.876648 0.719604
0.311188 0.878326 0.720581
0.408417 0.894409 0.733032
0.796051 0.954620 0.767975
0.922455 0.969116 0.778137
0.957031 0.972321 0.781525
0.148651 0.177185 0.705750
0.161316 0.174164 0.710236
0.174500 0.171600 0.714630
0.354492 0.147644 0.703491
0.665680 0.247223 0.702301
0.847382 0.310638 0.746918
0.878906 0.322083 0.759583
0.896790 0.329834 0.768311
0.146149 0.192596 0.701752
0.157867 0.191223 0.705139
0.170593 0.188690 0.709473
0.354858 0.163910 0.707825
0.664398 0.260559 0.703461
0.847260 0.323914 0.747864
0.879333 0.335999 0.761292
0.897247 0.344055 0.769958
0.143768 0.208435 0.698425
0.155487 0.207062 0.701874
0.167175 0.206329 0.704437
0.349579 0.181335 0.716339
0.660828 0.272980 0.704254
0.846161 0.337250 0.748779
0.879730 0.350159 0.763184
0.897522 0.358551 0.771759
0.141174 0.225586 0.693573
0.153107 0.222687 0.698395
0.164764 0.221771 0.701080
0.300964 0.193634 0.736145
0.643219 0.280792 0.703674
0.837067 0.348480 0.746460
0.880127 0.364166 0.764343
0.898010 0.372620 0.773193
0.170898 0.551331 0.719238
0.183319 0.553070 0.720459
0.196136 0.554993 0.721832
0.208282 0.555176 0.722595
0.622192 0.566650 0.807800
0.839600 0.606415 0.788879
0.905670 0.627808 0.809357
0.921326 0.632904 0.813263
0.240448 0.755188 0.762817
0.253357 0.756165 0.763031
0.266571 0.757477 0.763428
0.279724 0.757935 0.763702
0.493622 0.786987 0.787384
0.824738 0.840332 0.842834
0.938904 0.861176 0.855469
0.955261 0.863739 0.857971
0.282043 0.858124 0.791504
0.294250 0.858673 0.791748
0.306732 0.859680 0.792267
0.319336 0.859772 0.792480
0.425995 0.873871 0.803436
0.791962 0.940247 0.868896
0.928375 0.948975 0.867554
0.967377 0.953583 0.873444
0.294800 0.891968 0.803619
0.307129 0.892639 0.804199
0.319641 0.893738 0.804810
0.332306 0.895294 0.806030
0.418701 0.908447 0.815063
0.787384 0.972931 0.875977
0.929688 0.981567 0.876282
0.970795 0.985687 0.878418
0.152679 0.186188 0.723328
0.165314 0.184174 0.726837
0.178619 0.181488 0.731171
0.359650 0.158661 0.727448
0.671997 0.254120 0.726379
0.852661 0.315155 0.768555
0.886383 0.329163 0.782227
0.902802 0.335419 0.788361
0.150055 0.201691 0.719604
0.161743 0.200745 0.721710
0.174469 0.198425 0.725769
0.359985 0.175995 0.732880
0.671082 0.267914 0.727753
0.852600 0.328796 0.769531
0.886536 0.343231 0.783173
0.902954 0.349762 0.789581
0.148224 0.217407 0.716614
0.159546 0.216522 0.718689
0.171326 0.215515 0.721313
0.354279 0.194244 0.740997
0.668152 0.280670 0.728851
0.851501 0.342285 0.770538
0.887024 0.357971 0.784698
0.903290 0.364258 0.791016
0.146362 0.234863 0.713593
0.157562 0.232971 0.715698
0.169220 0.231659 0.718536
0.300079 0.203949 0.758667
0.654114 0.290710 0.730957
0.842773 0.353546 0.768768
0.887970 0.372131 0.786621
0.904236 0.378571 0.792999
0.179840 0.551422 0.742584
0.192413 0.553223 0.743591
0.205170 0.554871 0.744690
0.217590 0.554688 0.745087
0.625061 0.557159 0.840363
0.841705 0.598389 0.808014
0.911682 0.619232 0.829529
0.926483 0.623657 0.833038
0.253693 0.760590 0.794556
0.266541 0.761475 0.794678
0.279907 0.762756 0.795044
0.293213 0.763245 0.795380
0.499512 0.792969 0.819855
0.830414 0.842072 0.872711
0.943512 0.859711 0.883911
0.960907 0.863159 0.887024
0.292572 0.863739 0.824371
0.305267 0.864929 0.825165
0.317871 0.866058 0.826050
0.330627 0.867096 0.827057
0.428314 0.880402 0.837891
0.798126 0.941681 0.895569
0.932007 0.951538 0.896881
0.971039 0.955414 0.901978
0.304993 0.901337 0.837860
0.317017 0.902405 0.838531
0.329468 0.903442 0.839478
0.342224 0.904877 0.840454
0.425690 0.916504 0.848694
0.793213 0.974182 0.902100
0.930084 0.984283 0.910370
0.972443 0.988190 0.908600
