滤镜资源/Professional Luts Collection/Triune-Digital-Cinematic-LUTs/3D LUTs (CUBE)/ALEXA/Star Wars The Force Awakens - Alexa.cube
#Created by Benjamin (IWLTBAP) : http://luts.iwltbap.com
#Copyright: (C) Copyright 2016 Triune Films and IWLTBAP
TITLE "Blockbuster LUTs Pack (Alexa Log-C)"
#LUT size
LUT_3D_SIZE 32
#LUT data points
0.010071 0.002747 0.001923
0.022491 0.003906 0.003601
0.035797 0.005859 0.004303
0.053406 0.009979 0.005829
0.069794 0.013184 0.007141
0.087708 0.016235 0.009277
0.108368 0.022125 0.011688
0.133179 0.028015 0.014679
0.163361 0.033997 0.018616
0.200836 0.039459 0.022308
0.249146 0.040039 0.024475
0.299530 0.042633 0.028961
0.354034 0.053772 0.039948
0.420868 0.068939 0.052979
0.487366 0.087372 0.067261
0.547546 0.104462 0.080566
0.606354 0.121948 0.093964
0.656677 0.134094 0.103302
0.699677 0.144135 0.110901
0.738983 0.155823 0.119293
0.766541 0.164825 0.125793
0.777802 0.168793 0.129120
0.783112 0.170715 0.131561
0.788544 0.172699 0.133362
0.793701 0.175293 0.135437
0.798737 0.178406 0.137543
0.803772 0.181427 0.139374
0.808777 0.184662 0.141052
0.813690 0.187927 0.142456
0.819000 0.191101 0.143768
0.824219 0.194244 0.144958
0.827850 0.195557 0.146027
0.010071 0.014252 0.002930
0.019257 0.014740 0.004242
0.032135 0.016449 0.005676
0.048584 0.019958 0.006531
0.064697 0.022736 0.007263
0.080780 0.025574 0.009674
0.101013 0.029266 0.011597
0.131042 0.035797 0.014252
0.161957 0.040497 0.017975
0.200256 0.044250 0.022247
0.248413 0.044159 0.024109
0.299133 0.046234 0.028046
0.353790 0.056488 0.039215
0.420807 0.071777 0.052582
0.487061 0.090210 0.066437
0.546539 0.106781 0.079865
0.605774 0.124939 0.093506
0.656891 0.137421 0.102844
0.700134 0.147583 0.110535
0.739044 0.159271 0.119019
0.766479 0.168304 0.125458
0.777435 0.171967 0.129028
0.782898 0.173889 0.131287
0.788422 0.175751 0.133270
0.793549 0.178497 0.135315
0.798615 0.181610 0.137329
0.803589 0.184601 0.139191
0.808594 0.187866 0.140808
0.813599 0.191010 0.142273
0.818817 0.194183 0.143616
0.824036 0.197479 0.144806
0.827698 0.198761 0.145782
0.011658 0.028351 0.004181
0.017303 0.027771 0.004547
0.029175 0.028839 0.006256
0.046478 0.031464 0.007660
0.064056 0.034882 0.007172
0.081116 0.037415 0.008575
0.100616 0.040588 0.012115
0.123291 0.045593 0.015900
0.153015 0.052338 0.020569
0.199341 0.055084 0.021912
0.247528 0.053955 0.024078
0.298370 0.051300 0.027405
0.353485 0.059357 0.038574
0.420380 0.074738 0.051971
0.486755 0.093170 0.066010
0.545807 0.109406 0.079132
0.605255 0.127716 0.092926
0.657043 0.140778 0.102509
0.700470 0.151062 0.110229
0.739166 0.162659 0.118713
0.766541 0.171722 0.125122
0.777100 0.175446 0.128693
0.782745 0.177246 0.131073
0.788300 0.178955 0.132996
0.793365 0.181763 0.135071
0.798492 0.184814 0.137115
0.803436 0.187927 0.138977
0.808594 0.190979 0.140625
0.813477 0.194061 0.142059
0.818756 0.197418 0.143250
0.823822 0.200653 0.144440
0.827484 0.201843 0.145508
0.013641 0.044525 0.006592
0.017487 0.044525 0.006683
0.028076 0.045380 0.007599
0.042023 0.045593 0.009064
0.059784 0.048828 0.009674
0.081512 0.050171 0.008240
0.101410 0.053894 0.010773
0.121979 0.057190 0.016449
0.152222 0.063019 0.020996
0.188171 0.068024 0.027100
0.245850 0.067688 0.025085
0.296997 0.062592 0.026031
0.352509 0.065613 0.037231
0.419434 0.077789 0.051117
0.486237 0.096130 0.065308
0.545441 0.112396 0.078461
0.604004 0.130096 0.092072
0.657349 0.144257 0.102051
0.700928 0.154572 0.109955
0.739410 0.166229 0.118195
0.766693 0.175232 0.124725
0.776825 0.178894 0.128418
0.782349 0.180725 0.130920
0.787903 0.182434 0.132751
0.793121 0.185211 0.134979
0.798157 0.188263 0.136963
0.803162 0.191315 0.138855
0.808197 0.194427 0.140442
0.813293 0.197327 0.141663
0.818634 0.200592 0.143097
0.823669 0.203949 0.144165
0.827209 0.205078 0.145264
0.014648 0.061584 0.008911
0.017883 0.061554 0.009247
0.026001 0.062286 0.009583
0.039062 0.063263 0.010406
0.056915 0.063629 0.010803
0.078796 0.065094 0.009491
0.102112 0.066833 0.010559
0.127472 0.071350 0.013916
0.149353 0.075134 0.022247
0.190308 0.081207 0.026733
0.232483 0.084534 0.032654
0.294708 0.078156 0.026825
0.351868 0.077606 0.036377
0.418335 0.086273 0.050507
0.485565 0.099548 0.064484
0.544708 0.115417 0.077637
0.603607 0.133087 0.091278
0.657349 0.147797 0.101501
0.701202 0.158264 0.109375
0.739807 0.169830 0.117676
0.766754 0.178864 0.124329
0.777008 0.182465 0.128052
0.782013 0.184296 0.130524
0.787415 0.186005 0.132446
0.792664 0.188873 0.134735
0.797668 0.191925 0.136810
0.802795 0.195038 0.138489
0.807709 0.198090 0.140198
0.813049 0.200958 0.141449
0.818268 0.204041 0.142639
0.823303 0.207367 0.143921
0.826874 0.208496 0.144928
0.017090 0.078735 0.011719
0.020264 0.078705 0.012024
0.024445 0.078979 0.011627
0.036102 0.080353 0.012024
0.051483 0.082306 0.012695
0.073181 0.082123 0.012024
0.099304 0.083099 0.012573
0.126404 0.086304 0.014191
0.158051 0.090881 0.018402
0.188538 0.095337 0.029297
0.236389 0.099579 0.031738
0.278931 0.102386 0.036438
0.345978 0.096802 0.036469
0.416565 0.102997 0.049652
0.483978 0.112244 0.063354
0.544006 0.121521 0.076691
0.602753 0.135834 0.090057
0.657715 0.151306 0.100677
0.701752 0.161865 0.108673
0.740082 0.173370 0.116974
0.766754 0.182556 0.123535
0.777008 0.186157 0.127411
0.782013 0.187927 0.129944
0.787079 0.189667 0.131927
0.792328 0.192474 0.134308
0.797302 0.195618 0.136414
0.802429 0.198639 0.138245
0.807281 0.201752 0.139771
0.812683 0.204681 0.140991
0.817841 0.207672 0.142090
0.822937 0.210693 0.143402
0.826538 0.211945 0.144257
0.019592 0.098572 0.014801
0.022888 0.098541 0.014801
0.025421 0.098724 0.014832
0.033569 0.098755 0.014679
0.046783 0.099976 0.014526
0.067596 0.100861 0.014160
0.092346 0.101074 0.013397
0.123596 0.103577 0.014618
0.156372 0.107758 0.018402
0.196472 0.112396 0.022186
0.231903 0.117279 0.034302
0.283508 0.120605 0.034210
0.324005 0.124481 0.041138
0.397339 0.124695 0.050049
0.480591 0.133698 0.061676
0.542542 0.142365 0.075226
0.601715 0.148163 0.088562
0.657257 0.156769 0.099304
0.701721 0.165802 0.107239
0.740112 0.176971 0.115723
0.766846 0.186218 0.122437
0.777191 0.189850 0.126434
0.782135 0.191620 0.129028
0.786896 0.193420 0.131134
0.791962 0.196075 0.133453
0.797119 0.199249 0.135590
0.802185 0.202301 0.137421
0.807281 0.205383 0.138794
0.812714 0.208252 0.140167
0.817963 0.211212 0.141357
0.823120 0.214081 0.142517
0.826874 0.215393 0.143494
0.023682 0.122375 0.019470
0.026917 0.122284 0.019409
0.029541 0.122467 0.019501
0.032745 0.122345 0.019409
0.042511 0.122925 0.019348
0.059296 0.124207 0.017792
0.084473 0.123779 0.016449
0.117096 0.122223 0.013977
0.151398 0.128998 0.018250
0.194336 0.132629 0.022369
0.243317 0.136322 0.024475
0.278595 0.141449 0.037323
0.331482 0.146545 0.040039
0.372559 0.153412 0.049774
0.443207 0.158234 0.060913
0.536896 0.171570 0.072998
0.601562 0.180542 0.087006
0.656677 0.186096 0.097992
0.702332 0.184601 0.105896
0.740387 0.186493 0.113953
0.766693 0.191406 0.120758
0.777100 0.193817 0.124847
0.782013 0.195618 0.127594
0.786957 0.197327 0.129791
0.791962 0.199799 0.132141
0.797150 0.202881 0.134247
0.802338 0.205872 0.136047
0.807495 0.208893 0.137451
0.812866 0.211792 0.138550
0.817993 0.214844 0.139832
0.823151 0.217651 0.140930
0.827026 0.218842 0.141846
0.028229 0.150818 0.024841
0.030823 0.151001 0.024902
0.033691 0.151215 0.024841
0.036926 0.151184 0.024841
0.039917 0.151398 0.024963
0.051758 0.152100 0.024841
0.072693 0.155182 0.022369
0.106018 0.151764 0.018097
0.143890 0.152191 0.018860
0.185547 0.159485 0.022919
0.240723 0.161438 0.025146
0.288239 0.166443 0.026184
0.326721 0.172272 0.042206
0.377380 0.182037 0.050140
0.431030 0.191040 0.059601
0.489929 0.198456 0.070679
0.577728 0.215424 0.086670
0.650696 0.226257 0.095123
0.702240 0.232727 0.104156
0.743103 0.231201 0.112549
0.769836 0.222656 0.119019
0.777740 0.213440 0.122711
0.782318 0.210999 0.125397
0.787262 0.211304 0.127930
0.792175 0.212769 0.130219
0.797485 0.214478 0.132294
0.802673 0.216522 0.133789
0.807861 0.218903 0.135254
0.813263 0.221497 0.136414
0.818481 0.224457 0.137512
0.823395 0.226746 0.138763
0.827209 0.227509 0.139618
0.031036 0.185730 0.031219
0.034241 0.185669 0.031189
0.037048 0.185852 0.031128
0.040497 0.185791 0.031006
0.042969 0.186188 0.030945
0.046112 0.186157 0.030945
0.059235 0.187469 0.030853
0.085358 0.192963 0.025421
0.130859 0.187897 0.022369
0.178925 0.189697 0.023438
0.232300 0.196503 0.025940
0.286652 0.196747 0.026550
0.336365 0.206909 0.034058
0.384583 0.215363 0.051788
0.434570 0.225830 0.063538
0.500732 0.239105 0.070862
0.551697 0.249146 0.082886
0.618347 0.263702 0.095917
0.695648 0.278656 0.107727
0.756439 0.286926 0.110382
0.787231 0.287994 0.117615
0.795990 0.282623 0.121674
0.798462 0.275513 0.124359
0.801056 0.270416 0.126862
0.803802 0.266541 0.128754
0.807587 0.263855 0.130249
0.811584 0.262848 0.131653
0.815918 0.263184 0.133026
0.820343 0.264191 0.134125
0.825256 0.265991 0.135223
0.829193 0.266693 0.136261
0.832275 0.266174 0.137115
0.029877 0.227142 0.036102
0.032440 0.227692 0.036530
0.035522 0.227722 0.036316
0.038391 0.228119 0.035919
0.042114 0.228058 0.035645
0.044708 0.228424 0.035370
0.048218 0.228363 0.034912
0.061371 0.230133 0.033691
0.095001 0.239166 0.024445
0.161102 0.229492 0.025818
0.224457 0.233856 0.026611
0.286163 0.239716 0.027954
0.337494 0.243835 0.035095
0.393127 0.255096 0.044983
0.455200 0.267944 0.059906
0.509766 0.280090 0.077087
0.570465 0.292786 0.088440
0.640778 0.307526 0.097565
0.690125 0.319946 0.105988
0.740570 0.335266 0.115845
0.780396 0.351746 0.126709
0.796478 0.355957 0.134613
0.805908 0.356415 0.137238
0.815338 0.355713 0.141663
0.824066 0.356354 0.142700
0.830261 0.355652 0.143494
0.835388 0.354675 0.145020
0.840118 0.354492 0.144440
0.844879 0.354980 0.143738
0.849060 0.355774 0.143219
0.852173 0.354218 0.141144
0.855591 0.354004 0.141663
0.023193 0.272919 0.038971
0.025604 0.273132 0.038849
0.029938 0.273010 0.038025
0.032410 0.273468 0.037994
0.036224 0.273376 0.037231
0.039581 0.273560 0.036926
0.042999 0.273621 0.036194
0.046631 0.273651 0.035309
0.062378 0.277344 0.032715
0.118835 0.287140 0.024292
0.207458 0.277374 0.026215
0.279205 0.284119 0.029053
0.340912 0.287445 0.036774
0.398865 0.296295 0.046387
0.460907 0.308411 0.056610
0.524170 0.319458 0.067200
0.592865 0.335968 0.089600
0.645203 0.351440 0.102264
0.706757 0.366943 0.109375
0.764984 0.388855 0.116577
0.792664 0.404968 0.129242
0.800903 0.408508 0.134735
0.803009 0.408386 0.137360
0.805023 0.408752 0.140900
0.807159 0.409546 0.145355
0.810150 0.411072 0.149506
0.813782 0.413177 0.153107
0.818146 0.415558 0.156525
0.822479 0.418182 0.159698
0.828430 0.421265 0.162781
0.834167 0.424133 0.166351
0.839111 0.426361 0.171356
0.021423 0.318939 0.045197
0.023132 0.319183 0.044861
0.026672 0.319244 0.044434
0.030579 0.319122 0.043976
0.033966 0.319122 0.043732
0.037323 0.319183 0.043152
0.041290 0.318848 0.042664
0.044159 0.319122 0.041901
0.047546 0.319489 0.041138
0.079315 0.326447 0.032715
0.166809 0.333099 0.027802
0.266968 0.331390 0.029449
0.340454 0.336334 0.038269
0.405701 0.341278 0.048340
0.467712 0.350830 0.058197
0.531097 0.362152 0.069092
0.592896 0.374237 0.080048
0.654327 0.390076 0.089600
0.724670 0.417816 0.110504
0.760193 0.439697 0.125214
0.793274 0.458038 0.140747
0.810974 0.463074 0.149078
0.818390 0.463409 0.151825
0.822388 0.463409 0.154541
0.825409 0.463623 0.158722
0.829926 0.465118 0.161774
0.837250 0.467224 0.162415
0.843597 0.469238 0.163971
0.847626 0.470673 0.166748
0.851471 0.472534 0.169861
0.854889 0.474609 0.174103
0.857574 0.476440 0.178406
0.024933 0.366516 0.055847
0.026855 0.366791 0.055450
0.029419 0.366913 0.055481
0.033905 0.366547 0.054901
0.037109 0.366577 0.054596
0.040833 0.366272 0.054016
0.044250 0.366272 0.053772
0.047668 0.366272 0.053223
0.051300 0.366669 0.052795
0.054993 0.366730 0.052185
0.119537 0.382233 0.032837
0.232330 0.383759 0.036102
0.326233 0.385406 0.038666
0.410400 0.390991 0.050476
0.475830 0.396515 0.060577
0.534851 0.404541 0.069946
0.596832 0.418457 0.080719
0.658112 0.434326 0.090179
0.717285 0.452423 0.097046
0.772675 0.477295 0.110046
0.811951 0.505341 0.145355
0.820496 0.509796 0.163757
0.823853 0.510986 0.168610
0.826874 0.512207 0.172516
0.829834 0.513611 0.176483
0.832306 0.514709 0.180359
0.834717 0.515961 0.184235
0.837250 0.517181 0.188049
0.839783 0.518646 0.192017
0.842285 0.520111 0.196075
0.844879 0.521393 0.199921
0.847809 0.522614 0.203918
0.035034 0.414398 0.069122
0.038513 0.414825 0.068939
0.042206 0.415009 0.068695
0.045563 0.415039 0.068085
0.049530 0.414886 0.067566
0.052460 0.415161 0.067230
0.055573 0.415314 0.066742
0.059174 0.415466 0.066284
0.062103 0.416077 0.066101
0.065613 0.416473 0.065338
0.076172 0.416809 0.064240
0.181610 0.430328 0.039795
0.307587 0.429016 0.042908
0.397186 0.443085 0.048004
0.478760 0.447540 0.062317
0.541260 0.454498 0.072449
0.601379 0.465576 0.082031
0.662079 0.480347 0.090240
0.720398 0.498260 0.096985
0.776642 0.524902 0.105072
0.826355 0.549133 0.117615
0.844818 0.554321 0.127441
0.849976 0.554901 0.129791
0.852631 0.555237 0.136139
0.856201 0.556000 0.140961
0.856445 0.555084 0.151093
0.856140 0.554016 0.162476
0.857361 0.554260 0.170776
0.858856 0.554901 0.177643
0.860382 0.555634 0.183990
0.862152 0.556244 0.190155
0.864136 0.557007 0.196198
0.053802 0.469269 0.085297
0.056580 0.469452 0.084991
0.059692 0.469513 0.084717
0.062744 0.469635 0.084412
0.065796 0.470184 0.084259
0.068787 0.470459 0.083923
0.071930 0.470398 0.083557
0.075073 0.470612 0.083313
0.078308 0.470886 0.082977
0.081299 0.470886 0.082520
0.084595 0.470551 0.081787
0.125488 0.475311 0.073547
0.267365 0.471954 0.046783
0.390564 0.485992 0.052429
0.464111 0.499695 0.059021
0.537781 0.503967 0.072418
0.604034 0.515717 0.083618
0.667297 0.529572 0.090485
0.726624 0.549103 0.097504
0.782745 0.574158 0.106873
0.829712 0.592377 0.121704
0.849030 0.596191 0.136505
0.854401 0.596466 0.140747
0.858673 0.597198 0.142731
0.863129 0.597961 0.144714
0.867218 0.598755 0.146515
0.870087 0.598572 0.147522
0.873108 0.598358 0.148651
0.875946 0.598419 0.149689
0.878754 0.598358 0.151031
0.881653 0.598267 0.152496
0.884491 0.598297 0.153900
0.067261 0.524872 0.102722
0.070160 0.525146 0.102600
0.073181 0.525391 0.102417
0.076233 0.525665 0.102081
0.079041 0.526154 0.101868
0.082611 0.526459 0.101562
0.085266 0.526794 0.101166
0.088684 0.527222 0.100952
0.091736 0.527527 0.100952
0.095001 0.527863 0.100555
0.098389 0.527924 0.100098
0.101349 0.527924 0.099670
0.194763 0.549225 0.059387
0.365936 0.526031 0.056976
0.454224 0.540955 0.059998
0.523590 0.556488 0.068481
0.598053 0.565979 0.081238
0.668304 0.581726 0.089142
0.729828 0.606689 0.095581
0.784637 0.624420 0.107971
0.828644 0.637482 0.127899
0.851318 0.639984 0.147919
0.857147 0.638550 0.155365
0.860077 0.637299 0.159180
0.863129 0.636383 0.163239
0.866486 0.636383 0.166138
0.869629 0.636261 0.167145
0.872772 0.636261 0.168030
0.875610 0.636200 0.169159
0.878540 0.636139 0.170288
0.881500 0.636200 0.171570
0.884460 0.635986 0.172760
0.078156 0.578644 0.120544
0.080963 0.578735 0.120239
0.083618 0.578827 0.119904
0.086426 0.578918 0.119629
0.089172 0.579041 0.119385
0.092194 0.579193 0.119049
0.095306 0.579376 0.118652
0.098602 0.579712 0.118469
0.101349 0.580170 0.118317
0.105072 0.580353 0.117706
0.107880 0.580841 0.117249
0.111267 0.581177 0.116669
0.142395 0.589691 0.109436
0.307007 0.587891 0.063660
0.436890 0.581909 0.063446
0.513672 0.598541 0.067230
0.584625 0.621613 0.074005
0.666748 0.645172 0.082062
0.729309 0.662506 0.096832
0.783112 0.674591 0.115295
0.823975 0.677582 0.142426
0.850433 0.678284 0.164154
0.859009 0.677338 0.174194
0.862061 0.676544 0.177734
0.865204 0.675781 0.181183
0.868439 0.675476 0.184387
0.871552 0.675446 0.184875
0.874908 0.675598 0.185486
0.878052 0.675751 0.186096
0.881348 0.675964 0.186615
0.884705 0.676147 0.187225
0.887787 0.676239 0.187805
0.089355 0.627716 0.136566
0.092010 0.627869 0.136505
0.094940 0.628082 0.136169
0.097961 0.628235 0.136017
0.100800 0.628510 0.135559
0.103729 0.628632 0.135315
0.107117 0.628723 0.135101
0.110199 0.629120 0.135010
0.113434 0.629364 0.134888
0.116913 0.629700 0.134033
0.120209 0.629913 0.133362
0.123627 0.630249 0.132629
0.127136 0.630402 0.131958
0.228271 0.663116 0.081665
0.388702 0.639526 0.068573
0.503082 0.643677 0.069336
0.580444 0.668396 0.071991
0.655945 0.701477 0.077850
0.723633 0.720795 0.101593
0.780273 0.723480 0.130371
0.815765 0.717133 0.164490
0.844879 0.716095 0.184021
0.862244 0.717438 0.190613
0.866730 0.716919 0.192596
0.870605 0.716766 0.194489
0.874634 0.716888 0.196564
0.877777 0.717041 0.197021
0.881042 0.717255 0.197693
0.884338 0.717438 0.198273
0.887482 0.717651 0.198944
0.890747 0.717865 0.200073
0.893921 0.718018 0.200714
0.103577 0.670044 0.149567
0.106567 0.670105 0.149475
0.109344 0.670258 0.149384
0.112427 0.670380 0.149353
0.115509 0.670624 0.149384
0.118805 0.670868 0.149200
0.121796 0.671265 0.149231
0.124969 0.671509 0.149261
0.128479 0.671661 0.149139
0.131805 0.671997 0.148987
0.135223 0.672180 0.148865
0.138641 0.672516 0.148712
0.142517 0.672638 0.148071
0.177246 0.677582 0.142670
0.339478 0.721008 0.078918
0.477356 0.703278 0.072845
0.574097 0.717560 0.075165
0.654694 0.745758 0.079529
0.714874 0.767578 0.105042
0.768250 0.768219 0.150238
0.811066 0.758484 0.184113
0.842194 0.759552 0.198059
0.864624 0.761658 0.206055
0.871002 0.761597 0.208221
0.874878 0.761719 0.209595
0.878906 0.762207 0.211182
0.882446 0.762482 0.211975
0.885559 0.762726 0.212372
0.888885 0.763031 0.212830
0.892242 0.763397 0.213531
0.895447 0.763702 0.214050
0.898712 0.763977 0.214569
0.126740 0.714478 0.162750
0.129883 0.714539 0.162659
0.132782 0.714691 0.162598
0.135864 0.714722 0.162445
0.138977 0.714905 0.162384
0.142242 0.714935 0.162354
0.145569 0.715179 0.162384
0.148712 0.715424 0.162445
0.152344 0.715607 0.162323
0.155792 0.716034 0.162292
0.159119 0.716095 0.162231
0.162506 0.716125 0.162201
0.165955 0.715912 0.162048
0.169403 0.715759 0.161865
0.269714 0.741638 0.157654
0.453857 0.771942 0.085876
0.564514 0.773682 0.084564
0.648376 0.787598 0.091583
0.708801 0.804535 0.118896
0.755035 0.804016 0.165405
0.800507 0.802521 0.193268
0.838196 0.802521 0.209595
0.863525 0.803253 0.215851
0.876160 0.803864 0.220490
0.880157 0.803986 0.221832
0.884155 0.804474 0.223328
0.887451 0.804626 0.223572
0.890900 0.804901 0.223877
0.894287 0.805115 0.224365
0.897552 0.805481 0.224823
0.900970 0.806061 0.225342
0.904419 0.806396 0.225891
0.138367 0.742676 0.170746
0.141327 0.742828 0.170746
0.144226 0.742920 0.170624
0.147278 0.743042 0.170593
0.150574 0.743011 0.170502
0.153656 0.743042 0.170502
0.156769 0.743347 0.170471
0.160065 0.743439 0.170441
0.163544 0.743652 0.170227
0.166901 0.743896 0.170135
0.170349 0.744232 0.170074
0.173889 0.744507 0.170074
0.177429 0.744598 0.170258
0.180756 0.744873 0.170624
0.230469 0.753296 0.178406
0.415344 0.823242 0.117401
0.555389 0.820618 0.110077
0.640991 0.825714 0.113281
0.703339 0.834290 0.133850
0.749237 0.833679 0.171844
0.791443 0.834076 0.200806
0.829651 0.836853 0.216400
0.860962 0.838287 0.224701
0.879974 0.838165 0.227631
0.885803 0.838226 0.228851
0.890137 0.838837 0.229919
0.893646 0.838959 0.230225
0.897003 0.839386 0.230499
0.900452 0.839722 0.230835
0.903900 0.840057 0.231415
0.907227 0.840393 0.232330
0.910645 0.840759 0.233337
0.142578 0.756317 0.175171
0.145355 0.756348 0.175018
0.148163 0.756500 0.174927
0.151245 0.756561 0.174805
0.154114 0.756714 0.174744
0.157410 0.756805 0.174683
0.160400 0.756989 0.174744
0.163727 0.757355 0.174744
0.167053 0.757690 0.174744
0.170197 0.758087 0.174683
0.173737 0.758453 0.174652
0.177399 0.758881 0.174622
0.180878 0.759399 0.174683
0.184509 0.759827 0.175049
0.211151 0.763702 0.180084
0.359222 0.823242 0.150848
0.539825 0.838501 0.121643
0.630432 0.843018 0.127716
0.695038 0.846313 0.143463
0.742432 0.845734 0.177765
0.783875 0.845581 0.200867
0.822632 0.853455 0.219086
0.855804 0.855255 0.227814
0.879822 0.856689 0.230896
0.889740 0.856781 0.232025
0.893982 0.857391 0.233002
0.897430 0.857513 0.233246
0.900848 0.857819 0.233521
0.904327 0.858185 0.233917
0.907867 0.858673 0.234314
0.911194 0.859161 0.234802
0.914795 0.859619 0.235260
0.144745 0.762604 0.177277
0.147705 0.762634 0.177124
0.150452 0.762787 0.177002
0.153412 0.762878 0.177002
0.156311 0.763031 0.176941
0.159393 0.763153 0.176819
0.162415 0.763367 0.176727
0.165466 0.763672 0.176727
0.168823 0.763916 0.176727
0.171967 0.764282 0.176819
0.175446 0.764618 0.176819
0.178802 0.765137 0.176910
0.182373 0.765656 0.177002
0.186096 0.766052 0.177368
0.189728 0.766479 0.178223
0.304047 0.793579 0.192535
0.519165 0.846649 0.126526
0.620392 0.848694 0.133423
0.687561 0.850830 0.144165
0.736725 0.851410 0.176666
0.778931 0.851135 0.199646
0.817261 0.858429 0.218323
0.850586 0.863068 0.227386
0.876770 0.863678 0.232056
0.890289 0.864014 0.233582
0.895660 0.864929 0.234406
0.898987 0.865143 0.234650
0.902466 0.865448 0.234924
0.905945 0.865967 0.235168
0.909332 0.866394 0.235535
0.912903 0.866943 0.235901
0.916473 0.867432 0.236511
0.146667 0.768951 0.180084
0.149719 0.768982 0.179840
0.152527 0.769073 0.179596
0.155457 0.769135 0.179535
0.158417 0.769257 0.179504
0.161255 0.769409 0.179474
0.164124 0.769745 0.179474
0.167389 0.769928 0.179657
0.170532 0.770203 0.180267
0.173889 0.770508 0.180511
0.177063 0.770813 0.180603
0.180481 0.771393 0.180664
0.184052 0.771790 0.180786
0.187653 0.772186 0.180817
0.191559 0.772522 0.181793
0.273987 0.785797 0.202148
0.500275 0.854095 0.133148
0.612518 0.852325 0.140015
0.681488 0.854523 0.147003
0.732727 0.855316 0.178223
0.775665 0.856659 0.199432
0.813049 0.862305 0.217072
0.846893 0.868835 0.227112
0.874359 0.869232 0.232758
0.890747 0.869659 0.234528
0.896881 0.870758 0.235626
0.900146 0.870819 0.236298
0.903534 0.871155 0.236786
0.906921 0.871582 0.237061
0.910400 0.872070 0.237366
0.913971 0.872559 0.237823
0.917358 0.873108 0.238281
0.148590 0.775299 0.182373
0.151703 0.775208 0.182556
0.154633 0.775299 0.182495
0.157318 0.775452 0.182404
0.160431 0.775604 0.182312
0.163330 0.775879 0.182251
0.166382 0.776031 0.182159
0.169342 0.776245 0.182495
0.172485 0.776550 0.183167
0.175751 0.776733 0.183716
0.179230 0.777039 0.184296
0.182068 0.777588 0.184479
0.185638 0.777924 0.184479
0.189148 0.778381 0.184692
0.193054 0.778687 0.185028
0.270508 0.789825 0.204834
0.484100 0.858246 0.140869
0.606903 0.855804 0.145111
0.677307 0.857849 0.153320
0.730255 0.859314 0.179382
0.773682 0.862030 0.200562
0.810303 0.866333 0.216583
0.844238 0.874176 0.227386
0.872131 0.875946 0.233429
0.890442 0.875519 0.235657
0.898193 0.876648 0.236755
0.901489 0.876678 0.237549
0.904602 0.876862 0.238190
0.908081 0.877167 0.238739
0.911530 0.877747 0.239105
0.914978 0.878265 0.239471
0.918457 0.878754 0.239899
0.150452 0.781525 0.184265
0.153320 0.781586 0.184570
0.156311 0.781586 0.184845
0.159454 0.781677 0.185120
0.162262 0.782013 0.185120
0.165253 0.782135 0.185120
0.168152 0.782318 0.185059
0.171356 0.782532 0.185333
0.174347 0.782837 0.185791
0.177704 0.783020 0.186462
0.180878 0.783325 0.187103
0.184204 0.783752 0.187714
0.187378 0.784088 0.188293
0.190857 0.784424 0.188354
0.194489 0.784760 0.188446
0.268463 0.794525 0.207520
0.473450 0.862457 0.148529
0.603424 0.859528 0.150909
0.674377 0.861542 0.159637
0.728790 0.863403 0.180939
0.772247 0.866516 0.202698
0.808685 0.870850 0.217499
0.842651 0.879150 0.228119
0.870483 0.882538 0.233948
0.890228 0.881287 0.236786
0.899353 0.882446 0.238007
0.902710 0.882477 0.238708
0.905945 0.882690 0.239563
0.909393 0.883026 0.240143
0.912628 0.883484 0.240601
0.916138 0.883911 0.241028
0.919647 0.884430 0.241394
0.152252 0.787842 0.186096
0.155212 0.787872 0.186493
0.158112 0.787933 0.186829
0.161041 0.788025 0.187103
0.164124 0.788239 0.187500
0.167145 0.788330 0.187714
0.170074 0.788544 0.187744
0.173248 0.788666 0.187988
0.176361 0.788971 0.188690
0.179626 0.789246 0.189301
0.182739 0.789459 0.189819
0.186188 0.789886 0.190430
0.189270 0.790192 0.191040
0.192627 0.790466 0.191589
0.196228 0.790802 0.192169
0.268097 0.799713 0.210510
0.466949 0.865509 0.155304
