滤镜资源/Professional Luts Collection/Triune-Digital-Cinematic-LUTs/3D LUTs (CUBE)/ALEXA/Star Wars The Force Awakens - Alexa.cube
#Created by Benjamin (IWLTBAP) : http://luts.iwltbap.com
#Copyright: (C) Copyright 2016 Triune Films and IWLTBAP
TITLE "Blockbuster LUTs Pack (Alexa Log-C)"
#LUT size
LUT_3D_SIZE 5
#LUT data points
DOMAIN_MIN 0.000000 0.000000 0.000000
DOMAIN_MAX 0.903226 0.903226 0.903226
0.010071 0.002747 0.001923
0.133179 0.028015 0.014679
0.487366 0.087372 0.067261
0.777802 0.168793 0.129120
0.813690 0.187927 0.142456
0.023682 0.122375 0.019470
0.117096 0.122223 0.013977
0.443207 0.158234 0.060913
0.777100 0.193817 0.124847
0.812866 0.211792 0.138550
0.035034 0.414398 0.069122
0.059174 0.415466 0.066284
0.478760 0.447540 0.062317
0.844818 0.554321 0.127441
0.858856 0.554901 0.177643
0.138367 0.742676 0.170746
0.160065 0.743439 0.170441
0.230469 0.753296 0.178406
0.829651 0.836853 0.216400
0.900452 0.839722 0.230835
0.154144 0.794189 0.188049
0.175110 0.794922 0.190887
0.197968 0.797028 0.195374
0.807404 0.879944 0.220001
0.911835 0.894348 0.242432
0.024445 0.023712 0.098145
0.142731 0.030151 0.101471
0.505005 0.093292 0.134766
0.779877 0.174774 0.182983
0.813202 0.196686 0.199249
0.028992 0.122589 0.103271
0.108856 0.126740 0.116608
0.493073 0.141205 0.130219
0.780273 0.198029 0.181671
0.812531 0.218781 0.198029
0.035614 0.412994 0.091614
0.060333 0.415558 0.089844
0.483215 0.449799 0.083984
0.837646 0.550812 0.172424
0.852631 0.558441 0.238220
0.138916 0.743134 0.191559
0.160492 0.743408 0.190826
0.229340 0.752380 0.198944
0.828247 0.834564 0.239136
0.899780 0.837830 0.253876
0.155029 0.794891 0.209015
0.176025 0.795288 0.211639
0.198364 0.797150 0.215759
0.806793 0.878174 0.242218
0.910950 0.893707 0.265656
0.059174 0.112976 0.353424
0.108185 0.077393 0.365509
0.457031 0.103302 0.336426
0.791321 0.233490 0.416870
0.826874 0.248535 0.431732
0.055725 0.144196 0.349365
0.082031 0.135406 0.355316
0.455658 0.130981 0.336670
0.794647 0.258057 0.420807
0.827728 0.271942 0.433990
0.074677 0.430389 0.387970
0.094666 0.433228 0.388397
0.447144 0.462311 0.427795
0.848114 0.557739 0.506073
0.881592 0.561249 0.511108
0.165253 0.762695 0.414948
0.185272 0.762726 0.412231
0.229279 0.763031 0.414337
0.842010 0.844482 0.473663
0.919067 0.854858 0.507385
0.185730 0.820129 0.415314
0.205933 0.819946 0.415253
0.227814 0.820770 0.418427
0.821259 0.902771 0.459503
0.921997 0.911194 0.497955
0.136017 0.159973 0.650299
0.159363 0.152496 0.660217
0.499817 0.165558 0.641571
0.848999 0.307770 0.702911
0.878235 0.315369 0.711975
0.131500 0.188080 0.643097
0.153198 0.183136 0.651733
0.493317 0.189117 0.645630
0.848877 0.331390 0.704590
0.878510 0.339508 0.714050
0.133484 0.404480 0.631531
0.152802 0.403503 0.635620
0.452271 0.389343 0.698456
0.851624 0.460663 0.717224
0.883759 0.456848 0.724152
0.235596 0.785889 0.718628
0.257812 0.787262 0.717987
0.280457 0.787415 0.717804
0.854218 0.876831 0.790924
0.952911 0.895599 0.813293
0.279114 0.879120 0.747009
0.301514 0.880859 0.747803
0.324554 0.883362 0.749603
0.838440 0.963379 0.806366
0.962494 0.977722 0.815674
0.152679 0.186188 0.723328
0.175232 0.181824 0.730133
0.536255 0.208527 0.732269
0.871490 0.322235 0.775665
0.902802 0.335419 0.788361
0.148560 0.213379 0.717285
0.168823 0.211731 0.721680
0.528534 0.233978 0.737701
0.871704 0.346619 0.777863
0.903137 0.360748 0.790466
0.151031 0.328308 0.714294
0.168549 0.321808 0.716919
0.453674 0.310272 0.758270
0.869141 0.412781 0.784546
0.907104 0.423096 0.799164
0.267914 0.794464 0.803589
0.290466 0.796783 0.804382
0.313080 0.797852 0.805298
0.865417 0.883698 0.885620
0.964569 0.895966 0.893524
0.304993 0.901337 0.837860
0.326385 0.903107 0.839203
0.348633 0.905701 0.841278
0.842987 0.977966 0.907532
0.972443 0.988190 0.908600
