滤镜资源/Professional Luts Collection/Triune-Digital-Cinematic-LUTs/3D LUTs (CUBE)/ALEXA/Suicide Squad - Alexa.cube
#Created by Benjamin (IWLTBAP) : http://luts.iwltbap.com
#Copyright: (C) Copyright 2016 Triune Films and IWLTBAP
TITLE "Blockbuster LUTs Pack (Alexa Log-C)"
#LUT size
LUT_3D_SIZE 5
#LUT data points
DOMAIN_MIN 0.000000 0.000000 0.000000
DOMAIN_MAX 0.903226 0.903226 0.903226
0.012268 0.022888 0.024628
0.075836 0.046844 0.048706
0.486633 0.165100 0.137970
0.839294 0.317657 0.285583
0.894592 0.334442 0.301514
0.023468 0.146332 0.066895
0.081329 0.152100 0.080750
0.506927 0.223541 0.160126
0.850006 0.329742 0.288696
0.905731 0.346588 0.305817
0.092743 0.456238 0.171082
0.103851 0.463959 0.172150
0.545135 0.515442 0.283691
0.937164 0.572845 0.373718
0.946228 0.583221 0.380646
0.215790 0.811676 0.315430
0.238739 0.813965 0.320526
0.320740 0.814545 0.338287
0.885651 0.908966 0.517822
0.919922 0.889526 0.515228
0.242798 0.860107 0.339081
0.264862 0.863647 0.345184
0.288391 0.868408 0.352051
0.868591 0.935211 0.529419
0.918304 0.949921 0.547577
0.013916 0.052216 0.107422
0.084686 0.066162 0.118561
0.524506 0.177490 0.172150
0.858612 0.323303 0.304108
0.913574 0.339325 0.318634
0.017395 0.129974 0.124390
0.054138 0.135376 0.132263
0.538849 0.214691 0.186646
0.862823 0.333344 0.307892
0.916992 0.349213 0.322693
0.093018 0.453278 0.176300
0.103088 0.458740 0.176788
0.544098 0.513336 0.284943
0.937408 0.573425 0.376251
0.946411 0.585022 0.384644
0.217285 0.816711 0.319489
0.240417 0.817902 0.324158
0.318329 0.818909 0.341156
0.885651 0.907196 0.518982
0.920441 0.887756 0.516541
0.242554 0.864685 0.342560
0.264984 0.866486 0.347992
0.288940 0.869385 0.354279
0.868927 0.935150 0.531586
0.918579 0.948914 0.549255
0.024445 0.135376 0.278687
0.042755 0.137756 0.281830
0.583252 0.243408 0.314819
0.932404 0.363861 0.408600
0.961578 0.379303 0.420654
0.025391 0.152405 0.278168
0.030670 0.154205 0.280243
0.581390 0.256927 0.318756
0.935760 0.376190 0.414398
0.965393 0.392029 0.426483
0.091309 0.418304 0.327667
0.098267 0.423157 0.332672
0.418274 0.478058 0.444885
0.915344 0.573212 0.524811
0.950836 0.578094 0.534027
0.156555 0.786041 0.421448
0.159271 0.783051 0.417938
0.167877 0.776520 0.414673
0.889862 0.886017 0.606018
0.937042 0.871033 0.594421
0.195831 0.878326 0.428040
0.205627 0.877075 0.426849
0.221252 0.876678 0.428223
0.865662 0.926300 0.614410
0.932678 0.944061 0.615967
0.106750 0.221252 0.467834
0.115784 0.222565 0.469482
0.461975 0.279053 0.504150
0.923706 0.406219 0.606293
0.949890 0.421814 0.633606
0.107117 0.237793 0.469910
0.116882 0.239777 0.472260
0.456818 0.292664 0.512939
0.925537 0.421875 0.616150
0.952271 0.437286 0.644379
0.135071 0.360291 0.490234
0.144409 0.364014 0.495911
0.250061 0.389496 0.560791
0.913483 0.503418 0.668365
0.955261 0.511169 0.686646
0.189423 0.717346 0.611237
0.193787 0.719177 0.613312
0.198914 0.720825 0.616180
0.831207 0.842163 0.705231
0.957977 0.871063 0.725525
0.204498 0.817108 0.648621
0.210785 0.820496 0.651642
0.218323 0.824219 0.655304
0.771545 0.941528 0.715057
0.972107 0.958038 0.738342
0.135315 0.245239 0.529755
0.143005 0.246307 0.531372
0.392212 0.297760 0.579376
0.890076 0.414551 0.675781
0.934021 0.428741 0.694336
0.136749 0.261963 0.532990
0.144714 0.263672 0.535645
0.381012 0.313904 0.590912
0.892670 0.430054 0.685150
0.938599 0.444580 0.702637
0.146057 0.319702 0.544098
0.153931 0.321716 0.548035
0.246124 0.338715 0.585052
0.893219 0.469543 0.707886
0.946960 0.483765 0.724579
0.204559 0.706360 0.652435
0.209045 0.709625 0.655304
0.214386 0.711853 0.658539
0.784149 0.832672 0.753571
0.955383 0.846771 0.749268
0.217102 0.804443 0.677551
0.223938 0.808533 0.681122
0.231232 0.810944 0.684052
0.713745 0.904633 0.779663
0.971466 0.944214 0.768494
