滤镜资源/Professional Luts Collection/Triune-Digital-Cinematic-LUTs/3D LUTs (CUBE)/ALEXA/Suicide Squad - Alexa.cube
#Created by Benjamin (IWLTBAP) : http://luts.iwltbap.com
#Copyright: (C) Copyright 2016 Triune Films and IWLTBAP
TITLE "Blockbuster LUTs Pack (Alexa Log-C)"
#LUT size
LUT_3D_SIZE 8
#LUT data points
DOMAIN_MIN 0.000000 0.000000 0.000000
DOMAIN_MAX 0.903226 0.903226 0.903226
0.012268 0.022888 0.024628
0.020966 0.025665 0.026794
0.111115 0.060699 0.060883
0.356232 0.121368 0.096466
0.606049 0.216675 0.188446
0.822418 0.312622 0.280945
0.863007 0.324738 0.292786
0.894592 0.334442 0.301514
0.016388 0.074890 0.036469
0.022064 0.075195 0.042145
0.117249 0.095245 0.074799
0.363831 0.139130 0.102264
0.610809 0.225220 0.191345
0.828033 0.319794 0.283417
0.868805 0.331909 0.295624
0.900421 0.341339 0.304260
0.027313 0.178345 0.079010
0.029541 0.181305 0.080902
0.118622 0.181793 0.100616
0.390991 0.216125 0.136658
0.635040 0.282959 0.212738
0.844025 0.338257 0.287445
0.879608 0.342896 0.298157
0.910309 0.351105 0.306580
0.077728 0.359711 0.139404
0.083069 0.361145 0.139862
0.089600 0.365021 0.140350
0.403870 0.378448 0.201874
0.706635 0.417572 0.278137
0.931915 0.494720 0.345306
0.950623 0.503235 0.353760
0.956848 0.510620 0.358856
0.138611 0.568329 0.210114
0.147095 0.569824 0.212128
0.158112 0.571991 0.214844
0.306458 0.579468 0.253967
0.647797 0.653320 0.364258
0.915466 0.641388 0.395660
0.930634 0.652740 0.405090
0.936676 0.657990 0.409424
0.187897 0.743835 0.284790
0.201752 0.747070 0.288177
0.217377 0.750824 0.292419
0.234314 0.753113 0.296600
0.577759 0.811493 0.406342
0.861237 0.875916 0.495514
0.913910 0.853027 0.494720
0.922089 0.849152 0.494507
0.227844 0.827240 0.323792
0.240356 0.827454 0.326202
0.256104 0.829529 0.330139
0.270844 0.831543 0.333923
0.516174 0.878906 0.414337
0.835266 0.911896 0.511353
0.910248 0.932495 0.535706
0.918671 0.924835 0.533752
0.242798 0.860107 0.339081
0.254486 0.861969 0.342224
0.268250 0.864227 0.346069
0.281372 0.867065 0.349976
0.496521 0.902557 0.419800
0.826935 0.927246 0.518768
0.909180 0.954071 0.548004
0.918304 0.949921 0.547577
0.011810 0.027069 0.056366
0.021210 0.029999 0.063507
0.119507 0.064362 0.087189
0.362427 0.120087 0.115845
0.608795 0.216064 0.200012
0.826508 0.313477 0.288940
0.868195 0.326141 0.300476
0.900116 0.335571 0.308838
0.013031 0.064117 0.065796
0.019318 0.066223 0.068726
0.111694 0.089233 0.091125
0.368317 0.139465 0.117523
0.613190 0.224396 0.202606
0.828674 0.319275 0.291016
0.870911 0.331940 0.302795
0.902863 0.341187 0.311371
0.026611 0.174896 0.090515
0.028198 0.174347 0.090576
0.111389 0.180481 0.111023
0.394501 0.216400 0.144928
0.639832 0.280884 0.220490
0.842926 0.336761 0.296234
0.877075 0.341583 0.305939
0.907776 0.349365 0.313965
0.078522 0.357880 0.143311
0.083435 0.358551 0.143890
0.089722 0.362091 0.144226
0.403168 0.377380 0.203552
0.712982 0.420166 0.282318
0.931305 0.494781 0.346741
0.949829 0.503754 0.356171
0.957062 0.511353 0.361969
0.139038 0.568024 0.211853
0.146851 0.571136 0.214203
0.157501 0.573151 0.216797
0.304291 0.579468 0.255035
0.647461 0.653198 0.365326
0.915466 0.641724 0.396973
0.930847 0.652771 0.406433
0.936829 0.657990 0.410522
0.187866 0.745300 0.286682
0.201385 0.747681 0.289734
0.217285 0.750977 0.293732
0.233734 0.752838 0.297668
0.578125 0.812225 0.407806
0.860870 0.875092 0.496155
0.914185 0.852661 0.495697
0.922363 0.848602 0.495392
0.229279 0.830200 0.326141
0.241882 0.830200 0.328430
0.256317 0.831726 0.331970
0.271332 0.833252 0.335632
0.515106 0.877197 0.414185
0.835266 0.911774 0.512329
0.910461 0.932037 0.536713
0.918884 0.924744 0.534882
0.243225 0.862610 0.341187
0.254974 0.863861 0.344055
0.268555 0.865509 0.347687
0.281403 0.867615 0.351318
0.494507 0.900116 0.418610
0.826874 0.926880 0.519775
0.909363 0.953583 0.549011
0.918457 0.949310 0.548401
0.015045 0.062744 0.127075
0.021362 0.064606 0.128876
0.124390 0.080627 0.139740
0.396393 0.140289 0.161987
0.639404 0.233490 0.224884
0.851593 0.321136 0.305542
0.891510 0.332794 0.316162
0.919586 0.341553 0.323761
0.015320 0.076599 0.128204
0.020203 0.078888 0.130707
0.116821 0.091492 0.142365
0.398315 0.148102 0.163544
0.642120 0.240906 0.228455
0.853912 0.326874 0.307861
0.894562 0.338654 0.318665
0.921234 0.347321 0.326324
0.020782 0.157715 0.144165
0.022919 0.158661 0.145691
0.077545 0.165527 0.156769
0.399567 0.208191 0.180359
0.652740 0.277344 0.243805
0.856567 0.336182 0.311035
0.896179 0.344269 0.320587
0.922089 0.352783 0.328217
0.074615 0.357849 0.166534
0.080505 0.356110 0.165649
0.086853 0.354523 0.165100
0.401825 0.379364 0.213654
0.702209 0.423615 0.290588
0.918182 0.495117 0.353302
0.938629 0.502411 0.360992
0.951202 0.510345 0.367981
0.138275 0.564178 0.212738
0.145844 0.571716 0.215973
0.155762 0.573792 0.218445
0.298431 0.578491 0.254608
0.647278 0.652161 0.366058
0.915619 0.640747 0.397675
0.931091 0.652222 0.407349
0.937134 0.657227 0.411530
0.187012 0.745056 0.288055
0.200104 0.747284 0.290802
0.215973 0.749451 0.294250
0.232635 0.750702 0.298004
0.577301 0.811371 0.408508
0.860199 0.873535 0.496490
0.914673 0.851196 0.496399
0.922760 0.847137 0.496063
0.230286 0.834839 0.329071
0.243439 0.834473 0.331451
0.256927 0.834503 0.334106
0.271698 0.835815 0.337677
0.512360 0.874908 0.413330
0.835144 0.911835 0.513641
0.910706 0.931641 0.537811
0.919128 0.924805 0.536285
0.242859 0.865387 0.343201
0.254913 0.866394 0.345978
0.267914 0.867340 0.349274
0.281830 0.868683 0.352661
0.491425 0.897766 0.417419
0.826660 0.926941 0.521118
0.909515 0.953400 0.550110
0.918610 0.948853 0.549591
0.017120 0.102295 0.222443
0.019562 0.103302 0.223145
0.058807 0.115845 0.236206
0.410736 0.174774 0.257629
0.688110 0.273987 0.305786
0.916504 0.348358 0.367401
0.939728 0.359222 0.376251
0.956329 0.366882 0.382080
0.017242 0.113037 0.222290
0.019684 0.114136 0.223511
0.057434 0.125580 0.236206
0.410461 0.183807 0.260101
0.689972 0.280701 0.308258
0.918945 0.354675 0.370056
0.941650 0.365295 0.378906
0.958527 0.373138 0.384796
0.017853 0.130524 0.221771
0.019836 0.131348 0.222839
0.048584 0.137970 0.233704
0.401062 0.190704 0.261688
0.690735 0.287048 0.310333
0.920593 0.360962 0.372253
0.944031 0.371490 0.380920
0.960541 0.379364 0.386841
0.051056 0.321320 0.256927
0.057220 0.324005 0.259369
0.063354 0.326050 0.261780
0.244720 0.358856 0.321411
0.663605 0.426239 0.368134
0.911865 0.471436 0.425598
0.942810 0.475494 0.432678
0.961273 0.480560 0.438171
0.122009 0.579285 0.320435
0.123871 0.575897 0.317902
0.125702 0.572113 0.314941
0.141693 0.555237 0.304077
0.629700 0.651917 0.425812
0.913300 0.660156 0.470428
0.938538 0.675232 0.486664
0.944855 0.680908 0.491730
0.138763 0.678436 0.307373
0.142029 0.675751 0.306183
0.146515 0.673523 0.305542
0.151367 0.672241 0.306366
0.560120 0.791229 0.439514
0.857269 0.865143 0.513580
0.918274 0.842834 0.510101
0.926697 0.837555 0.509979
0.215271 0.819946 0.330414
0.223907 0.825653 0.332123
0.237762 0.837555 0.336090
0.265411 0.861725 0.351013
0.498688 0.866180 0.410248
0.833893 0.912140 0.521545
0.911957 0.928711 0.545319
0.920715 0.923401 0.545197
0.243683 0.865723 0.347687
0.251709 0.868439 0.350342
0.260529 0.872192 0.353729
0.272247 0.875916 0.357758
0.476959 0.891937 0.414246
0.823883 0.927551 0.526550
0.909821 0.952423 0.555450
0.919189 0.946655 0.554840
0.044403 0.165466 0.332306
0.050934 0.165985 0.333466
0.068359 0.167206 0.335999
0.317444 0.202698 0.379120
0.717224 0.307190 0.386139
0.928009 0.369507 0.440369
0.950989 0.381195 0.449677
0.966980 0.389648 0.457428
0.046021 0.174286 0.332062
0.052216 0.175201 0.333099
0.066345 0.176361 0.335175
0.315369 0.212158 0.381226
0.718201 0.314484 0.388611
0.929382 0.376801 0.443848
0.953094 0.388702 0.453857
0.968567 0.396973 0.462006
0.048096 0.183441 0.331787
0.053955 0.184479 0.333008
0.060699 0.185638 0.334412
0.294098 0.220032 0.384766
0.716095 0.321045 0.390259
0.930237 0.383972 0.447418
0.954590 0.396118 0.457764
0.969635 0.404449 0.466736
0.065277 0.294067 0.339355
0.072723 0.296539 0.342804
0.079620 0.298370 0.345917
0.177795 0.326355 0.398956
0.695648 0.400452 0.425568
0.922821 0.451233 0.488831
0.952698 0.452789 0.496918
0.968903 0.458374 0.504883
0.126221 0.516937 0.419586
0.130920 0.519836 0.423157
0.135101 0.521973 0.425781
0.147827 0.528564 0.435028
0.539581 0.595154 0.558472
0.862030 0.671967 0.600616
0.938141 0.682617 0.605286
0.958160 0.685852 0.606689
0.170258 0.767059 0.549164
0.173248 0.768005 0.550812
0.176270 0.768707 0.552521
0.178986 0.768402 0.553619
0.380798 0.765808 0.541321
0.847412 0.840271 0.622040
0.952545 0.842834 0.635986
0.959442 0.841431 0.636139
0.196167 0.854553 0.559875
0.198273 0.855377 0.557617
0.200134 0.854553 0.555054
0.202148 0.853668 0.551727
0.267914 0.867523 0.516693
0.810272 0.899048 0.638824
0.947571 0.936737 0.665497
0.952118 0.930573 0.653748
0.200317 0.881042 0.559906
0.201996 0.881287 0.555298
0.204193 0.881927 0.550751
0.206543 0.882904 0.546448
0.261017 0.890015 0.518890
0.808289 0.920837 0.640015
0.945740 0.948853 0.671783
0.954834 0.953278 0.669128
0.095215 0.212555 0.445160
0.100739 0.213257 0.446228
0.106293 0.213806 0.446625
0.197968 0.234558 0.483978
0.650116 0.315582 0.467010
0.919495 0.394104 0.568420
0.941559 0.410217 0.596283
0.955200 0.417480 0.606934
0.095215 0.221680 0.445618
0.101349 0.222748 0.447021
0.106842 0.223358 0.447632
0.197601 0.242981 0.483337
0.648499 0.323486 0.472290
0.920288 0.402863 0.574005
0.941986 0.418793 0.601929
0.956177 0.425873 0.611633
0.095459 0.231232 0.446411
0.101715 0.232178 0.447754
0.107788 0.233459 0.449432
0.194611 0.251190 0.481079
0.644714 0.330750 0.477936
0.919647 0.411652 0.579498
0.942444 0.427734 0.607788
0.956696 0.434387 0.616882
0.095184 0.240112 0.445282
0.101349 0.241089 0.446716
0.107269 0.242279 0.448639
0.173706 0.253082 0.466339
0.620239 0.332550 0.480682
0.913025 0.416687 0.577515
0.943604 0.436401 0.611145
0.957794 0.442139 0.618103
0.147766 0.487671 0.515015
0.152802 0.491791 0.519745
0.157349 0.494446 0.523468
0.161591 0.495728 0.527039
0.323608 0.560089 0.666260
0.843903 0.624603 0.678223
0.928070 0.649078 0.686554
0.945923 0.655609 0.686615
0.182648 0.687744 0.589386
0.185577 0.689209 0.590973
0.188263 0.690674 0.592560
0.191254 0.691772 0.594238
0.276337 0.717041 0.630066
0.784821 0.808411 0.683533
0.931213 0.840332 0.707977
0.954407 0.845886 0.711365
0.200836 0.801666 0.632446
0.203613 0.803589 0.634155
0.206329 0.805603 0.636078
0.209808 0.806915 0.637695
0.265564 0.831085 0.662537
0.703491 0.910583 0.694794
0.946991 0.926575 0.718719
0.974762 0.938873 0.720123
0.206360 0.826599 0.643188
0.210236 0.829346 0.645325
0.214172 0.831696 0.647400
0.218414 0.833740 0.649384
0.252045 0.851929 0.667328
0.690125 0.937561 0.695679
0.937286 0.942078 0.725372
0.972839 0.959991 0.727448
0.127167 0.238770 0.512909
0.131683 0.239288 0.513519
0.136414 0.239716 0.514038
0.206848 0.253662 0.536713
0.592682 0.325562 0.559570
0.874207 0.404968 0.646393
0.916534 0.418579 0.665497
0.938416 0.426178 0.676483
0.127899 0.247864 0.513977
0.132904 0.248901 0.515411
0.137573 0.249512 0.516022
0.206635 0.262360 0.537201
0.592438 0.335052 0.563873
0.875824 0.413971 0.651886
0.918427 0.427490 0.671082
0.940552 0.435150 0.682159
0.129028 0.257629 0.515839
0.133972 0.258606 0.517395
0.139069 0.259918 0.519073
0.203918 0.270630 0.536438
0.589294 0.343781 0.567627
0.875305 0.422211 0.656769
0.920410 0.436584 0.676727
0.942780 0.444580 0.687531
0.130402 0.267273 0.517731
0.135193 0.268402 0.519257
0.139923 0.269562 0.520782
0.183411 0.274384 0.526733
0.570068 0.348633 0.568115
0.861877 0.427185 0.657745
0.922119 0.445526 0.682739
0.945160 0.453430 0.692474
0.172028 0.481140 0.579285
0.176788 0.484070 0.583069
0.181488 0.486725 0.586731
0.185913 0.488129 0.590332
0.323242 0.530548 0.681732
0.783417 0.580017 0.731995
0.913300 0.609314 0.740906
0.942535 0.617432 0.745544
0.196350 0.675293 0.629303
0.199402 0.677338 0.631042
0.202454 0.679474 0.633148
0.205750 0.681030 0.635132
0.280884 0.691376 0.656952
0.715027 0.792450 0.737823
0.927490 0.811737 0.729950
0.958771 0.818817 0.735138
0.205841 0.774841 0.653198
0.208344 0.776001 0.654419
0.210754 0.777679 0.656006
0.214294 0.778595 0.657532
0.254425 0.787903 0.670929
0.630646 0.862457 0.758698
0.923218 0.906403 0.745178
0.968231 0.919159 0.752136
0.211334 0.806946 0.665222
0.214691 0.808533 0.666748
0.218475 0.810516 0.668518
0.222412 0.811584 0.670074
0.254425 0.821686 0.682037
0.563049 0.899323 0.775024
0.912445 0.943726 0.752655
0.968994 0.951447 0.761353
0.135315 0.245239 0.529755
0.139893 0.245911 0.530945
0.144196 0.246490 0.531647
0.208740 0.258514 0.550751
0.584473 0.331512 0.579254
0.863098 0.407135 0.664886
0.910034 0.420715 0.684753
0.934021 0.428741 0.694336
0.135956 0.254578 0.531311
0.140656 0.255524 0.532745
0.144958 0.256226 0.533691
0.208527 0.267578 0.551483
0.584717 0.340668 0.583557
0.864136 0.415710 0.670013
0.912262 0.429779 0.689270
0.935974 0.437622 0.698761
0.137024 0.264404 0.533417
0.141754 0.265442 0.535034
0.146210 0.266479 0.536652
0.205902 0.275818 0.550690
0.583588 0.349823 0.588715
0.863251 0.423798 0.674683
0.914795 0.438995 0.694183
0.938965 0.446777 0.703766
0.138306 0.274323 0.535828
0.142883 0.275146 0.537048
0.147369 0.276184 0.538544
0.185516 0.280029 0.542511
0.566711 0.353912 0.590515
0.850555 0.428955 0.676208
0.917053 0.448059 0.699738
0.941437 0.455750 0.709167
0.179535 0.480316 0.596558
0.184265 0.483063 0.600189
0.188995 0.485565 0.603729
0.192780 0.486206 0.606079
0.323425 0.523315 0.687103
0.769836 0.575928 0.747070
0.902893 0.598297 0.754333
0.933411 0.607117 0.758698
0.203125 0.675751 0.645935
0.206207 0.677979 0.647736
0.209137 0.680084 0.649719
0.212250 0.681183 0.651245
0.285431 0.690613 0.671478
0.692902 0.791534 0.764038
0.920349 0.809906 0.748962
0.945923 0.810608 0.751404
0.209442 0.768402 0.666443
0.212250 0.771271 0.668671
0.215485 0.772430 0.669983
0.219360 0.773926 0.671783
0.255768 0.781433 0.683044
0.597076 0.854156 0.783875
0.920166 0.905914 0.754089
0.967865 0.915222 0.758698
0.217102 0.804443 0.677551
0.220978 0.807037 0.679688
0.224884 0.808746 0.681458
0.229065 0.810608 0.683350
0.258850 0.818481 0.693817
0.543121 0.885284 0.789429
0.915894 0.932465 0.759521
0.971466 0.944214 0.768494
