滤镜资源/Professional Luts Collection/Triune-Digital-Cinematic-LUTs/3D LUTs (CUBE)/ALEXA/Suicide Squad - Alexa.cube
#Created by Benjamin (IWLTBAP) : http://luts.iwltbap.com
#Copyright: (C) Copyright 2016 Triune Films and IWLTBAP
TITLE "Blockbuster LUTs Pack (Alexa Log-C)"
#LUT size
LUT_3D_SIZE 32
#LUT data points
0.012268 0.022888 0.024628
0.013702 0.023285 0.024963
0.015320 0.023895 0.025330
0.017303 0.024567 0.025787
0.020966 0.025665 0.026794
0.025299 0.027222 0.028381
0.044525 0.032776 0.036377
0.075836 0.046844 0.048706
0.111115 0.060699 0.060883
0.156982 0.075684 0.073669
0.214203 0.091309 0.083679
0.281891 0.104309 0.087189
0.356232 0.121368 0.096466
0.425873 0.142670 0.115997
0.486633 0.165100 0.137970
0.548187 0.189117 0.161346
0.606049 0.216675 0.188446
0.664032 0.246460 0.216919
0.720459 0.274811 0.244202
0.777802 0.298279 0.268433
0.822418 0.312622 0.280945
0.839294 0.317657 0.285583
0.847137 0.320038 0.287994
0.855011 0.322418 0.290405
0.863007 0.324738 0.292786
0.870941 0.327362 0.295044
0.879028 0.329742 0.297333
0.886810 0.332123 0.299469
0.894592 0.334442 0.301514
0.902618 0.336761 0.303558
0.910553 0.339203 0.305695
0.917267 0.341400 0.307739
0.012726 0.026123 0.025177
0.013733 0.026093 0.025452
0.015350 0.026581 0.025818
0.017181 0.027344 0.026428
0.020294 0.028229 0.027191
0.024719 0.030304 0.028717
0.044159 0.040619 0.038635
0.076141 0.052399 0.050568
0.111298 0.064728 0.062439
0.157013 0.078461 0.074707
0.214142 0.093811 0.084686
0.282135 0.106659 0.088196
0.356873 0.123657 0.097260
0.426788 0.144714 0.116882
0.487518 0.167389 0.138977
0.549133 0.191498 0.161926
0.607330 0.218781 0.189148
0.664856 0.248291 0.217407
0.721588 0.276550 0.244781
0.778961 0.300018 0.269135
0.823761 0.314392 0.281677
0.840454 0.319336 0.286194
0.848541 0.321747 0.288574
0.856506 0.324158 0.291046
0.864410 0.326508 0.293549
0.872345 0.328888 0.295837
0.880219 0.331390 0.298004
0.888062 0.333801 0.300049
0.896027 0.336121 0.302124
0.904083 0.338409 0.304230
0.912109 0.340668 0.306335
0.918213 0.343079 0.308472
0.013641 0.036896 0.026978
0.014435 0.037018 0.027161
0.015930 0.037537 0.027557
0.017853 0.038086 0.027832
0.020752 0.039398 0.028259
0.024780 0.042786 0.029663
0.044891 0.052277 0.042023
0.076843 0.061768 0.054749
0.112335 0.072784 0.065582
0.158905 0.084625 0.076965
0.215759 0.098053 0.086151
0.282745 0.109741 0.089081
0.357208 0.125854 0.097900
0.427765 0.146729 0.117584
0.488403 0.169403 0.139648
0.549957 0.193756 0.162567
0.608490 0.221039 0.189850
0.665558 0.250122 0.218018
0.722473 0.278229 0.245148
0.779968 0.301788 0.269714
0.825165 0.316193 0.282257
0.841736 0.321014 0.286774
0.849762 0.323486 0.289337
0.857849 0.325867 0.291840
0.865631 0.328247 0.294159
0.873749 0.330658 0.296478
0.881531 0.333008 0.298645
0.889435 0.335510 0.300720
0.897430 0.337769 0.302765
0.905334 0.340057 0.304871
0.913513 0.342407 0.307007
0.919006 0.344666 0.309174
0.015106 0.056274 0.029053
0.015533 0.056061 0.029236
0.016968 0.056213 0.030273
0.018707 0.056519 0.031921
0.021667 0.056213 0.032379
0.025543 0.055817 0.032928
0.048248 0.064880 0.045654
0.078552 0.072968 0.059052
0.113464 0.083344 0.070068
0.160675 0.094025 0.080811
0.218811 0.105560 0.088593
0.285980 0.116425 0.091003
0.359222 0.130646 0.099457
0.428284 0.148712 0.118103
0.488953 0.171600 0.140350
0.550934 0.196014 0.163300
0.609711 0.223175 0.190674
0.666382 0.252106 0.218506
0.723450 0.279877 0.245483
0.781006 0.303528 0.270203
0.826630 0.318024 0.282837
0.843201 0.322815 0.287537
0.851135 0.325226 0.289978
0.859344 0.327698 0.292480
0.867279 0.330048 0.294891
0.875275 0.332428 0.297119
0.883087 0.334808 0.299438
0.890869 0.337250 0.301483
0.898865 0.339569 0.303558
0.906830 0.341827 0.305725
0.914764 0.344147 0.307831
0.919891 0.346375 0.309967
0.016388 0.074890 0.036469
0.016693 0.074799 0.037201
0.017822 0.074768 0.038452
0.019440 0.075012 0.040070
0.022064 0.075195 0.042145
0.026367 0.074677 0.042480
0.053955 0.078125 0.050171
0.083313 0.084869 0.063965
0.117249 0.095245 0.074799
0.163361 0.106415 0.085297
0.222565 0.116699 0.091705
0.290588 0.125214 0.093903
0.363831 0.139130 0.102264
0.430939 0.154449 0.120575
0.489655 0.173218 0.140869
0.551544 0.197968 0.163879
0.610809 0.225220 0.191345
0.667053 0.253937 0.218994
0.724152 0.281586 0.245850
0.782440 0.305054 0.270508
0.828033 0.319794 0.283417
0.844757 0.324738 0.288147
0.852631 0.327118 0.290649
0.860809 0.329529 0.293152
0.868805 0.331909 0.295624
0.876892 0.334320 0.297943
0.884674 0.336670 0.300110
0.892426 0.338989 0.302185
0.900421 0.341339 0.304260
0.908386 0.343567 0.306335
0.915619 0.345917 0.308502
0.920746 0.348175 0.310638
0.017548 0.094482 0.046295
0.017792 0.094421 0.046967
0.018402 0.094299 0.047485
0.019867 0.094788 0.048950
0.022339 0.097107 0.051605
0.027710 0.097290 0.053650
0.050476 0.097351 0.055023
0.087921 0.099274 0.068329
0.123566 0.107910 0.079742
0.170624 0.119537 0.088745
0.227997 0.131500 0.094452
0.296204 0.139862 0.096466
0.370758 0.150635 0.106384
0.436951 0.164490 0.125580
0.494141 0.180908 0.144287
0.552795 0.201416 0.165497
0.611206 0.226898 0.191772
0.667572 0.255646 0.219360
0.725037 0.283051 0.246094
0.784027 0.306763 0.270721
0.829559 0.321228 0.283722
0.846375 0.326447 0.288483
0.854218 0.328888 0.291229
0.862091 0.331451 0.293823
0.870300 0.333771 0.296234
0.878357 0.336182 0.298553
0.886322 0.338531 0.300751
0.894073 0.340790 0.302795
0.901917 0.343140 0.304932
0.910004 0.345428 0.307068
0.916595 0.347717 0.309235
0.921722 0.349976 0.311462
0.019226 0.118378 0.057800
0.019531 0.118439 0.058228
0.019897 0.118439 0.058533
0.021027 0.119476 0.059418
0.024139 0.123413 0.061920
0.029663 0.124084 0.064148
0.050812 0.123596 0.067139
0.083527 0.119995 0.071442
0.130249 0.122894 0.084625
0.180176 0.134186 0.091980
0.238373 0.146454 0.095337
0.303925 0.158722 0.098663
0.373962 0.170563 0.114746
0.442657 0.182709 0.133118
0.502258 0.197205 0.151123
0.559448 0.214386 0.171570
0.614319 0.234039 0.195190
0.668365 0.258270 0.220215
0.725372 0.284424 0.246124
0.784943 0.308228 0.270691
0.831207 0.322845 0.283783
0.848206 0.328125 0.288666
0.855927 0.330566 0.291595
0.863831 0.333038 0.294189
0.871887 0.335602 0.296692
0.879944 0.338074 0.299164
0.887939 0.340485 0.301422
0.895905 0.342773 0.303619
0.903870 0.345093 0.305695
0.911774 0.347351 0.307770
0.917542 0.349670 0.309937
0.922668 0.351898 0.312012
0.023468 0.146332 0.066895
0.023895 0.146301 0.067535
0.024445 0.146729 0.067963
0.025055 0.147705 0.068359
0.027283 0.150513 0.069977
0.037018 0.154785 0.072693
0.057526 0.153778 0.075439
0.081329 0.152100 0.080750
0.129364 0.148468 0.089935
0.188019 0.152863 0.094971
0.250732 0.163818 0.095581
0.313049 0.178101 0.106476
0.379089 0.193878 0.125183
0.446350 0.208313 0.142578
0.506927 0.223541 0.160126
0.569885 0.237183 0.179688
0.623566 0.255188 0.203766
0.674988 0.273743 0.226685
0.729614 0.292328 0.249390
0.786896 0.311737 0.271240
0.833069 0.324982 0.283813
0.850006 0.329742 0.288696
0.857910 0.332214 0.291626
0.865692 0.334686 0.294281
0.873779 0.337280 0.296753
0.881744 0.339691 0.299255
0.889771 0.342102 0.301514
0.897736 0.344360 0.303680
0.905731 0.346588 0.305817
0.913422 0.348938 0.307922
0.918671 0.351257 0.310028
0.923737 0.353455 0.312103
0.027313 0.178345 0.079010
0.027740 0.178711 0.079590
0.028290 0.179718 0.080170
0.028809 0.180573 0.080475
0.029541 0.181305 0.080902
0.037292 0.185822 0.082428
0.055817 0.187958 0.085022
0.083069 0.187042 0.089874
0.118622 0.181793 0.100616
0.188019 0.181519 0.100769
0.258575 0.185028 0.102234
0.323120 0.199554 0.117767
0.390991 0.216125 0.136658
0.455078 0.232452 0.152588
0.514313 0.250061 0.170013
0.576172 0.266296 0.190033
0.635040 0.282959 0.212738
0.689178 0.300873 0.236725
0.745300 0.318237 0.258667
0.802368 0.332123 0.277679
0.844025 0.338257 0.287445
0.857391 0.338409 0.290985
0.864136 0.339172 0.293365
0.871887 0.341003 0.295837
0.879608 0.342896 0.298157
0.887146 0.344849 0.300354
0.894714 0.346954 0.302429
0.902466 0.348938 0.304535
0.910309 0.351105 0.306580
0.916046 0.353302 0.308716
0.921204 0.355438 0.310791
0.925873 0.357544 0.312866
0.038300 0.216339 0.092896
0.040161 0.217285 0.093506
0.042053 0.218231 0.093994
0.043823 0.219086 0.094208
0.045319 0.220062 0.094421
0.046967 0.221008 0.094666
0.054199 0.225922 0.095886
0.073975 0.228455 0.097992
0.118561 0.224335 0.108734
0.166931 0.215454 0.121979
0.255432 0.217712 0.116058
0.330902 0.225159 0.130341
0.401581 0.242462 0.148926
0.468750 0.259583 0.164948
0.532013 0.278076 0.183655
0.594086 0.293610 0.203644
0.649017 0.311768 0.224274
0.704895 0.331757 0.247284
0.764893 0.351105 0.269043
0.828735 0.365295 0.287872
0.874359 0.373230 0.299408
0.887726 0.372742 0.302643
0.891510 0.370148 0.303650
0.896057 0.368408 0.304688
0.901367 0.367645 0.306000
0.907288 0.367554 0.307465
0.911865 0.368256 0.309021
0.916656 0.369507 0.310791
0.921387 0.371216 0.312805
0.926056 0.373199 0.314758
0.930450 0.374969 0.316650
0.934662 0.376373 0.318390
0.047668 0.261536 0.106506
0.048676 0.262604 0.106750
0.049835 0.263611 0.106750
0.050903 0.264496 0.106842
0.052124 0.265533 0.106873
0.053223 0.266479 0.106903
0.054321 0.267578 0.106964
0.060394 0.273407 0.107758
0.106628 0.276520 0.115448
0.166962 0.263794 0.133820
0.239136 0.262238 0.143982
0.329987 0.262268 0.145935
0.408783 0.272156 0.161072
0.484680 0.290771 0.179352
0.553802 0.307343 0.199158
0.617188 0.324463 0.220123
0.672455 0.345306 0.242157
0.729645 0.365967 0.263885
0.792267 0.385223 0.283722
0.857422 0.402954 0.301483
0.902191 0.415253 0.313446
0.912750 0.417603 0.317383
0.916351 0.416748 0.318512
0.919983 0.416595 0.319824
0.923950 0.416656 0.321136
0.928070 0.417236 0.322632
0.932404 0.418304 0.324341
0.936798 0.419952 0.326111
0.940979 0.421844 0.327881
0.945190 0.423859 0.329681
0.949219 0.425842 0.331421
0.953278 0.427521 0.333008
0.053650 0.310669 0.120453
0.055267 0.311584 0.120605
0.057037 0.312317 0.120850
0.058807 0.312958 0.121063
0.060852 0.313934 0.121399
0.062927 0.314728 0.121643
0.065033 0.315613 0.121857
0.067200 0.316559 0.122192
0.080475 0.323364 0.124146
0.148773 0.325226 0.140106
0.225098 0.305176 0.160095
0.322174 0.316040 0.167053
0.408936 0.312195 0.176056
0.488495 0.322815 0.192139
0.567627 0.339905 0.214294
0.636475 0.360077 0.238251
0.696503 0.381989 0.261902
0.755249 0.402191 0.282532
0.822540 0.421295 0.301270
0.886108 0.440491 0.317627
0.920319 0.455322 0.329895
0.931091 0.459686 0.333771
0.934296 0.460083 0.334747
0.937653 0.460938 0.336090
0.941681 0.462402 0.337677
0.945648 0.464203 0.339294
0.949432 0.466156 0.340820
0.952576 0.468689 0.342896
0.955292 0.471466 0.345001
0.958069 0.474182 0.347198
0.960724 0.476929 0.349243
0.963318 0.479523 0.351257
0.077728 0.359711 0.139404
0.078857 0.359741 0.139526
0.080170 0.359863 0.139618
0.081360 0.360138 0.139771
0.083069 0.361145 0.139862
0.084656 0.362030 0.140015
0.086212 0.362976 0.140198
0.087982 0.363983 0.140320
0.089600 0.365021 0.140350
0.113678 0.374603 0.143738
0.208496 0.373749 0.168884
0.305664 0.365265 0.187134
0.403870 0.378448 0.201874
0.487671 0.373199 0.211945
0.570038 0.380157 0.230438
0.641968 0.396118 0.253479
0.706635 0.417572 0.278137
0.777313 0.438873 0.300171
0.846649 0.459045 0.317657
0.899597 0.478821 0.332916
0.931915 0.494720 0.345306
0.943085 0.499451 0.349457
0.945648 0.500366 0.350830
0.947998 0.501709 0.352203
0.950623 0.503235 0.353760
0.952942 0.505005 0.355347
0.954834 0.506927 0.356720
0.955841 0.508820 0.357727
0.956848 0.510620 0.358856
0.958130 0.512482 0.359985
0.959229 0.514313 0.361084
0.960266 0.516205 0.362122
0.086273 0.409790 0.155090
0.087494 0.409912 0.155182
0.088470 0.410095 0.155273
0.089691 0.410248 0.155334
0.090790 0.410431 0.155457
0.092010 0.410645 0.155518
0.093140 0.411346 0.155579
0.094421 0.412384 0.155640
0.095734 0.413635 0.155640
0.097137 0.414917 0.155609
0.167877 0.428436 0.171936
0.286652 0.419556 0.202637
0.396515 0.428711 0.222107
0.479797 0.445923 0.241486
0.566345 0.437073 0.252441
0.641113 0.442078 0.271606
0.708435 0.457123 0.294006
0.785553 0.475739 0.313538
0.855713 0.495331 0.330627
0.904999 0.515198 0.346283
0.936981 0.531128 0.358337
0.943481 0.536713 0.363098
0.944702 0.537415 0.363770
0.945953 0.538330 0.364532
0.947235 0.539642 0.365479
0.948273 0.540985 0.366364
0.949463 0.542664 0.367432
0.950592 0.544464 0.368408
0.951599 0.546295 0.369507
0.952728 0.548279 0.370667
0.953827 0.550232 0.371674
0.954834 0.552185 0.372864
0.092743 0.456238 0.171082
0.093567 0.456390 0.171204
0.094452 0.457031 0.171234
0.095428 0.458252 0.171265
0.096497 0.458893 0.171356
0.098694 0.460266 0.171661
0.101288 0.462219 0.171906
0.103851 0.463959 0.172150
0.106750 0.465851 0.172516
0.109741 0.467590 0.172852
0.120728 0.471252 0.174713
0.261902 0.481781 0.213501
0.373871 0.474976 0.240906
0.472931 0.495392 0.260651
0.545135 0.515442 0.283691
0.630829 0.504364 0.296967
0.702850 0.508972 0.312256
0.781708 0.516418 0.326660
0.852783 0.532898 0.342438
0.902679 0.549713 0.357422
0.932190 0.566162 0.369415
0.937164 0.572845 0.373718
0.938660 0.574005 0.374725
0.940033 0.575134 0.375549
0.941284 0.576355 0.376526
0.942535 0.577942 0.377472
0.943787 0.579651 0.378571
0.945068 0.581421 0.379547
0.946228 0.583221 0.380646
0.947449 0.585083 0.381653
0.948669 0.586975 0.382812
0.949768 0.588928 0.383881
0.120392 0.510742 0.189178
0.122253 0.512054 0.189514
0.124359 0.513702 0.190002
0.126526 0.515259 0.190643
0.128876 0.516510 0.191193
0.131439 0.517792 0.191956
0.134033 0.518982 0.192871
0.136993 0.519653 0.193573
0.140015 0.520081 0.194214
0.143494 0.520569 0.194977
0.146942 0.520935 0.195709
0.200226 0.527252 0.211487
0.353607 0.523529 0.250946
0.452820 0.543213 0.278442
0.529755 0.562653 0.303467
0.597656 0.585052 0.326019
0.687317 0.572449 0.334808
0.771179 0.573944 0.347076
0.844086 0.577667 0.358063
0.896606 0.589111 0.371063
0.923859 0.603058 0.381531
0.930817 0.609467 0.386566
0.932953 0.610962 0.387787
0.934387 0.611938 0.388763
0.935699 0.613281 0.389557
0.937164 0.614594 0.390503
0.938507 0.616364 0.391632
0.939819 0.618103 0.392914
0.941132 0.619965 0.394104
0.942413 0.621796 0.395111
0.943726 0.623810 0.396393
0.945068 0.625732 0.397583
0.138611 0.568329 0.210114
0.140594 0.568604 0.210541
0.142639 0.568970 0.211029
0.144745 0.569458 0.211578
0.147095 0.569824 0.212128
0.149597 0.570312 0.212677
0.152283 0.570801 0.213257
0.155121 0.571564 0.214081
0.158112 0.571991 0.214844
0.161285 0.572571 0.215546
0.164368 0.573120 0.216370
0.167175 0.573151 0.217133
0.306458 0.579468 0.253967
0.425049 0.583405 0.286133
0.510620 0.609131 0.317047
0.574982 0.627289 0.341370
0.647797 0.653320 0.364258
0.746338 0.639008 0.368835
0.833069 0.637878 0.379395
0.887756 0.639221 0.389465
0.915466 0.641388 0.395660
0.924561 0.648895 0.401611
0.927551 0.650940 0.403351
0.929138 0.651825 0.404236
0.930634 0.652740 0.405090
0.932190 0.653961 0.406219
0.933685 0.655304 0.407318
0.935211 0.656555 0.408417
0.936676 0.657990 0.409424
0.938141 0.659454 0.410461
0.939667 0.660950 0.411621
0.941040 0.662445 0.412720
0.148834 0.621460 0.230225
0.151245 0.621857 0.230865
0.153992 0.622375 0.231506
0.156891 0.622894 0.232208
0.159698 0.623474 0.232941
0.162537 0.624054 0.233673
0.165955 0.624634 0.234558
0.169586 0.625397 0.235413
0.173370 0.626068 0.236389
0.177094 0.626434 0.237396
0.180634 0.626831 0.238525
0.184174 0.627167 0.239563
0.227661 0.631348 0.251190
0.390625 0.626434 0.293274
0.481445 0.648254 0.321320
0.561646 0.672760 0.353577
0.624329 0.691406 0.378357
0.710266 0.719025 0.400024
0.801392 0.705994 0.404297
0.873627 0.699585 0.412048
0.906311 0.696106 0.417236
0.919067 0.692657 0.419647
0.923767 0.691437 0.420410
0.925476 0.690826 0.420654
0.927063 0.691772 0.421509
0.928650 0.692780 0.422394
0.930176 0.693970 0.423431
0.931732 0.695068 0.424408
0.933319 0.696350 0.425568
0.934845 0.697723 0.426636
0.936432 0.699127 0.427856
0.937958 0.700409 0.428955
0.164520 0.662109 0.247955
0.166931 0.662506 0.248627
0.169830 0.663086 0.249390
0.172607 0.663727 0.250122
0.175598 0.664490 0.251068
0.179016 0.665192 0.251953
0.182281 0.665924 0.252838
0.185242 0.666504 0.253784
0.188324 0.667175 0.254761
0.191559 0.667725 0.255920
0.195374 0.668213 0.256989
0.200073 0.668610 0.258057
0.204895 0.668884 0.259247
0.332520 0.671204 0.291626
0.453583 0.683075 0.328674
0.537903 0.713043 0.360107
0.615601 0.733307 0.389404
0.684967 0.750580 0.412323
0.769623 0.778076 0.433990
0.843323 0.768280 0.438873
0.896423 0.757996 0.443085
0.910950 0.751007 0.444153
0.919006 0.747620 0.444916
0.921204 0.746277 0.444916
0.923065 0.745178 0.444916
0.924866 0.744293 0.444977
0.926666 0.743652 0.445160
0.928436 0.742889 0.445312
0.930267 0.742279 0.445587
0.932037 0.741699 0.445801
0.933777 0.741455 0.446350
0.935516 0.741180 0.446808
0.176270 0.698486 0.265564
0.178558 0.699005 0.266144
0.181030 0.699554 0.266785
0.183624 0.700104 0.267548
0.186737 0.700684 0.268341
0.190216 0.701447 0.269257
0.194366 0.701904 0.270050
0.198456 0.702576 0.271027
0.202576 0.703369 0.272064
0.206879 0.703979 0.273193
0.211487 0.704620 0.274170
0.216003 0.705139 0.275208
0.220062 0.705536 0.276093
0.261749 0.709412 0.285767
0.417328 0.714386 0.333130
0.515533 0.744659 0.365143
0.596497 0.769684 0.395569
0.679871 0.788666 0.425873
0.746460 0.803436 0.444336
0.821228 0.831238 0.467041
0.873444 0.821869 0.470337
0.900543 0.813751 0.471619
0.912567 0.806732 0.471039
0.916107 0.804291 0.470642
0.918213 0.803009 0.470490
0.920227 0.801910 0.470459
0.922211 0.800842 0.470398
0.924286 0.799744 0.470306
0.926270 0.799072 0.470428
0.928131 0.798370 0.470612
0.930054 0.797699 0.470947
0.931915 0.796906 0.471222
0.187897 0.743835 0.284790
0.191132 0.744720 0.285645
0.194397 0.745667 0.286377
0.197937 0.746185 0.287140
0.201752 0.747070 0.288177
0.205688 0.747986 0.289124
0.209808 0.749084 0.290283
0.213593 0.749969 0.291412
0.217377 0.750824 0.292419
0.221436 0.751526 0.293549
0.225555 0.752045 0.294525
0.229858 0.752747 0.295593
0.234314 0.753113 0.296600
0.238831 0.753418 0.297668
0.358429 0.768250 0.329987
0.491882 0.789032 0.374969
0.577759 0.811493 0.406342
0.659302 0.825226 0.432251
0.742950 0.840393 0.462097
0.800964 0.851990 0.475311
0.861237 0.875916 0.495514
0.891235 0.870056 0.498596
0.904999 0.859222 0.496063
0.911835 0.854431 0.494995
0.913910 0.853027 0.494720
0.915924 0.851990 0.494629
0.918030 0.850952 0.494568
0.920044 0.850067 0.494537
0.922089 0.849152 0.494507
0.924042 0.848419 0.494507
0.926056 0.847473 0.494507
0.928101 0.846161 0.494324
0.215790 0.811676 0.315430
0.218384 0.812347 0.316132
0.221069 0.812958 0.316772
0.224945 0.813263 0.317688
0.229095 0.813568 0.318512
0.232849 0.813751 0.319336
0.235718 0.813843 0.319946
0.238739 0.813965 0.320526
0.242188 0.814117 0.321381
0.246094 0.814240 0.322144
0.250092 0.814178 0.322845
0.254150 0.814301 0.323822
0.258331 0.814087 0.324554
0.262604 0.814178 0.325562
0.320740 0.814545 0.338287
0.461670 0.830322 0.379395
0.564667 0.852661 0.420166
0.649414 0.863739 0.443848
0.727570 0.870483 0.468079
0.800812 0.882996 0.491699
0.845917 0.891815 0.501892
0.885651 0.908966 0.517822
0.899048 0.906097 0.519196
0.908630 0.896912 0.516541
0.911621 0.895111 0.516205
0.913696 0.893707 0.515991
0.915741 0.892242 0.515747
0.917755 0.890839 0.515503
0.919922 0.889526 0.515228
0.922028 0.888184 0.515045
0.923828 0.886719 0.514832
0.925476 0.885193 0.514435
0.222809 0.823273 0.321198
0.226105 0.823151 0.321777
0.229523 0.823242 0.322418
0.233368 0.823242 0.323120
0.236359 0.823425 0.323792
0.239685 0.823364 0.324402
0.243256 0.823151 0.324951
0.246735 0.823090 0.325745
0.249878 0.823151 0.326324
0.253021 0.823120 0.326965
0.257050 0.823120 0.327820
0.261353 0.822968 0.328583
0.265686 0.822754 0.329498
0.270020 0.822906 0.330322
0.297699 0.821777 0.335999
0.425598 0.840210 0.374115
0.546448 0.868439 0.419800
0.636719 0.879822 0.447937
0.718567 0.885864 0.471375
0.789154 0.893524 0.495056
0.841492 0.902832 0.507202
0.880127 0.916840 0.521149
0.895966 0.925079 0.528656
0.906311 0.920776 0.528656
0.911194 0.915527 0.526917
0.913330 0.913544 0.526398
0.915344 0.912933 0.526550
0.917419 0.912292 0.526703
0.919312 0.911255 0.526581
0.920898 0.909698 0.526306
0.922485 0.908051 0.525848
0.924072 0.906128 0.525330
0.225677 0.825470 0.322571
0.229065 0.825439 0.323303
0.232269 0.825531 0.323883
0.235779 0.825623 0.324493
0.238800 0.825775 0.325165
0.242249 0.826263 0.326080
0.245941 0.826233 0.326721
0.249603 0.826050 0.327515
0.253387 0.826691 0.328430
0.256439 0.826630 0.328979
0.260437 0.826416 0.329834
0.264496 0.826874 0.330688
0.268890 0.826630 0.331635
0.272369 0.826752 0.332367
0.276001 0.826782 0.333130
0.384399 0.838440 0.362946
0.529724 0.873871 0.416412
0.624420 0.885071 0.447571
0.710175 0.891541 0.471222
0.780182 0.897247 0.493774
0.838379 0.907867 0.509552
0.874054 0.917725 0.520630
0.893921 0.930420 0.531189
0.904144 0.929871 0.532928
0.910675 0.925385 0.532043
0.913208 0.922821 0.531219
0.915283 0.920685 0.530609
0.917389 0.919800 0.530640
0.918915 0.919037 0.530640
0.920410 0.918335 0.530701
0.922089 0.916656 0.530334
0.923706 0.914703 0.529755
0.227844 0.827240 0.323792
0.231476 0.827179 0.324341
0.234802 0.827240 0.324951
0.237701 0.827332 0.325623
0.240356 0.827454 0.326202
0.244110 0.828156 0.327271
0.248291 0.828888 0.328308
0.251892 0.828796 0.328888
0.256104 0.829529 0.330139
0.259888 0.830078 0.331146
0.263794 0.830139 0.331940
0.267548 0.831177 0.333038
0.270844 0.831543 0.333923
0.274384 0.831970 0.334778
0.278168 0.832855 0.335968
0.363495 0.843201 0.359406
0.516174 0.878906 0.414337
0.615234 0.890381 0.448120
0.703644 0.896912 0.471527
0.774414 0.901672 0.493774
0.835266 0.911896 0.511353
0.868988 0.918762 0.520325
0.892426 0.933258 0.532532
0.902740 0.935455 0.535767
0.910248 0.932495 0.535706
0.913177 0.929993 0.535034
0.915283 0.927856 0.534393
0.917053 0.925812 0.533813
0.918671 0.924835 0.533752
0.920166 0.924164 0.533844
0.921722 0.923462 0.533936
0.923248 0.921539 0.533295
0.230072 0.830902 0.325623
0.233704 0.830566 0.326141
0.237061 0.830566 0.326691
0.239655 0.830414 0.327209
0.242920 0.830200 0.327759
0.246948 0.830597 0.328613
0.250977 0.831085 0.329742
0.254456 0.831696 0.330597
0.258514 0.832428 0.331787
0.262726 0.833221 0.332886
0.266663 0.834137 0.334045
0.269775 0.835144 0.335175
0.272827 0.836304 0.336212
0.276367 0.837036 0.337250
0.280182 0.838074 0.338409
0.359680 0.852173 0.361938
0.506622 0.884644 0.413574
0.609406 0.896027 0.449249
0.699524 0.902344 0.472534
0.771179 0.906982 0.494873
0.832764 0.915863 0.513214
0.866089 0.920990 0.521088
0.891479 0.935059 0.533325
0.901825 0.940735 0.538483
0.909729 0.938934 0.539032
0.913208 0.936768 0.538605
0.915131 0.934814 0.538055
0.916718 0.932861 0.537476
0.918365 0.930969 0.536926
0.919891 0.930023 0.536896
0.921417 0.929382 0.536987
0.922943 0.928680 0.537079
0.234131 0.840607 0.330139
0.237701 0.840240 0.330566
0.241241 0.840698 0.331512
0.243896 0.840790 0.332001
0.247040 0.840607 0.332489
0.250977 0.841156 0.333588
0.254913 0.841614 0.334473
0.258606 0.842194 0.335510
0.262695 0.842682 0.336456
0.265991 0.843384 0.337463
0.269348 0.844177 0.338470
0.272339 0.845123 0.339508
0.275543 0.845947 0.340454
0.278839 0.846741 0.341492
0.282562 0.847473 0.342499
0.357635 0.861420 0.365204
0.500732 0.890137 0.414490
0.606354 0.901794 0.451263
0.697449 0.908142 0.474854
0.769653 0.912415 0.496613
0.829620 0.919220 0.514648
0.866486 0.925659 0.523712
0.890808 0.937256 0.534515
0.901306 0.945190 0.541077
0.909363 0.944366 0.542206
0.913300 0.942474 0.541901
0.915039 0.941284 0.541595
0.916565 0.939850 0.541199
0.918152 0.938019 0.540619
0.919647 0.936188 0.540161
0.921143 0.935242 0.540131
0.922699 0.934631 0.540222
0.238770 0.849976 0.334442
0.242004 0.850067 0.335205
0.245209 0.850494 0.335999
0.247986 0.851013 0.336700
0.251251 0.851196 0.337463
0.255157 0.851715 0.338379
0.258698 0.852203 0.339355
0.261871 0.852875 0.340210
0.265350 0.853363 0.341187
0.268707 0.854004 0.342102
0.271973 0.854736 0.343140
0.275085 0.855774 0.344147
0.278259 0.856567 0.345184
0.281738 0.857269 0.346130
0.285400 0.857880 0.347229
0.357208 0.870453 0.368774
0.497803 0.896271 0.416718
