滤镜资源/Professional Luts Collection/Triune-Digital-Cinematic-LUTs/3D LUTs (CUBE)/ALEXA/The Walking Dead - Alexa.cube
#Created by Benjamin (IWLTBAP) : http://luts.iwltbap.com
#Copyright: (C) Copyright 2016 Triune Films and IWLTBAP
TITLE "Blockbuster LUTs Pack (Alexa Log-C)"
#LUT size
LUT_3D_SIZE 5
#LUT data points
DOMAIN_MIN 0.000000 0.000000 0.000000
DOMAIN_MAX 0.903226 0.903226 0.903226
0.011322 0.012421 0.017670
0.200867 0.033447 0.037964
0.631622 0.103149 0.115143
0.941376 0.159119 0.221954
0.960449 0.159393 0.237701
0.013306 0.146637 0.020264
0.124786 0.147308 0.018188
0.606293 0.197449 0.092499
0.938080 0.193542 0.206909
0.960571 0.197388 0.227692
0.038483 0.467163 0.043701
0.056976 0.470306 0.044861
0.485138 0.490051 0.053009
0.852875 0.505249 0.105835
0.878906 0.501495 0.109528
0.039856 0.762909 0.018127
0.056091 0.765900 0.022491
0.099945 0.770996 0.033813
0.762390 0.773621 0.020721
0.843384 0.778687 0.050201
0.036316 0.796509 0.015717
0.051300 0.799011 0.019745
0.066284 0.801422 0.023621
0.727295 0.812775 0.015808
0.836945 0.815918 0.026794
0.011383 0.013000 0.162292
0.161957 0.013885 0.158417
0.625916 0.097656 0.241150
0.935333 0.145996 0.314331
0.956360 0.146484 0.324341
0.037689 0.140289 0.159973
0.133270 0.146881 0.157288
0.628204 0.199921 0.232147
0.936890 0.185730 0.309631
0.957489 0.186523 0.320099
0.048218 0.471100 0.072021
0.067291 0.474609 0.073669
0.489868 0.494507 0.085968
0.860138 0.509766 0.143005
0.888153 0.508606 0.158997
0.049591 0.768616 0.038330
0.066589 0.771515 0.043335
0.112213 0.777527 0.056519
0.769379 0.779419 0.046295
0.849854 0.784210 0.075012
0.046448 0.802612 0.035431
0.062378 0.805573 0.040222
0.078217 0.808258 0.044861
0.735596 0.819794 0.040131
0.842957 0.822815 0.050110
0.014130 0.014801 0.488983
0.071411 0.015289 0.492615
0.593353 0.040497 0.532349
0.939545 0.084930 0.564331
0.965240 0.086517 0.570251
0.016693 0.039368 0.492371
0.039459 0.040009 0.498169
0.589020 0.082672 0.533203
0.938507 0.129272 0.562561
0.964050 0.131287 0.568634
0.125641 0.490540 0.419617
0.146942 0.494049 0.424255
0.527832 0.535095 0.537415
0.924622 0.544952 0.556915
0.949554 0.536591 0.556763
0.142456 0.817261 0.310089
0.165466 0.819214 0.319641
0.214172 0.822327 0.341125
0.826324 0.834686 0.427643
0.910217 0.838318 0.450775
0.131744 0.855164 0.269318
0.154785 0.858368 0.282135
0.178070 0.861511 0.296021
0.782959 0.878906 0.376923
0.895477 0.882843 0.391785
0.019379 0.019806 0.785553
0.048950 0.020111 0.787384
0.532684 0.036621 0.800171
0.916138 0.047089 0.833160
0.949646 0.048462 0.838531
0.024841 0.052277 0.782104
0.047760 0.054321 0.787262
0.523590 0.079895 0.801971
0.918518 0.092590 0.835571
0.951141 0.091156 0.839813
0.086853 0.325287 0.735931
0.107971 0.327637 0.737457
0.410736 0.356689 0.814392
0.919312 0.309967 0.842407
0.958374 0.283997 0.846893
0.221161 0.836670 0.655060
0.245728 0.837646 0.660461
0.272461 0.836548 0.668457
0.874451 0.867798 0.868774
0.973663 0.874023 0.876373
0.229279 0.921570 0.628784
0.259003 0.923523 0.638885
0.287811 0.925140 0.648682
0.825867 0.949646 0.838837
0.957336 0.952209 0.845123
0.021912 0.021515 0.864929
0.058960 0.021698 0.865601
0.521851 0.039062 0.870789
0.908966 0.041412 0.895569
0.944641 0.042450 0.900360
0.028656 0.057953 0.860229
0.056366 0.059814 0.867676
0.513428 0.082642 0.873077
0.910950 0.086853 0.897675
0.946564 0.086700 0.902191
0.058777 0.197266 0.827454
0.080719 0.199371 0.830872
0.414612 0.214508 0.871643
0.910248 0.200378 0.904358
0.951111 0.191650 0.907776
0.215881 0.817444 0.752319
0.238983 0.818390 0.756409
0.265991 0.817139 0.764374
0.862305 0.851624 0.964996
0.970001 0.848816 0.963379
0.244965 0.931732 0.725433
0.276031 0.933472 0.734741
0.305756 0.934509 0.743652
0.837036 0.963318 0.933746
0.970123 0.965576 0.967346
