滤镜资源/Professional Luts Collection/Triune-Digital-Cinematic-LUTs/3D LUTs (CUBE)/ALEXA/The Matrix - Alexa.cube
#Created by Benjamin (IWLTBAP) : http://luts.iwltbap.com
#Copyright: (C) Copyright 2016 Triune Films and IWLTBAP
TITLE "Blockbuster LUTs Pack (Alexa Log-C)"
#LUT size
LUT_3D_SIZE 8
#LUT data points
DOMAIN_MIN 0.000000 0.000000 0.000000
DOMAIN_MAX 0.903226 0.903226 0.903226
0.003540 0.000000 0.007080
0.054504 0.000122 0.007355
0.136475 0.007080 0.022919
0.368103 0.037964 0.057617
0.669922 0.104919 0.103882
0.873138 0.163940 0.160797
0.900726 0.174408 0.176971
0.921509 0.181488 0.184845
0.007080 0.039825 0.015686
0.042419 0.039124 0.015411
0.128448 0.046265 0.032013
0.370148 0.061493 0.056091
0.671143 0.114471 0.099121
0.876495 0.174683 0.158234
0.901703 0.184357 0.172699
0.922668 0.192474 0.180664
0.033936 0.146240 0.047028
0.041962 0.145569 0.043365
0.128784 0.155457 0.039764
0.325439 0.191437 0.086548
0.673157 0.208649 0.097900
0.879608 0.211639 0.148438
0.905273 0.203033 0.163696
0.925049 0.206512 0.171967
0.120361 0.417328 0.113251
0.126343 0.420563 0.109650
0.133026 0.419800 0.108490
0.344818 0.439178 0.082733
0.605408 0.468079 0.176941
0.830627 0.487427 0.214294
0.868103 0.482758 0.215088
0.891510 0.481079 0.216705
0.220825 0.676422 0.192535
0.229065 0.677063 0.192474
0.237213 0.676758 0.191467
0.303375 0.680420 0.168304
0.631226 0.695587 0.168243
0.829071 0.706787 0.265991
0.873291 0.709412 0.283508
0.889679 0.710846 0.289276
0.318481 0.869110 0.279572
0.326752 0.869080 0.279480
0.334930 0.868896 0.275909
0.339630 0.868103 0.272369
0.592987 0.876709 0.224762
0.848328 0.881775 0.277924
0.928284 0.881927 0.339447
0.944519 0.883881 0.350616
0.362976 0.915314 0.316986
0.371246 0.915863 0.314789
0.379181 0.915863 0.313446
0.384827 0.915863 0.310333
0.575989 0.922394 0.292755
0.859711 0.929443 0.336853
0.961121 0.937073 0.388367
0.976959 0.939301 0.407196
0.391479 0.932129 0.342773
0.399780 0.932129 0.340546
0.405304 0.932892 0.338348
0.413574 0.932892 0.336121
0.582428 0.937225 0.321564
0.871643 0.946259 0.368774
0.971741 0.955414 0.414093
0.991455 0.959625 0.449768
0.000000 0.003540 0.036072
0.039764 0.003540 0.050385
0.117462 0.011017 0.061981
0.365479 0.040588 0.092468
0.666168 0.107666 0.138000
0.873108 0.170013 0.192993
0.898193 0.177399 0.204163
0.917969 0.183167 0.210876
0.000000 0.040771 0.051178
0.033295 0.036835 0.056915
0.146362 0.033875 0.061340
0.369232 0.056488 0.089966
0.667328 0.120605 0.136566
0.872894 0.180573 0.191223
0.898987 0.189758 0.204651
0.920715 0.197205 0.209961
0.032166 0.141388 0.067139
0.042389 0.140778 0.069244
0.128174 0.150635 0.065918
0.348969 0.178589 0.100647
0.679413 0.200775 0.129089
0.879456 0.206055 0.181274
0.902527 0.204803 0.196198
0.923584 0.209564 0.203735
0.119751 0.415558 0.120972
0.127930 0.417511 0.121155
0.134155 0.418030 0.118805
0.345062 0.437653 0.095398
0.608429 0.466553 0.185120
0.835876 0.484070 0.221863
0.875397 0.477539 0.226257
0.899872 0.476654 0.229401
0.220551 0.675903 0.203461
0.228760 0.675781 0.204010
0.236908 0.676086 0.202026
0.302521 0.679657 0.180084
0.630768 0.695007 0.176422
0.828796 0.705170 0.274231
0.873413 0.708435 0.288513
0.889679 0.710266 0.294037
0.318298 0.868744 0.287659
0.326569 0.868683 0.287628
0.336060 0.868561 0.287567
0.342560 0.867767 0.283569
0.592499 0.876312 0.236115
0.847992 0.881500 0.287598
0.929199 0.881622 0.347534
0.945312 0.883667 0.359650
0.363495 0.915314 0.327484
0.373474 0.915314 0.328827
0.380066 0.915863 0.326599
0.388336 0.915863 0.323944
0.575714 0.922394 0.303284
0.859558 0.929993 0.350830
0.961090 0.937073 0.400696
0.976959 0.939301 0.418976
0.392303 0.932129 0.354584
0.402771 0.932129 0.354584
0.408813 0.932892 0.351044
0.416351 0.932892 0.347504
0.581940 0.939209 0.332581
0.871490 0.946259 0.382782
0.971649 0.955353 0.428070
0.991455 0.959625 0.461029
0.000000 0.007080 0.079865
0.016510 0.009003 0.106354
0.108368 0.016937 0.121979
0.310730 0.057190 0.154144
0.650757 0.119110 0.193756
0.872986 0.170074 0.240906
0.898712 0.180908 0.248810
0.920715 0.186676 0.255554
0.000000 0.026886 0.086853
0.008148 0.023285 0.106476
0.113312 0.027466 0.124817
0.320709 0.064575 0.153870
0.659729 0.126740 0.192474
0.872803 0.184052 0.240234
0.900391 0.191437 0.251434
0.921509 0.197754 0.254639
0.005432 0.137085 0.138947
0.013885 0.137177 0.138977
0.117615 0.138855 0.145905
0.392029 0.147095 0.154205
0.676208 0.188019 0.191559
0.872864 0.202332 0.236725
0.901703 0.205475 0.248260
0.921509 0.211212 0.255066
0.117615 0.413239 0.163391
0.125824 0.413025 0.163544
0.133789 0.412262 0.165100
0.344696 0.432831 0.159058
0.635773 0.457184 0.227081
0.873901 0.463531 0.257416
0.910614 0.454834 0.263245
0.928772 0.457764 0.268524
0.219482 0.674042 0.211273
0.227753 0.674011 0.211243
0.236725 0.673767 0.212006
0.299500 0.677063 0.192535
0.629395 0.692657 0.186493
0.828033 0.703186 0.282257
0.873749 0.706268 0.296265
0.890778 0.707520 0.301727
0.317627 0.867249 0.296539
0.325867 0.867188 0.298767
0.337585 0.867432 0.298706
0.345398 0.866608 0.295990
0.590881 0.875183 0.248413
0.846893 0.880524 0.298035
0.930725 0.880402 0.355835
0.944611 0.882812 0.366882
0.363495 0.915314 0.337067
0.373474 0.915314 0.337616
0.383606 0.915314 0.337982
0.391907 0.915863 0.334869
0.574738 0.922394 0.314301
0.859100 0.929443 0.362305
0.961029 0.937073 0.412781
0.976959 0.939301 0.431152
0.392303 0.932129 0.362854
0.402771 0.932129 0.362854
0.412384 0.932129 0.363739
0.420319 0.932892 0.360626
0.580292 0.938446 0.346069
0.871002 0.946259 0.393921
0.971405 0.955261 0.439178
0.990692 0.959625 0.471497
0.000000 0.034058 0.162384
0.002533 0.030518 0.168121
0.041077 0.041168 0.228119
0.285492 0.080688 0.270142
0.556915 0.159393 0.318695
0.811096 0.216553 0.364075
0.843811 0.224701 0.373169
0.868225 0.230621 0.379364
0.000000 0.045715 0.167877
0.002533 0.044403 0.173645
0.030060 0.049286 0.233154
0.287170 0.091034 0.272125
0.563965 0.169495 0.318481
0.813873 0.226837 0.364136
0.848053 0.235046 0.373901
0.870789 0.242279 0.380249
0.000000 0.066925 0.180054
0.002533 0.065399 0.181976
0.015656 0.063507 0.223450
0.287872 0.100067 0.272400
0.568756 0.178650 0.317749
0.819489 0.239227 0.365601
0.852112 0.248444 0.375000
0.873962 0.254425 0.378510
0.089691 0.390228 0.316315
0.097839 0.389923 0.316315
0.104523 0.389465 0.316345
0.318787 0.403656 0.327087
0.705353 0.397827 0.330139
0.903961 0.419800 0.365265
0.934082 0.415039 0.372162
0.962250 0.409729 0.372803
0.221008 0.661835 0.350647
0.229218 0.661713 0.351288
0.237335 0.661499 0.354370
0.303864 0.663208 0.362244
0.628235 0.680084 0.359192
0.862885 0.683807 0.420471
0.911530 0.683197 0.429779
0.920563 0.687744 0.435425
0.314819 0.861603 0.381653
0.325928 0.861572 0.381714
0.334106 0.861389 0.383331
0.341919 0.860565 0.384216
0.579224 0.871979 0.359192
0.845032 0.873322 0.420715
0.928955 0.875854 0.474854
0.945801 0.877197 0.484314
0.363495 0.915314 0.373108
0.373474 0.915863 0.375336
0.383606 0.915863 0.375977
0.395020 0.915863 0.377411
0.568481 0.922394 0.367584
0.859436 0.926666 0.428162
0.959747 0.936707 0.490967
0.976959 0.939819 0.499969
0.392303 0.932129 0.398621
0.402771 0.932129 0.398865
0.413269 0.932709 0.398956
0.423767 0.932892 0.402496
0.575012 0.936432 0.390778
0.869293 0.946259 0.443085
0.970001 0.954681 0.489777
0.990692 0.959625 0.517395
0.000000 0.078278 0.268585
0.002533 0.078278 0.273834
0.009460 0.078308 0.286591
0.233185 0.112427 0.419617
0.543518 0.182343 0.463684
0.755859 0.257568 0.504059
0.788513 0.267639 0.512878
0.809204 0.275116 0.518829
0.000000 0.090424 0.274139
0.002533 0.092224 0.277649
0.008240 0.090942 0.287170
0.230042 0.123627 0.423004
0.548096 0.192139 0.467194
0.761444 0.267487 0.506042
0.792542 0.279388 0.514893
0.814056 0.285614 0.520416
0.000000 0.103363 0.280090
0.002533 0.104675 0.283508
0.005188 0.106018 0.287079
0.218628 0.134277 0.424408
0.550079 0.202301 0.468475
0.766724 0.278839 0.507416
0.798615 0.288239 0.516388
0.818268 0.296753 0.522369
0.000000 0.322174 0.404755
0.002533 0.323944 0.405884
0.005066 0.322906 0.406525
0.216309 0.344971 0.446930
0.631073 0.332886 0.508270
0.811279 0.384644 0.529053
0.837463 0.379425 0.533173
0.849945 0.383636 0.537659
0.162201 0.642792 0.539917
0.168518 0.642639 0.541382
0.174866 0.642303 0.541870
0.196014 0.642487 0.543518
0.582581 0.653320 0.557831
0.904358 0.638580 0.558319
0.965363 0.634460 0.565063
0.985107 0.635529 0.565735
0.319153 0.845947 0.577820
0.327423 0.845886 0.578186
0.335968 0.845734 0.578766
0.344360 0.844849 0.581665
0.568115 0.849792 0.610657
0.845856 0.856964 0.621307
0.934357 0.860962 0.635010
0.945435 0.861145 0.640656
0.373779 0.918854 0.598877
0.382111 0.918854 0.598907
0.390442 0.918854 0.600403
0.400635 0.918854 0.603088
0.576050 0.919403 0.633850
0.857513 0.929993 0.649475
0.960876 0.938873 0.687683
0.979950 0.943390 0.690826
0.408478 0.932892 0.620239
0.414032 0.932892 0.620300
0.425079 0.932892 0.620483
0.433807 0.935394 0.624512
0.576385 0.935638 0.644470
0.867706 0.949799 0.660248
0.970154 0.959625 0.700104
0.994995 0.963165 0.718506
0.000000 0.142578 0.378754
0.002533 0.142578 0.382324
0.005066 0.143494 0.383240
0.062897 0.164948 0.512848
0.550354 0.201508 0.616394
0.763824 0.273712 0.647339
0.789917 0.287598 0.648560
0.806763 0.298340 0.651764
0.000000 0.156555 0.384369
0.002533 0.156555 0.387939
0.005066 0.156586 0.388855
0.064819 0.176849 0.510345
0.549438 0.214844 0.616821
0.766968 0.285431 0.649353
0.792084 0.299408 0.651917
0.810272 0.307373 0.654327
0.000000 0.167755 0.389709
0.002533 0.170410 0.393219
0.005066 0.171326 0.394165
0.053894 0.186523 0.504333
0.544189 0.227295 0.617737
0.768066 0.296509 0.650909
0.795929 0.311584 0.654846
0.812744 0.320099 0.657288
0.000000 0.183441 0.396332
0.002533 0.183472 0.396729
0.005066 0.183502 0.399933
0.034119 0.197784 0.470703
0.519165 0.236877 0.613190
0.762817 0.303192 0.649963
0.798920 0.322632 0.654236
0.816559 0.331024 0.657623
0.087158 0.611206 0.644684
0.097565 0.611115 0.644623
0.106995 0.610687 0.645477
0.118500 0.609100 0.647186
0.518768 0.628784 0.672241
0.880310 0.594421 0.743622
0.924225 0.602936 0.758850
0.917847 0.615601 0.758270
0.224823 0.830811 0.743469
0.229523 0.830750 0.743500
0.237518 0.830566 0.743561
0.242615 0.829651 0.745819
0.458862 0.836884 0.755646
0.805328 0.837799 0.775574
0.979523 0.824677 0.762421
0.995361 0.825775 0.764435
0.324158 0.927124 0.770782
0.332458 0.927124 0.773987
0.340973 0.927124 0.774048
0.348724 0.927094 0.775909
0.488892 0.926910 0.790405
0.837128 0.933075 0.796265
0.958954 0.937531 0.816162
0.984711 0.940765 0.819031
0.366791 0.943481 0.786224
0.375092 0.944458 0.786224
0.386871 0.944489 0.788849
0.394989 0.944580 0.790131
0.485321 0.944794 0.797455
0.855469 0.956879 0.807068
0.968323 0.965240 0.835358
0.995789 0.969452 0.857300
0.000000 0.177704 0.437531
0.002533 0.180817 0.439758
0.005066 0.180817 0.441956
0.035034 0.191864 0.534882
0.504242 0.226471 0.685333
0.775635 0.280670 0.733154
0.813263 0.294647 0.736023
0.829529 0.302643 0.738251
0.000000 0.191711 0.443237
0.002533 0.191711 0.445465
0.005066 0.194855 0.447693
0.034729 0.203491 0.535858
0.502228 0.238007 0.686798
0.777283 0.290985 0.736481
0.815491 0.304626 0.739563
0.833099 0.312256 0.741211
0.000000 0.206177 0.448914
0.002533 0.206177 0.451141
0.005066 0.208832 0.453369
0.035431 0.219879 0.532440
0.497467 0.249847 0.688080
0.777435 0.304108 0.739349
0.817688 0.315094 0.743073
0.835297 0.324402 0.743439
0.000000 0.222717 0.454285
0.002533 0.222717 0.457825
0.005066 0.222717 0.458740
0.042938 0.233612 0.502045
0.464966 0.259521 0.686005
0.770599 0.312653 0.739288
0.823303 0.326569 0.745117
0.837799 0.334900 0.746002
0.053253 0.582825 0.675110
0.068481 0.583649 0.675018
0.082764 0.584015 0.676605
0.095551 0.583862 0.675751
0.437286 0.616302 0.757599
0.795258 0.591461 0.815979
0.882538 0.593353 0.811981
0.885529 0.599243 0.813599
0.134888 0.833221 0.815735
0.143158 0.833160 0.815704
0.153076 0.833466 0.817352
0.162781 0.832458 0.818787
0.378143 0.840424 0.835297
0.773834 0.833710 0.859833
0.959167 0.816681 0.869934
0.961426 0.821564 0.870148
0.244812 0.926086 0.855377
0.252502 0.926056 0.855377
0.260559 0.925964 0.855408
0.263885 0.925568 0.855499
0.363281 0.924591 0.858093
0.773865 0.930817 0.885193
0.937744 0.928986 0.893463
0.996338 0.924927 0.893555
0.310211 0.954468 0.867767
0.318481 0.954468 0.867767
0.327240 0.954498 0.867828
0.337738 0.954559 0.869232
0.423981 0.956879 0.872620
0.825623 0.965637 0.903107
0.958984 0.969269 0.922363
0.991180 0.973419 0.933899
0.000000 0.189453 0.451843
0.002533 0.189453 0.454071
0.005066 0.189453 0.456268
0.034210 0.197296 0.543701
0.490845 0.232666 0.701202
0.777039 0.281128 0.754486
0.813263 0.296875 0.758026
0.833099 0.303406 0.758789
0.000000 0.200714 0.457581
0.002533 0.200714 0.459808
0.005066 0.203491 0.462036
0.033905 0.211334 0.542236
0.488922 0.245422 0.704468
0.780060 0.291870 0.757477
0.815491 0.308167 0.760986
0.835846 0.314453 0.761566
0.000000 0.214752 0.463348
0.002533 0.215637 0.465576
0.005066 0.217499 0.467773
0.035431 0.228119 0.538818
0.482483 0.257202 0.706635
0.779968 0.304108 0.759674
0.819580 0.318665 0.763245
0.840149 0.326294 0.765106
0.000000 0.231537 0.469086
0.002533 0.231537 0.472656
0.005066 0.231537 0.473541
0.038818 0.242157 0.510864
0.447845 0.267700 0.705994
0.770660 0.314667 0.759796
0.823456 0.329681 0.768219
0.843231 0.337646 0.768616
0.039276 0.575439 0.680817
0.056763 0.576599 0.682037
0.072784 0.576782 0.682404
0.085907 0.576233 0.682770
0.423889 0.609558 0.774292
0.782806 0.580627 0.844513
0.868439 0.586639 0.835846
0.889282 0.587646 0.833923
0.128113 0.832489 0.837952
0.138306 0.832458 0.837952
0.148102 0.834717 0.838745
0.159241 0.833740 0.840363
0.351837 0.845367 0.870392
0.766541 0.834808 0.905762
0.935394 0.821106 0.897980
0.950592 0.822540 0.894440
0.152740 0.938324 0.899139
0.162079 0.938232 0.899109
0.168457 0.940521 0.901672
0.173676 0.941132 0.902588
0.264374 0.942535 0.908783
0.746155 0.940002 0.937653
0.940247 0.923828 0.937195
0.983551 0.928528 0.939697
0.267822 0.966675 0.907532
0.277771 0.966675 0.907532
0.287048 0.966705 0.908203
0.299347 0.966827 0.907928
0.387238 0.967163 0.911407
0.815491 0.967651 0.939209
0.946686 0.970184 0.957794
0.987396 0.973267 0.963165
