滤镜资源/Professional Luts Collection/Triune-Digital-Cinematic-LUTs/3D LUTs (CUBE)/ALEXA/The Revenant - Alexa.cube
#Created by Benjamin (IWLTBAP) : http://luts.iwltbap.com
#Copyright: (C) Copyright 2016 Triune Films and IWLTBAP
TITLE "Blockbuster LUTs Pack (Alexa Log-C)"
#LUT size
LUT_3D_SIZE 5
#LUT data points
DOMAIN_MIN 0.000000 0.000000 0.000000
DOMAIN_MAX 0.903226 0.903226 0.903226
0.000000 0.000000 0.000000
0.039581 0.005768 0.006653
0.286957 0.063232 0.077576
0.534515 0.126465 0.147736
0.564972 0.132568 0.155334
0.011658 0.111237 0.074341
0.072296 0.109894 0.070129
0.346802 0.100769 0.100647
0.552521 0.132172 0.151611
0.581604 0.138428 0.158630
0.123169 0.471069 0.322235
0.122925 0.470215 0.324646
0.423126 0.534729 0.368195
0.745148 0.457794 0.332977
0.771790 0.437073 0.321869
0.244934 0.830383 0.594116
0.244629 0.829376 0.592957
0.246033 0.833496 0.598358
0.740112 0.927368 0.692902
0.781891 0.928619 0.698639
0.258881 0.871277 0.636566
0.258972 0.871521 0.636932
0.258850 0.871185 0.636414
0.717377 0.981506 0.745575
0.773254 0.989807 0.772461
0.000549 0.007507 0.024933
0.063171 0.009674 0.053741
0.329437 0.076202 0.122070
0.554321 0.131897 0.173035
0.587585 0.138855 0.182312
0.012299 0.112976 0.119995
0.065643 0.101990 0.115417
0.366577 0.104004 0.137756
0.566986 0.137146 0.175140
0.597168 0.142517 0.182220
0.121796 0.466858 0.326782
0.122223 0.468079 0.330566
0.419434 0.530151 0.375641
0.747009 0.452332 0.339264
0.774231 0.428070 0.335114
0.244324 0.828339 0.600037
0.245300 0.831207 0.601227
0.245789 0.832703 0.605774
0.742859 0.931610 0.708130
0.784332 0.930695 0.709656
0.258423 0.869812 0.645630
0.258606 0.870331 0.645508
0.258514 0.870026 0.646027
0.719788 0.981995 0.758514
0.775085 0.988800 0.782837
0.010040 0.100586 0.188690
0.010468 0.103088 0.202148
0.369873 0.125244 0.312256
0.626984 0.168427 0.338806
0.658203 0.176300 0.344482
0.014648 0.125031 0.224823
0.013947 0.121521 0.223694
0.371124 0.137207 0.328796
0.642487 0.177643 0.351532
0.670959 0.182983 0.352783
0.122742 0.466919 0.537415
0.121124 0.462036 0.528503
0.382172 0.509613 0.576202
0.784393 0.436493 0.560242
0.820740 0.409882 0.546356
0.249634 0.841736 0.758545
0.249634 0.841705 0.759827
0.249023 0.839905 0.763977
0.768341 0.950409 0.868652
0.830017 0.959137 0.886047
0.248047 0.836548 0.782349
0.248047 0.836578 0.782318
0.247833 0.835938 0.784332
0.752594 0.953583 0.895264
0.823853 0.967590 0.922394
0.036896 0.201202 0.373047
0.038269 0.204926 0.384766
0.284973 0.238037 0.511108
0.652710 0.259552 0.595551
0.679565 0.260681 0.601654
0.041382 0.213440 0.399323
0.041809 0.214600 0.403015
0.274231 0.243927 0.513702
0.660950 0.268250 0.608917
0.695343 0.268555 0.612732
0.078125 0.335968 0.574615
0.078735 0.337769 0.580780
0.211975 0.344604 0.614777
0.684265 0.329224 0.672241
0.719604 0.314789 0.663574
0.239410 0.809387 0.870087
0.239410 0.809387 0.870087
0.239319 0.809174 0.870087
0.779816 0.941559 0.959900
0.914490 0.977844 0.984650
0.293671 0.824341 0.872589
0.304535 0.826904 0.874603
0.317413 0.830078 0.876709
0.953583 0.988312 0.990417
1.000000 1.000000 1.000000
0.044830 0.223022 0.422058
0.046600 0.227875 0.433258
0.234161 0.259857 0.543610
0.646423 0.288635 0.656433
0.682220 0.292969 0.666290
0.049591 0.235901 0.446411
0.050934 0.239624 0.456787
0.215027 0.263458 0.549500
0.650085 0.297058 0.669922
0.691101 0.302063 0.678955
0.061249 0.271332 0.513489
0.062134 0.274658 0.520264
0.059937 0.259247 0.558868
0.649994 0.315308 0.686981
0.697021 0.319000 0.698029
0.239410 0.809387 0.870117
0.239410 0.809387 0.870117
0.239410 0.809387 0.870117
0.798920 0.940826 0.965027
0.936737 0.970032 0.990112
0.438538 0.860077 0.895569
0.453766 0.863831 0.898041
0.495514 0.873840 0.906219
0.989105 0.997192 0.998047
1.000000 1.000000 1.000000
