滤镜资源/Professional Luts Collection/Triune-Digital-Cinematic-LUTs/3D LUTs (CUBE)/ALEXA/The Matrix - Alexa.cube
#Created by Benjamin (IWLTBAP) : http://luts.iwltbap.com
#Copyright: (C) Copyright 2016 Triune Films and IWLTBAP
TITLE "Blockbuster LUTs Pack (Alexa Log-C)"
#LUT size
LUT_3D_SIZE 32
#LUT data points
0.003540 0.000000 0.007080
0.016144 0.000000 0.007111
0.030914 0.000000 0.007202
0.043243 0.000000 0.007233
0.054504 0.000122 0.007355
0.068878 0.000153 0.011017
0.085205 0.003540 0.014709
0.107544 0.003876 0.018555
0.136475 0.007080 0.022919
0.179657 0.010620 0.029724
0.231750 0.016327 0.036896
0.294312 0.026489 0.046722
0.368103 0.037964 0.057617
0.444031 0.053314 0.067169
0.522797 0.069153 0.079529
0.597534 0.086731 0.091187
0.669922 0.104919 0.103882
0.731628 0.122559 0.116547
0.789948 0.139221 0.134247
0.840759 0.154663 0.148438
0.873138 0.163940 0.160797
0.884460 0.168213 0.166962
0.889832 0.170654 0.170868
0.895477 0.172424 0.174194
0.900726 0.174408 0.176971
0.905304 0.176666 0.179352
0.910004 0.178375 0.181396
0.916107 0.179932 0.183167
0.921509 0.181488 0.184845
0.925751 0.182953 0.186401
0.929413 0.184570 0.188019
0.934204 0.187469 0.189819
0.003540 0.009674 0.007080
0.012238 0.009583 0.010254
0.024719 0.009430 0.007629
0.038483 0.009308 0.010986
0.050079 0.009155 0.010956
0.064026 0.009125 0.014374
0.082184 0.008575 0.015472
0.105591 0.011261 0.019745
0.138214 0.010925 0.024384
0.179077 0.013550 0.029541
0.232025 0.018280 0.036652
0.293701 0.028351 0.046265
0.367615 0.041168 0.056824
0.443512 0.055206 0.066681
0.522980 0.072571 0.078583
0.598724 0.090210 0.090454
0.670685 0.107635 0.103210
0.733124 0.124847 0.115845
0.790558 0.141785 0.132507
0.842102 0.156708 0.147888
0.874237 0.166565 0.160309
0.886078 0.170074 0.166504
0.890228 0.172516 0.170410
0.895874 0.174744 0.173767
0.901703 0.176758 0.176575
0.906677 0.178802 0.178955
0.911591 0.180267 0.181000
0.916382 0.181824 0.182770
0.921509 0.183380 0.184448
0.926422 0.184845 0.186035
0.931000 0.186646 0.187653
0.935822 0.189545 0.189392
0.003540 0.016296 0.007080
0.007629 0.016205 0.007080
0.019348 0.017700 0.010620
0.031525 0.017487 0.012177
0.045746 0.017212 0.015594
0.059174 0.016815 0.018951
0.078674 0.019592 0.019531
0.103180 0.018982 0.023499
0.134552 0.021210 0.024963
0.178284 0.022766 0.031494
0.230927 0.026672 0.038116
0.295074 0.031555 0.045776
0.367004 0.043976 0.056885
0.444061 0.058258 0.067322
0.523193 0.074921 0.077423
0.598755 0.092499 0.089661
0.670898 0.109772 0.101135
0.733734 0.128326 0.115082
0.792084 0.145264 0.130371
0.843445 0.158752 0.147247
0.875824 0.170044 0.159698
0.886658 0.173035 0.165955
0.891815 0.174469 0.169952
0.896118 0.176636 0.173279
0.901703 0.178650 0.176086
0.906677 0.181458 0.178497
0.911621 0.183746 0.180542
0.916534 0.185181 0.182343
0.921509 0.186615 0.183960
0.926422 0.188080 0.185577
0.931396 0.189514 0.187195
0.936340 0.191589 0.188965
0.003540 0.026825 0.010345
0.007812 0.026642 0.010284
0.016602 0.026581 0.010315
0.030334 0.026733 0.012451
0.041748 0.027466 0.017059
0.054901 0.029114 0.021454
0.074799 0.028839 0.023743
0.098816 0.031311 0.026978
0.131226 0.033142 0.029999
0.176117 0.034729 0.032776
0.229736 0.037170 0.039185
0.295593 0.041626 0.048126
0.367371 0.049011 0.056915
0.445007 0.060913 0.066589
0.523315 0.076813 0.076599
0.599152 0.094452 0.087982
0.670715 0.111725 0.099792
0.733551 0.131775 0.114197
0.792908 0.148010 0.128876
0.843933 0.161530 0.146484
0.876556 0.172943 0.159027
0.886871 0.176544 0.165375
0.891815 0.177979 0.168610
0.896790 0.179413 0.171967
0.901703 0.180847 0.174805
0.906677 0.183502 0.177185
0.911621 0.186371 0.179230
0.916534 0.188690 0.181061
0.921509 0.190155 0.182709
0.926422 0.191559 0.184296
0.931396 0.192993 0.185913
0.936340 0.194427 0.187653
0.007080 0.039825 0.015686
0.009186 0.039703 0.014191
0.016327 0.039551 0.014160
0.027039 0.039368 0.014160
0.042419 0.039124 0.015411
0.055237 0.041687 0.020569
0.074036 0.041870 0.024780
0.097015 0.044708 0.028900
0.128448 0.046265 0.032013
0.169037 0.048340 0.037689
0.226685 0.050842 0.040771
0.294708 0.053253 0.047119
0.370148 0.061493 0.056091
0.447144 0.068298 0.065582
0.523712 0.079987 0.075592
0.600159 0.096985 0.086395
0.671143 0.114471 0.099121
0.734283 0.133972 0.113098
0.792725 0.149628 0.128174
0.844299 0.165009 0.145569
0.876495 0.174683 0.158234
0.886871 0.179047 0.164612
0.891815 0.181488 0.167450
0.896790 0.182922 0.169861
0.901703 0.184357 0.172699
0.906677 0.185791 0.175140
0.911621 0.188446 0.177155
0.916901 0.190979 0.178986
0.922668 0.192474 0.180664
0.927551 0.193970 0.182220
0.931519 0.195496 0.183868
0.936340 0.197052 0.185608
0.010620 0.053833 0.021362
0.012756 0.053680 0.019897
0.016083 0.053497 0.017731
0.026093 0.055481 0.017670
0.040131 0.056610 0.017609
0.055664 0.056427 0.021027
0.073944 0.058197 0.026917
0.097565 0.059052 0.031281
0.126495 0.063812 0.036560
0.164124 0.068359 0.040955
0.218750 0.070831 0.047089
0.290253 0.073090 0.049316
0.371216 0.078705 0.055115
0.449829 0.085938 0.064209
0.527466 0.091217 0.074219
0.601044 0.103943 0.084747
0.672089 0.117859 0.097046
0.735870 0.135864 0.111572
0.792389 0.152069 0.126434
0.844849 0.168457 0.144257
0.876526 0.176971 0.157013
0.886993 0.180725 0.163513
0.891937 0.183228 0.166504
0.896881 0.185486 0.168457
0.902039 0.187866 0.170715
0.906769 0.189331 0.172913
0.911743 0.190735 0.174957
0.917358 0.192688 0.176819
0.923706 0.194183 0.178467
0.929352 0.195709 0.180054
0.932953 0.197205 0.181671
0.936432 0.198792 0.183472
0.013641 0.075989 0.027802
0.015686 0.075867 0.026337
0.017731 0.075745 0.024841
0.026581 0.075562 0.024139
0.037994 0.077698 0.020569
0.054108 0.078125 0.023987
0.076813 0.078857 0.025391
0.097900 0.081177 0.032837
0.124542 0.084961 0.042358
0.161957 0.091003 0.047760
0.210052 0.098053 0.054108
0.277222 0.104218 0.056580
0.359985 0.106903 0.058838
0.449402 0.110596 0.065582
0.529938 0.118347 0.072632
0.603516 0.123749 0.083984
0.673767 0.131927 0.094879
0.735870 0.140900 0.109497
0.791870 0.155457 0.124329
0.845428 0.170715 0.142303
0.876556 0.180450 0.153900
0.888428 0.183502 0.160522
0.893372 0.184937 0.164703
0.898834 0.187500 0.167603
0.904053 0.190369 0.169922
0.908600 0.192810 0.171936
0.913269 0.194244 0.173767
0.918091 0.195679 0.175476
0.924255 0.197144 0.177155
0.929962 0.198578 0.178741
0.934387 0.199982 0.180420
0.937866 0.201416 0.182159
0.020966 0.104431 0.035126
0.023010 0.104279 0.035095
0.025055 0.104095 0.035034
0.027069 0.103973 0.034241
0.035858 0.105713 0.031433
0.051941 0.106964 0.027832
0.074646 0.108276 0.027710
0.098694 0.110046 0.031647
0.125305 0.115601 0.042389
0.162140 0.121185 0.051178
0.207520 0.129211 0.058289
0.266235 0.139771 0.065460
0.339874 0.145752 0.070648
0.431000 0.151733 0.072754
0.523285 0.154724 0.078613
0.604401 0.159821 0.085327
0.674896 0.163940 0.095184
0.738190 0.168182 0.107758
0.794708 0.172028 0.124084
0.844788 0.176422 0.139282
0.876373 0.185364 0.151611
0.890167 0.187042 0.156921
0.894806 0.188477 0.161011
0.899750 0.189911 0.164612
0.905273 0.192413 0.167603
0.910217 0.195312 0.170105
0.915131 0.197388 0.171783
0.920074 0.198975 0.173492
0.925049 0.200531 0.175140
0.929962 0.202026 0.176788
0.934937 0.203522 0.178436
0.939697 0.204956 0.180206
0.033936 0.146240 0.047028
0.035950 0.146057 0.046600
0.037994 0.145966 0.045105
0.039978 0.145782 0.043640
0.041962 0.145569 0.043365
0.050018 0.148804 0.039886
0.072296 0.149231 0.036163
0.098785 0.151367 0.036072
0.128784 0.155457 0.039764
0.164307 0.159668 0.052368
0.207184 0.170441 0.065826
0.259888 0.181335 0.076172
0.325439 0.191437 0.086548
0.403534 0.199982 0.092987
0.496124 0.206238 0.094299
0.591370 0.207275 0.095032
0.673157 0.208649 0.097900
0.737335 0.212921 0.108582
0.797119 0.214233 0.123444
0.847351 0.214539 0.138092
0.879608 0.211639 0.148438
0.890442 0.205139 0.154633
0.895355 0.202820 0.157928
0.900299 0.202820 0.160736
0.905273 0.203033 0.163696
0.910217 0.203522 0.166260
0.915131 0.204315 0.168427
0.920074 0.205322 0.170288
0.925049 0.206512 0.171967
0.929962 0.207764 0.173584
0.934937 0.208954 0.175262
0.939850 0.209961 0.177094
0.050446 0.201233 0.060608
0.052490 0.201111 0.059601
0.054535 0.200989 0.058105
0.056549 0.201233 0.057007
0.058563 0.202484 0.056976
0.060547 0.203613 0.056915
0.069641 0.203644 0.053925
0.094818 0.206573 0.049713
0.127625 0.210510 0.046051
0.169006 0.215210 0.049377
0.211243 0.221069 0.061066
0.262238 0.230835 0.079132
0.322723 0.241425 0.096161
0.393127 0.250671 0.106659
0.468994 0.260681 0.116699
0.560272 0.265961 0.118073
0.647644 0.269836 0.122101
0.723999 0.270081 0.123627
0.791840 0.269104 0.128723
0.847748 0.269470 0.137573
0.882690 0.269409 0.148193
0.893951 0.263794 0.153839
0.898895 0.257233 0.157288
0.903870 0.254578 0.160583
0.908783 0.249878 0.163147
0.913727 0.246582 0.164520
0.918701 0.246338 0.166199
0.923615 0.246368 0.168121
0.928589 0.246948 0.169830
0.933502 0.247711 0.171509
0.938477 0.248322 0.173187
0.943420 0.248413 0.175018
0.072479 0.268982 0.076019
0.074524 0.268890 0.075989
0.075409 0.268768 0.075989
0.076782 0.269470 0.075195
0.078827 0.270782 0.073730
0.080841 0.271973 0.072388
0.082855 0.271759 0.072327
0.092102 0.271423 0.069305
0.125214 0.275299 0.065094
0.165771 0.280670 0.057892
0.216309 0.283813 0.057648
0.270325 0.290619 0.075287
0.327515 0.299866 0.096558
0.390778 0.308746 0.114746
0.463104 0.320251 0.128418
0.538696 0.330780 0.138550
0.616486 0.337128 0.145813
0.694122 0.341614 0.150360
0.764191 0.344147 0.154633
0.830750 0.342407 0.156647
0.876953 0.338074 0.157318
0.893707 0.332550 0.158203
0.898895 0.328278 0.160248
0.903870 0.324982 0.162323
0.909454 0.322388 0.164185
0.915710 0.321808 0.165924
0.922119 0.321899 0.167542
0.927155 0.322510 0.169067
0.932129 0.323486 0.170563
0.936401 0.324554 0.172089
0.939911 0.325562 0.173523
0.943420 0.326263 0.175049
0.093262 0.343506 0.092621
0.095306 0.343445 0.092590
0.097382 0.343414 0.092590
0.099396 0.343292 0.092407
0.101440 0.343201 0.090942
0.103455 0.343109 0.089447
0.105469 0.342957 0.088959
0.107452 0.342743 0.088928
0.118225 0.345795 0.085297
0.162842 0.348633 0.078125
0.215942 0.354828 0.067932
0.275269 0.360168 0.069916
0.338074 0.366882 0.089905
0.401917 0.373993 0.116272
0.465912 0.385162 0.136993
0.538208 0.394989 0.153412
0.609955 0.402893 0.164856
0.674500 0.412445 0.174500
0.738983 0.418030 0.181000
0.802582 0.418945 0.185760
0.849304 0.420471 0.187073
0.866882 0.416138 0.188477
0.873840 0.412811 0.188293
0.881989 0.409515 0.188049
0.889679 0.407440 0.187866
0.895447 0.405548 0.187744
0.901245 0.404510 0.187988
0.907990 0.405121 0.189178
0.914673 0.406097 0.190491
0.920013 0.406677 0.191071
0.925079 0.406281 0.191040
0.931091 0.405731 0.190979
0.120361 0.417328 0.113251
0.122375 0.418579 0.111847
0.124451 0.420044 0.110382
0.125732 0.420593 0.109650
0.126343 0.420563 0.109650
0.127045 0.420441 0.109619
0.129089 0.420288 0.109619
0.131165 0.420135 0.109589
0.133026 0.419800 0.108490
0.152283 0.422791 0.102051
0.212341 0.427551 0.092712
0.275146 0.434448 0.080750
0.344818 0.439178 0.082733
0.413177 0.445557 0.110168
0.478760 0.453735 0.136292
0.543976 0.460175 0.159882
0.605408 0.468079 0.176941
0.671906 0.475494 0.191223
0.730042 0.479828 0.200775
0.785278 0.485870 0.208923
0.830627 0.487427 0.214294
0.847473 0.485870 0.215820
0.854462 0.484314 0.215088
0.861359 0.483551 0.214081
0.868103 0.482758 0.215088
0.874756 0.481567 0.216278
0.881317 0.480743 0.215973
0.886444 0.480286 0.215759
0.891510 0.481079 0.216705
0.897125 0.482361 0.218079
0.903595 0.483063 0.218964
0.910034 0.482697 0.218811
0.144012 0.494690 0.130371
0.146057 0.494629 0.130371
0.148102 0.494568 0.130341
0.150146 0.494507 0.130341
0.152222 0.494476 0.130341
0.154236 0.494385 0.129608
0.156250 0.494293 0.128143
0.158264 0.494080 0.126740
0.159363 0.493866 0.126678
0.159821 0.493408 0.126587
0.200287 0.499237 0.115845
0.272003 0.502411 0.105072
0.343597 0.509521 0.094238
0.420929 0.513733 0.097565
0.491089 0.517212 0.129822
0.554291 0.522400 0.159698
0.614014 0.528137 0.182617
0.671265 0.533722 0.200195
0.726715 0.538605 0.213684
0.782684 0.542603 0.226410
0.827057 0.544830 0.233795
0.844421 0.545258 0.235657
0.849365 0.543701 0.235291
0.854340 0.543793 0.236328
0.859253 0.544159 0.237488
0.864227 0.544708 0.238739
0.869446 0.545532 0.239746
0.875885 0.545288 0.239594
0.882324 0.545074 0.239471
0.887543 0.544952 0.240631
0.892487 0.544739 0.242035
0.897400 0.545074 0.243378
0.168610 0.558716 0.150940
0.170715 0.558716 0.150940
0.172241 0.558655 0.150421
0.173645 0.558624 0.149750
0.175720 0.558594 0.149750
0.177795 0.558563 0.149628
0.179779 0.558472 0.148132
0.181793 0.558319 0.147308
0.183807 0.559052 0.147278
0.185730 0.560211 0.147095
0.191803 0.561005 0.143585
0.258698 0.563873 0.125763
0.337616 0.570099 0.116516
0.418152 0.573334 0.107666
0.496155 0.578308 0.117737
0.564270 0.580261 0.154144
0.621674 0.584076 0.181915
0.679138 0.590363 0.204956
0.731323 0.592377 0.222382
0.778137 0.599457 0.238983
0.823730 0.601135 0.249542
0.843811 0.602570 0.252197
0.850555 0.600922 0.253387
0.856995 0.601318 0.254517
0.862823 0.601898 0.255737
0.867767 0.601166 0.256989
0.872711 0.600647 0.258331
0.877625 0.600342 0.258545
0.882599 0.600189 0.258453
0.887543 0.600647 0.258972
0.892487 0.601929 0.260376
0.897400 0.603210 0.261780
0.194305 0.618286 0.171417
0.196350 0.618286 0.171417
0.198456 0.618286 0.171417
0.200500 0.618225 0.171417
0.202545 0.618195 0.170807
0.204590 0.618164 0.169495
0.206665 0.618103 0.169464
0.208649 0.617950 0.169403
0.210663 0.617828 0.168457
0.212616 0.618408 0.167725
0.214294 0.619537 0.167664
0.239502 0.620178 0.158142
0.327728 0.626526 0.142609
0.410614 0.632690 0.128235
0.492340 0.635132 0.125580
0.565826 0.637299 0.143127
0.630737 0.639374 0.176270
0.684052 0.644684 0.203064
0.735565 0.648407 0.227661
0.785126 0.651306 0.247375
0.822754 0.656372 0.259003
0.845551 0.658173 0.265778
0.852905 0.656738 0.267609
0.857849 0.655548 0.268799
0.862823 0.654694 0.270020
0.867767 0.655579 0.271301
0.872711 0.656708 0.272675
0.877625 0.656982 0.274048
0.882599 0.656830 0.275452
0.887543 0.657043 0.276855
0.892487 0.658386 0.278259
0.897400 0.659698 0.279663
0.220825 0.676422 0.192535
0.222900 0.676422 0.192535
0.225006 0.676422 0.192535
0.227020 0.677155 0.192535
0.229065 0.677063 0.192474
0.231140 0.677063 0.192383
0.233154 0.676971 0.191711
0.235199 0.676910 0.191711
0.237213 0.676758 0.191467
0.239227 0.676575 0.189941
0.240906 0.676239 0.188354
0.241302 0.675751 0.187927
0.303375 0.680420 0.168304
0.398712 0.684998 0.157867
0.482819 0.689850 0.144958
0.562408 0.693512 0.144714
0.631226 0.695587 0.168243
0.690308 0.696320 0.200287
0.742096 0.699646 0.227081
0.787018 0.704987 0.248413
0.829071 0.706787 0.265991
0.855194 0.708832 0.275452
0.863495 0.708008 0.278320
0.868500 0.708679 0.281189
0.873291 0.709412 0.283508
0.876678 0.708954 0.284943
0.880127 0.708588 0.286407
0.884705 0.709473 0.287842
0.889679 0.710846 0.289276
0.894073 0.711578 0.290680
0.897583 0.711487 0.292145
0.901031 0.711304 0.293579
0.246887 0.728302 0.215424
0.248962 0.729736 0.215424
0.251068 0.731171 0.215424
0.253082 0.731445 0.215424
0.255157 0.731415 0.215393
0.257233 0.731415 0.214905
0.259216 0.731323 0.213440
0.261261 0.731232 0.211945
0.262421 0.731140 0.211792
0.262939 0.730927 0.211761
0.263672 0.730682 0.210938
0.265594 0.730255 0.209290
0.286743 0.730438 0.203674
0.378937 0.736969 0.182281
0.469330 0.742340 0.169434
0.552979 0.744904 0.163605
0.626160 0.747162 0.166534
0.688324 0.748840 0.189362
0.744507 0.750275 0.220764
0.794403 0.753632 0.246399
0.832489 0.756439 0.267365
0.861267 0.757935 0.281219
0.874268 0.757904 0.287872
0.879089 0.758698 0.289154
0.883270 0.758881 0.291138
0.886719 0.758484 0.294037
0.890411 0.758392 0.296631
0.895325 0.759705 0.298035
0.900269 0.761108 0.299438
0.904114 0.761322 0.300873
0.907593 0.761230 0.302277
0.911072 0.761597 0.303680
0.272400 0.781036 0.237030
0.274445 0.780975 0.237000
0.276520 0.780975 0.237000
0.278595 0.780975 0.237000
0.280640 0.780945 0.237000
0.282715 0.780914 0.236847
0.284760 0.780853 0.235382
0.286774 0.780762 0.235168
0.288818 0.780701 0.235168
0.290833 0.781189 0.234497
0.292542 0.782166 0.232910
0.292999 0.781891 0.231445
0.293427 0.781525 0.231323
0.355621 0.784576 0.214813
0.453156 0.789856 0.196808
0.538696 0.793976 0.184845
0.617462 0.793915 0.181793
0.685120 0.796295 0.188080
0.744873 0.798615 0.213501
0.796570 0.800873 0.243652
0.837250 0.803406 0.265991
0.867615 0.806061 0.283478
0.886627 0.806335 0.294647
0.891998 0.807220 0.297791
0.895233 0.806641 0.300537
0.898560 0.806244 0.303314
0.903198 0.807251 0.306152
0.906769 0.807220 0.308960
0.910278 0.807159 0.311859
0.914398 0.807068 0.314697
0.919342 0.807037 0.317566
0.924255 0.806946 0.318939
0.296844 0.828339 0.258087
0.298889 0.828339 0.258087
0.300964 0.828339 0.258087
0.303040 0.828339 0.258087
0.305115 0.828339 0.258087
0.307159 0.828278 0.257874
0.309204 0.828247 0.257874
0.311249 0.828217 0.257843
0.313263 0.828125 0.256927
0.315308 0.828033 0.255402
0.317017 0.827820 0.254120
0.317505 0.827576 0.253937
0.317932 0.827240 0.253754
0.337860 0.829773 0.246429
0.427185 0.833405 0.222931
0.522278 0.836487 0.211182
0.605164 0.839142 0.202942
0.676270 0.841919 0.202515
0.739868 0.844574 0.210571
0.793396 0.847015 0.236664
0.840424 0.846252 0.264740
0.875854 0.848206 0.289948
0.900848 0.848358 0.310211
0.908234 0.847839 0.314697
0.913055 0.847443 0.317352
0.916595 0.848511 0.321411
0.919983 0.849823 0.325684
0.924164 0.850403 0.328613
0.929138 0.850342 0.331482
0.933380 0.850311 0.334351
0.936890 0.850281 0.337219
0.940338 0.850159 0.340057
0.318481 0.869110 0.279572
0.320557 0.869110 0.279572
0.322632 0.869110 0.279572
0.324677 0.869110 0.279480
0.326752 0.869080 0.279480
0.328796 0.869049 0.279419
0.330841 0.869019 0.277985
0.332886 0.868958 0.276489
0.334930 0.868896 0.275909
0.336975 0.868805 0.275879
0.338684 0.868622 0.275513
0.339203 0.868439 0.273987
0.339630 0.868103 0.272369
0.341034 0.867706 0.270691
0.404724 0.870758 0.257141
0.507446 0.875000 0.234497
0.592987 0.876709 0.224762
0.670990 0.879486 0.225830
0.737762 0.881256 0.228485
0.797852 0.881378 0.244934
0.848328 0.881775 0.277924
0.885864 0.881775 0.305237
0.912079 0.882782 0.325928
0.924957 0.882263 0.336792
0.928284 0.881927 0.339447
0.932526 0.882568 0.342194
0.937408 0.883881 0.344971
0.941010 0.883942 0.347778
0.944519 0.883881 0.350616
0.948669 0.884521 0.354126
0.952484 0.884827 0.357330
0.955902 0.884705 0.360077
0.338135 0.896637 0.297821
0.340210 0.896637 0.297821
0.342285 0.896637 0.297821
0.344330 0.896637 0.297028
0.346375 0.896606 0.295563
0.348480 0.896729 0.294250
0.350525 0.898010 0.294250
0.352570 0.897980 0.294250
0.354614 0.897980 0.293335
0.356659 0.897949 0.291840
0.358459 0.897919 0.290649
0.359344 0.897858 0.290588
0.361328 0.897766 0.290497
0.363312 0.897675 0.289398
0.398407 0.899780 0.283203
0.498199 0.903229 0.260773
0.592865 0.906555 0.254456
0.677460 0.906128 0.262787
0.749268 0.906372 0.273621
0.809357 0.908569 0.289337
0.860535 0.908325 0.309479
0.895569 0.908569 0.327728
0.922394 0.910645 0.342072
0.938385 0.910187 0.357330
0.943848 0.910156 0.360992
0.948761 0.910004 0.363678
0.953339 0.909882 0.366699
0.956818 0.911163 0.370972
0.960297 0.912567 0.375275
0.963806 0.912872 0.379120
0.967285 0.912781 0.383362
0.970703 0.912689 0.387604
0.351471 0.905975 0.307800
0.353546 0.905975 0.307800
0.355591 0.905975 0.307800
0.357666 0.905975 0.307037
0.359741 0.905975 0.305573
0.361816 0.905975 0.304260
0.363892 0.906311 0.304260
0.365936 0.907745 0.304260
0.367126 0.908295 0.304260
0.368896 0.908295 0.303131
0.370941 0.908295 0.301697
0.372589 0.908295 0.300751
0.373199 0.908295 0.300751
0.374817 0.908295 0.299713
0.394501 0.909515 0.297180
0.486237 0.911835 0.284241
0.588654 0.915375 0.276062
0.677826 0.915344 0.283051
0.752747 0.918732 0.294464
0.813446 0.918579 0.308197
0.862000 0.919434 0.325256
0.899048 0.921814 0.340973
0.927338 0.922607 0.355530
0.945374 0.925964 0.369446
0.955841 0.925842 0.376312
0.959320 0.925751 0.380524
0.962799 0.925720 0.384766
0.966278 0.927002 0.389038
0.969788 0.928436 0.393372
0.973297 0.929199 0.397644
0.976807 0.929169 0.401947
0.980255 0.929138 0.406189
0.357208 0.910919 0.312134
0.359283 0.910919 0.312134
0.361389 0.910919 0.312134
0.363434 0.910919 0.311371
0.365509 0.910919 0.309906
0.367584 0.910919 0.308594
0.369629 0.910919 0.308594
0.371735 0.911255 0.308594
0.372894 0.911804 0.308594
0.373535 0.911804 0.308594
0.375275 0.911804 0.307495
0.377380 0.911804 0.306030
0.378967 0.911804 0.305054
0.380615 0.911804 0.304047
0.382690 0.911804 0.302612
0.460968 0.915344 0.293549
0.580688 0.918884 0.284729
0.671692 0.918884 0.291077
0.747223 0.921539 0.301147
0.812012 0.922424 0.315460
0.860809 0.925079 0.331116
0.898010 0.925964 0.346375
0.926178 0.928619 0.362671
0.944519 0.931519 0.373657
0.958984 0.932159 0.382965
0.963043 0.932159 0.387939
0.966522 0.932159 0.392273
0.970032 0.933472 0.396545
0.973541 0.934906 0.400879
0.977051 0.935669 0.405212
0.980560 0.935669 0.409515
0.984070 0.935669 0.413818
0.362976 0.915314 0.316986
0.365051 0.915314 0.316986
0.367096 0.915314 0.316986
0.369171 0.915863 0.316223
0.371246 0.915863 0.314789
0.373322 0.915863 0.313446
0.375397 0.915863 0.313446
0.377441 0.915863 0.313446
0.379181 0.915863 0.313446
0.379822 0.915863 0.313446
0.380676 0.915863 0.313202
0.382751 0.915863 0.311768
0.384827 0.915863 0.310333
0.386902 0.915863 0.309479
0.388947 0.915863 0.308014
0.452393 0.918854 0.302826
0.575989 0.922394 0.292755
0.669586 0.922943 0.296844
0.745880 0.925934 0.307465
0.808838 0.926483 0.321838
0.859711 0.929443 0.336853
0.896942 0.929993 0.352234
0.924927 0.933563 0.366699
0.945129 0.934753 0.377686
0.961121 0.937073 0.388367
0.966461 0.937073 0.394257
0.969940 0.937073 0.398529
0.973480 0.937836 0.402832
0.976959 0.939301 0.407196
0.979919 0.940643 0.413635
0.983429 0.940643 0.417999
0.986938 0.940643 0.422302
0.368713 0.918823 0.322754
0.370789 0.918823 0.322754
0.372894 0.918823 0.322754
0.374939 0.919617 0.321960
0.377014 0.920807 0.320526
0.379089 0.920807 0.319214
0.381134 0.920807 0.319214
0.383240 0.920807 0.319214
0.385284 0.920807 0.319214
0.387024 0.920807 0.319214
0.387878 0.920807 0.319000
0.389984 0.920807 0.317535
0.392029 0.920807 0.316101
0.394104 0.920807 0.315674
0.396179 0.920807 0.315216
0.455200 0.922363 0.308624
0.573029 0.925903 0.299957
0.669983 0.927887 0.305511
0.746582 0.929443 0.316132
0.810669 0.931427 0.327850
0.860504 0.932983 0.343048
0.898102 0.934967 0.358521
0.926086 0.938507 0.372162
0.947479 0.938507 0.383270
0.962250 0.942047 0.394531
0.970764 0.942047 0.401459
0.974274 0.942047 0.405762
0.977783 0.942047 0.410034
0.981293 0.942810 0.414398
0.984131 0.944244 0.421326
0.986328 0.945587 0.430969
0.989807 0.945587 0.435242
0.374481 0.922333 0.328491
0.376556 0.922333 0.328491
0.378601 0.922333 0.328491
0.380676 0.923096 0.327728
0.382751 0.924561 0.326294
0.384827 0.925781 0.324951
0.386902 0.925781 0.324951
0.388947 0.925781 0.324951
0.391022 0.925781 0.324951
0.393097 0.925781 0.324951
0.395050 0.925781 0.324707
0.397125 0.925781 0.323273
0.399200 0.925781 0.321838
0.401245 0.925781 0.321411
0.403351 0.925781 0.321411
0.459351 0.925873 0.314331
0.572815 0.929413 0.307159
0.672577 0.932831 0.314117
0.748932 0.932953 0.322601
0.813385 0.936371 0.335327
0.862457 0.936432 0.349518
0.900299 0.939911 0.365082
0.929047 0.943451 0.378235
0.950470 0.943451 0.389343
0.964294 0.946106 0.400696
0.973389 0.946991 0.408356
0.978577 0.946991 0.412933
0.982086 0.946991 0.417236
0.985596 0.946991 0.421539
0.988434 0.947754 0.428528
0.990509 0.949188 0.438599
0.992706 0.950500 0.448181
0.382843 0.927155 0.335571
0.384918 0.927155 0.335571
0.386993 0.927155 0.335571
0.389069 0.927155 0.334778
0.391144 0.928040 0.333344
0.393097 0.929382 0.332001
0.393951 0.929382 0.332001
0.396027 0.929382 0.332001
0.398102 0.929382 0.331116
0.400146 0.929382 0.330688
0.402222 0.929382 0.330688
0.404327 0.929382 0.330322
0.406372 0.929382 0.328888
0.408447 0.929382 0.327454
0.410492 0.929382 0.327179
0.464539 0.930695 0.321411
0.577881 0.934204 0.314331
