滤镜资源/Professional Luts Collection/Triune-Digital-Cinematic-LUTs/3D LUTs (CUBE)/ALEXA/The Walking Dead - Alexa.cube
#Created by Benjamin (IWLTBAP) : http://luts.iwltbap.com
#Copyright: (C) Copyright 2016 Triune Films and IWLTBAP
TITLE "Blockbuster LUTs Pack (Alexa Log-C)"
#LUT size
LUT_3D_SIZE 32
#LUT data points
0.011322 0.012421 0.017670
0.022644 0.012238 0.017059
0.036804 0.012756 0.017090
0.059784 0.015015 0.019104
0.089478 0.018585 0.022797
0.123993 0.023407 0.027405
0.162872 0.028564 0.032623
0.200867 0.033447 0.037964
0.237976 0.038544 0.043884
0.277618 0.044373 0.051056
0.337769 0.053040 0.060974
0.413727 0.064697 0.074524
0.493500 0.077606 0.089355
0.564392 0.090240 0.102661
0.631622 0.103149 0.115143
0.694275 0.116974 0.127991
0.754486 0.127777 0.146271
0.814331 0.139435 0.168488
0.869324 0.149841 0.188812
0.917725 0.156921 0.205109
0.935760 0.159119 0.215912
0.941376 0.159119 0.221954
0.944000 0.158997 0.226227
0.946686 0.158844 0.229553
0.949402 0.158844 0.232147
0.952179 0.158875 0.234100
0.954987 0.159027 0.235718
0.957764 0.159210 0.236816
0.960449 0.159393 0.237701
0.963135 0.159576 0.238403
0.965851 0.159760 0.239227
0.968567 0.159973 0.240234
0.012787 0.023254 0.017944
0.020935 0.023102 0.017761
0.033417 0.022858 0.017212
0.054199 0.024292 0.018402
0.086029 0.027710 0.022034
0.120758 0.031830 0.026672
0.160004 0.036316 0.031860
0.201172 0.040741 0.037323
0.241974 0.045044 0.043610
0.278961 0.049011 0.050446
0.337585 0.056396 0.060272
0.413727 0.067932 0.073792
0.493134 0.080841 0.088501
0.562866 0.095276 0.101227
0.630280 0.107910 0.113739
0.693329 0.121582 0.126648
0.753326 0.132263 0.144440
0.813232 0.143890 0.166382
0.868225 0.154327 0.186707
0.918030 0.162323 0.204376
0.935944 0.164612 0.215302
0.941559 0.164642 0.221375
0.944153 0.164520 0.225677
0.946838 0.164429 0.229065
0.949615 0.164490 0.231720
0.952393 0.164612 0.233704
0.955170 0.164764 0.235260
0.957886 0.164917 0.236328
0.960571 0.165070 0.237183
0.963287 0.165253 0.238037
0.965973 0.165466 0.238800
0.968689 0.165619 0.239777
0.013611 0.034973 0.018250
0.019592 0.034851 0.018188
0.030212 0.034485 0.017731
0.045868 0.034363 0.017212
0.080078 0.037842 0.020905
0.116089 0.041962 0.025665
0.156250 0.046539 0.031158
0.199188 0.051178 0.036896
0.245667 0.056091 0.043549
0.284515 0.059967 0.050201
0.339478 0.065155 0.059814
0.414093 0.073029 0.073059
0.491943 0.085114 0.087311
0.561340 0.100159 0.099792
0.628845 0.112457 0.112305
0.692444 0.126160 0.125275
0.752228 0.136627 0.142334
0.811981 0.148346 0.164154
0.867004 0.158752 0.184479
0.917572 0.167236 0.202881
0.936066 0.170074 0.214600
0.941742 0.170074 0.220734
0.944336 0.169952 0.225067
0.947052 0.169922 0.228424
0.949768 0.169983 0.231079
0.952515 0.170074 0.233124
0.955322 0.170258 0.234650
0.958038 0.170441 0.235809
0.960724 0.170624 0.236664
0.963440 0.170837 0.237427
0.966125 0.171021 0.238281
0.968811 0.171265 0.239288
0.013733 0.049194 0.018402
0.017334 0.049072 0.018402
0.027771 0.049042 0.018341
0.040588 0.047577 0.017822
0.066284 0.048279 0.019012
0.107239 0.052795 0.023956
0.149841 0.057587 0.030029
0.195526 0.062592 0.036377
0.244293 0.067749 0.043304
0.286224 0.072052 0.050079
0.339935 0.079041 0.058838
0.413422 0.086945 0.071411
0.489380 0.095978 0.084991
0.559631 0.104797 0.098236
0.627563 0.116913 0.110779
0.691406 0.130676 0.123779
0.750946 0.141052 0.140167
0.810760 0.152588 0.161865
0.865936 0.163055 0.182251
0.916412 0.171600 0.200745
0.936249 0.175507 0.213745
0.941925 0.175507 0.220001
0.944550 0.175354 0.224335
0.947205 0.175293 0.227722
0.949921 0.175415 0.230408
0.952698 0.175537 0.232483
0.955475 0.175720 0.233978
0.958191 0.175873 0.235199
0.960876 0.176117 0.236023
0.963593 0.176331 0.236816
0.966248 0.176514 0.237610
0.968994 0.176727 0.238647
0.013885 0.071899 0.018677
0.016907 0.071869 0.018707
0.025116 0.072083 0.018768
0.036621 0.071747 0.018646
0.052612 0.070770 0.018097
0.090454 0.071259 0.020020
0.138000 0.075653 0.026672
0.186676 0.080566 0.033752
0.239227 0.085480 0.041534
0.286011 0.092346 0.048584
0.338531 0.099884 0.056671
0.410553 0.106812 0.068298
0.486420 0.114532 0.081879
0.556335 0.118073 0.095306
0.626129 0.122345 0.109039
0.690369 0.135040 0.122162
0.749634 0.145294 0.137756
0.809448 0.156769 0.159210
0.864594 0.167358 0.179504
0.915100 0.175873 0.198212
0.935120 0.179901 0.211395
0.942108 0.181000 0.218872
0.944733 0.180878 0.223419
0.947388 0.180786 0.226868
0.950104 0.180878 0.229584
0.952881 0.181030 0.231659
0.955627 0.181183 0.233215
0.958313 0.181366 0.234375
0.961060 0.181488 0.235260
0.963715 0.181763 0.235992
0.966431 0.181946 0.236816
0.969086 0.182129 0.237823
0.013550 0.094513 0.018921
0.016418 0.094543 0.018890
0.021118 0.094635 0.018829
0.032196 0.095001 0.018677
0.046722 0.094330 0.018311
0.074738 0.093506 0.018250
0.118500 0.094971 0.021698
0.172089 0.100342 0.029907
0.229126 0.105865 0.038605
0.283386 0.113190 0.046753
0.336121 0.121552 0.054749
0.407806 0.129517 0.065338
0.481964 0.136963 0.077911
0.550751 0.140198 0.091064
0.622314 0.141235 0.105255
0.688477 0.144012 0.119568
0.748077 0.149384 0.134399
0.807800 0.160767 0.155762
0.863129 0.171417 0.176239
0.913635 0.179993 0.194977
0.933807 0.184113 0.208344
0.941010 0.185364 0.216064
0.944672 0.186066 0.221588
0.947571 0.186218 0.225342
0.950256 0.186279 0.228149
0.953033 0.186401 0.230194
0.955780 0.186646 0.231812
0.958466 0.186798 0.232971
0.961151 0.187042 0.233826
0.963867 0.187256 0.234650
0.966553 0.187439 0.235474
0.969208 0.187622 0.236572
0.013306 0.119415 0.019501
0.016083 0.119476 0.019348
0.018921 0.119507 0.019226
0.026306 0.119781 0.019043
0.038879 0.120117 0.018677
0.057709 0.119537 0.018097
0.097809 0.118896 0.018219
0.148865 0.121216 0.024231
0.210327 0.127777 0.033844
0.274506 0.135040 0.043365
0.329651 0.144440 0.051727
0.402527 0.153870 0.062164
0.476288 0.161133 0.073608
0.545715 0.166229 0.085938
0.615784 0.169556 0.099640
0.682892 0.170410 0.113953
0.743469 0.166229 0.127869
0.805206 0.167542 0.150391
0.861206 0.175262 0.171570
0.911865 0.183899 0.190613
0.932373 0.188232 0.204376
0.939667 0.189575 0.212280
0.943268 0.190308 0.217773
0.946777 0.190979 0.222229
0.950073 0.191559 0.225616
0.953186 0.191986 0.228149
0.955963 0.192200 0.229767
0.958618 0.192383 0.230896
0.961334 0.192566 0.231750
0.963989 0.192780 0.232513
0.966705 0.192963 0.233429
0.969330 0.193115 0.234436
0.013306 0.146637 0.020264
0.016113 0.146759 0.020233
0.018951 0.146851 0.020203
0.021729 0.146912 0.020081
0.030914 0.147278 0.019623
0.046692 0.147919 0.019043
0.077301 0.147766 0.018219
0.124786 0.147308 0.018188
0.184265 0.150574 0.027527
0.256287 0.158356 0.038452
0.320862 0.168427 0.048035
0.395233 0.179321 0.058716
0.467712 0.186890 0.069489
0.538239 0.192535 0.080475
0.606293 0.197449 0.092499
0.672241 0.201691 0.106079
0.733917 0.202209 0.119415
0.795746 0.199524 0.139435
0.855713 0.194794 0.162476
0.908417 0.193268 0.183105
0.930237 0.193939 0.198242
0.938080 0.193542 0.206909
0.941742 0.194366 0.212708
0.945251 0.195068 0.217285
0.948578 0.195618 0.220764
0.951813 0.196198 0.223450
0.954865 0.196625 0.225403
0.957764 0.197021 0.226746
0.960571 0.197388 0.227692
0.963379 0.197723 0.228638
0.966217 0.198059 0.229645
0.969116 0.198456 0.230927
0.013214 0.177460 0.020355
0.015991 0.177612 0.020386
0.018829 0.177826 0.020386
0.021637 0.178009 0.020386
0.024414 0.178101 0.020386
0.035400 0.178802 0.020325
0.056061 0.179260 0.019653
0.099213 0.179291 0.018707
0.155426 0.178711 0.019409
0.226196 0.183502 0.032349
0.306671 0.194214 0.043640
0.385986 0.205933 0.054871
0.459412 0.214264 0.065521
0.529480 0.220428 0.075928
0.594879 0.225586 0.085999
0.658112 0.230530 0.096283
0.720337 0.235229 0.109100
0.779358 0.237335 0.125061
0.837311 0.237671 0.144440
0.891876 0.233887 0.164490
0.920685 0.223724 0.181854
0.931702 0.214447 0.194153
0.936768 0.211060 0.201752
0.940826 0.210205 0.207123
0.944580 0.209381 0.211243
0.948029 0.208893 0.214233
0.951324 0.208649 0.216492
0.954315 0.208496 0.217865
0.957245 0.208527 0.218964
0.960114 0.208649 0.219940
0.963043 0.208740 0.221039
0.966003 0.208618 0.222443
0.014923 0.214111 0.023224
0.017609 0.214325 0.023193
0.020355 0.214630 0.023163
0.023041 0.214874 0.023163
0.025787 0.215027 0.023132
0.028534 0.215149 0.023102
0.040466 0.216034 0.022491
0.069672 0.215973 0.020142
0.124725 0.215027 0.019409
0.192566 0.214325 0.020844
0.280121 0.222015 0.037506
0.370239 0.234619 0.050018
0.449982 0.244690 0.061218
0.520813 0.252533 0.071411
0.585541 0.257599 0.080963
0.645233 0.261261 0.089539
0.706085 0.267059 0.099030
0.763184 0.271698 0.111115
0.818817 0.275635 0.127563
0.869965 0.277039 0.144806
0.902069 0.275299 0.158386
0.912506 0.270477 0.167358
0.918213 0.265137 0.174164
0.923553 0.260345 0.179901
0.928589 0.256378 0.184845
0.933136 0.253326 0.188568
0.937103 0.251129 0.191132
0.940643 0.249939 0.192993
0.943848 0.249329 0.194275
0.946960 0.249023 0.195312
0.950165 0.248566 0.196594
0.953430 0.247528 0.198181
0.019196 0.255280 0.029114
0.021881 0.255493 0.029205
0.024567 0.255676 0.029236
0.027191 0.255920 0.029297
0.029938 0.256165 0.029449
0.032684 0.256348 0.029602
0.035309 0.256439 0.029602
0.047424 0.257294 0.029541
0.085632 0.257446 0.026520
0.157318 0.259796 0.027557
0.240784 0.262756 0.028961
0.343018 0.272705 0.043823
0.431061 0.284454 0.055756
0.507019 0.293823 0.065979
0.575195 0.300537 0.075684
0.633972 0.303436 0.084198
0.689850 0.306976 0.092041
0.746582 0.313293 0.102234
0.800995 0.318085 0.113068
0.851959 0.320129 0.125366
0.886688 0.320435 0.136078
0.896729 0.318420 0.143372
0.901733 0.316071 0.149506
0.906403 0.314178 0.154572
0.910645 0.312805 0.158478
0.914490 0.311920 0.161438
0.918030 0.311462 0.163483
0.921356 0.311340 0.164917
0.924530 0.311371 0.165894
0.927643 0.311523 0.166748
0.930817 0.311584 0.167664
0.934052 0.311462 0.169006
0.023346 0.305664 0.033813
0.026001 0.306183 0.033936
0.028656 0.306610 0.033997
0.031311 0.306946 0.034088
0.033966 0.307251 0.034180
0.036621 0.307617 0.034271
0.039246 0.307922 0.034332
0.041840 0.308197 0.034332
0.055481 0.309998 0.034332
0.102997 0.312775 0.033417
0.193298 0.317688 0.037811
0.305420 0.321442 0.037903
0.405518 0.331787 0.055786
0.487030 0.340424 0.062164
0.559235 0.347900 0.070618
0.623993 0.352356 0.079590
0.679230 0.355377 0.089111
0.731537 0.357910 0.097931
0.785095 0.363037 0.106903
0.834808 0.365417 0.114960
0.871735 0.365784 0.121124
0.882935 0.364319 0.124054
0.887451 0.362732 0.127350
0.891785 0.361633 0.130737
0.895660 0.360931 0.133392
0.899323 0.360565 0.135376
0.902771 0.360474 0.136871
0.906036 0.360626 0.137909
0.909241 0.360870 0.138672
0.912415 0.361267 0.139343
0.915619 0.361542 0.140106
0.918854 0.361725 0.141052
0.028503 0.360107 0.039215
0.031128 0.360535 0.039307
0.033783 0.361115 0.039429
0.036407 0.361511 0.039520
0.039093 0.362000 0.039642
0.041687 0.362488 0.039734
0.044250 0.362854 0.039734
0.046875 0.363190 0.039795
0.049500 0.363464 0.039948
0.073486 0.367340 0.040375
0.127899 0.371918 0.039642
0.252136 0.378143 0.048187
0.370392 0.381348 0.045868
0.461517 0.389893 0.065277
0.540649 0.397034 0.071289
0.611481 0.403351 0.078888
0.671387 0.407532 0.086548
0.722443 0.407593 0.094299
0.772095 0.408936 0.102539
0.820007 0.411316 0.109833
0.859497 0.413086 0.115936
0.872040 0.412048 0.117950
0.875946 0.410614 0.118683
0.879700 0.409668 0.119354
0.883362 0.408997 0.119995
0.886993 0.408752 0.120636
0.890442 0.408722 0.121185
0.893860 0.408936 0.121704
0.897247 0.409271 0.122192
0.900574 0.409668 0.122650
0.903870 0.409973 0.123108
0.907135 0.410217 0.123535
0.034393 0.414276 0.043732
0.037048 0.414642 0.043884
0.039703 0.415100 0.044037
0.042328 0.415558 0.044159
0.044952 0.415955 0.044250
0.047577 0.416351 0.044373
0.050171 0.416687 0.044495
0.052734 0.417023 0.044525
0.055298 0.417328 0.044586
0.057861 0.417450 0.044647
0.101593 0.424347 0.044495
0.180176 0.426514 0.049194
0.327545 0.435181 0.054199
0.430145 0.436676 0.051239
0.515045 0.444794 0.072693
0.593628 0.451263 0.078522
0.659088 0.455627 0.084564
0.714935 0.459595 0.091278
0.763489 0.458954 0.097565
0.807312 0.456757 0.104492
0.846924 0.458191 0.110352
0.861816 0.457916 0.112579
0.865723 0.456940 0.113220
0.869629 0.456238 0.113831
0.873474 0.455902 0.114410
0.877197 0.455780 0.114960
0.880768 0.455872 0.115448
0.884338 0.456085 0.115875
0.887726 0.456390 0.116302
0.891052 0.456757 0.116638
0.894440 0.457031 0.117065
0.897797 0.457275 0.117493
0.038483 0.467163 0.043701
0.041107 0.467590 0.043854
0.043793 0.468109 0.044037
0.046417 0.468597 0.044189
0.049103 0.469086 0.044403
0.051758 0.469574 0.044556
0.054352 0.469971 0.044739
0.056976 0.470306 0.044861
0.059601 0.470673 0.045013
0.062164 0.470886 0.045135
0.069855 0.471802 0.045410
0.132385 0.480103 0.047150
0.252045 0.481384 0.058258
0.393188 0.488495 0.054077
0.485138 0.490051 0.053009
0.568787 0.497314 0.077759
0.642822 0.502472 0.081909
0.701721 0.506134 0.086273
0.754120 0.508667 0.091949
0.801025 0.509033 0.098328
0.837646 0.506744 0.103546
0.852875 0.505249 0.105835
0.857025 0.503754 0.106537
0.860748 0.502655 0.107117
0.864441 0.501831 0.107697
0.868164 0.501556 0.108215
0.871826 0.501434 0.108704
0.875519 0.501404 0.109161
0.878906 0.501495 0.109528
0.882355 0.501648 0.109894
0.885803 0.501740 0.110260
0.889252 0.501892 0.110626
0.041443 0.520660 0.041138
0.044006 0.521088 0.041290
0.046600 0.521545 0.041412
0.049133 0.521942 0.041534
0.051727 0.522308 0.041687
0.054260 0.522705 0.041779
0.056824 0.523224 0.041962
0.059448 0.523621 0.042114
0.062042 0.524048 0.042236
0.064636 0.524384 0.042419
0.067169 0.524536 0.042542
0.098450 0.528717 0.044556
0.170929 0.529358 0.050140
0.338654 0.536804 0.057953
0.453400 0.540802 0.050964
0.539551 0.542603 0.052734
0.618835 0.548462 0.079041
0.685089 0.552185 0.082367
0.740204 0.555481 0.085876
0.789856 0.558014 0.091583
0.828156 0.558838 0.096436
0.847534 0.557953 0.099030
0.853241 0.557007 0.099792
0.856964 0.556061 0.100372
0.860657 0.555298 0.100922
0.864258 0.554718 0.101379
0.867889 0.554321 0.101868
0.871521 0.554291 0.102264
0.875183 0.554443 0.102600
0.878784 0.554626 0.102966
0.882355 0.554749 0.103302
0.885864 0.554871 0.103638
0.045685 0.575684 0.039032
0.048157 0.575928 0.039154
0.050659 0.576172 0.039276
0.053162 0.576385 0.039398
0.055664 0.576569 0.039520
0.058136 0.576782 0.039642
0.060547 0.576996 0.039734
0.062988 0.577179 0.039795
0.065460 0.577271 0.039917
0.067871 0.577393 0.040009
0.070312 0.577393 0.040100
0.072693 0.577118 0.040192
0.133667 0.579315 0.046722
0.243042 0.582153 0.054993
0.407562 0.588013 0.052368
0.509979 0.590240 0.046448
0.588715 0.591400 0.049042
0.661133 0.595154 0.074738
0.721680 0.599243 0.080719
0.774445 0.603058 0.085876
0.815735 0.605469 0.090546
0.840759 0.605530 0.093018
0.848297 0.604797 0.093750
0.852203 0.604187 0.094147
0.856140 0.603760 0.094543
0.859955 0.603607 0.094940
0.863770 0.603546 0.095337
0.867645 0.603546 0.095642
0.871368 0.603729 0.095978
0.875122 0.603973 0.096344
0.878845 0.604156 0.096680
0.882538 0.604340 0.097015
0.045990 0.622101 0.034271
0.048462 0.622406 0.034393
0.050934 0.622742 0.034515
0.053436 0.622986 0.034668
0.055878 0.623199 0.034821
0.058319 0.623413 0.034943
0.060760 0.623596 0.035065
0.063232 0.623779 0.035217
0.065796 0.623962 0.035706
0.068298 0.624054 0.036163
0.070801 0.624084 0.036621
0.073334 0.623993 0.037018
0.094421 0.624878 0.040009
0.175140 0.625977 0.047302
0.347595 0.632080 0.053589
0.472321 0.636719 0.045135
0.561218 0.636292 0.040558
0.631836 0.635223 0.041351
0.697571 0.638489 0.066010
0.753845 0.642883 0.078735
0.798615 0.646423 0.083923
0.829803 0.648468 0.087433
0.841370 0.648590 0.088745
0.845642 0.648224 0.089203
0.849915 0.648041 0.089661
0.854034 0.648010 0.090088
0.858124 0.647980 0.090485
0.862122 0.648132 0.090820
0.866119 0.648285 0.091156
0.870056 0.648376 0.091461
0.873993 0.648560 0.091797
0.877960 0.648651 0.092163
0.045258 0.665527 0.029175
0.047760 0.665771 0.029358
0.050262 0.666046 0.029572
0.052765 0.666443 0.029724
0.055206 0.666748 0.029938
0.057709 0.667053 0.030487
0.060181 0.667206 0.030975
0.062683 0.667328 0.031494
0.065125 0.667542 0.031952
0.067566 0.667633 0.032410
0.070007 0.667664 0.032837
0.072540 0.667603 0.033264
0.075012 0.667450 0.033752
0.130890 0.670319 0.044220
0.232269 0.673065 0.047150
0.423065 0.674896 0.042694
0.528412 0.679352 0.037018
0.605835 0.676941 0.031250
0.669708 0.675568 0.032593
0.731567 0.679932 0.057678
0.778748 0.683533 0.073029
0.813110 0.686188 0.080292
0.832306 0.687317 0.082642
0.837494 0.687256 0.083313
0.842010 0.687317 0.083862
0.846436 0.687408 0.084412
0.850769 0.687622 0.084930
0.855011 0.687836 0.085388
0.859161 0.688110 0.085815
0.863251 0.688446 0.086212
0.867432 0.688751 0.086639
0.871521 0.689026 0.087067
0.043945 0.705261 0.024292
0.046448 0.705566 0.024536
0.048889 0.705811 0.024994
0.051331 0.706207 0.025543
0.053741 0.706421 0.026154
0.056152 0.706635 0.026733
0.058563 0.706879 0.027252
0.061035 0.707092 0.027710
0.063446 0.707214 0.028198
0.065918 0.707428 0.028748
0.068359 0.707489 0.029205
0.070770 0.707458 0.029724
0.073151 0.707306 0.030273
0.092896 0.708618 0.034668
0.176971 0.713593 0.043365
0.361603 0.713745 0.040436
0.489166 0.714203 0.031708
0.576630 0.716064 0.026917
0.646271 0.714600 0.024414
0.705322 0.713959 0.026703
0.757721 0.717285 0.046265
0.796356 0.720245 0.063354
0.822754 0.722778 0.070770
0.830322 0.723145 0.073273
0.834808 0.723297 0.074799
0.839264 0.723511 0.076263
0.843567 0.723755 0.077637
0.847931 0.724030 0.079041
0.852234 0.724365 0.079987
0.856598 0.724731 0.080505
0.860901 0.725067 0.080994
0.865051 0.725281 0.081390
0.041992 0.737762 0.020630
0.044464 0.738190 0.021210
0.046844 0.738617 0.021881
0.049225 0.739044 0.022522
0.051544 0.739319 0.023132
0.053925 0.739594 0.023682
0.056366 0.740051 0.024231
0.058807 0.740387 0.024780
0.061218 0.740723 0.025330
0.063538 0.740906 0.025848
0.065918 0.740997 0.026459
0.068298 0.741089 0.027039
0.070648 0.741058 0.027649
0.072998 0.740997 0.028198
0.130249 0.745789 0.040161
0.290405 0.747406 0.037750
0.446625 0.742432 0.027435
0.546265 0.747406 0.023224
0.622498 0.747711 0.021759
0.684570 0.746521 0.020081
0.735657 0.746216 0.022522
0.778107 0.748749 0.035889
0.809540 0.751740 0.050293
0.824738 0.752991 0.057007
0.829376 0.753174 0.059235
0.833923 0.753479 0.061066
0.838470 0.753876 0.062500
0.842896 0.754242 0.063904
0.847321 0.754700 0.065277
0.851776 0.755188 0.066650
0.856171 0.755707 0.067932
0.860596 0.756134 0.069305
0.039856 0.762909 0.018127
0.042114 0.763367 0.018829
0.044434 0.763824 0.019501
0.046722 0.764221 0.020111
0.049042 0.764618 0.020721
0.051422 0.765076 0.021332
0.053711 0.765442 0.021912
0.056091 0.765900 0.022491
0.058380 0.766174 0.023132
0.060699 0.766541 0.023712
0.062958 0.766815 0.024292
0.065277 0.767120 0.024902
0.067627 0.767426 0.025513
0.069977 0.767700 0.026123
0.099945 0.770996 0.033813
0.244598 0.774963 0.033844
0.407867 0.768982 0.025330
0.516541 0.769653 0.020905
0.600922 0.774780 0.019867
0.666687 0.774170 0.018585
0.719360 0.773529 0.017853
0.762390 0.773621 0.020721
0.795715 0.775055 0.030243
0.818329 0.776855 0.038696
0.824860 0.777374 0.041534
0.829529 0.777618 0.043793
0.834137 0.777924 0.045929
0.838776 0.778320 0.048096
0.843384 0.778687 0.050201
0.847900 0.779022 0.052307
0.852478 0.779388 0.054413
0.856964 0.779633 0.056519
0.038910 0.772675 0.017334
0.041138 0.773132 0.017975
0.043365 0.773529 0.018616
0.045624 0.774048 0.019226
0.047943 0.774475 0.019806
0.050262 0.774872 0.020447
0.052460 0.775299 0.020996
0.054810 0.775665 0.021606
0.057068 0.776031 0.022186
0.059296 0.776398 0.022797
0.061615 0.776733 0.023438
0.063843 0.777161 0.023987
0.066071 0.777496 0.024597
0.068329 0.777832 0.025177
0.084747 0.779999 0.029388
0.182220 0.786560 0.033234
0.370697 0.779541 0.025055
0.494446 0.778503 0.020538
0.584503 0.785675 0.019104
0.654175 0.786438 0.018097
0.707825 0.786377 0.017242
0.751831 0.786133 0.016907
0.785889 0.787048 0.023041
0.811157 0.788330 0.029419
0.822266 0.789337 0.032715
0.827148 0.789856 0.034912
0.831879 0.790375 0.037018
0.836487 0.790833 0.039093
0.841187 0.791199 0.041321
0.845764 0.791595 0.043365
0.850372 0.791962 0.045563
0.854950 0.792297 0.047668
0.038483 0.776733 0.016998
0.040710 0.777252 0.017670
0.042908 0.777710 0.018250
0.045197 0.778137 0.018829
0.047485 0.778564 0.019501
0.049774 0.778961 0.020081
0.051971 0.779388 0.020630
0.054138 0.779755 0.021179
0.056427 0.780121 0.021790
0.058685 0.780457 0.022400
0.060944 0.780762 0.022980
0.063202 0.781219 0.023590
0.065399 0.781616 0.024139
0.067627 0.781921 0.024750
0.069885 0.782227 0.025360
0.138367 0.789154 0.033752
0.342743 0.784424 0.025482
0.476868 0.782288 0.020782
0.571899 0.789001 0.018768
0.644775 0.791016 0.017914
0.699799 0.791321 0.017120
0.744263 0.791321 0.016693
0.778870 0.791779 0.019318
0.805054 0.792969 0.026093
0.820496 0.794250 0.029663
0.826202 0.794769 0.031281
0.831055 0.795349 0.033447
0.835754 0.795837 0.035553
0.840424 0.796326 0.037720
0.845032 0.796692 0.039825
0.849670 0.797058 0.041992
0.854218 0.797455 0.044128
0.038086 0.780792 0.016724
0.040314 0.781219 0.017334
0.042511 0.781647 0.017914
0.044708 0.782104 0.018524
0.046967 0.782532 0.019165
0.049255 0.782928 0.019745
0.051453 0.783295 0.020325
0.053619 0.783661 0.020905
0.055756 0.783936 0.021454
0.058044 0.784302 0.022034
0.060303 0.784637 0.022644
0.062469 0.785034 0.023224
0.064728 0.785431 0.023773
0.066895 0.785767 0.024384
0.069153 0.786072 0.024963
0.121094 0.792114 0.033325
0.320374 0.789398 0.025818
0.463104 0.786316 0.020630
0.561371 0.792084 0.018494
0.637177 0.795258 0.017853
0.693817 0.795715 0.017090
0.738403 0.795715 0.016541
0.773468 0.795746 0.016388
0.800171 0.796783 0.023315
0.818634 0.798065 0.027740
0.825409 0.798706 0.029327
0.830383 0.799194 0.030640
0.835114 0.799683 0.032837
0.839874 0.800140 0.035034
0.844452 0.800598 0.037079
0.849121 0.800964 0.039307
0.853638 0.801331 0.041443
0.037689 0.784607 0.016479
0.039825 0.785004 0.017120
0.042053 0.785522 0.017700
0.044250 0.785950 0.018280
0.046448 0.786377 0.018860
0.048737 0.786835 0.019501
0.050903 0.787140 0.020050
0.053070 0.787445 0.020599
0.055206 0.787781 0.021179
0.057373 0.788116 0.021729
0.059631 0.788452 0.022308
0.061829 0.788818 0.022888
0.064026 0.789215 0.023438
0.066254 0.789642 0.024017
0.068390 0.789978 0.024597
0.116943 0.795868 0.032501
0.305756 0.794189 0.025665
0.452606 0.790375 0.020386
0.553131 0.795074 0.018311
0.631622 0.799377 0.017670
0.689301 0.799988 0.016998
0.734009 0.800018 0.016357
0.769470 0.800079 0.016144
0.796234 0.800781 0.020721
0.816162 0.802002 0.025726
0.824585 0.802643 0.027832
0.829590 0.803131 0.029053
0.834442 0.803528 0.030121
0.839233 0.803986 0.032379
0.843903 0.804443 0.034546
0.848572 0.804871 0.036652
0.853149 0.805237 0.038849
0.037231 0.788452 0.016296
0.039429 0.788849 0.016876
0.041626 0.789307 0.017487
0.043793 0.789734 0.018066
0.045990 0.790161 0.018646
0.048218 0.790588 0.019196
0.050385 0.791046 0.019745
0.052521 0.791321 0.020325
0.054688 0.791626 0.020874
0.056824 0.791901 0.021423
0.058990 0.792236 0.022034
0.061157 0.792633 0.022583
0.063324 0.793030 0.023132
0.065491 0.793396 0.023712
0.067688 0.793762 0.024261
0.113983 0.799835 0.031799
0.295319 0.798431 0.025238
0.444489 0.794403 0.020050
0.547119 0.798309 0.018097
0.627686 0.803436 0.017426
0.685913 0.804260 0.016815
0.730957 0.804260 0.016144
0.766602 0.804443 0.015991
0.793396 0.804779 0.018585
0.813690 0.805908 0.023865
0.823547 0.806671 0.026245
0.828735 0.807037 0.027527
0.833618 0.807465 0.028625
0.838562 0.807861 0.029724
0.843262 0.808289 0.031799
0.847992 0.808716 0.033997
0.852600 0.809174 0.036102
0.036804 0.792480 0.015961
0.038879 0.792755 0.016571
0.041046 0.793182 0.017181
0.043243 0.793579 0.017761
0.045441 0.794098 0.018311
0.047638 0.794495 0.018921
0.049774 0.794861 0.019470
0.051941 0.795166 0.020050
0.054016 0.795471 0.020599
0.056183 0.795746 0.021149
0.058319 0.796112 0.021667
0.060516 0.796509 0.022278
0.062714 0.796906 0.022858
0.064880 0.797241 0.023407
0.066956 0.797546 0.023956
0.111633 0.803070 0.030579
0.287537 0.802155 0.024597
