滤镜资源/Professional Luts Collection/Triune-Digital-Cinematic-LUTs/3D LUTs (CUBE)/ALEXA/The Revenant - Alexa.cube
#Created by Benjamin (IWLTBAP) : http://luts.iwltbap.com
#Copyright: (C) Copyright 2016 Triune Films and IWLTBAP
TITLE "Blockbuster LUTs Pack (Alexa Log-C)"
#LUT size
LUT_3D_SIZE 32
#LUT data points
0.000000 0.000000 0.000000
0.002747 0.000092 0.000092
0.005737 0.000153 0.000183
0.009460 0.000275 0.000336
0.013641 0.000885 0.001007
0.018372 0.002472 0.002594
0.024719 0.005402 0.005981
0.039581 0.005768 0.006653
0.059296 0.006287 0.006897
0.086304 0.010681 0.012787
0.117615 0.015869 0.020782
0.159088 0.026489 0.035828
0.200439 0.037689 0.046143
0.243866 0.049072 0.063232
0.286957 0.063232 0.077576
0.336823 0.077942 0.096130
0.388336 0.091980 0.108246
0.424774 0.101624 0.118469
0.462006 0.110443 0.129578
0.500519 0.119720 0.139343
0.525269 0.124481 0.145477
0.534515 0.126465 0.147736
0.539368 0.127594 0.149170
0.544006 0.128571 0.150391
0.548401 0.129486 0.151428
0.552338 0.130188 0.152374
0.556610 0.130981 0.153381
0.560791 0.131775 0.154388
0.564972 0.132568 0.155334
0.569092 0.133301 0.156250
0.573242 0.134033 0.157135
0.577759 0.135193 0.158325
0.001221 0.007355 0.003113
0.003113 0.004852 0.002625
0.006256 0.005463 0.002533
0.010864 0.005890 0.003082
0.018036 0.007446 0.004181
0.023346 0.008728 0.006744
0.032166 0.009399 0.009430
0.047058 0.009399 0.008636
0.064240 0.010193 0.008606
0.091125 0.013336 0.013947
0.120758 0.018005 0.021576
0.161011 0.028015 0.036072
0.203094 0.039368 0.046936
0.246887 0.050842 0.064178
0.291687 0.065247 0.078918
0.340851 0.079956 0.097656
0.390106 0.092804 0.108704
0.428253 0.102936 0.119873
0.464508 0.111328 0.130249
0.501984 0.120209 0.139496
0.528076 0.125336 0.146057
0.537445 0.127350 0.148407
0.542358 0.128418 0.149841
0.546936 0.129395 0.151031
0.551208 0.130310 0.151947
0.554810 0.130951 0.152893
0.558777 0.131683 0.153900
0.562927 0.132477 0.154907
0.567017 0.133240 0.155823
0.571167 0.133972 0.156769
0.575409 0.134827 0.157684
0.579926 0.136169 0.158997
0.002502 0.015198 0.006439
0.003723 0.013092 0.006165
0.006531 0.010193 0.005432
0.012665 0.012634 0.005890
0.021851 0.015228 0.007080
0.030396 0.016052 0.011505
0.043457 0.016113 0.014313
0.058167 0.015167 0.013641
0.074829 0.017029 0.012817
0.103882 0.019775 0.018799
0.130615 0.023285 0.025238
0.170959 0.033539 0.042572
0.207581 0.041473 0.048401
0.249817 0.052643 0.065125
0.296295 0.067230 0.080322
0.344818 0.081848 0.098755
0.391907 0.093689 0.109100
0.431580 0.104218 0.121216
0.467102 0.112305 0.130798
0.503632 0.120819 0.140015
0.529999 0.125977 0.146301
0.540375 0.128174 0.148987
0.545288 0.129272 0.150482
0.549866 0.130249 0.151581
0.553772 0.131042 0.152374
0.557648 0.131744 0.153442
0.561371 0.132416 0.154449
0.565338 0.133148 0.155457
0.569458 0.133881 0.156372
0.573578 0.134644 0.157227
0.578094 0.135834 0.158447
0.582642 0.137177 0.159698
0.003174 0.025543 0.011230
0.004089 0.024445 0.011475
0.006683 0.020905 0.011475
0.012268 0.019012 0.010162
0.021851 0.024780 0.010559
0.032440 0.025146 0.012054
0.048309 0.025177 0.016479
0.066132 0.024567 0.019104
0.082916 0.026489 0.018738
0.112000 0.027710 0.024536
0.145630 0.032074 0.031586
0.193451 0.044373 0.056702
0.221436 0.048096 0.054260
0.254669 0.054993 0.066956
0.301392 0.069458 0.082214
0.347931 0.083374 0.099396
0.393585 0.094513 0.109436
0.434357 0.105347 0.122223
0.469818 0.113312 0.131165
0.505646 0.121490 0.140625
0.531952 0.126587 0.146545
0.543182 0.128967 0.149597
0.548218 0.130127 0.151062
0.552460 0.131073 0.151978
0.556396 0.131805 0.152863
0.560394 0.132507 0.153931
0.564178 0.133179 0.154938
0.567932 0.133820 0.155945
0.571838 0.134521 0.156860
0.576141 0.135468 0.157867
0.580780 0.136841 0.159149
0.585327 0.138123 0.160431
0.004486 0.039032 0.017273
0.004669 0.038361 0.017548
0.006317 0.036652 0.018158
0.013000 0.035370 0.019318
0.021454 0.036072 0.016083
0.032135 0.040833 0.015625
0.046661 0.041992 0.018707
0.066986 0.040222 0.022614
0.089264 0.039795 0.024445
0.118286 0.040527 0.032776
0.158142 0.044891 0.040070
0.199127 0.050598 0.057526
0.238464 0.057831 0.063751
0.271545 0.062683 0.072083
0.309326 0.072662 0.086823
0.350342 0.084625 0.098969
0.395111 0.095215 0.109711
0.436493 0.106232 0.122681
0.472412 0.114227 0.131500
0.507721 0.122131 0.141083
0.534546 0.127441 0.147217
0.545105 0.129639 0.149750
0.550720 0.130890 0.151367
0.555023 0.131866 0.152313
0.558960 0.132599 0.153290
0.563080 0.133301 0.154449
0.566986 0.133972 0.155487
0.570709 0.134583 0.156433
0.574524 0.135254 0.157349
0.578857 0.136536 0.158600
0.583466 0.137848 0.159821
0.588043 0.138885 0.161102
0.006165 0.059509 0.028870
0.006378 0.058594 0.029175
0.006683 0.057007 0.029755
0.010651 0.054749 0.029663
0.018860 0.056824 0.033142
0.031097 0.054901 0.025635
0.045898 0.060028 0.025513
0.065796 0.062347 0.030151
0.096069 0.059967 0.035675
0.126282 0.062958 0.039307
0.162506 0.061737 0.050201
0.204224 0.062988 0.059296
0.241852 0.066132 0.066254
0.283875 0.071198 0.076965
0.328125 0.080872 0.097137
0.360077 0.088226 0.099976
0.397552 0.096252 0.109802
0.438385 0.107117 0.123016
0.474762 0.115082 0.131714
0.510071 0.122864 0.141541
0.537567 0.128418 0.148254
0.547974 0.130524 0.150574
0.552521 0.131531 0.151550
0.557373 0.132599 0.152527
0.561584 0.133301 0.153778
0.565796 0.134064 0.154968
0.569641 0.134705 0.155975
0.573425 0.135345 0.156891
0.577606 0.136505 0.158112
0.581726 0.137634 0.159271
0.586121 0.138672 0.160461
0.590698 0.139709 0.161713
0.008789 0.082428 0.047272
0.010010 0.081543 0.045349
0.011230 0.080566 0.043365
0.013031 0.078705 0.043427
0.015900 0.077362 0.045135
0.026276 0.080353 0.049744
0.047089 0.078888 0.044800
0.068420 0.085510 0.048431
0.099091 0.090485 0.052704
0.135345 0.087280 0.054352
0.165802 0.085663 0.057831
0.208923 0.082367 0.065643
0.253082 0.079559 0.077484
0.292969 0.083618 0.081787
0.342072 0.088593 0.094604
0.378723 0.096222 0.105682
0.408783 0.101379 0.113831
0.443176 0.108704 0.123444
0.476532 0.115906 0.131836
0.512207 0.123535 0.141815
0.540497 0.129333 0.149170
0.550659 0.131439 0.151337
0.555328 0.132477 0.152252
0.559845 0.133423 0.153137
0.563843 0.134003 0.153961
0.568146 0.134735 0.155243
0.572052 0.135406 0.156311
0.576294 0.136566 0.157532
0.580505 0.137726 0.158752
0.584686 0.138702 0.159973
0.588837 0.139587 0.161163
0.593231 0.140472 0.162231
0.011658 0.111237 0.074341
0.011414 0.109833 0.072510
0.011169 0.108459 0.070312
0.010925 0.107208 0.068115
0.013885 0.106476 0.064514
0.024628 0.104156 0.064941
0.043030 0.105133 0.068237
0.072296 0.109894 0.070129
0.105957 0.123444 0.078186
0.135986 0.119568 0.072266
0.170624 0.109619 0.067963
0.216797 0.109497 0.077972
0.257202 0.104187 0.083557
0.305817 0.106476 0.090363
0.346802 0.100769 0.100647
0.391968 0.106812 0.111359
0.431488 0.112762 0.120728
0.463043 0.116455 0.129395
0.485413 0.119568 0.134216
0.517151 0.125061 0.142548
0.543335 0.130402 0.149902
0.552521 0.132172 0.151611
0.557037 0.133118 0.152496
0.561401 0.134033 0.153229
0.565460 0.134583 0.154083
0.568970 0.135132 0.154877
0.573120 0.136169 0.156158
0.577362 0.137299 0.157410
0.581604 0.138428 0.158630
0.585754 0.139374 0.159821
0.589996 0.140228 0.161041
0.593933 0.140991 0.162170
0.018921 0.146759 0.100586
0.018707 0.145874 0.099487
0.018463 0.144867 0.098175
0.018921 0.144043 0.097168
0.019440 0.143158 0.096252
0.022491 0.140442 0.094238
0.040466 0.138794 0.095734
0.067535 0.140076 0.092865
0.093842 0.141449 0.086884
0.141235 0.163025 0.097870
0.182251 0.154572 0.094574
0.230408 0.147705 0.094055
0.271912 0.138092 0.097626
0.317566 0.135345 0.105133
0.360809 0.126526 0.114288
0.400421 0.122498 0.116852
0.442169 0.123840 0.126770
0.477417 0.127686 0.133270
0.513123 0.130920 0.140320
0.543396 0.134277 0.147949
0.558685 0.135529 0.150848
0.560303 0.134979 0.151703
0.562286 0.135254 0.152954
0.565857 0.135986 0.153809
0.570129 0.136993 0.154785
0.573730 0.137817 0.155792
0.576599 0.138367 0.156647
0.579559 0.139038 0.157471
0.582794 0.139771 0.158356
0.586914 0.140594 0.159576
0.590851 0.141357 0.160706
0.594727 0.142029 0.161835
0.028076 0.181488 0.121063
0.028107 0.181610 0.121368
0.028107 0.181519 0.121094
0.028046 0.181427 0.120850
0.028015 0.181274 0.120453
0.027802 0.180603 0.119659
0.027039 0.178101 0.117584
0.043732 0.178497 0.118652
0.089722 0.184235 0.127960
0.140961 0.193726 0.133331
0.185669 0.208588 0.124908
0.232727 0.195679 0.123688
0.290222 0.188873 0.128479
0.332336 0.179077 0.126007
0.377716 0.169739 0.133240
0.418732 0.158051 0.134583
0.460510 0.154663 0.138336
0.498505 0.147766 0.144012
0.533539 0.146667 0.149719
0.562927 0.148743 0.155731
0.582855 0.149567 0.159210
0.587738 0.148132 0.159729
0.590179 0.147186 0.160126
0.592987 0.146545 0.160553
0.595276 0.146332 0.161194
0.597900 0.146423 0.162018
0.600494 0.146729 0.162842
0.603149 0.147095 0.163483
0.606262 0.147552 0.164429
0.609772 0.148163 0.165710
0.613098 0.148712 0.166931
0.616028 0.149170 0.167999
0.043945 0.228333 0.154083
0.043732 0.227783 0.153320
0.043457 0.227051 0.152618
0.043304 0.226501 0.152283
0.043243 0.226318 0.152618
0.043182 0.226105 0.152924
0.043121 0.225891 0.153198
0.043304 0.226349 0.154724
0.056885 0.225891 0.153809
0.120667 0.237061 0.162354
0.183868 0.248810 0.172607
0.248016 0.273651 0.168610
0.296692 0.256439 0.165009
0.347412 0.240540 0.161377
0.395813 0.227600 0.162323
0.440155 0.214264 0.160187
0.478729 0.200348 0.161316
0.516998 0.192871 0.162079
0.560059 0.183655 0.166565
0.589447 0.172913 0.169067
0.606110 0.169312 0.170288
0.611542 0.168579 0.171326
0.613007 0.166748 0.170959
0.615082 0.165466 0.170624
0.617554 0.164703 0.170685
0.621094 0.164551 0.171265
0.624817 0.164551 0.172028
0.628662 0.164734 0.172852
0.632690 0.165070 0.173737
0.636627 0.165588 0.174744
0.640594 0.165924 0.175507
0.644409 0.166199 0.176239
0.063202 0.283478 0.192230
0.063232 0.283569 0.192078
0.063232 0.283630 0.191925
0.063263 0.283661 0.191742
0.063232 0.283691 0.191559
0.063293 0.283813 0.191467
0.063171 0.283600 0.190887
0.063049 0.283173 0.190430
0.062683 0.281982 0.190521
0.083771 0.284729 0.194214
0.162781 0.303192 0.208496
0.235809 0.315582 0.216675
0.307068 0.342407 0.218475
0.366241 0.329132 0.213593
0.416321 0.310883 0.210327
0.464508 0.292206 0.204834
0.506622 0.274353 0.201508
0.547760 0.260284 0.198547
0.583923 0.243744 0.196899
0.611176 0.229309 0.192963
0.642273 0.222870 0.193115
0.648865 0.216309 0.191772
0.649902 0.211578 0.190491
0.651154 0.207520 0.189484
0.652527 0.204437 0.188477
0.654663 0.201996 0.188171
0.657318 0.200470 0.188721
0.660309 0.199188 0.189362
0.663513 0.197906 0.189819
0.666962 0.197052 0.190338
0.670288 0.196198 0.190826
0.673462 0.195099 0.191193
0.080811 0.342560 0.233185
0.080902 0.342926 0.233368
0.081085 0.343445 0.233795
0.081055 0.343414 0.234344
0.081085 0.343506 0.234894
0.081116 0.343536 0.235382
0.081085 0.343506 0.235901
0.081177 0.343689 0.236481
0.081177 0.343811 0.237030
0.080994 0.343201 0.234619
0.122345 0.348846 0.238953
0.219269 0.368591 0.257355
0.302185 0.391174 0.266235
0.369965 0.415833 0.266602
0.428497 0.406250 0.264496
0.483215 0.386749 0.258698
0.527466 0.362366 0.251221
0.575958 0.344360 0.248016
0.613159 0.324951 0.241516
0.649658 0.306183 0.234924
0.674286 0.292938 0.234467
0.680054 0.281952 0.230042
0.681854 0.276550 0.227631
0.685425 0.272858 0.225769
0.689178 0.269714 0.224304
0.693054 0.267090 0.223206
0.696869 0.264862 0.222412
0.700470 0.262848 0.221741
0.703735 0.260834 0.221100
0.706940 0.259308 0.220886
0.709839 0.257843 0.220428
0.712402 0.256409 0.220001
0.101532 0.407166 0.277222
0.101654 0.407562 0.277954
0.101715 0.407623 0.278503
0.101685 0.407623 0.278961
0.101685 0.407623 0.279419
0.101685 0.407593 0.279846
0.101654 0.407471 0.279724
0.101349 0.406586 0.278992
0.100800 0.404999 0.277771
0.100189 0.403198 0.276398
0.101044 0.405731 0.276886
0.186523 0.422180 0.291016
0.285431 0.441986 0.313110
0.362457 0.462158 0.318359
0.432800 0.486389 0.316345
0.489624 0.479370 0.312439
0.542511 0.458801 0.308167
0.590851 0.438171 0.301514
0.635406 0.414703 0.290833
0.672913 0.396576 0.287140
0.706635 0.375427 0.281097
0.719299 0.367889 0.278839
0.722870 0.364594 0.277191
0.726593 0.361755 0.275848
0.730438 0.359497 0.274841
0.734009 0.357147 0.273682
0.736908 0.354279 0.272369
0.739777 0.351532 0.271362
0.742767 0.349030 0.270477
0.745300 0.346680 0.269745
0.747894 0.344269 0.268921
0.750488 0.341858 0.268097
0.123169 0.471069 0.322235
0.123169 0.471008 0.322357
0.123108 0.470795 0.322632
0.122986 0.470398 0.322968
0.122894 0.470215 0.323364
0.122894 0.470184 0.323761
0.122864 0.470093 0.324127
0.122925 0.470215 0.324646
0.122986 0.470459 0.325134
0.122925 0.470245 0.324738
0.122681 0.469574 0.323364
0.132660 0.466431 0.321808
0.258514 0.495026 0.345734
0.350037 0.511627 0.361572
0.423126 0.534729 0.368195
0.488678 0.550690 0.366455
0.548218 0.556854 0.362366
0.602600 0.532959 0.357361
0.649628 0.508850 0.350372
0.690704 0.486481 0.341034
0.726715 0.466736 0.336395
0.745148 0.457794 0.332977
0.749023 0.452789 0.330566
0.752899 0.449249 0.328796
0.757050 0.446442 0.327362
0.761047 0.444031 0.325989
0.764862 0.441711 0.324432
0.768372 0.439301 0.323059
0.771790 0.437073 0.321869
0.774933 0.434631 0.320831
0.778137 0.431915 0.319824
0.781403 0.429047 0.318817
0.144867 0.535095 0.368134
0.144836 0.535065 0.367950
0.144836 0.535095 0.367798
0.144806 0.535065 0.367645
0.144714 0.534698 0.367432
0.144623 0.534424 0.367340
0.144531 0.534119 0.367249
0.144257 0.533264 0.366852
0.143890 0.532196 0.366394
0.143402 0.530792 0.365723
0.142822 0.529083 0.364777
0.142792 0.529022 0.364227
0.209839 0.539581 0.377686
0.327789 0.567352 0.402313
0.411804 0.585754 0.417999
0.483429 0.601196 0.420685
0.546539 0.616638 0.417542
0.607422 0.628723 0.418213
0.658234 0.600403 0.405396
0.702972 0.577911 0.399841
0.738068 0.553711 0.389435
0.762146 0.541840 0.386841
0.769226 0.535797 0.384369
0.773895 0.531525 0.382446
0.778687 0.527679 0.380920
0.782166 0.524719 0.379761
0.785156 0.521912 0.378540
0.788818 0.518921 0.377258
0.792572 0.516083 0.376099
0.796204 0.513489 0.375061
0.799988 0.510681 0.373993
0.804077 0.508240 0.373260
0.164429 0.592865 0.411224
0.164398 0.592773 0.411438
0.164093 0.591858 0.410950
0.163818 0.590973 0.410492
0.163452 0.589905 0.409973
0.163177 0.589081 0.409546
0.162811 0.588074 0.408936
0.162628 0.587524 0.408875
0.162720 0.587799 0.408875
0.162781 0.587952 0.408844
0.162781 0.588043 0.408569
0.162811 0.588043 0.407990
0.164459 0.588623 0.410828
0.292297 0.615997 0.433441
0.394318 0.637634 0.454071
0.470856 0.657776 0.474609
0.535919 0.666473 0.468933
0.605865 0.683350 0.469330
0.662506 0.694092 0.473450
0.712036 0.671661 0.463867
0.752441 0.650635 0.460541
0.776672 0.634827 0.453186
0.782623 0.627716 0.449951
0.786163 0.623291 0.448120
0.790405 0.619232 0.446655
0.793701 0.616119 0.445557
0.795868 0.614136 0.444611
0.797974 0.612274 0.443878
0.800110 0.610748 0.443298
0.802338 0.609009 0.442780
0.804749 0.606812 0.442261
0.807098 0.604523 0.441711
0.182465 0.645996 0.451233
0.182404 0.645813 0.450531
0.182312 0.645660 0.449829
0.182281 0.645477 0.449097
0.182465 0.645996 0.449219
0.182678 0.646606 0.449493
0.182892 0.647308 0.449921
0.182983 0.647614 0.450226
0.183014 0.647675 0.450439
0.182831 0.647125 0.450256
0.182556 0.646393 0.450073
0.182373 0.645752 0.450104
0.181427 0.643066 0.448029
0.233429 0.655945 0.461121
0.363892 0.684357 0.488342
0.449615 0.701569 0.503876
0.528229 0.719238 0.520111
0.594574 0.730652 0.520508
0.658722 0.739441 0.521088
0.713318 0.749390 0.522369
0.752014 0.742126 0.517456
0.779510 0.730560 0.516754
0.786011 0.723846 0.513855
0.788483 0.720520 0.512268
0.790894 0.717590 0.510895
0.793365 0.715027 0.509857
0.796112 0.712769 0.509552
0.798676 0.711121 0.509583
0.801270 0.709595 0.509613
0.803802 0.708130 0.509766
0.806396 0.706635 0.509888
0.808929 0.704926 0.509827
0.201202 0.701233 0.495300
0.200745 0.700012 0.494507
0.200317 0.698669 0.493652
0.199890 0.697327 0.492706
0.199341 0.695892 0.491791
0.198883 0.694519 0.490875
0.198517 0.693390 0.489868
0.198334 0.692932 0.489227
0.198334 0.692932 0.488922
0.198334 0.692871 0.488556
0.198273 0.692719 0.488068
0.198364 0.693054 0.487762
0.198395 0.693054 0.487427
0.199951 0.697571 0.494110
0.323334 0.723328 0.515045
0.432892 0.749329 0.539246
0.511719 0.767517 0.555878
0.583344 0.778900 0.568542
0.653015 0.790863 0.569183
0.710754 0.796692 0.572021
0.751526 0.800568 0.570068
0.774933 0.803009 0.574890
0.786713 0.804596 0.575989
0.789612 0.804810 0.576141
0.792145 0.805023 0.576355
0.794678 0.805481 0.576874
0.797241 0.806152 0.577728
0.799774 0.806915 0.578644
0.802338 0.807648 0.579529
0.804749 0.807098 0.579132
0.807129 0.805328 0.578461
0.809448 0.803467 0.577667
0.217224 0.748627 0.531708
0.217041 0.748108 0.531372
0.217102 0.748322 0.531464
0.217224 0.748688 0.531494
0.217346 0.749084 0.531555
0.217468 0.749420 0.531525
0.217590 0.749756 0.531555
0.217651 0.749908 0.531586
0.217743 0.750183 0.531769
0.217804 0.750336 0.531830
0.217804 0.750397 0.531769
0.217804 0.750397 0.531677
0.217743 0.750214 0.531464
0.217865 0.750519 0.532501
0.259766 0.752930 0.538605
0.399445 0.784149 0.566528
0.493835 0.808746 0.587341
0.571808 0.825653 0.604828
0.638916 0.836578 0.615173
0.699738 0.847412 0.619537
0.743774 0.847565 0.620026
0.762970 0.848572 0.619690
0.776794 0.849487 0.621521
0.780823 0.848938 0.621399
0.783508 0.848785 0.621521
0.786316 0.848907 0.621857
0.789001 0.849091 0.622437
0.791718 0.849304 0.622986
0.794403 0.849609 0.623657
0.797028 0.849915 0.624359
0.799713 0.850281 0.625122
0.802399 0.850677 0.625824
0.232849 0.794647 0.565430
0.232605 0.793945 0.564789
0.232361 0.793304 0.564148
0.232239 0.792816 0.563629
0.232056 0.792328 0.563141
0.231873 0.791840 0.562592
0.231689 0.791351 0.562103
0.231720 0.791382 0.561951
0.232025 0.792297 0.562592
0.232147 0.792664 0.562805
0.232117 0.792572 0.562775
0.232056 0.792419 0.562775
0.231964 0.792145 0.562622
0.231873 0.791809 0.562439
0.232361 0.793274 0.566803
0.360870 0.822174 0.590820
0.472229 0.846527 0.615143
0.554962 0.862457 0.632568
0.624298 0.877960 0.650513
0.685547 0.890137 0.661163
0.729492 0.891541 0.658478
0.749786 0.891602 0.659515
0.766907 0.890533 0.660706
0.775665 0.889526 0.660187
0.778381 0.888977 0.659790
0.781067 0.888977 0.659973
0.783600 0.889191 0.660583
0.786194 0.889496 0.661255
0.788757 0.889771 0.661896
0.791260 0.890076 0.662659
0.793854 0.890472 0.663361
0.796417 0.890717 0.664001
0.244934 0.830383 0.594116
0.245148 0.830933 0.594513
0.245209 0.831116 0.594482
0.245056 0.830658 0.593872
0.244965 0.830322 0.593597
0.244812 0.829956 0.593353
0.244690 0.829620 0.593140
0.244629 0.829376 0.592957
0.244537 0.829132 0.592712
0.244690 0.829559 0.592804
0.244873 0.830078 0.592896
0.244995 0.830475 0.592957
0.245117 0.830902 0.592987
0.245239 0.831268 0.593048
0.246033 0.833496 0.598358
0.313965 0.844513 0.611908
0.451385 0.876312 0.638947
0.536377 0.896149 0.655121
0.618439 0.915619 0.675110
0.677246 0.926208 0.691345
0.719391 0.931854 0.699402
0.740112 0.927368 0.692902
0.755768 0.925995 0.696808
0.767242 0.927704 0.696960
0.771027 0.927948 0.696686
0.773743 0.927979 0.696747
0.776459 0.928070 0.697266
0.779144 0.928314 0.697937
0.781891 0.928619 0.698639
0.784546 0.928894 0.699341
0.787231 0.929138 0.700043
0.789948 0.929321 0.700653
0.250275 0.846069 0.605988
0.250488 0.846680 0.606354
0.250702 0.847321 0.606812
0.250885 0.847900 0.607147
0.251068 0.848419 0.607483
0.250916 0.847992 0.607025
0.250854 0.847687 0.606750
0.250763 0.847443 0.606567
0.250519 0.846802 0.605896
0.250275 0.846130 0.605225
0.250061 0.845428 0.604523
0.250092 0.845490 0.604370
0.250214 0.845947 0.604645
0.250366 0.846375 0.605072
0.250580 0.846985 0.607635
0.261536 0.844421 0.608673
0.427155 0.888184 0.646484
0.524689 0.909241 0.665222
0.608582 0.930420 0.683990
0.669830 0.939301 0.699982
0.708893 0.948669 0.712494
0.734375 0.950043 0.717621
0.750854 0.947906 0.716827
0.763702 0.949432 0.722046
0.769470 0.950256 0.721954
0.772003 0.950348 0.721863
0.774475 0.950226 0.721832
0.776978 0.950104 0.721832
0.779449 0.950043 0.721863
0.781891 0.950348 0.722443
0.784393 0.950653 0.723083
0.786896 0.950958 0.723663
0.252563 0.852844 0.611053
0.252747 0.853485 0.611511
0.252991 0.854065 0.611877
0.253174 0.854736 0.612305
0.253357 0.855316 0.612671
0.253571 0.855835 0.613007
0.253448 0.855499 0.612640
0.253296 0.855042 0.612305
0.253082 0.854370 0.611572
0.252838 0.853699 0.610901
0.252594 0.853027 0.610229
0.252350 0.852295 0.609711
0.252350 0.852295 0.609741
0.252472 0.852661 0.610107
0.252533 0.852783 0.610718
0.251221 0.848846 0.613312
0.404633 0.887726 0.645081
0.512695 0.914001 0.669281
0.598724 0.935364 0.687927
0.662170 0.943420 0.702057
0.704010 0.954315 0.715515
0.728485 0.957947 0.725189
0.746826 0.957397 0.725403
0.759766 0.956909 0.729065
0.767731 0.958313 0.731720
0.770630 0.958557 0.731781
0.773132 0.958527 0.731873
0.775604 0.958496 0.731964
0.778107 0.958466 0.732025
0.780579 0.958435 0.732117
0.783081 0.958588 0.732513
0.785522 0.958954 0.733154
0.254883 0.859650 0.616211
0.255066 0.860229 0.616577
0.255249 0.860870 0.616974
0.255493 0.861481 0.617371
0.255676 0.862091 0.617798
0.255890 0.862671 0.618164
0.256104 0.863220 0.618500
0.255859 0.862640 0.617950
0.255646 0.861938 0.617279
0.255402 0.861206 0.616760
0.255157 0.860535 0.616180
0.254883 0.859772 0.615692
0.254639 0.859009 0.615112
0.254639 0.858978 0.615204
0.254700 0.859070 0.615753
0.253387 0.855194 0.618408
0.387878 0.887848 0.643219
0.503662 0.918335 0.673035
0.589600 0.938782 0.690277
0.657410 0.949066 0.704865
0.700928 0.959442 0.718445
0.724365 0.962860 0.728302
0.742981 0.963959 0.732239
0.756561 0.963928 0.735413
0.766113 0.964630 0.738983
0.769562 0.964966 0.739471
0.772064 0.964935 0.739532
0.774536 0.964905 0.739624
0.777039 0.964844 0.739716
0.779510 0.964813 0.739807
0.782013 0.964783 0.739899
0.784515 0.964966 0.740265
0.257141 0.866394 0.621460
0.257263 0.866730 0.621582
0.257477 0.867340 0.621979
0.257629 0.867859 0.622375
0.257782 0.868256 0.622711
0.257935 0.868652 0.623077
0.258057 0.869019 0.623444
0.258026 0.868988 0.623718
0.257904 0.868622 0.623291
0.257812 0.868286 0.622864
0.257568 0.867676 0.622345
0.257324 0.866943 0.621826
0.257080 0.866211 0.621338
0.256897 0.865570 0.620911
0.256866 0.865570 0.621368
0.255615 0.861725 0.624359
0.376617 0.889465 0.643463
0.497162 0.923065 0.677429
0.582764 0.943207 0.693878
0.653961 0.954895 0.708466
0.698364 0.964508 0.721924
0.721375 0.967407 0.731781
0.739929 0.970734 0.739716
0.753571 0.970001 0.741028
0.764221 0.970917 0.745789
0.768677 0.971466 0.747559
0.771149 0.971405 0.747620
0.773651 0.971313 0.747681
0.776123 0.971313 0.747803
0.778595 0.971222 0.747894
0.781128 0.971191 0.747986
0.783569 0.971161 0.748047
0.257904 0.868622 0.626526
0.258026 0.868835 0.626221
0.258087 0.869080 0.626343
0.258179 0.869354 0.626740
0.258270 0.869690 0.627106
0.258362 0.869934 0.627411
0.258362 0.869904 0.627777
0.258362 0.869873 0.628174
0.258392 0.869934 0.628174
0.258331 0.869812 0.627777
0.258301 0.869720 0.627411
0.258270 0.869629 0.627014
0.258240 0.869507 0.626587
0.258179 0.869293 0.626251
0.258148 0.869263 0.626709
0.256744 0.864990 0.629028
0.366180 0.891907 0.646820
0.492523 0.926880 0.681152
0.578674 0.949402 0.699677
0.651642 0.961090 0.713257
0.696411 0.969666 0.726135
0.719421 0.972198 0.736389
0.738312 0.975311 0.745392
0.751343 0.976166 0.747986
0.762054 0.976959 0.752502
0.767426 0.977722 0.754883
0.770294 0.977875 0.755951
0.772949 0.977814 0.756195
0.775482 0.977722 0.756287
0.777924 0.977661 0.756409
0.780426 0.977600 0.756439
0.782898 0.977539 0.756531
0.258392 0.869934 0.631531
0.258484 0.870148 0.631287
0.258545 0.870361 0.631042
0.258636 0.870636 0.631134
0.258667 0.870697 0.631470
0.258667 0.870728 0.631805
0.258667 0.870758 0.632141
0.258667 0.870697 0.632538
0.258698 0.870758 0.632629
0.258698 0.870789 0.632629
0.258667 0.870667 0.632233
0.258636 0.870575 0.631866
0.258545 0.870453 0.631470
0.258545 0.870361 0.631134
0.258484 0.870239 0.631531
0.257172 0.866272 0.633118
0.359436 0.892181 0.651154
