滤镜资源/Professional Luts Collection/Triune-Digital-Cinematic-LUTs/3D LUTs (CUBE)/ALEXA/The Revenant - Alexa.cube
#Created by Benjamin (IWLTBAP) : http://luts.iwltbap.com
#Copyright: (C) Copyright 2016 Triune Films and IWLTBAP
TITLE "Blockbuster LUTs Pack (Alexa Log-C)"
#LUT size
LUT_3D_SIZE 8
#LUT data points
DOMAIN_MIN 0.000000 0.000000 0.000000
DOMAIN_MAX 0.903226 0.903226 0.903226
0.000000 0.000000 0.000000
0.013641 0.000885 0.001007
0.059296 0.006287 0.006897
0.200439 0.037689 0.046143
0.388336 0.091980 0.108246
0.525269 0.124481 0.145477
0.548401 0.129486 0.151428
0.564972 0.132568 0.155334
0.004486 0.039032 0.017273
0.021454 0.036072 0.016083
0.089264 0.039795 0.024445
0.238464 0.057831 0.063751
0.395111 0.095215 0.109711
0.534546 0.127441 0.147217
0.558960 0.132599 0.153290
0.574524 0.135254 0.157349
0.018921 0.146759 0.100586
0.019440 0.143158 0.096252
0.093842 0.141449 0.086884
0.271912 0.138092 0.097626
0.442169 0.123840 0.126770
0.558685 0.135529 0.150848
0.570129 0.136993 0.154785
0.582794 0.139771 0.158356
0.080811 0.342560 0.233185
0.081085 0.343506 0.234894
0.081177 0.343811 0.237030
0.302185 0.391174 0.266235
0.527466 0.362366 0.251221
0.674286 0.292938 0.234467
0.689178 0.269714 0.224304
0.703735 0.260834 0.221100
0.164429 0.592865 0.411224
0.163452 0.589905 0.409973
0.162720 0.587799 0.408875
0.164459 0.588623 0.410828
0.535919 0.666473 0.468933
0.752441 0.650635 0.460541
0.790405 0.619232 0.446655
0.800110 0.610748 0.443298
0.232849 0.794647 0.565430
0.232056 0.792328 0.563141
0.232025 0.792297 0.562592
0.231964 0.792145 0.562622
0.472229 0.846527 0.615143
0.729492 0.891541 0.658478
0.778381 0.888977 0.659790
0.788757 0.889771 0.661896
0.254883 0.859650 0.616211
0.255676 0.862091 0.617798
0.255646 0.861938 0.617279
0.254639 0.859009 0.615112
0.387878 0.887848 0.643219
0.700928 0.959442 0.718445
0.766113 0.964630 0.738983
0.777039 0.964844 0.739716
0.258881 0.871277 0.636566
0.258942 0.871552 0.635834
0.258942 0.871552 0.637085
0.258942 0.871429 0.636353
0.356018 0.892120 0.656708
0.693146 0.974579 0.735626
0.758972 0.987915 0.764771
0.773254 0.989807 0.772461
0.000244 0.003235 0.009186
0.019073 0.003693 0.015656
0.081940 0.011292 0.034576
0.220551 0.042786 0.071564
0.398956 0.095459 0.121338
0.536163 0.128204 0.156342
0.557159 0.132416 0.162872
0.575439 0.135895 0.166870
0.002869 0.039398 0.044647
0.018555 0.039490 0.048065
0.100159 0.037994 0.055023
0.247803 0.057678 0.087769
0.412109 0.100067 0.126465
0.544373 0.131134 0.157257
0.566376 0.135162 0.164734
0.582184 0.137878 0.168304
0.018433 0.143982 0.110626
0.018219 0.143127 0.108795
0.098999 0.143463 0.112793
0.278595 0.133484 0.114899
0.445679 0.124237 0.137207
0.564148 0.137665 0.162109
0.575195 0.138702 0.164459
0.587311 0.140167 0.166992
0.080963 0.343018 0.237946
0.080872 0.342712 0.237793
0.080566 0.341644 0.239288
0.302551 0.390533 0.273956
0.527435 0.359680 0.254700
0.674347 0.289581 0.235870
0.690796 0.265045 0.229645
0.707458 0.256500 0.228027
0.164825 0.593994 0.415741
0.164154 0.592010 0.413757
0.163422 0.589813 0.413666
0.164062 0.590027 0.414642
0.540192 0.669495 0.477356
0.754883 0.649750 0.464600
0.791901 0.617889 0.452301
0.802216 0.608948 0.451721
0.232513 0.793579 0.569183
0.232635 0.794037 0.568481
0.232117 0.792511 0.566986
0.232483 0.793488 0.568451
0.471741 0.847107 0.619873
0.731415 0.894531 0.667297
0.779755 0.890411 0.666534
0.790375 0.891205 0.669861
0.254791 0.859375 0.621063
0.255127 0.860352 0.621094
0.255676 0.861969 0.622162
0.255402 0.861115 0.621887
0.386292 0.887787 0.647217
0.701843 0.959290 0.724518
0.766968 0.966736 0.744751
0.777924 0.966766 0.745117
0.258514 0.870117 0.641632
0.258667 0.870575 0.641693
0.258698 0.870667 0.642181
0.258606 0.870361 0.641693
0.352356 0.890289 0.662811
0.694794 0.975311 0.742767
0.760132 0.987244 0.769775
0.774292 0.989563 0.779236
0.000854 0.011536 0.036591
0.009918 0.012695 0.052551
0.086456 0.015015 0.075195
0.240387 0.050659 0.105377
0.416260 0.100128 0.149689
0.554626 0.132172 0.181061
0.576538 0.136841 0.186798
0.591797 0.140015 0.189026
0.002441 0.033325 0.067566
0.005402 0.029114 0.070404
0.093903 0.029785 0.090881
0.254211 0.057617 0.114929
0.425690 0.104401 0.151642
0.561218 0.135071 0.182343
0.583771 0.140045 0.188416
0.604736 0.144531 0.196259
0.018951 0.143982 0.153320
0.017670 0.138580 0.147736
0.090942 0.139404 0.158417
0.286438 0.125397 0.163330
0.463043 0.127380 0.169708
0.569336 0.139465 0.182526
0.588928 0.142639 0.188538
0.605286 0.145905 0.192932
0.082153 0.347870 0.278961
0.081604 0.345825 0.277252
0.080933 0.343445 0.274902
0.300507 0.385376 0.310822
0.536987 0.351807 0.288635
0.687805 0.265717 0.260590
0.710632 0.249573 0.258423
0.723480 0.242737 0.254700
0.164154 0.591827 0.420105
0.164429 0.592682 0.419434
0.163574 0.590210 0.416412
0.163513 0.589966 0.422394
0.541199 0.669403 0.483887
0.754211 0.646942 0.467041
0.793152 0.613586 0.457611
0.803528 0.604706 0.456329
0.232452 0.793335 0.574341
0.232422 0.793243 0.574249
0.232330 0.792999 0.573090
0.232605 0.793854 0.574371
0.467926 0.845703 0.623596
0.732635 0.896027 0.674377
0.781158 0.891235 0.672729
0.791931 0.892120 0.675812
0.254608 0.858734 0.626312
0.255249 0.860565 0.627075
0.255310 0.860748 0.626526
0.255432 0.861084 0.627350
0.384216 0.889740 0.655731
0.703186 0.958984 0.731110
0.767303 0.969299 0.750610
0.779022 0.969238 0.752228
0.258423 0.869751 0.646912
0.258545 0.870178 0.646393
0.258575 0.870270 0.646729
0.258514 0.870087 0.647003
0.350037 0.891174 0.670013
0.696289 0.976074 0.750732
0.761261 0.986053 0.775696
0.775391 0.988495 0.784271
0.004852 0.062042 0.128265
0.005219 0.065308 0.135956
0.018311 0.065155 0.162537
0.258057 0.081543 0.222473
0.455933 0.121490 0.255920
0.601807 0.153198 0.275818
0.624359 0.158936 0.282043
0.639252 0.161926 0.282318
0.007019 0.080444 0.154114
0.007080 0.081055 0.156067
0.013397 0.074615 0.169769
0.265320 0.092194 0.237671
0.464447 0.125885 0.259399
0.608459 0.156189 0.279785
0.629150 0.161102 0.282745
0.647766 0.165161 0.285858
0.010284 0.101898 0.182831
0.010437 0.102936 0.184235
0.008606 0.091949 0.181061
0.263824 0.101013 0.247955
0.469879 0.129791 0.262482
0.613251 0.158813 0.281342
0.633240 0.163025 0.282715
0.651154 0.166962 0.286133
0.078003 0.335541 0.385254
0.077911 0.335236 0.386658
0.077667 0.334595 0.385895
0.274475 0.368958 0.420013
0.545471 0.340485 0.411652
0.720673 0.273010 0.371429
0.736969 0.259369 0.361786
0.753174 0.252228 0.357330
0.168121 0.601746 0.546204
0.167847 0.600983 0.546051
0.167786 0.600769 0.546936
0.167542 0.600006 0.550079
0.526978 0.667786 0.613770
0.770874 0.643890 0.610779
0.822266 0.607391 0.596893
0.841370 0.587128 0.591125
0.236938 0.805573 0.650696
0.236969 0.805573 0.651520
0.236908 0.805420 0.652649
0.236725 0.804810 0.652374
0.446075 0.849701 0.695221
0.738037 0.911072 0.765167
0.804474 0.917664 0.776520
0.814941 0.916046 0.776184
0.256531 0.863983 0.657715
0.256561 0.864044 0.657990
0.256256 0.863129 0.656311
0.256470 0.863770 0.657867
0.363251 0.886780 0.684784
0.710663 0.964905 0.768860
0.780365 0.974945 0.797729
0.792175 0.977905 0.804138
0.258392 0.869293 0.672455
0.258667 0.870087 0.672760
0.258606 0.869965 0.671417
0.258575 0.869720 0.674164
0.333191 0.886017 0.693512
0.699738 0.971252 0.775330
0.768799 0.982574 0.803955
0.785309 0.984833 0.810577
0.016418 0.133087 0.244507
0.016907 0.135345 0.250824
0.016998 0.135742 0.259155
0.215973 0.147491 0.343475
0.459869 0.167145 0.397522
0.635162 0.190491 0.417114
0.656738 0.195282 0.423615
0.676086 0.198486 0.427338
0.019897 0.147675 0.268463
0.019836 0.147522 0.269104
0.019653 0.146759 0.273376
0.214264 0.156616 0.354980
0.465851 0.174591 0.409576
0.639008 0.195221 0.427002
0.663635 0.200226 0.432037
0.682068 0.203094 0.435120
0.022369 0.156952 0.284760
0.021973 0.155640 0.284454
0.022247 0.156616 0.288391
0.206238 0.165161 0.363647
0.468628 0.180817 0.417908
0.643311 0.199554 0.435059
0.669098 0.203613 0.435974
0.686371 0.205597 0.437683
0.062622 0.276459 0.437866
0.062561 0.276123 0.438507
0.062347 0.275452 0.440216
0.167694 0.284363 0.463837
0.497498 0.288666 0.510712
0.681000 0.247681 0.483887
0.701355 0.233276 0.467438
0.718170 0.233917 0.470703
0.163971 0.587921 0.668304
0.164764 0.590271 0.671356
0.164581 0.589600 0.671112
0.163696 0.587067 0.673096
0.488495 0.647888 0.728516
0.757080 0.671234 0.769012
0.819794 0.638367 0.760101
0.843140 0.618988 0.749481
0.240234 0.812744 0.811615
0.240204 0.812592 0.812714
0.240509 0.813568 0.813751
0.240387 0.813171 0.814056
0.351868 0.832672 0.836243
0.715881 0.906708 0.901031
0.833984 0.926392 0.927277
0.851288 0.927429 0.929230
0.241364 0.815521 0.850250
0.241333 0.815521 0.850281
0.241425 0.815735 0.849579
0.241302 0.815308 0.850922
0.242584 0.814697 0.854492
0.689880 0.923431 0.935364
0.860718 0.965729 0.969086
0.879395 0.970154 0.973816
0.241028 0.814453 0.853668
0.241089 0.814606 0.853210
0.241119 0.814789 0.852692
0.241089 0.814667 0.853027
0.245728 0.814728 0.857605
0.727448 0.932129 0.944763
0.887390 0.971497 0.977783
0.912201 0.977509 0.983551
0.033813 0.192535 0.353790
0.034302 0.193848 0.358154
0.033997 0.193024 0.359833
0.047241 0.193512 0.417725
0.439087 0.230133 0.527954
0.639252 0.244873 0.564972
0.661224 0.248016 0.574219
0.681213 0.248444 0.571838
0.036713 0.200714 0.371552
0.036591 0.200317 0.372070
0.036987 0.201355 0.376190
0.045044 0.198181 0.424835
0.438690 0.234467 0.532257
0.644073 0.252136 0.577148
0.667877 0.251556 0.577698
0.687469 0.253326 0.578796
0.039764 0.208923 0.390167
0.039459 0.208160 0.389496
0.039032 0.206940 0.388092
0.045837 0.203430 0.430878
0.436096 0.239441 0.537201
0.643829 0.258759 0.587006
0.669525 0.255585 0.583435
0.689575 0.256287 0.581573
0.041290 0.213135 0.397797
0.041107 0.212677 0.398132
0.040771 0.211731 0.397583
0.040009 0.209717 0.424011
0.412262 0.237305 0.527985
0.632629 0.259399 0.584381
0.671265 0.258759 0.587372
0.692596 0.260925 0.589111
0.153198 0.556244 0.747253
0.153595 0.557343 0.751038
0.153229 0.556305 0.749176
0.152008 0.552887 0.745544
0.433044 0.596771 0.803192
0.727844 0.614655 0.843628
0.798737 0.594269 0.842834
0.821716 0.588165 0.841797
0.236633 0.801239 0.870483
0.236359 0.800385 0.870544
0.236115 0.799652 0.870605
0.236053 0.799469 0.870575
0.301086 0.815491 0.881134
0.720642 0.907013 0.952972
0.856323 0.928894 0.978119
0.888000 0.934235 0.984070
0.240021 0.811279 0.863922
0.242249 0.811829 0.864227
0.242615 0.811920 0.864258
0.242340 0.811859 0.864227
0.276489 0.820648 0.868073
0.821930 0.955017 0.965240
0.974060 0.993439 0.994720
0.986237 0.996429 0.997498
0.257385 0.815918 0.865204
0.257538 0.815979 0.865204
0.263855 0.817413 0.866608
0.274384 0.819763 0.869049
0.326355 0.832458 0.877350
0.873474 0.967865 0.975342
0.997040 0.999237 0.999481
1.000000 1.000000 1.000000
0.041290 0.213135 0.399933
0.042419 0.216339 0.408630
0.043518 0.219452 0.416840
0.041687 0.214264 0.456238
0.420624 0.259857 0.573669
0.629028 0.280396 0.638611
0.662140 0.282104 0.643250
0.685638 0.282013 0.644958
0.045227 0.224060 0.423157
0.045929 0.225983 0.428040
0.046661 0.227997 0.432892
0.044434 0.221893 0.468964
0.417175 0.267609 0.582764
0.632263 0.284973 0.644440
0.667450 0.288574 0.651703
0.685669 0.286560 0.650482
0.048096 0.231873 0.437988
0.049011 0.234222 0.443542
0.049408 0.235413 0.447021
0.046112 0.226532 0.475098
0.412781 0.273499 0.589172
0.630890 0.288635 0.648956
0.671783 0.295135 0.661072
0.690643 0.292725 0.658813
0.049286 0.235016 0.443512
0.050354 0.238037 0.450287
0.050934 0.239594 0.454529
0.049347 0.235199 0.470459
0.390137 0.274292 0.583893
0.618866 0.288727 0.645844
0.674591 0.301422 0.670013
0.696136 0.299561 0.668549
0.139587 0.516327 0.763275
0.139130 0.515015 0.761963
0.138794 0.514069 0.761658
0.137146 0.509155 0.757751
0.394348 0.546631 0.819214
0.697479 0.545990 0.850372
0.771240 0.518768 0.847168
0.789978 0.512085 0.845856
0.234467 0.794861 0.870789
0.234253 0.794281 0.870819
0.234131 0.793884 0.870850
0.234558 0.795074 0.870819
0.338684 0.814148 0.888458
0.730438 0.898407 0.955933
0.876770 0.924133 0.982910
0.904755 0.926270 0.988464
0.240112 0.811646 0.862793
0.240143 0.811768 0.862457
0.246796 0.813385 0.863403
0.258850 0.816284 0.865479
0.367889 0.842285 0.885437
0.843109 0.960114 0.970032
0.993713 0.998383 0.998871
0.999817 0.999939 0.999969
0.367828 0.842712 0.883820
0.395264 0.849426 0.888336
0.403107 0.851410 0.889557
0.411835 0.853516 0.891022
0.533447 0.883209 0.912598
0.940704 0.984894 0.988434
1.000000 1.000000 1.000000
1.000000 1.000000 1.000000
0.044830 0.223022 0.422058
0.045776 0.225616 0.427979
0.046570 0.227783 0.433319
0.044647 0.222473 0.468475
0.411224 0.265472 0.580780
0.629639 0.287842 0.655121
0.661713 0.290131 0.659241
0.682220 0.292969 0.666290
0.046326 0.227112 0.429413
0.047699 0.230774 0.437683
0.048798 0.233765 0.444611
0.047668 0.230713 0.485321
0.410126 0.274292 0.593506
0.629852 0.292389 0.660797
0.664520 0.297333 0.671509
0.687286 0.297699 0.672974
0.050537 0.238525 0.451691
0.051086 0.240021 0.456543
0.051483 0.241089 0.460297
0.049072 0.234406 0.488037
0.404572 0.281036 0.601135
0.630280 0.296570 0.665131
0.666962 0.300781 0.676086
0.692291 0.302887 0.679413
0.052734 0.244598 0.465027
0.052673 0.244354 0.465698
0.053192 0.245789 0.470215
0.052582 0.244141 0.489899
0.380219 0.282898 0.595856
0.620422 0.297180 0.662201
0.669678 0.304871 0.680664
0.696167 0.307953 0.685455
0.132996 0.497040 0.758698
0.133423 0.498108 0.760864
0.133148 0.497406 0.760834
0.131805 0.493500 0.757721
0.380737 0.528595 0.816833
0.690155 0.525513 0.851410
0.761108 0.499359 0.846344
0.780243 0.489502 0.841522
0.234039 0.793518 0.870880
0.233734 0.792633 0.870941
0.233704 0.792603 0.870941
0.233643 0.792419 0.870941
0.352783 0.816040 0.890961
0.735840 0.894043 0.957520
0.879059 0.918701 0.984009
0.901978 0.919037 0.988739
0.263824 0.816956 0.868225
0.270264 0.818542 0.869049
0.281433 0.821289 0.870880
0.282379 0.821533 0.871033
0.359222 0.840271 0.883606
0.858673 0.964233 0.972321
0.994690 0.998657 0.998901
0.999176 0.999786 0.999847
0.438538 0.860077 0.895569
0.443848 0.861389 0.896362
0.459686 0.865265 0.899139
0.486084 0.871552 0.904358
0.581787 0.895264 0.920776
0.953735 0.988037 0.991669
1.000000 1.000000 1.000000
1.000000 1.000000 1.000000
