滤镜资源/Professional Luts Collection/Triune-Digital-Cinematic-LUTs/3D LUTs (CUBE)/ALEXA/The Matrix - Alexa.cube
#Created by Benjamin (IWLTBAP) : http://luts.iwltbap.com
#Copyright: (C) Copyright 2016 Triune Films and IWLTBAP
TITLE "Blockbuster LUTs Pack (Alexa Log-C)"
#LUT size
LUT_3D_SIZE 5
#LUT data points
DOMAIN_MIN 0.000000 0.000000 0.000000
DOMAIN_MAX 0.903226 0.903226 0.903226
0.003540 0.000000 0.007080
0.107544 0.003876 0.018555
0.522797 0.069153 0.079529
0.884460 0.168213 0.166962
0.921509 0.181488 0.184845
0.020966 0.104431 0.035126
0.098694 0.110046 0.031647
0.523285 0.154724 0.078613
0.890167 0.187042 0.156921
0.925049 0.200531 0.175140
0.168610 0.558716 0.150940
0.181793 0.558319 0.147308
0.496155 0.578308 0.117737
0.843811 0.602570 0.252197
0.882599 0.600189 0.258453
0.338135 0.896637 0.297821
0.352570 0.897980 0.294250
0.398407 0.899780 0.283203
0.895569 0.908569 0.327728
0.960297 0.912567 0.375275
0.391479 0.932129 0.342773
0.403229 0.932892 0.339233
0.417725 0.932892 0.333252
0.908936 0.949799 0.381653
0.991455 0.959625 0.449768
0.000000 0.007080 0.066437
0.084900 0.011871 0.099548
0.503967 0.082520 0.153107
0.883362 0.173065 0.229065
0.920715 0.186676 0.240448
0.000000 0.102325 0.112183
0.087341 0.100769 0.118439
0.532867 0.134155 0.150391
0.883362 0.194427 0.225677
0.921509 0.207703 0.240021
0.167999 0.555939 0.164825
0.184113 0.555573 0.166412
0.494507 0.575470 0.136810
0.850342 0.598328 0.269135
0.888184 0.597137 0.278137
0.337830 0.896423 0.313385
0.355804 0.896393 0.315033
0.395996 0.899567 0.300934
0.894592 0.906891 0.347412
0.959747 0.911896 0.391998
0.392303 0.932129 0.360809
0.409760 0.932129 0.360809
0.424011 0.932892 0.357239
0.908661 0.949799 0.405334
0.990692 0.959625 0.468018
0.000000 0.052856 0.217072
0.009064 0.052887 0.234192
0.410187 0.132935 0.366058
0.791901 0.241547 0.437531
0.834137 0.255585 0.449036
0.000000 0.074066 0.223358
0.004791 0.073547 0.230713
0.413757 0.152008 0.368591
0.800842 0.262268 0.439911
0.841797 0.272736 0.451416
0.124207 0.528839 0.427216
0.134979 0.528351 0.429108
0.454681 0.540558 0.441528
0.939575 0.528534 0.457886
0.981628 0.523743 0.462860
0.334167 0.886993 0.493256
0.350372 0.886871 0.493286
0.386108 0.885193 0.498535
0.886963 0.897949 0.570099
0.956879 0.899567 0.589478
0.399872 0.932892 0.527924
0.417389 0.932892 0.530823
0.437866 0.932892 0.534241
0.906036 0.949799 0.595581
0.991455 0.960419 0.642822
0.000000 0.154724 0.399719
0.004425 0.157349 0.403290
0.303772 0.192230 0.607269
0.784302 0.282532 0.680267
0.812561 0.299103 0.681122
0.000000 0.179138 0.409454
0.004425 0.179138 0.412994
0.294739 0.211151 0.612396
0.790649 0.303497 0.683167
0.818726 0.317352 0.686920
0.000000 0.410583 0.538513
0.004425 0.409668 0.539612
0.289795 0.437225 0.609467
0.817291 0.441772 0.705048
0.845367 0.436768 0.709778
0.232117 0.863251 0.780426
0.244232 0.863098 0.780457
0.253296 0.861298 0.780487
0.850616 0.866425 0.812531
0.995209 0.857880 0.802795
0.347534 0.947052 0.815216
0.362518 0.947052 0.818512
0.379425 0.947052 0.819214
0.893158 0.960419 0.839813
0.994720 0.970093 0.885254
0.000000 0.189453 0.451843
0.004425 0.189453 0.455383
0.232544 0.214966 0.657257
0.796295 0.288788 0.755249
0.833099 0.303406 0.758789
0.000000 0.211243 0.461914
0.004425 0.214020 0.465454
0.215698 0.235779 0.663940
0.799622 0.309509 0.761566
0.839600 0.323669 0.765106
0.000000 0.308136 0.510590
0.004425 0.309540 0.513947
0.184540 0.327789 0.618500
0.803833 0.374298 0.774933
0.854279 0.378326 0.779236
0.124603 0.872284 0.861969
0.142365 0.872131 0.861877
0.160828 0.870209 0.861084
0.829163 0.863708 0.917572
0.966400 0.857910 0.911011
0.267822 0.966675 0.907532
0.285034 0.966675 0.908173
0.305145 0.966980 0.908234
0.862030 0.969147 0.945038
0.987396 0.973267 0.963165
