滤镜资源/Professional Luts Collection/Triune-Digital-Cinematic-LUTs/3D LUTs (CUBE)/ALEXA/The Walking Dead - Alexa.cube
#Created by Benjamin (IWLTBAP) : http://luts.iwltbap.com
#Copyright: (C) Copyright 2016 Triune Films and IWLTBAP
TITLE "Blockbuster LUTs Pack (Alexa Log-C)"
#LUT size
LUT_3D_SIZE 8
#LUT data points
DOMAIN_MIN 0.000000 0.000000 0.000000
DOMAIN_MAX 0.903226 0.903226 0.903226
0.011322 0.012421 0.017670
0.089478 0.018585 0.022797
0.237976 0.038544 0.043884
0.493500 0.077606 0.089355
0.754486 0.127777 0.146271
0.935760 0.159119 0.215912
0.949402 0.158844 0.232147
0.960449 0.159393 0.237701
0.013885 0.071899 0.018677
0.052612 0.070770 0.018097
0.239227 0.085480 0.041534
0.486420 0.114532 0.081879
0.749634 0.145294 0.137756
0.935120 0.179901 0.211395
0.950104 0.180878 0.229584
0.961060 0.181488 0.235260
0.013214 0.177460 0.020355
0.024414 0.178101 0.020386
0.155426 0.178711 0.019409
0.459412 0.214264 0.065521
0.720337 0.235229 0.109100
0.920685 0.223724 0.181854
0.944580 0.209381 0.211243
0.957245 0.208527 0.218964
0.028503 0.360107 0.039215
0.039093 0.362000 0.039642
0.049500 0.363464 0.039948
0.370392 0.381348 0.045868
0.671387 0.407532 0.086548
0.859497 0.413086 0.115936
0.883362 0.408997 0.119995
0.897247 0.409271 0.122192
0.045685 0.575684 0.039032
0.055664 0.576569 0.039520
0.065460 0.577271 0.039917
0.133667 0.579315 0.046722
0.588715 0.591400 0.049042
0.815735 0.605469 0.090546
0.856140 0.603760 0.094543
0.871368 0.603729 0.095978
0.041992 0.737762 0.020630
0.051544 0.739319 0.023132
0.061218 0.740723 0.025330
0.070648 0.741058 0.027649
0.446625 0.742432 0.027435
0.735657 0.746216 0.022522
0.829376 0.753174 0.059235
0.847321 0.754700 0.065277
0.038086 0.780792 0.016724
0.046967 0.782532 0.019165
0.055756 0.783936 0.021454
0.064728 0.785431 0.023773
0.320374 0.789398 0.025818
0.693817 0.795715 0.017090
0.818634 0.798065 0.027740
0.839874 0.800140 0.035034
0.036316 0.796509 0.015717
0.044861 0.797943 0.018036
0.053436 0.799377 0.020294
0.062073 0.800781 0.022552
0.282806 0.805695 0.023865
0.682220 0.812683 0.016571
0.810364 0.814026 0.020355
0.836945 0.815918 0.026794
0.011322 0.012787 0.083954
0.070099 0.012726 0.079285
0.223938 0.033539 0.094879
0.492157 0.074646 0.147430
0.753937 0.125916 0.209412
0.932465 0.153107 0.261658
0.947021 0.152649 0.274109
0.958496 0.153015 0.278809
0.020355 0.063232 0.078674
0.055878 0.063080 0.075958
0.245483 0.078003 0.087006
0.492004 0.109894 0.144257
0.756012 0.148346 0.205933
0.933258 0.175690 0.259644
0.947723 0.175293 0.272369
0.959106 0.175751 0.277069
0.028046 0.179932 0.070312
0.039398 0.180695 0.070435
0.159088 0.180756 0.061890
0.468719 0.218262 0.109680
0.732239 0.241150 0.171875
0.931793 0.223389 0.246216
0.948792 0.207672 0.263916
0.959900 0.204559 0.269073
0.034668 0.362579 0.057892
0.045319 0.364502 0.058258
0.055786 0.366058 0.058533
0.372070 0.384216 0.066040
0.674896 0.410461 0.105469
0.863739 0.415771 0.137329
0.889465 0.413055 0.153473
0.903839 0.413208 0.159149
0.051300 0.578491 0.053406
0.061340 0.579376 0.053894
0.071167 0.579956 0.054352
0.140442 0.583099 0.062164
0.592316 0.595123 0.067078
0.819214 0.608643 0.106537
0.859589 0.607117 0.110535
0.874969 0.607147 0.112091
0.047546 0.740967 0.032440
0.057312 0.742523 0.035126
0.067139 0.743896 0.037476
0.076752 0.744263 0.040009
0.451019 0.746643 0.043945
0.740295 0.749939 0.037476
0.833069 0.756500 0.073486
0.851044 0.758148 0.079407
0.043762 0.784302 0.028046
0.053101 0.786255 0.030792
0.062347 0.787781 0.033447
0.071472 0.789215 0.036011
0.325226 0.794312 0.042145
0.698792 0.799438 0.030853
0.822357 0.802124 0.041382
0.843445 0.803955 0.048401
0.042175 0.800049 0.026978
0.051025 0.801697 0.029602
0.059875 0.803162 0.032043
0.068756 0.804688 0.034546
0.286285 0.810791 0.039459
0.687347 0.816559 0.030182
0.813690 0.818115 0.033661
0.840424 0.819885 0.040009
0.011383 0.013000 0.195618
0.053772 0.013275 0.192474
0.201263 0.014587 0.193909
0.486176 0.064850 0.243835
0.744659 0.116791 0.293365
0.927063 0.142578 0.333679
0.943176 0.143097 0.342438
0.955353 0.143494 0.346069
0.013947 0.033417 0.194336
0.042480 0.032959 0.194763
0.193359 0.031708 0.195190
0.482086 0.087860 0.242676
0.744354 0.139313 0.291534
0.927795 0.165039 0.332123
0.943848 0.165894 0.341156
0.955994 0.166473 0.344940
0.045349 0.174194 0.192902
0.057526 0.174896 0.193451
0.166931 0.184509 0.194092
0.495850 0.222900 0.225464
0.746887 0.239685 0.280212
0.929016 0.199982 0.327545
0.944702 0.188385 0.336609
0.956696 0.189240 0.340668
0.065277 0.378632 0.146240
0.076721 0.380463 0.147491
0.088226 0.382019 0.149323
0.382568 0.397125 0.167023
0.692474 0.426117 0.208344
0.882111 0.428925 0.244232
0.905731 0.424438 0.256134
0.919556 0.423889 0.260223
0.057129 0.579865 0.068207
0.067413 0.580994 0.068939
0.077332 0.581543 0.069427
0.146545 0.585266 0.077850
0.595428 0.597504 0.085999
0.822815 0.610382 0.123016
0.863251 0.608917 0.127014
0.878479 0.609161 0.128448
0.052917 0.743378 0.044189
0.062988 0.744904 0.047180
0.073029 0.746216 0.049713
0.082855 0.746521 0.052338
0.454315 0.750122 0.061493
0.744659 0.752899 0.053131
0.836761 0.759094 0.088409
0.854614 0.760712 0.094116
0.049377 0.787964 0.039337
0.058899 0.789886 0.042297
0.068420 0.791412 0.045166
0.077850 0.792877 0.047943
0.326904 0.799011 0.058838
0.703003 0.803253 0.045471
0.826111 0.806000 0.055450
0.847015 0.807587 0.062378
0.047852 0.803619 0.038208
0.057098 0.805359 0.041077
0.066193 0.806946 0.043762
0.075317 0.808441 0.046509
0.287292 0.815979 0.056091
0.691803 0.820526 0.044434
0.816925 0.822174 0.047424
0.843811 0.823730 0.053589
0.012939 0.013519 0.385162
0.026184 0.013611 0.385803
0.166199 0.015045 0.389496
0.462555 0.028503 0.417877
0.742798 0.081177 0.452301
0.915314 0.119110 0.475494
0.934418 0.119385 0.480011
0.947937 0.120514 0.483032
0.014435 0.027649 0.386200
0.026611 0.028107 0.389343
0.155792 0.029327 0.394043
0.457397 0.050934 0.418457
0.740631 0.106262 0.451904
0.915863 0.142487 0.475403
0.935181 0.143005 0.479797
0.948639 0.144135 0.482697
0.018951 0.055878 0.385040
0.031036 0.055634 0.387665
0.122131 0.056427 0.398865
0.445892 0.072968 0.415833
0.736694 0.130920 0.449860
0.916412 0.165771 0.474182
0.935608 0.166046 0.478302
0.949341 0.167175 0.481201
0.097870 0.378326 0.339111
0.109955 0.380127 0.341949
0.121918 0.381409 0.344940
0.396790 0.415009 0.417603
0.723328 0.446869 0.453949
0.912659 0.433350 0.453888
0.937164 0.425995 0.460693
0.949951 0.423737 0.462585
0.125916 0.611267 0.283508
0.137512 0.612915 0.285858
0.149170 0.614563 0.288391
0.228394 0.622528 0.309570
0.627960 0.633423 0.378815
0.865143 0.648804 0.397583
0.907074 0.645447 0.396149
0.921570 0.644531 0.394104
0.104980 0.770355 0.173920
0.116913 0.771606 0.179474
0.128937 0.772644 0.185303
0.141388 0.773193 0.192719
0.468994 0.779297 0.258270
0.778473 0.785309 0.251831
0.870972 0.790588 0.280029
0.888031 0.791351 0.283997
0.070312 0.800690 0.081909
0.080566 0.802460 0.085663
0.091125 0.804077 0.089417
0.101898 0.805908 0.093567
0.315857 0.818756 0.134918
0.721039 0.823456 0.132050
0.845551 0.828674 0.155426
0.867615 0.830048 0.163025
0.067383 0.816162 0.077026
0.077606 0.817963 0.080719
0.087830 0.819672 0.084351
0.098236 0.821442 0.088470
0.281403 0.833435 0.123383
0.705688 0.836243 0.105621
0.829681 0.838135 0.107880
0.858154 0.839539 0.114716
0.015594 0.016052 0.581970
0.028931 0.016144 0.582886
0.079712 0.016510 0.585541
0.419861 0.023499 0.601654
0.713318 0.052032 0.634857
0.924957 0.067047 0.652313
0.948700 0.068573 0.656067
0.964081 0.069489 0.658600
0.017059 0.030151 0.583588
0.029144 0.030396 0.586182
0.067566 0.030731 0.588715
0.413605 0.047119 0.603180
0.712311 0.076477 0.635742
0.925354 0.091736 0.652679
0.949127 0.092896 0.656219
0.964569 0.093781 0.658905
0.019073 0.045868 0.584137
0.031586 0.047150 0.586426
0.044739 0.048645 0.588867
0.400757 0.070831 0.602905
0.708893 0.099792 0.635620
0.925507 0.116425 0.652466
0.949615 0.116394 0.655731
0.964874 0.117157 0.658417
0.073792 0.286957 0.563721
0.085663 0.288177 0.565521
0.097290 0.288605 0.567566
0.319611 0.326599 0.616608
0.681549 0.316620 0.637695
0.924744 0.291962 0.655121
0.952271 0.265808 0.656250
0.967224 0.260162 0.657532
0.156494 0.602478 0.497955
0.168945 0.604797 0.500793
0.181396 0.607086 0.503540
0.222321 0.612762 0.514526
0.654327 0.650848 0.652466
0.901550 0.669037 0.674500
0.949371 0.663727 0.674225
0.963928 0.661346 0.673462
0.179413 0.805603 0.447723
0.191772 0.806793 0.450409
0.206299 0.807556 0.455048
0.220123 0.807831 0.459412
0.509460 0.817596 0.560974
0.817108 0.821289 0.600342
0.919556 0.828918 0.618256
0.936829 0.829559 0.618988
0.170563 0.865784 0.410431
0.185211 0.867157 0.416626
0.199341 0.868225 0.422180
0.213470 0.869293 0.428162
0.419373 0.881348 0.512756
0.767303 0.887054 0.555542
0.895142 0.891388 0.571167
0.922791 0.892578 0.578369
0.168579 0.880310 0.401276
0.183258 0.881897 0.408020
0.197540 0.883331 0.414337
0.211761 0.884705 0.420868
0.382690 0.897644 0.495453
0.753967 0.903625 0.550232
0.884003 0.907043 0.557587
0.918304 0.908295 0.565857
0.018951 0.019409 0.753204
0.032410 0.019592 0.754425
0.052551 0.019775 0.755371
0.381592 0.025696 0.756287
0.686340 0.043640 0.786804
0.901947 0.050385 0.805054
0.933350 0.050110 0.808746
0.951599 0.051025 0.811554
0.020386 0.033661 0.753265
0.032562 0.033966 0.756104
0.049591 0.034180 0.758026
0.375885 0.051910 0.760468
0.685150 0.068573 0.787994
0.902863 0.076294 0.806274
0.934326 0.074921 0.809570
0.952454 0.075592 0.812256
0.025330 0.056854 0.748962
0.037872 0.058197 0.751801
0.051331 0.059174 0.755310
0.363525 0.075714 0.764038
0.680695 0.092529 0.788422
0.902405 0.101288 0.806915
0.935211 0.099670 0.810303
0.953278 0.099274 0.812531
0.029907 0.079407 0.742615
0.042389 0.080658 0.744904
0.054901 0.082001 0.747711
0.295593 0.094482 0.768829
0.658569 0.114868 0.785645
0.893219 0.125885 0.804504
0.936157 0.124390 0.808838
0.954071 0.123260 0.810730
0.141632 0.545898 0.681427
0.153961 0.548004 0.683441
0.166168 0.549805 0.685547
0.177887 0.549896 0.688080
0.593781 0.593414 0.814331
0.877930 0.576355 0.824554
0.932190 0.557190 0.815216
0.949707 0.554749 0.815979
0.212891 0.803986 0.634674
0.224457 0.804504 0.636047
0.239471 0.804840 0.639709
0.254517 0.804230 0.643890
0.512543 0.817108 0.712097
0.843781 0.837006 0.837433
0.956726 0.844818 0.846985
0.973419 0.845428 0.848755
0.220856 0.899078 0.602264
0.237762 0.900299 0.608063
0.254028 0.901001 0.613281
0.270142 0.901733 0.618530
0.435516 0.911926 0.672089
0.789124 0.923340 0.804321
0.922760 0.923798 0.809296
0.956146 0.924530 0.813049
0.221497 0.916107 0.597290
0.238342 0.917297 0.603241
0.254547 0.918304 0.608612
0.270599 0.919281 0.614044
0.381317 0.927063 0.650635
0.776093 0.942871 0.795898
0.911133 0.944733 0.801575
0.952362 0.945831 0.805603
0.020844 0.020966 0.843262
0.037109 0.021149 0.844086
0.061401 0.021210 0.844513
0.361053 0.029144 0.840118
0.675354 0.045929 0.864380
0.891205 0.043823 0.877075
0.927185 0.043427 0.880859
0.946075 0.044037 0.883820
0.023224 0.037903 0.842773
0.036011 0.038849 0.844849
0.058716 0.039429 0.847321
0.355469 0.054871 0.844116
0.674042 0.070801 0.865631
0.891968 0.069763 0.878174
0.928223 0.068909 0.882141
0.947052 0.069366 0.884857
0.028259 0.061554 0.838226
0.041351 0.063171 0.840729
0.059143 0.064026 0.846344
0.341278 0.078583 0.848694
0.670197 0.094910 0.866455
0.891418 0.095154 0.879303
0.929291 0.093506 0.883331
0.947937 0.093964 0.885925
0.032837 0.084167 0.832581
0.045898 0.085999 0.834839
0.062531 0.087708 0.839569
0.258728 0.098755 0.857391
0.647522 0.118103 0.865601
0.882294 0.120148 0.879364
0.930603 0.117950 0.884094
0.948792 0.117645 0.886414
0.128815 0.497375 0.768829
0.140747 0.498962 0.770691
0.152557 0.500153 0.772614
0.163788 0.498901 0.774658
0.566772 0.541718 0.895996
0.848389 0.512268 0.890228
0.924011 0.503418 0.893372
0.943146 0.501465 0.895020
0.206757 0.781250 0.727936
0.218384 0.782013 0.729340
0.231689 0.782623 0.732056
0.247131 0.781952 0.736694
0.488495 0.791412 0.801361
0.830261 0.818085 0.929443
0.950378 0.815155 0.929260
0.969330 0.815674 0.930237
0.236237 0.899017 0.697296
0.252045 0.899780 0.701385
0.269287 0.900391 0.706360
0.285675 0.900330 0.711273
0.419006 0.906036 0.750366
0.801056 0.926178 0.895477
0.934235 0.928772 0.931458
0.973175 0.930054 0.933472
0.243530 0.931213 0.689514
0.260986 0.932190 0.694885
0.278259 0.933014 0.700165
0.295105 0.933716 0.705292
0.403198 0.939728 0.738190
0.789459 0.959534 0.886169
0.921112 0.962311 0.923309
0.965485 0.963196 0.924835
0.021912 0.021515 0.864929
0.040985 0.021576 0.865326
0.064728 0.021729 0.865692
0.355347 0.030334 0.860168
0.672607 0.046509 0.882446
0.888458 0.042450 0.893707
0.925537 0.041840 0.897461
0.944641 0.042450 0.900360
0.024841 0.040100 0.863525
0.038940 0.040619 0.866730
0.061981 0.040955 0.868256
0.349426 0.055786 0.864044
0.671509 0.071564 0.883667
0.889130 0.068665 0.894745
0.926849 0.067505 0.898590
0.945801 0.067932 0.901428
0.029785 0.063538 0.859192
0.042908 0.065125 0.861725
0.061859 0.065796 0.867981
0.334625 0.079163 0.868347
0.667664 0.095581 0.884644
0.888489 0.094055 0.895721
0.928009 0.092468 0.899719
0.946777 0.092804 0.902435
0.034454 0.086548 0.853424
0.047516 0.088257 0.855743
0.065582 0.089905 0.861084
0.247131 0.100128 0.877350
0.644104 0.119354 0.883667
0.879303 0.118683 0.896454
0.929169 0.117065 0.901001
0.947754 0.116821 0.903473
0.124298 0.479980 0.790192
0.136230 0.481567 0.791992
0.148010 0.482635 0.793640
0.159241 0.481384 0.795532
0.558624 0.524933 0.915649
0.846008 0.497772 0.910767
0.922760 0.487701 0.913055
0.942047 0.485901 0.914795
0.204773 0.774567 0.761108
0.216522 0.775421 0.762390
0.229370 0.776062 0.764740
0.245148 0.775665 0.769226
0.481750 0.783783 0.832977
0.826935 0.811707 0.962097
0.949799 0.807007 0.960083
0.969513 0.807098 0.960632
0.235107 0.894562 0.733521
0.250854 0.895264 0.737579
0.267883 0.895569 0.742615
0.284241 0.895355 0.747620
0.408234 0.899994 0.783997
0.797913 0.921326 0.930786
0.931732 0.925323 0.965881
0.972107 0.924713 0.965820
0.244965 0.931732 0.725433
0.262726 0.932678 0.730804
0.280243 0.933594 0.735962
0.297241 0.934204 0.741058
0.405609 0.940918 0.773132
0.794006 0.960876 0.919525
0.924194 0.964691 0.957977
0.970123 0.965576 0.967346
