滤镜资源/Professional Luts Collection/Triune-Digital-Cinematic-LUTs/3D LUTs (CUBE)/ALEXA/Tron - Alexa.cube
#Created by Benjamin (IWLTBAP) : http://luts.iwltbap.com
#Copyright: (C) Copyright 2016 Triune Films and IWLTBAP
TITLE "Blockbuster LUTs Pack (Alexa Log-C)"
#LUT size
LUT_3D_SIZE 5
#LUT data points
DOMAIN_MIN 0.000000 0.000000 0.000000
DOMAIN_MAX 0.903226 0.903226 0.903226
0.000000 0.000000 0.000000
0.141724 0.025024 0.017609
0.532227 0.054901 0.077087
0.913544 0.095978 0.156952
0.947235 0.104980 0.170715
0.001831 0.110168 0.011719
0.104645 0.122650 0.018005
0.566925 0.145172 0.035187
0.927734 0.142975 0.156097
0.956482 0.153564 0.172638
0.001312 0.411133 0.056213
0.017487 0.417084 0.055145
0.485901 0.485504 0.044861
0.962463 0.542816 0.025055
0.986481 0.550232 0.041260
0.005768 0.764893 0.102539
0.022003 0.767944 0.101440
0.067841 0.774628 0.091858
0.929077 0.865051 0.105164
0.989716 0.870728 0.108154
0.006531 0.802612 0.112457
0.022736 0.805206 0.111908
0.039124 0.808228 0.111786
0.895325 0.897430 0.117126
0.989746 0.906738 0.117950
0.004578 0.007629 0.166443
0.146576 0.011139 0.183044
0.529175 0.034851 0.155518
0.895782 0.082733 0.219879
0.935059 0.089417 0.231354
0.000000 0.119385 0.161987
0.075684 0.119720 0.159973
0.578064 0.136627 0.167450
0.911804 0.123993 0.220490
0.945496 0.136017 0.233582
0.000854 0.416351 0.091705
0.017029 0.421753 0.091736
0.482849 0.486633 0.078461
0.968628 0.554565 0.075195
0.988098 0.557739 0.111145
0.005615 0.767456 0.128906
0.021851 0.770477 0.128082
0.067047 0.777435 0.120941
0.929901 0.866180 0.135101
0.990021 0.871857 0.139862
0.006317 0.804840 0.137115
0.022644 0.807617 0.136658
0.039124 0.810699 0.136200
0.895721 0.899139 0.147247
0.989990 0.908569 0.148682
0.001129 0.013824 0.459320
0.036163 0.017181 0.513641
0.525787 0.013855 0.543304
0.929962 0.043152 0.527649
0.957184 0.058838 0.524200
0.000702 0.046753 0.502686
0.018219 0.048492 0.517517
0.520508 0.037842 0.543976
0.936523 0.083984 0.521912
0.960419 0.101715 0.519104
0.000000 0.466827 0.533112
0.015839 0.473206 0.535248
0.288513 0.479126 0.537994
0.957123 0.562256 0.551758
0.975677 0.573151 0.569855
0.001129 0.805054 0.458771
0.017365 0.806122 0.455322
0.051331 0.807281 0.447540
0.917908 0.884155 0.513855
0.990051 0.889008 0.517029
0.002808 0.838531 0.411133
0.018982 0.839417 0.407074
0.035156 0.840759 0.405304
0.888641 0.922241 0.476074
0.990662 0.932343 0.488342
0.003021 0.018097 0.757904
0.020782 0.017853 0.780975
0.369019 0.024506 0.829285
0.916809 0.044647 0.839905
0.954407 0.048706 0.843353
0.004333 0.036865 0.795868
0.023865 0.038055 0.810516
0.363495 0.048645 0.829468
0.920166 0.072540 0.841095
0.955933 0.075653 0.844818
0.000000 0.305298 0.830200
0.015839 0.307770 0.831451
0.174622 0.286652 0.840637
0.916077 0.286652 0.851166
0.958344 0.270905 0.851929
0.000000 0.810669 0.835358
0.015839 0.813904 0.836731
0.031708 0.815430 0.838287
0.863037 0.882324 0.873444
0.979370 0.892395 0.881409
0.000000 0.896851 0.837097
0.015839 0.898254 0.837616
0.031708 0.899597 0.838623
0.843872 0.951630 0.869720
0.986023 0.972443 0.890778
0.003601 0.016235 0.822784
0.022064 0.017181 0.841278
0.330963 0.024170 0.878357
0.892242 0.034180 0.882416
0.944702 0.042389 0.883728
0.005707 0.035370 0.855286
0.026276 0.040375 0.867981
0.330383 0.048645 0.878967
0.896179 0.060638 0.883392
0.946777 0.066101 0.885590
0.000000 0.163574 0.883606
0.015839 0.163391 0.883911
0.202484 0.150299 0.887573
0.893158 0.144165 0.887604
0.950287 0.145386 0.891205
0.000000 0.780823 0.893768
0.015839 0.783997 0.894653
0.031708 0.785248 0.895813
0.838806 0.855011 0.935730
0.974792 0.864838 0.942932
0.000000 0.888824 0.899872
0.015839 0.890442 0.900604
0.031708 0.892303 0.901733
0.778870 0.947876 0.935974
0.984039 0.974121 0.965790
