滤镜资源/Professional Luts Collection/Triune-Digital-Cinematic-LUTs/3D LUTs (CUBE)/ALEXA/Tron - Alexa.cube
#Created by Benjamin (IWLTBAP) : http://luts.iwltbap.com
#Copyright: (C) Copyright 2016 Triune Films and IWLTBAP
TITLE "Blockbuster LUTs Pack (Alexa Log-C)"
#LUT size
LUT_3D_SIZE 8
#LUT data points
DOMAIN_MIN 0.000000 0.000000 0.000000
DOMAIN_MAX 0.903226 0.903226 0.903226
0.000000 0.000000 0.000000
0.071808 0.010651 0.003479
0.174805 0.029480 0.023743
0.396790 0.044739 0.054047
0.671143 0.062378 0.102783
0.902313 0.095856 0.152100
0.928162 0.097260 0.164886
0.947235 0.104980 0.170715
0.001221 0.056702 0.004028
0.053009 0.061188 0.006866
0.166473 0.072815 0.011902
0.411774 0.071960 0.040741
0.682556 0.088013 0.103912
0.911011 0.120605 0.153107
0.936859 0.126831 0.167603
0.953705 0.133575 0.173767
0.000885 0.134735 0.014984
0.012268 0.135834 0.014740
0.131653 0.151031 0.018402
0.407593 0.173645 0.009338
0.725647 0.184601 0.051727
0.920990 0.186401 0.147156
0.944183 0.170105 0.165527
0.958923 0.172363 0.172333
0.000305 0.302063 0.044312
0.009521 0.304535 0.044434
0.018707 0.305542 0.043854
0.346954 0.355255 0.042755
0.711060 0.380676 0.013367
0.950928 0.419952 0.038696
0.971069 0.422058 0.047516
0.982574 0.428741 0.053558
0.002716 0.533539 0.072388
0.011993 0.536926 0.072083
0.021271 0.540161 0.071411
0.088104 0.547607 0.042297
0.641541 0.625610 0.057587
0.939056 0.646149 0.050262
0.977448 0.657318 0.059143
0.989044 0.663879 0.064178
0.005371 0.736084 0.095856
0.014648 0.738586 0.096191
0.023926 0.740845 0.095978
0.033203 0.741852 0.094208
0.481598 0.802612 0.075623
0.896301 0.837219 0.100922
0.977234 0.842896 0.097687
0.989197 0.845154 0.101990
0.006134 0.784882 0.107361
0.015472 0.786774 0.107239
0.024811 0.788483 0.106964
0.034088 0.790009 0.105774
0.270355 0.828827 0.069489
0.853027 0.880035 0.111694
0.976929 0.889130 0.109344
0.989624 0.892120 0.113892
0.006531 0.802612 0.112457
0.015778 0.804077 0.111877
0.025085 0.805634 0.111847
0.034454 0.807465 0.112000
0.195618 0.838287 0.073151
0.837555 0.893951 0.115112
0.973846 0.903168 0.112915
0.989746 0.906738 0.117950
0.004242 0.004578 0.089355
0.073578 0.010223 0.095367
0.183777 0.021515 0.083374
0.396301 0.034241 0.089600
0.659515 0.050598 0.135498
0.889099 0.085480 0.179321
0.917084 0.087341 0.190125
0.938690 0.092590 0.195709
0.000153 0.057465 0.082336
0.038849 0.059235 0.082306
0.179718 0.068970 0.077148
0.411774 0.065491 0.093231
0.679230 0.076996 0.139496
0.903107 0.112457 0.183197
0.929169 0.115082 0.193817
0.947968 0.124695 0.200714
0.000641 0.140991 0.063507
0.012360 0.141907 0.063141
0.127838 0.151703 0.069336
0.444458 0.174225 0.059967
0.734131 0.192749 0.131958
0.922852 0.176025 0.187836
0.941376 0.159576 0.197357
0.955170 0.160645 0.202362
0.000092 0.305328 0.063263
0.009216 0.307312 0.063019
0.018372 0.308380 0.062897
0.345917 0.355347 0.060974
0.727325 0.384979 0.029602
0.954956 0.424744 0.062592
0.973358 0.430054 0.088379
0.984039 0.435791 0.101593
0.002533 0.536163 0.091370
0.011810 0.539520 0.091034
0.021088 0.542816 0.090546
0.087219 0.549011 0.064056
0.640381 0.626160 0.073334
0.942078 0.649902 0.069977
0.980042 0.666107 0.080994
0.989838 0.669220 0.084351
0.005280 0.737610 0.111694
0.014526 0.740051 0.111847
0.023804 0.742126 0.111542
0.033112 0.743317 0.110199
0.479431 0.803375 0.094025
0.896912 0.838257 0.118011
0.977570 0.843872 0.115356
0.989410 0.846100 0.120209
0.006042 0.786438 0.122009
0.015411 0.788300 0.121857
0.024780 0.789978 0.121429
0.034058 0.791443 0.120514
0.265106 0.829468 0.088593
0.853455 0.881134 0.128357
0.977203 0.890167 0.126923
0.989777 0.893127 0.131531
0.006439 0.803894 0.126831
0.015717 0.805420 0.126068
0.025055 0.807129 0.125854
0.034485 0.808990 0.125824
0.192932 0.838898 0.091766
0.838074 0.894928 0.132019
0.973969 0.904114 0.130157
0.989868 0.907806 0.135345
0.002228 0.006378 0.198029
0.042694 0.006287 0.208435
0.182068 0.007690 0.222656
0.424622 0.020447 0.198273
0.660065 0.032928 0.195526
0.883514 0.076782 0.233856
0.912994 0.082703 0.244080
0.935028 0.088501 0.249878
0.000885 0.037842 0.202209
0.029205 0.037018 0.202759
0.164246 0.034149 0.215668
0.426392 0.036896 0.188721
0.669098 0.050659 0.193512
0.891785 0.104401 0.236938
0.920441 0.108063 0.245758
0.940369 0.115845 0.251953
0.000000 0.151123 0.199921
0.009216 0.149994 0.198151
0.090546 0.148712 0.194733
0.410339 0.169373 0.189209
0.731476 0.173798 0.211487
0.904175 0.140472 0.236115
0.926910 0.133057 0.245667
0.945312 0.141144 0.251312
0.000000 0.323944 0.160645
0.009064 0.325439 0.160339
0.018097 0.326904 0.160828
0.324921 0.355560 0.166840
0.760101 0.397552 0.154388
0.960938 0.439056 0.196228
0.975067 0.440674 0.224457
0.984436 0.445801 0.238953
0.002319 0.537506 0.110229
0.011566 0.540649 0.109924
0.020844 0.543732 0.109589
0.085114 0.548798 0.086456
0.637909 0.624878 0.090881
0.943817 0.651093 0.089325
0.980591 0.668060 0.099762
0.990295 0.671448 0.104614
0.005157 0.738647 0.130829
0.014435 0.741089 0.130463
0.023682 0.742798 0.128387
0.032959 0.743805 0.125671
0.475952 0.803345 0.113007
0.897125 0.838531 0.135040
0.977905 0.844177 0.133301
0.989655 0.846436 0.138885
0.005951 0.787903 0.136810
0.015289 0.789612 0.136169
0.024658 0.791290 0.135498
0.033936 0.792694 0.134613
0.255737 0.829987 0.109039
0.853333 0.882141 0.146454
0.977417 0.891357 0.144989
0.989929 0.894226 0.149994
0.006317 0.805206 0.140533
0.015564 0.806641 0.140106
0.024994 0.808411 0.140045
0.034454 0.810303 0.140198
0.188293 0.839417 0.109863
0.837769 0.895874 0.149994
0.973999 0.905182 0.148102
0.990051 0.908875 0.153320
0.000702 0.010834 0.370178
0.011017 0.014893 0.388489
0.090363 0.015564 0.402039
0.400146 0.012604 0.425079
0.701355 0.021301 0.416595
0.899689 0.048737 0.394104
0.926300 0.051575 0.394867
0.944305 0.056671 0.394104
0.000092 0.031921 0.390198
0.009369 0.032135 0.395905
0.079559 0.030396 0.402252
0.395416 0.029541 0.424957
0.710236 0.039856 0.413635
0.904358 0.068817 0.389343
0.930084 0.073212 0.390198
0.946838 0.081299 0.391663
0.000031 0.063080 0.401764
0.009064 0.063049 0.402039
0.060638 0.057312 0.403503
0.384460 0.046997 0.422516
0.715515 0.059723 0.407959
0.907501 0.089813 0.382782
0.933319 0.097351 0.386658
0.949097 0.107056 0.388214
0.000000 0.347412 0.410797
0.009064 0.349945 0.412018
0.018097 0.352020 0.413239
0.208069 0.348572 0.409821
0.687164 0.384857 0.401093
0.942719 0.427368 0.426392
0.961670 0.428284 0.438049
0.972168 0.435760 0.448242
0.000000 0.584381 0.390320
0.009064 0.586731 0.389191
0.018097 0.588837 0.388031
0.072388 0.600983 0.383331
0.579742 0.632446 0.392181
0.951782 0.679688 0.386566
0.981506 0.692230 0.406250
0.990448 0.696594 0.421204
0.003052 0.754669 0.298859
0.012329 0.755920 0.296204
0.021637 0.757233 0.294495
0.030914 0.758240 0.294189
0.412201 0.806213 0.310394
0.891174 0.848053 0.342590
0.979675 0.851990 0.339813
0.991089 0.855560 0.352509
0.005341 0.795074 0.203613
0.014648 0.796448 0.201447
0.023865 0.797668 0.199127
0.033142 0.799011 0.197479
0.214447 0.832764 0.196167
0.851288 0.888855 0.248993
0.977753 0.899384 0.261688
0.990784 0.902679 0.271301
0.005707 0.811188 0.196075
0.014984 0.812592 0.194458
0.024231 0.814026 0.193512
0.033661 0.815674 0.193665
0.174683 0.841431 0.182800
0.837250 0.901642 0.227844
0.973755 0.910126 0.227142
0.990662 0.914093 0.233887
0.001831 0.012115 0.551910
0.011353 0.013885 0.572235
0.037994 0.021088 0.624542
0.279144 0.017731 0.639191
0.653534 0.019470 0.657013
0.925751 0.028473 0.657104
0.950775 0.038605 0.656189
0.964386 0.048645 0.654755
0.001495 0.029633 0.580688
0.010895 0.032013 0.597015
0.032410 0.036560 0.624084
0.270691 0.030212 0.639435
0.653687 0.032501 0.658356
0.930695 0.045898 0.658325
0.953644 0.059357 0.657867
0.966736 0.070801 0.655487
0.001251 0.050110 0.604523
0.010773 0.051941 0.617798
0.020294 0.053101 0.622650
0.251312 0.042969 0.639496
0.650848 0.045685 0.658936
0.933868 0.067413 0.657959
0.955658 0.082367 0.656708
0.968384 0.092590 0.654297
0.000000 0.279816 0.638763
0.009064 0.281036 0.639801
0.018097 0.281952 0.640564
0.128143 0.273102 0.647949
0.624084 0.259125 0.671448
0.939056 0.261871 0.651184
0.961700 0.245453 0.646515
0.971893 0.250671 0.644806
0.000000 0.588531 0.645782
0.009064 0.592010 0.647308
0.018097 0.595306 0.648712
0.045105 0.604553 0.652222
0.427216 0.622925 0.661957
0.923126 0.667816 0.658203
0.967590 0.683746 0.673370
0.978912 0.693329 0.684296
0.000000 0.797974 0.619904
0.009064 0.799438 0.619354
0.018097 0.800812 0.618866
0.027161 0.801758 0.618927
0.180725 0.814026 0.600189
0.842224 0.858154 0.652130
0.974731 0.868317 0.660065
0.988525 0.871948 0.666168
0.000000 0.854309 0.585846
0.009064 0.854919 0.584686
0.018097 0.855469 0.583588
0.027161 0.856049 0.582520
0.141449 0.860291 0.560730
0.806458 0.912109 0.616943
0.968109 0.929047 0.647278
0.988525 0.932129 0.652161
0.000031 0.867889 0.577606
0.009125 0.868408 0.576416
0.018188 0.868835 0.575287
0.027313 0.869385 0.574615
0.125427 0.873749 0.561371
0.795135 0.922028 0.598206
0.963287 0.941223 0.636169
0.988708 0.945404 0.643616
0.002747 0.016785 0.727325
0.012512 0.018707 0.743439
0.022797 0.018677 0.757843
0.243042 0.020264 0.798706
0.591339 0.022064 0.811859
0.901001 0.037537 0.816925
0.940155 0.043060 0.818817
0.958679 0.043732 0.820343
0.002930 0.032135 0.753479
0.013214 0.030060 0.764801
0.024414 0.029327 0.775940
0.238342 0.030090 0.798859
0.591187 0.032257 0.812958
0.903748 0.053619 0.817627
0.941467 0.058502 0.819672
0.959778 0.059387 0.821228
0.003448 0.042786 0.771881
0.014771 0.041412 0.781921
0.026276 0.041626 0.790192
0.224670 0.045013 0.800140
0.588013 0.043152 0.813660
0.904999 0.069794 0.817932
0.943207 0.073792 0.820221
0.960541 0.074768 0.821747
0.004242 0.055237 0.784210
0.015991 0.055573 0.792389
0.026459 0.056122 0.796906
0.164764 0.060059 0.799622
0.563812 0.054901 0.811829
0.894867 0.085358 0.816193
0.944763 0.090363 0.818817
0.961700 0.091766 0.820251
0.000000 0.520325 0.807556
0.009064 0.523590 0.808746
0.018097 0.526611 0.809967
0.027161 0.527283 0.811157
0.253143 0.528046 0.837280
0.866364 0.554779 0.840912
0.955231 0.552582 0.842285
0.972198 0.555176 0.842529
0.000000 0.786224 0.812836
0.009064 0.788605 0.813690
0.018097 0.790375 0.814392
0.027161 0.791351 0.815308
0.167633 0.819580 0.827728
0.800415 0.849915 0.845673
0.968079 0.860565 0.848389
0.980164 0.865753 0.854340
0.000000 0.882751 0.812683
0.009064 0.883545 0.812988
0.018097 0.884430 0.813293
0.027161 0.885315 0.813690
0.119995 0.896942 0.818359
0.779785 0.928101 0.839447
0.956299 0.944427 0.851532
0.982483 0.949402 0.860901
0.000000 0.899109 0.811127
0.009064 0.899689 0.811218
0.018097 0.900391 0.811432
0.027161 0.901215 0.811646
0.090576 0.908051 0.814178
0.763794 0.942505 0.834717
0.956085 0.962219 0.848999
0.985809 0.968475 0.858673
0.003479 0.016815 0.805969
0.013763 0.016602 0.817749
0.024475 0.017212 0.827850
0.202698 0.022034 0.861237
0.545258 0.022949 0.870239
0.868164 0.030945 0.869385
0.919769 0.038361 0.870514
0.946136 0.042664 0.871704
0.004120 0.027222 0.826691
0.015533 0.027679 0.835327
0.027283 0.028412 0.843933
0.196350 0.035400 0.862244
0.546692 0.032928 0.871185
0.869873 0.045654 0.869904
0.922028 0.053009 0.871429
0.947235 0.056702 0.872803
0.005920 0.039215 0.843872
0.017944 0.041321 0.850372
0.029053 0.045502 0.858551
0.179962 0.050110 0.864075
0.544647 0.043671 0.871948
0.869873 0.061279 0.870331
0.924164 0.067871 0.872375
0.948364 0.070923 0.873901
0.007721 0.055664 0.856750
0.018494 0.059570 0.863098
0.027557 0.060638 0.865448
0.122833 0.063843 0.865967
0.517822 0.059052 0.872009
0.857849 0.076782 0.870422
0.926453 0.083801 0.872864
0.949585 0.086212 0.874847
0.000000 0.469727 0.869171
0.009064 0.471558 0.869812
0.018097 0.472961 0.870422
0.027161 0.471954 0.871033
0.214172 0.443756 0.889130
0.829895 0.466614 0.897308
0.935608 0.476929 0.897034
0.957794 0.480103 0.898102
0.000000 0.744080 0.870087
0.009064 0.746033 0.870392
0.018097 0.747742 0.870819
0.027161 0.748444 0.871368
0.160187 0.784515 0.889313
0.768616 0.814148 0.913239
0.957550 0.824432 0.915741
0.972961 0.825897 0.918671
0.000000 0.859375 0.876099
0.009064 0.860687 0.876648
0.018097 0.861938 0.877289
0.027161 0.862579 0.877960
0.098969 0.873047 0.884338
0.719513 0.917114 0.912048
0.950745 0.936066 0.925049
0.983490 0.942810 0.935852
0.000000 0.889008 0.877502
0.009064 0.889923 0.877899
0.018097 0.890869 0.878418
0.027161 0.891846 0.879059
0.085571 0.899200 0.883392
0.650330 0.942322 0.909119
0.948822 0.966644 0.927979
0.984497 0.975861 0.943451
0.003601 0.016235 0.822784
0.013977 0.016724 0.833710
0.024811 0.017303 0.843658
0.195770 0.022064 0.875000
0.532684 0.023254 0.882935
0.862488 0.030853 0.882050
0.916351 0.037720 0.882935
0.944702 0.042389 0.883728
0.004364 0.027069 0.842804
0.016235 0.027802 0.850891
0.028259 0.028473 0.858826
0.189606 0.035431 0.875885
0.534760 0.033813 0.883789
0.864349 0.045624 0.882538
0.918671 0.052124 0.883789
0.945892 0.055878 0.884796
0.006226 0.039551 0.859039
0.018372 0.041565 0.865417
0.029663 0.045929 0.873291
0.174744 0.050201 0.877716
0.532867 0.044800 0.884583
0.864471 0.061340 0.882996
0.920959 0.067108 0.884552
0.947021 0.069550 0.885803
0.008118 0.056458 0.872253
0.018402 0.059814 0.877747
0.027710 0.061005 0.879883
0.115479 0.064240 0.880005
0.503204 0.061401 0.885040
0.852386 0.076477 0.883392
0.923279 0.082611 0.885345
0.948059 0.084259 0.886963
0.000000 0.456909 0.885040
0.009064 0.458893 0.885590
0.018097 0.460327 0.886047
0.027161 0.459412 0.886475
0.208801 0.430481 0.902527
0.822815 0.448639 0.910248
0.934082 0.458923 0.909454
0.955231 0.462341 0.910248
0.000000 0.740295 0.893097
0.009064 0.742188 0.893402
0.018097 0.743835 0.893768
0.027161 0.744598 0.894165
0.158081 0.778778 0.910370
0.764801 0.807312 0.933411
0.956818 0.817596 0.934662
0.972748 0.818909 0.937134
0.000000 0.855621 0.898407
0.009064 0.857178 0.898956
0.018097 0.858673 0.899536
0.027161 0.859314 0.900208
0.094055 0.868988 0.905914
0.695526 0.914398 0.934143
0.950104 0.932190 0.946320
0.982574 0.937805 0.957245
0.000000 0.888824 0.899872
0.009064 0.889771 0.900269
0.018097 0.890717 0.900696
0.027161 0.891724 0.901306
0.084259 0.898956 0.905579
0.602753 0.940308 0.932129
0.945496 0.963898 0.948425
0.984039 0.974121 0.965790
