滤镜资源/Professional Luts Collection/Triune-Digital-Cinematic-LUTs/3D LUTs (CUBE)/ALEXA/Tron - Alexa.cube
#Created by Benjamin (IWLTBAP) : http://luts.iwltbap.com
#Copyright: (C) Copyright 2016 Triune Films and IWLTBAP
TITLE "Blockbuster LUTs Pack (Alexa Log-C)"
#LUT size
LUT_3D_SIZE 32
#LUT data points
0.000000 0.000000 0.000000
0.014709 0.000916 0.001038
0.033661 0.002686 0.002075
0.053497 0.006226 0.002930
0.071808 0.010651 0.003479
0.091156 0.015137 0.006805
0.114105 0.019958 0.011658
0.141724 0.025024 0.017609
0.174805 0.029480 0.023743
0.215851 0.033264 0.028717
0.270081 0.036377 0.032349
0.331482 0.039032 0.042175
0.396790 0.044739 0.054047
0.462616 0.050293 0.065613
0.532227 0.054901 0.077087
0.599030 0.058868 0.089813
0.671143 0.062378 0.102783
0.743103 0.077789 0.116913
0.808319 0.085907 0.129242
0.867371 0.092987 0.142395
0.902313 0.095856 0.152100
0.913544 0.095978 0.156952
0.918427 0.095856 0.160034
0.923523 0.095825 0.162689
0.928162 0.097260 0.164886
0.932892 0.099030 0.166748
0.937622 0.100922 0.168274
0.942413 0.102875 0.169586
0.947235 0.104980 0.170715
0.952057 0.107086 0.171814
0.956848 0.109131 0.172943
0.961487 0.111023 0.174194
0.000153 0.012909 0.001007
0.010773 0.013794 0.000885
0.027527 0.015076 0.001373
0.048431 0.017792 0.002045
0.067444 0.021698 0.002350
0.087830 0.025391 0.004852
0.112305 0.028870 0.008972
0.141602 0.032318 0.013977
0.175415 0.035461 0.020020
0.217194 0.037628 0.025421
0.271851 0.039978 0.031372
0.333893 0.043121 0.042816
0.398987 0.049622 0.054443
0.464813 0.055206 0.066010
0.534271 0.060028 0.077454
0.601807 0.064606 0.090088
0.674194 0.068787 0.103241
0.745972 0.083313 0.117065
0.811127 0.091492 0.129364
0.869690 0.099213 0.142639
0.904846 0.102203 0.152679
0.917023 0.102722 0.157928
0.921448 0.102509 0.160980
0.926086 0.103485 0.163666
0.930664 0.105103 0.165894
0.935364 0.106903 0.167725
0.940155 0.108765 0.169312
0.943634 0.110229 0.170532
0.948456 0.112305 0.171692
0.953278 0.114410 0.172821
0.958038 0.116455 0.173950
0.962677 0.118378 0.175171
0.000397 0.027191 0.001587
0.007751 0.027771 0.001617
0.022583 0.029053 0.001495
0.042999 0.031494 0.001434
0.062775 0.034424 0.002380
0.083588 0.037537 0.004242
0.108246 0.040649 0.007538
0.139404 0.043274 0.010620
0.176117 0.045624 0.013489
0.219543 0.046967 0.016907
0.274506 0.046844 0.023315
0.336395 0.047363 0.039124
0.400818 0.053497 0.053436
0.466980 0.060181 0.066345
0.536194 0.065552 0.077850
0.604584 0.070343 0.090332
0.677094 0.075226 0.103638
0.748688 0.089325 0.117157
0.813843 0.097137 0.129456
0.872009 0.105408 0.142853
0.906769 0.108246 0.152893
0.919342 0.109009 0.158386
0.924255 0.110077 0.161926
0.928589 0.111450 0.164581
0.933167 0.113068 0.166779
0.937836 0.114807 0.168640
0.942627 0.116730 0.170227
0.946167 0.118225 0.171478
0.949677 0.119659 0.172638
0.954468 0.121643 0.173767
0.959259 0.123535 0.174866
0.963898 0.125366 0.176117
0.000763 0.042267 0.001587
0.004913 0.042511 0.001801
0.016510 0.043701 0.002472
0.037506 0.045074 0.002747
0.058716 0.047211 0.003754
0.079620 0.049652 0.005371
0.103394 0.052765 0.008209
0.134033 0.055847 0.010254
0.171448 0.058502 0.011597
0.217468 0.059753 0.012238
0.276855 0.057892 0.014618
0.342529 0.056488 0.030273
0.404694 0.059937 0.049225
0.468079 0.063385 0.064026
0.537689 0.070526 0.077545
0.607269 0.076172 0.090454
0.679871 0.081665 0.103882
0.751251 0.095398 0.117096
0.816589 0.102753 0.129517
0.874207 0.111786 0.143036
0.908752 0.114319 0.153076
0.921234 0.115295 0.158539
0.925903 0.116943 0.162140
0.930573 0.118622 0.165070
0.935272 0.120361 0.167419
0.940216 0.122345 0.169434
0.945099 0.124207 0.171051
0.948578 0.125610 0.172363
0.952148 0.127075 0.173492
0.955719 0.128510 0.174622
0.960449 0.130463 0.175781
0.965057 0.132263 0.176941
0.001221 0.056702 0.004028
0.004730 0.056885 0.004120
0.014008 0.057709 0.004608
0.030701 0.059326 0.005890
0.053009 0.061188 0.006866
0.075958 0.063202 0.007843
0.098938 0.065979 0.009735
0.129150 0.069489 0.011627
0.166473 0.072815 0.011902
0.213623 0.075104 0.010651
0.275726 0.074097 0.009430
0.347046 0.069397 0.013214
0.411774 0.071960 0.040741
0.472198 0.073059 0.059723
0.537933 0.074951 0.075470
0.608215 0.081421 0.089691
0.682556 0.088013 0.103912
0.753784 0.101501 0.116852
0.819397 0.108582 0.129456
0.876373 0.118286 0.143127
0.911011 0.120605 0.153107
0.922791 0.121979 0.158630
0.927460 0.123444 0.162262
0.932159 0.125122 0.165192
0.936859 0.126831 0.167603
0.941559 0.128632 0.169556
0.946503 0.130585 0.171204
0.950104 0.132050 0.172577
0.953705 0.133575 0.173767
0.957306 0.135101 0.174835
0.961060 0.136780 0.176117
0.965759 0.138641 0.177368
0.001770 0.072174 0.006226
0.004761 0.072357 0.006317
0.009735 0.072723 0.006500
0.023315 0.074249 0.007690
0.043793 0.076294 0.009644
0.068848 0.078461 0.011078
0.094757 0.080872 0.012726
0.124084 0.083801 0.013550
0.161469 0.087891 0.013794
0.210541 0.091095 0.010620
0.272766 0.091858 0.009521
0.343567 0.092102 0.009308
0.417480 0.090851 0.024384
0.483002 0.090088 0.049225
0.542969 0.090729 0.069733
0.607605 0.090546 0.087646
0.682251 0.093109 0.102814
0.756317 0.107697 0.116364
0.821991 0.114471 0.128998
0.878571 0.125031 0.142914
0.913300 0.127075 0.152954
0.924408 0.128662 0.158447
0.929077 0.129974 0.162079
0.933746 0.131622 0.165070
0.938446 0.133301 0.167542
0.943207 0.135101 0.169464
0.947876 0.136902 0.171082
0.951447 0.138397 0.172424
0.955048 0.139893 0.173645
0.958740 0.141449 0.174774
0.962463 0.143127 0.176025
0.966187 0.144775 0.177368
0.002167 0.089478 0.009033
0.005188 0.089722 0.009033
0.008240 0.089966 0.009094
0.016052 0.090637 0.009369
0.031342 0.092590 0.011108
0.056488 0.095032 0.013611
0.085663 0.097900 0.015564
0.118317 0.101196 0.017090
0.155853 0.105042 0.016541
0.205261 0.109863 0.012390
0.268127 0.112061 0.009247
0.340118 0.115631 0.008759
0.415100 0.117401 0.015900
0.491760 0.115387 0.030792
0.557526 0.114044 0.054871
0.619659 0.114380 0.077423
0.681641 0.113129 0.100098
0.755310 0.116211 0.114655
0.824036 0.120819 0.127899
0.880280 0.131775 0.141907
0.915131 0.133606 0.152069
0.926025 0.135620 0.157684
0.929565 0.136566 0.161530
0.934174 0.137787 0.164520
0.938843 0.139465 0.166962
0.943542 0.141266 0.168915
0.948273 0.143066 0.170532
0.952118 0.145111 0.172241
0.955750 0.146637 0.173462
0.959412 0.148285 0.174652
0.963165 0.149963 0.175903
0.966736 0.151520 0.177277
0.001831 0.110168 0.011719
0.004639 0.110443 0.011719
0.007538 0.110718 0.011688
0.010376 0.111084 0.011719
0.019775 0.112274 0.012024
0.037781 0.114777 0.013763
0.068481 0.118286 0.015564
0.104645 0.122650 0.018005
0.147858 0.126587 0.019440
0.197571 0.131042 0.016205
0.261627 0.135468 0.011658
0.335663 0.139984 0.008575
0.411713 0.144287 0.012268
0.489563 0.146698 0.022430
0.566925 0.145172 0.035187
0.639099 0.146027 0.056976
0.705231 0.148438 0.080750
0.762268 0.150787 0.106964
0.823853 0.144775 0.125183
0.882202 0.145538 0.139862
0.917725 0.143188 0.150452
0.927734 0.142975 0.156097
0.931396 0.144012 0.160217
0.935028 0.145203 0.163483
0.939545 0.146240 0.165894
0.944153 0.147827 0.167847
0.948792 0.149506 0.169403
0.952637 0.151550 0.171112
0.956482 0.153564 0.172638
0.960205 0.155212 0.173889
0.963928 0.156891 0.175110
0.967285 0.158417 0.176483
0.000885 0.134735 0.014984
0.003754 0.135010 0.014893
0.006592 0.135284 0.014801
0.009430 0.135590 0.014740
0.012268 0.135834 0.014740
0.023346 0.137299 0.014771
0.046844 0.140747 0.015472
0.083649 0.145325 0.015808
0.131653 0.151031 0.018402
0.187744 0.156708 0.020355
0.252899 0.162384 0.016876
0.329254 0.167786 0.011505
0.407593 0.173645 0.009338
0.485535 0.177582 0.018005
0.563690 0.180145 0.029755
0.646698 0.182465 0.037231
0.725647 0.184601 0.051727
0.787231 0.188660 0.078735
0.841949 0.192261 0.105469
0.889648 0.193939 0.130676
0.920990 0.186401 0.147156
0.931854 0.174866 0.153717
0.936035 0.170746 0.158508
0.940308 0.170227 0.162354
0.944183 0.170105 0.165527
0.947693 0.169800 0.167633
0.951294 0.170013 0.169342
0.955017 0.170959 0.170929
0.958923 0.172363 0.172333
0.962860 0.174042 0.173676
0.966187 0.175354 0.175049
0.969269 0.176117 0.176422
0.000122 0.165192 0.018158
0.002960 0.165436 0.018005
0.005859 0.165649 0.017792
0.008728 0.165863 0.017578
0.011597 0.166016 0.017395
0.014465 0.166229 0.017242
0.027069 0.167389 0.015930
0.058411 0.171722 0.014984
0.102570 0.178528 0.015686
0.168579 0.187195 0.020599
0.239746 0.194122 0.023254
0.320221 0.200897 0.018707
0.401520 0.206665 0.012665
0.481842 0.212616 0.015259
0.560394 0.217987 0.025879
0.643646 0.222839 0.032959
0.726593 0.227570 0.034607
0.800385 0.231232 0.040924
0.860809 0.236420 0.062164
0.909882 0.242096 0.092926
0.938538 0.244690 0.115662
0.947296 0.241180 0.129944
0.949219 0.236298 0.140686
0.951141 0.232544 0.149170
0.953461 0.229492 0.155212
0.956512 0.227417 0.159607
0.959747 0.226379 0.162964
0.962524 0.226257 0.165466
0.965485 0.226807 0.167389
0.968414 0.227631 0.169128
0.971405 0.228210 0.170868
0.974304 0.227997 0.172791
0.000000 0.204010 0.025696
0.002380 0.204468 0.025513
0.004761 0.204895 0.025360
0.007141 0.205322 0.025177
0.009521 0.205658 0.024933
0.011902 0.205994 0.024719
0.014282 0.206207 0.024597
0.025055 0.207275 0.023621
0.062653 0.212708 0.019684
0.132538 0.222961 0.020325
0.219849 0.235321 0.027649
0.302765 0.242432 0.028900
0.389801 0.249298 0.022095
0.473358 0.255310 0.017548
0.554352 0.261536 0.021973
0.640350 0.269043 0.028229
0.724365 0.277527 0.029907
0.797882 0.284668 0.031769
0.864532 0.289490 0.038574
0.918915 0.293243 0.052277
0.949188 0.298401 0.069885
0.957794 0.298584 0.082306
0.961029 0.297302 0.091888
0.964020 0.296173 0.100189
0.966980 0.295441 0.106354
0.970093 0.295135 0.110962
0.973328 0.295410 0.114380
0.976257 0.296326 0.117462
0.979248 0.297455 0.119720
0.981689 0.298859 0.121704
0.984009 0.300201 0.123779
0.986298 0.301270 0.126495
0.000031 0.249908 0.035797
0.002319 0.250427 0.035767
0.004608 0.250916 0.035797
0.006866 0.251343 0.035736
0.009125 0.251740 0.035614
0.011383 0.252167 0.035522
0.013702 0.252350 0.035339
0.016022 0.252533 0.035095
0.028107 0.253571 0.033966
0.073334 0.261749 0.027283
0.176727 0.278595 0.029327
0.280151 0.293152 0.036621
0.370850 0.299683 0.034698
0.461304 0.303986 0.027649
0.545746 0.311554 0.023346
0.632629 0.319855 0.020752
0.719147 0.329254 0.018738
0.794586 0.339325 0.026642
0.862335 0.345703 0.030151
0.918518 0.350464 0.040619
0.950745 0.356171 0.048462
0.960327 0.356415 0.052032
0.964081 0.356018 0.057098
0.967865 0.356171 0.062592
0.971375 0.356964 0.066986
0.974121 0.358276 0.070435
0.976837 0.359650 0.073792
0.979309 0.361115 0.075958
0.981750 0.362732 0.077789
0.984283 0.364990 0.080017
0.986908 0.367340 0.082855
0.989532 0.369354 0.085999
0.000305 0.302063 0.044312
0.002625 0.302643 0.044342
0.004913 0.303314 0.044373
0.007202 0.303864 0.044434
0.009521 0.304535 0.044434
0.011841 0.305115 0.044373
0.014130 0.305298 0.044220
0.016388 0.305511 0.044037
0.018707 0.305542 0.043854
0.040131 0.307373 0.041321
0.096680 0.320984 0.029144
0.234467 0.340485 0.037415
0.346954 0.355255 0.042755
0.440338 0.361542 0.040375
0.531799 0.364624 0.031036
0.622833 0.371399 0.019989
0.711060 0.380676 0.013367
0.789551 0.390900 0.018127
0.859009 0.400452 0.021606
0.916534 0.410736 0.031067
0.950928 0.419952 0.038696
0.961639 0.421631 0.041931
0.965210 0.421295 0.043854
0.968231 0.421478 0.045715
0.971069 0.422058 0.047516
0.973999 0.423187 0.048981
0.976868 0.424591 0.050446
0.979736 0.426575 0.052002
0.982574 0.428741 0.053558
0.985443 0.431000 0.055145
0.988312 0.433044 0.056732
0.991150 0.435120 0.058258
0.000763 0.354706 0.051392
0.003082 0.355469 0.051300
0.005371 0.356171 0.051239
0.007690 0.356781 0.051208
0.009979 0.357452 0.051147
0.012268 0.358124 0.051086
0.014587 0.358643 0.050934
0.016907 0.358887 0.050598
0.019196 0.359131 0.050049
0.021454 0.359192 0.049500
0.061493 0.363251 0.040009
0.156250 0.384857 0.035522
0.308228 0.405548 0.045227
0.416870 0.417267 0.045502
0.510956 0.423676 0.044312
0.607239 0.426971 0.030273
0.700592 0.433868 0.022308
0.782440 0.445282 0.019501
0.853821 0.457764 0.020081
0.912201 0.469513 0.020111
0.949310 0.480774 0.024689
0.962280 0.483917 0.027924
0.965668 0.483643 0.029724
0.968933 0.483917 0.031555
0.972015 0.484680 0.033173
0.975128 0.485840 0.034729
0.978210 0.487274 0.036316
0.981232 0.489075 0.038605
0.984283 0.491058 0.040802
0.987335 0.493073 0.042999
0.990326 0.495087 0.045410
0.992920 0.496857 0.048676
0.001312 0.411133 0.056213
0.003632 0.412048 0.056091
0.005951 0.412933 0.055939
0.008270 0.413849 0.055786
0.010559 0.414795 0.055664
0.012878 0.415649 0.055542
0.015198 0.416443 0.055359
0.017487 0.417084 0.055145
0.019806 0.417786 0.054871
0.022125 0.418274 0.054657
0.029053 0.418854 0.053314
0.090240 0.430115 0.041962
0.226471 0.455719 0.038177
0.380005 0.474426 0.043762
0.485901 0.485504 0.044861
0.584900 0.493134 0.047333
0.684998 0.496796 0.037964
0.772034 0.501556 0.029022
0.846252 0.515198 0.022644
0.906738 0.528046 0.015991
0.946594 0.538635 0.021362
0.962463 0.542816 0.025055
0.966248 0.542999 0.027069
0.969666 0.543427 0.028900
0.973053 0.544220 0.030762
0.976440 0.545380 0.033081
0.979828 0.546631 0.035400
0.983154 0.548401 0.038300
0.986481 0.550232 0.041260
0.989227 0.552185 0.044647
0.991852 0.554077 0.048126
0.994446 0.555939 0.051575
0.001984 0.471710 0.062225
0.004303 0.472626 0.061829
0.006592 0.473572 0.061432
0.008942 0.474426 0.061005
0.011230 0.475342 0.060608
0.013580 0.476227 0.060211
0.015839 0.477142 0.059662
0.018188 0.477966 0.059082
0.020508 0.478821 0.058624
0.022858 0.479584 0.058197
0.025146 0.480194 0.057861
0.053223 0.480743 0.050171
0.126831 0.503662 0.039093
0.312653 0.528351 0.042786
0.453400 0.546570 0.052765
0.558411 0.556122 0.056030
0.665710 0.564362 0.054321
0.759735 0.568665 0.043091
0.836914 0.572449 0.029297
0.899719 0.583405 0.026031
0.943115 0.593018 0.031647
0.963440 0.598389 0.038483
0.968719 0.599274 0.040466
0.972198 0.599823 0.041992
0.975616 0.600586 0.043915
0.978973 0.601624 0.046112
0.982330 0.602814 0.048340
0.985382 0.604584 0.050812
0.987976 0.606659 0.053345
0.990570 0.608795 0.055878
0.993164 0.610931 0.058411
0.995758 0.613037 0.061005
0.002716 0.533539 0.072388
0.005066 0.534393 0.072357
0.007355 0.535278 0.072296
0.009674 0.536102 0.072174
0.011993 0.536926 0.072083
0.014313 0.537933 0.072021
0.016632 0.538666 0.071808
0.018921 0.539459 0.071625
0.021271 0.540161 0.071411
0.023590 0.540833 0.071198
0.025909 0.541412 0.070953
0.028198 0.541382 0.070099
0.088104 0.547607 0.042297
0.193787 0.577301 0.042725
0.399872 0.600159 0.055878
0.530823 0.617035 0.059143
0.641541 0.625610 0.057587
0.743439 0.634155 0.052917
0.826263 0.637726 0.047913
0.892303 0.641357 0.047516
0.939056 0.646149 0.050262
0.964020 0.653503 0.055725
0.970642 0.655518 0.057434
0.974060 0.656372 0.058289
0.977448 0.657318 0.059143
0.980927 0.658569 0.060333
0.983887 0.660034 0.061371
0.986450 0.661865 0.062714
0.989044 0.663879 0.064178
0.991608 0.665863 0.065613
0.994202 0.667725 0.067047
0.996765 0.669586 0.068542
0.003479 0.591156 0.080719
0.005768 0.591949 0.080658
0.008118 0.592804 0.080536
0.010406 0.593597 0.080505
0.012756 0.594452 0.080536
0.015015 0.595337 0.080536
0.017365 0.596069 0.080505
0.019684 0.596863 0.080475
0.022003 0.597595 0.080414
0.024292 0.598206 0.080109
0.026611 0.598785 0.079865
0.028961 0.599213 0.079590
0.048889 0.599945 0.070587
0.129700 0.621674 0.046356
0.323334 0.650482 0.057800
0.487640 0.671143 0.060242
0.620209 0.688843 0.058411
0.722931 0.694977 0.068695
0.810303 0.702271 0.074249
0.881287 0.705872 0.074036
0.930145 0.708405 0.072601
0.961334 0.711365 0.071014
0.971558 0.712311 0.071045
0.975250 0.712921 0.071716
0.978882 0.713715 0.072418
0.982056 0.714813 0.073120
0.984741 0.715881 0.073608
0.987305 0.717285 0.074432
0.989929 0.718964 0.075378
0.992554 0.720612 0.076324
0.995117 0.722321 0.077240
0.997742 0.723938 0.078186
0.004211 0.646271 0.085815
0.006500 0.647003 0.085724
0.008850 0.647858 0.085663
0.011139 0.648682 0.085602
0.013458 0.649445 0.085571
0.015778 0.650238 0.085541
0.018066 0.650909 0.085297
0.020386 0.651520 0.084961
0.022705 0.652283 0.084656
0.025055 0.652954 0.084351
0.027344 0.653473 0.084015
0.029663 0.653900 0.083649
0.032013 0.654205 0.083282
0.088654 0.661743 0.056305
0.194702 0.694397 0.056549
0.432007 0.717407 0.053680
0.584015 0.736267 0.060486
0.703247 0.747467 0.078827
0.793030 0.753052 0.088989
0.867065 0.758759 0.087097
0.920929 0.760651 0.082520
0.956024 0.763062 0.080658
0.970856 0.765228 0.080261
0.974762 0.765320 0.080414
0.977783 0.765503 0.080811
0.980774 0.765808 0.081299
0.983704 0.766296 0.081940
0.986450 0.766998 0.083221
0.989227 0.767792 0.084290
0.991943 0.768555 0.085266
0.994720 0.769379 0.086334
0.997467 0.770264 0.087402
0.004883 0.697083 0.090057
0.007141 0.697662 0.089996
0.009491 0.698273 0.090027
0.011810 0.698883 0.090027
0.014099 0.699463 0.090027
0.016388 0.700043 0.090027
0.018707 0.700592 0.089752
0.021027 0.701111 0.089447
0.023346 0.701569 0.089142
0.025665 0.702057 0.088837
0.027954 0.702423 0.088501
0.030304 0.702728 0.088043
0.032593 0.702942 0.087616
0.051727 0.705292 0.079803
0.135284 0.727081 0.062805
0.349579 0.755035 0.057526
0.538208 0.774414 0.066071
0.677094 0.789673 0.093292
0.771179 0.794830 0.095276
0.851440 0.800964 0.096161
0.908813 0.804047 0.092255
0.948334 0.805756 0.087799
0.969208 0.807770 0.087555
0.974731 0.808319 0.088287
0.977844 0.808746 0.089050
0.980957 0.809296 0.089905
0.984100 0.809937 0.090790
0.987000 0.810577 0.092102
0.989838 0.811188 0.093231
0.992615 0.811798 0.094330
0.995392 0.812531 0.095551
0.998169 0.813202 0.096771
0.005371 0.736084 0.095856
0.007690 0.736725 0.095947
0.010010 0.737396 0.096039
0.012329 0.738037 0.096161
0.014648 0.738586 0.096191
0.016968 0.739197 0.096191
0.019257 0.739746 0.096161
0.021606 0.740295 0.096069
0.023926 0.740845 0.095978
0.026245 0.741272 0.095856
0.028564 0.741608 0.095734
0.030884 0.741821 0.095154
0.033203 0.741852 0.094208
0.035492 0.741913 0.093475
0.094269 0.750305 0.075073
0.230408 0.781738 0.065094
0.481598 0.802612 0.075623
0.637299 0.819489 0.099762
0.752747 0.831207 0.102875
0.832489 0.833649 0.101898
0.896301 0.837219 0.100922
0.939056 0.839294 0.096710
0.963165 0.841278 0.095612
0.974213 0.842529 0.096680
0.977234 0.842896 0.097687
0.980286 0.843414 0.098755
0.983337 0.843964 0.099701
0.986237 0.844482 0.100647
0.989197 0.845154 0.101990
0.992096 0.845825 0.103302
0.995056 0.846558 0.104645
0.997955 0.847137 0.105957
0.005768 0.764893 0.102539
0.008118 0.765350 0.102325
0.010437 0.765747 0.102081
0.012756 0.766174 0.101898
0.015045 0.766571 0.101776
0.017365 0.767151 0.101898
0.019684 0.767578 0.101685
0.022003 0.767944 0.101440
0.024323 0.768341 0.101196
0.026642 0.768768 0.101044
0.028992 0.769348 0.100952
0.031311 0.769775 0.100677
0.033661 0.770233 0.100464
0.036011 0.770660 0.100250
0.067841 0.774628 0.091858
0.162048 0.799469 0.067505
0.418121 0.823395 0.079987
0.599792 0.840942 0.095428
0.726837 0.854340 0.105255
0.812714 0.858704 0.105408
0.882812 0.862885 0.107605
0.929077 0.865051 0.105164
0.957397 0.866608 0.102539
0.973663 0.867828 0.101746
0.977875 0.868469 0.103210
0.980927 0.869019 0.104340
0.983978 0.869568 0.105469
0.986816 0.870148 0.106812
0.989716 0.870728 0.108154
0.992554 0.871338 0.109589
0.995392 0.871948 0.111023
0.998169 0.872528 0.112518
0.006012 0.775848 0.105042
0.008301 0.776367 0.105194
0.010620 0.776764 0.105133
0.012939 0.777161 0.104980
0.015259 0.777557 0.104767
0.017548 0.777893 0.104523
0.019897 0.778412 0.104523
0.022217 0.778809 0.104279
0.024536 0.779205 0.104065
0.026855 0.779602 0.103729
0.029175 0.779999 0.103394
0.031525 0.780426 0.103149
0.033875 0.780945 0.102875
0.036224 0.781464 0.102661
0.053528 0.784912 0.101562
0.131866 0.800873 0.069214
0.362885 0.828369 0.075897
0.566742 0.847565 0.094574
0.704834 0.862305 0.105957
0.801422 0.871002 0.108887
0.871094 0.873322 0.110596
0.919586 0.876251 0.109619
0.952026 0.878082 0.106934
0.971100 0.879608 0.105408
0.977936 0.881012 0.107269
0.980835 0.881653 0.108276
0.983887 0.882294 0.109375
0.986786 0.882843 0.110504
0.989624 0.883484 0.111877
0.992493 0.884094 0.113251
0.995392 0.884735 0.114594
0.998199 0.885315 0.115936
0.006042 0.780365 0.106171
0.008392 0.780884 0.106201
0.010773 0.781433 0.106415
0.013031 0.781799 0.106262
0.015350 0.782196 0.105988
0.017670 0.782562 0.105743
0.020020 0.783020 0.105743
0.022339 0.783508 0.105713
0.024689 0.783905 0.105499
0.027008 0.784302 0.105133
0.029297 0.784729 0.104797
0.031647 0.785126 0.104553
0.033997 0.785492 0.104309
0.036316 0.785980 0.104095
0.038696 0.786469 0.103882
0.103302 0.796631 0.081085
0.312347 0.828217 0.071594
0.538391 0.848572 0.095154
0.687286 0.864075 0.104980
0.790894 0.875000 0.109924
0.861359 0.876892 0.111267
0.912689 0.880219 0.111359
0.946838 0.882172 0.108612
0.967224 0.883972 0.107361
0.977539 0.885590 0.108459
0.980927 0.886444 0.109619
0.983887 0.887115 0.110687
0.986725 0.887756 0.111725
0.989624 0.888336 0.112915
0.992493 0.889008 0.114227
0.995392 0.889618 0.115570
0.998199 0.890228 0.116943
0.006134 0.784882 0.107361
0.008484 0.785431 0.107391
0.010834 0.785950 0.107422
0.013153 0.786438 0.107483
0.015472 0.786774 0.107239
0.017792 0.787140 0.106995
0.020111 0.787567 0.106995
0.022461 0.788025 0.106964
0.024811 0.788483 0.106964
0.027100 0.788849 0.106628
0.029449 0.789246 0.106262
0.031799 0.789642 0.105988
0.034088 0.790009 0.105774
0.036469 0.790405 0.105530
0.038818 0.790863 0.105316
0.088959 0.797485 0.090363
0.270355 0.828827 0.069489
0.515594 0.850067 0.095245
0.671875 0.865967 0.103149
0.781586 0.877930 0.110382
0.853027 0.880035 0.111694
0.907471 0.883545 0.112701
0.942566 0.885559 0.110107
0.964081 0.887482 0.108887
0.976929 0.889130 0.109344
0.980957 0.890106 0.110718
0.983917 0.890808 0.111725
0.986725 0.891479 0.112701
0.989624 0.892120 0.113892
0.992493 0.892700 0.115021
0.995392 0.893341 0.116394
0.998169 0.893982 0.117767
0.006226 0.789368 0.108490
0.008575 0.789856 0.108490
0.010895 0.790344 0.108551
0.013245 0.790802 0.108521
0.015564 0.791260 0.108521
0.017883 0.791595 0.108276
0.020233 0.792023 0.108276
0.022583 0.792480 0.108276
0.024902 0.792938 0.108215
0.027252 0.793365 0.108063
0.029572 0.793762 0.107666
0.031921 0.794128 0.107452
0.034241 0.794556 0.107239
0.036560 0.794922 0.106995
0.038910 0.795319 0.106812
0.085754 0.801178 0.092957
0.238770 0.830353 0.070801
0.499115 0.852142 0.094574
0.660553 0.868286 0.101807
0.773865 0.880768 0.111206
0.846954 0.883392 0.112152
0.903229 0.886810 0.113647
0.939087 0.889069 0.111542
0.961792 0.890991 0.110352
0.975891 0.892639 0.110229
0.981049 0.893799 0.111816
0.983978 0.894531 0.112823
0.986816 0.895203 0.113831
0.989594 0.895844 0.114899
0.992462 0.896484 0.116058
0.995361 0.897064 0.117188
0.998169 0.897736 0.118591
0.006317 0.793701 0.109589
0.008667 0.794189 0.109619
0.010986 0.794678 0.109619
0.013336 0.795166 0.109619
0.015656 0.795593 0.109619
0.018005 0.796082 0.109619
0.020325 0.796478 0.109589
0.022675 0.796936 0.109558
0.025024 0.797363 0.109406
0.027344 0.797791 0.109283
0.029694 0.798248 0.109131
0.032074 0.798615 0.108948
0.034363 0.799011 0.108826
0.036713 0.799438 0.108734
0.039062 0.799835 0.108643
0.083588 0.805176 0.095581
0.216339 0.832520 0.071747
0.488098 0.854736 0.094299
0.652466 0.870911 0.100861
0.768158 0.883667 0.112091
0.843201 0.887024 0.112915
0.899963 0.890228 0.114594
0.936462 0.892670 0.112823
0.959900 0.894562 0.111664
0.974884 0.896118 0.111145
0.980896 0.897461 0.112976
0.984070 0.898224 0.113892
0.986877 0.898865 0.114899
0.989685 0.899536 0.115997
0.992462 0.900208 0.117096
0.995331 0.900818 0.118225
0.998169 0.901428 0.119415
0.006439 0.798157 0.111023
0.008698 0.798401 0.110748
0.011078 0.798889 0.110779
0.013367 0.799377 0.110748
0.015747 0.799835 0.110748
0.018066 0.800262 0.110718
0.020355 0.800598 0.110626
0.022705 0.801056 0.110535
0.025055 0.801483 0.110474
0.027374 0.801941 0.110443
0.029724 0.802368 0.110413
0.032104 0.802826 0.110504
0.034424 0.803253 0.110413
0.036774 0.803650 0.110321
0.039093 0.804016 0.110199
0.082428 0.809265 0.097565
0.201752 0.835175 0.072296
