滤镜资源/Lutify.me Free 3D LUTs Package/Capture One/Windows/Lutify.me Raw Styles/100%/LM-RAW-Hackmanite-100.costyle
<?xml version="1.0"?>
<SL Engine="1000">
	<E K="ICCProfile" V="LM-RAW-Hackmanite-100.icm" />
	<E K="Name" V="LM-RAW-Hackmanite" />
	<E K="StyleSource" V="Styles" />
	<E K="UUID" V="89A3753E-AD10-4B65-B074-8719AE0435A8" />
</SL>
