滤镜资源/Lutify.me Free 3D LUTs Package/Capture One/Windows/Lutify.me Raw Styles/100%/LM-RAW-Hiddenite-100.costyle
<?xml version="1.0"?>
<SL Engine="1000">
	<E K="ICCProfile" V="LM-RAW-Hiddenite-100.icm" />
	<E K="Name" V="LM-RAW-Hiddenite" />
	<E K="StyleSource" V="Styles" />
	<E K="UUID" V="3C421EEE-9DEA-401A-9262-36464CC720C9" />
</SL>
