滤镜资源/Lutify.me Free 3D LUTs Package/Capture One/Windows/Lutify.me Raw Styles/100%/LM-RAW-Herderite-100.costyle
<?xml version="1.0"?>
<SL Engine="1000">
	<E K="ICCProfile" V="LM-RAW-Herderite-100.icm" />
	<E K="Name" V="LM-RAW-Herderite" />
	<E K="StyleSource" V="Styles" />
	<E K="UUID" V="D1D33D31-7309-4829-8971-164B7F0A6AD2" />
</SL>
