滤镜资源/Professional Luts Collection/Triune-Digital-Cinematic-LUTs/3D LUTs (3DL)/ALEXA/Captain America Civil War - Alexa.3dl
# Created by Benjamin (IWLTBAP) : http://luts.iwltbap.com
# Copyright: (C) Copyright 2016 Triune Films and IWLTBAP
# Blockbuster LUTs Pack
0 64 128 192 256 320 384 448 512 576 640 704 768 832 896 960 1023
5 7 1
7 9 65
10 12 142
12 21 247
17 35 433
16 69 733
26 129 1099
83 140 1512
139 129 1980
185 136 2383
224 163 2788
261 197 3142
333 273 3364
364 293 3414
387 306 3448
410 318 3482
434 331 3516
16 107 14
15 95 70
16 84 145
15 66 245
18 68 426
14 100 728
23 157 1096
78 165 1511
132 154 1981
180 159 2387
219 186 2790
259 229 3142
331 307 3362
363 326 3413
386 339 3447
409 351 3481
432 363 3516
21 231 26
22 219 81
24 205 153
25 186 252
21 142 415
13 140 724
22 190 1092
74 191 1510
125 179 1981
174 183 2389
213 209 2792
256 259 3140
329 341 3361
362 359 3412
385 372 3447
408 384 3481
432 396 3515
10 389 28
12 380 76
14 372 159
20 353 263
23 321 414
13 236 717
21 233 1085
70 226 1504
118 204 1980
167 207 2389
208 233 2792
254 291 3138
327 376 3359
359 393 3411
384 405 3445
407 418 3480
431 429 3514
2 605 42
2 598 71
4 588 154
7 579 291
11 556 452
7 523 705
16 371 1066
68 275 1491
116 246 1971
160 231 2389
202 258 2791
252 324 3134
328 419 3354
359 432 3408
382 440 3444
406 450 3479
430 463 3513
0 911 88
0 906 117
0 900 154
0 890 302
0 880 519
1 854 754
1 789 1048
31 619 1420
115 341 1946
154 261 2385
197 288 2788
252 361 3124
328 462 3345
358 475 3402
381 483 3438
404 490 3474
429 498 3510
0 1292 185
0 1289 214
0 1286 245
0 1280 293
1 1267 541
1 1244 859
0 1199 1148
1 1135 1429
34 1028 1809
111 665 2285
189 388 2768
252 400 3111
327 503 3335
359 516 3396
380 523 3432
403 531 3468
428 538 3504
26 1727 326
24 1724 361
22 1720 395
20 1715 429
15 1703 519
10 1665 908
22 1638 1275
46 1592 1565
89 1570 1869
122 1495 2190
142 1275 2586
202 1012 2962
272 893 3224
318 769 3317
344 761 3361
370 762 3403
396 763 3442
86 2171 490
85 2167 520
84 2163 551
83 2160 583
81 2153 614
86 2141 880
106 2104 1334
133 2084 1669
155 2067 1978
168 2010 2268
180 1949 2581
204 1912 2880
256 1890 3124
287 1830 3219
305 1790 3264
323 1765 3307
341 1738 3350
202 2582 631
201 2579 661
200 2575 692
199 2572 722
198 2566 752
197 2559 846
208 2546 1313
220 2519 1727
242 2500 2073
250 2451 2379
264 2403 2674
286 2377 2923
339 2405 3144
366 2396 3244
373 2387 3281
383 2385 3314
392 2381 3347
283 2927 739
283 2923 768
283 2921 798
283 2918 827
283 2913 856
282 2904 884
297 2905 1237
307 2877 1739
321 2862 2146
342 2838 2490
366 2803 2781
407 2798 3021
464 2823 3215
491 2820 3315
499 2810 3359
505 2805 3388
512 2800 3416
313 3175 812
313 3171 840
313 3167 869
314 3164 899
315 3160 928
316 3156 958
328 3154 1195
361 3154 1737
385 3140 2189
433 3149 2567
462 3109 2861
509 3103 3095
564 3130 3283
593 3141 3396
602 3135 3449
608 3130 3486
612 3125 3517
327 3231 839
327 3228 870
328 3225 899
328 3221 927
328 3219 956
329 3216 986
338 3221 1121
384 3247 1715
419 3256 2194
486 3308 2594
535 3305 2914
576 3301 3146
624 3332 3334
653 3353 3453
660 3347 3507
666 3345 3549
671 3341 3591
336 3269 857
336 3265 887
337 3262 918
337 3259 947
338 3256 976
339 3254 1005
347 3258 1122
394 3284 1696
430 3295 2187
499 3349 2592
558 3368 2926
608 3399 3173
655 3449 3363
682 3478 3490
690 3473 3545
696 3471 3586
701 3469 3632
347 3305 876
347 3303 906
348 3299 936
348 3297 967
349 3294 996
349 3291 1025
358 3295 1138
405 3323 1698
443 3334 2192
511 3387 2596
572 3409 2935
621 3441 3184
667 3495 3375
696 3537 3507
702 3538 3565
709 3539 3608
716 3539 3654
358 3342 895
358 3339 925
359 3336 955
359 3333 986
360 3331 1017
361 3328 1046
369 3333 1156
418 3363 1709
458 3375 2201
525 3426 2604
586 3449 2946
635 3484 3198
677 3536 3389
704 3576 3520
711 3577 3578
719 3579 3620
724 3580 3667
369 3379 914
370 3376 944
370 3373 974
371 3370 1005
371 3368 1036
372 3366 1067
380 3371 1173
431 3402 1719
472 3414 2209
538 3465 2611
599 3490 2956
646 3526 3213
686 3576 3404
713 3615 3533
720 3617 3591
729 3618 3631
736 3619 3678
125 40 25
115 21 80
104 17 151
85 20 255
68 33 448
43 69 737
51 129 1104
110 139 1514
168 129 1975
212 136 2382
251 163 2787
292 195 3131
361 267 3359
393 289 3413
417 303 3447
441 316 3481
465 328 3515
96 124 30
88 104 80
77 81 152
64 59 252
52 65 441
37 97 732
48 156 1101
106 165 1513
162 153 1978
207 159 2386
247 186 2790
290 225 3131
359 299 3358
392 322 3413
416 334 3448
440 346 3482
463 359 3516
71 242 33
68 227 87
65 210 159
54 184 258
43 137 426
35 129 726
46 184 1098
101 191 1512
156 178 1978
202 182 2390
241 209 2791
287 255 3129
357 334 3357
391 354 3412
415 367 3447
439 379 3481
462 391 3515
34 394 31
36 384 78
38 377 162
42 358 270
45 322 420
35 224 718
44 218 1092
97 217 1509
149 203 1977
196 206 2391
236 232 2793
284 284 3128
355 368 3355
389 388 3411
414 400 3446
438 413 3480
461 424 3515
24 608 44
24 602 72
26 592 155
29 583 295
33 561 459
29 522 707
39 359 1073
94 251 1503
142 229 1974
189 230 2391
230 256 2793
279 310 3126
352 402 3353
386 423 3409
412 434 3445
437 445 3479
461 458 3514
22 914 90
22 911 117
22 905 155
22 895 303
22 884 521
22 853 754
23 790 1051
56 612 1428
138 311 1953
182 256 2387
226 286 2789
279 346 3117
351 444 3344
385 463 3405
409 471 3442
434 480 3478
459 491 3512
22 1294 187
22 1293 215
22 1290 245
22 1284 293
23 1271 541
23 1245 859
22 1201 1149
23 1137 1430
56 1023 1809
135 656 2292
216 376 2772
278 385 3104
350 483 3332
386 505 3400
409 512 3437
433 519 3473
457 526 3510
49 1728 329
47 1726 358
46 1722 392
44 1717 426
39 1707 516
33 1669 907
45 1640 1275
69 1595 1566
110 1567 1865
144 1495 2192
164 1273 2592
227 995 2964
301 873 3224
347 761 3320
375 752 3366
401 753 3408
427 754 3447
108 2169 493
108 2168 520
107 2165 551
106 2161 582
104 2155 613
109 2144 880
129 2105 1334
156 2086 1669
177 2064 1974
190 2011 2269
203 1950 2582
225 1909 2877
277 1882 3117
312 1829 3220
330 1788 3266
349 1763 3310
367 1735 3353
224 2580 636
224 2580 662
223 2576 692
222 2573 722
221 2568 751
220 2560 845
231 2546 1311
243 2520 1727
263 2498 2071
273 2453 2380
287 2405 2675
309 2377 2922
359 2398 3135
389 2397 3244
397 2387 3281
407 2385 3314
416 2381 3347
305 2924 744
306 2925 769
306 2923 799
306 2920 828
306 2915 857
305 2906 885
319 2903 1237
330 2878 1738
343 2861 2144
365 2839 2489
390 2805 2782
429 2797 3019
482 2815 3206
515 2821 3316
523 2811 3359
529 2806 3389
536 2801 3417
336 3171 818
337 3173 845
337 3170 873
338 3166 902
339 3163 932
340 3159 962
352 3155 1198
385 3155 1738
408 3140 2187
455 3149 2566
486 3111 2861
532 3101 3093
583 3122 3275
616 3141 3394
625 3135 3449
631 3132 3486
636 3126 3517
350 3227 846
351 3229 872
352 3226 901
352 3223 929
353 3220 959
353 3217 988
362 3221 1124
407 3247 1715
442 3256 2192
510 3308 2593
559 3307 2913
600 3301 3145
643 3324 3326
674 3350 3449
683 3347 3507
689 3345 3548
693 3342 3591
359 3265 864
361 3267 890
361 3264 920
362 3260 949
363 3258 978
363 3255 1008
371 3259 1125
417 3285 1697
453 3295 2186
522 3350 2591
581 3370 2924
631 3399 3172
675 3441 3355
703 3474 3486
713 3474 3545
719 3472 3587
724 3470 3632
370 3302 882
371 3304 908
372 3301 938
372 3298 969
373 3295 998
374 3292 1027
381 3296 1140
429 3323 1699
467 3335 2190
535 3387 2595
596 3410 2933
644 3441 3183
686 3488 3367
717 3532 3502
725 3539 3565
732 3540 3608
739 3541 3654
381 3339 901
383 3341 927
383 3338 957
384 3335 988
384 3333 1019
385 3330 1048
393 3334 1159
442 3362 1710
481 3376 2200
548 3426 2603
609 3451 2945
658 3484 3198
696 3528 3381
725 3571 3515
734 3578 3579
742 3580 3620
747 3581 3667
392 3376 920
394 3378 946
394 3375 976
395 3372 1007
396 3370 1038
396 3367 1069
405 3372 1176
455 3402 1720
495 3416 2208
561 3465 2610
622 3491 2954
670 3527 3213
705 3569 3395
733 3611 3527
743 3617 3591
752 3619 3632
759 3620 3678
276 71 52
275 62 107
270 42 173
239 30 271
192 33 465
136 70 749
83 128 1109
137 139 1514
195 129 1968
239 136 2381
279 163 2785
321 194 3126
390 261 3350
424 287 3411
448 300 3445
472 314 3480
496 326 3513
253 155 59
249 139 110
238 104 174
203 63 270
161 59 467
111 96 746
76 156 1107
134 164 1516
191 152 1973
234 159 2385
274 186 2788
318 221 3127
388 290 3350
422 318 3412
447 331 3446
471 344 3481
495 357 3515
212 268 56
196 255 109
186 228 177
150 174 276
127 122 463
88 125 736
70 183 1103
130 190 1515
186 176 1975
230 182 2389
269 210 2791
316 251 3127
386 321 3349
421 349 3412
446 362 3447
469 375 3481
493 387 3516
124 413 43
121 405 88
118 396 173
109 372 286
95 323 438
62 212 722
68 211 1097
125 216 1513
179 201 1974
225 205 2392
264 232 2793
313 280 3125
383 355 3348
419 383 3411
444 394 3446
468 407 3481
492 419 3515
51 613 48
51 607 75
52 597 156
54 589 301
56 565 467
51 520 710
62 346 1079
121 242 1509
172 226 1971
218 229 2392
259 255 2794
308 305 3124
381 389 3345
417 418 3410
442 429 3445
467 440 3480
491 453 3514
44 916 92
44 913 119
44 909 155
44 900 305
44 887 523
44 852 756
45 790 1053
80 606 1434
165 291 1957
211 254 2389
254 283 2790
304 333 3118
377 422 3341
414 453 3408
439 464 3443
464 475 3478
489 486 3513
44 1295 190
44 1295 217
44 1294 246
44 1288 293
45 1274 539
44 1246 859
44 1202 1149
45 1138 1432
78 1018 1808
159 645 2298
243 363 2777
303 370 3105
374 460 3330
414 492 3405
438 499 3441
462 509 3477
487 519 3512
72 1728 332
71 1727 361
69 1725 390
67 1720 423
62 1710 514
55 1673 905
67 1642 1274
92 1598 1567
132 1565 1861
166 1495 2194
185 1269 2598
253 979 2971
331 852 3224
378 750 3326
406 743 3371
432 744 3413
459 745 3453
130 2167 496
130 2167 523
130 2167 550
129 2163 582
127 2156 613
132 2147 879
151 2107 1333
178 2088 1670
198 2062 1971
213 2013 2269
225 1951 2582
247 1906 2875
297 1873 3107
337 1827 3223
355 1786 3269
373 1762 3313
391 1734 3356
246 2579 641
246 2578 666
246 2577 692
245 2574 722
244 2568 751
243 2561 845
253 2545 1311
266 2521 1726
285 2496 2068
296 2453 2381
310 2406 2677
331 2376 2921
377 2390 3125
412 2396 3243
421 2387 3281
431 2386 3314
440 2382 3347
327 2921 750
328 2923 775
328 2924 800
328 2921 829
328 2916 858
327 2907 885
341 2901 1237
353 2879 1737
366 2861 2142
388 2840 2488
413 2807 2783
453 2798 3019
501 2807 3196
536 2817 3311
547 2811 3360
553 2806 3389
560 2801 3418
358 3168 826
360 3170 852
362 3172 878
362 3169 907
363 3165 936
364 3161 966
377 3157 1201
408 3156 1738
431 3141 2185
478 3149 2564
510 3112 2861
556 3102 3093
602 3115 3267
636 3134 3387
649 3136 3448
655 3133 3485
659 3127 3517
373 3224 853
375 3226 879
376 3228 905
376 3225 933
377 3222 963
378 3220 992
386 3223 1128
431 3247 1715
466 3258 2191
532 3306 2590
583 3308 2913
624 3302 3145
663 3316 3317
694 3343 3441
706 3347 3506
712 3345 3548
716 3342 3591
382 3261 870
384 3263 896
385 3265 922
386 3262 951
387 3259 980
388 3256 1010
395 3259 1127
441 3285 1698
478 3297 2185
545 3348 2588
605 3371 2923
654 3400 3171
694 3434 3346
722 3466 3477
736 3474 3545
742 3473 3587
747 3470 3632
392 3298 889
394 3300 915
396 3302 941
397 3299 971
397 3297 1000
398 3294 1030
405 3297 1143
452 3323 1700
492 3338 2189
557 3385 2592
620 3411 2931
667 3443 3183
706 3480 3358
736 3525 3493
748 3539 3565
755 3541 3608
762 3542 3655
403 3336 907
405 3338 933
407 3339 959
408 3337 990
409 3335 1021
409 3332 1050
417 3335 1161
465 3362 1711
506 3378 2199
570 3424 2600
633 3452 2943
681 3486 3197
716 3521 3371
745 3564 3506
757 3579 3579
765 3581 3621
770 3583 3668
415 3372 926
416 3374 952
418 3376 978
419 3374 1009
420 3372 1040
421 3369 1071
428 3373 1178
478 3401 1721
520 3418 2207
583 3462 2608
646 3493 2953
693 3528 3213
725 3561 3386
752 3603 3518
765 3618 3592
775 3620 3632
782 3622 3679
454 110 84
457 104 140
454 97 206
445 70 291
405 41 468
316 72 757
227 128 1120
185 140 1514
223 130 1960
266 136 2380
306 163 2782
350 193 3121
420 254 3340
453 282 3403
479 298 3444
503 311 3478
527 324 3512
441 186 90
444 171 143
442 150 207
428 100 289
381 66 469
291 96 760
208 151 1121
176 162 1518
219 152 1964
261 159 2384
302 185 2787
347 220 3122
417 283 3340
451 312 3404
477 329 3445
502 342 3479
