滤镜资源/Professional Luts Collection/Triune-Digital-Cinematic-LUTs/3D LUTs (3DL)/ALEXA/Captain America Civil War - Alexa.3dl
# Created by Benjamin (IWLTBAP) : http://luts.iwltbap.com
# Copyright: (C) Copyright 2016 Triune Films and IWLTBAP
# Blockbuster LUTs Pack
0 128 256 384 512 640 768 896 1023
5 7 1
10 12 142
17 35 433
26 129 1099
139 129 1980
224 163 2788
333 273 3364
387 306 3448
434 331 3516
21 231 26
24 205 153
21 142 415
22 190 1092
125 179 1981
213 209 2792
329 341 3361
385 372 3447
432 396 3515
2 605 42
4 588 154
11 556 452
16 371 1066
116 246 1971
202 258 2791
328 419 3354
382 440 3444
430 463 3513
0 1292 185
0 1286 245
1 1267 541
0 1199 1148
34 1028 1809
189 388 2768
327 503 3335
380 523 3432
428 538 3504
86 2171 490
84 2163 551
81 2153 614
106 2104 1334
155 2067 1978
180 1949 2581
256 1890 3124
305 1790 3264
341 1738 3350
283 2927 739
283 2921 798
283 2913 856
297 2905 1237
321 2862 2146
366 2803 2781
464 2823 3215
499 2810 3359
512 2800 3416
327 3231 839
328 3225 899
328 3219 956
338 3221 1121
419 3256 2194
535 3305 2914
624 3332 3334
660 3347 3507
671 3341 3591
347 3305 876
348 3299 936
349 3294 996
358 3295 1138
443 3334 2192
572 3409 2935
667 3495 3375
702 3538 3565
716 3539 3654
369 3379 914
370 3373 974
371 3368 1036
380 3371 1173
472 3414 2209
599 3490 2956
686 3576 3404
720 3617 3591
736 3619 3678
276 71 52
270 42 173
192 33 465
83 128 1109
195 129 1968
279 163 2785
390 261 3350
448 300 3445
496 326 3513
212 268 56
186 228 177
127 122 463
70 183 1103
186 176 1975
269 210 2791
386 321 3349
446 362 3447
493 387 3516
51 613 48
52 597 156
56 565 467
62 346 1079
172 226 1971
259 255 2794
381 389 3345
442 429 3445
491 453 3514
44 1295 190
44 1294 246
45 1274 539
44 1202 1149
78 1018 1808
243 363 2777
374 460 3330
438 499 3441
487 519 3512
130 2167 496
130 2167 550
127 2156 613
151 2107 1333
198 2062 1971
225 1951 2582
297 1873 3107
355 1786 3269
391 1734 3356
327 2921 750
328 2924 800
328 2916 858
341 2901 1237
366 2861 2142
413 2807 2783
501 2807 3196
547 2811 3360
560 2801 3418
373 3224 853
376 3228 905
377 3222 963
386 3223 1128
466 3258 2191
583 3308 2913
663 3316 3317
706 3347 3506
716 3342 3591
392 3298 889
396 3302 941
397 3297 1000
405 3297 1143
492 3338 2189
620 3411 2931
706 3480 3358
748 3539 3565
762 3542 3655
415 3372 926
418 3376 978
420 3372 1040
428 3373 1178
520 3418 2207
646 3493 2953
725 3561 3386
765 3618 3592
782 3622 3679
693 162 125
698 147 248
669 92 475
483 127 1116
353 132 1942
334 163 2779
448 249 3330
508 293 3436
558 322 3511
667 326 134
683 291 251
644 164 471
448 173 1126
327 175 1956
325 208 2790
443 307 3330
505 354 3438
556 383 3514
538 644 91
529 643 191
436 621 567
331 283 1138
260 220 1964
315 253 2795
438 364 3329
500 413 3439
553 444 3515
102 1301 195
100 1299 251
95 1282 538
88 1202 1150
123 1004 1809
297 340 2786
429 427 3318
495 481 3437
549 509 3514
174 2164 501
174 2164 556
174 2159 611
195 2110 1332
242 2059 1967
270 1954 2584
339 1852 3091
402 1773 3267
444 1728 3363
371 2917 760
372 2920 810
373 2918 859
384 2901 1238
411 2861 2140
460 2810 2785
539 2794 3182
590 2804 3352
608 2802 3420
419 3218 867
422 3222 919
426 3226 972
434 3227 1135
515 3263 2190
632 3310 2912
706 3309 3309
747 3335 3493
763 3343 3591
438 3291 902
442 3295 954
446 3299 1007
454 3299 1149
540 3342 2188
669 3414 2930
750 3476 3352
788 3525 3550
808 3544 3655
460 3366 939
464 3370 990
468 3374 1044
476 3374 1183
569 3422 2206
694 3496 2951
769 3558 3380
805 3604 3575
829 3624 3680
1514 347 266
1532 342 398
1525 340 600
1361 172 1051
1189 149 1884
1135 176 2780
1251 314 3330
1287 354 3462
1346 388 3577
1472 450 256
1506 406 387
1518 379 593
1346 222 1049
1168 191 1896
1120 225 2790
1234 366 3337
1267 404 3465
1323 436 3576
1378 779 272
1412 758 376
1446 693 588
1310 308 1052
1125 233 1909
1080 270 2801
1185 413 3340
1212 453 3467
1261 482 3571
1263 1415 180
1259 1416 226
1223 1397 458
926 1262 1251
809 842 2018
876 336 2811
924 441 3320
965 488 3444
1016 518 3540
477 2237 521
476 2239 577
470 2234 631
464 2188 1345
420 2087 1991
351 1956 2596
399 1835 3092
451 1746 3263
499 1714 3369
415 2914 765
417 2916 815
417 2914 864
429 2901 1242
458 2863 2142
508 2812 2787
587 2793 3183
631 2793 3342
657 2801 3422
466 3217 879
469 3219 931
473 3224 983
483 3230 1145
564 3268 2192
681 3311 2913
753 3307 3310
789 3325 3485
809 3343 3591
485 3290 913
489 3292 965
493 3297 1018
502 3303 1156
590 3347 2191
718 3418 2933
798 3480 3356
832 3518 3545
855 3544 3658
507 3363 949
510 3366 1001
515 3371 1054
525 3377 1190
619 3427 2208
744 3500 2954
817 3561 3384
849 3598 3570
876 3625 3683
2505 712 503
2517 703 619
2532 693 792
2407 671 1252
2491 378 1932
2613 457 2777
2635 568 3330
2634 586 3454
2645 600 3563
2501 763 496
2510 746 613
2529 743 792
2416 720 1261
2479 430 1931
2605 503 2773
2628 614 3333
2628 632 3460
2639 647 3570
2458 1059 498
2497 1041 617
2498 977 831
2418 773 1267
2454 477 1925
2582 544 2766
2607 657 3333
2608 677 3465
2619 693 3577
2479 1662 591
2493 1665 632
2551 1684 857
2451 1584 1530
2385 1052 2004
2466 569 2737
2513 689 3327
2514 714 3476
2522 730 3590
2387 2408 339
2399 2421 384
2407 2429 431
2271 2402 1333
1974 2233 2199
1831 1982 2889
1828 1776 3438
1884 1680 3595
1924 1661 3701
1344 3104 805
1343 3101 864
1339 3093 925
1296 3057 1398
1310 3066 2265
1339 3007 2965
1334 2950 3343
1344 2946 3502
1354 2953 3584
1028 3314 997
1031 3317 1049
1031 3321 1102
1018 3323 1279
1074 3369 2257
1104 3386 2975
1066 3361 3366
1058 3367 3533
1062 3381 3634
952 3359 1006
955 3363 1059
956 3366 1111
947 3370 1250
995 3418 2239
960 3455 2964
991 3510 3389
1017 3545 3577
1038 3567 3689
947 3426 1032
950 3429 1085
950 3432 1138
940 3436 1274
979 3486 2251
948 3528 2978
1001 3591 3417
1028 3625 3602
1056 3652 3713
3049 933 627
3055 930 732
3061 950 947
3036 961 1515
3290 770 2210
3483 664 2948
3555 716 3470
3569 742 3592
3581 747 3691
3055 988 624
3062 984 732
3070 1003 957
3048 1016 1528
3277 835 2211
3483 718 2948
3554 767 3471
3570 794 3595
3582 799 3694
3098 1158 619
3098 1136 740
3084 1095 961
3059 1070 1537
3263 895 2207
3479 771 2944
3549 815 3469
3566 842 3597
3578 848 3696
3184 1847 649
3199 1852 732
3211 1855 1129
3182 1790 1737
3207 1384 2226
3448 816 2924
3517 859 3459
3534 882 3596
3547 888 3696
3275 2555 813
3268 2550 859
3259 2537 915
3254 2517 1759
3255 2467 2426
3377 2197 3022
3438 1977 3513
3461 1891 3668
3477 1870 3768
3157 3200 592
3152 3194 659
3148 3186 724
3157 3190 1286
3131 3225 2341
3059 3234 3211
3035 3220 3677
3033 3217 3835
3038 3220 3908
2923 3490 698
2920 3487 764
2922 3488 823
2911 3498 1085
2810 3612 2345
2559 3713 3283
2581 3717 3741
2591 3719 3899
2597 3721 3980
2832 3561 744
2824 3561 815
2821 3561 879
2802 3568 1052
2663 3675 2350
2403 3802 3286
2448 3863 3753
2496 3870 3908
2515 3872 3995
2779 3638 794
2772 3637 869
2768 3637 936
2743 3641 1104
2560 3748 2377
2355 3869 3303
2432 3928 3762
2493 3942 3914
2536 3949 4000
3161 990 695
3162 994 804
3157 1001 1029
3147 1024 1579
3396 879 2257
3628 721 2984
3727 783 3519
3751 847 3643
3771 907 3745
3176 1049 700
3177 1051 813
3170 1056 1043
3160 1079 1593
3379 945 2255
3629 779 2985
3729 837 3523
3754 903 3647
3774 962 3749
3199 1138 695
3200 1132 814
3182 1112 1046
3174 1135 1604
3366 1008 2250
3629 843 2986
3729 888 3525
3757 957 3651
3777 1017 3757
3329 1887 732
3333 1884 866
3320 1872 1259
3315 1805 1775
3337 1417 2261
3627 908 2975
3728 939 3518
3758 1009 3655
3780 1071 3764
3454 2577 910
3445 2568 958
3430 2551 1030
3454 2548 1807
3499 2507 2487
3653 2254 3061
3772 2065 3568
3801 2006 3705
3817 2003 3792
3538 3212 1038
3537 3210 1086
3535 3203 1140
3534 3188 1550
3637 3294 2551
3679 3302 3248
3799 3227 3716
3837 3206 3877
3847 3214 3946
3536 3531 631
3536 3530 682
3534 3530 731
3531 3532 971
3604 3679 2032
3602 3742 3225
3626 3753 3791
3632 3758 3937
3642 3762 4014
3503 3601 629
3505 3601 679
3505 3601 728
3497 3604 873
3555 3748 2008
3525 3863 3235
3536 3925 3812
3584 3921 3959
3593 3923 4037
3488 3676 638
3490 3676 688
3490 3677 737
3481 3681 877
3534 3816 2009
3495 3937 3262
3516 3994 3819
3561 4002 3967
3589 4006 4046
3216 1020 732
3214 1021 842
3200 1013 1065
3199 1051 1605
3442 913 2271
3686 777 3007
3786 849 3537
3811 894 3657
3830 954 3760
3235 1080 741
3230 1079 855
3213 1070 1081
3212 1106 1619
3424 980 2267
3686 834 3007
3789 905 3541
3815 949 3662
3834 1009 3765
3254 1158 733
3253 1152 856
3226 1127 1088
3226 1162 1628
3404 1049 2259
3686 894 3007
3792 960 3546
3817 1002 3666
3837 1063 3773
3377 1896 777
3371 1889 933
3367 1879 1292
3367 1811 1789
3382 1432 2271
3682 959 2995
3791 1010 3541
3819 1054 3670
3840 1118 3779
3497 2579 935
3489 2571 984
3474 2553 1064
3506 2558 1826
3553 2519 2505
3700 2270 3068
3826 2082 3579
3855 2028 3712
3870 2028 3797
3586 3221 1109
3586 3219 1156
3583 3213 1202
3584 3199 1589
3691 3303 2574
3739 3312 3263
3870 3236 3725
3912 3211 3886
3920 3219 3954
3626 3542 667
3627 3541 721
3626 3541 770
3629 3544 1033
3732 3678 2053
3807 3767 3248
3850 3761 3777
3871 3764 3942
3882 3766 4021
3625 3610 652
3627 3610 705
3628 3610 756
3628 3611 906
3723 3744 1948
3809 3879 3188
3834 3932 3805
3845 3931 3969
3842 3934 4044
3623 3681 655
3626 3681 707
3628 3682 758
3626 3685 904
3716 3813 1932
3798 3950 3181
3817 4003 3808
3823 4017 3979
3842 4021 4060
3273 1052 763
3266 1047 873
3247 1033 1101
3251 1078 1631
3490 940 2284
3744 839 3029
3845 916 3556
3871 961 3675
3890 1001 3775
3294 1113 773
3283 1106 889
3259 1090 1120
3264 1134 1644
3470 1008 2278
3744 895 3030
3849 973 3560
3875 1016 3680
3894 1056 3780
3312 1185 766
3307 1178 893
3272 1148 1127
3277 1190 1652
3449 1078 2271
3742 951 3027
3853 1031 3566
3879 1072 3686
3897 1111 3788
3429 1916 816
3414 1905 986
3415 1895 1324
3421 1826 1802
3425 1460 2281
3738 1008 3013
3854 1085 3561
3882 1128 3692
3899 1166 3793
3539 2584 964
3531 2576 1012
3519 2559 1094
3559 2571 1842
3608 2536 2522
3747 2294 3073
3881 2109 3591
3909 2057 3719
3923 2068 3802
3637 3234 1145
3637 3233 1190
3634 3226 1235
3637 3213 1619
3746 3313 2591
3794 3323 3277
3926 3248 3732
3969 3220 3892
3975 3224 3961
3688 3549 690
3689 3548 744
3688 3547 797
3691 3554 1065
3795 3681 2115
3875 3779 3266
3916 3772 3780
3943 3770 3942
3954 3771 4025
3683 3620 676
3686 3620 730
3687 3620 782
3686 3623 933
3783 3750 1978
3889 3891 3201
3939 3941 3809
3952 3937 3970
3957 3940 4048
3683 3686 668
3685 3687 719
3688 3687 771
3686 3689 917
3779 3815 1943
3892 3959 3178
3943 4013 3809
3954 4026 3978
3962 4029 4065
