滤镜资源/Professional Luts Collection/Triune-Digital-Cinematic-LUTs/3D LUTs (3DL)/ALEXA/Captain America Civil War - Alexa.3dl
# Created by Benjamin (IWLTBAP) : http://luts.iwltbap.com
# Copyright: (C) Copyright 2016 Triune Films and IWLTBAP
# Blockbuster LUTs Pack
0 256 512 768 1023
5 7 1
17 35 433
139 129 1980
333 273 3364
434 331 3516
2 605 42
11 556 452
116 246 1971
328 419 3354
430 463 3513
86 2171 490
81 2153 614
155 2067 1978
256 1890 3124
341 1738 3350
327 3231 839
328 3219 956
419 3256 2194
624 3332 3334
671 3341 3591
369 3379 914
371 3368 1036
472 3414 2209
686 3576 3404
736 3619 3678
693 162 125
669 92 475
353 132 1942
448 249 3330
558 322 3511
538 644 91
436 621 567
260 220 1964
438 364 3329
553 444 3515
174 2164 501
174 2159 611
242 2059 1967
339 1852 3091
444 1728 3363
419 3218 867
426 3226 972
515 3263 2190
706 3309 3309
763 3343 3591
460 3366 939
468 3374 1044
569 3422 2206
769 3558 3380
829 3624 3680
2505 712 503
2532 693 792
2491 378 1932
2635 568 3330
2645 600 3563
2458 1059 498
2498 977 831
2454 477 1925
2607 657 3333
2619 693 3577
2387 2408 339
2407 2429 431
1974 2233 2199
1828 1776 3438
1924 1661 3701
1028 3314 997
1031 3321 1102
1074 3369 2257
1066 3361 3366
1062 3381 3634
947 3426 1032
950 3432 1138
979 3486 2251
1001 3591 3417
1056 3652 3713
3161 990 695
3157 1001 1029
3396 879 2257
3727 783 3519
3771 907 3745
3199 1138 695
3182 1112 1046
3366 1008 2250
3729 888 3525
3777 1017 3757
3454 2577 910
3430 2551 1030
3499 2507 2487
3772 2065 3568
3817 2003 3792
3536 3531 631
3534 3530 731
3604 3679 2032
3626 3753 3791
3642 3762 4014
3488 3676 638
3490 3677 737
3534 3816 2009
3516 3994 3819
3589 4006 4046
3273 1052 763
3247 1033 1101
3490 940 2284
3845 916 3556
3890 1001 3775
3312 1185 766
3272 1148 1127
3449 1078 2271
3853 1031 3566
3897 1111 3788
3539 2584 964
3519 2559 1094
3608 2536 2522
3881 2109 3591
3923 2068 3802
3688 3549 690
3688 3547 797
3795 3681 2115
3916 3772 3780
3954 3771 4025
3683 3686 668
3688 3687 771
3779 3815 1943
3943 4013 3809
3962 4029 4065
