滤镜资源/Professional Luts Collection/Triune-Digital-Cinematic-LUTs/3D LUTs (3DL)/ALEXA/Gone Girl - Alexa.3dl
# Created by Benjamin (IWLTBAP) : http://luts.iwltbap.com
# Copyright: (C) Copyright 2016 Triune Films and IWLTBAP
# Blockbuster LUTs Pack
0 64 128 192 256 320 384 448 512 576 640 704 768 832 896 960 1023
24 23 9
31 39 61
45 58 170
71 84 345
109 101 590
132 89 890
224 125 1248
372 150 1681
490 203 2070
602 257 2407
724 290 2722
817 315 2977
874 331 3149
894 338 3209
908 342 3252
921 347 3293
934 352 3334
46 125 17
37 118 59
42 122 151
65 123 321
104 135 566
126 126 872
218 160 1237
371 177 1677
484 227 2063
600 278 2408
724 308 2726
818 331 2985
874 348 3155
894 355 3216
910 358 3259
923 363 3301
936 368 3342
71 274 31
56 259 67
43 246 147
58 236 291
93 203 524
119 164 854
209 191 1224
362 204 1666
477 250 2055
598 297 2408
724 326 2731
818 347 2991
873 365 3161
894 371 3221
911 373 3266
924 378 3308
937 383 3349
71 488 53
62 473 92
55 451 171
55 426 294
69 394 502
104 251 821
199 221 1209
351 230 1654
468 272 2046
593 318 2406
723 343 2734
817 364 2996
873 381 3166
894 387 3227
911 389 3272
926 393 3316
938 398 3357
84 756 121
83 745 146
80 725 209
76 708 327
70 684 518
78 602 825
177 345 1193
336 257 1638
458 293 2036
587 338 2402
723 360 2737
813 383 2997
872 397 3170
894 403 3234
911 405 3279
927 408 3323
940 412 3365
116 1117 208
115 1110 228
114 1100 253
112 1088 348
110 1082 545
106 1055 851
143 940 1247
269 627 1660
440 340 2032
580 357 2402
723 378 2742
811 402 3001
874 414 3178
897 419 3245
914 422 3290
930 424 3335
944 428 3376
184 1577 321
184 1574 337
183 1571 353
182 1564 377
181 1565 541
184 1570 871
192 1524 1281
240 1402 1741
347 1137 2101
499 735 2417
703 441 2743
807 422 3001
874 431 3183
900 436 3257
917 439 3302
934 441 3347
948 445 3388
255 2041 443
255 2041 457
255 2040 470
255 2038 484
254 2035 528
258 2065 857
261 2061 1295
263 2004 1765
298 1904 2163
381 1723 2501
518 1407 2812
675 1053 3045
778 827 3205
852 666 3270
875 651 3313
894 648 3356
913 644 3397
326 2475 566
327 2477 579
327 2479 592
327 2479 605
326 2475 616
332 2497 815
342 2529 1295
344 2507 1784
347 2456 2196
369 2384 2565
424 2260 2928
504 2114 3170
573 1993 3301
614 1917 3366
632 1883 3395
648 1869 3426
663 1849 3459
402 2895 687
403 2898 701
403 2900 714
403 2901 727
403 2900 739
404 2902 800
419 2947 1277
422 2954 1785
426 2932 2223
431 2888 2588
449 2830 2973
473 2766 3254
503 2713 3399
523 2681 3484
531 2667 3523
543 2660 3561
558 2648 3600
474 3271 812
474 3275 826
475 3279 840
476 3282 853
476 3282 867
475 3278 880
490 3323 1219
499 3359 1790
502 3359 2244
505 3328 2615
507 3277 2992
521 3239 3279
536 3210 3433
543 3196 3527
551 3188 3593
558 3184 3637
564 3179 3680
523 3535 901
524 3539 914
525 3543 927
526 3547 942
527 3551 957
527 3553 972
536 3582 1180
548 3637 1774
560 3661 2251
563 3652 2636
562 3615 3018
566 3578 3294
580 3557 3449
587 3546 3549
588 3542 3628
590 3541 3684
592 3539 3732
536 3602 923
537 3606 937
537 3610 950
538 3614 964
539 3618 979
540 3623 995
545 3644 1100
562 3728 1737
580 3780 2242
596 3811 2637
605 3812 3028
607 3794 3306
607 3777 3464
611 3769 3568
614 3766 3644
617 3767 3702
619 3765 3763
544 3648 938
544 3652 950
545 3656 964
546 3660 978
547 3664 993
548 3668 1009
552 3686 1096
569 3768 1711
594 3817 2233
640 3837 2635
668 3852 3029
695 3862 3310
709 3865 3471
705 3862 3572
706 3861 3646
710 3862 3703
713 3862 3766
551 3693 952
552 3697 965
553 3701 977
554 3706 992
555 3710 1007
555 3714 1023
559 3731 1107
578 3809 1707
633 3842 2241
683 3859 2645
712 3874 3038
740 3885 3315
764 3891 3477
773 3895 3580
777 3897 3650
783 3899 3706
790 3901 3767
559 3740 967
560 3744 979
560 3747 992
561 3751 1006
562 3756 1022
563 3759 1038
566 3776 1120
609 3838 1721
675 3865 2259
726 3882 2663
756 3896 3050
786 3907 3323
810 3914 3484
819 3917 3587
823 3919 3657
827 3921 3709
834 3924 3770
566 3786 981
567 3790 993
568 3793 1006
569 3797 1021
569 3802 1036
570 3805 1052
574 3821 1133
650 3861 1739
717 3887 2278
769 3904 2680
800 3918 3061
832 3929 3331
856 3936 3492
865 3940 3595
869 3942 3664
872 3943 3714
877 3945 3772
141 64 35
150 65 84
150 58 174
167 83 346
186 100 585
174 88 889
258 124 1254
406 151 1683
517 205 2073
627 258 2410
749 291 2724
843 315 2980
900 332 3152
920 338 3212
934 342 3255
947 348 3296
960 353 3337
112 132 19
111 122 61
119 119 152
136 122 323
158 137 565
164 129 872
252 161 1244
400 178 1677
510 229 2065
625 279 2411
749 309 2729
843 331 2988
899 349 3158
919 355 3218
935 358 3262
948 363 3303
961 368 3345
117 275 31
108 256 68
93 242 147
101 233 292
129 203 525
158 167 853
246 194 1231
393 206 1667
504 252 2057
622 298 2412
748 326 2733
843 348 2994
898 365 3163
919 371 3224
936 374 3269
949 378 3311
962 383 3352
95 489 53
91 471 93
83 450 172
83 424 295
103 392 502
143 251 821
236 223 1216
384 233 1654
498 275 2047
617 319 2410
747 344 2737
841 365 2998
898 382 3168
918 387 3230
936 390 3275
951 393 3318
963 398 3360
102 759 120
102 748 143
99 728 206
95 711 324
94 685 517
110 601 825
212 345 1199
370 260 1639
491 297 2038
612 339 2406
746 361 2741
837 384 3000
897 398 3173
918 403 3237
936 405 3282
952 408 3326
965 413 3367
131 1120 209
130 1113 230
129 1103 253
127 1091 347
126 1085 543
127 1055 852
169 938 1246
299 626 1657
473 342 2033
608 359 2406
746 379 2745
834 403 3003
898 415 3181
921 420 3248
938 422 3293
955 424 3337
968 429 3379
196 1580 321
196 1577 339
195 1573 355
194 1567 379
194 1568 543
198 1571 872
207 1525 1283
260 1401 1740
370 1135 2100
524 736 2419
728 442 2746
830 422 3004
898 432 3186
924 437 3259
941 439 3305
958 441 3350
972 445 3391
265 2044 443
266 2044 458
265 2043 472
265 2041 485
264 2038 529
269 2067 858
272 2062 1296
275 2006 1767
313 1906 2165
399 1725 2502
538 1407 2814
695 1054 3048
801 828 3207
875 667 3272
899 652 3316
918 649 3359
937 645 3400
336 2478 567
337 2479 582
338 2481 595
338 2480 607
337 2477 619
343 2499 817
352 2531 1297
355 2510 1786
358 2460 2198
381 2387 2567
438 2262 2930
521 2114 3170
589 1994 3302
630 1918 3366
649 1883 3395
664 1870 3427
679 1849 3460
412 2899 689
413 2902 702
413 2904 716
414 2905 729
413 2904 741
414 2906 802
430 2952 1279
432 2959 1788
437 2936 2226
441 2892 2591
460 2833 2977
485 2768 3257
515 2715 3401
536 2683 3485
544 2669 3525
556 2662 3563
572 2650 3601
483 3277 814
484 3281 828
485 3285 842
486 3288 856
486 3288 870
485 3284 883
499 3329 1222
508 3364 1792
511 3363 2246
515 3332 2618
516 3281 2994
530 3242 3281
546 3213 3435
553 3199 3530
561 3190 3595
568 3187 3639
574 3181 3682
532 3541 903
533 3544 917
534 3548 930
535 3552 944
536 3556 959
537 3558 974
545 3587 1183
557 3642 1776
569 3665 2253
572 3656 2638
571 3618 3020
575 3581 3297
589 3560 3450
596 3549 3552
597 3545 3631
599 3544 3686
601 3542 3735
545 3607 926
546 3611 939
547 3616 952
548 3620 966
549 3624 981
549 3628 997
554 3649 1102
571 3733 1739
589 3784 2244
607 3814 2640
614 3815 3030
617 3797 3308
616 3780 3466
621 3772 3570
624 3769 3647
626 3769 3704
628 3769 3765
553 3653 940
554 3657 953
554 3661 966
555 3665 980
556 3669 995
557 3673 1011
561 3691 1098
578 3773 1713
606 3820 2236
653 3839 2637
681 3853 3031
708 3864 3312
723 3866 3472
718 3863 3574
719 3863 3649
723 3863 3705
726 3864 3768
560 3699 954
561 3703 967
562 3707 980
563 3711 994
564 3715 1010
564 3719 1026
568 3736 1109
590 3812 1710
646 3844 2244
697 3861 2649
725 3875 3040
754 3886 3317
777 3893 3479
786 3896 3582
790 3898 3652
796 3900 3708
803 3903 3769
568 3745 969
569 3749 981
569 3753 994
570 3756 1008
571 3761 1024
572 3764 1040
575 3781 1122
622 3840 1725
689 3866 2262
739 3883 2666
769 3898 3052
799 3908 3325
823 3915 3486
832 3918 3590
836 3921 3659
839 3923 3711
847 3925 3771
575 3791 983
576 3795 995
577 3799 1009
578 3803 1023
578 3806 1038
579 3810 1054
586 3824 1136
663 3862 1744
731 3889 2281
782 3906 2683
814 3920 3064
845 3931 3333
869 3937 3494
878 3941 3597
882 3943 3666
885 3945 3716
890 3947 3774
374 131 92
389 128 149
371 107 222
337 87 346
343 100 579
303 89 882
300 125 1261
437 152 1685
545 206 2075
654 260 2414
777 292 2726
870 316 2983
928 332 3155
947 339 3215
962 343 3257
975 348 3299
988 354 3340
277 175 52
293 167 106
298 150 191
287 121 325
299 136 559
269 129 866
288 161 1249
431 179 1679
537 231 2067
651 280 2414
776 310 2731
870 332 2990
927 349 3161
947 356 3221
963 359 3265
975 364 3306
988 369 3348
230 279 33
226 259 72
228 240 151
232 229 292
250 202 524
238 169 849
278 194 1236
421 207 1667
530 253 2058
648 300 2415
775 327 2736
870 348 2996
925 366 3166
946 372 3227
962 374 3272
976 379 3314
989 384 3355
180 488 57
178 468 99
178 442 172
173 417 294
177 387 502
191 251 820
271 226 1220
413 235 1654
524 276 2049
643 320 2414
774 344 2740
867 366 3001
924 382 3171
945 388 3233
962 390 3278
977 394 3321
990 399 3363
124 762 118
124 750 140
124 729 205
122 711 324
121 683 518
140 600 825
244 345 1202
401 263 1639
519 299 2039
637 340 2410
772 361 2743
862 385 3002
923 398 3176
945 403 3240
962 406 3285
977 409 3328
991 414 3370
144 1122 207
144 1116 227
143 1107 251
141 1095 345
143 1086 542
150 1054 852
194 936 1245
327 624 1655
504 345 2034
633 361 2410
771 379 2747
859 403 3006
923 415 3184
947 420 3251
964 422 3296
980 424 3340
994 429 3382
206 1582 321
207 1580 340
207 1576 357
205 1569 381
205 1570 545
211 1573 874
222 1525 1284
279 1399 1739
391 1134 2100
548 736 2422
754 443 2748
855 423 3006
923 432 3189
950 437 3262
967 439 3308
984 441 3352
998 445 3393
274 2047 444
275 2046 459
275 2046 473
275 2044 486
275 2041 530
280 2069 859
284 2063 1298
287 2006 1768
327 1907 2166
416 1726 2503
557 1407 2815
716 1054 3050
826 828 3209
901 667 3275
924 653 3319
944 650 3361
963 646 3402
346 2480 568
347 2481 583
348 2482 597
348 2482 609
348 2479 621
353 2501 819
363 2533 1299
365 2514 1787
369 2464 2201
394 2390 2569
453 2264 2931
538 2114 3171
606 1994 3302
646 1918 3367
664 1883 3396
679 1870 3427
694 1850 3461
421 2903 690
423 2906 705
423 2908 718
424 2909 731
423 2908 743
424 2910 804
439 2956 1281
442 2963 1790
447 2940 2228
450 2896 2594
470 2836 2980
497 2771 3259
527 2717 3403
548 2685 3487
556 2671 3526
570 2663 3564
585 2651 3602
493 3283 816
494 3287 831
495 3291 845
496 3294 858
496 3295 872
495 3290 885
509 3335 1224
518 3368 1795
520 3367 2249
524 3335 2620
526 3284 2997
539 3245 3283
555 3216 3437
563 3202 3532
571 3193 3598
578 3189 3641
585 3184 3684
542 3546 905
542 3550 919
543 3554 932
544 3558 946
545 3562 962
546 3563 976
554 3592 1185
566 3647 1779
578 3669 2255
580 3661 2640
580 3622 3022
584 3584 3299
598 3563 3452
605 3552 3554
606 3548 3633
608 3547 3689
610 3545 3737
554 3613 928
555 3617 941
556 3621 954
557 3625 968
558 3629 984
559 3633 999
563 3655 1104
580 3738 1741
598 3789 2246
619 3817 2642
625 3818 3033
627 3800 3310
626 3783 3468
631 3775 3572
633 3772 3649
636 3772 3706
638 3771 3767
562 3658 942
562 3662 955
563 3666 968
564 3671 982
565 3675 997
566 3679 1013
570 3696 1100
586 3778 1715
618 3823 2238
667 3840 2640
694 3854 3034
721 3865 3314
736 3868 3474
731 3865 3576
732 3864 3650
736 3865 3707
739 3865 3770
569 3704 956
570 3708 969
571 3712 982
572 3716 996
572 3720 1012
573 3724 1028
577 3741 1111
602 3815 1713
660 3846 2247
710 3862 2652
738 3877 3043
767 3887 3319
790 3894 3481
799 3898 3584
802 3900 3654
808 3902 3710
816 3904 3771
577 3750 971
577 3754 983
578 3758 996
579 3762 1010
580 3766 1026
581 3769 1042
584 3786 1124
636 3842 1729
702 3868 2266
752 3885 2669
782 3899 3055
813 3910 3327
836 3916 3488
845 3920 3592
848 3922 3661
852 3924 3713
860 3926 3773
584 3796 985
585 3800 997
586 3804 1011
586 3808 1025
587 3811 1040
588 3815 1056
598 3827 1140
677 3864 1748
744 3890 2285
795 3907 2686
826 3921 3067
858 3932 3335
882 3939 3496
890 3942 3599
894 3944 3668
897 3946 3719
902 3948 3776
738 237 186
755 235 244
727 213 310
668 171 416
605 118 588
563 93 874
510 126 1272
494 153 1689
574 209 2078
683 261 2417
806 293 2728
899 317 2986
957 333 3158
976 340 3218
991 344 3260
1003 349 3301
1016 354 3343
574 260 127
601 254 187
619 243 271
597 191 385
548 145 562
520 131 859
469 161 1257
478 179 1682
566 232 2069
679 281 2418
805 310 2733
899 333 2993
955 350 3164
976 356 3224
991 359 3268
1004 365 3309
