滤镜资源/Professional Luts Collection/Triune-Digital-Cinematic-LUTs/3D LUTs (3DL)/ALEXA/Gone Girl - Alexa.3dl
# Created by Benjamin (IWLTBAP) : http://luts.iwltbap.com
# Copyright: (C) Copyright 2016 Triune Films and IWLTBAP
# Blockbuster LUTs Pack
0 256 512 768 1023
24 23 9
109 101 590
490 203 2070
874 331 3149
934 352 3334
84 756 121
70 684 518
458 293 2036
872 397 3170
940 412 3365
326 2475 566
326 2475 616
347 2456 2196
573 1993 3301
663 1849 3459
536 3602 923
539 3618 979
580 3780 2242
607 3777 3464
619 3765 3763
566 3786 981
569 3802 1036
717 3887 2278
856 3936 3492
877 3945 3772
1276 374 322
1090 236 681
757 215 2086
987 334 3161
1046 355 3345
660 736 104
624 656 495
601 303 2044
979 399 3182
1046 415 3376
365 2484 570
369 2483 625
391 2470 2206
639 1993 3304
725 1849 3464
572 3624 931
576 3640 988
617 3797 2251
646 3788 3472
656 3776 3771
602 3806 989
605 3822 1044
770 3894 2293
908 3942 3500
928 3951 3780
3630 1176 1097
3628 1171 1327
3305 680 2476
3073 460 3292
3074 475 3454
3520 1397 940
3549 1347 1217
3276 719 2471
3065 507 3326
3072 523 3490
2693 2645 502
2678 2636 545
2534 2512 2193
2556 2042 3306
2572 1904 3506
1325 3757 951
1298 3771 1002
1215 3854 2328
919 3817 3498
873 3800 3796
1158 3867 1094
1149 3873 1162
1106 3927 2392
1057 3957 3524
1067 3965 3804
4006 1543 1497
4007 1559 1678
3934 1156 2740
3892 917 3419
3887 890 3515
4006 1602 1477
4009 1614 1662
3938 1206 2752
3898 965 3441
3894 940 3538
3972 3028 900
3973 3024 945
3948 2950 2654
3937 2183 3490
3930 1955 3635
3895 3841 942
3894 3848 984
3865 3894 2291
3823 3780 3462
3823 3757 3754
3893 3968 995
3895 3976 1040
3892 4038 2332
3867 4038 3568
3861 4029 3864
4043 1611 1558
4045 1628 1736
3995 1234 2781
3967 997 3446
3964 973 3538
4043 1663 1542
4046 1679 1720
3999 1282 2793
3974 1045 3468
3972 1022 3561
4051 3070 971
4051 3065 1020
4034 3001 2715
4020 2233 3521
4025 1992 3671
4006 3873 1011
4006 3880 1053
4019 3940 2373
4022 3852 3559
4019 3817 3835
4031 4005 1068
4034 4013 1112
4054 4063 2504
4082 4077 3670
4085 4076 3924
