滤镜资源/Professional Luts Collection/Triune-Digital-Cinematic-LUTs/3D LUTs (3DL)/ALEXA/Gone Girl - Alexa.3dl
# Created by Benjamin (IWLTBAP) : http://luts.iwltbap.com
# Copyright: (C) Copyright 2016 Triune Films and IWLTBAP
# Blockbuster LUTs Pack
0 128 256 384 512 640 768 896 1023
24 23 9
45 58 170
109 101 590
224 125 1248
490 203 2070
724 290 2722
874 331 3149
908 342 3252
934 352 3334
71 274 31
43 246 147
93 203 524
209 191 1224
477 250 2055
724 326 2731
873 365 3161
911 373 3266
937 383 3349
84 756 121
80 725 209
70 684 518
177 345 1193
458 293 2036
723 360 2737
872 397 3170
911 405 3279
940 412 3365
184 1577 321
183 1571 353
181 1565 541
192 1524 1281
347 1137 2101
703 441 2743
874 431 3183
917 439 3302
948 445 3388
326 2475 566
327 2479 592
326 2475 616
342 2529 1295
347 2456 2196
424 2260 2928
573 1993 3301
632 1883 3395
663 1849 3459
474 3271 812
475 3279 840
476 3282 867
490 3323 1219
502 3359 2244
507 3277 2992
536 3210 3433
551 3188 3593
564 3179 3680
536 3602 923
537 3610 950
539 3618 979
545 3644 1100
580 3780 2242
605 3812 3028
607 3777 3464
614 3766 3644
619 3765 3763
551 3693 952
553 3701 977
555 3710 1007
559 3731 1107
633 3842 2241
712 3874 3038
764 3891 3477
777 3897 3650
790 3901 3767
566 3786 981
568 3793 1006
569 3802 1036
574 3821 1133
717 3887 2278
800 3918 3061
856 3936 3492
869 3942 3664
877 3945 3772
374 131 92
371 107 222
343 100 579
300 125 1261
545 206 2075
777 292 2726
928 332 3155
962 343 3257
988 354 3340
230 279 33
228 240 151
250 202 524
278 194 1236
530 253 2058
775 327 2736
925 366 3166
962 374 3272
989 384 3355
124 762 118
124 729 205
121 683 518
244 345 1202
519 299 2039
772 361 2743
923 398 3176
962 406 3285
991 414 3370
206 1582 321
207 1576 357
205 1570 545
222 1525 1284
391 1134 2100
754 443 2748
923 432 3189
967 439 3308
998 445 3393
346 2480 568
348 2482 597
348 2479 621
363 2533 1299
369 2464 2201
453 2264 2931
606 1994 3302
664 1883 3396
694 1850 3461
493 3283 816
495 3291 845
496 3295 872
509 3335 1224
520 3367 2249
526 3284 2997
555 3216 3437
571 3193 3598
585 3184 3684
554 3613 928
556 3621 954
558 3629 984
563 3655 1104
598 3789 2246
625 3818 3033
626 3783 3468
633 3772 3649
638 3771 3767
569 3704 956
571 3712 982
572 3720 1012
577 3741 1111
660 3846 2247
738 3877 3043
790 3894 3481
802 3900 3654
816 3904 3771
584 3796 985
586 3804 1011
587 3811 1040
598 3827 1140
744 3890 2285
826 3921 3067
882 3939 3496
894 3944 3668
902 3948 3776
1276 374 322
1239 349 419
1090 236 681
911 133 1281
757 215 2086
838 293 2731
987 334 3161
1021 345 3263
1046 355 3345
889 437 191
908 411 308
914 291 608
826 194 1252
701 261 2069
834 328 2740
983 367 3172
1021 375 3278
1046 385 3360
660 736 104
647 701 189
624 656 495
635 338 1204
601 303 2044
829 362 2747
979 399 3182
1018 406 3291
1046 415 3376
236 1588 318
235 1580 355
233 1573 549
252 1524 1286
433 1127 2098
811 444 2753
978 433 3195
1022 440 3314
1053 446 3399
365 2484 570
368 2486 600
369 2483 625
383 2535 1302
391 2470 2206
483 2265 2933
639 1993 3304
696 1882 3398
725 1849 3464
511 3295 819
514 3302 850
515 3306 877
528 3345 1230
539 3374 2253
544 3290 3002
574 3222 3441
593 3197 3602
609 3187 3687
572 3624 931
574 3632 959
576 3640 988
582 3665 1109
617 3797 2251
649 3822 3037
646 3788 3472
652 3777 3653
656 3776 3771
587 3715 960
589 3723 986
590 3731 1016
595 3751 1115
687 3849 2255
764 3880 3049
816 3897 3485
828 3902 3659
841 3907 3775
602 3806 989
603 3814 1015
605 3822 1044
622 3832 1148
770 3894 2293
852 3924 3073
908 3942 3500
920 3947 3673
928 3951 3780
2630 807 730
2604 799 797
2530 728 1026
2276 488 1554
2044 290 2169
1957 347 2807
1897 375 3226
1862 381 3319
1863 390 3395
2418 802 633
2416 789 718
2424 734 978
2196 504 1512
2006 313 2165
1930 376 2816
1875 401 3240
1841 406 3336
1842 416 3410
2089 1080 463
2079 1051 522
2113 1019 816
2069 552 1448
1938 335 2149
1873 405 2817
1817 425 3248
1780 430 3347
1779 440 3420
1626 1633 264
1619 1623 286
1582 1593 483
1522 1517 1253
1541 1126 2088
1605 453 2799
1539 442 3240
1523 447 3353
1530 456 3428
744 2526 568
733 2529 595
712 2524 620
600 2572 1327
516 2486 2219
551 2258 2932
680 1981 3304
729 1870 3399
759 1835 3464
530 3303 822
532 3310 852
534 3314 880
547 3353 1238
557 3379 2259
561 3293 3007
593 3224 3445
618 3196 3603
634 3186 3688
589 3634 934
592 3642 962
594 3650 992
600 3676 1116
637 3805 2258
672 3824 3043
664 3791 3476
670 3780 3658
674 3779 3776
604 3724 963
607 3732 990
608 3740 1020
612 3761 1120
714 3852 2263
790 3883 3055
842 3900 3490
853 3905 3664
865 3909 3779
619 3815 992
621 3823 1019
628 3828 1052
649 3836 1159
797 3897 2302
878 3927 3079
934 3944 3505
945 3950 3678
953 3953 3784
3630 1176 1097
3634 1182 1154
3628 1171 1327
3471 934 1888
3305 680 2476
3133 511 2951
3073 460 3292
3067 467 3381
3074 475 3454
3610 1192 1074
3612 1195 1130
3613 1192 1308
3457 958 1873
3296 701 2477
3128 531 2963
3073 484 3310
3070 492 3398
3078 499 3472
3520 1397 940
3523 1377 1005
3549 1347 1217
3434 985 1846
3276 719 2471
3113 549 2972
3065 507 3326
3063 516 3416
3072 523 3490
3188 2030 691
3187 2022 709
3204 2007 821
3172 1935 1667
3095 1315 2387
3041 559 2966
3004 529 3339
3005 537 3437
3013 544 3510
2693 2645 502
2687 2643 524
2678 2636 545
2570 2608 1300
2534 2512 2193
2523 2282 2898
2556 2042 3306
2564 1937 3418
2572 1904 3506
2112 3417 775
2103 3422 797
2089 3423 818
2016 3437 1218
1892 3420 2250
1765 3299 2979
1724 3223 3400
1720 3192 3579
1721 3184 3669
1325 3757 951
1314 3764 976
1298 3771 1002
1241 3787 1152
1215 3854 2328
1094 3854 3097
919 3817 3498
871 3803 3683
873 3800 3796
1144 3821 1009
1139 3825 1040
1130 3829 1072
1107 3836 1200
1093 3887 2368
956 3901 3093
974 3913 3510
976 3916 3686
980 3917 3799
1158 3867 1094
1155 3870 1126
1149 3873 1162
1127 3878 1285
1106 3927 2392
1014 3942 3110
1057 3957 3524
1062 3962 3698
1067 3965 3804
3968 1473 1425
3969 1483 1478
3967 1486 1615
3919 1282 2129
3863 1068 2689
3812 897 3152
3778 793 3385
3770 775 3437
3765 765 3487
3967 1496 1414
3968 1506 1466
3968 1514 1607
3920 1310 2129
3864 1092 2696
3812 918 3162
3778 814 3395
3770 797 3448
3766 788 3498
3966 1572 1381
3967 1570 1437
3968 1561 1586
3920 1337 2119
3862 1113 2697
3810 936 3169
3775 832 3403
3767 817 3458
3763 808 3509
3885 2269 996
3886 2263 1022
3898 2258 1145
3891 2178 1990
3858 1533 2678
3794 941 3166
3757 836 3404
3749 821 3465
3744 813 3516
3788 2946 809
3789 2946 825
3789 2941 844
3758 2923 1634
3734 2850 2533
3676 2483 3130
3646 2105 3396
3648 1955 3496
3651 1891 3572
3545 3471 747
3542 3473 768
3538 3471 789
3497 3467 1204
3431 3424 2244
3415 3326 3002
3426 3250 3396
3428 3210 3568
3433 3201 3658
3365 3790 852
3363 3795 876
3360 3799 899
3340 3816 1071
3294 3862 2259
3242 3832 3027
3216 3759 3408
3212 3743 3605
3222 3743 3722
3311 3858 900
3310 3862 924
3305 3867 948
3287 3878 1040
3252 3936 2271
3220 3948 3071
3206 3948 3489
3181 3936 3670
3180 3928 3779
3311 3924 949
3309 3929 973
3305 3933 996
3288 3944 1092
3265 4006 2302
3240 4021 3107
3223 4023 3531
3206 4023 3721
3207 4019 3832
4006 1543 1497
4007 1552 1547
4007 1559 1678
3972 1359 2184
3934 1156 2740
3907 1007 3191
3892 917 3419
3889 903 3469
3887 890 3515
4005 1567 1490
4007 1575 1539
4008 1587 1673
3973 1386 2186
3936 1181 2747
3909 1030 3202
3895 941 3430
3893 927 3481
3891 915 3526
4006 1602 1477
4007 1608 1526
4009 1614 1662
3975 1415 2183
3938 1206 2752
3911 1052 3210
3898 965 3441
3896 951 3492
3894 940 3538
3994 2306 1077
3995 2300 1114
3997 2296 1248
3992 2202 2091
3957 1548 2748
3915 1079 3215
3902 991 3446
3900 976 3502
3898 964 3549
3972 3028 900
3972 3028 918
3973 3024 945
3952 3009 1767
3948 2950 2654
3936 2578 3240
3937 2183 3490
3932 2023 3572
3930 1955 3635
3932 3550 898
3932 3552 920
3931 3551 941
3920 3554 1375
3902 3536 2396
3904 3456 3152
3901 3360 3516
3896 3294 3642
3894 3267 3712
3895 3841 942
3895 3844 963
3894 3848 984
3892 3861 1169
3865 3894 2291
3834 3844 3050
3823 3780 3462
3818 3757 3652
3823 3757 3754
3882 3904 957
3882 3908 979
3882 3912 1001
3880 3921 1081
3867 3963 2297
3846 3962 3088
3840 3961 3522
3829 3935 3702
3826 3928 3803
3893 3968 995
3894 3972 1018
3895 3976 1040
3894 3985 1127
3892 4038 2332
3873 4039 3128
3867 4038 3568
3863 4032 3760
3861 4029 3864
4024 1578 1528
4025 1586 1578
4026 1593 1708
3996 1392 2216
3965 1195 2760
3942 1048 3207
3929 957 3433
3927 943 3481
3926 932 3526
4024 1601 1523
4026 1609 1572
4027 1620 1705
3997 1418 2218
3967 1219 2767
3944 1070 3217
3933 981 3444
3931 968 3493
3930 956 3538
4025 1631 1511
4026 1636 1559
4028 1646 1691
3999 1446 2215
3968 1244 2773
3947 1092 3225
3936 1005 3454
3935 992 3504
3933 981 3549
4027 2322 1117
4027 2317 1158
4028 2314 1291
4023 2214 2130
3988 1561 2772
3950 1118 3229
3940 1030 3460
3938 1016 3513
3937 1005 3559
4014 3049 936
4014 3048 955
4014 3044 984
3994 3031 1805
3991 2974 2685
3983 2596 3263
3981 2201 3508
3979 2035 3590
3978 1965 3653
3974 3561 929
3973 3563 950
3972 3562 971
3961 3567 1411
3958 3555 2429
3960 3480 3182
3963 3385 3548
3964 3321 3675
3964 3294 3745
3961 3860 983
3962 3864 1004
3962 3867 1025
3964 3881 1219
3971 3926 2345
3969 3888 3108
3968 3830 3528
3966 3804 3711
3964 3795 3807
3968 3929 1007
3969 3933 1029
3969 3937 1050
3972 3946 1130
3992 3996 2343
4000 3997 3127
3988 3990 3556
3982 3965 3742
3977 3957 3848
3986 3993 1039
3987 3997 1061
3989 4001 1083
3993 4010 1167
4011 4059 2417
4020 4065 3156
4012 4065 3594
4010 4058 3789
4006 4055 3901
4043 1611 1558
4044 1619 1607
4045 1628 1736
4020 1425 2246
3995 1234 2781
3977 1088 3222
3967 997 3446
3965 983 3495
3964 973 3538
4043 1634 1553
4044 1642 1601
4046 1655 1733
4021 1450 2248
3997 1257 2788
3979 1110 3231
3970 1021 3458
3969 1007 3507
3968 997 3549
4043 1663 1542
4045 1668 1589
4046 1679 1720
4023 1478 2246
3999 1282 2793
3982 1132 3240
3974 1045 3468
3973 1032 3518
3972 1022 3561
4053 2347 1149
4054 2343 1192
4055 2340 1329
4052 2238 2163
4018 1591 2794
3985 1158 3243
3977 1070 3474
3976 1056 3527
3975 1046 3570
4051 3070 971
4051 3069 990
4051 3065 1020
4034 3055 1838
4034 3001 2715
4030 2623 3286
4020 2233 3521
4025 2062 3608
4025 1992 3671
4014 3574 962
4013 3576 983
4013 3575 1003
4001 3580 1440
4003 3573 2456
4012 3503 3209
4011 3408 3575
4017 3344 3702
4017 3317 3772
4006 3873 1011
4006 3876 1032
4006 3880 1053
4009 3894 1248
4019 3940 2373
4024 3908 3134
4022 3852 3559
4021 3827 3739
4019 3817 3835
4012 3941 1036
4013 3945 1057
4014 3949 1078
4017 3958 1159
4041 4009 2371
4057 4015 3154
4062 4013 3598
4059 3991 3779
4055 3983 3883
4031 4005 1068
4033 4009 1090
4034 4013 1112
4037 4020 1210
4054 4063 2504
4074 4072 3246
4082 4077 3670
4087 4078 3817
4085 4076 3924
