滤镜资源/Professional Luts Collection/Triune-Digital-Cinematic-LUTs/3D LUTs (3DL)/ALEXA/Gravity - Alexa.3dl
# Created by Benjamin (IWLTBAP) : http://luts.iwltbap.com
# Copyright: (C) Copyright 2016 Triune Films and IWLTBAP
# Blockbuster LUTs Pack
0 256 512 768 1023
4 5 25
75 75 605
568 314 2399
895 457 3530
915 466 3629
87 692 126
76 552 596
543 386 2385
878 529 3523
905 540 3635
298 2325 478
297 2312 626
313 2242 2362
452 2067 3494
480 1988 3631
448 3481 840
448 3484 985
453 3513 2477
456 3501 3495
466 3501 3629
465 3624 904
465 3625 1051
465 3625 2481
466 3629 3500
466 3629 3624
587 69 72
602 78 610
750 313 2389
1001 457 3532
1026 466 3629
417 585 70
448 598 690
674 389 2408
994 531 3536
1019 540 3635
373 2334 470
371 2320 623
387 2247 2368
540 2072 3502
612 1995 3647
522 3487 841
523 3491 992
527 3519 2483
530 3507 3502
540 3506 3635
539 3630 905
539 3631 1058
540 3634 2485
540 3635 3505
540 3635 3630
2410 308 351
2449 314 788
2423 317 2361
2693 454 3516
2684 466 3629
2335 595 308
2435 511 794
2400 389 2362
2681 528 3522
2672 540 3634
2045 2293 295
2085 2312 389
2328 2498 2706
2499 2102 3738
2510 1961 3819
985 3556 856
970 3551 1019
919 3564 2546
793 3524 3525
766 3520 3653
897 3660 933
893 3659 1090
831 3657 2535
715 3649 3521
710 3648 3645
3499 451 563
3504 452 919
3544 458 2581
3555 460 3525
3559 464 3619
3505 543 547
3508 527 902
3549 532 2588
3561 534 3532
3565 538 3625
3540 2442 458
3553 2439 596
3826 2563 2877
3748 1975 3709
3724 1773 3786
3457 3547 697
3455 3544 952
3743 3850 2848
3838 3901 3923
3843 3896 4065
3423 3677 767
3441 3688 998
3704 3945 2834
3778 4056 3919
3767 4055 4054
3628 466 587
3629 466 998
3629 466 2604
3617 464 3521
3629 466 3621
3634 550 573
3635 540 962
3635 540 2609
3626 538 3531
3635 540 3628
3624 2440 465
3645 2443 678
3892 2562 2895
3820 1982 3714
3800 1810 3792
3616 3546 724
3572 3509 1005
3917 3844 2870
4069 3917 3940
4067 3888 4073
3599 3650 828
3566 3628 1088
3903 3927 2845
4067 4079 3930
4080 4092 4092
