滤镜资源/Professional Luts Collection/Triune-Digital-Cinematic-LUTs/3D LUTs (3DL)/ALEXA/Gravity - Alexa.3dl
# Created by Benjamin (IWLTBAP) : http://luts.iwltbap.com
# Copyright: (C) Copyright 2016 Triune Films and IWLTBAP
# Blockbuster LUTs Pack
0 64 128 192 256 320 384 448 512 576 640 704 768 832 896 960 1023
4 5 25
12 12 99
19 19 173
38 38 329
75 75 605
127 125 983
304 194 1484
431 256 1958
568 314 2399
698 368 2812
793 414 3170
863 443 3406
895 457 3530
904 461 3569
908 463 3592
911 464 3610
915 466 3629
17 132 36
12 82 98
19 56 173
37 60 325
74 91 600
125 142 977
293 210 1474
425 274 1955
562 332 2396
692 385 2801
784 430 3159
857 460 3403
891 475 3529
901 479 3569
906 481 3592
909 483 3612
913 484 3631
36 283 55
29 239 109
20 162 173
37 123 324
74 126 596
124 158 970
283 227 1463
417 292 1948
556 350 2393
687 401 2792
774 447 3148
848 478 3396
887 493 3528
898 497 3568
903 500 3592
907 501 3612
911 503 3632
57 455 83
53 426 126
44 366 186
40 310 326
74 296 595
122 210 962
274 248 1456
409 308 1939
550 368 2390
681 419 2785
766 464 3138
840 495 3389
883 511 3527
894 515 3567
900 518 3592
904 520 3613
908 521 3633
87 692 126
85 673 149
77 626 214
70 575 354
76 552 596
122 524 958
247 382 1449
397 325 1928
543 386 2385
674 436 2779
757 481 3130
832 512 3381
878 529 3523
889 533 3566
896 536 3591
901 538 3614
905 540 3635
128 1012 182
126 1001 198
124 984 221
118 948 348
115 923 625
129 901 977
188 903 1448
293 652 1891
526 416 2370
666 453 2771
749 498 3121
824 529 3372
873 546 3518
885 552 3565
891 554 3590
896 556 3614
901 559 3636
180 1415 250
178 1407 266
177 1397 281
175 1384 316
172 1366 620
170 1344 1013
195 1344 1472
249 1302 1901
334 1157 2337
548 827 2753
733 540 3114
818 547 3368
869 565 3518
882 571 3569
887 573 3593
892 575 3615
897 577 3638
238 1867 328
238 1863 361
237 1857 392
236 1851 425
235 1840 533
234 1830 1024
231 1808 1505
256 1801 1929
309 1788 2353
359 1702 2746
473 1513 3102
628 1176 3363
797 1025 3541
871 838 3606
879 815 3627
884 814 3646
890 808 3667
298 2325 478
298 2324 517
298 2322 555
298 2319 592
297 2312 626
296 2306 962
295 2293 1533
294 2273 1966
313 2242 2362
362 2228 2758
404 2186 3100
434 2126 3345
452 2067 3494
459 2025 3560
462 2004 3584
467 1999 3607
480 1988 3631
354 2751 609
354 2751 646
354 2750 683
353 2748 719
353 2744 755
352 2737 877
352 2731 1502
349 2707 2005
346 2677 2401
367 2665 2782
409 2654 3120
438 2635 3364
453 2619 3497
460 2604 3567
463 2596 3592
464 2595 3611
466 2591 3629
405 3148 720
405 3148 757
405 3148 794
405 3146 830
405 3143 865
403 3134 899
403 3127 1404
402 3114 2018
400 3091 2454
397 3067 2817
412 3045 3126
440 3050 3371
455 3044 3502
461 3038 3562
463 3036 3592
464 3038 3611
466 3039 3629
440 3416 815
440 3416 851
440 3417 887
440 3417 924
440 3417 960
440 3415 995
440 3412 1336
440 3408 2010
439 3399 2481
437 3379 2846
435 3352 3153
442 3339 3368
454 3345 3494
460 3343 3554
463 3343 3586
464 3345 3609
466 3346 3629
448 3481 840
448 3482 876
448 3483 913
448 3484 949
448 3484 985
448 3484 1021
449 3487 1216
451 3500 1978
453 3513 2477
455 3523 2861
455 3522 3172
455 3508 3384
456 3501 3495
459 3499 3548
462 3498 3580
464 3499 3604
466 3501 3629
454 3527 857
454 3527 894
454 3528 930
454 3529 966
454 3529 1002
454 3529 1038
455 3531 1204
456 3539 1954
457 3544 2468
459 3557 2860
461 3568 3175
461 3571 3392
461 3570 3498
461 3564 3545
462 3563 3577
464 3564 3601
466 3564 3627
458 3563 873
458 3564 910
458 3564 947
458 3565 983
458 3565 1019
458 3565 1054
459 3566 1214
460 3571 1949
460 3572 2469
462 3583 2862
463 3592 3178
463 3592 3394
463 3592 3498
463 3592 3546
463 3592 3576
464 3592 3599
466 3594 3625
462 3594 889
462 3594 926
462 3594 963
462 3595 999
462 3595 1035
462 3595 1071
462 3595 1226
462 3598 1955
462 3599 2476
464 3606 2867
464 3611 3182
464 3611 3397
464 3611 3499
464 3611 3547
464 3611 3577
464 3611 3599
466 3612 3625
465 3624 904
465 3624 941
465 3624 978
465 3625 1015
465 3625 1051
465 3625 1087
465 3624 1237
465 3625 1958
465 3625 2481
466 3629 2872
466 3629 3185
466 3629 3399
466 3629 3500
466 3629 3548
466 3629 3578
466 3629 3600
466 3629 3624
63 5 6
63 7 67
71 18 173
87 39 337
111 76 610
154 126 986
326 193 1483
454 256 1956
588 315 2401
718 368 2813
816 414 3170
889 443 3407
921 457 3530
930 461 3569
936 463 3592
939 464 3610
943 466 3629
54 72 8
57 62 82
64 58 178
77 62 334
102 93 607
147 144 983
321 211 1482
454 275 1961
587 333 2403
717 386 2812
813 432 3170
885 461 3407
919 475 3531
928 479 3571
934 481 3593
937 483 3612
941 484 3631
63 245 35
60 227 97
50 161 177
63 125 331
93 127 602
146 160 977
312 228 1471
446 293 1955
581 351 2400
711 403 2804
804 449 3159
876 478 3400
915 493 3530
925 497 3570
931 500 3593
935 501 3612
939 503 3632
74 439 70
71 421 120
62 367 187
59 312 332
93 297 601
142 211 966
300 245 1460
438 310 1946
575 369 2396
704 420 2794
795 465 3147
868 495 3392
911 511 3529
922 516 3570
928 518 3593
932 520 3613
937 521 3633
104 683 109
103 671 145
95 625 212
88 578 356
95 555 601
141 526 962
272 374 1450
427 326 1935
568 387 2391
697 437 2785
787 482 3137
860 512 3385
906 529 3526
917 534 3568
924 536 3592
930 538 3614
934 540 3635
146 1009 166
145 1002 200
143 986 224
137 951 348
133 924 626
147 901 978
207 900 1447
322 650 1897
552 417 2377
689 454 2777
779 499 3128
851 529 3375
901 547 3521
913 552 3567
920 554 3591
926 556 3614
930 559 3636
198 1418 246
197 1411 268
196 1402 284
194 1388 317
191 1370 620
188 1345 1012
213 1345 1471
267 1304 1902
355 1156 2339
575 823 2759
758 540 3115
843 547 3368
894 565 3517
908 570 3567
915 573 3592
921 575 3615
926 577 3638
257 1870 330
256 1865 362
256 1860 393
255 1853 426
253 1843 534
252 1833 1025
250 1810 1504
275 1803 1931
327 1789 2355
378 1704 2749
499 1513 3106
662 1177 3365
831 1024 3543
900 832 3605
906 807 3626
912 807 3645
917 801 3666
317 2328 476
317 2326 516
317 2324 554
316 2321 591
315 2314 627
315 2308 962
314 2294 1532
312 2275 1967
331 2244 2363
380 2229 2759
423 2188 3102
453 2127 3346
471 2068 3495
479 2026 3561
491 2006 3587
499 2001 3610
512 1990 3635
372 2752 609
372 2751 647
372 2751 684
372 2750 720
371 2746 756
371 2738 878
370 2733 1502
368 2711 2006
365 2679 2402
386 2666 2782
427 2655 3120
457 2637 3365
472 2620 3498
479 2605 3568
481 2597 3594
483 2596 3612
484 2592 3631
424 3150 722
424 3149 759
424 3149 796
424 3147 832
423 3144 868
422 3135 901
421 3129 1408
421 3117 2022
418 3093 2456
416 3069 2819
430 3047 3128
459 3051 3371
473 3045 3503
479 3040 3563
481 3038 3593
483 3040 3612
484 3040 3631
458 3416 815
458 3418 852
458 3419 889
458 3419 926
458 3419 962
458 3417 997
458 3414 1338
458 3410 2012
458 3400 2483
456 3381 2848
453 3353 3155
461 3341 3371
473 3346 3496
478 3344 3555
481 3344 3588
483 3347 3611
484 3347 3631
467 3483 840
467 3484 878
467 3485 914
467 3485 951
467 3486 988
467 3486 1024
468 3489 1219
470 3502 1980
472 3514 2479
474 3525 2862
474 3523 3172
473 3510 3385
474 3503 3496
478 3500 3549
481 3499 3581
482 3501 3605
484 3502 3630
472 3528 857
473 3529 895
473 3530 932
473 3531 968
473 3531 1005
473 3531 1041
473 3533 1207
474 3541 1956
475 3545 2470
477 3559 2860
479 3570 3175
480 3572 3392
480 3572 3499
479 3566 3547
480 3564 3578
482 3565 3602
484 3565 3628
477 3565 874
477 3565 912
477 3566 948
477 3566 985
477 3566 1022
477 3567 1057
477 3568 1217
478 3573 1951
478 3574 2470
480 3585 2862
481 3594 3177
481 3594 3394
481 3594 3500
481 3594 3548
481 3593 3578
482 3594 3601
484 3596 3627
480 3595 889
480 3596 927
480 3596 964
480 3596 1001
480 3596 1038
480 3596 1073
480 3597 1229
481 3600 1957
481 3601 2477
482 3607 2868
483 3612 3182
483 3612 3397
483 3612 3500
483 3612 3549
483 3612 3579
483 3612 3601
484 3613 3626
484 3626 905
484 3626 943
484 3626 980
484 3626 1017
484 3626 1053
484 3626 1089
484 3626 1240
484 3627 1959
484 3627 2482
484 3631 2872
484 3631 3185
484 3631 3399
484 3631 3501
484 3631 3549
484 3631 3579
484 3631 3602
484 3631 3626
150 13 14
161 15 64
162 16 148
181 39 337
219 77 617
252 127 991
351 193 1479
478 256 1955
609 315 2403
735 369 2816
839 414 3171
913 443 3407
948 457 3531
957 461 3569
962 463 3592
967 464 3610
971 466 3629
131 62 11
141 59 61
145 53 152
159 61 338
191 95 618
229 145 992
344 211 1479
478 275 1960
608 334 2405
734 387 2815
836 432 3171
910 461 3407
946 475 3532
955 479 3571
960 481 3593
965 483 3612
969 484 3631
120 168 17
121 160 62
124 142 167
143 130 348
163 131 617
200 163 987
338 229 1477
477 294 1963
606 352 2407
733 405 2814
833 451 3170
906 479 3406
943 494 3533
953 498 3572
958 500 3595
963 501 3613
967 503 3632
122 376 45
122 374 83
120 360 178
115 316 345
137 301 615
168 213 974
326 246 1467
468 311 1955
601 370 2404
727 422 2806
825 467 3159
898 496 3399
939 512 3532
949 516 3572
956 518 3595
960 520 3614
965 521 3633
123 667 90
123 659 129
117 624 209
109 580 359
115 557 606
160 527 967
293 358 1449
457 328 1943
594 388 2398
718 439 2795
817 483 3146
889 514 3391
934 530 3528
945 534 3570
952 536 3594
958 538 3615
962 540 3635
163 1004 149
163 998 183
161 986 226
156 952 350
152 925 628
166 901 979
225 895 1446
350 649 1902
578 418 2384
710 455 2784
809 500 3134
881 530 3381
928 547 3523
941 552 3569
948 555 3593
954 557 3614
960 559 3636
217 1420 240
216 1414 262
215 1406 285
213 1393 319
210 1374 617
207 1348 1013
231 1344 1469
286 1305 1903
378 1154 2343
602 820 2766
785 541 3119
872 548 3373
921 565 3520
936 571 3569
943 573 3594
949 575 3616
955 577 3638
276 1872 331
275 1868 364
275 1863 395
274 1856 428
272 1845 535
271 1836 1026
269 1812 1502
293 1805 1932
346 1791 2358
396 1705 2752
527 1513 3110
695 1178 3367
863 1020 3544
927 824 3604
933 800 3625
940 799 3645
945 793 3664
336 2330 474
336 2328 513
335 2327 553
335 2323 590
334 2316 626
333 2309 962
332 2296 1531
331 2277 1968
350 2245 2364
399 2230 2760
442 2190 3104
471 2128 3347
490 2070 3497
508 2027 3563
520 2008 3589
530 2002 3613
544 1992 3639
391 2753 609
391 2753 646
391 2752 684
390 2751 720
390 2748 756
389 2741 879
389 2735 1502
387 2713 2007
383 2681 2403
404 2667 2782
445 2656 3120
475 2638 3366
490 2621 3499
498 2606 3569
500 2598 3595
501 2597 3614
503 2592 3632
442 3151 723
442 3151 760
442 3150 797
442 3149 834
442 3146 871
440 3137 905
440 3131 1413
439 3119 2025
437 3095 2457
435 3071 2822
449 3049 3129
477 3052 3371
492 3047 3503
497 3041 3565
500 3040 3595
501 3041 3614
503 3041 3632
476 3417 815
477 3419 853
477 3420 890
477 3421 927
477 3420 964
477 3418 1000
477 3416 1341
477 3413 2015
476 3401 2485
474 3382 2851
472 3355 3157
479 3343 3375
492 3347 3497
497 3345 3557
499 3345 3589
501 3348 3612
503 3349 3632
485 3484 840
485 3485 878
485 3486 915
486 3487 952
486 3488 989
486 3488 1026
486 3491 1222
488 3505 1982
490 3516 2481
492 3527 2863
493 3525 3172
492 3512 3387
493 3504 3499
496 3501 3550
499 3501 3583
501 3502 3607
503 3503 3632
491 3530 857
491 3531 895
491 3532 933
491 3532 970
491 3533 1007
491 3533 1044
492 3535 1210
493 3543 1958
494 3547 2471
496 3561 2861
498 3571 3174
498 3574 3392
498 3573 3501
498 3567 3549
499 3566 3579
501 3566 3603
503 3567 3630
495 3566 873
495 3567 912
496 3568 950
496 3568 986
496 3569 1023
496 3569 1060
496 3570 1220
497 3576 1953
497 3575 2472
499 3587 2863
500 3595 3177
500 3595 3394
500 3595 3501
500 3595 3549
500 3595 3579
501 3595 3602
503 3597 3628
499 3597 889
499 3597 928
499 3598 966
499 3598 1002
499 3598 1039
499 3598 1076
499 3598 1232
500 3602 1959
500 3602 2478
501 3609 2869
501 3614 3181
501 3614 3397
501 3614 3502
501 3614 3550
501 3614 3580
501 3614 3602
503 3615 3628
502 3627 905
502 3628 943
502 3628 982
502 3628 1019
502 3628 1055
502 3628 1092
502 3628 1243
503 3629 1961
502 3629 2483
503 3632 2873
503 3632 3184
503 3632 3400
503 3632 3503
503 3632 3551
503 3632 3581
503 3632 3603
503 3632 3627
332 36 37
345 38 87
360 41 170
358 42 337
388 76 614
432 126 984
463 188 1454
521 256 1952
632 315 2403
754 369 2817
861 414 3170
939 443 3408
974 457 3531
983 461 3570
989 463 3592
994 464 3610
999 466 3629
312 81 33
326 80 84
341 73 164
340 61 334
370 95 617
416 145 990
451 208 1462
516 275 1958
631 334 2406
754 387 2818
860 432 3172
935 461 3407
972 475 3533
982 479 3571
987 481 3593
992 483 3612
