滤镜资源/Professional Luts Collection/Triune-Digital-Cinematic-LUTs/3D LUTs (3DL)/ALEXA/Gravity - Alexa.3dl
# Created by Benjamin (IWLTBAP) : http://luts.iwltbap.com
# Copyright: (C) Copyright 2016 Triune Films and IWLTBAP
# Blockbuster LUTs Pack
0 128 256 384 512 640 768 896 1023
4 5 25
19 19 173
75 75 605
304 194 1484
568 314 2399
793 414 3170
895 457 3530
908 463 3592
915 466 3629
36 283 55
20 162 173
74 126 596
283 227 1463
556 350 2393
774 447 3148
887 493 3528
903 500 3592
911 503 3632
87 692 126
77 626 214
76 552 596
247 382 1449
543 386 2385
757 481 3130
878 529 3523
896 536 3591
905 540 3635
180 1415 250
177 1397 281
172 1366 620
195 1344 1472
334 1157 2337
733 540 3114
869 565 3518
887 573 3593
897 577 3638
298 2325 478
298 2322 555
297 2312 626
295 2293 1533
313 2242 2362
404 2186 3100
452 2067 3494
462 2004 3584
480 1988 3631
405 3148 720
405 3148 794
405 3143 865
403 3127 1404
400 3091 2454
412 3045 3126
455 3044 3502
463 3036 3592
466 3039 3629
448 3481 840
448 3483 913
448 3484 985
449 3487 1216
453 3513 2477
455 3522 3172
456 3501 3495
462 3498 3580
466 3501 3629
458 3563 873
458 3564 947
458 3565 1019
459 3566 1214
460 3572 2469
463 3592 3178
463 3592 3498
463 3592 3576
466 3594 3625
465 3624 904
465 3624 978
465 3625 1051
465 3624 1237
465 3625 2481
466 3629 3185
466 3629 3500
466 3629 3578
466 3629 3624
150 13 14
162 16 148
219 77 617
351 193 1479
609 315 2403
839 414 3171
948 457 3531
962 463 3592
971 466 3629
120 168 17
124 142 167
163 131 617
338 229 1477
606 352 2407
833 451 3170
943 494 3533
958 500 3595
967 503 3632
123 667 90
117 624 209
115 557 606
293 358 1449
594 388 2398
817 483 3146
934 530 3528
952 536 3594
962 540 3635
217 1420 240
215 1406 285
210 1374 617
231 1344 1469
378 1154 2343
785 541 3119
921 565 3520
943 573 3594
955 577 3638
336 2330 474
335 2327 553
334 2316 626
332 2296 1531
350 2245 2364
442 2190 3104
490 2070 3497
520 2008 3589
544 1992 3639
442 3151 723
442 3150 797
442 3146 871
440 3131 1413
437 3095 2457
449 3049 3129
492 3047 3503
500 3040 3595
503 3041 3632
485 3484 840
485 3486 915
486 3488 989
486 3491 1222
490 3516 2481
493 3525 3172
493 3504 3499
499 3501 3583
503 3503 3632
495 3566 873
496 3568 950
496 3569 1023
496 3570 1220
497 3575 2472
500 3595 3177
500 3595 3501
500 3595 3579
503 3597 3628
502 3627 905
502 3628 982
502 3628 1055
502 3628 1243
502 3629 2483
503 3632 3184
503 3632 3503
503 3632 3581
503 3632 3627
587 69 72
613 73 202
602 78 610
690 185 1431
750 313 2389
883 414 3169
1001 457 3532
1016 463 3591
1026 466 3629
546 185 63
582 170 188
583 127 615
669 224 1446
731 352 2403
882 451 3174
997 494 3534
1012 500 3595
1021 503 3632
417 585 70
433 579 154
448 598 690
586 312 1473
674 389 2408
877 487 3168
994 531 3536
1010 537 3598
1019 540 3635
261 1410 200
261 1408 267
253 1380 615
267 1339 1462
423 1146 2349
842 542 3130
982 566 3527
1002 574 3598
1013 577 3638
373 2334 470
373 2331 548
371 2320 623
369 2300 1531
387 2247 2368
479 2192 3109
540 2072 3502
585 2011 3596
612 1995 3647
479 3153 726
479 3152 800
479 3148 873
477 3134 1418
474 3099 2461
486 3053 3131
529 3050 3504
537 3042 3597
540 3043 3635
522 3487 841
522 3489 917
523 3491 992
523 3494 1228
527 3519 2483
530 3528 3175
530 3507 3502
536 3503 3586
540 3506 3635
532 3569 874
533 3571 950
533 3572 1026
533 3573 1225
534 3579 2474
537 3598 3179
537 3598 3504
537 3598 3582
540 3600 3631
539 3630 905
539 3631 982
539 3631 1058
539 3630 1248
540 3634 2485
540 3635 3187
540 3635 3505
540 3635 3584
540 3635 3630
1375 170 184
1391 173 303
1386 172 691
1352 184 1410
1507 308 2362
1669 409 3141
1723 457 3535
1695 463 3592
1699 466 3629
1349 239 173
1387 234 291
1386 210 681
1345 223 1425
1495 346 2367
1662 447 3150
1710 495 3539
1682 500 3595
1685 503 3632
1265 632 154
1306 610 254
1403 577 710
1319 285 1437
1467 383 2368
1631 485 3155
1669 531 3541
1637 537 3598
1636 540 3635
1112 1380 175
1117 1381 212
1163 1434 616
1163 1427 1631
1366 1045 2497
1443 543 3157
1442 568 3539
1419 574 3601
1423 577 3638
592 2343 372
599 2351 468
598 2348 561
578 2331 1552
531 2263 2389
547 2190 3115
629 2073 3513
660 2008 3603
687 1991 3656
516 3153 728
516 3152 802
515 3147 875
514 3135 1428
511 3102 2466
523 3054 3134
566 3050 3508
574 3042 3601
577 3043 3638
559 3490 844
559 3491 919
560 3493 995
560 3497 1238
564 3521 2488
567 3530 3181
567 3508 3506
573 3505 3589
577 3507 3638
570 3573 876
570 3574 952
570 3575 1028
570 3577 1233
571 3583 2479
574 3601 3185
574 3601 3507
574 3601 3586
577 3602 3635
576 3633 906
576 3634 983
576 3634 1059
576 3634 1256
577 3638 2489
577 3638 3194
577 3638 3509
577 3638 3587
577 3638 3634
2410 308 351
2424 310 451
2449 314 788
2333 296 1516
2423 317 2361
2631 407 3130
2693 454 3516
2684 462 3585
2684 466 3629
2404 344 345
2422 347 445
2446 351 782
2331 333 1513
2416 354 2363
2634 444 3134
2692 491 3519
2682 499 3588
2683 503 3632
2335 595 308
2385 554 426
2435 511 794
2324 371 1503
2400 389 2362
2625 482 3136
2681 528 3522
2671 536 3591
2672 540 3634
2223 1447 280
2249 1451 322
2375 1500 721
2496 1524 1790
2433 992 2477
2558 527 3130
2616 566 3523
2605 574 3597
2607 577 3638
2045 2293 295
2066 2305 333
2085 2312 389
2271 2520 1721
2328 2498 2706
2475 2333 3420
2499 2102 3738
2501 1992 3786
2510 1961 3819
1510 3218 537
1515 3231 656
1509 3239 766
1478 3262 1545
1495 3262 2631
1516 3203 3283
1498 3183 3628
1509 3171 3713
1517 3171 3751
985 3556 856
979 3555 937
970 3551 1019
949 3547 1316
919 3564 2546
863 3559 3223
793 3524 3525
773 3520 3606
766 3520 3653
911 3611 895
910 3611 974
908 3609 1053
894 3609 1276
856 3612 2528
748 3615 3214
718 3612 3520
714 3610 3597
716 3611 3647
897 3660 933
896 3660 1012
893 3659 1090
878 3658 1298
831 3657 2535
727 3650 3217
715 3649 3521
711 3648 3599
710 3648 3645
3304 426 511
3300 425 591
3306 426 820
3301 425 1700
3375 438 2540
3433 448 3166
3444 455 3517
3451 461 3582
3456 465 3624
3309 463 508
3308 463 590
3310 463 827
3302 462 1701
3372 474 2544
3435 485 3173
3444 492 3521
3451 498 3585
3456 502 3626
3319 564 489
3330 559 585
3326 531 828
3304 499 1699
3365 510 2544
3432 522 3177
3442 529 3524
3449 535 3588
3454 539 3629
3281 1533 423
3312 1535 481
3412 1583 915
3483 1553 1965
3387 961 2589
3405 555 3169
3423 565 3523
3430 573 3592
3436 576 3632
3212 2416 415
3214 2416 452
3221 2413 494
3437 2592 1942
3541 2581 2840
3511 2296 3402
3516 1977 3707
3499 1836 3753
3499 1789 3788
2972 3173 456
2990 3189 595
3001 3198 715
3133 3305 1614
3306 3442 2829
3354 3436 3556
3390 3398 3879
3399 3375 3958
3402 3370 3997
2829 3551 701
2845 3566 814
2860 3576 918
2911 3628 1336
3137 3857 2844
3108 3867 3552
3106 3824 3836
3111 3818 3924
3120 3819 3971
2774 3622 752
2790 3636 857
2807 3647 958
2849 3680 1238
3057 3905 2826
3046 3920 3541
3040 3917 3827
3048 3913 3908
3058 3914 3960
2759 3682 798
2777 3695 900
2795 3707 998
2836 3742 1269
3035 3942 2833
3037 3957 3542
3027 3956 3826
3037 3958 3907
3042 3959 3954
3499 451 563
3496 450 635
3504 452 919
3500 451 1764
3544 458 2581
3547 459 3182
3555 460 3525
3556 461 3578
3559 464 3619
3503 488 561
3501 488 635
3506 489 918
3499 488 1762
3547 495 2586
3549 496 3187
3558 497 3528
3559 498 3582
3562 501 3622
3505 543 547
3509 541 627
3508 527 902
3502 525 1757
3549 532 2588
3552 533 3189
3561 534 3532
3562 535 3585
3565 538 3625
3524 1528 460
3540 1528 539
3618 1578 1084
3666 1490 1986
3578 843 2610
3557 570 3186
3564 571 3532
3565 572 3588
3568 576 3628
3540 2442 458
3542 2438 495
3553 2439 596
3756 2612 2010
3826 2563 2877
3763 2291 3416
3748 1975 3709
3727 1821 3751
3724 1773 3786
3501 3197 554
3510 3208 702
3501 3202 841
3665 3327 1723
3833 3488 2906
3854 3434 3563
3897 3368 3879
3896 3337 3961
3896 3331 4003
3457 3547 697
3444 3538 835
3455 3544 952
3543 3630 1420
3743 3850 2848
3811 3895 3599
3838 3901 3923
3840 3896 4016
3843 3896 4065
3430 3615 735
3424 3611 863
3441 3620 973
3496 3675 1258
3712 3904 2833
3801 3986 3609
3793 4011 3919
3787 4001 4005
3786 4002 4057
3423 3677 767
3422 3678 890
3441 3688 998
3494 3740 1272
3704 3945 2834
3793 4032 3614
3778 4056 3919
3769 4055 4005
3767 4055 4054
3564 458 578
3563 458 649
3569 459 968
3566 459 1792
3592 463 2593
3581 461 3188
3592 463 3530
3592 463 3581
3593 464 3619
3567 495 576
3566 495 648
3572 496 961
3567 496 1790
3595 500 2597
3583 498 3192
3595 500 3533
3595 500 3584
3596 501 3623
3570 545 563
3570 541 640
3574 533 938
3570 532 1785
3598 537 2599
3585 535 3194
3598 537 3537
3598 537 3587
3599 538 3626
3591 1527 471
3599 1525 555
3674 1577 1151
3714 1461 1990
3625 820 2617
3589 572 3188
3601 574 3537
3601 574 3591
3602 576 3629
3583 2438 461
3588 2435 502
3602 2439 633
3799 2609 2027
3862 2559 2887
3789 2283 3415
3784 1972 3712
3765 1833 3754
3759 1779 3787
3574 3206 574
3579 3213 719
3564 3202 860
3733 3336 1753
3897 3490 2921
3890 3420 3556
3957 3370 3884
3954 3332 3961
3955 3326 4002
3551 3543 713
3530 3527 853
3518 3517 987
3640 3626 1459
3853 3844 2858
3889 3846 3563
4002 3909 3934
4004 3894 4026
4008 3894 4074
3547 3603 770
3524 3586 906
3518 3582 1029
3610 3663 1305
3849 3896 2841
3889 3926 3559
3990 4031 3932
3987 4024 4029
3990 4025 4082
3544 3663 804
3521 3646 939
3518 3643 1061
3616 3725 1321
3853 3939 2843
3882 3969 3562
3979 4080 3935
3973 4080 4030
3971 4079 4079
3628 466 587
3628 466 658
3629 466 998
3628 466 1818
3629 466 2604
3614 463 3193
3617 464 3521
3629 466 3584
3629 466 3621
3631 503 585
3631 503 657
3632 503 988
3631 503 1817
3632 503 2608
3615 500 3197
3621 501 3527
3632 503 3587
3632 503 3625
3634 550 573
3634 546 648
3635 540 962
3634 540 1812
3635 540 2609
3617 537 3199
3626 538 3531
3635 540 3590
3635 540 3628
3630 1532 475
3637 1530 561
3691 1594 1222
3750 1455 1996
3656 817 2622
3622 575 3194
3631 576 3532
3638 577 3594
3638 577 3631
3624 2440 465
3629 2435 505
3645 2443 678
3839 2608 2039
3892 2562 2895
3821 2284 3417
3820 1982 3714
3805 1850 3758
3800 1810 3792
3647 3219 601
3645 3218 740
3628 3205 877
3798 3344 1773
3948 3489 2931
3926 3413 3554
4004 3374 3887
4000 3333 3963
4000 3326 4002
3616 3546 724
3593 3528 862
3572 3509 1005
3705 3628 1484
3917 3844 2870
3937 3836 3557
4069 3917 3940
4068 3897 4028
4067 3888 4073
3605 3597 773
3581 3580 909
3564 3568 1043
3661 3652 1324
3902 3886 2845
3934 3910 3548
4067 4032 3932
4076 4030 4036
4078 4026 4088
3599 3650 828
3575 3633 963
3566 3628 1088
3667 3719 1347
3903 3927 2845
3932 3955 3548
4067 4079 3930
4077 4089 4034
4080 4092 4092
