滤镜资源/Professional Luts Collection/Triune-Digital-Cinematic-LUTs/3D LUTs (3DL)/ALEXA/Guardians of the Galaxy - Alexa.3dl
# Created by Benjamin (IWLTBAP) : http://luts.iwltbap.com
# Copyright: (C) Copyright 2016 Triune Films and IWLTBAP
# Blockbuster LUTs Pack
0 256 512 768 1023
0 0 0
0 99 564
0 398 1682
0 652 2600
0 696 2758
0 630 118
0 595 623
0 495 1689
0 738 2596
0 779 2752
152 1903 320
157 1884 459
194 2001 2016
162 1744 2800
151 1686 2944
431 2831 578
388 2840 756
367 3225 2207
401 3257 3337
403 3222 3559
488 2977 660
437 2987 825
384 3368 2179
437 3503 3408
442 3479 3607
718 159 69
737 215 614
157 463 1729
20 679 2621
20 723 2780
707 745 233
537 734 711
53 537 1707
20 768 2623
20 810 2783
198 1923 314
203 1902 464
244 2022 2035
210 1757 2833
198 1702 2979
502 2863 608
458 2874 799
418 3277 2269
456 3292 3377
457 3245 3585
549 3014 687
475 3044 852
434 3411 2239
494 3530 3441
501 3509 3642
2320 506 122
2384 489 554
2576 696 1670
2362 969 2650
2313 1002 2812
2435 898 198
2435 800 519
2559 788 1690
2302 1050 2687
2254 1070 2854
2712 2429 427
2699 2435 507
2237 2520 2383
1621 2100 3259
1563 2052 3402
1183 3025 797
1131 3048 953
804 3477 2531
723 3432 3498
691 3365 3673
1008 3180 817
931 3213 970
717 3567 2493
666 3633 3537
660 3605 3726
3362 792 319
3404 777 656
3532 938 1731
3506 1151 2704
3522 1198 2902
3383 936 255
3408 878 622
3533 1028 1754
3508 1245 2753
3528 1290 2949
3889 2574 480
3888 2589 608
3795 2686 2393
3760 2361 3394
3782 2276 3567
3906 3808 983
3905 3822 1171
3855 3957 2646
3666 3942 3685
3646 3876 3900
3860 3977 1306
3859 3987 1458
3811 4056 2762
3570 4089 3712
3588 4055 3937
3534 850 347
3568 836 673
3668 990 1761
3621 1188 2717
3632 1228 2903
3555 986 280
3576 941 639
3673 1084 1790
3627 1288 2774
3644 1328 2963
3981 2633 524
3985 2657 665
3934 2785 2487
3886 2454 3427
3913 2327 3593
4016 3774 1257
4017 3787 1401
4013 3956 2649
3968 3939 3667
3952 3936 3906
4017 3947 1349
4017 3956 1482
4012 4065 2831
3968 4079 3784
3957 4083 3930
