滤镜资源/Professional Luts Collection/Triune-Digital-Cinematic-LUTs/3D LUTs (3DL)/ALEXA/Guardians of the Galaxy - Alexa.3dl
# Created by Benjamin (IWLTBAP) : http://luts.iwltbap.com
# Copyright: (C) Copyright 2016 Triune Films and IWLTBAP
# Blockbuster LUTs Pack
0 64 128 192 256 320 384 448 512 576 640 704 768 832 896 960 1023
0 0 0
0 0 108
0 25 233
0 58 383
0 99 564
0 157 799
0 229 1085
0 310 1381
0 398 1682
0 483 1975
0 558 2251
0 616 2461
0 652 2600
0 666 2650
0 676 2686
0 686 2721
0 696 2758
0 106 39
0 91 111
0 89 233
0 95 382
0 127 564
0 182 802
0 255 1087
0 336 1383
0 422 1684
0 506 1977
0 580 2250
0 637 2461
0 672 2598
0 686 2648
0 696 2683
0 706 2719
0 716 2755
0 253 66
0 243 119
0 226 247
0 209 389
0 183 566
0 210 803
0 280 1090
0 361 1386
0 447 1686
0 529 1979
0 603 2250
0 658 2460
0 694 2597
0 707 2646
0 716 2682
0 726 2718
0 736 2753
0 419 89
0 413 130
0 410 251
0 388 413
0 355 584
0 278 807
0 307 1092
0 386 1389
0 471 1688
0 553 1981
0 625 2250
0 680 2460
0 715 2597
0 728 2646
0 737 2681
0 748 2717
0 757 2752
0 630 118
0 625 140
0 621 228
0 629 424
0 595 623
0 538 843
0 402 1098
0 412 1390
0 495 1689
0 576 1981
0 647 2249
0 702 2459
0 738 2596
0 751 2646
0 760 2681
0 770 2716
0 779 2752
21 908 154
23 904 176
25 898 206
31 905 355
36 927 633
37 881 902
28 806 1164
8 652 1415
0 540 1689
0 599 1980
0 671 2247
0 725 2456
0 760 2595
0 774 2647
0 783 2681
0 793 2716
0 802 2751
66 1232 197
68 1230 219
69 1226 245
70 1225 283
77 1251 525
84 1295 930
85 1235 1252
79 1161 1520
58 1040 1767
25 847 2004
0 728 2245
0 747 2451
0 783 2591
0 798 2647
0 807 2680
0 816 2715
0 825 2751
109 1563 250
111 1563 276
112 1561 304
112 1561 330
115 1561 406
127 1625 834
134 1675 1313
135 1604 1622
132 1533 1889
120 1449 2136
94 1301 2345
55 1139 2497
36 1028 2601
18 950 2654
16 950 2687
15 956 2721
14 961 2756
152 1903 320
154 1900 357
155 1895 394
156 1892 427
157 1884 459
167 1913 741
182 2041 1282
191 2077 1722
194 2001 2016
190 1929 2281
183 1859 2516
172 1795 2690
162 1744 2800
157 1710 2855
154 1695 2882
153 1693 2913
151 1686 2944
211 2264 360
209 2261 406
205 2256 450
201 2248 494
202 2233 540
207 2203 661
231 2323 1241
247 2491 1764
258 2499 2144
262 2423 2435
258 2356 2703
250 2295 2886
244 2263 3008
241 2246 3081
240 2240 3113
240 2240 3144
239 2239 3174
323 2569 462
313 2572 505
302 2574 546
288 2574 589
276 2571 630
262 2562 668
274 2579 1191
299 2769 1748
315 2926 2252
324 2891 2576
325 2810 2845
321 2758 3064
315 2709 3185
311 2685 3261
311 2680 3306
311 2677 3334
311 2674 3362
409 2778 551
399 2781 597
389 2784 643
377 2786 687
364 2788 729
348 2788 771
314 2775 1128
335 2953 1752
354 3139 2243
365 3230 2679
371 3153 2951
371 3086 3149
368 3059 3302
366 3029 3378
365 3014 3424
366 3005 3455
366 2996 3480
431 2831 578
422 2835 625
412 2837 670
400 2839 714
388 2840 756
374 2842 798
333 2811 1001
345 3012 1721
367 3225 2207
384 3384 2707
396 3361 3001
402 3302 3210
401 3257 3337
400 3244 3432
400 3240 3492
402 3232 3526
403 3222 3559
447 2867 599
438 2870 645
428 2872 688
417 2874 732
404 2875 774
391 2876 815
344 2848 989
349 3049 1699
372 3263 2192
390 3424 2700
404 3435 3017
415 3407 3237
419 3383 3371
420 3361 3448
421 3356 3505
421 3358 3551
423 3354 3596
462 2902 619
454 2905 665
443 2906 709
432 2907 752
420 2908 793
407 2909 835
354 2887 998
353 3089 1690
377 3300 2187
395 3459 2699
409 3479 3027
420 3448 3248
425 3431 3385
428 3420 3465
430 3414 3515
431 3415 3555
433 3418 3603
477 2936 641
468 2938 687
456 2940 730
444 2943 771
431 2944 810
417 2947 851
360 2928 1010
357 3132 1689
381 3334 2184
400 3492 2699
414 3518 3040
425 3486 3261
431 3467 3396
434 3456 3477
435 3449 3525
436 3446 3559
438 3450 3606
488 2977 660
477 2980 702
465 2983 744
452 2985 785
437 2987 825
422 2991 864
363 2971 1014
362 3174 1684
384 3368 2179
404 3525 2695
420 3555 3052
432 3524 3273
437 3503 3408
439 3490 3488
440 3485 3536
441 3482 3569
442 3479 3607
61 22 22
52 31 120
36 52 247
16 83 402
11 122 582
6 167 808
5 238 1092
5 318 1386
5 405 1686
5 489 1979
5 565 2254
5 623 2467
5 659 2606
5 673 2657
5 683 2692
5 692 2727
5 703 2764
30 126 69
15 111 119
13 110 242
11 116 394
8 143 573
5 192 805
5 264 1092
5 344 1386
5 430 1686
5 513 1980
5 588 2255
5 644 2468
5 680 2607
5 694 2658
5 704 2693
5 713 2729
5 724 2765
10 259 88
9 246 138
8 229 250
7 215 393
5 192 570
5 218 807
5 289 1094
5 369 1389
5 454 1688
5 537 1982
5 610 2255
5 665 2468
5 701 2606
5 714 2655
5 724 2691
5 734 2726
5 744 2762
5 423 98
5 415 142
5 412 252
5 390 417
5 357 588
5 285 811
5 315 1095
5 395 1392
5 479 1690
5 560 1983
5 632 2255
5 687 2467
5 723 2605
5 736 2654
5 746 2690
5 756 2725
5 765 2761
5 635 126
5 629 151
6 625 238
10 631 426
11 599 627
6 541 847
5 409 1102
5 420 1393
5 503 1692
5 583 1984
5 655 2254
5 710 2466
5 746 2605
5 759 2655
5 768 2690
5 777 2725
5 787 2761
35 911 162
37 908 183
39 901 214
44 908 366
49 930 636
50 885 906
41 809 1168
19 658 1419
5 548 1692
5 607 1983
5 678 2252
5 733 2463
5 768 2603
5 782 2655
5 791 2690
5 800 2724
5 810 2760
78 1235 203
80 1233 226
81 1230 251
82 1228 290
90 1256 536
96 1299 933
98 1240 1256
92 1165 1525
71 1043 1771
35 852 2006
5 735 2249
5 755 2457
5 791 2598
5 805 2655
5 814 2689
5 824 2724
5 833 2760
121 1566 253
123 1566 281
124 1564 309
125 1563 336
127 1564 411
139 1628 839
146 1679 1315
148 1610 1627
144 1537 1893
132 1452 2140
106 1304 2350
67 1143 2503
45 1036 2608
27 958 2662
25 957 2695
24 964 2729
23 969 2764
164 1909 318
165 1907 356
167 1902 393
167 1896 429
169 1888 462
179 1917 748
194 2045 1284
204 2084 1725
206 2008 2022
203 1934 2288
195 1865 2525
184 1800 2699
175 1749 2811
168 1715 2867
166 1700 2893
165 1698 2925
163 1692 2955
227 2270 359
225 2270 406
218 2268 451
214 2260 495
214 2245 541
219 2213 667
244 2334 1255
261 2504 1773
271 2514 2155
275 2433 2446
271 2365 2714
263 2303 2898
257 2270 3021
254 2254 3094
253 2247 3126
252 2247 3157
252 2246 3187
342 2576 466
333 2583 514
321 2584 556
308 2585 597
293 2583 638
278 2574 676
288 2592 1206
313 2787 1770
330 2943 2265
339 2909 2593
340 2824 2862
333 2767 3078
327 2717 3196
325 2692 3271
324 2685 3315
324 2683 3343
324 2680 3371
427 2787 558
418 2792 608
408 2795 654
396 2797 698
382 2798 741
367 2798 783
328 2786 1142
348 2967 1769
367 3154 2257
379 3244 2692
384 3166 2963
384 3097 3162
381 3068 3312
379 3035 3386
378 3020 3432
379 3011 3462
379 3001 3488
449 2840 587
440 2845 638
430 2847 683
418 2849 726
406 2850 768
392 2851 811
349 2822 1014
357 3026 1733
380 3237 2221
397 3390 2711
409 3370 3009
415 3310 3219
414 3266 3347
414 3251 3440
414 3245 3499
415 3237 3532
416 3228 3566
464 2876 607
456 2880 656
446 2882 701
434 2883 744
422 2884 786
409 2885 828
359 2859 1002
361 3064 1711
385 3275 2207
402 3430 2703
417 3442 3023
428 3413 3244
432 3389 3379
434 3367 3456
435 3362 3513
436 3363 3559
437 3360 3603
478 2911 629
472 2914 677
460 2916 721
449 2917 763
437 2918 806
424 2918 847
368 2897 1011
366 3105 1701
389 3312 2201
407 3465 2701
422 3485 3034
434 3454 3255
440 3437 3393
442 3427 3473
444 3420 3522
445 3421 3563
447 3425 3611
496 2945 649
484 2949 698
472 2953 740
459 2955 781
445 2957 821
431 2959 862
373 2939 1020
370 3148 1700
393 3346 2198
412 3498 2702
428 3524 3046
439 3492 3268
445 3472 3404
448 3461 3484
450 3456 3533
451 3453 3567
452 3457 3613
505 2987 666
492 2993 712
480 2996 755
464 3001 794
446 3006 832
429 3011 869
372 2985 1023
374 3190 1696
397 3380 2193
417 3531 2698
433 3562 3058
445 3530 3280
451 3509 3416
453 3497 3495
455 3490 3544
456 3487 3577
457 3486 3614
255 64 41
245 69 115
237 84 263
204 113 423
162 149 607
81 200 835
12 249 1102
10 326 1394
10 412 1691
10 497 1983
10 572 2258
10 629 2473
10 666 2612
10 680 2662
10 690 2698
10 700 2734
10 709 2769
238 160 84
219 149 136
207 145 256
176 143 415
134 176 603
53 222 830
11 273 1100
10 352 1393
10 437 1691
10 520 1984
10 595 2259
10 651 2474
10 688 2613
10 701 2663
10 711 2699
10 721 2735
10 731 2771
197 296 128
180 285 176
154 266 264
131 252 411
91 228 596
26 241 823
10 298 1098
10 377 1393
10 462 1692
10 543 1984
10 618 2260
10 673 2474
10 709 2614
10 723 2664
10 732 2700
10 742 2736
10 752 2772
78 442 144
68 433 180
58 428 280
49 410 427
24 376 597
11 295 816
10 324 1099
10 403 1395
10 487 1693
10 567 1986
10 640 2260
10 695 2474
10 731 2613
10 744 2664
10 754 2699
10 763 2735
10 773 2771
15 639 137
16 634 161
20 630 250
25 634 427
24 603 630
19 545 850
10 417 1106
10 429 1396
10 511 1695
10 591 1987
10 662 2259
10 718 2473
10 753 2612
10 766 2664
10 776 2699
10 785 2734
10 795 2770
48 915 169
50 911 190
52 905 222
57 912 376
63 933 638
64 890 910
55 813 1173
30 664 1423
10 556 1695
10 614 1985
10 685 2257
10 741 2470
10 776 2611
10 789 2664
10 799 2698
10 808 2733
10 817 2768
90 1239 209
92 1237 232
94 1233 258
95 1231 297
102 1260 546
109 1304 938
110 1244 1261
104 1169 1530
83 1047 1774
44 857 2009
10 743 2254
10 763 2463
10 799 2606
10 813 2663
10 822 2698
10 831 2733
10 840 2768
133 1570 257
134 1569 285
136 1567 314
137 1566 341
139 1567 418
151 1631 844
159 1684 1318
160 1615 1632
157 1541 1898
144 1454 2144
118 1307 2354
80 1148 2509
54 1042 2614
36 965 2670
34 965 2703
33 972 2737
32 976 2772
175 1914 318
177 1913 355
178 1910 392
180 1902 429
181 1893 463
191 1920 752
207 2049 1287
216 2091 1729
219 2014 2028
216 1939 2294
207 1870 2532
196 1805 2708
187 1754 2821
181 1720 2878
178 1705 2904
177 1703 2935
175 1696 2965
242 2275 357
241 2277 405
233 2278 450
228 2271 493
227 2256 541
231 2222 672
257 2345 1269
275 2516 1782
286 2527 2165
289 2444 2457
284 2373 2725
275 2310 2910
269 2277 3033
266 2261 3107
265 2254 3139
265 2254 3170
264 2253 3200
360 2583 471
352 2590 519
340 2594 565
327 2595 606
311 2595 646
295 2588 684
301 2605 1220
327 2806 1791
345 2960 2280
353 2926 2610
353 2837 2878
347 2777 3091
340 2725 3208
337 2699 3282
336 2691 3325
337 2689 3353
337 2686 3381
445 2796 565
436 2801 616
427 2806 665
415 2808 709
401 2809 752
385 2809 794
342 2798 1156
361 2983 1786
381 3169 2273
392 3259 2705
398 3180 2977
397 3109 3176
394 3077 3323
392 3042 3396
391 3026 3440
391 3016 3470
391 3007 3496
466 2849 594
459 2853 645
448 2858 694
437 2859 737
424 2860 780
410 2861 822
364 2835 1028
370 3044 1747
393 3255 2239
410 3402 2718
422 3380 3019
428 3319 3229
428 3276 3357
427 3259 3449
427 3251 3505
429 3243 3539
429 3233 3572
482 2885 615
475 2890 664
464 2893 712
453 2894 756
440 2894 799
427 2895 840
375 2870 1015
374 3080 1722
397 3289 2222
415 3437 2706
430 3448 3030
442 3420 3251
447 3396 3387
448 3375 3464
448 3369 3521
449 3370 3566
451 3366 3610
498 2920 636
490 2923 686
479 2926 732
467 2927 775
454 2927 818
441 2929 858
381 2910 1022
378 3122 1713
402 3325 2215
420 3472 2705
435 3492 3040
447 3460 3262
453 3443 3400
457 3433 3481
458 3426 3529
459 3427 3570
461 3431 3619
512 2955 658
501 2961 704
487 2966 749
474 2968 791
460 2970 831
445 2972 871
384 2951 1030
382 3164 1712
405 3359 2212
424 3504 2705
440 3530 3052
453 3498 3275
459 3478 3412
462 3468 3492
463 3461 3540
464 3458 3574
465 3462 3621
521 2998 674
508 3004 718
490 3014 760
473 3021 800
454 3027 838
436 3031 876
382 2999 1032
387 3206 1707
409 3392 2208
429 3538 2705
446 3568 3065
458 3536 3287
464 3514 3423
467 3502 3503
469 3496 3551
470 3493 3584
471 3491 3622
463 105 56
457 116 120
462 110 244
465 140 429
397 180 636
317 236 868
181 298 1139
35 341 1405
15 420 1696
15 503 1988
15 579 2262
15 636 2477
15 674 2617
15 687 2667
15 697 2703
15 706 2739
15 717 2776
460 197 93
447 187 144
443 168 241
444 171 427
377 208 633
295 261 867
157 320 1137
28 366 1404
15 445 1697
15 528 1988
15 602 2263
15 658 2478
15 695 2618
15 708 2669
15 718 2704
15 727 2741
