滤镜资源/Professional Luts Collection/Triune-Digital-Cinematic-LUTs/3D LUTs (3DL)/ALEXA/Guardians of the Galaxy - Alexa.3dl
# Created by Benjamin (IWLTBAP) : http://luts.iwltbap.com
# Copyright: (C) Copyright 2016 Triune Films and IWLTBAP
# Blockbuster LUTs Pack
0 128 256 384 512 640 768 896 1023
0 0 0
0 25 233
0 99 564
0 229 1085
0 398 1682
0 558 2251
0 652 2600
0 676 2686
0 696 2758
0 253 66
0 226 247
0 183 566
0 280 1090
0 447 1686
0 603 2250
0 694 2597
0 716 2682
0 736 2753
0 630 118
0 621 228
0 595 623
0 402 1098
0 495 1689
0 647 2249
0 738 2596
0 760 2681
0 779 2752
66 1232 197
69 1226 245
77 1251 525
85 1235 1252
58 1040 1767
0 728 2245
0 783 2591
0 807 2680
0 825 2751
152 1903 320
155 1895 394
157 1884 459
182 2041 1282
194 2001 2016
183 1859 2516
162 1744 2800
154 1695 2882
151 1686 2944
323 2569 462
302 2574 546
276 2571 630
274 2579 1191
315 2926 2252
325 2810 2845
315 2709 3185
311 2680 3306
311 2674 3362
431 2831 578
412 2837 670
388 2840 756
333 2811 1001
367 3225 2207
396 3361 3001
401 3257 3337
400 3240 3492
403 3222 3559
462 2902 619
443 2906 709
420 2908 793
354 2887 998
377 3300 2187
409 3479 3027
425 3431 3385
430 3414 3515
433 3418 3603
488 2977 660
465 2983 744
437 2987 825
363 2971 1014
384 3368 2179
420 3555 3052
437 3503 3408
440 3485 3536
442 3479 3607
255 64 41
237 84 263
162 149 607
12 249 1102
10 412 1691
10 572 2258
10 666 2612
10 690 2698
10 709 2769
197 296 128
154 266 264
91 228 596
10 298 1098
10 462 1692
10 618 2260
10 709 2614
10 732 2700
10 752 2772
15 639 137
20 630 250
24 603 630
10 417 1106
10 511 1695
10 662 2259
10 753 2612
10 776 2699
10 795 2770
90 1239 209
94 1233 258
102 1260 546
110 1244 1261
83 1047 1774
10 743 2254
10 799 2606
10 822 2698
10 840 2768
175 1914 318
178 1910 392
181 1893 463
207 2049 1287
219 2014 2028
207 1870 2532
187 1754 2821
178 1705 2904
175 1696 2965
360 2583 471
340 2594 565
311 2595 646
301 2605 1220
345 2960 2280
353 2837 2878
340 2725 3208
336 2691 3325
337 2686 3381
466 2849 594
448 2858 694
424 2860 780
364 2835 1028
393 3255 2239
422 3380 3019
428 3276 3357
427 3251 3505
429 3233 3572
498 2920 636
479 2926 732
454 2927 818
381 2910 1022
402 3325 2215
435 3492 3040
453 3443 3400
458 3426 3529
461 3431 3619
521 2998 674
490 3014 760
454 3027 838
382 2999 1032
409 3392 2208
446 3568 3065
464 3514 3423
469 3496 3551
471 3491 3622
718 159 69
714 163 230
737 215 614
527 340 1180
157 463 1729
20 586 2265
20 679 2621
20 703 2708
20 723 2780
741 368 135
715 344 263
719 293 625
492 396 1186
125 506 1723
20 632 2267
20 724 2624
20 745 2710
20 766 2782
707 745 233
660 744 351
537 734 711
353 511 1184
53 537 1707
20 678 2267
20 768 2623
20 790 2710
20 810 2783
123 1248 225
125 1240 272
131 1265 568
136 1249 1266
108 1052 1779
25 756 2260
20 813 2616
20 836 2709
20 855 2780
198 1923 314
201 1920 389
203 1902 464
230 2053 1295
244 2022 2035
232 1876 2544
210 1757 2833
200 1709 2917
198 1702 2979
396 2595 476
376 2606 572
348 2611 661
326 2625 1243
372 2984 2302
380 2858 2902
365 2735 3225
362 2701 3340
363 2698 3396
502 2863 608
483 2871 709
458 2874 799
392 2852 1049
418 3277 2269
449 3399 3037
456 3292 3377
455 3263 3520
457 3245 3585
533 2933 651
511 2938 749
483 2942 836
407 2925 1041
426 3344 2245
463 3507 3056
482 3457 3418
487 3441 3547
490 3446 3636
549 3014 687
512 3033 772
475 3044 852
404 3013 1049
434 3411 2239
475 3583 3082
494 3530 3441
499 3512 3569
501 3509 3642
1459 307 52
1466 331 203
1518 307 524
1576 441 1130
1404 604 1812
1025 728 2355
789 824 2687
725 853 2774
698 875 2848
1495 443 89
1488 415 204
1523 361 518
1582 493 1140
1376 652 1831
986 773 2362
750 868 2696
683 896 2782
654 910 2855
1616 817 156
1596 813 274
1571 800 607
1572 593 1164
1316 698 1849
916 821 2369
680 914 2702
606 926 2783
573 940 2853
1663 1468 323
1649 1470 378
1570 1500 709
1194 1549 1457
891 1266 1960
650 881 2356
421 911 2677
380 923 2764
366 937 2834
606 2020 383
586 2018 429
555 2006 480
404 2075 1354
361 2057 2054
272 1876 2550
237 1757 2842
222 1707 2923
219 1700 2986
429 2601 479
410 2612 574
382 2617 664
350 2637 1262
396 2997 2321
406 2869 2919
389 2738 3236
387 2705 3350
390 2704 3406
535 2875 622
516 2882 722
490 2885 813
422 2864 1071
442 3291 2298
478 3413 3053
483 3304 3395
483 3273 3535
485 3255 3597
565 2943 667
541 2949 763
511 2954 849
432 2938 1059
450 3356 2274
492 3522 3074
512 3472 3436
516 3455 3566
519 3460 3653
574 3029 699
537 3047 784
499 3056 865
428 3021 1068
459 3423 2272
504 3599 3102
524 3547 3461
528 3530 3589
530 3526 3662
2320 506 122
2342 508 291
2384 489 554
2530 576 1082
2576 696 1670
2508 869 2255
2362 969 2650
2327 988 2738
2313 1002 2812
2326 559 128
2348 560 276
2386 537 543
2530 619 1085
2571 742 1680
2486 916 2275
2336 1010 2667
2302 1025 2755
2287 1038 2829
2435 898 198
2424 881 296
2435 800 519
2521 664 1084
2559 788 1690
2452 963 2298
2302 1050 2687
2267 1061 2776
2254 1070 2854
2687 1531 299
2683 1530 328
2676 1547 544
2606 1581 1320
2546 1335 1902
2338 1018 2333
2192 1071 2713
2138 1077 2812
2105 1085 2883
2712 2429 427
2706 2437 465
2699 2435 507
2601 2511 1421
2237 2520 2383
1783 2225 2930
1621 2100 3259
1572 2052 3342
1563 2052 3402
1935 2927 730
1913 2930 791
1885 2928 856
1652 2934 1356
1146 3138 2486
1105 3208 3197
1014 3063 3453
1065 3079 3588
1098 3102 3657
1183 3025 797
1160 3039 877
1131 3048 953
1001 3077 1206
804 3477 2531
810 3590 3261
723 3432 3498
696 3382 3611
691 3365 3673
1050 3067 807
1021 3087 883
985 3102 955
857 3106 1159
734 3504 2495
686 3622 3214
657 3559 3509
653 3535 3633
655 3531 3711
1008 3180 817
972 3200 894
931 3213 970
803 3202 1174
717 3567 2493
665 3680 3228
666 3633 3537
661 3613 3655
660 3605 3726
3171 734 264
3193 733 405
3220 716 630
3322 741 1084
3354 879 1703
3326 991 2250
3325 1105 2680
3318 1126 2772
3310 1142 2851
3176 788 243
3193 784 388
3220 764 617
3319 781 1084
3351 922 1713
3320 1036 2266
3320 1148 2699
3313 1168 2791
3305 1185 2871
3204 949 232
3210 931 345
3219 854 586
3313 821 1080
3346 965 1723
3314 1082 2285
3314 1193 2720
3305 1213 2815
3299 1229 2896
3451 1684 305
3451 1682 335
3432 1676 526
3405 1628 1210
3347 1344 1846
3283 1122 2294
3281 1231 2733
3267 1252 2835
3264 1270 2920
3643 2501 448
3644 2506 493
3641 2505 546
3597 2564 1432
3493 2593 2323
3392 2391 2969
3377 2220 3341
3361 2185 3445
3359 2191 3523
3540 3414 710
3542 3424 779
3541 3430 850
3534 3482 1527
3446 3469 2400
3226 3435 3229
3115 3314 3606
3124 3323 3742
3145 3347 3807
3377 3727 1088
3375 3735 1186
3373 3744 1279
3365 3782 1612
3263 3864 2543
2777 3891 3208
2710 3844 3745
2715 3786 3844
2749 3775 3898
3316 3789 1151
3316 3798 1240
3316 3807 1324
3306 3833 1550
3206 3947 2551
2701 4023 3248
2639 4015 3792
2634 3976 3902
2649 3958 3957
3304 3862 1210
3304 3872 1297
3303 3881 1378
3293 3904 1589
3198 4033 2578
2727 4082 3303
2668 4028 3790
2666 3997 3887
2664 3981 3935
3362 792 319
3382 791 447
3404 777 656
3485 788 1095
3532 938 1731
3498 1039 2278
3506 1151 2704
3515 1178 2809
3522 1198 2902
3369 847 300
3383 842 431
3405 825 645
3485 829 1096
3532 981 1741
3496 1085 2297
3506 1196 2726
3516 1222 2832
3523 1242 2922
3383 936 255
3394 925 391
3408 878 622
3486 872 1094
3533 1028 1754
3496 1136 2321
3508 1245 2753
3520 1271 2861
3528 1290 2949
3647 1722 295
3651 1723 344
3639 1729 548
3630 1697 1266
3571 1364 1874
3498 1189 2338
3511 1293 2773
3525 1321 2892
3532 1338 2978
3889 2574 480
3890 2582 534
3888 2589 608
3859 2664 1561
3795 2686 2393
3727 2537 3053
3760 2361 3394
3777 2288 3498
3782 2276 3567
3924 3411 832
3924 3419 924
3926 3425 1011
3930 3486 1695
3923 3483 2466
3831 3453 3202
3782 3418 3614
3777 3407 3755
3773 3420 3817
3906 3808 983
3905 3815 1080
3905 3822 1171
3897 3858 1583
3855 3957 2646
3761 3941 3257
3666 3942 3685
3640 3897 3845
3646 3876 3900
3867 3903 1196
3868 3910 1283
3867 3916 1365
3863 3933 1586
3821 4011 2687
3706 4047 3273
3586 4079 3687
3585 4062 3884
3591 4037 3946
3860 3977 1306
3860 3982 1386
3859 3987 1458
3853 3999 1654
3811 4056 2762
3686 4079 3343
3570 4089 3712
3573 4075 3882
3588 4055 3937
3451 821 336
3468 819 461
3488 806 666
3561 811 1104
3602 963 1745
3563 1063 2297
3564 1167 2708
3569 1190 2807
3579 1213 2904
3456 875 318
3469 871 446
3490 855 655
3561 852 1105
3603 1007 1756
3562 1112 2319
3564 1213 2732
3570 1235 2829
3582 1258 2928
3470 957 271
3479 944 409
3494 908 632
3564 896 1103
3606 1055 1770
3565 1167 2346
3568 1265 2762
3576 1287 2861
3589 1310 2962
3728 1747 290
3733 1753 349
3724 1771 566
3717 1742 1314
3650 1391 1900
3568 1222 2368
3572 1316 2785
3584 1340 2896
3599 1362 2997
3938 2600 494
3940 2610 552
3941 2619 633
3925 2706 1621
3868 2734 2440
3800 2586 3089
3823 2406 3409
3836 2310 3501
3851 2294 3583
3965 3405 962
3966 3414 1072
3966 3421 1165
3971 3490 1795
3971 3493 2512
3902 3471 3216
3862 3443 3621
3870 3430 3764
3870 3441 3829
3975 3779 1209
3976 3786 1283
3976 3794 1353
3977 3832 1667
3964 3968 2638
3923 3961 3265
3893 3934 3678
3880 3930 3834
3872 3922 3902
3976 3875 1247
3976 3879 1320
3977 3885 1390
3977 3904 1581
3965 4039 2681
3925 4059 3322
3878 4071 3729
3846 4075 3848
3829 4071 3924
3975 3960 1297
3975 3965 1373
3975 3970 1445
3975 3987 1629
3958 4069 2815
3908 4071 3428
3861 4085 3753
3832 4089 3859
3828 4085 3926
3534 850 347
3549 848 471
3568 836 673
3631 835 1114
3668 990 1761
3626 1093 2323
3621 1188 2717
3626 1210 2816
3632 1228 2903
3539 906 328
3551 901 455
3571 886 662
3632 877 1115
3668 1034 1773
3625 1145 2347
3622 1235 2742
3628 1257 2840
3635 1274 2927
3555 986 280
3561 971 418
3576 941 639
3636 922 1112
3673 1084 1790
3629 1201 2377
3627 1288 2774
3635 1310 2874
3644 1328 2963
3816 1791 289
3821 1800 359
3813 1825 587
3804 1799 1362
3729 1432 1933
3634 1259 2401
3633 1342 2799
3644 1366 2911
3656 1385 3003
3981 2633 524
3982 2644 582
3985 2657 665
3987 2754 1684
3934 2785 2487
3870 2635 3121
3886 2454 3427
3899 2357 3515
3913 2327 3593
4005 3411 1052
4006 3422 1149
4006 3429 1236
4011 3500 1861
4013 3509 2570
3966 3497 3235
3928 3473 3632
3930 3467 3767
3940 3462 3837
4016 3774 1257
4017 3781 1331
4017 3787 1401
4017 3821 1716
4013 3956 2649
3990 3964 3257
3968 3939 3667
3958 3934 3828
3952 3936 3906
4016 3860 1296
4017 3865 1368
4017 3869 1435
4018 3888 1625
4012 4035 2698
3989 4063 3345
3968 4067 3737
3963 4067 3862
3955 4068 3921
4017 3947 1349
4017 3951 1417
4017 3956 1482
4018 3970 1657
4012 4065 2831
3984 4073 3456
3968 4079 3784
3961 4081 3884
3957 4083 3930
