滤镜资源/Professional Luts Collection/Triune-Digital-Cinematic-LUTs/3D LUTs (3DL)/ALEXA/Interstellar - Alexa.3dl
# Created by Benjamin (IWLTBAP) : http://luts.iwltbap.com
# Copyright: (C) Copyright 2016 Triune Films and IWLTBAP
# Blockbuster LUTs Pack
0 64 128 192 256 320 384 448 512 576 640 704 768 832 896 960 1023
0 0 74
0 30 125
0 87 192
0 171 311
0 285 463
0 439 673
0 637 942
0 839 1216
0 1019 1466
0 1172 1695
0 1332 1922
0 1472 2123
0 1570 2265
0 1607 2318
0 1630 2356
0 1652 2394
0 1678 2433
0 86 66
0 76 140
0 99 194
0 175 313
0 288 466
0 441 675
0 637 942
0 839 1217
0 1019 1465
0 1172 1695
0 1331 1922
0 1474 2123
0 1570 2266
0 1607 2319
0 1630 2357
0 1653 2395
0 1679 2432
0 209 81
0 202 118
0 181 236
0 196 316
0 294 467
0 442 678
0 637 945
0 840 1219
0 1019 1468
0 1173 1698
0 1332 1926
0 1475 2127
0 1569 2271
0 1606 2325
0 1631 2363
0 1655 2401
0 1681 2437
0 379 79
0 370 87
0 378 210
0 330 376
0 330 477
0 448 680
0 638 947
0 841 1222
0 1021 1472
0 1174 1704
0 1333 1933
0 1475 2135
0 1569 2281
0 1606 2335
0 1631 2372
0 1657 2410
0 1683 2447
0 589 50
0 582 63
0 575 100
0 609 366
0 540 562
0 521 707
0 645 951
0 841 1225
0 1020 1476
0 1173 1710
0 1333 1940
0 1475 2144
0 1573 2289
0 1607 2347
0 1632 2384
0 1657 2420
0 1685 2459
0 859 36
0 857 47
0 849 59
0 850 135
0 932 563
0 844 836
0 790 1015
0 874 1234
0 1019 1485
0 1172 1715
0 1336 1945
0 1475 2151
0 1572 2299
0 1608 2358
0 1633 2396
0 1659 2433
0 1686 2471
0 1161 18
0 1159 21
0 1159 35
0 1155 52
0 1174 256
0 1361 946
0 1224 1222
0 1119 1387
0 1143 1555
0 1202 1734
0 1335 1964
0 1472 2157
0 1568 2308
0 1609 2372
0 1636 2410
0 1662 2447
0 1688 2487
0 1438 75
0 1439 69
0 1439 83
0 1437 104
0 1426 153
0 1535 684
0 1807 1454
0 1613 1649
0 1463 1796
0 1468 1958
0 1489 2099
0 1529 2247
0 1588 2368
0 1621 2430
0 1645 2471
0 1668 2511
0 1694 2552
0 1776 0
0 1781 0
0 1782 0
0 1781 13
0 1774 58
0 1644 449
0 2032 1358
0 2239 1946
0 1994 2099
0 1825 2269
0 1810 2456
0 1837 2612
0 1858 2711
0 1867 2756
0 1874 2775
0 1886 2805
0 1901 2829
54 2046 103
56 2047 95
57 2048 106
58 2049 127
57 2049 152
42 2007 292
0 1948 1130
0 2569 2032
0 2602 2410
0 2357 2585
0 2195 2795
0 2160 2951
0 2168 3054
0 2185 3118
0 2199 3149
0 2209 3174
0 2222 3198
177 2329 187
181 2333 183
182 2335 189
184 2338 198
182 2342 207
175 2340 217
0 2150 871
0 2554 1794
0 3056 2670
0 2896 2875
0 2657 3061
0 2532 3214
0 2482 3295
0 2474 3346
0 2479 3377
0 2483 3400
0 2489 3419
0 2755 0
1 2760 0
0 2767 0
0 2776 0
0 2786 0
0 2794 0
0 2723 386
0 2948 1535
0 3318 2556
0 3313 3126
0 3036 3267
0 2871 3383
0 2774 3461
0 2729 3500
0 2718 3529
0 2709 3548
0 2708 3565
0 2910 0
0 2915 0
0 2921 0
0 2930 0
0 2942 0
0 2953 0
0 2971 0
0 3122 1374
0 3445 2383
0 3550 3245
0 3309 3390
0 3098 3511
0 3004 3569
0 2936 3600
0 2901 3623
0 2883 3642
0 2874 3660
0 3029 0
0 3033 0
0 3041 0
0 3049 0
0 3061 0
0 3073 0
0 3095 0
0 3201 1260
0 3498 2300
0 3625 3258
0 3406 3433
0 3221 3571
0 3136 3643
0 3084 3675
0 3041 3686
0 3020 3703
0 2991 3719
0 3146 0
0 3151 0
0 3156 0
0 3166 0
0 3176 0
0 3189 0
0 3212 0
0 3297 1165
0 3561 2258
0 3687 3264
0 3470 3460
0 3277 3594
0 3188 3670
0 3151 3712
0 3123 3731
0 3092 3735
0 3064 3752
0 3261 0
0 3264 0
0 3270 0
0 3277 0
0 3288 0
0 3300 0
0 3324 0
0 3397 1082
0 3630 2228
0 3740 3262
0 3531 3489
0 3332 3618
0 3234 3693
0 3194 3736
0 3172 3761
0 3146 3768
0 3107 3772
0 3370 0
0 3371 0
0 3377 0
0 3387 0
0 3398 0
0 3410 0
0 3435 0
0 3497 952
0 3703 2191
0 3798 3255
0 3595 3518
0 3388 3642
0 3282 3719
0 3234 3762
0 3213 3784
0 3198 3801
0 3156 3800
0 26 87
0 52 153
0 96 206
0 170 309
0 284 461
0 438 671
0 636 941
0 838 1216
0 1018 1463
0 1173 1693
0 1333 1920
0 1472 2123
0 1569 2265
0 1606 2317
0 1630 2355
0 1654 2393
0 1682 2429
0 86 81
0 77 148
0 115 209
0 183 318
0 292 467
0 442 676
0 636 943
0 838 1216
0 1018 1463
0 1173 1693
0 1333 1920
0 1475 2122
0 1569 2265
0 1606 2318
0 1632 2356
0 1655 2394
0 1679 2432
0 208 92
0 198 125
0 183 237
0 204 325
0 300 474
0 446 681
0 639 947
0 840 1220
0 1018 1468
0 1172 1699
0 1332 1926
0 1475 2127
0 1569 2271
0 1606 2325
0 1631 2362
0 1656 2400
0 1681 2439
0 379 81
0 371 100
0 375 200
0 338 379
0 338 484
0 452 685
0 640 951
0 841 1225
0 1019 1474
0 1174 1705
0 1333 1933
0 1475 2136
0 1569 2280
0 1606 2334
0 1632 2371
0 1657 2409
0 1684 2448
0 599 43
0 593 64
0 575 99
0 607 352
0 550 565
0 532 715
0 648 955
0 841 1228
0 1019 1479
0 1174 1711
0 1334 1941
0 1476 2144
0 1572 2290
0 1607 2347
0 1632 2384
0 1658 2420
0 1685 2459
0 867 26
0 864 38
0 855 61
0 848 126
0 929 547
0 855 842
0 801 1024
0 879 1242
0 1020 1487
0 1172 1715
0 1336 1946
0 1475 2152
0 1572 2299
0 1608 2359
0 1633 2396
0 1659 2433
0 1687 2471
0 1161 15
0 1160 15
0 1159 30
0 1156 51
0 1170 237
0 1359 933
0 1236 1229
0 1133 1400
0 1154 1565
0 1206 1738
0 1336 1964
0 1472 2157
0 1570 2307
0 1609 2371
0 1636 2410
0 1662 2448
0 1688 2487
0 1442 68
0 1442 64
0 1442 75
0 1440 96
0 1430 148
0 1527 666
0 1813 1450
0 1627 1656
0 1478 1808
0 1483 1974
0 1498 2110
0 1535 2255
0 1590 2370
0 1621 2430
0 1645 2471
0 1668 2512
0 1694 2553
0 1783 0
0 1786 0
0 1788 0
0 1787 0
0 1781 31
0 1646 433
0 2018 1336
0 2247 1945
0 2007 2103
0 1842 2283
0 1824 2473
0 1851 2633
0 1873 2728
0 1883 2774
0 1887 2792
0 1898 2822
0 1912 2845
56 2047 96
58 2048 90
60 2049 97
60 2050 116
60 2050 139
49 2018 274
0 1939 1115
0 2561 2017
0 2612 2414
0 2368 2589
0 2209 2810
0 2174 2965
0 2183 3070
0 2197 3132
0 2210 3160
0 2222 3186
0 2232 3210
180 2331 183
187 2334 182
186 2337 184
187 2340 193
185 2342 202
178 2341 210
0 2148 851
0 2543 1776
0 3054 2659
0 2906 2878
0 2669 3065
0 2543 3222
0 2494 3304
0 2489 3358
0 2493 3388
0 2496 3408
0 2502 3427
2 2757 0
14 2760 0
8 2766 0
0 2775 0
0 2785 0
0 2794 0
0 2731 370
0 2945 1518
0 3313 2531
0 3323 3129
0 3046 3267
0 2877 3387
0 2788 3468
0 2742 3508
0 2727 3537
0 2723 3556
0 2718 3576
0 2912 0
0 2915 0
0 2923 0
0 2931 0
0 2941 0
0 2953 0
0 2975 0
0 3117 1354
0 3437 2351
0 3562 3242
0 3320 3391
0 3107 3511
0 3011 3571
0 2952 3608
0 2915 3630
0 2897 3647
0 2884 3665
0 3030 0
0 3033 0
0 3041 0
0 3050 0
0 3060 0
0 3072 0
0 3097 0
0 3198 1235
0 3491 2277
0 3636 3252
0 3419 3435
0 3232 3571
0 3145 3643
0 3091 3676
0 3049 3691
0 3026 3707
0 2998 3724
0 3147 0
0 3151 0
0 3157 0
0 3166 0
0 3176 0
0 3188 0
0 3214 0
0 3294 1134
0 3557 2234
0 3690 3251
0 3482 3462
0 3287 3595
0 3200 3671
0 3160 3713
0 3134 3734
0 3103 3741
0 3082 3761
0 3262 0
0 3264 0
0 3271 0
0 3278 0
0 3287 0
0 3299 0
0 3327 0
0 3395 1046
0 3629 2203
0 3744 3248
0 3545 3491
0 3341 3618
0 3247 3695
0 3204 3736
0 3181 3762
0 3156 3771
0 3124 3780
0 3370 0
0 3371 0
0 3376 0
0 3385 0
0 3396 0
0 3406 0
0 3436 0
0 3497 897
0 3700 2164
0 3803 3240
0 3610 3519
0 3400 3642
0 3293 3719
0 3248 3760
0 3223 3784
0 3202 3801
0 3170 3803
47 79 102
69 71 167
92 117 258
58 192 352
6 281 464
0 436 669
0 634 938
0 836 1213
0 1017 1459
0 1172 1690
0 1332 1917
0 1472 2117
0 1570 2260
0 1607 2312
0 1631 2350
0 1654 2388
0 1681 2425
33 111 94
27 119 160
56 139 255
23 196 341
0 288 466
0 439 673
0 635 941
0 836 1213
0 1017 1459
0 1172 1689
0 1331 1917
0 1473 2117
0 1570 2260
0 1604 2314
0 1630 2350
0 1655 2388
0 1680 2425
4 222 116
3 201 157
3 186 251
0 232 351
0 309 482
0 446 681
0 639 947
0 838 1219
0 1016 1467
0 1172 1697
0 1334 1924
0 1475 2126
0 1570 2270
0 1606 2324
0 1631 2361
0 1657 2399
0 1681 2437
0 423 71
0 410 121
0 375 192
0 348 383
0 355 500
0 458 692
0 641 954
0 841 1227
0 1018 1476
0 1174 1705
0 1336 1933
0 1476 2135
0 1571 2281
0 1606 2334
0 1632 2371
0 1657 2409
0 1684 2448
0 617 28
0 611 56
0 582 110
0 604 338
0 557 568
0 542 724
0 652 959
0 841 1232
0 1019 1482
0 1176 1712
0 1337 1941
0 1476 2145
0 1574 2290
0 1607 2346
0 1633 2383
0 1658 2420
0 1685 2460
0 879 11
0 876 23
0 867 56
0 849 128
0 926 531
0 866 847
0 813 1034
0 885 1248
0 1021 1490
0 1175 1716
0 1337 1948
0 1475 2152
0 1574 2299
0 1609 2359
0 1634 2396
0 1660 2433
0 1687 2472
0 1165 7
0 1163 6
0 1161 22
0 1159 49
0 1167 221
0 1356 918
0 1249 1236
0 1145 1411
0 1164 1576
0 1210 1743
0 1337 1966
0 1473 2158
0 1572 2307
0 1610 2372
0 1636 2411
0 1662 2448
0 1688 2486
0 1450 49
0 1449 49
0 1449 56
0 1446 77
0 1438 137
0 1521 649
0 1819 1446
0 1641 1663
0 1493 1822
0 1496 1989
0 1508 2125
0 1541 2266
0 1592 2373
0 1622 2432
0 1647 2472
0 1669 2514
0 1694 2555
0 1798 0
0 1799 0
0 1800 0
0 1799 0
0 1793 3
0 1652 416
0 2005 1316
0 2255 1944
0 2019 2108
0 1856 2298
0 1838 2490
0 1863 2647
0 1885 2745
0 1894 2790
0 1898 2808
0 1909 2838
0 1925 2864
64 2049 77
65 2049 74
66 2050 78
66 2051 97
65 2051 122
57 2031 251
0 1931 1101
0 2552 2003
0 2622 2416
0 2380 2594
0 2225 2823
0 2189 2979
0 2200 3085
0 2215 3148
0 2220 3172
0 2235 3198
0 2246 3223
204 2336 180
208 2338 180
208 2341 182
201 2343 187
192 2345 196
184 2343 201
11 2147 831
0 2531 1757
0 3052 2650
0 2918 2879
0 2681 3067
0 2559 3233
0 2506 3314
0 2498 3366
0 2502 3397
0 2505 3416
0 2510 3437
37 2761 0
44 2762 0
41 2767 0
22 2776 0
2 2785 0
0 2793 0
0 2740 351
0 2939 1502
0 3305 2502
0 3334 3132
0 3059 3268
0 2887 3388
0 2800 3474
0 2754 3516
0 2738 3543
0 2735 3564
0 2729 3581
0 2915 0
0 2918 0
0 2925 0
0 2935 0
0 2943 0
0 2953 0
0 2980 0
0 3114 1332
0 3434 2326
0 3573 3240
0 3331 3392
0 3118 3512
0 3018 3572
0 2963 3615
0 2930 3637
0 2908 3654
0 2894 3671
0 3036 0
0 3037 0
0 3042 0
0 3051 0
0 3061 0
0 3072 0
0 3101 0
0 3197 1208
0 3488 2254
0 3643 3243
0 3431 3437
0 3242 3572
0 3153 3644
0 3100 3679
0 3063 3698
0 3035 3712
0 3012 3729
0 3152 0
0 3153 0
0 3160 0
0 3168 0
0 3177 0
0 3187 0
0 3217 0
0 3292 1104
0 3554 2211
0 3693 3238
0 3495 3465
0 3298 3595
0 3210 3672
0 3168 3714
0 3140 3737
0 3116 3747
0 3088 3765
0 3266 0
0 3267 0
0 3273 0
0 3281 0
0 3288 0
0 3298 0
0 3328 0
0 3394 1009
0 3627 2180
0 3748 3233
0 3559 3493
0 3353 3619
0 3256 3695
0 3210 3737
0 3185 3762
0 3166 3776
0 3135 3785
0 3376 0
0 3375 0
0 3380 0
0 3386 0
0 3396 0
0 3405 0
0 3435 0
0 3496 835
0 3700 2141
0 3809 3223
0 3624 3521
0 3412 3642
0 3304 3720
0 3255 3761
0 3230 3786
0 3214 3804
0 3182 3809
227 156 135
251 125 160
308 175 241
372 239 366
266 312 538
149 439 690
26 627 931
0 834 1208
0 1017 1456
0 1171 1686
0 1331 1912
0 1473 2111
0 1570 2253
0 1607 2306
0 1632 2343
0 1655 2381
0 1680 2418
219 179 136
221 182 176
277 179 246
346 239 368
235 314 537
127 441 689
18 628 934
0 835 1208
0 1017 1456
0 1171 1686
0 1331 1912
0 1473 2111
0 1570 2253
0 1605 2306
0 1630 2343
0 1655 2381
