滤镜资源/Professional Luts Collection/Triune-Digital-Cinematic-LUTs/3D LUTs (3DL)/ALEXA/Interstellar - Alexa.3dl
# Created by Benjamin (IWLTBAP) : http://luts.iwltbap.com
# Copyright: (C) Copyright 2016 Triune Films and IWLTBAP
# Blockbuster LUTs Pack
0 256 512 768 1023
0 0 74
0 285 463
0 1019 1466
0 1570 2265
0 1678 2433
0 589 50
0 540 562
0 1020 1476
0 1573 2289
0 1685 2459
0 1776 0
0 1774 58
0 1994 2099
0 1858 2711
0 1901 2829
0 2910 0
0 2942 0
0 3445 2383
0 3004 3569
0 2874 3660
0 3370 0
0 3398 0
0 3703 2191
0 3282 3719
0 3156 3800
456 274 199
685 407 519
0 1008 1438
0 1571 2246
0 1681 2410
447 608 166
385 607 645
0 1020 1477
0 1576 2290
0 1686 2459
0 1820 0
0 1826 0
0 2043 2119
0 1908 2777
0 1940 2892
0 2932 0
0 2953 0
0 3426 2277
0 3038 3578
0 2916 3684
0 3390 0
0 3403 0
0 3694 2095
0 3326 3723
0 3204 3819
2152 982 842
2275 1021 918
2806 1548 1366
2577 1991 2159
2667 1993 2354
2231 1159 781
2272 1044 890
2794 1549 1381
2575 1974 2175
2678 1956 2406
2482 2442 602
2485 2443 602
2466 2540 2516
1267 1914 3323
1089 1896 3389
1371 3382 0
1350 3364 0
191 3589 1701
0 3152 3623
0 3013 3743
1133 3590 0
1104 3591 0
0 3735 1705
0 3430 3744
0 3286 3847
3085 1411 1268
3116 1434 1272
3405 1846 1707
3615 2329 2789
3870 2230 2978
3102 1454 1238
3115 1433 1272
3410 1854 1727
3642 2320 2813
3914 2212 3014
3374 2574 855
3374 2585 855
3614 2736 2562
4081 2355 3363
4095 2278 3509
3289 3756 334
3288 3757 328
3527 3828 1565
3852 3841 3738
3849 3789 3842
3058 3974 0
3051 3978 0
3411 4041 1387
3728 4095 3538
3753 4000 3949
3230 1488 1322
3252 1507 1322
3445 1940 1839
3787 2387 2972
3964 2307 3114
3245 1529 1295
3252 1506 1322
3446 1951 1860
3807 2378 2988
3995 2294 3139
3374 2570 854
3374 2583 855
3653 2764 2585
4051 2510 3344
4095 2447 3535
3363 3678 824
3363 3677 827
3665 3728 2196
4034 3888 3786
4046 3804 3911
3190 3849 0
3182 3856 0
3536 3976 1481
4019 4095 3656
4090 4095 3984
