滤镜资源/Professional Luts Collection/Triune-Digital-Cinematic-LUTs/3D LUTs (3DL)/ALEXA/Interstellar - Alexa.3dl
# Created by Benjamin (IWLTBAP) : http://luts.iwltbap.com
# Copyright: (C) Copyright 2016 Triune Films and IWLTBAP
# Blockbuster LUTs Pack
0 128 256 384 512 640 768 896 1023
0 0 74
0 87 192
0 285 463
0 637 942
0 1019 1466
0 1332 1922
0 1570 2265
0 1630 2356
0 1678 2433
0 209 81
0 181 236
0 294 467
0 637 945
0 1019 1468
0 1332 1926
0 1569 2271
0 1631 2363
0 1681 2437
0 589 50
0 575 100
0 540 562
0 645 951
0 1020 1476
0 1333 1940
0 1573 2289
0 1632 2384
0 1685 2459
0 1161 18
0 1159 35
0 1174 256
0 1224 1222
0 1143 1555
0 1335 1964
0 1568 2308
0 1636 2410
0 1688 2487
0 1776 0
0 1782 0
0 1774 58
0 2032 1358
0 1994 2099
0 1810 2456
0 1858 2711
0 1874 2775
0 1901 2829
177 2329 187
182 2335 189
182 2342 207
0 2150 871
0 3056 2670
0 2657 3061
0 2482 3295
0 2479 3377
0 2489 3419
0 2910 0
0 2921 0
0 2942 0
0 2971 0
0 3445 2383
0 3309 3390
0 3004 3569
0 2901 3623
0 2874 3660
0 3146 0
0 3156 0
0 3176 0
0 3212 0
0 3561 2258
0 3470 3460
0 3188 3670
0 3123 3731
0 3064 3752
0 3370 0
0 3377 0
0 3398 0
0 3435 0
0 3703 2191
0 3595 3518
0 3282 3719
0 3213 3784
0 3156 3800
47 79 102
92 117 258
6 281 464
0 634 938
0 1017 1459
0 1332 1917
0 1570 2260
0 1631 2350
0 1681 2425
4 222 116
3 186 251
0 309 482
0 639 947
0 1016 1467
0 1334 1924
0 1570 2270
0 1631 2361
0 1681 2437
0 617 28
0 582 110
0 557 568
0 652 959
0 1019 1482
0 1337 1941
0 1574 2290
0 1633 2383
0 1685 2460
0 1165 7
0 1161 22
0 1167 221
0 1249 1236
0 1164 1576
0 1337 1966
0 1572 2307
0 1636 2411
0 1688 2486
0 1798 0
0 1800 0
0 1793 3
0 2005 1316
0 2019 2108
0 1838 2490
0 1885 2745
0 1898 2808
0 1925 2864
204 2336 180
208 2341 182
192 2345 196
11 2147 831
0 3052 2650
0 2681 3067
0 2506 3314
0 2502 3397
0 2510 3437
0 2915 0
0 2925 0
0 2943 0
0 2980 0
0 3434 2326
0 3331 3392
0 3018 3572
0 2930 3637
0 2894 3671
0 3152 0
0 3160 0
0 3177 0
0 3217 0
0 3554 2211
0 3495 3465
0 3210 3672
0 3140 3737
0 3088 3765
0 3376 0
0 3380 0
0 3396 0
0 3435 0
0 3700 2141
0 3624 3521
0 3304 3720
0 3230 3786
0 3182 3809
456 274 199
521 248 279
685 407 519
357 632 1003
0 1008 1438
0 1332 1906
0 1571 2246
0 1631 2336
0 1681 2410
460 326 192
464 332 294
647 412 530
318 634 994
0 1009 1448
0 1334 1914
0 1572 2256
0 1632 2347
0 1685 2421
447 608 166
434 611 242
385 607 645
175 672 1001
0 1020 1477
0 1340 1941
0 1576 2290
0 1634 2384
0 1686 2459
0 1192 0
0 1185 0
0 1166 209
0 1270 1249
0 1181 1598
0 1341 1971
0 1575 2310
0 1638 2413
0 1689 2487
0 1820 0
0 1820 0
0 1826 0
0 1978 1273
0 2043 2119
0 1868 2526
0 1908 2777
0 1920 2841
0 1940 2892
278 2354 172
278 2355 174
260 2359 181
31 2150 786
0 3046 2627
0 2697 3074
0 2531 3332
0 2528 3414
0 2537 3456
0 2932 0
0 2937 0
0 2953 0
0 2994 0
0 3426 2277
0 3355 3397
0 3038 3578
0 2952 3650
0 2916 3684
0 3168 0
0 3171 0
0 3185 0
0 3228 0
0 3550 2168
0 3522 3467
0 3223 3674
0 3157 3742
0 3114 3778
0 3390 0
0 3394 0
0 3403 0
0 3446 0
0 3694 2095
0 3645 3527
0 3326 3723
0 3246 3789
0 3204 3819
1186 609 381
1198 528 431
1452 661 630
1733 977 1023
1512 1204 1411
937 1354 1833
585 1575 2049
441 1637 2133
412 1690 2200
1198 604 390
1209 607 405
1440 659 625
1722 977 1024
1487 1196 1423
908 1354 1839
553 1576 2062
425 1638 2148
396 1690 2216
1316 817 364
1317 824 374
1395 788 621
1684 980 1032
1414 1181 1444
826 1352 1850
443 1578 2097
378 1641 2189
351 1693 2259
1380 1320 338
1390 1323 344
1399 1360 472
1206 1500 1436
728 1292 1865
459 1340 1874
229 1579 2190
117 1645 2297
66 1697 2371
748 1925 0
740 1925 0
709 1923 0
191 1983 1037
0 2145 2206
0 1908 2578
0 1928 2809
0 1932 2859
0 1954 2914
376 2376 157
376 2376 157
356 2378 163
61 2155 750
0 3039 2606
0 2715 3080
0 2554 3348
0 2546 3431
0 2552 3469
120 2959 0
109 2961 0
64 2972 0
7 3017 0
0 3420 2238
0 3376 3402
0 3051 3581
0 2972 3661
0 2934 3696
0 3189 0
0 3193 0
0 3202 0
0 3247 0
0 3548 2124
0 3550 3474
0 3246 3679
0 3175 3747
0 3135 3789
0 3410 0
0 3413 0
0 3421 0
0 3462 0
0 3695 2056
0 3668 3534
0 3342 3724
0 3261 3792
0 3222 3828
2152 982 842
2155 952 888
2275 1021 918
2613 1257 1198
2806 1548 1366
2662 1787 1784
2577 1991 2159
2613 1999 2247
2667 1993 2354
2151 993 831
2151 954 878
2272 1020 915
2612 1259 1201
2803 1549 1373
2658 1791 1797
2581 1986 2168
2619 1990 2261
2675 1978 2376
2231 1159 781
2227 1127 798
2272 1044 890
2602 1258 1202
2794 1549 1381
2642 1792 1808
2575 1974 2175
2620 1972 2278
2678 1956 2406
2556 1583 753
2572 1593 759
2500 1616 690
2547 1655 1489
2724 1666 1626
2559 1780 1806
2515 1932 2163
2564 1920 2305
2571 1903 2448
2482 2442 602
2486 2448 602
2485 2443 602
2526 2543 1075
2466 2540 2516
1817 2102 3144
1267 1914 3323
1144 1883 3352
1089 1896 3389
1931 3058 0
1931 3060 0
1926 3056 0
1942 3023 170
1261 3036 1919
404 3022 3318
224 2722 3516
166 2695 3581
143 2698 3615
1371 3382 0
1364 3378 0
1350 3364 0
1270 3325 0
191 3589 1701
0 3588 3468
0 3152 3623
0 3058 3714
0 3013 3743
1203 3485 0
1196 3484 0
1180 3475 0
1097 3443 0
0 3581 1747
0 3672 3513
0 3328 3700
0 3236 3766
0 3204 3826
1133 3590 0
1124 3591 0
1104 3591 0
997 3597 0
0 3735 1705
0 3776 3562
0 3430 3744
0 3327 3810
0 3286 3847
2927 1334 1202
2924 1320 1221
2966 1355 1216
3195 1530 1370
3281 1769 1590
3387 2097 2226
3421 2251 2609
3472 2251 2696
3574 2217 2785
2932 1345 1192
2924 1323 1217
2964 1354 1215
3198 1532 1373
3281 1772 1598
3386 2100 2236
3423 2250 2617
3483 2243 2705
3588 2206 2796
2948 1403 1154
2946 1373 1178
2958 1352 1212
3195 1531 1371
3281 1774 1607
3384 2101 2243
3424 2246 2623
3491 2234 2713
3601 2193 2805
3194 2028 935
3182 2029 926
3091 2023 857
3209 1792 1505
3285 1868 1808
3363 2089 2228
3395 2233 2608
3478 2213 2707
3588 2170 2802
3271 2466 824
3287 2485 830
3289 2488 830
3263 2598 1207
3399 2731 2589
3534 2523 2931
3685 2232 3249
3641 2203 3333
3595 2197 3409
2957 3474 216
2958 3475 217
2958 3466 226
2948 3419 260
3279 3435 2005
3435 3399 3330
3216 3128 3635
3065 3023 3739
3008 2995 3783
2628 3736 0
2628 3736 0
2627 3734 0
2617 3731 0
2985 3812 1549
2891 3896 2850
2717 3629 3761
2635 3417 3831
2578 3362 3876
2603 3794 0
2601 3798 0
2598 3801 0
2586 3808 0
2901 3926 1442
2680 4069 2685
2379 3920 3807
2332 3698 3897
2317 3574 3943
2592 3792 0
2593 3797 0
2589 3801 0
2576 3820 0
2869 4017 1387
2653 4095 2647
2252 4023 3811
2206 3853 3927
2186 3731 3970
3085 1411 1268
3084 1402 1282
3116 1434 1272
3329 1599 1409
3405 1846 1707
3459 2150 2293
3615 2329 2789
3737 2291 2885
3870 2230 2978
3091 1423 1260
3084 1403 1280
3116 1434 1272
3331 1601 1411
3408 1849 1715
3460 2154 2303
3627 2325 2800
3752 2282 2895
3889 2223 2994
3102 1454 1238
3095 1422 1266
3115 1433 1272
3329 1602 1411
3410 1854 1727
3460 2156 2310
3642 2320 2813
3777 2272 2912
3914 2212 3014
3326 2142 958
3305 2143 940
3222 2119 887
3381 1827 1519
3432 1940 1889
3460 2154 2310
3659 2315 2826
3806 2256 2931
3938 2199 3035
3374 2574 855
3374 2578 855
3374 2585 855
3449 2751 1299
3614 2736 2562
3643 2669 2958
4081 2355 3363
4091 2291 3434
4095 2278 3509
3360 3233 934
3360 3235 935
3360 3228 934
3362 3217 944
3688 3331 2339
3821 3471 3393
3951 3269 3627
4035 3148 3780
4021 3144 3835
3289 3756 334
3290 3756 339
3288 3757 328
3278 3762 281
3527 3828 1565
3774 3891 3037
3852 3841 3738
3839 3801 3804
3849 3789 3842
3087 3931 0
3086 3931 0
3082 3933 0
3071 3939 0
3436 3980 1342
3700 4006 2914
3767 4040 3604
3792 3947 3869
3804 3888 3899
3058 3974 0
3055 3975 0
3051 3978 0
3034 3992 0
3411 4041 1387
3670 4072 2839
3728 4095 3538
3696 4093 3886
3753 4000 3949
3159 1450 1296
3157 1440 1309
3186 1471 1298
3392 1632 1428
3437 1888 1768
3467 2183 2324
3720 2359 2898
3797 2317 2948
3927 2275 3059
3164 1461 1288
3158 1441 1308
3186 1472 1297
3391 1633 1429
3438 1893 1778
3468 2186 2334
3734 2353 2909
3812 2310 2959
3942 2268 3072
3175 1489 1269
3166 1457 1296
3185 1471 1298
3389 1635 1429
3438 1899 1791
3469 2190 2342
3753 2346 2922
3833 2303 2975
3964 2256 3089
3358 2172 960
3339 2173 945
3275 2154 902
3435 1853 1534
3450 1988 1944
3468 2186 2337
3770 2340 2934
3860 2290 2997
3987 2247 3112
3374 2571 854
3374 2575 854
3374 2584 855
3467 2774 1322
3648 2754 2577
3664 2720 2994
4072 2444 3366
4090 2379 3449
4095 2366 3520
3359 3218 934
3359 3218 934
3359 3212 934
3362 3199 954
3704 3343 2400
3870 3480 3399
3952 3316 3600
4094 3176 3786
4095 3151 3854
3364 3672 836
3365 3671 838
3365 3669 842
3365 3669 845
3663 3726 2192
3904 3819 3229
3988 3872 3772
3980 3819 3857
3990 3800 3891
3242 3803 1
3242 3802 3
3241 3803 1
3241 3803 3
3615 3833 1866
3864 3957 2983
3976 4030 3662
3996 4013 3886
4011 4015 3937
3190 3849 0
3187 3852 0
3182 3856 0
3166 3871 0
3535 3978 1478
3834 4081 2883
3969 4095 3649
3996 4095 3862
4005 4081 3963
3230 1488 1322
3228 1477 1335
3252 1507 1322
3424 1667 1445
3445 1940 1839
3476 2219 2361
3787 2387 2972
3904 2341 3069
3964 2307 3114
3236 1501 1313
3229 1478 1334
3253 1508 1322
3423 1669 1447
3446 1946 1850
3476 2222 2369
3793 2383 2976
3915 2336 3078
3978 2300 3126
3245 1529 1295
3237 1495 1321
3252 1506 1322
3418 1671 1446
3446 1951 1860
3477 2227 2378
3807 2378 2988
3934 2329 3095
3995 2294 3139
3358 2171 961
3345 2175 947
3309 2173 914
3452 1889 1555
3459 2038 2002
3477 2228 2383
3818 2372 2996
3957 2322 3114
4015 2286 3160
3374 2570 854
3374 2574 854
3374 2583 855
3467 2773 1322
3653 2764 2585
3673 2757 3021
4051 2510 3344
4093 2479 3494
4095 2447 3535
3359 3221 934
3359 3220 934
3359 3215 934
3364 3203 961
3707 3348 2411
3890 3496 3414
3945 3366 3607
4088 3253 3778
4095 3197 3843
3363 3678 824
3363 3678 824
3363 3677 827
3364 3675 832
3665 3728 2196
3918 3819 3282
4034 3888 3786
4028 3840 3872
4046 3804 3911
3240 3804 0
3239 3807 0
3237 3807 0
3236 3809 0
3616 3834 1869
3882 3944 3069
4031 4013 3722
4075 4042 3919
4080 4025 3972
3190 3849 0
3187 3852 0
3182 3856 0
3166 3871 0
3536 3976 1481
3845 4058 2916
4019 4095 3656
4072 4095 3869
4090 4095 3984
