滤镜资源/Professional Luts Collection/Triune-Digital-Cinematic-LUTs/3D LUTs (3DL)/ALEXA/Mad Max Fury Road - Alexa.3dl
# Created by Benjamin (IWLTBAP) : http://luts.iwltbap.com
# Copyright: (C) Copyright 2016 Triune Films and IWLTBAP
# Blockbuster LUTs Pack
0 128 256 384 512 640 768 896 1023
96 181 205
60 227 336
10 320 582
22 507 963
34 741 1405
44 960 1828
55 1096 2069
58 1129 2128
61 1153 2173
112 364 211
59 329 332
5 351 570
20 526 957
33 760 1399
43 980 1825
54 1118 2068
58 1149 2125
60 1176 2173
186 690 198
167 662 254
0 606 593
15 571 944
32 782 1397
43 1004 1826
52 1142 2073
57 1175 2131
60 1202 2178
313 1240 170
309 1233 195
275 1208 349
0 1155 1006
8 1014 1359
41 1043 1824
51 1167 2076
56 1202 2139
59 1229 2187
467 1913 0
465 1910 21
454 1902 42
70 1830 867
0 1828 1610
0 1651 1884
9 1618 2107
14 1615 2183
19 1633 2243
710 2536 31
708 2532 56
698 2527 87
369 2305 575
0 2638 1705
0 2473 2241
0 2341 2376
0 2332 2452
0 2338 2490
804 3062 0
804 3063 21
803 3066 42
811 3089 107
41 3116 1286
0 3097 2469
0 2850 2558
0 2801 2611
0 2774 2644
869 3227 0
870 3229 21
872 3234 42
884 3262 97
195 3278 1239
0 3247 2528
0 3040 2625
0 2997 2679
0 2980 2715
938 3382 0
939 3384 21
940 3387 42
951 3412 96
388 3442 1234
0 3375 2567
0 3138 2659
0 3086 2710
0 3061 2743
260 222 232
242 233 349
95 320 585
45 505 963
53 738 1403
63 959 1827
73 1094 2067
77 1125 2123
80 1154 2172
252 355 236
173 328 336
60 355 578
40 524 957
52 758 1398
63 980 1824
73 1116 2066
77 1148 2123
80 1176 2171
228 710 187
192 674 267
21 610 593
36 570 946
51 779 1395
62 1003 1825
72 1141 2071
76 1174 2128
79 1201 2177
341 1247 159
338 1240 185
302 1209 346
21 1165 1010
28 1023 1371
61 1042 1825
70 1166 2074
75 1200 2137
78 1228 2185
526 1920 0
523 1917 21
510 1912 42
98 1819 853
21 1839 1618
20 1668 1902
29 1629 2121
34 1625 2196
38 1643 2254
772 2553 24
769 2546 51
760 2540 81
424 2325 562
21 2628 1693
21 2482 2247
20 2353 2388
20 2346 2464
20 2351 2503
860 3079 0
860 3080 21
854 3083 42
846 3105 107
88 3114 1272
21 3107 2476
21 2859 2564
20 2815 2621
20 2787 2655
899 3243 0
899 3244 21
901 3248 42
911 3272 97
240 3274 1231
21 3261 2536
21 3047 2630
21 3006 2686
21 2985 2720
968 3397 0
968 3398 21
969 3402 42
978 3421 96
442 3439 1224
21 3391 2569
21 3147 2665
21 3095 2717
21 3072 2750
662 334 296
656 306 378
794 371 609
231 534 1050
112 734 1407
83 956 1825
92 1093 2066
96 1125 2122
99 1152 2169
678 412 295
630 403 387
750 399 608
210 551 1037
104 753 1399
82 977 1823
92 1115 2065
96 1147 2122
99 1175 2169
803 653 88
747 649 228
506 639 622
144 589 998
81 775 1393
82 1002 1824
91 1138 2069
95 1172 2126
98 1198 2173
394 1275 109
386 1266 138
333 1214 345
42 1174 1015
49 1030 1381
80 1040 1823
89 1164 2072
94 1198 2135
97 1226 2182
602 1931 0
597 1927 21
584 1921 42
129 1809 839
42 1852 1627
40 1682 1917
49 1638 2133
55 1635 2209
59 1650 2265
849 2572 16
846 2565 41
833 2557 70
508 2378 538
42 2618 1676
41 2491 2255
40 2370 2402
40 2358 2475
40 2366 2516
940 3097 0
940 3097 21
934 3101 42
892 3117 107
129 3109 1263
42 3118 2484
41 2866 2570
41 2824 2629
41 2799 2665
954 3260 0
952 3260 21
949 3264 42
943 3283 97
285 3269 1222
42 3275 2544
41 3057 2637
41 3013 2691
41 2994 2726
998 3413 0
998 3413 21
999 3416 42
1005 3432 96
489 3438 1215
42 3408 2569
42 3159 2672
41 3102 2723
41 3079 2755
1515 506 158
1482 460 256
1586 500 512
1893 693 988
1504 853 1560
695 1025 2014
296 1147 2176
287 1168 2210
286 1195 2252
1539 542 156
1517 531 221
1580 518 507
1881 713 990
1469 870 1566
666 1044 2009
293 1164 2167
283 1187 2205
282 1213 2247
1646 760 135
1628 738 185
1585 721 476
1839 746 997
1378 884 1572
582 1063 1999
283 1178 2155
272 1204 2196
270 1230 2237
1969 1256 76
1969 1255 98
1893 1249 184
1290 1338 1209
525 1137 1627
278 1061 1903
222 1178 2108
214 1209 2160
214 1236 2205
1339 2001 125
1327 1999 148
1295 1989 172
694 1926 707
123 1904 1673
77 1701 1942
74 1640 2143
75 1637 2219
80 1651 2275
933 2587 11
928 2584 33
917 2577 60
598 2434 509
63 2604 1658
62 2495 2261
61 2378 2411
60 2369 2487
60 2374 2526
1028 3117 0
1026 3117 21
1021 3119 42
971 3129 108
172 3105 1254
63 3128 2492
62 2871 2576
61 2833 2638
61 2807 2673
1046 3278 0
1043 3278 21
1038 3281 42
1003 3294 98
326 3267 1214
63 3289 2552
62 3070 2645
62 3022 2699
61 3001 2732
1067 3428 0
1066 3428 21
1059 3431 42
1042 3442 96
535 3437 1204
63 3423 2574
62 3171 2680
62 3111 2730
62 3088 2763
2530 728 563
2500 698 651
2555 724 731
2891 860 1126
3126 1048 1457
2893 1244 1846
2638 1342 2372
2607 1356 2486
2591 1363 2597
2547 758 550
2502 718 643
2559 744 728
2881 881 1126
3122 1069 1460
2882 1265 1853
2633 1361 2377
2600 1374 2493
2573 1379 2606
2665 944 480
2616 900 565
2581 839 706
2861 901 1122
3108 1088 1461
2859 1284 1859
2612 1375 2382
2579 1388 2503
2541 1394 2619
3100 1387 504
3080 1384 512
2990 1386 540
2766 1422 1162
2999 1294 1524
2755 1297 1860
2512 1379 2376
2461 1387 2515
2375 1398 2637
3357 2172 230
3362 2177 251
3350 2169 273
3163 2197 695
2501 2257 2073
1284 1952 2616
757 1771 2667
685 1737 2710
633 1732 2744
2985 3059 134
2981 3058 153
2972 3051 172
2857 2984 421
2014 2808 1481
390 2739 2480
344 2507 2561
331 2479 2613
327 2477 2643
2324 3408 72
2312 3405 93
2294 3395 113
2194 3351 186
1214 3320 1060
239 3224 2486
187 2925 2620
172 2873 2675
165 2854 2715
2132 3482 74
2122 3481 94
2105 3477 113
2024 3456 170
1076 3485 1001
162 3346 2514
143 3114 2675
140 3054 2725
138 3024 2754
2085 3551 91
2077 3554 113
2059 3553 132
1973 3548 180
1069 3579 988
148 3468 2534
140 3217 2712
137 3147 2756
135 3119 2787
3374 905 869
3371 900 923
3412 916 981
3570 1019 1243
3853 1185 1578
3781 1419 2171
3698 1509 2622
3677 1514 2724
3666 1518 2820
3394 935 854
3375 919 918
3413 934 978
3571 1040 1245
3851 1207 1582
3779 1443 2180
3697 1530 2628
3673 1534 2729
3662 1537 2823
3443 1033 807
3424 1001 877
3410 966 970
3569 1058 1243
3846 1229 1585
3773 1464 2185
3690 1549 2632
3667 1553 2735
3657 1555 2830
3755 1577 607
3736 1573 623
3688 1555 712
3611 1424 1298
3789 1420 1669
3745 1478 2172
3649 1562 2617
3623 1567 2728
3613 1568 2823
3884 2159 377
3883 2160 392
3883 2159 412
3877 2260 1001
3626 2403 2069
3558 2141 2626
3520 1892 2907
3473 1819 2998
3437 1800 3089
3929 3126 161
3929 3131 182
3929 3123 204
3921 3051 384
3863 3002 1443
3427 3070 2826
2996 2872 3287
2668 2809 3449
2503 2790 3518
3896 3598 143
3896 3597 164
3895 3594 185
3892 3581 273
3779 3547 1395
3330 3519 2496
2393 3462 3286
2085 3305 3432
1890 3250 3478
3882 3664 143
3882 3664 164
3881 3661 185
3874 3650 244
3731 3632 1363
3259 3676 2358
2115 3676 3070
1524 3577 3316
1236 3477 3338
3874 3692 143
3874 3694 164
3872 3696 185
3866 3705 243
3718 3729 1349
3248 3796 2256
2009 3789 2978
1405 3691 3274
1190 3604 3314
3528 934 918
3533 934 962
3577 951 1016
3757 1051 1267
3943 1235 1635
3928 1444 2196
3918 1567 2779
3924 1559 2845
3933 1556 2942
3549 963 904
3535 952 959
3579 969 1014
3760 1072 1269
3943 1257 1639
3927 1469 2203
3919 1590 2788
3925 1580 2853
3935 1577 2950
3582 1019 872
3561 992 936
3580 988 1008
3762 1091 1266
3943 1280 1642
3926 1492 2210
3919 1612 2796
3926 1602 2862
3936 1599 2959
3876 1622 607
3864 1616 642
3853 1590 762
3833 1435 1310
3922 1447 1715
3925 1511 2205
3920 1634 2800
3929 1620 2871
3937 1620 2970
3954 2211 371
3954 2214 388
3955 2217 414
3952 2329 1075
3915 2406 2082
3894 2172 2652
3937 1991 2998
3951 1926 3125
3955 1895 3196
4026 2912 270
4024 2909 292
4024 2900 314
4018 2875 543
4001 2971 1759
3940 3140 2878
3836 2974 3289
3860 2870 3415
3868 2803 3511
4042 3456 144
4042 3452 165
4042 3446 186
4041 3421 284
4034 3392 1226
4010 3434 2333
3879 3504 3245
3707 3480 3504
3660 3450 3565
4033 3659 144
4033 3653 165
4033 3651 186
4031 3630 246
4026 3548 1026
4017 3632 2176
3955 3684 2957
3779 3666 3376
3651 3654 3565
4031 3785 144
4031 3786 165
4030 3788 186
4028 3794 245
4023 3711 1121
4014 3769 2319
3934 3772 2988
3779 3772 3324
3636 3790 3497
3604 950 937
3610 950 979
3652 967 1030
3844 1066 1278
3963 1263 1665
3951 1482 2239
3943 1609 2834
3953 1606 2929
3959 1596 2988
3625 979 923
3613 968 976
3654 985 1028
3847 1088 1280
3963 1285 1669
3950 1506 2247
3944 1630 2839
3953 1628 2938
3959 1618 2996
3657 1030 892
3634 1003 956
3655 1003 1024
3848 1106 1277
3963 1308 1673
3948 1530 2254
3945 1652 2850
3954 1651 2946
3961 1639 3005
3912 1639 605
3901 1634 641
3896 1605 775
3903 1441 1313
3950 1469 1742
3949 1549 2250
3944 1671 2840
3956 1671 2956
3963 1658 3015
3975 2226 369
3976 2231 389
3974 2235 412
3972 2347 1097
3959 2402 2094
3923 2202 2679
3954 2034 2989
3970 1988 3160
3977 1952 3232
4041 2899 288
4041 2896 308
4041 2889 330
4033 2872 658
4020 2987 1793
3997 3147 2878
3919 2988 3299
3933 2907 3395
3944 2858 3484
4074 3441 144
4074 3440 165
4074 3434 186
4074 3401 287
4064 3346 1436
4049 3434 2542
4033 3542 3262
3925 3494 3512
3883 3477 3586
4073 3619 144
4074 3617 165
4074 3611 186
4074 3588 247
4074 3463 1301
4062 3534 2348
4052 3634 3079
4036 3673 3378
3938 3689 3576
4073 3712 144
4073 3714 165
4073 3716 186
4073 3720 245
4074 3583 1279
4071 3632 2228
4058 3716 2958
4052 3746 3258
4029 3757 3440
3681 966 951
3685 965 993
3724 982 1043
3914 1079 1285
3981 1291 1692
3969 1524 2290
3964 1633 2834
3980 1650 2990
3986 1644 3069
3702 996 936
3688 984 989
3728 1001 1041
3916 1099 1286
3981 1314 1697
3969 1547 2297
3964 1654 2838
3978 1671 2992
3986 1666 3075
3732 1046 907
3710 1019 970
3729 1019 1037
3913 1118 1282
3981 1339 1704
3967 1571 2303
3965 1676 2847
3979 1693 3000
3989 1685 3085
3935 1663 598
3933 1659 636
3930 1628 781
3942 1455 1313
3974 1495 1769
3967 1591 2300
3964 1697 2842
3981 1713 3011
3989 1706 3094
3996 2239 366
3996 2244 381
3997 2250 411
3992 2367 1120
3988 2401 2096
3946 2221 2696
3972 2077 2986
3989 2032 3146
3996 2016 3271
4059 2903 302
4059 2899 321
4058 2889 345
4049 2875 721
4039 2997 1808
4029 3156 2884
3945 3015 3314
3956 2943 3402
3963 2909 3468
4094 3466 152
4094 3463 173
4094 3454 194
4094 3413 295
4082 3349 1527
4067 3447 2605
4061 3554 3273
3987 3504 3517
3949 3489 3599
4095 3633 144
4095 3634 165
4095 3632 186
4095 3606 247
4093 3461 1369
4081 3543 2422
4075 3649 3145
4073 3693 3401
4046 3709 3580
4095 3713 144
4095 3715 165
4094 3717 186
4095 3723 245
4095 3577 1286
4091 3627 2268
4083 3710 3083
4081 3747 3343
4081 3776 3487
