滤镜资源/Professional Luts Collection/Triune-Digital-Cinematic-LUTs/3D LUTs (3DL)/ALEXA/Mad Max Fury Road - Alexa.3dl
# Created by Benjamin (IWLTBAP) : http://luts.iwltbap.com
# Copyright: (C) Copyright 2016 Triune Films and IWLTBAP
# Blockbuster LUTs Pack
0 64 128 192 256 320 384 448 512 576 640 704 768 832 896 960 1023
96 181 205
83 197 259
60 227 336
17 269 449
10 320 582
15 397 752
22 507 963
28 628 1182
34 741 1405
39 848 1623
44 960 1828
48 1042 1975
55 1096 2069
57 1115 2103
58 1129 2128
60 1142 2151
61 1153 2173
102 257 210
83 245 257
63 250 320
18 283 442
8 331 579
14 406 748
21 516 960
27 638 1178
33 750 1402
39 858 1620
43 970 1826
48 1053 1974
54 1107 2068
57 1125 2102
58 1138 2125
59 1152 2149
61 1165 2173
112 364 211
103 347 244
59 329 332
24 323 421
5 351 570
13 417 746
20 526 957
27 647 1176
33 760 1399
38 868 1618
43 980 1825
47 1064 1974
54 1118 2068
56 1137 2102
58 1149 2125
59 1162 2149
60 1176 2173
135 503 212
126 490 237
82 480 315
13 447 452
0 418 555
9 442 737
19 537 955
26 658 1174
32 770 1397
38 879 1616
43 992 1825
47 1076 1976
53 1130 2070
56 1149 2104
57 1161 2127
59 1174 2151
60 1188 2175
186 690 198
179 681 215
167 662 254
88 660 389
0 606 593
1 552 721
15 571 944
25 668 1171
32 782 1397
38 891 1617
43 1004 1826
47 1089 1978
52 1142 2073
55 1162 2107
57 1175 2131
58 1188 2154
60 1202 2178
247 942 194
243 937 208
236 927 228
218 908 293
115 919 506
0 845 773
1 762 930
15 757 1145
30 802 1394
37 902 1615
42 1016 1825
46 1102 1980
52 1155 2075
55 1175 2111
56 1189 2135
58 1202 2159
59 1216 2182
313 1240 170
311 1237 182
309 1233 195
304 1227 221
275 1208 349
90 1259 694
0 1155 1006
0 1045 1162
8 1014 1359
28 1002 1597
41 1043 1824
46 1113 1980
51 1167 2076
54 1189 2115
56 1202 2139
57 1216 2163
59 1229 2187
365 1552 89
364 1549 101
363 1546 116
360 1541 135
351 1530 200
254 1505 539
11 1643 1016
0 1489 1298
0 1358 1441
2 1316 1605
16 1281 1789
33 1275 1968
42 1289 2094
48 1271 2140
50 1281 2165
52 1294 2189
54 1306 2214
467 1913 0
466 1912 11
465 1910 21
462 1908 32
454 1902 42
360 1786 362
70 1830 867
0 2023 1375
0 1828 1610
0 1687 1732
0 1651 1884
1 1638 2019
9 1618 2107
12 1612 2156
14 1615 2183
16 1627 2215
19 1633 2243
570 2183 15
568 2182 25
567 2181 36
564 2180 47
559 2177 60
536 2171 132
136 1986 766
0 2208 1262
3 2380 1741
0 2164 1936
0 2039 2046
0 1999 2156
0 1998 2245
0 2003 2303
0 2006 2327
0 2015 2353
0 2019 2375
710 2536 31
709 2533 44
708 2532 56
705 2531 69
698 2527 87
691 2514 114
369 2305 575
21 2314 1129
0 2638 1705
0 2666 2125
0 2473 2241
0 2379 2317
0 2341 2376
0 2331 2422
0 2332 2452
0 2336 2471
0 2338 2490
788 2926 0
787 2925 11
788 2925 21
787 2925 32
784 2927 42
777 2926 53
706 2892 210
312 2785 920
1 2914 1435
0 3034 2184
0 2835 2371
0 2698 2433
0 2646 2487
0 2611 2519
0 2597 2542
0 2593 2563
0 2590 2580
804 3062 0
804 3062 11
804 3063 21
804 3064 32
803 3066 42
804 3071 53
811 3089 107
543 2996 770
41 3116 1286
0 3229 2131
0 3097 2469
0 2924 2514
0 2850 2558
0 2817 2589
0 2801 2611
0 2790 2628
0 2774 2644
837 3150 0
837 3150 11
838 3151 21
838 3152 32
838 3154 42
840 3158 53
850 3182 99
640 3103 665
135 3196 1259
0 3301 2040
0 3187 2505
0 3048 2556
0 2984 2605
0 2947 2635
0 2927 2654
0 2918 2671
0 2904 2688
869 3227 0
869 3228 11
870 3229 21
870 3230 32
872 3234 42
874 3238 53
884 3262 97
715 3205 601
195 3278 1239
0 3361 1968
0 3247 2528
0 3105 2575
0 3040 2625
0 3012 2658
0 2997 2679
0 2988 2696
0 2980 2715
903 3305 0
903 3306 11
904 3307 21
904 3308 32
905 3311 42
907 3315 53
918 3338 97
785 3306 572
268 3360 1232
0 3425 1924
0 3310 2550
0 3161 2597
0 3089 2642
0 3056 2673
0 3041 2695
0 3031 2711
0 3025 2731
938 3382 0
938 3383 11
939 3384 21
939 3386 32
940 3387 42
941 3390 53
951 3412 96
855 3405 534
388 3442 1234
0 3495 1873
0 3375 2567
0 3220 2621
0 3138 2659
0 3101 2688
0 3086 2710
0 3074 2726
0 3061 2743
135 200 216
128 205 265
109 226 331
67 264 438
31 319 581
27 397 753
32 506 962
38 627 1181
44 740 1404
49 847 1622
53 959 1827
58 1042 1975
64 1095 2068
66 1114 2102
68 1126 2125
69 1139 2148
71 1152 2171
132 254 221
111 245 262
89 254 325
47 282 439
24 330 577
24 407 749
31 515 959
37 636 1178
43 749 1401
49 857 1620
53 969 1826
58 1052 1974
64 1105 2067
66 1125 2101
68 1138 2124
69 1152 2148
70 1165 2172
132 359 220
117 344 255
79 328 332
37 325 426
16 352 571
23 417 746
30 525 957
37 646 1176
43 759 1399
48 867 1617
53 980 1824
57 1064 1974
63 1117 2067
66 1136 2101
67 1148 2124
69 1162 2148
70 1177 2173
149 503 213
132 490 246
97 477 312
23 448 452
11 420 558
20 442 739
29 536 954
36 656 1173
42 769 1397
48 878 1616
53 991 1825
57 1076 1976
63 1129 2069
65 1149 2104
67 1160 2126
68 1174 2150
70 1188 2175
203 697 194
195 688 214
178 663 258
103 658 385
11 608 592
11 556 725
25 571 945
35 666 1171
42 780 1396
47 890 1616
52 1004 1826
56 1089 1978
62 1142 2072
65 1162 2107
66 1175 2130
68 1188 2154
69 1202 2178
264 949 187
260 944 202
252 934 225
231 909 294
129 918 502
11 849 774
12 767 935
25 758 1147
40 801 1394
47 901 1615
52 1015 1825
56 1101 1979
61 1154 2074
64 1175 2110
66 1188 2134
67 1202 2158
69 1216 2182
326 1242 166
325 1239 178
323 1235 192
317 1228 219
289 1208 347
110 1257 689
11 1160 1008
10 1051 1168
18 1018 1364
38 1003 1600
51 1043 1825
56 1113 1979
60 1166 2075
63 1188 2114
65 1201 2137
67 1215 2162
68 1229 2186
382 1561 69
381 1558 82
379 1554 96
376 1549 115
367 1537 182
269 1502 533
27 1641 1012
11 1496 1302
10 1365 1448
12 1323 1612
26 1284 1795
43 1276 1971
52 1289 2096
57 1272 2141
59 1281 2165
61 1294 2189
63 1307 2214
496 1916 0
495 1915 11
493 1913 21
490 1911 32
480 1907 42
380 1800 347
84 1824 860
11 2026 1376
10 1834 1614
10 1696 1739
10 1660 1893
11 1646 2027
19 1623 2114
22 1618 2162
24 1621 2190
26 1630 2219
29 1638 2249
601 2189 14
599 2188 24
597 2186 35
595 2185 46
588 2182 58
562 2175 122
156 1988 758
11 2201 1254
11 2383 1741
10 2170 1941
10 2046 2053
10 2006 2163
10 2005 2254
10 2012 2313
10 2015 2337
10 2022 2360
10 2028 2385
740 2543 26
739 2540 39
737 2539 51
734 2537 65
726 2533 82
718 2521 108
397 2313 569
34 2309 1124
11 2633 1699
11 2673 2128
10 2476 2244
10 2385 2323
10 2347 2381
10 2337 2428
10 2340 2458
10 2342 2477
10 2344 2496
822 2935 0
822 2934 11
820 2933 21
820 2933 32
813 2935 42
810 2932 53
727 2899 202
334 2781 914
12 2912 1424
11 3035 2177
11 2842 2375
10 2702 2436
10 2652 2492
10 2619 2524
10 2604 2548
10 2599 2568
10 2595 2584
825 3070 0
825 3070 11
824 3070 21
822 3072 32
821 3074 42
819 3077 53
825 3096 107
562 2998 762
66 3115 1279
11 3233 2117
11 3102 2472
10 2929 2518
10 2854 2561
10 2821 2592
10 2807 2615
10 2794 2632
10 2782 2650
852 3158 0
852 3158 11
852 3159 21
853 3160 32
853 3162 42
854 3164 53
864 3188 99
658 3104 655
155 3195 1253
11 3301 2021
11 3192 2508
11 3053 2559
10 2987 2608
10 2951 2638
10 2932 2658
10 2921 2673
10 2911 2693
884 3235 0
884 3235 11
884 3236 21
885 3238 32
886 3241 42
887 3243 53
898 3267 97
734 3207 592
218 3275 1235
11 3361 1950
11 3253 2533
11 3111 2579
10 3043 2627
10 3016 2661
10 3002 2683
10 2992 2698
10 2982 2717
918 3312 0
917 3312 11
918 3313 21
919 3315 32
920 3318 42
921 3321 53
931 3342 97
802 3307 562
294 3358 1228
11 3425 1908
11 3316 2554
11 3167 2601
11 3093 2645
10 3061 2677
10 3046 2698
10 3036 2714
10 3027 2733
953 3390 0
953 3390 11
953 3391 21
954 3392 32
955 3395 42
955 3397 53
964 3416 96
872 3407 523
415 3441 1229
11 3496 1856
11 3382 2568
11 3225 2625
11 3143 2662
10 3106 2693
10 3091 2714
10 3079 2729
10 3067 2747
260 222 232
238 215 277
242 233 349
184 272 448
95 320 585
62 398 759
45 505 963
48 625 1180
53 738 1403
59 846 1621
63 959 1827
68 1041 1974
73 1094 2067
76 1113 2100
77 1125 2123
79 1139 2147
80 1154 2172
256 267 237
222 262 275
212 262 340
155 284 440
78 331 581
55 408 754
43 514 960
47 635 1177
53 748 1400
58 855 1618
63 969 1825
67 1052 1973
73 1105 2066
75 1124 2100
77 1137 2122
79 1150 2146
80 1164 2171
252 355 236
225 339 274
173 328 336
117 335 436
60 355 578
46 417 749
40 524 957
47 644 1175
52 758 1398
58 866 1616
63 980 1824
67 1063 1973
73 1116 2066
75 1135 2100
77 1148 2123
78 1162 2147
80 1176 2171
228 521 212
202 507 250
146 484 327
59 449 453
36 426 565
33 443 741
39 535 954
46 655 1173
52 768 1396
58 877 1616
62 991 1824
67 1076 1975
72 1128 2068
75 1148 2103
76 1159 2125
78 1173 2149
79 1187 2173
228 710 187
219 700 209
192 674 267
124 655 380
21 610 593
22 559 729
36 570 946
45 665 1170
51 779 1395
57 889 1615
62 1003 1825
66 1088 1977
72 1141 2071
74 1161 2106
76 1174 2128
77 1187 2152
79 1201 2177
281 957 180
278 952 195
270 943 220
243 911 297
144 917 496
21 853 776
22 771 940
35 760 1150
50 800 1393
57 900 1614
62 1015 1825
66 1101 1979
71 1153 2074
74 1174 2109
76 1187 2132
77 1201 2156
78 1215 2180
341 1247 159
340 1244 171
338 1240 185
331 1231 215
302 1209 346
126 1256 685
21 1165 1010
21 1057 1174
28 1023 1371
48 1004 1602
61 1042 1825
65 1112 1978
70 1166 2074
73 1187 2114
75 1200 2137
77 1214 2161
78 1228 2185
401 1571 53
400 1568 65
397 1564 79
394 1559 96
383 1546 163
285 1501 527
40 1639 1004
21 1501 1304
20 1372 1455
22 1329 1619
36 1289 1800
53 1277 1973
61 1290 2098
67 1272 2143
69 1281 2165
71 1294 2190
73 1307 2215
526 1920 0
525 1919 11
523 1917 21
519 1916 32
510 1912 42
402 1815 329
98 1819 853
21 2028 1375
21 1839 1618
20 1704 1747
20 1668 1902
22 1653 2035
29 1629 2121
32 1622 2168
34 1625 2196
36 1635 2225
38 1643 2254
634 2195 12
633 2194 23
631 2192 34
627 2190 45
620 2187 56
592 2179 110
181 1989 751
21 2194 1247
21 2386 1741
21 2175 1945
20 2054 2061
20 2013 2170
20 2014 2262
20 2020 2321
20 2022 2344
20 2027 2366
20 2035 2393
772 2553 24
772 2549 37
769 2546 51
766 2544 64
760 2540 81
753 2528 103
424 2325 562
46 2303 1119
21 2628 1693
21 2679 2131
21 2482 2247
20 2391 2328
20 2353 2388
20 2342 2433
20 2346 2464
20 2348 2483
20 2351 2503
864 2942 0
864 2942 11
862 2942 21
859 2942 32
849 2943 42
840 2940 53
752 2908 189
358 2779 906
23 2908 1415
21 3035 2172
21 2848 2378
21 2707 2440
20 2659 2497
20 2626 2529
20 2610 2553
20 2606 2573
20 2600 2589
860 3079 0
861 3079 11
860 3080 21
856 3081 32
854 3083 42
850 3085 53
846 3105 107
580 2999 753
88 3114 1272
21 3237 2106
21 3107 2476
21 2934 2521
21 2859 2564
20 2825 2595
20 2815 2621
20 2801 2638
20 2787 2655
870 3166 0
870 3166 11
870 3167 21
870 3168 32
870 3171 42
870 3174 53
878 3194 99
676 3105 644
175 3193 1247
21 3300 2004
21 3198 2512
21 3059 2563
21 2991 2611
21 2954 2641
21 2937 2661
20 2923 2675
20 2915 2696
899 3243 0
899 3243 11
899 3244 21
900 3246 32
901 3248 42
902 3251 53
911 3272 97
751 3209 583
240 3274 1231
21 3361 1939
21 3261 2536
21 3116 2583
21 3047 2630
21 3019 2663
21 3006 2686
21 2995 2701
21 2985 2720
933 3320 0
932 3320 11
933 3320 21
934 3323 32
935 3325 42
936 3328 53
944 3347 97
819 3309 552
319 3356 1224
21 3424 1890
21 3325 2557
21 3174 2606
21 3097 2648
21 3066 2680
21 3050 2701
21 3040 2717
21 3029 2735
968 3397 0
967 3397 11
968 3398 21
968 3399 32
969 3402 42
971 3405 53
978 3421 96
889 3408 511
442 3439 1224
21 3497 1840
21 3391 2569
21 3232 2630
21 3147 2665
21 3111 2696
21 3095 2717
21 3084 2732
21 3072 2750
429 266 259
416 243 286
448 256 352
498 280 461
349 333 608
145 410 787
97 510 979
65 624 1180
63 736 1403
69 844 1620
73 958 1826
77 1041 1974
83 1093 2067
85 1112 2100
87 1126 2123
88 1140 2147
90 1154 2171
428 300 261
400 293 295
418 276 351
470 292 461
318 345 603
134 418 780
91 518 973
63 633 1177
63 746 1399
68 854 1617
73 968 1825
77 1052 1973
83 1104 2066
85 1123 2099
86 1136 2122
88 1150 2146
