滤镜资源/Professional Luts Collection/Triune-Digital-Cinematic-LUTs/3D LUTs (3DL)/ALEXA/Mad Max Fury Road - Alexa.3dl
# Created by Benjamin (IWLTBAP) : http://luts.iwltbap.com
# Copyright: (C) Copyright 2016 Triune Films and IWLTBAP
# Blockbuster LUTs Pack
0 256 512 768 1023
96 181 205
10 320 582
34 741 1405
55 1096 2069
61 1153 2173
186 690 198
0 606 593
32 782 1397
52 1142 2073
60 1202 2178
467 1913 0
454 1902 42
0 1828 1610
9 1618 2107
19 1633 2243
804 3062 0
803 3066 42
41 3116 1286
0 2850 2558
0 2774 2644
938 3382 0
940 3387 42
388 3442 1234
0 3138 2659
0 3061 2743
662 334 296
794 371 609
112 734 1407
92 1093 2066
99 1152 2169
803 653 88
506 639 622
81 775 1393
91 1138 2069
98 1198 2173
602 1931 0
584 1921 42
42 1852 1627
49 1638 2133
59 1650 2265
940 3097 0
934 3101 42
129 3109 1263
41 2866 2570
41 2799 2665
998 3413 0
999 3416 42
489 3438 1215
42 3159 2672
41 3079 2755
2530 728 563
2555 724 731
3126 1048 1457
2638 1342 2372
2591 1363 2597
2665 944 480
2581 839 706
3108 1088 1461
2612 1375 2382
2541 1394 2619
3357 2172 230
3350 2169 273
2501 2257 2073
757 1771 2667
633 1732 2744
2324 3408 72
2294 3395 113
1214 3320 1060
187 2925 2620
165 2854 2715
2085 3551 91
2059 3553 132
1069 3579 988
140 3217 2712
135 3119 2787
3528 934 918
3577 951 1016
3943 1235 1635
3918 1567 2779
3933 1556 2942
3582 1019 872
3580 988 1008
3943 1280 1642
3919 1612 2796
3936 1599 2959
3954 2211 371
3955 2217 414
3915 2406 2082
3937 1991 2998
3955 1895 3196
4042 3456 144
4042 3446 186
4034 3392 1226
3879 3504 3245
3660 3450 3565
4031 3785 144
4030 3788 186
4023 3711 1121
3934 3772 2988
3636 3790 3497
3681 966 951
3724 982 1043
3981 1291 1692
3964 1633 2834
3986 1644 3069
3732 1046 907
3729 1019 1037
3981 1339 1704
3965 1676 2847
3989 1685 3085
3996 2239 366
3997 2250 411
3988 2401 2096
3972 2077 2986
3996 2016 3271
4094 3466 152
4094 3454 194
4082 3349 1527
4061 3554 3273
3949 3489 3599
4095 3713 144
4094 3717 186
4095 3577 1286
4083 3710 3083
4081 3776 3487
