滤镜资源/Professional Luts Collection/Triune-Digital-Cinematic-LUTs/3D LUTs (3DL)/ALEXA/Minority Report - Alexa.3dl
# Created by Benjamin (IWLTBAP) : http://luts.iwltbap.com
# Copyright: (C) Copyright 2016 Triune Films and IWLTBAP
# Blockbuster LUTs Pack
0 128 256 384 512 640 768 896 1023
35 51 97
37 63 230
42 114 527
65 282 1074
137 482 1725
218 662 2330
266 806 2791
278 842 2908
290 871 3006
41 240 121
42 190 254
46 186 535
66 329 1078
137 528 1731
222 708 2337
267 853 2800
282 890 2919
293 920 3016
64 580 167
66 561 255
77 528 603
76 432 1087
137 575 1738
224 755 2348
271 901 2816
285 939 2935
293 970 3034
124 1188 292
125 1185 335
136 1185 571
169 1161 1291
167 1035 1817
224 833 2361
274 947 2825
286 989 2955
292 1020 3054
197 1870 437
199 1872 477
201 1865 529
268 1981 1456
294 1924 2189
295 1826 2756
297 1779 3147
295 1756 3259
298 1761 3336
302 2564 645
305 2569 688
306 2571 736
295 2461 1209
431 2982 2682
430 2724 3198
472 2657 3490
500 2658 3600
519 2670 3654
329 3078 695
331 3087 737
334 3102 781
341 3124 922
485 3485 2592
616 3404 3347
631 3262 3588
640 3222 3684
653 3220 3746
349 3281 740
351 3289 782
354 3303 824
361 3330 937
495 3599 2546
660 3549 3378
681 3456 3630
700 3448 3730
706 3435 3784
370 3478 787
372 3485 828
376 3502 872
383 3531 979
509 3713 2538
711 3646 3407
713 3542 3650
729 3533 3752
728 3521 3805
166 61 94
178 69 262
160 122 546
111 285 1079
180 484 1727
259 665 2333
308 808 2792
320 845 2909
330 875 3008
135 223 113
133 194 271
126 196 555
104 333 1085
181 531 1734
263 713 2340
309 856 2804
322 893 2922
333 923 3021
98 591 167
99 566 263
107 538 613
111 437 1096
182 580 1744
266 760 2352
312 904 2821
325 942 2940
333 973 3039
152 1192 296
153 1188 338
164 1186 567
200 1174 1304
200 1046 1831
266 837 2364
314 950 2830
326 992 2960
332 1024 3058
226 1880 429
227 1882 471
229 1877 523
293 1971 1440
324 1937 2202
326 1843 2783
328 1796 3173
326 1771 3283
329 1777 3359
333 2568 643
336 2575 688
336 2578 736
323 2463 1200
458 2983 2675
462 2740 3207
509 2676 3500
537 2677 3611
555 2687 3663
356 3080 694
359 3092 740
361 3107 784
369 3134 922
507 3483 2571
648 3420 3351
662 3273 3593
675 3243 3692
686 3237 3753
376 3285 739
379 3295 785
382 3308 828
389 3337 941
517 3600 2530
692 3562 3383
712 3467 3633
730 3458 3734
738 3448 3791
397 3483 788
400 3491 832
403 3504 875
410 3535 983
533 3715 2522
750 3660 3412
746 3550 3652
761 3541 3754
764 3532 3810
504 107 150
541 105 320
607 165 621
526 312 1145
317 489 1731
302 667 2332
350 810 2789
362 846 2908
372 876 3006
485 258 151
505 252 331
583 232 628
500 361 1147
294 536 1736
304 715 2340
350 857 2801
362 894 2920
373 925 3019
413 579 185
425 589 322
450 590 697
400 466 1151
245 584 1747
308 765 2356
352 908 2825
365 946 2945
373 977 3043
189 1202 288
190 1200 336
196 1188 569
230 1185 1316
235 1055 1846
309 841 2369
355 955 2837
366 996 2965
372 1027 3063
261 1884 420
261 1888 464
260 1892 512
318 1961 1425
353 1949 2216
356 1859 2810
359 1811 3197
357 1786 3306
361 1788 3378
369 2576 641
371 2581 686
371 2587 735
352 2469 1192
485 2983 2666
492 2753 3215
545 2694 3510
573 2696 3620
591 2707 3673
388 3088 695
390 3098 739
391 3116 788
397 3146 924
529 3483 2553
680 3437 3357
694 3287 3599
708 3260 3701
719 3255 3761
404 3295 741
406 3303 786
410 3317 832
417 3349 946
540 3601 2515
725 3576 3387
741 3475 3636
760 3467 3739
769 3462 3799
425 3492 790
427 3500 834
431 3513 879
439 3547 989
556 3715 2506
787 3672 3416
779 3559 3655
794 3548 3757
800 3542 3816
1189 272 265
1207 246 434
1322 299 720
1454 444 1263
1343 578 1849
1167 741 2443
1024 855 2814
966 885 2916
943 911 3003
1186 361 263
1209 354 418
1315 346 719
1447 494 1268
1333 627 1860
1154 789 2452
1009 902 2825
946 930 2924
925 955 3012
1213 676 248
1226 681 377
1292 675 739
1419 578 1276
1297 675 1869
1110 835 2456
954 945 2834
897 974 2939
881 1001 3027
1148 1239 299
1155 1243 348
1178 1281 641
1125 1378 1545
1011 1184 2071
872 888 2428
731 976 2831
680 1010 2952
660 1038 3046
614 1928 459
615 1932 507
608 1931 554
496 1985 1378
470 2006 2292
411 1880 2850
395 1821 3220
387 1790 3319
391 1794 3393
408 2585 641
410 2590 685
410 2595 733
383 2476 1191
511 2980 2659
524 2765 3222
581 2710 3520
608 2709 3630
624 2718 3681
432 3102 694
433 3110 739
432 3125 787
429 3163 930
554 3482 2540
712 3451 3362
725 3295 3604
741 3275 3709
752 3268 3769
432 3309 744
435 3317 788
438 3328 834
446 3365 953
564 3604 2503
759 3589 3393
772 3487 3641
791 3477 3743
800 3473 3806
453 3506 793
456 3513 837
459 3525 883
467 3562 997
580 3718 2495
828 3684 3421
811 3566 3658
826 3555 3761
835 3551 3821
2040 462 565
2051 447 715
2133 477 912
2321 586 1395
2492 732 1894
2379 866 2533
2302 988 3046
2291 1012 3173
2302 1032 3294
2035 508 551
2051 495 709
2133 524 913
2320 637 1401
2491 781 1904
2376 917 2548
2300 1036 3060
2289 1059 3190
2300 1077 3311
2060 812 505
2081 798 661
2144 737 913
2308 690 1403
2481 830 1913
2360 966 2560
2287 1082 3071
2277 1104 3208
2288 1121 3330
2200 1380 498
2217 1386 550
2214 1406 760
2292 1471 1641
2408 1284 2104
2271 1018 2555
2212 1117 3065
2201 1140 3221
2202 1158 3342
2044 2166 523
2053 2172 570
2057 2169 615
2120 2300 1437
2137 2400 2784
1952 2180 3342
1789 2018 3569
1750 1965 3631
1742 1962 3681
1645 2956 662
1649 2962 707
1649 2962 750
1642 3004 1245
1310 3108 2507
1161 3038 3373
1112 2882 3619
1099 2869 3715
1098 2876 3763
1077 3371 757
1079 3375 800
1075 3372 843
1038 3366 990
827 3606 2387
989 3567 3407
915 3364 3638
911 3338 3748
911 3326 3803
918 3502 784
917 3506 828
911 3505 869
881 3499 982
757 3642 2372
945 3654 3419
902 3525 3659
913 3509 3762
925 3509 3831
881 3630 811
880 3635 854
876 3640 897
851 3654 1014
760 3756 2378
997 3742 3442
937 3603 3675
946 3585 3776
956 3582 3837
2999 651 856
2995 643 973
3029 657 1137
3238 737 1554
3354 868 2086
3476 1044 2919
3478 1133 3404
3481 1144 3489
3493 1154 3560
3002 698 842
2999 691 970
3031 703 1138
3244 787 1561
3357 918 2097
3479 1093 2933
3481 1183 3412
3487 1193 3495
3498 1203 3566
2997 841 786
3018 825 933
3030 788 1136
3242 835 1562
3355 967 2104
3475 1141 2941
3480 1231 3417
3485 1241 3501
3497 1250 3571
3137 1581 604
3143 1585 673
3128 1591 905
3280 1509 1682
3347 1346 2255
3437 1182 2926
3432 1273 3409
3442 1284 3500
3453 1292 3571
3134 2201 605
3157 2214 656
3171 2215 709
3242 2344 1479
3419 2549 2875
3473 2325 3371
3444 2076 3646
3417 2007 3724
3405 1994 3781
2833 3228 727
2842 3233 773
2849 3229 817
2902 3229 1176
3183 3397 2643
3284 3402 3512
3209 3286 3788
3181 3254 3883
3173 3249 3930
2611 3602 788
2619 3607 832
2625 3609 877
2655 3628 1066
3023 3785 2616
2881 3854 3374
2819 3705 3815
2829 3644 3908
2819 3633 3961
2563 3695 809
2569 3701 854
2573 3707 899
2586 3723 1028
2951 3875 2575
2725 3977 3318
2584 3893 3823
2600 3815 3919
2627 3786 3979
2549 3747 817
2555 3753 863
2559 3759 909
2569 3775 1036
2923 3955 2559
2699 4039 3308
2502 3969 3823
2500 3905 3924
2522 3877 3982
3234 689 935
3232 684 1039
3265 698 1189
3474 779 1589
3587 913 2170
3677 1076 2990
3762 1188 3487
3777 1197 3565
3788 1202 3634
3239 738 925
3238 732 1039
3270 746 1192
3482 829 1597
3592 963 2181
3684 1127 3004
3766 1239 3494
3780 1247 3571
3792 1253 3641
3244 816 889
3256 806 1022
3275 795 1189
3487 879 1601
3596 1014 2194
3689 1176 3014
3771 1290 3502
3785 1298 3579
3797 1303 3649
3390 1617 620
3397 1623 715
3381 1623 944
3575 1499 1700
3626 1336 2322
3693 1224 3011
3775 1340 3506
3789 1347 3588
3801 1351 3657
3426 2262 627
3436 2267 676
3454 2271 744
3613 2438 1559
3801 2548 2868
3799 2399 3390
3865 2198 3698
3869 2105 3768
3872 2077 3824
3393 3090 731
3404 3095 777
3415 3092 822
3482 3118 1218
3801 3354 2677
3831 3434 3530
3857 3305 3810
3866 3247 3913
3860 3239 3959
3337 3630 803
3345 3632 848
3355 3636 894
3399 3655 1109
3676 3776 2486
3730 3840 3405
3751 3815 3841
3733 3794 3938
3736 3792 3989
3304 3759 825
3311 3762 871
3322 3765 917
3350 3774 1050
3637 3886 2557
3683 3949 3416
3688 3983 3812
3678 3942 3951
3686 3921 4004
3305 3816 837
3312 3820 884
3324 3823 930
3353 3837 1062
3624 3958 2599
3668 4014 3409
3672 4050 3801
3632 4037 3957
3652 4003 4015
3352 710 965
3347 705 1064
3380 720 1212
3585 800 1607
3671 938 2216
3733 1098 3020
3824 1234 3532
3830 1232 3591
3843 1243 3661
3358 761 957
3353 753 1065
3386 768 1215
3590 850 1614
3675 990 2228
3739 1149 3033
3827 1284 3539
3833 1282 3597
3846 1291 3667
3364 831 924
3370 818 1050
3391 815 1213
3594 900 1617
3678 1042 2241
3745 1199 3044
3831 1334 3546
3838 1331 3604
3850 1340 3674
3478 1626 629
3491 1634 734
3487 1635 959
3681 1503 1716
3701 1354 2367
3748 1246 3038
3835 1384 3549
3842 1381 3612
3854 1390 3683
3484 2261 628
3495 2266 677
3513 2271 750
3687 2454 1580
3868 2563 2878
3855 2438 3405
3908 2252 3704
3915 2159 3776
3922 2133 3831
3451 3083 733
3462 3087 779
3472 3085 824
3540 3110 1231
3856 3365 2713
3910 3437 3533
3925 3321 3806
3956 3263 3919
3960 3247 3967
3437 3590 797
3447 3594 843
3458 3597 888
3507 3614 1110
3806 3739 2587
3898 3814 3428
3930 3826 3843
3913 3799 3950
3911 3789 4000
3422 3705 817
3430 3708 863
3441 3712 909
3475 3720 1044
3787 3828 2551
3873 3926 3372
3908 3969 3807
3904 3968 3954
3908 3971 4016
3426 3769 827
3435 3773 873
3448 3777 921
3487 3790 1054
3779 3932 2578
3865 4010 3396
3903 4034 3815
3900 4040 3952
3895 4033 4022
3469 732 987
3466 726 1088
3499 742 1235
3672 823 1624
3735 971 2271
3790 1123 3053
3878 1270 3562
3889 1274 3631
3895 1271 3681
3474 782 977
3474 776 1089
3506 791 1239
3677 874 1631
3739 1024 2284
3795 1173 3065
3881 1317 3564
3892 1323 3636
3898 1320 3686
3478 849 944
3489 839 1073
3511 838 1235
3680 923 1634
3743 1076 2297
3800 1224 3077
3884 1368 3570
3896 1374 3643
3902 1369 3692
3537 1627 635
3556 1637 743
3572 1644 969
3755 1523 1735
3768 1382 2416
3803 1274 3079
3887 1417 3571
3901 1425 3651
3906 1419 3701
3541 2263 629
3551 2268 678
3569 2274 752
3746 2457 1585
3915 2575 2885
3903 2475 3416
3949 2295 3701
3963 2230 3794
3967 2192 3839
3508 3090 737
3520 3094 783
3530 3091 828
3598 3117 1240
3902 3369 2722
3964 3446 3539
3971 3342 3810
3997 3296 3921
4003 3270 3967
3496 3597 800
3507 3601 846
3517 3604 892
3566 3620 1115
3853 3743 2593
3948 3818 3452
3993 3831 3846
3978 3808 3953
3979 3791 4006
3483 3709 819
3492 3714 865
3502 3717 911
3535 3725 1046
3835 3832 2555
3924 3925 3393
3980 3961 3815
3993 3977 3961
3993 3972 4022
3488 3771 830
3498 3775 877
3513 3779 924
3552 3792 1058
3827 3934 2580
3915 4002 3395
3973 4022 3804
3994 4040 3946
3994 4043 4022
