滤镜资源/Professional Luts Collection/Triune-Digital-Cinematic-LUTs/3D LUTs (3DL)/ALEXA/Minority Report - Alexa.3dl
# Created by Benjamin (IWLTBAP) : http://luts.iwltbap.com
# Copyright: (C) Copyright 2016 Triune Films and IWLTBAP
# Blockbuster LUTs Pack
0 256 512 768 1023
35 51 97
42 114 527
137 482 1725
266 806 2791
290 871 3006
64 580 167
77 528 603
137 575 1738
271 901 2816
293 970 3034
197 1870 437
201 1865 529
294 1924 2189
297 1779 3147
298 1761 3336
329 3078 695
334 3102 781
485 3485 2592
631 3262 3588
653 3220 3746
370 3478 787
376 3502 872
509 3713 2538
713 3542 3650
728 3521 3805
504 107 150
607 165 621
317 489 1731
350 810 2789
372 876 3006
413 579 185
450 590 697
245 584 1747
352 908 2825
373 977 3043
261 1884 420
260 1892 512
353 1949 2216
359 1811 3197
361 1788 3378
388 3088 695
391 3116 788
529 3483 2553
694 3287 3599
719 3255 3761
425 3492 790
431 3513 879
556 3715 2506
779 3559 3655
800 3542 3816
2040 462 565
2133 477 912
2492 732 1894
2302 988 3046
2302 1032 3294
2060 812 505
2144 737 913
2481 830 1913
2287 1082 3071
2288 1121 3330
2044 2166 523
2057 2169 615
2137 2400 2784
1789 2018 3569
1742 1962 3681
1077 3371 757
1075 3372 843
827 3606 2387
915 3364 3638
911 3326 3803
881 3630 811
876 3640 897
760 3756 2378
937 3603 3675
956 3582 3837
3234 689 935
3265 698 1189
3587 913 2170
3762 1188 3487
3788 1202 3634
3244 816 889
3275 795 1189
3596 1014 2194
3771 1290 3502
3797 1303 3649
3426 2262 627
3454 2271 744
3801 2548 2868
3865 2198 3698
3872 2077 3824
3337 3630 803
3355 3636 894
3676 3776 2486
3751 3815 3841
3736 3792 3989
3305 3816 837
3324 3823 930
3624 3958 2599
3672 4050 3801
3652 4003 4015
3469 732 987
3499 742 1235
3735 971 2271
3878 1270 3562
3895 1271 3681
3478 849 944
3511 838 1235
3743 1076 2297
3884 1368 3570
3902 1369 3692
3541 2263 629
3569 2274 752
3915 2575 2885
3949 2295 3701
3967 2192 3839
3496 3597 800
3517 3604 892
3853 3743 2593
3993 3831 3846
3979 3791 4006
3488 3771 830
3513 3779 924
3827 3934 2580
3973 4022 3804
3994 4043 4022
