滤镜资源/Professional Luts Collection/Triune-Digital-Cinematic-LUTs/3D LUTs (3DL)/ALEXA/Minority Report - Alexa.3dl
# Created by Benjamin (IWLTBAP) : http://luts.iwltbap.com
# Copyright: (C) Copyright 2016 Triune Films and IWLTBAP
# Blockbuster LUTs Pack
0 64 128 192 256 320 384 448 512 576 640 704 768 832 896 960 1023
35 51 97
35 56 145
37 63 230
39 78 353
42 114 527
45 185 765
65 282 1074
88 382 1398
137 482 1725
187 567 2025
218 662 2330
246 746 2601
266 806 2791
273 828 2859
278 842 2908
284 856 2957
290 871 3006
38 127 109
36 100 150
38 96 231
40 98 353
44 137 530
48 210 767
65 305 1076
88 405 1401
137 505 1728
188 590 2027
220 685 2333
246 769 2605
266 829 2794
274 851 2863
280 866 2912
286 880 2960
292 895 3010
41 240 121
40 214 161
42 190 254
44 180 364
46 186 535
50 234 769
66 329 1078
88 428 1404
137 528 1731
188 613 2030
222 708 2337
246 792 2610
267 853 2800
276 875 2870
282 890 2919
288 905 2967
293 920 3016
51 389 138
51 374 172
53 360 267
56 334 403
57 317 550
57 293 774
67 352 1080
89 452 1408
137 552 1735
189 637 2034
223 732 2342
246 815 2616
269 877 2808
278 899 2878
284 914 2926
290 930 2976
293 945 3024
64 580 167
65 574 192
66 561 255
75 570 435
77 528 603
77 494 804
76 432 1087
90 475 1409
137 575 1738
190 660 2037
224 755 2348
246 839 2623
271 901 2816
280 924 2887
285 939 2935
290 954 2984
293 970 3034
88 847 213
89 844 236
90 839 265
95 839 382
114 866 657
116 805 894
115 756 1151
111 674 1437
139 617 1742
190 683 2039
224 779 2351
247 862 2628
273 925 2822
281 948 2896
286 964 2945
290 980 2993
292 995 3043
124 1188 292
124 1186 313
125 1185 335
126 1181 369
136 1185 571
170 1248 1012
169 1161 1291
169 1101 1550
167 1035 1817
181 902 2073
224 833 2361
249 884 2629
274 947 2825
281 973 2906
286 989 2955
290 1005 3003
292 1020 3054
160 1516 370
161 1516 389
162 1516 412
162 1514 436
164 1508 503
192 1549 921
237 1655 1471
230 1538 1723
227 1465 1965
227 1424 2243
226 1337 2504
242 1233 2722
256 1175 2884
274 1117 2955
278 1126 3004
280 1139 3053
281 1151 3104
197 1870 437
198 1872 454
199 1872 477
200 1871 502
201 1865 529
209 1811 799
268 1981 1456
305 2061 1951
294 1924 2189
292 1853 2457
295 1826 2756
297 1800 2993
297 1779 3147
296 1762 3224
295 1756 3259
297 1759 3300
298 1761 3336
250 2208 547
251 2208 566
252 2209 589
253 2209 614
254 2208 639
252 2186 734
274 2162 1337
352 2468 2051
368 2464 2464
358 2326 2728
357 2261 3018
361 2239 3237
370 2238 3383
378 2242 3465
383 2246 3499
388 2252 3530
393 2258 3561
302 2564 645
304 2567 665
305 2569 688
305 2570 711
306 2571 736
305 2565 761
295 2461 1209
360 2688 1931
431 2982 2682
430 2851 2970
430 2724 3198
454 2681 3380
472 2657 3490
488 2654 3559
500 2658 3600
510 2664 3628
519 2670 3654
319 2939 659
322 2944 681
323 2951 704
323 2958 727
324 2965 749
323 2969 770
329 2926 1068
392 3088 1865
476 3343 2660
543 3310 3096
538 3125 3285
556 3049 3439
571 3014 3543
581 2996 3607
591 2995 3650
596 2995 3680
601 2996 3707
329 3078 695
330 3082 716
331 3087 737
332 3093 759
334 3102 781
335 3110 804
341 3124 922
402 3256 1805
485 3485 2592
614 3542 3147
616 3404 3347
621 3298 3492
631 3262 3588
635 3233 3645
640 3222 3684
646 3220 3714
653 3220 3746
338 3177 717
338 3181 737
340 3187 759
341 3193 780
343 3202 803
345 3211 825
351 3229 920
407 3332 1757
488 3539 2557
637 3599 3153
642 3497 3366
654 3423 3519
667 3403 3619
675 3386 3677
678 3373 3711
684 3370 3739
689 3364 3770
349 3281 740
350 3285 761
351 3289 782
352 3295 803
354 3303 824
356 3312 847
361 3330 937
413 3422 1734
495 3599 2546
661 3648 3157
660 3549 3378
668 3478 3530
681 3456 3630
693 3452 3693
700 3448 3730
702 3440 3754
706 3435 3784
360 3383 764
361 3386 784
362 3390 805
363 3396 826
365 3403 847
366 3412 869
371 3430 957
420 3514 1724
502 3660 2543
688 3693 3159
679 3597 3393
683 3527 3541
693 3502 3640
705 3496 3703
713 3494 3742
716 3488 3767
716 3477 3793
370 3478 787
371 3480 807
372 3485 828
374 3493 849
376 3502 872
378 3511 894
383 3531 979
425 3600 1700
509 3713 2538
717 3739 3158
711 3646 3407
704 3570 3553
713 3542 3650
722 3535 3713
729 3533 3752
734 3532 3781
728 3521 3805
85 54 103
87 58 152
85 66 241
83 81 360
77 115 531
63 185 767
81 283 1076
109 383 1399
158 483 1726
208 570 2027
239 664 2332
267 747 2602
286 807 2792
293 829 2861
299 843 2909
304 858 2958
310 874 3008
78 124 113
75 99 153
74 99 240
73 100 360
67 139 534
63 211 770
82 307 1078
109 406 1402
158 506 1729
209 593 2029
240 687 2334
267 770 2605
286 830 2796
294 852 2865
299 867 2914
306 882 2963
312 897 3012
69 238 125
67 211 165
66 190 256
64 183 371
62 188 540
66 236 773
82 331 1082
109 430 1406
159 530 1733
209 616 2032
242 710 2339
267 794 2611
287 854 2802
295 876 2871
302 891 2920
308 906 2969
313 922 3019
66 388 139
65 373 175
67 358 265
70 337 407
72 320 555
72 294 778
84 355 1084
109 454 1410
159 554 1737
210 639 2036
244 734 2344
266 817 2617
289 877 2810
298 901 2880
304 916 2928
309 931 2977
313 947 3027
79 583 166
80 578 193
81 562 257
89 571 432
92 533 608
92 499 810
92 435 1091
109 477 1412
159 577 1741
210 663 2040
245 757 2349
266 840 2624
291 902 2818
300 925 2889
305 941 2937
309 956 2986
313 972 3036
102 850 213
103 848 235
104 841 266
109 839 381
128 867 654
131 811 899
130 762 1157
127 678 1441
160 620 1745
211 686 2041
245 780 2352
267 863 2629
292 926 2824
301 949 2898
305 966 2947
310 981 2995
312 997 3045
138 1189 294
139 1188 314
139 1186 337
140 1183 371
150 1186 569
183 1249 1009
185 1168 1297
184 1108 1559
183 1041 1824
199 906 2078
244 835 2362
268 885 2630
293 948 2827
300 974 2908
306 990 2957
310 1007 3006
312 1022 3056
174 1519 372
175 1519 391
176 1519 413
176 1517 438
178 1511 505
205 1547 915
252 1659 1473
245 1545 1730
242 1473 1974
243 1432 2255
243 1343 2513
260 1237 2729
278 1176 2887
296 1118 2958
300 1127 3006
302 1140 3056
302 1153 3106
212 1874 436
212 1875 454
213 1876 475
214 1875 500
215 1870 527
222 1814 796
281 1976 1447
320 2066 1954
309 1930 2196
307 1863 2470
310 1835 2769
313 1809 3007
313 1788 3160
312 1772 3238
311 1764 3271
312 1768 3312
313 1769 3347
264 2210 548
265 2211 566
266 2211 588
268 2211 613
269 2210 638
267 2192 733
287 2160 1332
365 2465 2046
382 2472 2471
372 2332 2735
372 2270 3030
376 2248 3247
386 2248 3393
395 2250 3472
399 2253 3505
405 2261 3537
410 2265 3567
317 2565 644
319 2569 666
320 2572 688
320 2574 712
320 2573 736
320 2568 760
309 2462 1205
373 2683 1924
445 2982 2678
446 2860 2975
446 2732 3203
471 2689 3385
490 2666 3495
507 2665 3566
519 2669 3606
528 2674 3632
538 2679 3659
334 2939 658
336 2944 680
337 2951 704
338 2959 727
338 2967 750
338 2972 772
344 2932 1067
404 3088 1859
487 3341 2651
559 3318 3099
555 3133 3287
571 3055 3441
588 3024 3548
598 3006 3611
607 3003 3654
613 3004 3685
618 3005 3712
343 3078 695
344 3083 717
345 3090 739
346 3096 760
347 3103 782
349 3112 805
355 3129 922
415 3254 1798
495 3483 2580
630 3549 3149
632 3412 3349
637 3305 3494
647 3267 3590
653 3244 3650
657 3232 3688
663 3229 3717
669 3228 3749
351 3178 716
352 3183 738
353 3189 760
355 3196 782
356 3203 804
358 3212 826
364 3232 921
420 3332 1749
499 3537 2548
654 3605 3153
659 3505 3369
670 3429 3520
682 3407 3620
690 3390 3679
694 3378 3714
699 3375 3742
704 3369 3772
362 3282 739
363 3287 762
365 3292 783
366 3298 805
368 3305 826
369 3313 848
375 3333 939
426 3421 1724
506 3600 2538
675 3651 3154
676 3556 3381
684 3484 3532
697 3462 3632
708 3456 3695
715 3454 3733
718 3447 3757
723 3444 3789
374 3384 764
375 3388 786
376 3393 807
377 3399 828
379 3405 849
380 3413 871
385 3433 959
432 3514 1714
514 3661 2534
703 3697 3156
695 3604 3395
699 3531 3543
709 3508 3642
720 3501 3704
728 3499 3744
731 3494 3770
733 3485 3797
383 3478 787
385 3482 809
386 3487 830
388 3494 851
390 3503 873
391 3510 895
397 3534 982
438 3600 1684
521 3714 2529
732 3743 3154
730 3653 3410
720 3576 3555
730 3546 3651
739 3540 3713
745 3537 3753
749 3534 3781
746 3526 3807
166 61 94
173 62 166
178 69 262
169 88 386
160 122 546
142 191 777
111 285 1079
132 384 1401
180 484 1727
229 572 2028
259 665 2333
288 748 2601
308 808 2792
315 830 2861
320 845 2909
325 859 2958
330 875 3008
154 109 95
151 104 164
158 103 263
150 107 382
144 145 547
128 215 778
107 308 1081
131 407 1403
180 508 1729
230 595 2030
261 688 2335
289 771 2604
308 831 2795
315 853 2864
320 868 2913
326 883 2962
332 898 3011
135 223 113
135 209 178
133 194 271
132 196 393
126 196 555
110 240 779
104 333 1085
131 431 1407
181 531 1734
231 618 2034
263 713 2340
289 795 2611
309 856 2804
316 877 2873
322 893 2922
328 908 2971
333 923 3021
119 399 137
117 387 188
115 361 269
114 343 416
107 329 567
93 297 784
106 357 1088
132 455 1413
181 555 1740
231 642 2039
265 736 2346
288 818 2619
310 880 2812
318 902 2882
324 917 2931
329 932 2979
333 948 3029
98 591 167
98 586 195
99 566 263
105 570 430
107 538 613
108 504 817
111 437 1096
131 479 1415
182 580 1744
231 666 2043
266 760 2352
288 842 2625
312 904 2821
320 927 2892
325 942 2940
330 957 2988
333 973 3039
117 856 214
118 853 236
119 848 269
124 840 384
142 867 651
146 817 905
146 768 1165
145 681 1446
182 622 1748
231 689 2044
267 783 2354
288 865 2630
313 928 2827
321 951 2901
325 967 2949
330 983 2998
332 999 3048
152 1192 296
153 1190 316
153 1188 338
154 1185 374
164 1186 567
197 1249 1005
200 1174 1304
199 1115 1567
200 1046 1831
220 909 2082
266 837 2364
289 887 2631
314 950 2830
321 975 2911
326 992 2960
330 1008 3008
332 1024 3058
188 1524 371
189 1523 391
190 1523 413
191 1521 437
193 1516 506
218 1546 911
266 1663 1474
260 1551 1736
258 1480 1984
258 1439 2265
261 1349 2524
281 1242 2737
300 1178 2891
318 1120 2961
322 1129 3010
324 1143 3060
325 1154 3110
226 1880 429
226 1882 450
227 1882 471
228 1881 496
229 1877 523
236 1818 794
293 1971 1440
334 2072 1957
324 1937 2202
323 1871 2481
326 1843 2783
328 1817 3019
328 1796 3173
327 1779 3250
326 1771 3283
328 1775 3323
329 1777 3359
279 2211 544
280 2213 565
282 2215 587
283 2215 611
283 2213 636
283 2201 731
300 2158 1328
378 2462 2041
397 2480 2477
387 2339 2742
387 2279 3040
392 2258 3257
403 2259 3403
412 2261 3480
416 2261 3512
422 2269 3544
428 2275 3575
333 2568 643
334 2571 665
336 2575 688
336 2578 712
336 2578 736
335 2572 759
323 2463 1200
385 2678 1917
458 2983 2675
461 2868 2979
462 2740 3207
490 2700 3391
509 2676 3500
524 2673 3570
537 2677 3611
546 2682 3637
555 2687 3663
350 2940 657
352 2944 680
353 2951 703
353 2959 727
353 2968 751
353 2973 773
358 2940 1065
417 3086 1854
499 3338 2639
576 3327 3101
571 3143 3290
587 3062 3443
605 3033 3552
616 3015 3616
624 3012 3658
630 3014 3690
635 3013 3716
356 3080 694
358 3085 717
359 3092 740
360 3100 762
361 3107 784
363 3114 806
369 3134 922
428 3254 1791
507 3483 2571
646 3556 3149
648 3420 3351
652 3311 3496
662 3273 3593
670 3253 3655
675 3243 3692
679 3238 3722
686 3237 3753
365 3181 717
366 3185 738
367 3191 761
369 3199 783
370 3206 805
372 3214 828
378 3237 923
432 3332 1741
511 3538 2540
669 3611 3151
675 3512 3371
685 3435 3522
697 3412 3622
705 3395 3682
711 3386 3718
715 3381 3746
720 3376 3776
376 3285 739
377 3288 762
379 3295 785
380 3301 806
382 3308 828
383 3315 850
389 3337 941
438 3421 1715
517 3600 2530
689 3655 3151
692 3562 3383
699 3490 3534
712 3467 3633
723 3461 3696
730 3458 3734
734 3454 3761
738 3448 3791
387 3388 765
388 3390 787
390 3397 809
391 3402 830
392 3408 851
394 3415 872
399 3437 961
445 3514 1703
526 3662 2527
718 3700 3152
713 3611 3397
715 3536 3545
724 3512 3643
735 3505 3706
742 3501 3745
746 3499 3772
748 3491 3800
397 3483 788
398 3485 809
400 3491 832
401 3497 853
403 3504 875
405 3512 897
410 3535 983
449 3600 1667
533 3715 2522
747 3748 3151
750 3660 3412
735 3580 3556
746 3550 3652
755 3543 3715
761 3541 3754
766 3539 3783
764 3532 3810
302 75 115
316 72 185
334 79 283
353 93 412
327 133 581
309 203 805
257 295 1096
173 385 1403
201 486 1727
250 574 2029
281 666 2333
309 749 2600
329 809 2790
336 831 2860
341 846 2908
346 860 2958
351 875 3007
286 123 115
300 119 194
318 109 284
337 110 413
313 159 583
294 228 806
239 317 1096
166 408 1405
201 509 1730
251 597 2031
281 689 2335
311 772 2603
329 832 2794
336 854 2864
341 869 2912
346 883 2961
