滤镜资源/Professional Luts Collection/Triune-Digital-Cinematic-LUTs/3D LUTs (3DL)/ALEXA/Prometheus - Alexa.3dl
# Created by Benjamin (IWLTBAP) : http://luts.iwltbap.com
# Copyright: (C) Copyright 2016 Triune Films and IWLTBAP
# Blockbuster LUTs Pack
0 256 512 768 1023
0 0 0
0 93 783
94 327 2031
251 519 3032
281 557 3176
0 729 256
0 797 891
94 512 2041
209 681 3015
234 720 3158
359 1960 804
370 1980 937
432 2048 2090
442 1881 2835
438 1828 2976
709 2846 1223
720 2872 1344
828 3079 2348
873 3139 3147
881 3137 3348
765 2998 1286
777 3028 1409
878 3231 2373
956 3373 3210
977 3394 3414
968 91 17
934 171 805
307 357 1864
375 517 3055
407 554 3200
747 759 234
525 804 898
190 559 1802
345 672 3044
370 706 3187
414 1952 782
428 1978 918
491 2051 2106
499 1879 2858
494 1825 3000
769 2864 1221
784 2899 1349
896 3121 2376
941 3174 3187
947 3165 3386
825 3021 1291
841 3059 1418
943 3268 2396
1024 3402 3241
1050 3422 3447
2309 562 453
2318 501 707
2242 527 1808
1926 506 2819
1858 507 2950
2368 965 457
2324 810 756
2196 620 1842
1849 619 2856
1790 626 2982
2280 2173 882
2256 2180 997
1845 2233 2310
1440 1821 3030
1420 1738 3165
1120 2844 1139
1130 2886 1264
1221 3187 2387
1200 3246 3274
1171 3218 3456
1089 3018 1236
1105 3066 1368
1177 3315 2412
1210 3463 3308
1241 3484 3517
3156 875 746
3186 860 945
3195 839 1744
2983 731 2770
2958 723 2904
3139 948 712
3160 925 941
3178 908 1763
2956 804 2793
2934 800 2927
3479 2318 918
3496 2327 1017
3463 2269 2075
3100 1757 3106
3080 1667 3245
3604 3302 1352
3586 3352 1518
3630 3652 2678
3552 3735 3732
3561 3726 3939
3553 3486 1496
3552 3536 1660
3621 3811 2769
3572 3960 3772
3604 3988 3999
3305 932 793
3339 920 982
3336 890 1744
3139 784 2780
3111 773 2912
3293 1000 765
3312 977 974
3323 958 1760
3115 855 2804
3090 846 2937
3635 2364 954
3654 2374 1058
3618 2306 2111
3298 1847 3149
3250 1724 3261
3749 3360 1469
3748 3411 1634
3830 3702 2772
3855 3767 3750
3855 3758 3970
3753 3541 1613
3770 3591 1767
3845 3839 2832
3923 4015 3825
3962 4055 4062
