滤镜资源/Professional Luts Collection/Triune-Digital-Cinematic-LUTs/3D LUTs (3DL)/ALEXA/Prometheus - Alexa.3dl
# Created by Benjamin (IWLTBAP) : http://luts.iwltbap.com
# Copyright: (C) Copyright 2016 Triune Films and IWLTBAP
# Blockbuster LUTs Pack
0 64 128 192 256 320 384 448 512 576 640 704 768 832 896 960 1023
0 0 0
0 0 105
0 0 320
0 16 547
0 93 783
0 170 1053
0 246 1367
36 296 1684
94 327 2031
142 371 2376
186 434 2685
225 486 2899
251 519 3032
261 532 3079
268 540 3111
275 549 3144
281 557 3176
0 22 0
0 31 126
0 62 333
0 85 551
0 143 786
0 218 1057
0 291 1371
46 341 1689
99 373 2035
140 416 2378
180 475 2682
215 525 2895
239 557 3027
249 569 3073
255 578 3105
261 586 3138
268 594 3170
0 249 58
0 252 189
0 261 370
0 273 578
0 245 796
0 265 1060
0 335 1376
55 384 1695
105 419 2039
140 462 2380
176 515 2679
207 564 2891
228 595 3022
237 606 3067
243 615 3099
248 624 3132
254 632 3164
0 478 157
0 487 254
0 505 419
0 517 613
0 508 829
0 386 1070
0 380 1378
57 429 1699
104 466 2042
137 508 2381
170 557 2676
198 605 2887
218 636 3018
226 648 3063
233 656 3095
238 665 3127
243 674 3159
0 729 256
0 738 315
0 763 468
0 791 672
0 797 891
0 756 1137
0 541 1392
48 476 1701
94 512 2041
127 552 2379
160 600 2673
189 650 2883
209 681 3015
217 694 3061
223 702 3093
230 711 3126
234 720 3158
30 1030 414
33 1038 459
36 1047 516
53 1080 697
76 1115 924
83 1111 1150
85 1055 1408
71 854 1708
77 596 2040
117 596 2375
152 642 2668
182 692 2877
201 726 3010
209 739 3059
215 748 3091
221 757 3124
226 765 3156
139 1345 543
143 1352 583
147 1358 623
152 1367 684
176 1406 934
198 1442 1219
204 1436 1472
207 1394 1699
189 1274 1907
155 1005 2228
150 753 2663
180 737 2872
201 771 3008
211 784 3061
217 792 3094
223 800 3127
228 808 3159
247 1653 669
250 1659 704
254 1664 741
256 1667 778
263 1679 872
294 1735 1242
311 1758 1541
314 1744 1779
318 1712 2006
317 1646 2235
295 1507 2449
264 1317 2654
254 1169 2862
234 1045 2903
236 1039 2933
240 1042 2965
243 1043 2995
359 1960 804
363 1967 838
366 1973 872
368 1977 906
370 1980 937
393 2020 1212
423 2068 1596
431 2070 1858
432 2048 2090
440 2021 2324
445 1975 2544
444 1923 2718
442 1881 2835
438 1852 2894
436 1838 2921
438 1835 2950
438 1828 2976
482 2271 960
485 2278 993
489 2285 1028
491 2290 1063
493 2294 1096
501 2306 1200
542 2369 1637
560 2388 1933
567 2385 2181
572 2367 2415
580 2342 2638
582 2311 2812
584 2288 2930
586 2278 3002
587 2273 3033
590 2274 3063
591 2272 3091
605 2576 1108
608 2583 1142
611 2589 1175
614 2594 1208
616 2598 1241
617 2597 1272
649 2652 1638
679 2694 2005
696 2709 2268
706 2708 2510
711 2693 2733
717 2678 2911
718 2665 3030
719 2657 3105
719 2654 3148
720 2655 3178
721 2653 3205
687 2790 1198
689 2796 1228
693 2802 1258
695 2808 1289
698 2815 1321
702 2820 1355
727 2864 1618
768 2934 2047
791 2968 2332
806 2982 2583
812 2977 2811
813 2962 2983
814 2951 3101
816 2948 3180
817 2947 3229
818 2948 3264
819 2947 3294
709 2846 1223
711 2853 1253
714 2859 1283
717 2865 1313
720 2872 1344
724 2879 1377
740 2911 1534
796 3016 2038
828 3079 2348
856 3131 2617
872 3157 2856
875 3152 3033
873 3139 3147
875 3133 3223
877 3133 3273
880 3136 3310
881 3137 3348
724 2884 1240
726 2891 1270
728 2898 1300
732 2904 1329
734 2911 1361
737 2917 1393
751 2945 1527
808 3051 2028
841 3117 2348
869 3172 2621
892 3218 2869
906 3247 3057
912 3256 3180
914 3252 3254
916 3251 3303
919 3253 3340
921 3253 3380
737 2923 1256
741 2930 1287
743 2937 1317
746 2943 1346
749 2950 1377
752 2956 1408
764 2983 1536
820 3088 2029
853 3155 2355
881 3209 2629
904 3255 2877
920 3285 3067
929 3302 3192
936 3311 3271
941 3315 3320
943 3318 3357
948 3321 3398
751 2961 1271
754 2968 1303
758 2976 1333
760 2982 1363
763 2989 1393
766 2996 1423
778 3022 1548
832 3127 2037
867 3194 2365
893 3247 2638
917 3293 2888
933 3323 3078
944 3340 3203
951 3350 3282
956 3354 3331
959 3356 3367
963 3359 3407
765 2998 1286
768 3006 1318
772 3014 1348
775 3021 1380
777 3028 1409
781 3035 1440
792 3060 1558
844 3165 2042
878 3231 2373
905 3282 2646
928 3327 2894
945 3357 3085
956 3373 3210
966 3385 3290
971 3389 3339
974 3392 3375
977 3394 3414
114 0 0
37 0 88
33 0 325
34 44 563
11 112 803
6 174 1066
15 242 1377
71 291 1692
125 323 2036
172 370 2380
216 433 2688
255 486 2906
281 519 3038
292 532 3085
299 540 3118
306 548 3150
313 557 3183
48 67 0
13 60 123
12 82 329
11 103 555
8 157 795
5 225 1064
24 296 1378
85 343 1694
136 372 2038
176 415 2381
215 474 2688
251 525 2904
276 556 3037
286 568 3083
292 577 3115
298 585 3147
304 593 3180
10 249 46
9 254 187
8 266 371
7 278 578
5 251 799
5 273 1067
30 340 1383
93 386 1700
141 418 2042
176 461 2384
211 514 2685
243 564 2900
265 594 3032
273 605 3077
280 614 3109
285 622 3142
290 631 3174
5 478 155
5 493 256
5 511 423
5 523 620
5 513 835
5 388 1078
37 385 1386
99 429 1705
144 464 2046
174 506 2385
205 556 2683
232 604 2896
252 635 3027
260 646 3073
267 654 3105
271 663 3137
277 673 3169
5 742 285
5 752 343
5 775 485
5 800 672
5 807 872
11 761 1131
36 541 1400
98 475 1707
139 510 2046
167 549 2384
196 598 2679
222 649 2891
241 679 3023
248 691 3069
253 699 3101
259 707 3133
265 716 3165
44 1027 409
49 1037 455
55 1046 514
74 1079 697
95 1114 925
102 1111 1153
103 1056 1390
93 854 1639
122 594 2046
157 594 2379
187 640 2674
214 691 2885
232 723 3018
239 736 3067
245 745 3099
250 753 3131
256 762 3164
156 1345 540
160 1352 581
164 1358 621
169 1367 683
192 1407 935
214 1442 1221
222 1437 1476
224 1395 1704
205 1273 1912
177 1001 2232
179 751 2669
209 737 2878
228 770 3015
237 784 3069
244 791 3101
249 799 3134
255 807 3166
262 1652 666
266 1658 702
269 1664 739
272 1668 776
279 1680 872
309 1736 1244
326 1759 1544
329 1745 1783
334 1712 2010
332 1646 2239
310 1504 2453
274 1318 2616
273 1167 2868
253 1043 2909
255 1038 2939
259 1040 2970
262 1041 3001
373 1959 798
378 1966 833
381 1972 867
383 1977 900
385 1979 932
407 2020 1210
438 2068 1597
446 2070 1861
446 2049 2094
455 2021 2329
459 1975 2548
458 1923 2723
456 1881 2841
452 1852 2900
451 1838 2927
452 1835 2955
452 1828 2983
495 2270 953
500 2279 988
504 2285 1022
506 2291 1057
508 2295 1090
516 2308 1196
557 2371 1637
575 2391 1936
583 2388 2185
587 2370 2420
595 2344 2644
598 2313 2818
599 2291 2936
602 2281 3009
602 2275 3041
605 2277 3070
606 2275 3098
620 2578 1105
624 2586 1139
627 2593 1172
629 2598 1206
632 2602 1239
632 2602 1269
665 2657 1640
695 2701 2010
713 2717 2274
724 2716 2517
728 2700 2741
733 2683 2919
734 2670 3038
734 2661 3113
735 2659 3156
735 2659 3186
736 2658 3213
702 2794 1197
706 2803 1229
708 2809 1260
711 2815 1290
715 2821 1322
717 2827 1355
743 2871 1620
785 2944 2052
809 2979 2339
824 2993 2593
830 2988 2820
830 2971 2993
831 2959 3112
832 2955 3189
833 2954 3238
834 2954 3273
834 2953 3303
724 2851 1223
728 2860 1255
730 2866 1285
732 2872 1314
736 2879 1346
740 2886 1378
756 2919 1536
812 3025 2044
845 3089 2355
873 3142 2625
889 3167 2865
892 3162 3042
890 3147 3157
892 3142 3233
894 3142 3283
896 3143 3319
897 3144 3357
738 2890 1240
742 2898 1272
745 2905 1302
747 2911 1331
750 2918 1363
754 2925 1394
767 2953 1529
824 3061 2033
857 3127 2355
886 3182 2629
908 3227 2877
923 3255 3066
929 3264 3188
931 3260 3263
933 3259 3312
936 3261 3350
938 3261 3389
753 2928 1256
756 2937 1289
759 2944 1319
762 2950 1349
765 2957 1379
768 2964 1410
781 2991 1538
836 3098 2034
870 3165 2361
897 3219 2636
920 3264 2885
936 3294 3075
946 3310 3201
953 3319 3279
957 3323 3329
961 3325 3365
964 3329 3406
766 2966 1273
770 2976 1305
773 2983 1335
776 2990 1365
779 2997 1395
782 3004 1426
794 3030 1549
848 3136 2041
883 3203 2371
910 3257 2646
933 3302 2895
949 3332 3086
961 3347 3211
969 3357 3290
973 3361 3339
977 3364 3375
980 3366 3415
779 3004 1288
784 3014 1320
787 3021 1351
790 3029 1382
794 3036 1411
796 3043 1442
808 3069 1560
860 3173 2046
894 3239 2378
921 3291 2652
944 3335 2901
962 3364 3092
973 3380 3218
984 3391 3297
988 3396 3347
993 3399 3383
995 3401 3423
427 0 0
414 0 35
330 0 326
263 86 582
188 161 801
124 207 1085
66 239 1390
105 284 1700
156 321 2041
201 368 2384
247 431 2692
286 486 2912
313 519 3045
323 532 3092
330 540 3124
337 548 3157
344 557 3189
360 101 0
300 89 125
216 106 359
191 143 573
140 198 793
93 245 1078
69 292 1390
117 337 1703
166 369 2044
206 413 2386
246 472 2692
282 524 2910
307 556 3043
317 568 3089
322 577 3122
329 585 3154
336 593 3186
174 276 81
127 275 215
101 288 391
108 303 580
75 285 786
57 291 1069
74 346 1390
130 389 1706
176 416 2046
212 460 2387
246 513 2692
278 563 2909
301 594 3041
310 605 3087
316 613 3120
321 622 3152
327 630 3184
32 487 198
28 507 290
25 529 448
26 542 627
21 533 818
41 394 1086
81 390 1393
136 432 1710
179 463 2049
210 504 2388
240 555 2689
268 604 2904
288 634 3037
297 645 3083
303 653 3115
308 662 3146
313 671 3179
11 743 295
11 754 351
11 778 491
13 802 672
20 809 867
25 765 1097
72 546 1383
138 476 1713
179 509 2050
204 548 2387
231 596 2686
256 648 2899
274 678 3032
281 689 3079
288 697 3111
293 706 3142
298 714 3174
64 1025 403
69 1034 451
75 1045 512
94 1079 699
114 1113 926
121 1110 1156
122 1056 1391
120 853 1644
165 591 2051
197 592 2384
223 637 2680
247 690 2893
263 722 3027
270 734 3075
275 742 3107
280 750 3139
286 759 3171
172 1344 535
176 1351 576
180 1357 618
186 1366 682
209 1407 937
231 1442 1224
238 1437 1480
240 1395 1709
222 1272 1917
190 1008 2182
194 769 2549
241 736 2886
259 768 3023
268 781 3077
274 788 3110
279 796 3142
283 804 3173
278 1652 663
281 1658 699
284 1665 737
287 1669 774
294 1681 871
325 1736 1245
341 1760 1546
345 1746 1787
350 1713 2015
347 1645 2243
324 1501 2457
288 1314 2618
273 1170 2776
273 1040 2915
275 1035 2945
279 1037 2976
282 1038 3007
387 1956 793
391 1964 828
395 1971 862
398 1976 895
399 1978 927
422 2020 1208
452 2069 1598
461 2071 1863
461 2050 2098
470 2022 2333
474 1975 2553
472 1923 2728
470 1880 2847
466 1851 2906
465 1837 2933
466 1834 2961
467 1828 2989
509 2268 947
514 2278 982
518 2286 1016
521 2292 1050
523 2295 1083
531 2308 1191
571 2372 1636
590 2393 1937
598 2390 2188
603 2372 2425
610 2345 2649
613 2315 2824
615 2293 2943
617 2283 3016
618 2278 3047
620 2279 3077
621 2277 3105
634 2580 1102
638 2588 1135
642 2596 1168
644 2601 1202
647 2606 1235
648 2606 1266
681 2662 1641
712 2707 2014
730 2724 2280
741 2724 2525
745 2706 2749
749 2689 2926
750 2675 3045
750 2666 3120
750 2663 3163
751 2663 3193
751 2662 3221
717 2798 1197
721 2806 1229
724 2815 1260
727 2821 1291
730 2828 1323
733 2833 1355
759 2879 1622
802 2953 2058
826 2989 2347
842 3004 2601
847 2998 2830
847 2980 3002
847 2967 3121
848 2963 3199
849 2961 3247
849 2960 3282
849 2959 3311
739 2856 1223
743 2865 1255
746 2872 1286
748 2879 1316
752 2886 1347
755 2893 1380
772 2926 1537
829 3035 2049
862 3099 2361
889 3152 2633
905 3177 2874
908 3171 3052
907 3156 3167
909 3151 3243
912 3150 3293
913 3150 3329
915 3151 3367
753 2894 1240
757 2903 1272
761 2912 1303
763 2918 1334
767 2925 1364
769 2932 1396
783 2960 1530
840 3070 2038
874 3137 2362
902 3193 2637
924 3237 2886
939 3264 3075
946 3272 3198
947 3268 3272
950 3267 3321
953 3268 3358
955 3269 3398
768 2933 1257
771 2942 1289
775 2951 1320
778 2957 1350
781 2965 1381
784 2972 1412
796 2999 1539
852 3107 2039
886 3174 2367
914 3229 2644
937 3274 2893
953 3302 3083
962 3317 3209
970 3326 3288
974 3330 3337
978 3333 3374
982 3336 3415
780 2972 1274
785 2982 1305
789 2990 1338
792 2997 1367
795 3004 1397
798 3012 1428
810 3039 1551
864 3145 2046
899 3213 2377
926 3267 2653
949 3312 2904
966 3340 3094
977 3355 3219
986 3365 3298
990 3368 3348
994 3371 3384
998 3373 3424
794 3010 1289
799 3019 1320
802 3029 1353
806 3036 1384
809 3044 1414
812 3051 1444
824 3078 1562
876 3182 2051
910 3249 2384
937 3300 2659
960 3343 2908
978 3371 3099
990 3387 3225
1001 3398 3305
1006 3402 3355
1011 3405 3391
1014 3408 3430
681 10 0
684 0 51
686 0 238
602 91 583
523 170 813
386 250 1064
254 288 1334
145 295 1656
185 318 2048
229 366 2389
276 430 2695
316 485 2917
344 518 3051
354 531 3097
361 539 3130
369 548 3163
375 556 3195
690 125 0
673 92 79
660 66 246
571 137 579
475 217 812
351 298 1063
222 326 1325
148 349 1655
195 365 2049
235 411 2390
276 470 2695
313 524 2915
338 555 3049
349 567 3095
355 575 3128
361 583 3160
