滤镜资源/Professional Luts Collection/Triune-Digital-Cinematic-LUTs/3D LUTs (3DL)/ALEXA/Prometheus - Alexa.3dl
# Created by Benjamin (IWLTBAP) : http://luts.iwltbap.com
# Copyright: (C) Copyright 2016 Triune Films and IWLTBAP
# Blockbuster LUTs Pack
0 128 256 384 512 640 768 896 1023
0 0 0
0 0 320
0 93 783
0 246 1367
94 327 2031
186 434 2685
251 519 3032
268 540 3111
281 557 3176
0 249 58
0 261 370
0 245 796
0 335 1376
105 419 2039
176 515 2679
228 595 3022
243 615 3099
254 632 3164
0 729 256
0 763 468
0 797 891
0 541 1392
94 512 2041
160 600 2673
209 681 3015
223 702 3093
234 720 3158
139 1345 543
147 1358 623
176 1406 934
204 1436 1472
189 1274 1907
150 753 2663
201 771 3008
217 792 3094
228 808 3159
359 1960 804
366 1973 872
370 1980 937
423 2068 1596
432 2048 2090
445 1975 2544
442 1881 2835
436 1838 2921
438 1828 2976
605 2576 1108
611 2589 1175
616 2598 1241
649 2652 1638
696 2709 2268
711 2693 2733
718 2665 3030
719 2654 3148
721 2653 3205
709 2846 1223
714 2859 1283
720 2872 1344
740 2911 1534
828 3079 2348
872 3157 2856
873 3139 3147
877 3133 3273
881 3137 3348
737 2923 1256
743 2937 1317
749 2950 1377
764 2983 1536
853 3155 2355
904 3255 2877
929 3302 3192
941 3315 3320
948 3321 3398
765 2998 1286
772 3014 1348
777 3028 1409
792 3060 1558
878 3231 2373
928 3327 2894
956 3373 3210
971 3389 3339
977 3394 3414
427 0 0
330 0 326
188 161 801
66 239 1390
156 321 2041
247 431 2692
313 519 3045
330 540 3124
344 557 3189
174 276 81
101 288 391
75 285 786
74 346 1390
176 416 2046
246 513 2692
301 594 3041
316 613 3120
327 630 3184
11 743 295
11 778 491
20 809 867
72 546 1383
179 509 2050
231 596 2686
274 678 3032
288 697 3111
298 714 3174
172 1344 535
180 1357 618
209 1407 937
238 1437 1480
222 1272 1917
194 769 2549
259 768 3023
274 788 3110
283 804 3173
387 1956 793
395 1971 862
399 1978 927
452 2069 1598
461 2050 2098
474 1975 2553
470 1880 2847
465 1837 2933
467 1828 2989
634 2580 1102
642 2596 1168
647 2606 1235
681 2662 1641
730 2724 2280
745 2706 2749
750 2675 3045
750 2663 3163
751 2662 3221
739 2856 1223
746 2872 1286
752 2886 1347
772 2926 1537
862 3099 2361
905 3177 2874
907 3156 3167
912 3150 3293
915 3151 3367
768 2933 1257
775 2951 1320
781 2965 1381
796 2999 1539
886 3174 2367
937 3274 2893
962 3317 3209
974 3330 3337
982 3336 3415
794 3010 1289
802 3029 1353
809 3044 1414
824 3078 1562
910 3249 2384
960 3343 2908
990 3387 3225
1006 3402 3355
1014 3408 3430
968 91 17
974 52 227
934 171 805
655 308 1359
307 357 1864
306 429 2698
375 517 3055
393 538 3135
407 554 3200
990 342 63
953 260 251
871 272 803
584 402 1366
269 456 1812
267 534 2535
367 590 3052
383 610 3131
395 626 3196
747 759 234
684 779 447
525 804 898
425 562 1360
190 559 1802
212 645 2394
345 672 3044
359 690 3123
370 706 3187
214 1338 523
221 1353 607
247 1407 941
271 1437 1488
254 1269 1926
189 798 2351
227 793 2720
255 808 2859
265 824 2922
414 1952 782
423 1968 853
428 1978 918
481 2069 1600
491 2051 2106
503 1975 2561
499 1879 2858
492 1834 2944
494 1825 3000
661 2581 1092
670 2598 1159
677 2611 1226
713 2672 1644
765 2738 2292
779 2718 2763
782 2684 3060
781 2672 3179
782 2670 3237
769 2864 1221
777 2882 1285
784 2899 1349
804 2940 1540
896 3121 2376
939 3199 2893
941 3174 3187
946 3167 3313
947 3165 3386
798 2943 1258
805 2961 1322
813 2979 1385
829 3015 1542
919 3195 2381
970 3294 2911
996 3334 3227
1008 3345 3355
1017 3351 3433
825 3021 1291
833 3041 1355
841 3059 1418
856 3094 1566
943 3268 2396
992 3362 2925
1024 3402 3241
1040 3417 3372
1050 3422 3447
1687 324 248
1638 297 349
1664 270 583
1606 362 1300
1384 348 1934
1073 403 2488
948 497 2793
903 517 2859
888 531 2917
1665 437 212
1635 376 358
1658 316 590
1589 418 1314
1363 428 1966
1050 506 2505
910 579 2793
862 591 2857
847 603 2915
1717 886 303
1713 870 444
1655 796 733
1566 553 1347
1316 527 1992
1004 605 2510
851 650 2787
802 665 2850
788 679 2907
1579 1499 557
1546 1494 624
1430 1509 968
1157 1510 1617
973 1273 2064
805 735 2462
629 737 2744
596 754 2816
588 769 2874
671 1940 726
665 1952 796
658 1961 865
658 2063 1590
609 2047 2122
554 1968 2572
530 1869 2867
516 1824 2951
517 1813 3007
686 2576 1080
696 2596 1148
704 2611 1214
742 2677 1646
796 2746 2300
810 2724 2775
811 2688 3072
810 2674 3190
811 2672 3248
795 2866 1214
805 2888 1282
812 2906 1345
834 2952 1542
927 3135 2385
971 3212 2907
975 3186 3204
979 3178 3330
981 3176 3400
824 2946 1252
834 2968 1319
841 2987 1382
858 3027 1544
949 3207 2388
1003 3308 2924
1032 3347 3242
1045 3358 3370
1055 3363 3449
851 3026 1288
861 3048 1354
869 3067 1417
886 3106 1567
972 3279 2403
1026 3374 2937
1062 3416 3257
1081 3431 3388
1091 3436 3463
2309 562 453
2303 523 546
2318 501 707
2340 518 1157
2242 527 1808
2080 509 2462
1926 506 2819
1883 505 2891
1858 507 2950
2302 597 441
2292 560 542
2312 541 713
2331 559 1166
2221 569 1824
2057 561 2485
1891 562 2838
1849 562 2908
1827 565 2966
2368 965 457
2357 897 561
2324 810 756
2321 608 1173
2196 620 1842
2027 623 2510
1849 619 2856
1809 620 2925
1790 626 2982
2425 1574 601
2423 1577 657
2409 1604 971
2344 1554 1447
2151 1261 2074
1938 703 2541
1751 674 2868
1716 683 2941
1699 692 2995
2280 2173 882
2269 2178 939
2256 2180 997
2106 2223 1643
1845 2233 2310
1555 2030 2781
1440 1821 3030
1423 1754 3108
1420 1738 3165
1482 2620 991
1462 2626 1048
1441 2628 1101
1362 2680 1492
1366 2796 2286
1371 2816 2883
1304 2756 3181
1290 2745 3305
1296 2752 3369
1120 2844 1139
1126 2866 1201
1130 2886 1264
1141 2956 1478
1221 3187 2387
1249 3279 2973
1200 3246 3274
1178 3227 3393
1171 3218 3456
1080 2929 1187
1088 2954 1253
1095 2978 1319
1106 3037 1489
1179 3250 2395
1161 3351 2968
1178 3393 3292
1192 3401 3421
1201 3403 3499
1089 3018 1236
1098 3043 1303
1105 3066 1368
1115 3122 1531
1177 3315 2412
1163 3411 2976
1210 3463 3308
1231 3479 3441
1241 3484 3517
2991 810 679
2995 798 759
3020 791 898
3025 791 1213
3019 777 1748
2855 703 2388
2753 669 2763
2735 668 2838
2724 671 2905
2979 838 666
2977 826 751
3006 824 900
3013 825 1220
3005 811 1759
2839 737 2405
2738 706 2776
2720 708 2852
2711 713 2919
2975 948 635
2966 916 729
2986 885 894
3000 859 1222
2991 847 1768
2819 777 2419
2720 753 2791
2704 757 2870
2696 764 2936
3117 1657 698
3131 1651 752
3155 1627 955
3070 1511 1306
2952 1221 1842
2773 818 2426
2679 803 2805
2663 810 2892
2658 819 2959
3185 2254 872
3191 2261 918
3195 2263 968
3241 2334 1536
3135 2283 2124
2871 2049 2862
2718 1768 3166
2672 1673 3234
2656 1641 3288
3086 2887 1139
3081 2902 1203
3074 2913 1263
3044 2988 1694
2979 3081 2410
2782 3124 3153
2696 3060 3519
2750 3066 3657
2809 3096 3726
2854 3169 1220
2844 3184 1284
2834 3199 1344
2811 3252 1568
2681 3426 2440
2472 3528 3177
2560 3555 3594
2593 3556 3737
2619 3562 3813
2752 3221 1223
2741 3236 1286
2731 3250 1345
2705 3285 1502
2609 3499 2469
2503 3658 3232
2655 3743 3653
2682 3747 3787
2682 3747 3863
2717 3285 1240
2708 3301 1304
2701 3317 1369
2685 3360 1551
2645 3591 2534
2603 3751 3292
2750 3825 3685
2769 3837 3814
2742 3839 3884
3156 875 746
3160 864 819
3186 860 945
3200 861 1247
3195 839 1744
3074 768 2376
2983 731 2770
2969 727 2842
2958 723 2904
3147 902 737
3147 893 813
3173 891 947
3191 894 1253
3186 873 1754
3059 800 2396
2969 764 2781
2955 760 2853
2945 757 2915
3139 948 712
3135 935 794
3160 925 941
3183 929 1257
3178 908 1763
3046 837 2413
2956 804 2793
2943 801 2866
2934 800 2927
3299 1659 735
3318 1648 810
3333 1613 992
3260 1504 1324
3172 1213 1812
3038 884 2421
2948 852 2803
2935 850 2882
2928 851 2944
3479 2318 918
3487 2324 960
3496 2327 1017
3566 2356 1498
3463 2269 2075
3225 1957 2774
3100 1757 3106
3078 1679 3180
3080 1667 3245
3624 2951 1168
3626 2968 1229
3625 2982 1293
3610 3097 1796
3640 3229 2512
3617 3221 3164
3519 3153 3598
3507 3144 3715
3513 3160 3778
3604 3302 1352
3593 3328 1437
3586 3352 1518
3589 3447 1839
3630 3652 2678
3514 3695 3292
3552 3735 3732
3553 3723 3870
3561 3726 3939
3569 3392 1418
3557 3418 1505
3555 3442 1586
3560 3503 1787
3615 3732 2712
3477 3798 3310
3549 3893 3752
3574 3897 3902
3586 3900 3979
3553 3486 1496
3549 3512 1581
3552 3536 1660
3566 3594 1856
3621 3811 2769
3489 3871 3344
3572 3960 3772
3601 3981 3925
3604 3988 3999
3232 903 773
3237 895 844
3265 891 965
3280 892 1262
3268 865 1743
3153 796 2368
3063 757 2775
3048 751 2846
3037 748 2908
3224 932 764
3224 923 838
3251 920 965
3271 924 1268
3259 897 1753
3138 827 2389
3048 790 2786
3034 784 2857
3024 781 2919
3217 972 742
3214 959 820
3238 951 959
3264 958 1272
3252 932 1760
3127 863 2406
3036 829 2798
3023 824 2869
3014 822 2932
3375 1664 754
3392 1650 836
3403 1613 1011
3340 1511 1337
3252 1222 1810
3122 908 2414
3029 876 2809
3015 872 2885
3008 871 2947
3557 2338 935
3565 2344 976
3575 2348 1036
3643 2372 1511
3539 2281 2087
3333 1994 2775
3194 1789 3121
3164 1700 3185
3161 1683 3247
3696 2974 1195
3695 2991 1260
3692 3007 1327
3683 3134 1851
3721 3264 2548
3705 3232 3163
3621 3157 3606
3618 3160 3729
3623 3178 3792
3698 3335 1413
3687 3361 1501
3685 3386 1582
3705 3486 1911
3761 3683 2731
3729 3729 3332
3776 3761 3751
3771 3749 3894
3776 3750 3963
3687 3426 1489
3683 3452 1575
3687 3477 1654
3706 3539 1855
3771 3756 2758
3746 3850 3369
3798 3932 3790
3823 3940 3946
3819 3940 4019
3690 3523 1576
3693 3550 1658
3701 3574 1735
3722 3631 1926
3783 3831 2815
3752 3921 3402
3814 4000 3807
3849 4029 3967
3849 4035 4045
3305 932 793
3311 925 865
3339 920 982
3356 921 1276
3336 890 1744
3228 824 2358
3139 784 2780
3123 778 2852
3111 773 2912
3297 960 785
3300 952 859
3326 949 982
3348 953 1282
3329 923 1753
3214 855 2379
3125 816 2791
3111 810 2862
3099 806 2924
3293 1000 765
3291 987 842
3312 977 974
3343 988 1286
3323 958 1760
3205 890 2396
3115 855 2804
3101 850 2875
3090 846 2937
3452 1679 775
3468 1663 860
3481 1628 1035
3426 1531 1352
3333 1245 1814
3203 935 2403
3111 903 2815
3097 897 2892
3086 894 2952
3635 2364 954
3643 2370 996
3654 2374 1058
3719 2399 1536
3618 2306 2111
3445 2055 2790
3298 1847 3149
3261 1751 3208
3250 1724 3261
3764 3003 1229
3759 3023 1300
3755 3039 1371
3754 3182 1919
3799 3302 2589
3781 3251 3171
3704 3179 3623
3700 3191 3749
3703 3202 3806
3749 3360 1469
3744 3387 1554
3748 3411 1634
3775 3513 1966
3830 3702 2772
3814 3745 3348
3855 3767 3750
3855 3758 3902
3855 3758 3970
3745 3451 1542
3747 3478 1626
3755 3503 1703
3776 3565 1903
3839 3773 2794
3834 3863 3389
3904 3948 3807
3929 3958 3960
3921 3952 4029
3753 3541 1613
3760 3567 1694
3770 3591 1767
3789 3647 1954
3845 3839 2832
3848 3933 3422
3923 4015 3825
3954 4043 3981
3962 4055 4062
