滤镜资源/Professional Luts Collection/Triune-Digital-Cinematic-LUTs/3D LUTs (3DL)/ALEXA/Saving Private Ryan - Alexa.3dl
# Created by Benjamin (IWLTBAP) : http://luts.iwltbap.com
# Copyright: (C) Copyright 2016 Triune Films and IWLTBAP
# Blockbuster LUTs Pack
0 256 512 768 1023
5 16 15
23 25 437
98 101 1589
211 205 2502
231 221 2649
111 616 135
93 535 551
105 209 1614
219 304 2531
239 320 2680
489 2059 502
469 2031 591
413 1910 1933
395 1578 2770
391 1492 2922
813 3166 853
796 3145 938
691 3059 2036
687 3004 2970
692 2982 3196
868 3345 910
852 3327 996
735 3222 2036
749 3253 3019
752 3256 3252
443 42 37
457 54 484
274 99 1566
297 197 2485
319 214 2633
455 615 128
454 574 588
218 216 1616
315 312 2541
336 328 2690
584 2079 515
580 2068 615
497 1925 1944
480 1591 2780
476 1504 2932
906 3179 866
901 3178 968
782 3081 2045
774 3022 2983
779 3001 3209
961 3357 923
956 3357 1026
828 3245 2044
837 3272 3031
840 3276 3264
1949 280 323
1972 281 684
1845 266 1695
1825 324 2592
1809 332 2729
2129 718 367
2130 642 762
1882 369 1719
1831 426 2625
1803 431 2759
2232 2258 672
2240 2266 784
2123 2234 2171
1824 1813 2929
1767 1696 3065
1754 3286 941
1753 3294 1055
1479 3246 2143
1116 3116 3064
1064 3073 3272
1610 3437 980
1601 3440 1092
1312 3363 2110
1059 3336 3077
1054 3335 3309
2870 442 570
2937 455 854
2813 437 1812
2761 432 2638
2757 435 2782
2962 578 579
2989 557 863
2875 543 1844
2814 536 2675
2806 540 2825
3411 2322 804
3415 2338 945
3432 2350 2312
3120 1843 3006
3054 1692 3137
3538 3387 1061
3538 3402 1173
3547 3543 2430
3499 3554 3411
3488 3547 3619
3530 3554 1104
3528 3568 1216
3539 3692 2431
3510 3803 3438
3491 3818 3660
3032 470 609
3097 483 882
2985 468 1828
2926 459 2648
2903 456 2783
3103 590 613
3141 580 890
3052 574 1854
2985 564 2686
2955 559 2822
3584 2329 820
3589 2347 969
3616 2340 2313
3300 1846 3016
3217 1681 3138
3734 3398 1078
3735 3416 1193
3760 3572 2461
3758 3580 3441
3744 3561 3629
3740 3562 1120
3738 3577 1233
3781 3710 2449
3798 3821 3461
3810 3852 3687
