滤镜资源/Professional Luts Collection/Triune-Digital-Cinematic-LUTs/3D LUTs (3DL)/ALEXA/Saving Private Ryan - Alexa.3dl
# Created by Benjamin (IWLTBAP) : http://luts.iwltbap.com
# Copyright: (C) Copyright 2016 Triune Films and IWLTBAP
# Blockbuster LUTs Pack
0 64 128 192 256 320 384 448 512 576 640 704 768 832 896 960 1023
5 16 15
6 12 81
8 10 162
13 14 264
23 25 437
39 43 674
55 62 963
61 72 1273
98 101 1589
130 134 1880
168 166 2156
194 189 2367
211 205 2502
217 210 2549
221 213 2582
226 217 2615
231 221 2649
19 124 33
14 95 92
14 71 169
16 48 270
26 52 442
42 69 680
57 88 970
64 99 1280
99 128 1596
131 160 1886
170 192 2163
197 215 2373
213 230 2509
219 235 2556
223 238 2589
228 242 2623
233 246 2657
37 255 55
32 227 108
26 190 187
27 153 298
32 106 456
45 96 685
60 115 976
66 126 1286
101 155 1602
132 185 1892
172 217 2170
199 239 2381
215 254 2516
221 259 2564
225 263 2597
230 267 2631
235 270 2665
66 416 89
61 395 130
53 363 208
50 335 340
52 282 501
53 167 701
62 142 982
69 153 1292
103 181 1609
133 211 1897
174 242 2177
201 264 2388
217 279 2523
223 284 2571
227 288 2605
232 292 2639
237 295 2672
111 616 135
106 604 158
98 578 226
95 562 366
93 535 551
91 454 769
73 245 1007
71 180 1296
105 209 1614
134 236 1903
176 267 2184
202 290 2395
219 304 2531
225 309 2580
229 313 2613
234 316 2647
239 320 2680
174 892 194
170 886 218
165 873 245
159 860 374
158 848 580
156 815 832
142 712 1103
116 491 1361
109 269 1622
135 261 1906
177 293 2189
205 315 2400
221 329 2537
227 335 2588
232 338 2622
236 342 2655
240 345 2688
261 1255 277
257 1251 301
254 1246 326
249 1239 366
239 1227 573
235 1209 875
232 1167 1190
227 1081 1484
212 904 1753
182 603 1980
181 365 2200
206 341 2402
223 355 2541
230 360 2597
234 364 2630
239 367 2664
243 371 2697
373 1654 385
369 1651 409
364 1647 433
360 1641 457
349 1629 525
329 1605 876
326 1586 1246
324 1543 1569
321 1465 1861
311 1338 2129
292 1135 2357
271 892 2513
260 723 2616
252 589 2649
255 579 2679
258 579 2711
262 576 2742
489 2059 502
484 2053 524
480 2046 546
475 2040 569
469 2031 591
436 1997 819
419 1981 1264
418 1960 1628
413 1910 1933
408 1835 2212
405 1743 2463
400 1650 2649
395 1578 2770
391 1532 2832
390 1510 2860
391 1503 2892
391 1492 2922
601 2460 629
597 2454 649
592 2447 670
587 2440 690
582 2429 709
564 2400 782
519 2362 1240
511 2351 1660
506 2318 1991
499 2264 2278
498 2201 2534
497 2141 2723
495 2096 2850
494 2069 2927
494 2058 2961
496 2055 2992
496 2049 3024
713 2836 749
708 2829 770
703 2823 790
698 2815 811
693 2806 831
686 2792 850
630 2721 1175
600 2702 1661
596 2680 2028
589 2638 2326
580 2585 2580
580 2542 2772
581 2513 2903
582 2497 2986
582 2488 3034
583 2485 3067
584 2481 3098
793 3100 833
789 3095 854
784 3089 875
780 3084 896
775 3077 917
770 3069 938
724 3001 1134
673 2959 1642
663 2948 2043
659 2920 2360
650 2874 2619
643 2834 2810
643 2811 2938
645 2799 3024
647 2795 3080
649 2794 3121
650 2790 3156
813 3166 853
809 3161 875
805 3156 896
800 3151 917
796 3145 938
792 3140 960
768 3104 1067
702 3050 1607
691 3059 2036
696 3070 2368
697 3058 2642
691 3028 2841
687 3004 2970
687 2991 3055
688 2987 3110
690 2985 3152
692 2982 3196
827 3211 867
823 3206 889
819 3202 910
815 3196 931
810 3191 952
806 3185 974
786 3157 1068
715 3091 1583
702 3100 2027
707 3112 2365
712 3120 2647
716 3126 2855
717 3123 2993
715 3112 3078
715 3107 3133
716 3105 3175
718 3102 3220
841 3256 881
837 3252 903
833 3247 924
829 3242 945
824 3236 967
820 3231 988
801 3206 1082
728 3132 1577
713 3140 2027
716 3151 2368
722 3161 2651
726 3167 2861
729 3171 3002
730 3173 3091
731 3173 3147
732 3173 3189
733 3173 3235
854 3300 896
850 3296 917
847 3292 939
842 3287 960
838 3282 981
834 3276 1002
816 3253 1096
742 3174 1581
724 3181 2032
726 3191 2374
732 3201 2658
737 3208 2870
739 3212 3011
740 3214 3101
741 3214 3157
741 3214 3198
743 3215 3244
868 3345 910
864 3341 931
860 3336 953
856 3332 974
852 3327 996
848 3321 1017
831 3299 1109
755 3216 1582
735 3222 2036
737 3231 2379
742 3241 2664
747 3249 2878
749 3253 3019
751 3255 3110
751 3256 3166
752 3256 3207
752 3256 3252
71 13 12
72 15 86
71 13 167
69 17 271
66 28 440
63 44 675
76 63 963
82 73 1271
119 100 1585
154 133 1878
190 164 2152
215 187 2362
231 203 2498
238 208 2545
243 212 2578
247 215 2611
252 219 2644
71 111 25
66 94 95
63 71 173
59 49 275
57 54 446
63 71 682
79 90 973
85 101 1284
123 130 1597
157 162 1889
194 193 2166
219 216 2376
235 231 2511
242 236 2559
247 240 2592
252 243 2625
257 247 2659
74 247 50
68 226 110
59 190 189
54 153 301
53 106 458
66 97 687
81 116 980
88 129 1290
124 157 1603
158 188 1895
196 219 2173
221 241 2383
238 256 2519
244 261 2566
249 265 2600
254 269 2633
259 272 2667
87 413 87
82 396 132
73 362 209
70 335 342
73 283 503
73 168 704
83 143 986
90 155 1296
126 183 1610
159 213 1901
198 244 2180
223 266 2390
240 281 2526
246 286 2574
251 290 2608
256 294 2642
261 297 2675
130 613 132
128 606 160
119 579 228
116 564 369
114 537 554
112 456 771
94 246 1011
93 182 1299
128 210 1616
159 239 1906
199 269 2187
225 291 2397
242 306 2533
249 311 2583
253 315 2616
258 319 2650
262 322 2683
194 889 190
194 887 217
190 877 247
182 864 377
179 850 582
177 817 834
164 715 1105
138 491 1363
131 267 1623
160 264 1910
201 295 2192
227 317 2403
244 331 2540
251 337 2591
256 340 2624
260 344 2658
264 347 2691
283 1258 278
283 1258 306
280 1254 331
275 1246 370
262 1232 577
257 1212 877
253 1170 1193
248 1083 1485
233 906 1755
205 605 1983
205 367 2202
228 343 2405
246 356 2543
253 362 2599
258 365 2632
262 369 2666
266 372 2699
396 1657 387
396 1658 414
392 1655 438
387 1649 462
375 1636 530
351 1610 879
347 1590 1249
345 1547 1571
342 1469 1864
332 1342 2132
312 1138 2360
293 894 2515
282 725 2618
275 591 2651
278 581 2681
282 581 2713
285 579 2744
513 2064 506
512 2063 530
507 2056 552
502 2049 574
496 2040 596
461 2003 823
441 1987 1267
439 1964 1631
433 1914 1936
429 1839 2214
425 1746 2465
421 1654 2651
416 1582 2772
412 1535 2834
411 1514 2863
412 1506 2894
412 1495 2924
625 2465 632
624 2464 658
620 2458 678
615 2451 698
610 2441 718
591 2410 790
542 2367 1242
532 2356 1663
528 2322 1994
521 2268 2281
520 2205 2536
518 2145 2725
516 2100 2852
516 2073 2929
516 2062 2964
517 2059 2995
518 2053 3026
737 2840 752
735 2839 777
730 2832 798
725 2825 818
719 2816 838
712 2802 857
655 2728 1180
623 2706 1663
617 2685 2030
610 2643 2329
602 2589 2583
601 2546 2775
602 2517 2906
603 2501 2990
604 2492 3038
605 2489 3070
606 2485 3102
816 3104 836
815 3103 861
811 3098 882
806 3093 904
802 3086 925
796 3078 945
751 3009 1140
697 2965 1645
684 2952 2045
681 2925 2362
672 2879 2622
665 2839 2813
665 2816 2941
667 2803 3027
669 2799 3083
671 2798 3124
672 2795 3159
836 3169 857
835 3169 882
831 3164 903
827 3159 924
822 3154 946
818 3148 967
794 3114 1076
726 3056 1610
713 3065 2038
718 3075 2371
718 3062 2644
713 3033 2843
709 3008 2973
708 2996 3058
710 2991 3114
712 2990 3156
713 2987 3199
850 3214 871
849 3214 896
845 3210 917
841 3205 938
836 3199 960
832 3194 981
812 3168 1077
739 3096 1586
724 3105 2029
729 3117 2367
734 3125 2649
738 3130 2857
738 3127 2996
736 3116 3081
736 3111 3136
738 3110 3178
739 3107 3223
864 3259 885
863 3259 910
859 3254 932
855 3250 953
850 3245 974
846 3239 996
828 3215 1090
753 3138 1580
735 3145 2029
739 3157 2370
744 3166 2653
748 3172 2864
750 3175 3005
752 3177 3094
752 3178 3150
753 3178 3191
755 3178 3238
877 3303 899
876 3303 924
872 3299 946
868 3295 968
864 3290 989
860 3284 1010
842 3262 1104
766 3179 1584
747 3186 2034
749 3197 2376
754 3207 2660
758 3213 2872
761 3217 3014
762 3219 3103
763 3219 3159
763 3219 3201
765 3220 3247
891 3348 913
890 3348 938
886 3344 960
882 3340 982
878 3335 1003
874 3330 1025
857 3309 1117
780 3221 1585
758 3227 2038
759 3237 2381
765 3247 2666
769 3254 2880
771 3257 3022
773 3260 3113
773 3260 3169
773 3260 3210
774 3261 3255
155 13 11
155 14 75
157 18 172
155 22 282
152 32 450
135 47 679
103 64 963
103 73 1269
139 99 1579
177 132 1875
211 162 2148
235 185 2358
253 201 2493
260 206 2541
264 210 2574
269 213 2607
274 217 2640
155 98 18
151 87 83
150 72 178
146 53 286
141 58 454
124 74 685
103 91 973
106 102 1283
144 129 1593
181 162 1887
216 192 2162
240 214 2372
257 229 2507
264 235 2555
268 238 2588
273 242 2621
278 245 2654
156 225 35
152 214 100
145 190 195
139 156 310
129 110 466
111 100 690
102 118 983
109 130 1294
147 159 1604
183 190 1898
220 221 2176
244 243 2386
261 258 2521
268 263 2569
273 266 2602
278 270 2636
282 274 2669
156 395 70
151 387 125
141 363 213
131 337 348
121 285 509
99 168 706
105 145 989
112 157 1300
149 185 1611
184 216 1904
221 246 2183
246 268 2393
264 283 2529
271 288 2577
275 292 2611
280 296 2644
285 299 2677
155 606 126
154 602 158
145 581 230
140 566 372
136 539 557
134 457 774
115 247 1015
115 184 1303
151 212 1617
184 241 1910
223 271 2190
248 293 2400
266 308 2536
273 313 2585
278 317 2619
282 321 2653
287 324 2685
215 886 187
215 884 214
213 879 248
205 868 380
201 853 585
199 819 836
186 717 1108
160 490 1365
154 266 1624
184 266 1913
224 296 2195
250 319 2406
268 333 2542
275 339 2594
280 342 2627
284 346 2660
289 349 2693
305 1259 279
305 1260 307
306 1261 335
300 1253 375
285 1237 581
278 1214 879
274 1173 1195
269 1085 1487
254 908 1758
227 607 1986
228 370 2204
252 345 2407
270 358 2546
278 364 2602
282 367 2635
287 371 2668
291 375 2701
419 1660 388
419 1661 415
419 1662 443
414 1657 467
401 1643 536
373 1615 882
368 1594 1252
365 1550 1573
362 1472 1867
353 1345 2135
333 1141 2362
314 896 2517
306 726 2620
300 593 2653
303 584 2683
307 583 2714
310 581 2746
537 2069 509
536 2068 534
535 2066 558
530 2059 580
524 2048 602
486 2010 827
463 1992 1270
460 1968 1633
455 1918 1938
450 1843 2215
447 1750 2467
442 1657 2654
437 1585 2775
434 1539 2837
432 1517 2865
433 1509 2896
433 1498 2927
650 2470 636
649 2469 661
648 2468 686
643 2461 706
637 2451 725
619 2421 796
565 2372 1245
554 2361 1666
550 2327 1997
543 2273 2284
541 2209 2538
540 2149 2727
538 2104 2854
537 2078 2932
537 2067 2966
538 2063 2997
539 2058 3028
761 2846 756
759 2844 781
758 2842 805
752 2835 826
746 2825 846
739 2811 865
680 2736 1185
645 2710 1665
639 2689 2033
632 2647 2332
624 2594 2586
623 2551 2778
624 2522 2910
625 2505 2993
625 2496 3041
626 2493 3074
627 2489 3105
839 3107 839
838 3107 864
837 3107 890
833 3101 911
828 3095 932
823 3087 953
777 3017 1146
720 2970 1647
706 2956 2046
703 2929 2364
694 2883 2625
687 2843 2816
687 2820 2944
688 2807 3030
690 2803 3086
692 2802 3128
693 2799 3162
859 3173 860
858 3173 885
857 3173 910
853 3168 932
849 3162 953
844 3157 975
821 3124 1084
750 3062 1613
736 3070 2040
740 3080 2373
740 3067 2646
735 3038 2846
730 3013 2976
730 3000 3061
732 2996 3117
733 2994 3159
735 2992 3203
873 3218 874
872 3218 899
871 3217 925
867 3213 946
862 3207 967
858 3202 989
839 3177 1085
764 3103 1589
747 3110 2031
751 3122 2370
755 3129 2651
759 3135 2860
760 3131 2999
758 3121 3083
758 3115 3138
760 3114 3180
761 3112 3226
887 3262 888
886 3262 913
884 3262 939
881 3258 961
877 3253 982
872 3247 1003
854 3224 1098
778 3144 1583
758 3150 2031
761 3162 2373
766 3170 2655
770 3176 2867
772 3180 3008
773 3182 3096
774 3182 3152
775 3182 3194
777 3183 3240
900 3307 903
899 3307 928
898 3306 953
894 3302 975
891 3298 996
886 3293 1018
869 3271 1112
791 3186 1587
770 3191 2036
771 3203 2379
776 3212 2662
780 3218 2875
783 3221 3016
784 3223 3106
784 3223 3162
785 3224 3203
787 3225 3249
914 3351 917
913 3351 942
912 3351 968
908 3347 989
904 3342 1011
900 3338 1032
884 3317 1125
805 3227 1589
781 3232 2039
781 3243 2384
787 3252 2669
791 3259 2883
793 3262 3025
795 3264 3116
795 3265 3171
795 3265 3213
796 3266 3258
266 22 19
269 24 79
272 25 173
273 30 297
275 41 465
268 56 693
221 69 968
143 74 1266
159 97 1575
199 131 1871
232 160 2144
257 184 2353
275 199 2489
281 205 2537
286 208 2570
291 212 2603
296 216 2636
269 97 24
268 87 82
269 74 178
267 58 300
269 67 469
260 82 696
211 95 975
142 103 1279
165 129 1588
204 161 1885
237 190 2158
262 212 2367
279 227 2502
285 232 2550
290 236 2584
295 240 2617
