滤镜资源/Professional Luts Collection/Triune-Digital-Cinematic-LUTs/3D LUTs (3DL)/ALEXA/Saving Private Ryan - Alexa.3dl
# Created by Benjamin (IWLTBAP) : http://luts.iwltbap.com
# Copyright: (C) Copyright 2016 Triune Films and IWLTBAP
# Blockbuster LUTs Pack
0 128 256 384 512 640 768 896 1023
5 16 15
8 10 162
23 25 437
55 62 963
98 101 1589
168 166 2156
211 205 2502
221 213 2582
231 221 2649
37 255 55
26 190 187
32 106 456
60 115 976
101 155 1602
172 217 2170
215 254 2516
225 263 2597
235 270 2665
111 616 135
98 578 226
93 535 551
73 245 1007
105 209 1614
176 267 2184
219 304 2531
229 313 2613
239 320 2680
261 1255 277
254 1246 326
239 1227 573
232 1167 1190
212 904 1753
181 365 2200
223 355 2541
234 364 2630
243 371 2697
489 2059 502
480 2046 546
469 2031 591
419 1981 1264
413 1910 1933
405 1743 2463
395 1578 2770
390 1510 2860
391 1492 2922
713 2836 749
703 2823 790
693 2806 831
630 2721 1175
596 2680 2028
580 2585 2580
581 2513 2903
582 2488 3034
584 2481 3098
813 3166 853
805 3156 896
796 3145 938
768 3104 1067
691 3059 2036
697 3058 2642
687 3004 2970
688 2987 3110
692 2982 3196
841 3256 881
833 3247 924
824 3236 967
801 3206 1082
713 3140 2027
722 3161 2651
729 3171 3002
731 3173 3147
733 3173 3235
868 3345 910
860 3336 953
852 3327 996
831 3299 1109
735 3222 2036
742 3241 2664
749 3253 3019
751 3256 3166
752 3256 3252
155 13 11
157 18 172
152 32 450
103 64 963
139 99 1579
211 162 2148
253 201 2493
264 210 2574
274 217 2640
156 225 35
145 190 195
129 110 466
102 118 983
147 159 1604
220 221 2176
261 258 2521
273 266 2602
282 274 2669
155 606 126
145 581 230
136 539 557
115 247 1015
151 212 1617
223 271 2190
266 308 2536
278 317 2619
287 324 2685
305 1259 279
306 1261 335
285 1237 581
274 1173 1195
254 908 1758
228 370 2204
270 358 2546
282 367 2635
291 375 2701
537 2069 509
535 2066 558
524 2048 602
463 1992 1270
455 1918 1938
447 1750 2467
437 1585 2775
432 1517 2865
433 1498 2927
761 2846 756
758 2842 805
746 2825 846
680 2736 1185
639 2689 2033
624 2594 2586
624 2522 2910
625 2496 3041
627 2489 3105
859 3173 860
857 3173 910
849 3162 953
821 3124 1084
736 3070 2040
740 3067 2646
730 3013 2976
732 2996 3117
735 2992 3203
887 3262 888
884 3262 939
877 3253 982
854 3224 1098
758 3150 2031
766 3170 2655
772 3180 3008
774 3182 3152
777 3183 3240
914 3351 917
912 3351 968
904 3342 1011
884 3317 1125
781 3232 2039
787 3252 2669
793 3262 3025
795 3265 3171
796 3266 3258
443 42 37
463 47 202
457 54 484
440 84 993
274 99 1566
254 159 2140
297 197 2485
308 207 2566
319 214 2633
468 233 54
474 207 225
452 124 496
426 137 1002
262 157 1588
263 217 2168
306 254 2512
317 263 2593
327 270 2660
455 615 128
466 614 256
454 574 588
364 255 1025
218 216 1616
271 275 2195
315 312 2541
327 321 2624
336 328 2690
363 1265 282
363 1266 338
338 1248 593
317 1178 1200
296 910 1763
276 373 2210
320 363 2551
333 372 2640
342 379 2707
584 2079 515
583 2076 566
580 2068 615
508 2003 1276
497 1925 1944
489 1756 2471
480 1591 2780
475 1523 2871
476 1504 2932
810 2856 763
806 2854 813
802 2847 863
732 2751 1196
683 2698 2037
667 2603 2593
667 2530 2917
669 2504 3049
670 2497 3112
906 3179 866
903 3179 917
901 3178 968
874 3144 1102
782 3081 2045
784 3077 2652
774 3022 2983
775 3004 3123
779 3001 3209
933 3267 894
931 3268 945
928 3267 996
907 3242 1114
805 3162 2036
810 3181 2661
816 3190 3015
818 3192 3160
821 3193 3247
961 3357 923
959 3358 975
956 3357 1026
936 3335 1141
828 3245 2044
831 3263 2675
837 3272 3031
839 3275 3179
840 3276 3264
1127 144 150
1127 143 308
1118 144 574
1079 145 1047
1059 173 1636
983 206 2174
893 225 2499
861 230 2576
856 235 2642
1180 269 162
1165 236 316
1134 197 579
1092 196 1056
1063 225 1651
975 256 2188
885 275 2516
852 280 2593
847 285 2660
1274 698 228
1288 702 374
1253 644 665
1102 295 1071
1049 275 1660
947 305 2202
857 326 2534
821 330 2613
814 336 2678
1229 1363 354
1239 1365 410
1280 1385 701
1156 1325 1315
984 1006 1831
786 392 2218
682 370 2546
659 378 2634
656 384 2700
965 2136 558
966 2139 613
959 2134 666
829 2083 1328
674 1966 1975
569 1767 2481
532 1593 2786
517 1521 2875
518 1502 2937
858 2864 770
855 2862 820
851 2856 870
784 2764 1210
727 2705 2044
711 2611 2600
710 2535 2924
712 2510 3056
714 2503 3120
953 3184 871
950 3186 923
948 3185 975
927 3162 1121
829 3095 2052
829 3087 2659
818 3031 2991
819 3012 3131
822 3009 3216
980 3274 899
977 3274 951
975 3275 1004
959 3259 1130
853 3176 2043
856 3193 2668
862 3202 3023
863 3203 3168
866 3203 3255
1008 3362 927
1005 3364 981
1003 3365 1034
989 3351 1157
877 3259 2051
876 3274 2682
882 3283 3039
884 3286 3187
885 3287 3272
1949 280 323
1950 278 458
1972 281 684
1925 277 1143
1845 266 1695
1846 302 2258
1825 324 2592
1813 328 2666
1809 332 2729
1990 338 330
1977 330 462
2000 334 693
1945 328 1154
1865 317 1707
1864 355 2277
1833 375 2609
1816 378 2681
1811 382 2744
2129 718 367
2131 717 530
2130 642 762
1964 383 1165
1882 369 1719
1874 408 2296
1831 426 2625
1811 428 2697
1803 431 2759
2258 1454 489
2260 1459 547
2277 1490 865
2252 1452 1433
2000 1042 1878
1832 476 2307
1776 471 2629
1753 473 2707
1742 477 2769
2232 2258 672
2237 2265 728
2240 2266 784
2228 2298 1516
2123 2234 2171
1929 2025 2659
1824 1813 2929
1781 1723 3006
1767 1696 3065
2141 3015 889
2146 3020 943
2148 3022 999
2102 3017 1446
1934 2972 2222
1645 2833 2752
1521 2729 3061
1487 2694 3189
1480 2685 3253
1754 3286 941
1756 3291 997
1753 3294 1055
1683 3293 1254
1479 3246 2143
1230 3199 2734
1116 3116 3064
1077 3083 3194
1064 3073 3272
1625 3356 957
1627 3359 1012
1621 3361 1069
1573 3361 1222
1349 3294 2109
1082 3261 2714
1047 3258 3065
1042 3254 3209
1040 3247 3293
1610 3437 980
1609 3439 1035
1601 3440 1092
1549 3440 1238
1312 3363 2110
1071 3333 2719
1059 3336 3077
1055 3336 3224
1054 3335 3309
2697 412 503
2714 415 622
2757 423 811
2751 423 1220
2612 400 1785
2559 393 2296
2549 402 2636
2543 406 2714
2541 410 2782
2734 466 510
2740 465 628
2785 473 820
2784 474 1231
2640 452 1801
2583 444 2311
2571 454 2655
2563 458 2735
2559 463 2803
2822 635 522
2825 613 652
2832 564 832
2820 527 1238
2668 505 1816
2607 496 2327
2590 508 2676
2578 511 2756
2571 515 2822
3000 1517 607
3005 1528 689
3049 1564 1026
3105 1459 1497
2846 1051 1955
2602 545 2335
2579 559 2689
2561 562 2774
2551 566 2839
3114 2313 773
3113 2321 831
3111 2326 897
3097 2419 1680
3077 2346 2286
2874 2093 2707
2712 1842 2984
2664 1744 3058
2645 1714 3116
3071 3037 941
3075 3042 995
3077 3045 1050
3059 3088 1553
3033 3109 2365
2968 3070 2943
2848 2967 3252
2825 2943 3383
2821 2939 3449
3013 3371 1029
3017 3379 1085
3020 3388 1144
3016 3421 1405
2998 3503 2385
2928 3529 2991
2829 3453 3328
2801 3428 3458
2793 3421 3532
2987 3453 1050
2992 3462 1107
2993 3471 1165
2987 3493 1339
2967 3574 2376
2890 3629 2988
2787 3608 3334
2770 3598 3477
2766 3592 3557
2993 3536 1073
2997 3544 1130
2997 3552 1188
2991 3569 1356
2972 3650 2386
2889 3700 2996
2776 3674 3339
2762 3677 3484
2764 3679 3569
2870 442 570
2889 446 675
2937 455 854
2967 461 1245
2813 437 1812
2784 432 2321
2761 432 2638
2760 434 2714
2757 435 2782
2901 494 575
2916 495 681
2964 505 861
3001 512 1255
2842 489 1828
2811 483 2338
2786 482 2654
2786 485 2732
2783 487 2802
2962 578 579
2956 568 681
2989 557 863
3039 564 1263
2875 543 1844
2843 537 2355
2814 536 2675
2810 538 2754
2806 540 2825
3170 1501 633
3179 1519 755
3234 1546 1073
3318 1401 1494
3051 986 1955
2874 592 2366
2843 591 2692
2834 593 2778
2829 595 2848
3411 2322 804
3412 2330 861
3415 2338 945
3399 2439 1734
3432 2350 2312
3252 2104 2744
3120 1843 3006
3073 1728 3078
3054 1692 3137
3599 3045 971
3599 3053 1026
3596 3059 1084
3545 3130 1644
3540 3177 2444
3516 3129 3008
3422 3023 3303
3379 2985 3414
3370 2979 3475
3538 3387 1061
3539 3394 1116
3538 3402 1173
3540 3442 1466
3547 3543 2430
3534 3586 3064
3499 3554 3411
3490 3547 3546
3488 3547 3619
3523 3471 1083
3525 3479 1138
3523 3486 1195
3522 3507 1371
3530 3615 2421
3527 3703 3072
3505 3731 3432
3486 3722 3567
3488 3724 3648
3530 3554 1104
3530 3562 1160
3528 3568 1216
3527 3585 1387
3539 3692 2431
3535 3775 3080
3510 3803 3438
3491 3811 3574
3491 3818 3660
2952 457 593
2971 460 695
3020 470 871
3062 477 1254
2896 452 1821
2868 447 2332
2844 446 2642
2833 444 2714
2830 445 2782
2980 507 598
2997 509 700
3044 518 878
3095 527 1264
2926 504 1836
2897 499 2347
2871 496 2658
2859 495 2731
2857 497 2801
3032 582 600
3027 571 697
3065 567 878
3131 578 1272
2960 558 1851
2929 553 2364
2901 550 2679
2886 548 2752
2882 550 2823
3241 1496 646
3252 1516 781
3308 1537 1087
3396 1380 1493
3129 972 1954
2960 608 2374
2931 605 2697
2911 602 2776
2906 604 2847
3497 2324 812
3497 2331 869
3501 2341 959
3480 2440 1746
3524 2343 2312
3336 2100 2750
3209 1840 3010
3156 1719 3077
3132 1679 3136
3682 3045 977
3680 3054 1034
3678 3060 1092
3622 3137 1664
3619 3186 2457
3601 3136 3018
3540 3037 3317
3491 2993 3423
3479 2984 3480
3657 3392 1071
3659 3401 1127
3657 3409 1184
3656 3452 1488
3683 3561 2450
3693 3599 3078
3684 3571 3431
3672 3555 3554
3670 3554 3625
3657 3476 1093
3658 3484 1149
3656 3492 1206
3659 3514 1382
3694 3631 2437
3711 3711 3077
3704 3746 3450
3695 3739 3585
3698 3743 3664
3671 3560 1116
3671 3567 1171
3670 3574 1227
3675 3592 1399
3709 3704 2444
3723 3783 3084
3716 3824 3462
3708 3835 3599
3705 3842 3679
3032 470 609
3051 474 709
3097 483 882
3153 492 1260
2985 468 1828
2950 462 2340
2926 459 2648
2915 458 2719
2903 456 2783
3058 520 614
3075 523 714
3121 531 890
3185 542 1270
3017 520 1841
2981 514 2356
2954 510 2665
2943 509 2737
2929 507 2801
3103 590 613
3099 580 709
3141 580 890
3219 593 1277
3052 574 1854
3014 568 2372
2985 564 2686
2971 562 2758
2955 559 2822
3315 1499 658
3326 1520 797
3383 1538 1098
3476 1376 1496
3213 976 1955
3046 624 2382
3016 618 2703
3000 616 2781
2981 613 2845
3584 2329 820
3585 2337 878
3589 2347 969
3560 2444 1754
3616 2340 2313
3422 2101 2756
3300 1846 3016
3246 1726 3082
3217 1681 3138
3763 3047 984
3762 3056 1041
3760 3063 1100
3697 3144 1677
3696 3195 2468
3677 3144 3026
3630 3051 3328
3592 3009 3435
3568 2993 3487
3734 3398 1078
3736 3407 1135
3735 3416 1193
3737 3459 1500
3760 3572 2461
3766 3606 3085
3758 3580 3441
3751 3565 3562
3744 3561 3629
3734 3482 1101
3736 3490 1158
3735 3499 1215
3735 3521 1393
3770 3642 2448
3786 3720 3085
3789 3750 3458
3792 3748 3594
3788 3746 3665
3740 3562 1120
3740 3570 1176
3738 3577 1233
3743 3596 1404
3781 3710 2449
3796 3787 3087
3798 3821 3461
3802 3838 3603
3810 3852 3687
